FedericoMungari/DigitalTwin_service/01_WiredScenario/Output/Output_script/script_rosapi_2_output_robots10_freq0_4.txt
timestamp,date,node,latency,joint_1,joint_2,joint_3,joint_4,joint_5,joint_6
1641220953980648960,2022-01-03-14:42:33,10.1.1.5,172,-0.010,-0.010,-0.010,0.000,0.000,0.000
1641220954180608000,2022-01-03-14:42:34,10.1.1.5,172,-0.020,-0.020,-0.020,0.000,0.000,0.000
1641220954380492800,2022-01-03-14:42:34,10.1.1.5,171,-0.030,-0.030,-0.030,0.000,0.000,0.000
1641220954580281856,2022-01-03-14:42:34,10.1.1.5,170,-0.040,-0.040,-0.040,0.000,0.000,0.000
1641220954780342016,2022-01-03-14:42:34,10.1.1.5,169,-0.050,-0.050,-0.050,0.000,0.000,0.000
1641220954979890944,2022-01-03-14:42:34,10.1.1.5,168,-0.060,-0.060,-0.060,0.000,0.000,0.000
1641220955180125952,2022-01-03-14:42:35,10.1.1.5,167,-0.070,-0.070,-0.070,0.000,0.000,0.000
1641220955379574016,2022-01-03-14:42:35,10.1.1.5,166,-0.080,-0.080,-0.080,0.000,0.000,0.000
1641220955579591936,2022-01-03-14:42:35,10.1.1.5,165,-0.090,-0.090,-0.090,0.000,0.000,0.000
1641220955779186944,2022-01-03-14:42:35,10.1.1.5,164,-0.100,-0.100,-0.100,0.000,0.000,0.000
1641220955998467840,2022-01-03-14:42:35,10.1.1.5,183,-0.110,-0.110,-0.110,0.000,0.000,0.000
1641220956197836032,2022-01-03-14:42:36,10.1.1.5,182,-0.120,-0.120,-0.120,0.000,0.000,0.000
1641220956397314048,2022-01-03-14:42:36,10.1.1.5,181,-0.130,-0.130,-0.130,0.000,0.000,0.000
1641220956597414144,2022-01-03-14:42:36,10.1.1.5,180,-0.140,-0.140,-0.140,0.000,0.000,0.000
1641220956796817920,2022-01-03-14:42:36,10.1.1.5,179,-0.150,-0.150,-0.150,0.000,0.000,0.000
1641220956997694976,2022-01-03-14:42:36,10.1.1.5,179,-0.160,-0.160,-0.160,0.000,0.000,0.000
1641220957196416000,2022-01-03-14:42:37,10.1.1.5,175,-0.170,-0.170,-0.170,0.000,0.000,0.000
1641220957396160000,2022-01-03-14:42:37,10.1.1.5,174,-0.180,-0.180,-0.180,0.000,0.000,0.000
1641220957596133120,2022-01-03-14:42:37,10.1.1.5,174,-0.190,-0.190,-0.190,0.000,0.000,0.000
1641220957796751104,2022-01-03-14:42:37,10.1.1.5,174,-0.200,-0.200,-0.200,0.000,0.000,0.000
1641220957995933952,2022-01-03-14:42:37,10.1.1.5,172,-0.210,-0.210,-0.210,0.000,0.000,0.000
1641220958194923008,2022-01-03-14:42:38,10.1.1.5,170,-0.220,-0.220,-0.220,0.000,0.000,0.000
1641220958394614016,2022-01-03-14:42:38,10.1.1.5,169,-0.230,-0.230,-0.230,0.000,0.000,0.000
1641220958594650112,2022-01-03-14:42:38,10.1.1.5,167,-0.240,-0.240,-0.240,0.000,0.000,0.000
1641220958793430016,2022-01-03-14:42:38,10.1.1.5,165,-0.250,-0.250,-0.250,0.000,0.000,0.000
1641220958993243904,2022-01-03-14:42:38,10.1.1.5,164,-0.260,-0.260,-0.260,0.000,0.000,0.000
1641220959194006016,2022-01-03-14:42:39,10.1.1.5,164,-0.270,-0.270,-0.270,0.000,0.000,0.000
1641220959392901888,2022-01-03-14:42:39,10.1.1.5,163,-0.280,-0.280,-0.280,0.000,0.000,0.000
1641220959592276224,2022-01-03-14:42:39,10.1.1.5,162,-0.290,-0.290,-0.290,0.000,0.000,0.000
1641220959792023040,2022-01-03-14:42:39,10.1.1.5,161,-0.300,-0.300,-0.300,0.000,0.000,0.000
1641220959992402944,2022-01-03-14:42:39,10.1.1.5,161,-0.310,-0.310,-0.310,0.000,0.000,0.000
1641220960192089088,2022-01-03-14:42:40,10.1.1.5,159,-0.320,-0.320,-0.320,0.000,0.000,0.000
1641220960392386816,2022-01-03-14:42:40,10.1.1.5,158,-0.330,-0.330,-0.330,0.000,0.000,0.000
1641220960591010048,2022-01-03-14:42:40,10.1.1.5,156,-0.340,-0.340,-0.340,0.000,0.000,0.000
1641220960810301184,2022-01-03-14:42:40,10.1.1.5,175,-0.350,-0.350,-0.350,0.000,0.000,0.000
1641220961011080960,2022-01-03-14:42:41,10.1.1.5,175,-0.360,-0.360,-0.360,0.000,0.000,0.000
1641220961213843968,2022-01-03-14:42:41,10.1.1.5,176,-0.370,-0.370,-0.370,0.000,0.000,0.000
1641220961413101056,2022-01-03-14:42:41,10.1.1.5,174,-0.380,-0.380,-0.380,0.000,0.000,0.000
1641220961614142976,2022-01-03-14:42:41,10.1.1.5,174,-0.390,-0.390,-0.390,0.000,0.000,0.000
1641220961815900928,2022-01-03-14:42:41,10.1.1.5,175,-0.400,-0.400,-0.400,0.000,0.000,0.000
1641220962016060160,2022-01-03-14:42:42,10.1.1.5,174,-0.410,-0.410,-0.410,0.000,0.000,0.000
1641220962241996032,2022-01-03-14:42:42,10.1.1.5,199,-0.420,-0.420,-0.420,0.000,0.000,0.000
1641220962417538048,2022-01-03-14:42:42,10.1.1.5,174,-0.430,-0.430,-0.430,0.000,0.000,0.000
1641220962618792960,2022-01-03-14:42:42,10.1.1.5,173,-0.440,-0.440,-0.440,0.000,0.000,0.000
1641220962819742976,2022-01-03-14:42:42,10.1.1.5,173,-0.450,-0.450,-0.450,0.000,0.000,0.000
1641220963019907840,2022-01-03-14:42:43,10.1.1.5,173,-0.460,-0.460,-0.460,0.000,0.000,0.000
1641220963224619008,2022-01-03-14:42:43,10.1.1.5,174,-0.470,-0.470,-0.470,0.000,0.000,0.000
1641220963420800000,2022-01-03-14:42:43,10.1.1.5,172,-0.480,-0.480,-0.480,0.000,0.000,0.000
1641220963642129920,2022-01-03-14:42:43,10.1.1.5,186,-0.490,-0.490,-0.490,0.000,0.000,0.000
1641220963842892032,2022-01-03-14:42:43,10.1.1.5,186,-0.480,-0.480,-0.480,0.000,0.000,0.000
1641220964043464960,2022-01-03-14:42:44,10.1.1.5,186,-0.470,-0.470,-0.470,0.000,0.000,0.000
1641220964244324096,2022-01-03-14:42:44,10.1.1.5,186,-0.460,-0.460,-0.460,0.000,0.000,0.000
1641220964444282112,2022-01-03-14:42:44,10.1.1.5,186,-0.450,-0.450,-0.450,0.000,0.000,0.000
1641220964645196800,2022-01-03-14:42:44,10.1.1.5,186,-0.440,-0.440,-0.440,0.000,0.000,0.000
1641220964852448000,2022-01-03-14:42:44,10.1.1.5,187,-0.430,-0.430,-0.430,0.000,0.000,0.000
1641220965046328064,2022-01-03-14:42:45,10.1.1.5,180,-0.420,-0.420,-0.420,0.000,0.000,0.000
1641220965251780096,2022-01-03-14:42:45,10.1.1.5,185,-0.410,-0.410,-0.410,0.000,0.000,0.000
1641220965447767040,2022-01-03-14:42:45,10.1.1.5,180,-0.400,-0.400,-0.400,0.000,0.000,0.000
1641220965650731008,2022-01-03-14:42:45,10.1.1.5,182,-0.390,-0.390,-0.390,0.000,0.000,0.000
1641220965848284928,2022-01-03-14:42:45,10.1.1.5,179,-0.380,-0.380,-0.380,0.000,0.000,0.000
1641220966049150976,2022-01-03-14:42:46,10.1.1.5,179,-0.370,-0.370,-0.370,0.000,0.000,0.000
1641220966249242112,2022-01-03-14:42:46,10.1.1.5,179,-0.360,-0.360,-0.360,0.000,0.000,0.000
1641220966449423104,2022-01-03-14:42:46,10.1.1.5,178,-0.350,-0.350,-0.350,0.000,0.000,0.000
1641220966649553920,2022-01-03-14:42:46,10.1.1.5,177,-0.340,-0.340,-0.340,0.000,0.000,0.000
1641220966853148928,2022-01-03-14:42:46,10.1.1.5,180,-0.330,-0.330,-0.330,0.000,0.000,0.000
1641220967050829824,2022-01-03-14:42:47,10.1.1.5,176,-0.320,-0.320,-0.320,0.000,0.000,0.000
1641220967250583808,2022-01-03-14:42:47,10.1.1.5,176,-0.310,-0.310,-0.310,0.000,0.000,0.000
1641220967471796992,2022-01-03-14:42:47,10.1.1.5,196,-0.300,-0.300,-0.300,0.000,0.000,0.000
1641220967672459008,2022-01-03-14:42:47,10.1.1.5,196,-0.290,-0.290,-0.290,0.000,0.000,0.000
1641220967873838848,2022-01-03-14:42:47,10.1.1.5,196,-0.280,-0.280,-0.280,0.000,0.000,0.000
1641220968073563136,2022-01-03-14:42:48,10.1.1.5,195,-0.270,-0.270,-0.270,0.000,0.000,0.000
1641220968273444864,2022-01-03-14:42:48,10.1.1.5,195,-0.260,-0.260,-0.260,0.000,0.000,0.000
1641220968472637952,2022-01-03-14:42:48,10.1.1.5,193,-0.250,-0.250,-0.250,0.000,0.000,0.000
1641220968674076928,2022-01-03-14:42:48,10.1.1.5,194,-0.240,-0.240,-0.240,0.000,0.000,0.000
1641220968881291008,2022-01-03-14:42:48,10.1.1.5,200,-0.230,-0.230,-0.230,0.000,0.000,0.000
1641220969073431040,2022-01-03-14:42:49,10.1.1.5,190,-0.220,-0.220,-0.220,0.000,0.000,0.000
1641220969283333120,2022-01-03-14:42:49,10.1.1.5,199,-0.210,-0.210,-0.210,0.000,0.000,0.000
1641220969478221056,2022-01-03-14:42:49,10.1.1.5,194,-0.200,-0.200,-0.200,0.000,0.000,0.000
1641220969674820864,2022-01-03-14:42:49,10.1.1.5,190,-0.190,-0.190,-0.190,0.000,0.000,0.000
1641220969874957056,2022-01-03-14:42:49,10.1.1.5,189,-0.180,-0.180,-0.180,0.000,0.000,0.000
1641220970074088960,2022-01-03-14:42:50,10.1.1.5,186,-0.170,-0.170,-0.170,0.000,0.000,0.000
1641220970275953152,2022-01-03-14:42:50,10.1.1.5,185,-0.160,-0.160,-0.160,0.000,0.000,0.000
1641220970474773760,2022-01-03-14:42:50,10.1.1.5,182,-0.150,-0.150,-0.150,0.000,0.000,0.000
1641220970677722880,2022-01-03-14:42:50,10.1.1.5,182,-0.140,-0.140,-0.140,0.000,0.000,0.000
1641220970876274176,2022-01-03-14:42:50,10.1.1.5,182,-0.130,-0.130,-0.130,0.000,0.000,0.000
1641220971074994176,2022-01-03-14:42:51,10.1.1.5,180,-0.120,-0.120,-0.120,0.000,0.000,0.000
1641220971295213824,2022-01-03-14:42:51,10.1.1.5,195,-0.110,-0.110,-0.110,0.000,0.000,0.000
1641220971494281984,2022-01-03-14:42:51,10.1.1.5,194,-0.100,-0.100,-0.100,0.000,0.000,0.000
1641220971695764992,2022-01-03-14:42:51,10.1.1.5,195,-0.090,-0.090,-0.090,0.000,0.000,0.000
1641220971894464000,2022-01-03-14:42:51,10.1.1.5,193,-0.080,-0.080,-0.080,0.000,0.000,0.000
1641220972295085824,2022-01-03-14:42:52,10.1.1.5,192,-0.060,-0.060,-0.060,0.000,0.000,0.000
1641220972496144128,2022-01-03-14:42:52,10.1.1.5,193,-0.050,-0.050,-0.050,0.000,0.000,0.000
1641220972694760960,2022-01-03-14:42:52,10.1.1.5,191,-0.040,-0.040,-0.040,0.000,0.000,0.000
1641220972895411968,2022-01-03-14:42:52,10.1.1.5,191,-0.030,-0.030,-0.030,0.000,0.000,0.000
1641220973098680064,2022-01-03-14:42:53,10.1.1.5,193,-0.020,-0.020,-0.020,0.000,0.000,0.000
1641220973294745088,2022-01-03-14:42:53,10.1.1.5,189,-0.010,-0.010,-0.010,0.000,0.000,0.000
1641220973494095104,2022-01-03-14:42:53,10.1.1.5,188,0.000,0.000,0.000,0.000,0.000,0.000
1641220973694994944,2022-01-03-14:42:53,10.1.1.5,189,-0.010,-0.010,-0.010,0.000,0.000,0.000
1641220973897084928,2022-01-03-14:42:53,10.1.1.5,189,-0.020,-0.020,-0.020,0.000,0.000,0.000
1641220974094841856,2022-01-03-14:42:54,10.1.1.5,186,-0.030,-0.030,-0.030,0.000,0.000,0.000
1641220974294109952,2022-01-03-14:42:54,10.1.1.5,185,-0.040,-0.040,-0.040,0.000,0.000,0.000
1641220974494309888,2022-01-03-14:42:54,10.1.1.5,185,-0.050,-0.050,-0.050,0.000,0.000,0.000
1641220974693816832,2022-01-03-14:42:54,10.1.1.5,183,-0.060,-0.060,-0.060,0.000,0.000,0.000
1641220974893626880,2022-01-03-14:42:54,10.1.1.5,183,-0.070,-0.070,-0.070,0.000,0.000,0.000
1641220975096769024,2022-01-03-14:42:55,10.1.1.5,185,-0.080,-0.080,-0.080,0.000,0.000,0.000
1641220975293425920,2022-01-03-14:42:55,10.1.1.5,182,-0.090,-0.090,-0.090,0.000,0.000,0.000
1641220975494110208,2022-01-03-14:42:55,10.1.1.5,182,-0.100,-0.100,-0.100,0.000,0.000,0.000
1641220975693937152,2022-01-03-14:42:55,10.1.1.5,181,-0.110,-0.110,-0.110,0.000,0.000,0.000
1641220975893448960,2022-01-03-14:42:55,10.1.1.5,180,-0.120,-0.120,-0.120,0.000,0.000,0.000
1641220976094187008,2022-01-03-14:42:56,10.1.1.5,180,-0.130,-0.130,-0.130,0.000,0.000,0.000
1641220976293086976,2022-01-03-14:42:56,10.1.1.5,178,-0.140,-0.140,-0.140,0.000,0.000,0.000
1641220976513801216,2022-01-03-14:42:56,10.1.1.5,195,-0.150,-0.150,-0.150,0.000,0.000,0.000
1641220976712652032,2022-01-03-14:42:56,10.1.1.5,192,-0.160,-0.160,-0.160,0.000,0.000,0.000
1641220976913346048,2022-01-03-14:42:56,10.1.1.5,192,-0.170,-0.170,-0.170,0.000,0.000,0.000
1641220977112198144,2022-01-03-14:42:57,10.1.1.5,191,-0.180,-0.180,-0.180,0.000,0.000,0.000
1641220977312376064,2022-01-03-14:42:57,10.1.1.5,190,-0.190,-0.190,-0.190,0.000,0.000,0.000
1641220977512433152,2022-01-03-14:42:57,10.1.1.5,190,-0.200,-0.200,-0.200,0.000,0.000,0.000
1641220977712726016,2022-01-03-14:42:57,10.1.1.5,189,-0.210,-0.210,-0.210,0.000,0.000,0.000
1641220977912349952,2022-01-03-14:42:57,10.1.1.5,187,-0.220,-0.220,-0.220,0.000,0.000,0.000
1641220978112056064,2022-01-03-14:42:58,10.1.1.5,186,-0.230,-0.230,-0.230,0.000,0.000,0.000
1641220978312688128,2022-01-03-14:42:58,10.1.1.5,186,-0.240,-0.240,-0.240,0.000,0.000,0.000
1641220978511044096,2022-01-03-14:42:58,10.1.1.5,184,-0.250,-0.250,-0.250,0.000,0.000,0.000
1641220978710319872,2022-01-03-14:42:58,10.1.1.5,183,-0.260,-0.260,-0.260,0.000,0.000,0.000
1641220978918169856,2022-01-03-14:42:58,10.1.1.5,186,-0.270,-0.270,-0.270,0.000,0.000,0.000
1641220979110748928,2022-01-03-14:42:59,10.1.1.5,182,-0.280,-0.280,-0.280,0.000,0.000,0.000
1641220979310224896,2022-01-03-14:42:59,10.1.1.5,180,-0.290,-0.290,-0.290,0.000,0.000,0.000
1641220979529946112,2022-01-03-14:42:59,10.1.1.5,192,-0.300,-0.300,-0.300,0.000,0.000,0.000
1641220979729552128,2022-01-03-14:42:59,10.1.1.5,191,-0.310,-0.310,-0.310,0.000,0.000,0.000
1641220979928962048,2022-01-03-14:42:59,10.1.1.5,190,-0.320,-0.320,-0.320,0.000,0.000,0.000
1641220980128696064,2022-01-03-14:43:00,10.1.1.5,189,-0.330,-0.330,-0.330,0.000,0.000,0.000
1641220980339021056,2022-01-03-14:43:00,10.1.1.5,199,-0.340,-0.340,-0.340,0.000,0.000,0.000
1641220980529607936,2022-01-03-14:43:00,10.1.1.5,189,-0.350,-0.350,-0.350,0.000,0.000,0.000
1641220980729505024,2022-01-03-14:43:00,10.1.1.5,186,-0.360,-0.360,-0.360,0.000,0.000,0.000
1641220980928112128,2022-01-03-14:43:00,10.1.1.5,185,-0.370,-0.370,-0.370,0.000,0.000,0.000
1641220981128081152,2022-01-03-14:43:01,10.1.1.5,184,-0.380,-0.380,-0.380,0.000,0.000,0.000
1641220981328017920,2022-01-03-14:43:01,10.1.1.5,182,-0.390,-0.390,-0.390,0.000,0.000,0.000
1641220981528498944,2022-01-03-14:43:01,10.1.1.5,182,-0.400,-0.400,-0.400,0.000,0.000,0.000
1641220981726929920,2022-01-03-14:43:01,10.1.1.5,178,-0.410,-0.410,-0.410,0.000,0.000,0.000
1641220981926804992,2022-01-03-14:43:01,10.1.1.5,173,-0.420,-0.420,-0.420,0.000,0.000,0.000
1641220982126230016,2022-01-03-14:43:02,10.1.1.5,172,-0.430,-0.430,-0.430,0.000,0.000,0.000
1641220982326576896,2022-01-03-14:43:02,10.1.1.5,171,-0.440,-0.440,-0.440,0.000,0.000,0.000
1641220982545785856,2022-01-03-14:43:02,10.1.1.5,190,-0.450,-0.450,-0.450,0.000,0.000,0.000
1641220982745358848,2022-01-03-14:43:02,10.1.1.5,189,-0.460,-0.460,-0.460,0.000,0.000,0.000
1641220982946004992,2022-01-03-14:43:02,10.1.1.5,189,-0.470,-0.470,-0.470,0.000,0.000,0.000
1641220983145656064,2022-01-03-14:43:03,10.1.1.5,188,-0.480,-0.480,-0.480,0.000,0.000,0.000
1641220983346363904,2022-01-03-14:43:03,10.1.1.5,187,-0.490,-0.490,-0.490,0.000,0.000,0.000
1641220983544972032,2022-01-03-14:43:03,10.1.1.5,182,-0.480,-0.480,-0.480,0.000,0.000,0.000
1641220983744412928,2022-01-03-14:43:03,10.1.1.5,181,-0.470,-0.470,-0.470,0.000,0.000,0.000
1641220983944536832,2022-01-03-14:43:03,10.1.1.5,179,-0.460,-0.460,-0.460,0.000,0.000,0.000
1641220984145766144,2022-01-03-14:43:04,10.1.1.5,180,-0.450,-0.450,-0.450,0.000,0.000,0.000
1641220984343610880,2022-01-03-14:43:04,10.1.1.5,176,-0.440,-0.440,-0.440,0.000,0.000,0.000
1641220984544066048,2022-01-03-14:43:04,10.1.1.5,175,-0.430,-0.430,-0.430,0.000,0.000,0.000
1641220984744141056,2022-01-03-14:43:04,10.1.1.5,174,-0.420,-0.420,-0.420,0.000,0.000,0.000
1641220984943089920,2022-01-03-14:43:04,10.1.1.5,171,-0.410,-0.410,-0.410,0.000,0.000,0.000
1641220985143657984,2022-01-03-14:43:05,10.1.1.5,171,-0.400,-0.400,-0.400,0.000,0.000,0.000
1641220985362788864,2022-01-03-14:43:05,10.1.1.5,185,-0.390,-0.390,-0.390,0.000,0.000,0.000
1641220985562042880,2022-01-03-14:43:05,10.1.1.5,184,-0.380,-0.380,-0.380,0.000,0.000,0.000
1641220985761751040,2022-01-03-14:43:05,10.1.1.5,183,-0.370,-0.370,-0.370,0.000,0.000,0.000
1641220985961729024,2022-01-03-14:43:05,10.1.1.5,182,-0.360,-0.360,-0.360,0.000,0.000,0.000
1641220986161954048,2022-01-03-14:43:06,10.1.1.5,181,-0.350,-0.350,-0.350,0.000,0.000,0.000
1641220986361156864,2022-01-03-14:43:06,10.1.1.5,180,-0.340,-0.340,-0.340,0.000,0.000,0.000
1641220986561243136,2022-01-03-14:43:06,10.1.1.5,179,-0.330,-0.330,-0.330,0.000,0.000,0.000
1641220986760700928,2022-01-03-14:43:06,10.1.1.5,178,-0.320,-0.320,-0.320,0.000,0.000,0.000
1641220986960432128,2022-01-03-14:43:06,10.1.1.5,176,-0.310,-0.310,-0.310,0.000,0.000,0.000
1641220987159704064,2022-01-03-14:43:07,10.1.1.5,175,-0.300,-0.300,-0.300,0.000,0.000,0.000
1641220987359719936,2022-01-03-14:43:07,10.1.1.5,174,-0.290,-0.290,-0.290,0.000,0.000,0.000
1641220987559814912,2022-01-03-14:43:07,10.1.1.5,173,-0.280,-0.280,-0.280,0.000,0.000,0.000
1641220987760260096,2022-01-03-14:43:07,10.1.1.5,173,-0.270,-0.270,-0.270,0.000,0.000,0.000
1641220987959783936,2022-01-03-14:43:07,10.1.1.5,172,-0.260,-0.260,-0.260,0.000,0.000,0.000
1641220988158905856,2022-01-03-14:43:08,10.1.1.5,170,-0.250,-0.250,-0.250,0.000,0.000,0.000
1641220988357733888,2022-01-03-14:43:08,10.1.1.5,168,-0.240,-0.240,-0.240,0.000,0.000,0.000
1641220988557945856,2022-01-03-14:43:08,10.1.1.5,168,-0.230,-0.230,-0.230,0.000,0.000,0.000
1641220988757543168,2022-01-03-14:43:08,10.1.1.5,166,-0.220,-0.220,-0.220,0.000,0.000,0.000
1641220988958572032,2022-01-03-14:43:08,10.1.1.5,166,-0.210,-0.210,-0.210,0.000,0.000,0.000
1641220989157203968,2022-01-03-14:43:09,10.1.1.5,164,-0.200,-0.200,-0.200,0.000,0.000,0.000
1641220989356105984,2022-01-03-14:43:09,10.1.1.5,162,-0.190,-0.190,-0.190,0.000,0.000,0.000
1641220989576698112,2022-01-03-14:43:09,10.1.1.5,169,-0.180,-0.180,-0.180,0.000,0.000,0.000
1641220989777007104,2022-01-03-14:43:09,10.1.1.5,169,-0.170,-0.170,-0.170,0.000,0.000,0.000
1641220989976151040,2022-01-03-14:43:09,10.1.1.5,167,-0.160,-0.160,-0.160,0.000,0.000,0.000
1641220990175892992,2022-01-03-14:43:10,10.1.1.5,165,-0.150,-0.150,-0.150,0.000,0.000,0.000
1641220990374681856,2022-01-03-14:43:10,10.1.1.5,163,-0.140,-0.140,-0.140,0.000,0.000,0.000
1641220990576941056,2022-01-03-14:43:10,10.1.1.5,165,-0.130,-0.130,-0.130,0.000,0.000,0.000
1641220990775640064,2022-01-03-14:43:10,10.1.1.5,163,-0.120,-0.120,-0.120,0.000,0.000,0.000
1641220990981259008,2022-01-03-14:43:10,10.1.1.5,162,-0.110,-0.110,-0.110,0.000,0.000,0.000
1641220991176269056,2022-01-03-14:43:11,10.1.1.5,163,-0.100,-0.100,-0.100,0.000,0.000,0.000
1641220991373435136,2022-01-03-14:43:11,10.1.1.5,159,-0.090,-0.090,-0.090,0.000,0.000,0.000
1641220991594959104,2022-01-03-14:43:11,10.1.1.5,177,-0.080,-0.080,-0.080,0.000,0.000,0.000
1641220991792571136,2022-01-03-14:43:11,10.1.1.5,168,-0.070,-0.070,-0.070,0.000,0.000,0.000
1641220991992183808,2022-01-03-14:43:11,10.1.1.5,167,-0.060,-0.060,-0.060,0.000,0.000,0.000
1641220992191600128,2022-01-03-14:43:12,10.1.1.5,166,-0.050,-0.050,-0.050,0.000,0.000,0.000
1641220992391810048,2022-01-03-14:43:12,10.1.1.5,166,-0.040,-0.040,-0.040,0.000,0.000,0.000
1641220992591783936,2022-01-03-14:43:12,10.1.1.5,165,-0.030,-0.030,-0.030,0.000,0.000,0.000
1641220992791757056,2022-01-03-14:43:12,10.1.1.5,164,-0.020,-0.020,-0.020,0.000,0.000,0.000
1641220992991328000,2022-01-03-14:43:12,10.1.1.5,162,-0.010,-0.010,-0.010,0.000,0.000,0.000
1641220993193344000,2022-01-03-14:43:13,10.1.1.5,163,0.000,0.000,0.000,0.000,0.000,0.000
1641220993394080000,2022-01-03-14:43:13,10.1.1.5,164,-0.010,-0.010,-0.010,0.000,0.000,0.000
1641220993594177024,2022-01-03-14:43:13,10.1.1.5,163,-0.020,-0.020,-0.020,0.000,0.000,0.000
1641220993795397888,2022-01-03-14:43:13,10.1.1.5,163,-0.030,-0.030,-0.030,0.000,0.000,0.000
1641220993996207104,2022-01-03-14:43:13,10.1.1.5,162,-0.040,-0.040,-0.040,0.000,0.000,0.000
1641220994196904960,2022-01-03-14:43:14,10.1.1.5,162,-0.050,-0.050,-0.050,0.000,0.000,0.000
1641220994417725184,2022-01-03-14:43:14,10.1.1.5,182,-0.060,-0.060,-0.060,0.000,0.000,0.000
1641220994618746112,2022-01-03-14:43:14,10.1.1.5,182,-0.070,-0.070,-0.070,0.000,0.000,0.000
1641220994819365888,2022-01-03-14:43:14,10.1.1.5,182,-0.080,-0.080,-0.080,0.000,0.000,0.000
1641220995020265216,2022-01-03-14:43:15,10.1.1.5,183,-0.090,-0.090,-0.090,0.000,0.000,0.000
1641220995220829952,2022-01-03-14:43:15,10.1.1.5,183,-0.100,-0.100,-0.100,0.000,0.000,0.000
1641220995421568000,2022-01-03-14:43:15,10.1.1.5,182,-0.110,-0.110,-0.110,0.000,0.000,0.000
1641220995622211840,2022-01-03-14:43:15,10.1.1.5,182,-0.120,-0.120,-0.120,0.000,0.000,0.000
1641220995823152128,2022-01-03-14:43:15,10.1.1.5,183,-0.130,-0.130,-0.130,0.000,0.000,0.000
1641220996023781120,2022-01-03-14:43:16,10.1.1.5,182,-0.140,-0.140,-0.140,0.000,0.000,0.000
1641220996224431104,2022-01-03-14:43:16,10.1.1.5,182,-0.150,-0.150,-0.150,0.000,0.000,0.000
1641220996425381888,2022-01-03-14:43:16,10.1.1.5,182,-0.160,-0.160,-0.160,0.000,0.000,0.000
1641220996625523968,2022-01-03-14:43:16,10.1.1.5,181,-0.170,-0.170,-0.170,0.000,0.000,0.000
1641220996827192064,2022-01-03-14:43:16,10.1.1.5,182,-0.180,-0.180,-0.180,0.000,0.000,0.000
1641220997026659072,2022-01-03-14:43:17,10.1.1.5,181,-0.190,-0.190,-0.190,0.000,0.000,0.000
1641220997227726848,2022-01-03-14:43:17,10.1.1.5,181,-0.200,-0.200,-0.200,0.000,0.000,0.000
1641220997428758016,2022-01-03-14:43:17,10.1.1.5,182,-0.210,-0.210,-0.210,0.000,0.000,0.000
1641220997628432896,2022-01-03-14:43:17,10.1.1.5,180,-0.220,-0.220,-0.220,0.000,0.000,0.000
1641220997829485824,2022-01-03-14:43:17,10.1.1.5,181,-0.230,-0.230,-0.230,0.000,0.000,0.000
1641220998030185984,2022-01-03-14:43:18,10.1.1.5,181,-0.240,-0.240,-0.240,0.000,0.000,0.000
1641220998230113024,2022-01-03-14:43:18,10.1.1.5,180,-0.250,-0.250,-0.250,0.000,0.000,0.000
1641220998449675008,2022-01-03-14:43:18,10.1.1.5,193,-0.260,-0.260,-0.260,0.000,0.000,0.000
1641220998651387904,2022-01-03-14:43:18,10.1.1.5,194,-0.270,-0.270,-0.270,0.000,0.000,0.000
1641220998851048960,2022-01-03-14:43:18,10.1.1.5,193,-0.280,-0.280,-0.280,0.000,0.000,0.000
1641220999051565824,2022-01-03-14:43:19,10.1.1.5,193,-0.290,-0.290,-0.290,0.000,0.000,0.000
1641220999251321088,2022-01-03-14:43:19,10.1.1.5,192,-0.300,-0.300,-0.300,0.000,0.000,0.000
1641220999451883008,2022-01-03-14:43:19,10.1.1.5,191,-0.310,-0.310,-0.310,0.000,0.000,0.000
1641220999651966976,2022-01-03-14:43:19,10.1.1.5,191,-0.320,-0.320,-0.320,0.000,0.000,0.000
1641220999852006912,2022-01-03-14:43:19,10.1.1.5,190,-0.330,-0.330,-0.330,0.000,0.000,0.000
1641221000053314048,2022-01-03-14:43:20,10.1.1.5,189,-0.340,-0.340,-0.340,0.000,0.000,0.000
1641221000252940800,2022-01-03-14:43:20,10.1.1.5,188,-0.350,-0.350,-0.350,0.000,0.000,0.000
1641221000453623040,2022-01-03-14:43:20,10.1.1.5,187,-0.360,-0.360,-0.360,0.000,0.000,0.000
1641221000653330176,2022-01-03-14:43:20,10.1.1.5,186,-0.370,-0.370,-0.370,0.000,0.000,0.000
1641221000855042816,2022-01-03-14:43:20,10.1.1.5,186,-0.380,-0.380,-0.380,0.000,0.000,0.000
1641221001054279168,2022-01-03-14:43:21,10.1.1.5,185,-0.390,-0.390,-0.390,0.000,0.000,0.000
1641221001254646016,2022-01-03-14:43:21,10.1.1.5,185,-0.400,-0.400,-0.400,0.000,0.000,0.000
1641221001454448896,2022-01-03-14:43:21,10.1.1.5,183,-0.410,-0.410,-0.410,0.000,0.000,0.000
1641221001654910976,2022-01-03-14:43:21,10.1.1.5,184,-0.420,-0.420,-0.420,0.000,0.000,0.000
1641221001860268032,2022-01-03-14:43:21,10.1.1.5,188,-0.430,-0.430,-0.430,0.000,0.000,0.000
1641221002068884992,2022-01-03-14:43:22,10.1.1.5,197,-0.440,-0.440,-0.440,0.000,0.000,0.000
1641221002254711040,2022-01-03-14:43:22,10.1.1.5,182,-0.450,-0.450,-0.450,0.000,0.000,0.000
1641221002455266048,2022-01-03-14:43:22,10.1.1.5,182,-0.460,-0.460,-0.460,0.000,0.000,0.000
1641221002875468032,2022-01-03-14:43:22,10.1.1.5,199,-0.480,-0.480,-0.480,0.000,0.000,0.000
1641221003076740864,2022-01-03-14:43:23,10.1.1.5,200,-0.490,-0.490,-0.490,0.000,0.000,0.000
1641221003275814144,2022-01-03-14:43:23,10.1.1.5,198,-0.480,-0.480,-0.480,0.000,0.000,0.000
1641221003475954176,2022-01-03-14:43:23,10.1.1.5,196,-0.470,-0.470,-0.470,0.000,0.000,0.000
1641221003676841984,2022-01-03-14:43:23,10.1.1.5,196,-0.460,-0.460,-0.460,0.000,0.000,0.000
1641221004076498944,2022-01-03-14:43:24,10.1.1.5,186,-0.440,-0.440,-0.440,0.000,0.000,0.000
1641221004280297984,2022-01-03-14:43:24,10.1.1.5,186,-0.430,-0.430,-0.430,0.000,0.000,0.000
1641221004479372032,2022-01-03-14:43:24,10.1.1.5,187,-0.420,-0.420,-0.420,0.000,0.000,0.000
1641221004675795968,2022-01-03-14:43:24,10.1.1.5,182,-0.410,-0.410,-0.410,0.000,0.000,0.000
1641221004877811968,2022-01-03-14:43:24,10.1.1.5,183,-0.400,-0.400,-0.400,0.000,0.000,0.000
1641221005295307008,2022-01-03-14:43:25,10.1.1.5,194,-0.380,-0.380,-0.380,0.000,0.000,0.000
1641221005495923968,2022-01-03-14:43:25,10.1.1.5,193,-0.370,-0.370,-0.370,0.000,0.000,0.000
1641221005696082176,2022-01-03-14:43:25,10.1.1.5,192,-0.360,-0.360,-0.360,0.000,0.000,0.000
1641221005896017920,2022-01-03-14:43:25,10.1.1.5,192,-0.350,-0.350,-0.350,0.000,0.000,0.000
1641221006096116992,2022-01-03-14:43:26,10.1.1.5,191,-0.340,-0.340,-0.340,0.000,0.000,0.000
1641221006297470976,2022-01-03-14:43:26,10.1.1.5,188,-0.330,-0.330,-0.330,0.000,0.000,0.000
1641221006496145920,2022-01-03-14:43:26,10.1.1.5,187,-0.320,-0.320,-0.320,0.000,0.000,0.000
1641221006701516032,2022-01-03-14:43:26,10.1.1.5,189,-0.310,-0.310,-0.310,0.000,0.000,0.000
1641221006901995776,2022-01-03-14:43:26,10.1.1.5,191,-0.300,-0.300,-0.300,0.000,0.000,0.000
1641221007094587136,2022-01-03-14:43:27,10.1.1.5,183,-0.290,-0.290,-0.290,0.000,0.000,0.000
1641221007294843904,2022-01-03-14:43:27,10.1.1.5,181,-0.280,-0.280,-0.280,0.000,0.000,0.000
1641221007514595072,2022-01-03-14:43:27,10.1.1.5,196,-0.270,-0.270,-0.270,0.000,0.000,0.000
1641221007714621184,2022-01-03-14:43:27,10.1.1.5,195,-0.260,-0.260,-0.260,0.000,0.000,0.000
1641221007914757120,2022-01-03-14:43:27,10.1.1.5,195,-0.250,-0.250,-0.250,0.000,0.000,0.000
1641221008113490176,2022-01-03-14:43:28,10.1.1.5,193,-0.240,-0.240,-0.240,0.000,0.000,0.000
1641221008314162944,2022-01-03-14:43:28,10.1.1.5,193,-0.230,-0.230,-0.230,0.000,0.000,0.000
1641221008515600896,2022-01-03-14:43:28,10.1.1.5,194,-0.220,-0.220,-0.220,0.000,0.000,0.000
1641221008713527808,2022-01-03-14:43:28,10.1.1.5,191,-0.210,-0.210,-0.210,0.000,0.000,0.000
1641221008914875136,2022-01-03-14:43:28,10.1.1.5,191,-0.200,-0.200,-0.200,0.000,0.000,0.000
1641221009113188096,2022-01-03-14:43:29,10.1.1.5,189,-0.190,-0.190,-0.190,0.000,0.000,0.000
1641221009312491776,2022-01-03-14:43:29,10.1.1.5,187,-0.180,-0.180,-0.180,0.000,0.000,0.000
1641221009513313024,2022-01-03-14:43:29,10.1.1.5,187,-0.170,-0.170,-0.170,0.000,0.000,0.000
1641221009713048832,2022-01-03-14:43:29,10.1.1.5,186,-0.160,-0.160,-0.160,0.000,0.000,0.000
1641221009912875008,2022-01-03-14:43:29,10.1.1.5,185,-0.150,-0.150,-0.150,0.000,0.000,0.000
1641221010112113920,2022-01-03-14:43:30,10.1.1.5,183,-0.140,-0.140,-0.140,0.000,0.000,0.000
1641221010312321792,2022-01-03-14:43:30,10.1.1.5,183,-0.130,-0.130,-0.130,0.000,0.000,0.000
1641221010512221184,2022-01-03-14:43:30,10.1.1.5,182,-0.120,-0.120,-0.120,0.000,0.000,0.000
1641221010711623936,2022-01-03-14:43:30,10.1.1.5,181,-0.110,-0.110,-0.110,0.000,0.000,0.000
1641221010911059968,2022-01-03-14:43:30,10.1.1.5,179,-0.100,-0.100,-0.100,0.000,0.000,0.000
1641221011111195136,2022-01-03-14:43:31,10.1.1.5,179,-0.090,-0.090,-0.090,0.000,0.000,0.000
1641221011331028992,2022-01-03-14:43:31,10.1.1.5,191,-0.080,-0.080,-0.080,0.000,0.000,0.000
1641221011530419968,2022-01-03-14:43:31,10.1.1.5,190,-0.070,-0.070,-0.070,0.000,0.000,0.000
1641221011730408960,2022-01-03-14:43:31,10.1.1.5,189,-0.060,-0.060,-0.060,0.000,0.000,0.000
1641221011930087936,2022-01-03-14:43:31,10.1.1.5,188,-0.050,-0.050,-0.050,0.000,0.000,0.000
1641221012129448960,2022-01-03-14:43:32,10.1.1.5,187,-0.040,-0.040,-0.040,0.000,0.000,0.000
1641221012329423872,2022-01-03-14:43:32,10.1.1.5,186,-0.030,-0.030,-0.030,0.000,0.000,0.000
1641221012530083840,2022-01-03-14:43:32,10.1.1.5,186,-0.020,-0.020,-0.020,0.000,0.000,0.000
1641221012731604224,2022-01-03-14:43:32,10.1.1.5,188,-0.010,-0.010,-0.010,0.000,0.000,0.000
1641221012928712960,2022-01-03-14:43:32,10.1.1.5,183,0.000,0.000,0.000,0.000,0.000,0.000
1641221013128840960,2022-01-03-14:43:33,10.1.1.5,182,-0.010,-0.010,-0.010,0.000,0.000,0.000
1641221013329519104,2022-01-03-14:43:33,10.1.1.5,183,-0.020,-0.020,-0.020,0.000,0.000,0.000
1641221013528657920,2022-01-03-14:43:33,10.1.1.5,180,-0.030,-0.030,-0.030,0.000,0.000,0.000
1641221013728436992,2022-01-03-14:43:33,10.1.1.5,179,-0.040,-0.040,-0.040,0.000,0.000,0.000
1641221013927834880,2022-01-03-14:43:33,10.1.1.5,178,-0.050,-0.050,-0.050,0.000,0.000,0.000
1641221014127912960,2022-01-03-14:43:34,10.1.1.5,177,-0.060,-0.060,-0.060,0.000,0.000,0.000
1641221014327277056,2022-01-03-14:43:34,10.1.1.5,175,-0.070,-0.070,-0.070,0.000,0.000,0.000
1641221014526791168,2022-01-03-14:43:34,10.1.1.5,173,-0.080,-0.080,-0.080,0.000,0.000,0.000
1641221014728322048,2022-01-03-14:43:34,10.1.1.5,174,-0.090,-0.090,-0.090,0.000,0.000,0.000
1641221014938491136,2022-01-03-14:43:34,10.1.1.5,171,-0.100,-0.100,-0.100,0.000,0.000,0.000
1641221015146068992,2022-01-03-14:43:35,10.1.1.5,190,-0.110,-0.110,-0.110,0.000,0.000,0.000
1641221015351950848,2022-01-03-14:43:35,10.1.1.5,193,-0.120,-0.120,-0.120,0.000,0.000,0.000
1641221015545609984,2022-01-03-14:43:35,10.1.1.5,188,-0.130,-0.130,-0.130,0.000,0.000,0.000
1641221015750865920,2022-01-03-14:43:35,10.1.1.5,191,-0.140,-0.140,-0.140,0.000,0.000,0.000
1641221015945669888,2022-01-03-14:43:35,10.1.1.5,185,-0.150,-0.150,-0.150,0.000,0.000,0.000
1641221016145759232,2022-01-03-14:43:36,10.1.1.5,184,-0.160,-0.160,-0.160,0.000,0.000,0.000
1641221016345500928,2022-01-03-14:43:36,10.1.1.5,183,-0.170,-0.170,-0.170,0.000,0.000,0.000
1641221016571542016,2022-01-03-14:43:36,10.1.1.5,189,-0.180,-0.180,-0.180,0.000,0.000,0.000
1641221016765667072,2022-01-03-14:43:36,10.1.1.5,183,-0.190,-0.190,-0.190,0.000,0.000,0.000
1641221016963862016,2022-01-03-14:43:36,10.1.1.5,182,-0.200,-0.200,-0.200,0.000,0.000,0.000
1641221017164088064,2022-01-03-14:43:37,10.1.1.5,181,-0.210,-0.210,-0.210,0.000,0.000,0.000
1641221017363840000,2022-01-03-14:43:37,10.1.1.5,180,-0.220,-0.220,-0.220,0.000,0.000,0.000
1641221017568137984,2022-01-03-14:43:37,10.1.1.5,184,-0.230,-0.230,-0.230,0.000,0.000,0.000
1641221017764813056,2022-01-03-14:43:37,10.1.1.5,179,-0.240,-0.240,-0.240,0.000,0.000,0.000
1641221017965356032,2022-01-03-14:43:37,10.1.1.5,176,-0.250,-0.250,-0.250,0.000,0.000,0.000
1641221018162380032,2022-01-03-14:43:38,10.1.1.5,172,-0.260,-0.260,-0.260,0.000,0.000,0.000
1641221018362588928,2022-01-03-14:43:38,10.1.1.5,171,-0.270,-0.270,-0.270,0.000,0.000,0.000
1641221018561542912,2022-01-03-14:43:38,10.1.1.5,169,-0.280,-0.280,-0.280,0.000,0.000,0.000
1641221018761581056,2022-01-03-14:43:38,10.1.1.5,168,-0.290,-0.290,-0.290,0.000,0.000,0.000
1641221018983576064,2022-01-03-14:43:38,10.1.1.5,188,-0.300,-0.300,-0.300,0.000,0.000,0.000
1641221019181001984,2022-01-03-14:43:39,10.1.1.5,184,-0.310,-0.310,-0.310,0.000,0.000,0.000
1641221019381032960,2022-01-03-14:43:39,10.1.1.5,184,-0.320,-0.320,-0.320,0.000,0.000,0.000
1641221019581032960,2022-01-03-14:43:39,10.1.1.5,183,-0.330,-0.330,-0.330,0.000,0.000,0.000
1641221019786048000,2022-01-03-14:43:39,10.1.1.5,180,-0.340,-0.340,-0.340,0.000,0.000,0.000
1641221019979165952,2022-01-03-14:43:39,10.1.1.5,178,-0.350,-0.350,-0.350,0.000,0.000,0.000
1641221020182305024,2022-01-03-14:43:40,10.1.1.5,177,-0.360,-0.360,-0.360,0.000,0.000,0.000
1641221020385651968,2022-01-03-14:43:40,10.1.1.5,180,-0.370,-0.370,-0.370,0.000,0.000,0.000
1641221020578811904,2022-01-03-14:43:40,10.1.1.5,172,-0.380,-0.380,-0.380,0.000,0.000,0.000
1641221020785545984,2022-01-03-14:43:40,10.1.1.5,172,-0.390,-0.390,-0.390,0.000,0.000,0.000
1641221020978300928,2022-01-03-14:43:40,10.1.1.5,169,-0.400,-0.400,-0.400,0.000,0.000,0.000
1641221021193072128,2022-01-03-14:43:41,10.1.1.5,172,-0.410,-0.410,-0.410,0.000,0.000,0.000
1641221021382390016,2022-01-03-14:43:41,10.1.1.5,167,-0.420,-0.420,-0.420,0.000,0.000,0.000
1641221021581746944,2022-01-03-14:43:41,10.1.1.5,169,-0.430,-0.430,-0.430,0.000,0.000,0.000
1641221021776232960,2022-01-03-14:43:41,10.1.1.5,163,-0.440,-0.440,-0.440,0.000,0.000,0.000
1641221022002842880,2022-01-03-14:43:42,10.1.1.5,186,-0.450,-0.450,-0.450,0.000,0.000,0.000
1641221022196592128,2022-01-03-14:43:42,10.1.1.5,179,-0.460,-0.460,-0.460,0.000,0.000,0.000
1641221022395767808,2022-01-03-14:43:42,10.1.1.5,178,-0.470,-0.470,-0.470,0.000,0.000,0.000
1641221022595987968,2022-01-03-14:43:42,10.1.1.5,175,-0.480,-0.480,-0.480,0.000,0.000,0.000
1641221022801025024,2022-01-03-14:43:42,10.1.1.5,179,-0.490,-0.490,-0.490,0.000,0.000,0.000
1641221023001607936,2022-01-03-14:43:43,10.1.1.5,178,-0.480,-0.480,-0.480,0.000,0.000,0.000
1641221023195390976,2022-01-03-14:43:43,10.1.1.5,172,-0.470,-0.470,-0.470,0.000,0.000,0.000
1641221023422627840,2022-01-03-14:43:43,10.1.1.5,195,-0.460,-0.460,-0.460,0.000,0.000,0.000
1641221023598429952,2022-01-03-14:43:43,10.1.1.5,166,-0.450,-0.450,-0.450,0.000,0.000,0.000
1641221023795008000,2022-01-03-14:43:43,10.1.1.5,165,-0.440,-0.440,-0.440,0.000,0.000,0.000
1641221023997786112,2022-01-03-14:43:43,10.1.1.5,167,-0.430,-0.430,-0.430,0.000,0.000,0.000
1641221024213370112,2022-01-03-14:43:44,10.1.1.5,177,-0.420,-0.420,-0.420,0.000,0.000,0.000
1641221024412233216,2022-01-03-14:43:44,10.1.1.5,175,-0.410,-0.410,-0.410,0.000,0.000,0.000
1641221024618935040,2022-01-03-14:43:44,10.1.1.5,181,-0.400,-0.400,-0.400,0.000,0.000,0.000
1641221024811950848,2022-01-03-14:43:44,10.1.1.5,173,-0.390,-0.390,-0.390,0.000,0.000,0.000
1641221025022898944,2022-01-03-14:43:45,10.1.1.5,183,-0.380,-0.380,-0.380,0.000,0.000,0.000
1641221025213300992,2022-01-03-14:43:45,10.1.1.5,173,-0.370,-0.370,-0.370,0.000,0.000,0.000
1641221025414264832,2022-01-03-14:43:45,10.1.1.5,173,-0.360,-0.360,-0.360,0.000,0.000,0.000
1641221025618489856,2022-01-03-14:43:45,10.1.1.5,177,-0.350,-0.350,-0.350,0.000,0.000,0.000
1641221025816379136,2022-01-03-14:43:45,10.1.1.5,174,-0.340,-0.340,-0.340,0.000,0.000,0.000
1641221026017106944,2022-01-03-14:43:46,10.1.1.5,174,-0.330,-0.330,-0.330,0.000,0.000,0.000
1641221026217561856,2022-01-03-14:43:46,10.1.1.5,174,-0.320,-0.320,-0.320,0.000,0.000,0.000
1641221026418173184,2022-01-03-14:43:46,10.1.1.5,169,-0.310,-0.310,-0.310,0.000,0.000,0.000
1641221026618854912,2022-01-03-14:43:46,10.1.1.5,169,-0.300,-0.300,-0.300,0.000,0.000,0.000
1641221026840116992,2022-01-03-14:43:46,10.1.1.5,185,-0.290,-0.290,-0.290,0.000,0.000,0.000
1641221027040848896,2022-01-03-14:43:47,10.1.1.5,184,-0.280,-0.280,-0.280,0.000,0.000,0.000
1641221027241868032,2022-01-03-14:43:47,10.1.1.5,185,-0.270,-0.270,-0.270,0.000,0.000,0.000
1641221027442831872,2022-01-03-14:43:47,10.1.1.5,185,-0.260,-0.260,-0.260,0.000,0.000,0.000
1641221027643374080,2022-01-03-14:43:47,10.1.1.5,185,-0.250,-0.250,-0.250,0.000,0.000,0.000
1641221027844267008,2022-01-03-14:43:47,10.1.1.5,186,-0.240,-0.240,-0.240,0.000,0.000,0.000
1641221028050257920,2022-01-03-14:43:48,10.1.1.5,187,-0.230,-0.230,-0.230,0.000,0.000,0.000
1641221028245281024,2022-01-03-14:43:48,10.1.1.5,186,-0.220,-0.220,-0.220,0.000,0.000,0.000
1641221028446444032,2022-01-03-14:43:48,10.1.1.5,187,-0.210,-0.210,-0.210,0.000,0.000,0.000
1641221028647855872,2022-01-03-14:43:48,10.1.1.5,187,-0.200,-0.200,-0.200,0.000,0.000,0.000
1641221028848891904,2022-01-03-14:43:48,10.1.1.5,187,-0.190,-0.190,-0.190,0.000,0.000,0.000
1641221029047890944,2022-01-03-14:43:49,10.1.1.5,185,-0.180,-0.180,-0.180,0.000,0.000,0.000
1641221029248594944,2022-01-03-14:43:49,10.1.1.5,185,-0.170,-0.170,-0.170,0.000,0.000,0.000
1641221029448600064,2022-01-03-14:43:49,10.1.1.5,184,-0.160,-0.160,-0.160,0.000,0.000,0.000
1641221029649388032,2022-01-03-14:43:49,10.1.1.5,184,-0.150,-0.150,-0.150,0.000,0.000,0.000
1641221029849494016,2022-01-03-14:43:49,10.1.1.5,184,-0.140,-0.140,-0.140,0.000,0.000,0.000
1641221030050690048,2022-01-03-14:43:50,10.1.1.5,184,-0.130,-0.130,-0.130,0.000,0.000,0.000
1641221030250240000,2022-01-03-14:43:50,10.1.1.5,183,-0.120,-0.120,-0.120,0.000,0.000,0.000
1641221030450582016,2022-01-03-14:43:50,10.1.1.5,182,-0.110,-0.110,-0.110,0.000,0.000,0.000
1641221030651813888,2022-01-03-14:43:50,10.1.1.5,183,-0.100,-0.100,-0.100,0.000,0.000,0.000
1641221030851512064,2022-01-03-14:43:50,10.1.1.5,182,-0.090,-0.090,-0.090,0.000,0.000,0.000
1641221031052187904,2022-01-03-14:43:51,10.1.1.5,182,-0.080,-0.080,-0.080,0.000,0.000,0.000
1641221031252399872,2022-01-03-14:43:51,10.1.1.5,181,-0.070,-0.070,-0.070,0.000,0.000,0.000
1641221031452567040,2022-01-03-14:43:51,10.1.1.5,181,-0.060,-0.060,-0.060,0.000,0.000,0.000
1641221031653412096,2022-01-03-14:43:51,10.1.1.5,181,-0.050,-0.050,-0.050,0.000,0.000,0.000
1641221031853666048,2022-01-03-14:43:51,10.1.1.5,181,-0.040,-0.040,-0.040,0.000,0.000,0.000
1641221032054050816,2022-01-03-14:43:52,10.1.1.5,181,-0.030,-0.030,-0.030,0.000,0.000,0.000
1641221032253884160,2022-01-03-14:43:52,10.1.1.5,179,-0.020,-0.020,-0.020,0.000,0.000,0.000
1641221032474391040,2022-01-03-14:43:52,10.1.1.5,197,-0.010,-0.010,-0.010,0.000,0.000,0.000
1641221032674194944,2022-01-03-14:43:52,10.1.1.5,196,0.000,0.000,0.000,0.000,0.000,0.000
1641221032876069120,2022-01-03-14:43:52,10.1.1.5,196,-0.010,-0.010,-0.010,0.000,0.000,0.000
1641221033075076096,2022-01-03-14:43:53,10.1.1.5,193,-0.020,-0.020,-0.020,0.000,0.000,0.000
1641221033275173888,2022-01-03-14:43:53,10.1.1.5,193,-0.030,-0.030,-0.030,0.000,0.000,0.000
1641221033475699968,2022-01-03-14:43:53,10.1.1.5,193,-0.040,-0.040,-0.040,0.000,0.000,0.000
1641221033675699968,2022-01-03-14:43:53,10.1.1.5,192,-0.050,-0.050,-0.050,0.000,0.000,0.000
1641221033878635008,2022-01-03-14:43:53,10.1.1.5,194,-0.060,-0.060,-0.060,0.000,0.000,0.000
1641221034076209920,2022-01-03-14:43:54,10.1.1.5,191,-0.070,-0.070,-0.070,0.000,0.000,0.000
1641221034277265152,2022-01-03-14:43:54,10.1.1.5,192,-0.080,-0.080,-0.080,0.000,0.000,0.000
1641221034475990016,2022-01-03-14:43:54,10.1.1.5,189,-0.090,-0.090,-0.090,0.000,0.000,0.000
1641221034676256768,2022-01-03-14:43:54,10.1.1.5,189,-0.100,-0.100,-0.100,0.000,0.000,0.000
1641221034876557056,2022-01-03-14:43:54,10.1.1.5,189,-0.110,-0.110,-0.110,0.000,0.000,0.000
1641221035076108032,2022-01-03-14:43:55,10.1.1.5,188,-0.120,-0.120,-0.120,0.000,0.000,0.000
1641221035276295936,2022-01-03-14:43:55,10.1.1.5,186,-0.130,-0.130,-0.130,0.000,0.000,0.000
1641221035484466944,2022-01-03-14:43:55,10.1.1.5,195,-0.140,-0.140,-0.140,0.000,0.000,0.000
1641221035681818112,2022-01-03-14:43:55,10.1.1.5,190,-0.150,-0.150,-0.150,0.000,0.000,0.000
1641221035876339968,2022-01-03-14:43:55,10.1.1.5,185,-0.160,-0.160,-0.160,0.000,0.000,0.000
1641221036076051968,2022-01-03-14:43:56,10.1.1.5,184,-0.170,-0.170,-0.170,0.000,0.000,0.000
1641221036276694016,2022-01-03-14:43:56,10.1.1.5,184,-0.180,-0.180,-0.180,0.000,0.000,0.000
1641221036475508992,2022-01-03-14:43:56,10.1.1.5,182,-0.190,-0.190,-0.190,0.000,0.000,0.000
1641221036676547072,2022-01-03-14:43:56,10.1.1.5,182,-0.200,-0.200,-0.200,0.000,0.000,0.000
1641221036895993856,2022-01-03-14:43:56,10.1.1.5,193,-0.210,-0.210,-0.210,0.000,0.000,0.000
1641221037102737920,2022-01-03-14:43:57,10.1.1.5,199,-0.220,-0.220,-0.220,0.000,0.000,0.000
1641221037296176896,2022-01-03-14:43:57,10.1.1.5,188,-0.230,-0.230,-0.230,0.000,0.000,0.000
1641221037744158976,2022-01-03-14:43:57,10.1.1.5,198,-0.250,-0.250,-0.250,0.000,0.000,0.000
1641221037938860032,2022-01-03-14:43:57,10.1.1.5,190,-0.260,-0.260,-0.260,0.000,0.000,0.000
1641221038136270080,2022-01-03-14:43:58,10.1.1.5,186,-0.270,-0.270,-0.270,0.000,0.000,0.000
1641221038337523968,2022-01-03-14:43:58,10.1.1.5,187,-0.280,-0.280,-0.280,0.000,0.000,0.000
1641221038536098048,2022-01-03-14:43:58,10.1.1.5,186,-0.290,-0.290,-0.290,0.000,0.000,0.000
1641221038740199168,2022-01-03-14:43:58,10.1.1.5,186,-0.300,-0.300,-0.300,0.000,0.000,0.000
1641221038937329920,2022-01-03-14:43:58,10.1.1.5,185,-0.310,-0.310,-0.310,0.000,0.000,0.000
1641221039136660992,2022-01-03-14:43:59,10.1.1.5,184,-0.320,-0.320,-0.320,0.000,0.000,0.000
1641221039335639040,2022-01-03-14:43:59,10.1.1.5,182,-0.330,-0.330,-0.330,0.000,0.000,0.000
1641221039535249920,2022-01-03-14:43:59,10.1.1.5,181,-0.340,-0.340,-0.340,0.000,0.000,0.000
1641221039745886976,2022-01-03-14:43:59,10.1.1.5,192,-0.350,-0.350,-0.350,0.000,0.000,0.000
1641221039935976960,2022-01-03-14:43:59,10.1.1.5,180,-0.360,-0.360,-0.360,0.000,0.000,0.000
1641221040154896896,2022-01-03-14:44:00,10.1.1.5,198,-0.370,-0.370,-0.370,0.000,0.000,0.000
1641221040356795136,2022-01-03-14:44:00,10.1.1.5,199,-0.380,-0.380,-0.380,0.000,0.000,0.000
1641221040557312000,2022-01-03-14:44:00,10.1.1.5,196,-0.390,-0.390,-0.390,0.000,0.000,0.000
1641221040954196992,2022-01-03-14:44:00,10.1.1.5,190,-0.410,-0.410,-0.410,0.000,0.000,0.000
1641221041153161984,2022-01-03-14:44:01,10.1.1.5,188,-0.420,-0.420,-0.420,0.000,0.000,0.000
1641221041354713856,2022-01-03-14:44:01,10.1.1.5,189,-0.430,-0.430,-0.430,0.000,0.000,0.000
1641221041553318912,2022-01-03-14:44:01,10.1.1.5,185,-0.440,-0.440,-0.440,0.000,0.000,0.000
1641221041752973056,2022-01-03-14:44:01,10.1.1.5,185,-0.450,-0.450,-0.450,0.000,0.000,0.000
1641221041965338880,2022-01-03-14:44:01,10.1.1.5,196,-0.460,-0.460,-0.460,0.000,0.000,0.000
1641221042152035840,2022-01-03-14:44:02,10.1.1.5,182,-0.470,-0.470,-0.470,0.000,0.000,0.000
1641221042352109056,2022-01-03-14:44:02,10.1.1.5,182,-0.480,-0.480,-0.480,0.000,0.000,0.000
1641221042551538944,2022-01-03-14:44:02,10.1.1.5,181,-0.490,-0.490,-0.490,0.000,0.000,0.000
1641221042751499776,2022-01-03-14:44:02,10.1.1.5,181,-0.480,-0.480,-0.480,0.000,0.000,0.000
1641221042984952064,2022-01-03-14:44:02,10.1.1.5,213,-0.470,-0.470,-0.470,0.000,0.000,0.000
1641221043171992064,2022-01-03-14:44:03,10.1.1.5,185,-0.460,-0.460,-0.460,0.000,0.000,0.000
1641221043371571968,2022-01-03-14:44:03,10.1.1.5,185,-0.450,-0.450,-0.450,0.000,0.000,0.000
1641221043571047168,2022-01-03-14:44:03,10.1.1.5,184,-0.440,-0.440,-0.440,0.000,0.000,0.000
1641221043770888960,2022-01-03-14:44:03,10.1.1.5,181,-0.430,-0.430,-0.430,0.000,0.000,0.000
1641221043970415104,2022-01-03-14:44:03,10.1.1.5,180,-0.420,-0.420,-0.420,0.000,0.000,0.000
1641221044169789952,2022-01-03-14:44:04,10.1.1.5,179,-0.410,-0.410,-0.410,0.000,0.000,0.000
1641221044369735936,2022-01-03-14:44:04,10.1.1.5,178,-0.400,-0.400,-0.400,0.000,0.000,0.000
1641221044569422080,2022-01-03-14:44:04,10.1.1.5,176,-0.390,-0.390,-0.390,0.000,0.000,0.000
1641221044769022976,2022-01-03-14:44:04,10.1.1.5,175,-0.380,-0.380,-0.380,0.000,0.000,0.000
1641221044968934144,2022-01-03-14:44:04,10.1.1.5,174,-0.370,-0.370,-0.370,0.000,0.000,0.000
1641221045168368128,2022-01-03-14:44:05,10.1.1.5,173,-0.360,-0.360,-0.360,0.000,0.000,0.000
1641221045388230144,2022-01-03-14:44:05,10.1.1.5,189,-0.350,-0.350,-0.350,0.000,0.000,0.000
1641221045587940096,2022-01-03-14:44:05,10.1.1.5,188,-0.340,-0.340,-0.340,0.000,0.000,0.000
1641221045798384896,2022-01-03-14:44:05,10.1.1.5,194,-0.330,-0.330,-0.330,0.000,0.000,0.000
1641221045988986112,2022-01-03-14:44:05,10.1.1.5,187,-0.320,-0.320,-0.320,0.000,0.000,0.000
1641221046187383808,2022-01-03-14:44:06,10.1.1.5,185,-0.310,-0.310,-0.310,0.000,0.000,0.000
1641221046387922176,2022-01-03-14:44:06,10.1.1.5,185,-0.300,-0.300,-0.300,0.000,0.000,0.000
1641221046586957824,2022-01-03-14:44:06,10.1.1.5,183,-0.290,-0.290,-0.290,0.000,0.000,0.000
1641221046787087872,2022-01-03-14:44:06,10.1.1.5,181,-0.280,-0.280,-0.280,0.000,0.000,0.000
1641221046987299840,2022-01-03-14:44:06,10.1.1.5,180,-0.270,-0.270,-0.270,0.000,0.000,0.000
1641221047187186944,2022-01-03-14:44:07,10.1.1.5,180,-0.260,-0.260,-0.260,0.000,0.000,0.000
1641221047402098944,2022-01-03-14:44:07,10.1.1.5,194,-0.250,-0.250,-0.250,0.000,0.000,0.000
1641221047588386048,2022-01-03-14:44:07,10.1.1.5,180,-0.240,-0.240,-0.240,0.000,0.000,0.000
1641221047786840832,2022-01-03-14:44:07,10.1.1.5,176,-0.230,-0.230,-0.230,0.000,0.000,0.000
1641221047985666048,2022-01-03-14:44:07,10.1.1.5,172,-0.220,-0.220,-0.220,0.000,0.000,0.000
1641221048188229120,2022-01-03-14:44:08,10.1.1.5,174,-0.210,-0.210,-0.210,0.000,0.000,0.000
1641221048405880064,2022-01-03-14:44:08,10.1.1.5,191,-0.200,-0.200,-0.200,0.000,0.000,0.000
1641221048605072896,2022-01-03-14:44:08,10.1.1.5,184,-0.190,-0.190,-0.190,0.000,0.000,0.000
1641221048805121792,2022-01-03-14:44:08,10.1.1.5,182,-0.180,-0.180,-0.180,0.000,0.000,0.000
1641221049005351936,2022-01-03-14:44:09,10.1.1.5,181,-0.170,-0.170,-0.170,0.000,0.000,0.000
1641221049204217856,2022-01-03-14:44:09,10.1.1.5,179,-0.160,-0.160,-0.160,0.000,0.000,0.000
1641221049403341056,2022-01-03-14:44:09,10.1.1.5,177,-0.150,-0.150,-0.150,0.000,0.000,0.000
1641221049602967040,2022-01-03-14:44:09,10.1.1.5,175,-0.140,-0.140,-0.140,0.000,0.000,0.000
1641221049802416128,2022-01-03-14:44:09,10.1.1.5,174,-0.130,-0.130,-0.130,0.000,0.000,0.000
1641221050003734016,2022-01-03-14:44:10,10.1.1.5,174,-0.120,-0.120,-0.120,0.000,0.000,0.000
1641221050210630912,2022-01-03-14:44:10,10.1.1.5,181,-0.110,-0.110,-0.110,0.000,0.000,0.000
1641221050407624960,2022-01-03-14:44:10,10.1.1.5,174,-0.100,-0.100,-0.100,0.000,0.000,0.000
1641221050821355008,2022-01-03-14:44:10,10.1.1.5,182,-0.080,-0.080,-0.080,0.000,0.000,0.000
1641221051022011136,2022-01-03-14:44:11,10.1.1.5,181,-0.070,-0.070,-0.070,0.000,0.000,0.000
1641221051221276160,2022-01-03-14:44:11,10.1.1.5,179,-0.060,-0.060,-0.060,0.000,0.000,0.000
1641221051420667904,2022-01-03-14:44:11,10.1.1.5,178,-0.050,-0.050,-0.050,0.000,0.000,0.000
1641221051620649216,2022-01-03-14:44:11,10.1.1.5,177,-0.040,-0.040,-0.040,0.000,0.000,0.000
1641221051823479808,2022-01-03-14:44:11,10.1.1.5,179,-0.030,-0.030,-0.030,0.000,0.000,0.000
1641221052020606976,2022-01-03-14:44:12,10.1.1.5,175,-0.020,-0.020,-0.020,0.000,0.000,0.000
1641221052219348992,2022-01-03-14:44:12,10.1.1.5,174,-0.010,-0.010,-0.010,0.000,0.000,0.000
1641221052429383936,2022-01-03-14:44:12,10.1.1.5,183,0.000,0.000,0.000,0.000,0.000,0.000
1641221052619326976,2022-01-03-14:44:12,10.1.1.5,172,-0.010,-0.010,-0.010,0.000,0.000,0.000
1641221052819244032,2022-01-03-14:44:12,10.1.1.5,171,-0.020,-0.020,-0.020,0.000,0.000,0.000
1641221053018707968,2022-01-03-14:44:13,10.1.1.5,169,-0.030,-0.030,-0.030,0.000,0.000,0.000
1641221053217922816,2022-01-03-14:44:13,10.1.1.5,167,-0.040,-0.040,-0.040,0.000,0.000,0.000
1641221053417383936,2022-01-03-14:44:13,10.1.1.5,165,-0.050,-0.050,-0.050,0.000,0.000,0.000
1641221053618021888,2022-01-03-14:44:13,10.1.1.5,165,-0.060,-0.060,-0.060,0.000,0.000,0.000
1641221053817074944,2022-01-03-14:44:13,10.1.1.5,163,-0.070,-0.070,-0.070,0.000,0.000,0.000
1641221054016787968,2022-01-03-14:44:14,10.1.1.5,161,-0.080,-0.080,-0.080,0.000,0.000,0.000
1641221054236414976,2022-01-03-14:44:14,10.1.1.5,179,-0.090,-0.090,-0.090,0.000,0.000,0.000
1641221054436006144,2022-01-03-14:44:14,10.1.1.5,174,-0.100,-0.100,-0.100,0.000,0.000,0.000
1641221054636070912,2022-01-03-14:44:14,10.1.1.5,171,-0.110,-0.110,-0.110,0.000,0.000,0.000
1641221054835360000,2022-01-03-14:44:14,10.1.1.5,170,-0.120,-0.120,-0.120,0.000,0.000,0.000
1641221055034766080,2022-01-03-14:44:15,10.1.1.5,169,-0.130,-0.130,-0.130,0.000,0.000,0.000
1641221055234612992,2022-01-03-14:44:15,10.1.1.5,169,-0.140,-0.140,-0.140,0.000,0.000,0.000
1641221055434845952,2022-01-03-14:44:15,10.1.1.5,168,-0.150,-0.150,-0.150,0.000,0.000,0.000
1641221055634115072,2022-01-03-14:44:15,10.1.1.5,167,-0.160,-0.160,-0.160,0.000,0.000,0.000
1641221055834084864,2022-01-03-14:44:15,10.1.1.5,166,-0.170,-0.170,-0.170,0.000,0.000,0.000
1641221056136236800,2022-01-03-14:44:16,10.1.1.5,-1,-0.180,-0.180,-0.180,0.000,0.000,0.000
1641221056513529088,2022-01-03-14:44:16,10.1.1.5,176,-0.200,-0.200,-0.200,0.000,0.000,0.000
1641221056713193984,2022-01-03-14:44:16,10.1.1.5,174,-0.210,-0.210,-0.210,0.000,0.000,0.000
1641221056916524032,2022-01-03-14:44:16,10.1.1.5,177,-0.220,-0.220,-0.220,0.000,0.000,0.000
1641221057111926016,2022-01-03-14:44:17,10.1.1.5,171,-0.230,-0.230,-0.230,0.000,0.000,0.000
1641221057313661952,2022-01-03-14:44:17,10.1.1.5,171,-0.240,-0.240,-0.240,0.000,0.000,0.000
1641221057515177984,2022-01-03-14:44:17,10.1.1.5,170,-0.250,-0.250,-0.250,0.000,0.000,0.000
1641221057715414016,2022-01-03-14:44:17,10.1.1.5,170,-0.260,-0.260,-0.260,0.000,0.000,0.000
1641221057916318976,2022-01-03-14:44:17,10.1.1.5,170,-0.270,-0.270,-0.270,0.000,0.000,0.000
1641221058117623040,2022-01-03-14:44:18,10.1.1.5,170,-0.280,-0.280,-0.280,0.000,0.000,0.000
1641221058321819136,2022-01-03-14:44:18,10.1.1.5,172,-0.290,-0.290,-0.290,0.000,0.000,0.000
1641221058520301056,2022-01-03-14:44:18,10.1.1.5,169,-0.300,-0.300,-0.300,0.000,0.000,0.000
1641221058721007104,2022-01-03-14:44:18,10.1.1.5,170,-0.310,-0.310,-0.310,0.000,0.000,0.000
1641221058920845056,2022-01-03-14:44:18,10.1.1.5,169,-0.320,-0.320,-0.320,0.000,0.000,0.000
1641221059121696000,2022-01-03-14:44:19,10.1.1.5,169,-0.330,-0.330,-0.330,0.000,0.000,0.000
1641221059332435968,2022-01-03-14:44:19,10.1.1.5,179,-0.340,-0.340,-0.340,0.000,0.000,0.000
1641221059525211136,2022-01-03-14:44:19,10.1.1.5,170,-0.350,-0.350,-0.350,0.000,0.000,0.000
1641221059723845120,2022-01-03-14:44:19,10.1.1.5,169,-0.360,-0.360,-0.360,0.000,0.000,0.000
1641221059944855040,2022-01-03-14:44:19,10.1.1.5,189,-0.370,-0.370,-0.370,0.000,0.000,0.000
1641221060145778944,2022-01-03-14:44:20,10.1.1.5,189,-0.380,-0.380,-0.380,0.000,0.000,0.000
1641221060345897984,2022-01-03-14:44:20,10.1.1.5,189,-0.390,-0.390,-0.390,0.000,0.000,0.000
1641221060547769088,2022-01-03-14:44:20,10.1.1.5,190,-0.400,-0.400,-0.400,0.000,0.000,0.000
1641221060746973952,2022-01-03-14:44:20,10.1.1.5,188,-0.410,-0.410,-0.410,0.000,0.000,0.000
1641221060947876096,2022-01-03-14:44:20,10.1.1.5,188,-0.420,-0.420,-0.420,0.000,0.000,0.000
1641221061149213952,2022-01-03-14:44:21,10.1.1.5,189,-0.430,-0.430,-0.430,0.000,0.000,0.000
1641221061353764096,2022-01-03-14:44:21,10.1.1.5,192,-0.440,-0.440,-0.440,0.000,0.000,0.000
1641221061558163968,2022-01-03-14:44:21,10.1.1.5,196,-0.450,-0.450,-0.450,0.000,0.000,0.000
1641221061749828096,2022-01-03-14:44:21,10.1.1.5,187,-0.460,-0.460,-0.460,0.000,0.000,0.000
1641221061950364160,2022-01-03-14:44:21,10.1.1.5,186,-0.470,-0.470,-0.470,0.000,0.000,0.000
1641221062151258112,2022-01-03-14:44:22,10.1.1.5,186,-0.480,-0.480,-0.480,0.000,0.000,0.000
1641221062351664128,2022-01-03-14:44:22,10.1.1.5,186,-0.490,-0.490,-0.490,0.000,0.000,0.000
1641221062552220160,2022-01-03-14:44:22,10.1.1.5,186,-0.480,-0.480,-0.480,0.000,0.000,0.000
1641221062752968960,2022-01-03-14:44:22,10.1.1.5,185,-0.470,-0.470,-0.470,0.000,0.000,0.000
1641221062953531904,2022-01-03-14:44:22,10.1.1.5,185,-0.460,-0.460,-0.460,0.000,0.000,0.000
1641221063154397952,2022-01-03-14:44:23,10.1.1.5,185,-0.450,-0.450,-0.450,0.000,0.000,0.000
1641221063353782784,2022-01-03-14:44:23,10.1.1.5,184,-0.440,-0.440,-0.440,0.000,0.000,0.000
1641221063554320128,2022-01-03-14:44:23,10.1.1.5,184,-0.430,-0.430,-0.430,0.000,0.000,0.000
1641221063754561024,2022-01-03-14:44:23,10.1.1.5,184,-0.420,-0.420,-0.420,0.000,0.000,0.000
1641221063954725888,2022-01-03-14:44:23,10.1.1.5,183,-0.410,-0.410,-0.410,0.000,0.000,0.000
1641221064155191808,2022-01-03-14:44:24,10.1.1.5,183,-0.400,-0.400,-0.400,0.000,0.000,0.000
1641221064354599936,2022-01-03-14:44:24,10.1.1.5,181,-0.390,-0.390,-0.390,0.000,0.000,0.000
1641221064555944960,2022-01-03-14:44:24,10.1.1.5,181,-0.380,-0.380,-0.380,0.000,0.000,0.000
1641221064977655040,2022-01-03-14:44:24,10.1.1.5,199,-0.360,-0.360,-0.360,0.000,0.000,0.000
1641221065576317184,2022-01-03-14:44:25,10.1.1.5,188,-0.330,-0.330,-0.330,0.000,0.000,0.000
1641221065776158976,2022-01-03-14:44:25,10.1.1.5,187,-0.320,-0.320,-0.320,0.000,0.000,0.000
1641221065977363968,2022-01-03-14:44:25,10.1.1.5,187,-0.310,-0.310,-0.310,0.000,0.000,0.000
1641221066177298944,2022-01-03-14:44:26,10.1.1.5,187,-0.300,-0.300,-0.300,0.000,0.000,0.000
1641221066376907008,2022-01-03-14:44:26,10.1.1.5,186,-0.290,-0.290,-0.290,0.000,0.000,0.000
1641221066576409088,2022-01-03-14:44:26,10.1.1.5,185,-0.280,-0.280,-0.280,0.000,0.000,0.000
1641221066777120000,2022-01-03-14:44:26,10.1.1.5,185,-0.270,-0.270,-0.270,0.000,0.000,0.000
1641221066983476992,2022-01-03-14:44:26,10.1.1.5,191,-0.260,-0.260,-0.260,0.000,0.000,0.000
1641221067397228032,2022-01-03-14:44:27,10.1.1.5,194,-0.240,-0.240,-0.240,0.000,0.000,0.000
1641221067796879104,2022-01-03-14:44:27,10.1.1.5,190,-0.220,-0.220,-0.220,0.000,0.000,0.000
1641221067996235008,2022-01-03-14:44:27,10.1.1.5,187,-0.210,-0.210,-0.210,0.000,0.000,0.000
1641221068196718848,2022-01-03-14:44:28,10.1.1.5,187,-0.200,-0.200,-0.200,0.000,0.000,0.000
1641221068396878080,2022-01-03-14:44:28,10.1.1.5,186,-0.190,-0.190,-0.190,0.000,0.000,0.000
1641221068597443072,2022-01-03-14:44:28,10.1.1.5,185,-0.180,-0.180,-0.180,0.000,0.000,0.000
1641221068796924160,2022-01-03-14:44:28,10.1.1.5,184,-0.170,-0.170,-0.170,0.000,0.000,0.000
1641221068997387008,2022-01-03-14:44:28,10.1.1.5,184,-0.160,-0.160,-0.160,0.000,0.000,0.000
1641221069205091072,2022-01-03-14:44:29,10.1.1.5,191,-0.150,-0.150,-0.150,0.000,0.000,0.000
1641221069404378880,2022-01-03-14:44:29,10.1.1.5,190,-0.140,-0.140,-0.140,0.000,0.000,0.000
1641221069597406976,2022-01-03-14:44:29,10.1.1.5,182,-0.130,-0.130,-0.130,0.000,0.000,0.000
1641221070019265024,2022-01-03-14:44:30,10.1.1.5,200,-0.110,-0.110,-0.110,0.000,0.000,0.000
1641221070417911040,2022-01-03-14:44:30,10.1.1.5,196,-0.090,-0.090,-0.090,0.000,0.000,0.000
1641221070617616896,2022-01-03-14:44:30,10.1.1.5,195,-0.080,-0.080,-0.080,0.000,0.000,0.000
1641221070817553152,2022-01-03-14:44:30,10.1.1.5,194,-0.070,-0.070,-0.070,0.000,0.000,0.000
1641221071015661056,2022-01-03-14:44:31,10.1.1.5,191,-0.060,-0.060,-0.060,0.000,0.000,0.000
1641221071216623104,2022-01-03-14:44:31,10.1.1.5,192,-0.050,-0.050,-0.050,0.000,0.000,0.000
1641221071420146944,2022-01-03-14:44:31,10.1.1.5,194,-0.040,-0.040,-0.040,0.000,0.000,0.000
1641221071615819008,2022-01-03-14:44:31,10.1.1.5,188,-0.030,-0.030,-0.030,0.000,0.000,0.000
1641221071816536832,2022-01-03-14:44:31,10.1.1.5,188,-0.020,-0.020,-0.020,0.000,0.000,0.000
1641221072022931968,2022-01-03-14:44:32,10.1.1.5,194,-0.010,-0.010,-0.010,0.000,0.000,0.000
1641221072215086080,2022-01-03-14:44:32,10.1.1.5,185,0.000,0.000,0.000,0.000,0.000,0.000
1641221072414894080,2022-01-03-14:44:32,10.1.1.5,184,-0.010,-0.010,-0.010,0.000,0.000,0.000
1641221072615384064,2022-01-03-14:44:32,10.1.1.5,184,-0.020,-0.020,-0.020,0.000,0.000,0.000
1641221072815495936,2022-01-03-14:44:32,10.1.1.5,184,-0.030,-0.030,-0.030,0.000,0.000,0.000
1641221073015109888,2022-01-03-14:44:33,10.1.1.5,183,-0.040,-0.040,-0.040,0.000,0.000,0.000
1641221073215881984,2022-01-03-14:44:33,10.1.1.5,183,-0.050,-0.050,-0.050,0.000,0.000,0.000
1641221073414536960,2022-01-03-14:44:33,10.1.1.5,181,-0.060,-0.060,-0.060,0.000,0.000,0.000
1641221073613959168,2022-01-03-14:44:33,10.1.1.5,179,-0.070,-0.070,-0.070,0.000,0.000,0.000
1641221074034464000,2022-01-03-14:44:34,10.1.1.5,198,-0.090,-0.090,-0.090,0.000,0.000,0.000
1641221074433916928,2022-01-03-14:44:34,10.1.1.5,195,-0.110,-0.110,-0.110,0.000,0.000,0.000
1641221074634493184,2022-01-03-14:44:34,10.1.1.5,195,-0.120,-0.120,-0.120,0.000,0.000,0.000
1641221074832850944,2022-01-03-14:44:34,10.1.1.5,191,-0.130,-0.130,-0.130,0.000,0.000,0.000
1641221075032388864,2022-01-03-14:44:35,10.1.1.5,184,-0.140,-0.140,-0.140,0.000,0.000,0.000
1641221075232131840,2022-01-03-14:44:35,10.1.1.5,183,-0.150,-0.150,-0.150,0.000,0.000,0.000
1641221075433288960,2022-01-03-14:44:35,10.1.1.5,184,-0.160,-0.160,-0.160,0.000,0.000,0.000
1641221075631792896,2022-01-03-14:44:35,10.1.1.5,182,-0.170,-0.170,-0.170,0.000,0.000,0.000
1641221075831599872,2022-01-03-14:44:35,10.1.1.5,181,-0.180,-0.180,-0.180,0.000,0.000,0.000
1641221076032662016,2022-01-03-14:44:36,10.1.1.5,181,-0.190,-0.190,-0.190,0.000,0.000,0.000
1641221076231642880,2022-01-03-14:44:36,10.1.1.5,178,-0.200,-0.200,-0.200,0.000,0.000,0.000
1641221076430452224,2022-01-03-14:44:36,10.1.1.5,176,-0.210,-0.210,-0.210,0.000,0.000,0.000
1641221076650033920,2022-01-03-14:44:36,10.1.1.5,195,-0.220,-0.220,-0.220,0.000,0.000,0.000
1641221076850277888,2022-01-03-14:44:36,10.1.1.5,194,-0.230,-0.230,-0.230,0.000,0.000,0.000
1641221077049884160,2022-01-03-14:44:37,10.1.1.5,192,-0.240,-0.240,-0.240,0.000,0.000,0.000
1641221077249767936,2022-01-03-14:44:37,10.1.1.5,192,-0.250,-0.250,-0.250,0.000,0.000,0.000
1641221077449966848,2022-01-03-14:44:37,10.1.1.5,191,-0.260,-0.260,-0.260,0.000,0.000,0.000
1641221077648876800,2022-01-03-14:44:37,10.1.1.5,188,-0.270,-0.270,-0.270,0.000,0.000,0.000
1641221077849352960,2022-01-03-14:44:37,10.1.1.5,186,-0.280,-0.280,-0.280,0.000,0.000,0.000
1641221078049124864,2022-01-03-14:44:38,10.1.1.5,185,-0.290,-0.290,-0.290,0.000,0.000,0.000
1641221078248256000,2022-01-03-14:44:38,10.1.1.5,184,-0.300,-0.300,-0.300,0.000,0.000,0.000
1641221078447942144,2022-01-03-14:44:38,10.1.1.5,183,-0.310,-0.310,-0.310,0.000,0.000,0.000
1641221078647928064,2022-01-03-14:44:38,10.1.1.5,182,-0.320,-0.320,-0.320,0.000,0.000,0.000
1641221078847568128,2022-01-03-14:44:38,10.1.1.5,181,-0.330,-0.330,-0.330,0.000,0.000,0.000
1641221079047492096,2022-01-03-14:44:39,10.1.1.5,181,-0.340,-0.340,-0.340,0.000,0.000,0.000
1641221079248459008,2022-01-03-14:44:39,10.1.1.5,180,-0.350,-0.350,-0.350,0.000,0.000,0.000
1641221079450352896,2022-01-03-14:44:39,10.1.1.5,182,-0.360,-0.360,-0.360,0.000,0.000,0.000
1641221079647891968,2022-01-03-14:44:39,10.1.1.5,178,-0.370,-0.370,-0.370,0.000,0.000,0.000
1641221079846782976,2022-01-03-14:44:39,10.1.1.5,175,-0.380,-0.380,-0.380,0.000,0.000,0.000
1641221080052658176,2022-01-03-14:44:40,10.1.1.5,180,-0.390,-0.390,-0.390,0.000,0.000,0.000
1641221080246010112,2022-01-03-14:44:40,10.1.1.5,173,-0.400,-0.400,-0.400,0.000,0.000,0.000
1641221080446049024,2022-01-03-14:44:40,10.1.1.5,172,-0.410,-0.410,-0.410,0.000,0.000,0.000
1641221080645942016,2022-01-03-14:44:40,10.1.1.5,171,-0.420,-0.420,-0.420,0.000,0.000,0.000
1641221080865565184,2022-01-03-14:44:40,10.1.1.5,185,-0.430,-0.430,-0.430,0.000,0.000,0.000
1641221081065102080,2022-01-03-14:44:41,10.1.1.5,185,-0.440,-0.440,-0.440,0.000,0.000,0.000
1641221081266166016,2022-01-03-14:44:41,10.1.1.5,182,-0.450,-0.450,-0.450,0.000,0.000,0.000
1641221081465549824,2022-01-03-14:44:41,10.1.1.5,181,-0.460,-0.460,-0.460,0.000,0.000,0.000
1641221081667449088,2022-01-03-14:44:41,10.1.1.5,181,-0.470,-0.470,-0.470,0.000,0.000,0.000
1641221081864680960,2022-01-03-14:44:41,10.1.1.5,177,-0.480,-0.480,-0.480,0.000,0.000,0.000
1641221082063614976,2022-01-03-14:44:42,10.1.1.5,173,-0.490,-0.490,-0.490,0.000,0.000,0.000
1641221082268584960,2022-01-03-14:44:42,10.1.1.5,178,-0.480,-0.480,-0.480,0.000,0.000,0.000
1641221082462994944,2022-01-03-14:44:42,10.1.1.5,171,-0.470,-0.470,-0.470,0.000,0.000,0.000
1641221082663102976,2022-01-03-14:44:42,10.1.1.5,170,-0.460,-0.460,-0.460,0.000,0.000,0.000
1641221082863493888,2022-01-03-14:44:42,10.1.1.5,170,-0.450,-0.450,-0.450,0.000,0.000,0.000
1641221083082475776,2022-01-03-14:44:43,10.1.1.5,186,-0.440,-0.440,-0.440,0.000,0.000,0.000
1641221083297903104,2022-01-03-14:44:43,10.1.1.5,188,-0.430,-0.430,-0.430,0.000,0.000,0.000
1641221083482050048,2022-01-03-14:44:43,10.1.1.5,183,-0.420,-0.420,-0.420,0.000,0.000,0.000
1641221083680894976,2022-01-03-14:44:43,10.1.1.5,182,-0.410,-0.410,-0.410,0.000,0.000,0.000
1641221083881874176,2022-01-03-14:44:43,10.1.1.5,182,-0.400,-0.400,-0.400,0.000,0.000,0.000
1641221084080916992,2022-01-03-14:44:44,10.1.1.5,181,-0.390,-0.390,-0.390,0.000,0.000,0.000
1641221084281058048,2022-01-03-14:44:44,10.1.1.5,180,-0.380,-0.380,-0.380,0.000,0.000,0.000
1641221084481143040,2022-01-03-14:44:44,10.1.1.5,179,-0.370,-0.370,-0.370,0.000,0.000,0.000
1641221084679642880,2022-01-03-14:44:44,10.1.1.5,177,-0.360,-0.360,-0.360,0.000,0.000,0.000
1641221084880062976,2022-01-03-14:44:44,10.1.1.5,172,-0.350,-0.350,-0.350,0.000,0.000,0.000
1641221085079901952,2022-01-03-14:44:45,10.1.1.5,171,-0.340,-0.340,-0.340,0.000,0.000,0.000
1641221085278449920,2022-01-03-14:44:45,10.1.1.5,169,-0.330,-0.330,-0.330,0.000,0.000,0.000
1641221085478529024,2022-01-03-14:44:45,10.1.1.5,168,-0.320,-0.320,-0.320,0.000,0.000,0.000
1641221085678520832,2022-01-03-14:44:45,10.1.1.5,167,-0.310,-0.310,-0.310,0.000,0.000,0.000
1641221085879589120,2022-01-03-14:44:45,10.1.1.5,167,-0.300,-0.300,-0.300,0.000,0.000,0.000
1641221086077622016,2022-01-03-14:44:46,10.1.1.5,165,-0.290,-0.290,-0.290,0.000,0.000,0.000
1641221086277971968,2022-01-03-14:44:46,10.1.1.5,165,-0.280,-0.280,-0.280,0.000,0.000,0.000
1641221086483261952,2022-01-03-14:44:46,10.1.1.5,169,-0.270,-0.270,-0.270,0.000,0.000,0.000
1641221086676685056,2022-01-03-14:44:46,10.1.1.5,162,-0.260,-0.260,-0.260,0.000,0.000,0.000
1641221086876379136,2022-01-03-14:44:46,10.1.1.5,161,-0.250,-0.250,-0.250,0.000,0.000,0.000
1641221087099760896,2022-01-03-14:44:47,10.1.1.5,181,-0.240,-0.240,-0.240,0.000,0.000,0.000
1641221087295835136,2022-01-03-14:44:47,10.1.1.5,179,-0.230,-0.230,-0.230,0.000,0.000,0.000
1641221087495814144,2022-01-03-14:44:47,10.1.1.5,176,-0.220,-0.220,-0.220,0.000,0.000,0.000
1641221087694925056,2022-01-03-14:44:47,10.1.1.5,173,-0.210,-0.210,-0.210,0.000,0.000,0.000
1641221087894948096,2022-01-03-14:44:47,10.1.1.5,172,-0.200,-0.200,-0.200,0.000,0.000,0.000
1641221088095318016,2022-01-03-14:44:48,10.1.1.5,172,-0.190,-0.190,-0.190,0.000,0.000,0.000
1641221088294035968,2022-01-03-14:44:48,10.1.1.5,170,-0.180,-0.180,-0.180,0.000,0.000,0.000
1641221088493992192,2022-01-03-14:44:48,10.1.1.5,169,-0.170,-0.170,-0.170,0.000,0.000,0.000
1641221088698486016,2022-01-03-14:44:48,10.1.1.5,172,-0.160,-0.160,-0.160,0.000,0.000,0.000
1641221088893068032,2022-01-03-14:44:48,10.1.1.5,166,-0.150,-0.150,-0.150,0.000,0.000,0.000
1641221089093094144,2022-01-03-14:44:49,10.1.1.5,165,-0.140,-0.140,-0.140,0.000,0.000,0.000
1641221089292527872,2022-01-03-14:44:49,10.1.1.5,164,-0.130,-0.130,-0.130,0.000,0.000,0.000
1641221089492997888,2022-01-03-14:44:49,10.1.1.5,163,-0.120,-0.120,-0.120,0.000,0.000,0.000
1641221089691979776,2022-01-03-14:44:49,10.1.1.5,162,-0.110,-0.110,-0.110,0.000,0.000,0.000
1641221089892368128,2022-01-03-14:44:49,10.1.1.5,161,-0.100,-0.100,-0.100,0.000,0.000,0.000
1641221090091841024,2022-01-03-14:44:50,10.1.1.5,160,-0.090,-0.090,-0.090,0.000,0.000,0.000
1641221090292534016,2022-01-03-14:44:50,10.1.1.5,160,-0.080,-0.080,-0.080,0.000,0.000,0.000
1641221090493357056,2022-01-03-14:44:50,10.1.1.5,159,-0.070,-0.070,-0.070,0.000,0.000,0.000
1641221090714397952,2022-01-03-14:44:50,10.1.1.5,174,-0.060,-0.060,-0.060,0.000,0.000,0.000
1641221090915923968,2022-01-03-14:44:50,10.1.1.5,174,-0.050,-0.050,-0.050,0.000,0.000,0.000
1641221091117307904,2022-01-03-14:44:51,10.1.1.5,175,-0.040,-0.040,-0.040,0.000,0.000,0.000
1641221091318061056,2022-01-03-14:44:51,10.1.1.5,175,-0.030,-0.030,-0.030,0.000,0.000,0.000
1641221091518187008,2022-01-03-14:44:51,10.1.1.5,175,-0.020,-0.020,-0.020,0.000,0.000,0.000
1641221091719495168,2022-01-03-14:44:51,10.1.1.5,175,-0.010,-0.010,-0.010,0.000,0.000,0.000
1641221091920773120,2022-01-03-14:44:51,10.1.1.5,175,0.000,0.000,0.000,0.000,0.000,0.000
1641221092120680960,2022-01-03-14:44:52,10.1.1.5,174,-0.010,-0.010,-0.010,0.000,0.000,0.000
1641221092321253888,2022-01-03-14:44:52,10.1.1.5,174,-0.020,-0.020,-0.020,0.000,0.000,0.000
1641221092523849984,2022-01-03-14:44:52,10.1.1.5,175,-0.030,-0.030,-0.030,0.000,0.000,0.000
1641221092723942912,2022-01-03-14:44:52,10.1.1.5,175,-0.040,-0.040,-0.040,0.000,0.000,0.000
1641221092924651008,2022-01-03-14:44:52,10.1.1.5,175,-0.050,-0.050,-0.050,0.000,0.000,0.000
1641221093124438016,2022-01-03-14:44:53,10.1.1.5,174,-0.060,-0.060,-0.060,0.000,0.000,0.000
1641221093325110016,2022-01-03-14:44:53,10.1.1.5,174,-0.070,-0.070,-0.070,0.000,0.000,0.000
1641221093527268864,2022-01-03-14:44:53,10.1.1.5,175,-0.080,-0.080,-0.080,0.000,0.000,0.000
1641221093729687808,2022-01-03-14:44:53,10.1.1.5,176,-0.090,-0.090,-0.090,0.000,0.000,0.000
1641221093927172864,2022-01-03-14:44:53,10.1.1.5,172,-0.100,-0.100,-0.100,0.000,0.000,0.000
1641221094153553920,2022-01-03-14:44:54,10.1.1.5,198,-0.110,-0.110,-0.110,0.000,0.000,0.000
1641221094349800192,2022-01-03-14:44:54,10.1.1.5,193,-0.120,-0.120,-0.120,0.000,0.000,0.000
1641221094548911104,2022-01-03-14:44:54,10.1.1.5,192,-0.130,-0.130,-0.130,0.000,0.000,0.000
1641221094749187840,2022-01-03-14:44:54,10.1.1.5,191,-0.140,-0.140,-0.140,0.000,0.000,0.000
1641221094949920768,2022-01-03-14:44:54,10.1.1.5,191,-0.150,-0.150,-0.150,0.000,0.000,0.000
1641221095355024128,2022-01-03-14:44:55,10.1.1.5,193,-0.170,-0.170,-0.170,0.000,0.000,0.000
1641221095550894848,2022-01-03-14:44:55,10.1.1.5,188,-0.180,-0.180,-0.180,0.000,0.000,0.000
1641221095952092928,2022-01-03-14:44:55,10.1.1.5,188,-0.200,-0.200,-0.200,0.000,0.000,0.000
1641221096151719168,2022-01-03-14:44:56,10.1.1.5,187,-0.210,-0.210,-0.210,0.000,0.000,0.000
1641221096352026112,2022-01-03-14:44:56,10.1.1.5,186,-0.220,-0.220,-0.220,0.000,0.000,0.000
1641221096552786176,2022-01-03-14:44:56,10.1.1.5,187,-0.230,-0.230,-0.230,0.000,0.000,0.000
1641221096752600832,2022-01-03-14:44:56,10.1.1.5,185,-0.240,-0.240,-0.240,0.000,0.000,0.000
1641221096953936128,2022-01-03-14:44:56,10.1.1.5,186,-0.250,-0.250,-0.250,0.000,0.000,0.000
1641221097153883904,2022-01-03-14:44:57,10.1.1.5,185,-0.260,-0.260,-0.260,0.000,0.000,0.000
1641221097353270016,2022-01-03-14:44:57,10.1.1.5,184,-0.270,-0.270,-0.270,0.000,0.000,0.000
1641221097553281024,2022-01-03-14:44:57,10.1.1.5,183,-0.280,-0.280,-0.280,0.000,0.000,0.000
1641221097753688064,2022-01-03-14:44:57,10.1.1.5,183,-0.290,-0.290,-0.290,0.000,0.000,0.000
1641221097954416128,2022-01-03-14:44:57,10.1.1.5,182,-0.300,-0.300,-0.300,0.000,0.000,0.000
1641221098155246848,2022-01-03-14:44:58,10.1.1.5,181,-0.310,-0.310,-0.310,0.000,0.000,0.000
1641221098355171072,2022-01-03-14:44:58,10.1.1.5,180,-0.320,-0.320,-0.320,0.000,0.000,0.000
1641221098575123968,2022-01-03-14:44:58,10.1.1.5,199,-0.330,-0.330,-0.330,0.000,0.000,0.000
1641221098774831104,2022-01-03-14:44:58,10.1.1.5,198,-0.340,-0.340,-0.340,0.000,0.000,0.000
1641221098975244032,2022-01-03-14:44:58,10.1.1.5,198,-0.350,-0.350,-0.350,0.000,0.000,0.000
1641221099176445952,2022-01-03-14:44:59,10.1.1.5,197,-0.360,-0.360,-0.360,0.000,0.000,0.000
1641221099375459840,2022-01-03-14:44:59,10.1.1.5,195,-0.370,-0.370,-0.370,0.000,0.000,0.000
1641221099575303168,2022-01-03-14:44:59,10.1.1.5,194,-0.380,-0.380,-0.380,0.000,0.000,0.000
1641221099775272960,2022-01-03-14:44:59,10.1.1.5,193,-0.390,-0.390,-0.390,0.000,0.000,0.000
1641221099975589120,2022-01-03-14:44:59,10.1.1.5,192,-0.400,-0.400,-0.400,0.000,0.000,0.000
1641221100175361024,2022-01-03-14:45:00,10.1.1.5,191,-0.410,-0.410,-0.410,0.000,0.000,0.000
1641221100375781888,2022-01-03-14:45:00,10.1.1.5,191,-0.420,-0.420,-0.420,0.000,0.000,0.000
1641221100580948992,2022-01-03-14:45:00,10.1.1.5,195,-0.430,-0.430,-0.430,0.000,0.000,0.000
1641221100780271104,2022-01-03-14:45:00,10.1.1.5,188,-0.440,-0.440,-0.440,0.000,0.000,0.000
1641221100976440064,2022-01-03-14:45:00,10.1.1.5,185,-0.450,-0.450,-0.450,0.000,0.000,0.000
1641221101175136000,2022-01-03-14:45:01,10.1.1.5,183,-0.460,-0.460,-0.460,0.000,0.000,0.000
1641221101376375040,2022-01-03-14:45:01,10.1.1.5,184,-0.470,-0.470,-0.470,0.000,0.000,0.000
1641221101591597056,2022-01-03-14:45:01,10.1.1.5,185,-0.480,-0.480,-0.480,0.000,0.000,0.000
1641221101775732992,2022-01-03-14:45:01,10.1.1.5,181,-0.490,-0.490,-0.490,0.000,0.000,0.000
1641221101995634944,2022-01-03-14:45:01,10.1.1.5,199,-0.480,-0.480,-0.480,0.000,0.000,0.000
1641221102194981120,2022-01-03-14:45:02,10.1.1.5,198,-0.470,-0.470,-0.470,0.000,0.000,0.000
1641221102595555072,2022-01-03-14:45:02,10.1.1.5,194,-0.450,-0.450,-0.450,0.000,0.000,0.000
1641221102795974912,2022-01-03-14:45:02,10.1.1.5,193,-0.440,-0.440,-0.440,0.000,0.000,0.000
1641221102995930880,2022-01-03-14:45:02,10.1.1.5,192,-0.430,-0.430,-0.430,0.000,0.000,0.000
1641221103195621120,2022-01-03-14:45:03,10.1.1.5,190,-0.420,-0.420,-0.420,0.000,0.000,0.000
1641221103395024896,2022-01-03-14:45:03,10.1.1.5,189,-0.410,-0.410,-0.410,0.000,0.000,0.000
1641221103594852864,2022-01-03-14:45:03,10.1.1.5,188,-0.400,-0.400,-0.400,0.000,0.000,0.000
1641221103794995968,2022-01-03-14:45:03,10.1.1.5,186,-0.390,-0.390,-0.390,0.000,0.000,0.000
1641221103994752000,2022-01-03-14:45:03,10.1.1.5,181,-0.380,-0.380,-0.380,0.000,0.000,0.000
1641221104194840832,2022-01-03-14:45:04,10.1.1.5,180,-0.370,-0.370,-0.370,0.000,0.000,0.000
1641221104394438144,2022-01-03-14:45:04,10.1.1.5,179,-0.360,-0.360,-0.360,0.000,0.000,0.000
1641221104614190080,2022-01-03-14:45:04,10.1.1.5,198,-0.350,-0.350,-0.350,0.000,0.000,0.000
1641221104814224896,2022-01-03-14:45:04,10.1.1.5,197,-0.340,-0.340,-0.340,0.000,0.000,0.000
1641221105013832960,2022-01-03-14:45:05,10.1.1.5,197,-0.330,-0.330,-0.330,0.000,0.000,0.000
1641221105214004992,2022-01-03-14:45:05,10.1.1.5,196,-0.320,-0.320,-0.320,0.000,0.000,0.000
1641221105414371072,2022-01-03-14:45:05,10.1.1.5,195,-0.310,-0.310,-0.310,0.000,0.000,0.000
1641221105613603072,2022-01-03-14:45:05,10.1.1.5,193,-0.300,-0.300,-0.300,0.000,0.000,0.000
1641221105813025024,2022-01-03-14:45:05,10.1.1.5,192,-0.290,-0.290,-0.290,0.000,0.000,0.000
1641221106212584960,2022-01-03-14:45:06,10.1.1.5,190,-0.270,-0.270,-0.270,0.000,0.000,0.000
1641221106412689920,2022-01-03-14:45:06,10.1.1.5,189,-0.260,-0.260,-0.260,0.000,0.000,0.000
1641221106612773888,2022-01-03-14:45:06,10.1.1.5,189,-0.250,-0.250,-0.250,0.000,0.000,0.000
1641221106811868928,2022-01-03-14:45:06,10.1.1.5,182,-0.240,-0.240,-0.240,0.000,0.000,0.000
1641221107012072960,2022-01-03-14:45:07,10.1.1.5,181,-0.230,-0.230,-0.230,0.000,0.000,0.000
1641221107212249088,2022-01-03-14:45:07,10.1.1.5,181,-0.220,-0.220,-0.220,0.000,0.000,0.000
1641221107411924992,2022-01-03-14:45:07,10.1.1.5,180,-0.210,-0.210,-0.210,0.000,0.000,0.000
1641221107611656960,2022-01-03-14:45:07,10.1.1.5,179,-0.200,-0.200,-0.200,0.000,0.000,0.000
1641221107812453120,2022-01-03-14:45:07,10.1.1.5,180,-0.190,-0.190,-0.190,0.000,0.000,0.000
1641221108030927872,2022-01-03-14:45:08,10.1.1.5,195,-0.180,-0.180,-0.180,0.000,0.000,0.000
1641221108430654976,2022-01-03-14:45:08,10.1.1.5,192,-0.160,-0.160,-0.160,0.000,0.000,0.000
1641221108636340992,2022-01-03-14:45:08,10.1.1.5,190,-0.150,-0.150,-0.150,0.000,0.000,0.000
1641221108830780928,2022-01-03-14:45:08,10.1.1.5,184,-0.140,-0.140,-0.140,0.000,0.000,0.000
1641221109029598976,2022-01-03-14:45:09,10.1.1.5,182,-0.130,-0.130,-0.130,0.000,0.000,0.000
1641221109229351936,2022-01-03-14:45:09,10.1.1.5,181,-0.120,-0.120,-0.120,0.000,0.000,0.000
1641221109429246976,2022-01-03-14:45:09,10.1.1.5,180,-0.110,-0.110,-0.110,0.000,0.000,0.000
1641221109629358080,2022-01-03-14:45:09,10.1.1.5,180,-0.100,-0.100,-0.100,0.000,0.000,0.000
1641221109828603136,2022-01-03-14:45:09,10.1.1.5,178,-0.090,-0.090,-0.090,0.000,0.000,0.000
1641221110028455936,2022-01-03-14:45:10,10.1.1.5,178,-0.080,-0.080,-0.080,0.000,0.000,0.000
1641221110228262912,2022-01-03-14:45:10,10.1.1.5,177,-0.070,-0.070,-0.070,0.000,0.000,0.000
1641221110428574976,2022-01-03-14:45:10,10.1.1.5,176,-0.060,-0.060,-0.060,0.000,0.000,0.000
1641221110628058880,2022-01-03-14:45:10,10.1.1.5,175,-0.050,-0.050,-0.050,0.000,0.000,0.000
1641221110828358912,2022-01-03-14:45:10,10.1.1.5,174,-0.040,-0.040,-0.040,0.000,0.000,0.000
1641221111028740864,2022-01-03-14:45:11,10.1.1.5,173,-0.030,-0.030,-0.030,0.000,0.000,0.000
1641221111247581952,2022-01-03-14:45:11,10.1.1.5,192,-0.020,-0.020,-0.020,0.000,0.000,0.000
1641221111453679104,2022-01-03-14:45:11,10.1.1.5,194,-0.010,-0.010,-0.010,0.000,0.000,0.000
1641221111647939840,2022-01-03-14:45:11,10.1.1.5,186,0.000,0.000,0.000,0.000,0.000,0.000
1641221111852119040,2022-01-03-14:45:11,10.1.1.5,179,-0.010,-0.010,-0.010,0.000,0.000,0.000
1641221112046155008,2022-01-03-14:45:12,10.1.1.5,178,-0.020,-0.020,-0.020,0.000,0.000,0.000
1641221112254663936,2022-01-03-14:45:12,10.1.1.5,184,-0.030,-0.030,-0.030,0.000,0.000,0.000
1641221112446080000,2022-01-03-14:45:12,10.1.1.5,174,-0.040,-0.040,-0.040,0.000,0.000,0.000
1641221112645381888,2022-01-03-14:45:12,10.1.1.5,172,-0.050,-0.050,-0.050,0.000,0.000,0.000
1641221112845465856,2022-01-03-14:45:12,10.1.1.5,171,-0.060,-0.060,-0.060,0.000,0.000,0.000
1641221113065224960,2022-01-03-14:45:13,10.1.1.5,189,-0.070,-0.070,-0.070,0.000,0.000,0.000
1641221113264784128,2022-01-03-14:45:13,10.1.1.5,188,-0.080,-0.080,-0.080,0.000,0.000,0.000
1641221113464987136,2022-01-03-14:45:13,10.1.1.5,182,-0.090,-0.090,-0.090,0.000,0.000,0.000
1641221113683481856,2022-01-03-14:45:13,10.1.1.5,199,-0.100,-0.100,-0.100,0.000,0.000,0.000
1641221113863827968,2022-01-03-14:45:13,10.1.1.5,178,-0.110,-0.110,-0.110,0.000,0.000,0.000
1641221114063554048,2022-01-03-14:45:14,10.1.1.5,171,-0.120,-0.120,-0.120,0.000,0.000,0.000
1641221114266702848,2022-01-03-14:45:14,10.1.1.5,173,-0.130,-0.130,-0.130,0.000,0.000,0.000
1641221114462801920,2022-01-03-14:45:14,10.1.1.5,168,-0.140,-0.140,-0.140,0.000,0.000,0.000
1641221114695791872,2022-01-03-14:45:14,10.1.1.5,200,-0.150,-0.150,-0.150,0.000,0.000,0.000
1641221114883190016,2022-01-03-14:45:14,10.1.1.5,185,-0.160,-0.160,-0.160,0.000,0.000,0.000
1641221115082076160,2022-01-03-14:45:15,10.1.1.5,182,-0.170,-0.170,-0.170,0.000,0.000,0.000
1641221115281850112,2022-01-03-14:45:15,10.1.1.5,182,-0.180,-0.180,-0.180,0.000,0.000,0.000
1641221115482136064,2022-01-03-14:45:15,10.1.1.5,173,-0.190,-0.190,-0.190,0.000,0.000,0.000
1641221115680870144,2022-01-03-14:45:15,10.1.1.5,171,-0.200,-0.200,-0.200,0.000,0.000,0.000
1641221115880422144,2022-01-03-14:45:15,10.1.1.5,170,-0.210,-0.210,-0.210,0.000,0.000,0.000
1641221116080698880,2022-01-03-14:45:16,10.1.1.5,170,-0.220,-0.220,-0.220,0.000,0.000,0.000
1641221116279855104,2022-01-03-14:45:16,10.1.1.5,168,-0.230,-0.230,-0.230,0.000,0.000,0.000
1641221116479814144,2022-01-03-14:45:16,10.1.1.5,167,-0.240,-0.240,-0.240,0.000,0.000,0.000
1641221116679177984,2022-01-03-14:45:16,10.1.1.5,165,-0.250,-0.250,-0.250,0.000,0.000,0.000
1641221116878864896,2022-01-03-14:45:16,10.1.1.5,164,-0.260,-0.260,-0.260,0.000,0.000,0.000
1641221117098817024,2022-01-03-14:45:17,10.1.1.5,181,-0.270,-0.270,-0.270,0.000,0.000,0.000
1641221117298883072,2022-01-03-14:45:17,10.1.1.5,181,-0.280,-0.280,-0.280,0.000,0.000,0.000
1641221117498691072,2022-01-03-14:45:17,10.1.1.5,180,-0.290,-0.290,-0.290,0.000,0.000,0.000
1641221117699196928,2022-01-03-14:45:17,10.1.1.5,179,-0.300,-0.300,-0.300,0.000,0.000,0.000
1641221117898209024,2022-01-03-14:45:17,10.1.1.5,178,-0.310,-0.310,-0.310,0.000,0.000,0.000
1641221118098094080,2022-01-03-14:45:18,10.1.1.5,175,-0.320,-0.320,-0.320,0.000,0.000,0.000
1641221118301163008,2022-01-03-14:45:18,10.1.1.5,177,-0.330,-0.330,-0.330,0.000,0.000,0.000
1641221118496985856,2022-01-03-14:45:18,10.1.1.5,172,-0.340,-0.340,-0.340,0.000,0.000,0.000
1641221118697308160,2022-01-03-14:45:18,10.1.1.5,172,-0.350,-0.350,-0.350,0.000,0.000,0.000
1641221118896620032,2022-01-03-14:45:18,10.1.1.5,170,-0.360,-0.360,-0.360,0.000,0.000,0.000
1641221119097618176,2022-01-03-14:45:19,10.1.1.5,171,-0.370,-0.370,-0.370,0.000,0.000,0.000
1641221119295340032,2022-01-03-14:45:19,10.1.1.5,168,-0.380,-0.380,-0.380,0.000,0.000,0.000
1641221119495268096,2022-01-03-14:45:19,10.1.1.5,167,-0.390,-0.390,-0.390,0.000,0.000,0.000
1641221119699441920,2022-01-03-14:45:19,10.1.1.5,171,-0.400,-0.400,-0.400,0.000,0.000,0.000
1641221119894604032,2022-01-03-14:45:19,10.1.1.5,164,-0.410,-0.410,-0.410,0.000,0.000,0.000
1641221120096391936,2022-01-03-14:45:20,10.1.1.5,164,-0.420,-0.420,-0.420,0.000,0.000,0.000
1641221120307396864,2022-01-03-14:45:20,10.1.1.5,174,-0.430,-0.430,-0.430,0.000,0.000,0.000
1641221120513806080,2022-01-03-14:45:20,10.1.1.5,178,-0.440,-0.440,-0.440,0.000,0.000,0.000
1641221120712871168,2022-01-03-14:45:20,10.1.1.5,175,-0.450,-0.450,-0.450,0.000,0.000,0.000
1641221120912569088,2022-01-03-14:45:20,10.1.1.5,173,-0.460,-0.460,-0.460,0.000,0.000,0.000
1641221121113297920,2022-01-03-14:45:21,10.1.1.5,173,-0.470,-0.470,-0.470,0.000,0.000,0.000
1641221121312562944,2022-01-03-14:45:21,10.1.1.5,172,-0.480,-0.480,-0.480,0.000,0.000,0.000
1641221121512357888,2022-01-03-14:45:21,10.1.1.5,171,-0.490,-0.490,-0.490,0.000,0.000,0.000
1641221121715888896,2022-01-03-14:45:21,10.1.1.5,171,-0.480,-0.480,-0.480,0.000,0.000,0.000
1641221121918048000,2022-01-03-14:45:21,10.1.1.5,175,-0.470,-0.470,-0.470,0.000,0.000,0.000
1641221122112897024,2022-01-03-14:45:22,10.1.1.5,167,-0.460,-0.460,-0.460,0.000,0.000,0.000
1641221122316579072,2022-01-03-14:45:22,10.1.1.5,170,-0.450,-0.450,-0.450,0.000,0.000,0.000
1641221122515353856,2022-01-03-14:45:22,10.1.1.5,167,-0.440,-0.440,-0.440,0.000,0.000,0.000
1641221122716119040,2022-01-03-14:45:22,10.1.1.5,168,-0.430,-0.430,-0.430,0.000,0.000,0.000
1641221122915465984,2022-01-03-14:45:22,10.1.1.5,166,-0.420,-0.420,-0.420,0.000,0.000,0.000
1641221123117264896,2022-01-03-14:45:23,10.1.1.5,167,-0.410,-0.410,-0.410,0.000,0.000,0.000
1641221123318043904,2022-01-03-14:45:23,10.1.1.5,167,-0.400,-0.400,-0.400,0.000,0.000,0.000
1641221123518424064,2022-01-03-14:45:23,10.1.1.5,166,-0.390,-0.390,-0.390,0.000,0.000,0.000
1641221123719789056,2022-01-03-14:45:23,10.1.1.5,167,-0.380,-0.380,-0.380,0.000,0.000,0.000
1641221123920660992,2022-01-03-14:45:23,10.1.1.5,167,-0.370,-0.370,-0.370,0.000,0.000,0.000
1641221124121443072,2022-01-03-14:45:24,10.1.1.5,167,-0.360,-0.360,-0.360,0.000,0.000,0.000
1641221124321605888,2022-01-03-14:45:24,10.1.1.5,167,-0.350,-0.350,-0.350,0.000,0.000,0.000
1641221124524734976,2022-01-03-14:45:24,10.1.1.5,169,-0.340,-0.340,-0.340,0.000,0.000,0.000
1641221124743719168,2022-01-03-14:45:24,10.1.1.5,188,-0.330,-0.330,-0.330,0.000,0.000,0.000
1641221124944050176,2022-01-03-14:45:24,10.1.1.5,187,-0.320,-0.320,-0.320,0.000,0.000,0.000
1641221125144457984,2022-01-03-14:45:25,10.1.1.5,187,-0.310,-0.310,-0.310,0.000,0.000,0.000
1641221125345678080,2022-01-03-14:45:25,10.1.1.5,187,-0.300,-0.300,-0.300,0.000,0.000,0.000
1641221125549193984,2022-01-03-14:45:25,10.1.1.5,188,-0.290,-0.290,-0.290,0.000,0.000,0.000
1641221125746622208,2022-01-03-14:45:25,10.1.1.5,185,-0.280,-0.280,-0.280,0.000,0.000,0.000
1641221125967712000,2022-01-03-14:45:25,10.1.1.5,186,-0.270,-0.270,-0.270,0.000,0.000,0.000
1641221126168057088,2022-01-03-14:45:26,10.1.1.5,186,-0.260,-0.260,-0.260,0.000,0.000,0.000
1641221126368345088,2022-01-03-14:45:26,10.1.1.5,182,-0.250,-0.250,-0.250,0.000,0.000,0.000
1641221126569328128,2022-01-03-14:45:26,10.1.1.5,182,-0.240,-0.240,-0.240,0.000,0.000,0.000
1641221126769018880,2022-01-03-14:45:26,10.1.1.5,181,-0.230,-0.230,-0.230,0.000,0.000,0.000
1641221126969757952,2022-01-03-14:45:26,10.1.1.5,180,-0.220,-0.220,-0.220,0.000,0.000,0.000
1641221127170192896,2022-01-03-14:45:27,10.1.1.5,180,-0.210,-0.210,-0.210,0.000,0.000,0.000
1641221127371157760,2022-01-03-14:45:27,10.1.1.5,180,-0.200,-0.200,-0.200,0.000,0.000,0.000
1641221127571301888,2022-01-03-14:45:27,10.1.1.5,180,-0.190,-0.190,-0.190,0.000,0.000,0.000
1641221127772171008,2022-01-03-14:45:27,10.1.1.5,180,-0.180,-0.180,-0.180,0.000,0.000,0.000
1641221127971888896,2022-01-03-14:45:27,10.1.1.5,179,-0.170,-0.170,-0.170,0.000,0.000,0.000
1641221128172003072,2022-01-03-14:45:28,10.1.1.5,178,-0.160,-0.160,-0.160,0.000,0.000,0.000
1641221128372474880,2022-01-03-14:45:28,10.1.1.5,178,-0.150,-0.150,-0.150,0.000,0.000,0.000
1641221128573229056,2022-01-03-14:45:28,10.1.1.5,178,-0.140,-0.140,-0.140,0.000,0.000,0.000
1641221128794627840,2022-01-03-14:45:28,10.1.1.5,198,-0.130,-0.130,-0.130,0.000,0.000,0.000
1641221128993974016,2022-01-03-14:45:28,10.1.1.5,196,-0.120,-0.120,-0.120,0.000,0.000,0.000
1641221129194833152,2022-01-03-14:45:29,10.1.1.5,194,-0.110,-0.110,-0.110,0.000,0.000,0.000
1641221129397772032,2022-01-03-14:45:29,10.1.1.5,193,-0.100,-0.100,-0.100,0.000,0.000,0.000
1641221129597351936,2022-01-03-14:45:29,10.1.1.5,194,-0.090,-0.090,-0.090,0.000,0.000,0.000
1641221129794505984,2022-01-03-14:45:29,10.1.1.5,192,-0.080,-0.080,-0.080,0.000,0.000,0.000
1641221129995394048,2022-01-03-14:45:29,10.1.1.5,193,-0.070,-0.070,-0.070,0.000,0.000,0.000
1641221130195211776,2022-01-03-14:45:30,10.1.1.5,192,-0.060,-0.060,-0.060,0.000,0.000,0.000
1641221130395142144,2022-01-03-14:45:30,10.1.1.5,191,-0.050,-0.050,-0.050,0.000,0.000,0.000
1641221130602579968,2022-01-03-14:45:30,10.1.1.5,198,-0.040,-0.040,-0.040,0.000,0.000,0.000
1641221130795790080,2022-01-03-14:45:30,10.1.1.5,191,-0.030,-0.030,-0.030,0.000,0.000,0.000
1641221130995773952,2022-01-03-14:45:30,10.1.1.5,190,-0.020,-0.020,-0.020,0.000,0.000,0.000
1641221131195663872,2022-01-03-14:45:31,10.1.1.5,190,-0.010,-0.010,-0.010,0.000,0.000,0.000
1641221131395725056,2022-01-03-14:45:31,10.1.1.5,188,0.000,0.000,0.000,0.000,0.000,0.000
1641221131595523072,2022-01-03-14:45:31,10.1.1.5,187,-0.010,-0.010,-0.010,0.000,0.000,0.000
1641221131796019200,2022-01-03-14:45:31,10.1.1.5,187,-0.020,-0.020,-0.020,0.000,0.000,0.000
1641221131996264960,2022-01-03-14:45:31,10.1.1.5,187,-0.030,-0.030,-0.030,0.000,0.000,0.000
1641221132195471104,2022-01-03-14:45:32,10.1.1.5,186,-0.040,-0.040,-0.040,0.000,0.000,0.000
1641221132397777152,2022-01-03-14:45:32,10.1.1.5,187,-0.050,-0.050,-0.050,0.000,0.000,0.000
1641221132597295872,2022-01-03-14:45:32,10.1.1.5,186,-0.060,-0.060,-0.060,0.000,0.000,0.000
1641221132796348928,2022-01-03-14:45:32,10.1.1.5,184,-0.070,-0.070,-0.070,0.000,0.000,0.000
1641221132997189120,2022-01-03-14:45:32,10.1.1.5,184,-0.080,-0.080,-0.080,0.000,0.000,0.000
1641221133196034816,2022-01-03-14:45:33,10.1.1.5,183,-0.090,-0.090,-0.090,0.000,0.000,0.000
1641221133395969024,2022-01-03-14:45:33,10.1.1.5,182,-0.100,-0.100,-0.100,0.000,0.000,0.000
1641221133596151040,2022-01-03-14:45:33,10.1.1.5,182,-0.110,-0.110,-0.110,0.000,0.000,0.000
1641221133795463168,2022-01-03-14:45:33,10.1.1.5,181,-0.120,-0.120,-0.120,0.000,0.000,0.000
1641221133996195072,2022-01-03-14:45:33,10.1.1.5,181,-0.130,-0.130,-0.130,0.000,0.000,0.000
1641221134210702848,2022-01-03-14:45:34,10.1.1.5,184,-0.140,-0.140,-0.140,0.000,0.000,0.000
1641221134416033024,2022-01-03-14:45:34,10.1.1.5,199,-0.150,-0.150,-0.150,0.000,0.000,0.000
1641221134616471040,2022-01-03-14:45:34,10.1.1.5,199,-0.160,-0.160,-0.160,0.000,0.000,0.000
1641221134815910144,2022-01-03-14:45:34,10.1.1.5,198,-0.170,-0.170,-0.170,0.000,0.000,0.000
1641221135015584000,2022-01-03-14:45:35,10.1.1.5,196,-0.180,-0.180,-0.180,0.000,0.000,0.000
1641221135215429120,2022-01-03-14:45:35,10.1.1.5,195,-0.190,-0.190,-0.190,0.000,0.000,0.000
1641221135415110144,2022-01-03-14:45:35,10.1.1.5,194,-0.200,-0.200,-0.200,0.000,0.000,0.000
1641221135615879168,2022-01-03-14:45:35,10.1.1.5,193,-0.210,-0.210,-0.210,0.000,0.000,0.000
1641221135815664128,2022-01-03-14:45:35,10.1.1.5,193,-0.220,-0.220,-0.220,0.000,0.000,0.000
1641221136015078144,2022-01-03-14:45:36,10.1.1.5,191,-0.230,-0.230,-0.230,0.000,0.000,0.000
1641221136215215872,2022-01-03-14:45:36,10.1.1.5,191,-0.240,-0.240,-0.240,0.000,0.000,0.000
1641221136414720000,2022-01-03-14:45:36,10.1.1.5,188,-0.250,-0.250,-0.250,0.000,0.000,0.000
1641221136614160128,2022-01-03-14:45:36,10.1.1.5,186,-0.260,-0.260,-0.260,0.000,0.000,0.000
1641221136814859008,2022-01-03-14:45:36,10.1.1.5,187,-0.270,-0.270,-0.270,0.000,0.000,0.000
1641221137015932928,2022-01-03-14:45:37,10.1.1.5,187,-0.280,-0.280,-0.280,0.000,0.000,0.000
1641221137215954944,2022-01-03-14:45:37,10.1.1.5,185,-0.290,-0.290,-0.290,0.000,0.000,0.000
1641221137414467072,2022-01-03-14:45:37,10.1.1.5,182,-0.300,-0.300,-0.300,0.000,0.000,0.000
1641221137614198016,2022-01-03-14:45:37,10.1.1.5,182,-0.310,-0.310,-0.310,0.000,0.000,0.000
1641221137813724160,2022-01-03-14:45:37,10.1.1.5,179,-0.320,-0.320,-0.320,0.000,0.000,0.000
1641221138013936896,2022-01-03-14:45:38,10.1.1.5,179,-0.330,-0.330,-0.330,0.000,0.000,0.000
1641221138233746944,2022-01-03-14:45:38,10.1.1.5,198,-0.340,-0.340,-0.340,0.000,0.000,0.000
1641221138433378816,2022-01-03-14:45:38,10.1.1.5,197,-0.350,-0.350,-0.350,0.000,0.000,0.000
1641221138633331968,2022-01-03-14:45:38,10.1.1.5,196,-0.360,-0.360,-0.360,0.000,0.000,0.000
1641221138833339904,2022-01-03-14:45:38,10.1.1.5,195,-0.370,-0.370,-0.370,0.000,0.000,0.000
1641221139033142016,2022-01-03-14:45:39,10.1.1.5,194,-0.380,-0.380,-0.380,0.000,0.000,0.000
1641221139239314176,2022-01-03-14:45:39,10.1.1.5,193,-0.390,-0.390,-0.390,0.000,0.000,0.000
1641221139433021184,2022-01-03-14:45:39,10.1.1.5,188,-0.400,-0.400,-0.400,0.000,0.000,0.000
1641221139632708096,2022-01-03-14:45:39,10.1.1.5,184,-0.410,-0.410,-0.410,0.000,0.000,0.000
1641221139831713792,2022-01-03-14:45:39,10.1.1.5,183,-0.420,-0.420,-0.420,0.000,0.000,0.000
1641221140031497984,2022-01-03-14:45:40,10.1.1.5,182,-0.430,-0.430,-0.430,0.000,0.000,0.000
1641221140231555840,2022-01-03-14:45:40,10.1.1.5,181,-0.440,-0.440,-0.440,0.000,0.000,0.000
1641221140431634944,2022-01-03-14:45:40,10.1.1.5,181,-0.450,-0.450,-0.450,0.000,0.000,0.000
1641221140630728960,2022-01-03-14:45:40,10.1.1.5,178,-0.460,-0.460,-0.460,0.000,0.000,0.000
1641221140831609088,2022-01-03-14:45:40,10.1.1.5,177,-0.470,-0.470,-0.470,0.000,0.000,0.000
1641221141050672128,2022-01-03-14:45:41,10.1.1.5,195,-0.480,-0.480,-0.480,0.000,0.000,0.000
1641221141250040064,2022-01-03-14:45:41,10.1.1.5,194,-0.490,-0.490,-0.490,0.000,0.000,0.000
1641221141449693952,2022-01-03-14:45:41,10.1.1.5,193,-0.480,-0.480,-0.480,0.000,0.000,0.000
1641221141649230080,2022-01-03-14:45:41,10.1.1.5,192,-0.470,-0.470,-0.470,0.000,0.000,0.000
1641221141849276928,2022-01-03-14:45:41,10.1.1.5,191,-0.460,-0.460,-0.460,0.000,0.000,0.000
1641221142048942080,2022-01-03-14:45:42,10.1.1.5,190,-0.450,-0.450,-0.450,0.000,0.000,0.000
1641221142249108992,2022-01-03-14:45:42,10.1.1.5,190,-0.440,-0.440,-0.440,0.000,0.000,0.000
1641221142448474880,2022-01-03-14:45:42,10.1.1.5,189,-0.430,-0.430,-0.430,0.000,0.000,0.000
1641221142648493056,2022-01-03-14:45:42,10.1.1.5,188,-0.420,-0.420,-0.420,0.000,0.000,0.000
1641221142847728128,2022-01-03-14:45:42,10.1.1.5,187,-0.410,-0.410,-0.410,0.000,0.000,0.000
1641221143048669184,2022-01-03-14:45:43,10.1.1.5,187,-0.400,-0.400,-0.400,0.000,0.000,0.000
1641221143247814912,2022-01-03-14:45:43,10.1.1.5,186,-0.390,-0.390,-0.390,0.000,0.000,0.000
1641221143448169984,2022-01-03-14:45:43,10.1.1.5,186,-0.380,-0.380,-0.380,0.000,0.000,0.000
1641221143647505920,2022-01-03-14:45:43,10.1.1.5,184,-0.370,-0.370,-0.370,0.000,0.000,0.000
1641221143847578112,2022-01-03-14:45:43,10.1.1.5,183,-0.360,-0.360,-0.360,0.000,0.000,0.000
1641221144046952960,2022-01-03-14:45:44,10.1.1.5,182,-0.350,-0.350,-0.350,0.000,0.000,0.000
1641221144247083776,2022-01-03-14:45:44,10.1.1.5,182,-0.340,-0.340,-0.340,0.000,0.000,0.000
1641221144447164928,2022-01-03-14:45:44,10.1.1.5,181,-0.330,-0.330,-0.330,0.000,0.000,0.000
1641221144645946112,2022-01-03-14:45:44,10.1.1.5,180,-0.320,-0.320,-0.320,0.000,0.000,0.000
1641221144846565120,2022-01-03-14:45:44,10.1.1.5,180,-0.310,-0.310,-0.310,0.000,0.000,0.000
1641221145046127104,2022-01-03-14:45:45,10.1.1.5,179,-0.300,-0.300,-0.300,0.000,0.000,0.000
1641221145245659136,2022-01-03-14:45:45,10.1.1.5,177,-0.290,-0.290,-0.290,0.000,0.000,0.000
1641221145444904192,2022-01-03-14:45:45,10.1.1.5,175,-0.280,-0.280,-0.280,0.000,0.000,0.000
1641221145645623040,2022-01-03-14:45:45,10.1.1.5,175,-0.270,-0.270,-0.270,0.000,0.000,0.000
1641221145844268032,2022-01-03-14:45:45,10.1.1.5,173,-0.260,-0.260,-0.260,0.000,0.000,0.000
1641221146045572096,2022-01-03-14:45:46,10.1.1.5,173,-0.250,-0.250,-0.250,0.000,0.000,0.000
1641221146244360960,2022-01-03-14:45:46,10.1.1.5,171,-0.240,-0.240,-0.240,0.000,0.000,0.000
1641221146443463936,2022-01-03-14:45:46,10.1.1.5,169,-0.230,-0.230,-0.230,0.000,0.000,0.000
1641221146643486976,2022-01-03-14:45:46,10.1.1.5,168,-0.220,-0.220,-0.220,0.000,0.000,0.000
1641221146863272960,2022-01-03-14:45:46,10.1.1.5,187,-0.210,-0.210,-0.210,0.000,0.000,0.000
1641221147062488064,2022-01-03-14:45:47,10.1.1.5,185,-0.200,-0.200,-0.200,0.000,0.000,0.000
1641221147263246080,2022-01-03-14:45:47,10.1.1.5,185,-0.190,-0.190,-0.190,0.000,0.000,0.000
1641221147462174976,2022-01-03-14:45:47,10.1.1.5,184,-0.180,-0.180,-0.180,0.000,0.000,0.000
1641221147662273792,2022-01-03-14:45:47,10.1.1.5,183,-0.170,-0.170,-0.170,0.000,0.000,0.000
1641221147865346048,2022-01-03-14:45:47,10.1.1.5,182,-0.160,-0.160,-0.160,0.000,0.000,0.000
1641221148061427968,2022-01-03-14:45:48,10.1.1.5,181,-0.150,-0.150,-0.150,0.000,0.000,0.000
1641221148261398016,2022-01-03-14:45:48,10.1.1.5,180,-0.140,-0.140,-0.140,0.000,0.000,0.000
1641221148460208896,2022-01-03-14:45:48,10.1.1.5,174,-0.130,-0.130,-0.130,0.000,0.000,0.000
1641221148660428032,2022-01-03-14:45:48,10.1.1.5,173,-0.120,-0.120,-0.120,0.000,0.000,0.000
1641221148860068096,2022-01-03-14:45:48,10.1.1.5,172,-0.110,-0.110,-0.110,0.000,0.000,0.000
1641221149059709952,2022-01-03-14:45:49,10.1.1.5,170,-0.100,-0.100,-0.100,0.000,0.000,0.000
1641221149260776960,2022-01-03-14:45:49,10.1.1.5,171,-0.090,-0.090,-0.090,0.000,0.000,0.000
1641221149460161024,2022-01-03-14:45:49,10.1.1.5,170,-0.080,-0.080,-0.080,0.000,0.000,0.000
1641221149659183872,2022-01-03-14:45:49,10.1.1.5,168,-0.070,-0.070,-0.070,0.000,0.000,0.000
1641221149859552000,2022-01-03-14:45:49,10.1.1.5,168,-0.060,-0.060,-0.060,0.000,0.000,0.000
1641221150058070016,2022-01-03-14:45:50,10.1.1.5,166,-0.050,-0.050,-0.050,0.000,0.000,0.000
1641221150257505792,2022-01-03-14:45:50,10.1.1.5,165,-0.040,-0.040,-0.040,0.000,0.000,0.000
1641221150457797888,2022-01-03-14:45:50,10.1.1.5,164,-0.030,-0.030,-0.030,0.000,0.000,0.000
1641221150657358848,2022-01-03-14:45:50,10.1.1.5,163,-0.020,-0.020,-0.020,0.000,0.000,0.000
1641221150856914944,2022-01-03-14:45:50,10.1.1.5,162,-0.010,-0.010,-0.010,0.000,0.000,0.000
1641221151076695040,2022-01-03-14:45:51,10.1.1.5,181,0.000,0.000,0.000,0.000,0.000,0.000
1641221151276591104,2022-01-03-14:45:51,10.1.1.5,181,-0.010,-0.010,-0.010,0.000,0.000,0.000
1641221151456391168,2022-01-03-14:45:51,10.1.1.5,159,-0.020,-0.020,-0.020,0.000,0.000,0.000
1641221151676088064,2022-01-03-14:45:51,10.1.1.5,178,-0.030,-0.030,-0.030,0.000,0.000,0.000
1641221151875430144,2022-01-03-14:45:51,10.1.1.5,175,-0.040,-0.040,-0.040,0.000,0.000,0.000
1641221152076782848,2022-01-03-14:45:52,10.1.1.5,175,-0.050,-0.050,-0.050,0.000,0.000,0.000
1641221152275336960,2022-01-03-14:45:52,10.1.1.5,172,-0.060,-0.060,-0.060,0.000,0.000,0.000
1641221152475117824,2022-01-03-14:45:52,10.1.1.5,171,-0.070,-0.070,-0.070,0.000,0.000,0.000
1641221152673888000,2022-01-03-14:45:52,10.1.1.5,170,-0.080,-0.080,-0.080,0.000,0.000,0.000
1641221152875524096,2022-01-03-14:45:52,10.1.1.5,171,-0.090,-0.090,-0.090,0.000,0.000,0.000
1641221153073942016,2022-01-03-14:45:53,10.1.1.5,168,-0.100,-0.100,-0.100,0.000,0.000,0.000
1641221153273040896,2022-01-03-14:45:53,10.1.1.5,168,-0.110,-0.110,-0.110,0.000,0.000,0.000
1641221153473300992,2022-01-03-14:45:53,10.1.1.5,167,-0.120,-0.120,-0.120,0.000,0.000,0.000
1641221153673619968,2022-01-03-14:45:53,10.1.1.5,166,-0.130,-0.130,-0.130,0.000,0.000,0.000
1641221153872229120,2022-01-03-14:45:53,10.1.1.5,164,-0.140,-0.140,-0.140,0.000,0.000,0.000
1641221154072126976,2022-01-03-14:45:54,10.1.1.5,163,-0.150,-0.150,-0.150,0.000,0.000,0.000
1641221154272977152,2022-01-03-14:45:54,10.1.1.5,163,-0.160,-0.160,-0.160,0.000,0.000,0.000
1641221154475485952,2022-01-03-14:45:54,10.1.1.5,164,-0.170,-0.170,-0.170,0.000,0.000,0.000
1641221154675793920,2022-01-03-14:45:54,10.1.1.5,164,-0.180,-0.180,-0.180,0.000,0.000,0.000
1641221154876513024,2022-01-03-14:45:54,10.1.1.5,164,-0.190,-0.190,-0.190,0.000,0.000,0.000
1641221155078073856,2022-01-03-14:45:55,10.1.1.5,165,-0.200,-0.200,-0.200,0.000,0.000,0.000
1641221155278893056,2022-01-03-14:45:55,10.1.1.5,165,-0.210,-0.210,-0.210,0.000,0.000,0.000
1641221155479226112,2022-01-03-14:45:55,10.1.1.5,165,-0.220,-0.220,-0.220,0.000,0.000,0.000
1641221155679756032,2022-01-03-14:45:55,10.1.1.5,165,-0.230,-0.230,-0.230,0.000,0.000,0.000
1641221155902016000,2022-01-03-14:45:55,10.1.1.5,186,-0.240,-0.240,-0.240,0.000,0.000,0.000
1641221156101689088,2022-01-03-14:45:56,10.1.1.5,185,-0.250,-0.250,-0.250,0.000,0.000,0.000
1641221156302778880,2022-01-03-14:45:56,10.1.1.5,186,-0.260,-0.260,-0.260,0.000,0.000,0.000
1641221156505655040,2022-01-03-14:45:56,10.1.1.5,188,-0.270,-0.270,-0.270,0.000,0.000,0.000
1641221156704066048,2022-01-03-14:45:56,10.1.1.5,186,-0.280,-0.280,-0.280,0.000,0.000,0.000
1641221156908224000,2022-01-03-14:45:56,10.1.1.5,188,-0.290,-0.290,-0.290,0.000,0.000,0.000
1641221157105468928,2022-01-03-14:45:57,10.1.1.5,186,-0.300,-0.300,-0.300,0.000,0.000,0.000
1641221157305868032,2022-01-03-14:45:57,10.1.1.5,186,-0.310,-0.310,-0.310,0.000,0.000,0.000
1641221157506861824,2022-01-03-14:45:57,10.1.1.5,186,-0.320,-0.320,-0.320,0.000,0.000,0.000
1641221157707917056,2022-01-03-14:45:57,10.1.1.5,187,-0.330,-0.330,-0.330,0.000,0.000,0.000
1641221157907553792,2022-01-03-14:45:57,10.1.1.5,186,-0.340,-0.340,-0.340,0.000,0.000,0.000
1641221158108872960,2022-01-03-14:45:58,10.1.1.5,187,-0.350,-0.350,-0.350,0.000,0.000,0.000
1641221158308324096,2022-01-03-14:45:58,10.1.1.5,185,-0.360,-0.360,-0.360,0.000,0.000,0.000
1641221158510010112,2022-01-03-14:45:58,10.1.1.5,186,-0.370,-0.370,-0.370,0.000,0.000,0.000
1641221158711184128,2022-01-03-14:45:58,10.1.1.5,187,-0.380,-0.380,-0.380,0.000,0.000,0.000
1641221158910541056,2022-01-03-14:45:58,10.1.1.5,186,-0.390,-0.390,-0.390,0.000,0.000,0.000
1641221159111932928,2022-01-03-14:45:59,10.1.1.5,187,-0.400,-0.400,-0.400,0.000,0.000,0.000
1641221159311144192,2022-01-03-14:45:59,10.1.1.5,185,-0.410,-0.410,-0.410,0.000,0.000,0.000
1641221159511181056,2022-01-03-14:45:59,10.1.1.5,185,-0.420,-0.420,-0.420,0.000,0.000,0.000
1641221159716902912,2022-01-03-14:45:59,10.1.1.5,189,-0.430,-0.430,-0.430,0.000,0.000,0.000
1641221159911894016,2022-01-03-14:45:59,10.1.1.5,183,-0.440,-0.440,-0.440,0.000,0.000,0.000
1641221160113604096,2022-01-03-14:46:00,10.1.1.5,184,-0.450,-0.450,-0.450,0.000,0.000,0.000
1641221160318193920,2022-01-03-14:46:00,10.1.1.5,188,-0.460,-0.460,-0.460,0.000,0.000,0.000
1641221160514148096,2022-01-03-14:46:00,10.1.1.5,183,-0.470,-0.470,-0.470,0.000,0.000,0.000
1641221160714749184,2022-01-03-14:46:00,10.1.1.5,183,-0.480,-0.480,-0.480,0.000,0.000,0.000
1641221160913961984,2022-01-03-14:46:00,10.1.1.5,178,-0.490,-0.490,-0.490,0.000,0.000,0.000
1641221161341103104,2022-01-03-14:46:01,10.1.1.5,203,-0.470,-0.470,-0.470,0.000,0.000,0.000
1641221161535168000,2022-01-03-14:46:01,10.1.1.5,193,-0.460,-0.460,-0.460,0.000,0.000,0.000
1641221161736023808,2022-01-03-14:46:01,10.1.1.5,193,-0.450,-0.450,-0.450,0.000,0.000,0.000
1641221161937997056,2022-01-03-14:46:01,10.1.1.5,195,-0.440,-0.440,-0.440,0.000,0.000,0.000
1641221162135548160,2022-01-03-14:46:02,10.1.1.5,191,-0.430,-0.430,-0.430,0.000,0.000,0.000
1641221162340413184,2022-01-03-14:46:02,10.1.1.5,195,-0.420,-0.420,-0.420,0.000,0.000,0.000
1641221162540657152,2022-01-03-14:46:02,10.1.1.5,187,-0.410,-0.410,-0.410,0.000,0.000,0.000
1641221162735731968,2022-01-03-14:46:02,10.1.1.5,182,-0.400,-0.400,-0.400,0.000,0.000,0.000
1641221162936705024,2022-01-03-14:46:02,10.1.1.5,181,-0.390,-0.390,-0.390,0.000,0.000,0.000
1641221163355962880,2022-01-03-14:46:03,10.1.1.5,199,-0.370,-0.370,-0.370,0.000,0.000,0.000
1641221163555730176,2022-01-03-14:46:03,10.1.1.5,197,-0.360,-0.360,-0.360,0.000,0.000,0.000
1641221163761769984,2022-01-03-14:46:03,10.1.1.5,201,-0.350,-0.350,-0.350,0.000,0.000,0.000
1641221163957281024,2022-01-03-14:46:03,10.1.1.5,195,-0.340,-0.340,-0.340,0.000,0.000,0.000
1641221164162863104,2022-01-03-14:46:04,10.1.1.5,200,-0.330,-0.330,-0.330,0.000,0.000,0.000
1641221164356805120,2022-01-03-14:46:04,10.1.1.5,193,-0.320,-0.320,-0.320,0.000,0.000,0.000
1641221164556559104,2022-01-03-14:46:04,10.1.1.5,190,-0.310,-0.310,-0.310,0.000,0.000,0.000
1641221164756763904,2022-01-03-14:46:04,10.1.1.5,189,-0.300,-0.300,-0.300,0.000,0.000,0.000
1641221164956797952,2022-01-03-14:46:04,10.1.1.5,186,-0.290,-0.290,-0.290,0.000,0.000,0.000
1641221165158056960,2022-01-03-14:46:05,10.1.1.5,187,-0.280,-0.280,-0.280,0.000,0.000,0.000
1641221165356427008,2022-01-03-14:46:05,10.1.1.5,181,-0.270,-0.270,-0.270,0.000,0.000,0.000
1641221165556705024,2022-01-03-14:46:05,10.1.1.5,181,-0.260,-0.260,-0.260,0.000,0.000,0.000
1641221165799522048,2022-01-03-14:46:05,10.1.1.5,187,-0.250,-0.250,-0.250,0.000,0.000,0.000
1641221165997057792,2022-01-03-14:46:05,10.1.1.5,184,-0.240,-0.240,-0.240,0.000,0.000,0.000
1641221166203286784,2022-01-03-14:46:06,10.1.1.5,190,-0.230,-0.230,-0.230,0.000,0.000,0.000
1641221166399913984,2022-01-03-14:46:06,10.1.1.5,182,-0.220,-0.220,-0.220,0.000,0.000,0.000
1641221166816545024,2022-01-03-14:46:06,10.1.1.5,188,-0.200,-0.200,-0.200,0.000,0.000,0.000
1641221167036112128,2022-01-03-14:46:07,10.1.1.5,199,-0.190,-0.190,-0.190,0.000,0.000,0.000
1641221167236308224,2022-01-03-14:46:07,10.1.1.5,198,-0.180,-0.180,-0.180,0.000,0.000,0.000
1641221167436599040,2022-01-03-14:46:07,10.1.1.5,198,-0.170,-0.170,-0.170,0.000,0.000,0.000
1641221167635424000,2022-01-03-14:46:07,10.1.1.5,195,-0.160,-0.160,-0.160,0.000,0.000,0.000
1641221167837374976,2022-01-03-14:46:07,10.1.1.5,196,-0.150,-0.150,-0.150,0.000,0.000,0.000
1641221168036763904,2022-01-03-14:46:08,10.1.1.5,190,-0.140,-0.140,-0.140,0.000,0.000,0.000
1641221168235315200,2022-01-03-14:46:08,10.1.1.5,182,-0.130,-0.130,-0.130,0.000,0.000,0.000
1641221168435118080,2022-01-03-14:46:08,10.1.1.5,182,-0.120,-0.120,-0.120,0.000,0.000,0.000
1641221168634705920,2022-01-03-14:46:08,10.1.1.5,181,-0.110,-0.110,-0.110,0.000,0.000,0.000
1641221168836046848,2022-01-03-14:46:08,10.1.1.5,181,-0.100,-0.100,-0.100,0.000,0.000,0.000
1641221169036518144,2022-01-03-14:46:09,10.1.1.5,182,-0.090,-0.090,-0.090,0.000,0.000,0.000
1641221169235038976,2022-01-03-14:46:09,10.1.1.5,180,-0.080,-0.080,-0.080,0.000,0.000,0.000
1641221169436414976,2022-01-03-14:46:09,10.1.1.5,180,-0.070,-0.070,-0.070,0.000,0.000,0.000
1641221169655251968,2022-01-03-14:46:09,10.1.1.5,198,-0.060,-0.060,-0.060,0.000,0.000,0.000
1641221169854353920,2022-01-03-14:46:09,10.1.1.5,190,-0.050,-0.050,-0.050,0.000,0.000,0.000
1641221170054461952,2022-01-03-14:46:10,10.1.1.5,190,-0.040,-0.040,-0.040,0.000,0.000,0.000
1641221170254193920,2022-01-03-14:46:10,10.1.1.5,187,-0.030,-0.030,-0.030,0.000,0.000,0.000
1641221170454718208,2022-01-03-14:46:10,10.1.1.5,187,-0.020,-0.020,-0.020,0.000,0.000,0.000
1641221170653793024,2022-01-03-14:46:10,10.1.1.5,186,-0.010,-0.010,-0.010,0.000,0.000,0.000
1641221170853550848,2022-01-03-14:46:10,10.1.1.5,185,0.000,0.000,0.000,0.000,0.000,0.000
1641221171053741056,2022-01-03-14:46:11,10.1.1.5,185,-0.010,-0.010,-0.010,0.000,0.000,0.000
1641221171253440000,2022-01-03-14:46:11,10.1.1.5,181,-0.020,-0.020,-0.020,0.000,0.000,0.000
1641221171455852032,2022-01-03-14:46:11,10.1.1.5,182,-0.030,-0.030,-0.030,0.000,0.000,0.000
1641221171652116992,2022-01-03-14:46:11,10.1.1.5,178,-0.040,-0.040,-0.040,0.000,0.000,0.000
1641221171876121088,2022-01-03-14:46:11,10.1.1.5,199,-0.050,-0.050,-0.050,0.000,0.000,0.000
1641221172073154816,2022-01-03-14:46:12,10.1.1.5,195,-0.060,-0.060,-0.060,0.000,0.000,0.000
1641221172277053952,2022-01-03-14:46:12,10.1.1.5,199,-0.070,-0.070,-0.070,0.000,0.000,0.000
1641221172472833024,2022-01-03-14:46:12,10.1.1.5,193,-0.080,-0.080,-0.080,0.000,0.000,0.000
1641221172671878144,2022-01-03-14:46:12,10.1.1.5,192,-0.090,-0.090,-0.090,0.000,0.000,0.000
1641221172873117952,2022-01-03-14:46:12,10.1.1.5,192,-0.100,-0.100,-0.100,0.000,0.000,0.000
1641221173072851968,2022-01-03-14:46:13,10.1.1.5,190,-0.110,-0.110,-0.110,0.000,0.000,0.000
1641221173274753024,2022-01-03-14:46:13,10.1.1.5,191,-0.120,-0.120,-0.120,0.000,0.000,0.000
1641221173474216960,2022-01-03-14:46:13,10.1.1.5,189,-0.130,-0.130,-0.130,0.000,0.000,0.000
1641221173670604032,2022-01-03-14:46:13,10.1.1.5,180,-0.140,-0.140,-0.140,0.000,0.000,0.000
1641221173870529792,2022-01-03-14:46:13,10.1.1.5,179,-0.150,-0.150,-0.150,0.000,0.000,0.000
1641221174070215936,2022-01-03-14:46:14,10.1.1.5,177,-0.160,-0.160,-0.160,0.000,0.000,0.000
1641221174289516800,2022-01-03-14:46:14,10.1.1.5,192,-0.170,-0.170,-0.170,0.000,0.000,0.000
1641221174489048832,2022-01-03-14:46:14,10.1.1.5,190,-0.180,-0.180,-0.180,0.000,0.000,0.000
1641221174688914944,2022-01-03-14:46:14,10.1.1.5,188,-0.190,-0.190,-0.190,0.000,0.000,0.000
1641221174889420032,2022-01-03-14:46:14,10.1.1.5,188,-0.200,-0.200,-0.200,0.000,0.000,0.000
1641221175092612864,2022-01-03-14:46:15,10.1.1.5,190,-0.210,-0.210,-0.210,0.000,0.000,0.000
