FedericoMungari/DigitalTwin_service/01_WiredScenario/Output/Output_script/script_rosapi_2_output_robots1_freq0_1.txt
timestamp,date,node,latency,joint_1,joint_2,joint_3,joint_4,joint_5,joint_6
1644879225270044928,2022-02-14-22:53:45,10.1.1.2,-6,-0.100,-0.100,-0.100,-0.000,-0.000,0.000
1644879225348720128,2022-02-14-22:53:45,10.1.1.2,22,-0.090,-0.090,-0.090,0.000,0.000,0.000
1644879225408305920,2022-02-14-22:53:45,10.1.1.2,29,-0.080,-0.080,-0.080,0.000,0.000,0.000
1644879225468791040,2022-02-14-22:53:45,10.1.1.2,39,-0.070,-0.070,-0.070,0.000,0.000,0.000
1644879225509190912,2022-02-14-22:53:45,10.1.1.2,28,-0.060,-0.060,-0.060,0.000,0.000,0.000
1644879225569145088,2022-02-14-22:53:45,10.1.1.2,35,-0.050,-0.050,-0.050,0.000,0.000,0.000
1644879225608273152,2022-02-14-22:53:45,10.1.1.2,23,-0.040,-0.040,-0.040,0.000,0.000,0.000
1644879225674470912,2022-02-14-22:53:45,10.1.1.2,36,-0.030,-0.030,-0.030,0.000,0.000,0.000
1644879225724939008,2022-02-14-22:53:45,10.1.1.2,36,-0.020,-0.020,-0.020,0.000,0.000,0.000
1644879225772001024,2022-02-14-22:53:45,10.1.1.2,28,-0.010,-0.010,-0.010,0.000,0.000,0.000
1644879225831569920,2022-02-14-22:53:45,10.1.1.2,34,0.000,0.000,0.000,0.000,0.000,0.000
1644879225889463808,2022-02-14-22:53:45,10.1.1.2,29,0.010,0.010,0.010,0.000,0.000,0.000
1644879225992183040,2022-02-14-22:53:45,10.1.1.2,33,0.030,0.030,0.030,0.000,0.000,0.000
1644879226052331008,2022-02-14-22:53:46,10.1.1.2,38,0.040,0.040,0.040,0.000,0.000,0.000
1644879226201430016,2022-02-14-22:53:46,10.1.1.2,30,0.070,0.070,0.070,0.000,0.000,0.000
1644879226312076032,2022-02-14-22:53:46,10.1.1.2,35,0.090,0.090,0.090,0.000,0.000,0.000
1644879226353150976,2022-02-14-22:53:46,10.1.1.2,24,0.100,0.100,0.100,0.000,0.000,0.000
1644879226412179968,2022-02-14-22:53:46,10.1.1.2,33,0.090,0.090,0.090,0.000,0.000,0.000
1644879226452725760,2022-02-14-22:53:46,10.1.1.2,22,0.080,0.080,0.080,0.000,0.000,0.000
1644879226512520960,2022-02-14-22:53:46,10.1.1.2,31,0.070,0.070,0.070,0.000,0.000,0.000
1644879226571769088,2022-02-14-22:53:46,10.1.1.2,37,0.060,0.060,0.060,0.000,0.000,0.000
1644879226611452160,2022-02-14-22:53:46,10.1.1.2,26,0.050,0.050,0.050,0.000,0.000,0.000
1644879226671798016,2022-02-14-22:53:46,10.1.1.2,34,0.040,0.040,0.040,0.000,0.000,0.000
1644879226711930880,2022-02-14-22:53:46,10.1.1.2,22,0.030,0.030,0.030,0.000,0.000,0.000
1644879226771596032,2022-02-14-22:53:46,10.1.1.2,29,0.020,0.020,0.020,0.000,0.000,0.000
1644879226831908864,2022-02-14-22:53:46,10.1.1.2,34,0.010,0.010,0.010,0.000,0.000,0.000
1644879226892357120,2022-02-14-22:53:46,10.1.1.2,44,0.000,0.000,0.000,0.000,0.000,0.000
1644879226937105920,2022-02-14-22:53:46,10.1.1.2,33,-0.010,-0.010,-0.010,0.000,0.000,0.000
1644879226971769088,2022-02-14-22:53:46,10.1.1.2,21,-0.020,-0.020,-0.020,0.000,0.000,0.000
1644879227033769984,2022-02-14-22:53:47,10.1.1.2,28,-0.030,-0.030,-0.030,0.000,0.000,0.000
1644879227092145920,2022-02-14-22:53:47,10.1.1.2,37,-0.040,-0.040,-0.040,0.000,0.000,0.000
1644879227132462080,2022-02-14-22:53:47,10.1.1.2,25,-0.050,-0.050,-0.050,0.000,0.000,0.000
1644879227192380928,2022-02-14-22:53:47,10.1.1.2,34,-0.060,-0.060,-0.060,0.000,0.000,0.000
1644879227231576064,2022-02-14-22:53:47,10.1.1.2,21,-0.070,-0.070,-0.070,0.000,0.000,0.000
1644879227291742208,2022-02-14-22:53:47,10.1.1.2,30,-0.080,-0.080,-0.080,0.000,0.000,0.000
1644879227331855104,2022-02-14-22:53:47,10.1.1.2,19,-0.089,-0.089,-0.089,0.000,0.000,0.000
1644879227391851008,2022-02-14-22:53:47,10.1.1.2,28,-0.100,-0.100,-0.100,0.000,0.000,0.000
1644879227452124160,2022-02-14-22:53:47,10.1.1.2,37,-0.090,-0.090,-0.090,0.000,0.000,0.000
1644879227491959040,2022-02-14-22:53:47,10.1.1.2,26,-0.080,-0.080,-0.080,0.000,0.000,0.000
1644879227552551936,2022-02-14-22:53:47,10.1.1.2,35,-0.070,-0.070,-0.070,0.000,0.000,0.000
1644879227592966912,2022-02-14-22:53:47,10.1.1.2,23,-0.060,-0.060,-0.060,0.000,0.000,0.000
1644879227651730176,2022-02-14-22:53:47,10.1.1.2,31,-0.050,-0.050,-0.050,0.000,0.000,0.000
1644879227692337152,2022-02-14-22:53:47,10.1.1.2,20,-0.040,-0.040,-0.040,0.000,0.000,0.000
1644879227751787008,2022-02-14-22:53:47,10.1.1.2,27,-0.030,-0.030,-0.030,0.000,0.000,0.000
1644879227811942144,2022-02-14-22:53:47,10.1.1.2,36,-0.020,-0.020,-0.020,0.000,0.000,0.000
1644879227851857920,2022-02-14-22:53:47,10.1.1.2,25,-0.010,-0.010,-0.010,0.000,0.000,0.000
1644879227912282880,2022-02-14-22:53:47,10.1.1.2,34,0.000,0.000,0.000,0.000,0.000,0.000
1644879227951836160,2022-02-14-22:53:47,10.1.1.2,22,0.010,0.010,0.010,0.000,0.000,0.000
1644879228011715840,2022-02-14-22:53:48,10.1.1.2,31,0.020,0.020,0.020,0.000,0.000,0.000
1644879228051528960,2022-02-14-22:53:48,10.1.1.2,20,0.030,0.030,0.030,0.000,0.000,0.000
1644879228111833088,2022-02-14-22:53:48,10.1.1.2,24,0.040,0.040,0.040,0.000,0.000,0.000
1644879228172317952,2022-02-14-22:53:48,10.1.1.2,32,0.050,0.050,0.050,0.000,0.000,0.000
1644879228211342080,2022-02-14-22:53:48,10.1.1.2,21,0.060,0.060,0.060,0.000,0.000,0.000
1644879228271756032,2022-02-14-22:53:48,10.1.1.2,26,0.070,0.070,0.070,0.000,0.000,0.000
1644879228331620864,2022-02-14-22:53:48,10.1.1.2,35,0.080,0.080,0.080,0.000,0.000,0.000
1644879228371577856,2022-02-14-22:53:48,10.1.1.2,24,0.090,0.090,0.090,0.000,0.000,0.000
1644879228431793920,2022-02-14-22:53:48,10.1.1.2,31,0.100,0.100,0.100,0.000,0.000,0.000
1644879228531940864,2022-02-14-22:53:48,10.1.1.2,24,0.080,0.080,0.080,0.000,0.000,0.000
1644879228593157888,2022-02-14-22:53:48,10.1.1.2,33,0.070,0.070,0.070,0.000,0.000,0.000
1644879228692449024,2022-02-14-22:53:48,10.1.1.2,30,0.050,0.050,0.050,0.000,0.000,0.000
1644879228733051136,2022-02-14-22:53:48,10.1.1.2,19,0.040,0.040,0.040,0.000,0.000,0.000
1644879228792911104,2022-02-14-22:53:48,10.1.1.2,28,0.030,0.030,0.030,0.000,0.000,0.000
1644879228852317184,2022-02-14-22:53:48,10.1.1.2,35,0.020,0.020,0.020,0.000,0.000,0.000
1644879228892337920,2022-02-14-22:53:48,10.1.1.2,24,0.010,0.010,0.010,0.000,0.000,0.000
1644879228952250880,2022-02-14-22:53:48,10.1.1.2,33,0.000,0.000,0.000,0.000,0.000,0.000
1644879228993210112,2022-02-14-22:53:48,10.1.1.2,21,-0.010,-0.010,-0.010,0.000,0.000,0.000
1644879229051912192,2022-02-14-22:53:49,10.1.1.2,30,-0.020,-0.020,-0.020,0.000,0.000,0.000
1644879229092081152,2022-02-14-22:53:49,10.1.1.2,19,-0.029,-0.029,-0.029,0.000,0.000,0.000
1644879229151817984,2022-02-14-22:53:49,10.1.1.2,28,-0.040,-0.040,-0.040,0.000,0.000,0.000
1644879229211855872,2022-02-14-22:53:49,10.1.1.2,37,-0.050,-0.050,-0.050,0.000,0.000,0.000
1644879229252121088,2022-02-14-22:53:49,10.1.1.2,25,-0.060,-0.060,-0.060,0.000,0.000,0.000
1644879229311745792,2022-02-14-22:53:49,10.1.1.2,34,-0.070,-0.070,-0.070,0.000,0.000,0.000
1644879229351519232,2022-02-14-22:53:49,10.1.1.2,23,-0.080,-0.080,-0.080,0.000,0.000,0.000
1644879229412329984,2022-02-14-22:53:49,10.1.1.2,32,-0.090,-0.090,-0.090,0.000,0.000,0.000
1644879229471460096,2022-02-14-22:53:49,10.1.1.2,34,-0.100,-0.100,-0.100,0.000,0.000,0.000
1644879229511821056,2022-02-14-22:53:49,10.1.1.2,22,-0.090,-0.090,-0.090,0.000,0.000,0.000
1644879229572119040,2022-02-14-22:53:49,10.1.1.2,31,-0.080,-0.080,-0.080,0.000,0.000,0.000
1644879229612112896,2022-02-14-22:53:49,10.1.1.2,20,-0.070,-0.070,-0.070,0.000,0.000,0.000
1644879229671458048,2022-02-14-22:53:49,10.1.1.2,23,-0.060,-0.060,-0.060,0.000,0.000,0.000
1644879229731990016,2022-02-14-22:53:49,10.1.1.2,30,-0.050,-0.050,-0.050,0.000,0.000,0.000
1644879229792818176,2022-02-14-22:53:49,10.1.1.2,34,-0.040,-0.040,-0.040,0.000,0.000,0.000
1644879229831782144,2022-02-14-22:53:49,10.1.1.2,22,-0.030,-0.030,-0.030,0.000,0.000,0.000
1644879229891555072,2022-02-14-22:53:49,10.1.1.2,32,-0.020,-0.020,-0.020,0.000,0.000,0.000
1644879229932712192,2022-02-14-22:53:49,10.1.1.2,21,-0.010,-0.010,-0.010,0.000,0.000,0.000
1644879229992335104,2022-02-14-22:53:49,10.1.1.2,30,0.000,0.000,0.000,0.000,0.000,0.000
1644879230052401920,2022-02-14-22:53:50,10.1.1.2,39,0.010,0.010,0.010,0.000,0.000,0.000
1644879230091623168,2022-02-14-22:53:50,10.1.1.2,28,0.020,0.020,0.020,0.000,0.000,0.000
1644879230151774976,2022-02-14-22:53:50,10.1.1.2,37,0.030,0.030,0.030,0.000,0.000,0.000
1644879230192627968,2022-02-14-22:53:50,10.1.1.2,26,0.040,0.040,0.040,0.000,0.000,0.000
1644879230258824192,2022-02-14-22:53:50,10.1.1.2,36,0.050,0.050,0.050,0.000,0.000,0.000
1644879230284691968,2022-02-14-22:53:50,10.1.1.2,17,0.059,0.059,0.059,0.000,0.000,0.000
1644879230348014080,2022-02-14-22:53:50,10.1.1.2,28,0.070,0.070,0.070,0.000,0.000,0.000
1644879230397649920,2022-02-14-22:53:50,10.1.1.2,24,0.080,0.080,0.080,0.000,0.000,0.000
1644879230451111168,2022-02-14-22:53:50,10.1.1.2,24,0.090,0.090,0.090,0.000,0.000,0.000
1644879230515778048,2022-02-14-22:53:50,10.1.1.2,41,0.100,0.100,0.100,0.000,0.000,0.000
1644879230611105792,2022-02-14-22:53:50,10.1.1.2,32,0.080,0.080,0.080,0.000,0.000,0.000
1644879230711916032,2022-02-14-22:53:50,10.1.1.2,34,0.060,0.060,0.060,0.000,0.000,0.000
1644879230753388800,2022-02-14-22:53:50,10.1.1.2,23,0.050,0.050,0.050,0.000,0.000,0.000
1644879230812040960,2022-02-14-22:53:50,10.1.1.2,32,0.040,0.040,0.040,0.000,0.000,0.000
1644879230851845120,2022-02-14-22:53:50,10.1.1.2,20,0.030,0.030,0.030,0.000,0.000,0.000
1644879230912411904,2022-02-14-22:53:50,10.1.1.2,29,0.020,0.020,0.020,0.000,0.000,0.000
1644879230972450048,2022-02-14-22:53:50,10.1.1.2,37,0.010,0.010,0.010,0.000,0.000,0.000
1644879231211118080,2022-02-14-22:53:51,10.1.1.2,21,-0.040,-0.040,-0.040,0.000,0.000,0.000
1644879231270793984,2022-02-14-22:53:51,10.1.1.2,27,-0.050,-0.050,-0.050,0.000,0.000,0.000
1644879231330040832,2022-02-14-22:53:51,10.1.1.2,36,-0.060,-0.060,-0.060,0.000,0.000,0.000
1644879231369199872,2022-02-14-22:53:51,10.1.1.2,23,-0.070,-0.070,-0.070,0.000,0.000,0.000
1644879231429299968,2022-02-14-22:53:51,10.1.1.2,33,-0.080,-0.080,-0.080,0.000,0.000,0.000
1644879231490365952,2022-02-14-22:53:51,10.1.1.2,38,-0.090,-0.090,-0.090,0.000,0.000,0.000
1644879231529469952,2022-02-14-22:53:51,10.1.1.2,24,-0.100,-0.100,-0.100,0.000,0.000,0.000
1644879231589280000,2022-02-14-22:53:51,10.1.1.2,33,-0.090,-0.090,-0.090,0.000,0.000,0.000
1644879231649410048,2022-02-14-22:53:51,10.1.1.2,38,-0.080,-0.080,-0.080,0.000,0.000,0.000
1644879231689740800,2022-02-14-22:53:51,10.1.1.2,25,-0.070,-0.070,-0.070,0.000,0.000,0.000
1644879231749860096,2022-02-14-22:53:51,10.1.1.2,35,-0.060,-0.060,-0.060,0.000,0.000,0.000
1644879231791280896,2022-02-14-22:53:51,10.1.1.2,24,-0.050,-0.050,-0.050,0.000,0.000,0.000
1644879231850264064,2022-02-14-22:53:51,10.1.1.2,33,-0.040,-0.040,-0.040,0.000,0.000,0.000
1644879231889739008,2022-02-14-22:53:51,10.1.1.2,23,-0.030,-0.030,-0.030,0.000,0.000,0.000
1644879231950478080,2022-02-14-22:53:51,10.1.1.2,32,-0.020,-0.020,-0.020,0.000,0.000,0.000
1644879231990752000,2022-02-14-22:53:51,10.1.1.2,21,-0.010,-0.010,-0.010,0.000,0.000,0.000
1644879232049204992,2022-02-14-22:53:52,10.1.1.2,27,0.000,0.000,0.000,0.000,0.000,0.000
1644879232109644032,2022-02-14-22:53:52,10.1.1.2,35,0.010,0.010,0.010,0.000,0.000,0.000
1644879232149929984,2022-02-14-22:53:52,10.1.1.2,23,0.020,0.020,0.020,0.000,0.000,0.000
1644879232209788928,2022-02-14-22:53:52,10.1.1.2,32,0.030,0.030,0.030,0.000,0.000,0.000
1644879232249068032,2022-02-14-22:53:52,10.1.1.2,19,0.040,0.040,0.040,0.000,0.000,0.000
1644879232308932096,2022-02-14-22:53:52,10.1.1.2,29,0.050,0.050,0.050,0.000,0.000,0.000
1644879232369478912,2022-02-14-22:53:52,10.1.1.2,37,0.060,0.060,0.060,0.000,0.000,0.000
1644879232409167104,2022-02-14-22:53:52,10.1.1.2,26,0.070,0.070,0.070,0.000,0.000,0.000
1644879232469924096,2022-02-14-22:53:52,10.1.1.2,35,0.080,0.080,0.080,0.000,0.000,0.000
1644879232508850944,2022-02-14-22:53:52,10.1.1.2,24,0.090,0.090,0.090,0.000,0.000,0.000
1644879232568995072,2022-02-14-22:53:52,10.1.1.2,34,0.100,0.100,0.100,0.000,0.000,0.000
1644879232609349888,2022-02-14-22:53:52,10.1.1.2,23,0.090,0.090,0.090,0.000,0.000,0.000
1644879232669131008,2022-02-14-22:53:52,10.1.1.2,32,0.080,0.080,0.080,0.000,0.000,0.000
1644879232708784128,2022-02-14-22:53:52,10.1.1.2,21,0.070,0.070,0.070,0.000,0.000,0.000
1644879232769133056,2022-02-14-22:53:52,10.1.1.2,31,0.060,0.060,0.060,0.000,0.000,0.000
1644879232808680960,2022-02-14-22:53:52,10.1.1.2,20,0.050,0.050,0.050,0.000,0.000,0.000
1644879232868706816,2022-02-14-22:53:52,10.1.1.2,29,0.040,0.040,0.040,0.000,0.000,0.000
1644879232929017088,2022-02-14-22:53:52,10.1.1.2,38,0.030,0.030,0.030,0.000,0.000,0.000
1644879232968776960,2022-02-14-22:53:52,10.1.1.2,27,0.020,0.020,0.020,0.000,0.000,0.000
1644879233029126912,2022-02-14-22:53:53,10.1.1.2,36,0.010,0.010,0.010,0.000,0.000,0.000
1644879233069113088,2022-02-14-22:53:53,10.1.1.2,25,0.000,0.000,0.000,0.000,0.000,0.000
1644879233129887232,2022-02-14-22:53:53,10.1.1.2,34,-0.010,-0.010,-0.010,0.000,0.000,0.000
1644879233168796160,2022-02-14-22:53:53,10.1.1.2,24,-0.020,-0.020,-0.020,0.000,0.000,0.000
1644879233228741888,2022-02-14-22:53:53,10.1.1.2,33,-0.030,-0.030,-0.030,0.000,0.000,0.000
1644879233288983040,2022-02-14-22:53:53,10.1.1.2,39,-0.040,-0.040,-0.040,0.000,0.000,0.000
1644879233329391104,2022-02-14-22:53:53,10.1.1.2,28,-0.050,-0.050,-0.050,0.000,0.000,0.000
1644879233389015040,2022-02-14-22:53:53,10.1.1.2,37,-0.060,-0.060,-0.060,0.000,0.000,0.000
1644879233429296896,2022-02-14-22:53:53,10.1.1.2,24,-0.070,-0.070,-0.070,0.000,0.000,0.000
1644879233489174016,2022-02-14-22:53:53,10.1.1.2,33,-0.080,-0.080,-0.080,0.000,0.000,0.000
1644879233529828096,2022-02-14-22:53:53,10.1.1.2,22,-0.090,-0.090,-0.090,0.000,0.000,0.000
1644879233588732928,2022-02-14-22:53:53,10.1.1.2,32,-0.100,-0.100,-0.100,0.000,0.000,0.000
1644879233629046016,2022-02-14-22:53:53,10.1.1.2,21,-0.090,-0.090,-0.090,0.000,0.000,0.000
1644879233688903936,2022-02-14-22:53:53,10.1.1.2,30,-0.080,-0.080,-0.080,0.000,0.000,0.000
1644879233728809216,2022-02-14-22:53:53,10.1.1.2,19,-0.071,-0.071,-0.071,0.000,0.000,0.000
1644879233797961984,2022-02-14-22:53:53,10.1.1.2,33,-0.060,-0.060,-0.060,0.000,0.000,0.000
1644879233849076992,2022-02-14-22:53:53,10.1.1.2,37,-0.050,-0.050,-0.050,0.000,0.000,0.000
1644879233889059072,2022-02-14-22:53:53,10.1.1.2,26,-0.040,-0.040,-0.040,0.000,0.000,0.000
1644879233948873984,2022-02-14-22:53:53,10.1.1.2,35,-0.030,-0.030,-0.030,0.000,0.000,0.000
1644879233989084928,2022-02-14-22:53:53,10.1.1.2,24,-0.020,-0.020,-0.020,0.000,0.000,0.000
1644879234049112064,2022-02-14-22:53:54,10.1.1.2,33,-0.010,-0.010,-0.010,0.000,0.000,0.000
1644879234089122048,2022-02-14-22:53:54,10.1.1.2,22,0.000,0.000,0.000,0.000,0.000,0.000
1644879234148833024,2022-02-14-22:53:54,10.1.1.2,31,0.010,0.010,0.010,0.000,0.000,0.000
1644879234189028864,2022-02-14-22:53:54,10.1.1.2,20,0.020,0.020,0.020,0.000,0.000,0.000
1644879234249363968,2022-02-14-22:53:54,10.1.1.2,26,0.030,0.030,0.030,0.000,0.000,0.000
1644879234269961216,2022-02-14-22:53:54,10.1.1.2,-5,0.030,0.030,0.030,0.000,0.000,0.000
1644879234350013952,2022-02-14-22:53:54,10.1.1.2,24,0.050,0.050,0.050,0.000,0.000,0.000
1644879234409282816,2022-02-14-22:53:54,10.1.1.2,29,0.060,0.060,0.060,0.000,0.000,0.000
1644879234449423104,2022-02-14-22:53:54,10.1.1.2,23,0.070,0.070,0.070,0.000,0.000,0.000
1644879234509344000,2022-02-14-22:53:54,10.1.1.2,32,0.080,0.080,0.080,0.000,0.000,0.000
1644879234548968960,2022-02-14-22:53:54,10.1.1.2,21,0.090,0.090,0.090,0.000,0.000,0.000
1644879234609432832,2022-02-14-22:53:54,10.1.1.2,30,0.100,0.100,0.100,0.000,0.000,0.000
1644879234649421824,2022-02-14-22:53:54,10.1.1.2,19,0.090,0.090,0.090,0.000,0.000,0.000
1644879234708888064,2022-02-14-22:53:54,10.1.1.2,29,0.080,0.080,0.080,0.000,0.000,0.000
1644879234768913152,2022-02-14-22:53:54,10.1.1.2,38,0.070,0.070,0.070,0.000,0.000,0.000
1644879234809495040,2022-02-14-22:53:54,10.1.1.2,27,0.060,0.060,0.060,0.000,0.000,0.000
1644879234868966144,2022-02-14-22:53:54,10.1.1.2,36,0.050,0.050,0.050,0.000,0.000,0.000
1644879234918818048,2022-02-14-22:53:54,10.1.1.2,27,0.040,0.040,0.040,0.000,0.000,0.000
1644879234969012992,2022-02-14-22:53:54,10.1.1.2,34,0.030,0.030,0.030,0.000,0.000,0.000
1644879235008777984,2022-02-14-22:53:55,10.1.1.2,19,0.020,0.020,0.020,0.000,0.000,0.000
1644879235069647104,2022-02-14-22:53:55,10.1.1.2,29,0.010,0.010,0.010,0.000,0.000,0.000
1644879235128823040,2022-02-14-22:53:55,10.1.1.2,38,0.000,0.000,0.000,0.000,0.000,0.000
1644879235169660160,2022-02-14-22:53:55,10.1.1.2,27,-0.010,-0.010,-0.010,0.000,0.000,0.000
1644879235229286912,2022-02-14-22:53:55,10.1.1.2,36,-0.020,-0.020,-0.020,0.000,0.000,0.000
1644879235269270784,2022-02-14-22:53:55,10.1.1.2,25,-0.030,-0.030,-0.030,0.000,0.000,0.000
1644879235329379072,2022-02-14-22:53:55,10.1.1.2,34,-0.040,-0.040,-0.040,0.000,0.000,0.000
1644879235369203968,2022-02-14-22:53:55,10.1.1.2,23,-0.050,-0.050,-0.050,0.000,0.000,0.000
1644879235429193984,2022-02-14-22:53:55,10.1.1.2,31,-0.060,-0.060,-0.060,0.000,0.000,0.000
1644879235469014784,2022-02-14-22:53:55,10.1.1.2,20,-0.070,-0.070,-0.070,0.000,0.000,0.000
1644879235528843008,2022-02-14-22:53:55,10.1.1.2,29,-0.080,-0.080,-0.080,0.000,0.000,0.000
1644879235589241856,2022-02-14-22:53:55,10.1.1.2,38,-0.090,-0.090,-0.090,0.000,0.000,0.000
1644879235628742912,2022-02-14-22:53:55,10.1.1.2,26,-0.100,-0.100,-0.100,0.000,0.000,0.000
1644879235689830144,2022-02-14-22:53:55,10.1.1.2,33,-0.090,-0.090,-0.090,0.000,0.000,0.000
1644879235729849088,2022-02-14-22:53:55,10.1.1.2,20,-0.080,-0.080,-0.080,0.000,0.000,0.000
1644879235789366016,2022-02-14-22:53:55,10.1.1.2,29,-0.070,-0.070,-0.070,0.000,0.000,0.000
1644879235849245952,2022-02-14-22:53:55,10.1.1.2,38,-0.060,-0.060,-0.060,0.000,0.000,0.000
1644879235888932864,2022-02-14-22:53:55,10.1.1.2,27,-0.050,-0.050,-0.050,0.000,0.000,0.000
1644879235950757120,2022-02-14-22:53:55,10.1.1.2,36,-0.040,-0.040,-0.040,0.000,0.000,0.000
1644879235989981952,2022-02-14-22:53:55,10.1.1.2,25,-0.030,-0.030,-0.030,0.000,0.000,0.000
1644879236049193984,2022-02-14-22:53:56,10.1.1.2,34,-0.020,-0.020,-0.020,0.000,0.000,0.000
1644879236088946176,2022-02-14-22:53:56,10.1.1.2,24,-0.010,-0.010,-0.010,0.000,0.000,0.000
1644879236149135104,2022-02-14-22:53:56,10.1.1.2,33,0.000,0.000,0.000,0.000,0.000,0.000
1644879236189240832,2022-02-14-22:53:56,10.1.1.2,22,0.010,0.010,0.010,0.000,0.000,0.000
1644879236249350912,2022-02-14-22:53:56,10.1.1.2,31,0.020,0.020,0.020,0.000,0.000,0.000
1644879236288826880,2022-02-14-22:53:56,10.1.1.2,20,0.030,0.030,0.030,0.000,0.000,0.000
1644879236349220096,2022-02-14-22:53:56,10.1.1.2,29,0.040,0.040,0.040,0.000,0.000,0.000
1644879236409256960,2022-02-14-22:53:56,10.1.1.2,38,0.050,0.050,0.050,0.000,0.000,0.000
1644879236450094848,2022-02-14-22:53:56,10.1.1.2,27,0.060,0.060,0.060,0.000,0.000,0.000
1644879236509424896,2022-02-14-22:53:56,10.1.1.2,36,0.070,0.070,0.070,0.000,0.000,0.000
1644879236549096960,2022-02-14-22:53:56,10.1.1.2,25,0.080,0.080,0.080,0.000,0.000,0.000
1644879236609097984,2022-02-14-22:53:56,10.1.1.2,35,0.090,0.090,0.090,0.000,0.000,0.000
1644879236648956160,2022-02-14-22:53:56,10.1.1.2,24,0.100,0.100,0.100,0.000,0.000,0.000
1644879236709281024,2022-02-14-22:53:56,10.1.1.2,33,0.090,0.090,0.090,0.000,0.000,0.000
1644879236748899072,2022-02-14-22:53:56,10.1.1.2,21,0.080,0.080,0.080,0.000,0.000,0.000
1644879236808667904,2022-02-14-22:53:56,10.1.1.2,30,0.070,0.070,0.070,0.000,0.000,0.000
1644879236849328128,2022-02-14-22:53:56,10.1.1.2,20,0.060,0.060,0.060,0.000,0.000,0.000
1644879236909252864,2022-02-14-22:53:56,10.1.1.2,29,0.050,0.050,0.050,0.000,0.000,0.000
1644879236969245952,2022-02-14-22:53:56,10.1.1.2,38,0.040,0.040,0.040,0.000,0.000,0.000
1644879237009438976,2022-02-14-22:53:57,10.1.1.2,27,0.030,0.030,0.030,0.000,0.000,0.000
1644879237069585920,2022-02-14-22:53:57,10.1.1.2,36,0.020,0.020,0.020,0.000,0.000,0.000
1644879237109396992,2022-02-14-22:53:57,10.1.1.2,26,0.010,0.010,0.010,0.000,0.000,0.000
1644879237168879872,2022-02-14-22:53:57,10.1.1.2,34,0.000,0.000,0.000,0.000,0.000,0.000
1644879237209268992,2022-02-14-22:53:57,10.1.1.2,22,-0.010,-0.010,-0.010,0.000,0.000,0.000
1644879237269517824,2022-02-14-22:53:57,10.1.1.2,29,-0.020,-0.020,-0.020,0.000,0.000,0.000
1644879237329700864,2022-02-14-22:53:57,10.1.1.2,35,-0.030,-0.030,-0.030,0.000,0.000,0.000
1644879237369755904,2022-02-14-22:53:57,10.1.1.2,24,-0.040,-0.040,-0.040,0.000,0.000,0.000
1644879237429039872,2022-02-14-22:53:57,10.1.1.2,33,-0.050,-0.050,-0.050,0.000,0.000,0.000
1644879237469847040,2022-02-14-22:53:57,10.1.1.2,19,-0.059,-0.059,-0.059,0.000,0.000,0.000
1644879237528176128,2022-02-14-22:53:57,10.1.1.2,28,-0.070,-0.070,-0.070,0.000,0.000,0.000
1644879237588314112,2022-02-14-22:53:57,10.1.1.2,37,-0.080,-0.080,-0.080,0.000,0.000,0.000
1644879237629168896,2022-02-14-22:53:57,10.1.1.2,27,-0.090,-0.090,-0.090,0.000,0.000,0.000
1644879237691111936,2022-02-14-22:53:57,10.1.1.2,36,-0.100,-0.100,-0.100,0.000,0.000,0.000
1644879237789524992,2022-02-14-22:53:57,10.1.1.2,34,-0.080,-0.080,-0.080,0.000,0.000,0.000
1644879237829905152,2022-02-14-22:53:57,10.1.1.2,23,-0.070,-0.070,-0.070,0.000,0.000,0.000
1644879237898938880,2022-02-14-22:53:57,10.1.1.2,38,-0.060,-0.060,-0.060,0.000,0.000,0.000
1644879237929390848,2022-02-14-22:53:57,10.1.1.2,21,-0.050,-0.050,-0.050,0.000,0.000,0.000
1644879237985794048,2022-02-14-22:53:57,10.1.1.2,27,-0.040,-0.040,-0.040,0.000,0.000,0.000
1644879238054531072,2022-02-14-22:53:58,10.1.1.2,43,-0.030,-0.030,-0.030,0.000,0.000,0.000
1644879238089058048,2022-02-14-22:53:58,10.1.1.2,29,-0.020,-0.020,-0.020,0.000,0.000,0.000
1644879238155963904,2022-02-14-22:53:58,10.1.1.2,44,-0.010,-0.010,-0.010,0.000,0.000,0.000
1644879238185014016,2022-02-14-22:53:58,10.1.1.2,23,0.000,0.000,0.000,0.000,0.000,0.000
1644879238250096128,2022-02-14-22:53:58,10.1.1.2,37,0.010,0.010,0.010,0.000,0.000,0.000
1644879238310578176,2022-02-14-22:53:58,10.1.1.2,44,0.020,0.020,0.020,0.000,0.000,0.000
1644879238349945088,2022-02-14-22:53:58,10.1.1.2,33,0.030,0.030,0.030,0.000,0.000,0.000
1644879238390285056,2022-02-14-22:53:58,10.1.1.2,22,0.040,0.040,0.040,0.000,0.000,0.000
1644879238450216960,2022-02-14-22:53:58,10.1.1.2,31,0.050,0.050,0.050,0.000,0.000,0.000
1644879238490225920,2022-02-14-22:53:58,10.1.1.2,21,0.060,0.060,0.060,0.000,0.000,0.000
1644879238549480960,2022-02-14-22:53:58,10.1.1.2,29,0.070,0.070,0.070,0.000,0.000,0.000
1644879238608896000,2022-02-14-22:53:58,10.1.1.2,39,0.080,0.080,0.080,0.000,0.000,0.000
1644879238648782848,2022-02-14-22:53:58,10.1.1.2,28,0.090,0.090,0.090,0.000,0.000,0.000
1644879238709198848,2022-02-14-22:53:58,10.1.1.2,37,0.100,0.100,0.100,0.000,0.000,0.000
1644879238749146880,2022-02-14-22:53:58,10.1.1.2,26,0.090,0.090,0.090,0.000,0.000,0.000
1644879238809164032,2022-02-14-22:53:58,10.1.1.2,35,0.080,0.080,0.080,0.000,0.000,0.000
1644879238849809920,2022-02-14-22:53:58,10.1.1.2,25,0.070,0.070,0.070,0.000,0.000,0.000
1644879238918704896,2022-02-14-22:53:58,10.1.1.2,38,0.060,0.060,0.060,0.000,0.000,0.000
1644879238955480064,2022-02-14-22:53:58,10.1.1.2,28,0.050,0.050,0.050,0.000,0.000,0.000
1644879239009132032,2022-02-14-22:53:59,10.1.1.2,31,0.040,0.040,0.040,0.000,0.000,0.000
1644879239049320960,2022-02-14-22:53:59,10.1.1.2,20,0.030,0.030,0.030,0.000,0.000,0.000
1644879239109626112,2022-02-14-22:53:59,10.1.1.2,26,0.020,0.020,0.020,0.000,0.000,0.000
1644879239169195776,2022-02-14-22:53:59,10.1.1.2,35,0.010,0.010,0.010,0.000,0.000,0.000
1644879239209294080,2022-02-14-22:53:59,10.1.1.2,19,0.000,0.000,0.000,0.000,0.000,0.000
1644879239269783040,2022-02-14-22:53:59,10.1.1.2,27,-0.010,-0.010,-0.010,0.000,0.000,0.000
1644879239332057088,2022-02-14-22:53:59,10.1.1.2,35,-0.020,-0.020,-0.020,0.000,0.000,0.000
1644879239389352192,2022-02-14-22:53:59,10.1.1.2,38,-0.030,-0.030,-0.030,0.000,0.000,0.000
1644879239429451008,2022-02-14-22:53:59,10.1.1.2,27,-0.040,-0.040,-0.040,0.000,0.000,0.000
1644879239489089024,2022-02-14-22:53:59,10.1.1.2,37,-0.050,-0.050,-0.050,0.000,0.000,0.000
1644879239529351936,2022-02-14-22:53:59,10.1.1.2,24,-0.060,-0.060,-0.060,0.000,0.000,0.000
1644879239589561088,2022-02-14-22:53:59,10.1.1.2,34,-0.070,-0.070,-0.070,0.000,0.000,0.000
1644879239629502976,2022-02-14-22:53:59,10.1.1.2,19,-0.080,-0.080,-0.080,0.000,0.000,0.000
1644879239689388032,2022-02-14-22:53:59,10.1.1.2,25,-0.090,-0.090,-0.090,0.000,0.000,0.000
1644879239749620992,2022-02-14-22:53:59,10.1.1.2,34,-0.100,-0.100,-0.100,0.000,0.000,0.000
1644879239795012864,2022-02-14-22:53:59,10.1.1.2,28,-0.090,-0.090,-0.090,0.000,0.000,0.000
1644879239855539200,2022-02-14-22:53:59,10.1.1.2,37,-0.080,-0.080,-0.080,0.000,0.000,0.000
1644879239905409024,2022-02-14-22:53:59,10.1.1.2,36,-0.070,-0.070,-0.070,0.000,0.000,0.000
1644879239949395968,2022-02-14-22:53:59,10.1.1.2,29,-0.060,-0.060,-0.060,0.000,0.000,0.000
1644879240009900032,2022-02-14-22:54:00,10.1.1.2,38,-0.050,-0.050,-0.050,0.000,0.000,0.000
1644879240049212928,2022-02-14-22:54:00,10.1.1.2,27,-0.040,-0.040,-0.040,0.000,0.000,0.000
1644879240109489920,2022-02-14-22:54:00,10.1.1.2,36,-0.030,-0.030,-0.030,0.000,0.000,0.000
1644879240150268928,2022-02-14-22:54:00,10.1.1.2,23,-0.020,-0.020,-0.020,0.000,0.000,0.000
1644879240209209088,2022-02-14-22:54:00,10.1.1.2,33,-0.010,-0.010,-0.010,0.000,0.000,0.000
1644879240250849024,2022-02-14-22:54:00,10.1.1.2,22,0.000,0.000,0.000,0.000,0.000,0.000
1644879240310767872,2022-02-14-22:54:00,10.1.1.2,31,0.010,0.010,0.010,0.000,0.000,0.000
1644879240369180928,2022-02-14-22:54:00,10.1.1.2,40,0.020,0.020,0.020,0.000,0.000,0.000
1644879240409277952,2022-02-14-22:54:00,10.1.1.2,29,0.030,0.030,0.030,0.000,0.000,0.000
1644879240469031168,2022-02-14-22:54:00,10.1.1.2,35,0.040,0.040,0.040,0.000,0.000,0.000
1644879240510714112,2022-02-14-22:54:00,10.1.1.2,21,0.050,0.050,0.050,0.000,0.000,0.000
1644879240630168064,2022-02-14-22:54:00,10.1.1.2,31,0.070,0.070,0.070,0.000,0.000,0.000
1644879240729497856,2022-02-14-22:54:00,10.1.1.2,21,0.090,0.090,0.090,0.000,0.000,0.000
1644879240832578048,2022-02-14-22:54:00,10.1.1.2,19,0.090,0.090,0.090,0.000,0.000,0.000
1644879240903160064,2022-02-14-22:54:00,10.1.1.2,39,0.080,0.080,0.080,0.000,0.000,0.000
1644879240951828992,2022-02-14-22:54:00,10.1.1.2,34,0.070,0.070,0.070,0.000,0.000,0.000
1644879240992100864,2022-02-14-22:54:00,10.1.1.2,23,0.060,0.060,0.060,0.000,0.000,0.000
1644879241051435008,2022-02-14-22:54:01,10.1.1.2,32,0.050,0.050,0.050,0.000,0.000,0.000
1644879241092080128,2022-02-14-22:54:01,10.1.1.2,21,0.040,0.040,0.040,0.000,0.000,0.000
1644879241151990784,2022-02-14-22:54:01,10.1.1.2,30,0.030,0.030,0.030,0.000,0.000,0.000
1644879241191561984,2022-02-14-22:54:01,10.1.1.2,19,0.021,0.021,0.021,0.000,0.000,0.000
1644879241295873024,2022-02-14-22:54:01,10.1.1.2,21,0.000,0.000,0.000,0.000,0.000,0.000
1644879241353485056,2022-02-14-22:54:01,10.1.1.2,26,-0.010,-0.010,-0.010,0.000,0.000,0.000
1644879241375369984,2022-02-14-22:54:01,10.1.1.2,-6,-0.010,-0.010,-0.010,0.000,0.000,0.000
1644879241474190848,2022-02-14-22:54:01,10.1.1.2,41,-0.030,-0.030,-0.030,0.000,0.000,0.000
1644879241505588992,2022-02-14-22:54:01,10.1.1.2,22,-0.040,-0.040,-0.040,0.000,0.000,0.000
1644879241566492928,2022-02-14-22:54:01,10.1.1.2,32,-0.050,-0.050,-0.050,0.000,0.000,0.000
1644879241613602048,2022-02-14-22:54:01,10.1.1.2,24,-0.060,-0.060,-0.060,0.000,0.000,0.000
1644879241673574912,2022-02-14-22:54:01,10.1.1.2,31,-0.070,-0.070,-0.070,0.000,0.000,0.000
1644879241787621888,2022-02-14-22:54:01,10.1.1.2,32,-0.090,-0.090,-0.090,0.000,0.000,0.000
1644879241825766144,2022-02-14-22:54:01,10.1.1.2,20,-0.100,-0.100,-0.100,0.000,0.000,0.000
1644879241893202176,2022-02-14-22:54:01,10.1.1.2,36,-0.090,-0.090,-0.090,0.000,0.000,0.000
1644879241933156864,2022-02-14-22:54:01,10.1.1.2,22,-0.080,-0.080,-0.080,0.000,0.000,0.000
1644879241993489920,2022-02-14-22:54:01,10.1.1.2,31,-0.070,-0.070,-0.070,0.000,0.000,0.000
1644879242034159872,2022-02-14-22:54:02,10.1.1.2,19,-0.060,-0.060,-0.060,0.000,0.000,0.000
1644879242094237952,2022-02-14-22:54:02,10.1.1.2,29,-0.050,-0.050,-0.050,0.000,0.000,0.000
1644879242147913984,2022-02-14-22:54:02,10.1.1.2,30,-0.041,-0.041,-0.041,0.000,0.000,0.000
1644879242213181952,2022-02-14-22:54:02,10.1.1.2,38,-0.030,-0.030,-0.030,0.000,0.000,0.000
1644879242254273024,2022-02-14-22:54:02,10.1.1.2,28,-0.020,-0.020,-0.020,0.000,0.000,0.000
1644879242314321152,2022-02-14-22:54:02,10.1.1.2,37,-0.010,-0.010,-0.010,0.000,0.000,0.000
1644879242354701056,2022-02-14-22:54:02,10.1.1.2,26,0.000,0.000,0.000,0.000,0.000,0.000
1644879242414882816,2022-02-14-22:54:02,10.1.1.2,35,0.010,0.010,0.010,0.000,0.000,0.000
1644879242454395904,2022-02-14-22:54:02,10.1.1.2,23,0.020,0.020,0.020,0.000,0.000,0.000
1644879242513825024,2022-02-14-22:54:02,10.1.1.2,33,0.030,0.030,0.030,0.000,0.000,0.000
1644879242573885952,2022-02-14-22:54:02,10.1.1.2,35,0.040,0.040,0.040,0.000,0.000,0.000
1644879242613828864,2022-02-14-22:54:02,10.1.1.2,22,0.050,0.050,0.050,0.000,0.000,0.000
1644879242674028032,2022-02-14-22:54:02,10.1.1.2,28,0.060,0.060,0.060,0.000,0.000,0.000
1644879242741529856,2022-02-14-22:54:02,10.1.1.2,44,0.070,0.070,0.070,0.000,0.000,0.000
1644879242771576832,2022-02-14-22:54:02,10.1.1.2,22,0.080,0.080,0.080,0.000,0.000,0.000
1644879242830842880,2022-02-14-22:54:02,10.1.1.2,26,0.090,0.090,0.090,0.000,0.000,0.000
1644879242890803968,2022-02-14-22:54:02,10.1.1.2,35,0.100,0.100,0.100,0.000,0.000,0.000
1644879242931058944,2022-02-14-22:54:02,10.1.1.2,24,0.090,0.090,0.090,0.000,0.000,0.000
1644879242992891136,2022-02-14-22:54:02,10.1.1.2,33,0.080,0.080,0.080,0.000,0.000,0.000
1644879243031398912,2022-02-14-22:54:03,10.1.1.2,22,0.070,0.070,0.070,0.000,0.000,0.000
1644879243091015936,2022-02-14-22:54:03,10.1.1.2,31,0.060,0.060,0.060,0.000,0.000,0.000
1644879243131454976,2022-02-14-22:54:03,10.1.1.2,20,0.050,0.050,0.050,0.000,0.000,0.000
1644879243190749952,2022-02-14-22:54:03,10.1.1.2,29,0.040,0.040,0.040,0.000,0.000,0.000
1644879243251635200,2022-02-14-22:54:03,10.1.1.2,39,0.030,0.030,0.030,0.000,0.000,0.000
1644879243290988800,2022-02-14-22:54:03,10.1.1.2,27,0.020,0.020,0.020,0.000,0.000,0.000
1644879243352178176,2022-02-14-22:54:03,10.1.1.2,36,0.010,0.010,0.010,0.000,0.000,0.000
1644879243391715072,2022-02-14-22:54:03,10.1.1.2,25,0.000,0.000,0.000,0.000,0.000,0.000
1644879243451857152,2022-02-14-22:54:03,10.1.1.2,34,-0.010,-0.010,-0.010,0.000,0.000,0.000
1644879243491678976,2022-02-14-22:54:03,10.1.1.2,23,-0.020,-0.020,-0.020,0.000,0.000,0.000
1644879243551719936,2022-02-14-22:54:03,10.1.1.2,25,-0.030,-0.030,-0.030,0.000,0.000,0.000
1644879243652612096,2022-02-14-22:54:03,10.1.1.2,23,-0.050,-0.050,-0.050,0.000,0.000,0.000
1644879243767854080,2022-02-14-22:54:03,10.1.1.2,33,-0.070,-0.070,-0.070,0.000,0.000,0.000
1644879243914430976,2022-02-14-22:54:03,10.1.1.2,19,-0.099,-0.099,-0.099,0.000,0.000,0.000
1644879243974123008,2022-02-14-22:54:03,10.1.1.2,28,-0.090,-0.090,-0.090,0.000,0.000,0.000
1644879244034234112,2022-02-14-22:54:04,10.1.1.2,36,-0.080,-0.080,-0.080,0.000,0.000,0.000
1644879244073702144,2022-02-14-22:54:04,10.1.1.2,25,-0.070,-0.070,-0.070,0.000,0.000,0.000
1644879244133591040,2022-02-14-22:54:04,10.1.1.2,34,-0.060,-0.060,-0.060,0.000,0.000,0.000
1644879244185046784,2022-02-14-22:54:04,10.1.1.2,27,-0.050,-0.050,-0.050,0.000,0.000,0.000
1644879244251503872,2022-02-14-22:54:04,10.1.1.2,40,-0.040,-0.040,-0.040,0.000,0.000,0.000
1644879244293646080,2022-02-14-22:54:04,10.1.1.2,34,-0.030,-0.030,-0.030,0.000,0.000,0.000
1644879244334137088,2022-02-14-22:54:04,10.1.1.2,23,-0.020,-0.020,-0.020,0.000,0.000,0.000
1644879244394163968,2022-02-14-22:54:04,10.1.1.2,32,-0.010,-0.010,-0.010,0.000,0.000,0.000
1644879244433803008,2022-02-14-22:54:04,10.1.1.2,21,0.000,0.000,0.000,0.000,0.000,0.000
1644879244493753856,2022-02-14-22:54:04,10.1.1.2,30,0.010,0.010,0.010,0.000,0.000,0.000
1644879244554276864,2022-02-14-22:54:04,10.1.1.2,35,0.020,0.020,0.020,0.000,0.000,0.000
1644879244593720832,2022-02-14-22:54:04,10.1.1.2,25,0.030,0.030,0.030,0.000,0.000,0.000
1644879244654604800,2022-02-14-22:54:04,10.1.1.2,33,0.040,0.040,0.040,0.000,0.000,0.000
1644879244714961152,2022-02-14-22:54:04,10.1.1.2,42,0.050,0.050,0.050,0.000,0.000,0.000
1644879244754343936,2022-02-14-22:54:04,10.1.1.2,31,0.060,0.060,0.060,0.000,0.000,0.000
1644879244804289024,2022-02-14-22:54:04,10.1.1.2,26,0.070,0.070,0.070,0.000,0.000,0.000
1644879244854336000,2022-02-14-22:54:04,10.1.1.2,29,0.080,0.080,0.080,0.000,0.000,0.000
1644879244914094080,2022-02-14-22:54:04,10.1.1.2,38,0.090,0.090,0.090,0.000,0.000,0.000
1644879244954070016,2022-02-14-22:54:04,10.1.1.2,26,0.100,0.100,0.100,0.000,0.000,0.000
1644879245014127104,2022-02-14-22:54:05,10.1.1.2,34,0.090,0.090,0.090,0.000,0.000,0.000
1644879245054094080,2022-02-14-22:54:05,10.1.1.2,24,0.080,0.080,0.080,0.000,0.000,0.000
1644879245114650880,2022-02-14-22:54:05,10.1.1.2,33,0.070,0.070,0.070,0.000,0.000,0.000
1644879245154377984,2022-02-14-22:54:05,10.1.1.2,22,0.060,0.060,0.060,0.000,0.000,0.000
1644879245213940992,2022-02-14-22:54:05,10.1.1.2,21,0.050,0.050,0.050,0.000,0.000,0.000
1644879245269016064,2022-02-14-22:54:05,10.1.1.2,31,0.040,0.040,0.040,0.000,0.000,0.000
1644879245306833152,2022-02-14-22:54:05,10.1.1.2,17,0.030,0.030,0.030,0.000,0.000,0.000
1644879245413784064,2022-02-14-22:54:05,10.1.1.2,20,0.010,0.010,0.010,0.000,0.000,0.000
1644879245474617856,2022-02-14-22:54:05,10.1.1.2,29,0.000,0.000,0.000,0.000,0.000,0.000
1644879245533901056,2022-02-14-22:54:05,10.1.1.2,39,-0.010,-0.010,-0.010,0.000,0.000,0.000
1644879245580979968,2022-02-14-22:54:05,10.1.1.2,29,-0.020,-0.020,-0.020,0.000,0.000,0.000
1644879245633326080,2022-02-14-22:54:05,10.1.1.2,37,-0.030,-0.030,-0.030,0.000,0.000,0.000
1644879245674688000,2022-02-14-22:54:05,10.1.1.2,26,-0.040,-0.040,-0.040,0.000,0.000,0.000
1644879245733612032,2022-02-14-22:54:05,10.1.1.2,34,-0.050,-0.050,-0.050,0.000,0.000,0.000
1644879245775252224,2022-02-14-22:54:05,10.1.1.2,23,-0.060,-0.060,-0.060,0.000,0.000,0.000
1644879245833644032,2022-02-14-22:54:05,10.1.1.2,32,-0.070,-0.070,-0.070,0.000,0.000,0.000
1644879245873625088,2022-02-14-22:54:05,10.1.1.2,22,-0.080,-0.080,-0.080,0.000,0.000,0.000
1644879245933659904,2022-02-14-22:54:05,10.1.1.2,31,-0.090,-0.090,-0.090,0.000,0.000,0.000
1644879245994270976,2022-02-14-22:54:05,10.1.1.2,39,-0.100,-0.100,-0.100,0.000,0.000,0.000
1644879246035326976,2022-02-14-22:54:06,10.1.1.2,28,-0.090,-0.090,-0.090,0.000,0.000,0.000
1644879246084583936,2022-02-14-22:54:06,10.1.1.2,27,-0.080,-0.080,-0.080,0.000,0.000,0.000
1644879246184001024,2022-02-14-22:54:06,10.1.1.2,26,-0.060,-0.060,-0.060,0.000,0.000,0.000
1644879246354296832,2022-02-14-22:54:06,10.1.1.2,43,-0.030,-0.030,-0.030,0.000,0.000,0.000
1644879246394160896,2022-02-14-22:54:06,10.1.1.2,32,-0.020,-0.020,-0.020,0.000,0.000,0.000
1644879246434423808,2022-02-14-22:54:06,10.1.1.2,22,-0.010,-0.010,-0.010,0.000,0.000,0.000
1644879246494925056,2022-02-14-22:54:06,10.1.1.2,31,0.000,0.000,0.000,0.000,0.000,0.000
1644879246554603008,2022-02-14-22:54:06,10.1.1.2,40,0.010,0.010,0.010,0.000,0.000,0.000
1644879246597058048,2022-02-14-22:54:06,10.1.1.2,28,0.020,0.020,0.020,0.000,0.000,0.000
1644879246654568960,2022-02-14-22:54:06,10.1.1.2,38,0.030,0.030,0.030,0.000,0.000,0.000
1644879246693933056,2022-02-14-22:54:06,10.1.1.2,27,0.040,0.040,0.040,0.000,0.000,0.000
1644879246753586176,2022-02-14-22:54:06,10.1.1.2,36,0.050,0.050,0.050,0.000,0.000,0.000
1644879246792972032,2022-02-14-22:54:06,10.1.1.2,26,0.060,0.060,0.060,0.000,0.000,0.000
1644879246853920000,2022-02-14-22:54:06,10.1.1.2,35,0.070,0.070,0.070,0.000,0.000,0.000
1644879246894030080,2022-02-14-22:54:06,10.1.1.2,24,0.080,0.080,0.080,0.000,0.000,0.000
1644879246953027840,2022-02-14-22:54:06,10.1.1.2,30,0.090,0.090,0.090,0.000,0.000,0.000
1644879246993634048,2022-02-14-22:54:06,10.1.1.2,22,0.100,0.100,0.100,0.000,0.000,0.000
1644879247054754048,2022-02-14-22:54:07,10.1.1.2,31,0.090,0.090,0.090,0.000,0.000,0.000
1644879247093827072,2022-02-14-22:54:07,10.1.1.2,20,0.080,0.080,0.080,0.000,0.000,0.000
1644879247153976832,2022-02-14-22:54:07,10.1.1.2,29,0.070,0.070,0.070,0.000,0.000,0.000
1644879247193376000,2022-02-14-22:54:07,10.1.1.2,19,0.061,0.061,0.061,0.000,0.000,0.000
1644879247253771008,2022-02-14-22:54:07,10.1.1.2,28,0.050,0.050,0.050,0.000,0.000,0.000
1644879247314798080,2022-02-14-22:54:07,10.1.1.2,37,0.040,0.040,0.040,0.000,0.000,0.000
1644879247354016000,2022-02-14-22:54:07,10.1.1.2,26,0.030,0.030,0.030,0.000,0.000,0.000
1644879247413620992,2022-02-14-22:54:07,10.1.1.2,35,0.020,0.020,0.020,0.000,0.000,0.000
1644879247474124800,2022-02-14-22:54:07,10.1.1.2,44,0.010,0.010,0.010,0.000,0.000,0.000
1644879247510831104,2022-02-14-22:54:07,10.1.1.2,30,0.000,0.000,0.000,0.000,0.000,0.000
1644879247553658112,2022-02-14-22:54:07,10.1.1.2,23,-0.010,-0.010,-0.010,0.000,0.000,0.000
1644879247613480192,2022-02-14-22:54:07,10.1.1.2,32,-0.020,-0.020,-0.020,0.000,0.000,0.000
1644879247653682944,2022-02-14-22:54:07,10.1.1.2,21,-0.030,-0.030,-0.030,0.000,0.000,0.000
1644879247713867776,2022-02-14-22:54:07,10.1.1.2,30,-0.040,-0.040,-0.040,0.000,0.000,0.000
1644879247781132032,2022-02-14-22:54:07,10.1.1.2,39,-0.050,-0.050,-0.050,0.000,0.000,0.000
1644879247813766912,2022-02-14-22:54:07,10.1.1.2,27,-0.060,-0.060,-0.060,0.000,0.000,0.000
1644879247863951872,2022-02-14-22:54:07,10.1.1.2,26,-0.070,-0.070,-0.070,0.000,0.000,0.000
1644879247913649152,2022-02-14-22:54:07,10.1.1.2,24,-0.080,-0.080,-0.080,0.000,0.000,0.000
1644879247974046976,2022-02-14-22:54:07,10.1.1.2,32,-0.090,-0.090,-0.090,0.000,0.000,0.000
1644879248033767936,2022-02-14-22:54:08,10.1.1.2,42,-0.100,-0.100,-0.100,0.000,0.000,0.000
1644879248074240000,2022-02-14-22:54:08,10.1.1.2,31,-0.090,-0.090,-0.090,0.000,0.000,0.000
1644879248113841920,2022-02-14-22:54:08,10.1.1.2,20,-0.080,-0.080,-0.080,0.000,0.000,0.000
1644879248173969152,2022-02-14-22:54:08,10.1.1.2,29,-0.070,-0.070,-0.070,0.000,0.000,0.000
1644879248223793152,2022-02-14-22:54:08,10.1.1.2,28,-0.060,-0.060,-0.060,0.000,0.000,0.000
1644879248273922816,2022-02-14-22:54:08,10.1.1.2,27,-0.050,-0.050,-0.050,0.000,0.000,0.000
1644879248323810048,2022-02-14-22:54:08,10.1.1.2,26,-0.040,-0.040,-0.040,0.000,0.000,0.000
1644879248374257920,2022-02-14-22:54:08,10.1.1.2,25,-0.030,-0.030,-0.030,0.000,0.000,0.000
1644879248434082048,2022-02-14-22:54:08,10.1.1.2,34,-0.020,-0.020,-0.020,0.000,0.000,0.000
1644879248474484992,2022-02-14-22:54:08,10.1.1.2,23,-0.010,-0.010,-0.010,0.000,0.000,0.000
1644879248533428992,2022-02-14-22:54:08,10.1.1.2,32,0.000,0.000,0.000,0.000,0.000,0.000
1644879248573357056,2022-02-14-22:54:08,10.1.1.2,21,0.010,0.010,0.010,0.000,0.000,0.000
1644879248633609984,2022-02-14-22:54:08,10.1.1.2,30,0.020,0.020,0.020,0.000,0.000,0.000
1644879248693741056,2022-02-14-22:54:08,10.1.1.2,36,0.030,0.030,0.030,0.000,0.000,0.000
1644879248753711872,2022-02-14-22:54:08,10.1.1.2,45,0.040,0.040,0.040,0.000,0.000,0.000
1644879248793654016,2022-02-14-22:54:08,10.1.1.2,34,0.050,0.050,0.050,0.000,0.000,0.000
1644879248834270976,2022-02-14-22:54:08,10.1.1.2,23,0.060,0.060,0.060,0.000,0.000,0.000
1644879248894068992,2022-02-14-22:54:08,10.1.1.2,31,0.070,0.070,0.070,0.000,0.000,0.000
1644879248933862912,2022-02-14-22:54:08,10.1.1.2,20,0.080,0.080,0.080,0.000,0.000,0.000
1644879248993936128,2022-02-14-22:54:08,10.1.1.2,30,0.090,0.090,0.090,0.000,0.000,0.000
1644879249034452992,2022-02-14-22:54:09,10.1.1.2,19,0.100,0.100,0.100,0.000,0.000,0.000
1644879249143529984,2022-02-14-22:54:09,10.1.1.2,28,0.080,0.080,0.080,0.000,0.000,0.000
1644879249204192000,2022-02-14-22:54:09,10.1.1.2,37,0.070,0.070,0.070,0.000,0.000,0.000
1644879249254381824,2022-02-14-22:54:09,10.1.1.2,36,0.060,0.060,0.060,0.000,0.000,0.000
1644879249305918976,2022-02-14-22:54:09,10.1.1.2,32,0.050,0.050,0.050,0.000,0.000,0.000
1644879249344059904,2022-02-14-22:54:09,10.1.1.2,21,0.040,0.040,0.040,0.000,0.000,0.000
1644879249394503168,2022-02-14-22:54:09,10.1.1.2,20,0.030,0.030,0.030,0.000,0.000,0.000
1644879249453950976,2022-02-14-22:54:09,10.1.1.2,29,0.020,0.020,0.020,0.000,0.000,0.000
1644879249514311168,2022-02-14-22:54:09,10.1.1.2,38,0.010,0.010,0.010,0.000,0.000,0.000
1644879249564785920,2022-02-14-22:54:09,10.1.1.2,35,0.000,0.000,0.000,0.000,0.000,0.000
1644879249627145984,2022-02-14-22:54:09,10.1.1.2,43,-0.010,-0.010,-0.010,0.000,0.000,0.000
1644879249724487936,2022-02-14-22:54:09,10.1.1.2,25,-0.030,-0.030,-0.030,0.000,0.000,0.000
1644879249784733952,2022-02-14-22:54:09,10.1.1.2,35,-0.040,-0.040,-0.040,0.000,0.000,0.000
1644879249824208128,2022-02-14-22:54:09,10.1.1.2,22,-0.050,-0.050,-0.050,0.000,0.000,0.000
1644879249874450944,2022-02-14-22:54:09,10.1.1.2,20,-0.060,-0.060,-0.060,0.000,0.000,0.000
1644879249924623104,2022-02-14-22:54:09,10.1.1.2,20,-0.070,-0.070,-0.070,0.000,0.000,0.000
1644879249974333952,2022-02-14-22:54:09,10.1.1.2,19,-0.080,-0.080,-0.080,0.000,0.000,0.000
1644879250033950976,2022-02-14-22:54:10,10.1.1.2,28,-0.090,-0.090,-0.090,0.000,0.000,0.000
1644879250093556992,2022-02-14-22:54:10,10.1.1.2,37,-0.100,-0.100,-0.100,0.000,0.000,0.000
1644879250154529024,2022-02-14-22:54:10,10.1.1.2,46,-0.090,-0.090,-0.090,0.000,0.000,0.000
1644879250183661824,2022-02-14-22:54:10,10.1.1.2,24,-0.080,-0.080,-0.080,0.000,0.000,0.000
1644879250244102912,2022-02-14-22:54:10,10.1.1.2,33,-0.070,-0.070,-0.070,0.000,0.000,0.000
1644879250294447872,2022-02-14-22:54:10,10.1.1.2,32,-0.060,-0.060,-0.060,0.000,0.000,0.000
1644879250354400000,2022-02-14-22:54:10,10.1.1.2,41,-0.050,-0.050,-0.050,0.000,0.000,0.000
1644879250384520960,2022-02-14-22:54:10,10.1.1.2,20,-0.040,-0.040,-0.040,0.000,0.000,0.000
1644879250433485056,2022-02-14-22:54:10,10.1.1.2,19,-0.031,-0.031,-0.031,0.000,0.000,0.000
1644879250494131200,2022-02-14-22:54:10,10.1.1.2,28,-0.020,-0.020,-0.020,0.000,0.000,0.000
1644879250563940096,2022-02-14-22:54:10,10.1.1.2,44,-0.010,-0.010,-0.010,0.000,0.000,0.000
1644879250602426112,2022-02-14-22:54:10,10.1.1.2,32,0.000,0.000,0.000,0.000,0.000,0.000
1644879250714157056,2022-02-14-22:54:10,10.1.1.2,36,0.020,0.020,0.020,0.000,0.000,0.000
1644879250754650112,2022-02-14-22:54:10,10.1.1.2,25,0.030,0.030,0.030,0.000,0.000,0.000
1644879250804871936,2022-02-14-22:54:10,10.1.1.2,22,0.040,0.040,0.040,0.000,0.000,0.000
1644879250904958976,2022-02-14-22:54:10,10.1.1.2,18,0.060,0.060,0.060,0.000,0.000,0.000
1644879250973790976,2022-02-14-22:54:10,10.1.1.2,37,0.070,0.070,0.070,0.000,0.000,0.000
1644879251020281088,2022-02-14-22:54:11,10.1.1.2,32,0.080,0.080,0.080,0.000,0.000,0.000
1644879251072108032,2022-02-14-22:54:11,10.1.1.2,33,0.090,0.090,0.090,0.000,0.000,0.000
1644879251108073984,2022-02-14-22:54:11,10.1.1.2,16,0.100,0.100,0.100,0.000,0.000,0.000
1644879251162676992,2022-02-14-22:54:11,10.1.1.2,22,0.090,0.090,0.090,0.000,0.000,0.000
1644879251213260032,2022-02-14-22:54:11,10.1.1.2,22,0.080,0.080,0.080,0.000,0.000,0.000
1644879251273396992,2022-02-14-22:54:11,10.1.1.2,29,0.070,0.070,0.070,0.000,0.000,0.000
1644879251334312960,2022-02-14-22:54:11,10.1.1.2,36,0.060,0.060,0.060,0.000,0.000,0.000
1644879251374372864,2022-02-14-22:54:11,10.1.1.2,25,0.050,0.050,0.050,0.000,0.000,0.000
1644879251434376960,2022-02-14-22:54:11,10.1.1.2,34,0.040,0.040,0.040,0.000,0.000,0.000
1644879251474263808,2022-02-14-22:54:11,10.1.1.2,22,0.030,0.030,0.030,0.000,0.000,0.000
1644879251534307840,2022-02-14-22:54:11,10.1.1.2,30,0.020,0.020,0.020,0.000,0.000,0.000
1644879251595166976,2022-02-14-22:54:11,10.1.1.2,40,0.010,0.010,0.010,0.000,0.000,0.000
1644879251624365056,2022-02-14-22:54:11,10.1.1.2,19,0.001,0.001,0.001,0.000,0.000,0.000
1644879251693469952,2022-02-14-22:54:11,10.1.1.2,38,-0.010,-0.010,-0.010,0.000,0.000,0.000
1644879251734757888,2022-02-14-22:54:11,10.1.1.2,25,-0.020,-0.020,-0.020,0.000,0.000,0.000
1644879251793946112,2022-02-14-22:54:11,10.1.1.2,34,-0.030,-0.030,-0.030,0.000,0.000,0.000
1644879251844150016,2022-02-14-22:54:11,10.1.1.2,32,-0.040,-0.040,-0.040,0.000,0.000,0.000
1644879251893842944,2022-02-14-22:54:11,10.1.1.2,31,-0.050,-0.050,-0.050,0.000,0.000,0.000
1644879251933619968,2022-02-14-22:54:11,10.1.1.2,21,-0.060,-0.060,-0.060,0.000,0.000,0.000
1644879251983730176,2022-02-14-22:54:11,10.1.1.2,20,-0.070,-0.070,-0.070,0.000,0.000,0.000
1644879252034288896,2022-02-14-22:54:12,10.1.1.2,19,-0.080,-0.080,-0.080,0.000,0.000,0.000
1644879252153896192,2022-02-14-22:54:12,10.1.1.2,37,-0.100,-0.100,-0.100,0.000,0.000,0.000
1644879252194967040,2022-02-14-22:54:12,10.1.1.2,26,-0.090,-0.090,-0.090,0.000,0.000,0.000
1644879252254384896,2022-02-14-22:54:12,10.1.1.2,35,-0.080,-0.080,-0.080,0.000,0.000,0.000
1644879252294502144,2022-02-14-22:54:12,10.1.1.2,24,-0.070,-0.070,-0.070,0.000,0.000,0.000
1644879252354547968,2022-02-14-22:54:12,10.1.1.2,34,-0.060,-0.060,-0.060,0.000,0.000,0.000
1644879252408984832,2022-02-14-22:54:12,10.1.1.2,35,-0.050,-0.050,-0.050,0.000,0.000,0.000
1644879252447973120,2022-02-14-22:54:12,10.1.1.2,23,-0.040,-0.040,-0.040,0.000,0.000,0.000
1644879252553945088,2022-02-14-22:54:12,10.1.1.2,30,-0.020,-0.020,-0.020,0.000,0.000,0.000
1644879252593466112,2022-02-14-22:54:12,10.1.1.2,19,-0.011,-0.011,-0.011,0.000,0.000,0.000
1644879252653553920,2022-02-14-22:54:12,10.1.1.2,24,0.000,0.000,0.000,0.000,0.000,0.000
1644879252713562112,2022-02-14-22:54:12,10.1.1.2,34,0.010,0.010,0.010,0.000,0.000,0.000
1644879252753676800,2022-02-14-22:54:12,10.1.1.2,23,0.020,0.020,0.020,0.000,0.000,0.000
1644879252815041024,2022-02-14-22:54:12,10.1.1.2,32,0.030,0.030,0.030,0.000,0.000,0.000
1644879252854331904,2022-02-14-22:54:12,10.1.1.2,21,0.040,0.040,0.040,0.000,0.000,0.000
1644879252913968128,2022-02-14-22:54:12,10.1.1.2,31,0.050,0.050,0.050,0.000,0.000,0.000
1644879252953519104,2022-02-14-22:54:12,10.1.1.2,20,0.060,0.060,0.060,0.000,0.000,0.000
1644879253013400064,2022-02-14-22:54:13,10.1.1.2,29,0.070,0.070,0.070,0.000,0.000,0.000
1644879253063460096,2022-02-14-22:54:13,10.1.1.2,28,0.080,0.080,0.080,0.000,0.000,0.000
1644879253113803008,2022-02-14-22:54:13,10.1.1.2,27,0.090,0.090,0.090,0.000,0.000,0.000
1644879253174262016,2022-02-14-22:54:13,10.1.1.2,36,0.100,0.100,0.100,0.000,0.000,0.000
1644879253214760960,2022-02-14-22:54:13,10.1.1.2,25,0.090,0.090,0.090,0.000,0.000,0.000
1644879253274033152,2022-02-14-22:54:13,10.1.1.2,34,0.080,0.080,0.080,0.000,0.000,0.000
1644879253314446848,2022-02-14-22:54:13,10.1.1.2,23,0.070,0.070,0.070,0.000,0.000,0.000
1644879253373740800,2022-02-14-22:54:13,10.1.1.2,32,0.060,0.060,0.060,0.000,0.000,0.000
1644879253414021120,2022-02-14-22:54:13,10.1.1.2,21,0.050,0.050,0.050,0.000,0.000,0.000
1644879253474240000,2022-02-14-22:54:13,10.1.1.2,30,0.040,0.040,0.040,0.000,0.000,0.000
1644879253513478912,2022-02-14-22:54:13,10.1.1.2,19,0.030,0.030,0.030,0.000,0.000,0.000
1644879253573427968,2022-02-14-22:54:13,10.1.1.2,28,0.020,0.020,0.020,0.000,0.000,0.000
1644879253633672960,2022-02-14-22:54:13,10.1.1.2,38,0.010,0.010,0.010,0.000,0.000,0.000
1644879253734978816,2022-02-14-22:54:13,10.1.1.2,35,-0.010,-0.010,-0.010,0.000,0.000,0.000
1644879253783554048,2022-02-14-22:54:13,10.1.1.2,34,-0.020,-0.020,-0.020,0.000,0.000,0.000
1644879253823649024,2022-02-14-22:54:13,10.1.1.2,24,-0.030,-0.030,-0.030,0.000,0.000,0.000
1644879253873835008,2022-02-14-22:54:13,10.1.1.2,23,-0.040,-0.040,-0.040,0.000,0.000,0.000
1644879253933608960,2022-02-14-22:54:13,10.1.1.2,32,-0.050,-0.050,-0.050,0.000,0.000,0.000
1644879253973606144,2022-02-14-22:54:13,10.1.1.2,21,-0.060,-0.060,-0.060,0.000,0.000,0.000
1644879254034352128,2022-02-14-22:54:14,10.1.1.2,30,-0.070,-0.070,-0.070,0.000,0.000,0.000
1644879254093605888,2022-02-14-22:54:14,10.1.1.2,38,-0.080,-0.080,-0.080,0.000,0.000,0.000
1644879254134145024,2022-02-14-22:54:14,10.1.1.2,26,-0.090,-0.090,-0.090,0.000,0.000,0.000
1644879254193959936,2022-02-14-22:54:14,10.1.1.2,35,-0.100,-0.100,-0.100,0.000,0.000,0.000
1644879254234119936,2022-02-14-22:54:14,10.1.1.2,24,-0.090,-0.090,-0.090,0.000,0.000,0.000
1644879254294061824,2022-02-14-22:54:14,10.1.1.2,32,-0.080,-0.080,-0.080,0.000,0.000,0.000
1644879254333734912,2022-02-14-22:54:14,10.1.1.2,21,-0.070,-0.070,-0.070,0.000,0.000,0.000
1644879254393735936,2022-02-14-22:54:14,10.1.1.2,30,-0.060,-0.060,-0.060,0.000,0.000,0.000
1644879254433725952,2022-02-14-22:54:14,10.1.1.2,20,-0.050,-0.050,-0.050,0.000,0.000,0.000
1644879254493815808,2022-02-14-22:54:14,10.1.1.2,28,-0.040,-0.040,-0.040,0.000,0.000,0.000
1644879254553698048,2022-02-14-22:54:14,10.1.1.2,37,-0.030,-0.030,-0.030,0.000,0.000,0.000
1644879254593705984,2022-02-14-22:54:14,10.1.1.2,27,-0.020,-0.020,-0.020,0.000,0.000,0.000
1644879254653564928,2022-02-14-22:54:14,10.1.1.2,36,-0.010,-0.010,-0.010,0.000,0.000,0.000
1644879254693622016,2022-02-14-22:54:14,10.1.1.2,25,0.000,0.000,0.000,0.000,0.000,0.000
1644879254754044928,2022-02-14-22:54:14,10.1.1.2,34,0.010,0.010,0.010,0.000,0.000,0.000
1644879254809999104,2022-02-14-22:54:14,10.1.1.2,39,0.020,0.020,0.020,0.000,0.000,0.000
1644879254849106176,2022-02-14-22:54:14,10.1.1.2,28,0.030,0.030,0.030,0.000,0.000,0.000
1644879254898829824,2022-02-14-22:54:14,10.1.1.2,26,0.040,0.040,0.040,0.000,0.000,0.000
1644879254944381952,2022-02-14-22:54:14,10.1.1.2,21,0.050,0.050,0.050,0.000,0.000,0.000
1644879255012684032,2022-02-14-22:54:15,10.1.1.2,34,0.060,0.060,0.060,0.000,0.000,0.000
1644879255045767936,2022-02-14-22:54:15,10.1.1.2,20,0.070,0.070,0.070,0.000,0.000,0.000
1644879255114313984,2022-02-14-22:54:15,10.1.1.2,38,0.080,0.080,0.080,0.000,0.000,0.000
1644879255213869056,2022-02-14-22:54:15,10.1.1.2,37,0.100,0.100,0.100,0.000,0.000,0.000
1644879255254151168,2022-02-14-22:54:15,10.1.1.2,22,0.090,0.090,0.090,0.000,0.000,0.000
1644879255315180032,2022-02-14-22:54:15,10.1.1.2,30,0.080,0.080,0.080,0.000,0.000,0.000
1644879255354487808,2022-02-14-22:54:15,10.1.1.2,19,0.070,0.070,0.070,0.000,0.000,0.000
1644879255413464064,2022-02-14-22:54:15,10.1.1.2,28,0.060,0.060,0.060,0.000,0.000,0.000
1644879255463887104,2022-02-14-22:54:15,10.1.1.2,25,0.050,0.050,0.050,0.000,0.000,0.000
1644879255513972992,2022-02-14-22:54:15,10.1.1.2,24,0.040,0.040,0.040,0.000,0.000,0.000
1644879255574085888,2022-02-14-22:54:15,10.1.1.2,33,0.030,0.030,0.030,0.000,0.000,0.000
1644879255614020096,2022-02-14-22:54:15,10.1.1.2,20,0.020,0.020,0.020,0.000,0.000,0.000
1644879255664100864,2022-02-14-22:54:15,10.1.1.2,20,0.010,0.010,0.010,0.000,0.000,0.000
1644879255713961984,2022-02-14-22:54:15,10.1.1.2,19,0.001,0.001,0.001,0.000,0.000,0.000
1644879255774897152,2022-02-14-22:54:15,10.1.1.2,28,-0.010,-0.010,-0.010,0.000,0.000,0.000
1644879255833841152,2022-02-14-22:54:15,10.1.1.2,37,-0.020,-0.020,-0.020,0.000,0.000,0.000
1644879255933655040,2022-02-14-22:54:15,10.1.1.2,36,-0.040,-0.040,-0.040,0.000,0.000,0.000
1644879255973972992,2022-02-14-22:54:15,10.1.1.2,25,-0.050,-0.050,-0.050,0.000,0.000,0.000
1644879256032965888,2022-02-14-22:54:16,10.1.1.2,34,-0.060,-0.060,-0.060,0.000,0.000,0.000
1644879256073518080,2022-02-14-22:54:16,10.1.1.2,23,-0.070,-0.070,-0.070,0.000,0.000,0.000
1644879256134195968,2022-02-14-22:54:16,10.1.1.2,33,-0.080,-0.080,-0.080,0.000,0.000,0.000
1644879256174276096,2022-02-14-22:54:16,10.1.1.2,22,-0.090,-0.090,-0.090,0.000,0.000,0.000
1644879256233284096,2022-02-14-22:54:16,10.1.1.2,32,-0.100,-0.100,-0.100,0.000,0.000,0.000
1644879256273792000,2022-02-14-22:54:16,10.1.1.2,20,-0.090,-0.090,-0.090,0.000,0.000,0.000
1644879256333699840,2022-02-14-22:54:16,10.1.1.2,29,-0.080,-0.080,-0.080,0.000,0.000,0.000
1644879256393532928,2022-02-14-22:54:16,10.1.1.2,38,-0.070,-0.070,-0.070,0.000,0.000,0.000
1644879256494374144,2022-02-14-22:54:16,10.1.1.2,35,-0.050,-0.050,-0.050,0.000,0.000,0.000
1644879256534311168,2022-02-14-22:54:16,10.1.1.2,24,-0.040,-0.040,-0.040,0.000,0.000,0.000
1644879256594566144,2022-02-14-22:54:16,10.1.1.2,33,-0.030,-0.030,-0.030,0.000,0.000,0.000
1644879256635495936,2022-02-14-22:54:16,10.1.1.2,22,-0.020,-0.020,-0.020,0.000,0.000,0.000
1644879256694638080,2022-02-14-22:54:16,10.1.1.2,31,-0.010,-0.010,-0.010,0.000,0.000,0.000
1644879256734493952,2022-02-14-22:54:16,10.1.1.2,21,0.000,0.000,0.000,0.000,0.000,0.000
1644879256794152960,2022-02-14-22:54:16,10.1.1.2,28,0.010,0.010,0.010,0.000,0.000,0.000
1644879256853522944,2022-02-14-22:54:16,10.1.1.2,37,0.020,0.020,0.020,0.000,0.000,0.000
1644879256893587968,2022-02-14-22:54:16,10.1.1.2,26,0.030,0.030,0.030,0.000,0.000,0.000
1644879256943737856,2022-02-14-22:54:16,10.1.1.2,25,0.040,0.040,0.040,0.000,0.000,0.000
1644879256993464064,2022-02-14-22:54:16,10.1.1.2,24,0.050,0.050,0.050,0.000,0.000,0.000
1644879257053438976,2022-02-14-22:54:17,10.1.1.2,34,0.060,0.060,0.060,0.000,0.000,0.000
1644879257113840128,2022-02-14-22:54:17,10.1.1.2,43,0.070,0.070,0.070,0.000,0.000,0.000
1644879257153985024,2022-02-14-22:54:17,10.1.1.2,32,0.080,0.080,0.080,0.000,0.000,0.000
1644879257194050048,2022-02-14-22:54:17,10.1.1.2,22,0.090,0.090,0.090,0.000,0.000,0.000
1644879257253195008,2022-02-14-22:54:17,10.1.1.2,31,0.100,0.100,0.100,0.000,0.000,0.000
1644879257293035008,2022-02-14-22:54:17,10.1.1.2,20,0.090,0.090,0.090,0.000,0.000,0.000
1644879257353812992,2022-02-14-22:54:17,10.1.1.2,29,0.080,0.080,0.080,0.000,0.000,0.000
1644879257393603072,2022-02-14-22:54:17,10.1.1.2,19,0.071,0.071,0.071,0.000,0.000,0.000
1644879257454142976,2022-02-14-22:54:17,10.1.1.2,26,0.060,0.060,0.060,0.000,0.000,0.000
1644879257474791936,2022-02-14-22:54:17,10.1.1.2,-5,0.060,0.060,0.060,0.000,0.000,0.000
1644879257553917952,2022-02-14-22:54:17,10.1.1.2,24,0.040,0.040,0.040,0.000,0.000,0.000
1644879257605722880,2022-02-14-22:54:17,10.1.1.2,24,0.030,0.030,0.030,0.000,0.000,0.000
1644879257654049024,2022-02-14-22:54:17,10.1.1.2,20,0.020,0.020,0.020,0.000,0.000,0.000
1644879257714065152,2022-02-14-22:54:17,10.1.1.2,29,0.010,0.010,0.010,0.000,0.000,0.000
1644879257753667072,2022-02-14-22:54:17,10.1.1.2,19,0.001,0.001,0.001,0.000,0.000,0.000
1644879257814582016,2022-02-14-22:54:17,10.1.1.2,28,-0.010,-0.010,-0.010,0.000,0.000,0.000
1644879257874319104,2022-02-14-22:54:17,10.1.1.2,35,-0.020,-0.020,-0.020,0.000,0.000,0.000
1644879257914908928,2022-02-14-22:54:17,10.1.1.2,24,-0.030,-0.030,-0.030,0.000,0.000,0.000
1644879257964020992,2022-02-14-22:54:17,10.1.1.2,24,-0.040,-0.040,-0.040,0.000,0.000,0.000
1644879258027041024,2022-02-14-22:54:18,10.1.1.2,35,-0.050,-0.050,-0.050,0.000,0.000,0.000
1644879258075581952,2022-02-14-22:54:18,10.1.1.2,33,-0.060,-0.060,-0.060,0.000,0.000,0.000
1644879258185463040,2022-02-14-22:54:18,10.1.1.2,39,-0.080,-0.080,-0.080,0.000,0.000,0.000
1644879258225975040,2022-02-14-22:54:18,10.1.1.2,28,-0.090,-0.090,-0.090,0.000,0.000,0.000
1644879258300929024,2022-02-14-22:54:18,10.1.1.2,-2,-0.090,-0.090,-0.090,0.000,0.000,0.000
1644879258425668864,2022-02-14-22:54:18,10.1.1.2,21,-0.070,-0.070,-0.070,0.000,0.000,0.000
1644879258485208064,2022-02-14-22:54:18,10.1.1.2,30,-0.060,-0.060,-0.060,0.000,0.000,0.000
1644879258525274112,2022-02-14-22:54:18,10.1.1.2,19,-0.051,-0.051,-0.051,0.000,0.000,0.000
1644879258584904960,2022-02-14-22:54:18,10.1.1.2,28,-0.040,-0.040,-0.040,0.000,0.000,0.000
1644879258644967936,2022-02-14-22:54:18,10.1.1.2,35,-0.030,-0.030,-0.030,0.000,0.000,0.000
1644879258685081088,2022-02-14-22:54:18,10.1.1.2,24,-0.020,-0.020,-0.020,0.000,0.000,0.000
1644879258745594880,2022-02-14-22:54:18,10.1.1.2,32,-0.010,-0.010,-0.010,0.000,0.000,0.000
1644879258784270080,2022-02-14-22:54:18,10.1.1.2,20,0.000,0.000,0.000,0.000,0.000,0.000
1644879258844306944,2022-02-14-22:54:18,10.1.1.2,27,0.010,0.010,0.010,0.000,0.000,0.000
1644879258956794112,2022-02-14-22:54:18,10.1.1.2,36,0.030,0.030,0.030,0.000,0.000,0.000
1644879259015693824,2022-02-14-22:54:19,10.1.1.2,39,0.040,0.040,0.040,0.000,0.000,0.000
1644879259045146112,2022-02-14-22:54:19,10.1.1.2,20,0.050,0.050,0.050,0.000,0.000,0.000
1644879259105192960,2022-02-14-22:54:19,10.1.1.2,29,0.060,0.060,0.060,0.000,0.000,0.000
1644879259165241088,2022-02-14-22:54:19,10.1.1.2,38,0.070,0.070,0.070,0.000,0.000,0.000
1644879259205612032,2022-02-14-22:54:19,10.1.1.2,25,0.080,0.080,0.080,0.000,0.000,0.000
1644879259265435904,2022-02-14-22:54:19,10.1.1.2,33,0.090,0.090,0.090,0.000,0.000,0.000
1644879259306551040,2022-02-14-22:54:19,10.1.1.2,22,0.100,0.100,0.100,0.000,0.000,0.000
1644879259365876992,2022-02-14-22:54:19,10.1.1.2,30,0.090,0.090,0.090,0.000,0.000,0.000
1644879259405410048,2022-02-14-22:54:19,10.1.1.2,19,0.080,0.080,0.080,0.000,0.000,0.000
1644879259466639872,2022-02-14-22:54:19,10.1.1.2,28,0.070,0.070,0.070,0.000,0.000,0.000
1644879259526149120,2022-02-14-22:54:19,10.1.1.2,36,0.060,0.060,0.060,0.000,0.000,0.000
1644879259566198016,2022-02-14-22:54:19,10.1.1.2,23,0.050,0.050,0.050,0.000,0.000,0.000
1644879259625516800,2022-02-14-22:54:19,10.1.1.2,26,0.040,0.040,0.040,0.000,0.000,0.000
1644879259686008064,2022-02-14-22:54:19,10.1.1.2,35,0.030,0.030,0.030,0.000,0.000,0.000
1644879259726268928,2022-02-14-22:54:19,10.1.1.2,24,0.020,0.020,0.020,0.000,0.000,0.000
1644879259785811968,2022-02-14-22:54:19,10.1.1.2,33,0.010,0.010,0.010,0.000,0.000,0.000
1644879259825895168,2022-02-14-22:54:19,10.1.1.2,22,0.000,0.000,0.000,0.000,0.000,0.000
1644879259885638912,2022-02-14-22:54:19,10.1.1.2,31,-0.010,-0.010,-0.010,0.000,0.000,0.000
1644879259945278976,2022-02-14-22:54:19,10.1.1.2,36,-0.020,-0.020,-0.020,0.000,0.000,0.000
1644879259985858048,2022-02-14-22:54:19,10.1.1.2,24,-0.030,-0.030,-0.030,0.000,0.000,0.000
1644879260045665024,2022-02-14-22:54:20,10.1.1.2,33,-0.040,-0.040,-0.040,0.000,0.000,0.000
1644879260085146880,2022-02-14-22:54:20,10.1.1.2,21,-0.050,-0.050,-0.050,0.000,0.000,0.000
1644879260144355072,2022-02-14-22:54:20,10.1.1.2,29,-0.060,-0.060,-0.060,0.000,0.000,0.000
1644879260205296128,2022-02-14-22:54:20,10.1.1.2,38,-0.070,-0.070,-0.070,0.000,0.000,0.000
1644879260245693952,2022-02-14-22:54:20,10.1.1.2,28,-0.080,-0.080,-0.080,0.000,0.000,0.000
1644879260306298880,2022-02-14-22:54:20,10.1.1.2,35,-0.090,-0.090,-0.090,0.000,0.000,0.000
1644879260345928960,2022-02-14-22:54:20,10.1.1.2,22,-0.100,-0.100,-0.100,0.000,0.000,0.000
1644879260405647872,2022-02-14-22:54:20,10.1.1.2,32,-0.090,-0.090,-0.090,0.000,0.000,0.000
1644879260452333824,2022-02-14-22:54:20,10.1.1.2,22,-0.080,-0.080,-0.080,0.000,0.000,0.000
1644879260505091072,2022-02-14-22:54:20,10.1.1.2,29,-0.070,-0.070,-0.070,0.000,0.000,0.000
1644879260565337856,2022-02-14-22:54:20,10.1.1.2,38,-0.060,-0.060,-0.060,0.000,0.000,0.000
1644879260605533952,2022-02-14-22:54:20,10.1.1.2,27,-0.050,-0.050,-0.050,0.000,0.000,0.000
1644879260665387008,2022-02-14-22:54:20,10.1.1.2,36,-0.040,-0.040,-0.040,0.000,0.000,0.000
1644879260705204992,2022-02-14-22:54:20,10.1.1.2,25,-0.030,-0.030,-0.030,0.000,0.000,0.000
1644879260765232128,2022-02-14-22:54:20,10.1.1.2,33,-0.020,-0.020,-0.020,0.000,0.000,0.000
1644879260805593856,2022-02-14-22:54:20,10.1.1.2,23,-0.010,-0.010,-0.010,0.000,0.000,0.000
1644879260866755840,2022-02-14-22:54:20,10.1.1.2,30,0.000,0.000,0.000,0.000,0.000,0.000
1644879260925209088,2022-02-14-22:54:20,10.1.1.2,37,0.010,0.010,0.010,0.000,0.000,0.000
1644879261025795072,2022-02-14-22:54:21,10.1.1.2,28,0.030,0.030,0.030,0.000,0.000,0.000
1644879261086129920,2022-02-14-22:54:21,10.1.1.2,37,0.040,0.040,0.040,0.000,0.000,0.000
1644879261125849856,2022-02-14-22:54:21,10.1.1.2,25,0.050,0.050,0.050,0.000,0.000,0.000
1644879261187236096,2022-02-14-22:54:21,10.1.1.2,34,0.060,0.060,0.060,0.000,0.000,0.000
1644879261245445120,2022-02-14-22:54:21,10.1.1.2,36,0.070,0.070,0.070,0.000,0.000,0.000
1644879261285093120,2022-02-14-22:54:21,10.1.1.2,24,0.080,0.080,0.080,0.000,0.000,0.000
1644879261345138944,2022-02-14-22:54:21,10.1.1.2,33,0.090,0.090,0.090,0.000,0.000,0.000
1644879261385106176,2022-02-14-22:54:21,10.1.1.2,20,0.100,0.100,0.100,0.000,0.000,0.000
1644879261445240064,2022-02-14-22:54:21,10.1.1.2,30,0.090,0.090,0.090,0.000,0.000,0.000
1644879261485377024,2022-02-14-22:54:21,10.1.1.2,19,0.081,0.081,0.081,0.000,0.000,0.000
1644879261545039872,2022-02-14-22:54:21,10.1.1.2,28,0.070,0.070,0.070,0.000,0.000,0.000
1644879261605745152,2022-02-14-22:54:21,10.1.1.2,34,0.060,0.060,0.060,0.000,0.000,0.000
1644879261646465024,2022-02-14-22:54:21,10.1.1.2,22,0.050,0.050,0.050,0.000,0.000,0.000
1644879261705643008,2022-02-14-22:54:21,10.1.1.2,31,0.040,0.040,0.040,0.000,0.000,0.000
1644879261746000896,2022-02-14-22:54:21,10.1.1.2,21,0.030,0.030,0.030,0.000,0.000,0.000
1644879261820369920,2022-02-14-22:54:21,10.1.1.2,43,0.020,0.020,0.020,0.000,0.000,0.000
1644879261865464064,2022-02-14-22:54:21,10.1.1.2,38,0.010,0.010,0.010,0.000,0.000,0.000
1644879261911128064,2022-02-14-22:54:21,10.1.1.2,33,0.000,0.000,0.000,0.000,0.000,0.000
1644879262027470080,2022-02-14-22:54:22,10.1.1.2,39,-0.020,-0.020,-0.020,0.000,0.000,0.000
1644879262070179840,2022-02-14-22:54:22,10.1.1.2,31,-0.030,-0.030,-0.030,0.000,0.000,0.000
1644879262108724992,2022-02-14-22:54:22,10.1.1.2,18,-0.040,-0.040,-0.040,0.000,0.000,0.000
1644879262185734144,2022-02-14-22:54:22,10.1.1.2,38,-0.050,-0.050,-0.050,0.000,0.000,0.000
1644879262226302976,2022-02-14-22:54:22,10.1.1.2,27,-0.060,-0.060,-0.060,0.000,0.000,0.000
1644879262286385920,2022-02-14-22:54:22,10.1.1.2,36,-0.070,-0.070,-0.070,0.000,0.000,0.000
1644879262327678976,2022-02-14-22:54:22,10.1.1.2,23,-0.080,-0.080,-0.080,0.000,0.000,0.000
1644879262397069824,2022-02-14-22:54:22,10.1.1.2,37,-0.090,-0.090,-0.090,0.000,0.000,0.000
1644879262533838080,2022-02-14-22:54:22,10.1.1.2,25,-0.080,-0.080,-0.080,0.000,0.000,0.000
1644879262594238976,2022-02-14-22:54:22,10.1.1.2,34,-0.070,-0.070,-0.070,0.000,0.000,0.000
1644879262635288064,2022-02-14-22:54:22,10.1.1.2,25,-0.060,-0.060,-0.060,0.000,0.000,0.000
1644879262693198080,2022-02-14-22:54:22,10.1.1.2,32,-0.050,-0.050,-0.050,0.000,0.000,0.000
1644879262754065152,2022-02-14-22:54:22,10.1.1.2,35,-0.040,-0.040,-0.040,0.000,0.000,0.000
1644879262793812992,2022-02-14-22:54:22,10.1.1.2,24,-0.030,-0.030,-0.030,0.000,0.000,0.000
1644879262846952960,2022-02-14-22:54:22,10.1.1.2,25,-0.020,-0.020,-0.020,0.000,0.000,0.000
1644879262893675008,2022-02-14-22:54:22,10.1.1.2,21,-0.010,-0.010,-0.010,0.000,0.000,0.000
1644879262952553984,2022-02-14-22:54:22,10.1.1.2,23,0.000,0.000,0.000,0.000,0.000,0.000
1644879263013585920,2022-02-14-22:54:23,10.1.1.2,39,0.010,0.010,0.010,0.000,0.000,0.000
1644879263054383104,2022-02-14-22:54:23,10.1.1.2,26,0.020,0.020,0.020,0.000,0.000,0.000
1644879263112262912,2022-02-14-22:54:23,10.1.1.2,35,0.030,0.030,0.030,0.000,0.000,0.000
1644879263152503040,2022-02-14-22:54:23,10.1.1.2,20,0.040,0.040,0.040,0.000,0.000,0.000
1644879263212684032,2022-02-14-22:54:23,10.1.1.2,30,0.050,0.050,0.050,0.000,0.000,0.000
1644879263273539072,2022-02-14-22:54:23,10.1.1.2,38,0.060,0.060,0.060,0.000,0.000,0.000
1644879263313112064,2022-02-14-22:54:23,10.1.1.2,26,0.070,0.070,0.070,0.000,0.000,0.000
1644879263373292800,2022-02-14-22:54:23,10.1.1.2,34,0.080,0.080,0.080,0.000,0.000,0.000
1644879263412861184,2022-02-14-22:54:23,10.1.1.2,23,0.090,0.090,0.090,0.000,0.000,0.000
1644879263473401088,2022-02-14-22:54:23,10.1.1.2,32,0.100,0.100,0.100,0.000,0.000,0.000
1644879263513158912,2022-02-14-22:54:23,10.1.1.2,22,0.090,0.090,0.090,0.000,0.000,0.000
1644879263573352192,2022-02-14-22:54:23,10.1.1.2,31,0.080,0.080,0.080,0.000,0.000,0.000
1644879263633216000,2022-02-14-22:54:23,10.1.1.2,35,0.070,0.070,0.070,0.000,0.000,0.000
1644879263673260032,2022-02-14-22:54:23,10.1.1.2,24,0.060,0.060,0.060,0.000,0.000,0.000
1644879263733408000,2022-02-14-22:54:23,10.1.1.2,32,0.050,0.050,0.050,0.000,0.000,0.000
1644879263773273856,2022-02-14-22:54:23,10.1.1.2,21,0.040,0.040,0.040,0.000,0.000,0.000
1644879263833893888,2022-02-14-22:54:23,10.1.1.2,30,0.030,0.030,0.030,0.000,0.000,0.000
1644879263873708032,2022-02-14-22:54:23,10.1.1.2,20,0.020,0.020,0.020,0.000,0.000,0.000
1644879263933583872,2022-02-14-22:54:23,10.1.1.2,29,0.010,0.010,0.010,0.000,0.000,0.000
1644879263994051072,2022-02-14-22:54:23,10.1.1.2,38,0.000,0.000,0.000,0.000,0.000,0.000
1644879264033739008,2022-02-14-22:54:24,10.1.1.2,27,-0.010,-0.010,-0.010,0.000,0.000,0.000
1644879264094142976,2022-02-14-22:54:24,10.1.1.2,36,-0.020,-0.020,-0.020,0.000,0.000,0.000
1644879264134216192,2022-02-14-22:54:24,10.1.1.2,24,-0.030,-0.030,-0.030,0.000,0.000,0.000
1644879264194614016,2022-02-14-22:54:24,10.1.1.2,33,-0.040,-0.040,-0.040,0.000,0.000,0.000
1644879264234297088,2022-02-14-22:54:24,10.1.1.2,22,-0.050,-0.050,-0.050,0.000,0.000,0.000
1644879264295031040,2022-02-14-22:54:24,10.1.1.2,32,-0.060,-0.060,-0.060,0.000,0.000,0.000
1644879264333623808,2022-02-14-22:54:24,10.1.1.2,20,-0.070,-0.070,-0.070,0.000,0.000,0.000
1644879264394576128,2022-02-14-22:54:24,10.1.1.2,27,-0.080,-0.080,-0.080,0.000,0.000,0.000
1644879264453748992,2022-02-14-22:54:24,10.1.1.2,36,-0.090,-0.090,-0.090,0.000,0.000,0.000
1644879264493340928,2022-02-14-22:54:24,10.1.1.2,23,-0.100,-0.100,-0.100,0.000,0.000,0.000
1644879264555699968,2022-02-14-22:54:24,10.1.1.2,35,-0.090,-0.090,-0.090,0.000,0.000,0.000
1644879264613454080,2022-02-14-22:54:24,10.1.1.2,41,-0.080,-0.080,-0.080,0.000,0.000,0.000
1644879264653840128,2022-02-14-22:54:24,10.1.1.2,30,-0.070,-0.070,-0.070,0.000,0.000,0.000
1644879264693836800,2022-02-14-22:54:24,10.1.1.2,19,-0.060,-0.060,-0.060,0.000,0.000,0.000
1644879264754502912,2022-02-14-22:54:24,10.1.1.2,28,-0.050,-0.050,-0.050,0.000,0.000,0.000
1644879264813856000,2022-02-14-22:54:24,10.1.1.2,37,-0.040,-0.040,-0.040,0.000,0.000,0.000
1644879264853584128,2022-02-14-22:54:24,10.1.1.2,26,-0.030,-0.030,-0.030,0.000,0.000,0.000
1644879264915321088,2022-02-14-22:54:24,10.1.1.2,35,-0.020,-0.020,-0.020,0.000,0.000,0.000
1644879264977339904,2022-02-14-22:54:24,10.1.1.2,38,-0.010,-0.010,-0.010,0.000,0.000,0.000
1644879265014082816,2022-02-14-22:54:25,10.1.1.2,21,0.000,0.000,0.000,0.000,0.000,0.000
1644879265074105856,2022-02-14-22:54:25,10.1.1.2,30,0.010,0.010,0.010,0.000,0.000,0.000
1644879265127702016,2022-02-14-22:54:25,10.1.1.2,33,0.020,0.020,0.020,0.000,0.000,0.000
1644879265164724992,2022-02-14-22:54:25,10.1.1.2,19,0.030,0.030,0.030,0.000,0.000,0.000
1644879265233294080,2022-02-14-22:54:25,10.1.1.2,38,0.040,0.040,0.040,0.000,0.000,0.000
1644879265273360128,2022-02-14-22:54:25,10.1.1.2,27,0.050,0.050,0.050,0.000,0.000,0.000
1644879265334003968,2022-02-14-22:54:25,10.1.1.2,36,0.060,0.060,0.060,0.000,0.000,0.000
1644879265373531136,2022-02-14-22:54:25,10.1.1.2,25,0.070,0.070,0.070,0.000,0.000,0.000
1644879265433785856,2022-02-14-22:54:25,10.1.1.2,35,0.080,0.080,0.080,0.000,0.000,0.000
1644879265473641984,2022-02-14-22:54:25,10.1.1.2,22,0.090,0.090,0.090,0.000,0.000,0.000
1644879265533492992,2022-02-14-22:54:25,10.1.1.2,32,0.100,0.100,0.100,0.000,0.000,0.000
1644879265577903872,2022-02-14-22:54:25,10.1.1.2,24,0.090,0.090,0.090,0.000,0.000,0.000
1644879265632747776,2022-02-14-22:54:25,10.1.1.2,29,0.080,0.080,0.080,0.000,0.000,0.000
1644879265694443008,2022-02-14-22:54:25,10.1.1.2,35,0.070,0.070,0.070,0.000,0.000,0.000
1644879265753614848,2022-02-14-22:54:25,10.1.1.2,34,0.060,0.060,0.060,0.000,0.000,0.000
1644879265795150080,2022-02-14-22:54:25,10.1.1.2,23,0.050,0.050,0.050,0.000,0.000,0.000
1644879265854543872,2022-02-14-22:54:25,10.1.1.2,31,0.040,0.040,0.040,0.000,0.000,0.000
1644879265914256128,2022-02-14-22:54:25,10.1.1.2,36,0.030,0.030,0.030,0.000,0.000,0.000
1644879265980158208,2022-02-14-22:54:25,10.1.1.2,44,0.020,0.020,0.020,0.000,0.000,0.000
1644879266024372992,2022-02-14-22:54:26,10.1.1.2,38,0.010,0.010,0.010,0.000,0.000,0.000
1644879266113913088,2022-02-14-22:54:26,10.1.1.2,24,-0.010,-0.010,-0.010,0.000,0.000,0.000
1644879266173907968,2022-02-14-22:54:26,10.1.1.2,34,-0.020,-0.020,-0.020,0.000,0.000,0.000
1644879266214098944,2022-02-14-22:54:26,10.1.1.2,23,-0.030,-0.030,-0.030,0.000,0.000,0.000
1644879266273612032,2022-02-14-22:54:26,10.1.1.2,26,-0.040,-0.040,-0.040,0.000,0.000,0.000
1644879266334204928,2022-02-14-22:54:26,10.1.1.2,35,-0.050,-0.050,-0.050,0.000,0.000,0.000
1644879266390806016,2022-02-14-22:54:26,10.1.1.2,35,-0.060,-0.060,-0.060,0.000,0.000,0.000
1644879266433752064,2022-02-14-22:54:26,10.1.1.2,26,-0.070,-0.070,-0.070,0.000,0.000,0.000
1644879266493774848,2022-02-14-22:54:26,10.1.1.2,35,-0.080,-0.080,-0.080,0.000,0.000,0.000
1644879266534648064,2022-02-14-22:54:26,10.1.1.2,24,-0.090,-0.090,-0.090,0.000,0.000,0.000
1644879266599407872,2022-02-14-22:54:26,10.1.1.2,37,-0.100,-0.100,-0.100,0.000,0.000,0.000
1644879266654900992,2022-02-14-22:54:26,10.1.1.2,38,-0.090,-0.090,-0.090,0.000,0.000,0.000
1644879266694555904,2022-02-14-22:54:26,10.1.1.2,27,-0.080,-0.080,-0.080,0.000,0.000,0.000
1644879266754051840,2022-02-14-22:54:26,10.1.1.2,35,-0.070,-0.070,-0.070,0.000,0.000,0.000
1644879266794522880,2022-02-14-22:54:26,10.1.1.2,24,-0.060,-0.060,-0.060,0.000,0.000,0.000
1644879266854257152,2022-02-14-22:54:26,10.1.1.2,33,-0.050,-0.050,-0.050,0.000,0.000,0.000
1644879266894104064,2022-02-14-22:54:26,10.1.1.2,21,-0.040,-0.040,-0.040,0.000,0.000,0.000
1644879266954118912,2022-02-14-22:54:26,10.1.1.2,22,-0.030,-0.030,-0.030,0.000,0.000,0.000
1644879267016374016,2022-02-14-22:54:27,10.1.1.2,32,-0.020,-0.020,-0.020,0.000,0.000,0.000
1644879267073401856,2022-02-14-22:54:27,10.1.1.2,36,-0.010,-0.010,-0.010,0.000,0.000,0.000
1644879267113815040,2022-02-14-22:54:27,10.1.1.2,26,0.000,0.000,0.000,0.000,0.000,0.000
1644879267173660928,2022-02-14-22:54:27,10.1.1.2,34,0.010,0.010,0.010,0.000,0.000,0.000
1644879267214344960,2022-02-14-22:54:27,10.1.1.2,23,0.020,0.020,0.020,0.000,0.000,0.000
1644879267273688064,2022-02-14-22:54:27,10.1.1.2,32,0.030,0.030,0.030,0.000,0.000,0.000
1644879267314668032,2022-02-14-22:54:27,10.1.1.2,19,0.040,0.040,0.040,0.000,0.000,0.000
1644879267374558976,2022-02-14-22:54:27,10.1.1.2,29,0.050,0.050,0.050,0.000,0.000,0.000
1644879267434312192,2022-02-14-22:54:27,10.1.1.2,38,0.060,0.060,0.060,0.000,0.000,0.000
1644879267474412800,2022-02-14-22:54:27,10.1.1.2,25,0.070,0.070,0.070,0.000,0.000,0.000
1644879267534427904,2022-02-14-22:54:27,10.1.1.2,34,0.080,0.080,0.080,0.000,0.000,0.000
1644879267574173952,2022-02-14-22:54:27,10.1.1.2,20,0.090,0.090,0.090,0.000,0.000,0.000
1644879267633792000,2022-02-14-22:54:27,10.1.1.2,28,0.100,0.100,0.100,0.000,0.000,0.000
1644879267693568000,2022-02-14-22:54:27,10.1.1.2,37,0.090,0.090,0.090,0.000,0.000,0.000
1644879267733506816,2022-02-14-22:54:27,10.1.1.2,24,0.080,0.080,0.080,0.000,0.000,0.000
1644879267793502208,2022-02-14-22:54:27,10.1.1.2,33,0.070,0.070,0.070,0.000,0.000,0.000
1644879267833641984,2022-02-14-22:54:27,10.1.1.2,22,0.060,0.060,0.060,0.000,0.000,0.000
1644879267953565952,2022-02-14-22:54:27,10.1.1.2,40,0.040,0.040,0.040,0.000,0.000,0.000
1644879267993745920,2022-02-14-22:54:27,10.1.1.2,28,0.030,0.030,0.030,0.000,0.000,0.000
1644879268053929984,2022-02-14-22:54:28,10.1.1.2,37,0.020,0.020,0.020,0.000,0.000,0.000
1644879268093841920,2022-02-14-22:54:28,10.1.1.2,23,0.010,0.010,0.010,0.000,0.000,0.000
1644879268154208000,2022-02-14-22:54:28,10.1.1.2,32,0.000,0.000,0.000,0.000,0.000,0.000
1644879268193548800,2022-02-14-22:54:28,10.1.1.2,20,-0.010,-0.010,-0.010,0.000,0.000,0.000
1644879268253513984,2022-02-14-22:54:28,10.1.1.2,29,-0.020,-0.020,-0.020,0.000,0.000,0.000
1644879268313561856,2022-02-14-22:54:28,10.1.1.2,38,-0.030,-0.030,-0.030,0.000,0.000,0.000
1644879268414196992,2022-02-14-22:54:28,10.1.1.2,37,-0.050,-0.050,-0.050,0.000,0.000,0.000
1644879268453927168,2022-02-14-22:54:28,10.1.1.2,25,-0.060,-0.060,-0.060,0.000,0.000,0.000
1644879268513874176,2022-02-14-22:54:28,10.1.1.2,34,-0.070,-0.070,-0.070,0.000,0.000,0.000
1644879268553404928,2022-02-14-22:54:28,10.1.1.2,24,-0.080,-0.080,-0.080,0.000,0.000,0.000
1644879268613600000,2022-02-14-22:54:28,10.1.1.2,33,-0.090,-0.090,-0.090,0.000,0.000,0.000
1644879268659272960,2022-02-14-22:54:28,10.1.1.2,22,-0.100,-0.100,-0.100,0.000,0.000,0.000
1644879268713267968,2022-02-14-22:54:28,10.1.1.2,31,-0.090,-0.090,-0.090,0.000,0.000,0.000
1644879268754246912,2022-02-14-22:54:28,10.1.1.2,20,-0.080,-0.080,-0.080,0.000,0.000,0.000
1644879268813349120,2022-02-14-22:54:28,10.1.1.2,29,-0.070,-0.070,-0.070,0.000,0.000,0.000
1644879268853501184,2022-02-14-22:54:28,10.1.1.2,19,-0.061,-0.061,-0.061,0.000,0.000,0.000
1644879268913675008,2022-02-14-22:54:28,10.1.1.2,28,-0.050,-0.050,-0.050,0.000,0.000,0.000
1644879268980302080,2022-02-14-22:54:28,10.1.1.2,43,-0.040,-0.040,-0.040,0.000,0.000,0.000
1644879269013992192,2022-02-14-22:54:29,10.1.1.2,27,-0.030,-0.030,-0.030,0.000,0.000,0.000
1644879269073718016,2022-02-14-22:54:29,10.1.1.2,36,-0.020,-0.020,-0.020,0.000,0.000,0.000
1644879269113608960,2022-02-14-22:54:29,10.1.1.2,25,-0.010,-0.010,-0.010,0.000,0.000,0.000
1644879269175740928,2022-02-14-22:54:29,10.1.1.2,34,0.000,0.000,0.000,0.000,0.000,0.000
1644879269213197824,2022-02-14-22:54:29,10.1.1.2,23,0.010,0.010,0.010,0.000,0.000,0.000
1644879269274033152,2022-02-14-22:54:29,10.1.1.2,32,0.020,0.020,0.020,0.000,0.000,0.000
1644879269316003072,2022-02-14-22:54:29,10.1.1.2,21,0.030,0.030,0.030,0.000,0.000,0.000
1644879269372897024,2022-02-14-22:54:29,10.1.1.2,22,0.040,0.040,0.040,0.000,0.000,0.000
1644879269473650944,2022-02-14-22:54:29,10.1.1.2,27,0.060,0.060,0.060,0.000,0.000,0.000
1644879269533541888,2022-02-14-22:54:29,10.1.1.2,36,0.070,0.070,0.070,0.000,0.000,0.000
1644879269573352960,2022-02-14-22:54:29,10.1.1.2,24,0.080,0.080,0.080,0.000,0.000,0.000
1644879269633426944,2022-02-14-22:54:29,10.1.1.2,25,0.090,0.090,0.090,0.000,0.000,0.000
1644879269693437184,2022-02-14-22:54:29,10.1.1.2,42,0.100,0.100,0.100,0.000,0.000,0.000
1644879269733857024,2022-02-14-22:54:29,10.1.1.2,31,0.090,0.090,0.090,0.000,0.000,0.000
1644879269773547776,2022-02-14-22:54:29,10.1.1.2,21,0.080,0.080,0.080,0.000,0.000,0.000
1644879269834254080,2022-02-14-22:54:29,10.1.1.2,29,0.070,0.070,0.070,0.000,0.000,0.000
1644879269901361920,2022-02-14-22:54:29,10.1.1.2,41,0.060,0.060,0.060,0.000,0.000,0.000
1644879269924557056,2022-02-14-22:54:29,10.1.1.2,16,0.051,0.051,0.051,0.000,0.000,0.000
1644879269985166080,2022-02-14-22:54:29,10.1.1.2,25,0.040,0.040,0.040,0.000,0.000,0.000
1644879270049722880,2022-02-14-22:54:30,10.1.1.2,20,0.030,0.030,0.030,0.000,0.000,0.000
1644879270094324992,2022-02-14-22:54:30,10.1.1.2,28,0.020,0.020,0.020,0.000,0.000,0.000
1644879270161731072,2022-02-14-22:54:30,10.1.1.2,42,0.010,0.010,0.010,0.000,0.000,0.000
1644879270190408960,2022-02-14-22:54:30,10.1.1.2,19,0.001,0.001,0.001,0.000,0.000,0.000
1644879270251173120,2022-02-14-22:54:30,10.1.1.2,21,-0.010,-0.010,-0.010,0.000,0.000,0.000
1644879270310565120,2022-02-14-22:54:30,10.1.1.2,28,-0.020,-0.020,-0.020,0.000,0.000,0.000
1644879270371022080,2022-02-14-22:54:30,10.1.1.2,37,-0.030,-0.030,-0.030,0.000,0.000,0.000
1644879270410728960,2022-02-14-22:54:30,10.1.1.2,23,-0.040,-0.040,-0.040,0.000,0.000,0.000
1644879270471270144,2022-02-14-22:54:30,10.1.1.2,31,-0.050,-0.050,-0.050,0.000,0.000,0.000
1644879270511401984,2022-02-14-22:54:30,10.1.1.2,20,-0.060,-0.060,-0.060,0.000,0.000,0.000
1644879270571575040,2022-02-14-22:54:30,10.1.1.2,29,-0.070,-0.070,-0.070,0.000,0.000,0.000
1644879270631692800,2022-02-14-22:54:30,10.1.1.2,36,-0.080,-0.080,-0.080,0.000,0.000,0.000
1644879270671502080,2022-02-14-22:54:30,10.1.1.2,24,-0.090,-0.090,-0.090,0.000,0.000,0.000
1644879270731787008,2022-02-14-22:54:30,10.1.1.2,33,-0.100,-0.100,-0.100,0.000,0.000,0.000
1644879270771291904,2022-02-14-22:54:30,10.1.1.2,21,-0.090,-0.090,-0.090,0.000,0.000,0.000
1644879270844631040,2022-02-14-22:54:30,10.1.1.2,42,-0.080,-0.080,-0.080,0.000,0.000,0.000
1644879271023851008,2022-02-14-22:54:31,10.1.1.2,19,-0.041,-0.041,-0.041,0.000,0.000,0.000
1644879271093502976,2022-02-14-22:54:31,10.1.1.2,38,-0.030,-0.030,-0.030,0.000,0.000,0.000
1644879271133466880,2022-02-14-22:54:31,10.1.1.2,24,-0.020,-0.020,-0.020,0.000,0.000,0.000
1644879271193484032,2022-02-14-22:54:31,10.1.1.2,33,-0.010,-0.010,-0.010,0.000,0.000,0.000
1644879271234576896,2022-02-14-22:54:31,10.1.1.2,22,0.000,0.000,0.000,0.000,0.000,0.000
1644879271294817024,2022-02-14-22:54:31,10.1.1.2,32,0.010,0.010,0.010,0.000,0.000,0.000
1644879271334017024,2022-02-14-22:54:31,10.1.1.2,21,0.020,0.020,0.020,0.000,0.000,0.000
1644879271394676992,2022-02-14-22:54:31,10.1.1.2,30,0.030,0.030,0.030,0.000,0.000,0.000
1644879271433670912,2022-02-14-22:54:31,10.1.1.2,19,0.040,0.040,0.040,0.000,0.000,0.000
1644879271494227968,2022-02-14-22:54:31,10.1.1.2,28,0.050,0.050,0.050,0.000,0.000,0.000
1644879271554245888,2022-02-14-22:54:31,10.1.1.2,34,0.060,0.060,0.060,0.000,0.000,0.000
1644879271593853952,2022-02-14-22:54:31,10.1.1.2,23,0.070,0.070,0.070,0.000,0.000,0.000
1644879271654927104,2022-02-14-22:54:31,10.1.1.2,32,0.080,0.080,0.080,0.000,0.000,0.000
1644879271694137088,2022-02-14-22:54:31,10.1.1.2,22,0.090,0.090,0.090,0.000,0.000,0.000
1644879271753374976,2022-02-14-22:54:31,10.1.1.2,31,0.100,0.100,0.100,0.000,0.000,0.000
1644879271793484800,2022-02-14-22:54:31,10.1.1.2,20,0.090,0.090,0.090,0.000,0.000,0.000
1644879271853626112,2022-02-14-22:54:31,10.1.1.2,29,0.080,0.080,0.080,0.000,0.000,0.000
1644879271913831936,2022-02-14-22:54:31,10.1.1.2,38,0.070,0.070,0.070,0.000,0.000,0.000
1644879271954222848,2022-02-14-22:54:31,10.1.1.2,27,0.060,0.060,0.060,0.000,0.000,0.000
1644879272013634048,2022-02-14-22:54:32,10.1.1.2,35,0.050,0.050,0.050,0.000,0.000,0.000
1644879272053967872,2022-02-14-22:54:32,10.1.1.2,24,0.040,0.040,0.040,0.000,0.000,0.000
1644879272113417984,2022-02-14-22:54:32,10.1.1.2,32,0.030,0.030,0.030,0.000,0.000,0.000
1644879272155326976,2022-02-14-22:54:32,10.1.1.2,21,0.020,0.020,0.020,0.000,0.000,0.000
1644879272218535936,2022-02-14-22:54:32,10.1.1.2,30,0.010,0.010,0.010,0.000,0.000,0.000
1644879272273319936,2022-02-14-22:54:32,10.1.1.2,40,0.000,0.000,0.000,0.000,0.000,0.000
1644879272334734080,2022-02-14-22:54:32,10.1.1.2,46,-0.010,-0.010,-0.010,0.000,0.000,0.000
1644879272413140992,2022-02-14-22:54:32,10.1.1.2,21,-0.030,-0.030,-0.030,0.000,0.000,0.000
1644879272490545920,2022-02-14-22:54:32,10.1.1.2,26,-0.040,-0.040,-0.040,0.000,0.000,0.000
1644879272532593920,2022-02-14-22:54:32,10.1.1.2,31,-0.050,-0.050,-0.050,0.000,0.000,0.000
1644879272593584896,2022-02-14-22:54:32,10.1.1.2,44,-0.060,-0.060,-0.060,0.000,0.000,0.000
1644879272635464960,2022-02-14-22:54:32,10.1.1.2,34,-0.070,-0.070,-0.070,0.000,0.000,0.000
1644879272687984896,2022-02-14-22:54:32,10.1.1.2,35,-0.080,-0.080,-0.080,0.000,0.000,0.000
1644879272745923072,2022-02-14-22:54:32,10.1.1.2,43,-0.090,-0.090,-0.090,0.000,0.000,0.000
1644879272887564032,2022-02-14-22:54:32,10.1.1.2,32,-0.080,-0.080,-0.080,0.000,0.000,0.000
1644879272933291008,2022-02-14-22:54:32,10.1.1.2,27,-0.070,-0.070,-0.070,0.000,0.000,0.000
1644879272985271040,2022-02-14-22:54:32,10.1.1.2,24,-0.060,-0.060,-0.060,0.000,0.000,0.000
1644879273054164992,2022-02-14-22:54:33,10.1.1.2,45,-0.050,-0.050,-0.050,0.000,0.000,0.000
1644879273083384064,2022-02-14-22:54:33,10.1.1.2,23,-0.040,-0.040,-0.040,0.000,0.000,0.000
1644879273137007872,2022-02-14-22:54:33,10.1.1.2,22,-0.030,-0.030,-0.030,0.000,0.000,0.000
1644879273184026880,2022-02-14-22:54:33,10.1.1.2,19,-0.021,-0.021,-0.021,0.000,0.000,0.000
1644879273252798208,2022-02-14-22:54:33,10.1.1.2,38,-0.010,-0.010,-0.010,0.000,0.000,0.000
1644879273292993024,2022-02-14-22:54:33,10.1.1.2,27,0.000,0.000,0.000,0.000,0.000,0.000
1644879273349188096,2022-02-14-22:54:33,10.1.1.2,33,0.010,0.010,0.010,0.000,0.000,0.000
1644879273408852224,2022-02-14-22:54:33,10.1.1.2,42,0.020,0.020,0.020,0.000,0.000,0.000
1644879273453064960,2022-02-14-22:54:33,10.1.1.2,35,0.030,0.030,0.030,0.000,0.000,0.000
1644879273493163008,2022-02-14-22:54:33,10.1.1.2,23,0.040,0.040,0.040,0.000,0.000,0.000
1644879273553324032,2022-02-14-22:54:33,10.1.1.2,32,0.050,0.050,0.050,0.000,0.000,0.000
1644879273597255936,2022-02-14-22:54:33,10.1.1.2,26,0.060,0.060,0.060,0.000,0.000,0.000
1644879273665159936,2022-02-14-22:54:33,10.1.1.2,43,0.070,0.070,0.070,0.000,0.000,0.000
1644879273711393024,2022-02-14-22:54:33,10.1.1.2,39,0.080,0.080,0.080,0.000,0.000,0.000
1644879273744846080,2022-02-14-22:54:33,10.1.1.2,18,0.089,0.089,0.089,0.000,0.000,0.000
1644879273804985088,2022-02-14-22:54:33,10.1.1.2,27,0.100,0.100,0.100,0.000,0.000,0.000
1644879273865047808,2022-02-14-22:54:33,10.1.1.2,36,0.090,0.090,0.090,0.000,0.000,0.000
1644879273905127936,2022-02-14-22:54:33,10.1.1.2,23,0.080,0.080,0.080,0.000,0.000,0.000
1644879273965129984,2022-02-14-22:54:33,10.1.1.2,32,0.070,0.070,0.070,0.000,0.000,0.000
1644879274006053888,2022-02-14-22:54:34,10.1.1.2,22,0.060,0.060,0.060,0.000,0.000,0.000
1644879274065741056,2022-02-14-22:54:34,10.1.1.2,31,0.050,0.050,0.050,0.000,0.000,0.000
1644879274105954816,2022-02-14-22:54:34,10.1.1.2,21,0.040,0.040,0.040,0.000,0.000,0.000
1644879274169794048,2022-02-14-22:54:34,10.1.1.2,28,0.030,0.030,0.030,0.000,0.000,0.000
1644879274224834816,2022-02-14-22:54:34,10.1.1.2,36,0.020,0.020,0.020,0.000,0.000,0.000
1644879274265705216,2022-02-14-22:54:34,10.1.1.2,23,0.010,0.010,0.010,0.000,0.000,0.000
1644879274325010944,2022-02-14-22:54:34,10.1.1.2,30,0.000,0.000,0.000,0.000,0.000,0.000
1644879274365735168,2022-02-14-22:54:34,10.1.1.2,19,-0.010,-0.010,-0.010,0.000,0.000,0.000
1644879274425387008,2022-02-14-22:54:34,10.1.1.2,27,-0.020,-0.020,-0.020,0.000,0.000,0.000
1644879274485443072,2022-02-14-22:54:34,10.1.1.2,35,-0.030,-0.030,-0.030,0.000,0.000,0.000
1644879274526309120,2022-02-14-22:54:34,10.1.1.2,24,-0.040,-0.040,-0.040,0.000,0.000,0.000
1644879274585888000,2022-02-14-22:54:34,10.1.1.2,33,-0.050,-0.050,-0.050,0.000,0.000,0.000
1644879274625679104,2022-02-14-22:54:34,10.1.1.2,23,-0.060,-0.060,-0.060,0.000,0.000,0.000
1644879274685822976,2022-02-14-22:54:34,10.1.1.2,27,-0.070,-0.070,-0.070,0.000,0.000,0.000
1644879274746244864,2022-02-14-22:54:34,10.1.1.2,35,-0.080,-0.080,-0.080,0.000,0.000,0.000
1644879274785087232,2022-02-14-22:54:34,10.1.1.2,24,-0.090,-0.090,-0.090,0.000,0.000,0.000
1644879274846508032,2022-02-14-22:54:34,10.1.1.2,32,-0.100,-0.100,-0.100,0.000,0.000,0.000
1644879274895559936,2022-02-14-22:54:34,10.1.1.2,25,-0.090,-0.090,-0.090,0.000,0.000,0.000
1644879274955430912,2022-02-14-22:54:34,10.1.1.2,35,-0.080,-0.080,-0.080,0.000,0.000,0.000
1644879275005776896,2022-02-14-22:54:35,10.1.1.2,37,-0.070,-0.070,-0.070,0.000,0.000,0.000
1644879275046309120,2022-02-14-22:54:35,10.1.1.2,24,-0.060,-0.060,-0.060,0.000,0.000,0.000
1644879275105778944,2022-02-14-22:54:35,10.1.1.2,32,-0.050,-0.050,-0.050,0.000,0.000,0.000
1644879275145890048,2022-02-14-22:54:35,10.1.1.2,21,-0.040,-0.040,-0.040,0.000,0.000,0.000
1644879275206511872,2022-02-14-22:54:35,10.1.1.2,27,-0.030,-0.030,-0.030,0.000,0.000,0.000
1644879275265455104,2022-02-14-22:54:35,10.1.1.2,35,-0.020,-0.020,-0.020,0.000,0.000,0.000
1644879275306377984,2022-02-14-22:54:35,10.1.1.2,25,-0.010,-0.010,-0.010,0.000,0.000,0.000
1644879275365620992,2022-02-14-22:54:35,10.1.1.2,34,0.000,0.000,0.000,0.000,0.000,0.000
1644879275406163968,2022-02-14-22:54:35,10.1.1.2,22,0.010,0.010,0.010,0.000,0.000,0.000
1644879275465306112,2022-02-14-22:54:35,10.1.1.2,30,0.020,0.020,0.020,0.000,0.000,0.000
1644879275504695040,2022-02-14-22:54:35,10.1.1.2,19,0.030,0.030,0.030,0.000,0.000,0.000
1644879275566194176,2022-02-14-22:54:35,10.1.1.2,28,0.040,0.040,0.040,0.000,0.000,0.000
1644879275626724864,2022-02-14-22:54:35,10.1.1.2,37,0.050,0.050,0.050,0.000,0.000,0.000
1644879275665555968,2022-02-14-22:54:35,10.1.1.2,19,0.060,0.060,0.060,0.000,0.000,0.000
1644879275725952000,2022-02-14-22:54:35,10.1.1.2,28,0.070,0.070,0.070,0.000,0.000,0.000
1644879275794266112,2022-02-14-22:54:35,10.1.1.2,43,0.080,0.080,0.080,0.000,0.000,0.000
1644879275826221824,2022-02-14-22:54:35,10.1.1.2,26,0.090,0.090,0.090,0.000,0.000,0.000
1644879275875471104,2022-02-14-22:54:35,10.1.1.2,18,0.100,0.100,0.100,0.000,0.000,0.000
1644879275926768128,2022-02-14-22:54:35,10.1.1.2,23,0.090,0.090,0.090,0.000,0.000,0.000
1644879275984911872,2022-02-14-22:54:35,10.1.1.2,32,0.080,0.080,0.080,0.000,0.000,0.000
1644879276025958912,2022-02-14-22:54:36,10.1.1.2,21,0.070,0.070,0.070,0.000,0.000,0.000
1644879276086055168,2022-02-14-22:54:36,10.1.1.2,27,0.060,0.060,0.060,0.000,0.000,0.000
1644879276147002880,2022-02-14-22:54:36,10.1.1.2,35,0.050,0.050,0.050,0.000,0.000,0.000
1644879276186855936,2022-02-14-22:54:36,10.1.1.2,20,0.040,0.040,0.040,0.000,0.000,0.000
1644879276245976832,2022-02-14-22:54:36,10.1.1.2,27,0.030,0.030,0.030,0.000,0.000,0.000
1644879276305736192,2022-02-14-22:54:36,10.1.1.2,35,0.020,0.020,0.020,0.000,0.000,0.000
1644879276345408000,2022-02-14-22:54:36,10.1.1.2,22,0.010,0.010,0.010,0.000,0.000,0.000
1644879276405793792,2022-02-14-22:54:36,10.1.1.2,32,0.000,0.000,0.000,0.000,0.000,0.000
1644879276445661184,2022-02-14-22:54:36,10.1.1.2,21,-0.010,-0.010,-0.010,0.000,0.000,0.000
1644879276505222912,2022-02-14-22:54:36,10.1.1.2,27,-0.020,-0.020,-0.020,0.000,0.000,0.000
1644879276566358016,2022-02-14-22:54:36,10.1.1.2,37,-0.030,-0.030,-0.030,0.000,0.000,0.000
1644879276606383104,2022-02-14-22:54:36,10.1.1.2,26,-0.040,-0.040,-0.040,0.000,0.000,0.000
1644879276626880000,2022-02-14-22:54:36,10.1.1.2,-5,-0.040,-0.040,-0.040,0.000,0.000,0.000
1644879276707087872,2022-02-14-22:54:36,10.1.1.2,24,-0.060,-0.060,-0.060,0.000,0.000,0.000
1644879276766284032,2022-02-14-22:54:36,10.1.1.2,33,-0.070,-0.070,-0.070,0.000,0.000,0.000
1644879276805891072,2022-02-14-22:54:36,10.1.1.2,22,-0.080,-0.080,-0.080,0.000,0.000,0.000
1644879276867357952,2022-02-14-22:54:36,10.1.1.2,31,-0.090,-0.090,-0.090,0.000,0.000,0.000
1644879276906731008,2022-02-14-22:54:36,10.1.1.2,21,-0.100,-0.100,-0.100,0.000,0.000,0.000
1644879276965272064,2022-02-14-22:54:36,10.1.1.2,29,-0.090,-0.090,-0.090,0.000,0.000,0.000
1644879277025608960,2022-02-14-22:54:37,10.1.1.2,36,-0.080,-0.080,-0.080,0.000,0.000,0.000
1644879277065862912,2022-02-14-22:54:37,10.1.1.2,25,-0.070,-0.070,-0.070,0.000,0.000,0.000
1644879277126817024,2022-02-14-22:54:37,10.1.1.2,33,-0.060,-0.060,-0.060,0.000,0.000,0.000
1644879277186208000,2022-02-14-22:54:37,10.1.1.2,37,-0.050,-0.050,-0.050,0.000,0.000,0.000
1644879277227129088,2022-02-14-22:54:37,10.1.1.2,26,-0.040,-0.040,-0.040,0.000,0.000,0.000
1644879277246372864,2022-02-14-22:54:37,10.1.1.2,-5,-0.040,-0.040,-0.040,0.000,0.000,0.000
1644879277376302080,2022-02-14-22:54:37,10.1.1.2,23,-0.010,-0.010,-0.010,0.000,0.000,0.000
1644879277427947008,2022-02-14-22:54:37,10.1.1.2,24,0.000,0.000,0.000,0.000,0.000,0.000
1644879277533788928,2022-02-14-22:54:37,10.1.1.2,26,0.020,0.020,0.020,0.000,0.000,0.000
1644879277595510016,2022-02-14-22:54:37,10.1.1.2,38,0.030,0.030,0.030,0.000,0.000,0.000
1644879277635047936,2022-02-14-22:54:37,10.1.1.2,26,0.040,0.040,0.040,0.000,0.000,0.000
1644879277691351808,2022-02-14-22:54:37,10.1.1.2,31,0.050,0.050,0.050,0.000,0.000,0.000
1644879277752811008,2022-02-14-22:54:37,10.1.1.2,41,0.060,0.060,0.060,0.000,0.000,0.000
1644879277792512768,2022-02-14-22:54:37,10.1.1.2,30,0.070,0.070,0.070,0.000,0.000,0.000
1644879277831620096,2022-02-14-22:54:37,10.1.1.2,20,0.080,0.080,0.080,0.000,0.000,0.000
1644879277891750144,2022-02-14-22:54:37,10.1.1.2,23,0.090,0.090,0.090,0.000,0.000,0.000
1644879277951857920,2022-02-14-22:54:37,10.1.1.2,32,0.100,0.100,0.100,0.000,0.000,0.000
1644879277991709952,2022-02-14-22:54:37,10.1.1.2,22,0.090,0.090,0.090,0.000,0.000,0.000
1644879278052150016,2022-02-14-22:54:38,10.1.1.2,31,0.080,0.080,0.080,0.000,0.000,0.000
1644879278112507136,2022-02-14-22:54:38,10.1.1.2,35,0.070,0.070,0.070,0.000,0.000,0.000
1644879278152381952,2022-02-14-22:54:38,10.1.1.2,23,0.060,0.060,0.060,0.000,0.000,0.000
1644879278212497920,2022-02-14-22:54:38,10.1.1.2,33,0.050,0.050,0.050,0.000,0.000,0.000
1644879278253089024,2022-02-14-22:54:38,10.1.1.2,22,0.040,0.040,0.040,0.000,0.000,0.000
1644879278311997952,2022-02-14-22:54:38,10.1.1.2,30,0.030,0.030,0.030,0.000,0.000,0.000
1644879278352209152,2022-02-14-22:54:38,10.1.1.2,19,0.021,0.021,0.021,0.000,0.000,0.000
1644879278415163136,2022-02-14-22:54:38,10.1.1.2,31,0.010,0.010,0.010,0.000,0.000,0.000
1644879278474305024,2022-02-14-22:54:38,10.1.1.2,40,0.000,0.000,0.000,0.000,0.000,0.000
1644879278511035904,2022-02-14-22:54:38,10.1.1.2,26,-0.010,-0.010,-0.010,0.000,0.000,0.000
1644879278571790080,2022-02-14-22:54:38,10.1.1.2,34,-0.020,-0.020,-0.020,0.000,0.000,0.000
1644879278612193024,2022-02-14-22:54:38,10.1.1.2,23,-0.030,-0.030,-0.030,0.000,0.000,0.000
1644879278672517888,2022-02-14-22:54:38,10.1.1.2,31,-0.040,-0.040,-0.040,0.000,0.000,0.000
1644879278711919104,2022-02-14-22:54:38,10.1.1.2,20,-0.050,-0.050,-0.050,0.000,0.000,0.000
1644879278772155904,2022-02-14-22:54:38,10.1.1.2,25,-0.060,-0.060,-0.060,0.000,0.000,0.000
1644879278831901952,2022-02-14-22:54:38,10.1.1.2,33,-0.070,-0.070,-0.070,0.000,0.000,0.000
1644879278872632064,2022-02-14-22:54:38,10.1.1.2,23,-0.080,-0.080,-0.080,0.000,0.000,0.000
1644879278992741120,2022-02-14-22:54:38,10.1.1.2,38,-0.100,-0.100,-0.100,0.000,0.000,0.000
1644879279031986944,2022-02-14-22:54:39,10.1.1.2,27,-0.090,-0.090,-0.090,0.000,0.000,0.000
1644879279093219072,2022-02-14-22:54:39,10.1.1.2,35,-0.080,-0.080,-0.080,0.000,0.000,0.000
1644879279132719872,2022-02-14-22:54:39,10.1.1.2,23,-0.070,-0.070,-0.070,0.000,0.000,0.000
1644879279191830016,2022-02-14-22:54:39,10.1.1.2,26,-0.060,-0.060,-0.060,0.000,0.000,0.000
1644879279251840000,2022-02-14-22:54:39,10.1.1.2,35,-0.050,-0.050,-0.050,0.000,0.000,0.000
1644879279292145920,2022-02-14-22:54:39,10.1.1.2,23,-0.040,-0.040,-0.040,0.000,0.000,0.000
1644879279351942912,2022-02-14-22:54:39,10.1.1.2,32,-0.030,-0.030,-0.030,0.000,0.000,0.000
1644879279392680960,2022-02-14-22:54:39,10.1.1.2,22,-0.020,-0.020,-0.020,0.000,0.000,0.000
1644879279452246016,2022-02-14-22:54:39,10.1.1.2,31,-0.010,-0.010,-0.010,0.000,0.000,0.000
1644879279492041984,2022-02-14-22:54:39,10.1.1.2,20,0.000,0.000,0.000,0.000,0.000,0.000
1644879279552675072,2022-02-14-22:54:39,10.1.1.2,25,0.010,0.010,0.010,0.000,0.000,0.000
1644879279612739072,2022-02-14-22:54:39,10.1.1.2,34,0.020,0.020,0.020,0.000,0.000,0.000
1644879279652570880,2022-02-14-22:54:39,10.1.1.2,20,0.030,0.030,0.030,0.000,0.000,0.000
1644879279710980864,2022-02-14-22:54:39,10.1.1.2,29,0.040,0.040,0.040,0.000,0.000,0.000
1644879279752660992,2022-02-14-22:54:39,10.1.1.2,19,0.049,0.049,0.049,0.000,0.000,0.000
1644879279812825088,2022-02-14-22:54:39,10.1.1.2,28,0.060,0.060,0.060,0.000,0.000,0.000
1644879279872713216,2022-02-14-22:54:39,10.1.1.2,38,0.070,0.070,0.070,0.000,0.000,0.000
1644879279912755968,2022-02-14-22:54:39,10.1.1.2,27,0.080,0.080,0.080,0.000,0.000,0.000
1644879279972929024,2022-02-14-22:54:39,10.1.1.2,36,0.090,0.090,0.090,0.000,0.000,0.000
1644879280011657984,2022-02-14-22:54:40,10.1.1.2,25,0.100,0.100,0.100,0.000,0.000,0.000
1644879280071727104,2022-02-14-22:54:40,10.1.1.2,34,0.090,0.090,0.090,0.000,0.000,0.000
1644879280112013056,2022-02-14-22:54:40,10.1.1.2,23,0.080,0.080,0.080,0.000,0.000,0.000
1644879280172061952,2022-02-14-22:54:40,10.1.1.2,32,0.070,0.070,0.070,0.000,0.000,0.000
1644879280229195008,2022-02-14-22:54:40,10.1.1.2,37,0.060,0.060,0.060,0.000,0.000,0.000
1644879280276019200,2022-02-14-22:54:40,10.1.1.2,33,0.050,0.050,0.050,0.000,0.000,0.000
1644879280312247040,2022-02-14-22:54:40,10.1.1.2,19,0.040,0.040,0.040,0.000,0.000,0.000
1644879280372015872,2022-02-14-22:54:40,10.1.1.2,29,0.030,0.030,0.030,0.000,0.000,0.000
1644879280432506112,2022-02-14-22:54:40,10.1.1.2,38,0.020,0.020,0.020,0.000,0.000,0.000
1644879280472424960,2022-02-14-22:54:40,10.1.1.2,27,0.010,0.010,0.010,0.000,0.000,0.000
1644879280530936064,2022-02-14-22:54:40,10.1.1.2,36,0.000,0.000,0.000,0.000,0.000,0.000
1644879280571835136,2022-02-14-22:54:40,10.1.1.2,26,-0.010,-0.010,-0.010,0.000,0.000,0.000
1644879280631712000,2022-02-14-22:54:40,10.1.1.2,33,-0.020,-0.020,-0.020,0.000,0.000,0.000
1644879280671927040,2022-02-14-22:54:40,10.1.1.2,22,-0.030,-0.030,-0.030,0.000,0.000,0.000
1644879280732416000,2022-02-14-22:54:40,10.1.1.2,31,-0.040,-0.040,-0.040,0.000,0.000,0.000
1644879280772283136,2022-02-14-22:54:40,10.1.1.2,20,-0.050,-0.050,-0.050,0.000,0.000,0.000
1644879280832411136,2022-02-14-22:54:40,10.1.1.2,29,-0.060,-0.060,-0.060,0.000,0.000,0.000
1644879280891771904,2022-02-14-22:54:40,10.1.1.2,38,-0.070,-0.070,-0.070,0.000,0.000,0.000
1644879280933883904,2022-02-14-22:54:40,10.1.1.2,27,-0.080,-0.080,-0.080,0.000,0.000,0.000
1644879280992253952,2022-02-14-22:54:40,10.1.1.2,36,-0.090,-0.090,-0.090,0.000,0.000,0.000
1644879281032012032,2022-02-14-22:54:41,10.1.1.2,25,-0.100,-0.100,-0.100,0.000,0.000,0.000
1644879281092296960,2022-02-14-22:54:41,10.1.1.2,35,-0.090,-0.090,-0.090,0.000,0.000,0.000
1644879281132658944,2022-02-14-22:54:41,10.1.1.2,24,-0.080,-0.080,-0.080,0.000,0.000,0.000
1644879281192347904,2022-02-14-22:54:41,10.1.1.2,33,-0.070,-0.070,-0.070,0.000,0.000,0.000
1644879281232222208,2022-02-14-22:54:41,10.1.1.2,22,-0.060,-0.060,-0.060,0.000,0.000,0.000
1644879281292228864,2022-02-14-22:54:41,10.1.1.2,31,-0.050,-0.050,-0.050,0.000,0.000,0.000
1644879281332477952,2022-02-14-22:54:41,10.1.1.2,21,-0.040,-0.040,-0.040,0.000,0.000,0.000
1644879281392956928,2022-02-14-22:54:41,10.1.1.2,29,-0.030,-0.030,-0.030,0.000,0.000,0.000
1644879281431854080,2022-02-14-22:54:41,10.1.1.2,19,-0.021,-0.021,-0.021,0.000,0.000,0.000
1644879281491664896,2022-02-14-22:54:41,10.1.1.2,28,-0.010,-0.010,-0.010,0.000,0.000,0.000
1644879281551992064,2022-02-14-22:54:41,10.1.1.2,37,0.000,0.000,0.000,0.000,0.000,0.000
1644879281592528128,2022-02-14-22:54:41,10.1.1.2,26,0.010,0.010,0.010,0.000,0.000,0.000
1644879281652376832,2022-02-14-22:54:41,10.1.1.2,35,0.020,0.020,0.020,0.000,0.000,0.000
1644879281692454144,2022-02-14-22:54:41,10.1.1.2,24,0.030,0.030,0.030,0.000,0.000,0.000
1644879281752569088,2022-02-14-22:54:41,10.1.1.2,34,0.040,0.040,0.040,0.000,0.000,0.000
1644879281791856896,2022-02-14-22:54:41,10.1.1.2,23,0.050,0.050,0.050,0.000,0.000,0.000
1644879281852580096,2022-02-14-22:54:41,10.1.1.2,32,0.060,0.060,0.060,0.000,0.000,0.000
1644879281892601088,2022-02-14-22:54:41,10.1.1.2,21,0.070,0.070,0.070,0.000,0.000,0.000
1644879281951688960,2022-02-14-22:54:41,10.1.1.2,29,0.080,0.080,0.080,0.000,0.000,0.000
1644879281991729920,2022-02-14-22:54:41,10.1.1.2,19,0.089,0.089,0.089,0.000,0.000,0.000
1644879282051934976,2022-02-14-22:54:42,10.1.1.2,28,0.100,0.100,0.100,0.000,0.000,0.000
1644879282112296960,2022-02-14-22:54:42,10.1.1.2,36,0.090,0.090,0.090,0.000,0.000,0.000
1644879282152303104,2022-02-14-22:54:42,10.1.1.2,23,0.080,0.080,0.080,0.000,0.000,0.000
1644879282212184064,2022-02-14-22:54:42,10.1.1.2,32,0.070,0.070,0.070,0.000,0.000,0.000
1644879282251961088,2022-02-14-22:54:42,10.1.1.2,21,0.060,0.060,0.060,0.000,0.000,0.000
1644879282311664128,2022-02-14-22:54:42,10.1.1.2,31,0.050,0.050,0.050,0.000,0.000,0.000
1644879282352078848,2022-02-14-22:54:42,10.1.1.2,20,0.040,0.040,0.040,0.000,0.000,0.000
1644879282412244992,2022-02-14-22:54:42,10.1.1.2,24,0.030,0.030,0.030,0.000,0.000,0.000
1644879282472492032,2022-02-14-22:54:42,10.1.1.2,33,0.020,0.020,0.020,0.000,0.000,0.000
1644879282510889984,2022-02-14-22:54:42,10.1.1.2,22,0.010,0.010,0.010,0.000,0.000,0.000
1644879282571769856,2022-02-14-22:54:42,10.1.1.2,27,0.000,0.000,0.000,0.000,0.000,0.000
1644879282631944960,2022-02-14-22:54:42,10.1.1.2,35,-0.010,-0.010,-0.010,0.000,0.000,0.000
1644879282672050944,2022-02-14-22:54:42,10.1.1.2,24,-0.020,-0.020,-0.020,0.000,0.000,0.000
1644879282731884032,2022-02-14-22:54:42,10.1.1.2,33,-0.030,-0.030,-0.030,0.000,0.000,0.000
1644879282772247040,2022-02-14-22:54:42,10.1.1.2,21,-0.040,-0.040,-0.040,0.000,0.000,0.000
1644879282832189952,2022-02-14-22:54:42,10.1.1.2,30,-0.050,-0.050,-0.050,0.000,0.000,0.000
1644879282872452096,2022-02-14-22:54:42,10.1.1.2,19,-0.060,-0.060,-0.060,0.000,0.000,0.000
1644879282931747072,2022-02-14-22:54:42,10.1.1.2,25,-0.070,-0.070,-0.070,0.000,0.000,0.000
1644879282991354112,2022-02-14-22:54:42,10.1.1.2,34,-0.080,-0.080,-0.080,0.000,0.000,0.000
1644879283031384832,2022-02-14-22:54:43,10.1.1.2,23,-0.090,-0.090,-0.090,0.000,0.000,0.000
1644879283092228864,2022-02-14-22:54:43,10.1.1.2,33,-0.100,-0.100,-0.100,0.000,0.000,0.000
1644879283132517120,2022-02-14-22:54:43,10.1.1.2,21,-0.090,-0.090,-0.090,0.000,0.000,0.000
1644879283192627968,2022-02-14-22:54:43,10.1.1.2,30,-0.080,-0.080,-0.080,0.000,0.000,0.000
1644879283231920128,2022-02-14-22:54:43,10.1.1.2,20,-0.070,-0.070,-0.070,0.000,0.000,0.000
1644879283292294912,2022-02-14-22:54:43,10.1.1.2,29,-0.060,-0.060,-0.060,0.000,0.000,0.000
1644879283352300800,2022-02-14-22:54:43,10.1.1.2,38,-0.050,-0.050,-0.050,0.000,0.000,0.000
1644879283391862016,2022-02-14-22:54:43,10.1.1.2,27,-0.040,-0.040,-0.040,0.000,0.000,0.000
1644879283451684864,2022-02-14-22:54:43,10.1.1.2,37,-0.030,-0.030,-0.030,0.000,0.000,0.000
1644879283491027200,2022-02-14-22:54:43,10.1.1.2,26,-0.020,-0.020,-0.020,0.000,0.000,0.000
1644879283551517952,2022-02-14-22:54:43,10.1.1.2,34,-0.010,-0.010,-0.010,0.000,0.000,0.000
1644879283592482048,2022-02-14-22:54:43,10.1.1.2,23,0.000,0.000,0.000,0.000,0.000,0.000
1644879283652361984,2022-02-14-22:54:43,10.1.1.2,31,0.010,0.010,0.010,0.000,0.000,0.000
1644879283692915968,2022-02-14-22:54:43,10.1.1.2,20,0.020,0.020,0.020,0.000,0.000,0.000
1644879283751450112,2022-02-14-22:54:43,10.1.1.2,30,0.030,0.030,0.030,0.000,0.000,0.000
1644879283800969984,2022-02-14-22:54:43,10.1.1.2,22,0.040,0.040,0.040,0.000,0.000,0.000
1644879283851470080,2022-02-14-22:54:43,10.1.1.2,29,0.050,0.050,0.050,0.000,0.000,0.000
1644879283912477952,2022-02-14-22:54:43,10.1.1.2,37,0.060,0.060,0.060,0.000,0.000,0.000
1644879283952485120,2022-02-14-22:54:43,10.1.1.2,21,0.070,0.070,0.070,0.000,0.000,0.000
1644879284011027200,2022-02-14-22:54:44,10.1.1.2,30,0.080,0.080,0.080,0.000,0.000,0.000
1644879284051805952,2022-02-14-22:54:44,10.1.1.2,20,0.090,0.090,0.090,0.000,0.000,0.000
1644879284111737088,2022-02-14-22:54:44,10.1.1.2,29,0.100,0.100,0.100,0.000,0.000,0.000
1644879284173227008,2022-02-14-22:54:44,10.1.1.2,38,0.090,0.090,0.090,0.000,0.000,0.000
1644879284211610112,2022-02-14-22:54:44,10.1.1.2,27,0.080,0.080,0.080,0.000,0.000,0.000
1644879284275352064,2022-02-14-22:54:44,10.1.1.2,38,0.070,0.070,0.070,0.000,0.000,0.000
1644879284314723072,2022-02-14-22:54:44,10.1.1.2,26,0.060,0.060,0.060,0.000,0.000,0.000
1644879284372340992,2022-02-14-22:54:44,10.1.1.2,34,0.050,0.050,0.050,0.000,0.000,0.000
1644879284411794944,2022-02-14-22:54:44,10.1.1.2,23,0.040,0.040,0.040,0.000,0.000,0.000
1644879284472292864,2022-02-14-22:54:44,10.1.1.2,33,0.030,0.030,0.030,0.000,0.000,0.000
1644879284510963968,2022-02-14-22:54:44,10.1.1.2,22,0.020,0.020,0.020,0.000,0.000,0.000
1644879284571568128,2022-02-14-22:54:44,10.1.1.2,31,0.010,0.010,0.010,0.000,0.000,0.000
1644879284612552960,2022-02-14-22:54:44,10.1.1.2,21,0.000,0.000,0.000,0.000,0.000,0.000
1644879284672029952,2022-02-14-22:54:44,10.1.1.2,30,-0.010,-0.010,-0.010,0.000,0.000,0.000
1644879284731653888,2022-02-14-22:54:44,10.1.1.2,37,-0.020,-0.020,-0.020,0.000,0.000,0.000
1644879284772169216,2022-02-14-22:54:44,10.1.1.2,26,-0.030,-0.030,-0.030,0.000,0.000,0.000
1644879284831736064,2022-02-14-22:54:44,10.1.1.2,35,-0.040,-0.040,-0.040,0.000,0.000,0.000
1644879284880655104,2022-02-14-22:54:44,10.1.1.2,27,-0.050,-0.050,-0.050,0.000,0.000,0.000
1644879284971993088,2022-02-14-22:54:44,10.1.1.2,19,-0.069,-0.069,-0.069,0.000,0.000,0.000
1644879285030718976,2022-02-14-22:54:45,10.1.1.2,28,-0.080,-0.080,-0.080,0.000,0.000,0.000
1644879285091677952,2022-02-14-22:54:45,10.1.1.2,37,-0.090,-0.090,-0.090,0.000,0.000,0.000
1644879285132178176,2022-02-14-22:54:45,10.1.1.2,26,-0.100,-0.100,-0.100,0.000,0.000,0.000
1644879285192240896,2022-02-14-22:54:45,10.1.1.2,35,-0.090,-0.090,-0.090,0.000,0.000,0.000
1644879285232028928,2022-02-14-22:54:45,10.1.1.2,22,-0.080,-0.080,-0.080,0.000,0.000,0.000
