FedericoMungari/DigitalTwin_service/01_WiredScenario/Output/Output_script/script_rosapi_2_output_robots8_freq0_8.txt
timestamp,date,node,latency,joint_1,joint_2,joint_3,joint_4,joint_5,joint_6
1643293113265953024,2022-01-27-14:18:33,10.1.1.9,27,-0.010,-0.010,-0.010,0.000,0.000,0.000
1643293113464081920,2022-01-27-14:18:33,10.1.1.9,25,-0.020,-0.020,-0.020,0.000,0.000,0.000
1643293113665005824,2022-01-27-14:18:33,10.1.1.9,25,-0.030,-0.030,-0.030,0.000,0.000,0.000
1643293113886338048,2022-01-27-14:18:33,10.1.1.9,46,-0.041,-0.041,-0.041,0.000,0.000,0.000
1643293114065617920,2022-01-27-14:18:34,10.1.1.9,25,-0.050,-0.050,-0.050,0.000,0.000,0.000
1643293114264699904,2022-01-27-14:18:34,10.1.1.9,23,-0.060,-0.060,-0.060,0.000,0.000,0.000
1643293114485374976,2022-01-27-14:18:34,10.1.1.9,44,-0.071,-0.071,-0.071,0.000,0.000,0.000
1643293114665463808,2022-01-27-14:18:34,10.1.1.9,22,-0.080,-0.080,-0.080,0.000,0.000,0.000
1643293114866760960,2022-01-27-14:18:34,10.1.1.9,23,-0.090,-0.090,-0.090,0.000,0.000,0.000
1643293115065152000,2022-01-27-14:18:35,10.1.1.9,18,-0.100,-0.100,-0.100,0.000,0.000,0.000
1643293115285233920,2022-01-27-14:18:35,10.1.1.9,37,-0.111,-0.111,-0.111,0.000,0.000,0.000
1643293115486219776,2022-01-27-14:18:35,10.1.1.9,37,-0.121,-0.121,-0.121,0.000,0.000,0.000
1643293115686529024,2022-01-27-14:18:35,10.1.1.9,36,-0.131,-0.131,-0.131,0.000,0.000,0.000
1643293115886948096,2022-01-27-14:18:35,10.1.1.9,35,-0.141,-0.141,-0.141,0.000,0.000,0.000
1643293116084718848,2022-01-27-14:18:36,10.1.1.9,32,-0.150,-0.150,-0.150,0.000,0.000,0.000
1643293116285836032,2022-01-27-14:18:36,10.1.1.9,32,-0.161,-0.161,-0.161,0.000,0.000,0.000
1643293116484081920,2022-01-27-14:18:36,10.1.1.9,30,-0.171,-0.171,-0.171,0.000,0.000,0.000
1643293116685206016,2022-01-27-14:18:36,10.1.1.9,27,-0.180,-0.180,-0.180,0.000,0.000,0.000
1643293116884287232,2022-01-27-14:18:36,10.1.1.9,24,-0.190,-0.190,-0.190,0.000,0.000,0.000
1643293117105112064,2022-01-27-14:18:37,10.1.1.9,42,-0.201,-0.201,-0.201,0.000,0.000,0.000
1643293117304798976,2022-01-27-14:18:37,10.1.1.9,38,-0.211,-0.211,-0.211,0.000,0.000,0.000
1643293117495042048,2022-01-27-14:18:37,10.1.1.9,26,-0.220,-0.220,-0.220,0.000,0.000,0.000
1643293117706060032,2022-01-27-14:18:37,10.1.1.9,35,-0.231,-0.231,-0.231,0.000,0.000,0.000
1643293117895149056,2022-01-27-14:18:37,10.1.1.9,24,-0.240,-0.240,-0.240,0.000,0.000,0.000
1643293118104973056,2022-01-27-14:18:38,10.1.1.9,32,-0.250,-0.250,-0.250,0.000,0.000,0.000
1643293118305082112,2022-01-27-14:18:38,10.1.1.9,29,-0.260,-0.260,-0.260,0.000,0.000,0.000
1643293118505101056,2022-01-27-14:18:38,10.1.1.9,28,-0.270,-0.270,-0.270,0.000,0.000,0.000
1643293118724577792,2022-01-27-14:18:38,10.1.1.9,46,-0.281,-0.281,-0.281,0.000,0.000,0.000
1643293118925487104,2022-01-27-14:18:38,10.1.1.9,46,-0.291,-0.291,-0.291,0.000,0.000,0.000
1643293119105922048,2022-01-27-14:18:39,10.1.1.9,25,-0.300,-0.300,-0.300,0.000,0.000,0.000
1643293119305281024,2022-01-27-14:18:39,10.1.1.9,24,-0.310,-0.310,-0.310,0.000,0.000,0.000
1643293119525358080,2022-01-27-14:18:39,10.1.1.9,39,-0.321,-0.321,-0.321,0.000,0.000,0.000
1643293119724522240,2022-01-27-14:18:39,10.1.1.9,36,-0.331,-0.331,-0.331,0.000,0.000,0.000
1643293119924237056,2022-01-27-14:18:39,10.1.1.9,35,-0.341,-0.341,-0.341,0.000,0.000,0.000
1643293120114003968,2022-01-27-14:18:40,10.1.1.9,24,-0.350,-0.350,-0.350,0.000,0.000,0.000
1643293120325018880,2022-01-27-14:18:40,10.1.1.9,34,-0.361,-0.361,-0.361,0.000,0.000,0.000
1643293120540790016,2022-01-27-14:18:40,10.1.1.9,48,-0.371,-0.371,-0.371,0.000,0.000,0.000
1643293120713871104,2022-01-27-14:18:40,10.1.1.9,20,-0.380,-0.380,-0.380,0.000,0.000,0.000
1643293120914105856,2022-01-27-14:18:40,10.1.1.9,17,-0.390,-0.390,-0.390,0.000,0.000,0.000
1643293121126440960,2022-01-27-14:18:41,10.1.1.9,29,-0.400,-0.400,-0.400,0.000,0.000,0.000
1643293121324672000,2022-01-27-14:18:41,10.1.1.9,25,-0.410,-0.410,-0.410,0.000,0.000,0.000
1643293121523916032,2022-01-27-14:18:41,10.1.1.9,23,-0.420,-0.420,-0.420,0.000,0.000,0.000
1643293121724636160,2022-01-27-14:18:41,10.1.1.9,23,-0.430,-0.430,-0.430,0.000,0.000,0.000
1643293121975006208,2022-01-27-14:18:41,10.1.1.9,72,-0.441,-0.441,-0.441,0.000,0.000,0.000
1643293122177844992,2022-01-27-14:18:42,10.1.1.9,36,-0.451,-0.451,-0.451,0.000,0.000,0.000
1643293122387564032,2022-01-27-14:18:42,10.1.1.9,42,-0.461,-0.461,-0.461,0.000,0.000,0.000
1643293122575010048,2022-01-27-14:18:42,10.1.1.9,27,-0.470,-0.470,-0.470,0.000,0.000,0.000
1643293122787170816,2022-01-27-14:18:42,10.1.1.9,38,-0.481,-0.481,-0.481,0.000,0.000,0.000
1643293122967972096,2022-01-27-14:18:42,10.1.1.9,19,-0.490,-0.490,-0.490,0.000,0.000,0.000
1643293123185001984,2022-01-27-14:18:43,10.1.1.9,35,-0.479,-0.479,-0.479,0.000,0.000,0.000
1643293123385623808,2022-01-27-14:18:43,10.1.1.9,35,-0.469,-0.469,-0.469,0.000,0.000,0.000
1643293123585900032,2022-01-27-14:18:43,10.1.1.9,34,-0.459,-0.459,-0.459,0.000,0.000,0.000
1643293123785000960,2022-01-27-14:18:43,10.1.1.9,33,-0.449,-0.449,-0.449,0.000,0.000,0.000
1643293123984846080,2022-01-27-14:18:43,10.1.1.9,31,-0.439,-0.439,-0.439,0.000,0.000,0.000
1643293124184952064,2022-01-27-14:18:44,10.1.1.9,30,-0.429,-0.429,-0.429,0.000,0.000,0.000
1643293124378909952,2022-01-27-14:18:44,10.1.1.9,24,-0.420,-0.420,-0.420,0.000,0.000,0.000
1643293124585176832,2022-01-27-14:18:44,10.1.1.9,29,-0.410,-0.410,-0.410,0.000,0.000,0.000
1643293124785219840,2022-01-27-14:18:44,10.1.1.9,29,-0.399,-0.399,-0.399,0.000,0.000,0.000
1643293125004837120,2022-01-27-14:18:45,10.1.1.9,47,-0.389,-0.389,-0.389,0.000,0.000,0.000
1643293125204646144,2022-01-27-14:18:45,10.1.1.9,45,-0.379,-0.379,-0.379,0.000,0.000,0.000
1643293125385564928,2022-01-27-14:18:45,10.1.1.9,25,-0.370,-0.370,-0.370,0.000,0.000,0.000
1643293125585607936,2022-01-27-14:18:45,10.1.1.9,24,-0.360,-0.360,-0.360,0.000,0.000,0.000
1643293125785559808,2022-01-27-14:18:45,10.1.1.9,22,-0.350,-0.350,-0.350,0.000,0.000,0.000
1643293126003835904,2022-01-27-14:18:46,10.1.1.9,32,-0.339,-0.339,-0.339,0.000,0.000,0.000
1643293126204193024,2022-01-27-14:18:46,10.1.1.9,32,-0.329,-0.329,-0.329,0.000,0.000,0.000
1643293126405082880,2022-01-27-14:18:46,10.1.1.9,32,-0.319,-0.319,-0.319,0.000,0.000,0.000
1643293126605707008,2022-01-27-14:18:46,10.1.1.9,32,-0.310,-0.310,-0.310,0.000,0.000,0.000
1643293126805597952,2022-01-27-14:18:46,10.1.1.9,31,-0.299,-0.299,-0.299,0.000,0.000,0.000
1643293127005212160,2022-01-27-14:18:47,10.1.1.9,30,-0.290,-0.290,-0.290,0.000,0.000,0.000
1643293127206999040,2022-01-27-14:18:47,10.1.1.9,31,-0.280,-0.280,-0.280,0.000,0.000,0.000
1643293127405679104,2022-01-27-14:18:47,10.1.1.9,28,-0.270,-0.270,-0.270,0.000,0.000,0.000
1643293127604815872,2022-01-27-14:18:47,10.1.1.9,26,-0.260,-0.260,-0.260,0.000,0.000,0.000
1643293127808569856,2022-01-27-14:18:47,10.1.1.9,29,-0.250,-0.250,-0.250,0.000,0.000,0.000
1643293128006331904,2022-01-27-14:18:48,10.1.1.9,26,-0.240,-0.240,-0.240,0.000,0.000,0.000
1643293128207616000,2022-01-27-14:18:48,10.1.1.9,26,-0.230,-0.230,-0.230,0.000,0.000,0.000
1643293128404783104,2022-01-27-14:18:48,10.1.1.9,22,-0.220,-0.220,-0.220,0.000,0.000,0.000
1643293128625492992,2022-01-27-14:18:48,10.1.1.9,40,-0.209,-0.209,-0.209,0.000,0.000,0.000
1643293128803955968,2022-01-27-14:18:48,10.1.1.9,18,-0.200,-0.200,-0.200,0.000,0.000,0.000
1643293129005754880,2022-01-27-14:18:49,10.1.1.9,19,-0.190,-0.190,-0.190,0.000,0.000,0.000
1643293129229676032,2022-01-27-14:18:49,10.1.1.9,42,-0.179,-0.179,-0.179,0.000,0.000,0.000
1643293129426647808,2022-01-27-14:18:49,10.1.1.9,39,-0.169,-0.169,-0.169,0.000,0.000,0.000
1643293129626300928,2022-01-27-14:18:49,10.1.1.9,38,-0.159,-0.159,-0.159,0.000,0.000,0.000
1643293129825345024,2022-01-27-14:18:49,10.1.1.9,36,-0.149,-0.149,-0.149,0.000,0.000,0.000
1643293130027467008,2022-01-27-14:18:50,10.1.1.9,37,-0.139,-0.139,-0.139,0.000,0.000,0.000
1643293130219450880,2022-01-27-14:18:50,10.1.1.9,27,-0.130,-0.130,-0.130,0.000,0.000,0.000
1643293130414639104,2022-01-27-14:18:50,10.1.1.9,15,-0.120,-0.120,-0.120,0.000,0.000,0.000
1643293130624324096,2022-01-27-14:18:50,10.1.1.9,24,-0.110,-0.110,-0.110,0.000,0.000,0.000
1643293130825112064,2022-01-27-14:18:50,10.1.1.9,22,-0.100,-0.100,-0.100,0.000,0.000,0.000
1643293131028837888,2022-01-27-14:18:51,10.1.1.9,24,-0.090,-0.090,-0.090,0.000,0.000,0.000
1643293131229246976,2022-01-27-14:18:51,10.1.1.9,22,-0.080,-0.080,-0.080,0.000,0.000,0.000
1643293131445214976,2022-01-27-14:18:51,10.1.1.9,36,-0.069,-0.069,-0.069,0.000,0.000,0.000
1643293131634031104,2022-01-27-14:18:51,10.1.1.9,23,-0.060,-0.060,-0.060,0.000,0.000,0.000
1643293131846322176,2022-01-27-14:18:51,10.1.1.9,34,-0.049,-0.049,-0.049,0.000,0.000,0.000
1643293132037530880,2022-01-27-14:18:52,10.1.1.9,22,-0.040,-0.040,-0.040,0.000,0.000,0.000
1643293132245452800,2022-01-27-14:18:52,10.1.1.9,29,-0.030,-0.030,-0.030,0.000,0.000,0.000
1643293132447083008,2022-01-27-14:18:52,10.1.1.9,31,-0.020,-0.020,-0.020,0.000,0.000,0.000
1643293132655008000,2022-01-27-14:18:52,10.1.1.9,38,-0.009,-0.009,-0.009,0.000,0.000,0.000
1643293132827169792,2022-01-27-14:18:52,10.1.1.9,9,-0.001,-0.001,-0.001,0.000,0.000,0.000
1643293133046180096,2022-01-27-14:18:53,10.1.1.9,27,-0.010,-0.010,-0.010,0.000,0.000,0.000
1643293133245552128,2022-01-27-14:18:53,10.1.1.9,25,-0.020,-0.020,-0.020,0.000,0.000,0.000
1643293133445220864,2022-01-27-14:18:53,10.1.1.9,24,-0.030,-0.030,-0.030,0.000,0.000,0.000
1643293133646365952,2022-01-27-14:18:53,10.1.1.9,25,-0.040,-0.040,-0.040,0.000,0.000,0.000
1643293133866436864,2022-01-27-14:18:53,10.1.1.9,43,-0.051,-0.051,-0.051,0.000,0.000,0.000
1643293134044908032,2022-01-27-14:18:54,10.1.1.9,21,-0.060,-0.060,-0.060,0.000,0.000,0.000
1643293134244518912,2022-01-27-14:18:54,10.1.1.9,18,-0.070,-0.070,-0.070,0.000,0.000,0.000
1643293134465091072,2022-01-27-14:18:54,10.1.1.9,36,-0.081,-0.081,-0.081,0.000,0.000,0.000
1643293134656878080,2022-01-27-14:18:54,10.1.1.9,27,-0.090,-0.090,-0.090,0.000,0.000,0.000
1643293134865750016,2022-01-27-14:18:54,10.1.1.9,29,-0.100,-0.100,-0.100,0.000,0.000,0.000
1643293135065006080,2022-01-27-14:18:55,10.1.1.9,27,-0.110,-0.110,-0.110,0.000,0.000,0.000
1643293135266273024,2022-01-27-14:18:55,10.1.1.9,27,-0.120,-0.120,-0.120,0.000,0.000,0.000
1643293135465379072,2022-01-27-14:18:55,10.1.1.9,25,-0.130,-0.130,-0.130,0.000,0.000,0.000
1643293135664748800,2022-01-27-14:18:55,10.1.1.9,24,-0.140,-0.140,-0.140,0.000,0.000,0.000
1643293135887497984,2022-01-27-14:18:55,10.1.1.9,45,-0.151,-0.151,-0.151,0.000,0.000,0.000
1643293136088964096,2022-01-27-14:18:56,10.1.1.9,41,-0.161,-0.161,-0.161,0.000,0.000,0.000
1643293136289871104,2022-01-27-14:18:56,10.1.1.9,41,-0.171,-0.171,-0.171,0.000,0.000,0.000
1643293136486108160,2022-01-27-14:18:56,10.1.1.9,36,-0.181,-0.181,-0.181,0.000,0.000,0.000
1643293136691499008,2022-01-27-14:18:56,10.1.1.9,40,-0.191,-0.191,-0.191,0.000,0.000,0.000
1643293136885613056,2022-01-27-14:18:56,10.1.1.9,34,-0.200,-0.200,-0.200,0.000,0.000,0.000
1643293137086368000,2022-01-27-14:18:57,10.1.1.9,34,-0.210,-0.210,-0.210,0.000,0.000,0.000
1643293137284797952,2022-01-27-14:18:57,10.1.1.9,31,-0.220,-0.220,-0.220,0.000,0.000,0.000
1643293137474909952,2022-01-27-14:18:57,10.1.1.9,21,-0.230,-0.230,-0.230,0.000,0.000,0.000
1643293137686232064,2022-01-27-14:18:57,10.1.1.9,32,-0.241,-0.241,-0.241,0.000,0.000,0.000
1643293137886588928,2022-01-27-14:18:57,10.1.1.9,30,-0.250,-0.250,-0.250,0.000,0.000,0.000
1643293138085201152,2022-01-27-14:18:58,10.1.1.9,28,-0.260,-0.260,-0.260,0.000,0.000,0.000
1643293138292237056,2022-01-27-14:18:58,10.1.1.9,33,-0.270,-0.270,-0.270,0.000,0.000,0.000
1643293138486923008,2022-01-27-14:18:58,10.1.1.9,27,-0.280,-0.280,-0.280,0.000,0.000,0.000
1643293138687182848,2022-01-27-14:18:58,10.1.1.9,27,-0.290,-0.290,-0.290,0.000,0.000,0.000
1643293138886923008,2022-01-27-14:18:58,10.1.1.9,26,-0.300,-0.300,-0.300,0.000,0.000,0.000
1643293139087013888,2022-01-27-14:18:59,10.1.1.9,26,-0.310,-0.310,-0.310,0.000,0.000,0.000
1643293139288308992,2022-01-27-14:18:59,10.1.1.9,26,-0.320,-0.320,-0.320,0.000,0.000,0.000
1643293139504816896,2022-01-27-14:18:59,10.1.1.9,42,-0.331,-0.331,-0.331,0.000,0.000,0.000
1643293139685273856,2022-01-27-14:18:59,10.1.1.9,22,-0.340,-0.340,-0.340,0.000,0.000,0.000
1643293139904311808,2022-01-27-14:18:59,10.1.1.9,40,-0.351,-0.351,-0.351,0.000,0.000,0.000
1643293140087159040,2022-01-27-14:19:00,10.1.1.9,22,-0.360,-0.360,-0.360,0.000,0.000,0.000
1643293140284178944,2022-01-27-14:19:00,10.1.1.9,18,-0.370,-0.370,-0.370,0.000,0.000,0.000
1643293140506035200,2022-01-27-14:19:00,10.1.1.9,39,-0.381,-0.381,-0.381,0.000,0.000,0.000
1643293140703713792,2022-01-27-14:19:00,10.1.1.9,35,-0.391,-0.391,-0.391,0.000,0.000,0.000
1643293140905512192,2022-01-27-14:19:00,10.1.1.9,37,-0.401,-0.401,-0.401,0.000,0.000,0.000
1643293141104136960,2022-01-27-14:19:01,10.1.1.9,34,-0.411,-0.411,-0.411,0.000,0.000,0.000
1643293141304470016,2022-01-27-14:19:01,10.1.1.9,33,-0.421,-0.421,-0.421,0.000,0.000,0.000
1643293141504154880,2022-01-27-14:19:01,10.1.1.9,31,-0.431,-0.431,-0.431,0.000,0.000,0.000
1643293141705111040,2022-01-27-14:19:01,10.1.1.9,32,-0.441,-0.441,-0.441,0.000,0.000,0.000
1643293141905472000,2022-01-27-14:19:01,10.1.1.9,31,-0.451,-0.451,-0.451,0.000,0.000,0.000
1643293142104687872,2022-01-27-14:19:02,10.1.1.9,29,-0.461,-0.461,-0.461,0.000,0.000,0.000
1643293142306893056,2022-01-27-14:19:02,10.1.1.9,31,-0.470,-0.470,-0.470,0.000,0.000,0.000
1643293142504513024,2022-01-27-14:19:02,10.1.1.9,28,-0.480,-0.480,-0.480,0.000,0.000,0.000
1643293142685366016,2022-01-27-14:19:02,10.1.1.9,7,-0.490,-0.490,-0.490,0.000,0.000,0.000
1643293142906467072,2022-01-27-14:19:02,10.1.1.9,28,-0.480,-0.480,-0.480,0.000,0.000,0.000
1643293143105319936,2022-01-27-14:19:03,10.1.1.9,25,-0.470,-0.470,-0.470,0.000,0.000,0.000
1643293143324167936,2022-01-27-14:19:03,10.1.1.9,41,-0.459,-0.459,-0.459,0.000,0.000,0.000
1643293143526182912,2022-01-27-14:19:03,10.1.1.9,38,-0.449,-0.449,-0.449,0.000,0.000,0.000
1643293143727667200,2022-01-27-14:19:03,10.1.1.9,40,-0.439,-0.439,-0.439,0.000,0.000,0.000
1643293143925477888,2022-01-27-14:19:03,10.1.1.9,37,-0.429,-0.429,-0.429,0.000,0.000,0.000
1643293144125469952,2022-01-27-14:19:04,10.1.1.9,34,-0.419,-0.419,-0.419,0.000,0.000,0.000
1643293144325265920,2022-01-27-14:19:04,10.1.1.9,33,-0.409,-0.409,-0.409,0.000,0.000,0.000
1643293144524986112,2022-01-27-14:19:04,10.1.1.9,32,-0.400,-0.400,-0.400,0.000,0.000,0.000
1643293144724513024,2022-01-27-14:19:04,10.1.1.9,31,-0.389,-0.389,-0.389,0.000,0.000,0.000
1643293144924392960,2022-01-27-14:19:04,10.1.1.9,30,-0.380,-0.380,-0.380,0.000,0.000,0.000
1643293145115912960,2022-01-27-14:19:05,10.1.1.9,20,-0.370,-0.370,-0.370,0.000,0.000,0.000
1643293145316324096,2022-01-27-14:19:05,10.1.1.9,20,-0.360,-0.360,-0.360,0.000,0.000,0.000
1643293145525542912,2022-01-27-14:19:05,10.1.1.9,28,-0.350,-0.350,-0.350,0.000,0.000,0.000
1643293145724118016,2022-01-27-14:19:05,10.1.1.9,24,-0.340,-0.340,-0.340,0.000,0.000,0.000
1643293145947105792,2022-01-27-14:19:05,10.1.1.9,42,-0.329,-0.329,-0.329,0.000,0.000,0.000
1643293146136040960,2022-01-27-14:19:06,10.1.1.9,22,-0.320,-0.320,-0.320,0.000,0.000,0.000
1643293146346103808,2022-01-27-14:19:06,10.1.1.9,31,-0.309,-0.309,-0.309,0.000,0.000,0.000
1643293146545277952,2022-01-27-14:19:06,10.1.1.9,28,-0.299,-0.299,-0.299,0.000,0.000,0.000
1643293146745934848,2022-01-27-14:19:06,10.1.1.9,29,-0.290,-0.290,-0.290,0.000,0.000,0.000
1643293146963680000,2022-01-27-14:19:06,10.1.1.9,46,-0.279,-0.279,-0.279,0.000,0.000,0.000
1643293147165707008,2022-01-27-14:19:07,10.1.1.9,48,-0.269,-0.269,-0.269,0.000,0.000,0.000
1643293147366630144,2022-01-27-14:19:07,10.1.1.9,48,-0.259,-0.259,-0.259,0.000,0.000,0.000
1643293147564718848,2022-01-27-14:19:07,10.1.1.9,45,-0.249,-0.249,-0.249,0.000,0.000,0.000
1643293147769374976,2022-01-27-14:19:07,10.1.1.9,47,-0.239,-0.239,-0.239,0.000,0.000,0.000
1643293147946171904,2022-01-27-14:19:07,10.1.1.9,24,-0.230,-0.230,-0.230,0.000,0.000,0.000
1643293148155968000,2022-01-27-14:19:08,10.1.1.9,28,-0.220,-0.220,-0.220,0.000,0.000,0.000
1643293148366206976,2022-01-27-14:19:08,10.1.1.9,38,-0.209,-0.209,-0.209,0.000,0.000,0.000
1643293148567131136,2022-01-27-14:19:08,10.1.1.9,38,-0.199,-0.199,-0.199,0.000,0.000,0.000
1643293148765861120,2022-01-27-14:19:08,10.1.1.9,36,-0.189,-0.189,-0.189,0.000,0.000,0.000
1643293148964292096,2022-01-27-14:19:08,10.1.1.9,33,-0.179,-0.179,-0.179,0.000,0.000,0.000
1643293149165150976,2022-01-27-14:19:09,10.1.1.9,33,-0.169,-0.169,-0.169,0.000,0.000,0.000
1643293149384641024,2022-01-27-14:19:09,10.1.1.9,53,-0.159,-0.159,-0.159,0.000,0.000,0.000
1643293149565233920,2022-01-27-14:19:09,10.1.1.9,25,-0.150,-0.150,-0.150,0.000,0.000,0.000
1643293149785586176,2022-01-27-14:19:09,10.1.1.9,45,-0.139,-0.139,-0.139,0.000,0.000,0.000
1643293149979182080,2022-01-27-14:19:09,10.1.1.9,31,-0.130,-0.130,-0.130,0.000,0.000,0.000
1643293150164352768,2022-01-27-14:19:10,10.1.1.9,20,-0.120,-0.120,-0.120,0.000,0.000,0.000
1643293150384285952,2022-01-27-14:19:10,10.1.1.9,38,-0.109,-0.109,-0.109,0.000,0.000,0.000
1643293150565009152,2022-01-27-14:19:10,10.1.1.9,18,-0.100,-0.100,-0.100,0.000,0.000,0.000
1643293150775357952,2022-01-27-14:19:10,10.1.1.9,25,-0.090,-0.090,-0.090,0.000,0.000,0.000
1643293150975161088,2022-01-27-14:19:10,10.1.1.9,23,-0.080,-0.080,-0.080,0.000,0.000,0.000
1643293151184251136,2022-01-27-14:19:11,10.1.1.9,32,-0.069,-0.069,-0.069,0.000,0.000,0.000
1643293151385163008,2022-01-27-14:19:11,10.1.1.9,32,-0.059,-0.059,-0.059,0.000,0.000,0.000
1643293151605240064,2022-01-27-14:19:11,10.1.1.9,52,-0.048,-0.048,-0.048,0.000,0.000,0.000
1643293151786819072,2022-01-27-14:19:11,10.1.1.9,31,-0.039,-0.039,-0.039,0.000,0.000,0.000
1643293151984641024,2022-01-27-14:19:11,10.1.1.9,28,-0.029,-0.029,-0.029,0.000,0.000,0.000
1643293152205580032,2022-01-27-14:19:12,10.1.1.9,48,-0.019,-0.019,-0.019,0.000,0.000,0.000
1643293152404748032,2022-01-27-14:19:12,10.1.1.9,47,-0.009,-0.009,-0.009,0.000,0.000,0.000
1643293152567910912,2022-01-27-14:19:12,10.1.1.9,8,-0.001,-0.001,-0.001,0.000,0.000,0.000
1643293152795062016,2022-01-27-14:19:12,10.1.1.9,33,-0.010,-0.010,-0.010,0.000,0.000,0.000
1643293152997154048,2022-01-27-14:19:12,10.1.1.9,32,-0.020,-0.020,-0.020,0.000,0.000,0.000
1643293153195307008,2022-01-27-14:19:13,10.1.1.9,29,-0.030,-0.030,-0.030,0.000,0.000,0.000
1643293153394608896,2022-01-27-14:19:13,10.1.1.9,28,-0.041,-0.041,-0.041,0.000,0.000,0.000
1643293153601430016,2022-01-27-14:19:13,10.1.1.9,34,-0.051,-0.051,-0.051,0.000,0.000,0.000
1643293153823942912,2022-01-27-14:19:13,10.1.1.9,54,-0.061,-0.061,-0.061,0.000,0.000,0.000
1643293154006413824,2022-01-27-14:19:14,10.1.1.9,36,-0.071,-0.071,-0.071,0.000,0.000,0.000
1643293154203305984,2022-01-27-14:19:14,10.1.1.9,32,-0.080,-0.080,-0.080,0.000,0.000,0.000
1643293154395378176,2022-01-27-14:19:14,10.1.1.9,24,-0.090,-0.090,-0.090,0.000,0.000,0.000
1643293154602864896,2022-01-27-14:19:14,10.1.1.9,31,-0.100,-0.100,-0.100,0.000,0.000,0.000
1643293154804676096,2022-01-27-14:19:14,10.1.1.9,32,-0.111,-0.111,-0.111,0.000,0.000,0.000
1643293155004910848,2022-01-27-14:19:15,10.1.1.9,32,-0.121,-0.121,-0.121,0.000,0.000,0.000
1643293155206192128,2022-01-27-14:19:15,10.1.1.9,32,-0.131,-0.131,-0.131,0.000,0.000,0.000
1643293155405571840,2022-01-27-14:19:15,10.1.1.9,30,-0.141,-0.141,-0.141,0.000,0.000,0.000
1643293155604582912,2022-01-27-14:19:15,10.1.1.9,29,-0.151,-0.151,-0.151,0.000,0.000,0.000
1643293155805524224,2022-01-27-14:19:15,10.1.1.9,29,-0.161,-0.161,-0.161,0.000,0.000,0.000
1643293156016067072,2022-01-27-14:19:16,10.1.1.9,39,-0.171,-0.171,-0.171,0.000,0.000,0.000
1643293156214204160,2022-01-27-14:19:16,10.1.1.9,37,-0.181,-0.181,-0.181,0.000,0.000,0.000
1643293156414311936,2022-01-27-14:19:16,10.1.1.9,36,-0.191,-0.191,-0.191,0.000,0.000,0.000
1643293156605252096,2022-01-27-14:19:16,10.1.1.9,25,-0.200,-0.200,-0.200,0.000,0.000,0.000
1643293156805309952,2022-01-27-14:19:16,10.1.1.9,23,-0.210,-0.210,-0.210,0.000,0.000,0.000
1643293157005455872,2022-01-27-14:19:17,10.1.1.9,24,-0.220,-0.220,-0.220,0.000,0.000,0.000
1643293157205523968,2022-01-27-14:19:17,10.1.1.9,24,-0.230,-0.230,-0.230,0.000,0.000,0.000
1643293157417656064,2022-01-27-14:19:17,10.1.1.9,28,-0.240,-0.240,-0.240,0.000,0.000,0.000
1643293157632443904,2022-01-27-14:19:17,10.1.1.9,40,-0.251,-0.251,-0.251,0.000,0.000,0.000
1643293157824668928,2022-01-27-14:19:17,10.1.1.9,31,-0.261,-0.261,-0.261,0.000,0.000,0.000
1643293158024747008,2022-01-27-14:19:18,10.1.1.9,29,-0.271,-0.271,-0.271,0.000,0.000,0.000
1643293158226994944,2022-01-27-14:19:18,10.1.1.9,28,-0.280,-0.280,-0.280,0.000,0.000,0.000
1643293158424144896,2022-01-27-14:19:18,10.1.1.9,24,-0.290,-0.290,-0.290,0.000,0.000,0.000
1643293158624468992,2022-01-27-14:19:18,10.1.1.9,24,-0.300,-0.300,-0.300,0.000,0.000,0.000
1643293158824558848,2022-01-27-14:19:18,10.1.1.9,23,-0.310,-0.310,-0.310,0.000,0.000,0.000
1643293159026822144,2022-01-27-14:19:19,10.1.1.9,25,-0.320,-0.320,-0.320,0.000,0.000,0.000
1643293159245477888,2022-01-27-14:19:19,10.1.1.9,43,-0.331,-0.331,-0.331,0.000,0.000,0.000
1643293159444313088,2022-01-27-14:19:19,10.1.1.9,38,-0.341,-0.341,-0.341,0.000,0.000,0.000
1643293159645353984,2022-01-27-14:19:19,10.1.1.9,38,-0.351,-0.351,-0.351,0.000,0.000,0.000
1643293159867187968,2022-01-27-14:19:19,10.1.1.9,49,-0.361,-0.361,-0.361,0.000,0.000,0.000
1643293160044594944,2022-01-27-14:19:20,10.1.1.9,24,-0.370,-0.370,-0.370,0.000,0.000,0.000
1643293160243924992,2022-01-27-14:19:20,10.1.1.9,23,-0.380,-0.380,-0.380,0.000,0.000,0.000
1643293160445593088,2022-01-27-14:19:20,10.1.1.9,22,-0.390,-0.390,-0.390,0.000,0.000,0.000
1643293160643780864,2022-01-27-14:19:20,10.1.1.9,19,-0.400,-0.400,-0.400,0.000,0.000,0.000
1643293160865644032,2022-01-27-14:19:20,10.1.1.9,40,-0.411,-0.411,-0.411,0.000,0.000,0.000
1643293161044558080,2022-01-27-14:19:21,10.1.1.9,18,-0.420,-0.420,-0.420,0.000,0.000,0.000
1643293161265558016,2022-01-27-14:19:21,10.1.1.9,38,-0.431,-0.431,-0.431,0.000,0.000,0.000
1643293161466000128,2022-01-27-14:19:21,10.1.1.9,38,-0.441,-0.441,-0.441,0.000,0.000,0.000
1643293161664127232,2022-01-27-14:19:21,10.1.1.9,35,-0.451,-0.451,-0.451,0.000,0.000,0.000
1643293161865539072,2022-01-27-14:19:21,10.1.1.9,36,-0.461,-0.461,-0.461,0.000,0.000,0.000
1643293162095619072,2022-01-27-14:19:22,10.1.1.9,66,-0.471,-0.471,-0.471,0.000,0.000,0.000
1643293162264856064,2022-01-27-14:19:22,10.1.1.9,35,-0.481,-0.481,-0.481,0.000,0.000,0.000
1643293162444610048,2022-01-27-14:19:22,10.1.1.9,14,-0.490,-0.490,-0.490,0.000,0.000,0.000
1643293162667751936,2022-01-27-14:19:22,10.1.1.9,36,-0.479,-0.479,-0.479,0.000,0.000,0.000
1643293162864546048,2022-01-27-14:19:22,10.1.1.9,32,-0.469,-0.469,-0.469,0.000,0.000,0.000
1643293163084356096,2022-01-27-14:19:23,10.1.1.9,34,-0.459,-0.459,-0.459,0.000,0.000,0.000
1643293163284344832,2022-01-27-14:19:23,10.1.1.9,33,-0.449,-0.449,-0.449,0.000,0.000,0.000
1643293163485402112,2022-01-27-14:19:23,10.1.1.9,34,-0.439,-0.439,-0.439,0.000,0.000,0.000
1643293163687011840,2022-01-27-14:19:23,10.1.1.9,34,-0.430,-0.430,-0.430,0.000,0.000,0.000
1643293163887383040,2022-01-27-14:19:23,10.1.1.9,27,-0.420,-0.420,-0.420,0.000,0.000,0.000
1643293164085920000,2022-01-27-14:19:24,10.1.1.9,25,-0.410,-0.410,-0.410,0.000,0.000,0.000
1643293164295895040,2022-01-27-14:19:24,10.1.1.9,33,-0.400,-0.400,-0.400,0.000,0.000,0.000
1643293164498888960,2022-01-27-14:19:24,10.1.1.9,33,-0.390,-0.390,-0.390,0.000,0.000,0.000
1643293164706494976,2022-01-27-14:19:24,10.1.1.9,40,-0.379,-0.379,-0.379,0.000,0.000,0.000
1643293164904089856,2022-01-27-14:19:24,10.1.1.9,37,-0.369,-0.369,-0.369,0.000,0.000,0.000
1643293165104930048,2022-01-27-14:19:25,10.1.1.9,37,-0.359,-0.359,-0.359,0.000,0.000,0.000
1643293165306353920,2022-01-27-14:19:25,10.1.1.9,38,-0.349,-0.349,-0.349,0.000,0.000,0.000
1643293165505744896,2022-01-27-14:19:25,10.1.1.9,35,-0.339,-0.339,-0.339,0.000,0.000,0.000
1643293165704238848,2022-01-27-14:19:25,10.1.1.9,33,-0.329,-0.329,-0.329,0.000,0.000,0.000
1643293165926800128,2022-01-27-14:19:25,10.1.1.9,48,-0.319,-0.319,-0.319,0.000,0.000,0.000
1643293166104434944,2022-01-27-14:19:26,10.1.1.9,25,-0.310,-0.310,-0.310,0.000,0.000,0.000
1643293166316199936,2022-01-27-14:19:26,10.1.1.9,37,-0.299,-0.299,-0.299,0.000,0.000,0.000
1643293166504897024,2022-01-27-14:19:26,10.1.1.9,25,-0.290,-0.290,-0.290,0.000,0.000,0.000
1643293166704752896,2022-01-27-14:19:26,10.1.1.9,24,-0.280,-0.280,-0.280,0.000,0.000,0.000
1643293166906445056,2022-01-27-14:19:26,10.1.1.9,25,-0.270,-0.270,-0.270,0.000,0.000,0.000
1643293167104450048,2022-01-27-14:19:27,10.1.1.9,23,-0.260,-0.260,-0.260,0.000,0.000,0.000
1643293167325179136,2022-01-27-14:19:27,10.1.1.9,43,-0.249,-0.249,-0.249,0.000,0.000,0.000
1643293167505496064,2022-01-27-14:19:27,10.1.1.9,22,-0.240,-0.240,-0.240,0.000,0.000,0.000
1643293167725362944,2022-01-27-14:19:27,10.1.1.9,41,-0.229,-0.229,-0.229,0.000,0.000,0.000
1643293167945352960,2022-01-27-14:19:27,10.1.1.9,58,-0.219,-0.219,-0.219,0.000,0.000,0.000
1643293168115001088,2022-01-27-14:19:28,10.1.1.9,27,-0.210,-0.210,-0.210,0.000,0.000,0.000
1643293168314799104,2022-01-27-14:19:28,10.1.1.9,26,-0.200,-0.200,-0.200,0.000,0.000,0.000
1643293168525250048,2022-01-27-14:19:28,10.1.1.9,36,-0.189,-0.189,-0.189,0.000,0.000,0.000
1643293168723980800,2022-01-27-14:19:28,10.1.1.9,34,-0.179,-0.179,-0.179,0.000,0.000,0.000
1643293168925807872,2022-01-27-14:19:28,10.1.1.9,36,-0.169,-0.169,-0.169,0.000,0.000,0.000
1643293169115158016,2022-01-27-14:19:29,10.1.1.9,24,-0.160,-0.160,-0.160,0.000,0.000,0.000
1643293169327038976,2022-01-27-14:19:29,10.1.1.9,30,-0.149,-0.149,-0.149,0.000,0.000,0.000
1643293169524539904,2022-01-27-14:19:29,10.1.1.9,26,-0.140,-0.140,-0.140,0.000,0.000,0.000
1643293169725712896,2022-01-27-14:19:29,10.1.1.9,26,-0.130,-0.130,-0.130,0.000,0.000,0.000
1643293169925668864,2022-01-27-14:19:29,10.1.1.9,25,-0.120,-0.120,-0.120,0.000,0.000,0.000
1643293170127343872,2022-01-27-14:19:30,10.1.1.9,25,-0.110,-0.110,-0.110,0.000,0.000,0.000
1643293170336200960,2022-01-27-14:19:30,10.1.1.9,33,-0.100,-0.100,-0.100,0.000,0.000,0.000
1643293170538674176,2022-01-27-14:19:30,10.1.1.9,32,-0.090,-0.090,-0.090,0.000,0.000,0.000
1643293170782970880,2022-01-27-14:19:30,10.1.1.9,73,-0.079,-0.079,-0.079,0.000,0.000,0.000
1643293170936086016,2022-01-27-14:19:30,10.1.1.9,28,-0.070,-0.070,-0.070,0.000,0.000,0.000
1643293171146200832,2022-01-27-14:19:31,10.1.1.9,37,-0.059,-0.059,-0.059,0.000,0.000,0.000
1643293171335685888,2022-01-27-14:19:31,10.1.1.9,24,-0.050,-0.050,-0.050,0.000,0.000,0.000
1643293171544288000,2022-01-27-14:19:31,10.1.1.9,30,-0.039,-0.039,-0.039,0.000,0.000,0.000
1643293171745155072,2022-01-27-14:19:31,10.1.1.9,27,-0.030,-0.030,-0.030,0.000,0.000,0.000
1643293171945164800,2022-01-27-14:19:31,10.1.1.9,25,-0.020,-0.020,-0.020,0.000,0.000,0.000
1643293172146161920,2022-01-27-14:19:32,10.1.1.9,25,-0.010,-0.010,-0.010,0.000,0.000,0.000
1643293172325748992,2022-01-27-14:19:32,10.1.1.9,4,-0.001,-0.001,-0.001,0.000,0.000,0.000
1643293172546510848,2022-01-27-14:19:32,10.1.1.9,25,-0.010,-0.010,-0.010,0.000,0.000,0.000
1643293172767111168,2022-01-27-14:19:32,10.1.1.9,43,-0.021,-0.021,-0.021,0.000,0.000,0.000
1643293172967367936,2022-01-27-14:19:32,10.1.1.9,24,-0.030,-0.030,-0.030,0.000,0.000,0.000
1643293173175939072,2022-01-27-14:19:33,10.1.1.9,28,-0.040,-0.040,-0.040,0.000,0.000,0.000
1643293173386137856,2022-01-27-14:19:33,10.1.1.9,38,-0.051,-0.051,-0.051,0.000,0.000,0.000
1643293173585395200,2022-01-27-14:19:33,10.1.1.9,34,-0.061,-0.061,-0.061,0.000,0.000,0.000
1643293173786475008,2022-01-27-14:19:33,10.1.1.9,35,-0.071,-0.071,-0.071,0.000,0.000,0.000
1643293173985289216,2022-01-27-14:19:33,10.1.1.9,33,-0.081,-0.081,-0.081,0.000,0.000,0.000
1643293174186816000,2022-01-27-14:19:34,10.1.1.9,33,-0.091,-0.091,-0.091,0.000,0.000,0.000
1643293174384707072,2022-01-27-14:19:34,10.1.1.9,29,-0.100,-0.100,-0.100,0.000,0.000,0.000
1643293174585481984,2022-01-27-14:19:34,10.1.1.9,28,-0.111,-0.111,-0.111,0.000,0.000,0.000
1643293174785878784,2022-01-27-14:19:34,10.1.1.9,28,-0.120,-0.120,-0.120,0.000,0.000,0.000
1643293174986516992,2022-01-27-14:19:34,10.1.1.9,28,-0.130,-0.130,-0.130,0.000,0.000,0.000
1643293175185729024,2022-01-27-14:19:35,10.1.1.9,26,-0.140,-0.140,-0.140,0.000,0.000,0.000
1643293175385325824,2022-01-27-14:19:35,10.1.1.9,25,-0.150,-0.150,-0.150,0.000,0.000,0.000
1643293175584551936,2022-01-27-14:19:35,10.1.1.9,24,-0.160,-0.160,-0.160,0.000,0.000,0.000
1643293175787163904,2022-01-27-14:19:35,10.1.1.9,25,-0.170,-0.170,-0.170,0.000,0.000,0.000
1643293176005530112,2022-01-27-14:19:36,10.1.1.9,43,-0.181,-0.181,-0.181,0.000,0.000,0.000
1643293176229201920,2022-01-27-14:19:36,10.1.1.9,38,-0.190,-0.190,-0.190,0.000,0.000,0.000
1643293176445971968,2022-01-27-14:19:36,10.1.1.9,34,-0.201,-0.201,-0.201,0.000,0.000,0.000
1643293176644655104,2022-01-27-14:19:36,10.1.1.9,33,-0.211,-0.211,-0.211,0.000,0.000,0.000
1643293176848157952,2022-01-27-14:19:36,10.1.1.9,35,-0.221,-0.221,-0.221,0.000,0.000,0.000
1643293177045934080,2022-01-27-14:19:37,10.1.1.9,30,-0.231,-0.231,-0.231,0.000,0.000,0.000
1643293177245605888,2022-01-27-14:19:37,10.1.1.9,29,-0.240,-0.240,-0.240,0.000,0.000,0.000
1643293177446073088,2022-01-27-14:19:37,10.1.1.9,29,-0.250,-0.250,-0.250,0.000,0.000,0.000
1643293177644198912,2022-01-27-14:19:37,10.1.1.9,26,-0.260,-0.260,-0.260,0.000,0.000,0.000
1643293177845329152,2022-01-27-14:19:37,10.1.1.9,25,-0.270,-0.270,-0.270,0.000,0.000,0.000
1643293178048752128,2022-01-27-14:19:38,10.1.1.9,28,-0.280,-0.280,-0.280,0.000,0.000,0.000
1643293178247908096,2022-01-27-14:19:38,10.1.1.9,27,-0.290,-0.290,-0.290,0.000,0.000,0.000
1643293178464756992,2022-01-27-14:19:38,10.1.1.9,43,-0.301,-0.301,-0.301,0.000,0.000,0.000
1643293178644823040,2022-01-27-14:19:38,10.1.1.9,19,-0.310,-0.310,-0.310,0.000,0.000,0.000
1643293178866731776,2022-01-27-14:19:38,10.1.1.9,39,-0.321,-0.321,-0.321,0.000,0.000,0.000
1643293179066857216,2022-01-27-14:19:39,10.1.1.9,38,-0.331,-0.331,-0.331,0.000,0.000,0.000
1643293179259426048,2022-01-27-14:19:39,10.1.1.9,29,-0.340,-0.340,-0.340,0.000,0.000,0.000
1643293179465428992,2022-01-27-14:19:39,10.1.1.9,34,-0.351,-0.351,-0.351,0.000,0.000,0.000
1643293179665882112,2022-01-27-14:19:39,10.1.1.9,33,-0.361,-0.361,-0.361,0.000,0.000,0.000
1643293179865614848,2022-01-27-14:19:39,10.1.1.9,32,-0.371,-0.371,-0.371,0.000,0.000,0.000
1643293180066180864,2022-01-27-14:19:40,10.1.1.9,30,-0.381,-0.381,-0.381,0.000,0.000,0.000
1643293180265399808,2022-01-27-14:19:40,10.1.1.9,29,-0.391,-0.391,-0.391,0.000,0.000,0.000
1643293180465415936,2022-01-27-14:19:40,10.1.1.9,28,-0.400,-0.400,-0.400,0.000,0.000,0.000
1643293180664936192,2022-01-27-14:19:40,10.1.1.9,26,-0.410,-0.410,-0.410,0.000,0.000,0.000
1643293180885760000,2022-01-27-14:19:40,10.1.1.9,46,-0.421,-0.421,-0.421,0.000,0.000,0.000
1643293181086764032,2022-01-27-14:19:41,10.1.1.9,46,-0.431,-0.431,-0.431,0.000,0.000,0.000
1643293181265428992,2022-01-27-14:19:41,10.1.1.9,25,-0.440,-0.440,-0.440,0.000,0.000,0.000
1643293181465910016,2022-01-27-14:19:41,10.1.1.9,24,-0.450,-0.450,-0.450,0.000,0.000,0.000
1643293181665633024,2022-01-27-14:19:41,10.1.1.9,23,-0.460,-0.460,-0.460,0.000,0.000,0.000
1643293181887668992,2022-01-27-14:19:41,10.1.1.9,42,-0.471,-0.471,-0.471,0.000,0.000,0.000
1643293182066131968,2022-01-27-14:19:42,10.1.1.9,20,-0.480,-0.480,-0.480,0.000,0.000,0.000
1643293182256634112,2022-01-27-14:19:42,10.1.1.9,10,-0.490,-0.490,-0.490,0.000,0.000,0.000
1643293182484997888,2022-01-27-14:19:42,10.1.1.9,38,-0.479,-0.479,-0.479,0.000,0.000,0.000
1643293182686921984,2022-01-27-14:19:42,10.1.1.9,39,-0.469,-0.469,-0.469,0.000,0.000,0.000
1643293182874555136,2022-01-27-14:19:42,10.1.1.9,26,-0.460,-0.460,-0.460,0.000,0.000,0.000
1643293183084952064,2022-01-27-14:19:43,10.1.1.9,36,-0.449,-0.449,-0.449,0.000,0.000,0.000
1643293183284843008,2022-01-27-14:19:43,10.1.1.9,34,-0.439,-0.439,-0.439,0.000,0.000,0.000
1643293183475094016,2022-01-27-14:19:43,10.1.1.9,24,-0.430,-0.430,-0.430,0.000,0.000,0.000
1643293183685096960,2022-01-27-14:19:43,10.1.1.9,33,-0.419,-0.419,-0.419,0.000,0.000,0.000
1643293183875524096,2022-01-27-14:19:43,10.1.1.9,22,-0.410,-0.410,-0.410,0.000,0.000,0.000
1643293184087343872,2022-01-27-14:19:44,10.1.1.9,33,-0.399,-0.399,-0.399,0.000,0.000,0.000
1643293184275310080,2022-01-27-14:19:44,10.1.1.9,19,-0.390,-0.390,-0.390,0.000,0.000,0.000
1643293184508172032,2022-01-27-14:19:44,10.1.1.9,51,-0.379,-0.379,-0.379,0.000,0.000,0.000
1643293184707636992,2022-01-27-14:19:44,10.1.1.9,49,-0.369,-0.369,-0.369,0.000,0.000,0.000
1643293184905876992,2022-01-27-14:19:44,10.1.1.9,47,-0.359,-0.359,-0.359,0.000,0.000,0.000
1643293185084769024,2022-01-27-14:19:45,10.1.1.9,24,-0.350,-0.350,-0.350,0.000,0.000,0.000
1643293185296567808,2022-01-27-14:19:45,10.1.1.9,35,-0.339,-0.339,-0.339,0.000,0.000,0.000
1643293185508307968,2022-01-27-14:19:45,10.1.1.9,46,-0.329,-0.329,-0.329,0.000,0.000,0.000
1643293185705096960,2022-01-27-14:19:45,10.1.1.9,42,-0.319,-0.319,-0.319,0.000,0.000,0.000
1643293185906411008,2022-01-27-14:19:45,10.1.1.9,40,-0.309,-0.309,-0.309,0.000,0.000,0.000
1643293186095240192,2022-01-27-14:19:46,10.1.1.9,27,-0.300,-0.300,-0.300,0.000,0.000,0.000
1643293186306678016,2022-01-27-14:19:46,10.1.1.9,38,-0.289,-0.289,-0.289,0.000,0.000,0.000
1643293186506583808,2022-01-27-14:19:46,10.1.1.9,37,-0.279,-0.279,-0.279,0.000,0.000,0.000
1643293186704238848,2022-01-27-14:19:46,10.1.1.9,34,-0.269,-0.269,-0.269,0.000,0.000,0.000
1643293186894503168,2022-01-27-14:19:46,10.1.1.9,23,-0.260,-0.260,-0.260,0.000,0.000,0.000
1643293187104669184,2022-01-27-14:19:47,10.1.1.9,32,-0.249,-0.249,-0.249,0.000,0.000,0.000
1643293187305654016,2022-01-27-14:19:47,10.1.1.9,32,-0.240,-0.240,-0.240,0.000,0.000,0.000
1643293187506515968,2022-01-27-14:19:47,10.1.1.9,31,-0.230,-0.230,-0.230,0.000,0.000,0.000
1643293187707695104,2022-01-27-14:19:47,10.1.1.9,29,-0.220,-0.220,-0.220,0.000,0.000,0.000
1643293187905767936,2022-01-27-14:19:47,10.1.1.9,29,-0.209,-0.209,-0.209,0.000,0.000,0.000
1643293188107432960,2022-01-27-14:19:48,10.1.1.9,30,-0.200,-0.200,-0.200,0.000,0.000,0.000
1643293188326555136,2022-01-27-14:19:48,10.1.1.9,46,-0.189,-0.189,-0.189,0.000,0.000,0.000
1643293188507011840,2022-01-27-14:19:48,10.1.1.9,25,-0.180,-0.180,-0.180,0.000,0.000,0.000
1643293188706587904,2022-01-27-14:19:48,10.1.1.9,24,-0.170,-0.170,-0.170,0.000,0.000,0.000
1643293188925669888,2022-01-27-14:19:48,10.1.1.9,43,-0.159,-0.159,-0.159,0.000,0.000,0.000
1643293189105829120,2022-01-27-14:19:49,10.1.1.9,21,-0.150,-0.150,-0.150,0.000,0.000,0.000
1643293189316806912,2022-01-27-14:19:49,10.1.1.9,32,-0.140,-0.140,-0.140,0.000,0.000,0.000
1643293189505925888,2022-01-27-14:19:49,10.1.1.9,20,-0.130,-0.130,-0.130,0.000,0.000,0.000
1643293189705650176,2022-01-27-14:19:49,10.1.1.9,18,-0.120,-0.120,-0.120,0.000,0.000,0.000
1643293189916107008,2022-01-27-14:19:49,10.1.1.9,28,-0.110,-0.110,-0.110,0.000,0.000,0.000
1643293190126786048,2022-01-27-14:19:50,10.1.1.9,38,-0.099,-0.099,-0.099,0.000,0.000,0.000
1643293190314505216,2022-01-27-14:19:50,10.1.1.9,25,-0.090,-0.090,-0.090,0.000,0.000,0.000
1643293190525114112,2022-01-27-14:19:50,10.1.1.9,35,-0.079,-0.079,-0.079,0.000,0.000,0.000
1643293190724558080,2022-01-27-14:19:50,10.1.1.9,34,-0.069,-0.069,-0.069,0.000,0.000,0.000
1643293190924258048,2022-01-27-14:19:50,10.1.1.9,33,-0.059,-0.059,-0.059,0.000,0.000,0.000
1643293191145729024,2022-01-27-14:19:51,10.1.1.9,53,-0.048,-0.048,-0.048,0.000,0.000,0.000
1643293191326296064,2022-01-27-14:19:51,10.1.1.9,30,-0.040,-0.040,-0.040,0.000,0.000,0.000
1643293191536015104,2022-01-27-14:19:51,10.1.1.9,38,-0.029,-0.029,-0.029,0.000,0.000,0.000
1643293191726944000,2022-01-27-14:19:51,10.1.1.9,29,-0.020,-0.020,-0.020,0.000,0.000,0.000
1643293191924384000,2022-01-27-14:19:51,10.1.1.9,25,-0.010,-0.010,-0.010,0.000,0.000,0.000
1643293192125669120,2022-01-27-14:19:52,10.1.1.9,26,-0.000,-0.000,-0.000,0.000,0.000,0.000
1643293192325723904,2022-01-27-14:19:52,10.1.1.9,25,-0.010,-0.010,-0.010,0.000,0.000,0.000
1643293192525444864,2022-01-27-14:19:52,10.1.1.9,24,-0.020,-0.020,-0.020,0.000,0.000,0.000
1643293192745378048,2022-01-27-14:19:52,10.1.1.9,43,-0.031,-0.031,-0.031,0.000,0.000,0.000
1643293192944879104,2022-01-27-14:19:52,10.1.1.9,41,-0.041,-0.041,-0.041,0.000,0.000,0.000
1643293193136733952,2022-01-27-14:19:53,10.1.1.9,30,-0.050,-0.050,-0.050,0.000,0.000,0.000
1643293193325548800,2022-01-27-14:19:53,10.1.1.9,19,-0.060,-0.060,-0.060,0.000,0.000,0.000
1643293193525707008,2022-01-27-14:19:53,10.1.1.9,18,-0.070,-0.070,-0.070,0.000,0.000,0.000
1643293193744615936,2022-01-27-14:19:53,10.1.1.9,36,-0.081,-0.081,-0.081,0.000,0.000,0.000
1643293193946109952,2022-01-27-14:19:53,10.1.1.9,37,-0.091,-0.091,-0.091,0.000,0.000,0.000
1643293194145091072,2022-01-27-14:19:54,10.1.1.9,36,-0.101,-0.101,-0.101,0.000,0.000,0.000
1643293194345485056,2022-01-27-14:19:54,10.1.1.9,34,-0.111,-0.111,-0.111,0.000,0.000,0.000
1643293194545048064,2022-01-27-14:19:54,10.1.1.9,34,-0.121,-0.121,-0.121,0.000,0.000,0.000
1643293194735089920,2022-01-27-14:19:54,10.1.1.9,24,-0.130,-0.130,-0.130,0.000,0.000,0.000
1643293194946708992,2022-01-27-14:19:54,10.1.1.9,33,-0.141,-0.141,-0.141,0.000,0.000,0.000
1643293195145661952,2022-01-27-14:19:55,10.1.1.9,30,-0.150,-0.150,-0.150,0.000,0.000,0.000
1643293195345518080,2022-01-27-14:19:55,10.1.1.9,28,-0.160,-0.160,-0.160,0.000,0.000,0.000
1643293195547054080,2022-01-27-14:19:55,10.1.1.9,29,-0.170,-0.170,-0.170,0.000,0.000,0.000
1643293195746210048,2022-01-27-14:19:55,10.1.1.9,27,-0.180,-0.180,-0.180,0.000,0.000,0.000
1643293195944169984,2022-01-27-14:19:55,10.1.1.9,25,-0.190,-0.190,-0.190,0.000,0.000,0.000
1643293196145745152,2022-01-27-14:19:56,10.1.1.9,26,-0.200,-0.200,-0.200,0.000,0.000,0.000
1643293196346426112,2022-01-27-14:19:56,10.1.1.9,25,-0.210,-0.210,-0.210,0.000,0.000,0.000
1643293196546844928,2022-01-27-14:19:56,10.1.1.9,25,-0.220,-0.220,-0.220,0.000,0.000,0.000
1643293196744227840,2022-01-27-14:19:56,10.1.1.9,21,-0.230,-0.230,-0.230,0.000,0.000,0.000
1643293196965636864,2022-01-27-14:19:56,10.1.1.9,42,-0.241,-0.241,-0.241,0.000,0.000,0.000
1643293197164199168,2022-01-27-14:19:57,10.1.1.9,40,-0.251,-0.251,-0.251,0.000,0.000,0.000
1643293197365331968,2022-01-27-14:19:57,10.1.1.9,40,-0.261,-0.261,-0.261,0.000,0.000,0.000
1643293197565003008,2022-01-27-14:19:57,10.1.1.9,39,-0.271,-0.271,-0.271,0.000,0.000,0.000
1643293197765211136,2022-01-27-14:19:57,10.1.1.9,37,-0.281,-0.281,-0.281,0.000,0.000,0.000
1643293197965508096,2022-01-27-14:19:57,10.1.1.9,38,-0.291,-0.291,-0.291,0.000,0.000,0.000
1643293198167126784,2022-01-27-14:19:58,10.1.1.9,36,-0.301,-0.301,-0.301,0.000,0.000,0.000
1643293198367182080,2022-01-27-14:19:58,10.1.1.9,38,-0.311,-0.311,-0.311,0.000,0.000,0.000
1643293198592102912,2022-01-27-14:19:58,10.1.1.9,55,-0.321,-0.321,-0.321,0.000,0.000,0.000
1643293198765121024,2022-01-27-14:19:58,10.1.1.9,26,-0.330,-0.330,-0.330,0.000,0.000,0.000
1643293198964803840,2022-01-27-14:19:58,10.1.1.9,25,-0.340,-0.340,-0.340,0.000,0.000,0.000
1643293199166387200,2022-01-27-14:19:59,10.1.1.9,26,-0.350,-0.350,-0.350,0.000,0.000,0.000
1643293199365329152,2022-01-27-14:19:59,10.1.1.9,24,-0.360,-0.360,-0.360,0.000,0.000,0.000
1643293199566048000,2022-01-27-14:19:59,10.1.1.9,23,-0.370,-0.370,-0.370,0.000,0.000,0.000
1643293199784485120,2022-01-27-14:19:59,10.1.1.9,42,-0.381,-0.381,-0.381,0.000,0.000,0.000
1643293199974929920,2022-01-27-14:19:59,10.1.1.9,30,-0.391,-0.391,-0.391,0.000,0.000,0.000
1643293200186264064,2022-01-27-14:20:00,10.1.1.9,39,-0.401,-0.401,-0.401,0.000,0.000,0.000
1643293200375715072,2022-01-27-14:20:00,10.1.1.9,26,-0.410,-0.410,-0.410,0.000,0.000,0.000
1643293200586530816,2022-01-27-14:20:00,10.1.1.9,38,-0.421,-0.421,-0.421,0.000,0.000,0.000
1643293200774322944,2022-01-27-14:20:00,10.1.1.9,25,-0.430,-0.430,-0.430,0.000,0.000,0.000
1643293200984841984,2022-01-27-14:20:00,10.1.1.9,35,-0.441,-0.441,-0.441,0.000,0.000,0.000
1643293201175152896,2022-01-27-14:20:01,10.1.1.9,25,-0.450,-0.450,-0.450,0.000,0.000,0.000
1643293201384732928,2022-01-27-14:20:01,10.1.1.9,34,-0.461,-0.461,-0.461,0.000,0.000,0.000
1643293201586190848,2022-01-27-14:20:01,10.1.1.9,34,-0.471,-0.471,-0.471,0.000,0.000,0.000
1643293201785850112,2022-01-27-14:20:01,10.1.1.9,34,-0.481,-0.481,-0.481,0.000,0.000,0.000
1643293201955982848,2022-01-27-14:20:01,10.1.1.9,4,-0.489,-0.489,-0.489,0.000,0.000,0.000
1643293202211982848,2022-01-27-14:20:02,10.1.1.9,52,-0.480,-0.480,-0.480,0.000,0.000,0.000
1643293202387536128,2022-01-27-14:20:02,10.1.1.9,26,-0.470,-0.470,-0.470,0.000,0.000,0.000
1643293202584718848,2022-01-27-14:20:02,10.1.1.9,23,-0.460,-0.460,-0.460,0.000,0.000,0.000
1643293202784624128,2022-01-27-14:20:02,10.1.1.9,22,-0.450,-0.450,-0.450,0.000,0.000,0.000
1643293203007698176,2022-01-27-14:20:03,10.1.1.9,44,-0.439,-0.439,-0.439,0.000,0.000,0.000
1643293203207667200,2022-01-27-14:20:03,10.1.1.9,40,-0.429,-0.429,-0.429,0.000,0.000,0.000
1643293203386627072,2022-01-27-14:20:03,10.1.1.9,20,-0.420,-0.420,-0.420,0.000,0.000,0.000
1643293203596427008,2022-01-27-14:20:03,10.1.1.9,29,-0.409,-0.409,-0.409,0.000,0.000,0.000
1643293203796376064,2022-01-27-14:20:03,10.1.1.9,28,-0.400,-0.400,-0.400,0.000,0.000,0.000
1643293204006504960,2022-01-27-14:20:04,10.1.1.9,37,-0.389,-0.389,-0.389,0.000,0.000,0.000
1643293204194957056,2022-01-27-14:20:04,10.1.1.9,25,-0.380,-0.380,-0.380,0.000,0.000,0.000
1643293204405870080,2022-01-27-14:20:04,10.1.1.9,34,-0.369,-0.369,-0.369,0.000,0.000,0.000
1643293204605954048,2022-01-27-14:20:04,10.1.1.9,34,-0.359,-0.359,-0.359,0.000,0.000,0.000
1643293204806853888,2022-01-27-14:20:04,10.1.1.9,35,-0.349,-0.349,-0.349,0.000,0.000,0.000
1643293205005677056,2022-01-27-14:20:05,10.1.1.9,33,-0.340,-0.340,-0.340,0.000,0.000,0.000
1643293205204876032,2022-01-27-14:20:05,10.1.1.9,32,-0.329,-0.329,-0.329,0.000,0.000,0.000
1643293205407991040,2022-01-27-14:20:05,10.1.1.9,32,-0.319,-0.319,-0.319,0.000,0.000,0.000
1643293205606375936,2022-01-27-14:20:05,10.1.1.9,30,-0.309,-0.309,-0.309,0.000,0.000,0.000
1643293205806638080,2022-01-27-14:20:05,10.1.1.9,30,-0.299,-0.299,-0.299,0.000,0.000,0.000
1643293206006189056,2022-01-27-14:20:06,10.1.1.9,29,-0.289,-0.289,-0.289,0.000,0.000,0.000
1643293206204796928,2022-01-27-14:20:06,10.1.1.9,25,-0.280,-0.280,-0.280,0.000,0.000,0.000
1643293206405644800,2022-01-27-14:20:06,10.1.1.9,23,-0.270,-0.270,-0.270,0.000,0.000,0.000
1643293206626369024,2022-01-27-14:20:06,10.1.1.9,44,-0.259,-0.259,-0.259,0.000,0.000,0.000
1643293206829103104,2022-01-27-14:20:06,10.1.1.9,45,-0.249,-0.249,-0.249,0.000,0.000,0.000
1643293207028749056,2022-01-27-14:20:07,10.1.1.9,39,-0.239,-0.239,-0.239,0.000,0.000,0.000
1643293207215308800,2022-01-27-14:20:07,10.1.1.9,24,-0.230,-0.230,-0.230,0.000,0.000,0.000
1643293207425578240,2022-01-27-14:20:07,10.1.1.9,32,-0.219,-0.219,-0.219,0.000,0.000,0.000
1643293207616157952,2022-01-27-14:20:07,10.1.1.9,22,-0.210,-0.210,-0.210,0.000,0.000,0.000
1643293207815737088,2022-01-27-14:20:07,10.1.1.9,20,-0.200,-0.200,-0.200,0.000,0.000,0.000
1643293208047462912,2022-01-27-14:20:08,10.1.1.9,50,-0.189,-0.189,-0.189,0.000,0.000,0.000
1643293208215099136,2022-01-27-14:20:08,10.1.1.9,18,-0.180,-0.180,-0.180,0.000,0.000,0.000
1643293208446630912,2022-01-27-14:20:08,10.1.1.9,49,-0.169,-0.169,-0.169,0.000,0.000,0.000
1643293208626756864,2022-01-27-14:20:08,10.1.1.9,28,-0.160,-0.160,-0.160,0.000,0.000,0.000
1643293208824756992,2022-01-27-14:20:08,10.1.1.9,26,-0.150,-0.150,-0.150,0.000,0.000,0.000
1643293209025476096,2022-01-27-14:20:09,10.1.1.9,26,-0.140,-0.140,-0.140,0.000,0.000,0.000
1643293209239500032,2022-01-27-14:20:09,10.1.1.9,27,-0.130,-0.130,-0.130,0.000,0.000,0.000
1643293209425306112,2022-01-27-14:20:09,10.1.1.9,22,-0.120,-0.120,-0.120,0.000,0.000,0.000
1643293209625907968,2022-01-27-14:20:09,10.1.1.9,21,-0.110,-0.110,-0.110,0.000,0.000,0.000
1643293209844865024,2022-01-27-14:20:09,10.1.1.9,39,-0.099,-0.099,-0.099,0.000,0.000,0.000
1643293210045348864,2022-01-27-14:20:10,10.1.1.9,37,-0.089,-0.089,-0.089,0.000,0.000,0.000
1643293210245407232,2022-01-27-14:20:10,10.1.1.9,37,-0.079,-0.079,-0.079,0.000,0.000,0.000
1643293210447380992,2022-01-27-14:20:10,10.1.1.9,36,-0.069,-0.069,-0.069,0.000,0.000,0.000
1643293210646192128,2022-01-27-14:20:10,10.1.1.9,35,-0.059,-0.059,-0.059,0.000,0.000,0.000
1643293210846230016,2022-01-27-14:20:10,10.1.1.9,33,-0.049,-0.049,-0.049,0.000,0.000,0.000
1643293211046874112,2022-01-27-14:20:11,10.1.1.9,33,-0.039,-0.039,-0.039,0.000,0.000,0.000
1643293211244563968,2022-01-27-14:20:11,10.1.1.9,30,-0.029,-0.029,-0.029,0.000,0.000,0.000
1643293211446407936,2022-01-27-14:20:11,10.1.1.9,31,-0.019,-0.019,-0.019,0.000,0.000,0.000
1643293211645158912,2022-01-27-14:20:11,10.1.1.9,30,-0.009,-0.009,-0.009,0.000,0.000,0.000
1643293211826437888,2022-01-27-14:20:11,10.1.1.9,10,-0.000,-0.000,-0.000,0.000,0.000,0.000
1643293212044151040,2022-01-27-14:20:12,10.1.1.9,27,-0.010,-0.010,-0.010,0.000,0.000,0.000
1643293212245748992,2022-01-27-14:20:12,10.1.1.9,28,-0.020,-0.020,-0.020,0.000,0.000,0.000
1643293212444758784,2022-01-27-14:20:12,10.1.1.9,26,-0.030,-0.030,-0.030,0.000,0.000,0.000
1643293212644733952,2022-01-27-14:20:12,10.1.1.9,26,-0.040,-0.040,-0.040,0.000,0.000,0.000
1643293212845294080,2022-01-27-14:20:12,10.1.1.9,26,-0.050,-0.050,-0.050,0.000,0.000,0.000
1643293213045441024,2022-01-27-14:20:13,10.1.1.9,26,-0.060,-0.060,-0.060,0.000,0.000,0.000
1643293213247712000,2022-01-27-14:20:13,10.1.1.9,27,-0.070,-0.070,-0.070,0.000,0.000,0.000
1643293213448355072,2022-01-27-14:20:13,10.1.1.9,27,-0.080,-0.080,-0.080,0.000,0.000,0.000
1643293213647124992,2022-01-27-14:20:13,10.1.1.9,25,-0.090,-0.090,-0.090,0.000,0.000,0.000
1643293213846705920,2022-01-27-14:20:13,10.1.1.9,24,-0.100,-0.100,-0.100,0.000,0.000,0.000
1643293214045828096,2022-01-27-14:20:14,10.1.1.9,22,-0.110,-0.110,-0.110,0.000,0.000,0.000
1643293214265428992,2022-01-27-14:20:14,10.1.1.9,41,-0.121,-0.121,-0.121,0.000,0.000,0.000
1643293214466418944,2022-01-27-14:20:14,10.1.1.9,40,-0.131,-0.131,-0.131,0.000,0.000,0.000
1643293214664819968,2022-01-27-14:20:14,10.1.1.9,37,-0.141,-0.141,-0.141,0.000,0.000,0.000
1643293214860267008,2022-01-27-14:20:14,10.1.1.9,32,-0.150,-0.150,-0.150,0.000,0.000,0.000
1643293215066596096,2022-01-27-14:20:15,10.1.1.9,38,-0.161,-0.161,-0.161,0.000,0.000,0.000
1643293215267420928,2022-01-27-14:20:15,10.1.1.9,38,-0.171,-0.171,-0.171,0.000,0.000,0.000
1643293215468960000,2022-01-27-14:20:15,10.1.1.9,39,-0.181,-0.181,-0.181,0.000,0.000,0.000
1643293215664603904,2022-01-27-14:20:15,10.1.1.9,34,-0.191,-0.191,-0.191,0.000,0.000,0.000
1643293215865374208,2022-01-27-14:20:15,10.1.1.9,33,-0.201,-0.201,-0.201,0.000,0.000,0.000
1643293216064877056,2022-01-27-14:20:16,10.1.1.9,32,-0.211,-0.211,-0.211,0.000,0.000,0.000
1643293216266760192,2022-01-27-14:20:16,10.1.1.9,33,-0.221,-0.221,-0.221,0.000,0.000,0.000
1643293216464741888,2022-01-27-14:20:16,10.1.1.9,30,-0.231,-0.231,-0.231,0.000,0.000,0.000
1643293216668083968,2022-01-27-14:20:16,10.1.1.9,32,-0.240,-0.240,-0.240,0.000,0.000,0.000
1643293216855828992,2022-01-27-14:20:16,10.1.1.9,19,-0.250,-0.250,-0.250,0.000,0.000,0.000
1643293217067433984,2022-01-27-14:20:17,10.1.1.9,30,-0.260,-0.260,-0.260,0.000,0.000,0.000
1643293217266107136,2022-01-27-14:20:17,10.1.1.9,28,-0.270,-0.270,-0.270,0.000,0.000,0.000
1643293217476492800,2022-01-27-14:20:17,10.1.1.9,37,-0.281,-0.281,-0.281,0.000,0.000,0.000
1643293217665814016,2022-01-27-14:20:17,10.1.1.9,25,-0.290,-0.290,-0.290,0.000,0.000,0.000
1643293217867778048,2022-01-27-14:20:17,10.1.1.9,27,-0.300,-0.300,-0.300,0.000,0.000,0.000
1643293218065871104,2022-01-27-14:20:18,10.1.1.9,24,-0.310,-0.310,-0.310,0.000,0.000,0.000
1643293218267543040,2022-01-27-14:20:18,10.1.1.9,25,-0.320,-0.320,-0.320,0.000,0.000,0.000
1643293218467150848,2022-01-27-14:20:18,10.1.1.9,24,-0.330,-0.330,-0.330,0.000,0.000,0.000
1643293218685133824,2022-01-27-14:20:18,10.1.1.9,41,-0.341,-0.341,-0.341,0.000,0.000,0.000
1643293218876188928,2022-01-27-14:20:18,10.1.1.9,28,-0.350,-0.350,-0.350,0.000,0.000,0.000
1643293219088527872,2022-01-27-14:20:19,10.1.1.9,40,-0.361,-0.361,-0.361,0.000,0.000,0.000
1643293219276418048,2022-01-27-14:20:19,10.1.1.9,27,-0.370,-0.370,-0.370,0.000,0.000,0.000
1643293219478054912,2022-01-27-14:20:19,10.1.1.9,28,-0.380,-0.380,-0.380,0.000,0.000,0.000
1643293219686759936,2022-01-27-14:20:19,10.1.1.9,34,-0.391,-0.391,-0.391,0.000,0.000,0.000
1643293219887005184,2022-01-27-14:20:19,10.1.1.9,35,-0.401,-0.401,-0.401,0.000,0.000,0.000
1643293220086266112,2022-01-27-14:20:20,10.1.1.9,33,-0.411,-0.411,-0.411,0.000,0.000,0.000
1643293220306468096,2022-01-27-14:20:20,10.1.1.9,52,-0.422,-0.422,-0.422,0.000,0.000,0.000
1643293220486577152,2022-01-27-14:20:20,10.1.1.9,31,-0.431,-0.431,-0.431,0.000,0.000,0.000
1643293220685710080,2022-01-27-14:20:20,10.1.1.9,28,-0.440,-0.440,-0.440,0.000,0.000,0.000
1643293220887765760,2022-01-27-14:20:20,10.1.1.9,30,-0.450,-0.450,-0.450,0.000,0.000,0.000
1643293221087060992,2022-01-27-14:20:21,10.1.1.9,28,-0.460,-0.460,-0.460,0.000,0.000,0.000
1643293221287784960,2022-01-27-14:20:21,10.1.1.9,28,-0.470,-0.470,-0.470,0.000,0.000,0.000
1643293221487536896,2022-01-27-14:20:21,10.1.1.9,28,-0.480,-0.480,-0.480,0.000,0.000,0.000
1643293221667088128,2022-01-27-14:20:21,10.1.1.9,7,-0.489,-0.489,-0.489,0.000,0.000,0.000
1643293221887692032,2022-01-27-14:20:21,10.1.1.9,27,-0.480,-0.480,-0.480,0.000,0.000,0.000
1643293222086322944,2022-01-27-14:20:22,10.1.1.9,25,-0.470,-0.470,-0.470,0.000,0.000,0.000
1643293222288062208,2022-01-27-14:20:22,10.1.1.9,26,-0.460,-0.460,-0.460,0.000,0.000,0.000
1643293222507438848,2022-01-27-14:20:22,10.1.1.9,44,-0.449,-0.449,-0.449,0.000,0.000,0.000
1643293222707084032,2022-01-27-14:20:22,10.1.1.9,42,-0.439,-0.439,-0.439,0.000,0.000,0.000
1643293222887137792,2022-01-27-14:20:22,10.1.1.9,21,-0.430,-0.430,-0.430,0.000,0.000,0.000
1643293223096082944,2022-01-27-14:20:23,10.1.1.9,27,-0.420,-0.420,-0.420,0.000,0.000,0.000
1643293223306883072,2022-01-27-14:20:23,10.1.1.9,38,-0.409,-0.409,-0.409,0.000,0.000,0.000
1643293223507847936,2022-01-27-14:20:23,10.1.1.9,39,-0.399,-0.399,-0.399,0.000,0.000,0.000
1643293223695833088,2022-01-27-14:20:23,10.1.1.9,26,-0.390,-0.390,-0.390,0.000,0.000,0.000
1643293223907883776,2022-01-27-14:20:23,10.1.1.9,37,-0.379,-0.379,-0.379,0.000,0.000,0.000
1643293224107255040,2022-01-27-14:20:24,10.1.1.9,36,-0.369,-0.369,-0.369,0.000,0.000,0.000
1643293224307405056,2022-01-27-14:20:24,10.1.1.9,35,-0.359,-0.359,-0.359,0.000,0.000,0.000
1643293224495491072,2022-01-27-14:20:24,10.1.1.9,22,-0.350,-0.350,-0.350,0.000,0.000,0.000
1643293224706068992,2022-01-27-14:20:24,10.1.1.9,30,-0.339,-0.339,-0.339,0.000,0.000,0.000
1643293224908485888,2022-01-27-14:20:24,10.1.1.9,31,-0.330,-0.330,-0.330,0.000,0.000,0.000
1643293225104520192,2022-01-27-14:20:25,10.1.1.9,27,-0.320,-0.320,-0.320,0.000,0.000,0.000
1643293225307694080,2022-01-27-14:20:25,10.1.1.9,27,-0.310,-0.310,-0.310,0.000,0.000,0.000
1643293225507145984,2022-01-27-14:20:25,10.1.1.9,28,-0.300,-0.300,-0.300,0.000,0.000,0.000
1643293225706348800,2022-01-27-14:20:25,10.1.1.9,26,-0.290,-0.290,-0.290,0.000,0.000,0.000
1643293225910924800,2022-01-27-14:20:25,10.1.1.9,30,-0.280,-0.280,-0.280,0.000,0.000,0.000
1643293226107217920,2022-01-27-14:20:26,10.1.1.9,26,-0.270,-0.270,-0.270,0.000,0.000,0.000
1643293226304559104,2022-01-27-14:20:26,10.1.1.9,23,-0.260,-0.260,-0.260,0.000,0.000,0.000
1643293226506067968,2022-01-27-14:20:26,10.1.1.9,24,-0.250,-0.250,-0.250,0.000,0.000,0.000
1643293226727782912,2022-01-27-14:20:26,10.1.1.9,45,-0.239,-0.239,-0.239,0.000,0.000,0.000
1643293226929284096,2022-01-27-14:20:26,10.1.1.9,45,-0.230,-0.230,-0.230,0.000,0.000,0.000
1643293227107382016,2022-01-27-14:20:27,10.1.1.9,22,-0.220,-0.220,-0.220,0.000,0.000,0.000
1643293227326505984,2022-01-27-14:20:27,10.1.1.9,39,-0.209,-0.209,-0.209,0.000,0.000,0.000
1643293227516339968,2022-01-27-14:20:27,10.1.1.9,28,-0.200,-0.200,-0.200,0.000,0.000,0.000
1643293227717021952,2022-01-27-14:20:27,10.1.1.9,29,-0.190,-0.190,-0.190,0.000,0.000,0.000
1643293227915639040,2022-01-27-14:20:27,10.1.1.9,26,-0.180,-0.180,-0.180,0.000,0.000,0.000
1643293228115875072,2022-01-27-14:20:28,10.1.1.9,26,-0.170,-0.170,-0.170,0.000,0.000,0.000
1643293228324909056,2022-01-27-14:20:28,10.1.1.9,34,-0.159,-0.159,-0.159,0.000,0.000,0.000
1643293228525989120,2022-01-27-14:20:28,10.1.1.9,35,-0.149,-0.149,-0.149,0.000,0.000,0.000
1643293228725807872,2022-01-27-14:20:28,10.1.1.9,31,-0.139,-0.139,-0.139,0.000,0.000,0.000
1643293228925571840,2022-01-27-14:20:28,10.1.1.9,31,-0.129,-0.129,-0.129,0.000,0.000,0.000
1643293229128703232,2022-01-27-14:20:29,10.1.1.9,32,-0.120,-0.120,-0.120,0.000,0.000,0.000
1643293229325484032,2022-01-27-14:20:29,10.1.1.9,29,-0.110,-0.110,-0.110,0.000,0.000,0.000
1643293229527371776,2022-01-27-14:20:29,10.1.1.9,29,-0.100,-0.100,-0.100,0.000,0.000,0.000
1643293229724508160,2022-01-27-14:20:29,10.1.1.9,25,-0.090,-0.090,-0.090,0.000,0.000,0.000
1643293229925316096,2022-01-27-14:20:29,10.1.1.9,24,-0.080,-0.080,-0.080,0.000,0.000,0.000
1643293230125981952,2022-01-27-14:20:30,10.1.1.9,25,-0.070,-0.070,-0.070,0.000,0.000,0.000
1643293230325805824,2022-01-27-14:20:30,10.1.1.9,23,-0.060,-0.060,-0.060,0.000,0.000,0.000
1643293230545701888,2022-01-27-14:20:30,10.1.1.9,42,-0.049,-0.049,-0.049,0.000,0.000,0.000
1643293230724673024,2022-01-27-14:20:30,10.1.1.9,21,-0.040,-0.040,-0.040,0.000,0.000,0.000
1643293230937907968,2022-01-27-14:20:30,10.1.1.9,31,-0.030,-0.030,-0.030,0.000,0.000,0.000
1643293231148352000,2022-01-27-14:20:31,10.1.1.9,40,-0.019,-0.019,-0.019,0.000,0.000,0.000
1643293231345423104,2022-01-27-14:20:31,10.1.1.9,37,-0.009,-0.009,-0.009,0.000,0.000,0.000
1643293231525361920,2022-01-27-14:20:31,10.1.1.9,15,-0.000,-0.000,-0.000,0.000,0.000,0.000
1643293231745992960,2022-01-27-14:20:31,10.1.1.9,36,-0.011,-0.011,-0.011,0.000,0.000,0.000
1643293231945056000,2022-01-27-14:20:31,10.1.1.9,34,-0.021,-0.021,-0.021,0.000,0.000,0.000
1643293232146102784,2022-01-27-14:20:32,10.1.1.9,34,-0.031,-0.031,-0.031,0.000,0.000,0.000
1643293232351063040,2022-01-27-14:20:32,10.1.1.9,25,-0.040,-0.040,-0.040,0.000,0.000,0.000
1643293232565857024,2022-01-27-14:20:32,10.1.1.9,39,-0.051,-0.051,-0.051,0.000,0.000,0.000
1643293232766308096,2022-01-27-14:20:32,10.1.1.9,39,-0.061,-0.061,-0.061,0.000,0.000,0.000
1643293232966891008,2022-01-27-14:20:32,10.1.1.9,38,-0.071,-0.071,-0.071,0.000,0.000,0.000
1643293233166811904,2022-01-27-14:20:33,10.1.1.9,38,-0.081,-0.081,-0.081,0.000,0.000,0.000
1643293233367552000,2022-01-27-14:20:33,10.1.1.9,37,-0.091,-0.091,-0.091,0.000,0.000,0.000
1643293233566718208,2022-01-27-14:20:33,10.1.1.9,36,-0.101,-0.101,-0.101,0.000,0.000,0.000
1643293233756087040,2022-01-27-14:20:33,10.1.1.9,25,-0.110,-0.110,-0.110,0.000,0.000,0.000
1643293233954703104,2022-01-27-14:20:33,10.1.1.9,21,-0.120,-0.120,-0.120,0.000,0.000,0.000
1643293234166496000,2022-01-27-14:20:34,10.1.1.9,32,-0.131,-0.131,-0.131,0.000,0.000,0.000
1643293234367257088,2022-01-27-14:20:34,10.1.1.9,32,-0.141,-0.141,-0.141,0.000,0.000,0.000
1643293234565281024,2022-01-27-14:20:34,10.1.1.9,29,-0.150,-0.150,-0.150,0.000,0.000,0.000
1643293234765387008,2022-01-27-14:20:34,10.1.1.9,28,-0.160,-0.160,-0.160,0.000,0.000,0.000
1643293234966228992,2022-01-27-14:20:34,10.1.1.9,26,-0.170,-0.170,-0.170,0.000,0.000,0.000
1643293235167404800,2022-01-27-14:20:35,10.1.1.9,27,-0.180,-0.180,-0.180,0.000,0.000,0.000
1643293235365935104,2022-01-27-14:20:35,10.1.1.9,25,-0.190,-0.190,-0.190,0.000,0.000,0.000
1643293235567621120,2022-01-27-14:20:35,10.1.1.9,26,-0.200,-0.200,-0.200,0.000,0.000,0.000
1643293235786600960,2022-01-27-14:20:35,10.1.1.9,44,-0.211,-0.211,-0.211,0.000,0.000,0.000
1643293235974829056,2022-01-27-14:20:35,10.1.1.9,31,-0.220,-0.220,-0.220,0.000,0.000,0.000
1643293236175857152,2022-01-27-14:20:36,10.1.1.9,31,-0.230,-0.230,-0.230,0.000,0.000,0.000
1643293236367345152,2022-01-27-14:20:36,10.1.1.9,21,-0.240,-0.240,-0.240,0.000,0.000,0.000
1643293236576477952,2022-01-27-14:20:36,10.1.1.9,29,-0.250,-0.250,-0.250,0.000,0.000,0.000
1643293236776652032,2022-01-27-14:20:36,10.1.1.9,28,-0.260,-0.260,-0.260,0.000,0.000,0.000
1643293236986810880,2022-01-27-14:20:36,10.1.1.9,38,-0.271,-0.271,-0.271,0.000,0.000,0.000
1643293237185673984,2022-01-27-14:20:37,10.1.1.9,36,-0.281,-0.281,-0.281,0.000,0.000,0.000
1643293237385294080,2022-01-27-14:20:37,10.1.1.9,34,-0.291,-0.291,-0.291,0.000,0.000,0.000
1643293237575484160,2022-01-27-14:20:37,10.1.1.9,24,-0.300,-0.300,-0.300,0.000,0.000,0.000
1643293237785351936,2022-01-27-14:20:37,10.1.1.9,33,-0.311,-0.311,-0.311,0.000,0.000,0.000
1643293237987976192,2022-01-27-14:20:37,10.1.1.9,35,-0.321,-0.321,-0.321,0.000,0.000,0.000
1643293238196041984,2022-01-27-14:20:38,10.1.1.9,43,-0.331,-0.331,-0.331,0.000,0.000,0.000
1643293238375063040,2022-01-27-14:20:38,10.1.1.9,21,-0.340,-0.340,-0.340,0.000,0.000,0.000
1643293238586600192,2022-01-27-14:20:38,10.1.1.9,32,-0.350,-0.350,-0.350,0.000,0.000,0.000
1643293238787291904,2022-01-27-14:20:38,10.1.1.9,31,-0.361,-0.361,-0.361,0.000,0.000,0.000
1643293238986104064,2022-01-27-14:20:38,10.1.1.9,29,-0.370,-0.370,-0.370,0.000,0.000,0.000
1643293239186475008,2022-01-27-14:20:39,10.1.1.9,29,-0.380,-0.380,-0.380,0.000,0.000,0.000
1643293239404768000,2022-01-27-14:20:39,10.1.1.9,46,-0.391,-0.391,-0.391,0.000,0.000,0.000
1643293239587471104,2022-01-27-14:20:39,10.1.1.9,28,-0.400,-0.400,-0.400,0.000,0.000,0.000
1643293239788360960,2022-01-27-14:20:39,10.1.1.9,28,-0.410,-0.410,-0.410,0.000,0.000,0.000
1643293239986310912,2022-01-27-14:20:39,10.1.1.9,26,-0.420,-0.420,-0.420,0.000,0.000,0.000
1643293240208160000,2022-01-27-14:20:40,10.1.1.9,47,-0.431,-0.431,-0.431,0.000,0.000,0.000
1643293240386661120,2022-01-27-14:20:40,10.1.1.9,25,-0.440,-0.440,-0.440,0.000,0.000,0.000
1643293240586572800,2022-01-27-14:20:40,10.1.1.9,23,-0.450,-0.450,-0.450,0.000,0.000,0.000
1643293240794444032,2022-01-27-14:20:40,10.1.1.9,32,-0.460,-0.460,-0.460,0.000,0.000,0.000
1643293240987689984,2022-01-27-14:20:40,10.1.1.9,24,-0.470,-0.470,-0.470,0.000,0.000,0.000
1643293241207068928,2022-01-27-14:20:41,10.1.1.9,43,-0.481,-0.481,-0.481,0.000,0.000,0.000
1643293241407342848,2022-01-27-14:20:41,10.1.1.9,39,-0.489,-0.489,-0.489,0.000,0.000,0.000
1643293241606033920,2022-01-27-14:20:41,10.1.1.9,37,-0.479,-0.479,-0.479,0.000,0.000,0.000
1643293241807702016,2022-01-27-14:20:41,10.1.1.9,37,-0.469,-0.469,-0.469,0.000,0.000,0.000
1643293242006969856,2022-01-27-14:20:42,10.1.1.9,35,-0.459,-0.459,-0.459,0.000,0.000,0.000
1643293242205324032,2022-01-27-14:20:42,10.1.1.9,32,-0.449,-0.449,-0.449,0.000,0.000,0.000
1643293242405837056,2022-01-27-14:20:42,10.1.1.9,30,-0.439,-0.439,-0.439,0.000,0.000,0.000
1643293242606565120,2022-01-27-14:20:42,10.1.1.9,26,-0.430,-0.430,-0.430,0.000,0.000,0.000
1643293242840321024,2022-01-27-14:20:42,10.1.1.9,54,-0.419,-0.419,-0.419,0.000,0.000,0.000
1643293243004905984,2022-01-27-14:20:43,10.1.1.9,23,-0.410,-0.410,-0.410,0.000,0.000,0.000
1643293243224802048,2022-01-27-14:20:43,10.1.1.9,42,-0.399,-0.399,-0.399,0.000,0.000,0.000
1643293243424321024,2022-01-27-14:20:43,10.1.1.9,39,-0.389,-0.389,-0.389,0.000,0.000,0.000
1643293243625521920,2022-01-27-14:20:43,10.1.1.9,38,-0.379,-0.379,-0.379,0.000,0.000,0.000
1643293243827256064,2022-01-27-14:20:43,10.1.1.9,39,-0.369,-0.369,-0.369,0.000,0.000,0.000
1643293244027513856,2022-01-27-14:20:44,10.1.1.9,38,-0.359,-0.359,-0.359,0.000,0.000,0.000
1643293244228713984,2022-01-27-14:20:44,10.1.1.9,40,-0.349,-0.349,-0.349,0.000,0.000,0.000
1643293244427428864,2022-01-27-14:20:44,10.1.1.9,35,-0.339,-0.339,-0.339,0.000,0.000,0.000
1643293244629267968,2022-01-27-14:20:44,10.1.1.9,38,-0.329,-0.329,-0.329,0.000,0.000,0.000
1643293244826667008,2022-01-27-14:20:44,10.1.1.9,36,-0.319,-0.319,-0.319,0.000,0.000,0.000
1643293245027979008,2022-01-27-14:20:45,10.1.1.9,37,-0.309,-0.309,-0.309,0.000,0.000,0.000
1643293245224864000,2022-01-27-14:20:45,10.1.1.9,33,-0.299,-0.299,-0.299,0.000,0.000,0.000
1643293245426511104,2022-01-27-14:20:45,10.1.1.9,34,-0.289,-0.289,-0.289,0.000,0.000,0.000
1643293245626828800,2022-01-27-14:20:45,10.1.1.9,33,-0.279,-0.279,-0.279,0.000,0.000,0.000
1643293245825010176,2022-01-27-14:20:45,10.1.1.9,30,-0.269,-0.269,-0.269,0.000,0.000,0.000
1643293246016165888,2022-01-27-14:20:46,10.1.1.9,20,-0.260,-0.260,-0.260,0.000,0.000,0.000
1643293246244995072,2022-01-27-14:20:46,10.1.1.9,48,-0.249,-0.249,-0.249,0.000,0.000,0.000
1643293246427255040,2022-01-27-14:20:46,10.1.1.9,30,-0.240,-0.240,-0.240,0.000,0.000,0.000
1643293246626162176,2022-01-27-14:20:46,10.1.1.9,28,-0.230,-0.230,-0.230,0.000,0.000,0.000
1643293246826801152,2022-01-27-14:20:46,10.1.1.9,28,-0.220,-0.220,-0.220,0.000,0.000,0.000
1643293247044811008,2022-01-27-14:20:47,10.1.1.9,45,-0.209,-0.209,-0.209,0.000,0.000,0.000
1643293247224440064,2022-01-27-14:20:47,10.1.1.9,25,-0.200,-0.200,-0.200,0.000,0.000,0.000
1643293247425519872,2022-01-27-14:20:47,10.1.1.9,25,-0.190,-0.190,-0.190,0.000,0.000,0.000
1643293247626610944,2022-01-27-14:20:47,10.1.1.9,26,-0.180,-0.180,-0.180,0.000,0.000,0.000
1643293247837139968,2022-01-27-14:20:47,10.1.1.9,35,-0.170,-0.170,-0.170,0.000,0.000,0.000
1643293248024812032,2022-01-27-14:20:48,10.1.1.9,22,-0.160,-0.160,-0.160,0.000,0.000,0.000
1643293248247080960,2022-01-27-14:20:48,10.1.1.9,44,-0.149,-0.149,-0.149,0.000,0.000,0.000
1643293248445853952,2022-01-27-14:20:48,10.1.1.9,42,-0.139,-0.139,-0.139,0.000,0.000,0.000
1643293248626018048,2022-01-27-14:20:48,10.1.1.9,22,-0.130,-0.130,-0.130,0.000,0.000,0.000
1643293248826839808,2022-01-27-14:20:48,10.1.1.9,20,-0.120,-0.120,-0.120,0.000,0.000,0.000
1643293249045847040,2022-01-27-14:20:49,10.1.1.9,38,-0.109,-0.109,-0.109,0.000,0.000,0.000
1643293249246520064,2022-01-27-14:20:49,10.1.1.9,38,-0.099,-0.099,-0.099,0.000,0.000,0.000
1643293249446333952,2022-01-27-14:20:49,10.1.1.9,38,-0.089,-0.089,-0.089,0.000,0.000,0.000
1643293249644676096,2022-01-27-14:20:49,10.1.1.9,35,-0.079,-0.079,-0.079,0.000,0.000,0.000
1643293249845401088,2022-01-27-14:20:49,10.1.1.9,34,-0.069,-0.069,-0.069,0.000,0.000,0.000
1643293250049860864,2022-01-27-14:20:50,10.1.1.9,35,-0.059,-0.059,-0.059,0.000,0.000,0.000
1643293250245146880,2022-01-27-14:20:50,10.1.1.9,34,-0.049,-0.049,-0.049,0.000,0.000,0.000
1643293250435442944,2022-01-27-14:20:50,10.1.1.9,23,-0.040,-0.040,-0.040,0.000,0.000,0.000
1643293250644678144,2022-01-27-14:20:50,10.1.1.9,32,-0.029,-0.029,-0.029,0.000,0.000,0.000
1643293250846180864,2022-01-27-14:20:50,10.1.1.9,33,-0.019,-0.019,-0.019,0.000,0.000,0.000
1643293251046379008,2022-01-27-14:20:51,10.1.1.9,32,-0.009,-0.009,-0.009,0.000,0.000,0.000
1643293251227073792,2022-01-27-14:20:51,10.1.1.9,13,-0.000,-0.000,-0.000,0.000,0.000,0.000
1643293251435401984,2022-01-27-14:20:51,10.1.1.9,20,-0.010,-0.010,-0.010,0.000,0.000,0.000
1643293251647208960,2022-01-27-14:20:51,10.1.1.9,31,-0.021,-0.021,-0.021,0.000,0.000,0.000
1643293251846985984,2022-01-27-14:20:51,10.1.1.9,30,-0.030,-0.030,-0.030,0.000,0.000,0.000
1643293252066668032,2022-01-27-14:20:52,10.1.1.9,49,-0.041,-0.041,-0.041,0.000,0.000,0.000
1643293252245402112,2022-01-27-14:20:52,10.1.1.9,27,-0.050,-0.050,-0.050,0.000,0.000,0.000
1643293252447372032,2022-01-27-14:20:52,10.1.1.9,29,-0.060,-0.060,-0.060,0.000,0.000,0.000
1643293252646612992,2022-01-27-14:20:52,10.1.1.9,25,-0.070,-0.070,-0.070,0.000,0.000,0.000
1643293252867614976,2022-01-27-14:20:52,10.1.1.9,48,-0.081,-0.081,-0.081,0.000,0.000,0.000
1643293253064815872,2022-01-27-14:20:53,10.1.1.9,44,-0.091,-0.091,-0.091,0.000,0.000,0.000
1643293253265330944,2022-01-27-14:20:53,10.1.1.9,44,-0.101,-0.101,-0.101,0.000,0.000,0.000
1643293253448695040,2022-01-27-14:20:53,10.1.1.9,27,-0.110,-0.110,-0.110,0.000,0.000,0.000
1643293253645155072,2022-01-27-14:20:53,10.1.1.9,23,-0.120,-0.120,-0.120,0.000,0.000,0.000
1643293253845807104,2022-01-27-14:20:53,10.1.1.9,22,-0.130,-0.130,-0.130,0.000,0.000,0.000
1643293254067201024,2022-01-27-14:20:54,10.1.1.9,37,-0.141,-0.141,-0.141,0.000,0.000,0.000
1643293254269885184,2022-01-27-14:20:54,10.1.1.9,34,-0.151,-0.151,-0.151,0.000,0.000,0.000
1643293254468739072,2022-01-27-14:20:54,10.1.1.9,37,-0.161,-0.161,-0.161,0.000,0.000,0.000
1643293254667335936,2022-01-27-14:20:54,10.1.1.9,34,-0.170,-0.170,-0.170,0.000,0.000,0.000
1643293254868273920,2022-01-27-14:20:54,10.1.1.9,29,-0.180,-0.180,-0.180,0.000,0.000,0.000
1643293255066984960,2022-01-27-14:20:55,10.1.1.9,27,-0.190,-0.190,-0.190,0.000,0.000,0.000
1643293255287857920,2022-01-27-14:20:55,10.1.1.9,47,-0.201,-0.201,-0.201,0.000,0.000,0.000
1643293255468290048,2022-01-27-14:20:55,10.1.1.9,27,-0.210,-0.210,-0.210,0.000,0.000,0.000
1643293255667452160,2022-01-27-14:20:55,10.1.1.9,25,-0.220,-0.220,-0.220,0.000,0.000,0.000
1643293255870158848,2022-01-27-14:20:55,10.1.1.9,27,-0.230,-0.230,-0.230,0.000,0.000,0.000
1643293256068964864,2022-01-27-14:20:56,10.1.1.9,25,-0.240,-0.240,-0.240,0.000,0.000,0.000
1643293256291528960,2022-01-27-14:20:56,10.1.1.9,40,-0.251,-0.251,-0.251,0.000,0.000,0.000
1643293256476758016,2022-01-27-14:20:56,10.1.1.9,23,-0.260,-0.260,-0.260,0.000,0.000,0.000
1643293256689587968,2022-01-27-14:20:56,10.1.1.9,33,-0.270,-0.270,-0.270,0.000,0.000,0.000
1643293256907567104,2022-01-27-14:20:56,10.1.1.9,48,-0.281,-0.281,-0.281,0.000,0.000,0.000
1643293257085999104,2022-01-27-14:20:57,10.1.1.9,26,-0.290,-0.290,-0.290,0.000,0.000,0.000
1643293257307074048,2022-01-27-14:20:57,10.1.1.9,45,-0.301,-0.301,-0.301,0.000,0.000,0.000
1643293257490991104,2022-01-27-14:20:57,10.1.1.9,30,-0.310,-0.310,-0.310,0.000,0.000,0.000
1643293257685720832,2022-01-27-14:20:57,10.1.1.9,24,-0.320,-0.320,-0.320,0.000,0.000,0.000
1643293257906304000,2022-01-27-14:20:57,10.1.1.9,43,-0.331,-0.331,-0.331,0.000,0.000,0.000
1643293258091201024,2022-01-27-14:20:58,10.1.1.9,27,-0.340,-0.340,-0.340,0.000,0.000,0.000
1643293258297008128,2022-01-27-14:20:58,10.1.1.9,27,-0.350,-0.350,-0.350,0.000,0.000,0.000
1643293258508958976,2022-01-27-14:20:58,10.1.1.9,38,-0.361,-0.361,-0.361,0.000,0.000,0.000
1643293258706974976,2022-01-27-14:20:58,10.1.1.9,34,-0.370,-0.370,-0.370,0.000,0.000,0.000
1643293258908251136,2022-01-27-14:20:58,10.1.1.9,33,-0.380,-0.380,-0.380,0.000,0.000,0.000
1643293259107292928,2022-01-27-14:20:59,10.1.1.9,31,-0.391,-0.391,-0.391,0.000,0.000,0.000
1643293259305032960,2022-01-27-14:20:59,10.1.1.9,27,-0.400,-0.400,-0.400,0.000,0.000,0.000
1643293259479158016,2022-01-27-14:20:59,10.1.1.9,-1,-0.409,-0.409,-0.409,0.000,0.000,0.000
1643293259707757824,2022-01-27-14:20:59,10.1.1.9,29,-0.420,-0.420,-0.420,0.000,0.000,0.000
1643293259907442944,2022-01-27-14:20:59,10.1.1.9,26,-0.430,-0.430,-0.430,0.000,0.000,0.000
1643293260112134912,2022-01-27-14:21:00,10.1.1.9,30,-0.440,-0.440,-0.440,0.000,0.000,0.000
1643293260327756800,2022-01-27-14:21:00,10.1.1.9,44,-0.451,-0.451,-0.451,0.000,0.000,0.000
1643293260526868992,2022-01-27-14:21:00,10.1.1.9,41,-0.461,-0.461,-0.461,0.000,0.000,0.000
1643293260715064064,2022-01-27-14:21:00,10.1.1.9,26,-0.470,-0.470,-0.470,0.000,0.000,0.000
1643293260928731904,2022-01-27-14:21:00,10.1.1.9,39,-0.481,-0.481,-0.481,0.000,0.000,0.000
1643293261109144064,2022-01-27-14:21:01,10.1.1.9,19,-0.490,-0.490,-0.490,0.000,0.000,0.000
1643293261326409216,2022-01-27-14:21:01,10.1.1.9,31,-0.479,-0.479,-0.479,0.000,0.000,0.000
1643293261538935808,2022-01-27-14:21:01,10.1.1.9,41,-0.469,-0.469,-0.469,0.000,0.000,0.000
1643293261729129984,2022-01-27-14:21:01,10.1.1.9,29,-0.460,-0.460,-0.460,0.000,0.000,0.000
1643293261928368128,2022-01-27-14:21:01,10.1.1.9,27,-0.450,-0.450,-0.450,0.000,0.000,0.000
1643293262146105088,2022-01-27-14:21:02,10.1.1.9,44,-0.439,-0.439,-0.439,0.000,0.000,0.000
1643293262346087936,2022-01-27-14:21:02,10.1.1.9,43,-0.429,-0.429,-0.429,0.000,0.000,0.000
1643293262547458816,2022-01-27-14:21:02,10.1.1.9,44,-0.419,-0.419,-0.419,0.000,0.000,0.000
1643293262725886976,2022-01-27-14:21:02,10.1.1.9,21,-0.410,-0.410,-0.410,0.000,0.000,0.000
1643293262946288128,2022-01-27-14:21:02,10.1.1.9,41,-0.399,-0.399,-0.399,0.000,0.000,0.000
1643293263126658816,2022-01-27-14:21:03,10.1.1.9,21,-0.390,-0.390,-0.390,0.000,0.000,0.000
1643293263348335104,2022-01-27-14:21:03,10.1.1.9,41,-0.379,-0.379,-0.379,0.000,0.000,0.000
1643293263549092096,2022-01-27-14:21:03,10.1.1.9,41,-0.369,-0.369,-0.369,0.000,0.000,0.000
1643293263747802880,2022-01-27-14:21:03,10.1.1.9,39,-0.359,-0.359,-0.359,0.000,0.000,0.000
1643293263948365824,2022-01-27-14:21:03,10.1.1.9,37,-0.349,-0.349,-0.349,0.000,0.000,0.000
1643293264148026112,2022-01-27-14:21:04,10.1.1.9,38,-0.339,-0.339,-0.339,0.000,0.000,0.000
1643293264346772992,2022-01-27-14:21:04,10.1.1.9,36,-0.329,-0.329,-0.329,0.000,0.000,0.000
1643293264536848896,2022-01-27-14:21:04,10.1.1.9,26,-0.320,-0.320,-0.320,0.000,0.000,0.000
1643293264757566976,2022-01-27-14:21:04,10.1.1.9,45,-0.309,-0.309,-0.309,0.000,0.000,0.000
1643293264947684096,2022-01-27-14:21:04,10.1.1.9,34,-0.300,-0.300,-0.300,0.000,0.000,0.000
1643293265149185024,2022-01-27-14:21:05,10.1.1.9,35,-0.290,-0.290,-0.290,0.000,0.000,0.000
1643293265337938944,2022-01-27-14:21:05,10.1.1.9,23,-0.280,-0.280,-0.280,0.000,0.000,0.000
1643293265567468032,2022-01-27-14:21:05,10.1.1.9,50,-0.269,-0.269,-0.269,0.000,0.000,0.000
1643293265770164992,2022-01-27-14:21:05,10.1.1.9,52,-0.259,-0.259,-0.259,0.000,0.000,0.000
1643293265948067072,2022-01-27-14:21:05,10.1.1.9,29,-0.250,-0.250,-0.250,0.000,0.000,0.000
1643293266169494016,2022-01-27-14:21:06,10.1.1.9,50,-0.239,-0.239,-0.239,0.000,0.000,0.000
1643293266347558912,2022-01-27-14:21:06,10.1.1.9,28,-0.230,-0.230,-0.230,0.000,0.000,0.000
1643293266566067968,2022-01-27-14:21:06,10.1.1.9,44,-0.219,-0.219,-0.219,0.000,0.000,0.000
1643293266745531136,2022-01-27-14:21:06,10.1.1.9,24,-0.210,-0.210,-0.210,0.000,0.000,0.000
1643293266957900032,2022-01-27-14:21:06,10.1.1.9,35,-0.199,-0.199,-0.199,0.000,0.000,0.000
1643293267147008768,2022-01-27-14:21:07,10.1.1.9,24,-0.190,-0.190,-0.190,0.000,0.000,0.000
1643293267346968832,2022-01-27-14:21:07,10.1.1.9,23,-0.180,-0.180,-0.180,0.000,0.000,0.000
1643293267567112960,2022-01-27-14:21:07,10.1.1.9,42,-0.169,-0.169,-0.169,0.000,0.000,0.000
1643293267766161920,2022-01-27-14:21:07,10.1.1.9,40,-0.159,-0.159,-0.159,0.000,0.000,0.000
1643293267957192960,2022-01-27-14:21:07,10.1.1.9,30,-0.150,-0.150,-0.150,0.000,0.000,0.000
1643293268170829056,2022-01-27-14:21:08,10.1.1.9,41,-0.139,-0.139,-0.139,0.000,0.000,0.000
1643293268367693824,2022-01-27-14:21:08,10.1.1.9,39,-0.129,-0.129,-0.129,0.000,0.000,0.000
1643293268567318016,2022-01-27-14:21:08,10.1.1.9,36,-0.119,-0.119,-0.119,0.000,0.000,0.000
1643293268767764992,2022-01-27-14:21:08,10.1.1.9,34,-0.110,-0.110,-0.110,0.000,0.000,0.000
1643293268971218176,2022-01-27-14:21:08,10.1.1.9,36,-0.100,-0.100,-0.100,0.000,0.000,0.000
1643293269167639040,2022-01-27-14:21:09,10.1.1.9,30,-0.090,-0.090,-0.090,0.000,0.000,0.000
1643293269370522880,2022-01-27-14:21:09,10.1.1.9,31,-0.080,-0.080,-0.080,0.000,0.000,0.000
1643293269567688960,2022-01-27-14:21:09,10.1.1.9,28,-0.070,-0.070,-0.070,0.000,0.000,0.000
1643293269767180032,2022-01-27-14:21:09,10.1.1.9,27,-0.060,-0.060,-0.060,0.000,0.000,0.000
1643293269979124992,2022-01-27-14:21:09,10.1.1.9,38,-0.050,-0.050,-0.050,0.000,0.000,0.000
1643293270175522048,2022-01-27-14:21:10,10.1.1.9,34,-0.039,-0.039,-0.039,0.000,0.000,0.000
1643293270388355072,2022-01-27-14:21:10,10.1.1.9,45,-0.029,-0.029,-0.029,0.000,0.000,0.000
1643293270586652928,2022-01-27-14:21:10,10.1.1.9,42,-0.019,-0.019,-0.019,0.000,0.000,0.000
1643293270785295872,2022-01-27-14:21:10,10.1.1.9,39,-0.009,-0.009,-0.009,0.000,0.000,0.000
1643293270948704000,2022-01-27-14:21:10,10.1.1.9,0,-0.001,-0.001,-0.001,0.000,0.000,0.000
1643293271185444096,2022-01-27-14:21:11,10.1.1.9,37,-0.011,-0.011,-0.011,0.000,0.000,0.000
1643293271387290112,2022-01-27-14:21:11,10.1.1.9,38,-0.021,-0.021,-0.021,0.000,0.000,0.000
1643293271585704192,2022-01-27-14:21:11,10.1.1.9,35,-0.031,-0.031,-0.031,0.000,0.000,0.000
1643293271784701952,2022-01-27-14:21:11,10.1.1.9,33,-0.041,-0.041,-0.041,0.000,0.000,0.000
1643293271986721024,2022-01-27-14:21:11,10.1.1.9,35,-0.051,-0.051,-0.051,0.000,0.000,0.000
1643293272177366016,2022-01-27-14:21:12,10.1.1.9,25,-0.060,-0.060,-0.060,0.000,0.000,0.000
1643293272385438976,2022-01-27-14:21:12,10.1.1.9,32,-0.071,-0.071,-0.071,0.000,0.000,0.000
1643293272575510016,2022-01-27-14:21:12,10.1.1.9,17,-0.080,-0.080,-0.080,0.000,0.000,0.000
1643293272785947136,2022-01-27-14:21:12,10.1.1.9,26,-0.090,-0.090,-0.090,0.000,0.000,0.000
1643293272995841024,2022-01-27-14:21:12,10.1.1.9,36,-0.101,-0.101,-0.101,0.000,0.000,0.000
1643293273186461952,2022-01-27-14:21:13,10.1.1.9,25,-0.110,-0.110,-0.110,0.000,0.000,0.000
1643293273387849216,2022-01-27-14:21:13,10.1.1.9,26,-0.120,-0.120,-0.120,0.000,0.000,0.000
1643293273585687040,2022-01-27-14:21:13,10.1.1.9,23,-0.130,-0.130,-0.130,0.000,0.000,0.000
1643293273808118016,2022-01-27-14:21:13,10.1.1.9,44,-0.141,-0.141,-0.141,0.000,0.000,0.000
1643293274007340032,2022-01-27-14:21:14,10.1.1.9,42,-0.151,-0.151,-0.151,0.000,0.000,0.000
1643293274205581824,2022-01-27-14:21:14,10.1.1.9,39,-0.161,-0.161,-0.161,0.000,0.000,0.000
1643293274406335232,2022-01-27-14:21:14,10.1.1.9,39,-0.171,-0.171,-0.171,0.000,0.000,0.000
1643293274606679040,2022-01-27-14:21:14,10.1.1.9,38,-0.181,-0.181,-0.181,0.000,0.000,0.000
1643293274805614080,2022-01-27-14:21:14,10.1.1.9,36,-0.191,-0.191,-0.191,0.000,0.000,0.000
1643293275006441984,2022-01-27-14:21:15,10.1.1.9,36,-0.201,-0.201,-0.201,0.000,0.000,0.000
1643293275206594048,2022-01-27-14:21:15,10.1.1.9,35,-0.211,-0.211,-0.211,0.000,0.000,0.000
1643293275405875968,2022-01-27-14:21:15,10.1.1.9,30,-0.221,-0.221,-0.221,0.000,0.000,0.000
1643293275606434048,2022-01-27-14:21:15,10.1.1.9,31,-0.231,-0.231,-0.231,0.000,0.000,0.000
1643293275805936128,2022-01-27-14:21:15,10.1.1.9,29,-0.240,-0.240,-0.240,0.000,0.000,0.000
1643293276005335040,2022-01-27-14:21:16,10.1.1.9,27,-0.250,-0.250,-0.250,0.000,0.000,0.000
1643293276206290944,2022-01-27-14:21:16,10.1.1.9,28,-0.260,-0.260,-0.260,0.000,0.000,0.000
1643293276405786112,2022-01-27-14:21:16,10.1.1.9,26,-0.270,-0.270,-0.270,0.000,0.000,0.000
1643293276605537024,2022-01-27-14:21:16,10.1.1.9,25,-0.280,-0.280,-0.280,0.000,0.000,0.000
1643293276805917952,2022-01-27-14:21:16,10.1.1.9,25,-0.290,-0.290,-0.290,0.000,0.000,0.000
1643293277004223232,2022-01-27-14:21:17,10.1.1.9,22,-0.300,-0.300,-0.300,0.000,0.000,0.000
1643293277204683008,2022-01-27-14:21:17,10.1.1.9,23,-0.310,-0.310,-0.310,0.000,0.000,0.000
1643293277405756928,2022-01-27-14:21:17,10.1.1.9,23,-0.320,-0.320,-0.320,0.000,0.000,0.000
1643293277605678080,2022-01-27-14:21:17,10.1.1.9,22,-0.330,-0.330,-0.330,0.000,0.000,0.000
1643293277824736000,2022-01-27-14:21:17,10.1.1.9,40,-0.341,-0.341,-0.341,0.000,0.000,0.000
1643293278006594816,2022-01-27-14:21:18,10.1.1.9,22,-0.350,-0.350,-0.350,0.000,0.000,0.000
1643293278229713920,2022-01-27-14:21:18,10.1.1.9,42,-0.361,-0.361,-0.361,0.000,0.000,0.000
1643293278427884032,2022-01-27-14:21:18,10.1.1.9,40,-0.371,-0.371,-0.371,0.000,0.000,0.000
1643293278629682944,2022-01-27-14:21:18,10.1.1.9,42,-0.381,-0.381,-0.381,0.000,0.000,0.000
1643293278825367808,2022-01-27-14:21:18,10.1.1.9,36,-0.391,-0.391,-0.391,0.000,0.000,0.000
1643293279014822912,2022-01-27-14:21:19,10.1.1.9,25,-0.400,-0.400,-0.400,0.000,0.000,0.000
1643293279225102848,2022-01-27-14:21:19,10.1.1.9,34,-0.411,-0.411,-0.411,0.000,0.000,0.000
1643293279427490048,2022-01-27-14:21:19,10.1.1.9,35,-0.421,-0.421,-0.421,0.000,0.000,0.000
1643293279625266176,2022-01-27-14:21:19,10.1.1.9,33,-0.431,-0.431,-0.431,0.000,0.000,0.000
1643293279824951808,2022-01-27-14:21:19,10.1.1.9,33,-0.441,-0.441,-0.441,0.000,0.000,0.000
1643293280016120832,2022-01-27-14:21:20,10.1.1.9,23,-0.450,-0.450,-0.450,0.000,0.000,0.000
1643293280226375936,2022-01-27-14:21:20,10.1.1.9,33,-0.461,-0.461,-0.461,0.000,0.000,0.000
1643293280425076992,2022-01-27-14:21:20,10.1.1.9,31,-0.471,-0.471,-0.471,0.000,0.000,0.000
1643293280627055872,2022-01-27-14:21:20,10.1.1.9,32,-0.481,-0.481,-0.481,0.000,0.000,0.000
1643293280796119808,2022-01-27-14:21:20,10.1.1.9,0,-0.489,-0.489,-0.489,0.000,0.000,0.000
1643293281035328000,2022-01-27-14:21:21,10.1.1.9,39,-0.479,-0.479,-0.479,0.000,0.000,0.000
1643293281226427904,2022-01-27-14:21:21,10.1.1.9,29,-0.470,-0.470,-0.470,0.000,0.000,0.000
1643293281447563008,2022-01-27-14:21:21,10.1.1.9,50,-0.459,-0.459,-0.459,0.000,0.000,0.000
1643293281626193152,2022-01-27-14:21:21,10.1.1.9,28,-0.450,-0.450,-0.450,0.000,0.000,0.000
1643293281827549952,2022-01-27-14:21:21,10.1.1.9,27,-0.440,-0.440,-0.440,0.000,0.000,0.000
1643293282045792000,2022-01-27-14:21:22,10.1.1.9,45,-0.429,-0.429,-0.429,0.000,0.000,0.000
1643293282235770112,2022-01-27-14:21:22,10.1.1.9,34,-0.419,-0.419,-0.419,0.000,0.000,0.000
1643293282426700032,2022-01-27-14:21:22,10.1.1.9,24,-0.410,-0.410,-0.410,0.000,0.000,0.000
1643293282626970880,2022-01-27-14:21:22,10.1.1.9,24,-0.400,-0.400,-0.400,0.000,0.000,0.000
1643293282845635840,2022-01-27-14:21:22,10.1.1.9,43,-0.389,-0.389,-0.389,0.000,0.000,0.000
1643293283036481024,2022-01-27-14:21:23,10.1.1.9,33,-0.380,-0.380,-0.380,0.000,0.000,0.000
1643293283245793024,2022-01-27-14:21:23,10.1.1.9,40,-0.369,-0.369,-0.369,0.000,0.000,0.000
1643293283435742976,2022-01-27-14:21:23,10.1.1.9,30,-0.360,-0.360,-0.360,0.000,0.000,0.000
1643293283636612864,2022-01-27-14:21:23,10.1.1.9,30,-0.350,-0.350,-0.350,0.000,0.000,0.000
1643293283848273920,2022-01-27-14:21:23,10.1.1.9,41,-0.339,-0.339,-0.339,0.000,0.000,0.000
1643293284046232064,2022-01-27-14:21:24,10.1.1.9,38,-0.329,-0.329,-0.329,0.000,0.000,0.000
1643293284236276992,2022-01-27-14:21:24,10.1.1.9,28,-0.320,-0.320,-0.320,0.000,0.000,0.000
1643293284445203968,2022-01-27-14:21:24,10.1.1.9,36,-0.309,-0.309,-0.309,0.000,0.000,0.000
1643293284648051968,2022-01-27-14:21:24,10.1.1.9,39,-0.299,-0.299,-0.299,0.000,0.000,0.000
1643293284845063936,2022-01-27-14:21:24,10.1.1.9,34,-0.289,-0.289,-0.289,0.000,0.000,0.000
1643293285035805952,2022-01-27-14:21:25,10.1.1.9,23,-0.280,-0.280,-0.280,0.000,0.000,0.000
1643293285245588992,2022-01-27-14:21:25,10.1.1.9,32,-0.269,-0.269,-0.269,0.000,0.000,0.000
1643293285446116864,2022-01-27-14:21:25,10.1.1.9,32,-0.259,-0.259,-0.259,0.000,0.000,0.000
1643293285635514112,2022-01-27-14:21:25,10.1.1.9,20,-0.250,-0.250,-0.250,0.000,0.000,0.000
1643293285847726080,2022-01-27-14:21:25,10.1.1.9,32,-0.239,-0.239,-0.239,0.000,0.000,0.000
1643293286037102848,2022-01-27-14:21:26,10.1.1.9,20,-0.230,-0.230,-0.230,0.000,0.000,0.000
1643293286246351872,2022-01-27-14:21:26,10.1.1.9,28,-0.220,-0.220,-0.220,0.000,0.000,0.000
1643293286460089088,2022-01-27-14:21:26,10.1.1.9,41,-0.209,-0.209,-0.209,0.000,0.000,0.000
1643293286657694976,2022-01-27-14:21:26,10.1.1.9,38,-0.200,-0.200,-0.200,0.000,0.000,0.000
1643293286845146880,2022-01-27-14:21:26,10.1.1.9,25,-0.190,-0.190,-0.190,0.000,0.000,0.000
1643293287065756928,2022-01-27-14:21:27,10.1.1.9,45,-0.179,-0.179,-0.179,0.000,0.000,0.000
1643293287246257152,2022-01-27-14:21:27,10.1.1.9,23,-0.170,-0.170,-0.170,0.000,0.000,0.000
1643293287454865920,2022-01-27-14:21:27,10.1.1.9,33,-0.159,-0.159,-0.159,0.000,0.000,0.000
1643293287644974848,2022-01-27-14:21:27,10.1.1.9,22,-0.150,-0.150,-0.150,0.000,0.000,0.000
1643293287855101184,2022-01-27-14:21:27,10.1.1.9,32,-0.139,-0.139,-0.139,0.000,0.000,0.000
1643293288045625856,2022-01-27-14:21:28,10.1.1.9,16,-0.130,-0.130,-0.130,0.000,0.000,0.000
1643293288266042112,2022-01-27-14:21:28,10.1.1.9,36,-0.119,-0.119,-0.119,0.000,0.000,0.000
1643293288466582016,2022-01-27-14:21:28,10.1.1.9,36,-0.109,-0.109,-0.109,0.000,0.000,0.000
1643293288654665984,2022-01-27-14:21:28,10.1.1.9,24,-0.100,-0.100,-0.100,0.000,0.000,0.000
1643293288865852160,2022-01-27-14:21:28,10.1.1.9,34,-0.089,-0.089,-0.089,0.000,0.000,0.000
1643293289055227136,2022-01-27-14:21:29,10.1.1.9,21,-0.080,-0.080,-0.080,0.000,0.000,0.000
1643293289267280128,2022-01-27-14:21:29,10.1.1.9,32,-0.069,-0.069,-0.069,0.000,0.000,0.000
1643293289461954048,2022-01-27-14:21:29,10.1.1.9,25,-0.060,-0.060,-0.060,0.000,0.000,0.000
1643293289667929856,2022-01-27-14:21:29,10.1.1.9,29,-0.050,-0.050,-0.050,0.000,0.000,0.000
1643293289867988992,2022-01-27-14:21:29,10.1.1.9,29,-0.040,-0.040,-0.040,0.000,0.000,0.000
1643293290087461120,2022-01-27-14:21:30,10.1.1.9,47,-0.029,-0.029,-0.029,0.000,0.000,0.000
1643293290276056064,2022-01-27-14:21:30,10.1.1.9,35,-0.019,-0.019,-0.019,0.000,0.000,0.000
1643293290467293952,2022-01-27-14:21:30,10.1.1.9,26,-0.010,-0.010,-0.010,0.000,0.000,0.000
1643293290668386048,2022-01-27-14:21:30,10.1.1.9,27,-0.000,-0.000,-0.000,0.000,0.000,0.000
1643293290887585024,2022-01-27-14:21:30,10.1.1.9,45,-0.011,-0.011,-0.011,0.000,0.000,0.000
1643293291085850112,2022-01-27-14:21:31,10.1.1.9,43,-0.021,-0.021,-0.021,0.000,0.000,0.000
1643293291264694016,2022-01-27-14:21:31,10.1.1.9,21,-0.030,-0.030,-0.030,0.000,0.000,0.000
1643293291467432960,2022-01-27-14:21:31,10.1.1.9,23,-0.040,-0.040,-0.040,0.000,0.000,0.000
1643293291687872000,2022-01-27-14:21:31,10.1.1.9,42,-0.051,-0.051,-0.051,0.000,0.000,0.000
1643293291894191872,2022-01-27-14:21:31,10.1.1.9,39,-0.061,-0.061,-0.061,0.000,0.000,0.000
1643293292076397824,2022-01-27-14:21:32,10.1.1.9,24,-0.070,-0.070,-0.070,0.000,0.000,0.000
1643293292287705856,2022-01-27-14:21:32,10.1.1.9,35,-0.081,-0.081,-0.081,0.000,0.000,0.000
1643293292485379840,2022-01-27-14:21:32,10.1.1.9,32,-0.091,-0.091,-0.091,0.000,0.000,0.000
1643293292686749952,2022-01-27-14:21:32,10.1.1.9,32,-0.101,-0.101,-0.101,0.000,0.000,0.000
1643293292887793152,2022-01-27-14:21:32,10.1.1.9,31,-0.111,-0.111,-0.111,0.000,0.000,0.000
1643293293087113984,2022-01-27-14:21:33,10.1.1.9,30,-0.120,-0.120,-0.120,0.000,0.000,0.000
1643293293285811968,2022-01-27-14:21:33,10.1.1.9,27,-0.130,-0.130,-0.130,0.000,0.000,0.000
1643293293484910848,2022-01-27-14:21:33,10.1.1.9,25,-0.140,-0.140,-0.140,0.000,0.000,0.000
1643293293685147904,2022-01-27-14:21:33,10.1.1.9,25,-0.150,-0.150,-0.150,0.000,0.000,0.000
1643293293887216128,2022-01-27-14:21:33,10.1.1.9,26,-0.160,-0.160,-0.160,0.000,0.000,0.000
1643293294087081984,2022-01-27-14:21:34,10.1.1.9,26,-0.170,-0.170,-0.170,0.000,0.000,0.000
1643293294297033984,2022-01-27-14:21:34,10.1.1.9,33,-0.180,-0.180,-0.180,0.000,0.000,0.000
1643293294485788160,2022-01-27-14:21:34,10.1.1.9,21,-0.190,-0.190,-0.190,0.000,0.000,0.000
1643293294706647040,2022-01-27-14:21:34,10.1.1.9,41,-0.201,-0.201,-0.201,0.000,0.000,0.000
1643293294905395968,2022-01-27-14:21:34,10.1.1.9,37,-0.211,-0.211,-0.211,0.000,0.000,0.000
1643293295104646912,2022-01-27-14:21:35,10.1.1.9,34,-0.221,-0.221,-0.221,0.000,0.000,0.000
1643293295306556928,2022-01-27-14:21:35,10.1.1.9,34,-0.231,-0.231,-0.231,0.000,0.000,0.000
1643293295507973888,2022-01-27-14:21:35,10.1.1.9,36,-0.241,-0.241,-0.241,0.000,0.000,0.000
1643293295706455040,2022-01-27-14:21:35,10.1.1.9,33,-0.251,-0.251,-0.251,0.000,0.000,0.000
1643293295905752064,2022-01-27-14:21:35,10.1.1.9,32,-0.261,-0.261,-0.261,0.000,0.000,0.000
1643293296106662912,2022-01-27-14:21:36,10.1.1.9,32,-0.271,-0.271,-0.271,0.000,0.000,0.000
1643293296307003136,2022-01-27-14:21:36,10.1.1.9,32,-0.281,-0.281,-0.281,0.000,0.000,0.000
1643293296507399936,2022-01-27-14:21:36,10.1.1.9,31,-0.290,-0.290,-0.290,0.000,0.000,0.000
1643293296706779904,2022-01-27-14:21:36,10.1.1.9,30,-0.300,-0.300,-0.300,0.000,0.000,0.000
1643293296905345792,2022-01-27-14:21:36,10.1.1.9,28,-0.310,-0.310,-0.310,0.000,0.000,0.000
1643293297120229888,2022-01-27-14:21:37,10.1.1.9,42,-0.320,-0.320,-0.320,0.000,0.000,0.000
1643293297305038848,2022-01-27-14:21:37,10.1.1.9,26,-0.330,-0.330,-0.330,0.000,0.000,0.000
1643293297507986176,2022-01-27-14:21:37,10.1.1.9,28,-0.340,-0.340,-0.340,0.000,0.000,0.000
1643293297708792064,2022-01-27-14:21:37,10.1.1.9,28,-0.350,-0.350,-0.350,0.000,0.000,0.000
1643293297908119808,2022-01-27-14:21:37,10.1.1.9,26,-0.360,-0.360,-0.360,0.000,0.000,0.000
1643293298127186176,2022-01-27-14:21:38,10.1.1.9,44,-0.371,-0.371,-0.371,0.000,0.000,0.000
1643293298325158144,2022-01-27-14:21:38,10.1.1.9,40,-0.381,-0.381,-0.381,0.000,0.000,0.000
1643293298507642880,2022-01-27-14:21:38,10.1.1.9,21,-0.390,-0.390,-0.390,0.000,0.000,0.000
1643293298727969024,2022-01-27-14:21:38,10.1.1.9,40,-0.401,-0.401,-0.401,0.000,0.000,0.000
1643293298926760960,2022-01-27-14:21:38,10.1.1.9,38,-0.411,-0.411,-0.411,0.000,0.000,0.000
1643293299127198976,2022-01-27-14:21:39,10.1.1.9,37,-0.421,-0.421,-0.421,0.000,0.000,0.000
1643293299329294080,2022-01-27-14:21:39,10.1.1.9,35,-0.431,-0.431,-0.431,0.000,0.000,0.000
1643293299526857984,2022-01-27-14:21:39,10.1.1.9,32,-0.441,-0.441,-0.441,0.000,0.000,0.000
1643293299726344192,2022-01-27-14:21:39,10.1.1.9,31,-0.450,-0.450,-0.450,0.000,0.000,0.000
1643293299925576960,2022-01-27-14:21:39,10.1.1.9,29,-0.461,-0.461,-0.461,0.000,0.000,0.000
1643293300125689856,2022-01-27-14:21:40,10.1.1.9,29,-0.471,-0.471,-0.471,0.000,0.000,0.000
1643293300325373952,2022-01-27-14:21:40,10.1.1.9,27,-0.480,-0.480,-0.480,0.000,0.000,0.000
1643293300507474944,2022-01-27-14:21:40,10.1.1.9,8,-0.489,-0.489,-0.489,0.000,0.000,0.000
1643293300726063872,2022-01-27-14:21:40,10.1.1.9,27,-0.480,-0.480,-0.480,0.000,0.000,0.000
1643293300926475008,2022-01-27-14:21:40,10.1.1.9,27,-0.470,-0.470,-0.470,0.000,0.000,0.000
1643293301146177024,2022-01-27-14:21:41,10.1.1.9,46,-0.459,-0.459,-0.459,0.000,0.000,0.000
1643293301335779072,2022-01-27-14:21:41,10.1.1.9,35,-0.449,-0.449,-0.449,0.000,0.000,0.000
1643293301527305984,2022-01-27-14:21:41,10.1.1.9,25,-0.440,-0.440,-0.440,0.000,0.000,0.000
1643293301746920192,2022-01-27-14:21:41,10.1.1.9,45,-0.429,-0.429,-0.429,0.000,0.000,0.000
1643293301926418944,2022-01-27-14:21:41,10.1.1.9,24,-0.420,-0.420,-0.420,0.000,0.000,0.000
1643293302145060096,2022-01-27-14:21:42,10.1.1.9,42,-0.409,-0.409,-0.409,0.000,0.000,0.000
1643293302336403968,2022-01-27-14:21:42,10.1.1.9,32,-0.400,-0.400,-0.400,0.000,0.000,0.000
1643293302546991104,2022-01-27-14:21:42,10.1.1.9,42,-0.389,-0.389,-0.389,0.000,0.000,0.000
1643293302725216000,2022-01-27-14:21:42,10.1.1.9,19,-0.380,-0.380,-0.380,0.000,0.000,0.000
1643293302936000000,2022-01-27-14:21:42,10.1.1.9,29,-0.370,-0.370,-0.370,0.000,0.000,0.000
1643293303135759104,2022-01-27-14:21:43,10.1.1.9,27,-0.360,-0.360,-0.360,0.000,0.000,0.000
1643293303336947968,2022-01-27-14:21:43,10.1.1.9,28,-0.350,-0.350,-0.350,0.000,0.000,0.000
1643293303546801152,2022-01-27-14:21:43,10.1.1.9,37,-0.339,-0.339,-0.339,0.000,0.000,0.000
1643293303745806080,2022-01-27-14:21:43,10.1.1.9,36,-0.329,-0.329,-0.329,0.000,0.000,0.000
1643293303936142080,2022-01-27-14:21:43,10.1.1.9,26,-0.319,-0.319,-0.319,0.000,0.000,0.000
1643293304135284992,2022-01-27-14:21:44,10.1.1.9,24,-0.310,-0.310,-0.310,0.000,0.000,0.000
1643293304347570944,2022-01-27-14:21:44,10.1.1.9,35,-0.299,-0.299,-0.299,0.000,0.000,0.000
1643293304557174016,2022-01-27-14:21:44,10.1.1.9,44,-0.290,-0.290,-0.290,0.000,0.000,0.000
1643293304746992128,2022-01-27-14:21:44,10.1.1.9,33,-0.279,-0.279,-0.279,0.000,0.000,0.000
1643293304979806976,2022-01-27-14:21:44,10.1.1.9,65,-0.268,-0.268,-0.268,0.000,0.000,0.000
1643293305166516992,2022-01-27-14:21:45,10.1.1.9,48,-0.259,-0.259,-0.259,0.000,0.000,0.000
1643293305368065024,2022-01-27-14:21:45,10.1.1.9,49,-0.249,-0.249,-0.249,0.000,0.000,0.000
1643293305566672128,2022-01-27-14:21:45,10.1.1.9,46,-0.239,-0.239,-0.239,0.000,0.000,0.000
1643293305746149120,2022-01-27-14:21:45,10.1.1.9,25,-0.230,-0.230,-0.230,0.000,0.000,0.000
1643293305946681856,2022-01-27-14:21:45,10.1.1.9,25,-0.220,-0.220,-0.220,0.000,0.000,0.000
1643293306154913024,2022-01-27-14:21:46,10.1.1.9,33,-0.209,-0.209,-0.209,0.000,0.000,0.000
1643293306346955008,2022-01-27-14:21:46,10.1.1.9,24,-0.200,-0.200,-0.200,0.000,0.000,0.000
1643293306547590144,2022-01-27-14:21:46,10.1.1.9,24,-0.190,-0.190,-0.190,0.000,0.000,0.000
1643293306765587200,2022-01-27-14:21:46,10.1.1.9,42,-0.179,-0.179,-0.179,0.000,0.000,0.000
1643293306967264000,2022-01-27-14:21:46,10.1.1.9,43,-0.169,-0.169,-0.169,0.000,0.000,0.000
1643293307145328896,2022-01-27-14:21:47,10.1.1.9,21,-0.160,-0.160,-0.160,0.000,0.000,0.000
1643293307366625024,2022-01-27-14:21:47,10.1.1.9,42,-0.149,-0.149,-0.149,0.000,0.000,0.000
1643293307565747968,2022-01-27-14:21:47,10.1.1.9,38,-0.139,-0.139,-0.139,0.000,0.000,0.000
1643293307759782912,2022-01-27-14:21:47,10.1.1.9,30,-0.130,-0.130,-0.130,0.000,0.000,0.000
1643293307965859840,2022-01-27-14:21:47,10.1.1.9,34,-0.119,-0.119,-0.119,0.000,0.000,0.000
1643293308168214016,2022-01-27-14:21:48,10.1.1.9,36,-0.109,-0.109,-0.109,0.000,0.000,0.000
1643293308367367936,2022-01-27-14:21:48,10.1.1.9,35,-0.099,-0.099,-0.099,0.000,0.000,0.000
1643293308567308800,2022-01-27-14:21:48,10.1.1.9,33,-0.089,-0.089,-0.089,0.000,0.000,0.000
1643293308767267840,2022-01-27-14:21:48,10.1.1.9,32,-0.079,-0.079,-0.079,0.000,0.000,0.000
1643293308967708160,2022-01-27-14:21:48,10.1.1.9,32,-0.069,-0.069,-0.069,0.000,0.000,0.000
1643293309166788096,2022-01-27-14:21:49,10.1.1.9,30,-0.059,-0.059,-0.059,0.000,0.000,0.000
1643293309367124992,2022-01-27-14:21:49,10.1.1.9,30,-0.049,-0.049,-0.049,0.000,0.000,0.000
1643293309567842048,2022-01-27-14:21:49,10.1.1.9,30,-0.040,-0.040,-0.040,0.000,0.000,0.000
1643293309767085056,2022-01-27-14:21:49,10.1.1.9,29,-0.030,-0.030,-0.030,0.000,0.000,0.000
1643293309975271936,2022-01-27-14:21:49,10.1.1.9,37,-0.019,-0.019,-0.019,0.000,0.000,0.000
1643293310166747136,2022-01-27-14:21:50,10.1.1.9,27,-0.010,-0.010,-0.010,0.000,0.000,0.000
1643293310355319040,2022-01-27-14:21:50,10.1.1.9,14,-0.000,-0.000,-0.000,0.000,0.000,0.000
1643293310566843136,2022-01-27-14:21:50,10.1.1.9,24,-0.010,-0.010,-0.010,0.000,0.000,0.000
1643293310785501952,2022-01-27-14:21:50,10.1.1.9,42,-0.021,-0.021,-0.021,0.000,0.000,0.000
1643293310986078976,2022-01-27-14:21:50,10.1.1.9,41,-0.031,-0.031,-0.031,0.000,0.000,0.000
1643293311167421952,2022-01-27-14:21:51,10.1.1.9,21,-0.040,-0.040,-0.040,0.000,0.000,0.000
1643293311385252864,2022-01-27-14:21:51,10.1.1.9,37,-0.051,-0.051,-0.051,0.000,0.000,0.000
1643293311586075904,2022-01-27-14:21:51,10.1.1.9,38,-0.061,-0.061,-0.061,0.000,0.000,0.000
1643293311775321856,2022-01-27-14:21:51,10.1.1.9,26,-0.070,-0.070,-0.070,0.000,0.000,0.000
1643293311986429952,2022-01-27-14:21:51,10.1.1.9,36,-0.081,-0.081,-0.081,0.000,0.000,0.000
1643293312175065088,2022-01-27-14:21:52,10.1.1.9,25,-0.090,-0.090,-0.090,0.000,0.000,0.000
1643293312375160064,2022-01-27-14:21:52,10.1.1.9,25,-0.100,-0.100,-0.100,0.000,0.000,0.000
1643293312586740992,2022-01-27-14:21:52,10.1.1.9,36,-0.111,-0.111,-0.111,0.000,0.000,0.000
1643293312786758912,2022-01-27-14:21:52,10.1.1.9,35,-0.121,-0.121,-0.121,0.000,0.000,0.000
1643293312985627904,2022-01-27-14:21:52,10.1.1.9,33,-0.131,-0.131,-0.131,0.000,0.000,0.000
1643293313186259968,2022-01-27-14:21:53,10.1.1.9,32,-0.141,-0.141,-0.141,0.000,0.000,0.000
1643293313386681088,2022-01-27-14:21:53,10.1.1.9,33,-0.151,-0.151,-0.151,0.000,0.000,0.000
1643293313575702016,2022-01-27-14:21:53,10.1.1.9,20,-0.160,-0.160,-0.160,0.000,0.000,0.000
1643293313786371840,2022-01-27-14:21:53,10.1.1.9,31,-0.170,-0.170,-0.170,0.000,0.000,0.000
1643293313985289984,2022-01-27-14:21:53,10.1.1.9,29,-0.181,-0.181,-0.181,0.000,0.000,0.000
1643293314187459840,2022-01-27-14:21:54,10.1.1.9,31,-0.191,-0.191,-0.191,0.000,0.000,0.000
1643293314407888896,2022-01-27-14:21:54,10.1.1.9,50,-0.201,-0.201,-0.201,0.000,0.000,0.000
1643293314586222848,2022-01-27-14:21:54,10.1.1.9,28,-0.210,-0.210,-0.210,0.000,0.000,0.000
1643293314785805056,2022-01-27-14:21:54,10.1.1.9,27,-0.220,-0.220,-0.220,0.000,0.000,0.000
1643293314985943040,2022-01-27-14:21:54,10.1.1.9,26,-0.230,-0.230,-0.230,0.000,0.000,0.000
1643293315184988928,2022-01-27-14:21:55,10.1.1.9,25,-0.240,-0.240,-0.240,0.000,0.000,0.000
1643293315387685120,2022-01-27-14:21:55,10.1.1.9,25,-0.250,-0.250,-0.250,0.000,0.000,0.000
1643293315585808128,2022-01-27-14:21:55,10.1.1.9,24,-0.260,-0.260,-0.260,0.000,0.000,0.000
1643293315786907904,2022-01-27-14:21:55,10.1.1.9,25,-0.270,-0.270,-0.270,0.000,0.000,0.000
1643293315987323136,2022-01-27-14:21:55,10.1.1.9,24,-0.280,-0.280,-0.280,0.000,0.000,0.000
1643293316207582976,2022-01-27-14:21:56,10.1.1.9,44,-0.291,-0.291,-0.291,0.000,0.000,0.000
1643293316405340928,2022-01-27-14:21:56,10.1.1.9,41,-0.301,-0.301,-0.301,0.000,0.000,0.000
1643293316605662976,2022-01-27-14:21:56,10.1.1.9,41,-0.311,-0.311,-0.311,0.000,0.000,0.000
1643293316785157888,2022-01-27-14:21:56,10.1.1.9,20,-0.320,-0.320,-0.320,0.000,0.000,0.000
1643293317006433024,2022-01-27-14:21:57,10.1.1.9,40,-0.331,-0.331,-0.331,0.000,0.000,0.000
1643293317205970944,2022-01-27-14:21:57,10.1.1.9,39,-0.341,-0.341,-0.341,0.000,0.000,0.000
1643293317409723136,2022-01-27-14:21:57,10.1.1.9,38,-0.351,-0.351,-0.351,0.000,0.000,0.000
1643293317625186816,2022-01-27-14:21:57,10.1.1.9,37,-0.361,-0.361,-0.361,0.000,0.000,0.000
1643293317825889024,2022-01-27-14:21:57,10.1.1.9,36,-0.371,-0.371,-0.371,0.000,0.000,0.000
1643293318028567040,2022-01-27-14:21:58,10.1.1.9,39,-0.381,-0.381,-0.381,0.000,0.000,0.000
1643293318225007104,2022-01-27-14:21:58,10.1.1.9,35,-0.391,-0.391,-0.391,0.000,0.000,0.000
1643293318426848000,2022-01-27-14:21:58,10.1.1.9,35,-0.401,-0.401,-0.401,0.000,0.000,0.000
1643293318627628032,2022-01-27-14:21:58,10.1.1.9,36,-0.411,-0.411,-0.411,0.000,0.000,0.000
1643293318824742912,2022-01-27-14:21:58,10.1.1.9,32,-0.421,-0.421,-0.421,0.000,0.000,0.000
1643293319027401984,2022-01-27-14:21:59,10.1.1.9,31,-0.431,-0.431,-0.431,0.000,0.000,0.000
1643293319216134912,2022-01-27-14:21:59,10.1.1.9,21,-0.440,-0.440,-0.440,0.000,0.000,0.000
1643293319425740032,2022-01-27-14:21:59,10.1.1.9,28,-0.450,-0.450,-0.450,0.000,0.000,0.000
1643293319636873984,2022-01-27-14:21:59,10.1.1.9,38,-0.461,-0.461,-0.461,0.000,0.000,0.000
1643293319836656128,2022-01-27-14:21:59,10.1.1.9,37,-0.471,-0.471,-0.471,0.000,0.000,0.000
1643293320027427840,2022-01-27-14:22:00,10.1.1.9,28,-0.480,-0.480,-0.480,0.000,0.000,0.000
1643293320225656064,2022-01-27-14:22:00,10.1.1.9,25,-0.490,-0.490,-0.490,0.000,0.000,0.000
1643293320435030016,2022-01-27-14:22:00,10.1.1.9,33,-0.479,-0.479,-0.479,0.000,0.000,0.000
1643293320629555968,2022-01-27-14:22:00,10.1.1.9,27,-0.470,-0.470,-0.470,0.000,0.000,0.000
1643293320847856128,2022-01-27-14:22:00,10.1.1.9,45,-0.459,-0.459,-0.459,0.000,0.000,0.000
1643293321028826880,2022-01-27-14:22:01,10.1.1.9,25,-0.450,-0.450,-0.450,0.000,0.000,0.000
1643293321229012992,2022-01-27-14:22:01,10.1.1.9,24,-0.440,-0.440,-0.440,0.000,0.000,0.000
1643293321447000064,2022-01-27-14:22:01,10.1.1.9,39,-0.429,-0.429,-0.429,0.000,0.000,0.000
1643293321647000064,2022-01-27-14:22:01,10.1.1.9,38,-0.419,-0.419,-0.419,0.000,0.000,0.000
1643293321848035072,2022-01-27-14:22:01,10.1.1.9,38,-0.409,-0.409,-0.409,0.000,0.000,0.000
1643293322049665024,2022-01-27-14:22:02,10.1.1.9,39,-0.399,-0.399,-0.399,0.000,0.000,0.000
1643293322247469056,2022-01-27-14:22:02,10.1.1.9,37,-0.389,-0.389,-0.389,0.000,0.000,0.000
1643293322448751872,2022-01-27-14:22:02,10.1.1.9,37,-0.379,-0.379,-0.379,0.000,0.000,0.000
1643293322650160128,2022-01-27-14:22:02,10.1.1.9,38,-0.369,-0.369,-0.369,0.000,0.000,0.000
1643293322839886848,2022-01-27-14:22:02,10.1.1.9,27,-0.360,-0.360,-0.360,0.000,0.000,0.000
1643293323047792896,2022-01-27-14:22:03,10.1.1.9,34,-0.350,-0.350,-0.350,0.000,0.000,0.000
1643293323249854976,2022-01-27-14:22:03,10.1.1.9,34,-0.340,-0.340,-0.340,0.000,0.000,0.000
1643293323449490944,2022-01-27-14:22:03,10.1.1.9,32,-0.330,-0.330,-0.330,0.000,0.000,0.000
1643293323648222976,2022-01-27-14:22:03,10.1.1.9,29,-0.320,-0.320,-0.320,0.000,0.000,0.000
1643293323869793792,2022-01-27-14:22:03,10.1.1.9,50,-0.309,-0.309,-0.309,0.000,0.000,0.000
1643293324049293056,2022-01-27-14:22:04,10.1.1.9,27,-0.300,-0.300,-0.300,0.000,0.000,0.000
1643293324267715072,2022-01-27-14:22:04,10.1.1.9,44,-0.289,-0.289,-0.289,0.000,0.000,0.000
1643293324467008000,2022-01-27-14:22:04,10.1.1.9,36,-0.279,-0.279,-0.279,0.000,0.000,0.000
1643293324659493888,2022-01-27-14:22:04,10.1.1.9,28,-0.270,-0.270,-0.270,0.000,0.000,0.000
1643293324868967936,2022-01-27-14:22:04,10.1.1.9,37,-0.259,-0.259,-0.259,0.000,0.000,0.000
1643293325068558848,2022-01-27-14:22:05,10.1.1.9,36,-0.249,-0.249,-0.249,0.000,0.000,0.000
1643293325267083008,2022-01-27-14:22:05,10.1.1.9,33,-0.239,-0.239,-0.239,0.000,0.000,0.000
1643293325468385024,2022-01-27-14:22:05,10.1.1.9,34,-0.230,-0.230,-0.230,0.000,0.000,0.000
1643293325665625088,2022-01-27-14:22:05,10.1.1.9,30,-0.219,-0.219,-0.219,0.000,0.000,0.000
1643293325865705984,2022-01-27-14:22:05,10.1.1.9,28,-0.210,-0.210,-0.210,0.000,0.000,0.000
1643293326066196992,2022-01-27-14:22:06,10.1.1.9,28,-0.200,-0.200,-0.200,0.000,0.000,0.000
1643293326286168064,2022-01-27-14:22:06,10.1.1.9,48,-0.189,-0.189,-0.189,0.000,0.000,0.000
1643293326468404992,2022-01-27-14:22:06,10.1.1.9,29,-0.180,-0.180,-0.180,0.000,0.000,0.000
1643293326677510912,2022-01-27-14:22:06,10.1.1.9,37,-0.169,-0.169,-0.169,0.000,0.000,0.000
1643293326887326976,2022-01-27-14:22:06,10.1.1.9,46,-0.159,-0.159,-0.159,0.000,0.000,0.000
1643293327087650048,2022-01-27-14:22:07,10.1.1.9,46,-0.149,-0.149,-0.149,0.000,0.000,0.000
1643293327270191872,2022-01-27-14:22:07,10.1.1.9,28,-0.140,-0.140,-0.140,0.000,0.000,0.000
1643293327466701056,2022-01-27-14:22:07,10.1.1.9,23,-0.130,-0.130,-0.130,0.000,0.000,0.000
1643293327666951936,2022-01-27-14:22:07,10.1.1.9,22,-0.120,-0.120,-0.120,0.000,0.000,0.000
1643293327875782912,2022-01-27-14:22:07,10.1.1.9,30,-0.110,-0.110,-0.110,0.000,0.000,0.000
1643293328068395008,2022-01-27-14:22:08,10.1.1.9,22,-0.100,-0.100,-0.100,0.000,0.000,0.000
1643293328267208192,2022-01-27-14:22:08,10.1.1.9,19,-0.090,-0.090,-0.090,0.000,0.000,0.000
1643293328475137024,2022-01-27-14:22:08,10.1.1.9,26,-0.080,-0.080,-0.080,0.000,0.000,0.000
1643293328688795136,2022-01-27-14:22:08,10.1.1.9,36,-0.069,-0.069,-0.069,0.000,0.000,0.000
1643293328887828224,2022-01-27-14:22:08,10.1.1.9,33,-0.059,-0.059,-0.059,0.000,0.000,0.000
1643293329086766080,2022-01-27-14:22:09,10.1.1.9,31,-0.049,-0.049,-0.049,0.000,0.000,0.000
1643293329309051904,2022-01-27-14:22:09,10.1.1.9,51,-0.039,-0.039,-0.039,0.000,0.000,0.000
1643293329506576128,2022-01-27-14:22:09,10.1.1.9,48,-0.029,-0.029,-0.029,0.000,0.000,0.000
1643293329688025088,2022-01-27-14:22:09,10.1.1.9,26,-0.020,-0.020,-0.020,0.000,0.000,0.000
1643293329888435968,2022-01-27-14:22:09,10.1.1.9,28,-0.010,-0.010,-0.010,0.000,0.000,0.000
1643293330076497152,2022-01-27-14:22:10,10.1.1.9,14,-0.000,-0.000,-0.000,0.000,0.000,0.000
1643293330288428032,2022-01-27-14:22:10,10.1.1.9,27,-0.010,-0.010,-0.010,0.000,0.000,0.000
1643293330489185024,2022-01-27-14:22:10,10.1.1.9,26,-0.020,-0.020,-0.020,0.000,0.000,0.000
1643293330693357824,2022-01-27-14:22:10,10.1.1.9,29,-0.030,-0.030,-0.030,0.000,0.000,0.000
1643293330908062976,2022-01-27-14:22:10,10.1.1.9,44,-0.041,-0.041,-0.041,0.000,0.000,0.000
1643293331090416896,2022-01-27-14:22:11,10.1.1.9,25,-0.050,-0.050,-0.050,0.000,0.000,0.000
1643293331308829184,2022-01-27-14:22:11,10.1.1.9,41,-0.061,-0.061,-0.061,0.000,0.000,0.000
1643293331509272064,2022-01-27-14:22:11,10.1.1.9,39,-0.071,-0.071,-0.071,0.000,0.000,0.000
1643293331708104960,2022-01-27-14:22:11,10.1.1.9,34,-0.081,-0.081,-0.081,0.000,0.000,0.000
