FedericoMungari/DigitalTwin_service/01_WiredScenario/Output/Output_script/script_rosapi_2_output_robots12_freq0_6.txt
timestamp,date,node,latency,joint_1,joint_2,joint_3,joint_4,joint_5,joint_6
1644375362150093056,2022-02-09-02:56:02,10.1.1.7,-60,-0.100,-0.100,-0.100,0.000,-0.000,-0.000
1644375366912688896,2022-02-09-02:56:06,10.1.1.7,-4,-0.100,-0.100,-0.100,0.000,-0.000,-0.000
1644375371114053888,2022-02-09-02:56:10,10.1.1.7,5,-0.100,-0.100,-0.100,0.000,-0.000,-0.000
1644375375188385024,2022-02-09-02:56:15,10.1.1.7,-8,-0.100,-0.100,-0.100,0.000,-0.000,-0.000
1644375381524730880,2022-02-09-02:56:19,10.1.1.7,-4,-0.100,-0.100,-0.100,0.000,-0.000,-0.000
1644375387162846208,2022-02-09-02:56:25,10.1.1.7,-11,-0.100,-0.100,-0.100,0.000,-0.000,-0.000
1644375392876732160,2022-02-09-02:56:31,10.1.1.7,-4,-0.100,-0.100,-0.100,0.000,-0.000,-0.000
1644375398627147008,2022-02-09-02:56:37,10.1.1.7,-44,-0.100,-0.100,-0.100,0.000,-0.000,-0.000
1644375403713356032,2022-02-09-02:56:42,10.1.1.7,0,-0.100,-0.100,-0.100,0.000,-0.000,-0.000
1644375409530172160,2022-02-09-02:56:47,10.1.1.7,4,-0.100,-0.100,-0.100,0.000,-0.000,-0.000
1644375414365251072,2022-02-09-02:56:53,10.1.1.7,-12,-0.100,-0.100,-0.100,0.000,-0.000,-0.000
1644375419834862848,2022-02-09-02:56:59,10.1.1.7,-12,-0.100,-0.100,-0.100,0.000,-0.000,-0.000
1644375428092689920,2022-02-09-02:57:04,10.1.1.7,-10,-0.100,-0.100,-0.100,0.000,-0.000,-0.000
1644375433817715968,2022-02-09-02:57:12,10.1.1.7,-8,-0.100,-0.100,-0.100,0.000,-0.000,-0.000
1644375438158790144,2022-02-09-02:57:18,10.1.1.7,-4,-0.100,-0.100,-0.100,0.000,-0.000,-0.000
1644375442287162112,2022-02-09-02:57:22,10.1.1.7,-2,-0.100,-0.100,-0.100,0.000,-0.000,-0.000
1644375446320770048,2022-02-09-02:57:26,10.1.1.7,2,-0.100,-0.100,-0.100,0.000,-0.000,-0.000
1644375450364036096,2022-02-09-02:57:30,10.1.1.7,-3,-0.100,-0.100,-0.100,0.000,-0.000,-0.000
1644375454458863104,2022-02-09-02:57:34,10.1.1.7,-6,-0.100,-0.100,-0.100,0.000,-0.000,-0.000
1644375459705647872,2022-02-09-02:57:38,10.1.1.7,-5,-0.100,-0.100,-0.100,0.000,-0.000,-0.000
1644375464161868032,2022-02-09-02:57:43,10.1.1.7,-2,-0.100,-0.100,-0.100,0.000,-0.000,-0.000
1644375468445725952,2022-02-09-02:57:48,10.1.1.7,-12,-0.100,-0.100,-0.100,0.000,-0.000,-0.000
1644375472819998976,2022-02-09-02:57:52,10.1.1.7,-13,-0.100,-0.100,-0.100,0.000,-0.000,-0.000
1644375478673393920,2022-02-09-02:57:56,10.1.1.7,-2,-0.100,-0.100,-0.100,0.000,-0.000,-0.000
1644375484802785024,2022-02-09-02:58:03,10.1.1.7,-4,-0.100,-0.100,-0.100,0.000,-0.000,-0.000
1644375492898091008,2022-02-09-02:58:09,10.1.1.7,-5,-0.100,-0.100,-0.100,0.000,-0.000,-0.000
1644375498408499968,2022-02-09-02:58:18,10.1.1.7,-2,-0.100,-0.100,-0.100,0.000,-0.000,-0.000
1644375503340960000,2022-02-09-02:58:22,10.1.1.7,-1,-0.100,-0.100,-0.100,0.000,-0.000,-0.000
1644375509534007040,2022-02-09-02:58:27,10.1.1.7,-2,-0.100,-0.100,-0.100,0.000,-0.000,-0.000
1644375516910126848,2022-02-09-02:58:33,10.1.1.7,2,-0.100,-0.100,-0.100,0.000,-0.000,-0.000
1644375524176781824,2022-02-09-02:58:41,10.1.1.7,-9,-0.100,-0.100,-0.100,0.000,-0.000,-0.000
1644375532942243072,2022-02-09-02:58:48,10.1.1.7,-4,-0.100,-0.100,-0.100,0.000,-0.000,-0.000
1644375540031213056,2022-02-09-02:58:57,10.1.1.7,-2,-0.100,-0.100,-0.100,0.000,-0.000,-0.000
1644375557940391168,2022-02-09-02:59:15,10.1.1.7,3,-0.100,-0.100,-0.100,0.000,-0.000,-0.000
1644375570267857920,2022-02-09-02:59:25,10.1.1.7,-94,-0.100,-0.100,-0.100,0.000,-0.000,-0.000
1644375578965944064,2022-02-09-02:59:34,10.1.1.7,-9,-0.100,-0.100,-0.100,0.000,-0.000,-0.000
1644375590472239104,2022-02-09-02:59:43,10.1.1.7,-18,-0.100,-0.100,-0.100,0.000,-0.000,-0.000
1644375602874938880,2022-02-09-02:59:59,10.1.1.7,-1279,-0.100,-0.100,-0.100,0.000,-0.000,-0.000
1644375621302778112,2022-02-09-03:00:14,10.1.1.7,4,-0.100,-0.100,-0.100,0.000,-0.000,-0.000
1644375643990781952,2022-02-09-03:00:35,10.1.1.7,-14,-0.100,-0.100,-0.100,0.000,-0.000,-0.000
1644375649021747968,2022-02-09-03:00:49,10.1.1.7,5,-0.100,-0.100,-0.100,0.000,-0.000,-0.000
1644375653452352000,2022-02-09-03:00:53,10.1.1.7,-3,-0.100,-0.100,-0.100,0.000,-0.000,-0.000
1644375657516755200,2022-02-09-03:00:57,10.1.1.7,-36,-0.100,-0.100,-0.100,0.000,-0.000,-0.000
1644375665937690880,2022-02-09-03:01:01,10.1.1.7,-9,-0.100,-0.100,-0.100,0.000,-0.000,-0.000
1644375670327377152,2022-02-09-03:01:10,10.1.1.7,-5,-0.100,-0.100,-0.100,0.000,-0.000,-0.000
1644375675422939904,2022-02-09-03:01:14,10.1.1.7,-9,-0.100,-0.100,-0.100,0.000,-0.000,-0.000
1644375679570189056,2022-02-09-03:01:19,10.1.1.7,-4,-0.100,-0.100,-0.100,0.000,-0.000,-0.000
1644375683638029056,2022-02-09-03:01:23,10.1.1.7,-10,-0.100,-0.100,-0.100,0.000,-0.000,-0.000
1644375687702336000,2022-02-09-03:01:27,10.1.1.7,-8,-0.100,-0.100,-0.100,0.000,-0.000,-0.000
1644375692724338176,2022-02-09-03:01:32,10.1.1.7,-45,-0.100,-0.100,-0.100,0.000,-0.000,-0.000
1644375698708684800,2022-02-09-03:01:37,10.1.1.7,-48,-0.100,-0.100,-0.100,0.000,-0.000,-0.000
1644375708227428864,2022-02-09-03:01:43,10.1.1.7,-2,-0.100,-0.100,-0.100,0.000,-0.000,-0.000
1644375725782285824,2022-02-09-03:01:59,10.1.1.7,-3332,-0.100,-0.100,-0.100,0.000,-0.000,-0.000
1644375745827064064,2022-02-09-03:02:18,10.1.1.7,-295,-0.100,-0.100,-0.100,0.000,-0.000,-0.000
1644375778596708096,2022-02-09-03:02:50,10.1.1.7,-4,-0.100,-0.100,-0.100,0.000,-0.000,-0.000
1644375784122307072,2022-02-09-03:03:04,10.1.1.7,-9,-0.100,-0.100,-0.100,0.000,-0.000,-0.000
1644375788163032064,2022-02-09-03:03:08,10.1.1.7,0,-0.100,-0.100,-0.100,0.000,-0.000,-0.000
1644375792422734848,2022-02-09-03:03:12,10.1.1.7,-8,-0.100,-0.100,-0.100,0.000,-0.000,-0.000
1644375811072542976,2022-02-09-03:03:16,10.1.1.7,2,-0.100,-0.100,-0.100,0.000,-0.000,-0.000
1644375817603037952,2022-02-09-03:03:37,10.1.1.7,-10,-0.100,-0.100,-0.100,0.000,-0.000,-0.000
1644375821642649856,2022-02-09-03:03:41,10.1.1.7,-10,-0.100,-0.100,-0.100,0.000,-0.000,-0.000
1644375825703531008,2022-02-09-03:03:45,10.1.1.7,-9,-0.100,-0.100,-0.100,0.000,-0.000,-0.000
1644375829926044928,2022-02-09-03:03:49,10.1.1.7,-20,-0.100,-0.100,-0.100,0.000,-0.000,-0.000
1644375833922332160,2022-02-09-03:03:53,10.1.1.7,-3,-0.100,-0.100,-0.100,0.000,-0.000,-0.000
1644375837943270912,2022-02-09-03:03:57,10.1.1.7,-7,-0.100,-0.100,-0.100,0.000,-0.000,-0.000
1644375841962356992,2022-02-09-03:04:01,10.1.1.7,-11,-0.100,-0.100,-0.100,0.000,-0.000,-0.000
1644375845983008000,2022-02-09-03:04:05,10.1.1.7,-10,-0.100,-0.100,-0.100,0.000,-0.000,-0.000
1644375850003995904,2022-02-09-03:04:10,10.1.1.7,-11,-0.100,-0.100,-0.100,0.000,-0.000,-0.000
1644375854046792960,2022-02-09-03:04:14,10.1.1.7,-3,-0.100,-0.100,-0.100,0.000,-0.000,-0.000
1644375858144256000,2022-02-09-03:04:18,10.1.1.7,-5,-0.100,-0.100,-0.100,0.000,-0.000,-0.000
1644375862163017984,2022-02-09-03:04:22,10.1.1.7,-3,-0.100,-0.100,-0.100,0.000,-0.000,-0.000
1644375866183588864,2022-02-09-03:04:26,10.1.1.7,-3,-0.100,-0.100,-0.100,0.000,-0.000,-0.000
1644375870202953216,2022-02-09-03:04:30,10.1.1.7,-4,-0.100,-0.100,-0.100,0.000,-0.000,-0.000
1644375874223427072,2022-02-09-03:04:34,10.1.1.7,-4,-0.100,-0.100,-0.100,0.000,-0.000,-0.000
1644375878243452160,2022-02-09-03:04:38,10.1.1.7,-4,-0.100,-0.100,-0.100,0.000,-0.000,-0.000
1644375882263744000,2022-02-09-03:04:42,10.1.1.7,-4,-0.100,-0.100,-0.100,0.000,-0.000,-0.000
1644375886282917888,2022-02-09-03:04:46,10.1.1.7,-2,-0.100,-0.100,-0.100,0.000,-0.000,-0.000
1644375890303142912,2022-02-09-03:04:50,10.1.1.7,-1,-0.100,-0.100,-0.100,0.000,-0.000,-0.000
1644375894323385856,2022-02-09-03:04:54,10.1.1.7,0,-0.100,-0.100,-0.100,0.000,-0.000,-0.000
1644375898347392000,2022-02-09-03:04:58,10.1.1.7,1,-0.100,-0.100,-0.100,0.000,-0.000,-0.000
1644375902365816064,2022-02-09-03:05:02,10.1.1.7,2,-0.100,-0.100,-0.100,0.000,-0.000,-0.000
1644375906382937856,2022-02-09-03:05:06,10.1.1.7,-12,-0.100,-0.100,-0.100,0.000,-0.000,-0.000
1644375910490757888,2022-02-09-03:05:10,10.1.1.7,-1,-0.100,-0.100,-0.100,0.000,-0.000,-0.000
1644375914508711168,2022-02-09-03:05:14,10.1.1.7,0,-0.100,-0.100,-0.100,0.000,-0.000,-0.000
1644375918523059968,2022-02-09-03:05:18,10.1.1.7,-12,-0.100,-0.100,-0.100,0.000,-0.000,-0.000
1644375922545028864,2022-02-09-03:05:22,10.1.1.7,-11,-0.100,-0.100,-0.100,0.000,-0.000,-0.000
1644375926583585024,2022-02-09-03:05:26,10.1.1.7,5,-0.100,-0.100,-0.100,0.000,-0.000,-0.000
1644375930603569920,2022-02-09-03:05:30,10.1.1.7,0,-0.100,-0.100,-0.100,0.000,-0.000,-0.000
1644375934623712000,2022-02-09-03:05:34,10.1.1.7,-8,-0.100,-0.100,-0.100,0.000,-0.000,-0.000
1644375938643918080,2022-02-09-03:05:38,10.1.1.7,-10,-0.100,-0.100,-0.100,0.000,-0.000,-0.000
1644375942664359168,2022-02-09-03:05:42,10.1.1.7,-11,-0.100,-0.100,-0.100,0.000,-0.000,-0.000
1644375946683613952,2022-02-09-03:05:46,10.1.1.7,-11,-0.100,-0.100,-0.100,0.000,-0.000,-0.000
1644375950704317184,2022-02-09-03:05:50,10.1.1.7,-9,-0.100,-0.100,-0.100,0.000,-0.000,-0.000
1644375954743272960,2022-02-09-03:05:54,10.1.1.7,-11,-0.100,-0.100,-0.100,0.000,-0.000,-0.000
1644375958784374016,2022-02-09-03:05:58,10.1.1.7,-5,-0.100,-0.100,-0.100,0.000,-0.000,-0.000
1644375962803739136,2022-02-09-03:06:02,10.1.1.7,-7,-0.100,-0.100,-0.100,0.000,-0.000,-0.000
1644375966843395072,2022-02-09-03:06:06,10.1.1.7,3,-0.100,-0.100,-0.100,0.000,-0.000,-0.000
1644375970863473920,2022-02-09-03:06:10,10.1.1.7,-14,-0.100,-0.100,-0.100,0.000,-0.000,-0.000
1644375974904262144,2022-02-09-03:06:14,10.1.1.7,0,-0.100,-0.100,-0.100,0.000,-0.000,-0.000
1644375978924606976,2022-02-09-03:06:18,10.1.1.7,-16,-0.100,-0.100,-0.100,0.000,-0.000,-0.000
1644375982963332864,2022-02-09-03:06:22,10.1.1.7,-7,-0.100,-0.100,-0.100,0.000,-0.000,-0.000
1644375986984903936,2022-02-09-03:06:26,10.1.1.7,-9,-0.100,-0.100,-0.100,0.000,-0.000,-0.000
1644375991023255040,2022-02-09-03:06:31,10.1.1.7,-2,-0.100,-0.100,-0.100,0.000,-0.000,-0.000
1644375995043981056,2022-02-09-03:06:35,10.1.1.7,-3,-0.100,-0.100,-0.100,0.000,-0.000,-0.000
1644375999083504896,2022-02-09-03:06:39,10.1.1.7,-2,-0.100,-0.100,-0.100,0.000,-0.000,-0.000
1644376003103725056,2022-02-09-03:06:43,10.1.1.7,-2,-0.100,-0.100,-0.100,0.000,-0.000,-0.000
1644376007123422976,2022-02-09-03:06:47,10.1.1.7,-6,-0.100,-0.100,-0.100,0.000,-0.000,-0.000
1644376011162857984,2022-02-09-03:06:51,10.1.1.7,-13,-0.100,-0.100,-0.100,0.000,-0.000,-0.000
1644376015203845120,2022-02-09-03:06:55,10.1.1.7,5,-0.100,-0.100,-0.100,0.000,-0.000,-0.000
1644376019223556096,2022-02-09-03:06:59,10.1.1.7,-9,-0.100,-0.100,-0.100,0.000,-0.000,-0.000
1644376023268413952,2022-02-09-03:07:03,10.1.1.7,-5,-0.100,-0.100,-0.100,0.000,-0.000,-0.000
1644376027305022976,2022-02-09-03:07:07,10.1.1.7,1,-0.100,-0.100,-0.100,0.000,-0.000,-0.000
1644376031323899136,2022-02-09-03:07:11,10.1.1.7,-10,-0.100,-0.100,-0.100,0.000,-0.000,-0.000
1644376035363714816,2022-02-09-03:07:15,10.1.1.7,-2,-0.100,-0.100,-0.100,0.000,-0.000,-0.000
1644376039384023040,2022-02-09-03:07:19,10.1.1.7,-15,-0.100,-0.100,-0.100,0.000,-0.000,-0.000
1644376043423898880,2022-02-09-03:07:23,10.1.1.7,-9,-0.100,-0.100,-0.100,0.000,-0.000,-0.000
1644376047443734016,2022-02-09-03:07:27,10.1.1.7,-14,-0.100,-0.100,-0.100,0.000,-0.000,-0.000
1644376051484091904,2022-02-09-03:07:31,10.1.1.7,-1,-0.100,-0.100,-0.100,0.000,-0.000,-0.000
1644376055504737024,2022-02-09-03:07:35,10.1.1.7,-3,-0.100,-0.100,-0.100,0.000,-0.000,-0.000
1644376059523986176,2022-02-09-03:07:39,10.1.1.7,-2,-0.100,-0.100,-0.100,0.000,-0.000,-0.000
1644376063544559872,2022-02-09-03:07:43,10.1.1.7,-8,-0.100,-0.100,-0.100,0.000,-0.000,-0.000
1644376067564615936,2022-02-09-03:07:47,10.1.1.7,-13,-0.100,-0.100,-0.100,0.000,-0.000,-0.000
1644376071604588032,2022-02-09-03:07:51,10.1.1.7,3,-0.100,-0.100,-0.100,0.000,-0.000,-0.000
1644376075624679168,2022-02-09-03:07:55,10.1.1.7,-3,-0.100,-0.100,-0.100,0.000,-0.000,-0.000
1644376079644562944,2022-02-09-03:07:59,10.1.1.7,-13,-0.100,-0.100,-0.100,0.000,-0.000,-0.000
1644376083664100864,2022-02-09-03:08:03,10.1.1.7,-11,-0.100,-0.100,-0.100,0.000,-0.000,-0.000
1644376087704473088,2022-02-09-03:08:07,10.1.1.7,1,-0.100,-0.100,-0.100,0.000,-0.000,-0.000
1644376091725766912,2022-02-09-03:08:11,10.1.1.7,3,-0.100,-0.100,-0.100,0.000,-0.000,-0.000
1644376095724850944,2022-02-09-03:08:15,10.1.1.7,-14,-0.100,-0.100,-0.100,0.000,-0.000,-0.000
1644376099784980992,2022-02-09-03:08:19,10.1.1.7,-11,-0.100,-0.100,-0.100,0.000,-0.000,-0.000
1644376103824430080,2022-02-09-03:08:23,10.1.1.7,-6,-0.100,-0.100,-0.100,0.000,-0.000,-0.000
1644376107843884032,2022-02-09-03:08:27,10.1.1.7,-8,-0.100,-0.100,-0.100,0.000,-0.000,-0.000
1644376111863714816,2022-02-09-03:08:31,10.1.1.7,-9,-0.100,-0.100,-0.100,0.000,-0.000,-0.000
1644376115884396032,2022-02-09-03:08:35,10.1.1.7,-12,-0.100,-0.100,-0.100,0.000,-0.000,-0.000
1644376119924355072,2022-02-09-03:08:39,10.1.1.7,-10,-0.100,-0.100,-0.100,0.000,-0.000,-0.000
1644376124004734976,2022-02-09-03:08:44,10.1.1.7,-12,-0.100,-0.100,-0.100,0.000,-0.000,-0.000
1644376128044382976,2022-02-09-03:08:48,10.1.1.7,-12,-0.100,-0.100,-0.100,0.000,-0.000,-0.000
1644376132084687104,2022-02-09-03:08:52,10.1.1.7,-13,-0.100,-0.100,-0.100,0.000,-0.000,-0.000
1644376136103809024,2022-02-09-03:08:56,10.1.1.7,-14,-0.100,-0.100,-0.100,0.000,-0.000,-0.000
1644376140126590976,2022-02-09-03:09:00,10.1.1.7,-18,-0.100,-0.100,-0.100,0.000,-0.000,-0.000
1644376144145276160,2022-02-09-03:09:04,10.1.1.7,-15,-0.100,-0.100,-0.100,0.000,-0.000,-0.000
1644376148209292032,2022-02-09-03:09:08,10.1.1.7,0,-0.100,-0.100,-0.100,0.000,-0.000,-0.000
1644376152224432896,2022-02-09-03:09:12,10.1.1.7,-9,-0.100,-0.100,-0.100,0.000,-0.000,-0.000
1644376156243730944,2022-02-09-03:09:16,10.1.1.7,-14,-0.100,-0.100,-0.100,0.000,-0.000,-0.000
1644376160283729920,2022-02-09-03:09:20,10.1.1.7,-1,-0.100,-0.100,-0.100,0.000,-0.000,-0.000
1644376164304258048,2022-02-09-03:09:24,10.1.1.7,-8,-0.100,-0.100,-0.100,0.000,-0.000,-0.000
1644376168324145152,2022-02-09-03:09:28,10.1.1.7,-9,-0.100,-0.100,-0.100,0.000,-0.000,-0.000
1644376172363457024,2022-02-09-03:09:32,10.1.1.7,-6,-0.100,-0.100,-0.100,0.000,-0.000,-0.000
1644376176383100160,2022-02-09-03:09:36,10.1.1.7,-11,-0.100,-0.100,-0.100,0.000,-0.000,-0.000
1644376180422866944,2022-02-09-03:09:40,10.1.1.7,5,-0.100,-0.100,-0.100,0.000,-0.000,-0.000
1644376184442343936,2022-02-09-03:09:44,10.1.1.7,6,-0.100,-0.100,-0.100,0.000,-0.000,-0.000
1644376188463128064,2022-02-09-03:09:48,10.1.1.7,3,-0.100,-0.100,-0.100,0.000,-0.000,-0.000
1644376192486396160,2022-02-09-03:09:52,10.1.1.7,-7,-0.100,-0.100,-0.100,0.000,-0.000,-0.000
1644376196501584896,2022-02-09-03:09:56,10.1.1.7,-10,-0.100,-0.100,-0.100,0.000,-0.000,-0.000
1644376200541743872,2022-02-09-03:10:00,10.1.1.7,4,-0.100,-0.100,-0.100,0.000,-0.000,-0.000
1644376204585254912,2022-02-09-03:10:04,10.1.1.7,-3,-0.100,-0.100,-0.100,0.000,-0.000,-0.000
1644376208621041152,2022-02-09-03:10:08,10.1.1.7,0,-0.100,-0.100,-0.100,0.000,-0.000,-0.000
1644376212661042944,2022-02-09-03:10:12,10.1.1.7,7,-0.100,-0.100,-0.100,0.000,-0.000,-0.000
1644376216700939776,2022-02-09-03:10:16,10.1.1.7,-6,-0.100,-0.100,-0.100,0.000,-0.000,-0.000
1644376220741132032,2022-02-09-03:10:20,10.1.1.7,-8,-0.100,-0.100,-0.100,0.000,-0.000,-0.000
1644376224760785152,2022-02-09-03:10:24,10.1.1.7,-8,-0.100,-0.100,-0.100,0.000,-0.000,-0.000
1644376228780008192,2022-02-09-03:10:28,10.1.1.7,-10,-0.100,-0.100,-0.100,0.000,-0.000,-0.000
1644376232820403200,2022-02-09-03:10:32,10.1.1.7,-1,-0.100,-0.100,-0.100,0.000,-0.000,-0.000
1644376236880333824,2022-02-09-03:10:36,10.1.1.7,7,-0.100,-0.100,-0.100,0.000,-0.000,-0.000
1644376240899758080,2022-02-09-03:10:40,10.1.1.7,6,-0.100,-0.100,-0.100,0.000,-0.000,-0.000
1644376244920326912,2022-02-09-03:10:44,10.1.1.7,-1,-0.100,-0.100,-0.100,0.000,-0.000,-0.000
1644376248959960064,2022-02-09-03:10:48,10.1.1.7,8,-0.100,-0.100,-0.100,0.000,-0.000,-0.000
1644376252980120832,2022-02-09-03:10:52,10.1.1.7,1,-0.100,-0.100,-0.100,0.000,-0.000,-0.000
1644376257003219968,2022-02-09-03:10:57,10.1.1.7,-7,-0.100,-0.100,-0.100,0.000,-0.000,-0.000
1644376261040069120,2022-02-09-03:11:01,10.1.1.7,1,-0.100,-0.100,-0.100,0.000,-0.000,-0.000
1644376265080001024,2022-02-09-03:11:05,10.1.1.7,7,-0.100,-0.100,-0.100,0.000,-0.000,-0.000
1644376269100052992,2022-02-09-03:11:09,10.1.1.7,6,-0.100,-0.100,-0.100,0.000,-0.000,-0.000
1644376273118947072,2022-02-09-03:11:13,10.1.1.7,3,-0.100,-0.100,-0.100,0.000,-0.000,-0.000
1644376277138382080,2022-02-09-03:11:17,10.1.1.7,3,-0.100,-0.100,-0.100,0.000,-0.000,-0.000
1644376281178610944,2022-02-09-03:11:21,10.1.1.7,-10,-0.100,-0.100,-0.100,0.000,-0.000,-0.000
1644376285239809024,2022-02-09-03:11:25,10.1.1.7,-2,-0.100,-0.100,-0.100,0.000,-0.000,-0.000
1644376289278553856,2022-02-09-03:11:29,10.1.1.7,0,-0.100,-0.100,-0.100,0.000,-0.000,-0.000
1644376293299907840,2022-02-09-03:11:33,10.1.1.7,-6,-0.100,-0.100,-0.100,0.000,-0.000,-0.000
1644376297318661888,2022-02-09-03:11:37,10.1.1.7,-7,-0.100,-0.100,-0.100,0.000,-0.000,-0.000
1644376301358004992,2022-02-09-03:11:41,10.1.1.7,9,-0.100,-0.100,-0.100,0.000,-0.000,-0.000
1644376305387805952,2022-02-09-03:11:45,10.1.1.7,1,-0.100,-0.100,-0.100,0.000,-0.000,-0.000
1644376309398361856,2022-02-09-03:11:49,10.1.1.7,-9,-0.100,-0.100,-0.100,0.000,-0.000,-0.000
1644376313416777984,2022-02-09-03:11:53,10.1.1.7,-5,-0.100,-0.100,-0.100,0.000,-0.000,-0.000
1644376317438263808,2022-02-09-03:11:57,10.1.1.7,-6,-0.100,-0.100,-0.100,0.000,-0.000,-0.000
1644376321477554944,2022-02-09-03:12:01,10.1.1.7,-2,-0.100,-0.100,-0.100,0.000,-0.000,-0.000
1644376325560775936,2022-02-09-03:12:05,10.1.1.7,10,-0.100,-0.100,-0.100,0.000,-0.000,-0.000
1644376329596525824,2022-02-09-03:12:09,10.1.1.7,-3,-0.100,-0.100,-0.100,0.000,-0.000,-0.000
1644376333637551104,2022-02-09-03:12:13,10.1.1.7,2,-0.100,-0.100,-0.100,0.000,-0.000,-0.000
1644376337678746880,2022-02-09-03:12:17,10.1.1.7,-3,-0.100,-0.100,-0.100,0.000,-0.000,-0.000
1644376341718784000,2022-02-09-03:12:21,10.1.1.7,-3,-0.100,-0.100,-0.100,0.000,-0.000,-0.000
1644376345756717056,2022-02-09-03:12:25,10.1.1.7,5,-0.100,-0.100,-0.100,0.000,-0.000,-0.000
1644376349820202240,2022-02-09-03:12:29,10.1.1.7,3,-0.100,-0.100,-0.100,0.000,-0.000,-0.000
1644376353837961984,2022-02-09-03:12:33,10.1.1.7,-2,-0.100,-0.100,-0.100,0.000,-0.000,-0.000
1644376357875695104,2022-02-09-03:12:37,10.1.1.7,9,-0.100,-0.100,-0.100,0.000,-0.000,-0.000
1644376361915718912,2022-02-09-03:12:41,10.1.1.7,3,-0.100,-0.100,-0.100,0.000,-0.000,-0.000
1644376365955845120,2022-02-09-03:12:45,10.1.1.7,11,-0.100,-0.100,-0.100,0.000,-0.000,-0.000
1644376369975326976,2022-02-09-03:12:49,10.1.1.7,0,-0.100,-0.100,-0.100,0.000,-0.000,-0.000
1644376374015241984,2022-02-09-03:12:54,10.1.1.7,12,-0.100,-0.100,-0.100,0.000,-0.000,-0.000
1644376378035731968,2022-02-09-03:12:58,10.1.1.7,4,-0.100,-0.100,-0.100,0.000,-0.000,-0.000
1644376382059540992,2022-02-09-03:13:02,10.1.1.7,-3,-0.100,-0.100,-0.100,0.000,-0.000,-0.000
1644376386115243008,2022-02-09-03:13:06,10.1.1.7,2,-0.100,-0.100,-0.100,0.000,-0.000,-0.000
1644376390135150848,2022-02-09-03:13:10,10.1.1.7,3,-0.100,-0.100,-0.100,0.000,-0.000,-0.000
1644376394155237888,2022-02-09-03:13:14,10.1.1.7,5,-0.100,-0.100,-0.100,0.000,-0.000,-0.000
1644376398174439936,2022-02-09-03:13:18,10.1.1.7,-4,-0.100,-0.100,-0.100,0.000,-0.000,-0.000
1644376402194840832,2022-02-09-03:13:22,10.1.1.7,-1,-0.100,-0.100,-0.100,0.000,-0.000,-0.000
1644376406214718976,2022-02-09-03:13:26,10.1.1.7,0,-0.100,-0.100,-0.100,0.000,-0.000,-0.000
1644376410235161088,2022-02-09-03:13:30,10.1.1.7,-4,-0.100,-0.100,-0.100,0.000,-0.000,-0.000
1644376414274921984,2022-02-09-03:13:34,10.1.1.7,0,-0.100,-0.100,-0.100,0.000,-0.000,-0.000
1644376418334334976,2022-02-09-03:13:38,10.1.1.7,13,-0.100,-0.100,-0.100,0.000,-0.000,-0.000
1644376422358934016,2022-02-09-03:13:42,10.1.1.7,4,-0.100,-0.100,-0.100,0.000,-0.000,-0.000
1644376426394916096,2022-02-09-03:13:46,10.1.1.7,4,-0.100,-0.100,-0.100,0.000,-0.000,-0.000
1644376430413713920,2022-02-09-03:13:50,10.1.1.7,3,-0.100,-0.100,-0.100,0.000,-0.000,-0.000
1644376434458151936,2022-02-09-03:13:54,10.1.1.7,5,-0.100,-0.100,-0.100,0.000,-0.000,-0.000
1644376438493336832,2022-02-09-03:13:58,10.1.1.7,6,-0.100,-0.100,-0.100,0.000,-0.000,-0.000
1644376442514563072,2022-02-09-03:14:02,10.1.1.7,1,-0.100,-0.100,-0.100,0.000,-0.000,-0.000
1644376446555180032,2022-02-09-03:14:06,10.1.1.7,7,-0.100,-0.100,-0.100,0.000,-0.000,-0.000
1644376450573852160,2022-02-09-03:14:10,10.1.1.7,6,-0.100,-0.100,-0.100,0.000,-0.000,-0.000
1644376