FedericoMungari/DigitalTwin_service/01_WiredScenario/Output/Output_script/script_rosapi_2_output_robots2_freq0_2.txt
timestamp,date,node,latency,joint_1,joint_2,joint_3,joint_4,joint_5,joint_6
1641182316465556992,2022-01-03-03:58:36,10.1.1.3,162,-0.010,-0.010,-0.010,0.000,0.000,0.000
1641182316685231872,2022-01-03-03:58:36,10.1.1.3,178,-0.020,-0.020,-0.020,0.000,0.000,0.000
1641182316883665920,2022-01-03-03:58:36,10.1.1.3,173,-0.030,-0.030,-0.030,0.000,0.000,0.000
1641182317083842048,2022-01-03-03:58:37,10.1.1.3,172,-0.040,-0.040,-0.040,0.000,0.000,0.000
1641182317282403840,2022-01-03-03:58:37,10.1.1.3,169,-0.050,-0.050,-0.050,0.000,0.000,0.000
1641182317482816000,2022-01-03-03:58:37,10.1.1.3,169,-0.060,-0.060,-0.060,0.000,0.000,0.000
1641182317682099200,2022-01-03-03:58:37,10.1.1.3,167,-0.070,-0.070,-0.070,0.000,0.000,0.000
1641182317894036992,2022-01-03-03:58:37,10.1.1.3,178,-0.080,-0.080,-0.080,0.000,0.000,0.000
1641182318068924928,2022-01-03-03:58:38,10.1.1.3,152,-0.090,-0.090,-0.090,0.000,0.000,0.000
1641182318295972096,2022-01-03-03:58:38,10.1.1.3,177,-0.100,-0.100,-0.100,0.000,0.000,0.000
1641182318515288064,2022-01-03-03:58:38,10.1.1.3,195,-0.110,-0.110,-0.110,0.000,0.000,0.000
1641182318682406912,2022-01-03-03:58:38,10.1.1.3,161,-0.120,-0.120,-0.120,0.000,0.000,0.000
1641182318884233984,2022-01-03-03:58:38,10.1.1.3,161,-0.130,-0.130,-0.130,0.000,0.000,0.000
1641182319100752128,2022-01-03-03:58:39,10.1.1.3,173,-0.140,-0.140,-0.140,0.000,0.000,0.000
1641182319305968128,2022-01-03-03:58:39,10.1.1.3,177,-0.150,-0.150,-0.150,0.000,0.000,0.000
1641182319500022784,2022-01-03-03:58:39,10.1.1.3,170,-0.160,-0.160,-0.160,0.000,0.000,0.000
1641182319700566016,2022-01-03-03:58:39,10.1.1.3,170,-0.170,-0.170,-0.170,0.000,0.000,0.000
1641182319899525888,2022-01-03-03:58:39,10.1.1.3,168,-0.180,-0.180,-0.180,0.000,0.000,0.000
1641182320097223168,2022-01-03-03:58:40,10.1.1.3,165,-0.190,-0.190,-0.190,0.000,0.000,0.000
1641182320300056064,2022-01-03-03:58:40,10.1.1.3,166,-0.200,-0.200,-0.200,0.000,0.000,0.000
1641182320511950848,2022-01-03-03:58:40,10.1.1.3,175,-0.210,-0.210,-0.210,0.000,0.000,0.000
1641182320699286016,2022-01-03-03:58:40,10.1.1.3,161,-0.220,-0.220,-0.220,0.000,0.000,0.000
1641182320897799936,2022-01-03-03:58:40,10.1.1.3,159,-0.230,-0.230,-0.230,0.000,0.000,0.000
1641182321098223872,2022-01-03-03:58:41,10.1.1.3,158,-0.240,-0.240,-0.240,0.000,0.000,0.000
1641182321298437120,2022-01-03-03:58:41,10.1.1.3,157,-0.250,-0.250,-0.250,0.000,0.000,0.000
1641182321498123008,2022-01-03-03:58:41,10.1.1.3,156,-0.260,-0.260,-0.260,0.000,0.000,0.000
1641182321699654144,2022-01-03-03:58:41,10.1.1.3,156,-0.270,-0.270,-0.270,0.000,0.000,0.000
1641182321899735808,2022-01-03-03:58:41,10.1.1.3,155,-0.280,-0.280,-0.280,0.000,0.000,0.000
1641182322098717952,2022-01-03-03:58:42,10.1.1.3,153,-0.290,-0.290,-0.290,0.000,0.000,0.000
1641182322299207936,2022-01-03-03:58:42,10.1.1.3,151,-0.300,-0.300,-0.300,0.000,0.000,0.000
1641182322526849024,2022-01-03-03:58:42,10.1.1.3,171,-0.310,-0.310,-0.310,0.000,0.000,0.000
1641182322726505984,2022-01-03-03:58:42,10.1.1.3,170,-0.320,-0.320,-0.320,0.000,0.000,0.000
1641182322936399872,2022-01-03-03:58:42,10.1.1.3,179,-0.330,-0.330,-0.330,0.000,0.000,0.000
1641182323128251136,2022-01-03-03:58:43,10.1.1.3,169,-0.340,-0.340,-0.340,0.000,0.000,0.000
1641182323330245888,2022-01-03-03:58:43,10.1.1.3,170,-0.350,-0.350,-0.350,0.000,0.000,0.000
1641182323523761920,2022-01-03-03:58:43,10.1.1.3,163,-0.360,-0.360,-0.360,0.000,0.000,0.000
1641182323723803904,2022-01-03-03:58:43,10.1.1.3,162,-0.370,-0.370,-0.370,0.000,0.000,0.000
1641182323924472064,2022-01-03-03:58:43,10.1.1.3,162,-0.380,-0.380,-0.380,0.000,0.000,0.000
1641182324125982976,2022-01-03-03:58:44,10.1.1.3,162,-0.390,-0.390,-0.390,0.000,0.000,0.000
1641182324326711040,2022-01-03-03:58:44,10.1.1.3,162,-0.400,-0.400,-0.400,0.000,0.000,0.000
1641182324527458816,2022-01-03-03:58:44,10.1.1.3,162,-0.410,-0.410,-0.410,0.000,0.000,0.000
1641182324727369984,2022-01-03-03:58:44,10.1.1.3,160,-0.420,-0.420,-0.420,0.000,0.000,0.000
1641182324964688896,2022-01-03-03:58:44,10.1.1.3,196,-0.430,-0.430,-0.430,0.000,0.000,0.000
1641182325169861120,2022-01-03-03:58:45,10.1.1.3,200,-0.440,-0.440,-0.440,0.000,0.000,0.000
1641182325337852928,2022-01-03-03:58:45,10.1.1.3,167,-0.450,-0.450,-0.450,0.000,0.000,0.000
1641182325538247168,2022-01-03-03:58:45,10.1.1.3,166,-0.460,-0.460,-0.460,0.000,0.000,0.000
1641182325759732992,2022-01-03-03:58:45,10.1.1.3,186,-0.470,-0.470,-0.470,0.000,0.000,0.000
1641182325960974848,2022-01-03-03:58:45,10.1.1.3,186,-0.480,-0.480,-0.480,0.000,0.000,0.000
1641182326376632832,2022-01-03-03:58:46,10.1.1.3,200,-0.480,-0.480,-0.480,0.000,0.000,0.000
1641182326553445120,2022-01-03-03:58:46,10.1.1.3,175,-0.470,-0.470,-0.470,0.000,0.000,0.000
1641182326758263040,2022-01-03-03:58:46,10.1.1.3,178,-0.460,-0.460,-0.460,0.000,0.000,0.000
1641182326958960128,2022-01-03-03:58:46,10.1.1.3,177,-0.450,-0.450,-0.450,0.000,0.000,0.000
1641182327181627904,2022-01-03-03:58:47,10.1.1.3,199,-0.440,-0.440,-0.440,0.000,0.000,0.000
1641182327361423872,2022-01-03-03:58:47,10.1.1.3,177,-0.430,-0.430,-0.430,0.000,0.000,0.000
1641182327562733824,2022-01-03-03:58:47,10.1.1.3,178,-0.420,-0.420,-0.420,0.000,0.000,0.000
1641182327762238976,2022-01-03-03:58:47,10.1.1.3,175,-0.410,-0.410,-0.410,0.000,0.000,0.000
1641182327962811904,2022-01-03-03:58:47,10.1.1.3,175,-0.400,-0.400,-0.400,0.000,0.000,0.000
1641182328164657152,2022-01-03-03:58:48,10.1.1.3,174,-0.390,-0.390,-0.390,0.000,0.000,0.000
1641182328383017984,2022-01-03-03:58:48,10.1.1.3,191,-0.380,-0.380,-0.380,0.000,0.000,0.000
1641182328579047936,2022-01-03-03:58:48,10.1.1.3,186,-0.370,-0.370,-0.370,0.000,0.000,0.000
1641182328780759040,2022-01-03-03:58:48,10.1.1.3,185,-0.360,-0.360,-0.360,0.000,0.000,0.000
1641182328980664064,2022-01-03-03:58:48,10.1.1.3,184,-0.350,-0.350,-0.350,0.000,0.000,0.000
1641182329179971072,2022-01-03-03:58:49,10.1.1.3,182,-0.340,-0.340,-0.340,0.000,0.000,0.000
1641182329381319936,2022-01-03-03:58:49,10.1.1.3,183,-0.330,-0.330,-0.330,0.000,0.000,0.000
1641182329587357952,2022-01-03-03:58:49,10.1.1.3,188,-0.320,-0.320,-0.320,0.000,0.000,0.000
1641182329780599040,2022-01-03-03:58:49,10.1.1.3,180,-0.310,-0.310,-0.310,0.000,0.000,0.000
1641182329980948992,2022-01-03-03:58:49,10.1.1.3,179,-0.300,-0.300,-0.300,0.000,0.000,0.000
1641182330181531904,2022-01-03-03:58:50,10.1.1.3,175,-0.290,-0.290,-0.290,0.000,0.000,0.000
1641182330380983040,2022-01-03-03:58:50,10.1.1.3,173,-0.280,-0.280,-0.280,0.000,0.000,0.000
1641182330582504960,2022-01-03-03:58:50,10.1.1.3,175,-0.270,-0.270,-0.270,0.000,0.000,0.000
1641182330787559936,2022-01-03-03:58:50,10.1.1.3,179,-0.260,-0.260,-0.260,0.000,0.000,0.000
1641182331002032896,2022-01-03-03:58:51,10.1.1.3,190,-0.250,-0.250,-0.250,0.000,0.000,0.000
1641182331202526208,2022-01-03-03:58:51,10.1.1.3,189,-0.240,-0.240,-0.240,0.000,0.000,0.000
1641182331403696896,2022-01-03-03:58:51,10.1.1.3,190,-0.230,-0.230,-0.230,0.000,0.000,0.000
1641182331602543104,2022-01-03-03:58:51,10.1.1.3,188,-0.220,-0.220,-0.220,0.000,0.000,0.000
1641182331802764800,2022-01-03-03:58:51,10.1.1.3,187,-0.210,-0.210,-0.210,0.000,0.000,0.000
1641182332003955968,2022-01-03-03:58:52,10.1.1.3,188,-0.200,-0.200,-0.200,0.000,0.000,0.000
1641182332200371968,2022-01-03-03:58:52,10.1.1.3,183,-0.190,-0.190,-0.190,0.000,0.000,0.000
1641182332400960000,2022-01-03-03:58:52,10.1.1.3,183,-0.180,-0.180,-0.180,0.000,0.000,0.000
1641182332602308864,2022-01-03-03:58:52,10.1.1.3,183,-0.170,-0.170,-0.170,0.000,0.000,0.000
1641182332803160064,2022-01-03-03:58:52,10.1.1.3,183,-0.160,-0.160,-0.160,0.000,0.000,0.000
1641182333001675008,2022-01-03-03:58:53,10.1.1.3,180,-0.150,-0.150,-0.150,0.000,0.000,0.000
1641182333203746048,2022-01-03-03:58:53,10.1.1.3,179,-0.140,-0.140,-0.140,0.000,0.000,0.000
1641182333402353152,2022-01-03-03:58:53,10.1.1.3,177,-0.130,-0.130,-0.130,0.000,0.000,0.000
1641182333602484992,2022-01-03-03:58:53,10.1.1.3,176,-0.120,-0.120,-0.120,0.000,0.000,0.000
1641182333825974016,2022-01-03-03:58:53,10.1.1.3,197,-0.110,-0.110,-0.110,0.000,0.000,0.000
1641182334022594048,2022-01-03-03:58:54,10.1.1.3,193,-0.100,-0.100,-0.100,0.000,0.000,0.000
1641182334224353024,2022-01-03-03:58:54,10.1.1.3,194,-0.090,-0.090,-0.090,0.000,0.000,0.000
1641182334408503040,2022-01-03-03:58:54,10.1.1.3,176,-0.080,-0.080,-0.080,0.000,0.000,0.000
1641182334628753920,2022-01-03-03:58:54,10.1.1.3,195,-0.070,-0.070,-0.070,0.000,0.000,0.000
1641182334827475968,2022-01-03-03:58:54,10.1.1.3,193,-0.060,-0.060,-0.060,0.000,0.000,0.000
1641182335028201984,2022-01-03-03:58:55,10.1.1.3,192,-0.050,-0.050,-0.050,0.000,0.000,0.000
1641182335219841024,2022-01-03-03:58:55,10.1.1.3,183,-0.040,-0.040,-0.040,0.000,0.000,0.000
1641182335417640960,2022-01-03-03:58:55,10.1.1.3,179,-0.030,-0.030,-0.030,0.000,0.000,0.000
1641182335624150016,2022-01-03-03:58:55,10.1.1.3,184,-0.020,-0.020,-0.020,0.000,0.000,0.000
1641182336024753920,2022-01-03-03:58:56,10.1.1.3,180,0.000,0.000,0.000,0.000,0.000,0.000
1641182336226913024,2022-01-03-03:58:56,10.1.1.3,177,-0.010,-0.010,-0.010,0.000,0.000,0.000
1641182336429030912,2022-01-03-03:58:56,10.1.1.3,178,-0.020,-0.020,-0.020,0.000,0.000,0.000
1641182336626383104,2022-01-03-03:58:56,10.1.1.3,175,-0.030,-0.030,-0.030,0.000,0.000,0.000
1641182336846555904,2022-01-03-03:58:56,10.1.1.3,193,-0.040,-0.040,-0.040,0.000,0.000,0.000
1641182337046562816,2022-01-03-03:58:57,10.1.1.3,192,-0.050,-0.050,-0.050,0.000,0.000,0.000
1641182337246240000,2022-01-03-03:58:57,10.1.1.3,188,-0.060,-0.060,-0.060,0.000,0.000,0.000
1641182337446292992,2022-01-03-03:58:57,10.1.1.3,188,-0.070,-0.070,-0.070,0.000,0.000,0.000
1641182337651619072,2022-01-03-03:58:57,10.1.1.3,191,-0.080,-0.080,-0.080,0.000,0.000,0.000
1641182337847484160,2022-01-03-03:58:57,10.1.1.3,185,-0.090,-0.090,-0.090,0.000,0.000,0.000
1641182338043824896,2022-01-03-03:58:58,10.1.1.3,181,-0.100,-0.100,-0.100,0.000,0.000,0.000
1641182338242640128,2022-01-03-03:58:58,10.1.1.3,177,-0.110,-0.110,-0.110,0.000,0.000,0.000
1641182338442988032,2022-01-03-03:58:58,10.1.1.3,173,-0.120,-0.120,-0.120,0.000,0.000,0.000
1641182338662919168,2022-01-03-03:58:58,10.1.1.3,192,-0.130,-0.130,-0.130,0.000,0.000,0.000
1641182338867780864,2022-01-03-03:58:58,10.1.1.3,196,-0.140,-0.140,-0.140,0.000,0.000,0.000
1641182339066756864,2022-01-03-03:58:59,10.1.1.3,192,-0.150,-0.150,-0.150,0.000,0.000,0.000
1641182339263091200,2022-01-03-03:58:59,10.1.1.3,187,-0.160,-0.160,-0.160,0.000,0.000,0.000
1641182339462415872,2022-01-03-03:58:59,10.1.1.3,186,-0.170,-0.170,-0.170,0.000,0.000,0.000
1641182339662970112,2022-01-03-03:58:59,10.1.1.3,185,-0.180,-0.180,-0.180,0.000,0.000,0.000
1641182339864506880,2022-01-03-03:58:59,10.1.1.3,187,-0.190,-0.190,-0.190,0.000,0.000,0.000
1641182340061722112,2022-01-03-03:59:00,10.1.1.3,182,-0.200,-0.200,-0.200,0.000,0.000,0.000
1641182340260844032,2022-01-03-03:59:00,10.1.1.3,181,-0.210,-0.210,-0.210,0.000,0.000,0.000
1641182340460707840,2022-01-03-03:59:00,10.1.1.3,180,-0.220,-0.220,-0.220,0.000,0.000,0.000
1641182340661257984,2022-01-03-03:59:00,10.1.1.3,180,-0.230,-0.230,-0.230,0.000,0.000,0.000
1641182340861677056,2022-01-03-03:59:00,10.1.1.3,179,-0.240,-0.240,-0.240,0.000,0.000,0.000
1641182341061018112,2022-01-03-03:59:01,10.1.1.3,177,-0.250,-0.250,-0.250,0.000,0.000,0.000
1641182341260314880,2022-01-03-03:59:01,10.1.1.3,176,-0.260,-0.260,-0.260,0.000,0.000,0.000
1641182341460721920,2022-01-03-03:59:01,10.1.1.3,174,-0.270,-0.270,-0.270,0.000,0.000,0.000
1641182341659703040,2022-01-03-03:59:01,10.1.1.3,172,-0.280,-0.280,-0.280,0.000,0.000,0.000
1641182341860413184,2022-01-03-03:59:01,10.1.1.3,172,-0.290,-0.290,-0.290,0.000,0.000,0.000
1641182342058978048,2022-01-03-03:59:02,10.1.1.3,169,-0.300,-0.300,-0.300,0.000,0.000,0.000
1641182342475802880,2022-01-03-03:59:02,10.1.1.3,183,-0.320,-0.320,-0.320,0.000,0.000,0.000
1641182342675550976,2022-01-03-03:59:02,10.1.1.3,181,-0.330,-0.330,-0.330,0.000,0.000,0.000
1641182342875756032,2022-01-03-03:59:02,10.1.1.3,179,-0.340,-0.340,-0.340,0.000,0.000,0.000
1641182343082535936,2022-01-03-03:59:03,10.1.1.3,184,-0.350,-0.350,-0.350,0.000,0.000,0.000
1641182343287124992,2022-01-03-03:59:03,10.1.1.3,187,-0.360,-0.360,-0.360,0.000,0.000,0.000
1641182343496822016,2022-01-03-03:59:03,10.1.1.3,195,-0.370,-0.370,-0.370,0.000,0.000,0.000
1641182343681488896,2022-01-03-03:59:03,10.1.1.3,178,-0.380,-0.380,-0.380,0.000,0.000,0.000
1641182343880050944,2022-01-03-03:59:03,10.1.1.3,176,-0.390,-0.390,-0.390,0.000,0.000,0.000
1641182344079535104,2022-01-03-03:59:04,10.1.1.3,175,-0.400,-0.400,-0.400,0.000,0.000,0.000
1641182344280509952,2022-01-03-03:59:04,10.1.1.3,175,-0.410,-0.410,-0.410,0.000,0.000,0.000
1641182344485815040,2022-01-03-03:59:04,10.1.1.3,180,-0.420,-0.420,-0.420,0.000,0.000,0.000
1641182344678595072,2022-01-03-03:59:04,10.1.1.3,172,-0.430,-0.430,-0.430,0.000,0.000,0.000
1641182344889341952,2022-01-03-03:59:04,10.1.1.3,182,-0.440,-0.440,-0.440,0.000,0.000,0.000
1641182345089479936,2022-01-03-03:59:05,10.1.1.3,181,-0.450,-0.450,-0.450,0.000,0.000,0.000
1641182345289747968,2022-01-03-03:59:05,10.1.1.3,181,-0.460,-0.460,-0.460,0.000,0.000,0.000
1641182345491749888,2022-01-03-03:59:05,10.1.1.3,182,-0.470,-0.470,-0.470,0.000,0.000,0.000
1641182345690642176,2022-01-03-03:59:05,10.1.1.3,180,-0.480,-0.480,-0.480,0.000,0.000,0.000
1641182345893938176,2022-01-03-03:59:05,10.1.1.3,182,-0.490,-0.490,-0.490,0.000,0.000,0.000
1641182346096762880,2022-01-03-03:59:06,10.1.1.3,183,-0.480,-0.480,-0.480,0.000,0.000,0.000
1641182346292033792,2022-01-03-03:59:06,10.1.1.3,178,-0.470,-0.470,-0.470,0.000,0.000,0.000
1641182346489969920,2022-01-03-03:59:06,10.1.1.3,176,-0.460,-0.460,-0.460,0.000,0.000,0.000
1641182346690205952,2022-01-03-03:59:06,10.1.1.3,175,-0.450,-0.450,-0.450,0.000,0.000,0.000
1641182346892929024,2022-01-03-03:59:06,10.1.1.3,176,-0.440,-0.440,-0.440,0.000,0.000,0.000
1641182347089922816,2022-01-03-03:59:07,10.1.1.3,171,-0.430,-0.430,-0.430,0.000,0.000,0.000
1641182347289979904,2022-01-03-03:59:07,10.1.1.3,170,-0.420,-0.420,-0.420,0.000,0.000,0.000
1641182347489229056,2022-01-03-03:59:07,10.1.1.3,168,-0.410,-0.410,-0.410,0.000,0.000,0.000
1641182347687844864,2022-01-03-03:59:07,10.1.1.3,166,-0.400,-0.400,-0.400,0.000,0.000,0.000
1641182347888755968,2022-01-03-03:59:07,10.1.1.3,166,-0.390,-0.390,-0.390,0.000,0.000,0.000
1641182348087929856,2022-01-03-03:59:08,10.1.1.3,164,-0.380,-0.380,-0.380,0.000,0.000,0.000
1641182348288103936,2022-01-03-03:59:08,10.1.1.3,164,-0.370,-0.370,-0.370,0.000,0.000,0.000
1641182348487729152,2022-01-03-03:59:08,10.1.1.3,162,-0.360,-0.360,-0.360,0.000,0.000,0.000
1641182348688261888,2022-01-03-03:59:08,10.1.1.3,161,-0.350,-0.350,-0.350,0.000,0.000,0.000
1641182348907378944,2022-01-03-03:59:08,10.1.1.3,178,-0.340,-0.340,-0.340,0.000,0.000,0.000
1641182349091227904,2022-01-03-03:59:09,10.1.1.3,161,-0.330,-0.330,-0.330,0.000,0.000,0.000
1641182349307241984,2022-01-03-03:59:09,10.1.1.3,176,-0.320,-0.320,-0.320,0.000,0.000,0.000
1641182349506061056,2022-01-03-03:59:09,10.1.1.3,174,-0.310,-0.310,-0.310,0.000,0.000,0.000
1641182349706245888,2022-01-03-03:59:09,10.1.1.3,163,-0.300,-0.300,-0.300,0.000,0.000,0.000
1641182349907137024,2022-01-03-03:59:09,10.1.1.3,163,-0.290,-0.290,-0.290,0.000,0.000,0.000
1641182350104585984,2022-01-03-03:59:10,10.1.1.3,159,-0.280,-0.280,-0.280,0.000,0.000,0.000
1641182350305372928,2022-01-03-03:59:10,10.1.1.3,158,-0.270,-0.270,-0.270,0.000,0.000,0.000
1641182350506017024,2022-01-03-03:59:10,10.1.1.3,159,-0.260,-0.260,-0.260,0.000,0.000,0.000
1641182350724067072,2022-01-03-03:59:10,10.1.1.3,176,-0.250,-0.250,-0.250,0.000,0.000,0.000
1641182351127047168,2022-01-03-03:59:11,10.1.1.3,177,-0.230,-0.230,-0.230,0.000,0.000,0.000
1641182351326450176,2022-01-03-03:59:11,10.1.1.3,175,-0.220,-0.220,-0.220,0.000,0.000,0.000
1641182351535356928,2022-01-03-03:59:11,10.1.1.3,183,-0.210,-0.210,-0.210,0.000,0.000,0.000
1641182351722665984,2022-01-03-03:59:11,10.1.1.3,166,-0.200,-0.200,-0.200,0.000,0.000,0.000
1641182351923094016,2022-01-03-03:59:11,10.1.1.3,165,-0.190,-0.190,-0.190,0.000,0.000,0.000
1641182352124017920,2022-01-03-03:59:12,10.1.1.3,163,-0.180,-0.180,-0.180,0.000,0.000,0.000
1641182352320390912,2022-01-03-03:59:12,10.1.1.3,159,-0.170,-0.170,-0.170,0.000,0.000,0.000
1641182352518473984,2022-01-03-03:59:12,10.1.1.3,156,-0.160,-0.160,-0.160,0.000,0.000,0.000
1641182352736084992,2022-01-03-03:59:12,10.1.1.3,170,-0.150,-0.150,-0.150,0.000,0.000,0.000
1641182352947568896,2022-01-03-03:59:12,10.1.1.3,181,-0.140,-0.140,-0.140,0.000,0.000,0.000
1641182353129637120,2022-01-03-03:59:13,10.1.1.3,157,-0.130,-0.130,-0.130,0.000,0.000,0.000
1641182353326145792,2022-01-03-03:59:13,10.1.1.3,154,-0.120,-0.120,-0.120,0.000,0.000,0.000
1641182353543927808,2022-01-03-03:59:13,10.1.1.3,171,-0.110,-0.110,-0.110,0.000,0.000,0.000
1641182353745928960,2022-01-03-03:59:13,10.1.1.3,172,-0.100,-0.100,-0.100,0.000,0.000,0.000
1641182353942759936,2022-01-03-03:59:13,10.1.1.3,167,-0.090,-0.090,-0.090,0.000,0.000,0.000
1641182354147006976,2022-01-03-03:59:14,10.1.1.3,170,-0.080,-0.080,-0.080,0.000,0.000,0.000
1641182354344235776,2022-01-03-03:59:14,10.1.1.3,166,-0.070,-0.070,-0.070,0.000,0.000,0.000
1641182354547274240,2022-01-03-03:59:14,10.1.1.3,168,-0.060,-0.060,-0.060,0.000,0.000,0.000
1641182354747111168,2022-01-03-03:59:14,10.1.1.3,167,-0.050,-0.050,-0.050,0.000,0.000,0.000
1641182354947236096,2022-01-03-03:59:14,10.1.1.3,167,-0.040,-0.040,-0.040,0.000,0.000,0.000
1641182355148418048,2022-01-03-03:59:15,10.1.1.3,166,-0.030,-0.030,-0.030,0.000,0.000,0.000
1641182355349495808,2022-01-03-03:59:15,10.1.1.3,166,-0.020,-0.020,-0.020,0.000,0.000,0.000
1641182355569466112,2022-01-03-03:59:15,10.1.1.3,182,-0.010,-0.010,-0.010,0.000,0.000,0.000
1641182355751837952,2022-01-03-03:59:15,10.1.1.3,163,0.000,0.000,0.000,0.000,0.000,0.000
1641182355952527104,2022-01-03-03:59:15,10.1.1.3,163,-0.010,-0.010,-0.010,0.000,0.000,0.000
1641182356176109056,2022-01-03-03:59:16,10.1.1.3,185,-0.020,-0.020,-0.020,0.000,0.000,0.000
1641182356373776896,2022-01-03-03:59:16,10.1.1.3,181,-0.030,-0.030,-0.030,0.000,0.000,0.000
1641182356584546048,2022-01-03-03:59:16,10.1.1.3,190,-0.040,-0.040,-0.040,0.000,0.000,0.000
1641182356773379072,2022-01-03-03:59:16,10.1.1.3,178,-0.050,-0.050,-0.050,0.000,0.000,0.000
1641182356977762048,2022-01-03-03:59:16,10.1.1.3,180,-0.060,-0.060,-0.060,0.000,0.000,0.000
1641182357178092032,2022-01-03-03:59:17,10.1.1.3,179,-0.070,-0.070,-0.070,0.000,0.000,0.000
1641182357375572992,2022-01-03-03:59:17,10.1.1.3,175,-0.080,-0.080,-0.080,0.000,0.000,0.000
1641182357577413120,2022-01-03-03:59:17,10.1.1.3,176,-0.090,-0.090,-0.090,0.000,0.000,0.000
1641182357774176000,2022-01-03-03:59:17,10.1.1.3,172,-0.100,-0.100,-0.100,0.000,0.000,0.000
1641182357977644032,2022-01-03-03:59:17,10.1.1.3,175,-0.110,-0.110,-0.110,0.000,0.000,0.000
1641182358186654208,2022-01-03-03:59:18,10.1.1.3,181,-0.120,-0.120,-0.120,0.000,0.000,0.000
1641182358387927040,2022-01-03-03:59:18,10.1.1.3,181,-0.130,-0.130,-0.130,0.000,0.000,0.000
1641182358582707968,2022-01-03-03:59:18,10.1.1.3,175,-0.140,-0.140,-0.140,0.000,0.000,0.000
1641182358789998080,2022-01-03-03:59:18,10.1.1.3,179,-0.150,-0.150,-0.150,0.000,0.000,0.000
1641182359000577024,2022-01-03-03:59:19,10.1.1.3,186,-0.160,-0.160,-0.160,0.000,0.000,0.000
1641182359200439040,2022-01-03-03:59:19,10.1.1.3,185,-0.170,-0.170,-0.170,0.000,0.000,0.000
1641182359396760832,2022-01-03-03:59:19,10.1.1.3,180,-0.180,-0.180,-0.180,0.000,0.000,0.000
1641182359602267904,2022-01-03-03:59:19,10.1.1.3,185,-0.190,-0.190,-0.190,0.000,0.000,0.000
1641182359799881984,2022-01-03-03:59:19,10.1.1.3,181,-0.200,-0.200,-0.200,0.000,0.000,0.000
1641182360003606016,2022-01-03-03:59:20,10.1.1.3,184,-0.210,-0.210,-0.210,0.000,0.000,0.000
1641182360204015872,2022-01-03-03:59:20,10.1.1.3,183,-0.220,-0.220,-0.220,0.000,0.000,0.000
1641182360403070976,2022-01-03-03:59:20,10.1.1.3,180,-0.230,-0.230,-0.230,0.000,0.000,0.000
1641182360603924992,2022-01-03-03:59:20,10.1.1.3,180,-0.240,-0.240,-0.240,0.000,0.000,0.000
1641182360803590144,2022-01-03-03:59:20,10.1.1.3,179,-0.250,-0.250,-0.250,0.000,0.000,0.000
1641182361005403136,2022-01-03-03:59:21,10.1.1.3,179,-0.260,-0.260,-0.260,0.000,0.000,0.000
1641182361204243968,2022-01-03-03:59:21,10.1.1.3,176,-0.270,-0.270,-0.270,0.000,0.000,0.000
1641182361406434048,2022-01-03-03:59:21,10.1.1.3,176,-0.280,-0.280,-0.280,0.000,0.000,0.000
1641182361604416000,2022-01-03-03:59:21,10.1.1.3,174,-0.290,-0.290,-0.290,0.000,0.000,0.000
1641182361825251072,2022-01-03-03:59:21,10.1.1.3,193,-0.300,-0.300,-0.300,0.000,0.000,0.000
1641182362026017792,2022-01-03-03:59:22,10.1.1.3,193,-0.310,-0.310,-0.310,0.000,0.000,0.000
1641182362218512128,2022-01-03-03:59:22,10.1.1.3,185,-0.320,-0.320,-0.320,0.000,0.000,0.000
1641182362426280960,2022-01-03-03:59:22,10.1.1.3,191,-0.330,-0.330,-0.330,0.000,0.000,0.000
1641182362625149952,2022-01-03-03:59:22,10.1.1.3,190,-0.340,-0.340,-0.340,0.000,0.000,0.000
1641182362824011008,2022-01-03-03:59:22,10.1.1.3,187,-0.350,-0.350,-0.350,0.000,0.000,0.000
1641182363025121024,2022-01-03-03:59:23,10.1.1.3,187,-0.360,-0.360,-0.360,0.000,0.000,0.000
1641182363225317120,2022-01-03-03:59:23,10.1.1.3,187,-0.370,-0.370,-0.370,0.000,0.000,0.000
1641182363425210112,2022-01-03-03:59:23,10.1.1.3,186,-0.380,-0.380,-0.380,0.000,0.000,0.000
1641182363639739136,2022-01-03-03:59:23,10.1.1.3,199,-0.390,-0.390,-0.390,0.000,0.000,0.000
1641182363826530048,2022-01-03-03:59:23,10.1.1.3,186,-0.400,-0.400,-0.400,0.000,0.000,0.000
1641182364021080064,2022-01-03-03:59:24,10.1.1.3,180,-0.410,-0.410,-0.410,0.000,0.000,0.000
1641182364221099008,2022-01-03-03:59:24,10.1.1.3,178,-0.420,-0.420,-0.420,0.000,0.000,0.000
1641182364426440960,2022-01-03-03:59:24,10.1.1.3,183,-0.430,-0.430,-0.430,0.000,0.000,0.000
1641182364625697024,2022-01-03-03:59:24,10.1.1.3,181,-0.440,-0.440,-0.440,0.000,0.000,0.000
1641182364825810944,2022-01-03-03:59:24,10.1.1.3,180,-0.450,-0.450,-0.450,0.000,0.000,0.000
1641182365024205056,2022-01-03-03:59:25,10.1.1.3,178,-0.460,-0.460,-0.460,0.000,0.000,0.000
1641182365226353920,2022-01-03-03:59:25,10.1.1.3,179,-0.470,-0.470,-0.470,0.000,0.000,0.000
1641182365426148864,2022-01-03-03:59:25,10.1.1.3,178,-0.480,-0.480,-0.480,0.000,0.000,0.000
1641182365633966080,2022-01-03-03:59:25,10.1.1.3,185,-0.490,-0.490,-0.490,0.000,0.000,0.000
1641182365840675072,2022-01-03-03:59:25,10.1.1.3,192,-0.480,-0.480,-0.480,0.000,0.000,0.000
1641182366041112064,2022-01-03-03:59:26,10.1.1.3,191,-0.470,-0.470,-0.470,0.000,0.000,0.000
1641182366240310784,2022-01-03-03:59:26,10.1.1.3,189,-0.460,-0.460,-0.460,0.000,0.000,0.000
1641182366442146048,2022-01-03-03:59:26,10.1.1.3,191,-0.450,-0.450,-0.450,0.000,0.000,0.000
1641182366647691008,2022-01-03-03:59:26,10.1.1.3,195,-0.440,-0.440,-0.440,0.000,0.000,0.000
1641182366844846080,2022-01-03-03:59:26,10.1.1.3,192,-0.430,-0.430,-0.430,0.000,0.000,0.000
1641182367045277952,2022-01-03-03:59:27,10.1.1.3,191,-0.420,-0.420,-0.420,0.000,0.000,0.000
1641182367248588032,2022-01-03-03:59:27,10.1.1.3,194,-0.410,-0.410,-0.410,0.000,0.000,0.000
1641182367445101056,2022-01-03-03:59:27,10.1.1.3,188,-0.400,-0.400,-0.400,0.000,0.000,0.000
1641182367644263936,2022-01-03-03:59:27,10.1.1.3,187,-0.390,-0.390,-0.390,0.000,0.000,0.000
1641182367849011968,2022-01-03-03:59:27,10.1.1.3,190,-0.380,-0.380,-0.380,0.000,0.000,0.000
1641182368044838912,2022-01-03-03:59:28,10.1.1.3,180,-0.370,-0.370,-0.370,0.000,0.000,0.000
1641182368244929024,2022-01-03-03:59:28,10.1.1.3,176,-0.360,-0.360,-0.360,0.000,0.000,0.000
1641182368443424000,2022-01-03-03:59:28,10.1.1.3,174,-0.350,-0.350,-0.350,0.000,0.000,0.000
1641182368650702848,2022-01-03-03:59:28,10.1.1.3,180,-0.340,-0.340,-0.340,0.000,0.000,0.000
1641182368863987968,2022-01-03-03:59:28,10.1.1.3,192,-0.330,-0.330,-0.330,0.000,0.000,0.000
1641182369063853056,2022-01-03-03:59:29,10.1.1.3,190,-0.320,-0.320,-0.320,0.000,0.000,0.000
1641182369258439168,2022-01-03-03:59:29,10.1.1.3,184,-0.310,-0.310,-0.310,0.000,0.000,0.000
1641182369463164160,2022-01-03-03:59:29,10.1.1.3,188,-0.300,-0.300,-0.300,0.000,0.000,0.000
1641182369663105024,2022-01-03-03:59:29,10.1.1.3,187,-0.290,-0.290,-0.290,0.000,0.000,0.000
1641182369864011008,2022-01-03-03:59:29,10.1.1.3,187,-0.280,-0.280,-0.280,0.000,0.000,0.000
1641182370067931904,2022-01-03-03:59:30,10.1.1.3,190,-0.270,-0.270,-0.270,0.000,0.000,0.000
1641182370263177984,2022-01-03-03:59:30,10.1.1.3,184,-0.260,-0.260,-0.260,0.000,0.000,0.000
1641182370468590080,2022-01-03-03:59:30,10.1.1.3,189,-0.250,-0.250,-0.250,0.000,0.000,0.000
1641182370665286144,2022-01-03-03:59:30,10.1.1.3,185,-0.240,-0.240,-0.240,0.000,0.000,0.000
1641182370872091904,2022-01-03-03:59:30,10.1.1.3,191,-0.230,-0.230,-0.230,0.000,0.000,0.000
1641182371258897920,2022-01-03-03:59:31,10.1.1.3,176,-0.210,-0.210,-0.210,0.000,0.000,0.000
1641182371459031040,2022-01-03-03:59:31,10.1.1.3,175,-0.200,-0.200,-0.200,0.000,0.000,0.000
1641182371660412928,2022-01-03-03:59:31,10.1.1.3,176,-0.190,-0.190,-0.190,0.000,0.000,0.000
1641182371857291008,2022-01-03-03:59:31,10.1.1.3,171,-0.180,-0.180,-0.180,0.000,0.000,0.000
1641182372077487872,2022-01-03-03:59:32,10.1.1.3,191,-0.170,-0.170,-0.170,0.000,0.000,0.000
1641182372463751936,2022-01-03-03:59:32,10.1.1.3,175,-0.150,-0.150,-0.150,0.000,0.000,0.000
1641182372663410944,2022-01-03-03:59:32,10.1.1.3,174,-0.140,-0.140,-0.140,0.000,0.000,0.000
1641182372878798080,2022-01-03-03:59:32,10.1.1.3,189,-0.130,-0.130,-0.130,0.000,0.000,0.000
1641182373073926912,2022-01-03-03:59:33,10.1.1.3,183,-0.120,-0.120,-0.120,0.000,0.000,0.000
1641182373262067968,2022-01-03-03:59:33,10.1.1.3,171,-0.110,-0.110,-0.110,0.000,0.000,0.000
1641182373465883136,2022-01-03-03:59:33,10.1.1.3,174,-0.100,-0.100,-0.100,0.000,0.000,0.000
1641182373675350016,2022-01-03-03:59:33,10.1.1.3,182,-0.090,-0.090,-0.090,0.000,0.000,0.000
1641182373882263808,2022-01-03-03:59:33,10.1.1.3,189,-0.080,-0.080,-0.080,0.000,0.000,0.000
1641182374082658048,2022-01-03-03:59:34,10.1.1.3,189,-0.070,-0.070,-0.070,0.000,0.000,0.000
1641182374272113920,2022-01-03-03:59:34,10.1.1.3,178,-0.060,-0.060,-0.060,0.000,0.000,0.000
1641182374479620864,2022-01-03-03:59:34,10.1.1.3,185,-0.050,-0.050,-0.050,0.000,0.000,0.000
1641182374680263936,2022-01-03-03:59:34,10.1.1.3,185,-0.040,-0.040,-0.040,0.000,0.000,0.000
1641182374879532032,2022-01-03-03:59:34,10.1.1.3,183,-0.030,-0.030,-0.030,0.000,0.000,0.000
1641182375081382144,2022-01-03-03:59:35,10.1.1.3,184,-0.020,-0.020,-0.020,0.000,0.000,0.000
1641182375279244800,2022-01-03-03:59:35,10.1.1.3,181,-0.010,-0.010,-0.010,0.000,0.000,0.000
1641182375479255808,2022-01-03-03:59:35,10.1.1.3,180,0.000,0.000,0.000,0.000,0.000,0.000
1641182375677903872,2022-01-03-03:59:35,10.1.1.3,177,-0.010,-0.010,-0.010,0.000,0.000,0.000
1641182375878123008,2022-01-03-03:59:35,10.1.1.3,176,-0.020,-0.020,-0.020,0.000,0.000,0.000
1641182376078052096,2022-01-03-03:59:36,10.1.1.3,171,-0.030,-0.030,-0.030,0.000,0.000,0.000
1641182376277142016,2022-01-03-03:59:36,10.1.1.3,167,-0.040,-0.040,-0.040,0.000,0.000,0.000
1641182376477338112,2022-01-03-03:59:36,10.1.1.3,166,-0.050,-0.050,-0.050,0.000,0.000,0.000
1641182376677963008,2022-01-03-03:59:36,10.1.1.3,167,-0.060,-0.060,-0.060,0.000,0.000,0.000
1641182376900087040,2022-01-03-03:59:36,10.1.1.3,188,-0.070,-0.070,-0.070,0.000,0.000,0.000
1641182377096236032,2022-01-03-03:59:37,10.1.1.3,182,-0.080,-0.080,-0.080,0.000,0.000,0.000
1641182377295706880,2022-01-03-03:59:37,10.1.1.3,181,-0.090,-0.090,-0.090,0.000,0.000,0.000
1641182377495739904,2022-01-03-03:59:37,10.1.1.3,180,-0.100,-0.100,-0.100,0.000,0.000,0.000
1641182377695649024,2022-01-03-03:59:37,10.1.1.3,178,-0.110,-0.110,-0.110,0.000,0.000,0.000
1641182377892770048,2022-01-03-03:59:37,10.1.1.3,174,-0.120,-0.120,-0.120,0.000,0.000,0.000
1641182378097795840,2022-01-03-03:59:38,10.1.1.3,178,-0.130,-0.130,-0.130,0.000,0.000,0.000
1641182378294440960,2022-01-03-03:59:38,10.1.1.3,174,-0.140,-0.140,-0.140,0.000,0.000,0.000
1641182378494492928,2022-01-03-03:59:38,10.1.1.3,171,-0.150,-0.150,-0.150,0.000,0.000,0.000
1641182378704315904,2022-01-03-03:59:38,10.1.1.3,176,-0.160,-0.160,-0.160,0.000,0.000,0.000
1641182378894519040,2022-01-03-03:59:38,10.1.1.3,165,-0.170,-0.170,-0.170,0.000,0.000,0.000
1641182379092567040,2022-01-03-03:59:39,10.1.1.3,162,-0.180,-0.180,-0.180,0.000,0.000,0.000
1641182379294277888,2022-01-03-03:59:39,10.1.1.3,162,-0.190,-0.190,-0.190,0.000,0.000,0.000
1641182379513084928,2022-01-03-03:59:39,10.1.1.3,180,-0.200,-0.200,-0.200,0.000,0.000,0.000
1641182379713046016,2022-01-03-03:59:39,10.1.1.3,179,-0.210,-0.210,-0.210,0.000,0.000,0.000
1641182379912518144,2022-01-03-03:59:39,10.1.1.3,178,-0.220,-0.220,-0.220,0.000,0.000,0.000
1641182380107755008,2022-01-03-03:59:40,10.1.1.3,172,-0.230,-0.230,-0.230,0.000,0.000,0.000
1641182380305763072,2022-01-03-03:59:40,10.1.1.3,168,-0.240,-0.240,-0.240,0.000,0.000,0.000
1641182380506406912,2022-01-03-03:59:40,10.1.1.3,168,-0.250,-0.250,-0.250,0.000,0.000,0.000
1641182380704808960,2022-01-03-03:59:40,10.1.1.3,161,-0.260,-0.260,-0.260,0.000,0.000,0.000
1641182380904580096,2022-01-03-03:59:40,10.1.1.3,160,-0.270,-0.270,-0.270,0.000,0.000,0.000
1641182381107668992,2022-01-03-03:59:41,10.1.1.3,162,-0.280,-0.280,-0.280,0.000,0.000,0.000
1641182381306955008,2022-01-03-03:59:41,10.1.1.3,161,-0.290,-0.290,-0.290,0.000,0.000,0.000
1641182381512576000,2022-01-03-03:59:41,10.1.1.3,166,-0.300,-0.300,-0.300,0.000,0.000,0.000
1641182381708331008,2022-01-03-03:59:41,10.1.1.3,160,-0.310,-0.310,-0.310,0.000,0.000,0.000
1641182381926417152,2022-01-03-03:59:41,10.1.1.3,177,-0.320,-0.320,-0.320,0.000,0.000,0.000
1641182382124758016,2022-01-03-03:59:42,10.1.1.3,175,-0.330,-0.330,-0.330,0.000,0.000,0.000
1641182382325874176,2022-01-03-03:59:42,10.1.1.3,175,-0.340,-0.340,-0.340,0.000,0.000,0.000
1641182382525607168,2022-01-03-03:59:42,10.1.1.3,174,-0.350,-0.350,-0.350,0.000,0.000,0.000
1641182382704652032,2022-01-03-03:59:42,10.1.1.3,153,-0.360,-0.360,-0.360,0.000,0.000,0.000
1641182382924995840,2022-01-03-03:59:42,10.1.1.3,172,-0.370,-0.370,-0.370,0.000,0.000,0.000
1641182383136308992,2022-01-03-03:59:43,10.1.1.3,182,-0.380,-0.380,-0.380,0.000,0.000,0.000
1641182383324397056,2022-01-03-03:59:43,10.1.1.3,168,-0.390,-0.390,-0.390,0.000,0.000,0.000
1641182383524180992,2022-01-03-03:59:43,10.1.1.3,167,-0.400,-0.400,-0.400,0.000,0.000,0.000
1641182383723905024,2022-01-03-03:59:43,10.1.1.3,166,-0.410,-0.410,-0.410,0.000,0.000,0.000
1641182383922436864,2022-01-03-03:59:43,10.1.1.3,163,-0.420,-0.420,-0.420,0.000,0.000,0.000
1641182384133931008,2022-01-03-03:59:44,10.1.1.3,173,-0.430,-0.430,-0.430,0.000,0.000,0.000
1641182384323451136,2022-01-03-03:59:44,10.1.1.3,163,-0.440,-0.440,-0.440,0.000,0.000,0.000
1641182384523324928,2022-01-03-03:59:44,10.1.1.3,160,-0.450,-0.450,-0.450,0.000,0.000,0.000
1641182384758008832,2022-01-03-03:59:44,10.1.1.3,194,-0.460,-0.460,-0.460,0.000,0.000,0.000
1641182384922905856,2022-01-03-03:59:44,10.1.1.3,158,-0.470,-0.470,-0.470,0.000,0.000,0.000
1641182385120829184,2022-01-03-03:59:45,10.1.1.3,155,-0.480,-0.480,-0.480,0.000,0.000,0.000
1641182385322712064,2022-01-03-03:59:45,10.1.1.3,156,-0.490,-0.490,-0.490,0.000,0.000,0.000
1641182385521396992,2022-01-03-03:59:45,10.1.1.3,154,-0.480,-0.480,-0.480,0.000,0.000,0.000
1641182385725303808,2022-01-03-03:59:45,10.1.1.3,156,-0.470,-0.470,-0.470,0.000,0.000,0.000
1641182385924397056,2022-01-03-03:59:45,10.1.1.3,154,-0.460,-0.460,-0.460,0.000,0.000,0.000
1641182386123700992,2022-01-03-03:59:46,10.1.1.3,153,-0.450,-0.450,-0.450,0.000,0.000,0.000
1641182386322704128,2022-01-03-03:59:46,10.1.1.3,151,-0.440,-0.440,-0.440,0.000,0.000,0.000
1641182386536352000,2022-01-03-03:59:46,10.1.1.3,163,-0.430,-0.430,-0.430,0.000,0.000,0.000
1641182386765274880,2022-01-03-03:59:46,10.1.1.3,192,-0.420,-0.420,-0.420,0.000,0.000,0.000
1641182386937100800,2022-01-03-03:59:46,10.1.1.3,163,-0.410,-0.410,-0.410,0.000,0.000,0.000
1641182387139826176,2022-01-03-03:59:47,10.1.1.3,163,-0.400,-0.400,-0.400,0.000,0.000,0.000
1641182387336781056,2022-01-03-03:59:47,10.1.1.3,157,-0.390,-0.390,-0.390,0.000,0.000,0.000
1641182387543057920,2022-01-03-03:59:47,10.1.1.3,161,-0.380,-0.380,-0.380,0.000,0.000,0.000
1641182387741810944,2022-01-03-03:59:47,10.1.1.3,159,-0.370,-0.370,-0.370,0.000,0.000,0.000
1641182387941112064,2022-01-03-03:59:47,10.1.1.3,157,-0.360,-0.360,-0.360,0.000,0.000,0.000
1641182388149560832,2022-01-03-03:59:48,10.1.1.3,164,-0.350,-0.350,-0.350,0.000,0.000,0.000
1641182388340929024,2022-01-03-03:59:48,10.1.1.3,155,-0.340,-0.340,-0.340,0.000,0.000,0.000
1641182388548221952,2022-01-03-03:59:48,10.1.1.3,161,-0.330,-0.330,-0.330,0.000,0.000,0.000
1641182388749207040,2022-01-03-03:59:48,10.1.1.3,162,-0.320,-0.320,-0.320,0.000,0.000,0.000
1641182388951872000,2022-01-03-03:59:48,10.1.1.3,162,-0.310,-0.310,-0.310,0.000,0.000,0.000
1641182389151352832,2022-01-03-03:59:49,10.1.1.3,161,-0.300,-0.300,-0.300,0.000,0.000,0.000
1641182389352470016,2022-01-03-03:59:49,10.1.1.3,161,-0.290,-0.290,-0.290,0.000,0.000,0.000
1641182389592133888,2022-01-03-03:59:49,10.1.1.3,199,-0.280,-0.280,-0.280,0.000,0.000,0.000
1641182389975593216,2022-01-03-03:59:49,10.1.1.3,179,-0.260,-0.260,-0.260,0.000,0.000,0.000
1641182390172483840,2022-01-03-03:59:50,10.1.1.3,176,-0.250,-0.250,-0.250,0.000,0.000,0.000
1641182390371926016,2022-01-03-03:59:50,10.1.1.3,174,-0.240,-0.240,-0.240,0.000,0.000,0.000
1641182390573528064,2022-01-03-03:59:50,10.1.1.3,175,-0.230,-0.230,-0.230,0.000,0.000,0.000
1641182390979645952,2022-01-03-03:59:50,10.1.1.3,179,-0.210,-0.210,-0.210,0.000,0.000,0.000
1641182391172568064,2022-01-03-03:59:51,10.1.1.3,171,-0.200,-0.200,-0.200,0.000,0.000,0.000
1641182391395641088,2022-01-03-03:59:51,10.1.1.3,194,-0.190,-0.190,-0.190,0.000,0.000,0.000
1641182391578886144,2022-01-03-03:59:51,10.1.1.3,176,-0.180,-0.180,-0.180,0.000,0.000,0.000
1641182391779313152,2022-01-03-03:59:51,10.1.1.3,176,-0.170,-0.170,-0.170,0.000,0.000,0.000
1641182391979505152,2022-01-03-03:59:51,10.1.1.3,175,-0.160,-0.160,-0.160,0.000,0.000,0.000
1641182392180766976,2022-01-03-03:59:52,10.1.1.3,175,-0.150,-0.150,-0.150,0.000,0.000,0.000
1641182392379378176,2022-01-03-03:59:52,10.1.1.3,173,-0.140,-0.140,-0.140,0.000,0.000,0.000
1641182392580073984,2022-01-03-03:59:52,10.1.1.3,172,-0.130,-0.130,-0.130,0.000,0.000,0.000
1641182392781158912,2022-01-03-03:59:52,10.1.1.3,172,-0.120,-0.120,-0.120,0.000,0.000,0.000
1641182392983952128,2022-01-03-03:59:52,10.1.1.3,173,-0.110,-0.110,-0.110,0.000,0.000,0.000
1641182393181948928,2022-01-03-03:59:53,10.1.1.3,171,-0.100,-0.100,-0.100,0.000,0.000,0.000
1641182393401531904,2022-01-03-03:59:53,10.1.1.3,189,-0.090,-0.090,-0.090,0.000,0.000,0.000
1641182393602482944,2022-01-03-03:59:53,10.1.1.3,188,-0.080,-0.080,-0.080,0.000,0.000,0.000
1641182393802177024,2022-01-03-03:59:53,10.1.1.3,187,-0.070,-0.070,-0.070,0.000,0.000,0.000
1641182394004178944,2022-01-03-03:59:54,10.1.1.3,188,-0.060,-0.060,-0.060,0.000,0.000,0.000
1641182394204445952,2022-01-03-03:59:54,10.1.1.3,188,-0.050,-0.050,-0.050,0.000,0.000,0.000
1641182394404550144,2022-01-03-03:59:54,10.1.1.3,187,-0.040,-0.040,-0.040,0.000,0.000,0.000
1641182394606318080,2022-01-03-03:59:54,10.1.1.3,187,-0.030,-0.030,-0.030,0.000,0.000,0.000
1641182394803753984,2022-01-03-03:59:54,10.1.1.3,184,-0.020,-0.020,-0.020,0.000,0.000,0.000
1641182395006092032,2022-01-03-03:59:55,10.1.1.3,185,-0.010,-0.010,-0.010,0.000,0.000,0.000
1641182395204008192,2022-01-03-03:59:55,10.1.1.3,182,0.000,0.000,0.000,0.000,0.000,0.000
1641182395404873984,2022-01-03-03:59:55,10.1.1.3,182,-0.010,-0.010,-0.010,0.000,0.000,0.000
1641182395600512000,2022-01-03-03:59:55,10.1.1.3,176,-0.020,-0.020,-0.020,0.000,0.000,0.000
1641182395802824960,2022-01-03-03:59:55,10.1.1.3,178,-0.030,-0.030,-0.030,0.000,0.000,0.000
1641182396001490176,2022-01-03-03:59:56,10.1.1.3,175,-0.040,-0.040,-0.040,0.000,0.000,0.000
1641182396203998976,2022-01-03-03:59:56,10.1.1.3,176,-0.050,-0.050,-0.050,0.000,0.000,0.000
1641182396402360832,2022-01-03-03:59:56,10.1.1.3,173,-0.060,-0.060,-0.060,0.000,0.000,0.000
1641182396623581952,2022-01-03-03:59:56,10.1.1.3,194,-0.070,-0.070,-0.070,0.000,0.000,0.000
1641182396822548992,2022-01-03-03:59:56,10.1.1.3,191,-0.080,-0.080,-0.080,0.000,0.000,0.000
1641182397023670784,2022-01-03-03:59:57,10.1.1.3,190,-0.090,-0.090,-0.090,0.000,0.000,0.000
1641182397222578944,2022-01-03-03:59:57,10.1.1.3,187,-0.100,-0.100,-0.100,0.000,0.000,0.000
1641182397422702080,2022-01-03-03:59:57,10.1.1.3,186,-0.110,-0.110,-0.110,0.000,0.000,0.000
1641182397626095104,2022-01-03-03:59:57,10.1.1.3,188,-0.120,-0.120,-0.120,0.000,0.000,0.000
1641182397826507008,2022-01-03-03:59:57,10.1.1.3,188,-0.130,-0.130,-0.130,0.000,0.000,0.000
1641182398027618816,2022-01-03-03:59:58,10.1.1.3,189,-0.140,-0.140,-0.140,0.000,0.000,0.000
1641182398231610112,2022-01-03-03:59:58,10.1.1.3,186,-0.150,-0.150,-0.150,0.000,0.000,0.000
1641182398419181056,2022-01-03-03:59:58,10.1.1.3,173,-0.160,-0.160,-0.160,0.000,0.000,0.000
1641182398618882048,2022-01-03-03:59:58,10.1.1.3,172,-0.170,-0.170,-0.170,0.000,0.000,0.000
1641182398838222080,2022-01-03-03:59:58,10.1.1.3,187,-0.180,-0.180,-0.180,0.000,0.000,0.000
1641182399037390080,2022-01-03-03:59:59,10.1.1.3,181,-0.190,-0.190,-0.190,0.000,0.000,0.000
1641182399238189824,2022-01-03-03:59:59,10.1.1.3,180,-0.200,-0.200,-0.200,0.000,0.000,0.000
1641182399440731904,2022-01-03-03:59:59,10.1.1.3,182,-0.210,-0.210,-0.210,0.000,0.000,0.000
1641182399637900032,2022-01-03-03:59:59,10.1.1.3,177,-0.220,-0.220,-0.220,0.000,0.000,0.000
1641182399838973952,2022-01-03-03:59:59,10.1.1.3,176,-0.230,-0.230,-0.230,0.000,0.000,0.000
1641182400040338944,2022-01-03-04:00:00,10.1.1.3,177,-0.240,-0.240,-0.240,0.000,0.000,0.000
1641182400256668160,2022-01-03-04:00:00,10.1.1.3,190,-0.250,-0.250,-0.250,0.000,0.000,0.000
1641182400458653952,2022-01-03-04:00:00,10.1.1.3,187,-0.260,-0.260,-0.260,0.000,0.000,0.000
1641182400656589056,2022-01-03-04:00:00,10.1.1.3,183,-0.270,-0.270,-0.270,0.000,0.000,0.000
1641182401041353984,2022-01-03-04:00:01,10.1.1.3,165,-0.290,-0.290,-0.290,0.000,0.000,0.000
1641182401264118016,2022-01-03-04:00:01,10.1.1.3,186,-0.300,-0.300,-0.300,0.000,0.000,0.000
1641182401462769152,2022-01-03-04:00:01,10.1.1.3,182,-0.310,-0.310,-0.310,0.000,0.000,0.000
1641182401666126848,2022-01-03-04:00:01,10.1.1.3,184,-0.320,-0.320,-0.320,0.000,0.000,0.000
1641182401870574848,2022-01-03-04:00:01,10.1.1.3,186,-0.330,-0.330,-0.330,0.000,0.000,0.000
1641182402063993856,2022-01-03-04:00:02,10.1.1.3,179,-0.340,-0.340,-0.340,0.000,0.000,0.000
1641182402263120896,2022-01-03-04:00:02,10.1.1.3,178,-0.350,-0.350,-0.350,0.000,0.000,0.000
1641182402463088128,2022-01-03-04:00:02,10.1.1.3,177,-0.360,-0.360,-0.360,0.000,0.000,0.000
1641182402662734080,2022-01-03-04:00:02,10.1.1.3,176,-0.370,-0.370,-0.370,0.000,0.000,0.000
1641182402863095040,2022-01-03-04:00:02,10.1.1.3,175,-0.380,-0.380,-0.380,0.000,0.000,0.000
1641182403063774208,2022-01-03-04:00:03,10.1.1.3,175,-0.390,-0.390,-0.390,0.000,0.000,0.000
1641182403264648960,2022-01-03-04:00:03,10.1.1.3,175,-0.400,-0.400,-0.400,0.000,0.000,0.000
1641182403463308032,2022-01-03-04:00:03,10.1.1.3,173,-0.410,-0.410,-0.410,0.000,0.000,0.000
1641182403661520128,2022-01-03-04:00:03,10.1.1.3,170,-0.420,-0.420,-0.420,0.000,0.000,0.000
1641182403882444032,2022-01-03-04:00:03,10.1.1.3,188,-0.430,-0.430,-0.430,0.000,0.000,0.000
1641182404088804096,2022-01-03-04:00:04,10.1.1.3,194,-0.440,-0.440,-0.440,0.000,0.000,0.000
1641182404277494784,2022-01-03-04:00:04,10.1.1.3,181,-0.450,-0.450,-0.450,0.000,0.000,0.000
1641182404487508992,2022-01-03-04:00:04,10.1.1.3,189,-0.460,-0.460,-0.460,0.000,0.000,0.000
1641182404678763008,2022-01-03-04:00:04,10.1.1.3,180,-0.470,-0.470,-0.470,0.000,0.000,0.000
1641182404881777152,2022-01-03-04:00:04,10.1.1.3,182,-0.480,-0.480,-0.480,0.000,0.000,0.000
1641182405076896000,2022-01-03-04:00:05,10.1.1.3,176,-0.490,-0.490,-0.490,0.000,0.000,0.000
1641182405301368064,2022-01-03-04:00:05,10.1.1.3,199,-0.480,-0.480,-0.480,0.000,0.000,0.000
1641182405474294016,2022-01-03-04:00:05,10.1.1.3,172,-0.470,-0.470,-0.470,0.000,0.000,0.000
1641182405671710976,2022-01-03-04:00:05,10.1.1.3,167,-0.460,-0.460,-0.460,0.000,0.000,0.000
1641182405874473984,2022-01-03-04:00:05,10.1.1.3,169,-0.450,-0.450,-0.450,0.000,0.000,0.000
1641182406072920064,2022-01-03-04:00:06,10.1.1.3,168,-0.440,-0.440,-0.440,0.000,0.000,0.000
1641182406290885888,2022-01-03-04:00:06,10.1.1.3,181,-0.430,-0.430,-0.430,0.000,0.000,0.000
1641182406492037120,2022-01-03-04:00:06,10.1.1.3,182,-0.420,-0.420,-0.420,0.000,0.000,0.000
1641182406692051968,2022-01-03-04:00:06,10.1.1.3,181,-0.410,-0.410,-0.410,0.000,0.000,0.000
1641182406892443904,2022-01-03-04:00:06,10.1.1.3,181,-0.400,-0.400,-0.400,0.000,0.000,0.000
1641182407091368960,2022-01-03-04:00:07,10.1.1.3,178,-0.390,-0.390,-0.390,0.000,0.000,0.000
1641182407292894976,2022-01-03-04:00:07,10.1.1.3,175,-0.380,-0.380,-0.380,0.000,0.000,0.000
1641182407692558080,2022-01-03-04:00:07,10.1.1.3,174,-0.360,-0.360,-0.360,0.000,0.000,0.000
1641182407893261056,2022-01-03-04:00:07,10.1.1.3,173,-0.350,-0.350,-0.350,0.000,0.000,0.000
1641182408093611008,2022-01-03-04:00:08,10.1.1.3,173,-0.340,-0.340,-0.340,0.000,0.000,0.000
1641182408292982016,2022-01-03-04:00:08,10.1.1.3,169,-0.330,-0.330,-0.330,0.000,0.000,0.000
1641182408492738048,2022-01-03-04:00:08,10.1.1.3,168,-0.320,-0.320,-0.320,0.000,0.000,0.000
1641182408724922880,2022-01-03-04:00:08,10.1.1.3,199,-0.310,-0.310,-0.310,0.000,0.000,0.000
1641182408894893056,2022-01-03-04:00:08,10.1.1.3,169,-0.300,-0.300,-0.300,0.000,0.000,0.000
1641182409094279936,2022-01-03-04:00:09,10.1.1.3,167,-0.290,-0.290,-0.290,0.000,0.000,0.000
1641182409314748928,2022-01-03-04:00:09,10.1.1.3,187,-0.280,-0.280,-0.280,0.000,0.000,0.000
1641182409493972992,2022-01-03-04:00:09,10.1.1.3,165,-0.270,-0.270,-0.270,0.000,0.000,0.000
1641182409697694976,2022-01-03-04:00:09,10.1.1.3,168,-0.260,-0.260,-0.260,0.000,0.000,0.000
1641182409901603840,2022-01-03-04:00:09,10.1.1.3,171,-0.250,-0.250,-0.250,0.000,0.000,0.000
1641182410092588800,2022-01-03-04:00:10,10.1.1.3,162,-0.240,-0.240,-0.240,0.000,0.000,0.000
1641182410309272064,2022-01-03-04:00:10,10.1.1.3,177,-0.230,-0.230,-0.230,0.000,0.000,0.000
1641182410510021888,2022-01-03-04:00:10,10.1.1.3,177,-0.220,-0.220,-0.220,0.000,0.000,0.000
1641182410709990144,2022-01-03-04:00:10,10.1.1.3,176,-0.210,-0.210,-0.210,0.000,0.000,0.000
1641182410907740160,2022-01-03-04:00:10,10.1.1.3,174,-0.200,-0.200,-0.200,0.000,0.000,0.000
1641182411109801984,2022-01-03-04:00:11,10.1.1.3,174,-0.190,-0.190,-0.190,0.000,0.000,0.000
1641182411307632896,2022-01-03-04:00:11,10.1.1.3,172,-0.180,-0.180,-0.180,0.000,0.000,0.000
1641182411497870080,2022-01-03-04:00:11,10.1.1.3,161,-0.170,-0.170,-0.170,0.000,0.000,0.000
1641182411707186944,2022-01-03-04:00:11,10.1.1.3,169,-0.160,-0.160,-0.160,0.000,0.000,0.000
1641182411906703104,2022-01-03-04:00:11,10.1.1.3,168,-0.150,-0.150,-0.150,0.000,0.000,0.000
1641182412107851008,2022-01-03-04:00:12,10.1.1.3,169,-0.140,-0.140,-0.140,0.000,0.000,0.000
1641182412308457984,2022-01-03-04:00:12,10.1.1.3,168,-0.130,-0.130,-0.130,0.000,0.000,0.000
1641182412506398976,2022-01-03-04:00:12,10.1.1.3,164,-0.120,-0.120,-0.120,0.000,0.000,0.000
1641182412706958080,2022-01-03-04:00:12,10.1.1.3,163,-0.110,-0.110,-0.110,0.000,0.000,0.000
1641182412907084032,2022-01-03-04:00:12,10.1.1.3,159,-0.100,-0.100,-0.100,0.000,0.000,0.000
1641182413150723840,2022-01-03-04:00:13,10.1.1.3,199,-0.090,-0.090,-0.090,0.000,0.000,0.000
1641182413335213056,2022-01-03-04:00:13,10.1.1.3,182,-0.080,-0.080,-0.080,0.000,0.000,0.000
1641182413524219136,2022-01-03-04:00:13,10.1.1.3,169,-0.070,-0.070,-0.070,0.000,0.000,0.000
1641182413735544832,2022-01-03-04:00:13,10.1.1.3,178,-0.060,-0.060,-0.060,0.000,0.000,0.000
1641182413926099968,2022-01-03-04:00:13,10.1.1.3,168,-0.050,-0.050,-0.050,0.000,0.000,0.000
1641182414126605056,2022-01-03-04:00:14,10.1.1.3,164,-0.040,-0.040,-0.040,0.000,0.000,0.000
1641182414324051968,2022-01-03-04:00:14,10.1.1.3,160,-0.030,-0.030,-0.030,0.000,0.000,0.000
1641182414524009984,2022-01-03-04:00:14,10.1.1.3,158,-0.020,-0.020,-0.020,0.000,0.000,0.000
1641182414722996992,2022-01-03-04:00:14,10.1.1.3,156,-0.010,-0.010,-0.010,0.000,0.000,0.000
1641182414921995008,2022-01-03-04:00:14,10.1.1.3,154,-0.000,-0.000,-0.000,0.000,0.000,0.000
1641182415145273088,2022-01-03-04:00:15,10.1.1.3,176,-0.010,-0.010,-0.010,0.000,0.000,0.000
1641182415341026048,2022-01-03-04:00:15,10.1.1.3,171,-0.020,-0.020,-0.020,0.000,0.000,0.000
1641182415542331904,2022-01-03-04:00:15,10.1.1.3,168,-0.030,-0.030,-0.030,0.000,0.000,0.000
1641182415743025152,2022-01-03-04:00:15,10.1.1.3,166,-0.040,-0.040,-0.040,0.000,0.000,0.000
1641182415940393984,2022-01-03-04:00:15,10.1.1.3,163,-0.050,-0.050,-0.050,0.000,0.000,0.000
1641182416163316992,2022-01-03-04:00:16,10.1.1.3,185,-0.060,-0.060,-0.060,0.000,0.000,0.000
1641182416342946048,2022-01-03-04:00:16,10.1.1.3,163,-0.070,-0.070,-0.070,0.000,0.000,0.000
1641182416542486784,2022-01-03-04:00:16,10.1.1.3,160,-0.080,-0.080,-0.080,0.000,0.000,0.000
1641182416742297856,2022-01-03-04:00:16,10.1.1.3,158,-0.090,-0.090,-0.090,0.000,0.000,0.000
1641182416942328832,2022-01-03-04:00:16,10.1.1.3,157,-0.100,-0.100,-0.100,0.000,0.000,0.000
1641182417142082816,2022-01-03-04:00:17,10.1.1.3,154,-0.110,-0.110,-0.110,0.000,0.000,0.000
1641182417350029056,2022-01-03-04:00:17,10.1.1.3,161,-0.120,-0.120,-0.120,0.000,0.000,0.000
1641182417541800960,2022-01-03-04:00:17,10.1.1.3,152,-0.130,-0.130,-0.130,0.000,0.000,0.000
1641182417742842880,2022-01-03-04:00:17,10.1.1.3,152,-0.140,-0.140,-0.140,0.000,0.000,0.000
1641182417980369920,2022-01-03-04:00:17,10.1.1.3,189,-0.150,-0.150,-0.150,0.000,0.000,0.000
1641182418160269056,2022-01-03-04:00:18,10.1.1.3,167,-0.160,-0.160,-0.160,0.000,0.000,0.000
1641182418360672000,2022-01-03-04:00:18,10.1.1.3,167,-0.170,-0.170,-0.170,0.000,0.000,0.000
1641182418560782848,2022-01-03-04:00:18,10.1.1.3,167,-0.180,-0.180,-0.180,0.000,0.000,0.000
1641182418754867968,2022-01-03-04:00:18,10.1.1.3,160,-0.190,-0.190,-0.190,0.000,0.000,0.000
1641182418959749888,2022-01-03-04:00:18,10.1.1.3,163,-0.200,-0.200,-0.200,0.000,0.000,0.000
1641182419178582784,2022-01-03-04:00:19,10.1.1.3,180,-0.210,-0.210,-0.210,0.000,0.000,0.000
1641182419365242880,2022-01-03-04:00:19,10.1.1.3,167,-0.220,-0.220,-0.220,0.000,0.000,0.000
1641182419558566144,2022-01-03-04:00:19,10.1.1.3,159,-0.230,-0.230,-0.230,0.000,0.000,0.000
1641182419760267008,2022-01-03-04:00:19,10.1.1.3,160,-0.240,-0.240,-0.240,0.000,0.000,0.000
1641182419959821824,2022-01-03-04:00:19,10.1.1.3,159,-0.250,-0.250,-0.250,0.000,0.000,0.000
1641182420197997056,2022-01-03-04:00:20,10.1.1.3,196,-0.260,-0.260,-0.260,0.000,0.000,0.000
1641182420569165056,2022-01-03-04:00:20,10.1.1.3,167,-0.280,-0.280,-0.280,0.000,0.000,0.000
1641182420771092992,2022-01-03-04:00:20,10.1.1.3,165,-0.290,-0.290,-0.290,0.000,0.000,0.000
1641182420971107072,2022-01-03-04:00:20,10.1.1.3,163,-0.300,-0.300,-0.300,0.000,0.000,0.000
1641182421184692992,2022-01-03-04:00:21,10.1.1.3,176,-0.310,-0.310,-0.310,0.000,0.000,0.000
1641182421392657920,2022-01-03-04:00:21,10.1.1.3,183,-0.320,-0.320,-0.320,0.000,0.000,0.000
1641182421787518976,2022-01-03-04:00:21,10.1.1.3,176,-0.340,-0.340,-0.340,0.000,0.000,0.000
1641182422014857984,2022-01-03-04:00:22,10.1.1.3,203,-0.350,-0.350,-0.350,0.000,0.000,0.000
1641182422191832064,2022-01-03-04:00:22,10.1.1.3,176,-0.360,-0.360,-0.360,0.000,0.000,0.000
1641182422390795008,2022-01-03-04:00:22,10.1.1.3,175,-0.370,-0.370,-0.370,0.000,0.000,0.000
1641182422796608000,2022-01-03-04:00:22,10.1.1.3,179,-0.390,-0.390,-0.390,0.000,0.000,0.000
1641182423018501120,2022-01-03-04:00:23,10.1.1.3,200,-0.400,-0.400,-0.400,0.000,0.000,0.000
1641182423394145024,2022-01-03-04:00:23,10.1.1.3,173,-0.420,-0.420,-0.420,0.000,0.000,0.000
1641182423593719040,2022-01-03-04:00:23,10.1.1.3,171,-0.430,-0.430,-0.430,0.000,0.000,0.000
1641182423815238912,2022-01-03-04:00:23,10.1.1.3,186,-0.440,-0.440,-0.440,0.000,0.000,0.000
1641182424021063936,2022-01-03-04:00:24,10.1.1.3,191,-0.450,-0.450,-0.450,0.000,0.000,0.000
1641182424214736896,2022-01-03-04:00:24,10.1.1.3,181,-0.460,-0.460,-0.460,0.000,0.000,0.000
1641182424415314944,2022-01-03-04:00:24,10.1.1.3,180,-0.470,-0.470,-0.470,0.000,0.000,0.000
1641182424618557952,2022-01-03-04:00:24,10.1.1.3,182,-0.480,-0.480,-0.480,0.000,0.000,0.000
1641182424818733056,2022-01-03-04:00:24,10.1.1.3,180,-0.490,-0.490,-0.490,0.000,0.000,0.000
1641182425018678784,2022-01-03-04:00:25,10.1.1.3,179,-0.480,-0.480,-0.480,0.000,0.000,0.000
1641182425430779904,2022-01-03-04:00:25,10.1.1.3,189,-0.460,-0.460,-0.460,0.000,0.000,0.000
1641182425630152960,2022-01-03-04:00:25,10.1.1.3,187,-0.450,-0.450,-0.450,0.000,0.000,0.000
1641182425821437952,2022-01-03-04:00:25,10.1.1.3,174,-0.440,-0.440,-0.440,0.000,0.000,0.000
1641182426237419008,2022-01-03-04:00:26,10.1.1.3,187,-0.420,-0.420,-0.420,0.000,0.000,0.000
1641182426424616192,2022-01-03-04:00:26,10.1.1.3,174,-0.410,-0.410,-0.410,0.000,0.000,0.000
1641182426624908800,2022-01-03-04:00:26,10.1.1.3,173,-0.400,-0.400,-0.400,0.000,0.000,0.000
1641182426824189952,2022-01-03-04:00:26,10.1.1.3,171,-0.390,-0.390,-0.390,0.000,0.000,0.000
1641182427026572032,2022-01-03-04:00:27,10.1.1.3,172,-0.380,-0.380,-0.380,0.000,0.000,0.000
1641182427244961024,2022-01-03-04:00:27,10.1.1.3,190,-0.370,-0.370,-0.370,0.000,0.000,0.000
1641182427446612992,2022-01-03-04:00:27,10.1.1.3,187,-0.360,-0.360,-0.360,0.000,0.000,0.000
1641182427646807808,2022-01-03-04:00:27,10.1.1.3,187,-0.350,-0.350,-0.350,0.000,0.000,0.000
1641182427846885888,2022-01-03-04:00:27,10.1.1.3,186,-0.340,-0.340,-0.340,0.000,0.000,0.000
1641182428058758912,2022-01-03-04:00:28,10.1.1.3,197,-0.330,-0.330,-0.330,0.000,0.000,0.000
1641182428245515008,2022-01-03-04:00:28,10.1.1.3,183,-0.320,-0.320,-0.320,0.000,0.000,0.000
1641182428462152960,2022-01-03-04:00:28,10.1.1.3,199,-0.310,-0.310,-0.310,0.000,0.000,0.000
1641182428838884096,2022-01-03-04:00:28,10.1.1.3,174,-0.290,-0.290,-0.290,0.000,0.000,0.000
1641182429055196928,2022-01-03-04:00:29,10.1.1.3,189,-0.280,-0.280,-0.280,0.000,0.000,0.000
1641182429244982016,2022-01-03-04:00:29,10.1.1.3,178,-0.270,-0.270,-0.270,0.000,0.000,0.000
1641182429445188096,2022-01-03-04:00:29,10.1.1.3,177,-0.260,-0.260,-0.260,0.000,0.000,0.000
1641182429644737024,2022-01-03-04:00:29,10.1.1.3,176,-0.250,-0.250,-0.250,0.000,0.000,0.000
1641182429844723968,2022-01-03-04:00:29,10.1.1.3,176,-0.240,-0.240,-0.240,0.000,0.000,0.000
1641182430058769920,2022-01-03-04:00:30,10.1.1.3,189,-0.230,-0.230,-0.230,0.000,0.000,0.000
1641182430252293120,2022-01-03-04:00:30,10.1.1.3,182,-0.220,-0.220,-0.220,0.000,0.000,0.000
1641182430470406144,2022-01-03-04:00:30,10.1.1.3,197,-0.210,-0.210,-0.210,0.000,0.000,0.000
1641182430658384128,2022-01-03-04:00:30,10.1.1.3,184,-0.200,-0.200,-0.200,0.000,0.000,0.000
1641182430859417088,2022-01-03-04:00:30,10.1.1.3,181,-0.190,-0.190,-0.190,0.000,0.000,0.000
1641182431059441920,2022-01-03-04:00:31,10.1.1.3,181,-0.180,-0.180,-0.180,0.000,0.000,0.000
1641182431257111040,2022-01-03-04:00:31,10.1.1.3,178,-0.170,-0.170,-0.170,0.000,0.000,0.000
1641182431458272000,2022-01-03-04:00:31,10.1.1.3,178,-0.160,-0.160,-0.160,0.000,0.000,0.000
1641182431657422080,2022-01-03-04:00:31,10.1.1.3,176,-0.150,-0.150,-0.150,0.000,0.000,0.000
1641182431857918976,2022-01-03-04:00:31,10.1.1.3,176,-0.140,-0.140,-0.140,0.000,0.000,0.000
1641182432072079872,2022-01-03-04:00:32,10.1.1.3,189,-0.130,-0.130,-0.130,0.000,0.000,0.000
1641182432259215104,2022-01-03-04:00:32,10.1.1.3,176,-0.120,-0.120,-0.120,0.000,0.000,0.000
1641182432462067968,2022-01-03-04:00:32,10.1.1.3,178,-0.110,-0.110,-0.110,0.000,0.000,0.000
1641182432659372032,2022-01-03-04:00:32,10.1.1.3,174,-0.100,-0.100,-0.100,0.000,0.000,0.000
1641182432858733056,2022-01-03-04:00:32,10.1.1.3,173,-0.090,-0.090,-0.090,0.000,0.000,0.000
1641182433062222080,2022-01-03-04:00:33,10.1.1.3,175,-0.080,-0.080,-0.080,0.000,0.000,0.000
1641182433277748992,2022-01-03-04:00:33,10.1.1.3,190,-0.070,-0.070,-0.070,0.000,0.000,0.000
1641182433459837952,2022-01-03-04:00:33,10.1.1.3,171,-0.060,-0.060,-0.060,0.000,0.000,0.000
1641182433882582784,2022-01-03-04:00:33,10.1.1.3,193,-0.040,-0.040,-0.040,0.000,0.000,0.000
1641182434076121088,2022-01-03-04:00:34,10.1.1.3,186,-0.030,-0.030,-0.030,0.000,0.000,0.000
1641182434477800960,2022-01-03-04:00:34,10.1.1.3,185,-0.010,-0.010,-0.010,0.000,0.000,0.000
1641182434675857920,2022-01-03-04:00:34,10.1.1.3,179,0.000,0.000,0.000,0.000,0.000,0.000
1641182434875736064,2022-01-03-04:00:34,10.1.1.3,177,-0.010,-0.010,-0.010,0.000,0.000,0.000
1641182435077338880,2022-01-03-04:00:35,10.1.1.3,175,-0.020,-0.020,-0.020,0.000,0.000,0.000
1641182435683343872,2022-01-03-04:00:35,10.1.1.3,176,-0.050,-0.050,-0.050,0.000,0.000,0.000
1641182435880321024,2022-01-03-04:00:35,10.1.1.3,171,-0.060,-0.060,-0.060,0.000,0.000,0.000
1641182436093389056,2022-01-03-04:00:36,10.1.1.3,182,-0.070,-0.070,-0.070,0.000,0.000,0.000
1641182436282320128,2022-01-03-04:00:36,10.1.1.3,170,-0.080,-0.080,-0.080,0.000,0.000,0.000
1641182436482619136,2022-01-03-04:00:36,10.1.1.3,169,-0.090,-0.090,-0.090,0.000,0.000,0.000
1641182436702579968,2022-01-03-04:00:36,10.1.1.3,186,-0.100,-0.100,-0.100,0.000,0.000,0.000
1641182436898076160,2022-01-03-04:00:36,10.1.1.3,176,-0.110,-0.110,-0.110,0.000,0.000,0.000
1641182437101916928,2022-01-03-04:00:37,10.1.1.3,179,-0.120,-0.120,-0.120,0.000,0.000,0.000
1641182437300462080,2022-01-03-04:00:37,10.1.1.3,177,-0.130,-0.130,-0.130,0.000,0.000,0.000
1641182437502150912,2022-01-03-04:00:37,10.1.1.3,177,-0.140,-0.140,-0.140,0.000,0.000,0.000
1641182437701594112,2022-01-03-04:00:37,10.1.1.3,173,-0.150,-0.150,-0.150,0.000,0.000,0.000
1641182437901267968,2022-01-03-04:00:37,10.1.1.3,172,-0.160,-0.160,-0.160,0.000,0.000,0.000
1641182438100697088,2022-01-03-04:00:38,10.1.1.3,171,-0.170,-0.170,-0.170,0.000,0.000,0.000
1641182438300941056,2022-01-03-04:00:38,10.1.1.3,169,-0.180,-0.180,-0.180,0.000,0.000,0.000
1641182438499505152,2022-01-03-04:00:38,10.1.1.3,166,-0.190,-0.190,-0.190,0.000,0.000,0.000
1641182438719901952,2022-01-03-04:00:38,10.1.1.3,185,-0.200,-0.200,-0.200,0.000,0.000,0.000
1641182438919328000,2022-01-03-04:00:38,10.1.1.3,183,-0.210,-0.210,-0.210,0.000,0.000,0.000
1641182439119554048,2022-01-03-04:00:39,10.1.1.3,181,-0.220,-0.220,-0.220,0.000,0.000,0.000
1641182439318750976,2022-01-03-04:00:39,10.1.1.3,179,-0.230,-0.230,-0.230,0.000,0.000,0.000
1641182439519902976,2022-01-03-04:00:39,10.1.1.3,179,-0.240,-0.240,-0.240,0.000,0.000,0.000
1641182439718658816,2022-01-03-04:00:39,10.1.1.3,174,-0.250,-0.250,-0.250,0.000,0.000,0.000
1641182440130639104,2022-01-03-04:00:40,10.1.1.3,182,-0.270,-0.270,-0.270,0.000,0.000,0.000
1641182440330362112,2022-01-03-04:00:40,10.1.1.3,181,-0.280,-0.280,-0.280,0.000,0.000,0.000
1641182440528299008,2022-01-03-04:00:40,10.1.1.3,177,-0.290,-0.290,-0.290,0.000,0.000,0.000
1641182440731372032,2022-01-03-04:00:40,10.1.1.3,180,-0.300,-0.300,-0.300,0.000,0.000,0.000
1641182440929255936,2022-01-03-04:00:40,10.1.1.3,177,-0.310,-0.310,-0.310,0.000,0.000,0.000
1641182441128375040,2022-01-03-04:00:41,10.1.1.3,174,-0.320,-0.320,-0.320,0.000,0.000,0.000
1641182441331049984,2022-01-03-04:00:41,10.1.1.3,173,-0.330,-0.330,-0.330,0.000,0.000,0.000
1641182441527889920,2022-01-03-04:00:41,10.1.1.3,166,-0.340,-0.340,-0.340,0.000,0.000,0.000
1641182441732539904,2022-01-03-04:00:41,10.1.1.3,170,-0.350,-0.350,-0.350,0.000,0.000,0.000
1641182441932990976,2022-01-03-04:00:41,10.1.1.3,170,-0.360,-0.360,-0.360,0.000,0.000,0.000
1641182442131261952,2022-01-03-04:00:42,10.1.1.3,167,-0.370,-0.370,-0.370,0.000,0.000,0.000
1641182442340418048,2022-01-03-04:00:42,10.1.1.3,175,-0.380,-0.380,-0.380,0.000,0.000,0.000
1641182442751005952,2022-01-03-04:00:42,10.1.1.3,179,-0.400,-0.400,-0.400,0.000,0.000,0.000
1641182442951368192,2022-01-03-04:00:42,10.1.1.3,178,-0.410,-0.410,-0.410,0.000,0.000,0.000
1641182443152355840,2022-01-03-04:00:43,10.1.1.3,178,-0.420,-0.420,-0.420,0.000,0.000,0.000
1641182443554289152,2022-01-03-04:00:43,10.1.1.3,178,-0.440,-0.440,-0.440,0.000,0.000,0.000
1641182443746784000,2022-01-03-04:00:43,10.1.1.3,170,-0.450,-0.450,-0.450,0.000,0.000,0.000
1641182443952608000,2022-01-03-04:00:43,10.1.1.3,175,-0.460,-0.460,-0.460,0.000,0.000,0.000
1641182444153278208,2022-01-03-04:00:44,10.1.1.3,175,-0.470,-0.470,-0.470,0.000,0.000,0.000
1641182444351172864,2022-01-03-04:00:44,10.1.1.3,172,-0.480,-0.480,-0.480,0.000,0.000,0.000
1641182444552766976,2022-01-03-04:00:44,10.1.1.3,173,-0.490,-0.490,-0.490,0.000,0.000,0.000
1641182444751158016,2022-01-03-04:00:44,10.1.1.3,170,-0.480,-0.480,-0.480,0.000,0.000,0.000
1641182444951795968,2022-01-03-04:00:44,10.1.1.3,170,-0.470,-0.470,-0.470,0.000,0.000,0.000
1641182445147767040,2022-01-03-04:00:45,10.1.1.3,165,-0.460,-0.460,-0.460,0.000,0.000,0.000
1641182445347664128,2022-01-03-04:00:45,10.1.1.3,164,-0.450,-0.450,-0.450,0.000,0.000,0.000
1641182445546897920,2022-01-03-04:00:45,10.1.1.3,162,-0.440,-0.440,-0.440,0.000,0.000,0.000
1641182445746782976,2022-01-03-04:00:45,10.1.1.3,161,-0.430,-0.430,-0.430,0.000,0.000,0.000
1641182445946872832,2022-01-03-04:00:45,10.1.1.3,160,-0.420,-0.420,-0.420,0.000,0.000,0.000
1641182446147644928,2022-01-03-04:00:46,10.1.1.3,159,-0.410,-0.410,-0.410,0.000,0.000,0.000
1641182446346374912,2022-01-03-04:00:46,10.1.1.3,157,-0.400,-0.400,-0.400,0.000,0.000,0.000
1641182446565732096,2022-01-03-04:00:46,10.1.1.3,175,-0.390,-0.390,-0.390,0.000,0.000,0.000
1641182446765335040,2022-01-03-04:00:46,10.1.1.3,173,-0.380,-0.380,-0.380,0.000,0.000,0.000
1641182446945431040,2022-01-03-04:00:46,10.1.1.3,153,-0.370,-0.370,-0.370,0.000,0.000,0.000
1641182447166066944,2022-01-03-04:00:47,10.1.1.3,173,-0.360,-0.360,-0.360,0.000,0.000,0.000
1641182447364878848,2022-01-03-04:00:47,10.1.1.3,170,-0.350,-0.350,-0.350,0.000,0.000,0.000
1641182447563708928,2022-01-03-04:00:47,10.1.1.3,168,-0.340,-0.340,-0.340,0.000,0.000,0.000
1641182447765191936,2022-01-03-04:00:47,10.1.1.3,168,-0.330,-0.330,-0.330,0.000,0.000,0.000
1641182447963697920,2022-01-03-04:00:47,10.1.1.3,166,-0.320,-0.320,-0.320,0.000,0.000,0.000
1641182448174999040,2022-01-03-04:00:48,10.1.1.3,176,-0.310,-0.310,-0.310,0.000,0.000,0.000
1641182448361428992,2022-01-03-04:00:48,10.1.1.3,162,-0.300,-0.300,-0.300,0.000,0.000,0.000
1641182448558749952,2022-01-03-04:00:48,10.1.1.3,158,-0.290,-0.290,-0.290,0.000,0.000,0.000
1641182448759725056,2022-01-03-04:00:48,10.1.1.3,158,-0.280,-0.280,-0.280,0.000,0.000,0.000
1641182448991257856,2022-01-03-04:00:48,10.1.1.3,189,-0.270,-0.270,-0.270,0.000,0.000,0.000
1641182449158752000,2022-01-03-04:00:49,10.1.1.3,156,-0.260,-0.260,-0.260,0.000,0.000,0.000
1641182449357641984,2022-01-03-04:00:49,10.1.1.3,154,-0.250,-0.250,-0.250,0.000,0.000,0.000
1641182449568909056,2022-01-03-04:00:49,10.1.1.3,164,-0.240,-0.240,-0.240,0.000,0.000,0.000
1641182449759186944,2022-01-03-04:00:49,10.1.1.3,154,-0.230,-0.230,-0.230,0.000,0.000,0.000
1641182449967660800,2022-01-03-04:00:49,10.1.1.3,162,-0.220,-0.220,-0.220,0.000,0.000,0.000
1641182450159319040,2022-01-03-04:00:50,10.1.1.3,153,-0.210,-0.210,-0.210,0.000,0.000,0.000
1641182450358396928,2022-01-03-04:00:50,10.1.1.3,151,-0.200,-0.200,-0.200,0.000,0.000,0.000
1641182450556993024,2022-01-03-04:00:50,10.1.1.3,150,-0.190,-0.190,-0.190,0.000,0.000,0.000
1641182450757388032,2022-01-03-04:00:50,10.1.1.3,149,-0.180,-0.180,-0.180,0.000,0.000,0.000
1641182450997495808,2022-01-03-04:00:50,10.1.1.3,189,-0.170,-0.170,-0.170,0.000,0.000,0.000
1641182451181942016,2022-01-03-04:00:51,10.1.1.3,173,-0.160,-0.160,-0.160,0.000,0.000,0.000
1641182451388921088,2022-01-03-04:00:51,10.1.1.3,179,-0.150,-0.150,-0.150,0.000,0.000,0.000
1641182451561334016,2022-01-03-04:00:51,10.1.1.3,150,-0.140,-0.140,-0.140,0.000,0.000,0.000
1641182451782483200,2022-01-03-04:00:51,10.1.1.3,171,-0.130,-0.130,-0.130,0.000,0.000,0.000
1641182451982925824,2022-01-03-04:00:51,10.1.1.3,171,-0.120,-0.120,-0.120,0.000,0.000,0.000
1641182452200212992,2022-01-03-04:00:52,10.1.1.3,187,-0.110,-0.110,-0.110,0.000,0.000,0.000
1641182452385318912,2022-01-03-04:00:52,10.1.1.3,171,-0.100,-0.100,-0.100,0.000,0.000,0.000
1641182452587567104,2022-01-03-04:00:52,10.1.1.3,170,-0.090,-0.090,-0.090,0.000,0.000,0.000
1641182452787008000,2022-01-03-04:00:52,10.1.1.3,168,-0.080,-0.080,-0.080,0.000,0.000,0.000
1641182452989510912,2022-01-03-04:00:52,10.1.1.3,169,-0.070,-0.070,-0.070,0.000,0.000,0.000
1641182453188299776,2022-01-03-04:00:53,10.1.1.3,166,-0.060,-0.060,-0.060,0.000,0.000,0.000
1641182453392898048,2022-01-03-04:00:53,10.1.1.3,170,-0.050,-0.050,-0.050,0.000,0.000,0.000
1641182453784816896,2022-01-03-04:00:53,10.1.1.3,160,-0.030,-0.030,-0.030,0.000,0.000,0.000
1641182454000300800,2022-01-03-04:00:54,10.1.1.3,175,-0.020,-0.020,-0.020,0.000,0.000,0.000
1641182454207883008,2022-01-03-04:00:54,10.1.1.3,180,-0.010,-0.010,-0.010,0.000,0.000,0.000
1641182454403731968,2022-01-03-04:00:54,10.1.1.3,174,0.000,0.000,0.000,0.000,0.000,0.000
1641182454599267072,2022-01-03-04:00:54,10.1.1.3,167,-0.010,-0.010,-0.010,0.000,0.000,0.000
1641182454799377920,2022-01-03-04:00:54,10.1.1.3,165,-0.020,-0.020,-0.020,0.000,0.000,0.000
1641182455010309888,2022-01-03-04:00:55,10.1.1.3,172,-0.030,-0.030,-0.030,0.000,0.000,0.000
1641182455213010944,2022-01-03-04:00:55,10.1.1.3,173,-0.040,-0.040,-0.040,0.000,0.000,0.000
1641182455417244928,2022-01-03-04:00:55,10.1.1.3,177,-0.050,-0.050,-0.050,0.000,0.000,0.000
1641182455615047936,2022-01-03-04:00:55,10.1.1.3,174,-0.060,-0.060,-0.060,0.000,0.000,0.000
1641182455814744832,2022-01-03-04:00:55,10.1.1.3,172,-0.070,-0.070,-0.070,0.000,0.000,0.000
1641182456015672832,2022-01-03-04:00:56,10.1.1.3,172,-0.080,-0.080,-0.080,0.000,0.000,0.000
1641182456213992960,2022-01-03-04:00:56,10.1.1.3,171,-0.090,-0.090,-0.090,0.000,0.000,0.000
1641182456416999936,2022-01-03-04:00:56,10.1.1.3,173,-0.100,-0.100,-0.100,0.000,0.000,0.000
1641182456616167168,2022-01-03-04:00:56,10.1.1.3,171,-0.110,-0.110,-0.110,0.000,0.000,0.000
1641182456835874048,2022-01-03-04:00:56,10.1.1.3,188,-0.120,-0.120,-0.120,0.000,0.000,0.000
1641182457037153024,2022-01-03-04:00:57,10.1.1.3,188,-0.130,-0.130,-0.130,0.000,0.000,0.000
1641182457237907968,2022-01-03-04:00:57,10.1.1.3,187,-0.140,-0.140,-0.140,0.000,0.000,0.000
1641182457435973888,2022-01-03-04:00:57,10.1.1.3,185,-0.150,-0.150,-0.150,0.000,0.000,0.000
1641182457638242048,2022-01-03-04:00:57,10.1.1.3,182,-0.160,-0.160,-0.160,0.000,0.000,0.000
1641182457838146816,2022-01-03-04:00:57,10.1.1.3,180,-0.170,-0.170,-0.170,0.000,0.000,0.000
1641182458037463040,2022-01-03-04:00:58,10.1.1.3,178,-0.180,-0.180,-0.180,0.000,0.000,0.000
1641182458245836032,2022-01-03-04:00:58,10.1.1.3,186,-0.190,-0.190,-0.190,0.000,0.000,0.000
1641182458447130880,2022-01-03-04:00:58,10.1.1.3,186,-0.200,-0.200,-0.200,0.000,0.000,0.000
1641182458637213952,2022-01-03-04:00:58,10.1.1.3,176,-0.210,-0.210,-0.210,0.000,0.000,0.000
1641182458839200000,2022-01-03-04:00:58,10.1.1.3,175,-0.220,-0.220,-0.220,0.000,0.000,0.000
1641182459061811968,2022-01-03-04:00:59,10.1.1.3,195,-0.230,-0.230,-0.230,0.000,0.000,0.000
1641182459260966144,2022-01-03-04:00:59,10.1.1.3,191,-0.240,-0.240,-0.240,0.000,0.000,0.000
1641182459460700928,2022-01-03-04:00:59,10.1.1.3,189,-0.250,-0.250,-0.250,0.000,0.000,0.000
1641182459865565184,2022-01-03-04:00:59,10.1.1.3,192,-0.270,-0.270,-0.270,0.000,0.000,0.000
1641182460064065024,2022-01-03-04:01:00,10.1.1.3,189,-0.280,-0.280,-0.280,0.000,0.000,0.000
1641182460262363904,2022-01-03-04:01:00,10.1.1.3,185,-0.290,-0.290,-0.290,0.000,0.000,0.000
1641182460464123136,2022-01-03-04:01:00,10.1.1.3,187,-0.300,-0.300,-0.300,0.000,0.000,0.000
1641182460857889792,2022-01-03-04:01:00,10.1.1.3,177,-0.320,-0.320,-0.320,0.000,0.000,0.000
1641182461058552064,2022-01-03-04:01:01,10.1.1.3,176,-0.330,-0.330,-0.330,0.000,0.000,0.000
1641182461260984064,2022-01-03-04:01:01,10.1.1.3,177,-0.340,-0.340,-0.340,0.000,0.000,0.000
1641182461459575040,2022-01-03-04:01:01,10.1.1.3,175,-0.350,-0.350,-0.350,0.000,0.000,0.000
1641182461659101952,2022-01-03-04:01:01,10.1.1.3,174,-0.360,-0.360,-0.360,0.000,0.000,0.000
1641182461878312960,2022-01-03-04:01:01,10.1.1.3,190,-0.370,-0.370,-0.370,0.000,0.000,0.000
1641182462079075072,2022-01-03-04:01:02,10.1.1.3,187,-0.380,-0.380,-0.380,0.000,0.000,0.000
1641182462278168064,2022-01-03-04:01:02,10.1.1.3,186,-0.390,-0.390,-0.390,0.000,0.000,0.000
1641182462478629120,2022-01-03-04:01:02,10.1.1.3,185,-0.400,-0.400,-0.400,0.000,0.000,0.000
1641182462684116992,2022-01-03-04:01:02,10.1.1.3,184,-0.410,-0.410,-0.410,0.000,0.000,0.000
1641182462881902080,2022-01-03-04:01:02,10.1.1.3,181,-0.420,-0.420,-0.420,0.000,0.000,0.000
1641182463082803968,2022-01-03-04:01:03,10.1.1.3,179,-0.430,-0.430,-0.430,0.000,0.000,0.000
1641182463282543872,2022-01-03-04:01:03,10.1.1.3,179,-0.440,-0.440,-0.440,0.000,0.000,0.000
1641182463502515200,2022-01-03-04:01:03,10.1.1.3,198,-0.450,-0.450,-0.450,0.000,0.000,0.000
1641182463684185088,2022-01-03-04:01:03,10.1.1.3,179,-0.460,-0.460,-0.460,0.000,0.000,0.000
1641182463881426944,2022-01-03-04:01:03,10.1.1.3,175,-0.470,-0.470,-0.470,0.000,0.000,0.000
1641182464301310976,2022-01-03-04:01:04,10.1.1.3,192,-0.490,-0.490,-0.490,0.000,0.000,0.000
1641182464499422976,2022-01-03-04:01:04,10.1.1.3,188,-0.480,-0.480,-0.480,0.000,0.000,0.000
1641182464701847040,2022-01-03-04:01:04,10.1.1.3,189,-0.470,-0.470,-0.470,0.000,0.000,0.000
1641182464902705920,2022-01-03-04:01:04,10.1.1.3,189,-0.460,-0.460,-0.460,0.000,0.000,0.000
1641182465103097856,2022-01-03-04:01:05,10.1.1.3,185,-0.450,-0.450,-0.450,0.000,0.000,0.000
1641182465304194048,2022-01-03-04:01:05,10.1.1.3,184,-0.440,-0.440,-0.440,0.000,0.000,0.000
1641182465500403968,2022-01-03-04:01:05,10.1.1.3,180,-0.430,-0.430,-0.430,0.000,0.000,0.000
1641182465699260928,2022-01-03-04:01:05,10.1.1.3,177,-0.420,-0.420,-0.420,0.000,0.000,0.000
1641182465897024000,2022-01-03-04:01:05,10.1.1.3,175,-0.410,-0.410,-0.410,0.000,0.000,0.000
1641182466106688000,2022-01-03-04:01:06,10.1.1.3,184,-0.400,-0.400,-0.400,0.000,0.000,0.000
1641182466311309056,2022-01-03-04:01:06,10.1.1.3,188,-0.390,-0.390,-0.390,0.000,0.000,0.000
1641182466505686016,2022-01-03-04:01:06,10.1.1.3,181,-0.380,-0.380,-0.380,0.000,0.000,0.000
1641182466706633984,2022-01-03-04:01:06,10.1.1.3,182,-0.370,-0.370,-0.370,0.000,0.000,0.000
1641182466904925184,2022-01-03-04:01:06,10.1.1.3,179,-0.360,-0.360,-0.360,0.000,0.000,0.000
1641182467098370048,2022-01-03-04:01:07,10.1.1.3,171,-0.350,-0.350,-0.350,0.000,0.000,0.000
1641182467315272192,2022-01-03-04:01:07,10.1.1.3,188,-0.340,-0.340,-0.340,0.000,0.000,0.000
1641182467504563968,2022-01-03-04:01:07,10.1.1.3,176,-0.330,-0.330,-0.330,0.000,0.000,0.000
1641182467704273920,2022-01-03-04:01:07,10.1.1.3,175,-0.320,-0.320,-0.320,0.000,0.000,0.000
1641182467904758016,2022-01-03-04:01:07,10.1.1.3,175,-0.310,-0.310,-0.310,0.000,0.000,0.000
1641182468103286016,2022-01-03-04:01:08,10.1.1.3,173,-0.300,-0.300,-0.300,0.000,0.000,0.000
1641182468303558144,2022-01-03-04:01:08,10.1.1.3,172,-0.290,-0.290,-0.290,0.000,0.000,0.000
1641182468502926080,2022-01-03-04:01:08,10.1.1.3,171,-0.280,-0.280,-0.280,0.000,0.000,0.000
1641182468714746112,2022-01-03-04:01:08,10.1.1.3,182,-0.270,-0.270,-0.270,0.000,0.000,0.000
1641182468923314944,2022-01-03-04:01:08,10.1.1.3,190,-0.260,-0.260,-0.260,0.000,0.000,0.000
1641182469125065216,2022-01-03-04:01:09,10.1.1.3,190,-0.250,-0.250,-0.250,0.000,0.000,0.000
1641182469321453056,2022-01-03-04:01:09,10.1.1.3,186,-0.240,-0.240,-0.240,0.000,0.000,0.000
1641182469529065984,2022-01-03-04:01:09,10.1.1.3,190,-0.230,-0.230,-0.230,0.000,0.000,0.000
1641182469719526144,2022-01-03-04:01:09,10.1.1.3,177,-0.220,-0.220,-0.220,0.000,0.000,0.000
1641182469926220800,2022-01-03-04:01:09,10.1.1.3,183,-0.210,-0.210,-0.210,0.000,0.000,0.000
1641182470114660864,2022-01-03-04:01:10,10.1.1.3,170,-0.200,-0.200,-0.200,0.000,0.000,0.000
1641182470335799040,2022-01-03-04:01:10,10.1.1.3,187,-0.190,-0.190,-0.190,0.000,0.000,0.000
1641182470535366144,2022-01-03-04:01:10,10.1.1.3,183,-0.180,-0.180,-0.180,0.000,0.000,0.000
1641182470735366144,2022-01-03-04:01:10,10.1.1.3,181,-0.170,-0.170,-0.170,0.000,0.000,0.000
1641182470935175936,2022-01-03-04:01:10,10.1.1.3,179,-0.160,-0.160,-0.160,0.000,0.000,0.000
1641182471132608000,2022-01-03-04:01:11,10.1.1.3,176,-0.150,-0.150,-0.150,0.000,0.000,0.000
1641182471335302144,2022-01-03-04:01:11,10.1.1.3,177,-0.140,-0.140,-0.140,0.000,0.000,0.000
1641182471535644160,2022-01-03-04:01:11,10.1.1.3,176,-0.130,-0.130,-0.130,0.000,0.000,0.000
1641182471734277888,2022-01-03-04:01:11,10.1.1.3,174,-0.120,-0.120,-0.120,0.000,0.000,0.000
1641182471935589120,2022-01-03-04:01:11,10.1.1.3,174,-0.110,-0.110,-0.110,0.000,0.000,0.000
1641182472134179072,2022-01-03-04:01:12,10.1.1.3,172,-0.100,-0.100,-0.100,0.000,0.000,0.000
1641182472334935040,2022-01-03-04:01:12,10.1.1.3,172,-0.090,-0.090,-0.090,0.000,0.000,0.000
1641182472534023168,2022-01-03-04:01:12,10.1.1.3,170,-0.080,-0.080,-0.080,0.000,0.000,0.000
1641182472731055104,2022-01-03-04:01:12,10.1.1.3,167,-0.070,-0.070,-0.070,0.000,0.000,0.000
1641182472930691840,2022-01-03-04:01:12,10.1.1.3,166,-0.060,-0.060,-0.060,0.000,0.000,0.000
1641182473151901952,2022-01-03-04:01:13,10.1.1.3,186,-0.050,-0.050,-0.050,0.000,0.000,0.000
1641182473331828224,2022-01-03-04:01:13,10.1.1.3,165,-0.040,-0.040,-0.040,0.000,0.000,0.000
1641182473550771968,2022-01-03-04:01:13,10.1.1.3,184,-0.030,-0.030,-0.030,0.000,0.000,0.000
1641182473750590976,2022-01-03-04:01:13,10.1.1.3,183,-0.020,-0.020,-0.020,0.000,0.000,0.000
1641182473950830848,2022-01-03-04:01:13,10.1.1.3,182,-0.010,-0.010,-0.010,0.000,0.000,0.000
1641182474145569024,2022-01-03-04:01:14,10.1.1.3,176,0.000,0.000,0.000,0.000,0.000,0.000
1641182474337570048,2022-01-03-04:01:14,10.1.1.3,167,-0.010,-0.010,-0.010,0.000,0.000,0.000
1641182474534673920,2022-01-03-04:01:14,10.1.1.3,164,-0.020,-0.020,-0.020,0.000,0.000,0.000
1641182474735897088,2022-01-03-04:01:14,10.1.1.3,164,-0.030,-0.030,-0.030,0.000,0.000,0.000
1641182474962490112,2022-01-03-04:01:14,10.1.1.3,188,-0.040,-0.040,-0.040,0.000,0.000,0.000
1641182475157970944,2022-01-03-04:01:15,10.1.1.3,182,-0.050,-0.050,-0.050,0.000,0.000,0.000
1641182475739717888,2022-01-03-04:01:15,10.1.1.3,157,-0.080,-0.080,-0.080,0.000,0.000,0.000
1641182475959866112,2022-01-03-04:01:15,10.1.1.3,176,-0.090,-0.090,-0.090,0.000,0.000,0.000
1641182476349320960,2022-01-03-04:01:16,10.1.1.3,164,-0.110,-0.110,-0.110,0.000,0.000,0.000
1641182476550951936,2022-01-03-04:01:16,10.1.1.3,163,-0.120,-0.120,-0.120,0.000,0.000,0.000
1641182476752484096,2022-01-03-04:01:16,10.1.1.3,164,-0.130,-0.130,-0.130,0.000,0.000,0.000
1641182476948334848,2022-01-03-04:01:16,10.1.1.3,159,-0.140,-0.140,-0.140,0.000,0.000,0.000
1641182477174464000,2022-01-03-04:01:17,10.1.1.3,184,-0.150,-0.150,-0.150,0.000,0.000,0.000
1641182477370004992,2022-01-03-04:01:17,10.1.1.3,178,-0.160,-0.160,-0.160,0.000,0.000,0.000
1641182477550162176,2022-01-03-04:01:17,10.1.1.3,158,-0.170,-0.170,-0.170,0.000,0.000,0.000
1641182477773799936,2022-01-03-04:01:17,10.1.1.3,180,-0.180,-0.180,-0.180,0.000,0.000,0.000
1641182477969604864,2022-01-03-04:01:17,10.1.1.3,170,-0.190,-0.190,-0.190,0.000,0.000,0.000
1641182478168867072,2022-01-03-04:01:18,10.1.1.3,168,-0.200,-0.200,-0.200,0.000,0.000,0.000
1641182478368880128,2022-01-03-04:01:18,10.1.1.3,166,-0.210,-0.210,-0.210,0.000,0.000,0.000
1641182478588983040,2022-01-03-04:01:18,10.1.1.3,186,-0.220,-0.220,-0.220,0.000,0.000,0.000
1641182478768158976,2022-01-03-04:01:18,10.1.1.3,165,-0.230,-0.230,-0.230,0.000,0.000,0.000
1641182478999869952,2022-01-03-04:01:18,10.1.1.3,192,-0.240,-0.240,-0.240,0.000,0.000,0.000
1641182479183015168,2022-01-03-04:01:19,10.1.1.3,173,-0.250,-0.250,-0.250,0.000,0.000,0.000
1641182479379864064,2022-01-03-04:01:19,10.1.1.3,169,-0.260,-0.260,-0.260,0.000,0.000,0.000
1641182479590738176,2022-01-03-04:01:19,10.1.1.3,179,-0.270,-0.270,-0.270,0.000,0.000,0.000
1641182479788333056,2022-01-03-04:01:19,10.1.1.3,174,-0.280,-0.280,-0.280,0.000,0.000,0.000
1641182480000866816,2022-01-03-04:01:20,10.1.1.3,186,-0.290,-0.290,-0.290,0.000,0.000,0.000
1641182480178183936,2022-01-03-04:01:20,10.1.1.3,162,-0.300,-0.300,-0.300,0.000,0.000,0.000
1641182480378500864,2022-01-03-04:01:20,10.1.1.3,160,-0.310,-0.310,-0.310,0.000,0.000,0.000
1641182480578707968,2022-01-03-04:01:20,10.1.1.3,158,-0.320,-0.320,-0.320,0.000,0.000,0.000
1641182480776971008,2022-01-03-04:01:20,10.1.1.3,157,-0.330,-0.330,-0.330,0.000,0.000,0.000
1641182480979847936,2022-01-03-04:01:20,10.1.1.3,158,-0.340,-0.340,-0.340,0.000,0.000,0.000
1641182481177723904,2022-01-03-04:01:21,10.1.1.3,155,-0.350,-0.350,-0.350,0.000,0.000,0.000
1641182481377687040,2022-01-03-04:01:21,10.1.1.3,154,-0.360,-0.360,-0.360,0.000,0.000,0.000
1641182481578586112,2022-01-03-04:01:21,10.1.1.3,154,-0.370,-0.370,-0.370,0.000,0.000,0.000
1641182481780720896,2022-01-03-04:01:21,10.1.1.3,155,-0.380,-0.380,-0.380,0.000,0.000,0.000
1641182481980556032,2022-01-03-04:01:21,10.1.1.3,154,-0.390,-0.390,-0.390,0.000,0.000,0.000
1641182482194850048,2022-01-03-04:01:22,10.1.1.3,167,-0.400,-0.400,-0.400,0.000,0.000,0.000
1641182482395191040,2022-01-03-04:01:22,10.1.1.3,167,-0.410,-0.410,-0.410,0.000,0.000,0.000
1641182482596201984,2022-01-03-04:01:22,10.1.1.3,167,-0.420,-0.420,-0.420,0.000,0.000,0.000
1641182482795721984,2022-01-03-04:01:22,10.1.1.3,166,-0.430,-0.430,-0.430,0.000,0.000,0.000
1641182483005742080,2022-01-03-04:01:23,10.1.1.3,175,-0.440,-0.440,-0.440,0.000,0.000,0.000
1641182483211422976,2022-01-03-04:01:23,10.1.1.3,179,-0.450,-0.450,-0.450,0.000,0.000,0.000
1641182483400809984,2022-01-03-04:01:23,10.1.1.3,165,-0.460,-0.460,-0.460,0.000,0.000,0.000
1641182483599608832,2022-01-03-04:01:23,10.1.1.3,163,-0.470,-0.470,-0.470,0.000,0.000,0.000
1641182483799271168,2022-01-03-04:01:23,10.1.1.3,161,-0.480,-0.480,-0.480,0.000,0.000,0.000
1641182483999905024,2022-01-03-04:01:23,10.1.1.3,161,-0.490,-0.490,-0.490,0.000,0.000,0.000
1641182484209858816,2022-01-03-04:01:24,10.1.1.3,167,-0.480,-0.480,-0.480,0.000,0.000,0.000
1641182484401561856,2022-01-03-04:01:24,10.1.1.3,159,-0.470,-0.470,-0.470,0.000,0.000,0.000
1641182484602971136,2022-01-03-04:01:24,10.1.1.3,160,-0.460,-0.460,-0.460,0.000,0.000,0.000
1641182484814307840,2022-01-03-04:01:24,10.1.1.3,170,-0.450,-0.450,-0.450,0.000,0.000,0.000
1641182485024080128,2022-01-03-04:01:25,10.1.1.3,179,-0.440,-0.440,-0.440,0.000,0.000,0.000
1641182485233575936,2022-01-03-04:01:25,10.1.1.3,188,-0.430,-0.430,-0.430,0.000,0.000,0.000
1641182485413851136,2022-01-03-04:01:25,10.1.1.3,167,-0.420,-0.420,-0.420,0.000,0.000,0.000
1641182485607176192,2022-01-03-04:01:25,10.1.1.3,158,-0.410,-0.410,-0.410,0.000,0.000,0.000
1641182485845364992,2022-01-03-04:01:25,10.1.1.3,197,-0.400,-0.400,-0.400,0.000,0.000,0.000
1641182486016033024,2022-01-03-04:01:26,10.1.1.3,162,-0.390,-0.390,-0.390,0.000,0.000,0.000
1641182486429107968,2022-01-03-04:01:26,10.1.1.3,174,-0.370,-0.370,-0.370,0.000,0.000,0.000
1641182486631092992,2022-01-03-04:01:26,10.1.1.3,175,-0.360,-0.360,-0.360,0.000,0.000,0.000
1641182486829554176,2022-01-03-04:01:26,10.1.1.3,171,-0.350,-0.350,-0.350,0.000,0.000,0.000
1641182487031793152,2022-01-03-04:01:27,10.1.1.3,171,-0.340,-0.340,-0.340,0.000,0.000,0.000
1641182487435781888,2022-01-03-04:01:27,10.1.1.3,174,-0.320,-0.320,-0.320,0.000,0.000,0.000
1641182487637339136,2022-01-03-04:01:27,10.1.1.3,173,-0.310,-0.310,-0.310,0.000,0.000,0.000
1641182487840110080,2022-01-03-04:01:27,10.1.1.3,175,-0.300,-0.300,-0.300,0.000,0.000,0.000
1641182488037658880,2022-01-03-04:01:28,10.1.1.3,172,-0.290,-0.290,-0.290,0.000,0.000,0.000
1641182488442384128,2022-01-03-04:01:28,10.1.1.3,173,-0.270,-0.270,-0.270,0.000,0.000,0.000
1641182488641601024,2022-01-03-04:01:28,10.1.1.3,171,-0.260,-0.260,-0.260,0.000,0.000,0.000
1641182488869387008,2022-01-03-04:01:28,10.1.1.3,198,-0.250,-0.250,-0.250,0.000,0.000,0.000
1641182489257777920,2022-01-03-04:01:29,10.1.1.3,185,-0.230,-0.230,-0.230,0.000,0.000,0.000
1641182489461303040,2022-01-03-04:01:29,10.1.1.3,187,-0.220,-0.220,-0.220,0.000,0.000,0.000
1641182489659687168,2022-01-03-04:01:29,10.1.1.3,185,-0.210,-0.210,-0.210,0.000,0.000,0.000
1641182489868048896,2022-01-03-04:01:29,10.1.1.3,190,-0.200,-0.200,-0.200,0.000,0.000,0.000
1641182490057664000,2022-01-03-04:01:30,10.1.1.3,179,-0.190,-0.190,-0.190,0.000,0.000,0.000
1641182490258842112,2022-01-03-04:01:30,10.1.1.3,175,-0.180,-0.180,-0.180,0.000,0.000,0.000
1641182490459620864,2022-01-03-04:01:30,10.1.1.3,176,-0.170,-0.170,-0.170,0.000,0.000,0.000
1641182490659985152,2022-01-03-04:01:30,10.1.1.3,175,-0.160,-0.160,-0.160,0.000,0.000,0.000
1641182490859134976,2022-01-03-04:01:30,10.1.1.3,173,-0.150,-0.150,-0.150,0.000,0.000,0.000
1641182491060796928,2022-01-03-04:01:31,10.1.1.3,174,-0.140,-0.140,-0.140,0.000,0.000,0.000
1641182491279480832,2022-01-03-04:01:31,10.1.1.3,192,-0.130,-0.130,-0.130,0.000,0.000,0.000
1641182491480000000,2022-01-03-04:01:31,10.1.1.3,190,-0.120,-0.120,-0.120,0.000,0.000,0.000
1641182491680802048,2022-01-03-04:01:31,10.1.1.3,190,-0.110,-0.110,-0.110,0.000,0.000,0.000
1641182491890189056,2022-01-03-04:01:31,10.1.1.3,199,-0.100,-0.100,-0.100,0.000,0.000,0.000
1641182492081696000,2022-01-03-04:01:32,10.1.1.3,189,-0.090,-0.090,-0.090,0.000,0.000,0.000
1641182492281847040,2022-01-03-04:01:32,10.1.1.3,189,-0.080,-0.080,-0.080,0.000,0.000,0.000
1641182492480464896,2022-01-03-04:01:32,10.1.1.3,187,-0.070,-0.070,-0.070,0.000,0.000,0.000
1641182492681782016,2022-01-03-04:01:32,10.1.1.3,188,-0.060,-0.060,-0.060,0.000,0.000,0.000
1641182492880456960,2022-01-03-04:01:32,10.1.1.3,184,-0.050,-0.050,-0.050,0.000,0.000,0.000
1641182493081161984,2022-01-03-04:01:33,10.1.1.3,181,-0.040,-0.040,-0.040,0.000,0.000,0.000
1641182493288187904,2022-01-03-04:01:33,10.1.1.3,187,-0.030,-0.030,-0.030,0.000,0.000,0.000
1641182493485625856,2022-01-03-04:01:33,10.1.1.3,183,-0.020,-0.020,-0.020,0.000,0.000,0.000
1641182493886187008,2022-01-03-04:01:33,10.1.1.3,182,0.000,0.000,0.000,0.000,0.000,0.000
1641182494092871936,2022-01-03-04:01:34,10.1.1.3,188,-0.010,-0.010,-0.010,0.000,0.000,0.000
1641182494286210048,2022-01-03-04:01:34,10.1.1.3,179,-0.020,-0.020,-0.020,0.000,0.000,0.000
1641182494485683968,2022-01-03-04:01:34,10.1.1.3,178,-0.030,-0.030,-0.030,0.000,0.000,0.000
1641182494685111040,2022-01-03-04:01:34,10.1.1.3,175,-0.040,-0.040,-0.040,0.000,0.000,0.000
1641182494887878912,2022-01-03-04:01:34,10.1.1.3,176,-0.050,-0.050,-0.050,0.000,0.000,0.000
1641182495107131904,2022-01-03-04:01:35,10.1.1.3,193,-0.060,-0.060,-0.060,0.000,0.000,0.000
1641182495300868864,2022-01-03-04:01:35,10.1.1.3,185,-0.070,-0.070,-0.070,0.000,0.000,0.000
1641182495500720896,2022-01-03-04:01:35,10.1.1.3,183,-0.080,-0.080,-0.080,0.000,0.000,0.000
1641182495699409920,2022-01-03-04:01:35,10.1.1.3,181,-0.090,-0.090,-0.090,0.000,0.000,0.000
1641182495903325952,2022-01-03-04:01:35,10.1.1.3,184,-0.100,-0.100,-0.100,0.000,0.000,0.000
1641182496101305856,2022-01-03-04:01:36,10.1.1.3,179,-0.110,-0.110,-0.110,0.000,0.000,0.000
1641182496300856064,2022-01-03-04:01:36,10.1.1.3,177,-0.120,-0.120,-0.120,0.000,0.000,0.000
1641182496501348864,2022-01-03-04:01:36,10.1.1.3,177,-0.130,-0.130,-0.130,0.000,0.000,0.000
1641182496920547840,2022-01-03-04:01:36,10.1.1.3,187,-0.150,-0.150,-0.150,0.000,0.000,0.000
1641182497125137152,2022-01-03-04:01:37,10.1.1.3,188,-0.160,-0.160,-0.160,0.000,0.000,0.000
1641182497313447936,2022-01-03-04:01:37,10.1.1.3,174,-0.170,-0.170,-0.170,0.000,0.000,0.000
1641182497522648064,2022-01-03-04:01:37,10.1.1.3,183,-0.180,-0.180,-0.180,0.000,0.000,0.000
1641182497720922880,2022-01-03-04:01:37,10.1.1.3,180,-0.190,-0.190,-0.190,0.000,0.000,0.000
1641182497922717184,2022-01-03-04:01:37,10.1.1.3,181,-0.200,-0.200,-0.200,0.000,0.000,0.000
1641182498121809920,2022-01-03-04:01:38,10.1.1.3,178,-0.210,-0.210,-0.210,0.000,0.000,0.000
1641182498321315072,2022-01-03-04:01:38,10.1.1.3,177,-0.220,-0.220,-0.220,0.000,0.000,0.000
1641182498520777984,2022-01-03-04:01:38,10.1.1.3,176,-0.230,-0.230,-0.230,0.000,0.000,0.000
1641182498722714880,2022-01-03-04:01:38,10.1.1.3,177,-0.240,-0.240,-0.240,0.000,0.000,0.000
1641182498922580992,2022-01-03-04:01:38,10.1.1.3,176,-0.250,-0.250,-0.250,0.000,0.000,0.000
1641182499126978048,2022-01-03-04:01:39,10.1.1.3,180,-0.260,-0.260,-0.260,0.000,0.000,0.000
1641182499327909120,2022-01-03-04:01:39,10.1.1.3,180,-0.270,-0.270,-0.270,0.000,0.000,0.000
1641182499529364224,2022-01-03-04:01:39,10.1.1.3,180,-0.280,-0.280,-0.280,0.000,0.000,0.000
1641182499740262912,2022-01-03-04:01:39,10.1.1.3,190,-0.290,-0.290,-0.290,0.000,0.000,0.000
1641182499921300992,2022-01-03-04:01:39,10.1.1.3,171,-0.300,-0.300,-0.300,0.000,0.000,0.000
1641182500140322816,2022-01-03-04:01:40,10.1.1.3,189,-0.310,-0.310,-0.310,0.000,0.000,0.000
1641182500349646080,2022-01-03-04:01:40,10.1.1.3,197,-0.320,-0.320,-0.320,0.000,0.000,0.000
1641182500541084928,2022-01-03-04:01:40,10.1.1.3,188,-0.330,-0.330,-0.330,0.000,0.000,0.000
1641182500740364032,2022-01-03-04:01:40,10.1.1.3,186,-0.340,-0.340,-0.340,0.000,0.000,0.000
1641182501140726016,2022-01-03-04:01:41,10.1.1.3,184,-0.360,-0.360,-0.360,0.000,0.000,0.000
1641182501340892928,2022-01-03-04:01:41,10.1.1.3,183,-0.370,-0.370,-0.370,0.000,0.000,0.000
1641182501553072896,2022-01-03-04:01:41,10.1.1.3,195,-0.380,-0.380,-0.380,0.000,0.000,0.000
1641182501739403008,2022-01-03-04:01:41,10.1.1.3,180,-0.390,-0.390,-0.390,0.000,0.000,0.000
1641182501943828224,2022-01-03-04:01:41,10.1.1.3,183,-0.400,-0.400,-0.400,0.000,0.000,0.000
1641182502142041856,2022-01-03-04:01:42,10.1.1.3,181,-0.410,-0.410,-0.410,0.000,0.000,0.000
1641182502536071168,2022-01-03-04:01:42,10.1.1.3,174,-0.430,-0.430,-0.430,0.000,0.000,0.000
1641182502736033792,2022-01-03-04:01:42,10.1.1.3,173,-0.440,-0.440,-0.440,0.000,0.000,0.000
1641182502939712000,2022-01-03-04:01:42,10.1.1.3,175,-0.450,-0.450,-0.450,0.000,0.000,0.000
1641182503139215872,2022-01-03-04:01:43,10.1.1.3,173,-0.460,-0.460,-0.460,0.000,0.000,0.000
1641182503553410048,2022-01-03-04:01:43,10.1.1.3,187,-0.480,-0.480,-0.480,0.000,0.000,0.000
1641182503752664064,2022-01-03-04:01:43,10.1.1.3,185,-0.490,-0.490,-0.490,0.000,0.000,0.000
1641182503940593920,2022-01-03-04:01:43,10.1.1.3,172,-0.480,-0.480,-0.480,0.000,0.000,0.000
1641182504152112896,2022-01-03-04:01:44,10.1.1.3,183,-0.470,-0.470,-0.470,0.000,0.000,0.000
1641182504340775936,2022-01-03-04:01:44,10.1.1.3,171,-0.460,-0.460,-0.460,0.000,0.000,0.000
1641182504551767040,2022-01-03-04:01:44,10.1.1.3,181,-0.450,-0.450,-0.450,0.000,0.000,0.000
1641182504740688128,2022-01-03-04:01:44,10.1.1.3,169,-0.440,-0.440,-0.440,0.000,0.000,0.000
1641182504939548928,2022-01-03-04:01:44,10.1.1.3,167,-0.430,-0.430,-0.430,0.000,0.000,0.000
1641182505139648000,2022-01-03-04:01:45,10.1.1.3,166,-0.420,-0.420,-0.420,0.000,0.000,0.000
1641182505358851072,2022-01-03-04:01:45,10.1.1.3,184,-0.410,-0.410,-0.410,0.000,0.000,0.000
1641182505755120896,2022-01-03-04:01:45,10.1.1.3,174,-0.390,-0.390,-0.390,0.000,0.000,0.000
1641182505955526144,2022-01-03-04:01:45,10.1.1.3,172,-0.380,-0.380,-0.380,0.000,0.000,0.000
1641182506156289024,2022-01-03-04:01:46,10.1.1.3,172,-0.370,-0.370,-0.370,0.000,0.000,0.000
1641182506355219968,2022-01-03-04:01:46,10.1.1.3,170,-0.360,-0.360,-0.360,0.000,0.000,0.000
1641182506555543808,2022-01-03-04:01:46,10.1.1.3,168,-0.350,-0.350,-0.350,0.000,0.000,0.000
1641182506755297792,2022-01-03-04:01:46,10.1.1.3,167,-0.340,-0.340,-0.340,0.000,0.000,0.000
1641182506954163200,2022-01-03-04:01:46,10.1.1.3,165,-0.330,-0.330,-0.330,0.000,0.000,0.000
1641182507153816064,2022-01-03-04:01:47,10.1.1.3,164,-0.320,-0.320,-0.320,0.000,0.000,0.000
1641182507353816064,2022-01-03-04:01:47,10.1.1.3,164,-0.310,-0.310,-0.310,0.000,0.000,0.000
1641182507553981184,2022-01-03-04:01:47,10.1.1.3,163,-0.300,-0.300,-0.300,0.000,0.000,0.000
1641182507753021952,2022-01-03-04:01:47,10.1.1.3,162,-0.290,-0.290,-0.290,0.000,0.000,0.000
1641182507974499840,2022-01-03-04:01:47,10.1.1.3,181,-0.280,-0.280,-0.280,0.000,0.000,0.000
1641182508173299968,2022-01-03-04:01:48,10.1.1.3,179,-0.270,-0.270,-0.270,0.000,0.000,0.000
1641182508371928064,2022-01-03-04:01:48,10.1.1.3,176,-0.260,-0.260,-0.260,0.000,0.000,0.000
1641182508574085888,2022-01-03-04:01:48,10.1.1.3,177,-0.250,-0.250,-0.250,0.000,0.000,0.000
1641182508772367104,2022-01-03-04:01:48,10.1.1.3,175,-0.240,-0.240,-0.240,0.000,0.000,0.000
1641182508971460096,2022-01-03-04:01:48,10.1.1.3,173,-0.230,-0.230,-0.230,0.000,0.000,0.000
1641182509174081024,2022-01-03-04:01:49,10.1.1.3,175,-0.220,-0.220,-0.220,0.000,0.000,0.000
1641182509371495936,2022-01-03-04:01:49,10.1.1.3,172,-0.210,-0.210,-0.210,0.000,0.000,0.000
1641182509590048000,2022-01-03-04:01:49,10.1.1.3,190,-0.200,-0.200,-0.200,0.000,0.000,0.000
1641182509769548800,2022-01-03-04:01:49,10.1.1.3,168,-0.190,-0.190,-0.190,0.000,0.000,0.000
1641182509968759040,2022-01-03-04:01:49,10.1.1.3,165,-0.180,-0.180,-0.180,0.000,0.000,0.000
1641182510366774016,2022-01-03-04:01:50,10.1.1.3,160,-0.160,-0.160,-0.160,0.000,0.000,0.000
1641182510566940928,2022-01-03-04:01:50,10.1.1.3,160,-0.150,-0.150,-0.150,0.000,0.000,0.000
1641182510765975040,2022-01-03-04:01:50,10.1.1.3,158,-0.140,-0.140,-0.140,0.000,0.000,0.000
1641182510966543872,2022-01-03-04:01:50,10.1.1.3,158,-0.130,-0.130,-0.130,0.000,0.000,0.000
1641182511167907840,2022-01-03-04:01:51,10.1.1.3,158,-0.120,-0.120,-0.120,0.000,0.000,0.000
1641182511390393088,2022-01-03-04:01:51,10.1.1.3,180,-0.110,-0.110,-0.110,0.000,0.000,0.000
1641182511583649024,2022-01-03-04:01:51,10.1.1.3,173,-0.100,-0.100,-0.100,0.000,0.000,0.000
1641182511793966080,2022-01-03-04:01:51,10.1.1.3,181,-0.090,-0.090,-0.090,0.000,0.000,0.000
1641182511983779072,2022-01-03-04:01:51,10.1.1.3,170,-0.080,-0.080,-0.080,0.000,0.000,0.000
1641182512183602944,2022-01-03-04:01:52,10.1.1.3,169,-0.070,-0.070,-0.070,0.000,0.000,0.000
1641182512382791168,2022-01-03-04:01:52,10.1.1.3,167,-0.060,-0.060,-0.060,0.000,0.000,0.000
1641182512582283008,2022-01-03-04:01:52,10.1.1.3,166,-0.050,-0.050,-0.050,0.000,0.000,0.000
1641182512782136064,2022-01-03-04:01:52,10.1.1.3,164,-0.040,-0.040,-0.040,0.000,0.000,0.000
1641182512982838016,2022-01-03-04:01:52,10.1.1.3,164,-0.030,-0.030,-0.030,0.000,0.000,0.000
1641182513181690880,2022-01-03-04:01:53,10.1.1.3,161,-0.020,-0.020,-0.020,0.000,0.000,0.000
1641182513379798016,2022-01-03-04:01:53,10.1.1.3,156,-0.010,-0.010,-0.010,0.000,0.000,0.000
1641182513581958144,2022-01-03-04:01:53,10.1.1.3,158,0.000,0.000,0.000,0.000,0.000,0.000
1641182513779238912,2022-01-03-04:01:53,10.1.1.3,155,-0.010,-0.010,-0.010,0.000,0.000,0.000
1641182513978001152,2022-01-03-04:01:53,10.1.1.3,153,-0.020,-0.020,-0.020,0.000,0.000,0.000
1641182514197807104,2022-01-03-04:01:54,10.1.1.3,167,-0.030,-0.030,-0.030,0.000,0.000,0.000
1641182514402714880,2022-01-03-04:01:54,10.1.1.3,166,-0.040,-0.040,-0.040,0.000,0.000,0.000
1641182514601784832,2022-01-03-04:01:54,10.1.1.3,164,-0.050,-0.050,-0.050,0.000,0.000,0.000
1641182514798515968,2022-01-03-04:01:54,10.1.1.3,159,-0.060,-0.060,-0.060,0.000,0.000,0.000
1641182515004406016,2022-01-03-04:01:55,10.1.1.3,164,-0.070,-0.070,-0.070,0.000,0.000,0.000
1641182515204058880,2022-01-03-04:01:55,10.1.1.3,163,-0.080,-0.080,-0.080,0.000,0.000,0.000
1641182515399375872,2022-01-03-04:01:55,10.1.1.3,158,-0.090,-0.090,-0.090,0.000,0.000,0.000
1641182515600009984,2022-01-03-04:01:55,10.1.1.3,157,-0.100,-0.100,-0.100,0.000,0.000,0.000
1641182515798835968,2022-01-03-04:01:55,10.1.1.3,156,-0.110,-0.110,-0.110,0.000,0.000,0.000
1641182516001790976,2022-01-03-04:01:56,10.1.1.3,158,-0.120,-0.120,-0.120,0.000,0.000,0.000
1641182516194791168,2022-01-03-04:01:56,10.1.1.3,150,-0.130,-0.130,-0.130,0.000,0.000,0.000
1641182516416580864,2022-01-03-04:01:56,10.1.1.3,168,-0.140,-0.140,-0.140,0.000,0.000,0.000
1641182516615184896,2022-01-03-04:01:56,10.1.1.3,165,-0.150,-0.150,-0.150,0.000,0.000,0.000
1641182516819542016,2022-01-03-04:01:56,10.1.1.3,168,-0.160,-0.160,-0.160,0.000,0.000,0.000
1641182517018007040,2022-01-03-04:01:57,10.1.1.3,166,-0.170,-0.170,-0.170,0.000,0.000,0.000
1641182517218735104,2022-01-03-04:01:57,10.1.1.3,166,-0.180,-0.180,-0.180,0.000,0.000,0.000
1641182517413694976,2022-01-03-04:01:57,10.1.1.3,160,-0.190,-0.190,-0.190,0.000,0.000,0.000
1641182517626141184,2022-01-03-04:01:57,10.1.1.3,172,-0.200,-0.200,-0.200,0.000,0.000,0.000
1641182517825874944,2022-01-03-04:01:57,10.1.1.3,171,-0.210,-0.210,-0.210,0.000,0.000,0.000
1641182518027113984,2022-01-03-04:01:58,10.1.1.3,169,-0.220,-0.220,-0.220,0.000,0.000,0.000
1641182518227580160,2022-01-03-04:01:58,10.1.1.3,167,-0.230,-0.230,-0.230,0.000,0.000,0.000
1641182518427692800,2022-01-03-04:01:58,10.1.1.3,163,-0.240,-0.240,-0.240,0.000,0.000,0.000
1641182518631040000,2022-01-03-04:01:58,10.1.1.3,165,-0.250,-0.250,-0.250,0.000,0.000,0.000
1641182518850480128,2022-01-03-04:01:58,10.1.1.3,183,-0.260,-0.260,-0.260,0.000,0.000,0.000
1641182519060790016,2022-01-03-04:01:59,10.1.1.3,192,-0.270,-0.270,-0.270,0.000,0.000,0.000
1641182519251015936,2022-01-03-04:01:59,10.1.1.3,181,-0.280,-0.280,-0.280,0.000,0.000,0.000
1641182519652424960,2022-01-03-04:01:59,10.1.1.3,181,-0.300,-0.300,-0.300,0.000,0.000,0.000
1641182519854871040,2022-01-03-04:01:59,10.1.1.3,181,-0.310,-0.310,-0.310,0.000,0.000,0.000
1641182520054359808,2022-01-03-04:02:00,10.1.1.3,180,-0.320,-0.320,-0.320,0.000,0.000,0.000
1641182520253044992,2022-01-03-04:02:00,10.1.1.3,178,-0.330,-0.330,-0.330,0.000,0.000,0.000
1641182520471885056,2022-01-03-04:02:00,10.1.1.3,196,-0.340,-0.340,-0.340,0.000,0.000,0.000
1641182520653032960,2022-01-03-04:02:00,10.1.1.3,174,-0.350,-0.350,-0.350,0.000,0.000,0.000
1641182520855462144,2022-01-03-04:02:00,10.1.1.3,176,-0.360,-0.360,-0.360,0.000,0.000,0.000
1641182521054564096,2022-01-03-04:02:01,10.1.1.3,173,-0.370,-0.370,-0.370,0.000,0.000,0.000
1641182521254321152,2022-01-03-04:02:01,10.1.1.3,172,-0.380,-0.380,-0.380,0.000,0.000,0.000
1641182521454892032,2022-01-03-04:02:01,10.1.1.3,172,-0.390,-0.390,-0.390,0.000,0.000,0.000
1641182521656683008,2022-01-03-04:02:01,10.1.1.3,173,-0.400,-0.400,-0.400,0.000,0.000,0.000
1641182521857827840,2022-01-03-04:02:01,10.1.1.3,173,-0.410,-0.410,-0.410,0.000,0.000,0.000
1641182522059416064,2022-01-03-04:02:02,10.1.1.3,174,-0.420,-0.420,-0.420,0.000,0.000,0.000
1641182522262893824,2022-01-03-04:02:02,10.1.1.3,174,-0.430,-0.430,-0.430,0.000,0.000,0.000
1641182522466323968,2022-01-03-04:02:02,10.1.1.3,177,-0.440,-0.440,-0.440,0.000,0.000,0.000
1641182522678158080,2022-01-03-04:02:02,10.1.1.3,184,-0.450,-0.450,-0.450,0.000,0.000,0.000
1641182522877763072,2022-01-03-04:02:02,10.1.1.3,183,-0.460,-0.460,-0.460,0.000,0.000,0.000
1641182523077442816,2022-01-03-04:02:03,10.1.1.3,182,-0.470,-0.470,-0.470,0.000,0.000,0.000
1641182523278908928,2022-01-03-04:02:03,10.1.1.3,182,-0.480,-0.480,-0.480,0.000,0.000,0.000
1641182523483225088,2022-01-03-04:02:03,10.1.1.3,185,-0.490,-0.490,-0.490,0.000,0.000,0.000
1641182523677854976,2022-01-03-04:02:03,10.1.1.3,179,-0.480,-0.480,-0.480,0.000,0.000,0.000
1641182523882008064,2022-01-03-04:02:03,10.1.1.3,180,-0.470,-0.470,-0.470,0.000,0.000,0.000
1641182524078795008,2022-01-03-04:02:04,10.1.1.3,177,-0.460,-0.460,-0.460,0.000,0.000,0.000
1641182524278757120,2022-01-03-04:02:04,10.1.1.3,175,-0.450,-0.450,-0.450,0.000,0.000,0.000
1641182524480355072,2022-01-03-04:02:04,10.1.1.3,175,-0.440,-0.440,-0.440,0.000,0.000,0.000
1641182524680820992,2022-01-03-04:02:04,10.1.1.3,175,-0.430,-0.430,-0.430,0.000,0.000,0.000
1641182524878972160,2022-01-03-04:02:04,10.1.1.3,173,-0.420,-0.420,-0.420,0.000,0.000,0.000
1641182525079426048,2022-01-03-04:02:05,10.1.1.3,172,-0.410,-0.410,-0.410,0.000,0.000,0.000
1641182525279238912,2022-01-03-04:02:05,10.1.1.3,172,-0.400,-0.400,-0.400,0.000,0.000,0.000
1641182525500103936,2022-01-03-04:02:05,10.1.1.3,191,-0.390,-0.390,-0.390,0.000,0.000,0.000
1641182525699348992,2022-01-03-04:02:05,10.1.1.3,188,-0.380,-0.380,-0.380,0.000,0.000,0.000
1641182525899981056,2022-01-03-04:02:05,10.1.1.3,187,-0.370,-0.370,-0.370,0.000,0.000,0.000
1641182526098913792,2022-01-03-04:02:06,10.1.1.3,182,-0.360,-0.360,-0.360,0.000,0.000,0.000
1641182526310644992,2022-01-03-04:02:06,10.1.1.3,194,-0.350,-0.350,-0.350,0.000,0.000,0.000
1641182526501487872,2022-01-03-04:02:06,10.1.1.3,182,-0.340,-0.340,-0.340,0.000,0.000,0.000
1641182526719804928,2022-01-03-04:02:06,10.1.1.3,197,-0.330,-0.330,-0.330,0.000,0.000,0.000
1641182526900008960,2022-01-03-04:02:06,10.1.1.3,174,-0.320,-0.320,-0.320,0.000,0.000,0.000
1641182527303838976,2022-01-03-04:02:07,10.1.1.3,176,-0.300,-0.300,-0.300,0.000,0.000,0.000
1641182527505242112,2022-01-03-04:02:07,10.1.1.3,176,-0.290,-0.290,-0.290,0.000,0.000,0.000
1641182527923144192,2022-01-03-04:02:07,10.1.1.3,189,-0.270,-0.270,-0.270,0.000,0.000,0.000
1641182528120093952,2022-01-03-04:02:08,10.1.1.3,189,-0.260,-0.260,-0.260,0.000,0.000,0.000
1641182528317861120,2022-01-03-04:02:08,10.1.1.3,186,-0.250,-0.250,-0.250,0.000,0.000,0.000
1641182528519718912,2022-01-03-04:02:08,10.1.1.3,187,-0.240,-0.240,-0.240,0.000,0.000,0.000
1641182528719794944,2022-01-03-04:02:08,10.1.1.3,186,-0.230,-0.230,-0.230,0.000,0.000,0.000
1641182528921638912,2022-01-03-04:02:08,10.1.1.3,187,-0.220,-0.220,-0.220,0.000,0.000,0.000
1641182529120474112,2022-01-03-04:02:09,10.1.1.3,184,-0.210,-0.210,-0.210,0.000,0.000,0.000
1641182529317718016,2022-01-03-04:02:09,10.1.1.3,181,-0.200,-0.200,-0.200,0.000,0.000,0.000
1641182529518967040,2022-01-03-04:02:09,10.1.1.3,179,-0.190,-0.190,-0.190,0.000,0.000,0.000
1641182529717172992,2022-01-03-04:02:09,10.1.1.3,177,-0.180,-0.180,-0.180,0.000,0.000,0.000
1641182530116473856,2022-01-03-04:02:10,10.1.1.3,175,-0.160,-0.160,-0.160,0.000,0.000,0.000
1641182530318674944,2022-01-03-04:02:10,10.1.1.3,175,-0.150,-0.150,-0.150,0.000,0.000,0.000
1641182530516897792,2022-01-03-04:02:10,10.1.1.3,172,-0.140,-0.140,-0.140,0.000,0.000,0.000
1641182530716273920,2022-01-03-04:02:10,10.1.1.3,171,-0.130,-0.130,-0.130,0.000,0.000,0.000
1641182530915561984,2022-01-03-04:02:10,10.1.1.3,169,-0.120,-0.120,-0.120,0.000,0.000,0.000
1641182531140302848,2022-01-03-04:02:11,10.1.1.3,193,-0.110,-0.110,-0.110,0.000,0.000,0.000
1641182531337338880,2022-01-03-04:02:11,10.1.1.3,189,-0.100,-0.100,-0.100,0.000,0.000,0.000
1641182531536398848,2022-01-03-04:02:11,10.1.1.3,188,-0.090,-0.090,-0.090,0.000,0.000,0.000
1641182531737117952,2022-01-03-04:02:11,10.1.1.3,188,-0.080,-0.080,-0.080,0.000,0.000,0.000
1641182531950490112,2022-01-03-04:02:11,10.1.1.3,200,-0.070,-0.070,-0.070,0.000,0.000,0.000
1641182532122895872,2022-01-03-04:02:12,10.1.1.3,171,-0.060,-0.060,-0.060,0.000,0.000,0.000
1641182532340400896,2022-01-03-04:02:12,10.1.1.3,188,-0.050,-0.050,-0.050,0.000,0.000,0.000
1641182532546818048,2022-01-03-04:02:12,10.1.1.3,193,-0.040,-0.040,-0.040,0.000,0.000,0.000
1641182532741296896,2022-01-03-04:02:12,10.1.1.3,186,-0.030,-0.030,-0.030,0.000,0.000,0.000
1641182532940706048,2022-01-03-04:02:12,10.1.1.3,181,-0.020,-0.020,-0.020,0.000,0.000,0.000
1641182533140079104,2022-01-03-04:02:13,10.1.1.3,179,-0.010,-0.010,-0.010,0.000,0.000,0.000
1641182533339176960,2022-01-03-04:02:13,10.1.1.3,178,0.000,0.000,0.000,0.000,0.000,0.000
1641182533539102976,2022-01-03-04:02:13,10.1.1.3,177,-0.010,-0.010,-0.010,0.000,0.000,0.000
1641182533738902016,2022-01-03-04:02:13,10.1.1.3,175,-0.020,-0.020,-0.020,0.000,0.000,0.000
1641182533938782976,2022-01-03-04:02:13,10.1.1.3,173,-0.030,-0.030,-0.030,0.000,0.000,0.000
1641182534141020928,2022-01-03-04:02:14,10.1.1.3,175,-0.040,-0.040,-0.040,0.000,0.000,0.000
1641182534338400000,2022-01-03-04:02:14,10.1.1.3,172,-0.050,-0.050,-0.050,0.000,0.000,0.000
1641182534538265088,2022-01-03-04:02:14,10.1.1.3,170,-0.060,-0.060,-0.060,0.000,0.000,0.000
1641182534738814208,2022-01-03-04:02:14,10.1.1.3,170,-0.070,-0.070,-0.070,0.000,0.000,0.000
1641182534937251072,2022-01-03-04:02:14,10.1.1.3,168,-0.080,-0.080,-0.080,0.000,0.000,0.000
1641182535137332992,2022-01-03-04:02:15,10.1.1.3,167,-0.090,-0.090,-0.090,0.000,0.000,0.000
1641182535336931072,2022-01-03-04:02:15,10.1.1.3,166,-0.100,-0.100,-0.100,0.000,0.000,0.000
1641182535553165056,2022-01-03-04:02:15,10.1.1.3,181,-0.110,-0.110,-0.110,0.000,0.000,0.000
1641182535752919040,2022-01-03-04:02:15,10.1.1.3,181,-0.120,-0.120,-0.120,0.000,0.000,0.000
1641182535959692032,2022-01-03-04:02:15,10.1.1.3,187,-0.130,-0.130,-0.130,0.000,0.000,0.000
1641182536139166976,2022-01-03-04:02:16,10.1.1.3,166,-0.140,-0.140,-0.140,0.000,0.000,0.000
1641182536351387136,2022-01-03-04:02:16,10.1.1.3,177,-0.150,-0.150,-0.150,0.000,0.000,0.000
1641182536555758848,2022-01-03-04:02:16,10.1.1.3,181,-0.160,-0.160,-0.160,0.000,0.000,0.000
1641182536760741888,2022-01-03-04:02:16,10.1.1.3,185,-0.170,-0.170,-0.170,0.000,0.000,0.000
1641182536955315968,2022-01-03-04:02:16,10.1.1.3,179,-0.180,-0.180,-0.180,0.000,0.000,0.000
1641182537154593024,2022-01-03-04:02:17,10.1.1.3,177,-0.190,-0.190,-0.190,0.000,0.000,0.000
1641182537354757120,2022-01-03-04:02:17,10.1.1.3,176,-0.200,-0.200,-0.200,0.000,0.000,0.000
1641182537554579968,2022-01-03-04:02:17,10.1.1.3,175,-0.210,-0.210,-0.210,0.000,0.000,0.000
1641182537754488064,2022-01-03-04:02:17,10.1.1.3,174,-0.220,-0.220,-0.220,0.000,0.000,0.000
1641182537953351936,2022-01-03-04:02:17,10.1.1.3,172,-0.230,-0.230,-0.230,0.000,0.000,0.000
1641182538153659136,2022-01-03-04:02:18,10.1.1.3,172,-0.240,-0.240,-0.240,0.000,0.000,0.000
1641182538368005120,2022-01-03-04:02:18,10.1.1.3,185,-0.250,-0.250,-0.250,0.000,0.000,0.000
1641182538573234176,2022-01-03-04:02:18,10.1.1.3,189,-0.260,-0.260,-0.260,0.000,0.000,0.000
1641182538752430080,2022-01-03-04:02:18,10.1.1.3,167,-0.270,-0.270,-0.270,0.000,0.000,0.000
1641182538956100864,2022-01-03-04:02:18,10.1.1.3,169,-0.280,-0.280,-0.280,0.000,0.000,0.000
1641182539153443072,2022-01-03-04:02:19,10.1.1.3,166,-0.290,-0.290,-0.290,0.000,0.000,0.000
1641182539352088832,2022-01-03-04:02:19,10.1.1.3,163,-0.300,-0.300,-0.300,0.000,0.000,0.000
1641182539551418112,2022-01-03-04:02:19,10.1.1.3,162,-0.310,-0.310,-0.310,0.000,0.000,0.000
1641182539750793984,2022-01-03-04:02:19,10.1.1.3,160,-0.320,-0.320,-0.320,0.000,0.000,0.000
1641182539968950016,2022-01-03-04:02:19,10.1.1.3,178,-0.330,-0.330,-0.330,0.000,0.000,0.000
1641182540168806144,2022-01-03-04:02:20,10.1.1.3,177,-0.340,-0.340,-0.340,0.000,0.000,0.000
1641182540377892096,2022-01-03-04:02:20,10.1.1.3,186,-0.350,-0.350,-0.350,0.000,0.000,0.000
1641182540568173824,2022-01-03-04:02:20,10.1.1.3,174,-0.360,-0.360,-0.360,0.000,0.000,0.000
1641182540767862016,2022-01-03-04:02:20,10.1.1.3,173,-0.370,-0.370,-0.370,0.000,0.000,0.000
1641182540968646912,2022-01-03-04:02:20,10.1.1.3,174,-0.380,-0.380,-0.380,0.000,0.000,0.000
1641182541163762176,2022-01-03-04:02:21,10.1.1.3,168,-0.390,-0.390,-0.390,0.000,0.000,0.000
1641182541368151808,2022-01-03-04:02:21,10.1.1.3,169,-0.400,-0.400,-0.400,0.000,0.000,0.000
1641182541568278016,2022-01-03-04:02:21,10.1.1.3,168,-0.410,-0.410,-0.410,0.000,0.000,0.000
1641182541766397952,2022-01-03-04:02:21,10.1.1.3,165,-0.420,-0.420,-0.420,0.000,0.000,0.000
