FedericoMungari/DigitalTwin_service/01_WiredScenario/Output/Output_script/script_rosapi_2_output_robots10_freq0_6.txt
timestamp,date,node,latency,joint_1,joint_2,joint_3,joint_4,joint_5,joint_6
1641220953985539840,2022-01-03-14:42:33,10.1.1.7,183,-0.010,-0.010,-0.010,0.000,0.000,0.000
1641220954185040896,2022-01-03-14:42:34,10.1.1.7,181,-0.020,-0.020,-0.020,0.000,0.000,0.000
1641220954384408064,2022-01-03-14:42:34,10.1.1.7,179,-0.030,-0.030,-0.030,0.000,0.000,0.000
1641220954584594944,2022-01-03-14:42:34,10.1.1.7,178,-0.040,-0.040,-0.040,0.000,0.000,0.000
1641220954784665088,2022-01-03-14:42:34,10.1.1.7,177,-0.050,-0.050,-0.050,0.000,0.000,0.000
1641220954983897856,2022-01-03-14:42:34,10.1.1.7,176,-0.060,-0.060,-0.060,0.000,0.000,0.000
1641220955182599168,2022-01-03-14:42:35,10.1.1.7,174,-0.070,-0.070,-0.070,0.000,0.000,0.000
1641220955382652928,2022-01-03-14:42:35,10.1.1.7,173,-0.080,-0.080,-0.080,0.000,0.000,0.000
1641220955582693120,2022-01-03-14:42:35,10.1.1.7,172,-0.090,-0.090,-0.090,0.000,0.000,0.000
1641220955783171840,2022-01-03-14:42:35,10.1.1.7,172,-0.100,-0.100,-0.100,0.000,0.000,0.000
1641220955982116096,2022-01-03-14:42:35,10.1.1.7,170,-0.110,-0.110,-0.110,0.000,0.000,0.000
1641220956182488064,2022-01-03-14:42:36,10.1.1.7,169,-0.120,-0.120,-0.120,0.000,0.000,0.000
1641220956381042944,2022-01-03-14:42:36,10.1.1.7,166,-0.130,-0.130,-0.130,0.000,0.000,0.000
1641220956581070848,2022-01-03-14:42:36,10.1.1.7,166,-0.140,-0.140,-0.140,0.000,0.000,0.000
1641220956783819008,2022-01-03-14:42:36,10.1.1.7,167,-0.150,-0.150,-0.150,0.000,0.000,0.000
1641220957001416960,2022-01-03-14:42:37,10.1.1.7,183,-0.160,-0.160,-0.160,0.000,0.000,0.000
1641220957199716096,2022-01-03-14:42:37,10.1.1.7,181,-0.170,-0.170,-0.170,0.000,0.000,0.000
1641220957399705856,2022-01-03-14:42:37,10.1.1.7,181,-0.180,-0.180,-0.180,0.000,0.000,0.000
1641220957600108032,2022-01-03-14:42:37,10.1.1.7,180,-0.190,-0.190,-0.190,0.000,0.000,0.000
1641220957799209216,2022-01-03-14:42:37,10.1.1.7,177,-0.200,-0.200,-0.200,0.000,0.000,0.000
1641220957999640064,2022-01-03-14:42:37,10.1.1.7,177,-0.210,-0.210,-0.210,0.000,0.000,0.000
1641220958197710080,2022-01-03-14:42:38,10.1.1.7,174,-0.220,-0.220,-0.220,0.000,0.000,0.000
1641220958398675968,2022-01-03-14:42:38,10.1.1.7,174,-0.230,-0.230,-0.230,0.000,0.000,0.000
1641220958597012992,2022-01-03-14:42:38,10.1.1.7,171,-0.240,-0.240,-0.240,0.000,0.000,0.000
1641220958797931008,2022-01-03-14:42:38,10.1.1.7,172,-0.250,-0.250,-0.250,0.000,0.000,0.000
1641220958997900032,2022-01-03-14:42:38,10.1.1.7,170,-0.260,-0.260,-0.260,0.000,0.000,0.000
1641220959196512000,2022-01-03-14:42:39,10.1.1.7,168,-0.270,-0.270,-0.270,0.000,0.000,0.000
1641220959397468928,2022-01-03-14:42:39,10.1.1.7,169,-0.280,-0.280,-0.280,0.000,0.000,0.000
1641220959595716096,2022-01-03-14:42:39,10.1.1.7,167,-0.290,-0.290,-0.290,0.000,0.000,0.000
1641220959798398976,2022-01-03-14:42:39,10.1.1.7,169,-0.300,-0.300,-0.300,0.000,0.000,0.000
1641220959994280192,2022-01-03-14:42:39,10.1.1.7,164,-0.310,-0.310,-0.310,0.000,0.000,0.000
1641220960193953024,2022-01-03-14:42:40,10.1.1.7,163,-0.320,-0.320,-0.320,0.000,0.000,0.000
1641220960394886144,2022-01-03-14:42:40,10.1.1.7,162,-0.330,-0.330,-0.330,0.000,0.000,0.000
1641220960595272960,2022-01-03-14:42:40,10.1.1.7,161,-0.340,-0.340,-0.340,0.000,0.000,0.000
1641220960796551936,2022-01-03-14:42:40,10.1.1.7,163,-0.350,-0.350,-0.350,0.000,0.000,0.000
1641220960997064960,2022-01-03-14:42:40,10.1.1.7,162,-0.360,-0.360,-0.360,0.000,0.000,0.000
1641220961195138048,2022-01-03-14:42:41,10.1.1.7,159,-0.370,-0.370,-0.370,0.000,0.000,0.000
1641220961417262080,2022-01-03-14:42:41,10.1.1.7,179,-0.380,-0.380,-0.380,0.000,0.000,0.000
1641220961617372928,2022-01-03-14:42:41,10.1.1.7,178,-0.390,-0.390,-0.390,0.000,0.000,0.000
1641220961817735936,2022-01-03-14:42:41,10.1.1.7,178,-0.400,-0.400,-0.400,0.000,0.000,0.000
1641220962039753984,2022-01-03-14:42:42,10.1.1.7,176,-0.410,-0.410,-0.410,0.000,0.000,0.000
1641220962261848064,2022-01-03-14:42:42,10.1.1.7,183,-0.420,-0.420,-0.420,0.000,0.000,0.000
1641220962461730048,2022-01-03-14:42:42,10.1.1.7,180,-0.430,-0.430,-0.430,0.000,0.000,0.000
1641220962662195968,2022-01-03-14:42:42,10.1.1.7,180,-0.440,-0.440,-0.440,0.000,0.000,0.000
1641220962862128128,2022-01-03-14:42:42,10.1.1.7,178,-0.450,-0.450,-0.450,0.000,0.000,0.000
1641220963064555776,2022-01-03-14:42:43,10.1.1.7,180,-0.460,-0.460,-0.460,0.000,0.000,0.000
1641220963265438976,2022-01-03-14:42:43,10.1.1.7,180,-0.470,-0.470,-0.470,0.000,0.000,0.000
1641220963465187072,2022-01-03-14:42:43,10.1.1.7,180,-0.480,-0.480,-0.480,0.000,0.000,0.000
1641220963664061952,2022-01-03-14:42:43,10.1.1.7,177,-0.490,-0.490,-0.490,0.000,0.000,0.000
1641220963865382912,2022-01-03-14:42:43,10.1.1.7,177,-0.480,-0.480,-0.480,0.000,0.000,0.000
1641220964069061120,2022-01-03-14:42:44,10.1.1.7,180,-0.470,-0.470,-0.470,0.000,0.000,0.000
1641220964267836928,2022-01-03-14:42:44,10.1.1.7,178,-0.460,-0.460,-0.460,0.000,0.000,0.000
1641220964468087040,2022-01-03-14:42:44,10.1.1.7,178,-0.450,-0.450,-0.450,0.000,0.000,0.000
1641220964667740160,2022-01-03-14:42:44,10.1.1.7,176,-0.440,-0.440,-0.440,0.000,0.000,0.000
1641220964870703872,2022-01-03-14:42:44,10.1.1.7,178,-0.430,-0.430,-0.430,0.000,0.000,0.000
1641220965069320960,2022-01-03-14:42:45,10.1.1.7,175,-0.420,-0.420,-0.420,0.000,0.000,0.000
1641220965271500032,2022-01-03-14:42:45,10.1.1.7,176,-0.410,-0.410,-0.410,0.000,0.000,0.000
1641220965471486976,2022-01-03-14:42:45,10.1.1.7,174,-0.400,-0.400,-0.400,0.000,0.000,0.000
1641220965670996992,2022-01-03-14:42:45,10.1.1.7,174,-0.390,-0.390,-0.390,0.000,0.000,0.000
1641220965873758976,2022-01-03-14:42:45,10.1.1.7,176,-0.380,-0.380,-0.380,0.000,0.000,0.000
1641220966091972096,2022-01-03-14:42:46,10.1.1.7,194,-0.370,-0.370,-0.370,0.000,0.000,0.000
1641220966293893120,2022-01-03-14:42:46,10.1.1.7,194,-0.360,-0.360,-0.360,0.000,0.000,0.000
1641220966493601024,2022-01-03-14:42:46,10.1.1.7,193,-0.350,-0.350,-0.350,0.000,0.000,0.000
1641220966693705984,2022-01-03-14:42:46,10.1.1.7,192,-0.340,-0.340,-0.340,0.000,0.000,0.000
1641220966893016064,2022-01-03-14:42:46,10.1.1.7,191,-0.330,-0.330,-0.330,0.000,0.000,0.000
1641220967096329984,2022-01-03-14:42:47,10.1.1.7,194,-0.320,-0.320,-0.320,0.000,0.000,0.000
1641220967296859904,2022-01-03-14:42:47,10.1.1.7,192,-0.310,-0.310,-0.310,0.000,0.000,0.000
1641220967493670912,2022-01-03-14:42:47,10.1.1.7,189,-0.300,-0.300,-0.300,0.000,0.000,0.000
1641220967895634944,2022-01-03-14:42:47,10.1.1.7,190,-0.280,-0.280,-0.280,0.000,0.000,0.000
1641220968096183040,2022-01-03-14:42:48,10.1.1.7,189,-0.270,-0.270,-0.270,0.000,0.000,0.000
1641220968295401984,2022-01-03-14:42:48,10.1.1.7,188,-0.260,-0.260,-0.260,0.000,0.000,0.000
1641220968496571904,2022-01-03-14:42:48,10.1.1.7,188,-0.250,-0.250,-0.250,0.000,0.000,0.000
1641220968916680192,2022-01-03-14:42:48,10.1.1.7,190,-0.230,-0.230,-0.230,0.000,0.000,0.000
1641220969116822016,2022-01-03-14:42:49,10.1.1.7,190,-0.220,-0.220,-0.220,0.000,0.000,0.000
1641220969317819136,2022-01-03-14:42:49,10.1.1.7,190,-0.210,-0.210,-0.210,0.000,0.000,0.000
1641220969516333056,2022-01-03-14:42:49,10.1.1.7,187,-0.200,-0.200,-0.200,0.000,0.000,0.000
1641220969718030080,2022-01-03-14:42:49,10.1.1.7,188,-0.190,-0.190,-0.190,0.000,0.000,0.000
1641220969922916864,2022-01-03-14:42:49,10.1.1.7,192,-0.180,-0.180,-0.180,0.000,0.000,0.000
1641220970139486976,2022-01-03-14:42:50,10.1.1.7,188,-0.170,-0.170,-0.170,0.000,0.000,0.000
1641220970338094848,2022-01-03-14:42:50,10.1.1.7,186,-0.160,-0.160,-0.160,0.000,0.000,0.000
1641220970537741824,2022-01-03-14:42:50,10.1.1.7,185,-0.150,-0.150,-0.150,0.000,0.000,0.000
1641220970736834048,2022-01-03-14:42:50,10.1.1.7,184,-0.140,-0.140,-0.140,0.000,0.000,0.000
1641220970942159872,2022-01-03-14:42:50,10.1.1.7,188,-0.130,-0.130,-0.130,0.000,0.000,0.000
1641220971136734976,2022-01-03-14:42:51,10.1.1.7,182,-0.120,-0.120,-0.120,0.000,0.000,0.000
1641220971337091840,2022-01-03-14:42:51,10.1.1.7,181,-0.110,-0.110,-0.110,0.000,0.000,0.000
1641220971758472960,2022-01-03-14:42:51,10.1.1.7,198,-0.090,-0.090,-0.090,0.000,0.000,0.000
1641220971958605056,2022-01-03-14:42:51,10.1.1.7,198,-0.080,-0.080,-0.080,0.000,0.000,0.000
1641220972157576960,2022-01-03-14:42:52,10.1.1.7,196,-0.070,-0.070,-0.070,0.000,0.000,0.000
1641220972358560000,2022-01-03-14:42:52,10.1.1.7,197,-0.060,-0.060,-0.060,0.000,0.000,0.000
1641220972558334208,2022-01-03-14:42:52,10.1.1.7,196,-0.050,-0.050,-0.050,0.000,0.000,0.000
1641220972758596864,2022-01-03-14:42:52,10.1.1.7,195,-0.040,-0.040,-0.040,0.000,0.000,0.000
1641220972958544128,2022-01-03-14:42:52,10.1.1.7,194,-0.030,-0.030,-0.030,0.000,0.000,0.000
1641220973160860928,2022-01-03-14:42:53,10.1.1.7,195,-0.020,-0.020,-0.020,0.000,0.000,0.000
1641220973357160960,2022-01-03-14:42:53,10.1.1.7,191,-0.010,-0.010,-0.010,0.000,0.000,0.000
1641220973557472000,2022-01-03-14:42:53,10.1.1.7,189,0.000,0.000,0.000,0.000,0.000,0.000
1641220973756412928,2022-01-03-14:42:53,10.1.1.7,187,-0.010,-0.010,-0.010,0.000,0.000,0.000
1641220973960947968,2022-01-03-14:42:53,10.1.1.7,191,-0.020,-0.020,-0.020,0.000,0.000,0.000
1641220974157634048,2022-01-03-14:42:54,10.1.1.7,187,-0.030,-0.030,-0.030,0.000,0.000,0.000
1641220974357538048,2022-01-03-14:42:54,10.1.1.7,187,-0.040,-0.040,-0.040,0.000,0.000,0.000
1641220974558355968,2022-01-03-14:42:54,10.1.1.7,187,-0.050,-0.050,-0.050,0.000,0.000,0.000
1641220974757741056,2022-01-03-14:42:54,10.1.1.7,184,-0.060,-0.060,-0.060,0.000,0.000,0.000
1641220974958249216,2022-01-03-14:42:54,10.1.1.7,184,-0.070,-0.070,-0.070,0.000,0.000,0.000
1641220975157766144,2022-01-03-14:42:55,10.1.1.7,183,-0.080,-0.080,-0.080,0.000,0.000,0.000
1641220975358021888,2022-01-03-14:42:55,10.1.1.7,182,-0.090,-0.090,-0.090,0.000,0.000,0.000
1641220975562947072,2022-01-03-14:42:55,10.1.1.7,186,-0.100,-0.100,-0.100,0.000,0.000,0.000
1641220975775585024,2022-01-03-14:42:55,10.1.1.7,198,-0.110,-0.110,-0.110,0.000,0.000,0.000
1641220975978557184,2022-01-03-14:42:55,10.1.1.7,198,-0.120,-0.120,-0.120,0.000,0.000,0.000
1641220976176641024,2022-01-03-14:42:56,10.1.1.7,196,-0.130,-0.130,-0.130,0.000,0.000,0.000
1641220976375446016,2022-01-03-14:42:56,10.1.1.7,194,-0.140,-0.140,-0.140,0.000,0.000,0.000
1641220976576122112,2022-01-03-14:42:56,10.1.1.7,194,-0.150,-0.150,-0.150,0.000,0.000,0.000
1641220976776107008,2022-01-03-14:42:56,10.1.1.7,193,-0.160,-0.160,-0.160,0.000,0.000,0.000
1641220976976217088,2022-01-03-14:42:56,10.1.1.7,189,-0.170,-0.170,-0.170,0.000,0.000,0.000
1641220977176078080,2022-01-03-14:42:57,10.1.1.7,188,-0.180,-0.180,-0.180,0.000,0.000,0.000
1641220977374085888,2022-01-03-14:42:57,10.1.1.7,185,-0.190,-0.190,-0.190,0.000,0.000,0.000
1641220977576750080,2022-01-03-14:42:57,10.1.1.7,187,-0.200,-0.200,-0.200,0.000,0.000,0.000
1641220977775188992,2022-01-03-14:42:57,10.1.1.7,185,-0.210,-0.210,-0.210,0.000,0.000,0.000
1641220977975908096,2022-01-03-14:42:57,10.1.1.7,185,-0.220,-0.220,-0.220,0.000,0.000,0.000
1641220978173943040,2022-01-03-14:42:58,10.1.1.7,182,-0.230,-0.230,-0.230,0.000,0.000,0.000
1641220978377193984,2022-01-03-14:42:58,10.1.1.7,185,-0.240,-0.240,-0.240,0.000,0.000,0.000
1641220978573029120,2022-01-03-14:42:58,10.1.1.7,180,-0.250,-0.250,-0.250,0.000,0.000,0.000
1641220978773382912,2022-01-03-14:42:58,10.1.1.7,179,-0.260,-0.260,-0.260,0.000,0.000,0.000
1641220978973465856,2022-01-03-14:42:58,10.1.1.7,178,-0.270,-0.270,-0.270,0.000,0.000,0.000
1641220979172302848,2022-01-03-14:42:59,10.1.1.7,176,-0.280,-0.280,-0.280,0.000,0.000,0.000
1641220979372236032,2022-01-03-14:42:59,10.1.1.7,175,-0.290,-0.290,-0.290,0.000,0.000,0.000
1641220979572759040,2022-01-03-14:42:59,10.1.1.7,175,-0.300,-0.300,-0.300,0.000,0.000,0.000
1641220979792879104,2022-01-03-14:42:59,10.1.1.7,195,-0.310,-0.310,-0.310,0.000,0.000,0.000
1641220979991630080,2022-01-03-14:42:59,10.1.1.7,193,-0.320,-0.320,-0.320,0.000,0.000,0.000
1641220980193028864,2022-01-03-14:43:00,10.1.1.7,194,-0.330,-0.330,-0.330,0.000,0.000,0.000
1641220980391271168,2022-01-03-14:43:00,10.1.1.7,186,-0.340,-0.340,-0.340,0.000,0.000,0.000
1641220980591991808,2022-01-03-14:43:00,10.1.1.7,186,-0.350,-0.350,-0.350,0.000,0.000,0.000
1641220980791799040,2022-01-03-14:43:00,10.1.1.7,185,-0.360,-0.360,-0.360,0.000,0.000,0.000
1641220980993065984,2022-01-03-14:43:00,10.1.1.7,186,-0.370,-0.370,-0.370,0.000,0.000,0.000
1641220981196568064,2022-01-03-14:43:01,10.1.1.7,189,-0.380,-0.380,-0.380,0.000,0.000,0.000
1641220981392226816,2022-01-03-14:43:01,10.1.1.7,184,-0.390,-0.390,-0.390,0.000,0.000,0.000
1641220981596312064,2022-01-03-14:43:01,10.1.1.7,186,-0.400,-0.400,-0.400,0.000,0.000,0.000
1641220981790152192,2022-01-03-14:43:01,10.1.1.7,177,-0.410,-0.410,-0.410,0.000,0.000,0.000
1641220981990573056,2022-01-03-14:43:01,10.1.1.7,177,-0.420,-0.420,-0.420,0.000,0.000,0.000
1641220982199269120,2022-01-03-14:43:02,10.1.1.7,184,-0.430,-0.430,-0.430,0.000,0.000,0.000
1641220982390265088,2022-01-03-14:43:02,10.1.1.7,174,-0.440,-0.440,-0.440,0.000,0.000,0.000
1641220982592850944,2022-01-03-14:43:02,10.1.1.7,176,-0.450,-0.450,-0.450,0.000,0.000,0.000
1641220982809193984,2022-01-03-14:43:02,10.1.1.7,190,-0.460,-0.460,-0.460,0.000,0.000,0.000
1641220983008483840,2022-01-03-14:43:03,10.1.1.7,188,-0.470,-0.470,-0.470,0.000,0.000,0.000
1641220983208327936,2022-01-03-14:43:03,10.1.1.7,188,-0.480,-0.480,-0.480,0.000,0.000,0.000
1641220983409195008,2022-01-03-14:43:03,10.1.1.7,188,-0.490,-0.490,-0.490,0.000,0.000,0.000
1641220983608684032,2022-01-03-14:43:03,10.1.1.7,187,-0.480,-0.480,-0.480,0.000,0.000,0.000
1641220983809072128,2022-01-03-14:43:03,10.1.1.7,186,-0.470,-0.470,-0.470,0.000,0.000,0.000
1641220984008601856,2022-01-03-14:43:04,10.1.1.7,185,-0.460,-0.460,-0.460,0.000,0.000,0.000
1641220984207230976,2022-01-03-14:43:04,10.1.1.7,184,-0.450,-0.450,-0.450,0.000,0.000,0.000
1641220984411108864,2022-01-03-14:43:04,10.1.1.7,187,-0.440,-0.440,-0.440,0.000,0.000,0.000
1641220984607429888,2022-01-03-14:43:04,10.1.1.7,183,-0.430,-0.430,-0.430,0.000,0.000,0.000
1641220984805785856,2022-01-03-14:43:04,10.1.1.7,181,-0.420,-0.420,-0.420,0.000,0.000,0.000
1641220985006739968,2022-01-03-14:43:05,10.1.1.7,181,-0.410,-0.410,-0.410,0.000,0.000,0.000
1641220985206921984,2022-01-03-14:43:05,10.1.1.7,181,-0.400,-0.400,-0.400,0.000,0.000,0.000
1641220985405458944,2022-01-03-14:43:05,10.1.1.7,178,-0.390,-0.390,-0.390,0.000,0.000,0.000
1641220985606761984,2022-01-03-14:43:05,10.1.1.7,175,-0.380,-0.380,-0.380,0.000,0.000,0.000
1641220985805766144,2022-01-03-14:43:05,10.1.1.7,173,-0.370,-0.370,-0.370,0.000,0.000,0.000
1641220986003823104,2022-01-03-14:43:06,10.1.1.7,170,-0.360,-0.360,-0.360,0.000,0.000,0.000
1641220986205563136,2022-01-03-14:43:06,10.1.1.7,171,-0.350,-0.350,-0.350,0.000,0.000,0.000
1641220986404556032,2022-01-03-14:43:06,10.1.1.7,168,-0.340,-0.340,-0.340,0.000,0.000,0.000
1641220986603249920,2022-01-03-14:43:06,10.1.1.7,165,-0.330,-0.330,-0.330,0.000,0.000,0.000
1641220986827621888,2022-01-03-14:43:06,10.1.1.7,189,-0.320,-0.320,-0.320,0.000,0.000,0.000
1641220987024148992,2022-01-03-14:43:07,10.1.1.7,184,-0.310,-0.310,-0.310,0.000,0.000,0.000
1641220987222348032,2022-01-03-14:43:07,10.1.1.7,182,-0.300,-0.300,-0.300,0.000,0.000,0.000
1641220987422727936,2022-01-03-14:43:07,10.1.1.7,181,-0.290,-0.290,-0.290,0.000,0.000,0.000
1641220987622225152,2022-01-03-14:43:07,10.1.1.7,177,-0.280,-0.280,-0.280,0.000,0.000,0.000
1641220987823330048,2022-01-03-14:43:07,10.1.1.7,177,-0.270,-0.270,-0.270,0.000,0.000,0.000
1641220988021869056,2022-01-03-14:43:08,10.1.1.7,176,-0.260,-0.260,-0.260,0.000,0.000,0.000
1641220988220678144,2022-01-03-14:43:08,10.1.1.7,174,-0.250,-0.250,-0.250,0.000,0.000,0.000
1641220988421703168,2022-01-03-14:43:08,10.1.1.7,174,-0.240,-0.240,-0.240,0.000,0.000,0.000
1641220988621079040,2022-01-03-14:43:08,10.1.1.7,173,-0.230,-0.230,-0.230,0.000,0.000,0.000
1641220988820779008,2022-01-03-14:43:08,10.1.1.7,172,-0.220,-0.220,-0.220,0.000,0.000,0.000
1641220989025460992,2022-01-03-14:43:09,10.1.1.7,176,-0.210,-0.210,-0.210,0.000,0.000,0.000
1641220989220084992,2022-01-03-14:43:09,10.1.1.7,170,-0.200,-0.200,-0.200,0.000,0.000,0.000
1641220989421114880,2022-01-03-14:43:09,10.1.1.7,170,-0.190,-0.190,-0.190,0.000,0.000,0.000
1641220989619597824,2022-01-03-14:43:09,10.1.1.7,167,-0.180,-0.180,-0.180,0.000,0.000,0.000
1641220989817897984,2022-01-03-14:43:09,10.1.1.7,165,-0.170,-0.170,-0.170,0.000,0.000,0.000
1641220990017688064,2022-01-03-14:43:10,10.1.1.7,163,-0.160,-0.160,-0.160,0.000,0.000,0.000
1641220990218228992,2022-01-03-14:43:10,10.1.1.7,161,-0.150,-0.150,-0.150,0.000,0.000,0.000
1641220990438157056,2022-01-03-14:43:10,10.1.1.7,178,-0.140,-0.140,-0.140,0.000,0.000,0.000
1641220990637037056,2022-01-03-14:43:10,10.1.1.7,177,-0.130,-0.130,-0.130,0.000,0.000,0.000
1641220990847502848,2022-01-03-14:43:10,10.1.1.7,187,-0.120,-0.120,-0.120,0.000,0.000,0.000
1641220991037808896,2022-01-03-14:43:11,10.1.1.7,167,-0.110,-0.110,-0.110,0.000,0.000,0.000
1641220991239531008,2022-01-03-14:43:11,10.1.1.7,166,-0.100,-0.100,-0.100,0.000,0.000,0.000
1641220991437122048,2022-01-03-14:43:11,10.1.1.7,165,-0.090,-0.090,-0.090,0.000,0.000,0.000
1641220991642893056,2022-01-03-14:43:11,10.1.1.7,170,-0.080,-0.080,-0.080,0.000,0.000,0.000
1641220991839222784,2022-01-03-14:43:11,10.1.1.7,164,-0.070,-0.070,-0.070,0.000,0.000,0.000
1641220992037008128,2022-01-03-14:43:12,10.1.1.7,163,-0.060,-0.060,-0.060,0.000,0.000,0.000
1641220992234603776,2022-01-03-14:43:12,10.1.1.7,160,-0.050,-0.050,-0.050,0.000,0.000,0.000
1641220992437835008,2022-01-03-14:43:12,10.1.1.7,162,-0.040,-0.040,-0.040,0.000,0.000,0.000
1641220992638405120,2022-01-03-14:43:12,10.1.1.7,162,-0.030,-0.030,-0.030,0.000,0.000,0.000
1641220992833826048,2022-01-03-14:43:12,10.1.1.7,157,-0.020,-0.020,-0.020,0.000,0.000,0.000
1641220993257368064,2022-01-03-14:43:13,10.1.1.7,175,0.000,0.000,0.000,0.000,0.000,0.000
1641220993455724032,2022-01-03-14:43:13,10.1.1.7,173,-0.010,-0.010,-0.010,0.000,0.000,0.000
1641220993656194816,2022-01-03-14:43:13,10.1.1.7,172,-0.020,-0.020,-0.020,0.000,0.000,0.000
1641220993859612928,2022-01-03-14:43:13,10.1.1.7,170,-0.030,-0.030,-0.030,0.000,0.000,0.000
1641220994058404864,2022-01-03-14:43:14,10.1.1.7,168,-0.040,-0.040,-0.040,0.000,0.000,0.000
1641220994260231936,2022-01-03-14:43:14,10.1.1.7,170,-0.050,-0.050,-0.050,0.000,0.000,0.000
1641220994461318912,2022-01-03-14:43:14,10.1.1.7,170,-0.060,-0.060,-0.060,0.000,0.000,0.000
1641220994660980992,2022-01-03-14:43:14,10.1.1.7,168,-0.070,-0.070,-0.070,0.000,0.000,0.000
1641220994864429824,2022-01-03-14:43:14,10.1.1.7,171,-0.080,-0.080,-0.080,0.000,0.000,0.000
1641220995064943104,2022-01-03-14:43:15,10.1.1.7,171,-0.090,-0.090,-0.090,0.000,0.000,0.000
1641220995272064000,2022-01-03-14:43:15,10.1.1.7,177,-0.100,-0.100,-0.100,0.000,0.000,0.000
1641220995465441024,2022-01-03-14:43:15,10.1.1.7,169,-0.110,-0.110,-0.110,0.000,0.000,0.000
1641220995664971008,2022-01-03-14:43:15,10.1.1.7,168,-0.120,-0.120,-0.120,0.000,0.000,0.000
1641220995886193152,2022-01-03-14:43:15,10.1.1.7,188,-0.130,-0.130,-0.130,0.000,0.000,0.000
1641220996091863040,2022-01-03-14:43:16,10.1.1.7,191,-0.140,-0.140,-0.140,0.000,0.000,0.000
1641220996292121856,2022-01-03-14:43:16,10.1.1.7,191,-0.150,-0.150,-0.150,0.000,0.000,0.000
1641220996489062912,2022-01-03-14:43:16,10.1.1.7,188,-0.160,-0.160,-0.160,0.000,0.000,0.000
1641220996689278976,2022-01-03-14:43:16,10.1.1.7,187,-0.170,-0.170,-0.170,0.000,0.000,0.000
1641220996890161920,2022-01-03-14:43:16,10.1.1.7,188,-0.180,-0.180,-0.180,0.000,0.000,0.000
1641220997090509824,2022-01-03-14:43:17,10.1.1.7,187,-0.190,-0.190,-0.190,0.000,0.000,0.000
1641220997291027968,2022-01-03-14:43:17,10.1.1.7,187,-0.200,-0.200,-0.200,0.000,0.000,0.000
1641220997490854144,2022-01-03-14:43:17,10.1.1.7,187,-0.210,-0.210,-0.210,0.000,0.000,0.000
1641220997690611968,2022-01-03-14:43:17,10.1.1.7,186,-0.220,-0.220,-0.220,0.000,0.000,0.000
1641220997892035840,2022-01-03-14:43:17,10.1.1.7,187,-0.230,-0.230,-0.230,0.000,0.000,0.000
1641220998098017024,2022-01-03-14:43:18,10.1.1.7,192,-0.240,-0.240,-0.240,0.000,0.000,0.000
1641220998293580032,2022-01-03-14:43:18,10.1.1.7,187,-0.250,-0.250,-0.250,0.000,0.000,0.000
1641220998492884992,2022-01-03-14:43:18,10.1.1.7,185,-0.260,-0.260,-0.260,0.000,0.000,0.000
1641220998697032960,2022-01-03-14:43:18,10.1.1.7,186,-0.270,-0.270,-0.270,0.000,0.000,0.000
1641220998895490816,2022-01-03-14:43:18,10.1.1.7,183,-0.280,-0.280,-0.280,0.000,0.000,0.000
1641220999097999104,2022-01-03-14:43:19,10.1.1.7,186,-0.290,-0.290,-0.290,0.000,0.000,0.000
1641220999294255104,2022-01-03-14:43:19,10.1.1.7,181,-0.300,-0.300,-0.300,0.000,0.000,0.000
1641220999516547072,2022-01-03-14:43:19,10.1.1.7,198,-0.310,-0.310,-0.310,0.000,0.000,0.000
1641220999721671936,2022-01-03-14:43:19,10.1.1.7,203,-0.320,-0.320,-0.320,0.000,0.000,0.000
1641220999916227072,2022-01-03-14:43:19,10.1.1.7,191,-0.330,-0.330,-0.330,0.000,0.000,0.000
1641221000116905984,2022-01-03-14:43:20,10.1.1.7,190,-0.340,-0.340,-0.340,0.000,0.000,0.000
1641221000518043136,2022-01-03-14:43:20,10.1.1.7,189,-0.360,-0.360,-0.360,0.000,0.000,0.000
1641221000718038016,2022-01-03-14:43:20,10.1.1.7,188,-0.370,-0.370,-0.370,0.000,0.000,0.000
1641221000916684032,2022-01-03-14:43:20,10.1.1.7,186,-0.380,-0.380,-0.380,0.000,0.000,0.000
1641221001117050880,2022-01-03-14:43:21,10.1.1.7,186,-0.390,-0.390,-0.390,0.000,0.000,0.000
1641221001317126912,2022-01-03-14:43:21,10.1.1.7,185,-0.400,-0.400,-0.400,0.000,0.000,0.000
1641221001517746944,2022-01-03-14:43:21,10.1.1.7,186,-0.410,-0.410,-0.410,0.000,0.000,0.000
1641221001721204992,2022-01-03-14:43:21,10.1.1.7,189,-0.420,-0.420,-0.420,0.000,0.000,0.000
1641221001917259008,2022-01-03-14:43:21,10.1.1.7,184,-0.430,-0.430,-0.430,0.000,0.000,0.000
1641221002118104064,2022-01-03-14:43:22,10.1.1.7,184,-0.440,-0.440,-0.440,0.000,0.000,0.000
1641221002319528960,2022-01-03-14:43:22,10.1.1.7,185,-0.450,-0.450,-0.450,0.000,0.000,0.000
1641221002518423040,2022-01-03-14:43:22,10.1.1.7,183,-0.460,-0.460,-0.460,0.000,0.000,0.000
1641221002737971968,2022-01-03-14:43:22,10.1.1.7,200,-0.470,-0.470,-0.470,0.000,0.000,0.000
1641221002939105024,2022-01-03-14:43:22,10.1.1.7,200,-0.480,-0.480,-0.480,0.000,0.000,0.000
1641221003137939968,2022-01-03-14:43:23,10.1.1.7,198,-0.490,-0.490,-0.490,0.000,0.000,0.000
1641221003337780992,2022-01-03-14:43:23,10.1.1.7,197,-0.480,-0.480,-0.480,0.000,0.000,0.000
1641221003538536192,2022-01-03-14:43:23,10.1.1.7,197,-0.470,-0.470,-0.470,0.000,0.000,0.000
1641221003737531904,2022-01-03-14:43:23,10.1.1.7,195,-0.460,-0.460,-0.460,0.000,0.000,0.000
1641221003939292928,2022-01-03-14:43:23,10.1.1.7,196,-0.450,-0.450,-0.450,0.000,0.000,0.000
1641221004139837952,2022-01-03-14:43:24,10.1.1.7,194,-0.440,-0.440,-0.440,0.000,0.000,0.000
1641221004342281984,2022-01-03-14:43:24,10.1.1.7,196,-0.430,-0.430,-0.430,0.000,0.000,0.000
1641221004540751872,2022-01-03-14:43:24,10.1.1.7,193,-0.420,-0.420,-0.420,0.000,0.000,0.000
1641221004739465984,2022-01-03-14:43:24,10.1.1.7,190,-0.410,-0.410,-0.410,0.000,0.000,0.000
1641221004937917952,2022-01-03-14:43:24,10.1.1.7,187,-0.400,-0.400,-0.400,0.000,0.000,0.000
1641221005139556864,2022-01-03-14:43:25,10.1.1.7,187,-0.390,-0.390,-0.390,0.000,0.000,0.000
1641221005339049216,2022-01-03-14:43:25,10.1.1.7,186,-0.380,-0.380,-0.380,0.000,0.000,0.000
1641221005537532160,2022-01-03-14:43:25,10.1.1.7,184,-0.370,-0.370,-0.370,0.000,0.000,0.000
1641221005738835968,2022-01-03-14:43:25,10.1.1.7,184,-0.360,-0.360,-0.360,0.000,0.000,0.000
1641221005941349120,2022-01-03-14:43:25,10.1.1.7,185,-0.350,-0.350,-0.350,0.000,0.000,0.000
1641221006139565056,2022-01-03-14:43:26,10.1.1.7,182,-0.340,-0.340,-0.340,0.000,0.000,0.000
1641221006358976000,2022-01-03-14:43:26,10.1.1.7,199,-0.330,-0.330,-0.330,0.000,0.000,0.000
1641221006558767104,2022-01-03-14:43:26,10.1.1.7,198,-0.320,-0.320,-0.320,0.000,0.000,0.000
1641221006761394944,2022-01-03-14:43:26,10.1.1.7,200,-0.310,-0.310,-0.310,0.000,0.000,0.000
1641221006959420928,2022-01-03-14:43:26,10.1.1.7,196,-0.300,-0.300,-0.300,0.000,0.000,0.000
1641221007156685056,2022-01-03-14:43:27,10.1.1.7,188,-0.290,-0.290,-0.290,0.000,0.000,0.000
1641221007558509056,2022-01-03-14:43:27,10.1.1.7,184,-0.270,-0.270,-0.270,0.000,0.000,0.000
1641221007757533952,2022-01-03-14:43:27,10.1.1.7,182,-0.260,-0.260,-0.260,0.000,0.000,0.000
1641221007957367040,2022-01-03-14:43:27,10.1.1.7,182,-0.250,-0.250,-0.250,0.000,0.000,0.000
1641221008360316160,2022-01-03-14:43:28,10.1.1.7,184,-0.230,-0.230,-0.230,0.000,0.000,0.000
1641221008557688832,2022-01-03-14:43:28,10.1.1.7,180,-0.220,-0.220,-0.220,0.000,0.000,0.000
1641221008775885056,2022-01-03-14:43:28,10.1.1.7,198,-0.210,-0.210,-0.210,0.000,0.000,0.000
1641221008976327936,2022-01-03-14:43:28,10.1.1.7,196,-0.200,-0.200,-0.200,0.000,0.000,0.000
1641221009176871936,2022-01-03-14:43:29,10.1.1.7,196,-0.190,-0.190,-0.190,0.000,0.000,0.000
1641221009377899776,2022-01-03-14:43:29,10.1.1.7,195,-0.180,-0.180,-0.180,0.000,0.000,0.000
1641221009576838144,2022-01-03-14:43:29,10.1.1.7,194,-0.170,-0.170,-0.170,0.000,0.000,0.000
1641221009775877888,2022-01-03-14:43:29,10.1.1.7,192,-0.160,-0.160,-0.160,0.000,0.000,0.000
1641221009976762112,2022-01-03-14:43:29,10.1.1.7,189,-0.150,-0.150,-0.150,0.000,0.000,0.000
1641221010176599040,2022-01-03-14:43:30,10.1.1.7,189,-0.140,-0.140,-0.140,0.000,0.000,0.000
1641221010380486912,2022-01-03-14:43:30,10.1.1.7,192,-0.130,-0.130,-0.130,0.000,0.000,0.000
1641221010575894016,2022-01-03-14:43:30,10.1.1.7,185,-0.120,-0.120,-0.120,0.000,0.000,0.000
1641221010773852160,2022-01-03-14:43:30,10.1.1.7,183,-0.110,-0.110,-0.110,0.000,0.000,0.000
1641221010974353920,2022-01-03-14:43:30,10.1.1.7,182,-0.100,-0.100,-0.100,0.000,0.000,0.000
1641221011174894080,2022-01-03-14:43:31,10.1.1.7,181,-0.090,-0.090,-0.090,0.000,0.000,0.000
1641221011372761856,2022-01-03-14:43:31,10.1.1.7,178,-0.080,-0.080,-0.080,0.000,0.000,0.000
1641221011572967168,2022-01-03-14:43:31,10.1.1.7,178,-0.070,-0.070,-0.070,0.000,0.000,0.000
1641221011772510976,2022-01-03-14:43:31,10.1.1.7,177,-0.060,-0.060,-0.060,0.000,0.000,0.000
1641221011972218880,2022-01-03-14:43:31,10.1.1.7,176,-0.050,-0.050,-0.050,0.000,0.000,0.000
1641221012172658944,2022-01-03-14:43:32,10.1.1.7,175,-0.040,-0.040,-0.040,0.000,0.000,0.000
1641221012373553152,2022-01-03-14:43:32,10.1.1.7,176,-0.030,-0.030,-0.030,0.000,0.000,0.000
1641221012572912896,2022-01-03-14:43:32,10.1.1.7,175,-0.020,-0.020,-0.020,0.000,0.000,0.000
1641221012793648896,2022-01-03-14:43:32,10.1.1.7,195,-0.010,-0.010,-0.010,0.000,0.000,0.000
1641221012997986048,2022-01-03-14:43:32,10.1.1.7,199,0.000,0.000,0.000,0.000,0.000,0.000
1641221013191190016,2022-01-03-14:43:33,10.1.1.7,191,-0.010,-0.010,-0.010,0.000,0.000,0.000
1641221013392728064,2022-01-03-14:43:33,10.1.1.7,192,-0.020,-0.020,-0.020,0.000,0.000,0.000
1641221013591344128,2022-01-03-14:43:33,10.1.1.7,190,-0.030,-0.030,-0.030,0.000,0.000,0.000
1641221013795933952,2022-01-03-14:43:33,10.1.1.7,194,-0.040,-0.040,-0.040,0.000,0.000,0.000
1641221013990274816,2022-01-03-14:43:33,10.1.1.7,188,-0.050,-0.050,-0.050,0.000,0.000,0.000
1641221014190171904,2022-01-03-14:43:34,10.1.1.7,187,-0.060,-0.060,-0.060,0.000,0.000,0.000
1641221014389982976,2022-01-03-14:43:34,10.1.1.7,187,-0.070,-0.070,-0.070,0.000,0.000,0.000
1641221014589916928,2022-01-03-14:43:34,10.1.1.7,186,-0.080,-0.080,-0.080,0.000,0.000,0.000
1641221014797584128,2022-01-03-14:43:34,10.1.1.7,193,-0.090,-0.090,-0.090,0.000,0.000,0.000
1641221014988461056,2022-01-03-14:43:34,10.1.1.7,184,-0.100,-0.100,-0.100,0.000,0.000,0.000
1641221015188857088,2022-01-03-14:43:35,10.1.1.7,184,-0.110,-0.110,-0.110,0.000,0.000,0.000
1641221015388621056,2022-01-03-14:43:35,10.1.1.7,181,-0.120,-0.120,-0.120,0.000,0.000,0.000
1641221015588072960,2022-01-03-14:43:35,10.1.1.7,180,-0.130,-0.130,-0.130,0.000,0.000,0.000
1641221015789433088,2022-01-03-14:43:35,10.1.1.7,181,-0.140,-0.140,-0.140,0.000,0.000,0.000
1641221015989878016,2022-01-03-14:43:35,10.1.1.7,181,-0.150,-0.150,-0.150,0.000,0.000,0.000
1641221016187140864,2022-01-03-14:43:36,10.1.1.7,178,-0.160,-0.160,-0.160,0.000,0.000,0.000
1641221016387911168,2022-01-03-14:43:36,10.1.1.7,177,-0.170,-0.170,-0.170,0.000,0.000,0.000
1641221016588335104,2022-01-03-14:43:36,10.1.1.7,177,-0.180,-0.180,-0.180,0.000,0.000,0.000
1641221016786381056,2022-01-03-14:43:36,10.1.1.7,175,-0.190,-0.190,-0.190,0.000,0.000,0.000
1641221016987406080,2022-01-03-14:43:36,10.1.1.7,175,-0.200,-0.200,-0.200,0.000,0.000,0.000
1641221017185751040,2022-01-03-14:43:37,10.1.1.7,173,-0.210,-0.210,-0.210,0.000,0.000,0.000
1641221017385857024,2022-01-03-14:43:37,10.1.1.7,172,-0.220,-0.220,-0.220,0.000,0.000,0.000
1641221017587718912,2022-01-03-14:43:37,10.1.1.7,173,-0.230,-0.230,-0.230,0.000,0.000,0.000
1641221017786298880,2022-01-03-14:43:37,10.1.1.7,170,-0.240,-0.240,-0.240,0.000,0.000,0.000
1641221017989414912,2022-01-03-14:43:37,10.1.1.7,172,-0.250,-0.250,-0.250,0.000,0.000,0.000
1641221018186331904,2022-01-03-14:43:38,10.1.1.7,169,-0.260,-0.260,-0.260,0.000,0.000,0.000
1641221018406227968,2022-01-03-14:43:38,10.1.1.7,188,-0.270,-0.270,-0.270,0.000,0.000,0.000
1641221018604520960,2022-01-03-14:43:38,10.1.1.7,185,-0.280,-0.280,-0.280,0.000,0.000,0.000
1641221018804764160,2022-01-03-14:43:38,10.1.1.7,184,-0.290,-0.290,-0.290,0.000,0.000,0.000
1641221019006555136,2022-01-03-14:43:39,10.1.1.7,186,-0.300,-0.300,-0.300,0.000,0.000,0.000
1641221019204796160,2022-01-03-14:43:39,10.1.1.7,175,-0.310,-0.310,-0.310,0.000,0.000,0.000
1641221019402910976,2022-01-03-14:43:39,10.1.1.7,173,-0.320,-0.320,-0.320,0.000,0.000,0.000
1641221019607422208,2022-01-03-14:43:39,10.1.1.7,174,-0.330,-0.330,-0.330,0.000,0.000,0.000
1641221019804840960,2022-01-03-14:43:39,10.1.1.7,171,-0.340,-0.340,-0.340,0.000,0.000,0.000
1641221020002327808,2022-01-03-14:43:40,10.1.1.7,167,-0.350,-0.350,-0.350,0.000,0.000,0.000
1641221020203576064,2022-01-03-14:43:40,10.1.1.7,168,-0.360,-0.360,-0.360,0.000,0.000,0.000
1641221020402344960,2022-01-03-14:43:40,10.1.1.7,166,-0.370,-0.370,-0.370,0.000,0.000,0.000
1641221020601767936,2022-01-03-14:43:40,10.1.1.7,165,-0.380,-0.380,-0.380,0.000,0.000,0.000
1641221020822477056,2022-01-03-14:43:40,10.1.1.7,183,-0.390,-0.390,-0.390,0.000,0.000,0.000
1641221021020153088,2022-01-03-14:43:41,10.1.1.7,182,-0.400,-0.400,-0.400,0.000,0.000,0.000
1641221021221698048,2022-01-03-14:43:41,10.1.1.7,183,-0.410,-0.410,-0.410,0.000,0.000,0.000
1641221021420173056,2022-01-03-14:43:41,10.1.1.7,179,-0.420,-0.420,-0.420,0.000,0.000,0.000
1641221021623517952,2022-01-03-14:43:41,10.1.1.7,181,-0.430,-0.430,-0.430,0.000,0.000,0.000
1641221022018155008,2022-01-03-14:43:42,10.1.1.7,173,-0.450,-0.450,-0.450,0.000,0.000,0.000
1641221022218689792,2022-01-03-14:43:42,10.1.1.7,173,-0.460,-0.460,-0.460,0.000,0.000,0.000
1641221022418534912,2022-01-03-14:43:42,10.1.1.7,172,-0.470,-0.470,-0.470,0.000,0.000,0.000
1641221022617767936,2022-01-03-14:43:42,10.1.1.7,170,-0.480,-0.480,-0.480,0.000,0.000,0.000
1641221022820388096,2022-01-03-14:43:42,10.1.1.7,172,-0.490,-0.490,-0.490,0.000,0.000,0.000
1641221023017726976,2022-01-03-14:43:43,10.1.1.7,169,-0.480,-0.480,-0.480,0.000,0.000,0.000
1641221023216603136,2022-01-03-14:43:43,10.1.1.7,167,-0.470,-0.470,-0.470,0.000,0.000,0.000
1641221023428343040,2022-01-03-14:43:43,10.1.1.7,178,-0.460,-0.460,-0.460,0.000,0.000,0.000
1641221023617764096,2022-01-03-14:43:43,10.1.1.7,164,-0.450,-0.450,-0.450,0.000,0.000,0.000
1641221023818636800,2022-01-03-14:43:43,10.1.1.7,164,-0.440,-0.440,-0.440,0.000,0.000,0.000
1641221024017199104,2022-01-03-14:43:44,10.1.1.7,162,-0.430,-0.430,-0.430,0.000,0.000,0.000
1641221024237169152,2022-01-03-14:43:44,10.1.1.7,179,-0.420,-0.420,-0.420,0.000,0.000,0.000
1641221024434828032,2022-01-03-14:43:44,10.1.1.7,175,-0.410,-0.410,-0.410,0.000,0.000,0.000
1641221024640747008,2022-01-03-14:43:44,10.1.1.7,180,-0.400,-0.400,-0.400,0.000,0.000,0.000
1641221024834084096,2022-01-03-14:43:44,10.1.1.7,171,-0.390,-0.390,-0.390,0.000,0.000,0.000
1641221025038297856,2022-01-03-14:43:45,10.1.1.7,174,-0.380,-0.380,-0.380,0.000,0.000,0.000
1641221025236214016,2022-01-03-14:43:45,10.1.1.7,169,-0.370,-0.370,-0.370,0.000,0.000,0.000
1641221025436715008,2022-01-03-14:43:45,10.1.1.7,169,-0.360,-0.360,-0.360,0.000,0.000,0.000
1641221025638123008,2022-01-03-14:43:45,10.1.1.7,169,-0.350,-0.350,-0.350,0.000,0.000,0.000
1641221025839910912,2022-01-03-14:43:45,10.1.1.7,167,-0.340,-0.340,-0.340,0.000,0.000,0.000
1641221026039002880,2022-01-03-14:43:46,10.1.1.7,165,-0.330,-0.330,-0.330,0.000,0.000,0.000
1641221026244695808,2022-01-03-14:43:46,10.1.1.7,170,-0.320,-0.320,-0.320,0.000,0.000,0.000
1641221026442483968,2022-01-03-14:43:46,10.1.1.7,167,-0.310,-0.310,-0.310,0.000,0.000,0.000
1641221026645840896,2022-01-03-14:43:46,10.1.1.7,170,-0.300,-0.300,-0.300,0.000,0.000,0.000
1641221026864783104,2022-01-03-14:43:46,10.1.1.7,184,-0.290,-0.290,-0.290,0.000,0.000,0.000
1641221027063884032,2022-01-03-14:43:47,10.1.1.7,179,-0.280,-0.280,-0.280,0.000,0.000,0.000
1641221027265000192,2022-01-03-14:43:47,10.1.1.7,177,-0.270,-0.270,-0.270,0.000,0.000,0.000
1641221027465117952,2022-01-03-14:43:47,10.1.1.7,174,-0.260,-0.260,-0.260,0.000,0.000,0.000
1641221027666436864,2022-01-03-14:43:47,10.1.1.7,174,-0.250,-0.250,-0.250,0.000,0.000,0.000
1641221027868231936,2022-01-03-14:43:47,10.1.1.7,176,-0.240,-0.240,-0.240,0.000,0.000,0.000
1641221028067617792,2022-01-03-14:43:48,10.1.1.7,174,-0.230,-0.230,-0.230,0.000,0.000,0.000
1641221028275820032,2022-01-03-14:43:48,10.1.1.7,182,-0.220,-0.220,-0.220,0.000,0.000,0.000
1641221028471305984,2022-01-03-14:43:48,10.1.1.7,176,-0.210,-0.210,-0.210,0.000,0.000,0.000
1641221028669209088,2022-01-03-14:43:48,10.1.1.7,173,-0.200,-0.200,-0.200,0.000,0.000,0.000
1641221028872883200,2022-01-03-14:43:48,10.1.1.7,176,-0.190,-0.190,-0.190,0.000,0.000,0.000
1641221029092540928,2022-01-03-14:43:49,10.1.1.7,194,-0.180,-0.180,-0.180,0.000,0.000,0.000
1641221029292290048,2022-01-03-14:43:49,10.1.1.7,194,-0.170,-0.170,-0.170,0.000,0.000,0.000
1641221029491437056,2022-01-03-14:43:49,10.1.1.7,192,-0.160,-0.160,-0.160,0.000,0.000,0.000
1641221029673573120,2022-01-03-14:43:49,10.1.1.7,174,-0.150,-0.150,-0.150,0.000,0.000,0.000
1641221029892707072,2022-01-03-14:43:49,10.1.1.7,193,-0.140,-0.140,-0.140,0.000,0.000,0.000
1641221030094194944,2022-01-03-14:43:50,10.1.1.7,193,-0.130,-0.130,-0.130,0.000,0.000,0.000
1641221030293533952,2022-01-03-14:43:50,10.1.1.7,192,-0.120,-0.120,-0.120,0.000,0.000,0.000
1641221030496081152,2022-01-03-14:43:50,10.1.1.7,192,-0.110,-0.110,-0.110,0.000,0.000,0.000
1641221030694811136,2022-01-03-14:43:50,10.1.1.7,189,-0.100,-0.100,-0.100,0.000,0.000,0.000
1641221030895247104,2022-01-03-14:43:50,10.1.1.7,189,-0.090,-0.090,-0.090,0.000,0.000,0.000
1641221031095685120,2022-01-03-14:43:51,10.1.1.7,188,-0.080,-0.080,-0.080,0.000,0.000,0.000
1641221031300296960,2022-01-03-14:43:51,10.1.1.7,192,-0.070,-0.070,-0.070,0.000,0.000,0.000
1641221031498540032,2022-01-03-14:43:51,10.1.1.7,190,-0.060,-0.060,-0.060,0.000,0.000,0.000
1641221031696363008,2022-01-03-14:43:51,10.1.1.7,187,-0.050,-0.050,-0.050,0.000,0.000,0.000
1641221031896358912,2022-01-03-14:43:51,10.1.1.7,186,-0.040,-0.040,-0.040,0.000,0.000,0.000
1641221032102328064,2022-01-03-14:43:52,10.1.1.7,190,-0.030,-0.030,-0.030,0.000,0.000,0.000
1641221032316889088,2022-01-03-14:43:52,10.1.1.7,193,-0.020,-0.020,-0.020,0.000,0.000,0.000
1641221032517838848,2022-01-03-14:43:52,10.1.1.7,194,-0.010,-0.010,-0.010,0.000,0.000,0.000
1641221032716841984,2022-01-03-14:43:52,10.1.1.7,192,0.000,0.000,0.000,0.000,0.000,0.000
1641221032919218944,2022-01-03-14:43:52,10.1.1.7,190,-0.010,-0.010,-0.010,0.000,0.000,0.000
1641221033118158080,2022-01-03-14:43:53,10.1.1.7,188,-0.020,-0.020,-0.020,0.000,0.000,0.000
1641221033319142144,2022-01-03-14:43:53,10.1.1.7,189,-0.030,-0.030,-0.030,0.000,0.000,0.000
1641221033520674816,2022-01-03-14:43:53,10.1.1.7,189,-0.040,-0.040,-0.040,0.000,0.000,0.000
1641221033721420032,2022-01-03-14:43:53,10.1.1.7,189,-0.050,-0.050,-0.050,0.000,0.000,0.000
1641221033919773952,2022-01-03-14:43:53,10.1.1.7,187,-0.060,-0.060,-0.060,0.000,0.000,0.000
1641221034119448832,2022-01-03-14:43:54,10.1.1.7,184,-0.070,-0.070,-0.070,0.000,0.000,0.000
1641221034321465088,2022-01-03-14:43:54,10.1.1.7,186,-0.080,-0.080,-0.080,0.000,0.000,0.000
1641221034519191040,2022-01-03-14:43:54,10.1.1.7,182,-0.090,-0.090,-0.090,0.000,0.000,0.000
1641221034739901952,2022-01-03-14:43:54,10.1.1.7,198,-0.100,-0.100,-0.100,0.000,0.000,0.000
1641221034937899008,2022-01-03-14:43:54,10.1.1.7,196,-0.110,-0.110,-0.110,0.000,0.000,0.000
1641221035139194880,2022-01-03-14:43:55,10.1.1.7,196,-0.120,-0.120,-0.120,0.000,0.000,0.000
1641221035541776896,2022-01-03-14:43:55,10.1.1.7,197,-0.140,-0.140,-0.140,0.000,0.000,0.000
1641221035740512000,2022-01-03-14:43:55,10.1.1.7,195,-0.150,-0.150,-0.150,0.000,0.000,0.000
1641221035939895040,2022-01-03-14:43:55,10.1.1.7,194,-0.160,-0.160,-0.160,0.000,0.000,0.000
1641221036140135168,2022-01-03-14:43:56,10.1.1.7,194,-0.170,-0.170,-0.170,0.000,0.000,0.000
1641221036339098880,2022-01-03-14:43:56,10.1.1.7,192,-0.180,-0.180,-0.180,0.000,0.000,0.000
1641221036538955008,2022-01-03-14:43:56,10.1.1.7,191,-0.190,-0.190,-0.190,0.000,0.000,0.000
1641221036740009984,2022-01-03-14:43:56,10.1.1.7,192,-0.200,-0.200,-0.200,0.000,0.000,0.000
1641221036937763840,2022-01-03-14:43:56,10.1.1.7,189,-0.210,-0.210,-0.210,0.000,0.000,0.000
1641221037139273984,2022-01-03-14:43:57,10.1.1.7,190,-0.220,-0.220,-0.220,0.000,0.000,0.000
1641221037338756096,2022-01-03-14:43:57,10.1.1.7,189,-0.230,-0.230,-0.230,0.000,0.000,0.000
1641221037540667904,2022-01-03-14:43:57,10.1.1.7,190,-0.240,-0.240,-0.240,0.000,0.000,0.000
1641221037746598912,2022-01-03-14:43:57,10.1.1.7,196,-0.250,-0.250,-0.250,0.000,0.000,0.000
1641221037938204160,2022-01-03-14:43:57,10.1.1.7,187,-0.260,-0.260,-0.260,0.000,0.000,0.000
1641221038138396928,2022-01-03-14:43:58,10.1.1.7,186,-0.270,-0.270,-0.270,0.000,0.000,0.000
1641221038340235008,2022-01-03-14:43:58,10.1.1.7,187,-0.280,-0.280,-0.280,0.000,0.000,0.000
1641221038538503936,2022-01-03-14:43:58,10.1.1.7,184,-0.290,-0.290,-0.290,0.000,0.000,0.000
1641221038739962112,2022-01-03-14:43:58,10.1.1.7,185,-0.300,-0.300,-0.300,0.000,0.000,0.000
1641221038939707136,2022-01-03-14:43:58,10.1.1.7,183,-0.310,-0.310,-0.310,0.000,0.000,0.000
1641221039139054080,2022-01-03-14:43:59,10.1.1.7,183,-0.320,-0.320,-0.320,0.000,0.000,0.000
1641221039340569088,2022-01-03-14:43:59,10.1.1.7,183,-0.330,-0.330,-0.330,0.000,0.000,0.000
1641221039539273984,2022-01-03-14:43:59,10.1.1.7,182,-0.340,-0.340,-0.340,0.000,0.000,0.000
1641221039738297088,2022-01-03-14:43:59,10.1.1.7,180,-0.350,-0.350,-0.350,0.000,0.000,0.000
1641221039942832896,2022-01-03-14:43:59,10.1.1.7,184,-0.360,-0.360,-0.360,0.000,0.000,0.000
1641221040361298944,2022-01-03-14:44:00,10.1.1.7,-1,-0.380,-0.380,-0.380,0.000,0.000,0.000
1641221040956069888,2022-01-03-14:44:00,10.1.1.7,191,-0.410,-0.410,-0.410,0.000,0.000,0.000
1641221041155896064,2022-01-03-14:44:01,10.1.1.7,190,-0.420,-0.420,-0.420,0.000,0.000,0.000
1641221041356409088,2022-01-03-14:44:01,10.1.1.7,190,-0.430,-0.430,-0.430,0.000,0.000,0.000
1641221041556772096,2022-01-03-14:44:01,10.1.1.7,190,-0.440,-0.440,-0.440,0.000,0.000,0.000
1641221041757061888,2022-01-03-14:44:01,10.1.1.7,189,-0.450,-0.450,-0.450,0.000,0.000,0.000
1641221041960956160,2022-01-03-14:44:01,10.1.1.7,191,-0.460,-0.460,-0.460,0.000,0.000,0.000
1641221042156529920,2022-01-03-14:44:02,10.1.1.7,188,-0.470,-0.470,-0.470,0.000,0.000,0.000
1641221042356640000,2022-01-03-14:44:02,10.1.1.7,187,-0.480,-0.480,-0.480,0.000,0.000,0.000
1641221042555613952,2022-01-03-14:44:02,10.1.1.7,184,-0.490,-0.490,-0.490,0.000,0.000,0.000
1641221042755500032,2022-01-03-14:44:02,10.1.1.7,185,-0.480,-0.480,-0.480,0.000,0.000,0.000
1641221043174824960,2022-01-03-14:44:03,10.1.1.7,193,-0.460,-0.460,-0.460,0.000,0.000,0.000
1641221043395468032,2022-01-03-14:44:03,10.1.1.7,194,-0.450,-0.450,-0.450,0.000,0.000,0.000
1641221043597424896,2022-01-03-14:44:03,10.1.1.7,193,-0.440,-0.440,-0.440,0.000,0.000,0.000
1641221043796737024,2022-01-03-14:44:03,10.1.1.7,185,-0.430,-0.430,-0.430,0.000,0.000,0.000
1641221043994432000,2022-01-03-14:44:03,10.1.1.7,182,-0.420,-0.420,-0.420,0.000,0.000,0.000
1641221044193357824,2022-01-03-14:44:04,10.1.1.7,180,-0.410,-0.410,-0.410,0.000,0.000,0.000
1641221044392538112,2022-01-03-14:44:04,10.1.1.7,178,-0.400,-0.400,-0.400,0.000,0.000,0.000
1641221044599392768,2022-01-03-14:44:04,10.1.1.7,184,-0.390,-0.390,-0.390,0.000,0.000,0.000
1641221044792081152,2022-01-03-14:44:04,10.1.1.7,177,-0.380,-0.380,-0.380,0.000,0.000,0.000
1641221044996048896,2022-01-03-14:44:04,10.1.1.7,180,-0.370,-0.370,-0.370,0.000,0.000,0.000
1641221045411858176,2022-01-03-14:44:05,10.1.1.7,180,-0.350,-0.350,-0.350,0.000,0.000,0.000
1641221045432861952,2022-01-03-14:44:05,10.1.1.7,-1,-0.350,-0.350,-0.350,0.000,0.000,0.000
1641221045814203136,2022-01-03-14:44:05,10.1.1.7,181,-0.330,-0.330,-0.330,0.000,0.000,0.000
1641221046011625984,2022-01-03-14:44:06,10.1.1.7,177,-0.320,-0.320,-0.320,0.000,0.000,0.000
1641221046213718784,2022-01-03-14:44:06,10.1.1.7,178,-0.310,-0.310,-0.310,0.000,0.000,0.000
1641221046432908032,2022-01-03-14:44:06,10.1.1.7,195,-0.300,-0.300,-0.300,0.000,0.000,0.000
1641221046630393856,2022-01-03-14:44:06,10.1.1.7,191,-0.290,-0.290,-0.290,0.000,0.000,0.000
1641221046832636160,2022-01-03-14:44:06,10.1.1.7,193,-0.280,-0.280,-0.280,0.000,0.000,0.000
1641221047030142976,2022-01-03-14:44:07,10.1.1.7,189,-0.270,-0.270,-0.270,0.000,0.000,0.000
1641221047229659136,2022-01-03-14:44:07,10.1.1.7,188,-0.260,-0.260,-0.260,0.000,0.000,0.000
1641221047428508928,2022-01-03-14:44:07,10.1.1.7,184,-0.250,-0.250,-0.250,0.000,0.000,0.000
1641221047630456064,2022-01-03-14:44:07,10.1.1.7,186,-0.240,-0.240,-0.240,0.000,0.000,0.000
1641221047829446144,2022-01-03-14:44:07,10.1.1.7,183,-0.230,-0.230,-0.230,0.000,0.000,0.000
1641221048030585088,2022-01-03-14:44:08,10.1.1.7,183,-0.220,-0.220,-0.220,0.000,0.000,0.000
1641221048227299072,2022-01-03-14:44:08,10.1.1.7,179,-0.210,-0.210,-0.210,0.000,0.000,0.000
1641221048428594944,2022-01-03-14:44:08,10.1.1.7,179,-0.200,-0.200,-0.200,0.000,0.000,0.000
1641221048628036096,2022-01-03-14:44:08,10.1.1.7,178,-0.190,-0.190,-0.190,0.000,0.000,0.000
1641221048828892928,2022-01-03-14:44:08,10.1.1.7,178,-0.180,-0.180,-0.180,0.000,0.000,0.000
1641221049030240000,2022-01-03-14:44:09,10.1.1.7,179,-0.170,-0.170,-0.170,0.000,0.000,0.000
1641221049230251008,2022-01-03-14:44:09,10.1.1.7,178,-0.160,-0.160,-0.160,0.000,0.000,0.000
1641221049427744000,2022-01-03-14:44:09,10.1.1.7,174,-0.150,-0.150,-0.150,0.000,0.000,0.000
1641221049626385920,2022-01-03-14:44:09,10.1.1.7,173,-0.140,-0.140,-0.140,0.000,0.000,0.000
1641221049827346944,2022-01-03-14:44:09,10.1.1.7,173,-0.130,-0.130,-0.130,0.000,0.000,0.000
1641221050026702848,2022-01-03-14:44:10,10.1.1.7,172,-0.120,-0.120,-0.120,0.000,0.000,0.000
1641221050225367040,2022-01-03-14:44:10,10.1.1.7,169,-0.110,-0.110,-0.110,0.000,0.000,0.000
1641221050424776960,2022-01-03-14:44:10,10.1.1.7,168,-0.100,-0.100,-0.100,0.000,0.000,0.000
1641221050628699904,2022-01-03-14:44:10,10.1.1.7,171,-0.090,-0.090,-0.090,0.000,0.000,0.000
1641221050847331072,2022-01-03-14:44:10,10.1.1.7,189,-0.080,-0.080,-0.080,0.000,0.000,0.000
1641221051046785024,2022-01-03-14:44:11,10.1.1.7,188,-0.070,-0.070,-0.070,0.000,0.000,0.000
1641221051244669952,2022-01-03-14:44:11,10.1.1.7,186,-0.060,-0.060,-0.060,0.000,0.000,0.000
1641221051448229120,2022-01-03-14:44:11,10.1.1.7,188,-0.050,-0.050,-0.050,0.000,0.000,0.000
1641221051651572992,2022-01-03-14:44:11,10.1.1.7,190,-0.040,-0.040,-0.040,0.000,0.000,0.000
1641221051864679936,2022-01-03-14:44:11,10.1.1.7,180,-0.030,-0.030,-0.030,0.000,0.000,0.000
1641221052062705920,2022-01-03-14:44:12,10.1.1.7,176,-0.020,-0.020,-0.020,0.000,0.000,0.000
1641221052264728064,2022-01-03-14:44:12,10.1.1.7,178,-0.010,-0.010,-0.010,0.000,0.000,0.000
1641221052462395904,2022-01-03-14:44:12,10.1.1.7,175,0.000,0.000,0.000,0.000,0.000,0.000
1641221052664763904,2022-01-03-14:44:12,10.1.1.7,174,-0.010,-0.010,-0.010,0.000,0.000,0.000
1641221052862272000,2022-01-03-14:44:12,10.1.1.7,171,-0.020,-0.020,-0.020,0.000,0.000,0.000
1641221053062053888,2022-01-03-14:44:13,10.1.1.7,167,-0.030,-0.030,-0.030,0.000,0.000,0.000
1641221053261390848,2022-01-03-14:44:13,10.1.1.7,165,-0.040,-0.040,-0.040,0.000,0.000,0.000
1641221053459717120,2022-01-03-14:44:13,10.1.1.7,163,-0.050,-0.050,-0.050,0.000,0.000,0.000
1641221053660197888,2022-01-03-14:44:13,10.1.1.7,162,-0.060,-0.060,-0.060,0.000,0.000,0.000
1641221053861385984,2022-01-03-14:44:13,10.1.1.7,163,-0.070,-0.070,-0.070,0.000,0.000,0.000
1641221054080111872,2022-01-03-14:44:14,10.1.1.7,177,-0.080,-0.080,-0.080,0.000,0.000,0.000
1641221054280217856,2022-01-03-14:44:14,10.1.1.7,174,-0.090,-0.090,-0.090,0.000,0.000,0.000
1641221054681387776,2022-01-03-14:44:14,10.1.1.7,174,-0.110,-0.110,-0.110,0.000,0.000,0.000
1641221054878158080,2022-01-03-14:44:14,10.1.1.7,168,-0.120,-0.120,-0.120,0.000,0.000,0.000
1641221055079476992,2022-01-03-14:44:15,10.1.1.7,168,-0.130,-0.130,-0.130,0.000,0.000,0.000
1641221055276817152,2022-01-03-14:44:15,10.1.1.7,166,-0.140,-0.140,-0.140,0.000,0.000,0.000
1641221055477014016,2022-01-03-14:44:15,10.1.1.7,166,-0.150,-0.150,-0.150,0.000,0.000,0.000
1641221055676430080,2022-01-03-14:44:15,10.1.1.7,164,-0.160,-0.160,-0.160,0.000,0.000,0.000
1641221055877091840,2022-01-03-14:44:15,10.1.1.7,164,-0.170,-0.170,-0.170,0.000,0.000,0.000
1641221056298176000,2022-01-03-14:44:16,10.1.1.7,180,-0.190,-0.190,-0.190,0.000,0.000,0.000
1641221056495867904,2022-01-03-14:44:16,10.1.1.7,170,-0.200,-0.200,-0.200,0.000,0.000,0.000
1641221056698002944,2022-01-03-14:44:16,10.1.1.7,171,-0.210,-0.210,-0.210,0.000,0.000,0.000
1641221056895764224,2022-01-03-14:44:16,10.1.1.7,168,-0.220,-0.220,-0.220,0.000,0.000,0.000
1641221057095571968,2022-01-03-14:44:17,10.1.1.7,166,-0.230,-0.230,-0.230,0.000,0.000,0.000
1641221057297583104,2022-01-03-14:44:17,10.1.1.7,168,-0.240,-0.240,-0.240,0.000,0.000,0.000
1641221057496730112,2022-01-03-14:44:17,10.1.1.7,161,-0.250,-0.250,-0.250,0.000,0.000,0.000
1641221057717097984,2022-01-03-14:44:17,10.1.1.7,179,-0.260,-0.260,-0.260,0.000,0.000,0.000
1641221057919558144,2022-01-03-14:44:17,10.1.1.7,179,-0.270,-0.270,-0.270,0.000,0.000,0.000
1641221058121555968,2022-01-03-14:44:18,10.1.1.7,181,-0.280,-0.280,-0.280,0.000,0.000,0.000
1641221058322546944,2022-01-03-14:44:18,10.1.1.7,181,-0.290,-0.290,-0.290,0.000,0.000,0.000
1641221058521629952,2022-01-03-14:44:18,10.1.1.7,179,-0.300,-0.300,-0.300,0.000,0.000,0.000
1641221058723581952,2022-01-03-14:44:18,10.1.1.7,181,-0.310,-0.310,-0.310,0.000,0.000,0.000
1641221058923886080,2022-01-03-14:44:18,10.1.1.7,180,-0.320,-0.320,-0.320,0.000,0.000,0.000
1641221059125016832,2022-01-03-14:44:19,10.1.1.7,180,-0.330,-0.330,-0.330,0.000,0.000,0.000
1641221059359920896,2022-01-03-14:44:19,10.1.1.7,188,-0.340,-0.340,-0.340,0.000,0.000,0.000
1641221059547791872,2022-01-03-14:44:19,10.1.1.7,183,-0.350,-0.350,-0.350,0.000,0.000,0.000
1641221059748278016,2022-01-03-14:44:19,10.1.1.7,184,-0.360,-0.360,-0.360,0.000,0.000,0.000
1641221059947910144,2022-01-03-14:44:19,10.1.1.7,179,-0.370,-0.370,-0.370,0.000,0.000,0.000
1641221060148400128,2022-01-03-14:44:20,10.1.1.7,178,-0.380,-0.380,-0.380,0.000,0.000,0.000
1641221060350065920,2022-01-03-14:44:20,10.1.1.7,180,-0.390,-0.390,-0.390,0.000,0.000,0.000
1641221060551339008,2022-01-03-14:44:20,10.1.1.7,178,-0.400,-0.400,-0.400,0.000,0.000,0.000
1641221060749795840,2022-01-03-14:44:20,10.1.1.7,176,-0.410,-0.410,-0.410,0.000,0.000,0.000
1641221060950057984,2022-01-03-14:44:20,10.1.1.7,176,-0.420,-0.420,-0.420,0.000,0.000,0.000
1641221061151058944,2022-01-03-14:44:21,10.1.1.7,176,-0.430,-0.430,-0.430,0.000,0.000,0.000
1641221061352449792,2022-01-03-14:44:21,10.1.1.7,176,-0.440,-0.440,-0.440,0.000,0.000,0.000
1641221061560997120,2022-01-03-14:44:21,10.1.1.7,184,-0.450,-0.450,-0.450,0.000,0.000,0.000
1641221061753812992,2022-01-03-14:44:21,10.1.1.7,176,-0.460,-0.460,-0.460,0.000,0.000,0.000
1641221061974877184,2022-01-03-14:44:21,10.1.1.7,196,-0.470,-0.470,-0.470,0.000,0.000,0.000
1641221062174962944,2022-01-03-14:44:22,10.1.1.7,194,-0.480,-0.480,-0.480,0.000,0.000,0.000
1641221062378397952,2022-01-03-14:44:22,10.1.1.7,197,-0.490,-0.490,-0.490,0.000,0.000,0.000
1641221062778717952,2022-01-03-14:44:22,10.1.1.7,181,-0.470,-0.470,-0.470,0.000,0.000,0.000
1641221063001614080,2022-01-03-14:44:23,10.1.1.7,186,-0.460,-0.460,-0.460,0.000,0.000,0.000
1641221063196562176,2022-01-03-14:44:23,10.1.1.7,181,-0.450,-0.450,-0.450,0.000,0.000,0.000
1641221063418407936,2022-01-03-14:44:23,10.1.1.7,199,-0.440,-0.440,-0.440,0.000,0.000,0.000
1641221063617196032,2022-01-03-14:44:23,10.1.1.7,193,-0.430,-0.430,-0.430,0.000,0.000,0.000
1641221063818288128,2022-01-03-14:44:23,10.1.1.7,194,-0.420,-0.420,-0.420,0.000,0.000,0.000
1641221064018126848,2022-01-03-14:44:24,10.1.1.7,192,-0.410,-0.410,-0.410,0.000,0.000,0.000
1641221064218561024,2022-01-03-14:44:24,10.1.1.7,192,-0.400,-0.400,-0.400,0.000,0.000,0.000
1641221064418235136,2022-01-03-14:44:24,10.1.1.7,190,-0.390,-0.390,-0.390,0.000,0.000,0.000
1641221064617309952,2022-01-03-14:44:24,10.1.1.7,189,-0.380,-0.380,-0.380,0.000,0.000,0.000
1641221064820889088,2022-01-03-14:44:24,10.1.1.7,192,-0.370,-0.370,-0.370,0.000,0.000,0.000
1641221065019614976,2022-01-03-14:44:25,10.1.1.7,188,-0.360,-0.360,-0.360,0.000,0.000,0.000
1641221065220663040,2022-01-03-14:44:25,10.1.1.7,189,-0.350,-0.350,-0.350,0.000,0.000,0.000
1641221065422978048,2022-01-03-14:44:25,10.1.1.7,191,-0.340,-0.340,-0.340,0.000,0.000,0.000
1641221065621660928,2022-01-03-14:44:25,10.1.1.7,189,-0.330,-0.330,-0.330,0.000,0.000,0.000
1641221065820220928,2022-01-03-14:44:25,10.1.1.7,187,-0.320,-0.320,-0.320,0.000,0.000,0.000
1641221066019289856,2022-01-03-14:44:26,10.1.1.7,185,-0.310,-0.310,-0.310,0.000,0.000,0.000
1641221066220515072,2022-01-03-14:44:26,10.1.1.7,186,-0.300,-0.300,-0.300,0.000,0.000,0.000
1641221066419343872,2022-01-03-14:44:26,10.1.1.7,184,-0.290,-0.290,-0.290,0.000,0.000,0.000
1641221066619276032,2022-01-03-14:44:26,10.1.1.7,184,-0.280,-0.280,-0.280,0.000,0.000,0.000
1641221066820167168,2022-01-03-14:44:26,10.1.1.7,182,-0.270,-0.270,-0.270,0.000,0.000,0.000
1641221067022728960,2022-01-03-14:44:27,10.1.1.7,185,-0.260,-0.260,-0.260,0.000,0.000,0.000
1641221067220102912,2022-01-03-14:44:27,10.1.1.7,183,-0.250,-0.250,-0.250,0.000,0.000,0.000
1641221067839625984,2022-01-03-14:44:27,10.1.1.7,200,-0.220,-0.220,-0.220,0.000,0.000,0.000
1641221068243489024,2022-01-03-14:44:28,10.1.1.7,198,-0.200,-0.200,-0.200,0.000,0.000,0.000
1641221068440815872,2022-01-03-14:44:28,10.1.1.7,195,-0.190,-0.190,-0.190,0.000,0.000,0.000
1641221068641192960,2022-01-03-14:44:28,10.1.1.7,195,-0.180,-0.180,-0.180,0.000,0.000,0.000
1641221068839364096,2022-01-03-14:44:28,10.1.1.7,193,-0.170,-0.170,-0.170,0.000,0.000,0.000
1641221069040206848,2022-01-03-14:44:29,10.1.1.7,191,-0.160,-0.160,-0.160,0.000,0.000,0.000
1641221069240230912,2022-01-03-14:44:29,10.1.1.7,191,-0.150,-0.150,-0.150,0.000,0.000,0.000
1641221069448846080,2022-01-03-14:44:29,10.1.1.7,199,-0.140,-0.140,-0.140,0.000,0.000,0.000
1641221069640126976,2022-01-03-14:44:29,10.1.1.7,189,-0.130,-0.130,-0.130,0.000,0.000,0.000
1641221069839500800,2022-01-03-14:44:29,10.1.1.7,187,-0.120,-0.120,-0.120,0.000,0.000,0.000
1641221070042802176,2022-01-03-14:44:30,10.1.1.7,190,-0.110,-0.110,-0.110,0.000,0.000,0.000
1641221070243962112,2022-01-03-14:44:30,10.1.1.7,191,-0.100,-0.100,-0.100,0.000,0.000,0.000
1641221070440252928,2022-01-03-14:44:30,10.1.1.7,186,-0.090,-0.090,-0.090,0.000,0.000,0.000
1641221070640291840,2022-01-03-14:44:30,10.1.1.7,185,-0.080,-0.080,-0.080,0.000,0.000,0.000
1641221070842874880,2022-01-03-14:44:30,10.1.1.7,183,-0.070,-0.070,-0.070,0.000,0.000,0.000
1641221071038424064,2022-01-03-14:44:31,10.1.1.7,181,-0.060,-0.060,-0.060,0.000,0.000,0.000
1641221071259258880,2022-01-03-14:44:31,10.1.1.7,200,-0.050,-0.050,-0.050,0.000,0.000,0.000
1641221071658727936,2022-01-03-14:44:31,10.1.1.7,198,-0.030,-0.030,-0.030,0.000,0.000,0.000
1641221071858729984,2022-01-03-14:44:31,10.1.1.7,198,-0.020,-0.020,-0.020,0.000,0.000,0.000
1641221072058456832,2022-01-03-14:44:32,10.1.1.7,196,-0.010,-0.010,-0.010,0.000,0.000,0.000
1641221072261018880,2022-01-03-14:44:32,10.1.1.7,192,0.000,0.000,0.000,0.000,0.000,0.000
1641221072465332992,2022-01-03-14:44:32,10.1.1.7,196,-0.010,-0.010,-0.010,0.000,0.000,0.000
1641221072658419968,2022-01-03-14:44:32,10.1.1.7,187,-0.020,-0.020,-0.020,0.000,0.000,0.000
1641221072860477952,2022-01-03-14:44:32,10.1.1.7,187,-0.030,-0.030,-0.030,0.000,0.000,0.000
1641221073057223936,2022-01-03-14:44:33,10.1.1.7,184,-0.040,-0.040,-0.040,0.000,0.000,0.000
1641221073256520960,2022-01-03-14:44:33,10.1.1.7,183,-0.050,-0.050,-0.050,0.000,0.000,0.000
1641221073456870144,2022-01-03-14:44:33,10.1.1.7,183,-0.060,-0.060,-0.060,0.000,0.000,0.000
1641221073672158976,2022-01-03-14:44:33,10.1.1.7,195,-0.070,-0.070,-0.070,0.000,0.000,0.000
1641221073863678976,2022-01-03-14:44:33,10.1.1.7,188,-0.080,-0.080,-0.080,0.000,0.000,0.000
1641221074057470208,2022-01-03-14:44:34,10.1.1.7,181,-0.090,-0.090,-0.090,0.000,0.000,0.000
1641221074475550976,2022-01-03-14:44:34,10.1.1.7,196,-0.110,-0.110,-0.110,0.000,0.000,0.000
1641221074676478976,2022-01-03-14:44:34,10.1.1.7,196,-0.120,-0.120,-0.120,0.000,0.000,0.000
1641221074874823936,2022-01-03-14:44:34,10.1.1.7,193,-0.130,-0.130,-0.130,0.000,0.000,0.000
1641221075075622912,2022-01-03-14:44:35,10.1.1.7,193,-0.140,-0.140,-0.140,0.000,0.000,0.000
1641221075274433024,2022-01-03-14:44:35,10.1.1.7,191,-0.150,-0.150,-0.150,0.000,0.000,0.000
1641221075474350848,2022-01-03-14:44:35,10.1.1.7,190,-0.160,-0.160,-0.160,0.000,0.000,0.000
1641221075676762112,2022-01-03-14:44:35,10.1.1.7,192,-0.170,-0.170,-0.170,0.000,0.000,0.000
1641221075874171136,2022-01-03-14:44:35,10.1.1.7,188,-0.180,-0.180,-0.180,0.000,0.000,0.000
1641221076073952000,2022-01-03-14:44:36,10.1.1.7,186,-0.190,-0.190,-0.190,0.000,0.000,0.000
1641221076276115968,2022-01-03-14:44:36,10.1.1.7,188,-0.200,-0.200,-0.200,0.000,0.000,0.000
1641221076474049024,2022-01-03-14:44:36,10.1.1.7,185,-0.210,-0.210,-0.210,0.000,0.000,0.000
1641221076672823040,2022-01-03-14:44:36,10.1.1.7,184,-0.220,-0.220,-0.220,0.000,0.000,0.000
1641221076872681984,2022-01-03-14:44:36,10.1.1.7,183,-0.230,-0.230,-0.230,0.000,0.000,0.000
1641221077072971008,2022-01-03-14:44:37,10.1.1.7,182,-0.240,-0.240,-0.240,0.000,0.000,0.000
1641221077272582144,2022-01-03-14:44:37,10.1.1.7,180,-0.250,-0.250,-0.250,0.000,0.000,0.000
1641221077472278016,2022-01-03-14:44:37,10.1.1.7,178,-0.260,-0.260,-0.260,0.000,0.000,0.000
1641221077671896832,2022-01-03-14:44:37,10.1.1.7,176,-0.270,-0.270,-0.270,0.000,0.000,0.000
1641221077872491008,2022-01-03-14:44:37,10.1.1.7,176,-0.280,-0.280,-0.280,0.000,0.000,0.000
1641221078071373056,2022-01-03-14:44:38,10.1.1.7,174,-0.290,-0.290,-0.290,0.000,0.000,0.000
1641221078293231104,2022-01-03-14:44:38,10.1.1.7,195,-0.300,-0.300,-0.300,0.000,0.000,0.000
1641221078490745088,2022-01-03-14:44:38,10.1.1.7,192,-0.310,-0.310,-0.310,0.000,0.000,0.000
1641221078690124032,2022-01-03-14:44:38,10.1.1.7,191,-0.320,-0.320,-0.320,0.000,0.000,0.000
1641221078895631104,2022-01-03-14:44:38,10.1.1.7,192,-0.330,-0.330,-0.330,0.000,0.000,0.000
1641221079090061824,2022-01-03-14:44:39,10.1.1.7,188,-0.340,-0.340,-0.340,0.000,0.000,0.000
1641221079290361856,2022-01-03-14:44:39,10.1.1.7,187,-0.350,-0.350,-0.350,0.000,0.000,0.000
1641221079491776000,2022-01-03-14:44:39,10.1.1.7,187,-0.360,-0.360,-0.360,0.000,0.000,0.000
1641221079690422016,2022-01-03-14:44:39,10.1.1.7,186,-0.370,-0.370,-0.370,0.000,0.000,0.000
1641221079890081792,2022-01-03-14:44:39,10.1.1.7,185,-0.380,-0.380,-0.380,0.000,0.000,0.000
1641221080091674112,2022-01-03-14:44:40,10.1.1.7,185,-0.390,-0.390,-0.390,0.000,0.000,0.000
1641221080290465024,2022-01-03-14:44:40,10.1.1.7,175,-0.400,-0.400,-0.400,0.000,0.000,0.000
1641221080492937216,2022-01-03-14:44:40,10.1.1.7,176,-0.410,-0.410,-0.410,0.000,0.000,0.000
1641221080691660032,2022-01-03-14:44:40,10.1.1.7,174,-0.420,-0.420,-0.420,0.000,0.000,0.000
1641221080908524032,2022-01-03-14:44:40,10.1.1.7,190,-0.430,-0.430,-0.430,0.000,0.000,0.000
1641221081110519040,2022-01-03-14:44:41,10.1.1.7,191,-0.440,-0.440,-0.440,0.000,0.000,0.000
1641221081307780864,2022-01-03-14:44:41,10.1.1.7,187,-0.450,-0.450,-0.450,0.000,0.000,0.000
1641221081508425984,2022-01-03-14:44:41,10.1.1.7,187,-0.460,-0.460,-0.460,0.000,0.000,0.000
1641221081907388928,2022-01-03-14:44:41,10.1.1.7,185,-0.480,-0.480,-0.480,0.000,0.000,0.000
1641221082107880192,2022-01-03-14:44:42,10.1.1.7,178,-0.490,-0.490,-0.490,0.000,0.000,0.000
1641221082308798976,2022-01-03-14:44:42,10.1.1.7,178,-0.480,-0.480,-0.480,0.000,0.000,0.000
1641221082506329088,2022-01-03-14:44:42,10.1.1.7,174,-0.470,-0.470,-0.470,0.000,0.000,0.000
1641221082705351168,2022-01-03-14:44:42,10.1.1.7,172,-0.460,-0.460,-0.460,0.000,0.000,0.000
1641221082911325952,2022-01-03-14:44:42,10.1.1.7,176,-0.450,-0.450,-0.450,0.000,0.000,0.000
1641221083126990080,2022-01-03-14:44:43,10.1.1.7,178,-0.440,-0.440,-0.440,0.000,0.000,0.000
1641221083326631168,2022-01-03-14:44:43,10.1.1.7,168,-0.430,-0.430,-0.430,0.000,0.000,0.000
1641221083545957120,2022-01-03-14:44:43,10.1.1.7,188,-0.420,-0.420,-0.420,0.000,0.000,0.000
1641221083749150976,2022-01-03-14:44:43,10.1.1.7,191,-0.410,-0.410,-0.410,0.000,0.000,0.000
1641221083946285056,2022-01-03-14:44:43,10.1.1.7,186,-0.400,-0.400,-0.400,0.000,0.000,0.000
1641221084145342208,2022-01-03-14:44:44,10.1.1.7,185,-0.390,-0.390,-0.390,0.000,0.000,0.000
1641221084351936000,2022-01-03-14:44:44,10.1.1.7,191,-0.380,-0.380,-0.380,0.000,0.000,0.000
1641221084567271936,2022-01-03-14:44:44,10.1.1.7,181,-0.370,-0.370,-0.370,0.000,0.000,0.000
1641221084762740992,2022-01-03-14:44:44,10.1.1.7,175,-0.360,-0.360,-0.360,0.000,0.000,0.000
1641221084962660096,2022-01-03-14:44:44,10.1.1.7,174,-0.350,-0.350,-0.350,0.000,0.000,0.000
1641221085161011968,2022-01-03-14:44:45,10.1.1.7,171,-0.340,-0.340,-0.340,0.000,0.000,0.000
1641221085360761856,2022-01-03-14:44:45,10.1.1.7,169,-0.330,-0.330,-0.330,0.000,0.000,0.000
1641221085560292096,2022-01-03-14:44:45,10.1.1.7,166,-0.320,-0.320,-0.320,0.000,0.000,0.000
1641221085760282880,2022-01-03-14:44:45,10.1.1.7,164,-0.310,-0.310,-0.310,0.000,0.000,0.000
1641221085963938048,2022-01-03-14:44:45,10.1.1.7,167,-0.300,-0.300,-0.300,0.000,0.000,0.000
1641221086159708928,2022-01-03-14:44:46,10.1.1.7,162,-0.290,-0.290,-0.290,0.000,0.000,0.000
1641221086379424000,2022-01-03-14:44:46,10.1.1.7,181,-0.280,-0.280,-0.280,0.000,0.000,0.000
1641221086581604864,2022-01-03-14:44:46,10.1.1.7,182,-0.270,-0.270,-0.270,0.000,0.000,0.000
1641221086779335936,2022-01-03-14:44:46,10.1.1.7,179,-0.260,-0.260,-0.260,0.000,0.000,0.000
1641221086985234944,2022-01-03-14:44:46,10.1.1.7,182,-0.250,-0.250,-0.250,0.000,0.000,0.000
1641221087191319040,2022-01-03-14:44:47,10.1.1.7,188,-0.240,-0.240,-0.240,0.000,0.000,0.000
1641221087378494976,2022-01-03-14:44:47,10.1.1.7,167,-0.230,-0.230,-0.230,0.000,0.000,0.000
1641221087581382144,2022-01-03-14:44:47,10.1.1.7,169,-0.220,-0.220,-0.220,0.000,0.000,0.000
1641221087781827072,2022-01-03-14:44:47,10.1.1.7,168,-0.210,-0.210,-0.210,0.000,0.000,0.000
1641221087978627840,2022-01-03-14:44:47,10.1.1.7,165,-0.200,-0.200,-0.200,0.000,0.000,0.000
1641221088177196032,2022-01-03-14:44:48,10.1.1.7,163,-0.190,-0.190,-0.190,0.000,0.000,0.000
1641221088378457088,2022-01-03-14:44:48,10.1.1.7,164,-0.180,-0.180,-0.180,0.000,0.000,0.000
1641221088579956992,2022-01-03-14:44:48,10.1.1.7,164,-0.170,-0.170,-0.170,0.000,0.000,0.000
1641221088777046016,2022-01-03-14:44:48,10.1.1.7,160,-0.160,-0.160,-0.160,0.000,0.000,0.000
1641221088995404032,2022-01-03-14:44:48,10.1.1.7,177,-0.150,-0.150,-0.150,0.000,0.000,0.000
1641221089195075072,2022-01-03-14:44:49,10.1.1.7,176,-0.140,-0.140,-0.140,0.000,0.000,0.000
1641221089394989056,2022-01-03-14:44:49,10.1.1.7,175,-0.130,-0.130,-0.130,0.000,0.000,0.000
1641221089598475008,2022-01-03-14:44:49,10.1.1.7,178,-0.120,-0.120,-0.120,0.000,0.000,0.000
1641221089795945984,2022-01-03-14:44:49,10.1.1.7,174,-0.110,-0.110,-0.110,0.000,0.000,0.000
1641221089994971904,2022-01-03-14:44:49,10.1.1.7,173,-0.100,-0.100,-0.100,0.000,0.000,0.000
1641221090196271872,2022-01-03-14:44:50,10.1.1.7,174,-0.090,-0.090,-0.090,0.000,0.000,0.000
1641221090396153856,2022-01-03-14:44:50,10.1.1.7,173,-0.080,-0.080,-0.080,0.000,0.000,0.000
1641221090596441088,2022-01-03-14:44:50,10.1.1.7,172,-0.070,-0.070,-0.070,0.000,0.000,0.000
1641221090801603072,2022-01-03-14:44:50,10.1.1.7,177,-0.060,-0.060,-0.060,0.000,0.000,0.000
1641221090999366144,2022-01-03-14:44:50,10.1.1.7,171,-0.050,-0.050,-0.050,0.000,0.000,0.000
1641221091198995968,2022-01-03-14:44:51,10.1.1.7,171,-0.040,-0.040,-0.040,0.000,0.000,0.000
1641221091400011008,2022-01-03-14:44:51,10.1.1.7,171,-0.030,-0.030,-0.030,0.000,0.000,0.000
1641221091601441024,2022-01-03-14:44:51,10.1.1.7,171,-0.020,-0.020,-0.020,0.000,0.000,0.000
1641221091802969856,2022-01-03-14:44:51,10.1.1.7,171,-0.010,-0.010,-0.010,0.000,0.000,0.000
1641221092004105216,2022-01-03-14:44:52,10.1.1.7,169,0.000,0.000,0.000,0.000,0.000,0.000
1641221092204773888,2022-01-03-14:44:52,10.1.1.7,169,-0.010,-0.010,-0.010,0.000,0.000,0.000
1641221092406064896,2022-01-03-14:44:52,10.1.1.7,170,-0.020,-0.020,-0.020,0.000,0.000,0.000
1641221092606550016,2022-01-03-14:44:52,10.1.1.7,169,-0.030,-0.030,-0.030,0.000,0.000,0.000
1641221092828416000,2022-01-03-14:44:52,10.1.1.7,187,-0.040,-0.040,-0.040,0.000,0.000,0.000
1641221093033085184,2022-01-03-14:44:53,10.1.1.7,191,-0.050,-0.050,-0.050,0.000,0.000,0.000
1641221093229042176,2022-01-03-14:44:53,10.1.1.7,185,-0.060,-0.060,-0.060,0.000,0.000,0.000
1641221093429153024,2022-01-03-14:44:53,10.1.1.7,185,-0.070,-0.070,-0.070,0.000,0.000,0.000
1641221093629384960,2022-01-03-14:44:53,10.1.1.7,184,-0.080,-0.080,-0.080,0.000,0.000,0.000
1641221093830552064,2022-01-03-14:44:53,10.1.1.7,185,-0.090,-0.090,-0.090,0.000,0.000,0.000
1641221094031069952,2022-01-03-14:44:54,10.1.1.7,184,-0.100,-0.100,-0.100,0.000,0.000,0.000
1641221094233843968,2022-01-03-14:44:54,10.1.1.7,186,-0.110,-0.110,-0.110,0.000,0.000,0.000
1641221094432347136,2022-01-03-14:44:54,10.1.1.7,185,-0.120,-0.120,-0.120,0.000,0.000,0.000
1641221094632647936,2022-01-03-14:44:54,10.1.1.7,185,-0.130,-0.130,-0.130,0.000,0.000,0.000
1641221094832948992,2022-01-03-14:44:54,10.1.1.7,185,-0.140,-0.140,-0.140,0.000,0.000,0.000
1641221095034043904,2022-01-03-14:44:55,10.1.1.7,185,-0.150,-0.150,-0.150,0.000,0.000,0.000
1641221095236006912,2022-01-03-14:44:55,10.1.1.7,186,-0.160,-0.160,-0.160,0.000,0.000,0.000
1641221095439115008,2022-01-03-14:44:55,10.1.1.7,184,-0.170,-0.170,-0.170,0.000,0.000,0.000
1641221095635421952,2022-01-03-14:44:55,10.1.1.7,185,-0.180,-0.180,-0.180,0.000,0.000,0.000
1641221095838689024,2022-01-03-14:44:55,10.1.1.7,188,-0.190,-0.190,-0.190,0.000,0.000,0.000
1641221096035923968,2022-01-03-14:44:56,10.1.1.7,184,-0.200,-0.200,-0.200,0.000,0.000,0.000
1641221096237363200,2022-01-03-14:44:56,10.1.1.7,185,-0.210,-0.210,-0.210,0.000,0.000,0.000
1641221096435802880,2022-01-03-14:44:56,10.1.1.7,183,-0.220,-0.220,-0.220,0.000,0.000,0.000
1641221096635261952,2022-01-03-14:44:56,10.1.1.7,182,-0.230,-0.230,-0.230,0.000,0.000,0.000
1641221096835910144,2022-01-03-14:44:56,10.1.1.7,182,-0.240,-0.240,-0.240,0.000,0.000,0.000
1641221097035942912,2022-01-03-14:44:57,10.1.1.7,181,-0.250,-0.250,-0.250,0.000,0.000,0.000
1641221097236265984,2022-01-03-14:44:57,10.1.1.7,181,-0.260,-0.260,-0.260,0.000,0.000,0.000
1641221097439974144,2022-01-03-14:44:57,10.1.1.7,183,-0.270,-0.270,-0.270,0.000,0.000,0.000
1641221097635965184,2022-01-03-14:44:57,10.1.1.7,180,-0.280,-0.280,-0.280,0.000,0.000,0.000
1641221097857718016,2022-01-03-14:44:57,10.1.1.7,200,-0.290,-0.290,-0.290,0.000,0.000,0.000
1641221098058275072,2022-01-03-14:44:58,10.1.1.7,200,-0.300,-0.300,-0.300,0.000,0.000,0.000
1641221098259849984,2022-01-03-14:44:58,10.1.1.7,200,-0.310,-0.310,-0.310,0.000,0.000,0.000
1641221098459947008,2022-01-03-14:44:58,10.1.1.7,199,-0.320,-0.320,-0.320,0.000,0.000,0.000
1641221098657929984,2022-01-03-14:44:58,10.1.1.7,196,-0.330,-0.330,-0.330,0.000,0.000,0.000
1641221098859119872,2022-01-03-14:44:58,10.1.1.7,197,-0.340,-0.340,-0.340,0.000,0.000,0.000
1641221099059377920,2022-01-03-14:44:59,10.1.1.7,197,-0.350,-0.350,-0.350,0.000,0.000,0.000
1641221099459837952,2022-01-03-14:44:59,10.1.1.7,197,-0.370,-0.370,-0.370,0.000,0.000,0.000
1641221099659687168,2022-01-03-14:44:59,10.1.1.7,196,-0.380,-0.380,-0.380,0.000,0.000,0.000
1641221099860129024,2022-01-03-14:44:59,10.1.1.7,193,-0.390,-0.390,-0.390,0.000,0.000,0.000
1641221100259926016,2022-01-03-14:45:00,10.1.1.7,194,-0.410,-0.410,-0.410,0.000,0.000,0.000
1641221100458533120,2022-01-03-14:45:00,10.1.1.7,192,-0.420,-0.420,-0.420,0.000,0.000,0.000
1641221100661254912,2022-01-03-14:45:00,10.1.1.7,193,-0.430,-0.430,-0.430,0.000,0.000,0.000
1641221100859651072,2022-01-03-14:45:00,10.1.1.7,189,-0.440,-0.440,-0.440,0.000,0.000,0.000
1641221101057929984,2022-01-03-14:45:01,10.1.1.7,188,-0.450,-0.450,-0.450,0.000,0.000,0.000
1641221101259425024,2022-01-03-14:45:01,10.1.1.7,188,-0.460,-0.460,-0.460,0.000,0.000,0.000
1641221101459492096,2022-01-03-14:45:01,10.1.1.7,188,-0.470,-0.470,-0.470,0.000,0.000,0.000
1641221101673085952,2022-01-03-14:45:01,10.1.1.7,202,-0.480,-0.480,-0.480,0.000,0.000,0.000
1641221101860349952,2022-01-03-14:45:01,10.1.1.7,186,-0.490,-0.490,-0.490,0.000,0.000,0.000
1641221102060889088,2022-01-03-14:45:02,10.1.1.7,186,-0.480,-0.480,-0.480,0.000,0.000,0.000
1641221102258814976,2022-01-03-14:45:02,10.1.1.7,183,-0.470,-0.470,-0.470,0.000,0.000,0.000
1641221102457613056,2022-01-03-14:45:02,10.1.1.7,181,-0.460,-0.460,-0.460,0.000,0.000,0.000
1641221102679503872,2022-01-03-14:45:02,10.1.1.7,196,-0.450,-0.450,-0.450,0.000,0.000,0.000
1641221102882618880,2022-01-03-14:45:02,10.1.1.7,199,-0.440,-0.440,-0.440,0.000,0.000,0.000
1641221103082094080,2022-01-03-14:45:03,10.1.1.7,198,-0.430,-0.430,-0.430,0.000,0.000,0.000
1641221103279918848,2022-01-03-14:45:03,10.1.1.7,195,-0.420,-0.420,-0.420,0.000,0.000,0.000
1641221103480224000,2022-01-03-14:45:03,10.1.1.7,194,-0.410,-0.410,-0.410,0.000,0.000,0.000
1641221103678572032,2022-01-03-14:45:03,10.1.1.7,191,-0.400,-0.400,-0.400,0.000,0.000,0.000
1641221103877505024,2022-01-03-14:45:03,10.1.1.7,190,-0.390,-0.390,-0.390,0.000,0.000,0.000
1641221104076824832,2022-01-03-14:45:04,10.1.1.7,188,-0.380,-0.380,-0.380,0.000,0.000,0.000
1641221104277334016,2022-01-03-14:45:04,10.1.1.7,188,-0.370,-0.370,-0.370,0.000,0.000,0.000
1641221104477117184,2022-01-03-14:45:04,10.1.1.7,188,-0.360,-0.360,-0.360,0.000,0.000,0.000
1641221104676464128,2022-01-03-14:45:04,10.1.1.7,184,-0.350,-0.350,-0.350,0.000,0.000,0.000
1641221104876712192,2022-01-03-14:45:04,10.1.1.7,184,-0.340,-0.340,-0.340,0.000,0.000,0.000
1641221105076854016,2022-01-03-14:45:05,10.1.1.7,182,-0.330,-0.330,-0.330,0.000,0.000,0.000
1641221105277096960,2022-01-03-14:45:05,10.1.1.7,182,-0.320,-0.320,-0.320,0.000,0.000,0.000
1641221105475596800,2022-01-03-14:45:05,10.1.1.7,179,-0.310,-0.310,-0.310,0.000,0.000,0.000
1641221105676246016,2022-01-03-14:45:05,10.1.1.7,178,-0.300,-0.300,-0.300,0.000,0.000,0.000
1641221105895337984,2022-01-03-14:45:05,10.1.1.7,196,-0.290,-0.290,-0.290,0.000,0.000,0.000
1641221106095671040,2022-01-03-14:45:06,10.1.1.7,196,-0.280,-0.280,-0.280,0.000,0.000,0.000
1641221106296614912,2022-01-03-14:45:06,10.1.1.7,193,-0.270,-0.270,-0.270,0.000,0.000,0.000
1641221106495801856,2022-01-03-14:45:06,10.1.1.7,191,-0.260,-0.260,-0.260,0.000,0.000,0.000
1641221106697778944,2022-01-03-14:45:06,10.1.1.7,192,-0.250,-0.250,-0.250,0.000,0.000,0.000
1641221106896126976,2022-01-03-14:45:06,10.1.1.7,190,-0.240,-0.240,-0.240,0.000,0.000,0.000
1641221107098518016,2022-01-03-14:45:07,10.1.1.7,192,-0.230,-0.230,-0.230,0.000,0.000,0.000
1641221107294059008,2022-01-03-14:45:07,10.1.1.7,187,-0.220,-0.220,-0.220,0.000,0.000,0.000
1641221107495960064,2022-01-03-14:45:07,10.1.1.7,188,-0.210,-0.210,-0.210,0.000,0.000,0.000
1641221107695708928,2022-01-03-14:45:07,10.1.1.7,188,-0.200,-0.200,-0.200,0.000,0.000,0.000
1641221107894494976,2022-01-03-14:45:07,10.1.1.7,186,-0.190,-0.190,-0.190,0.000,0.000,0.000
1641221108094875136,2022-01-03-14:45:08,10.1.1.7,186,-0.180,-0.180,-0.180,0.000,0.000,0.000
1641221108294650112,2022-01-03-14:45:08,10.1.1.7,185,-0.170,-0.170,-0.170,0.000,0.000,0.000
1641221108494252032,2022-01-03-14:45:08,10.1.1.7,184,-0.160,-0.160,-0.160,0.000,0.000,0.000
1641221108694118912,2022-01-03-14:45:08,10.1.1.7,183,-0.150,-0.150,-0.150,0.000,0.000,0.000
1641221109094249984,2022-01-03-14:45:09,10.1.1.7,182,-0.130,-0.130,-0.130,0.000,0.000,0.000
1641221109296587008,2022-01-03-14:45:09,10.1.1.7,177,-0.120,-0.120,-0.120,0.000,0.000,0.000
1641221109532288000,2022-01-03-14:45:09,10.1.1.7,189,-0.110,-0.110,-0.110,0.000,0.000,0.000
1641221109735332864,2022-01-03-14:45:09,10.1.1.7,191,-0.100,-0.100,-0.100,0.000,0.000,0.000
1641221109935458816,2022-01-03-14:45:09,10.1.1.7,188,-0.090,-0.090,-0.090,0.000,0.000,0.000
1641221110136002048,2022-01-03-14:45:10,10.1.1.7,190,-0.080,-0.080,-0.080,0.000,0.000,0.000
1641221110332723968,2022-01-03-14:45:10,10.1.1.7,186,-0.070,-0.070,-0.070,0.000,0.000,0.000
1641221110553449984,2022-01-03-14:45:10,10.1.1.7,191,-0.060,-0.060,-0.060,0.000,0.000,0.000
1641221110750155008,2022-01-03-14:45:10,10.1.1.7,187,-0.050,-0.050,-0.050,0.000,0.000,0.000
1641221110955440128,2022-01-03-14:45:10,10.1.1.7,192,-0.040,-0.040,-0.040,0.000,0.000,0.000
1641221111153399040,2022-01-03-14:45:11,10.1.1.7,188,-0.030,-0.030,-0.030,0.000,0.000,0.000
1641221111353873920,2022-01-03-14:45:11,10.1.1.7,188,-0.020,-0.020,-0.020,0.000,0.000,0.000
1641221111549185024,2022-01-03-14:45:11,10.1.1.7,183,-0.010,-0.010,-0.010,0.000,0.000,0.000
1641221111751944960,2022-01-03-14:45:11,10.1.1.7,185,0.000,0.000,0.000,0.000,0.000,0.000
1641221111950380032,2022-01-03-14:45:11,10.1.1.7,183,-0.010,-0.010,-0.010,0.000,0.000,0.000
1641221112149758208,2022-01-03-14:45:12,10.1.1.7,182,-0.020,-0.020,-0.020,0.000,0.000,0.000
1641221112348502016,2022-01-03-14:45:12,10.1.1.7,180,-0.030,-0.030,-0.030,0.000,0.000,0.000
1641221112548122880,2022-01-03-14:45:12,10.1.1.7,179,-0.040,-0.040,-0.040,0.000,0.000,0.000
1641221112748338944,2022-01-03-14:45:12,10.1.1.7,177,-0.050,-0.050,-0.050,0.000,0.000,0.000
1641221112947528960,2022-01-03-14:45:12,10.1.1.7,173,-0.060,-0.060,-0.060,0.000,0.000,0.000
1641221113147443968,2022-01-03-14:45:13,10.1.1.7,172,-0.070,-0.070,-0.070,0.000,0.000,0.000
1641221113349174016,2022-01-03-14:45:13,10.1.1.7,173,-0.080,-0.080,-0.080,0.000,0.000,0.000
1641221113547609088,2022-01-03-14:45:13,10.1.1.7,170,-0.090,-0.090,-0.090,0.000,0.000,0.000
1641221113771798016,2022-01-03-14:45:13,10.1.1.7,193,-0.100,-0.100,-0.100,0.000,0.000,0.000
1641221113969897984,2022-01-03-14:45:13,10.1.1.7,190,-0.110,-0.110,-0.110,0.000,0.000,0.000
1641221114171289856,2022-01-03-14:45:14,10.1.1.7,191,-0.120,-0.120,-0.120,0.000,0.000,0.000
1641221114370908928,2022-01-03-14:45:14,10.1.1.7,190,-0.130,-0.130,-0.130,0.000,0.000,0.000
1641221114569575936,2022-01-03-14:45:14,10.1.1.7,187,-0.140,-0.140,-0.140,0.000,0.000,0.000
1641221114781111040,2022-01-03-14:45:14,10.1.1.7,199,-0.150,-0.150,-0.150,0.000,0.000,0.000
1641221114970316032,2022-01-03-14:45:14,10.1.1.7,188,-0.160,-0.160,-0.160,0.000,0.000,0.000
1641221115170857984,2022-01-03-14:45:15,10.1.1.7,186,-0.170,-0.170,-0.170,0.000,0.000,0.000
1641221115375220992,2022-01-03-14:45:15,10.1.1.7,185,-0.180,-0.180,-0.180,0.000,0.000,0.000
1641221115564012032,2022-01-03-14:45:15,10.1.1.7,173,-0.190,-0.190,-0.190,0.000,0.000,0.000
1641221115767592960,2022-01-03-14:45:15,10.1.1.7,169,-0.200,-0.200,-0.200,0.000,0.000,0.000
1641221115973558016,2022-01-03-14:45:15,10.1.1.7,178,-0.210,-0.210,-0.210,0.000,0.000,0.000
1641221116162738176,2022-01-03-14:45:16,10.1.1.7,166,-0.220,-0.220,-0.220,0.000,0.000,0.000
1641221116363646976,2022-01-03-14:45:16,10.1.1.7,167,-0.230,-0.230,-0.230,0.000,0.000,0.000
1641221116565538048,2022-01-03-14:45:16,10.1.1.7,167,-0.240,-0.240,-0.240,0.000,0.000,0.000
1641221116784482048,2022-01-03-14:45:16,10.1.1.7,186,-0.250,-0.250,-0.250,0.000,0.000,0.000
1641221116985886976,2022-01-03-14:45:16,10.1.1.7,187,-0.260,-0.260,-0.260,0.000,0.000,0.000
1641221117184771072,2022-01-03-14:45:17,10.1.1.7,185,-0.270,-0.270,-0.270,0.000,0.000,0.000
1641221117381683968,2022-01-03-14:45:17,10.1.1.7,181,-0.280,-0.280,-0.280,0.000,0.000,0.000
1641221117582534912,2022-01-03-14:45:17,10.1.1.7,179,-0.290,-0.290,-0.290,0.000,0.000,0.000
1641221117784382208,2022-01-03-14:45:17,10.1.1.7,177,-0.300,-0.300,-0.300,0.000,0.000,0.000
1641221117993916160,2022-01-03-14:45:17,10.1.1.7,185,-0.310,-0.310,-0.310,0.000,0.000,0.000
1641221118180145152,2022-01-03-14:45:18,10.1.1.7,171,-0.320,-0.320,-0.320,0.000,0.000,0.000
1641221118382200832,2022-01-03-14:45:18,10.1.1.7,172,-0.330,-0.330,-0.330,0.000,0.000,0.000
1641221118585100800,2022-01-03-14:45:18,10.1.1.7,175,-0.340,-0.340,-0.340,0.000,0.000,0.000
1641221118782169088,2022-01-03-14:45:18,10.1.1.7,172,-0.350,-0.350,-0.350,0.000,0.000,0.000
1641221118982109184,2022-01-03-14:45:18,10.1.1.7,171,-0.360,-0.360,-0.360,0.000,0.000,0.000
1641221119178256896,2022-01-03-14:45:19,10.1.1.7,166,-0.370,-0.370,-0.370,0.000,0.000,0.000
1641221119378395136,2022-01-03-14:45:19,10.1.1.7,166,-0.380,-0.380,-0.380,0.000,0.000,0.000
1641221119577614080,2022-01-03-14:45:19,10.1.1.7,165,-0.390,-0.390,-0.390,0.000,0.000,0.000
1641221119780123904,2022-01-03-14:45:19,10.1.1.7,167,-0.400,-0.400,-0.400,0.000,0.000,0.000
1641221119977742848,2022-01-03-14:45:19,10.1.1.7,164,-0.410,-0.410,-0.410,0.000,0.000,0.000
1641221120181093888,2022-01-03-14:45:20,10.1.1.7,167,-0.420,-0.420,-0.420,0.000,0.000,0.000
1641221120377125120,2022-01-03-14:45:20,10.1.1.7,162,-0.430,-0.430,-0.430,0.000,0.000,0.000
1641221120591300096,2022-01-03-14:45:20,10.1.1.7,176,-0.440,-0.440,-0.440,0.000,0.000,0.000
1641221120776088064,2022-01-03-14:45:20,10.1.1.7,160,-0.450,-0.450,-0.450,0.000,0.000,0.000
1641221120975489024,2022-01-03-14:45:20,10.1.1.7,159,-0.460,-0.460,-0.460,0.000,0.000,0.000
1641221121175308032,2022-01-03-14:45:21,10.1.1.7,158,-0.470,-0.470,-0.470,0.000,0.000,0.000
1641221121394659072,2022-01-03-14:45:21,10.1.1.7,173,-0.480,-0.480,-0.480,0.000,0.000,0.000
1641221121595431168,2022-01-03-14:45:21,10.1.1.7,172,-0.490,-0.490,-0.490,0.000,0.000,0.000
1641221121793859840,2022-01-03-14:45:21,10.1.1.7,169,-0.480,-0.480,-0.480,0.000,0.000,0.000
1641221121993819904,2022-01-03-14:45:21,10.1.1.7,168,-0.470,-0.470,-0.470,0.000,0.000,0.000
1641221122195033088,2022-01-03-14:45:22,10.1.1.7,169,-0.460,-0.460,-0.460,0.000,0.000,0.000
1641221122395969024,2022-01-03-14:45:22,10.1.1.7,170,-0.450,-0.450,-0.450,0.000,0.000,0.000
1641221122598961152,2022-01-03-14:45:22,10.1.1.7,172,-0.440,-0.440,-0.440,0.000,0.000,0.000
1641221122799702784,2022-01-03-14:45:22,10.1.1.7,172,-0.430,-0.430,-0.430,0.000,0.000,0.000
1641221122998589952,2022-01-03-14:45:22,10.1.1.7,170,-0.420,-0.420,-0.420,0.000,0.000,0.000
1641221123199311872,2022-01-03-14:45:23,10.1.1.7,170,-0.410,-0.410,-0.410,0.000,0.000,0.000
1641221123402333952,2022-01-03-14:45:23,10.1.1.7,172,-0.400,-0.400,-0.400,0.000,0.000,0.000
1641221123601465088,2022-01-03-14:45:23,10.1.1.7,166,-0.390,-0.390,-0.390,0.000,0.000,0.000
1641221123802211072,2022-01-03-14:45:23,10.1.1.7,165,-0.380,-0.380,-0.380,0.000,0.000,0.000
1641221124003256064,2022-01-03-14:45:24,10.1.1.7,166,-0.370,-0.370,-0.370,0.000,0.000,0.000
1641221124224192000,2022-01-03-14:45:24,10.1.1.7,186,-0.360,-0.360,-0.360,0.000,0.000,0.000
1641221124424852992,2022-01-03-14:45:24,10.1.1.7,184,-0.350,-0.350,-0.350,0.000,0.000,0.000
1641221124625468928,2022-01-03-14:45:24,10.1.1.7,184,-0.340,-0.340,-0.340,0.000,0.000,0.000
1641221124826398976,2022-01-03-14:45:24,10.1.1.7,185,-0.330,-0.330,-0.330,0.000,0.000,0.000
1641221125028572160,2022-01-03-14:45:25,10.1.1.7,187,-0.320,-0.320,-0.320,0.000,0.000,0.000
1641221125228070912,2022-01-03-14:45:25,10.1.1.7,186,-0.310,-0.310,-0.310,0.000,0.000,0.000
1641221125428486144,2022-01-03-14:45:25,10.1.1.7,185,-0.300,-0.300,-0.300,0.000,0.000,0.000
1641221125628487168,2022-01-03-14:45:25,10.1.1.7,185,-0.290,-0.290,-0.290,0.000,0.000,0.000
1641221125829417984,2022-01-03-14:45:25,10.1.1.7,185,-0.280,-0.280,-0.280,0.000,0.000,0.000
1641221126038228992,2022-01-03-14:45:26,10.1.1.7,193,-0.270,-0.270,-0.270,0.000,0.000,0.000
1641221126232635136,2022-01-03-14:45:26,10.1.1.7,187,-0.260,-0.260,-0.260,0.000,0.000,0.000
1641221126434235136,2022-01-03-14:45:26,10.1.1.7,188,-0.250,-0.250,-0.250,0.000,0.000,0.000
1641221126834281984,2022-01-03-14:45:26,10.1.1.7,187,-0.230,-0.230,-0.230,0.000,0.000,0.000
1641221127036485888,2022-01-03-14:45:27,10.1.1.7,189,-0.220,-0.220,-0.220,0.000,0.000,0.000
1641221127233107968,2022-01-03-14:45:27,10.1.1.7,184,-0.210,-0.210,-0.210,0.000,0.000,0.000
1641221127432833024,2022-01-03-14:45:27,10.1.1.7,183,-0.200,-0.200,-0.200,0.000,0.000,0.000
1641221127633410816,2022-01-03-14:45:27,10.1.1.7,183,-0.190,-0.190,-0.190,0.000,0.000,0.000
1641221127834263040,2022-01-03-14:45:27,10.1.1.7,184,-0.180,-0.180,-0.180,0.000,0.000,0.000
1641221128034405120,2022-01-03-14:45:28,10.1.1.7,184,-0.170,-0.170,-0.170,0.000,0.000,0.000
1641221128235225856,2022-01-03-14:45:28,10.1.1.7,184,-0.160,-0.160,-0.160,0.000,0.000,0.000
1641221128435197952,2022-01-03-14:45:28,10.1.1.7,184,-0.150,-0.150,-0.150,0.000,0.000,0.000
1641221128635262976,2022-01-03-14:45:28,10.1.1.7,183,-0.140,-0.140,-0.140,0.000,0.000,0.000
1641221128837172992,2022-01-03-14:45:28,10.1.1.7,185,-0.130,-0.130,-0.130,0.000,0.000,0.000
1641221129037626112,2022-01-03-14:45:29,10.1.1.7,184,-0.120,-0.120,-0.120,0.000,0.000,0.000
1641221129235924992,2022-01-03-14:45:29,10.1.1.7,182,-0.110,-0.110,-0.110,0.000,0.000,0.000
1641221129436666880,2022-01-03-14:45:29,10.1.1.7,182,-0.100,-0.100,-0.100,0.000,0.000,0.000
1641221129637437952,2022-01-03-14:45:29,10.1.1.7,182,-0.090,-0.090,-0.090,0.000,0.000,0.000
1641221129855994880,2022-01-03-14:45:29,10.1.1.7,200,-0.080,-0.080,-0.080,0.000,0.000,0.000
1641221130037587968,2022-01-03-14:45:30,10.1.1.7,181,-0.070,-0.070,-0.070,0.000,0.000,0.000
1641221130237377024,2022-01-03-14:45:30,10.1.1.7,180,-0.060,-0.060,-0.060,0.000,0.000,0.000
1641221130658337024,2022-01-03-14:45:30,10.1.1.7,198,-0.040,-0.040,-0.040,0.000,0.000,0.000
1641221130858020096,2022-01-03-14:45:30,10.1.1.7,197,-0.030,-0.030,-0.030,0.000,0.000,0.000
1641221131059447040,2022-01-03-14:45:31,10.1.1.7,198,-0.020,-0.020,-0.020,0.000,0.000,0.000
1641221131258012928,2022-01-03-14:45:31,10.1.1.7,196,-0.010,-0.010,-0.010,0.000,0.000,0.000
1641221131462018048,2022-01-03-14:45:31,10.1.1.7,199,0.000,0.000,0.000,0.000,0.000,0.000
1641221131658505984,2022-01-03-14:45:31,10.1.1.7,195,-0.010,-0.010,-0.010,0.000,0.000,0.000
1641221131859795200,2022-01-03-14:45:31,10.1.1.7,196,-0.020,-0.020,-0.020,0.000,0.000,0.000
1641221132259776000,2022-01-03-14:45:32,10.1.1.7,184,-0.040,-0.040,-0.040,0.000,0.000,0.000
1641221132459872000,2022-01-03-14:45:32,10.1.1.7,185,-0.050,-0.050,-0.050,0.000,0.000,0.000
1641221132662636032,2022-01-03-14:45:32,10.1.1.7,187,-0.060,-0.060,-0.060,0.000,0.000,0.000
1641221132860526080,2022-01-03-14:45:32,10.1.1.7,184,-0.070,-0.070,-0.070,0.000,0.000,0.000
1641221133059529984,2022-01-03-14:45:33,10.1.1.7,182,-0.080,-0.080,-0.080,0.000,0.000,0.000
1641221133264281088,2022-01-03-14:45:33,10.1.1.7,186,-0.090,-0.090,-0.090,0.000,0.000,0.000
1641221133879767808,2022-01-03-14:45:33,10.1.1.7,200,-0.120,-0.120,-0.120,0.000,0.000,0.000
1641221134080188928,2022-01-03-14:45:34,10.1.1.7,199,-0.130,-0.130,-0.130,0.000,0.000,0.000
1641221134282119936,2022-01-03-14:45:34,10.1.1.7,200,-0.140,-0.140,-0.140,0.000,0.000,0.000
1641221134482675200,2022-01-03-14:45:34,10.1.1.7,198,-0.150,-0.150,-0.150,0.000,0.000,0.000
1641221134678827008,2022-01-03-14:45:34,10.1.1.7,193,-0.160,-0.160,-0.160,0.000,0.000,0.000
1641221135085967104,2022-01-03-14:45:35,10.1.1.7,198,-0.180,-0.180,-0.180,0.000,0.000,0.000
1641221135278692864,2022-01-03-14:45:35,10.1.1.7,189,-0.190,-0.190,-0.190,0.000,0.000,0.000
1641221135477523968,2022-01-03-14:45:35,10.1.1.7,187,-0.200,-0.200,-0.200,0.000,0.000,0.000
1641221135677844992,2022-01-03-14:45:35,10.1.1.7,187,-0.210,-0.210,-0.210,0.000,0.000,0.000
1641221135878493952,2022-01-03-14:45:35,10.1.1.7,187,-0.220,-0.220,-0.220,0.000,0.000,0.000
1641221136077585920,2022-01-03-14:45:36,10.1.1.7,186,-0.230,-0.230,-0.230,0.000,0.000,0.000
1641221136276926976,2022-01-03-14:45:36,10.1.1.7,185,-0.240,-0.240,-0.240,0.000,0.000,0.000
1641221136476979968,2022-01-03-14:45:36,10.1.1.7,184,-0.250,-0.250,-0.250,0.000,0.000,0.000
1641221136679037184,2022-01-03-14:45:36,10.1.1.7,186,-0.260,-0.260,-0.260,0.000,0.000,0.000
1641221136876524800,2022-01-03-14:45:36,10.1.1.7,183,-0.270,-0.270,-0.270,0.000,0.000,0.000
1641221137081846016,2022-01-03-14:45:37,10.1.1.7,188,-0.280,-0.280,-0.280,0.000,0.000,0.000
1641221137277118976,2022-01-03-14:45:37,10.1.1.7,182,-0.290,-0.290,-0.290,0.000,0.000,0.000
1641221137484184064,2022-01-03-14:45:37,10.1.1.7,187,-0.300,-0.300,-0.300,0.000,0.000,0.000
1641221137678329856,2022-01-03-14:45:37,10.1.1.7,182,-0.310,-0.310,-0.310,0.000,0.000,0.000
1641221137877111040,2022-01-03-14:45:37,10.1.1.7,179,-0.320,-0.320,-0.320,0.000,0.000,0.000
1641221138097285888,2022-01-03-14:45:38,10.1.1.7,199,-0.330,-0.330,-0.330,0.000,0.000,0.000
1641221138299896064,2022-01-03-14:45:38,10.1.1.7,201,-0.340,-0.340,-0.340,0.000,0.000,0.000
1641221138497730048,2022-01-03-14:45:38,10.1.1.7,196,-0.350,-0.350,-0.350,0.000,0.000,0.000
1641221138899704064,2022-01-03-14:45:38,10.1.1.7,196,-0.370,-0.370,-0.370,0.000,0.000,0.000
1641221139097402112,2022-01-03-14:45:39,10.1.1.7,193,-0.380,-0.380,-0.380,0.000,0.000,0.000
1641221139296535040,2022-01-03-14:45:39,10.1.1.7,192,-0.390,-0.390,-0.390,0.000,0.000,0.000
1641221139495532032,2022-01-03-14:45:39,10.1.1.7,190,-0.400,-0.400,-0.400,0.000,0.000,0.000
1641221139694510848,2022-01-03-14:45:39,10.1.1.7,187,-0.410,-0.410,-0.410,0.000,0.000,0.000
1641221139894359040,2022-01-03-14:45:39,10.1.1.7,186,-0.420,-0.420,-0.420,0.000,0.000,0.000
1641221140095141888,2022-01-03-14:45:40,10.1.1.7,186,-0.430,-0.430,-0.430,0.000,0.000,0.000
1641221140294094080,2022-01-03-14:45:40,10.1.1.7,184,-0.440,-0.440,-0.440,0.000,0.000,0.000
1641221140494091008,2022-01-03-14:45:40,10.1.1.7,183,-0.450,-0.450,-0.450,0.000,0.000,0.000
1641221140913500160,2022-01-03-14:45:40,10.1.1.7,194,-0.470,-0.470,-0.470,0.000,0.000,0.000
1641221141113004800,2022-01-03-14:45:41,10.1.1.7,192,-0.480,-0.480,-0.480,0.000,0.000,0.000
1641221141313029888,2022-01-03-14:45:41,10.1.1.7,191,-0.490,-0.490,-0.490,0.000,0.000,0.000
1641221141514066944,2022-01-03-14:45:41,10.1.1.7,191,-0.480,-0.480,-0.480,0.000,0.000,0.000
1641221141914052096,2022-01-03-14:45:41,10.1.1.7,189,-0.460,-0.460,-0.460,0.000,0.000,0.000
1641221142116441088,2022-01-03-14:45:42,10.1.1.7,181,-0.450,-0.450,-0.450,0.000,0.000,0.000
1641221142331550976,2022-01-03-14:45:42,10.1.1.7,193,-0.440,-0.440,-0.440,0.000,0.000,0.000
1641221142531481088,2022-01-03-14:45:42,10.1.1.7,192,-0.430,-0.430,-0.430,0.000,0.000,0.000
1641221142731742976,2022-01-03-14:45:42,10.1.1.7,190,-0.420,-0.420,-0.420,0.000,0.000,0.000
1641221142932052992,2022-01-03-14:45:42,10.1.1.7,190,-0.410,-0.410,-0.410,0.000,0.000,0.000
1641221143131366912,2022-01-03-14:45:43,10.1.1.7,189,-0.400,-0.400,-0.400,0.000,0.000,0.000
1641221143335350016,2022-01-03-14:45:43,10.1.1.7,192,-0.390,-0.390,-0.390,0.000,0.000,0.000
1641221143535975936,2022-01-03-14:45:43,10.1.1.7,191,-0.380,-0.380,-0.380,0.000,0.000,0.000
1641221143731191040,2022-01-03-14:45:43,10.1.1.7,186,-0.370,-0.370,-0.370,0.000,0.000,0.000
1641221143945583104,2022-01-03-14:45:43,10.1.1.7,200,-0.360,-0.360,-0.360,0.000,0.000,0.000
1641221144132581888,2022-01-03-14:45:44,10.1.1.7,183,-0.350,-0.350,-0.350,0.000,0.000,0.000
1641221144335052032,2022-01-03-14:45:44,10.1.1.7,186,-0.340,-0.340,-0.340,0.000,0.000,0.000
1641221144532567040,2022-01-03-14:45:44,10.1.1.7,182,-0.330,-0.330,-0.330,0.000,0.000,0.000
1641221144730535936,2022-01-03-14:45:44,10.1.1.7,179,-0.320,-0.320,-0.320,0.000,0.000,0.000
1641221144929330176,2022-01-03-14:45:44,10.1.1.7,176,-0.310,-0.310,-0.310,0.000,0.000,0.000
1641221145129915904,2022-01-03-14:45:45,10.1.1.7,175,-0.300,-0.300,-0.300,0.000,0.000,0.000
1641221145328221952,2022-01-03-14:45:45,10.1.1.7,173,-0.290,-0.290,-0.290,0.000,0.000,0.000
1641221145528698880,2022-01-03-14:45:45,10.1.1.7,172,-0.280,-0.280,-0.280,0.000,0.000,0.000
1641221145748400896,2022-01-03-14:45:45,10.1.1.7,190,-0.270,-0.270,-0.270,0.000,0.000,0.000
1641221145947995904,2022-01-03-14:45:45,10.1.1.7,189,-0.260,-0.260,-0.260,0.000,0.000,0.000
1641221146147064064,2022-01-03-14:45:46,10.1.1.7,187,-0.250,-0.250,-0.250,0.000,0.000,0.000
1641221146349661952,2022-01-03-14:45:46,10.1.1.7,189,-0.240,-0.240,-0.240,0.000,0.000,0.000
1641221146545821952,2022-01-03-14:45:46,10.1.1.7,185,-0.230,-0.230,-0.230,0.000,0.000,0.000
1641221146746371072,2022-01-03-14:45:46,10.1.1.7,184,-0.220,-0.220,-0.220,0.000,0.000,0.000
1641221146947488000,2022-01-03-14:45:46,10.1.1.7,184,-0.210,-0.210,-0.210,0.000,0.000,0.000
1641221147154213888,2022-01-03-14:45:47,10.1.1.7,190,-0.200,-0.200,-0.200,0.000,0.000,0.000
1641221147345218816,2022-01-03-14:45:47,10.1.1.7,169,-0.190,-0.190,-0.190,0.000,0.000,0.000
1641221147566587904,2022-01-03-14:45:47,10.1.1.7,175,-0.180,-0.180,-0.180,0.000,0.000,0.000
1641221147776338944,2022-01-03-14:45:47,10.1.1.7,179,-0.170,-0.170,-0.170,0.000,0.000,0.000
1641221147986237952,2022-01-03-14:45:47,10.1.1.7,185,-0.160,-0.160,-0.160,0.000,0.000,0.000
1641221148184187904,2022-01-03-14:45:48,10.1.1.7,182,-0.150,-0.150,-0.150,0.000,0.000,0.000
1641221148386182144,2022-01-03-14:45:48,10.1.1.7,183,-0.140,-0.140,-0.140,0.000,0.000,0.000
1641221148585037824,2022-01-03-14:45:48,10.1.1.7,180,-0.130,-0.130,-0.130,0.000,0.000,0.000
1641221148783737856,2022-01-03-14:45:48,10.1.1.7,178,-0.120,-0.120,-0.120,0.000,0.000,0.000
1641221148983956224,2022-01-03-14:45:48,10.1.1.7,179,-0.110,-0.110,-0.110,0.000,0.000,0.000
1641221149182845952,2022-01-03-14:45:49,10.1.1.7,177,-0.100,-0.100,-0.100,0.000,0.000,0.000
1641221149389652992,2022-01-03-14:45:49,10.1.1.7,183,-0.090,-0.090,-0.090,0.000,0.000,0.000
1641221149581959936,2022-01-03-14:45:49,10.1.1.7,175,-0.080,-0.080,-0.080,0.000,0.000,0.000
1641221149781346048,2022-01-03-14:45:49,10.1.1.7,173,-0.070,-0.070,-0.070,0.000,0.000,0.000
1641221149982737920,2022-01-03-14:45:49,10.1.1.7,174,-0.060,-0.060,-0.060,0.000,0.000,0.000
1641221150181396992,2022-01-03-14:45:50,10.1.1.7,170,-0.050,-0.050,-0.050,0.000,0.000,0.000
1641221150382216960,2022-01-03-14:45:50,10.1.1.7,168,-0.040,-0.040,-0.040,0.000,0.000,0.000
1641221150593796096,2022-01-03-14:45:50,10.1.1.7,180,-0.030,-0.030,-0.030,0.000,0.000,0.000
1641221150781122816,2022-01-03-14:45:50,10.1.1.7,167,-0.020,-0.020,-0.020,0.000,0.000,0.000
1641221150980637952,2022-01-03-14:45:50,10.1.1.7,165,-0.010,-0.010,-0.010,0.000,0.000,0.000
1641221151207480832,2022-01-03-14:45:51,10.1.1.7,191,0.000,0.000,0.000,0.000,0.000,0.000
1641221151383848960,2022-01-03-14:45:51,10.1.1.7,167,-0.010,-0.010,-0.010,0.000,0.000,0.000
1641221151599047936,2022-01-03-14:45:51,10.1.1.7,181,-0.020,-0.020,-0.020,0.000,0.000,0.000
1641221151799308032,2022-01-03-14:45:51,10.1.1.7,179,-0.030,-0.030,-0.030,0.000,0.000,0.000
1641221151999905024,2022-01-03-14:45:51,10.1.1.7,178,-0.040,-0.040,-0.040,0.000,0.000,0.000
1641221152199579904,2022-01-03-14:45:52,10.1.1.7,177,-0.050,-0.050,-0.050,0.000,0.000,0.000
1641221152398744064,2022-01-03-14:45:52,10.1.1.7,176,-0.060,-0.060,-0.060,0.000,0.000,0.000
1641221152598592000,2022-01-03-14:45:52,10.1.1.7,175,-0.070,-0.070,-0.070,0.000,0.000,0.000
1641221152798678016,2022-01-03-14:45:52,10.1.1.7,174,-0.080,-0.080,-0.080,0.000,0.000,0.000
1641221153001897216,2022-01-03-14:45:53,10.1.1.7,176,-0.090,-0.090,-0.090,0.000,0.000,0.000
1641221153195961856,2022-01-03-14:45:53,10.1.1.7,169,-0.100,-0.100,-0.100,0.000,0.000,0.000
1641221153397126912,2022-01-03-14:45:53,10.1.1.7,169,-0.110,-0.110,-0.110,0.000,0.000,0.000
1641221153595539200,2022-01-03-14:45:53,10.1.1.7,168,-0.120,-0.120,-0.120,0.000,0.000,0.000
1641221153795654912,2022-01-03-14:45:53,10.1.1.7,167,-0.130,-0.130,-0.130,0.000,0.000,0.000
1641221153994507008,2022-01-03-14:45:53,10.1.1.7,166,-0.140,-0.140,-0.140,0.000,0.000,0.000
1641221154206115072,2022-01-03-14:45:54,10.1.1.7,175,-0.150,-0.150,-0.150,0.000,0.000,0.000
1641221154396644096,2022-01-03-14:45:54,10.1.1.7,162,-0.160,-0.160,-0.160,0.000,0.000,0.000
1641221154597809920,2022-01-03-14:45:54,10.1.1.7,163,-0.170,-0.170,-0.170,0.000,0.000,0.000
1641221154798532864,2022-01-03-14:45:54,10.1.1.7,163,-0.180,-0.180,-0.180,0.000,0.000,0.000
1641221154999644928,2022-01-03-14:45:54,10.1.1.7,163,-0.190,-0.190,-0.190,0.000,0.000,0.000
1641221155201127936,2022-01-03-14:45:55,10.1.1.7,164,-0.200,-0.200,-0.200,0.000,0.000,0.000
1641221155423101952,2022-01-03-14:45:55,10.1.1.7,185,-0.210,-0.210,-0.210,0.000,0.000,0.000
1641221155623794944,2022-01-03-14:45:55,10.1.1.7,186,-0.220,-0.220,-0.220,0.000,0.000,0.000
1641221155823896832,2022-01-03-14:45:55,10.1.1.7,185,-0.230,-0.230,-0.230,0.000,0.000,0.000
1641221156024496128,2022-01-03-14:45:56,10.1.1.7,184,-0.240,-0.240,-0.240,0.000,0.000,0.000
1641221156224963072,2022-01-03-14:45:56,10.1.1.7,183,-0.250,-0.250,-0.250,0.000,0.000,0.000
1641221156431997952,2022-01-03-14:45:56,10.1.1.7,183,-0.260,-0.260,-0.260,0.000,0.000,0.000
1641221156626023168,2022-01-03-14:45:56,10.1.1.7,179,-0.270,-0.270,-0.270,0.000,0.000,0.000
1641221156827958016,2022-01-03-14:45:56,10.1.1.7,178,-0.280,-0.280,-0.280,0.000,0.000,0.000
1641221157027838976,2022-01-03-14:45:57,10.1.1.7,177,-0.290,-0.290,-0.290,0.000,0.000,0.000
1641221157228564992,2022-01-03-14:45:57,10.1.1.7,178,-0.300,-0.300,-0.300,0.000,0.000,0.000
1641221157429085952,2022-01-03-14:45:57,10.1.1.7,177,-0.310,-0.310,-0.310,0.000,0.000,0.000
1641221157629414912,2022-01-03-14:45:57,10.1.1.7,176,-0.320,-0.320,-0.320,0.000,0.000,0.000
1641221157830169088,2022-01-03-14:45:57,10.1.1.7,176,-0.330,-0.330,-0.330,0.000,0.000,0.000
1641221158033174016,2022-01-03-14:45:58,10.1.1.7,178,-0.340,-0.340,-0.340,0.000,0.000,0.000
1641221158251368960,2022-01-03-14:45:58,10.1.1.7,191,-0.350,-0.350,-0.350,0.000,0.000,0.000
1641221158452028160,2022-01-03-14:45:58,10.1.1.7,191,-0.360,-0.360,-0.360,0.000,0.000,0.000
1641221158653434880,2022-01-03-14:45:58,10.1.1.7,192,-0.370,-0.370,-0.370,0.000,0.000,0.000
1641221158852978944,2022-01-03-14:45:58,10.1.1.7,191,-0.380,-0.380,-0.380,0.000,0.000,0.000
1641221159053342208,2022-01-03-14:45:59,10.1.1.7,190,-0.390,-0.390,-0.390,0.000,0.000,0.000
1641221159253707776,2022-01-03-14:45:59,10.1.1.7,190,-0.400,-0.400,-0.400,0.000,0.000,0.000
1641221159455447808,2022-01-03-14:45:59,10.1.1.7,191,-0.410,-0.410,-0.410,0.000,0.000,0.000
1641221159856028928,2022-01-03-14:45:59,10.1.1.7,188,-0.430,-0.430,-0.430,0.000,0.000,0.000
1641221160060250880,2022-01-03-14:46:00,10.1.1.7,191,-0.440,-0.440,-0.440,0.000,0.000,0.000
1641221160257160960,2022-01-03-14:46:00,10.1.1.7,187,-0.450,-0.450,-0.450,0.000,0.000,0.000
1641221160678013184,2022-01-03-14:46:00,10.1.1.7,190,-0.470,-0.470,-0.470,0.000,0.000,0.000
1641221160876259072,2022-01-03-14:46:00,10.1.1.7,187,-0.480,-0.480,-0.480,0.000,0.000,0.000
1641221161079212800,2022-01-03-14:46:01,10.1.1.7,189,-0.490,-0.490,-0.490,0.000,0.000,0.000
1641221161277208064,2022-01-03-14:46:01,10.1.1.7,185,-0.480,-0.480,-0.480,0.000,0.000,0.000
1641221161477545984,2022-01-03-14:46:01,10.1.1.7,184,-0.470,-0.470,-0.470,0.000,0.000,0.000
1641221161677277184,2022-01-03-14:46:01,10.1.1.7,183,-0.460,-0.460,-0.460,0.000,0.000,0.000
1641221161880546048,2022-01-03-14:46:01,10.1.1.7,186,-0.450,-0.450,-0.450,0.000,0.000,0.000
1641221162078070016,2022-01-03-14:46:02,10.1.1.7,182,-0.440,-0.440,-0.440,0.000,0.000,0.000
1641221162324326144,2022-01-03-14:46:02,10.1.1.7,186,-0.430,-0.430,-0.430,0.000,0.000,0.000
1641221162718735872,2022-01-03-14:46:02,10.1.1.7,192,-0.410,-0.410,-0.410,0.000,0.000,0.000
1641221162920154112,2022-01-03-14:46:02,10.1.1.7,193,-0.400,-0.400,-0.400,0.000,0.000,0.000
1641221163118556928,2022-01-03-14:46:03,10.1.1.7,190,-0.390,-0.390,-0.390,0.000,0.000,0.000
1641221163320498944,2022-01-03-14:46:03,10.1.1.7,190,-0.380,-0.380,-0.380,0.000,0.000,0.000
1641221163519376896,2022-01-03-14:46:03,10.1.1.7,188,-0.370,-0.370,-0.370,0.000,0.000,0.000
1641221163720272128,2022-01-03-14:46:03,10.1.1.7,188,-0.360,-0.360,-0.360,0.000,0.000,0.000
1641221163919495168,2022-01-03-14:46:03,10.1.1.7,186,-0.350,-0.350,-0.350,0.000,0.000,0.000
1641221164120368128,2022-01-03-14:46:04,10.1.1.7,186,-0.340,-0.340,-0.340,0.000,0.000,0.000
1641221164319735040,2022-01-03-14:46:04,10.1.1.7,185,-0.330,-0.330,-0.330,0.000,0.000,0.000
1641221164721210112,2022-01-03-14:46:04,10.1.1.7,183,-0.310,-0.310,-0.310,0.000,0.000,0.000
1641221165143655168,2022-01-03-14:46:05,10.1.1.7,205,-0.290,-0.290,-0.290,0.000,0.000,0.000
1641221165339403008,2022-01-03-14:46:05,10.1.1.7,193,-0.280,-0.280,-0.280,0.000,0.000,0.000
1641221165543493888,2022-01-03-14:46:05,10.1.1.7,197,-0.270,-0.270,-0.270,0.000,0.000,0.000
1641221165741238016,2022-01-03-14:46:05,10.1.1.7,189,-0.260,-0.260,-0.260,0.000,0.000,0.000
1641221165942291968,2022-01-03-14:46:05,10.1.1.7,189,-0.250,-0.250,-0.250,0.000,0.000,0.000
1641221166139790080,2022-01-03-14:46:06,10.1.1.7,186,-0.240,-0.240,-0.240,0.000,0.000,0.000
1641221166340722176,2022-01-03-14:46:06,10.1.1.7,186,-0.230,-0.230,-0.230,0.000,0.000,0.000
1641221166540196864,2022-01-03-14:46:06,10.1.1.7,184,-0.220,-0.220,-0.220,0.000,0.000,0.000
1641221166739964928,2022-01-03-14:46:06,10.1.1.7,183,-0.210,-0.210,-0.210,0.000,0.000,0.000
1641221166940064000,2022-01-03-14:46:06,10.1.1.7,182,-0.200,-0.200,-0.200,0.000,0.000,0.000
1641221167160196096,2022-01-03-14:46:07,10.1.1.7,201,-0.190,-0.190,-0.190,0.000,0.000,0.000
1641221167358791168,2022-01-03-14:46:07,10.1.1.7,197,-0.180,-0.180,-0.180,0.000,0.000,0.000
1641221167559127040,2022-01-03-14:46:07,10.1.1.7,190,-0.170,-0.170,-0.170,0.000,0.000,0.000
1641221167959794944,2022-01-03-14:46:07,10.1.1.7,187,-0.150,-0.150,-0.150,0.000,0.000,0.000
1641221168158823936,2022-01-03-14:46:08,10.1.1.7,185,-0.140,-0.140,-0.140,0.000,0.000,0.000
1641221168366118912,2022-01-03-14:46:08,10.1.1.7,191,-0.130,-0.130,-0.130,0.000,0.000,0.000
1641221168558910976,2022-01-03-14:46:08,10.1.1.7,184,-0.120,-0.120,-0.120,0.000,0.000,0.000
1641221168761017088,2022-01-03-14:46:08,10.1.1.7,185,-0.110,-0.110,-0.110,0.000,0.000,0.000
1641221168964673024,2022-01-03-14:46:08,10.1.1.7,187,-0.100,-0.100,-0.100,0.000,0.000,0.000
1641221169177517824,2022-01-03-14:46:09,10.1.1.7,198,-0.090,-0.090,-0.090,0.000,0.000,0.000
1641221169377693952,2022-01-03-14:46:09,10.1.1.7,195,-0.080,-0.080,-0.080,0.000,0.000,0.000
1641221169585378816,2022-01-03-14:46:09,10.1.1.7,201,-0.070,-0.070,-0.070,0.000,0.000,0.000
1641221169777595136,2022-01-03-14:46:09,10.1.1.7,188,-0.060,-0.060,-0.060,0.000,0.000,0.000
1641221169990638848,2022-01-03-14:46:09,10.1.1.7,201,-0.050,-0.050,-0.050,0.000,0.000,0.000
1641221170177037056,2022-01-03-14:46:10,10.1.1.7,185,-0.040,-0.040,-0.040,0.000,0.000,0.000
1641221170396936960,2022-01-03-14:46:10,10.1.1.7,198,-0.030,-0.030,-0.030,0.000,0.000,0.000
1641221170598287104,2022-01-03-14:46:10,10.1.1.7,199,-0.020,-0.020,-0.020,0.000,0.000,0.000
1641221170799117056,2022-01-03-14:46:10,10.1.1.7,199,-0.010,-0.010,-0.010,0.000,0.000,0.000
1641221170997818112,2022-01-03-14:46:10,10.1.1.7,197,0.000,0.000,0.000,0.000,0.000,0.000
1641221171197276160,2022-01-03-14:46:11,10.1.1.7,195,-0.010,-0.010,-0.010,0.000,0.000,0.000
1641221171397156096,2022-01-03-14:46:11,10.1.1.7,194,-0.020,-0.020,-0.020,0.000,0.000,0.000
1641221171598184960,2022-01-03-14:46:11,10.1.1.7,194,-0.030,-0.030,-0.030,0.000,0.000,0.000
1641221171796668928,2022-01-03-14:46:11,10.1.1.7,191,-0.040,-0.040,-0.040,0.000,0.000,0.000
1641221171996526848,2022-01-03-14:46:11,10.1.1.7,190,-0.050,-0.050,-0.050,0.000,0.000,0.000
1641221172230000896,2022-01-03-14:46:12,10.1.1.7,189,-0.060,-0.060,-0.060,0.000,0.000,0.000
1641221172416354816,2022-01-03-14:46:12,10.1.1.7,186,-0.070,-0.070,-0.070,0.000,0.000,0.000
1641221172624994048,2022-01-03-14:46:12,10.1.1.7,194,-0.080,-0.080,-0.080,0.000,0.000,0.000
1641221172815239936,2022-01-03-14:46:12,10.1.1.7,183,-0.090,-0.090,-0.090,0.000,0.000,0.000
1641221173021485056,2022-01-03-14:46:13,10.1.1.7,188,-0.100,-0.100,-0.100,0.000,0.000,0.000
1641221173215086080,2022-01-03-14:46:13,10.1.1.7,181,-0.110,-0.110,-0.110,0.000,0.000,0.000
1641221173414611968,2022-01-03-14:46:13,10.1.1.7,177,-0.120,-0.120,-0.120,0.000,0.000,0.000
1641221173633487872,2022-01-03-14:46:13,10.1.1.7,195,-0.130,-0.130,-0.130,0.000,0.000,0.000
1641221173833144832,2022-01-03-14:46:13,10.1.1.7,193,-0.140,-0.140,-0.140,0.000,0.000,0.000
1641221174040192000,2022-01-03-14:46:14,10.1.1.7,195,-0.150,-0.150,-0.150,0.000,0.000,0.000
1641221174236419072,2022-01-03-14:46:14,10.1.1.7,190,-0.160,-0.160,-0.160,0.000,0.000,0.000
1641221174432307968,2022-01-03-14:46:14,10.1.1.7,184,-0.170,-0.170,-0.170,0.000,0.000,0.000
1641221174633946880,2022-01-03-14:46:14,10.1.1.7,185,-0.180,-0.180,-0.180,0.000,0.000,0.000
1641221174837193984,2022-01-03-14:46:14,10.1.1.7,188,-0.190,-0.190,-0.190,0.000,0.000,0.000
1641221175031420928,2022-01-03-14:46:15,10.1.1.7,180,-0.200,-0.200,-0.200,0.000,0.000,0.000
1641221175231488000,2022-01-03-14:46:15,10.1.1.7,175,-0.210,-0.210,-0.210,0.000,0.000,0.000
1641221175449952000,2022-01-03-14:46:15,10.1.1.7,192,-0.220,-0.220,-0.220,0.000,0.000,0.000
1641221175653976064,2022-01-03-14:46:15,10.1.1.7,185,-0.230,-0.230,-0.230,0.000,0.000,0.000
1641221175855313152,2022-01-03-14:46:15,10.1.1.7,179,-0.240,-0.240,-0.240,0.000,0.000,0.000
1641221176067713024,2022-01-03-14:46:16,10.1.1.7,191,-0.250,-0.250,-0.250,0.000,0.000,0.000
1641221176270228992,2022-01-03-14:46:16,10.1.1.7,190,-0.260,-0.260,-0.260,0.000,0.000,0.000
1641221176469923072,2022-01-03-14:46:16,10.1.1.7,189,-0.270,-0.270,-0.270,0.000,0.000,0.000
1641221176672172032,2022-01-03-14:46:16,10.1.1.7,190,-0.280,-0.280,-0.280,0.000,0.000,0.000
1641221176869586944,2022-01-03-14:46:16,10.1.1.7,187,-0.290,-0.290,-0.290,0.000,0.000,0.000
1641221177069539072,2022-01-03-14:46:17,10.1.1.7,187,-0.300,-0.300,-0.300,0.000,0.000,0.000
1641221177270456064,2022-01-03-14:46:17,10.1.1.7,187,-0.310,-0.310,-0.310,0.000,0.000,0.000
1641221177469527040,2022-01-03-14:46:17,10.1.1.7,185,-0.320,-0.320,-0.320,0.000,0.000,0.000
1641221177683748864,2022-01-03-14:46:17,10.1.1.7,199,-0.330,-0.330,-0.330,0.000,0.000,0.000
1641221177867798016,2022-01-03-14:46:17,10.1.1.7,174,-0.340,-0.340,-0.340,0.000,0.000,0.000
1641221178068306944,2022-01-03-14:46:18,10.1.1.7,174,-0.350,-0.350,-0.350,0.000,0.000,0.000
1641221178272592128,2022-01-03-14:46:18,10.1.1.7,177,-0.360,-0.360,-0.360,0.000,0.000,0.000
1641221178467374080,2022-01-03-14:46:18,10.1.1.7,171,-0.370,-0.370,-0.370,0.000,0.000,0.000
