FedericoMungari/DigitalTwin_service/01_WiredScenario/Output/Output_script/script_rosapi_2_output_robots12_freq0_4.txt
timestamp,date,node,latency,joint_1,joint_2,joint_3,joint_4,joint_5,joint_6
1641234781103099136,2022-01-03-18:33:01,10.1.1.5,166,-0.010,-0.010,-0.010,0.000,0.000,0.000
1641234781321643008,2022-01-03-18:33:01,10.1.1.5,183,-0.020,-0.020,-0.020,0.000,0.000,0.000
1641234781520522240,2022-01-03-18:33:01,10.1.1.5,177,-0.030,-0.030,-0.030,0.000,0.000,0.000
1641234781720638976,2022-01-03-18:33:01,10.1.1.5,177,-0.040,-0.040,-0.040,0.000,0.000,0.000
1641234781920178944,2022-01-03-18:33:01,10.1.1.5,176,-0.050,-0.050,-0.050,0.000,0.000,0.000
1641234782121253888,2022-01-03-18:33:02,10.1.1.5,176,-0.060,-0.060,-0.060,0.000,0.000,0.000
1641234782322462976,2022-01-03-18:33:02,10.1.1.5,176,-0.070,-0.070,-0.070,0.000,0.000,0.000
1641234782521639936,2022-01-03-18:33:02,10.1.1.5,175,-0.080,-0.080,-0.080,0.000,0.000,0.000
1641234782720252160,2022-01-03-18:33:02,10.1.1.5,172,-0.090,-0.090,-0.090,0.000,0.000,0.000
1641234782919313920,2022-01-03-18:33:02,10.1.1.5,171,-0.100,-0.100,-0.100,0.000,0.000,0.000
1641234783118918912,2022-01-03-18:33:03,10.1.1.5,169,-0.110,-0.110,-0.110,0.000,0.000,0.000
1641234783317888000,2022-01-03-18:33:03,10.1.1.5,168,-0.120,-0.120,-0.120,0.000,0.000,0.000
1641234783518119168,2022-01-03-18:33:03,10.1.1.5,167,-0.130,-0.130,-0.130,0.000,0.000,0.000
1641234783717475840,2022-01-03-18:33:03,10.1.1.5,165,-0.140,-0.140,-0.140,0.000,0.000,0.000
1641234783920600064,2022-01-03-18:33:03,10.1.1.5,168,-0.150,-0.150,-0.150,0.000,0.000,0.000
1641234784118016000,2022-01-03-18:33:04,10.1.1.5,164,-0.160,-0.160,-0.160,0.000,0.000,0.000
1641234784316728064,2022-01-03-18:33:04,10.1.1.5,161,-0.170,-0.170,-0.170,0.000,0.000,0.000
1641234784537044992,2022-01-03-18:33:04,10.1.1.5,177,-0.180,-0.180,-0.180,0.000,0.000,0.000
1641234784736687872,2022-01-03-18:33:04,10.1.1.5,176,-0.190,-0.190,-0.190,0.000,0.000,0.000
1641234784937096960,2022-01-03-18:33:04,10.1.1.5,176,-0.200,-0.200,-0.200,0.000,0.000,0.000
1641234785136076800,2022-01-03-18:33:05,10.1.1.5,174,-0.210,-0.210,-0.210,0.000,0.000,0.000
1641234785335154944,2022-01-03-18:33:05,10.1.1.5,172,-0.220,-0.220,-0.220,0.000,0.000,0.000
1641234785539607040,2022-01-03-18:33:05,10.1.1.5,175,-0.230,-0.230,-0.230,0.000,0.000,0.000
1641234785734658048,2022-01-03-18:33:05,10.1.1.5,170,-0.240,-0.240,-0.240,0.000,0.000,0.000
1641234785934169088,2022-01-03-18:33:05,10.1.1.5,169,-0.250,-0.250,-0.250,0.000,0.000,0.000
1641234786133654016,2022-01-03-18:33:06,10.1.1.5,167,-0.260,-0.260,-0.260,0.000,0.000,0.000
1641234786333401856,2022-01-03-18:33:06,10.1.1.5,166,-0.270,-0.270,-0.270,0.000,0.000,0.000
1641234786533338112,2022-01-03-18:33:06,10.1.1.5,165,-0.280,-0.280,-0.280,0.000,0.000,0.000
1641234786732989184,2022-01-03-18:33:06,10.1.1.5,164,-0.290,-0.290,-0.290,0.000,0.000,0.000
1641234786932768000,2022-01-03-18:33:06,10.1.1.5,164,-0.300,-0.300,-0.300,0.000,0.000,0.000
1641234787132481024,2022-01-03-18:33:07,10.1.1.5,162,-0.310,-0.310,-0.310,0.000,0.000,0.000
1641234787331953152,2022-01-03-18:33:07,10.1.1.5,162,-0.320,-0.320,-0.320,0.000,0.000,0.000
1641234787532378880,2022-01-03-18:33:07,10.1.1.5,162,-0.330,-0.330,-0.330,0.000,0.000,0.000
1641234787731416832,2022-01-03-18:33:07,10.1.1.5,159,-0.340,-0.340,-0.340,0.000,0.000,0.000
1641234787930949888,2022-01-03-18:33:07,10.1.1.5,159,-0.350,-0.350,-0.350,0.000,0.000,0.000
1641234788131779072,2022-01-03-18:33:08,10.1.1.5,157,-0.360,-0.360,-0.360,0.000,0.000,0.000
1641234788333335040,2022-01-03-18:33:08,10.1.1.5,159,-0.370,-0.370,-0.370,0.000,0.000,0.000
1641234788535106816,2022-01-03-18:33:08,10.1.1.5,160,-0.380,-0.380,-0.380,0.000,0.000,0.000
1641234788735783168,2022-01-03-18:33:08,10.1.1.5,160,-0.390,-0.390,-0.390,0.000,0.000,0.000
1641234788937829888,2022-01-03-18:33:08,10.1.1.5,161,-0.400,-0.400,-0.400,0.000,0.000,0.000
1641234789138812160,2022-01-03-18:33:09,10.1.1.5,161,-0.410,-0.410,-0.410,0.000,0.000,0.000
1641234789340537088,2022-01-03-18:33:09,10.1.1.5,162,-0.420,-0.420,-0.420,0.000,0.000,0.000
1641234789561870080,2022-01-03-18:33:09,10.1.1.5,183,-0.430,-0.430,-0.430,0.000,0.000,0.000
1641234789764022016,2022-01-03-18:33:09,10.1.1.5,184,-0.440,-0.440,-0.440,0.000,0.000,0.000
1641234789965114112,2022-01-03-18:33:09,10.1.1.5,184,-0.450,-0.450,-0.450,0.000,0.000,0.000
1641234790165219072,2022-01-03-18:33:10,10.1.1.5,184,-0.460,-0.460,-0.460,0.000,0.000,0.000
1641234790366458880,2022-01-03-18:33:10,10.1.1.5,184,-0.470,-0.470,-0.470,0.000,0.000,0.000
1641234790567228160,2022-01-03-18:33:10,10.1.1.5,184,-0.480,-0.480,-0.480,0.000,0.000,0.000
1641234790768600832,2022-01-03-18:33:10,10.1.1.5,185,-0.490,-0.490,-0.490,0.000,0.000,0.000
1641234790969196032,2022-01-03-18:33:10,10.1.1.5,185,-0.480,-0.480,-0.480,0.000,0.000,0.000
1641234791174715136,2022-01-03-18:33:11,10.1.1.5,190,-0.470,-0.470,-0.470,0.000,0.000,0.000
1641234791370966016,2022-01-03-18:33:11,10.1.1.5,185,-0.460,-0.460,-0.460,0.000,0.000,0.000
1641234791571630848,2022-01-03-18:33:11,10.1.1.5,186,-0.450,-0.450,-0.450,0.000,0.000,0.000
1641234791773276928,2022-01-03-18:33:11,10.1.1.5,186,-0.440,-0.440,-0.440,0.000,0.000,0.000
1641234791975300096,2022-01-03-18:33:11,10.1.1.5,188,-0.430,-0.430,-0.430,0.000,0.000,0.000
1641234792174494976,2022-01-03-18:33:12,10.1.1.5,187,-0.420,-0.420,-0.420,0.000,0.000,0.000
1641234792376843008,2022-01-03-18:33:12,10.1.1.5,188,-0.410,-0.410,-0.410,0.000,0.000,0.000
1641234792575640832,2022-01-03-18:33:12,10.1.1.5,186,-0.400,-0.400,-0.400,0.000,0.000,0.000
1641234792776335872,2022-01-03-18:33:12,10.1.1.5,186,-0.390,-0.390,-0.390,0.000,0.000,0.000
1641234792977912064,2022-01-03-18:33:12,10.1.1.5,187,-0.380,-0.380,-0.380,0.000,0.000,0.000
1641234793178219008,2022-01-03-18:33:13,10.1.1.5,187,-0.370,-0.370,-0.370,0.000,0.000,0.000
1641234793379025920,2022-01-03-18:33:13,10.1.1.5,186,-0.360,-0.360,-0.360,0.000,0.000,0.000
1641234793579524096,2022-01-03-18:33:13,10.1.1.5,187,-0.350,-0.350,-0.350,0.000,0.000,0.000
1641234793780225024,2022-01-03-18:33:13,10.1.1.5,187,-0.340,-0.340,-0.340,0.000,0.000,0.000
1641234793980120832,2022-01-03-18:33:13,10.1.1.5,186,-0.330,-0.330,-0.330,0.000,0.000,0.000
1641234794181467904,2022-01-03-18:33:14,10.1.1.5,187,-0.320,-0.320,-0.320,0.000,0.000,0.000
1641234794381433088,2022-01-03-18:33:14,10.1.1.5,187,-0.310,-0.310,-0.310,0.000,0.000,0.000
1641234794581549056,2022-01-03-18:33:14,10.1.1.5,186,-0.300,-0.300,-0.300,0.000,0.000,0.000
1641234794782710016,2022-01-03-18:33:14,10.1.1.5,186,-0.290,-0.290,-0.290,0.000,0.000,0.000
1641234794984510976,2022-01-03-18:33:14,10.1.1.5,187,-0.280,-0.280,-0.280,0.000,0.000,0.000
1641234795186927104,2022-01-03-18:33:15,10.1.1.5,190,-0.270,-0.270,-0.270,0.000,0.000,0.000
1641234797627188992,2022-01-03-18:33:17,10.1.1.5,200,-0.150,-0.150,-0.150,0.000,0.000,0.000
1641234797826746880,2022-01-03-18:33:17,10.1.1.5,195,-0.140,-0.140,-0.140,0.000,0.000,0.000
1641234798227387904,2022-01-03-18:33:18,10.1.1.5,194,-0.120,-0.120,-0.120,0.000,0.000,0.000
1641234798852579072,2022-01-03-18:33:18,10.1.1.5,202,-0.090,-0.090,-0.090,0.000,0.000,0.000
1641234799048798208,2022-01-03-18:33:19,10.1.1.5,190,-0.080,-0.080,-0.080,0.000,0.000,0.000
1641234801268375040,2022-01-03-18:33:21,10.1.1.5,199,-0.030,-0.030,-0.030,0.000,0.000,0.000
1641234801468100096,2022-01-03-18:33:21,10.1.1.5,198,-0.040,-0.040,-0.040,0.000,0.000,0.000
1641234801668951040,2022-01-03-18:33:21,10.1.1.5,198,-0.050,-0.050,-0.050,0.000,0.000,0.000
1641234801868172800,2022-01-03-18:33:21,10.1.1.5,195,-0.060,-0.060,-0.060,0.000,0.000,0.000
1641234802067516160,2022-01-03-18:33:22,10.1.1.5,194,-0.070,-0.070,-0.070,0.000,0.000,0.000
1641234802270905856,2022-01-03-18:33:22,10.1.1.5,196,-0.080,-0.080,-0.080,0.000,0.000,0.000
1641234802470024960,2022-01-03-18:33:22,10.1.1.5,191,-0.090,-0.090,-0.090,0.000,0.000,0.000
1641234803507948032,2022-01-03-18:33:23,10.1.1.5,191,-0.140,-0.140,-0.140,0.000,0.000,0.000
1641234804326700800,2022-01-03-18:33:24,10.1.1.5,200,-0.180,-0.180,-0.180,0.000,0.000,0.000
1641234804726455040,2022-01-03-18:33:24,10.1.1.5,194,-0.200,-0.200,-0.200,0.000,0.000,0.000
1641234804926984960,2022-01-03-18:33:24,10.1.1.5,190,-0.210,-0.210,-0.210,0.000,0.000,0.000
1641234805806742016,2022-01-03-18:33:25,10.1.1.5,235,-0.250,-0.250,-0.250,0.000,0.000,0.000
1641234806007008000,2022-01-03-18:33:26,10.1.1.5,195,-0.260,-0.260,-0.260,0.000,0.000,0.000
1641234806624888832,2022-01-03-18:33:26,10.1.1.5,200,-0.290,-0.290,-0.290,0.000,0.000,0.000
1641234806824724992,2022-01-03-18:33:26,10.1.1.5,198,-0.300,-0.300,-0.300,0.000,0.000,0.000
1641234807025253888,2022-01-03-18:33:27,10.1.1.5,198,-0.310,-0.310,-0.310,0.000,0.000,0.000
1641234807224355072,2022-01-03-18:33:27,10.1.1.5,194,-0.320,-0.320,-0.320,0.000,0.000,0.000
1641234807424177920,2022-01-03-18:33:27,10.1.1.5,193,-0.330,-0.330,-0.330,0.000,0.000,0.000
1641234807625370112,2022-01-03-18:33:27,10.1.1.5,193,-0.340,-0.340,-0.340,0.000,0.000,0.000
1641234807825747968,2022-01-03-18:33:27,10.1.1.5,192,-0.350,-0.350,-0.350,0.000,0.000,0.000
1641234808025113088,2022-01-03-18:33:28,10.1.1.5,187,-0.360,-0.360,-0.360,0.000,0.000,0.000
1641234809044459008,2022-01-03-18:33:29,10.1.1.5,201,-0.410,-0.410,-0.410,0.000,0.000,0.000
1641234809243532032,2022-01-03-18:33:29,10.1.1.5,193,-0.420,-0.420,-0.420,0.000,0.000,0.000
1641234809442749952,2022-01-03-18:33:29,10.1.1.5,191,-0.430,-0.430,-0.430,0.000,0.000,0.000
1641234809644619008,2022-01-03-18:33:29,10.1.1.5,192,-0.440,-0.440,-0.440,0.000,0.000,0.000
1641234809842458112,2022-01-03-18:33:29,10.1.1.5,189,-0.450,-0.450,-0.450,0.000,0.000,0.000
1641234810052373760,2022-01-03-18:33:30,10.1.1.5,197,-0.460,-0.460,-0.460,0.000,0.000,0.000
1641234810249104128,2022-01-03-18:33:30,10.1.1.5,193,-0.470,-0.470,-0.470,0.000,0.000,0.000
1641234810440782080,2022-01-03-18:33:30,10.1.1.5,183,-0.480,-0.480,-0.480,0.000,0.000,0.000
1641234811061281024,2022-01-03-18:33:31,10.1.1.5,199,-0.470,-0.470,-0.470,0.000,0.000,0.000
1641234811262077184,2022-01-03-18:33:31,10.1.1.5,199,-0.460,-0.460,-0.460,0.000,0.000,0.000
1641234811660633088,2022-01-03-18:33:31,10.1.1.5,197,-0.440,-0.440,-0.440,0.000,0.000,0.000
1641234811859703040,2022-01-03-18:33:31,10.1.1.5,196,-0.430,-0.430,-0.430,0.000,0.000,0.000
1641234812060044032,2022-01-03-18:33:32,10.1.1.5,195,-0.420,-0.420,-0.420,0.000,0.000,0.000
1641234812261445120,2022-01-03-18:33:32,10.1.1.5,193,-0.410,-0.410,-0.410,0.000,0.000,0.000
1641234812462883840,2022-01-03-18:33:32,10.1.1.5,190,-0.400,-0.400,-0.400,0.000,0.000,0.000
1641234812662823936,2022-01-03-18:33:32,10.1.1.5,188,-0.390,-0.390,-0.390,0.000,0.000,0.000
1641234812879788032,2022-01-03-18:33:32,10.1.1.5,200,-0.380,-0.380,-0.380,0.000,0.000,0.000
1641234813082284032,2022-01-03-18:33:33,10.1.1.5,200,-0.370,-0.370,-0.370,0.000,0.000,0.000
1641234813278153984,2022-01-03-18:33:33,10.1.1.5,194,-0.360,-0.360,-0.360,0.000,0.000,0.000
1641234813477325824,2022-01-03-18:33:33,10.1.1.5,191,-0.350,-0.350,-0.350,0.000,0.000,0.000
1641234813678700032,2022-01-03-18:33:33,10.1.1.5,192,-0.340,-0.340,-0.340,0.000,0.000,0.000
1641234813876818944,2022-01-03-18:33:33,10.1.1.5,188,-0.330,-0.330,-0.330,0.000,0.000,0.000
1641234814079185920,2022-01-03-18:33:34,10.1.1.5,188,-0.320,-0.320,-0.320,0.000,0.000,0.000
1641234814276585216,2022-01-03-18:33:34,10.1.1.5,185,-0.310,-0.310,-0.310,0.000,0.000,0.000
1641234814476320000,2022-01-03-18:33:34,10.1.1.5,184,-0.300,-0.300,-0.300,0.000,0.000,0.000
1641234814675527936,2022-01-03-18:33:34,10.1.1.5,182,-0.290,-0.290,-0.290,0.000,0.000,0.000
1641234814875554048,2022-01-03-18:33:34,10.1.1.5,181,-0.280,-0.280,-0.280,0.000,0.000,0.000
1641234815074368000,2022-01-03-18:33:35,10.1.1.5,178,-0.270,-0.270,-0.270,0.000,0.000,0.000
1641234815275034880,2022-01-03-18:33:35,10.1.1.5,177,-0.260,-0.260,-0.260,0.000,0.000,0.000
1641234815474003200,2022-01-03-18:33:35,10.1.1.5,176,-0.250,-0.250,-0.250,0.000,0.000,0.000
1641234815694123008,2022-01-03-18:33:35,10.1.1.5,194,-0.240,-0.240,-0.240,0.000,0.000,0.000
1641234815893402112,2022-01-03-18:33:35,10.1.1.5,193,-0.230,-0.230,-0.230,0.000,0.000,0.000
1641234816092911104,2022-01-03-18:33:36,10.1.1.5,191,-0.220,-0.220,-0.220,0.000,0.000,0.000
1641234816292721920,2022-01-03-18:33:36,10.1.1.5,190,-0.210,-0.210,-0.210,0.000,0.000,0.000
1641234816492459008,2022-01-03-18:33:36,10.1.1.5,187,-0.200,-0.200,-0.200,0.000,0.000,0.000
1641234816692760832,2022-01-03-18:33:36,10.1.1.5,187,-0.190,-0.190,-0.190,0.000,0.000,0.000
1641234816893744896,2022-01-03-18:33:36,10.1.1.5,187,-0.180,-0.180,-0.180,0.000,0.000,0.000
1641234817091589888,2022-01-03-18:33:37,10.1.1.5,184,-0.170,-0.170,-0.170,0.000,0.000,0.000
1641234817291860992,2022-01-03-18:33:37,10.1.1.5,183,-0.160,-0.160,-0.160,0.000,0.000,0.000
1641234817491705856,2022-01-03-18:33:37,10.1.1.5,183,-0.150,-0.150,-0.150,0.000,0.000,0.000
1641234817693666048,2022-01-03-18:33:37,10.1.1.5,184,-0.140,-0.140,-0.140,0.000,0.000,0.000
1641234817890371072,2022-01-03-18:33:37,10.1.1.5,179,-0.130,-0.130,-0.130,0.000,0.000,0.000
1641234818090106112,2022-01-03-18:33:38,10.1.1.5,175,-0.120,-0.120,-0.120,0.000,0.000,0.000
1641234818290306048,2022-01-03-18:33:38,10.1.1.5,175,-0.110,-0.110,-0.110,0.000,0.000,0.000
1641234818493165056,2022-01-03-18:33:38,10.1.1.5,177,-0.100,-0.100,-0.100,0.000,0.000,0.000
1641234818690608128,2022-01-03-18:33:38,10.1.1.5,172,-0.090,-0.090,-0.090,0.000,0.000,0.000
1641234818911043840,2022-01-03-18:33:38,10.1.1.5,192,-0.080,-0.080,-0.080,0.000,0.000,0.000
1641234819108884992,2022-01-03-18:33:39,10.1.1.5,189,-0.070,-0.070,-0.070,0.000,0.000,0.000
1641234819308621056,2022-01-03-18:33:39,10.1.1.5,188,-0.060,-0.060,-0.060,0.000,0.000,0.000
1641234819509573888,2022-01-03-18:33:39,10.1.1.5,187,-0.050,-0.050,-0.050,0.000,0.000,0.000
1641234819709899008,2022-01-03-18:33:39,10.1.1.5,187,-0.040,-0.040,-0.040,0.000,0.000,0.000
1641234819913341952,2022-01-03-18:33:39,10.1.1.5,184,-0.030,-0.030,-0.030,0.000,0.000,0.000
1641234820107204864,2022-01-03-18:33:40,10.1.1.5,172,-0.020,-0.020,-0.020,0.000,0.000,0.000
1641234820307343872,2022-01-03-18:33:40,10.1.1.5,171,-0.010,-0.010,-0.010,0.000,0.000,0.000
1641234820508118016,2022-01-03-18:33:40,10.1.1.5,170,-0.000,-0.000,-0.000,0.000,0.000,0.000
1641234820733321984,2022-01-03-18:33:40,10.1.1.5,194,-0.010,-0.010,-0.010,0.000,0.000,0.000
1641234821150192896,2022-01-03-18:33:41,10.1.1.5,186,-0.030,-0.030,-0.030,0.000,0.000,0.000
1641234821348761088,2022-01-03-18:33:41,10.1.1.5,185,-0.040,-0.040,-0.040,0.000,0.000,0.000
1641234821549408000,2022-01-03-18:33:41,10.1.1.5,185,-0.050,-0.050,-0.050,0.000,0.000,0.000
1641234821749746944,2022-01-03-18:33:41,10.1.1.5,184,-0.060,-0.060,-0.060,0.000,0.000,0.000
1641234821951385088,2022-01-03-18:33:41,10.1.1.5,185,-0.070,-0.070,-0.070,0.000,0.000,0.000
1641234822152761088,2022-01-03-18:33:42,10.1.1.5,186,-0.080,-0.080,-0.080,0.000,0.000,0.000
1641234822353387008,2022-01-03-18:33:42,10.1.1.5,186,-0.090,-0.090,-0.090,0.000,0.000,0.000
1641234822549947904,2022-01-03-18:33:42,10.1.1.5,181,-0.100,-0.100,-0.100,0.000,0.000,0.000
1641234822750977024,2022-01-03-18:33:42,10.1.1.5,181,-0.110,-0.110,-0.110,0.000,0.000,0.000
1641234822951163904,2022-01-03-18:33:42,10.1.1.5,180,-0.120,-0.120,-0.120,0.000,0.000,0.000
1641234823150593024,2022-01-03-18:33:43,10.1.1.5,178,-0.130,-0.130,-0.130,0.000,0.000,0.000
1641234823352999936,2022-01-03-18:33:43,10.1.1.5,180,-0.140,-0.140,-0.140,0.000,0.000,0.000
1641234823551256064,2022-01-03-18:33:43,10.1.1.5,178,-0.150,-0.150,-0.150,0.000,0.000,0.000
1641234823750157056,2022-01-03-18:33:43,10.1.1.5,176,-0.160,-0.160,-0.160,0.000,0.000,0.000
1641234823951016960,2022-01-03-18:33:43,10.1.1.5,174,-0.170,-0.170,-0.170,0.000,0.000,0.000
1641234824152057856,2022-01-03-18:33:44,10.1.1.5,174,-0.180,-0.180,-0.180,0.000,0.000,0.000
1641234824370302976,2022-01-03-18:33:44,10.1.1.5,192,-0.190,-0.190,-0.190,0.000,0.000,0.000
1641234824569817088,2022-01-03-18:33:44,10.1.1.5,190,-0.200,-0.200,-0.200,0.000,0.000,0.000
1641234824769769984,2022-01-03-18:33:44,10.1.1.5,188,-0.210,-0.210,-0.210,0.000,0.000,0.000
1641234824971043072,2022-01-03-18:33:44,10.1.1.5,188,-0.220,-0.220,-0.220,0.000,0.000,0.000
1641234825174416896,2022-01-03-18:33:45,10.1.1.5,191,-0.230,-0.230,-0.230,0.000,0.000,0.000
1641234825370860032,2022-01-03-18:33:45,10.1.1.5,185,-0.240,-0.240,-0.240,0.000,0.000,0.000
1641234825570522112,2022-01-03-18:33:45,10.1.1.5,182,-0.250,-0.250,-0.250,0.000,0.000,0.000
1641234825770558976,2022-01-03-18:33:45,10.1.1.5,180,-0.260,-0.260,-0.260,0.000,0.000,0.000
1641234825971944192,2022-01-03-18:33:45,10.1.1.5,181,-0.270,-0.270,-0.270,0.000,0.000,0.000
1641234826174354176,2022-01-03-18:33:46,10.1.1.5,181,-0.280,-0.280,-0.280,0.000,0.000,0.000
1641234826374182912,2022-01-03-18:33:46,10.1.1.5,180,-0.290,-0.290,-0.290,0.000,0.000,0.000
1641234826571300096,2022-01-03-18:33:46,10.1.1.5,176,-0.300,-0.300,-0.300,0.000,0.000,0.000
1641234826770669056,2022-01-03-18:33:46,10.1.1.5,174,-0.310,-0.310,-0.310,0.000,0.000,0.000
1641234826990528000,2022-01-03-18:33:46,10.1.1.5,189,-0.320,-0.320,-0.320,0.000,0.000,0.000
1641234827190708992,2022-01-03-18:33:47,10.1.1.5,187,-0.330,-0.330,-0.330,0.000,0.000,0.000
1641234827398206976,2022-01-03-18:33:47,10.1.1.5,194,-0.340,-0.340,-0.340,0.000,0.000,0.000
1641234827590671104,2022-01-03-18:33:47,10.1.1.5,185,-0.350,-0.350,-0.350,0.000,0.000,0.000
1641234827789975040,2022-01-03-18:33:47,10.1.1.5,185,-0.360,-0.360,-0.360,0.000,0.000,0.000
1641234827994424064,2022-01-03-18:33:47,10.1.1.5,186,-0.370,-0.370,-0.370,0.000,0.000,0.000
1641234828190713856,2022-01-03-18:33:48,10.1.1.5,183,-0.380,-0.380,-0.380,0.000,0.000,0.000
1641234828391070976,2022-01-03-18:33:48,10.1.1.5,183,-0.390,-0.390,-0.390,0.000,0.000,0.000
1641234828596770048,2022-01-03-18:33:48,10.1.1.5,189,-0.400,-0.400,-0.400,0.000,0.000,0.000
1641234828791228160,2022-01-03-18:33:48,10.1.1.5,182,-0.410,-0.410,-0.410,0.000,0.000,0.000
1641234828994617088,2022-01-03-18:33:48,10.1.1.5,181,-0.420,-0.420,-0.420,0.000,0.000,0.000
1641234829390952192,2022-01-03-18:33:49,10.1.1.5,178,-0.440,-0.440,-0.440,0.000,0.000,0.000
1641234829590542080,2022-01-03-18:33:49,10.1.1.5,175,-0.450,-0.450,-0.450,0.000,0.000,0.000
1641234829789591040,2022-01-03-18:33:49,10.1.1.5,174,-0.460,-0.460,-0.460,0.000,0.000,0.000
1641234829990102016,2022-01-03-18:33:49,10.1.1.5,174,-0.470,-0.470,-0.470,0.000,0.000,0.000
1641234830196816896,2022-01-03-18:33:50,10.1.1.5,179,-0.480,-0.480,-0.480,0.000,0.000,0.000
1641234830414382848,2022-01-03-18:33:50,10.1.1.5,192,-0.490,-0.490,-0.490,0.000,0.000,0.000
1641234830609582848,2022-01-03-18:33:50,10.1.1.5,188,-0.480,-0.480,-0.480,0.000,0.000,0.000
1641234830817099008,2022-01-03-18:33:50,10.1.1.5,195,-0.470,-0.470,-0.470,0.000,0.000,0.000
1641234831009852928,2022-01-03-18:33:51,10.1.1.5,186,-0.460,-0.460,-0.460,0.000,0.000,0.000
1641234831208969984,2022-01-03-18:33:51,10.1.1.5,183,-0.450,-0.450,-0.450,0.000,0.000,0.000
1641234831410355200,2022-01-03-18:33:51,10.1.1.5,182,-0.440,-0.440,-0.440,0.000,0.000,0.000
1641234831610324992,2022-01-03-18:33:51,10.1.1.5,179,-0.430,-0.430,-0.430,0.000,0.000,0.000
1641234831810098944,2022-01-03-18:33:51,10.1.1.5,178,-0.420,-0.420,-0.420,0.000,0.000,0.000
1641234832012576000,2022-01-03-18:33:52,10.1.1.5,176,-0.410,-0.410,-0.410,0.000,0.000,0.000
1641234832209403136,2022-01-03-18:33:52,10.1.1.5,172,-0.400,-0.400,-0.400,0.000,0.000,0.000
1641234832409100032,2022-01-03-18:33:52,10.1.1.5,171,-0.390,-0.390,-0.390,0.000,0.000,0.000
1641234832628561920,2022-01-03-18:33:52,10.1.1.5,189,-0.380,-0.380,-0.380,0.000,0.000,0.000
1641234832829950976,2022-01-03-18:33:52,10.1.1.5,187,-0.370,-0.370,-0.370,0.000,0.000,0.000
1641234833031819008,2022-01-03-18:33:53,10.1.1.5,176,-0.360,-0.360,-0.360,0.000,0.000,0.000
1641234833247684864,2022-01-03-18:33:53,10.1.1.5,188,-0.350,-0.350,-0.350,0.000,0.000,0.000
1641234833450841856,2022-01-03-18:33:53,10.1.1.5,173,-0.340,-0.340,-0.340,0.000,0.000,0.000
1641234833648788992,2022-01-03-18:33:53,10.1.1.5,171,-0.330,-0.330,-0.330,0.000,0.000,0.000
1641234833867955968,2022-01-03-18:33:53,10.1.1.5,189,-0.320,-0.320,-0.320,0.000,0.000,0.000
1641234834068353792,2022-01-03-18:33:54,10.1.1.5,186,-0.310,-0.310,-0.310,0.000,0.000,0.000
1641234834267155968,2022-01-03-18:33:54,10.1.1.5,184,-0.300,-0.300,-0.300,0.000,0.000,0.000
1641234834469121024,2022-01-03-18:33:54,10.1.1.5,185,-0.290,-0.290,-0.290,0.000,0.000,0.000
1641234834668248064,2022-01-03-18:33:54,10.1.1.5,183,-0.280,-0.280,-0.280,0.000,0.000,0.000
1641234834866484992,2022-01-03-18:33:54,10.1.1.5,181,-0.270,-0.270,-0.270,0.000,0.000,0.000
1641234835069283072,2022-01-03-18:33:55,10.1.1.5,183,-0.260,-0.260,-0.260,0.000,0.000,0.000
1641234835267014144,2022-01-03-18:33:55,10.1.1.5,178,-0.250,-0.250,-0.250,0.000,0.000,0.000
1641234835468988928,2022-01-03-18:33:55,10.1.1.5,176,-0.240,-0.240,-0.240,0.000,0.000,0.000
1641234835665673984,2022-01-03-18:33:55,10.1.1.5,173,-0.230,-0.230,-0.230,0.000,0.000,0.000
1641234835867279104,2022-01-03-18:33:55,10.1.1.5,173,-0.220,-0.220,-0.220,0.000,0.000,0.000
1641234836066027008,2022-01-03-18:33:56,10.1.1.5,171,-0.210,-0.210,-0.210,0.000,0.000,0.000
1641234836265948160,2022-01-03-18:33:56,10.1.1.5,171,-0.200,-0.200,-0.200,0.000,0.000,0.000
1641234836465240832,2022-01-03-18:33:56,10.1.1.5,169,-0.190,-0.190,-0.190,0.000,0.000,0.000
1641234836885531904,2022-01-03-18:33:56,10.1.1.5,185,-0.170,-0.170,-0.170,0.000,0.000,0.000
1641234837085399040,2022-01-03-18:33:57,10.1.1.5,184,-0.160,-0.160,-0.160,0.000,0.000,0.000
1641234837284776960,2022-01-03-18:33:57,10.1.1.5,183,-0.150,-0.150,-0.150,0.000,0.000,0.000
1641234837485182976,2022-01-03-18:33:57,10.1.1.5,183,-0.140,-0.140,-0.140,0.000,0.000,0.000
1641234837684990976,2022-01-03-18:33:57,10.1.1.5,182,-0.130,-0.130,-0.130,0.000,0.000,0.000
1641234837884907008,2022-01-03-18:33:57,10.1.1.5,182,-0.120,-0.120,-0.120,0.000,0.000,0.000
1641234838085916928,2022-01-03-18:33:58,10.1.1.5,182,-0.110,-0.110,-0.110,0.000,0.000,0.000
1641234838283920128,2022-01-03-18:33:58,10.1.1.5,180,-0.100,-0.100,-0.100,0.000,0.000,0.000
1641234838484359936,2022-01-03-18:33:58,10.1.1.5,179,-0.090,-0.090,-0.090,0.000,0.000,0.000
1641234838684453888,2022-01-03-18:33:58,10.1.1.5,177,-0.080,-0.080,-0.080,0.000,0.000,0.000
1641234838895587072,2022-01-03-18:33:58,10.1.1.5,187,-0.070,-0.070,-0.070,0.000,0.000,0.000
1641234839083576064,2022-01-03-18:33:59,10.1.1.5,170,-0.060,-0.060,-0.060,0.000,0.000,0.000
1641234839302812928,2022-01-03-18:33:59,10.1.1.5,183,-0.050,-0.050,-0.050,0.000,0.000,0.000
1641234839503336960,2022-01-03-18:33:59,10.1.1.5,183,-0.040,-0.040,-0.040,0.000,0.000,0.000
1641234839703774976,2022-01-03-18:33:59,10.1.1.5,183,-0.030,-0.030,-0.030,0.000,0.000,0.000
1641234839904328960,2022-01-03-18:33:59,10.1.1.5,183,-0.020,-0.020,-0.020,0.000,0.000,0.000
1641234840117880064,2022-01-03-18:34:00,10.1.1.5,195,-0.010,-0.010,-0.010,0.000,0.000,0.000
1641234840303372032,2022-01-03-18:34:00,10.1.1.5,179,0.000,0.000,0.000,0.000,0.000,0.000
1641234840502868992,2022-01-03-18:34:00,10.1.1.5,178,-0.010,-0.010,-0.010,0.000,0.000,0.000
1641234840701833984,2022-01-03-18:34:00,10.1.1.5,175,-0.020,-0.020,-0.020,0.000,0.000,0.000
1641234840900648960,2022-01-03-18:34:00,10.1.1.5,173,-0.030,-0.030,-0.030,0.000,0.000,0.000
1641234841100967936,2022-01-03-18:34:01,10.1.1.5,172,-0.040,-0.040,-0.040,0.000,0.000,0.000
1641234841300651008,2022-01-03-18:34:01,10.1.1.5,170,-0.050,-0.050,-0.050,0.000,0.000,0.000
1641234841500634880,2022-01-03-18:34:01,10.1.1.5,169,-0.060,-0.060,-0.060,0.000,0.000,0.000
1641234841700218880,2022-01-03-18:34:01,10.1.1.5,167,-0.070,-0.070,-0.070,0.000,0.000,0.000
1641234841900397056,2022-01-03-18:34:01,10.1.1.5,166,-0.080,-0.080,-0.080,0.000,0.000,0.000
1641234842101298176,2022-01-03-18:34:02,10.1.1.5,166,-0.090,-0.090,-0.090,0.000,0.000,0.000
1641234842299448064,2022-01-03-18:34:02,10.1.1.5,164,-0.100,-0.100,-0.100,0.000,0.000,0.000
1641234842510145024,2022-01-03-18:34:02,10.1.1.5,164,-0.110,-0.110,-0.110,0.000,0.000,0.000
1641234842719523840,2022-01-03-18:34:02,10.1.1.5,178,-0.120,-0.120,-0.120,0.000,0.000,0.000
1641234842920758016,2022-01-03-18:34:02,10.1.1.5,179,-0.130,-0.130,-0.130,0.000,0.000,0.000
1641234843120327936,2022-01-03-18:34:03,10.1.1.5,177,-0.140,-0.140,-0.140,0.000,0.000,0.000
1641234843318675968,2022-01-03-18:34:03,10.1.1.5,170,-0.150,-0.150,-0.150,0.000,0.000,0.000
1641234843522718976,2022-01-03-18:34:03,10.1.1.5,174,-0.160,-0.160,-0.160,0.000,0.000,0.000
1641234843720062976,2022-01-03-18:34:03,10.1.1.5,170,-0.170,-0.170,-0.170,0.000,0.000,0.000
1641234843918430208,2022-01-03-18:34:03,10.1.1.5,168,-0.180,-0.180,-0.180,0.000,0.000,0.000
1641234844118972928,2022-01-03-18:34:04,10.1.1.5,167,-0.190,-0.190,-0.190,0.000,0.000,0.000
1641234844317436928,2022-01-03-18:34:04,10.1.1.5,165,-0.200,-0.200,-0.200,0.000,0.000,0.000
1641234844518372096,2022-01-03-18:34:04,10.1.1.5,165,-0.210,-0.210,-0.210,0.000,0.000,0.000
1641234844734863104,2022-01-03-18:34:04,10.1.1.5,181,-0.220,-0.220,-0.220,0.000,0.000,0.000
1641234844917143040,2022-01-03-18:34:04,10.1.1.5,161,-0.230,-0.230,-0.230,0.000,0.000,0.000
1641234845116990208,2022-01-03-18:34:05,10.1.1.5,159,-0.240,-0.240,-0.240,0.000,0.000,0.000
1641234845350089984,2022-01-03-18:34:05,10.1.1.5,191,-0.250,-0.250,-0.250,0.000,0.000,0.000
1641234845541560832,2022-01-03-18:34:05,10.1.1.5,179,-0.260,-0.260,-0.260,0.000,0.000,0.000
1641234845737026816,2022-01-03-18:34:05,10.1.1.5,173,-0.270,-0.270,-0.270,0.000,0.000,0.000
1641234845985409024,2022-01-03-18:34:05,10.1.1.5,187,-0.280,-0.280,-0.280,0.000,0.000,0.000
1641234846156680960,2022-01-03-18:34:06,10.1.1.5,170,-0.290,-0.290,-0.290,0.000,0.000,0.000
1641234846358607104,2022-01-03-18:34:06,10.1.1.5,172,-0.300,-0.300,-0.300,0.000,0.000,0.000
1641234846563144960,2022-01-03-18:34:06,10.1.1.5,175,-0.310,-0.310,-0.310,0.000,0.000,0.000
1641234846771190784,2022-01-03-18:34:06,10.1.1.5,182,-0.320,-0.320,-0.320,0.000,0.000,0.000
1641234846955159040,2022-01-03-18:34:06,10.1.1.5,165,-0.330,-0.330,-0.330,0.000,0.000,0.000
1641234847155685888,2022-01-03-18:34:07,10.1.1.5,165,-0.340,-0.340,-0.340,0.000,0.000,0.000
1641234847354383104,2022-01-03-18:34:07,10.1.1.5,163,-0.350,-0.350,-0.350,0.000,0.000,0.000
1641234847553995008,2022-01-03-18:34:07,10.1.1.5,162,-0.360,-0.360,-0.360,0.000,0.000,0.000
1641234847753911040,2022-01-03-18:34:07,10.1.1.5,161,-0.370,-0.370,-0.370,0.000,0.000,0.000
1641234847953451008,2022-01-03-18:34:07,10.1.1.5,160,-0.380,-0.380,-0.380,0.000,0.000,0.000
1641234848183526144,2022-01-03-18:34:08,10.1.1.5,171,-0.390,-0.390,-0.390,0.000,0.000,0.000
1641234848387492864,2022-01-03-18:34:08,10.1.1.5,182,-0.400,-0.400,-0.400,0.000,0.000,0.000
1641234848572418816,2022-01-03-18:34:08,10.1.1.5,166,-0.410,-0.410,-0.410,0.000,0.000,0.000
1641234848772499968,2022-01-03-18:34:08,10.1.1.5,166,-0.420,-0.420,-0.420,0.000,0.000,0.000
1641234848994426880,2022-01-03-18:34:08,10.1.1.5,171,-0.430,-0.430,-0.430,0.000,0.000,0.000
1641234849192219136,2022-01-03-18:34:09,10.1.1.5,163,-0.440,-0.440,-0.440,0.000,0.000,0.000
1641234849404814080,2022-01-03-18:34:09,10.1.1.5,175,-0.450,-0.450,-0.450,0.000,0.000,0.000
1641234849591432960,2022-01-03-18:34:09,10.1.1.5,155,-0.460,-0.460,-0.460,0.000,0.000,0.000
1641234849790685952,2022-01-03-18:34:09,10.1.1.5,153,-0.470,-0.470,-0.470,0.000,0.000,0.000
1641234849990860032,2022-01-03-18:34:09,10.1.1.5,153,-0.480,-0.480,-0.480,0.000,0.000,0.000
1641234850209990144,2022-01-03-18:34:10,10.1.1.5,171,-0.490,-0.490,-0.490,0.000,0.000,0.000
1641234850409961984,2022-01-03-18:34:10,10.1.1.5,170,-0.480,-0.480,-0.480,0.000,0.000,0.000
1641234850609658880,2022-01-03-18:34:10,10.1.1.5,156,-0.470,-0.470,-0.470,0.000,0.000,0.000
1641234850809420032,2022-01-03-18:34:10,10.1.1.5,156,-0.460,-0.460,-0.460,0.000,0.000,0.000
1641234851009224960,2022-01-03-18:34:11,10.1.1.5,154,-0.450,-0.450,-0.450,0.000,0.000,0.000
1641234851208345856,2022-01-03-18:34:11,10.1.1.5,152,-0.440,-0.440,-0.440,0.000,0.000,0.000
1641234851408713984,2022-01-03-18:34:11,10.1.1.5,151,-0.430,-0.430,-0.430,0.000,0.000,0.000
1641234851634865152,2022-01-03-18:34:11,10.1.1.5,175,-0.420,-0.420,-0.420,0.000,0.000,0.000
1641234851829730048,2022-01-03-18:34:11,10.1.1.5,166,-0.410,-0.410,-0.410,0.000,0.000,0.000
1641234852028507904,2022-01-03-18:34:12,10.1.1.5,164,-0.400,-0.400,-0.400,0.000,0.000,0.000
1641234852227336960,2022-01-03-18:34:12,10.1.1.5,161,-0.390,-0.390,-0.390,0.000,0.000,0.000
1641234852427126016,2022-01-03-18:34:12,10.1.1.5,160,-0.380,-0.380,-0.380,0.000,0.000,0.000
1641234852626557952,2022-01-03-18:34:12,10.1.1.5,158,-0.370,-0.370,-0.370,0.000,0.000,0.000
1641234852834896128,2022-01-03-18:34:12,10.1.1.5,163,-0.360,-0.360,-0.360,0.000,0.000,0.000
1641234853031449088,2022-01-03-18:34:13,10.1.1.5,162,-0.350,-0.350,-0.350,0.000,0.000,0.000
1641234853226859008,2022-01-03-18:34:13,10.1.1.5,157,-0.340,-0.340,-0.340,0.000,0.000,0.000
1641234853427234048,2022-01-03-18:34:13,10.1.1.5,155,-0.330,-0.330,-0.330,0.000,0.000,0.000
1641234853626049024,2022-01-03-18:34:13,10.1.1.5,155,-0.320,-0.320,-0.320,0.000,0.000,0.000
1641234853828913920,2022-01-03-18:34:13,10.1.1.5,150,-0.310,-0.310,-0.310,0.000,0.000,0.000
1641234854038568960,2022-01-03-18:34:14,10.1.1.5,160,-0.300,-0.300,-0.300,0.000,0.000,0.000
1641234854244654848,2022-01-03-18:34:14,10.1.1.5,164,-0.290,-0.290,-0.290,0.000,0.000,0.000
1641234854447126016,2022-01-03-18:34:14,10.1.1.5,166,-0.280,-0.280,-0.280,0.000,0.000,0.000
1641234854644869120,2022-01-03-18:34:14,10.1.1.5,163,-0.270,-0.270,-0.270,0.000,0.000,0.000
1641234854845694976,2022-01-03-18:34:14,10.1.1.5,164,-0.260,-0.260,-0.260,0.000,0.000,0.000
1641234855265337856,2022-01-03-18:34:15,10.1.1.5,152,-0.240,-0.240,-0.240,0.000,0.000,0.000
1641234855463577088,2022-01-03-18:34:15,10.1.1.5,149,-0.230,-0.230,-0.230,0.000,0.000,0.000
1641234855669063936,2022-01-03-18:34:15,10.1.1.5,154,-0.220,-0.220,-0.220,0.000,0.000,0.000
1641234855885132032,2022-01-03-18:34:15,10.1.1.5,160,-0.210,-0.210,-0.210,0.000,0.000,0.000
1641234856102381056,2022-01-03-18:34:16,10.1.1.5,162,-0.200,-0.200,-0.200,0.000,0.000,0.000
1641234856501990144,2022-01-03-18:34:16,10.1.1.5,159,-0.180,-0.180,-0.180,0.000,0.000,0.000
1641234856701028096,2022-01-03-18:34:16,10.1.1.5,157,-0.170,-0.170,-0.170,0.000,0.000,0.000
1641234856902039040,2022-01-03-18:34:16,10.1.1.5,157,-0.160,-0.160,-0.160,0.000,0.000,0.000
1641234857101340928,2022-01-03-18:34:17,10.1.1.5,155,-0.150,-0.150,-0.150,0.000,0.000,0.000
1641234857305286912,2022-01-03-18:34:17,10.1.1.5,159,-0.140,-0.140,-0.140,0.000,0.000,0.000
1641234857507378176,2022-01-03-18:34:17,10.1.1.5,154,-0.130,-0.130,-0.130,0.000,0.000,0.000
1641234857700911104,2022-01-03-18:34:17,10.1.1.5,151,-0.120,-0.120,-0.120,0.000,0.000,0.000
1641234857899708928,2022-01-03-18:34:17,10.1.1.5,150,-0.110,-0.110,-0.110,0.000,0.000,0.000
1641234858101014016,2022-01-03-18:34:18,10.1.1.5,148,-0.100,-0.100,-0.100,0.000,0.000,0.000
1641234858318828032,2022-01-03-18:34:18,10.1.1.5,157,-0.090,-0.090,-0.090,0.000,0.000,0.000
1641234858518893056,2022-01-03-18:34:18,10.1.1.5,152,-0.080,-0.080,-0.080,0.000,0.000,0.000
1641234858717597952,2022-01-03-18:34:18,10.1.1.5,149,-0.070,-0.070,-0.070,0.000,0.000,0.000
1641234858917642240,2022-01-03-18:34:18,10.1.1.5,148,-0.060,-0.060,-0.060,0.000,0.000,0.000
1641234859116452096,2022-01-03-18:34:19,10.1.1.5,146,-0.050,-0.050,-0.050,0.000,0.000,0.000
1641234859317785856,2022-01-03-18:34:19,10.1.1.5,146,-0.040,-0.040,-0.040,0.000,0.000,0.000
1641234859516276992,2022-01-03-18:34:19,10.1.1.5,144,-0.030,-0.030,-0.030,0.000,0.000,0.000
1641234859725413120,2022-01-03-18:34:19,10.1.1.5,153,-0.020,-0.020,-0.020,0.000,0.000,0.000
1641234859917051904,2022-01-03-18:34:19,10.1.1.5,143,-0.010,-0.010,-0.010,0.000,0.000,0.000
1641234860120406016,2022-01-03-18:34:20,10.1.1.5,146,0.000,0.000,0.000,0.000,0.000,0.000
1641234860316530944,2022-01-03-18:34:20,10.1.1.5,141,-0.010,-0.010,-0.010,0.000,0.000,0.000
1641234860516397056,2022-01-03-18:34:20,10.1.1.5,139,-0.020,-0.020,-0.020,0.000,0.000,0.000
1641234860718530816,2022-01-03-18:34:20,10.1.1.5,141,-0.030,-0.030,-0.030,0.000,0.000,0.000
1641234860935525888,2022-01-03-18:34:20,10.1.1.5,157,-0.040,-0.040,-0.040,0.000,0.000,0.000
1641234861136068096,2022-01-03-18:34:21,10.1.1.5,157,-0.050,-0.050,-0.050,0.000,0.000,0.000
1641234861336619008,2022-01-03-18:34:21,10.1.1.5,157,-0.060,-0.060,-0.060,0.000,0.000,0.000
1641234861534460928,2022-01-03-18:34:21,10.1.1.5,154,-0.070,-0.070,-0.070,0.000,0.000,0.000
1641234861733537024,2022-01-03-18:34:21,10.1.1.5,153,-0.080,-0.080,-0.080,0.000,0.000,0.000
1641234861946584064,2022-01-03-18:34:21,10.1.1.5,165,-0.090,-0.090,-0.090,0.000,0.000,0.000
1641234862134514944,2022-01-03-18:34:22,10.1.1.5,147,-0.100,-0.100,-0.100,0.000,0.000,0.000
1641234862334324992,2022-01-03-18:34:22,10.1.1.5,140,-0.110,-0.110,-0.110,0.000,0.000,0.000
1641234862538803968,2022-01-03-18:34:22,10.1.1.5,143,-0.120,-0.120,-0.120,0.000,0.000,0.000
1641234862733843200,2022-01-03-18:34:22,10.1.1.5,135,-0.130,-0.130,-0.130,0.000,0.000,0.000
1641234862951574016,2022-01-03-18:34:22,10.1.1.5,152,-0.140,-0.140,-0.140,0.000,0.000,0.000
1641234863151119104,2022-01-03-18:34:23,10.1.1.5,149,-0.150,-0.150,-0.150,0.000,0.000,0.000
1641234863350536960,2022-01-03-18:34:23,10.1.1.5,144,-0.160,-0.160,-0.160,0.000,0.000,0.000
1641234863550013184,2022-01-03-18:34:23,10.1.1.5,143,-0.170,-0.170,-0.170,0.000,0.000,0.000
1641234863749880064,2022-01-03-18:34:23,10.1.1.5,142,-0.180,-0.180,-0.180,0.000,0.000,0.000
1641234863949344000,2022-01-03-18:34:23,10.1.1.5,141,-0.190,-0.190,-0.190,0.000,0.000,0.000
1641234864150455040,2022-01-03-18:34:24,10.1.1.5,142,-0.200,-0.200,-0.200,0.000,0.000,0.000
1641234864350014976,2022-01-03-18:34:24,10.1.1.5,137,-0.210,-0.210,-0.210,0.000,0.000,0.000
1641234864548518912,2022-01-03-18:34:24,10.1.1.5,135,-0.220,-0.220,-0.220,0.000,0.000,0.000
1641234864756894976,2022-01-03-18:34:24,10.1.1.5,142,-0.230,-0.230,-0.230,0.000,0.000,0.000
1641234865017916928,2022-01-03-18:34:25,10.1.1.5,181,-0.240,-0.240,-0.240,0.000,0.000,0.000
1641234865167904000,2022-01-03-18:34:25,10.1.1.5,130,-0.250,-0.250,-0.250,0.000,0.000,0.000
1641234865434003200,2022-01-03-18:34:25,10.1.1.5,178,-0.260,-0.260,-0.260,0.000,0.000,0.000
1641234865635174144,2022-01-03-18:34:25,10.1.1.5,156,-0.270,-0.270,-0.270,0.000,0.000,0.000
1641234865830651136,2022-01-03-18:34:25,10.1.1.5,151,-0.280,-0.280,-0.280,0.000,0.000,0.000
1641234866027236096,2022-01-03-18:34:26,10.1.1.5,144,-0.290,-0.290,-0.290,0.000,0.000,0.000
1641234866230333952,2022-01-03-18:34:26,10.1.1.5,147,-0.300,-0.300,-0.300,0.000,0.000,0.000
1641234866625775104,2022-01-03-18:34:26,10.1.1.5,136,-0.320,-0.320,-0.320,0.000,0.000,0.000
1641234866844988160,2022-01-03-18:34:26,10.1.1.5,133,-0.330,-0.330,-0.330,0.000,0.000,0.000
1641234867048888064,2022-01-03-18:34:27,10.1.1.5,132,-0.340,-0.340,-0.340,0.000,0.000,0.000
1641234867250401024,2022-01-03-18:34:27,10.1.1.5,136,-0.350,-0.350,-0.350,0.000,0.000,0.000
1641234867445103872,2022-01-03-18:34:27,10.1.1.5,130,-0.360,-0.360,-0.360,0.000,0.000,0.000
1641234867653782016,2022-01-03-18:34:27,10.1.1.5,139,-0.370,-0.370,-0.370,0.000,0.000,0.000
1641234867845405952,2022-01-03-18:34:27,10.1.1.5,129,-0.380,-0.380,-0.380,0.000,0.000,0.000
1641234868044924928,2022-01-03-18:34:28,10.1.1.5,127,-0.390,-0.390,-0.390,0.000,0.000,0.000
1641234868262497024,2022-01-03-18:34:28,10.1.1.5,144,-0.400,-0.400,-0.400,0.000,0.000,0.000
1641234868462162944,2022-01-03-18:34:28,10.1.1.5,143,-0.410,-0.410,-0.410,0.000,0.000,0.000
1641234868664241920,2022-01-03-18:34:28,10.1.1.5,143,-0.420,-0.420,-0.420,0.000,0.000,0.000
1641234868862683904,2022-01-03-18:34:28,10.1.1.5,129,-0.430,-0.430,-0.430,0.000,0.000,0.000
1641234869101541888,2022-01-03-18:34:29,10.1.1.5,133,-0.440,-0.440,-0.440,0.000,0.000,0.000
1641234869301712896,2022-01-03-18:34:29,10.1.1.5,132,-0.450,-0.450,-0.450,0.000,0.000,0.000
1641234869510065152,2022-01-03-18:34:29,10.1.1.5,140,-0.460,-0.460,-0.460,0.000,0.000,0.000
1641234869702137088,2022-01-03-18:34:29,10.1.1.5,131,-0.470,-0.470,-0.470,0.000,0.000,0.000
1641234869939964928,2022-01-03-18:34:29,10.1.1.5,134,-0.480,-0.480,-0.480,0.000,0.000,0.000
1641234870139543040,2022-01-03-18:34:30,10.1.1.5,133,-0.490,-0.490,-0.490,0.000,0.000,0.000
1641234870339550976,2022-01-03-18:34:30,10.1.1.5,132,-0.480,-0.480,-0.480,0.000,0.000,0.000
1641234870539376128,2022-01-03-18:34:30,10.1.1.5,131,-0.470,-0.470,-0.470,0.000,0.000,0.000
1641234870738522880,2022-01-03-18:34:30,10.1.1.5,130,-0.460,-0.460,-0.460,0.000,0.000,0.000
1641234870960592896,2022-01-03-18:34:30,10.1.1.5,148,-0.450,-0.450,-0.450,0.000,0.000,0.000
1641234871138693120,2022-01-03-18:34:31,10.1.1.5,122,-0.440,-0.440,-0.440,0.000,0.000,0.000
1641234871360306944,2022-01-03-18:34:31,10.1.1.5,141,-0.430,-0.430,-0.430,0.000,0.000,0.000
1641234871561542912,2022-01-03-18:34:31,10.1.1.5,142,-0.420,-0.420,-0.420,0.000,0.000,0.000
1641234871781785088,2022-01-03-18:34:31,10.1.1.5,160,-0.410,-0.410,-0.410,0.000,0.000,0.000
1641234871998095872,2022-01-03-18:34:31,10.1.1.5,127,-0.400,-0.400,-0.400,0.000,0.000,0.000
1641234872218704896,2022-01-03-18:34:32,10.1.1.5,126,-0.390,-0.390,-0.390,0.000,0.000,0.000
1641234872417473024,2022-01-03-18:34:32,10.1.1.5,122,-0.380,-0.380,-0.380,0.000,0.000,0.000
1641234872637517824,2022-01-03-18:34:32,10.1.1.5,138,-0.370,-0.370,-0.370,0.000,0.000,0.000
1641234872835772928,2022-01-03-18:34:32,10.1.1.5,135,-0.360,-0.360,-0.360,0.000,0.000,0.000
1641234873036940032,2022-01-03-18:34:33,10.1.1.5,135,-0.350,-0.350,-0.350,0.000,0.000,0.000
1641234873261677056,2022-01-03-18:34:33,10.1.1.5,158,-0.340,-0.340,-0.340,0.000,0.000,0.000
1641234873435235072,2022-01-03-18:34:33,10.1.1.5,116,-0.330,-0.330,-0.330,0.000,0.000,0.000
1641234873655555840,2022-01-03-18:34:33,10.1.1.5,131,-0.320,-0.320,-0.320,0.000,0.000,0.000
1641234873853536000,2022-01-03-18:34:33,10.1.1.5,128,-0.310,-0.310,-0.310,0.000,0.000,0.000
1641234874073498880,2022-01-03-18:34:34,10.1.1.5,141,-0.300,-0.300,-0.300,0.000,0.000,0.000
1641234874280848128,2022-01-03-18:34:34,10.1.1.5,146,-0.290,-0.290,-0.290,0.000,0.000,0.000
1641234874509593088,2022-01-03-18:34:34,10.1.1.5,174,-0.280,-0.280,-0.280,0.000,0.000,0.000
1641234874673750016,2022-01-03-18:34:34,10.1.1.5,133,-0.270,-0.270,-0.270,0.000,0.000,0.000
1641234874871727104,2022-01-03-18:34:34,10.1.1.5,130,-0.260,-0.260,-0.260,0.000,0.000,0.000
1641234875071304192,2022-01-03-18:34:35,10.1.1.5,129,-0.250,-0.250,-0.250,0.000,0.000,0.000
1641234875270942976,2022-01-03-18:34:35,10.1.1.5,127,-0.240,-0.240,-0.240,0.000,0.000,0.000
1641234875471955968,2022-01-03-18:34:35,10.1.1.5,126,-0.230,-0.230,-0.230,0.000,0.000,0.000
1641234875670777088,2022-01-03-18:34:35,10.1.1.5,124,-0.220,-0.220,-0.220,0.000,0.000,0.000
1641234875870883840,2022-01-03-18:34:35,10.1.1.5,120,-0.210,-0.210,-0.210,0.000,0.000,0.000
1641234876070481152,2022-01-03-18:34:36,10.1.1.5,118,-0.200,-0.200,-0.200,0.000,0.000,0.000
1641234876272023040,2022-01-03-18:34:36,10.1.1.5,117,-0.190,-0.190,-0.190,0.000,0.000,0.000
1641234876469511936,2022-01-03-18:34:36,10.1.1.5,114,-0.180,-0.180,-0.180,0.000,0.000,0.000
1641234876706554880,2022-01-03-18:34:36,10.1.1.5,114,-0.170,-0.170,-0.170,0.000,0.000,0.000
1641234876889727232,2022-01-03-18:34:36,10.1.1.5,131,-0.160,-0.160,-0.160,0.000,0.000,0.000
1641234877090086912,2022-01-03-18:34:37,10.1.1.5,128,-0.150,-0.150,-0.150,0.000,0.000,0.000
1641234877288261888,2022-01-03-18:34:37,10.1.1.5,124,-0.140,-0.140,-0.140,0.000,0.000,0.000
1641234877492686080,2022-01-03-18:34:37,10.1.1.5,127,-0.130,-0.130,-0.130,0.000,0.000,0.000
1641234877568787968,2022-01-03-18:34:37,10.1.1.5,-1,-0.130,-0.130,-0.130,0.000,0.000,0.000
1641234877889577984,2022-01-03-18:34:37,10.1.1.5,117,-0.110,-0.110,-0.110,0.000,0.000,0.000
1641234878106960128,2022-01-03-18:34:38,10.1.1.5,113,-0.100,-0.100,-0.100,0.000,0.000,0.000
1641234878326013952,2022-01-03-18:34:38,10.1.1.5,128,-0.090,-0.090,-0.090,0.000,0.000,0.000
1641234878531642880,2022-01-03-18:34:38,10.1.1.5,128,-0.080,-0.080,-0.080,0.000,0.000,0.000
1641234878725332992,2022-01-03-18:34:38,10.1.1.5,113,-0.070,-0.070,-0.070,0.000,0.000,0.000
1641234878929178112,2022-01-03-18:34:38,10.1.1.5,116,-0.060,-0.060,-0.060,0.000,0.000,0.000
1641234879135233024,2022-01-03-18:34:39,10.1.1.5,120,-0.050,-0.050,-0.050,0.000,0.000,0.000
1641234879330755840,2022-01-03-18:34:39,10.1.1.5,114,-0.040,-0.040,-0.040,0.000,0.000,0.000
1641234879545597184,2022-01-03-18:34:39,10.1.1.5,127,-0.030,-0.030,-0.030,0.000,0.000,0.000
1641234879746804992,2022-01-03-18:34:39,10.1.1.5,127,-0.020,-0.020,-0.020,0.000,0.000,0.000
1641234879945678848,2022-01-03-18:34:39,10.1.1.5,125,-0.010,-0.010,-0.010,0.000,0.000,0.000
1641234880161164032,2022-01-03-18:34:40,10.1.1.5,139,0.000,0.000,0.000,0.000,0.000,0.000
1641234880353380864,2022-01-03-18:34:40,10.1.1.5,127,-0.010,-0.010,-0.010,0.000,0.000,0.000
1641234880543830016,2022-01-03-18:34:40,10.1.1.5,116,-0.020,-0.020,-0.020,0.000,0.000,0.000
1641234880747549952,2022-01-03-18:34:40,10.1.1.5,119,-0.030,-0.030,-0.030,0.000,0.000,0.000
1641234880961868032,2022-01-03-18:34:40,10.1.1.5,114,-0.040,-0.040,-0.040,0.000,0.000,0.000
1641234881196228096,2022-01-03-18:34:41,10.1.1.5,147,-0.050,-0.050,-0.050,0.000,0.000,0.000
1641234881264480000,2022-01-03-18:34:41,10.1.1.5,-14,-0.050,-0.050,-0.050,0.000,0.000,0.000
1641234881582083072,2022-01-03-18:34:41,10.1.1.5,124,-0.070,-0.070,-0.070,0.000,0.000,0.000
1641234881780969984,2022-01-03-18:34:41,10.1.1.5,122,-0.080,-0.080,-0.080,0.000,0.000,0.000
1641234881979710208,2022-01-03-18:34:41,10.1.1.5,120,-0.090,-0.090,-0.090,0.000,0.000,0.000
1641234882180049920,2022-01-03-18:34:42,10.1.1.5,118,-0.100,-0.100,-0.100,0.000,0.000,0.000
1641234882380774912,2022-01-03-18:34:42,10.1.1.5,118,-0.110,-0.110,-0.110,0.000,0.000,0.000
1641234882585997056,2022-01-03-18:34:42,10.1.1.5,122,-0.120,-0.120,-0.120,0.000,0.000,0.000
1641234882778884864,2022-01-03-18:34:42,10.1.1.5,114,-0.130,-0.130,-0.130,0.000,0.000,0.000
1641234883017592832,2022-01-03-18:34:42,10.1.1.5,128,-0.140,-0.140,-0.140,0.000,0.000,0.000
1641234883195176960,2022-01-03-18:34:43,10.1.1.5,129,-0.150,-0.150,-0.150,0.000,0.000,0.000
1641234883378284032,2022-01-03-18:34:43,10.1.1.5,112,-0.160,-0.160,-0.160,0.000,0.000,0.000
1641234883577336064,2022-01-03-18:34:43,10.1.1.5,107,-0.170,-0.170,-0.170,0.000,0.000,0.000
1641234883778652928,2022-01-03-18:34:43,10.1.1.5,107,-0.180,-0.180,-0.180,0.000,0.000,0.000
1641234883977698048,2022-01-03-18:34:43,10.1.1.5,105,-0.190,-0.190,-0.190,0.000,0.000,0.000
1641234884178201088,2022-01-03-18:34:44,10.1.1.5,106,-0.200,-0.200,-0.200,0.000,0.000,0.000
1641234884379121152,2022-01-03-18:34:44,10.1.1.5,106,-0.210,-0.210,-0.210,0.000,0.000,0.000
1641234884629686016,2022-01-03-18:34:44,10.1.1.5,155,-0.220,-0.220,-0.220,0.000,0.000,0.000
1641234884782861824,2022-01-03-18:34:44,10.1.1.5,107,-0.230,-0.230,-0.230,0.000,0.000,0.000
1641234884982855936,2022-01-03-18:34:44,10.1.1.5,106,-0.240,-0.240,-0.240,0.000,0.000,0.000
1641234885204091904,2022-01-03-18:34:45,10.1.1.5,126,-0.250,-0.250,-0.250,0.000,0.000,0.000
1641234885406383872,2022-01-03-18:34:45,10.1.1.5,127,-0.260,-0.260,-0.260,0.000,0.000,0.000
1641234885585206016,2022-01-03-18:34:45,10.1.1.5,106,-0.270,-0.270,-0.270,0.000,0.000,0.000
1641234885806502144,2022-01-03-18:34:45,10.1.1.5,125,-0.280,-0.280,-0.280,0.000,0.000,0.000
1641234886006999040,2022-01-03-18:34:46,10.1.1.5,125,-0.290,-0.290,-0.290,0.000,0.000,0.000
1641234886208691968,2022-01-03-18:34:46,10.1.1.5,126,-0.300,-0.300,-0.300,0.000,0.000,0.000
1641234886408935168,2022-01-03-18:34:46,10.1.1.5,126,-0.310,-0.310,-0.310,0.000,0.000,0.000
1641234886610647808,2022-01-03-18:34:46,10.1.1.5,127,-0.320,-0.320,-0.320,0.000,0.000,0.000
1641234886818733056,2022-01-03-18:34:46,10.1.1.5,135,-0.330,-0.330,-0.330,0.000,0.000,0.000
1641234887011884800,2022-01-03-18:34:47,10.1.1.5,127,-0.340,-0.340,-0.340,0.000,0.000,0.000
1641234887213593088,2022-01-03-18:34:47,10.1.1.5,128,-0.350,-0.350,-0.350,0.000,0.000,0.000
1641234887413060864,2022-01-03-18:34:47,10.1.1.5,126,-0.360,-0.360,-0.360,0.000,0.000,0.000
1641234887613615872,2022-01-03-18:34:47,10.1.1.5,117,-0.370,-0.370,-0.370,0.000,0.000,0.000
1641234887835309056,2022-01-03-18:34:47,10.1.1.5,135,-0.380,-0.380,-0.380,0.000,0.000,0.000
1641234888043396864,2022-01-03-18:34:48,10.1.1.5,143,-0.390,-0.390,-0.390,0.000,0.000,0.000
1641234888237864960,2022-01-03-18:34:48,10.1.1.5,136,-0.400,-0.400,-0.400,0.000,0.000,0.000
1641234888442004992,2022-01-03-18:34:48,10.1.1.5,140,-0.410,-0.410,-0.410,0.000,0.000,0.000
1641234888638625024,2022-01-03-18:34:48,10.1.1.5,135,-0.420,-0.420,-0.420,0.000,0.000,0.000
1641234888839983104,2022-01-03-18:34:48,10.1.1.5,136,-0.430,-0.430,-0.430,0.000,0.000,0.000
1641234889045687040,2022-01-03-18:34:49,10.1.1.5,141,-0.440,-0.440,-0.440,0.000,0.000,0.000
1641234889242124032,2022-01-03-18:34:49,10.1.1.5,134,-0.450,-0.450,-0.450,0.000,0.000,0.000
1641234889460401920,2022-01-03-18:34:49,10.1.1.5,140,-0.460,-0.460,-0.460,0.000,0.000,0.000
1641234889668916992,2022-01-03-18:34:49,10.1.1.5,148,-0.470,-0.470,-0.470,0.000,0.000,0.000
1641234889879792896,2022-01-03-18:34:49,10.1.1.5,153,-0.480,-0.480,-0.480,0.000,0.000,0.000
1641234890067418112,2022-01-03-18:34:50,10.1.1.5,135,-0.490,-0.490,-0.490,0.000,0.000,0.000
1641234890271009024,2022-01-03-18:34:50,10.1.1.5,138,-0.480,-0.480,-0.480,0.000,0.000,0.000
1641234890465238016,2022-01-03-18:34:50,10.1.1.5,134,-0.470,-0.470,-0.470,0.000,0.000,0.000
1641234890664558848,2022-01-03-18:34:50,10.1.1.5,133,-0.460,-0.460,-0.460,0.000,0.000,0.000
1641234890864909056,2022-01-03-18:34:50,10.1.1.5,132,-0.450,-0.450,-0.450,0.000,0.000,0.000
1641234891065466880,2022-01-03-18:34:51,10.1.1.5,132,-0.440,-0.440,-0.440,0.000,0.000,0.000
1641234891277313024,2022-01-03-18:34:51,10.1.1.5,137,-0.430,-0.430,-0.430,0.000,0.000,0.000
1641234891467379200,2022-01-03-18:34:51,10.1.1.5,132,-0.420,-0.420,-0.420,0.000,0.000,0.000
1641234891667416064,2022-01-03-18:34:51,10.1.1.5,131,-0.410,-0.410,-0.410,0.000,0.000,0.000
1641234891867623936,2022-01-03-18:34:51,10.1.1.5,131,-0.400,-0.400,-0.400,0.000,0.000,0.000
1641234892092550144,2022-01-03-18:34:52,10.1.1.5,151,-0.390,-0.390,-0.390,0.000,0.000,0.000
1641234892289206016,2022-01-03-18:34:52,10.1.1.5,142,-0.380,-0.380,-0.380,0.000,0.000,0.000
1641234892522787072,2022-01-03-18:34:52,10.1.1.5,175,-0.370,-0.370,-0.370,0.000,0.000,0.000
1641234892690589952,2022-01-03-18:34:52,10.1.1.5,142,-0.360,-0.360,-0.360,0.000,0.000,0.000
1641234892890630912,2022-01-03-18:34:52,10.1.1.5,141,-0.350,-0.350,-0.350,0.000,0.000,0.000
1641234893090871040,2022-01-03-18:34:53,10.1.1.5,139,-0.340,-0.340,-0.340,0.000,0.000,0.000
1641234893291127808,2022-01-03-18:34:53,10.1.1.5,138,-0.330,-0.330,-0.330,0.000,0.000,0.000
1641234893494025984,2022-01-03-18:34:53,10.1.1.5,140,-0.320,-0.320,-0.320,0.000,0.000,0.000
1641234893697485824,2022-01-03-18:34:53,10.1.1.5,143,-0.310,-0.310,-0.310,0.000,0.000,0.000
1641234893892349952,2022-01-03-18:34:53,10.1.1.5,137,-0.300,-0.300,-0.300,0.000,0.000,0.000
1641234894094327040,2022-01-03-18:34:54,10.1.1.5,137,-0.290,-0.290,-0.290,0.000,0.000,0.000
1641234894298190080,2022-01-03-18:34:54,10.1.1.5,140,-0.280,-0.280,-0.280,0.000,0.000,0.000
1641234894514225920,2022-01-03-18:34:54,10.1.1.5,156,-0.270,-0.270,-0.270,0.000,0.000,0.000
1641234894720916992,2022-01-03-18:34:54,10.1.1.5,156,-0.260,-0.260,-0.260,0.000,0.000,0.000
1641234894915165952,2022-01-03-18:34:54,10.1.1.5,155,-0.250,-0.250,-0.250,0.000,0.000,0.000
1641234895114369024,2022-01-03-18:34:55,10.1.1.5,154,-0.240,-0.240,-0.240,0.000,0.000,0.000
1641234895315136000,2022-01-03-18:34:55,10.1.1.5,154,-0.230,-0.230,-0.230,0.000,0.000,0.000
1641234895515072000,2022-01-03-18:34:55,10.1.1.5,154,-0.220,-0.220,-0.220,0.000,0.000,0.000
1641234895715357952,2022-01-03-18:34:55,10.1.1.5,153,-0.210,-0.210,-0.210,0.000,0.000,0.000
1641234895940960768,2022-01-03-18:34:55,10.1.1.5,177,-0.200,-0.200,-0.200,0.000,0.000,0.000
1641234896160487936,2022-01-03-18:34:56,10.1.1.5,146,-0.190,-0.190,-0.190,0.000,0.000,0.000
1641234896366790144,2022-01-03-18:34:56,10.1.1.5,152,-0.180,-0.180,-0.180,0.000,0.000,0.000
1641234896570857984,2022-01-03-18:34:56,10.1.1.5,155,-0.170,-0.170,-0.170,0.000,0.000,0.000
1641234896757849088,2022-01-03-18:34:56,10.1.1.5,141,-0.160,-0.160,-0.160,0.000,0.000,0.000
1641234896957508096,2022-01-03-18:34:56,10.1.1.5,140,-0.150,-0.150,-0.150,0.000,0.000,0.000
1641234897178533120,2022-01-03-18:34:57,10.1.1.5,160,-0.140,-0.140,-0.140,0.000,0.000,0.000
1641234897386497024,2022-01-03-18:34:57,10.1.1.5,166,-0.130,-0.130,-0.130,0.000,0.000,0.000
1641234897581800960,2022-01-03-18:34:57,10.1.1.5,161,-0.120,-0.120,-0.120,0.000,0.000,0.000
1641234897784220928,2022-01-03-18:34:57,10.1.1.5,163,-0.110,-0.110,-0.110,0.000,0.000,0.000
1641234897983942912,2022-01-03-18:34:57,10.1.1.5,161,-0.100,-0.100,-0.100,0.000,0.000,0.000
1641234898196856064,2022-01-03-18:34:58,10.1.1.5,173,-0.090,-0.090,-0.090,0.000,0.000,0.000
1641234898387279104,2022-01-03-18:34:58,10.1.1.5,158,-0.080,-0.080,-0.080,0.000,0.000,0.000
1641234898581691136,2022-01-03-18:34:58,10.1.1.5,153,-0.070,-0.070,-0.070,0.000,0.000,0.000
1641234898785528064,2022-01-03-18:34:58,10.1.1.5,156,-0.060,-0.060,-0.060,0.000,0.000,0.000
1641234898984563200,2022-01-03-18:34:58,10.1.1.5,151,-0.050,-0.050,-0.050,0.000,0.000,0.000
1641234899202502912,2022-01-03-18:34:59,10.1.1.5,148,-0.040,-0.040,-0.040,0.000,0.000,0.000
1641234899400748032,2022-01-03-18:34:59,10.1.1.5,145,-0.030,-0.030,-0.030,0.000,0.000,0.000
1641234899610276096,2022-01-03-18:34:59,10.1.1.5,154,-0.020,-0.020,-0.020,0.000,0.000,0.000
1641234899805541888,2022-01-03-18:34:59,10.1.1.5,148,-0.010,-0.010,-0.010,0.000,0.000,0.000
1641234900005657856,2022-01-03-18:35:00,10.1.1.5,148,-0.000,-0.000,-0.000,0.000,0.000,0.000
1641234900230534912,2022-01-03-18:35:00,10.1.1.5,169,-0.010,-0.010,-0.010,0.000,0.000,0.000
1641234900425932800,2022-01-03-18:35:00,10.1.1.5,167,-0.020,-0.020,-0.020,0.000,0.000,0.000
1641234900823819008,2022-01-03-18:35:00,10.1.1.5,162,-0.040,-0.040,-0.040,0.000,0.000,0.000
1641234901022543872,2022-01-03-18:35:01,10.1.1.5,152,-0.050,-0.050,-0.050,0.000,0.000,0.000
1641234901222353920,2022-01-03-18:35:01,10.1.1.5,151,-0.060,-0.060,-0.060,0.000,0.000,0.000
1641234901438273792,2022-01-03-18:35:01,10.1.1.5,166,-0.070,-0.070,-0.070,0.000,0.000,0.000
1641234901621870080,2022-01-03-18:35:01,10.1.1.5,149,-0.080,-0.080,-0.080,0.000,0.000,0.000
1641234901824866048,2022-01-03-18:35:01,10.1.1.5,148,-0.090,-0.090,-0.090,0.000,0.000,0.000
1641234902022708992,2022-01-03-18:35:02,10.1.1.5,146,-0.100,-0.100,-0.100,0.000,0.000,0.000
1641234902242228992,2022-01-03-18:35:02,10.1.1.5,164,-0.110,-0.110,-0.110,0.000,0.000,0.000
1641234902442738176,2022-01-03-18:35:02,10.1.1.5,163,-0.120,-0.120,-0.120,0.000,0.000,0.000
1641234902642873088,2022-01-03-18:35:02,10.1.1.5,161,-0.130,-0.130,-0.130,0.000,0.000,0.000
1641234902878904064,2022-01-03-18:35:02,10.1.1.5,195,-0.140,-0.140,-0.140,0.000,0.000,0.000
1641234903063544064,2022-01-03-18:35:03,10.1.1.5,157,-0.150,-0.150,-0.150,0.000,0.000,0.000
1641234903263183104,2022-01-03-18:35:03,10.1.1.5,150,-0.160,-0.160,-0.160,0.000,0.000,0.000
1641234903463921152,2022-01-03-18:35:03,10.1.1.5,150,-0.170,-0.170,-0.170,0.000,0.000,0.000
1641234903664032000,2022-01-03-18:35:03,10.1.1.5,148,-0.180,-0.180,-0.180,0.000,0.000,0.000
1641234903865884928,2022-01-03-18:35:03,10.1.1.5,149,-0.190,-0.190,-0.190,0.000,0.000,0.000
1641234904094391040,2022-01-03-18:35:04,10.1.1.5,165,-0.200,-0.200,-0.200,0.000,0.000,0.000
1641234904344311040,2022-01-03-18:35:04,10.1.1.5,151,-0.210,-0.210,-0.210,0.000,0.000,0.000
1641234904545252096,2022-01-03-18:35:04,10.1.1.5,151,-0.220,-0.220,-0.220,0.000,0.000,0.000
1641234904743346944,2022-01-03-18:35:04,10.1.1.5,148,-0.230,-0.230,-0.230,0.000,0.000,0.000
1641234904943777024,2022-01-03-18:35:04,10.1.1.5,148,-0.240,-0.240,-0.240,0.000,0.000,0.000
1641234905368598016,2022-01-03-18:35:05,10.1.1.5,166,-0.260,-0.260,-0.260,0.000,0.000,0.000
1641234905568999936,2022-01-03-18:35:05,10.1.1.5,156,-0.270,-0.270,-0.270,0.000,0.000,0.000
1641234905778001152,2022-01-03-18:35:05,10.1.1.5,164,-0.280,-0.280,-0.280,0.000,0.000,0.000
1641234905995100928,2022-01-03-18:35:05,10.1.1.5,176,-0.290,-0.290,-0.290,0.000,0.000,0.000
1641234906185319936,2022-01-03-18:35:06,10.1.1.5,157,-0.300,-0.300,-0.300,0.000,0.000,0.000
1641234906383528960,2022-01-03-18:35:06,10.1.1.5,149,-0.310,-0.310,-0.310,0.000,0.000,0.000
1641234906583350784,2022-01-03-18:35:06,10.1.1.5,145,-0.320,-0.320,-0.320,0.000,0.000,0.000
1641234906803422976,2022-01-03-18:35:06,10.1.1.5,164,-0.330,-0.330,-0.330,0.000,0.000,0.000
1641234907003474944,2022-01-03-18:35:07,10.1.1.5,163,-0.340,-0.340,-0.340,0.000,0.000,0.000
1641234907204024064,2022-01-03-18:35:07,10.1.1.5,162,-0.350,-0.350,-0.350,0.000,0.000,0.000
1641234907414433024,2022-01-03-18:35:07,10.1.1.5,171,-0.360,-0.360,-0.360,0.000,0.000,0.000
1641234907642971904,2022-01-03-18:35:07,10.1.1.5,158,-0.370,-0.370,-0.370,0.000,0.000,0.000
1641234907844120064,2022-01-03-18:35:07,10.1.1.5,153,-0.380,-0.380,-0.380,0.000,0.000,0.000
1641234908045671936,2022-01-03-18:35:08,10.1.1.5,153,-0.390,-0.390,-0.390,0.000,0.000,0.000
1641234908252311040,2022-01-03-18:35:08,10.1.1.5,157,-0.400,-0.400,-0.400,0.000,0.000,0.000
1641234908443502848,2022-01-03-18:35:08,10.1.1.5,146,-0.410,-0.410,-0.410,0.000,0.000,0.000
1641234908693070848,2022-01-03-18:35:08,10.1.1.5,183,-0.420,-0.420,-0.420,0.000,0.000,0.000
1641234908863442944,2022-01-03-18:35:08,10.1.1.5,163,-0.430,-0.430,-0.430,0.000,0.000,0.000
1641234909064914944,2022-01-03-18:35:09,10.1.1.5,163,-0.440,-0.440,-0.440,0.000,0.000,0.000
1641234909263107072,2022-01-03-18:35:09,10.1.1.5,159,-0.450,-0.450,-0.450,0.000,0.000,0.000
1641234909463650048,2022-01-03-18:35:09,10.1.1.5,159,-0.460,-0.460,-0.460,0.000,0.000,0.000
1641234909669172992,2022-01-03-18:35:09,10.1.1.5,163,-0.470,-0.470,-0.470,0.000,0.000,0.000
1641234909863122944,2022-01-03-18:35:09,10.1.1.5,156,-0.480,-0.480,-0.480,0.000,0.000,0.000
1641234910070070016,2022-01-03-18:35:10,10.1.1.5,162,-0.490,-0.490,-0.490,0.000,0.000,0.000
1641234910266656000,2022-01-03-18:35:10,10.1.1.5,155,-0.480,-0.480,-0.480,0.000,0.000,0.000
1641234910484679936,2022-01-03-18:35:10,10.1.1.5,151,-0.470,-0.470,-0.470,0.000,0.000,0.000
1641234910702925056,2022-01-03-18:35:10,10.1.1.5,154,-0.460,-0.460,-0.460,0.000,0.000,0.000
1641234910919348992,2022-01-03-18:35:10,10.1.1.5,169,-0.450,-0.450,-0.450,0.000,0.000,0.000
1641234911108688128,2022-01-03-18:35:11,10.1.1.5,157,-0.440,-0.440,-0.440,0.000,0.000,0.000
1641234911302938112,2022-01-03-18:35:11,10.1.1.5,148,-0.430,-0.430,-0.430,0.000,0.000,0.000
1641234911502490112,2022-01-03-18:35:11,10.1.1.5,146,-0.420,-0.420,-0.420,0.000,0.000,0.000
1641234911703852800,2022-01-03-18:35:11,10.1.1.5,146,-0.410,-0.410,-0.410,0.000,0.000,0.000
1641234911902412800,2022-01-03-18:35:11,10.1.1.5,144,-0.400,-0.400,-0.400,0.000,0.000,0.000
1641234912121998080,2022-01-03-18:35:12,10.1.1.5,163,-0.390,-0.390,-0.390,0.000,0.000,0.000
1641234912321521152,2022-01-03-18:35:12,10.1.1.5,162,-0.380,-0.380,-0.380,0.000,0.000,0.000
1641234912521526016,2022-01-03-18:35:12,10.1.1.5,160,-0.370,-0.370,-0.370,0.000,0.000,0.000
1641234912721285120,2022-01-03-18:35:12,10.1.1.5,158,-0.360,-0.360,-0.360,0.000,0.000,0.000
1641234912921188096,2022-01-03-18:35:12,10.1.1.5,157,-0.350,-0.350,-0.350,0.000,0.000,0.000
1641234913149614080,2022-01-03-18:35:13,10.1.1.5,184,-0.340,-0.340,-0.340,0.000,0.000,0.000
1641234913321542912,2022-01-03-18:35:13,10.1.1.5,155,-0.330,-0.330,-0.330,0.000,0.000,0.000
1641234913521063168,2022-01-03-18:35:13,10.1.1.5,152,-0.320,-0.320,-0.320,0.000,0.000,0.000
1641234913720916992,2022-01-03-18:35:13,10.1.1.5,148,-0.310,-0.310,-0.310,0.000,0.000,0.000
1641234913920830976,2022-01-03-18:35:13,10.1.1.5,147,-0.300,-0.300,-0.300,0.000,0.000,0.000
1641234914123097856,2022-01-03-18:35:14,10.1.1.5,148,-0.290,-0.290,-0.290,0.000,0.000,0.000
1641234914330473984,2022-01-03-18:35:14,10.1.1.5,155,-0.280,-0.280,-0.280,0.000,0.000,0.000
1641234914544320000,2022-01-03-18:35:14,10.1.1.5,164,-0.270,-0.270,-0.270,0.000,0.000,0.000
1641234914740598016,2022-01-03-18:35:14,10.1.1.5,160,-0.260,-0.260,-0.260,0.000,0.000,0.000
1641234914939770880,2022-01-03-18:35:14,10.1.1.5,158,-0.250,-0.250,-0.250,0.000,0.000,0.000
1641234915140636928,2022-01-03-18:35:15,10.1.1.5,158,-0.240,-0.240,-0.240,0.000,0.000,0.000
1641234915359337216,2022-01-03-18:35:15,10.1.1.5,151,-0.230,-0.230,-0.230,0.000,0.000,0.000
1641234915558929920,2022-01-03-18:35:15,10.1.1.5,149,-0.220,-0.220,-0.220,0.000,0.000,0.000
1641234915759325952,2022-01-03-18:35:15,10.1.1.5,145,-0.210,-0.210,-0.210,0.000,0.000,0.000
1641234915958853888,2022-01-03-18:35:15,10.1.1.5,143,-0.200,-0.200,-0.200,0.000,0.000,0.000
1641234916158931968,2022-01-03-18:35:16,10.1.1.5,143,-0.190,-0.190,-0.190,0.000,0.000,0.000
1641234916358628096,2022-01-03-18:35:16,10.1.1.5,142,-0.180,-0.180,-0.180,0.000,0.000,0.000
1641234916580691200,2022-01-03-18:35:16,10.1.1.5,162,-0.170,-0.170,-0.170,0.000,0.000,0.000
1641234916778366208,2022-01-03-18:35:16,10.1.1.5,156,-0.160,-0.160,-0.160,0.000,0.000,0.000
1641234916977592064,2022-01-03-18:35:16,10.1.1.5,154,-0.150,-0.150,-0.150,0.000,0.000,0.000
1641234917180869120,2022-01-03-18:35:17,10.1.1.5,156,-0.140,-0.140,-0.140,0.000,0.000,0.000
1641234917377824000,2022-01-03-18:35:17,10.1.1.5,149,-0.130,-0.130,-0.130,0.000,0.000,0.000
1641234917577519872,2022-01-03-18:35:17,10.1.1.5,148,-0.120,-0.120,-0.120,0.000,0.000,0.000
1641234917777403136,2022-01-03-18:35:17,10.1.1.5,144,-0.110,-0.110,-0.110,0.000,0.000,0.000
1641234917976988928,2022-01-03-18:35:17,10.1.1.5,143,-0.100,-0.100,-0.100,0.000,0.000,0.000
1641234918176999936,2022-01-03-18:35:18,10.1.1.5,142,-0.090,-0.090,-0.090,0.000,0.000,0.000
1641234918376979200,2022-01-03-18:35:18,10.1.1.5,141,-0.080,-0.080,-0.080,0.000,0.000,0.000
1641234918576690944,2022-01-03-18:35:18,10.1.1.5,139,-0.070,-0.070,-0.070,0.000,0.000,0.000
1641234918821999104,2022-01-03-18:35:18,10.1.1.5,184,-0.060,-0.060,-0.060,0.000,0.000,0.000
1641234918998569984,2022-01-03-18:35:18,10.1.1.5,159,-0.050,-0.050,-0.050,0.000,0.000,0.000
1641234919196091904,2022-01-03-18:35:19,10.1.1.5,155,-0.040,-0.040,-0.040,0.000,0.000,0.000
1641234919397656064,2022-01-03-18:35:19,10.1.1.5,151,-0.030,-0.030,-0.030,0.000,0.000,0.000
1641234919821125120,2022-01-03-18:35:19,10.1.1.5,153,-0.010,-0.010,-0.010,0.000,0.000,0.000
1641234920016352768,2022-01-03-18:35:20,10.1.1.5,139,-0.000,-0.000,-0.000,0.000,0.000,0.000
1641234920270824960,2022-01-03-18:35:20,10.1.1.5,184,-0.010,-0.010,-0.010,0.000,0.000,0.000
1641234920436024832,2022-01-03-18:35:20,10.1.1.5,148,-0.020,-0.020,-0.020,0.000,0.000,0.000
1641234920637808128,2022-01-03-18:35:20,10.1.1.5,148,-0.030,-0.030,-0.030,0.000,0.000,0.000
1641234920835787008,2022-01-03-18:35:20,10.1.1.5,146,-0.040,-0.040,-0.040,0.000,0.000,0.000
1641234921035751168,2022-01-03-18:35:21,10.1.1.5,145,-0.050,-0.050,-0.050,0.000,0.000,0.000
1641234921457293056,2022-01-03-18:35:21,10.1.1.5,158,-0.070,-0.070,-0.070,0.000,0.000,0.000
1641234921655695872,2022-01-03-18:35:21,10.1.1.5,152,-0.080,-0.080,-0.080,0.000,0.000,0.000
1641234921860489984,2022-01-03-18:35:21,10.1.1.5,156,-0.090,-0.090,-0.090,0.000,0.000,0.000
1641234922081876992,2022-01-03-18:35:22,10.1.1.5,177,-0.100,-0.100,-0.100,0.000,0.000,0.000
1641234922262411008,2022-01-03-18:35:22,10.1.1.5,151,-0.110,-0.110,-0.110,0.000,0.000,0.000
1641234922460731136,2022-01-03-18:35:22,10.1.1.5,151,-0.120,-0.120,-0.120,0.000,0.000,0.000
1641234922673132800,2022-01-03-18:35:22,10.1.1.5,150,-0.130,-0.130,-0.130,0.000,0.000,0.000
1641234922876379136,2022-01-03-18:35:22,10.1.1.5,151,-0.140,-0.140,-0.140,0.000,0.000,0.000
1641234923081500160,2022-01-03-18:35:23,10.1.1.5,157,-0.150,-0.150,-0.150,0.000,0.000,0.000
1641234923276166912,2022-01-03-18:35:23,10.1.1.5,151,-0.160,-0.160,-0.160,0.000,0.000,0.000
1641234923691760896,2022-01-03-18:35:23,10.1.1.5,135,-0.180,-0.180,-0.180,0.000,0.000,0.000
1641234923890788096,2022-01-03-18:35:23,10.1.1.5,133,-0.190,-0.190,-0.190,0.000,0.000,0.000
1641234924110263040,2022-01-03-18:35:24,10.1.1.5,152,-0.200,-0.200,-0.200,0.000,0.000,0.000
1641234924310574080,2022-01-03-18:35:24,10.1.1.5,151,-0.210,-0.210,-0.210,0.000,0.000,0.000
1641234924494714112,2022-01-03-18:35:24,10.1.1.5,135,-0.220,-0.220,-0.220,0.000,0.000,0.000
1641234924721538048,2022-01-03-18:35:24,10.1.1.5,154,-0.230,-0.230,-0.230,0.000,0.000,0.000
1641234924930347008,2022-01-03-18:35:24,10.1.1.5,151,-0.240,-0.240,-0.240,0.000,0.000,0.000
1641234925130075904,2022-01-03-18:35:25,10.1.1.5,149,-0.250,-0.250,-0.250,0.000,0.000,0.000
1641234925329459968,2022-01-03-18:35:25,10.1.1.5,148,-0.260,-0.260,-0.260,0.000,0.000,0.000
1641234925531308032,2022-01-03-18:35:25,10.1.1.5,149,-0.270,-0.270,-0.270,0.000,0.000,0.000
1641234925734042880,2022-01-03-18:35:25,10.1.1.5,150,-0.280,-0.280,-0.280,0.000,0.000,0.000
1641234925938843136,2022-01-03-18:35:25,10.1.1.5,152,-0.290,-0.290,-0.290,0.000,0.000,0.000
1641234926128700928,2022-01-03-18:35:26,10.1.1.5,141,-0.300,-0.300,-0.300,0.000,0.000,0.000
1641234926333571840,2022-01-03-18:35:26,10.1.1.5,146,-0.310,-0.310,-0.310,0.000,0.000,0.000
1641234926534045952,2022-01-03-18:35:26,10.1.1.5,145,-0.320,-0.320,-0.320,0.000,0.000,0.000
1641234926727267072,2022-01-03-18:35:26,10.1.1.5,134,-0.330,-0.330,-0.330,0.000,0.000,0.000
1641234926927064832,2022-01-03-18:35:26,10.1.1.5,133,-0.340,-0.340,-0.340,0.000,0.000,0.000
1641234927167216128,2022-01-03-18:35:27,10.1.1.5,141,-0.350,-0.350,-0.350,0.000,0.000,0.000
1641234927387087104,2022-01-03-18:35:27,10.1.1.5,135,-0.360,-0.360,-0.360,0.000,0.000,0.000
1641234927586839040,2022-01-03-18:35:27,10.1.1.5,134,-0.370,-0.370,-0.370,0.000,0.000,0.000
1641234927786124032,2022-01-03-18:35:27,10.1.1.5,132,-0.380,-0.380,-0.380,0.000,0.000,0.000
1641234927987443968,2022-01-03-18:35:27,10.1.1.5,133,-0.390,-0.390,-0.390,0.000,0.000,0.000
1641234928217511936,2022-01-03-18:35:28,10.1.1.5,162,-0.400,-0.400,-0.400,0.000,0.000,0.000
1641234928386693120,2022-01-03-18:35:28,10.1.1.5,130,-0.410,-0.410,-0.410,0.000,0.000,0.000
1641234928585006080,2022-01-03-18:35:28,10.1.1.5,128,-0.420,-0.420,-0.420,0.000,0.000,0.000
1641234928787812096,2022-01-03-18:35:28,10.1.1.5,128,-0.430,-0.430,-0.430,0.000,0.000,0.000
1641234929021553920,2022-01-03-18:35:29,10.1.1.5,162,-0.440,-0.440,-0.440,0.000,0.000,0.000
1641234929213120000,2022-01-03-18:35:29,10.1.1.5,153,-0.450,-0.450,-0.450,0.000,0.000,0.000
1641234929410859008,2022-01-03-18:35:29,10.1.1.5,140,-0.460,-0.460,-0.460,0.000,0.000,0.000
1641234929608428032,2022-01-03-18:35:29,10.1.1.5,134,-0.470,-0.470,-0.470,0.000,0.000,0.000
1641234929804953088,2022-01-03-18:35:29,10.1.1.5,131,-0.480,-0.480,-0.480,0.000,0.000,0.000
1641234930004174848,2022-01-03-18:35:30,10.1.1.5,130,-0.490,-0.490,-0.490,0.000,0.000,0.000
1641234930202785024,2022-01-03-18:35:30,10.1.1.5,128,-0.480,-0.480,-0.480,0.000,0.000,0.000
1641234930407310080,2022-01-03-18:35:30,10.1.1.5,132,-0.470,-0.470,-0.470,0.000,0.000,0.000
1641234930624166912,2022-01-03-18:35:30,10.1.1.5,145,-0.460,-0.460,-0.460,0.000,0.000,0.000
1641234930822819072,2022-01-03-18:35:30,10.1.1.5,140,-0.450,-0.450,-0.450,0.000,0.000,0.000
1641234931028662016,2022-01-03-18:35:31,10.1.1.5,143,-0.440,-0.440,-0.440,0.000,0.000,0.000
1641234931222557184,2022-01-03-18:35:31,10.1.1.5,132,-0.430,-0.430,-0.430,0.000,0.000,0.000
1641234931422228992,2022-01-03-18:35:31,10.1.1.5,131,-0.420,-0.420,-0.420,0.000,0.000,0.000
1641234931621692928,2022-01-03-18:35:31,10.1.1.5,130,-0.410,-0.410,-0.410,0.000,0.000,0.000
1641234931820378112,2022-01-03-18:35:31,10.1.1.5,128,-0.400,-0.400,-0.400,0.000,0.000,0.000
1641234932020355072,2022-01-03-18:35:32,10.1.1.5,127,-0.390,-0.390,-0.390,0.000,0.000,0.000
1641234932219953920,2022-01-03-18:35:32,10.1.1.5,126,-0.380,-0.380,-0.380,0.000,0.000,0.000
1641234932424396032,2022-01-03-18:35:32,10.1.1.5,128,-0.370,-0.370,-0.370,0.000,0.000,0.000
1641234932625839872,2022-01-03-18:35:32,10.1.1.5,130,-0.360,-0.360,-0.360,0.000,0.000,0.000
1641234932838854144,2022-01-03-18:35:32,10.1.1.5,136,-0.350,-0.350,-0.350,0.000,0.000,0.000
1641234933040393216,2022-01-03-18:35:33,10.1.1.5,137,-0.340,-0.340,-0.340,0.000,0.000,0.000
1641234933238671104,2022-01-03-18:35:33,10.1.1.5,135,-0.330,-0.330,-0.330,0.000,0.000,0.000
1641234933440023808,2022-01-03-18:35:33,10.1.1.5,133,-0.320,-0.320,-0.320,0.000,0.000,0.000
1641234933640306944,2022-01-03-18:35:33,10.1.1.5,133,-0.310,-0.310,-0.310,0.000,0.000,0.000
1641234933876113920,2022-01-03-18:35:33,10.1.1.5,136,-0.300,-0.300,-0.300,0.000,0.000,0.000
1641234934057088000,2022-01-03-18:35:34,10.1.1.5,124,-0.290,-0.290,-0.290,0.000,0.000,0.000
1641234934257931008,2022-01-03-18:35:34,10.1.1.5,123,-0.280,-0.280,-0.280,0.000,0.000,0.000
1641234934457853952,2022-01-03-18:35:34,10.1.1.5,123,-0.270,-0.270,-0.270,0.000,0.000,0.000
1641234934660604928,2022-01-03-18:35:34,10.1.1.5,123,-0.260,-0.260,-0.260,0.000,0.000,0.000
1641234935077842944,2022-01-03-18:35:35,10.1.1.5,136,-0.240,-0.240,-0.240,0.000,0.000,0.000
1641234935275330048,2022-01-03-18:35:35,10.1.1.5,133,-0.230,-0.230,-0.230,0.000,0.000,0.000
1641234935477297152,2022-01-03-18:35:35,10.1.1.5,134,-0.220,-0.220,-0.220,0.000,0.000,0.000
1641234935675604224,2022-01-03-18:35:35,10.1.1.5,126,-0.210,-0.210,-0.210,0.000,0.000,0.000
1641234935895177984,2022-01-03-18:35:35,10.1.1.5,126,-0.200,-0.200,-0.200,0.000,0.000,0.000
1641234936104134144,2022-01-03-18:35:36,10.1.1.5,133,-0.190,-0.190,-0.190,0.000,0.000,0.000
1641234936295560960,2022-01-03-18:35:36,10.1.1.5,124,-0.180,-0.180,-0.180,0.000,0.000,0.000
1641234936494461952,2022-01-03-18:35:36,10.1.1.5,123,-0.170,-0.170,-0.170,0.000,0.000,0.000
1641234936694635008,2022-01-03-18:35:36,10.1.1.5,122,-0.160,-0.160,-0.160,0.000,0.000,0.000
1641234936895379968,2022-01-03-18:35:36,10.1.1.5,118,-0.150,-0.150,-0.150,0.000,0.000,0.000
1641234937114870016,2022-01-03-18:35:37,10.1.1.5,136,-0.140,-0.140,-0.140,0.000,0.000,0.000
1641234937334919936,2022-01-03-18:35:37,10.1.1.5,134,-0.130,-0.130,-0.130,0.000,0.000,0.000
1641234937533411072,2022-01-03-18:35:37,10.1.1.5,121,-0.120,-0.120,-0.120,0.000,0.000,0.000
1641234937733061120,2022-01-03-18:35:37,10.1.1.5,119,-0.110,-0.110,-0.110,0.000,0.000,0.000
1641234937951406848,2022-01-03-18:35:37,10.1.1.5,137,-0.100,-0.100,-0.100,0.000,0.000,0.000
1641234938156100096,2022-01-03-18:35:38,10.1.1.5,129,-0.090,-0.090,-0.090,0.000,0.000,0.000
1641234938376080896,2022-01-03-18:35:38,10.1.1.5,146,-0.080,-0.080,-0.080,0.000,0.000,0.000
1641234938552705024,2022-01-03-18:35:38,10.1.1.5,121,-0.070,-0.070,-0.070,0.000,0.000,0.000
1641234938773932032,2022-01-03-18:35:38,10.1.1.5,123,-0.060,-0.060,-0.060,0.000,0.000,0.000
1641234938852273920,2022-01-03-18:35:38,10.1.1.5,-1,-0.060,-0.060,-0.060,0.000,0.000,0.000
1641234939175430144,2022-01-03-18:35:39,10.1.1.5,122,-0.040,-0.040,-0.040,0.000,0.000,0.000
1641234939390383872,2022-01-03-18:35:39,10.1.1.5,132,-0.030,-0.030,-0.030,0.000,0.000,0.000
1641234939709366016,2022-01-03-18:35:39,10.1.1.5,129,-0.020,-0.020,-0.020,0.000,0.000,0.000
1641234939909286144,2022-01-03-18:35:39,10.1.1.5,129,-0.010,-0.010,-0.010,0.000,0.000,0.000
1641234940110491904,2022-01-03-18:35:40,10.1.1.5,129,0.000,0.000,0.000,0.000,0.000,0.000
1641234940308082176,2022-01-03-18:35:40,10.1.1.5,126,-0.010,-0.010,-0.010,0.000,0.000,0.000
1641234940509533952,2022-01-03-18:35:40,10.1.1.5,127,-0.020,-0.020,-0.020,0.000,0.000,0.000
1641234940708002048,2022-01-03-18:35:40,10.1.1.5,124,-0.030,-0.030,-0.030,0.000,0.000,0.000
1641234940907102208,2022-01-03-18:35:40,10.1.1.5,122,-0.040,-0.040,-0.040,0.000,0.000,0.000
1641234941106969088,2022-01-03-18:35:41,10.1.1.5,122,-0.050,-0.050,-0.050,0.000,0.000,0.000
1641234941307159040,2022-01-03-18:35:41,10.1.1.5,121,-0.060,-0.060,-0.060,0.000,0.000,0.000
1641234941506587136,2022-01-03-18:35:41,10.1.1.5,118,-0.070,-0.070,-0.070,0.000,0.000,0.000
1641234941707237120,2022-01-03-18:35:41,10.1.1.5,118,-0.080,-0.080,-0.080,0.000,0.000,0.000
1641234941905321984,2022-01-03-18:35:41,10.1.1.5,115,-0.090,-0.090,-0.090,0.000,0.000,0.000
1641234942105531904,2022-01-03-18:35:42,10.1.1.5,115,-0.100,-0.100,-0.100,0.000,0.000,0.000
1641234942306194176,2022-01-03-18:35:42,10.1.1.5,115,-0.110,-0.110,-0.110,0.000,0.000,0.000
1641234942509291776,2022-01-03-18:35:42,10.1.1.5,115,-0.120,-0.120,-0.120,0.000,0.000,0.000
1641234942704914176,2022-01-03-18:35:42,10.1.1.5,111,-0.130,-0.130,-0.130,0.000,0.000,0.000
1641234942940764928,2022-01-03-18:35:42,10.1.1.5,146,-0.140,-0.140,-0.140,0.000,0.000,0.000
1641234943104197120,2022-01-03-18:35:43,10.1.1.5,109,-0.150,-0.150,-0.150,0.000,0.000,0.000
1641234943303988992,2022-01-03-18:35:43,10.1.1.5,108,-0.160,-0.160,-0.160,0.000,0.000,0.000
1641234943503460864,2022-01-03-18:35:43,10.1.1.5,106,-0.170,-0.170,-0.170,0.000,0.000,0.000
1641234943723456000,2022-01-03-18:35:43,10.1.1.5,126,-0.180,-0.180,-0.180,0.000,0.000,0.000
1641234943924609024,2022-01-03-18:35:43,10.1.1.5,125,-0.190,-0.190,-0.190,0.000,0.000,0.000
1641234944136555008,2022-01-03-18:35:44,10.1.1.5,135,-0.200,-0.200,-0.200,0.000,0.000,0.000
1641234944321701120,2022-01-03-18:35:44,10.1.1.5,119,-0.210,-0.210,-0.210,0.000,0.000,0.000
1641234944521174784,2022-01-03-18:35:44,10.1.1.5,118,-0.220,-0.220,-0.220,0.000,0.000,0.000
1641234944721128960,2022-01-03-18:35:44,10.1.1.5,117,-0.230,-0.230,-0.230,0.000,0.000,0.000
1641234944922377984,2022-01-03-18:35:44,10.1.1.5,113,-0.240,-0.240,-0.240,0.000,0.000,0.000
1641234945120923904,2022-01-03-18:35:45,10.1.1.5,111,-0.250,-0.250,-0.250,0.000,0.000,0.000
1641234945340485120,2022-01-03-18:35:45,10.1.1.5,121,-0.260,-0.260,-0.260,0.000,0.000,0.000
1641234945541733888,2022-01-03-18:35:45,10.1.1.5,121,-0.270,-0.270,-0.270,0.000,0.000,0.000
1641234945740203008,2022-01-03-18:35:45,10.1.1.5,118,-0.280,-0.280,-0.280,0.000,0.000,0.000
1641234945940265984,2022-01-03-18:35:45,10.1.1.5,117,-0.290,-0.290,-0.290,0.000,0.000,0.000
1641234946141890048,2022-01-03-18:35:46,10.1.1.5,110,-0.300,-0.300,-0.300,0.000,0.000,0.000
1641234946346585088,2022-01-03-18:35:46,10.1.1.5,116,-0.310,-0.310,-0.310,0.000,0.000,0.000
1641234946545918976,2022-01-03-18:35:46,10.1.1.5,113,-0.320,-0.320,-0.320,0.000,0.000,0.000
1641234946773854976,2022-01-03-18:35:46,10.1.1.5,133,-0.330,-0.330,-0.330,0.000,0.000,0.000
1641234946978427904,2022-01-03-18:35:46,10.1.1.5,114,-0.340,-0.340,-0.340,0.000,0.000,0.000
1641234947259886080,2022-01-03-18:35:47,10.1.1.5,191,-0.350,-0.350,-0.350,0.000,0.000,0.000
1641234947401886976,2022-01-03-18:35:47,10.1.1.5,112,-0.360,-0.360,-0.360,0.000,0.000,0.000
1641234947597234944,2022-01-03-18:35:47,10.1.1.5,107,-0.370,-0.370,-0.370,0.000,0.000,0.000
1641234947852052992,2022-01-03-18:35:47,10.1.1.5,160,-0.380,-0.380,-0.380,0.000,0.000,0.000
1641234947996602112,2022-01-03-18:35:47,10.1.1.5,103,-0.390,-0.390,-0.390,0.000,0.000,0.000
1641234948197655808,2022-01-03-18:35:48,10.1.1.5,104,-0.400,-0.400,-0.400,0.000,0.000,0.000
1641234948398588928,2022-01-03-18:35:48,10.1.1.5,104,-0.410,-0.410,-0.410,0.000,0.000,0.000
1641234948601041920,2022-01-03-18:35:48,10.1.1.5,106,-0.420,-0.420,-0.420,0.000,0.000,0.000
1641234948890074112,2022-01-03-18:35:48,10.1.1.5,193,-0.430,-0.430,-0.430,0.000,0.000,0.000
1641234949064248064,2022-01-03-18:35:49,10.1.1.5,122,-0.440,-0.440,-0.440,0.000,0.000,0.000
1641234949270935040,2022-01-03-18:35:49,10.1.1.5,121,-0.450,-0.450,-0.450,0.000,0.000,0.000
1641234949477030912,2022-01-03-18:35:49,10.1.1.5,133,-0.460,-0.460,-0.460,0.000,0.000,0.000
1641234949685507072,2022-01-03-18:35:49,10.1.1.5,125,-0.470,-0.470,-0.470,0.000,0.000,0.000
1641234949896246016,2022-01-03-18:35:49,10.1.1.5,135,-0.480,-0.480,-0.480,0.000,0.000,0.000
1641234950088314112,2022-01-03-18:35:50,10.1.1.5,125,-0.490,-0.490,-0.490,0.000,0.000,0.000
1641234950287463936,2022-01-03-18:35:50,10.1.1.5,123,-0.480,-0.480,-0.480,0.000,0.000,0.000
1641234950488750848,2022-01-03-18:35:50,10.1.1.5,124,-0.470,-0.470,-0.470,0.000,0.000,0.000
1641234950689522944,2022-01-03-18:35:50,10.1.1.5,124,-0.460,-0.460,-0.460,0.000,0.000,0.000
1641234950890501888,2022-01-03-18:35:50,10.1.1.5,124,-0.450,-0.450,-0.450,0.000,0.000,0.000
1641234951092401920,2022-01-03-18:35:51,10.1.1.5,125,-0.440,-0.440,-0.440,0.000,0.000,0.000
1641234951320641024,2022-01-03-18:35:51,10.1.1.5,126,-0.430,-0.430,-0.430,0.000,0.000,0.000
1641234951518454016,2022-01-03-18:35:51,10.1.1.5,120,-0.420,-0.420,-0.420,0.000,0.000,0.000
1641234951718656000,2022-01-03-18:35:51,10.1.1.5,122,-0.410,-0.410,-0.410,0.000,0.000,0.000
1641234951944773888,2022-01-03-18:35:51,10.1.1.5,140,-0.400,-0.400,-0.400,0.000,0.000,0.000
1641234952137479168,2022-01-03-18:35:52,10.1.1.5,133,-0.390,-0.390,-0.390,0.000,0.000,0.000
1641234952406733056,2022-01-03-18:35:52,10.1.1.5,132,-0.380,-0.380,-0.380,0.000,0.000,0.000
1641234952598999040,2022-01-03-18:35:52,10.1.1.5,123,-0.370,-0.370,-0.370,0.000,0.000,0.000
1641234952798361088,2022-01-03-18:35:52,10.1.1.5,122,-0.360,-0.360,-0.360,0.000,0.000,0.000
1641234953018457856,2022-01-03-18:35:53,10.1.1.5,140,-0.350,-0.350,-0.350,0.000,0.000,0.000
1641234953219180032,2022-01-03-18:35:53,10.1.1.5,140,-0.340,-0.340,-0.340,0.000,0.000,0.000
1641234953430674944,2022-01-03-18:35:53,10.1.1.5,146,-0.330,-0.330,-0.330,0.000,0.000,0.000
1641234953620862976,2022-01-03-18:35:53,10.1.1.5,131,-0.320,-0.320,-0.320,0.000,0.000,0.000
1641234953821132032,2022-01-03-18:35:53,10.1.1.5,131,-0.310,-0.310,-0.310,0.000,0.000,0.000
1641234954022128128,2022-01-03-18:35:54,10.1.1.5,131,-0.300,-0.300,-0.300,0.000,0.000,0.000
1641234954222567168,2022-01-03-18:35:54,10.1.1.5,129,-0.290,-0.290,-0.290,0.000,0.000,0.000
1641234954423271936,2022-01-03-18:35:54,10.1.1.5,127,-0.280,-0.280,-0.280,0.000,0.000,0.000
1641234954641207040,2022-01-03-18:35:54,10.1.1.5,144,-0.270,-0.270,-0.270,0.000,0.000,0.000
1641234954844784896,2022-01-03-18:35:54,10.1.1.5,146,-0.260,-0.260,-0.260,0.000,0.000,0.000
1641234955045485056,2022-01-03-18:35:55,10.1.1.5,146,-0.250,-0.250,-0.250,0.000,0.000,0.000
1641234955246318080,2022-01-03-18:35:55,10.1.1.5,145,-0.240,-0.240,-0.240,0.000,0.000,0.000
1641234955447015168,2022-01-03-18:35:55,10.1.1.5,145,-0.230,-0.230,-0.230,0.000,0.000,0.000
1641234955647525120,2022-01-03-18:35:55,10.1.1.5,145,-0.220,-0.220,-0.220,0.000,0.000,0.000
1641234955855272960,2022-01-03-18:35:55,10.1.1.5,153,-0.210,-0.210,-0.210,0.000,0.000,0.000
1641234956048077056,2022-01-03-18:35:56,10.1.1.5,145,-0.200,-0.200,-0.200,0.000,0.000,0.000
1641234956248545024,2022-01-03-18:35:56,10.1.1.5,144,-0.190,-0.190,-0.190,0.000,0.000,0.000
1641234956449459968,2022-01-03-18:35:56,10.1.1.5,144,-0.180,-0.180,-0.180,0.000,0.000,0.000
1641234956649580032,2022-01-03-18:35:56,10.1.1.5,143,-0.170,-0.170,-0.170,0.000,0.000,0.000
1641234956852011008,2022-01-03-18:35:56,10.1.1.5,144,-0.160,-0.160,-0.160,0.000,0.000,0.000
1641234957050433024,2022-01-03-18:35:57,10.1.1.5,140,-0.150,-0.150,-0.150,0.000,0.000,0.000
1641234957252796928,2022-01-03-18:35:57,10.1.1.5,142,-0.140,-0.140,-0.140,0.000,0.000,0.000
1641234957451191040,2022-01-03-18:35:57,10.1.1.5,139,-0.130,-0.130,-0.130,0.000,0.000,0.000
1641234957651505920,2022-01-03-18:35:57,10.1.1.5,137,-0.120,-0.120,-0.120,0.000,0.000,0.000
1641234957852622080,2022-01-03-18:35:57,10.1.1.5,135,-0.110,-0.110,-0.110,0.000,0.000,0.000
1641234958091379968,2022-01-03-18:35:58,10.1.1.5,172,-0.100,-0.100,-0.100,0.000,0.000,0.000
1641234958274611968,2022-01-03-18:35:58,10.1.1.5,147,-0.090,-0.090,-0.090,0.000,0.000,0.000
1641234958473017088,2022-01-03-18:35:58,10.1.1.5,144,-0.080,-0.080,-0.080,0.000,0.000,0.000
1641234958673693952,2022-01-03-18:35:58,10.1.1.5,144,-0.070,-0.070,-0.070,0.000,0.000,0.000
1641234958874039808,2022-01-03-18:35:58,10.1.1.5,141,-0.060,-0.060,-0.060,0.000,0.000,0.000
1641234959074820096,2022-01-03-18:35:59,10.1.1.5,141,-0.050,-0.050,-0.050,0.000,0.000,0.000
1641234959276141056,2022-01-03-18:35:59,10.1.1.5,139,-0.040,-0.040,-0.040,0.000,0.000,0.000
1641234959476941056,2022-01-03-18:35:59,10.1.1.5,139,-0.030,-0.030,-0.030,0.000,0.000,0.000
1641234959697714944,2022-01-03-18:35:59,10.1.1.5,159,-0.020,-0.020,-0.020,0.000,0.000,0.000
1641234959898530048,2022-01-03-18:35:59,10.1.1.5,159,-0.010,-0.010,-0.010,0.000,0.000,0.000
1641234960096903936,2022-01-03-18:36:00,10.1.1.5,157,0.000,0.000,0.000,0.000,0.000,0.000
1641234960344391936,2022-01-03-18:36:00,10.1.1.5,178,-0.010,-0.010,-0.010,0.000,0.000,0.000
1641234960498394112,2022-01-03-18:36:00,10.1.1.5,153,-0.020,-0.020,-0.020,0.000,0.000,0.000
1641234960697362944,2022-01-03-18:36:00,10.1.1.5,151,-0.030,-0.030,-0.030,0.000,0.000,0.000
1641234960903930880,2022-01-03-18:36:00,10.1.1.5,156,-0.040,-0.040,-0.040,0.000,0.000,0.000
1641234961098094848,2022-01-03-18:36:01,10.1.1.5,147,-0.050,-0.050,-0.050,0.000,0.000,0.000
1641234961302499072,2022-01-03-18:36:01,10.1.1.5,151,-0.060,-0.060,-0.060,0.000,0.000,0.000
1641234961508073984,2022-01-03-18:36:01,10.1.1.5,147,-0.070,-0.070,-0.070,0.000,0.000,0.000
1641234961701323008,2022-01-03-18:36:01,10.1.1.5,146,-0.080,-0.080,-0.080,0.000,0.000,0.000
1641234961901908992,2022-01-03-18:36:01,10.1.1.5,148,-0.090,-0.090,-0.090,0.000,0.000,0.000
1641234962099639808,2022-01-03-18:36:02,10.1.1.5,146,-0.100,-0.100,-0.100,0.000,0.000,0.000
1641234962299808000,2022-01-03-18:36:02,10.1.1.5,145,-0.110,-0.110,-0.110,0.000,0.000,0.000
1641234962513986048,2022-01-03-18:36:02,10.1.1.5,156,-0.120,-0.120,-0.120,0.000,0.000,0.000
1641234962719645952,2022-01-03-18:36:02,10.1.1.5,155,-0.130,-0.130,-0.130,0.000,0.000,0.000
1641234962920083968,2022-01-03-18:36:02,10.1.1.5,154,-0.140,-0.140,-0.140,0.000,0.000,0.000
1641234963120450048,2022-01-03-18:36:03,10.1.1.5,154,-0.150,-0.150,-0.150,0.000,0.000,0.000
1641234963327822848,2022-01-03-18:36:03,10.1.1.5,158,-0.160,-0.160,-0.160,0.000,0.000,0.000
1641234963520931072,2022-01-03-18:36:03,10.1.1.5,150,-0.170,-0.170,-0.170,0.000,0.000,0.000
1641234963721385984,2022-01-03-18:36:03,10.1.1.5,149,-0.180,-0.180,-0.180,0.000,0.000,0.000
1641234963940592896,2022-01-03-18:36:03,10.1.1.5,159,-0.190,-0.190,-0.190,0.000,0.000,0.000
1641234964141275904,2022-01-03-18:36:04,10.1.1.5,158,-0.200,-0.200,-0.200,0.000,0.000,0.000
1641234964341889024,2022-01-03-18:36:04,10.1.1.5,158,-0.210,-0.210,-0.210,0.000,0.000,0.000
1641234964541812992,2022-01-03-18:36:04,10.1.1.5,157,-0.220,-0.220,-0.220,0.000,0.000,0.000
1641234964742150144,2022-01-03-18:36:04,10.1.1.5,155,-0.230,-0.230,-0.230,0.000,0.000,0.000
1641234964954113024,2022-01-03-18:36:04,10.1.1.5,166,-0.240,-0.240,-0.240,0.000,0.000,0.000
1641234965149790976,2022-01-03-18:36:05,10.1.1.5,161,-0.250,-0.250,-0.250,0.000,0.000,0.000
1641234965347692032,2022-01-03-18:36:05,10.1.1.5,157,-0.260,-0.260,-0.260,0.000,0.000,0.000
1641234965553960960,2022-01-03-18:36:05,10.1.1.5,162,-0.270,-0.270,-0.270,0.000,0.000,0.000
1641234965762651904,2022-01-03-18:36:05,10.1.1.5,153,-0.280,-0.280,-0.280,0.000,0.000,0.000
1641234965963734016,2022-01-03-18:36:05,10.1.1.5,153,-0.290,-0.290,-0.290,0.000,0.000,0.000
1641234966163059968,2022-01-03-18:36:06,10.1.1.5,148,-0.300,-0.300,-0.300,0.000,0.000,0.000
1641234966362713088,2022-01-03-18:36:06,10.1.1.5,147,-0.310,-0.310,-0.310,0.000,0.000,0.000
1641234966564229888,2022-01-03-18:36:06,10.1.1.5,147,-0.320,-0.320,-0.320,0.000,0.000,0.000
1641234966763226880,2022-01-03-18:36:06,10.1.1.5,145,-0.330,-0.330,-0.330,0.000,0.000,0.000
1641234966983760128,2022-01-03-18:36:06,10.1.1.5,164,-0.340,-0.340,-0.340,0.000,0.000,0.000
1641234967197534208,2022-01-03-18:36:07,10.1.1.5,176,-0.350,-0.350,-0.350,0.000,0.000,0.000
1641234967389255936,2022-01-03-18:36:07,10.1.1.5,161,-0.360,-0.360,-0.360,0.000,0.000,0.000
1641234967584603904,2022-01-03-18:36:07,10.1.1.5,157,-0.370,-0.370,-0.370,0.000,0.000,0.000
1641234967798626816,2022-01-03-18:36:07,10.1.1.5,171,-0.380,-0.380,-0.380,0.000,0.000,0.000
1641234968005975040,2022-01-03-18:36:07,10.1.1.5,162,-0.390,-0.390,-0.390,0.000,0.000,0.000
1641234968183429120,2022-01-03-18:36:08,10.1.1.5,152,-0.400,-0.400,-0.400,0.000,0.000,0.000
1641234968403599104,2022-01-03-18:36:08,10.1.1.5,149,-0.410,-0.410,-0.410,0.000,0.000,0.000
1641234968605423872,2022-01-03-18:36:08,10.1.1.5,150,-0.420,-0.420,-0.420,0.000,0.000,0.000
1641234968806274816,2022-01-03-18:36:08,10.1.1.5,150,-0.430,-0.430,-0.430,0.000,0.000,0.000
1641234969004834816,2022-01-03-18:36:09,10.1.1.5,148,-0.440,-0.440,-0.440,0.000,0.000,0.000
1641234969223188992,2022-01-03-18:36:09,10.1.1.5,164,-0.450,-0.450,-0.450,0.000,0.000,0.000
1641234969626009088,2022-01-03-18:36:09,10.1.1.5,148,-0.470,-0.470,-0.470,0.000,0.000,0.000
1641234969846100992,2022-01-03-18:36:09,10.1.1.5,167,-0.480,-0.480,-0.480,0.000,0.000,0.000
1641234970057466880,2022-01-03-18:36:10,10.1.1.5,176,-0.490,-0.490,-0.490,0.000,0.000,0.000
1641234970263174144,2022-01-03-18:36:10,10.1.1.5,182,-0.480,-0.480,-0.480,0.000,0.000,0.000
1641234970444538112,2022-01-03-18:36:10,10.1.1.5,164,-0.470,-0.470,-0.470,0.000,0.000,0.000
1641234970648619776,2022-01-03-18:36:10,10.1.1.5,164,-0.460,-0.460,-0.460,0.000,0.000,0.000
1641234970846295040,2022-01-03-18:36:10,10.1.1.5,164,-0.450,-0.450,-0.450,0.000,0.000,0.000
1641234971044451840,2022-01-03-18:36:11,10.1.1.5,160,-0.440,-0.440,-0.440,0.000,0.000,0.000
1641234971244761088,2022-01-03-18:36:11,10.1.1.5,160,-0.430,-0.430,-0.430,0.000,0.000,0.000
1641234971445929984,2022-01-03-18:36:11,10.1.1.5,159,-0.420,-0.420,-0.420,0.000,0.000,0.000
1641234971683249920,2022-01-03-18:36:11,10.1.1.5,192,-0.410,-0.410,-0.410,0.000,0.000,0.000
1641234971864252928,2022-01-03-18:36:11,10.1.1.5,165,-0.400,-0.400,-0.400,0.000,0.000,0.000
1641234972065112064,2022-01-03-18:36:12,10.1.1.5,165,-0.390,-0.390,-0.390,0.000,0.000,0.000
1641234972264452864,2022-01-03-18:36:12,10.1.1.5,163,-0.380,-0.380,-0.380,0.000,0.000,0.000
1641234972463987200,2022-01-03-18:36:12,10.1.1.5,162,-0.370,-0.370,-0.370,0.000,0.000,0.000
1641234972664184064,2022-01-03-18:36:12,10.1.1.5,161,-0.360,-0.360,-0.360,0.000,0.000,0.000
1641234972964168960,2022-01-03-18:36:12,10.1.1.5,160,-0.350,-0.350,-0.350,0.000,0.000,0.000
1641234973174102016,2022-01-03-18:36:13,10.1.1.5,167,-0.340,-0.340,-0.340,0.000,0.000,0.000
1641234973377607168,2022-01-03-18:36:13,10.1.1.5,170,-0.330,-0.330,-0.330,0.000,0.000,0.000
1641234973567334912,2022-01-03-18:36:13,10.1.1.5,156,-0.320,-0.320,-0.320,0.000,0.000,0.000
1641234973763858944,2022-01-03-18:36:13,10.1.1.5,152,-0.310,-0.310,-0.310,0.000,0.000,0.000
1641234974165335808,2022-01-03-18:36:14,10.1.1.5,149,-0.290,-0.290,-0.290,0.000,0.000,0.000
1641234974363168000,2022-01-03-18:36:14,10.1.1.5,146,-0.280,-0.280,-0.280,0.000,0.000,0.000
1641234974563111936,2022-01-03-18:36:14,10.1.1.5,145,-0.270,-0.270,-0.270,0.000,0.000,0.000
1641234974805617920,2022-01-03-18:36:14,10.1.1.5,167,-0.260,-0.260,-0.260,0.000,0.000,0.000
1641234975020971008,2022-01-03-18:36:15,10.1.1.5,182,-0.250,-0.250,-0.250,0.000,0.000,0.000
1641234975215708928,2022-01-03-18:36:15,10.1.1.5,175,-0.240,-0.240,-0.240,0.000,0.000,0.000
1641234975410358784,2022-01-03-18:36:15,10.1.1.5,169,-0.230,-0.230,-0.230,0.000,0.000,0.000
1641234975603222016,2022-01-03-18:36:15,10.1.1.5,161,-0.220,-0.220,-0.220,0.000,0.000,0.000
1641234975803141120,2022-01-03-18:36:15,10.1.1.5,160,-0.210,-0.210,-0.210,0.000,0.000,0.000
1641234976009878016,2022-01-03-18:36:16,10.1.1.5,163,-0.200,-0.200,-0.200,0.000,0.000,0.000
1641234976217116160,2022-01-03-18:36:16,10.1.1.5,170,-0.190,-0.190,-0.190,0.000,0.000,0.000
1641234976402461952,2022-01-03-18:36:16,10.1.1.5,154,-0.180,-0.180,-0.180,0.000,0.000,0.000
1641234976604299008,2022-01-03-18:36:16,10.1.1.5,154,-0.170,-0.170,-0.170,0.000,0.000,0.000
1641234976802788864,2022-01-03-18:36:16,10.1.1.5,152,-0.160,-0.160,-0.160,0.000,0.000,0.000
1641234977001347072,2022-01-03-18:36:17,10.1.1.5,148,-0.150,-0.150,-0.150,0.000,0.000,0.000
1641234977442252032,2022-01-03-18:36:17,10.1.1.5,161,-0.130,-0.130,-0.130,0.000,0.000,0.000
1641234977642540032,2022-01-03-18:36:17,10.1.1.5,156,-0.120,-0.120,-0.120,0.000,0.000,0.000
1641234977848557056,2022-01-03-18:36:17,10.1.1.5,161,-0.110,-0.110,-0.110,0.000,0.000,0.000
1641234978045773056,2022-01-03-18:36:18,10.1.1.5,158,-0.100,-0.100,-0.100,0.000,0.000,0.000
1641234978240968960,2022-01-03-18:36:18,10.1.1.5,152,-0.090,-0.090,-0.090,0.000,0.000,0.000
1641234978454754048,2022-01-03-18:36:18,10.1.1.5,165,-0.080,-0.080,-0.080,0.000,0.000,0.000
1641234978661993984,2022-01-03-18:36:18,10.1.1.5,143,-0.070,-0.070,-0.070,0.000,0.000,0.000
1641234978880319232,2022-01-03-18:36:18,10.1.1.5,160,-0.060,-0.060,-0.060,0.000,0.000,0.000
1641234979080456960,2022-01-03-18:36:19,10.1.1.5,160,-0.050,-0.050,-0.050,0.000,0.000,0.000
1641234979293499904,2022-01-03-18:36:19,10.1.1.5,169,-0.040,-0.040,-0.040,0.000,0.000,0.000
1641234979480067072,2022-01-03-18:36:19,10.1.1.5,154,-0.030,-0.030,-0.030,0.000,0.000,0.000
1641234979680546048,2022-01-03-18:36:19,10.1.1.5,153,-0.020,-0.020,-0.020,0.000,0.000,0.000
1641234979881266944,2022-01-03-18:36:19,10.1.1.5,153,-0.010,-0.010,-0.010,0.000,0.000,0.000
1641234980079814912,2022-01-03-18:36:20,10.1.1.5,151,0.000,0.000,0.000,0.000,0.000,0.000
1641234980279983104,2022-01-03-18:36:20,10.1.1.5,150,-0.010,-0.010,-0.010,0.000,0.000,0.000
1641234980481731840,2022-01-03-18:36:20,10.1.1.5,151,-0.020,-0.020,-0.020,0.000,0.000,0.000
1641234980679470080,2022-01-03-18:36:20,10.1.1.5,148,-0.030,-0.030,-0.030,0.000,0.000,0.000
1641234980879367168,2022-01-03-18:36:20,10.1.1.5,146,-0.040,-0.040,-0.040,0.000,0.000,0.000
1641234981080480000,2022-01-03-18:36:21,10.1.1.5,145,-0.050,-0.050,-0.050,0.000,0.000,0.000
1641234981278491136,2022-01-03-18:36:21,10.1.1.5,142,-0.060,-0.060,-0.060,0.000,0.000,0.000
1641234981520647936,2022-01-03-18:36:21,10.1.1.5,179,-0.070,-0.070,-0.070,0.000,0.000,0.000
1641234981697886976,2022-01-03-18:36:21,10.1.1.5,155,-0.080,-0.080,-0.080,0.000,0.000,0.000
1641234981897756928,2022-01-03-18:36:21,10.1.1.5,154,-0.090,-0.090,-0.090,0.000,0.000,0.000
1641234982097769984,2022-01-03-18:36:22,10.1.1.5,153,-0.100,-0.100,-0.100,0.000,0.000,0.000
1641234982298365184,2022-01-03-18:36:22,10.1.1.5,153,-0.110,-0.110,-0.110,0.000,0.000,0.000
1641234982497113856,2022-01-03-18:36:22,10.1.1.5,151,-0.120,-0.120,-0.120,0.000,0.000,0.000
1641234982698227968,2022-01-03-18:36:22,10.1.1.5,151,-0.130,-0.130,-0.130,0.000,0.000,0.000
1641234982897969920,2022-01-03-18:36:22,10.1.1.5,150,-0.140,-0.140,-0.140,0.000,0.000,0.000
1641234983096903168,2022-01-03-18:36:23,10.1.1.5,146,-0.150,-0.150,-0.150,0.000,0.000,0.000
1641234983297046016,2022-01-03-18:36:23,10.1.1.5,145,-0.160,-0.160,-0.160,0.000,0.000,0.000
1641234983496165888,2022-01-03-18:36:23,10.1.1.5,143,-0.170,-0.170,-0.170,0.000,0.000,0.000
1641234983696409088,2022-01-03-18:36:23,10.1.1.5,143,-0.180,-0.180,-0.180,0.000,0.000,0.000
1641234983896642816,2022-01-03-18:36:23,10.1.1.5,141,-0.190,-0.190,-0.190,0.000,0.000,0.000
1641234984148966144,2022-01-03-18:36:24,10.1.1.5,188,-0.200,-0.200,-0.200,0.000,0.000,0.000
1641234984316509952,2022-01-03-18:36:24,10.1.1.5,155,-0.210,-0.210,-0.210,0.000,0.000,0.000
1641234984515213056,2022-01-03-18:36:24,10.1.1.5,153,-0.220,-0.220,-0.220,0.000,0.000,0.000
1641234984715712000,2022-01-03-18:36:24,10.1.1.5,153,-0.230,-0.230,-0.230,0.000,0.000,0.000
1641234984914712064,2022-01-03-18:36:24,10.1.1.5,152,-0.240,-0.240,-0.240,0.000,0.000,0.000
1641234985116987904,2022-01-03-18:36:25,10.1.1.5,153,-0.250,-0.250,-0.250,0.000,0.000,0.000
1641234985354813952,2022-01-03-18:36:25,10.1.1.5,146,-0.260,-0.260,-0.260,0.000,0.000,0.000
1641234985554254080,2022-01-03-18:36:25,10.1.1.5,145,-0.270,-0.270,-0.270,0.000,0.000,0.000
1641234985754007040,2022-01-03-18:36:25,10.1.1.5,144,-0.280,-0.280,-0.280,0.000,0.000,0.000
1641234985973798912,2022-01-03-18:36:25,10.1.1.5,155,-0.290,-0.290,-0.290,0.000,0.000,0.000
1641234986174310912,2022-01-03-18:36:26,10.1.1.5,151,-0.300,-0.300,-0.300,0.000,0.000,0.000
1641234986374227968,2022-01-03-18:36:26,10.1.1.5,150,-0.310,-0.310,-0.310,0.000,0.000,0.000
1641234986573285120,2022-01-03-18:36:26,10.1.1.5,140,-0.320,-0.320,-0.320,0.000,0.000,0.000
1641234986793391104,2022-01-03-18:36:26,10.1.1.5,155,-0.330,-0.330,-0.330,0.000,0.000,0.000
1641234986993943040,2022-01-03-18:36:26,10.1.1.5,153,-0.340,-0.340,-0.340,0.000,0.000,0.000
1641234987192666880,2022-01-03-18:36:27,10.1.1.5,150,-0.350,-0.350,-0.350,0.000,0.000,0.000
1641234987393028096,2022-01-03-18:36:27,10.1.1.5,141,-0.360,-0.360,-0.360,0.000,0.000,0.000
1641234987672759040,2022-01-03-18:36:27,10.1.1.5,151,-0.370,-0.370,-0.370,0.000,0.000,0.000
1641234987875091200,2022-01-03-18:36:27,10.1.1.5,150,-0.380,-0.380,-0.380,0.000,0.000,0.000
1641234988090256896,2022-01-03-18:36:28,10.1.1.5,167,-0.390,-0.390,-0.390,0.000,0.000,0.000
1641234988278553856,2022-01-03-18:36:28,10.1.1.5,154,-0.400,-0.400,-0.400,0.000,0.000,0.000
1641234988476356096,2022-01-03-18:36:28,10.1.1.5,150,-0.410,-0.410,-0.410,0.000,0.000,0.000
1641234988700376064,2022-01-03-18:36:28,10.1.1.5,160,-0.420,-0.420,-0.420,0.000,0.000,0.000
1641234988890411008,2022-01-03-18:36:28,10.1.1.5,148,-0.430,-0.430,-0.430,0.000,0.000,0.000
1641234989090018048,2022-01-03-18:36:29,10.1.1.5,144,-0.440,-0.440,-0.440,0.000,0.000,0.000
1641234989297924096,2022-01-03-18:36:29,10.1.1.5,152,-0.450,-0.450,-0.450,0.000,0.000,0.000
1641234989490402816,2022-01-03-18:36:29,10.1.1.5,143,-0.460,-0.460,-0.460,0.000,0.000,0.000
1641234989696728832,2022-01-03-18:36:29,10.1.1.5,148,-0.470,-0.470,-0.470,0.000,0.000,0.000
1641234989904023808,2022-01-03-18:36:29,10.1.1.5,155,-0.480,-0.480,-0.480,0.000,0.000,0.000
1641234990089473024,2022-01-03-18:36:30,10.1.1.5,140,-0.490,-0.490,-0.490,0.000,0.000,0.000
1641234990288715008,2022-01-03-18:36:30,10.1.1.5,138,-0.480,-0.480,-0.480,0.000,0.000,0.000
1641234990488485120,2022-01-03-18:36:30,10.1.1.5,137,-0.470,-0.470,-0.470,0.000,0.000,0.000
1641234990688939008,2022-01-03-18:36:30,10.1.1.5,137,-0.460,-0.460,-0.460,0.000,0.000,0.000
1641234990891156992,2022-01-03-18:36:30,10.1.1.5,137,-0.450,-0.450,-0.450,0.000,0.000,0.000
1641234991087700992,2022-01-03-18:36:31,10.1.1.5,132,-0.440,-0.440,-0.440,0.000,0.000,0.000
1641234991287117056,2022-01-03-18:36:31,10.1.1.5,130,-0.430,-0.430,-0.430,0.000,0.000,0.000
1641234991512371968,2022-01-03-18:36:31,10.1.1.5,150,-0.420,-0.420,-0.420,0.000,0.000,0.000
1641234991708013056,2022-01-03-18:36:31,10.1.1.5,149,-0.410,-0.410,-0.410,0.000,0.000,0.000
1641234991908199936,2022-01-03-18:36:31,10.1.1.5,149,-0.400,-0.400,-0.400,0.000,0.000,0.000
1641234992107151872,2022-01-03-18:36:32,10.1.1.5,133,-0.390,-0.390,-0.390,0.000,0.000,0.000
1641234992306577920,2022-01-03-18:36:32,10.1.1.5,131,-0.380,-0.380,-0.380,0.000,0.000,0.000
1641234992506437120,2022-01-03-18:36:32,10.1.1.5,130,-0.370,-0.370,-0.370,0.000,0.000,0.000
1641234992725882880,2022-01-03-18:36:32,10.1.1.5,147,-0.360,-0.360,-0.360,0.000,0.000,0.000
1641234992925638912,2022-01-03-18:36:32,10.1.1.5,146,-0.350,-0.350,-0.350,0.000,0.000,0.000
1641234993143300096,2022-01-03-18:36:33,10.1.1.5,156,-0.340,-0.340,-0.340,0.000,0.000,0.000
1641234993325905152,2022-01-03-18:36:33,10.1.1.5,138,-0.330,-0.330,-0.330,0.000,0.000,0.000
1641234993525384960,2022-01-03-18:36:33,10.1.1.5,136,-0.320,-0.320,-0.320,0.000,0.000,0.000
1641234993725330944,2022-01-03-18:36:33,10.1.1.5,135,-0.310,-0.310,-0.310,0.000,0.000,0.000
1641234993924567040,2022-01-03-18:36:33,10.1.1.5,133,-0.300,-0.300,-0.300,0.000,0.000,0.000
1641234994131730176,2022-01-03-18:36:34,10.1.1.5,134,-0.290,-0.290,-0.290,0.000,0.000,0.000
1641234994370494976,2022-01-03-18:36:34,10.1.1.5,139,-0.280,-0.280,-0.280,0.000,0.000,0.000
1641234994563767040,2022-01-03-18:36:34,10.1.1.5,132,-0.270,-0.270,-0.270,0.000,0.000,0.000
1641234994763628032,2022-01-03-18:36:34,10.1.1.5,131,-0.260,-0.260,-0.260,0.000,0.000,0.000
1641234994962784000,2022-01-03-18:36:34,10.1.1.5,129,-0.250,-0.250,-0.250,0.000,0.000,0.000
1641234995182429184,2022-01-03-18:36:35,10.1.1.5,142,-0.240,-0.240,-0.240,0.000,0.000,0.000
1641234995417735936,2022-01-03-18:36:35,10.1.1.5,172,-0.230,-0.230,-0.230,0.000,0.000,0.000
1641234995581868800,2022-01-03-18:36:35,10.1.1.5,134,-0.220,-0.220,-0.220,0.000,0.000,0.000
1641234995781927936,2022-01-03-18:36:35,10.1.1.5,133,-0.210,-0.210,-0.210,0.000,0.000,0.000
1641234995982095872,2022-01-03-18:36:35,10.1.1.5,133,-0.200,-0.200,-0.200,0.000,0.000,0.000
1641234996181936128,2022-01-03-18:36:36,10.1.1.5,132,-0.190,-0.190,-0.190,0.000,0.000,0.000
1641234996380745984,2022-01-03-18:36:36,10.1.1.5,127,-0.180,-0.180,-0.180,0.000,0.000,0.000
1641234996580667904,2022-01-03-18:36:36,10.1.1.5,127,-0.170,-0.170,-0.170,0.000,0.000,0.000
1641234996783539968,2022-01-03-18:36:36,10.1.1.5,128,-0.160,-0.160,-0.160,0.000,0.000,0.000
1641234997000046848,2022-01-03-18:36:36,10.1.1.5,141,-0.150,-0.150,-0.150,0.000,0.000,0.000
1641234997199851008,2022-01-03-18:36:37,10.1.1.5,140,-0.140,-0.140,-0.140,0.000,0.000,0.000
1641234997403092992,2022-01-03-18:36:37,10.1.1.5,142,-0.130,-0.130,-0.130,0.000,0.000,0.000
1641234997600889088,2022-01-03-18:36:37,10.1.1.5,139,-0.120,-0.120,-0.120,0.000,0.000,0.000
1641234997799261952,2022-01-03-18:36:37,10.1.1.5,136,-0.110,-0.110,-0.110,0.000,0.000,0.000
1641234997999310080,2022-01-03-18:36:37,10.1.1.5,135,-0.100,-0.100,-0.100,0.000,0.000,0.000
1641234998205470976,2022-01-03-18:36:38,10.1.1.5,139,-0.090,-0.090,-0.090,0.000,0.000,0.000
1641234998398836992,2022-01-03-18:36:38,10.1.1.5,132,-0.080,-0.080,-0.080,0.000,0.000,0.000
1641234998625824000,2022-01-03-18:36:38,10.1.1.5,158,-0.070,-0.070,-0.070,0.000,0.000,0.000
1641234998855202048,2022-01-03-18:36:38,10.1.1.5,186,-0.060,-0.060,-0.060,0.000,0.000,0.000
1641234998997273856,2022-01-03-18:36:38,10.1.1.5,124,-0.050,-0.050,-0.050,0.000,0.000,0.000
1641234999201658112,2022-01-03-18:36:39,10.1.1.5,128,-0.040,-0.040,-0.040,0.000,0.000,0.000
1641234999396625920,2022-01-03-18:36:39,10.1.1.5,122,-0.030,-0.030,-0.030,0.000,0.000,0.000
1641234999616481024,2022-01-03-18:36:39,10.1.1.5,139,-0.020,-0.020,-0.020,0.000,0.000,0.000
1641234999815406080,2022-01-03-18:36:39,10.1.1.5,136,-0.010,-0.010,-0.010,0.000,0.000,0.000
1641235000016432896,2022-01-03-18:36:40,10.1.1.5,136,0.000,0.000,0.000,0.000,0.000,0.000
1641235000217032960,2022-01-03-18:36:40,10.1.1.5,136,-0.010,-0.010,-0.010,0.000,0.000,0.000
1641235000415503104,2022-01-03-18:36:40,10.1.1.5,135,-0.020,-0.020,-0.020,0.000,0.000,0.000
1641235000615483136,2022-01-03-18:36:40,10.1.1.5,134,-0.030,-0.030,-0.030,0.000,0.000,0.000
1641235000814558976,2022-01-03-18:36:40,10.1.1.5,132,-0.040,-0.040,-0.040,0.000,0.000,0.000
1641235001074477824,2022-01-03-18:36:41,10.1.1.5,191,-0.050,-0.050,-0.050,0.000,0.000,0.000
1641235001214757888,2022-01-03-18:36:41,10.1.1.5,121,-0.060,-0.060,-0.060,0.000,0.000,0.000
1641235001414971136,2022-01-03-18:36:41,10.1.1.5,120,-0.070,-0.070,-0.070,0.000,0.000,0.000
1641235001614761984,2022-01-03-18:36:41,10.1.1.5,119,-0.080,-0.080,-0.080,0.000,0.000,0.000
1641235001812622080,2022-01-03-18:36:41,10.1.1.5,116,-0.090,-0.090,-0.090,0.000,0.000,0.000
1641235002012310016,2022-01-03-18:36:42,10.1.1.5,114,-0.100,-0.100,-0.100,0.000,0.000,0.000
1641235002237602048,2022-01-03-18:36:42,10.1.1.5,139,-0.110,-0.110,-0.110,0.000,0.000,0.000
1641235002432157952,2022-01-03-18:36:42,10.1.1.5,132,-0.120,-0.120,-0.120,0.000,0.000,0.000
1641235002652788992,2022-01-03-18:36:42,10.1.1.5,151,-0.130,-0.130,-0.130,0.000,0.000,0.000
1641235002832824832,2022-01-03-18:36:42,10.1.1.5,131,-0.140,-0.140,-0.140,0.000,0.000,0.000
1641235003030982144,2022-01-03-18:36:43,10.1.1.5,128,-0.150,-0.150,-0.150,0.000,0.000,0.000
1641235003238379008,2022-01-03-18:36:43,10.1.1.5,134,-0.160,-0.160,-0.160,0.000,0.000,0.000
1641235003435800064,2022-01-03-18:36:43,10.1.1.5,123,-0.170,-0.170,-0.170,0.000,0.000,0.000
1641235003634944000,2022-01-03-18:36:43,10.1.1.5,121,-0.180,-0.180,-0.180,0.000,0.000,0.000
1641235003830953984,2022-01-03-18:36:43,10.1.1.5,115,-0.190,-0.190,-0.190,0.000,0.000,0.000
1641235004105988096,2022-01-03-18:36:44,10.1.1.5,189,-0.200,-0.200,-0.200,0.000,0.000,0.000
1641235004251041792,2022-01-03-18:36:44,10.1.1.5,132,-0.210,-0.210,-0.210,0.000,0.000,0.000
1641235004457026048,2022-01-03-18:36:44,10.1.1.5,137,-0.220,-0.220,-0.220,0.000,0.000,0.000
1641235004653656832,2022-01-03-18:36:44,10.1.1.5,132,-0.230,-0.230,-0.230,0.000,0.000,0.000
1641235004853181952,2022-01-03-18:36:44,10.1.1.5,131,-0.240,-0.240,-0.240,0.000,0.000,0.000
1641235005048209920,2022-01-03-18:36:45,10.1.1.5,126,-0.250,-0.250,-0.250,0.000,0.000,0.000
1641235005254446080,2022-01-03-18:36:45,10.1.1.5,131,-0.260,-0.260,-0.260,0.000,0.000,0.000
1641235005448786944,2022-01-03-18:36:45,10.1.1.5,124,-0.270,-0.270,-0.270,0.000,0.000,0.000
1641235005678263808,2022-01-03-18:36:45,10.1.1.5,134,-0.280,-0.280,-0.280,0.000,0.000,0.000
1641235005868252928,2022-01-03-18:36:45,10.1.1.5,123,-0.290,-0.290,-0.290,0.000,0.000,0.000
1641235006066739200,2022-01-03-18:36:46,10.1.1.5,121,-0.300,-0.300,-0.300,0.000,0.000,0.000
1641235006267183104,2022-01-03-18:36:46,10.1.1.5,120,-0.310,-0.310,-0.310,0.000,0.000,0.000
1641235006465688832,2022-01-03-18:36:46,10.1.1.5,117,-0.320,-0.320,-0.320,0.000,0.000,0.000
1641235006666095104,2022-01-03-18:36:46,10.1.1.5,116,-0.330,-0.330,-0.330,0.000,0.000,0.000
1641235006865511936,2022-01-03-18:36:46,10.1.1.5,115,-0.340,-0.340,-0.340,0.000,0.000,0.000
1641235007065068032,2022-01-03-18:36:47,10.1.1.5,113,-0.350,-0.350,-0.350,0.000,0.000,0.000
1641235007264238080,2022-01-03-18:36:47,10.1.1.5,110,-0.360,-0.360,-0.360,0.000,0.000,0.000
1641235007464854016,2022-01-03-18:36:47,10.1.1.5,110,-0.370,-0.370,-0.370,0.000,0.000,0.000
1641235007664015104,2022-01-03-18:36:47,10.1.1.5,109,-0.380,-0.380,-0.380,0.000,0.000,0.000
1641235007897216000,2022-01-03-18:36:47,10.1.1.5,140,-0.390,-0.390,-0.390,0.000,0.000,0.000
1641235008143040768,2022-01-03-18:36:48,10.1.1.5,124,-0.400,-0.400,-0.400,0.000,0.000,0.000
1641235008343542016,2022-01-03-18:36:48,10.1.1.5,123,-0.410,-0.410,-0.410,0.000,0.000,0.000
1641235008543420160,2022-01-03-18:36:48,10.1.1.5,122,-0.420,-0.420,-0.420,0.000,0.000,0.000
1641235008762622976,2022-01-03-18:36:48,10.1.1.5,123,-0.430,-0.430,-0.430,0.000,0.000,0.000
1641235009017640192,2022-01-03-18:36:49,10.1.1.5,177,-0.440,-0.440,-0.440,0.000,0.000,0.000
1641235009162360064,2022-01-03-18:36:49,10.1.1.5,120,-0.450,-0.450,-0.450,0.000,0.000,0.000
1641235009365104896,2022-01-03-18:36:49,10.1.1.5,122,-0.460,-0.460,-0.460,0.000,0.000,0.000
1641235009565511936,2022-01-03-18:36:49,10.1.1.5,122,-0.470,-0.470,-0.470,0.000,0.000,0.000
1641235009761233152,2022-01-03-18:36:49,10.1.1.5,115,-0.480,-0.480,-0.480,0.000,0.000,0.000
1641235009961443840,2022-01-03-18:36:49,10.1.1.5,115,-0.490,-0.490,-0.490,0.000,0.000,0.000
1641235010202471936,2022-01-03-18:36:50,10.1.1.5,155,-0.480,-0.480,-0.480,0.000,0.000,0.000
1641235010359731968,2022-01-03-18:36:50,10.1.1.5,110,-0.470,-0.470,-0.470,0.000,0.000,0.000
1641235010560370944,2022-01-03-18:36:50,10.1.1.5,110,-0.460,-0.460,-0.460,0.000,0.000,0.000
1641235010769411072,2022-01-03-18:36:50,10.1.1.5,118,-0.450,-0.450,-0.450,0.000,0.000,0.000
1641235010960606976,2022-01-03-18:36:50,10.1.1.5,106,-0.440,-0.440,-0.440,0.000,0.000,0.000
1641235011158243840,2022-01-03-18:36:51,10.1.1.5,102,-0.430,-0.430,-0.430,0.000,0.000,0.000
