FedericoMungari/DigitalTwin_service/01_WiredScenario/Output/Output_script/script_rosapi_2_output_robots10_freq0_9.txt
timestamp,date,node,latency,joint_1,joint_2,joint_3,joint_4,joint_5,joint_6
1644926766163635968,2022-02-15-12:06:06,10.1.1.10,-5,-0.100,-0.100,-0.100,0.000,0.000,0.000
1644926766242899968,2022-02-15-12:06:06,10.1.1.10,24,-0.090,-0.090,-0.090,0.000,0.000,0.000
1644926766302608896,2022-02-15-12:06:06,10.1.1.10,34,-0.080,-0.080,-0.080,0.000,0.000,0.000
1644926766342850048,2022-02-15-12:06:06,10.1.1.10,23,-0.070,-0.070,-0.070,0.000,0.000,0.000
1644926766403080960,2022-02-15-12:06:06,10.1.1.10,32,-0.060,-0.060,-0.060,0.000,0.000,0.000
1644926766442610944,2022-02-15-12:06:06,10.1.1.10,22,-0.050,-0.050,-0.050,0.000,0.000,0.000
1644926766503297024,2022-02-15-12:06:06,10.1.1.10,28,-0.040,-0.040,-0.040,0.000,0.000,0.000
1644926766563316224,2022-02-15-12:06:06,10.1.1.10,38,-0.030,-0.030,-0.030,0.000,0.000,0.000
1644926766602487040,2022-02-15-12:06:06,10.1.1.10,27,-0.020,-0.020,-0.020,0.000,0.000,0.000
1644926766662665984,2022-02-15-12:06:06,10.1.1.10,37,-0.010,-0.010,-0.010,0.000,0.000,0.000
1644926766702923008,2022-02-15-12:06:06,10.1.1.10,26,0.000,0.000,0.000,0.000,0.000,0.000
1644926766762260992,2022-02-15-12:06:06,10.1.1.10,36,0.010,0.010,0.010,0.000,0.000,0.000
1644926766802974976,2022-02-15-12:06:06,10.1.1.10,26,0.020,0.020,0.020,0.000,0.000,0.000
1644926766862489088,2022-02-15-12:06:06,10.1.1.10,35,0.030,0.030,0.030,0.000,0.000,0.000
1644926766902731776,2022-02-15-12:06:06,10.1.1.10,24,0.040,0.040,0.040,0.000,0.000,0.000
1644926766962807808,2022-02-15-12:06:06,10.1.1.10,34,0.050,0.050,0.050,0.000,0.000,0.000
1644926767003421952,2022-02-15-12:06:07,10.1.1.10,23,0.060,0.060,0.060,0.000,0.000,0.000
1644926767062430976,2022-02-15-12:06:07,10.1.1.10,33,0.070,0.070,0.070,0.000,0.000,0.000
1644926767102649856,2022-02-15-12:06:07,10.1.1.10,22,0.080,0.080,0.080,0.000,0.000,0.000
1644926767162764032,2022-02-15-12:06:07,10.1.1.10,31,0.090,0.090,0.090,0.000,0.000,0.000
1644926767202523904,2022-02-15-12:06:07,10.1.1.10,20,0.100,0.100,0.100,0.000,0.000,0.000
1644926767263886848,2022-02-15-12:06:07,10.1.1.10,30,0.090,0.090,0.090,0.000,0.000,0.000
1644926767331083008,2022-02-15-12:06:07,10.1.1.10,36,0.080,0.080,0.080,0.000,0.000,0.000
1644926767383116032,2022-02-15-12:06:07,10.1.1.10,38,0.070,0.070,0.070,0.000,0.000,0.000
1644926767422638848,2022-02-15-12:06:07,10.1.1.10,27,0.060,0.060,0.060,0.000,0.000,0.000
1644926767483460864,2022-02-15-12:06:07,10.1.1.10,36,0.050,0.050,0.050,0.000,0.000,0.000
1644926767523066112,2022-02-15-12:06:07,10.1.1.10,25,0.040,0.040,0.040,0.000,0.000,0.000
1644926767583064064,2022-02-15-12:06:07,10.1.1.10,35,0.030,0.030,0.030,0.000,0.000,0.000
1644926767622707968,2022-02-15-12:06:07,10.1.1.10,24,0.020,0.020,0.020,0.000,0.000,0.000
1644926767683250944,2022-02-15-12:06:07,10.1.1.10,34,0.010,0.010,0.010,0.000,0.000,0.000
1644926767723220224,2022-02-15-12:06:07,10.1.1.10,22,0.000,0.000,0.000,0.000,0.000,0.000
1644926767782556160,2022-02-15-12:06:07,10.1.1.10,31,-0.010,-0.010,-0.010,0.000,0.000,0.000
1644926767822739968,2022-02-15-12:06:07,10.1.1.10,21,-0.020,-0.020,-0.020,0.000,0.000,0.000
1644926767882744064,2022-02-15-12:06:07,10.1.1.10,30,-0.030,-0.030,-0.030,0.000,0.000,0.000
1644926767923101952,2022-02-15-12:06:07,10.1.1.10,20,-0.040,-0.040,-0.040,0.000,0.000,0.000
1644926767983382016,2022-02-15-12:06:07,10.1.1.10,29,-0.050,-0.050,-0.050,0.000,0.000,0.000
1644926768043442944,2022-02-15-12:06:08,10.1.1.10,38,-0.060,-0.060,-0.060,0.000,0.000,0.000
1644926768082621184,2022-02-15-12:06:08,10.1.1.10,27,-0.070,-0.070,-0.070,0.000,0.000,0.000
1644926768142683904,2022-02-15-12:06:08,10.1.1.10,36,-0.080,-0.080,-0.080,0.000,0.000,0.000
1644926768183054080,2022-02-15-12:06:08,10.1.1.10,26,-0.090,-0.090,-0.090,0.000,0.000,0.000
1644926768242566144,2022-02-15-12:06:08,10.1.1.10,35,-0.100,-0.100,-0.100,0.000,0.000,0.000
1644926768282690048,2022-02-15-12:06:08,10.1.1.10,25,-0.090,-0.090,-0.090,0.000,0.000,0.000
1644926768303837952,2022-02-15-12:06:08,10.1.1.10,-6,-0.090,-0.090,-0.090,0.000,0.000,0.000
1644926768383097856,2022-02-15-12:06:08,10.1.1.10,24,-0.070,-0.070,-0.070,0.000,0.000,0.000
1644926768443022080,2022-02-15-12:06:08,10.1.1.10,33,-0.060,-0.060,-0.060,0.000,0.000,0.000
1644926768483122944,2022-02-15-12:06:08,10.1.1.10,22,-0.050,-0.050,-0.050,0.000,0.000,0.000
1644926768543100160,2022-02-15-12:06:08,10.1.1.10,31,-0.040,-0.040,-0.040,0.000,0.000,0.000
1644926768582483968,2022-02-15-12:06:08,10.1.1.10,21,-0.030,-0.030,-0.030,0.000,0.000,0.000
1644926768642343936,2022-02-15-12:06:08,10.1.1.10,30,-0.020,-0.020,-0.020,0.000,0.000,0.000
1644926768683109120,2022-02-15-12:06:08,10.1.1.10,20,-0.010,-0.010,-0.010,0.000,0.000,0.000
1644926768742747136,2022-02-15-12:06:08,10.1.1.10,29,0.000,0.000,0.000,0.000,0.000,0.000
1644926768803195904,2022-02-15-12:06:08,10.1.1.10,38,0.010,0.010,0.010,0.000,0.000,0.000
1644926768842443008,2022-02-15-12:06:08,10.1.1.10,26,0.020,0.020,0.020,0.000,0.000,0.000
1644926768902465024,2022-02-15-12:06:08,10.1.1.10,35,0.030,0.030,0.030,0.000,0.000,0.000
1644926768943436032,2022-02-15-12:06:08,10.1.1.10,24,0.040,0.040,0.040,0.000,0.000,0.000
1644926769002590976,2022-02-15-12:06:09,10.1.1.10,33,0.050,0.050,0.050,0.000,0.000,0.000
1644926769042615040,2022-02-15-12:06:09,10.1.1.10,23,0.060,0.060,0.060,0.000,0.000,0.000
1644926769102822144,2022-02-15-12:06:09,10.1.1.10,31,0.070,0.070,0.070,0.000,0.000,0.000
1644926769142600960,2022-02-15-12:06:09,10.1.1.10,21,0.080,0.080,0.080,0.000,0.000,0.000
1644926769202692864,2022-02-15-12:06:09,10.1.1.10,30,0.090,0.090,0.090,0.000,0.000,0.000
1644926769242746112,2022-02-15-12:06:09,10.1.1.10,20,0.100,0.100,0.100,0.000,0.000,0.000
1644926769302497024,2022-02-15-12:06:09,10.1.1.10,29,0.090,0.090,0.090,0.000,0.000,0.000
1644926769362477056,2022-02-15-12:06:09,10.1.1.10,38,0.080,0.080,0.080,0.000,0.000,0.000
1644926769402620160,2022-02-15-12:06:09,10.1.1.10,27,0.070,0.070,0.070,0.000,0.000,0.000
1644926769462277888,2022-02-15-12:06:09,10.1.1.10,36,0.060,0.060,0.060,0.000,0.000,0.000
1644926769502650112,2022-02-15-12:06:09,10.1.1.10,25,0.050,0.050,0.050,0.000,0.000,0.000
1644926769562977024,2022-02-15-12:06:09,10.1.1.10,35,0.040,0.040,0.040,0.000,0.000,0.000
1644926769602940160,2022-02-15-12:06:09,10.1.1.10,24,0.030,0.030,0.030,0.000,0.000,0.000
1644926769662332160,2022-02-15-12:06:09,10.1.1.10,32,0.020,0.020,0.020,0.000,0.000,0.000
1644926769702205952,2022-02-15-12:06:09,10.1.1.10,21,0.010,0.010,0.010,0.000,0.000,0.000
1644926769762647040,2022-02-15-12:06:09,10.1.1.10,30,0.000,0.000,0.000,0.000,0.000,0.000
1644926769822514944,2022-02-15-12:06:09,10.1.1.10,38,-0.010,-0.010,-0.010,0.000,0.000,0.000
1644926769862541056,2022-02-15-12:06:09,10.1.1.10,27,-0.020,-0.020,-0.020,0.000,0.000,0.000
1644926769922535936,2022-02-15-12:06:09,10.1.1.10,36,-0.030,-0.030,-0.030,0.000,0.000,0.000
1644926769962275072,2022-02-15-12:06:09,10.1.1.10,26,-0.040,-0.040,-0.040,0.000,0.000,0.000
1644926770023204096,2022-02-15-12:06:10,10.1.1.10,35,-0.050,-0.050,-0.050,0.000,0.000,0.000
1644926770062719232,2022-02-15-12:06:10,10.1.1.10,25,-0.060,-0.060,-0.060,0.000,0.000,0.000
1644926770122536960,2022-02-15-12:06:10,10.1.1.10,34,-0.070,-0.070,-0.070,0.000,0.000,0.000
1644926770162853120,2022-02-15-12:06:10,10.1.1.10,23,-0.080,-0.080,-0.080,0.000,0.000,0.000
1644926770222578176,2022-02-15-12:06:10,10.1.1.10,33,-0.090,-0.090,-0.090,0.000,0.000,0.000
1644926770275463168,2022-02-15-12:06:10,10.1.1.10,21,-0.100,-0.100,-0.100,0.000,0.000,0.000
1644926770328749056,2022-02-15-12:06:10,10.1.1.10,29,-0.090,-0.090,-0.090,0.000,0.000,0.000
1644926770423137792,2022-02-15-12:06:10,10.1.1.10,39,-0.080,-0.080,-0.080,0.000,0.000,0.000
1644926770462625024,2022-02-15-12:06:10,10.1.1.10,28,-0.070,-0.070,-0.070,0.000,0.000,0.000
1644926770523749120,2022-02-15-12:06:10,10.1.1.10,37,-0.060,-0.060,-0.060,0.000,0.000,0.000
1644926770563076096,2022-02-15-12:06:10,10.1.1.10,26,-0.050,-0.050,-0.050,0.000,0.000,0.000
1644926770622926080,2022-02-15-12:06:10,10.1.1.10,36,-0.040,-0.040,-0.040,0.000,0.000,0.000
1644926770662774016,2022-02-15-12:06:10,10.1.1.10,25,-0.030,-0.030,-0.030,0.000,0.000,0.000
1644926770723265024,2022-02-15-12:06:10,10.1.1.10,34,-0.020,-0.020,-0.020,0.000,0.000,0.000
1644926770763055104,2022-02-15-12:06:10,10.1.1.10,23,-0.010,-0.010,-0.010,0.000,0.000,0.000
1644926770822398976,2022-02-15-12:06:10,10.1.1.10,30,0.000,0.000,0.000,0.000,0.000,0.000
1644926770862694144,2022-02-15-12:06:10,10.1.1.10,20,0.010,0.010,0.010,0.000,0.000,0.000
1644926770923208960,2022-02-15-12:06:10,10.1.1.10,29,0.020,0.020,0.020,0.000,0.000,0.000
1644926770961992960,2022-02-15-12:06:10,10.1.1.10,19,0.029,0.029,0.029,0.000,0.000,0.000
1644926771023362048,2022-02-15-12:06:11,10.1.1.10,26,0.040,0.040,0.040,0.000,0.000,0.000
1644926771082444032,2022-02-15-12:06:11,10.1.1.10,35,0.050,0.050,0.050,0.000,0.000,0.000
1644926771122029056,2022-02-15-12:06:11,10.1.1.10,24,0.060,0.060,0.060,0.000,0.000,0.000
1644926771182797824,2022-02-15-12:06:11,10.1.1.10,34,0.070,0.070,0.070,0.000,0.000,0.000
1644926771222125056,2022-02-15-12:06:11,10.1.1.10,23,0.080,0.080,0.080,0.000,0.000,0.000
1644926771284109056,2022-02-15-12:06:11,10.1.1.10,30,0.090,0.090,0.090,0.000,0.000,0.000
1644926771322391040,2022-02-15-12:06:11,10.1.1.10,20,0.100,0.100,0.100,0.000,0.000,0.000
1644926771382339072,2022-02-15-12:06:11,10.1.1.10,29,0.090,0.090,0.090,0.000,0.000,0.000
1644926771422703872,2022-02-15-12:06:11,10.1.1.10,19,0.081,0.081,0.081,0.000,0.000,0.000
1644926771482491904,2022-02-15-12:06:11,10.1.1.10,28,0.070,0.070,0.070,0.000,0.000,0.000
1644926771543045120,2022-02-15-12:06:11,10.1.1.10,38,0.060,0.060,0.060,0.000,0.000,0.000
1644926771582267904,2022-02-15-12:06:11,10.1.1.10,27,0.050,0.050,0.050,0.000,0.000,0.000
1644926771642604032,2022-02-15-12:06:11,10.1.1.10,35,0.040,0.040,0.040,0.000,0.000,0.000
1644926771682455040,2022-02-15-12:06:11,10.1.1.10,25,0.030,0.030,0.030,0.000,0.000,0.000
1644926771743126016,2022-02-15-12:06:11,10.1.1.10,34,0.020,0.020,0.020,0.000,0.000,0.000
1644926771783458048,2022-02-15-12:06:11,10.1.1.10,24,0.010,0.010,0.010,0.000,0.000,0.000
1644926771962694912,2022-02-15-12:06:11,10.1.1.10,23,-0.020,-0.020,-0.020,0.000,0.000,0.000
1644926772023633920,2022-02-15-12:06:12,10.1.1.10,32,-0.030,-0.030,-0.030,0.000,0.000,0.000
1644926772063392000,2022-02-15-12:06:12,10.1.1.10,21,-0.040,-0.040,-0.040,0.000,0.000,0.000
1644926772122324992,2022-02-15-12:06:12,10.1.1.10,30,-0.050,-0.050,-0.050,0.000,0.000,0.000
1644926772164068096,2022-02-15-12:06:12,10.1.1.10,20,-0.060,-0.060,-0.060,0.000,0.000,0.000
1644926772226320896,2022-02-15-12:06:12,10.1.1.10,29,-0.070,-0.070,-0.070,0.000,0.000,0.000
1644926772262584832,2022-02-15-12:06:12,10.1.1.10,18,-0.079,-0.079,-0.079,0.000,0.000,0.000
1644926772323482880,2022-02-15-12:06:12,10.1.1.10,27,-0.090,-0.090,-0.090,0.000,0.000,0.000
1644926772382818048,2022-02-15-12:06:12,10.1.1.10,36,-0.100,-0.100,-0.100,0.000,0.000,0.000
1644926772423436032,2022-02-15-12:06:12,10.1.1.10,25,-0.090,-0.090,-0.090,0.000,0.000,0.000
1644926772483524096,2022-02-15-12:06:12,10.1.1.10,35,-0.080,-0.080,-0.080,0.000,0.000,0.000
1644926772522586112,2022-02-15-12:06:12,10.1.1.10,25,-0.070,-0.070,-0.070,0.000,0.000,0.000
1644926772582827008,2022-02-15-12:06:12,10.1.1.10,35,-0.060,-0.060,-0.060,0.000,0.000,0.000
1644926772623513856,2022-02-15-12:06:12,10.1.1.10,23,-0.050,-0.050,-0.050,0.000,0.000,0.000
1644926772682960128,2022-02-15-12:06:12,10.1.1.10,32,-0.040,-0.040,-0.040,0.000,0.000,0.000
1644926772722592000,2022-02-15-12:06:12,10.1.1.10,21,-0.030,-0.030,-0.030,0.000,0.000,0.000
1644926772783247104,2022-02-15-12:06:12,10.1.1.10,30,-0.020,-0.020,-0.020,0.000,0.000,0.000
1644926772823555840,2022-02-15-12:06:12,10.1.1.10,20,-0.010,-0.010,-0.010,0.000,0.000,0.000
1644926772882309888,2022-02-15-12:06:12,10.1.1.10,30,0.000,0.000,0.000,0.000,0.000,0.000
1644926772922919936,2022-02-15-12:06:12,10.1.1.10,19,0.010,0.010,0.010,0.000,0.000,0.000
1644926772982521088,2022-02-15-12:06:12,10.1.1.10,29,0.020,0.020,0.020,0.000,0.000,0.000
1644926773042771200,2022-02-15-12:06:13,10.1.1.10,39,0.030,0.030,0.030,0.000,0.000,0.000
1644926773082726912,2022-02-15-12:06:13,10.1.1.10,28,0.040,0.040,0.040,0.000,0.000,0.000
1644926773143357952,2022-02-15-12:06:13,10.1.1.10,38,0.050,0.050,0.050,0.000,0.000,0.000
1644926773183172864,2022-02-15-12:06:13,10.1.1.10,26,0.060,0.060,0.060,0.000,0.000,0.000
1644926773243501824,2022-02-15-12:06:13,10.1.1.10,36,0.070,0.070,0.070,0.000,0.000,0.000
1644926773282778112,2022-02-15-12:06:13,10.1.1.10,25,0.080,0.080,0.080,0.000,0.000,0.000
1644926773343890944,2022-02-15-12:06:13,10.1.1.10,34,0.090,0.090,0.090,0.000,0.000,0.000
1644926773383641088,2022-02-15-12:06:13,10.1.1.10,23,0.100,0.100,0.100,0.000,0.000,0.000
1644926773443059968,2022-02-15-12:06:13,10.1.1.10,33,0.090,0.090,0.090,0.000,0.000,0.000
1644926773482786048,2022-02-15-12:06:13,10.1.1.10,23,0.080,0.080,0.080,0.000,0.000,0.000
1644926773542691840,2022-02-15-12:06:13,10.1.1.10,32,0.070,0.070,0.070,0.000,0.000,0.000
1644926773583086848,2022-02-15-12:06:13,10.1.1.10,20,0.060,0.060,0.060,0.000,0.000,0.000
1644926773643016192,2022-02-15-12:06:13,10.1.1.10,29,0.050,0.050,0.050,0.000,0.000,0.000
1644926773682596864,2022-02-15-12:06:13,10.1.1.10,19,0.040,0.040,0.040,0.000,0.000,0.000
1644926773743144960,2022-02-15-12:06:13,10.1.1.10,29,0.030,0.030,0.030,0.000,0.000,0.000
1644926773802864128,2022-02-15-12:06:13,10.1.1.10,38,0.020,0.020,0.020,0.000,0.000,0.000
1644926773843638016,2022-02-15-12:06:13,10.1.1.10,28,0.010,0.010,0.010,0.000,0.000,0.000
1644926773903773952,2022-02-15-12:06:13,10.1.1.10,36,0.000,0.000,0.000,0.000,0.000,0.000
1644926773942476032,2022-02-15-12:06:13,10.1.1.10,26,-0.010,-0.010,-0.010,0.000,0.000,0.000
1644926774003022080,2022-02-15-12:06:14,10.1.1.10,36,-0.020,-0.020,-0.020,0.000,0.000,0.000
1644926774042804992,2022-02-15-12:06:14,10.1.1.10,25,-0.030,-0.030,-0.030,0.000,0.000,0.000
1644926774102483968,2022-02-15-12:06:14,10.1.1.10,34,-0.040,-0.040,-0.040,0.000,0.000,0.000
1644926774143419136,2022-02-15-12:06:14,10.1.1.10,24,-0.050,-0.050,-0.050,0.000,0.000,0.000
1644926774203002880,2022-02-15-12:06:14,10.1.1.10,32,-0.060,-0.060,-0.060,0.000,0.000,0.000
1644926774243266048,2022-02-15-12:06:14,10.1.1.10,20,-0.070,-0.070,-0.070,0.000,0.000,0.000
1644926774302464000,2022-02-15-12:06:14,10.1.1.10,30,-0.080,-0.080,-0.080,0.000,0.000,0.000
1644926774344642048,2022-02-15-12:06:14,10.1.1.10,19,-0.089,-0.089,-0.089,0.000,0.000,0.000
1644926774403096832,2022-02-15-12:06:14,10.1.1.10,28,-0.100,-0.100,-0.100,0.000,0.000,0.000
1644926774463488000,2022-02-15-12:06:14,10.1.1.10,38,-0.090,-0.090,-0.090,0.000,0.000,0.000
1644926774502384896,2022-02-15-12:06:14,10.1.1.10,27,-0.080,-0.080,-0.080,0.000,0.000,0.000
1644926774563513088,2022-02-15-12:06:14,10.1.1.10,36,-0.070,-0.070,-0.070,0.000,0.000,0.000
1644926774602683136,2022-02-15-12:06:14,10.1.1.10,25,-0.060,-0.060,-0.060,0.000,0.000,0.000
1644926774663532032,2022-02-15-12:06:14,10.1.1.10,35,-0.050,-0.050,-0.050,0.000,0.000,0.000
1644926774702436864,2022-02-15-12:06:14,10.1.1.10,23,-0.040,-0.040,-0.040,0.000,0.000,0.000
1644926774763389952,2022-02-15-12:06:14,10.1.1.10,32,-0.030,-0.030,-0.030,0.000,0.000,0.000
1644926774803305984,2022-02-15-12:06:14,10.1.1.10,20,-0.020,-0.020,-0.020,0.000,0.000,0.000
1644926774863409152,2022-02-15-12:06:14,10.1.1.10,30,-0.010,-0.010,-0.010,0.000,0.000,0.000
1644926774902977024,2022-02-15-12:06:14,10.1.1.10,20,0.000,0.000,0.000,0.000,0.000,0.000
1644926774963741952,2022-02-15-12:06:14,10.1.1.10,29,0.010,0.010,0.010,0.000,0.000,0.000
1644926775003027968,2022-02-15-12:06:15,10.1.1.10,19,0.019,0.019,0.019,0.000,0.000,0.000
1644926775063482880,2022-02-15-12:06:15,10.1.1.10,29,0.030,0.030,0.030,0.000,0.000,0.000
1644926775123372032,2022-02-15-12:06:15,10.1.1.10,38,0.040,0.040,0.040,0.000,0.000,0.000
1644926775163151872,2022-02-15-12:06:15,10.1.1.10,26,0.050,0.050,0.050,0.000,0.000,0.000
1644926775223407872,2022-02-15-12:06:15,10.1.1.10,35,0.060,0.060,0.060,0.000,0.000,0.000
1644926775263504128,2022-02-15-12:06:15,10.1.1.10,24,0.070,0.070,0.070,0.000,0.000,0.000
1644926775323064064,2022-02-15-12:06:15,10.1.1.10,34,0.080,0.080,0.080,0.000,0.000,0.000
1644926775363224064,2022-02-15-12:06:15,10.1.1.10,24,0.090,0.090,0.090,0.000,0.000,0.000
1644926775422877952,2022-02-15-12:06:15,10.1.1.10,33,0.100,0.100,0.100,0.000,0.000,0.000
1644926775462732032,2022-02-15-12:06:15,10.1.1.10,23,0.090,0.090,0.090,0.000,0.000,0.000
1644926775523084032,2022-02-15-12:06:15,10.1.1.10,33,0.080,0.080,0.080,0.000,0.000,0.000
1644926775563410944,2022-02-15-12:06:15,10.1.1.10,22,0.070,0.070,0.070,0.000,0.000,0.000
1644926775623709952,2022-02-15-12:06:15,10.1.1.10,32,0.060,0.060,0.060,0.000,0.000,0.000
1644926775663047936,2022-02-15-12:06:15,10.1.1.10,21,0.050,0.050,0.050,0.000,0.000,0.000
1644926775722637824,2022-02-15-12:06:15,10.1.1.10,30,0.040,0.040,0.040,0.000,0.000,0.000
1644926775763207936,2022-02-15-12:06:15,10.1.1.10,20,0.030,0.030,0.030,0.000,0.000,0.000
1644926775822639104,2022-02-15-12:06:15,10.1.1.10,30,0.020,0.020,0.020,0.000,0.000,0.000
1644926775863476992,2022-02-15-12:06:15,10.1.1.10,19,0.011,0.011,0.011,0.000,0.000,0.000
1644926775923501056,2022-02-15-12:06:15,10.1.1.10,28,0.000,0.000,0.000,0.000,0.000,0.000
1644926775983571968,2022-02-15-12:06:15,10.1.1.10,38,-0.010,-0.010,-0.010,0.000,0.000,0.000
1644926776022618112,2022-02-15-12:06:16,10.1.1.10,27,-0.020,-0.020,-0.020,0.000,0.000,0.000
1644926776083378944,2022-02-15-12:06:16,10.1.1.10,36,-0.030,-0.030,-0.030,0.000,0.000,0.000
1644926776122628096,2022-02-15-12:06:16,10.1.1.10,25,-0.040,-0.040,-0.040,0.000,0.000,0.000
1644926776183240960,2022-02-15-12:06:16,10.1.1.10,35,-0.050,-0.050,-0.050,0.000,0.000,0.000
1644926776222989056,2022-02-15-12:06:16,10.1.1.10,24,-0.060,-0.060,-0.060,0.000,0.000,0.000
1644926776282934784,2022-02-15-12:06:16,10.1.1.10,34,-0.070,-0.070,-0.070,0.000,0.000,0.000
1644926776322746112,2022-02-15-12:06:16,10.1.1.10,23,-0.080,-0.080,-0.080,0.000,0.000,0.000
1644926776383269120,2022-02-15-12:06:16,10.1.1.10,33,-0.090,-0.090,-0.090,0.000,0.000,0.000
1644926776422949120,2022-02-15-12:06:16,10.1.1.10,22,-0.100,-0.100,-0.100,0.000,0.000,0.000
1644926776482758144,2022-02-15-12:06:16,10.1.1.10,31,-0.090,-0.090,-0.090,0.000,0.000,0.000
1644926776523482112,2022-02-15-12:06:16,10.1.1.10,20,-0.080,-0.080,-0.080,0.000,0.000,0.000
1644926776583663872,2022-02-15-12:06:16,10.1.1.10,29,-0.070,-0.070,-0.070,0.000,0.000,0.000
1644926776623158016,2022-02-15-12:06:16,10.1.1.10,19,-0.060,-0.060,-0.060,0.000,0.000,0.000
1644926776683182080,2022-02-15-12:06:16,10.1.1.10,29,-0.050,-0.050,-0.050,0.000,0.000,0.000
1644926776743046912,2022-02-15-12:06:16,10.1.1.10,38,-0.040,-0.040,-0.040,0.000,0.000,0.000
1644926776783655936,2022-02-15-12:06:16,10.1.1.10,27,-0.030,-0.030,-0.030,0.000,0.000,0.000
1644926776843340032,2022-02-15-12:06:16,10.1.1.10,35,-0.020,-0.020,-0.020,0.000,0.000,0.000
1644926776882905088,2022-02-15-12:06:16,10.1.1.10,24,-0.010,-0.010,-0.010,0.000,0.000,0.000
1644926776942893056,2022-02-15-12:06:16,10.1.1.10,33,0.000,0.000,0.000,0.000,0.000,0.000
1644926776983236096,2022-02-15-12:06:16,10.1.1.10,22,0.010,0.010,0.010,0.000,0.000,0.000
1644926777032921088,2022-02-15-12:06:17,10.1.1.10,21,0.020,0.020,0.020,0.000,0.000,0.000
1644926777083163904,2022-02-15-12:06:17,10.1.1.10,20,0.030,0.030,0.030,0.000,0.000,0.000
1644926777142811904,2022-02-15-12:06:17,10.1.1.10,29,0.040,0.040,0.040,0.000,0.000,0.000
1644926777262768896,2022-02-15-12:06:17,10.1.1.10,38,0.060,0.060,0.060,0.000,0.000,0.000
1644926777302649856,2022-02-15-12:06:17,10.1.1.10,28,0.070,0.070,0.070,0.000,0.000,0.000
1644926777362849024,2022-02-15-12:06:17,10.1.1.10,38,0.080,0.080,0.080,0.000,0.000,0.000
1644926777402940928,2022-02-15-12:06:17,10.1.1.10,26,0.090,0.090,0.090,0.000,0.000,0.000
1644926777463282176,2022-02-15-12:06:17,10.1.1.10,35,0.100,0.100,0.100,0.000,0.000,0.000
1644926777502376192,2022-02-15-12:06:17,10.1.1.10,23,0.090,0.090,0.090,0.000,0.000,0.000
1644926777562816000,2022-02-15-12:06:17,10.1.1.10,32,0.080,0.080,0.080,0.000,0.000,0.000
1644926777603072000,2022-02-15-12:06:17,10.1.1.10,20,0.070,0.070,0.070,0.000,0.000,0.000
1644926777663342848,2022-02-15-12:06:17,10.1.1.10,29,0.060,0.060,0.060,0.000,0.000,0.000
1644926777723720192,2022-02-15-12:06:17,10.1.1.10,38,0.050,0.050,0.050,0.000,0.000,0.000
1644926777763271936,2022-02-15-12:06:17,10.1.1.10,27,0.040,0.040,0.040,0.000,0.000,0.000
1644926777822705152,2022-02-15-12:06:17,10.1.1.10,37,0.030,0.030,0.030,0.000,0.000,0.000
1644926777863078144,2022-02-15-12:06:17,10.1.1.10,26,0.020,0.020,0.020,0.000,0.000,0.000
1644926777923172096,2022-02-15-12:06:17,10.1.1.10,36,0.010,0.010,0.010,0.000,0.000,0.000
1644926777963239936,2022-02-15-12:06:17,10.1.1.10,26,0.000,0.000,0.000,0.000,0.000,0.000
1644926778023656960,2022-02-15-12:06:18,10.1.1.10,35,-0.010,-0.010,-0.010,0.000,0.000,0.000
1644926778063721984,2022-02-15-12:06:18,10.1.1.10,25,-0.020,-0.020,-0.020,0.000,0.000,0.000
1644926778123357952,2022-02-15-12:06:18,10.1.1.10,34,-0.030,-0.030,-0.030,0.000,0.000,0.000
1644926778162967040,2022-02-15-12:06:18,10.1.1.10,23,-0.040,-0.040,-0.040,0.000,0.000,0.000
1644926778223706112,2022-02-15-12:06:18,10.1.1.10,30,-0.050,-0.050,-0.050,0.000,0.000,0.000
1644926778263452160,2022-02-15-12:06:18,10.1.1.10,20,-0.060,-0.060,-0.060,0.000,0.000,0.000
1644926778322626048,2022-02-15-12:06:18,10.1.1.10,29,-0.070,-0.070,-0.070,0.000,0.000,0.000
1644926778383725824,2022-02-15-12:06:18,10.1.1.10,36,-0.080,-0.080,-0.080,0.000,0.000,0.000
1644926778423609856,2022-02-15-12:06:18,10.1.1.10,25,-0.090,-0.090,-0.090,0.000,0.000,0.000
1644926778483023872,2022-02-15-12:06:18,10.1.1.10,34,-0.100,-0.100,-0.100,0.000,0.000,0.000
1644926778523323904,2022-02-15-12:06:18,10.1.1.10,24,-0.090,-0.090,-0.090,0.000,0.000,0.000
1644926778582948096,2022-02-15-12:06:18,10.1.1.10,31,-0.080,-0.080,-0.080,0.000,0.000,0.000
1644926778624006144,2022-02-15-12:06:18,10.1.1.10,20,-0.070,-0.070,-0.070,0.000,0.000,0.000
1644926778682845184,2022-02-15-12:06:18,10.1.1.10,30,-0.060,-0.060,-0.060,0.000,0.000,0.000
1644926778723303168,2022-02-15-12:06:18,10.1.1.10,19,-0.050,-0.050,-0.050,0.000,0.000,0.000
1644926778782761984,2022-02-15-12:06:18,10.1.1.10,29,-0.040,-0.040,-0.040,0.000,0.000,0.000
1644926778842731008,2022-02-15-12:06:18,10.1.1.10,37,-0.030,-0.030,-0.030,0.000,0.000,0.000
1644926778883294976,2022-02-15-12:06:18,10.1.1.10,27,-0.020,-0.020,-0.020,0.000,0.000,0.000
1644926778943139072,2022-02-15-12:06:18,10.1.1.10,36,-0.010,-0.010,-0.010,0.000,0.000,0.000
1644926778983032832,2022-02-15-12:06:18,10.1.1.10,25,0.000,0.000,0.000,0.000,0.000,0.000
1644926779042471936,2022-02-15-12:06:19,10.1.1.10,35,0.010,0.010,0.010,0.000,0.000,0.000
1644926779083576832,2022-02-15-12:06:19,10.1.1.10,24,0.020,0.020,0.020,0.000,0.000,0.000
1644926779143290112,2022-02-15-12:06:19,10.1.1.10,34,0.030,0.030,0.030,0.000,0.000,0.000
1644926779183057920,2022-02-15-12:06:19,10.1.1.10,22,0.040,0.040,0.040,0.000,0.000,0.000
1644926779243827200,2022-02-15-12:06:19,10.1.1.10,31,0.050,0.050,0.050,0.000,0.000,0.000
1644926779282648064,2022-02-15-12:06:19,10.1.1.10,20,0.060,0.060,0.060,0.000,0.000,0.000
1644926779342704896,2022-02-15-12:06:19,10.1.1.10,29,0.070,0.070,0.070,0.000,0.000,0.000
1644926779383127808,2022-02-15-12:06:19,10.1.1.10,19,0.080,0.080,0.080,0.000,0.000,0.000
1644926779443040000,2022-02-15-12:06:19,10.1.1.10,29,0.090,0.090,0.090,0.000,0.000,0.000
1644926779503525888,2022-02-15-12:06:19,10.1.1.10,38,0.100,0.100,0.100,0.000,0.000,0.000
1644926779542998016,2022-02-15-12:06:19,10.1.1.10,28,0.090,0.090,0.090,0.000,0.000,0.000
1644926779607321856,2022-02-15-12:06:19,10.1.1.10,37,0.080,0.080,0.080,0.000,0.000,0.000
1644926779642543104,2022-02-15-12:06:19,10.1.1.10,27,0.070,0.070,0.070,0.000,0.000,0.000
1644926779702766848,2022-02-15-12:06:19,10.1.1.10,36,0.060,0.060,0.060,0.000,0.000,0.000
1644926779742525952,2022-02-15-12:06:19,10.1.1.10,26,0.050,0.050,0.050,0.000,0.000,0.000
1644926779802910208,2022-02-15-12:06:19,10.1.1.10,35,0.040,0.040,0.040,0.000,0.000,0.000
1644926779842683904,2022-02-15-12:06:19,10.1.1.10,24,0.030,0.030,0.030,0.000,0.000,0.000
1644926779903259904,2022-02-15-12:06:19,10.1.1.10,34,0.020,0.020,0.020,0.000,0.000,0.000
1644926779943172096,2022-02-15-12:06:19,10.1.1.10,23,0.010,0.010,0.010,0.000,0.000,0.000
1644926780003091200,2022-02-15-12:06:20,10.1.1.10,32,0.000,0.000,0.000,0.000,0.000,0.000
1644926780042996992,2022-02-15-12:06:20,10.1.1.10,21,-0.010,-0.010,-0.010,0.000,0.000,0.000
1644926780111239936,2022-02-15-12:06:20,10.1.1.10,28,-0.020,-0.020,-0.020,0.000,0.000,0.000
1644926780167720192,2022-02-15-12:06:20,10.1.1.10,37,-0.030,-0.030,-0.030,0.000,0.000,0.000
1644926780202361088,2022-02-15-12:06:20,10.1.1.10,25,-0.040,-0.040,-0.040,0.000,0.000,0.000
1644926780262792960,2022-02-15-12:06:20,10.1.1.10,35,-0.050,-0.050,-0.050,0.000,0.000,0.000
1644926780304058112,2022-02-15-12:06:20,10.1.1.10,25,-0.060,-0.060,-0.060,0.000,0.000,0.000
1644926780363023104,2022-02-15-12:06:20,10.1.1.10,34,-0.070,-0.070,-0.070,0.000,0.000,0.000
1644926780402358016,2022-02-15-12:06:20,10.1.1.10,24,-0.080,-0.080,-0.080,0.000,0.000,0.000
1644926780503129856,2022-02-15-12:06:20,10.1.1.10,37,-0.090,-0.090,-0.090,0.000,0.000,0.000
1644926780542704128,2022-02-15-12:06:20,10.1.1.10,26,-0.100,-0.100,-0.100,0.000,0.000,0.000
1644926780602906112,2022-02-15-12:06:20,10.1.1.10,36,-0.090,-0.090,-0.090,0.000,0.000,0.000
1644926780642724096,2022-02-15-12:06:20,10.1.1.10,25,-0.080,-0.080,-0.080,0.000,0.000,0.000
1644926780702930944,2022-02-15-12:06:20,10.1.1.10,35,-0.070,-0.070,-0.070,0.000,0.000,0.000
1644926780742577152,2022-02-15-12:06:20,10.1.1.10,24,-0.060,-0.060,-0.060,0.000,0.000,0.000
1644926780802427904,2022-02-15-12:06:20,10.1.1.10,33,-0.050,-0.050,-0.050,0.000,0.000,0.000
1644926780842484992,2022-02-15-12:06:20,10.1.1.10,22,-0.040,-0.040,-0.040,0.000,0.000,0.000
1644926780902801920,2022-02-15-12:06:20,10.1.1.10,32,-0.030,-0.030,-0.030,0.000,0.000,0.000
1644926780942612992,2022-02-15-12:06:20,10.1.1.10,22,-0.020,-0.020,-0.020,0.000,0.000,0.000
1644926781002806784,2022-02-15-12:06:21,10.1.1.10,31,-0.010,-0.010,-0.010,0.000,0.000,0.000
1644926781042352896,2022-02-15-12:06:21,10.1.1.10,20,0.000,0.000,0.000,0.000,0.000,0.000
1644926781102868992,2022-02-15-12:06:21,10.1.1.10,30,0.010,0.010,0.010,0.000,0.000,0.000
1644926781142985216,2022-02-15-12:06:21,10.1.1.10,20,0.020,0.020,0.020,0.000,0.000,0.000
1644926781202334976,2022-02-15-12:06:21,10.1.1.10,29,0.030,0.030,0.030,0.000,0.000,0.000
1644926781242499072,2022-02-15-12:06:21,10.1.1.10,19,0.039,0.039,0.039,0.000,0.000,0.000
1644926781303128832,2022-02-15-12:06:21,10.1.1.10,28,0.050,0.050,0.050,0.000,0.000,0.000
1644926781362722048,2022-02-15-12:06:21,10.1.1.10,38,0.060,0.060,0.060,0.000,0.000,0.000
1644926781403022080,2022-02-15-12:06:21,10.1.1.10,19,0.070,0.070,0.070,0.000,0.000,0.000
1644926781464622848,2022-02-15-12:06:21,10.1.1.10,28,0.080,0.080,0.080,0.000,0.000,0.000
1644926781523104000,2022-02-15-12:06:21,10.1.1.10,33,0.090,0.090,0.090,0.000,0.000,0.000
1644926781570130944,2022-02-15-12:06:21,10.1.1.10,17,0.100,0.100,0.100,0.000,0.000,0.000
1644926781622898944,2022-02-15-12:06:21,10.1.1.10,25,0.090,0.090,0.090,0.000,0.000,0.000
1644926781684381952,2022-02-15-12:06:21,10.1.1.10,35,0.080,0.080,0.080,0.000,0.000,0.000
1644926781723172864,2022-02-15-12:06:21,10.1.1.10,24,0.070,0.070,0.070,0.000,0.000,0.000
1644926781783018240,2022-02-15-12:06:21,10.1.1.10,33,0.060,0.060,0.060,0.000,0.000,0.000
1644926781826819840,2022-02-15-12:06:21,10.1.1.10,23,0.050,0.050,0.050,0.000,0.000,0.000
1644926781882547968,2022-02-15-12:06:21,10.1.1.10,32,0.040,0.040,0.040,0.000,0.000,0.000
1644926781923124992,2022-02-15-12:06:21,10.1.1.10,22,0.030,0.030,0.030,0.000,0.000,0.000
1644926781983171840,2022-02-15-12:06:21,10.1.1.10,31,0.020,0.020,0.020,0.000,0.000,0.000
1644926782023382016,2022-02-15-12:06:22,10.1.1.10,21,0.010,0.010,0.010,0.000,0.000,0.000
1644926782082789888,2022-02-15-12:06:22,10.1.1.10,29,0.000,0.000,0.000,0.000,0.000,0.000
1644926782123006208,2022-02-15-12:06:22,10.1.1.10,19,-0.010,-0.010,-0.010,0.000,0.000,0.000
1644926782182720000,2022-02-15-12:06:22,10.1.1.10,29,-0.020,-0.020,-0.020,0.000,0.000,0.000
1644926782243241984,2022-02-15-12:06:22,10.1.1.10,38,-0.030,-0.030,-0.030,0.000,0.000,0.000
1644926782283219200,2022-02-15-12:06:22,10.1.1.10,27,-0.040,-0.040,-0.040,0.000,0.000,0.000
1644926782342545920,2022-02-15-12:06:22,10.1.1.10,36,-0.050,-0.050,-0.050,0.000,0.000,0.000
1644926782383162112,2022-02-15-12:06:22,10.1.1.10,25,-0.060,-0.060,-0.060,0.000,0.000,0.000
1644926782443106048,2022-02-15-12:06:22,10.1.1.10,35,-0.070,-0.070,-0.070,0.000,0.000,0.000
1644926782482546944,2022-02-15-12:06:22,10.1.1.10,24,-0.080,-0.080,-0.080,0.000,0.000,0.000
1644926782542270976,2022-02-15-12:06:22,10.1.1.10,33,-0.090,-0.090,-0.090,0.000,0.000,0.000
1644926782583328000,2022-02-15-12:06:22,10.1.1.10,22,-0.100,-0.100,-0.100,0.000,0.000,0.000
1644926782642853888,2022-02-15-12:06:22,10.1.1.10,30,-0.090,-0.090,-0.090,0.000,0.000,0.000
1644926782682842112,2022-02-15-12:06:22,10.1.1.10,20,-0.080,-0.080,-0.080,0.000,0.000,0.000
1644926782742338048,2022-02-15-12:06:22,10.1.1.10,29,-0.070,-0.070,-0.070,0.000,0.000,0.000
1644926782803090944,2022-02-15-12:06:22,10.1.1.10,38,-0.060,-0.060,-0.060,0.000,0.000,0.000
1644926782842945024,2022-02-15-12:06:22,10.1.1.10,26,-0.050,-0.050,-0.050,0.000,0.000,0.000
1644926782902914048,2022-02-15-12:06:22,10.1.1.10,35,-0.040,-0.040,-0.040,0.000,0.000,0.000
1644926782943514112,2022-02-15-12:06:22,10.1.1.10,24,-0.030,-0.030,-0.030,0.000,0.000,0.000
1644926783003001088,2022-02-15-12:06:23,10.1.1.10,33,-0.020,-0.020,-0.020,0.000,0.000,0.000
1644926783042782976,2022-02-15-12:06:23,10.1.1.10,22,-0.010,-0.010,-0.010,0.000,0.000,0.000
1644926783103054080,2022-02-15-12:06:23,10.1.1.10,31,0.000,0.000,0.000,0.000,0.000,0.000
1644926783142777856,2022-02-15-12:06:23,10.1.1.10,20,0.010,0.010,0.010,0.000,0.000,0.000
1644926783203107072,2022-02-15-12:06:23,10.1.1.10,29,0.020,0.020,0.020,0.000,0.000,0.000
1644926783262893824,2022-02-15-12:06:23,10.1.1.10,38,0.030,0.030,0.030,0.000,0.000,0.000
1644926783302838016,2022-02-15-12:06:23,10.1.1.10,27,0.040,0.040,0.040,0.000,0.000,0.000
1644926783362956032,2022-02-15-12:06:23,10.1.1.10,37,0.050,0.050,0.050,0.000,0.000,0.000
1644926783403217152,2022-02-15-12:06:23,10.1.1.10,26,0.060,0.060,0.060,0.000,0.000,0.000
1644926783463047936,2022-02-15-12:06:23,10.1.1.10,35,0.070,0.070,0.070,0.000,0.000,0.000
1644926783502895104,2022-02-15-12:06:23,10.1.1.10,23,0.080,0.080,0.080,0.000,0.000,0.000
1644926783562889216,2022-02-15-12:06:23,10.1.1.10,31,0.090,0.090,0.090,0.000,0.000,0.000
1644926783602961152,2022-02-15-12:06:23,10.1.1.10,21,0.100,0.100,0.100,0.000,0.000,0.000
1644926783663387136,2022-02-15-12:06:23,10.1.1.10,30,0.090,0.090,0.090,0.000,0.000,0.000
1644926783702713088,2022-02-15-12:06:23,10.1.1.10,19,0.081,0.081,0.081,0.000,0.000,0.000
1644926783763127040,2022-02-15-12:06:23,10.1.1.10,27,0.070,0.070,0.070,0.000,0.000,0.000
1644926783823240960,2022-02-15-12:06:23,10.1.1.10,36,0.060,0.060,0.060,0.000,0.000,0.000
1644926783862704128,2022-02-15-12:06:23,10.1.1.10,26,0.050,0.050,0.050,0.000,0.000,0.000
1644926783923192064,2022-02-15-12:06:23,10.1.1.10,35,0.040,0.040,0.040,0.000,0.000,0.000
1644926783963356928,2022-02-15-12:06:23,10.1.1.10,24,0.030,0.030,0.030,0.000,0.000,0.000
1644926784023868160,2022-02-15-12:06:24,10.1.1.10,33,0.020,0.020,0.020,0.000,0.000,0.000
1644926784063436032,2022-02-15-12:06:24,10.1.1.10,22,0.010,0.010,0.010,0.000,0.000,0.000
1644926784122592000,2022-02-15-12:06:24,10.1.1.10,31,0.000,0.000,0.000,0.000,0.000,0.000
1644926784162914048,2022-02-15-12:06:24,10.1.1.10,21,-0.010,-0.010,-0.010,0.000,0.000,0.000
1644926784223348992,2022-02-15-12:06:24,10.1.1.10,30,-0.020,-0.020,-0.020,0.000,0.000,0.000
1644926784262736128,2022-02-15-12:06:24,10.1.1.10,18,-0.029,-0.029,-0.029,0.000,0.000,0.000
1644926784323476992,2022-02-15-12:06:24,10.1.1.10,27,-0.040,-0.040,-0.040,0.000,0.000,0.000
1644926784382728960,2022-02-15-12:06:24,10.1.1.10,36,-0.050,-0.050,-0.050,0.000,0.000,0.000
1644926784422830080,2022-02-15-12:06:24,10.1.1.10,24,-0.060,-0.060,-0.060,0.000,0.000,0.000
1644926784483546880,2022-02-15-12:06:24,10.1.1.10,32,-0.070,-0.070,-0.070,0.000,0.000,0.000
1644926784522566144,2022-02-15-12:06:24,10.1.1.10,21,-0.080,-0.080,-0.080,0.000,0.000,0.000
1644926784582560000,2022-02-15-12:06:24,10.1.1.10,30,-0.090,-0.090,-0.090,0.000,0.000,0.000
1644926784622885888,2022-02-15-12:06:24,10.1.1.10,20,-0.100,-0.100,-0.100,0.000,0.000,0.000
1644926784682755840,2022-02-15-12:06:24,10.1.1.10,29,-0.090,-0.090,-0.090,0.000,0.000,0.000
1644926784742956032,2022-02-15-12:06:24,10.1.1.10,38,-0.080,-0.080,-0.080,0.000,0.000,0.000
1644926784782684160,2022-02-15-12:06:24,10.1.1.10,27,-0.070,-0.070,-0.070,0.000,0.000,0.000
1644926784842680832,2022-02-15-12:06:24,10.1.1.10,36,-0.060,-0.060,-0.060,0.000,0.000,0.000
1644926784882308864,2022-02-15-12:06:24,10.1.1.10,25,-0.050,-0.050,-0.050,0.000,0.000,0.000
1644926784942688000,2022-02-15-12:06:24,10.1.1.10,34,-0.040,-0.040,-0.040,0.000,0.000,0.000
1644926784982894848,2022-02-15-12:06:24,10.1.1.10,23,-0.030,-0.030,-0.030,0.000,0.000,0.000
1644926785043736064,2022-02-15-12:06:25,10.1.1.10,33,-0.020,-0.020,-0.020,0.000,0.000,0.000
1644926785082718976,2022-02-15-12:06:25,10.1.1.10,20,-0.010,-0.010,-0.010,0.000,0.000,0.000
1644926785142942976,2022-02-15-12:06:25,10.1.1.10,29,0.000,0.000,0.000,0.000,0.000,0.000
1644926785202697984,2022-02-15-12:06:25,10.1.1.10,38,0.010,0.010,0.010,0.000,0.000,0.000
1644926785242779136,2022-02-15-12:06:25,10.1.1.10,27,0.020,0.020,0.020,0.000,0.000,0.000
1644926785302889216,2022-02-15-12:06:25,10.1.1.10,36,0.030,0.030,0.030,0.000,0.000,0.000
1644926785342426112,2022-02-15-12:06:25,10.1.1.10,25,0.040,0.040,0.040,0.000,0.000,0.000
1644926785402436096,2022-02-15-12:06:25,10.1.1.10,34,0.050,0.050,0.050,0.000,0.000,0.000
1644926785442562048,2022-02-15-12:06:25,10.1.1.10,23,0.060,0.060,0.060,0.000,0.000,0.000
1644926785502537984,2022-02-15-12:06:25,10.1.1.10,32,0.070,0.070,0.070,0.000,0.000,0.000
1644926785542892032,2022-02-15-12:06:25,10.1.1.10,20,0.080,0.080,0.080,0.000,0.000,0.000
1644926785602813952,2022-02-15-12:06:25,10.1.1.10,30,0.090,0.090,0.090,0.000,0.000,0.000
1644926785682893056,2022-02-15-12:06:25,10.1.1.10,9,0.090,0.090,0.090,0.000,0.000,0.000
1644926785762588928,2022-02-15-12:06:25,10.1.1.10,38,0.080,0.080,0.080,0.000,0.000,0.000
1644926785803136000,2022-02-15-12:06:25,10.1.1.10,27,0.070,0.070,0.070,0.000,0.000,0.000
1644926785862566912,2022-02-15-12:06:25,10.1.1.10,36,0.060,0.060,0.060,0.000,0.000,0.000
1644926785903283200,2022-02-15-12:06:25,10.1.1.10,25,0.050,0.050,0.050,0.000,0.000,0.000
1644926785963026944,2022-02-15-12:06:25,10.1.1.10,34,0.040,0.040,0.040,0.000,0.000,0.000
1644926786002921984,2022-02-15-12:06:26,10.1.1.10,24,0.030,0.030,0.030,0.000,0.000,0.000
1644926786062598912,2022-02-15-12:06:26,10.1.1.10,32,0.020,0.020,0.020,0.000,0.000,0.000
1644926786102829824,2022-02-15-12:06:26,10.1.1.10,21,0.010,0.010,0.010,0.000,0.000,0.000
1644926786163067136,2022-02-15-12:06:26,10.1.1.10,30,0.000,0.000,0.000,0.000,0.000,0.000
1644926786202555904,2022-02-15-12:06:26,10.1.1.10,19,-0.010,-0.010,-0.010,0.000,0.000,0.000
1644926786262628096,2022-02-15-12:06:26,10.1.1.10,28,-0.020,-0.020,-0.020,0.000,0.000,0.000
1644926786323499008,2022-02-15-12:06:26,10.1.1.10,37,-0.030,-0.030,-0.030,0.000,0.000,0.000
1644926786362881792,2022-02-15-12:06:26,10.1.1.10,26,-0.040,-0.040,-0.040,0.000,0.000,0.000
1644926786422894080,2022-02-15-12:06:26,10.1.1.10,36,-0.050,-0.050,-0.050,0.000,0.000,0.000
1644926786462880000,2022-02-15-12:06:26,10.1.1.10,25,-0.060,-0.060,-0.060,0.000,0.000,0.000
1644926786522875136,2022-02-15-12:06:26,10.1.1.10,33,-0.070,-0.070,-0.070,0.000,0.000,0.000
1644926786562727936,2022-02-15-12:06:26,10.1.1.10,21,-0.080,-0.080,-0.080,0.000,0.000,0.000
1644926786623689984,2022-02-15-12:06:26,10.1.1.10,30,-0.090,-0.090,-0.090,0.000,0.000,0.000
1644926786662456064,2022-02-15-12:06:26,10.1.1.10,19,-0.099,-0.099,-0.099,0.000,0.000,0.000
1644926786723033856,2022-02-15-12:06:26,10.1.1.10,28,-0.090,-0.090,-0.090,0.000,0.000,0.000
1644926786782802944,2022-02-15-12:06:26,10.1.1.10,37,-0.080,-0.080,-0.080,0.000,0.000,0.000
1644926786823117056,2022-02-15-12:06:26,10.1.1.10,26,-0.070,-0.070,-0.070,0.000,0.000,0.000
1644926786882440960,2022-02-15-12:06:26,10.1.1.10,35,-0.060,-0.060,-0.060,0.000,0.000,0.000
1644926786922884096,2022-02-15-12:06:26,10.1.1.10,24,-0.050,-0.050,-0.050,0.000,0.000,0.000
1644926786983131904,2022-02-15-12:06:26,10.1.1.10,33,-0.040,-0.040,-0.040,0.000,0.000,0.000
1644926787023462144,2022-02-15-12:06:27,10.1.1.10,22,-0.030,-0.030,-0.030,0.000,0.000,0.000
1644926787082840832,2022-02-15-12:06:27,10.1.1.10,31,-0.020,-0.020,-0.020,0.000,0.000,0.000
1644926787122777856,2022-02-15-12:06:27,10.1.1.10,20,-0.010,-0.010,-0.010,0.000,0.000,0.000
1644926787182670080,2022-02-15-12:06:27,10.1.1.10,29,0.000,0.000,0.000,0.000,0.000,0.000
1644926787243138048,2022-02-15-12:06:27,10.1.1.10,38,0.010,0.010,0.010,0.000,0.000,0.000
1644926787282707968,2022-02-15-12:06:27,10.1.1.10,27,0.020,0.020,0.020,0.000,0.000,0.000
1644926787342462976,2022-02-15-12:06:27,10.1.1.10,35,0.030,0.030,0.030,0.000,0.000,0.000
1644926787382787072,2022-02-15-12:06:27,10.1.1.10,24,0.040,0.040,0.040,0.000,0.000,0.000
1644926787443356160,2022-02-15-12:06:27,10.1.1.10,33,0.050,0.050,0.050,0.000,0.000,0.000
1644926787483032832,2022-02-15-12:06:27,10.1.1.10,22,0.060,0.060,0.060,0.000,0.000,0.000
1644926787542635008,2022-02-15-12:06:27,10.1.1.10,31,0.070,0.070,0.070,0.000,0.000,0.000
1644926787582889984,2022-02-15-12:06:27,10.1.1.10,20,0.080,0.080,0.080,0.000,0.000,0.000
1644926787643155200,2022-02-15-12:06:27,10.1.1.10,29,0.090,0.090,0.090,0.000,0.000,0.000
1644926787702870016,2022-02-15-12:06:27,10.1.1.10,38,0.100,0.100,0.100,0.000,0.000,0.000
1644926787743012864,2022-02-15-12:06:27,10.1.1.10,27,0.090,0.090,0.090,0.000,0.000,0.000
1644926787802967040,2022-02-15-12:06:27,10.1.1.10,36,0.080,0.080,0.080,0.000,0.000,0.000
1644926787843642880,2022-02-15-12:06:27,10.1.1.10,25,0.070,0.070,0.070,0.000,0.000,0.000
1644926787902841088,2022-02-15-12:06:27,10.1.1.10,34,0.060,0.060,0.060,0.000,0.000,0.000
1644926787942454016,2022-02-15-12:06:27,10.1.1.10,23,0.050,0.050,0.050,0.000,0.000,0.000
1644926788002708992,2022-02-15-12:06:28,10.1.1.10,30,0.040,0.040,0.040,0.000,0.000,0.000
1644926788042813952,2022-02-15-12:06:28,10.1.1.10,19,0.030,0.030,0.030,0.000,0.000,0.000
1644926788103142144,2022-02-15-12:06:28,10.1.1.10,28,0.020,0.020,0.020,0.000,0.000,0.000
1644926788162713088,2022-02-15-12:06:28,10.1.1.10,37,0.010,0.010,0.010,0.000,0.000,0.000
1644926788202356224,2022-02-15-12:06:28,10.1.1.10,26,0.000,0.000,0.000,0.000,0.000,0.000
1644926788263550976,2022-02-15-12:06:28,10.1.1.10,35,-0.010,-0.010,-0.010,0.000,0.000,0.000
1644926788302782976,2022-02-15-12:06:28,10.1.1.10,24,-0.020,-0.020,-0.020,0.000,0.000,0.000
1644926788363010048,2022-02-15-12:06:28,10.1.1.10,33,-0.030,-0.030,-0.030,0.000,0.000,0.000
1644926788402923008,2022-02-15-12:06:28,10.1.1.10,22,-0.040,-0.040,-0.040,0.000,0.000,0.000
1644926788462994944,2022-02-15-12:06:28,10.1.1.10,31,-0.050,-0.050,-0.050,0.000,0.000,0.000
1644926788502744832,2022-02-15-12:06:28,10.1.1.10,20,-0.060,-0.060,-0.060,0.000,0.000,0.000
1644926788562753792,2022-02-15-12:06:28,10.1.1.10,29,-0.070,-0.070,-0.070,0.000,0.000,0.000
1644926788603037952,2022-02-15-12:06:28,10.1.1.10,18,-0.079,-0.079,-0.079,0.000,0.000,0.000
1644926788662926848,2022-02-15-12:06:28,10.1.1.10,27,-0.090,-0.090,-0.090,0.000,0.000,0.000
1644926788722897152,2022-02-15-12:06:28,10.1.1.10,36,-0.100,-0.100,-0.100,0.000,0.000,0.000
1644926788762590976,2022-02-15-12:06:28,10.1.1.10,24,-0.090,-0.090,-0.090,0.000,0.000,0.000
1644926788822600960,2022-02-15-12:06:28,10.1.1.10,33,-0.080,-0.080,-0.080,0.000,0.000,0.000
1644926788862834944,2022-02-15-12:06:28,10.1.1.10,21,-0.070,-0.070,-0.070,0.000,0.000,0.000
1644926788922560000,2022-02-15-12:06:28,10.1.1.10,30,-0.060,-0.060,-0.060,0.000,0.000,0.000
1644926788962574080,2022-02-15-12:06:28,10.1.1.10,19,-0.050,-0.050,-0.050,0.000,0.000,0.000
1644926789023693056,2022-02-15-12:06:29,10.1.1.10,28,-0.040,-0.040,-0.040,0.000,0.000,0.000
1644926789082856960,2022-02-15-12:06:29,10.1.1.10,36,-0.030,-0.030,-0.030,0.000,0.000,0.000
1644926789122926848,2022-02-15-12:06:29,10.1.1.10,24,-0.020,-0.020,-0.020,0.000,0.000,0.000
1644926789182771968,2022-02-15-12:06:29,10.1.1.10,33,-0.010,-0.010,-0.010,0.000,0.000,0.000
1644926789222502912,2022-02-15-12:06:29,10.1.1.10,22,0.000,0.000,0.000,0.000,0.000,0.000
1644926789282912000,2022-02-15-12:06:29,10.1.1.10,31,0.010,0.010,0.010,0.000,0.000,0.000
1644926789322630912,2022-02-15-12:06:29,10.1.1.10,20,0.020,0.020,0.020,0.000,0.000,0.000
1644926789382385920,2022-02-15-12:06:29,10.1.1.10,29,0.030,0.030,0.030,0.000,0.000,0.000
1644926789443234816,2022-02-15-12:06:29,10.1.1.10,38,0.040,0.040,0.040,0.000,0.000,0.000
1644926789482446080,2022-02-15-12:06:29,10.1.1.10,27,0.050,0.050,0.050,0.000,0.000,0.000
1644926789542809856,2022-02-15-12:06:29,10.1.1.10,36,0.060,0.060,0.060,0.000,0.000,0.000
1644926789582596096,2022-02-15-12:06:29,10.1.1.10,25,0.070,0.070,0.070,0.000,0.000,0.000
1644926789642853120,2022-02-15-12:06:29,10.1.1.10,35,0.080,0.080,0.080,0.000,0.000,0.000
1644926789683049984,2022-02-15-12:06:29,10.1.1.10,24,0.090,0.090,0.090,0.000,0.000,0.000
1644926789743143168,2022-02-15-12:06:29,10.1.1.10,33,0.100,0.100,0.100,0.000,0.000,0.000
1644926789782635008,2022-02-15-12:06:29,10.1.1.10,22,0.090,0.090,0.090,0.000,0.000,0.000
1644926789842600192,2022-02-15-12:06:29,10.1.1.10,31,0.080,0.080,0.080,0.000,0.000,0.000
1644926789882510848,2022-02-15-12:06:29,10.1.1.10,21,0.070,0.070,0.070,0.000,0.000,0.000
1644926789942862080,2022-02-15-12:06:29,10.1.1.10,30,0.060,0.060,0.060,0.000,0.000,0.000
1644926789982956032,2022-02-15-12:06:29,10.1.1.10,19,0.050,0.050,0.050,0.000,0.000,0.000
1644926790042983168,2022-02-15-12:06:30,10.1.1.10,27,0.040,0.040,0.040,0.000,0.000,0.000
1644926790103197184,2022-02-15-12:06:30,10.1.1.10,37,0.030,0.030,0.030,0.000,0.000,0.000
1644926790142633984,2022-02-15-12:06:30,10.1.1.10,26,0.020,0.020,0.020,0.000,0.000,0.000
1644926790203100928,2022-02-15-12:06:30,10.1.1.10,36,0.010,0.010,0.010,0.000,0.000,0.000
1644926790242635008,2022-02-15-12:06:30,10.1.1.10,24,0.000,0.000,0.000,0.000,0.000,0.000
1644926790305041152,2022-02-15-12:06:30,10.1.1.10,33,-0.010,-0.010,-0.010,0.000,0.000,0.000
1644926790342855936,2022-02-15-12:06:30,10.1.1.10,22,-0.020,-0.020,-0.020,0.000,0.000,0.000
1644926790404252928,2022-02-15-12:06:30,10.1.1.10,31,-0.030,-0.030,-0.030,0.000,0.000,0.000
1644926790443397120,2022-02-15-12:06:30,10.1.1.10,20,-0.040,-0.040,-0.040,0.000,0.000,0.000
1644926790503008000,2022-02-15-12:06:30,10.1.1.10,30,-0.050,-0.050,-0.050,0.000,0.000,0.000
1644926790563309824,2022-02-15-12:06:30,10.1.1.10,38,-0.060,-0.060,-0.060,0.000,0.000,0.000
1644926790603013888,2022-02-15-12:06:30,10.1.1.10,28,-0.070,-0.070,-0.070,0.000,0.000,0.000
1644926790663373824,2022-02-15-12:06:30,10.1.1.10,37,-0.080,-0.080,-0.080,0.000,0.000,0.000
1644926790703182848,2022-02-15-12:06:30,10.1.1.10,26,-0.090,-0.090,-0.090,0.000,0.000,0.000
1644926790763188992,2022-02-15-12:06:30,10.1.1.10,35,-0.100,-0.100,-0.100,0.000,0.000,0.000
1644926790804728064,2022-02-15-12:06:30,10.1.1.10,24,-0.090,-0.090,-0.090,0.000,0.000,0.000
1644926790863468800,2022-02-15-12:06:30,10.1.1.10,33,-0.080,-0.080,-0.080,0.000,0.000,0.000
1644926790902740992,2022-02-15-12:06:30,10.1.1.10,22,-0.070,-0.070,-0.070,0.000,0.000,0.000
1644926790963150080,2022-02-15-12:06:30,10.1.1.10,31,-0.060,-0.060,-0.060,0.000,0.000,0.000
1644926791002808064,2022-02-15-12:06:31,10.1.1.10,20,-0.050,-0.050,-0.050,0.000,0.000,0.000
1644926791062768896,2022-02-15-12:06:31,10.1.1.10,30,-0.040,-0.040,-0.040,0.000,0.000,0.000
1644926791103105024,2022-02-15-12:06:31,10.1.1.10,19,-0.030,-0.030,-0.030,0.000,0.000,0.000
1644926791162702080,2022-02-15-12:06:31,10.1.1.10,28,-0.020,-0.020,-0.020,0.000,0.000,0.000
1644926791223272960,2022-02-15-12:06:31,10.1.1.10,37,-0.010,-0.010,-0.010,0.000,0.000,0.000
1644926791262839040,2022-02-15-12:06:31,10.1.1.10,26,0.000,0.000,0.000,0.000,0.000,0.000
1644926791322771968,2022-02-15-12:06:31,10.1.1.10,35,0.010,0.010,0.010,0.000,0.000,0.000
1644926791363291904,2022-02-15-12:06:31,10.1.1.10,24,0.020,0.020,0.020,0.000,0.000,0.000
1644926791422912000,2022-02-15-12:06:31,10.1.1.10,33,0.030,0.030,0.030,0.000,0.000,0.000
1644926791464265216,2022-02-15-12:06:31,10.1.1.10,22,0.040,0.040,0.040,0.000,0.000,0.000
1644926791526041088,2022-02-15-12:06:31,10.1.1.10,31,0.050,0.050,0.050,0.000,0.000,0.000
1644926791567220992,2022-02-15-12:06:31,10.1.1.10,21,0.060,0.060,0.060,0.000,0.000,0.000
1644926791623229952,2022-02-15-12:06:31,10.1.1.10,29,0.070,0.070,0.070,0.000,0.000,0.000
1644926791664217088,2022-02-15-12:06:31,10.1.1.10,19,0.079,0.079,0.079,0.000,0.000,0.000
1644926791789145088,2022-02-15-12:06:31,10.1.1.10,36,0.100,0.100,0.100,0.000,0.000,0.000
1644926791840785152,2022-02-15-12:06:31,10.1.1.10,24,0.090,0.090,0.090,0.000,0.000,0.000
1644926791927282176,2022-02-15-12:06:31,10.1.1.10,19,0.070,0.070,0.070,0.000,0.000,0.000
1644926792243819008,2022-02-15-12:06:32,10.1.1.10,32,0.010,0.010,0.010,0.000,0.000,0.000
1644926792283181056,2022-02-15-12:06:32,10.1.1.10,21,0.000,0.000,0.000,0.000,0.000,0.000
1644926792344412928,2022-02-15-12:06:32,10.1.1.10,27,-0.010,-0.010,-0.010,0.000,0.000,0.000
1644926792404011008,2022-02-15-12:06:32,10.1.1.10,37,-0.020,-0.020,-0.020,0.000,0.000,0.000
1644926792443536128,2022-02-15-12:06:32,10.1.1.10,26,-0.030,-0.030,-0.030,0.000,0.000,0.000
1644926792504621056,2022-02-15-12:06:32,10.1.1.10,34,-0.040,-0.040,-0.040,0.000,0.000,0.000
1644926792546339072,2022-02-15-12:06:32,10.1.1.10,23,-0.050,-0.050,-0.050,0.000,0.000,0.000
1644926792723230976,2022-02-15-12:06:32,10.1.1.10,27,-0.080,-0.080,-0.080,0.000,0.000,0.000
1644926792790176000,2022-02-15-12:06:32,10.1.1.10,35,-0.090,-0.090,-0.090,0.000,0.000,0.000
1644926792825093120,2022-02-15-12:06:32,10.1.1.10,26,-0.100,-0.100,-0.100,0.000,0.000,0.000
1644926792885782016,2022-02-15-12:06:32,10.1.1.10,34,-0.090,-0.090,-0.090,0.000,0.000,0.000
1644926792992152064,2022-02-15-12:06:32,10.1.1.10,27,-0.070,-0.070,-0.070,0.000,0.000,0.000
1644926793083213056,2022-02-15-12:06:33,10.1.1.10,23,-0.050,-0.050,-0.050,0.000,0.000,0.000
1644926793143652864,2022-02-15-12:06:33,10.1.1.10,27,-0.040,-0.040,-0.040,0.000,0.000,0.000
1644926793203262976,2022-02-15-12:06:33,10.1.1.10,36,-0.030,-0.030,-0.030,0.000,0.000,0.000
1644926793243768064,2022-02-15-12:06:33,10.1.1.10,25,-0.020,-0.020,-0.020,0.000,0.000,0.000
1644926793305253888,2022-02-15-12:06:33,10.1.1.10,34,-0.010,-0.010,-0.010,0.000,0.000,0.000
1644926793349318912,2022-02-15-12:06:33,10.1.1.10,23,0.000,0.000,0.000,0.000,0.000,0.000
1644926793402865920,2022-02-15-12:06:33,10.1.1.10,31,0.010,0.010,0.010,0.000,0.000,0.000
1644926793443315968,2022-02-15-12:06:33,10.1.1.10,20,0.020,0.020,0.020,0.000,0.000,0.000
1644926793505872896,2022-02-15-12:06:33,10.1.1.10,30,0.030,0.030,0.030,0.000,0.000,0.000
1644926793624969984,2022-02-15-12:06:33,10.1.1.10,35,0.050,0.050,0.050,0.000,0.000,0.000
1644926793662734080,2022-02-15-12:06:33,10.1.1.10,24,0.060,0.060,0.060,0.000,0.000,0.000
1644926793723325952,2022-02-15-12:06:33,10.1.1.10,33,0.070,0.070,0.070,0.000,0.000,0.000
1644926793762587136,2022-02-15-12:06:33,10.1.1.10,21,0.080,0.080,0.080,0.000,0.000,0.000
1644926793824626944,2022-02-15-12:06:33,10.1.1.10,31,0.090,0.090,0.090,0.000,0.000,0.000
1644926793862638080,2022-02-15-12:06:33,10.1.1.10,20,0.100,0.100,0.100,0.000,0.000,0.000
1644926793924304128,2022-02-15-12:06:33,10.1.1.10,29,0.090,0.090,0.090,0.000,0.000,0.000
1644926793963202048,2022-02-15-12:06:33,10.1.1.10,18,0.081,0.081,0.081,0.000,0.000,0.000
1644926794023140864,2022-02-15-12:06:34,10.1.1.10,28,0.070,0.070,0.070,0.000,0.000,0.000
1644926794083144960,2022-02-15-12:06:34,10.1.1.10,37,0.060,0.060,0.060,0.000,0.000,0.000
1644926794124783104,2022-02-15-12:06:34,10.1.1.10,27,0.050,0.050,0.050,0.000,0.000,0.000
1644926794183793920,2022-02-15-12:06:34,10.1.1.10,36,0.040,0.040,0.040,0.000,0.000,0.000
1644926794226291968,2022-02-15-12:06:34,10.1.1.10,25,0.030,0.030,0.030,0.000,0.000,0.000
1644926794282543872,2022-02-15-12:06:34,10.1.1.10,34,0.020,0.020,0.020,0.000,0.000,0.000
1644926794323522048,2022-02-15-12:06:34,10.1.1.10,23,0.010,0.010,0.010,0.000,0.000,0.000
1644926794383107840,2022-02-15-12:06:34,10.1.1.10,32,0.000,0.000,0.000,0.000,0.000,0.000
1644926794423374848,2022-02-15-12:06:34,10.1.1.10,22,-0.010,-0.010,-0.010,0.000,0.000,0.000
1644926794482900992,2022-02-15-12:06:34,10.1.1.10,31,-0.020,-0.020,-0.020,0.000,0.000,0.000
1644926794523539968,2022-02-15-12:06:34,10.1.1.10,21,-0.030,-0.030,-0.030,0.000,0.000,0.000
1644926794583834880,2022-02-15-12:06:34,10.1.1.10,27,-0.040,-0.040,-0.040,0.000,0.000,0.000
1644926794644237056,2022-02-15-12:06:34,10.1.1.10,36,-0.050,-0.050,-0.050,0.000,0.000,0.000
1644926794682595072,2022-02-15-12:06:34,10.1.1.10,26,-0.060,-0.060,-0.060,0.000,0.000,0.000
1644926794743549184,2022-02-15-12:06:34,10.1.1.10,35,-0.070,-0.070,-0.070,0.000,0.000,0.000
1644926794803644928,2022-02-15-12:06:34,10.1.1.10,33,-0.080,-0.080,-0.080,0.000,0.000,0.000
1644926794843357184,2022-02-15-12:06:34,10.1.1.10,22,-0.090,-0.090,-0.090,0.000,0.000,0.000
1644926794903290880,2022-02-15-12:06:34,10.1.1.10,31,-0.100,-0.100,-0.100,0.000,0.000,0.000
1644926794943645952,2022-02-15-12:06:34,10.1.1.10,20,-0.090,-0.090,-0.090,0.000,0.000,0.000
1644926795003859968,2022-02-15-12:06:35,10.1.1.10,26,-0.080,-0.080,-0.080,0.000,0.000,0.000
1644926795063363072,2022-02-15-12:06:35,10.1.1.10,34,-0.070,-0.070,-0.070,0.000,0.000,0.000
1644926795164432128,2022-02-15-12:06:35,10.1.1.10,33,-0.050,-0.050,-0.050,0.000,0.000,0.000
1644926795204122112,2022-02-15-12:06:35,10.1.1.10,22,-0.040,-0.040,-0.040,0.000,0.000,0.000
1644926795262540032,2022-02-15-12:06:35,10.1.1.10,31,-0.030,-0.030,-0.030,0.000,0.000,0.000
1644926795302719232,2022-02-15-12:06:35,10.1.1.10,20,-0.020,-0.020,-0.020,0.000,0.000,0.000
1644926795363426048,2022-02-15-12:06:35,10.1.1.10,30,-0.010,-0.010,-0.010,0.000,0.000,0.000
1644926795403136000,2022-02-15-12:06:35,10.1.1.10,19,-0.000,-0.000,-0.000,0.000,0.000,0.000
1644926795463116800,2022-02-15-12:06:35,10.1.1.10,28,0.010,0.010,0.010,0.000,0.000,0.000
1644926795522967040,2022-02-15-12:06:35,10.1.1.10,37,0.020,0.020,0.020,0.000,0.000,0.000
1644926795562505984,2022-02-15-12:06:35,10.1.1.10,27,0.030,0.030,0.030,0.000,0.000,0.000
1644926795625267968,2022-02-15-12:06:35,10.1.1.10,37,0.040,0.040,0.040,0.000,0.000,0.000
1644926795663247104,2022-02-15-12:06:35,10.1.1.10,26,0.050,0.050,0.050,0.000,0.000,0.000
1644926795724136192,2022-02-15-12:06:35,10.1.1.10,35,0.060,0.060,0.060,0.000,0.000,0.000
1644926795762582016,2022-02-15-12:06:35,10.1.1.10,22,0.070,0.070,0.070,0.000,0.000,0.000
1644926795823645184,2022-02-15-12:06:35,10.1.1.10,32,0.080,0.080,0.080,0.000,0.000,0.000
1644926795863342080,2022-02-15-12:06:35,10.1.1.10,21,0.090,0.090,0.090,0.000,0.000,0.000
1644926795922409984,2022-02-15-12:06:35,10.1.1.10,30,0.100,0.100,0.100,0.000,0.000,0.000
1644926795963162880,2022-02-15-12:06:35,10.1.1.10,20,0.090,0.090,0.090,0.000,0.000,0.000
1644926796023812096,2022-02-15-12:06:36,10.1.1.10,29,0.080,0.080,0.080,0.000,0.000,0.000
1644926796083020800,2022-02-15-12:06:36,10.1.1.10,38,0.070,0.070,0.070,0.000,0.000,0.000
1644926796123002112,2022-02-15-12:06:36,10.1.1.10,27,0.060,0.060,0.060,0.000,0.000,0.000
1644926796183248128,2022-02-15-12:06:36,10.1.1.10,35,0.050,0.050,0.050,0.000,0.000,0.000
1644926796222990080,2022-02-15-12:06:36,10.1.1.10,23,0.040,0.040,0.040,0.000,0.000,0.000
1644926796283334912,2022-02-15-12:06:36,10.1.1.10,32,0.030,0.030,0.030,0.000,0.000,0.000
1644926796323098880,2022-02-15-12:06:36,10.1.1.10,21,0.020,0.020,0.020,0.000,0.000,0.000
1644926796386665216,2022-02-15-12:06:36,10.1.1.10,29,0.010,0.010,0.010,0.000,0.000,0.000
1644926796442889984,2022-02-15-12:06:36,10.1.1.10,36,0.000,0.000,0.000,0.000,0.000,0.000
1644926796482309120,2022-02-15-12:06:36,10.1.1.10,19,-0.010,-0.010,-0.010,0.000,0.000,0.000
1644926796545267968,2022-02-15-12:06:36,10.1.1.10,28,-0.020,-0.020,-0.020,0.000,0.000,0.000
1644926796605568000,2022-02-15-12:06:36,10.1.1.10,37,-0.030,-0.030,-0.030,0.000,0.000,0.000
1644926796643855104,2022-02-15-12:06:36,10.1.1.10,27,-0.040,-0.040,-0.040,0.000,0.000,0.000
1644926796702914048,2022-02-15-12:06:36,10.1.1.10,33,-0.050,-0.050,-0.050,0.000,0.000,0.000
1644926796743066112,2022-02-15-12:06:36,10.1.1.10,22,-0.060,-0.060,-0.060,0.000,0.000,0.000
1644926796803136000,2022-02-15-12:06:36,10.1.1.10,32,-0.070,-0.070,-0.070,0.000,0.000,0.000
1644926796842148096,2022-02-15-12:06:36,10.1.1.10,21,-0.080,-0.080,-0.080,0.000,0.000,0.000
1644926796903233024,2022-02-15-12:06:36,10.1.1.10,30,-0.090,-0.090,-0.090,0.000,0.000,0.000
1644926796943043072,2022-02-15-12:06:36,10.1.1.10,19,-0.100,-0.100,-0.100,0.000,0.000,0.000
1644926797002450944,2022-02-15-12:06:37,10.1.1.10,29,-0.090,-0.090,-0.090,0.000,0.000,0.000
1644926797062934016,2022-02-15-12:06:37,10.1.1.10,38,-0.080,-0.080,-0.080,0.000,0.000,0.000
1644926797102722816,2022-02-15-12:06:37,10.1.1.10,27,-0.070,-0.070,-0.070,0.000,0.000,0.000
1644926797162328832,2022-02-15-12:06:37,10.1.1.10,35,-0.060,-0.060,-0.060,0.000,0.000,0.000
1644926797202342912,2022-02-15-12:06:37,10.1.1.10,24,-0.050,-0.050,-0.050,0.000,0.000,0.000
1644926797262941952,2022-02-15-12:06:37,10.1.1.10,32,-0.040,-0.040,-0.040,0.000,0.000,0.000
1644926797303083008,2022-02-15-12:06:37,10.1.1.10,21,-0.030,-0.030,-0.030,0.000,0.000,0.000
1644926797363267840,2022-02-15-12:06:37,10.1.1.10,30,-0.020,-0.020,-0.020,0.000,0.000,0.000
1644926797402672896,2022-02-15-12:06:37,10.1.1.10,19,-0.010,-0.010,-0.010,0.000,0.000,0.000
1644926797463627008,2022-02-15-12:06:37,10.1.1.10,28,0.000,0.000,0.000,0.000,0.000,0.000
1644926797522980864,2022-02-15-12:06:37,10.1.1.10,38,0.010,0.010,0.010,0.000,0.000,0.000
1644926797563055872,2022-02-15-12:06:37,10.1.1.10,27,0.020,0.020,0.020,0.000,0.000,0.000
1644926797622999808,2022-02-15-12:06:37,10.1.1.10,36,0.030,0.030,0.030,0.000,0.000,0.000
1644926797663207936,2022-02-15-12:06:37,10.1.1.10,26,0.040,0.040,0.040,0.000,0.000,0.000
1644926797722949120,2022-02-15-12:06:37,10.1.1.10,35,0.050,0.050,0.050,0.000,0.000,0.000
1644926797762657024,2022-02-15-12:06:37,10.1.1.10,24,0.060,0.060,0.060,0.000,0.000,0.000
1644926797823826944,2022-02-15-12:06:37,10.1.1.10,33,0.070,0.070,0.070,0.000,0.000,0.000
1644926797862707968,2022-02-15-12:06:37,10.1.1.10,22,0.080,0.080,0.080,0.000,0.000,0.000
1644926797923813120,2022-02-15-12:06:37,10.1.1.10,31,0.090,0.090,0.090,0.000,0.000,0.000
1644926797963216128,2022-02-15-12:06:37,10.1.1.10,21,0.100,0.100,0.100,0.000,0.000,0.000
1644926798025366016,2022-02-15-12:06:38,10.1.1.10,31,0.090,0.090,0.090,0.000,0.000,0.000
1644926798063316992,2022-02-15-12:06:38,10.1.1.10,19,0.080,0.080,0.080,0.000,0.000,0.000
1644926798123141888,2022-02-15-12:06:38,10.1.1.10,28,0.070,0.070,0.070,0.000,0.000,0.000
1644926798183460096,2022-02-15-12:06:38,10.1.1.10,37,0.060,0.060,0.060,0.000,0.000,0.000
1644926798222878976,2022-02-15-12:06:38,10.1.1.10,27,0.050,0.050,0.050,0.000,0.000,0.000
1644926798283287040,2022-02-15-12:06:38,10.1.1.10,36,0.040,0.040,0.040,0.000,0.000,0.000
1644926798323271936,2022-02-15-12:06:38,10.1.1.10,25,0.030,0.030,0.030,0.000,0.000,0.000
1644926798383115008,2022-02-15-12:06:38,10.1.1.10,35,0.020,0.020,0.020,0.000,0.000,0.000
1644926798422987008,2022-02-15-12:06:38,10.1.1.10,24,0.010,0.010,0.010,0.000,0.000,0.000
1644926798483773952,2022-02-15-12:06:38,10.1.1.10,33,0.000,0.000,0.000,0.000,0.000,0.000
1644926798522897920,2022-02-15-12:06:38,10.1.1.10,22,-0.010,-0.010,-0.010,0.000,0.000,0.000
1644926798582371840,2022-02-15-12:06:38,10.1.1.10,31,-0.020,-0.020,-0.020,0.000,0.000,0.000
1644926798623610880,2022-02-15-12:06:38,10.1.1.10,21,-0.030,-0.030,-0.030,0.000,0.000,0.000
1644926798682068224,2022-02-15-12:06:38,10.1.1.10,30,-0.040,-0.040,-0.040,0.000,0.000,0.000
1644926798722701056,2022-02-15-12:06:38,10.1.1.10,20,-0.050,-0.050,-0.050,0.000,0.000,0.000
1644926798782708992,2022-02-15-12:06:38,10.1.1.10,29,-0.060,-0.060,-0.060,0.000,0.000,0.000
1644926798842777856,2022-02-15-12:06:38,10.1.1.10,38,-0.070,-0.070,-0.070,0.000,0.000,0.000
1644926798886840064,2022-02-15-12:06:38,10.1.1.10,27,-0.080,-0.080,-0.080,0.000,0.000,0.000
1644926798944212992,2022-02-15-12:06:38,10.1.1.10,31,-0.090,-0.090,-0.090,0.000,0.000,0.000
1644926798982426880,2022-02-15-12:06:38,10.1.1.10,20,-0.100,-0.100,-0.100,0.000,0.000,0.000
1644926799042521856,2022-02-15-12:06:39,10.1.1.10,30,-0.090,-0.090,-0.090,0.000,0.000,0.000
1644926799082493184,2022-02-15-12:06:39,10.1.1.10,19,-0.080,-0.080,-0.080,0.000,0.000,0.000
1644926799142280960,2022-02-15-12:06:39,10.1.1.10,28,-0.070,-0.070,-0.070,0.000,0.000,0.000
1644926799203857920,2022-02-15-12:06:39,10.1.1.10,37,-0.060,-0.060,-0.060,0.000,0.000,0.000
1644926799243835904,2022-02-15-12:06:39,10.1.1.10,25,-0.050,-0.050,-0.050,0.000,0.000,0.000
1644926799303201792,2022-02-15-12:06:39,10.1.1.10,34,-0.040,-0.040,-0.040,0.000,0.000,0.000
1644926799342734080,2022-02-15-12:06:39,10.1.1.10,23,-0.030,-0.030,-0.030,0.000,0.000,0.000
1644926799402980096,2022-02-15-12:06:39,10.1.1.10,33,-0.020,-0.020,-0.020,0.000,0.000,0.000
1644926799442884864,2022-02-15-12:06:39,10.1.1.10,22,-0.010,-0.010,-0.010,0.000,0.000,0.000
1644926799502341120,2022-02-15-12:06:39,10.1.1.10,31,0.000,0.000,0.000,0.000,0.000,0.000
1644926799543542016,2022-02-15-12:06:39,10.1.1.10,21,0.010,0.010,0.010,0.000,0.000,0.000
1644926799602780160,2022-02-15-12:06:39,10.1.1.10,30,0.020,0.020,0.020,0.000,0.000,0.000
1644926799643435008,2022-02-15-12:06:39,10.1.1.10,19,0.030,0.030,0.030,0.000,0.000,0.000
1644926799702567168,2022-02-15-12:06:39,10.1.1.10,28,0.040,0.040,0.040,0.000,0.000,0.000
1644926799763247104,2022-02-15-12:06:39,10.1.1.10,38,0.050,0.050,0.050,0.000,0.000,0.000
1644926799803455232,2022-02-15-12:06:39,10.1.1.10,27,0.060,0.060,0.060,0.000,0.000,0.000
1644926799864204800,2022-02-15-12:06:39,10.1.1.10,36,0.070,0.070,0.070,0.000,0.000,0.000
1644926799903759104,2022-02-15-12:06:39,10.1.1.10,24,0.080,0.080,0.080,0.000,0.000,0.000
1644926799963030016,2022-02-15-12:06:39,10.1.1.10,33,0.090,0.090,0.090,0.000,0.000,0.000
1644926800002422016,2022-02-15-12:06:40,10.1.1.10,22,0.100,0.100,0.100,0.000,0.000,0.000
1644926800063929088,2022-02-15-12:06:40,10.1.1.10,30,0.090,0.090,0.090,0.000,0.000,0.000
1644926800102343936,2022-02-15-12:06:40,10.1.1.10,20,0.080,0.080,0.080,0.000,0.000,0.000
1644926800163997952,2022-02-15-12:06:40,10.1.1.10,30,0.070,0.070,0.070,0.000,0.000,0.000
1644926800223879936,2022-02-15-12:06:40,10.1.1.10,38,0.060,0.060,0.060,0.000,0.000,0.000
1644926800263761920,2022-02-15-12:06:40,10.1.1.10,26,0.050,0.050,0.050,0.000,0.000,0.000
1644926800322575104,2022-02-15-12:06:40,10.1.1.10,36,0.040,0.040,0.040,0.000,0.000,0.000
1644926800362850816,2022-02-15-12:06:40,10.1.1.10,25,0.030,0.030,0.030,0.000,0.000,0.000
1644926800423904000,2022-02-15-12:06:40,10.1.1.10,34,0.020,0.020,0.020,0.000,0.000,0.000
1644926800462639104,2022-02-15-12:06:40,10.1.1.10,23,0.010,0.010,0.010,0.000,0.000,0.000
1644926800523911936,2022-02-15-12:06:40,10.1.1.10,33,0.000,0.000,0.000,0.000,0.000,0.000
1644926800563160064,2022-02-15-12:06:40,10.1.1.10,22,-0.010,-0.010,-0.010,0.000,0.000,0.000
1644926800624972032,2022-02-15-12:06:40,10.1.1.10,31,-0.020,-0.020,-0.020,0.000,0.000,0.000
1644926800663714048,2022-02-15-12:06:40,10.1.1.10,20,-0.030,-0.030,-0.030,0.000,0.000,0.000
1644926800724358912,2022-02-15-12:06:40,10.1.1.10,30,-0.040,-0.040,-0.040,0.000,0.000,0.000
1644926800784921856,2022-02-15-12:06:40,10.1.1.10,38,-0.050,-0.050,-0.050,0.000,0.000,0.000
1644926800824256000,2022-02-15-12:06:40,10.1.1.10,28,-0.060,-0.060,-0.060,0.000,0.000,0.000
1644926800891449856,2022-02-15-12:06:40,10.1.1.10,34,-0.070,-0.070,-0.070,0.000,0.000,0.000
1644926800943078912,2022-02-15-12:06:40,10.1.1.10,29,-0.080,-0.080,-0.080,0.000,0.000,0.000
1644926800984054016,2022-02-15-12:06:40,10.1.1.10,18,-0.089,-0.089,-0.089,0.000,0.000,0.000
1644926801043142144,2022-02-15-12:06:41,10.1.1.10,28,-0.100,-0.100,-0.100,0.000,0.000,0.000
1644926801103444992,2022-02-15-12:06:41,10.1.1.10,37,-0.090,-0.090,-0.090,0.000,0.000,0.000
1644926801143965952,2022-02-15-12:06:41,10.1.1.10,28,-0.080,-0.080,-0.080,0.000,0.000,0.000
1644926801202770944,2022-02-15-12:06:41,10.1.1.10,36,-0.070,-0.070,-0.070,0.000,0.000,0.000
1644926801244417024,2022-02-15-12:06:41,10.1.1.10,26,-0.060,-0.060,-0.060,0.000,0.000,0.000
1644926801304699904,2022-02-15-12:06:41,10.1.1.10,35,-0.050,-0.050,-0.050,0.000,0.000,0.000
1644926801346343168,2022-02-15-12:06:41,10.1.1.10,22,-0.040,-0.040,-0.040,0.000,0.000,0.000
1644926801403493888,2022-02-15-12:06:41,10.1.1.10,26,-0.030,-0.030,-0.030,0.000,0.000,0.000
1644926801463223040,2022-02-15-12:06:41,10.1.1.10,36,-0.020,-0.020,-0.020,0.000,0.000,0.000
1644926801503907840,2022-02-15-12:06:41,10.1.1.10,25,-0.010,-0.010,-0.010,0.000,0.000,0.000
1644926801664282112,2022-02-15-12:06:41,10.1.1.10,23,0.020,0.020,0.020,0.000,0.000,0.000
1644926801725378048,2022-02-15-12:06:41,10.1.1.10,32,0.030,0.030,0.030,0.000,0.000,0.000
1644926801763289856,2022-02-15-12:06:41,10.1.1.10,22,0.040,0.040,0.040,0.000,0.000,0.000
1644926801824724992,2022-02-15-12:06:41,10.1.1.10,33,0.050,0.050,0.050,0.000,0.000,0.000
1644926801864162048,2022-02-15-12:06:41,10.1.1.10,21,0.060,0.060,0.060,0.000,0.000,0.000
1644926801923203072,2022-02-15-12:06:41,10.1.1.10,30,0.070,0.070,0.070,0.000,0.000,0.000
1644926801963481856,2022-02-15-12:06:41,10.1.1.10,20,0.080,0.080,0.080,0.000,0.000,0.000
1644926802027111168,2022-02-15-12:06:42,10.1.1.10,29,0.090,0.090,0.090,0.000,0.000,0.000
1644926802085079808,2022-02-15-12:06:42,10.1.1.10,37,0.100,0.100,0.100,0.000,0.000,0.000
1644926802124040960,2022-02-15-12:06:42,10.1.1.10,26,0.090,0.090,0.090,0.000,0.000,0.000
1644926802183512832,2022-02-15-12:06:42,10.1.1.10,36,0.080,0.080,0.080,0.000,0.000,0.000
1644926802225811968,2022-02-15-12:06:42,10.1.1.10,27,0.070,0.070,0.070,0.000,0.000,0.000
1644926802283502080,2022-02-15-12:06:42,10.1.1.10,35,0.060,0.060,0.060,0.000,0.000,0.000
1644926802323854848,2022-02-15-12:06:42,10.1.1.10,23,0.050,0.050,0.050,0.000,0.000,0.000
1644926802389956096,2022-02-15-12:06:42,10.1.1.10,33,0.040,0.040,0.040,0.000,0.000,0.000
1644926802424235008,2022-02-15-12:06:42,10.1.1.10,22,0.030,0.030,0.030,0.000,0.000,0.000
1644926802483865088,2022-02-15-12:06:42,10.1.1.10,32,0.020,0.020,0.020,0.000,0.000,0.000
1644926802523721984,2022-02-15-12:06:42,10.1.1.10,21,0.010,0.010,0.010,0.000,0.000,0.000
1644926802582969856,2022-02-15-12:06:42,10.1.1.10,31,0.000,0.000,0.000,0.000,0.000,0.000
1644926802623696128,2022-02-15-12:06:42,10.1.1.10,20,-0.010,-0.010,-0.010,0.000,0.000,0.000
1644926802683823104,2022-02-15-12:06:42,10.1.1.10,30,-0.020,-0.020,-0.020,0.000,0.000,0.000
1644926802723169024,2022-02-15-12:06:42,10.1.1.10,19,-0.030,-0.030,-0.030,0.000,0.000,0.000
1644926802783937024,2022-02-15-12:06:42,10.1.1.10,29,-0.040,-0.040,-0.040,0.000,0.000,0.000
1644926802843698944,2022-02-15-12:06:42,10.1.1.10,38,-0.050,-0.050,-0.050,0.000,0.000,0.000
1644926802883269120,2022-02-15-12:06:42,10.1.1.10,27,-0.060,-0.060,-0.060,0.000,0.000,0.000
1644926802943623936,2022-02-15-12:06:42,10.1.1.10,35,-0.070,-0.070,-0.070,0.000,0.000,0.000
1644926802983208960,2022-02-15-12:06:42,10.1.1.10,23,-0.080,-0.080,-0.080,0.000,0.000,0.000
1644926803043409152,2022-02-15-12:06:43,10.1.1.10,32,-0.090,-0.090,-0.090,0.000,0.000,0.000
1644926803084364032,2022-02-15-12:06:43,10.1.1.10,21,-0.100,-0.100,-0.100,0.000,0.000,0.000
1644926803143170048,2022-02-15-12:06:43,10.1.1.10,31,-0.090,-0.090,-0.090,0.000,0.000,0.000
1644926803182894080,2022-02-15-12:06:43,10.1.1.10,20,-0.080,-0.080,-0.080,0.000,0.000,0.000
1644926803242681856,2022-02-15-12:06:43,10.1.1.10,29,-0.070,-0.070,-0.070,0.000,0.000,0.000
1644926803343617024,2022-02-15-12:06:43,10.1.1.10,25,-0.050,-0.050,-0.050,0.000,0.000,0.000
1644926803402586880,2022-02-15-12:06:43,10.1.1.10,34,-0.040,-0.040,-0.040,0.000,0.000,0.000
1644926803443988992,2022-02-15-12:06:43,10.1.1.10,23,-0.030,-0.030,-0.030,0.000,0.000,0.000
1644926803502831104,2022-02-15-12:06:43,10.1.1.10,32,-0.020,-0.020,-0.020,0.000,0.000,0.000
1644926803542752000,2022-02-15-12:06:43,10.1.1.10,22,-0.010,-0.010,-0.010,0.000,0.000,0.000
1644926803603584000,2022-02-15-12:06:43,10.1.1.10,31,0.000,0.000,0.000,0.000,0.000,0.000
1644926803642905856,2022-02-15-12:06:43,10.1.1.10,20,0.010,0.010,0.010,0.000,0.000,0.000
1644926803702985984,2022-02-15-12:06:43,10.1.1.10,30,0.020,0.020,0.020,0.000,0.000,0.000
1644926803743424000,2022-02-15-12:06:43,10.1.1.10,19,0.030,0.030,0.030,0.000,0.000,0.000
1644926803802690048,2022-02-15-12:06:43,10.1.1.10,29,0.040,0.040,0.040,0.000,0.000,0.000
1644926803863507968,2022-02-15-12:06:43,10.1.1.10,38,0.050,0.050,0.050,0.000,0.000,0.000
1644926803903909888,2022-02-15-12:06:43,10.1.1.10,26,0.060,0.060,0.060,0.000,0.000,0.000
1644926803962372096,2022-02-15-12:06:43,10.1.1.10,36,0.070,0.070,0.070,0.000,0.000,0.000
1644926804002429952,2022-02-15-12:06:44,10.1.1.10,26,0.080,0.080,0.080,0.000,0.000,0.000
1644926804062557952,2022-02-15-12:06:44,10.1.1.10,35,0.090,0.090,0.090,0.000,0.000,0.000
1644926804103804160,2022-02-15-12:06:44,10.1.1.10,24,0.100,0.100,0.100,0.000,0.000,0.000
1644926804162861056,2022-02-15-12:06:44,10.1.1.10,27,0.090,0.090,0.090,0.000,0.000,0.000
1644926804224532992,2022-02-15-12:06:44,10.1.1.10,37,0.080,0.080,0.080,0.000,0.000,0.000
1644926804324031232,2022-02-15-12:06:44,10.1.1.10,35,0.060,0.060,0.060,0.000,0.000,0.000
1644926804363575808,2022-02-15-12:06:44,10.1.1.10,24,0.050,0.050,0.050,0.000,0.000,0.000
1644926804423949056,2022-02-15-12:06:44,10.1.1.10,33,0.040,0.040,0.040,0.000,0.000,0.000
1644926804462774016,2022-02-15-12:06:44,10.1.1.10,23,0.030,0.030,0.030,0.000,0.000,0.000
1644926804523963904,2022-02-15-12:06:44,10.1.1.10,32,0.020,0.020,0.020,0.000,0.000,0.000
1644926804623787008,2022-02-15-12:06:44,10.1.1.10,31,0.000,0.000,0.000,0.000,0.000,0.000
1644926804663201024,2022-02-15-12:06:44,10.1.1.10,21,-0.010,-0.010,-0.010,0.000,0.000,0.000
1644926804723255040,2022-02-15-12:06:44,10.1.1.10,30,-0.020,-0.020,-0.020,0.000,0.000,0.000
1644926804762600960,2022-02-15-12:06:44,10.1.1.10,19,-0.029,-0.029,-0.029,0.000,0.000,0.000
1644926804824563968,2022-02-15-12:06:44,10.1.1.10,29,-0.040,-0.040,-0.040,0.000,0.000,0.000
1644926804882891776,2022-02-15-12:06:44,10.1.1.10,38,-0.050,-0.050,-0.050,0.000,0.000,0.000
1644926804922426112,2022-02-15-12:06:44,10.1.1.10,28,-0.060,-0.060,-0.060,0.000,0.000,0.000
1644926804983555072,2022-02-15-12:06:44,10.1.1.10,37,-0.070,-0.070,-0.070,0.000,0.000,0.000
1644926805023214080,2022-02-15-12:06:45,10.1.1.10,26,-0.080,-0.080,-0.080,0.000,0.000,0.000
1644926805082514944,2022-02-15-12:06:45,10.1.1.10,35,-0.090,-0.090,-0.090,0.000,0.000,0.000
1644926805126180864,2022-02-15-12:06:45,10.1.1.10,28,-0.100,-0.100,-0.100,0.000,0.000,0.000
1644926805182752000,2022-02-15-12:06:45,10.1.1.10,35,-0.090,-0.090,-0.090,0.000,0.000,0.000
1644926805223299072,2022-02-15-12:06:45,10.1.1.10,24,-0.080,-0.080,-0.080,0.000,0.000,0.000
1644926805283004928,2022-02-15-12:06:45,10.1.1.10,33,-0.070,-0.070,-0.070,0.000,0.000,0.000
1644926805323589120,2022-02-15-12:06:45,10.1.1.10,23,-0.060,-0.060,-0.060,0.000,0.000,0.000
1644926805382513152,2022-02-15-12:06:45,10.1.1.10,32,-0.050,-0.050,-0.050,0.000,0.000,0.000
1644926805422720000,2022-02-15-12:06:45,10.1.1.10,20,-0.040,-0.040,-0.040,0.000,0.000,0.000
1644926805482999040,2022-02-15-12:06:45,10.1.1.10,30,-0.030,-0.030,-0.030,0.000,0.000,0.000
1644926805523986944,2022-02-15-12:06:45,10.1.1.10,20,-0.020,-0.020,-0.020,0.000,0.000,0.000
1644926805591756032,2022-02-15-12:06:45,10.1.1.10,28,-0.010,-0.010,-0.010,0.000,0.000,0.000
1644926805643104000,2022-02-15-12:06:45,10.1.1.10,37,0.000,0.000,0.000,0.000,0.000,0.000
1644926805682627072,2022-02-15-12:06:45,10.1.1.10,26,0.010,0.010,0.010,0.000,0.000,0.000
1644926805742688768,2022-02-15-12:06:45,10.1.1.10,36,0.020,0.020,0.020,0.000,0.000,0.000
1644926805783982080,2022-02-15-12:06:45,10.1.1.10,25,0.030,0.030,0.030,0.000,0.000,0.000
1644926805842801920,2022-02-15-12:06:45,10.1.1.10,34,0.040,0.040,0.040,0.000,0.000,0.000
1644926805882996992,2022-02-15-12:06:45,10.1.1.10,23,0.050,0.050,0.050,0.000,0.000,0.000
1644926805949361152,2022-02-15-12:06:45,10.1.1.10,33,0.060,0.060,0.060,0.000,0.000,0.000
1644926805983625984,2022-02-15-12:06:45,10.1.1.10,22,0.070,0.070,0.070,0.000,0.000,0.000
1644926806042846976,2022-02-15-12:06:46,10.1.1.10,31,0.080,0.080,0.080,0.000,0.000,0.000
1644926806083260160,2022-02-15-12:06:46,10.1.1.10,21,0.090,0.090,0.090,0.000,0.000,0.000
1644926806143970048,2022-02-15-12:06:46,10.1.1.10,31,0.100,0.100,0.100,0.000,0.000,0.000
1644926806184256000,2022-02-15-12:06:46,10.1.1.10,20,0.090,0.090,0.090,0.000,0.000,0.000
1644926806243331072,2022-02-15-12:06:46,10.1.1.10,30,0.080,0.080,0.080,0.000,0.000,0.000
1644926806283587840,2022-02-15-12:06:46,10.1.1.10,20,0.070,0.070,0.070,0.000,0.000,0.000
1644926806343419136,2022-02-15-12:06:46,10.1.1.10,28,0.060,0.060,0.060,0.000,0.000,0.000
1644926806403502080,2022-02-15-12:06:46,10.1.1.10,36,0.050,0.050,0.050,0.000,0.000,0.000
1644926806443770880,2022-02-15-12:06:46,10.1.1.10,24,0.040,0.040,0.040,0.000,0.000,0.000
1644926806503883008,2022-02-15-12:06:46,10.1.1.10,33,0.030,0.030,0.030,0.000,0.000,0.000
1644926806544235008,2022-02-15-12:06:46,10.1.1.10,23,0.020,0.020,0.020,0.000,0.000,0.000
1644926806604052992,2022-02-15-12:06:46,10.1.1.10,32,0.010,0.010,0.010,0.000,0.000,0.000
1644926806643774976,2022-02-15-12:06:46,10.1.1.10,21,0.000,0.000,0.000,0.000,0.000,0.000
1644926806703762176,2022-02-15-12:06:46,10.1.1.10,30,-0.010,-0.010,-0.010,0.000,0.000,0.000
1644926806742661120,2022-02-15-12:06:46,10.1.1.10,19,-0.020,-0.020,-0.020,0.000,0.000,0.000
1644926806804052224,2022-02-15-12:06:46,10.1.1.10,29,-0.030,-0.030,-0.030,0.000,0.000,0.000
1644926806863496192,2022-02-15-12:06:46,10.1.1.10,38,-0.040,-0.040,-0.040,0.000,0.000,0.000
1644926806906155008,2022-02-15-12:06:46,10.1.1.10,28,-0.050,-0.050,-0.050,0.000,0.000,0.000
1644926806963561984,2022-02-15-12:06:46,10.1.1.10,37,-0.060,-0.060,-0.060,0.000,0.000,0.000
1644926807003692032,2022-02-15-12:06:47,10.1.1.10,24,-0.070,-0.070,-0.070,0.000,0.000,0.000
1644926807062721024,2022-02-15-12:06:47,10.1.1.10,33,-0.080,-0.080,-0.080,0.000,0.000,0.000
1644926807104029952,2022-02-15-12:06:47,10.1.1.10,22,-0.090,-0.090,-0.090,0.000,0.000,0.000
1644926807162750976,2022-02-15-12:06:47,10.1.1.10,30,-0.100,-0.100,-0.100,0.000,0.000,0.000
1644926807203092224,2022-02-15-12:06:47,10.1.1.10,20,-0.090,-0.090,-0.090,0.000,0.000,0.000
1644926807325696000,2022-02-15-12:06:47,10.1.1.10,27,-0.070,-0.070,-0.070,0.000,0.000,0.000
1644926807385398016,2022-02-15-12:06:47,10.1.1.10,36,-0.060,-0.060,-0.060,0.000,0.000,0.000
1644926807425117952,2022-02-15-12:06:47,10.1.1.10,26,-0.050,-0.050,-0.050,0.000,0.000,0.000
1644926807483365888,2022-02-15-12:06:47,10.1.1.10,36,-0.040,-0.040,-0.040,0.000,0.000,0.000
1644926807523899136,2022-02-15-12:06:47,10.1.1.10,25,-0.030,-0.030,-0.030,0.000,0.000,0.000
1644926807584308992,2022-02-15-12:06:47,10.1.1.10,35,-0.020,-0.020,-0.020,0.000,0.000,0.000
1644926807626023168,2022-02-15-12:06:47,10.1.1.10,24,-0.010,-0.010,-0.010,0.000,0.000,0.000
1644926807683478016,2022-02-15-12:06:47,10.1.1.10,34,0.000,0.000,0.000,0.000,0.000,0.000
1644926807722958080,2022-02-15-12:06:47,10.1.1.10,23,0.010,0.010,0.010,0.000,0.000,0.000
1644926807782644992,2022-02-15-12:06:47,10.1.1.10,33,0.020,0.020,0.020,0.000,0.000,0.000
1644926807823774208,2022-02-15-12:06:47,10.1.1.10,22,0.030,0.030,0.030,0.000,0.000,0.000
1644926807922586880,2022-02-15-12:06:47,10.1.1.10,20,0.050,0.050,0.050,0.000,0.000,0.000
1644926807983694080,2022-02-15-12:06:47,10.1.1.10,30,0.060,0.060,0.060,0.000,0.000,0.000
1644926808023256064,2022-02-15-12:06:48,10.1.1.10,19,0.069,0.069,0.069,0.000,0.000,0.000
1644926808082639104,2022-02-15-12:06:48,10.1.1.10,29,0.080,0.080,0.080,0.000,0.000,0.000
1644926808146724864,2022-02-15-12:06:48,10.1.1.10,38,0.090,0.090,0.090,0.000,0.000,0.000
1644926808182370816,2022-02-15-12:06:48,10.1.1.10,27,0.100,0.100,0.100,0.000,0.000,0.000
1644926808242384896,2022-02-15-12:06:48,10.1.1.10,37,0.090,0.090,0.090,0.000,0.000,0.000
1644926808282723072,2022-02-15-12:06:48,10.1.1.10,26,0.080,0.080,0.080,0.000,0.000,0.000
1644926808342394112,2022-02-15-12:06:48,10.1.1.10,36,0.070,0.070,0.070,0.000,0.000,0.000
1644926808382606080,2022-02-15-12:06:48,10.1.1.10,25,0.060,0.060,0.060,0.000,0.000,0.000
1644926808443106816,2022-02-15-12:06:48,10.1.1.10,34,0.050,0.050,0.050,0.000,0.000,0.000
1644926808483557888,2022-02-15-12:06:48,10.1.1.10,24,0.040,0.040,0.040,0.000,0.000,0.000
1644926808543441920,2022-02-15-12:06:48,10.1.1.10,33,0.030,0.030,0.030,0.000,0.000,0.000
1644926808582465792,2022-02-15-12:06:48,10.1.1.10,22,0.020,0.020,0.020,0.000,0.000,0.000
1644926808642621952,2022-02-15-12:06:48,10.1.1.10,31,0.010,0.010,0.010,0.000,0.000,0.000
1644926808682696960,2022-02-15-12:06:48,10.1.1.10,21,0.000,0.000,0.000,0.000,0.000,0.000
1644926808742601984,2022-02-15-12:06:48,10.1.1.10,30,-0.010,-0.010,-0.010,0.000,0.000,0.000
1644926808782767104,2022-02-15-12:06:48,10.1.1.10,19,-0.019,-0.019,-0.019,0.000,0.000,0.000
1644926808843305984,2022-02-15-12:06:48,10.1.1.10,29,-0.030,-0.030,-0.030,0.000,0.000,0.000
1644926808903085056,2022-02-15-12:06:48,10.1.1.10,38,-0.040,-0.040,-0.040,0.000,0.000,0.000
1644926808942616832,2022-02-15-12:06:48,10.1.1.10,27,-0.050,-0.050,-0.050,0.000,0.000,0.000
1644926809002512896,2022-02-15-12:06:49,10.1.1.10,36,-0.060,-0.060,-0.060,0.000,0.000,0.000
1644926809043158016,2022-02-15-12:06:49,10.1.1.10,25,-0.070,-0.070,-0.070,0.000,0.000,0.000
1644926809064137984,2022-02-15-12:06:49,10.1.1.10,-5,-0.070,-0.070,-0.070,0.000,0.000,0.000
1644926809143001088,2022-02-15-12:06:49,10.1.1.10,24,-0.090,-0.090,-0.090,0.000,0.000,0.000
1644926809203326976,2022-02-15-12:06:49,10.1.1.10,34,-0.100,-0.100,-0.100,0.000,0.000,0.000
1644926809243761152,2022-02-15-12:06:49,10.1.1.10,24,-0.090,-0.090,-0.090,0.000,0.000,0.000
1644926809302851072,2022-02-15-12:06:49,10.1.1.10,33,-0.080,-0.080,-0.080,0.000,0.000,0.000
1644926809344662016,2022-02-15-12:06:49,10.1.1.10,22,-0.070,-0.070,-0.070,0.000,0.000,0.000
1644926809402929152,2022-02-15-12:06:49,10.1.1.10,32,-0.060,-0.060,-0.060,0.000,0.000,0.000
1644926809442635008,2022-02-15-12:06:49,10.1.1.10,21,-0.050,-0.050,-0.050,0.000,0.000,0.000
1644926809503096064,2022-02-15-12:06:49,10.1.1.10,30,-0.040,-0.040,-0.040,0.000,0.000,0.000
1644926809542577920,2022-02-15-12:06:49,10.1.1.10,20,-0.030,-0.030,-0.030,0.000,0.000,0.000
1644926809602818048,2022-02-15-12:06:49,10.1.1.10,30,-0.020,-0.020,-0.020,0.000,0.000,0.000
1644926809643212032,2022-02-15-12:06:49,10.1.1.10,19,-0.010,-0.010,-0.010,0.000,0.000,0.000
1644926809703188992,2022-02-15-12:06:49,10.1.1.10,29,0.000,0.000,0.000,0.000,0.000,0.000
1644926809762574848,2022-02-15-12:06:49,10.1.1.10,37,0.010,0.010,0.010,0.000,0.000,0.000
1644926809802469120,2022-02-15-12:06:49,10.1.1.10,27,0.020,0.020,0.020,0.000,0.000,0.000
1644926809862648064,2022-02-15-12:06:49,10.1.1.10,28,0.030,0.030,0.030,0.000,0.000,0.000
1644926809923717120,2022-02-15-12:06:49,10.1.1.10,37,0.040,0.040,0.040,0.000,0.000,0.000
1644926809962651904,2022-02-15-12:06:49,10.1.1.10,26,0.050,0.050,0.050,0.000,0.000,0.000
1644926810022733056,2022-02-15-12:06:50,10.1.1.10,35,0.060,0.060,0.060,0.000,0.000,0.000
1644926810062362880,2022-02-15-12:06:50,10.1.1.10,24,0.070,0.070,0.070,0.000,0.000,0.000
1644926810123193856,2022-02-15-12:06:50,10.1.1.10,34,0.080,0.080,0.080,0.000,0.000,0.000
1644926810163343872,2022-02-15-12:06:50,10.1.1.10,23,0.090,0.090,0.090,0.000,0.000,0.000
1644926810222748160,2022-02-15-12:06:50,10.1.1.10,32,0.100,0.100,0.100,0.000,0.000,0.000
1644926810262917888,2022-02-15-12:06:50,10.1.1.10,22,0.090,0.090,0.090,0.000,0.000,0.000
1644926810322469888,2022-02-15-12:06:50,10.1.1.10,31,0.080,0.080,0.080,0.000,0.000,0.000
1644926810363513856,2022-02-15-12:06:50,10.1.1.10,20,0.070,0.070,0.070,0.000,0.000,0.000
1644926810423118080,2022-02-15-12:06:50,10.1.1.10,30,0.060,0.060,0.060,0.000,0.000,0.000
1644926810463277056,2022-02-15-12:06:50,10.1.1.10,19,0.051,0.051,0.051,0.000,0.000,0.000
1644926810522721024,2022-02-15-12:06:50,10.1.1.10,28,0.040,0.040,0.040,0.000,0.000,0.000
1644926810582590976,2022-02-15-12:06:50,10.1.1.10,38,0.030,0.030,0.030,0.000,0.000,0.000
1644926810622791168,2022-02-15-12:06:50,10.1.1.10,27,0.020,0.020,0.020,0.000,0.000,0.000
1644926810683150080,2022-02-15-12:06:50,10.1.1.10,36,0.010,0.010,0.010,0.000,0.000,0.000
1644926810722853888,2022-02-15-12:06:50,10.1.1.10,26,0.000,0.000,0.000,0.000,0.000,0.000
1644926810783461120,2022-02-15-12:06:50,10.1.1.10,36,-0.010,-0.010,-0.010,0.000,0.000,0.000
1644926810823694080,2022-02-15-12:06:50,10.1.1.10,25,-0.020,-0.020,-0.020,0.000,0.000,0.000
1644926810883572992,2022-02-15-12:06:50,10.1.1.10,35,-0.030,-0.030,-0.030,0.000,0.000,0.000
1644926810925394176,2022-02-15-12:06:50,10.1.1.10,24,-0.040,-0.040,-0.040,0.000,0.000,0.000
1644926810982712064,2022-02-15-12:06:50,10.1.1.10,33,-0.050,-0.050,-0.050,0.000,0.000,0.000
1644926811023202048,2022-02-15-12:06:51,10.1.1.10,24,-0.060,-0.060,-0.060,0.000,0.000,0.000
1644926811083812096,2022-02-15-12:06:51,10.1.1.10,28,-0.070,-0.070,-0.070,0.000,0.000,0.000
1644926811148451072,2022-02-15-12:06:51,10.1.1.10,37,-0.080,-0.080,-0.080,0.000,0.000,0.000
1644926811183043072,2022-02-15-12:06:51,10.1.1.10,26,-0.090,-0.090,-0.090,0.000,0.000,0.000
1644926811246961152,2022-02-15-12:06:51,10.1.1.10,33,-0.100,-0.100,-0.100,0.000,0.000,0.000
1644926811282524160,2022-02-15-12:06:51,10.1.1.10,23,-0.090,-0.090,-0.090,0.000,0.000,0.000
1644926811343197952,2022-02-15-12:06:51,10.1.1.10,32,-0.080,-0.080,-0.080,0.000,0.000,0.000
1644926811382420992,2022-02-15-12:06:51,10.1.1.10,21,-0.070,-0.070,-0.070,0.000,0.000,0.000
1644926811442595072,2022-02-15-12:06:51,10.1.1.10,31,-0.060,-0.060,-0.060,0.000,0.000,0.000
1644926811482844160,2022-02-15-12:06:51,10.1.1.10,20,-0.050,-0.050,-0.050,0.000,0.000,0.000
1644926811544919040,2022-02-15-12:06:51,10.1.1.10,30,-0.040,-0.040,-0.040,0.000,0.000,0.000
1644926811582173952,2022-02-15-12:06:51,10.1.1.10,19,-0.030,-0.030,-0.030,0.000,0.000,0.000
1644926811651595008,2022-02-15-12:06:51,10.1.1.10,29,-0.020,-0.020,-0.020,0.000,0.000,0.000
1644926811895750912,2022-02-15-12:06:51,10.1.1.10,27,0.000,0.000,0.000,0.000,0.000,0.000
1644926811924727808,2022-02-15-12:06:51,10.1.1.10,22,0.010,0.010,0.010,0.000,0.000,0.000
1644926811982466048,2022-02-15-12:06:51,10.1.1.10,31,0.020,0.020,0.020,0.000,0.000,0.000
1644926812023763968,2022-02-15-12:06:52,10.1.1.10,20,0.030,0.030,0.030,0.000,0.000,0.000
1644926812083110144,2022-02-15-12:06:52,10.1.1.10,24,0.040,0.040,0.040,0.000,0.000,0.000
1644926812146803968,2022-02-15-12:06:52,10.1.1.10,31,0.050,0.050,0.050,0.000,0.000,0.000
1644926812183597056,2022-02-15-12:06:52,10.1.1.10,21,0.060,0.060,0.060,0.000,0.000,0.000
1644926812244162048,2022-02-15-12:06:52,10.1.1.10,30,0.070,0.070,0.070,0.000,0.000,0.000
1644926812283544064,2022-02-15-12:06:52,10.1.1.10,20,0.080,0.080,0.080,0.000,0.000,0.000
1644926812346817024,2022-02-15-12:06:52,10.1.1.10,30,0.090,0.090,0.090,0.000,0.000,0.000
1644926812384644864,2022-02-15-12:06:52,10.1.1.10,19,0.100,0.100,0.100,0.000,0.000,0.000
1644926812443412992,2022-02-15-12:06:52,10.1.1.10,29,0.090,0.090,0.090,0.000,0.000,0.000
1644926812504089088,2022-02-15-12:06:52,10.1.1.10,38,0.080,0.080,0.080,0.000,0.000,0.000
1644926812543589120,2022-02-15-12:06:52,10.1.1.10,28,0.070,0.070,0.070,0.000,0.000,0.000
1644926812603280128,2022-02-15-12:06:52,10.1.1.10,36,0.060,0.060,0.060,0.000,0.000,0.000
1644926812644617984,2022-02-15-12:06:52,10.1.1.10,26,0.050,0.050,0.050,0.000,0.000,0.000
1644926812703421184,2022-02-15-12:06:52,10.1.1.10,35,0.040,0.040,0.040,0.000,0.000,0.000
1644926812743726848,2022-02-15-12:06:52,10.1.1.10,25,0.030,0.030,0.030,0.000,0.000,0.000
1644926812803361792,2022-02-15-12:06:52,10.1.1.10,35,0.020,0.020,0.020,0.000,0.000,0.000
1644926812843034112,2022-02-15-12:06:52,10.1.1.10,23,0.010,0.010,0.010,0.000,0.000,0.000
1644926812903256064,2022-02-15-12:06:52,10.1.1.10,31,0.000,0.000,0.000,0.000,0.000,0.000
1644926812943695104,2022-02-15-12:06:52,10.1.1.10,20,-0.010,-0.010,-0.010,0.000,0.000,0.000
1644926813003223808,2022-02-15-12:06:53,10.1.1.10,29,-0.020,-0.020,-0.020,0.000,0.000,0.000
1644926813063750144,2022-02-15-12:06:53,10.1.1.10,38,-0.030,-0.030,-0.030,0.000,0.000,0.000
1644926813103096064,2022-02-15-12:06:53,10.1.1.10,28,-0.040,-0.040,-0.040,0.000,0.000,0.000
1644926813163415808,2022-02-15-12:06:53,10.1.1.10,35,-0.050,-0.050,-0.050,0.000,0.000,0.000
1644926813202936832,2022-02-15-12:06:53,10.1.1.10,23,-0.060,-0.060,-0.060,0.000,0.000,0.000
1644926813264296960,2022-02-15-12:06:53,10.1.1.10,32,-0.070,-0.070,-0.070,0.000,0.000,0.000
1644926813303653120,2022-02-15-12:06:53,10.1.1.10,21,-0.080,-0.080,-0.080,0.000,0.000,0.000
1644926813367428096,2022-02-15-12:06:53,10.1.1.10,31,-0.090,-0.090,-0.090,0.000,0.000,0.000
1644926813403681024,2022-02-15-12:06:53,10.1.1.10,20,-0.100,-0.100,-0.100,0.000,0.000,0.000
1644926813464016896,2022-02-15-12:06:53,10.1.1.10,29,-0.090,-0.090,-0.090,0.000,0.000,0.000
1644926813523122176,2022-02-15-12:06:53,10.1.1.10,38,-0.080,-0.080,-0.080,0.000,0.000,0.000
1644926813563620096,2022-02-15-12:06:53,10.1.1.10,28,-0.070,-0.070,-0.070,0.000,0.000,0.000
1644926813623744000,2022-02-15-12:06:53,10.1.1.10,37,-0.060,-0.060,-0.060,0.000,0.000,0.000
1644926813664332032,2022-02-15-12:06:53,10.1.1.10,26,-0.050,-0.050,-0.050,0.000,0.000,0.000
1644926813724263936,2022-02-15-12:06:53,10.1.1.10,36,-0.040,-0.040,-0.040,0.000,0.000,0.000
1644926813765729792,2022-02-15-12:06:53,10.1.1.10,27,-0.030,-0.030,-0.030,0.000,0.000,0.000
1644926813825850880,2022-02-15-12:06:53,10.1.1.10,35,-0.020,-0.020,-0.020,0.000,0.000,0.000
1644926813862831104,2022-02-15-12:06:53,10.1.1.10,25,-0.010,-0.010,-0.010,0.000,0.000,0.000
1644926813923367936,2022-02-15-12:06:53,10.1.1.10,34,0.000,0.000,0.000,0.000,0.000,0.000
1644926813963216128,2022-02-15-12:06:53,10.1.1.10,24,0.010,0.010,0.010,0.000,0.000,0.000
1644926814024521984,2022-02-15-12:06:54,10.1.1.10,33,0.020,0.020,0.020,0.000,0.000,0.000
1644926814063148032,2022-02-15-12:06:54,10.1.1.10,23,0.030,0.030,0.030,0.000,0.000,0.000
1644926814124339968,2022-02-15-12:06:54,10.1.1.10,33,0.040,0.040,0.040,0.000,0.000,0.000
1644926814243115776,2022-02-15-12:06:54,10.1.1.10,31,0.060,0.060,0.060,0.000,0.000,0.000
1644926814282829056,2022-02-15-12:06:54,10.1.1.10,20,0.070,0.070,0.070,0.000,0.000,0.000
1644926814343888128,2022-02-15-12:06:54,10.1.1.10,30,0.080,0.080,0.080,0.000,0.000,0.000
1644926814382749952,2022-02-15-12:06:54,10.1.1.10,20,0.090,0.090,0.090,0.000,0.000,0.000
1644926814443344128,2022-02-15-12:06:54,10.1.1.10,29,0.100,0.100,0.100,0.000,0.000,0.000
1644926814483298048,2022-02-15-12:06:54,10.1.1.10,18,0.091,0.091,0.091,0.000,0.000,0.000
1644926814543976192,2022-02-15-12:06:54,10.1.1.10,28,0.080,0.080,0.080,0.000,0.000,0.000
1644926814603418112,2022-02-15-12:06:54,10.1.1.10,37,0.070,0.070,0.070,0.000,0.000,0.000
1644926814643662080,2022-02-15-12:06:54,10.1.1.10,27,0.060,0.060,0.060,0.000,0.000,0.000
1644926814703457024,2022-02-15-12:06:54,10.1.1.10,36,0.050,0.050,0.050,0.000,0.000,0.000
1644926814743633152,2022-02-15-12:06:54,10.1.1.10,26,0.040,0.040,0.040,0.000,0.000,0.000
1644926814802678016,2022-02-15-12:06:54,10.1.1.10,36,0.030,0.030,0.030,0.000,0.000,0.000
1644926814842621952,2022-02-15-12:06:54,10.1.1.10,25,0.020,0.020,0.020,0.000,0.000,0.000
1644926814903738112,2022-02-15-12:06:54,10.1.1.10,35,0.010,0.010,0.010,0.000,0.000,0.000
1644926814942806016,2022-02-15-12:06:54,10.1.1.10,23,0.000,0.000,0.000,0.000,0.000,0.000
1644926815003077888,2022-02-15-12:06:55,10.1.1.10,32,-0.010,-0.010,-0.010,0.000,0.000,0.000
1644926815042849024,2022-02-15-12:06:55,10.1.1.10,21,-0.020,-0.020,-0.020,0.000,0.000,0.000
1644926815102979840,2022-02-15-12:06:55,10.1.1.10,31,-0.030,-0.030,-0.030,0.000,0.000,0.000
1644926815143252992,2022-02-15-12:06:55,10.1.1.10,21,-0.040,-0.040,-0.040,0.000,0.000,0.000
1644926815202929920,2022-02-15-12:06:55,10.1.1.10,30,-0.050,-0.050,-0.050,0.000,0.000,0.000
1644926815242875136,2022-02-15-12:06:55,10.1.1.10,20,-0.060,-0.060,-0.060,0.000,0.000,0.000
1644926815303712000,2022-02-15-12:06:55,10.1.1.10,29,-0.070,-0.070,-0.070,0.000,0.000,0.000
1644926815342434816,2022-02-15-12:06:55,10.1.1.10,19,-0.079,-0.079,-0.079,0.000,0.000,0.000
1644926815407437056,2022-02-15-12:06:55,10.1.1.10,27,-0.090,-0.090,-0.090,0.000,0.000,0.000
1644926815463137024,2022-02-15-12:06:55,10.1.1.10,32,-0.100,-0.100,-0.100,0.000,0.000,0.000
1644926815502362880,2022-02-15-12:06:55,10.1.1.10,19,-0.091,-0.091,-0.091,0.000,0.000,0.000
1644926815562243840,2022-02-15-12:06:55,10.1.1.10,27,-0.080,-0.080,-0.080,0.000,0.000,0.000
1644926815623843072,2022-02-15-12:06:55,10.1.1.10,36,-0.070,-0.070,-0.070,0.000,0.000,0.000
1644926815663328000,2022-02-15-12:06:55,10.1.1.10,26,-0.060,-0.060,-0.060,0.000,0.000,0.000
1644926815723192832,2022-02-15-12:06:55,10.1.1.10,34,-0.050,-0.050,-0.050,0.000,0.000,0.000
1644926815762473984,2022-02-15-12:06:55,10.1.1.10,23,-0.040,-0.040,-0.040,0.000,0.000,0.000
1644926815822927104,2022-02-15-12:06:55,10.1.1.10,33,-0.030,-0.030,-0.030,0.000,0.000,0.000
1644926815863269120,2022-02-15-12:06:55,10.1.1.10,23,-0.020,-0.020,-0.020,0.000,0.000,0.000
1644926815923228928,2022-02-15-12:06:55,10.1.1.10,32,-0.010,-0.010,-0.010,0.000,0.000,0.000
1644926815963091968,2022-02-15-12:06:55,10.1.1.10,21,0.000,0.000,0.000,0.000,0.000,0.000
1644926816032436992,2022-02-15-12:06:56,10.1.1.10,31,0.010,0.010,0.010,0.000,0.000,0.000
1644926816082629888,2022-02-15-12:06:56,10.1.1.10,23,0.020,0.020,0.020,0.000,0.000,0.000
1644926816144180992,2022-02-15-12:06:56,10.1.1.10,32,0.030,0.030,0.030,0.000,0.000,0.000
1644926816182430976,2022-02-15-12:06:56,10.1.1.10,21,0.040,0.040,0.040,0.000,0.000,0.000
1644926816282625024,2022-02-15-12:06:56,10.1.1.10,30,0.050,0.050,0.050,0.000,0.000,0.000
1644926816342804992,2022-02-15-12:06:56,10.1.1.10,39,0.060,0.060,0.060,0.000,0.000,0.000
1644926816382683904,2022-02-15-12:06:56,10.1.1.10,28,0.070,0.070,0.070,0.000,0.000,0.000
1644926816449137920,2022-02-15-12:06:56,10.1.1.10,31,0.080,0.080,0.080,0.000,0.000,0.000
1644926816502699008,2022-02-15-12:06:56,10.1.1.10,35,0.090,0.090,0.090,0.000,0.000,0.000
1644926816543220992,2022-02-15-12:06:56,10.1.1.10,23,0.100,0.100,0.100,0.000,0.000,0.000
1644926816883540992,2022-02-15-12:06:56,10.1.1.10,31,0.040,0.040,0.040,0.000,0.000,0.000
1644926816924226048,2022-02-15-12:06:56,10.1.1.10,20,0.030,0.030,0.030,0.000,0.000,0.000
1644926816983251200,2022-02-15-12:06:56,10.1.1.10,30,0.020,0.020,0.020,0.000,0.000,0.000
1644926817024441088,2022-02-15-12:06:57,10.1.1.10,19,0.011,0.011,0.011,0.000,0.000,0.000
1644926817096962816,2022-02-15-12:06:57,10.1.1.10,28,0.000,0.000,0.000,0.000,0.000,0.000
1644926817185161216,2022-02-15-12:06:57,10.1.1.10,25,-0.020,-0.020,-0.020,0.000,0.000,0.000
1644926817242608128,2022-02-15-12:06:57,10.1.1.10,35,-0.030,-0.030,-0.030,0.000,0.000,0.000
1644926817283401984,2022-02-15-12:06:57,10.1.1.10,24,-0.040,-0.040,-0.040,0.000,0.000,0.000
1644926817343553024,2022-02-15-12:06:57,10.1.1.10,33,-0.050,-0.050,-0.050,0.000,0.000,0.000
1644926817383313920,2022-02-15-12:06:57,10.1.1.10,23,-0.060,-0.060,-0.060,0.000,0.000,0.000
1644926817443036928,2022-02-15-12:06:57,10.1.1.10,32,-0.070,-0.070,-0.070,0.000,0.000,0.000
1644926817482863872,2022-02-15-12:06:57,10.1.1.10,22,-0.080,-0.080,-0.080,0.000,0.000,0.000
1644926817543000064,2022-02-15-12:06:57,10.1.1.10,31,-0.090,-0.090,-0.090,0.000,0.000,0.000
1644926817582934016,2022-02-15-12:06:57,10.1.1.10,21,-0.100,-0.100,-0.100,0.000,0.000,0.000
1644926817643646976,2022-02-15-12:06:57,10.1.1.10,31,-0.090,-0.090,-0.090,0.000,0.000,0.000
1644926817683747072,2022-02-15-12:06:57,10.1.1.10,20,-0.080,-0.080,-0.080,0.000,0.000,0.000
1644926817742376960,2022-02-15-12:06:57,10.1.1.10,30,-0.070,-0.070,-0.070,0.000,0.000,0.000
1644926817783080192,2022-02-15-12:06:57,10.1.1.10,19,-0.060,-0.060,-0.060,0.000,0.000,0.000
1644926817843756032,2022-02-15-12:06:57,10.1.1.10,28,-0.050,-0.050,-0.050,0.000,0.000,0.000
1644926817903194880,2022-02-15-12:06:57,10.1.1.10,37,-0.040,-0.040,-0.040,0.000,0.000,0.000
1644926817944776960,2022-02-15-12:06:57,10.1.1.10,27,-0.030,-0.030,-0.030,0.000,0.000,0.000
1644926818002275840,2022-02-15-12:06:58,10.1.1.10,36,-0.020,-0.020,-0.020,0.000,0.000,0.000
1644926818043471104,2022-02-15-12:06:58,10.1.1.10,25,-0.010,-0.010,-0.010,0.000,0.000,0.000
1644926818103874816,2022-02-15-12:06:58,10.1.1.10,35,0.000,0.000,0.000,0.000,0.000,0.000
1644926818204387840,2022-02-15-12:06:58,10.1.1.10,26,0.020,0.020,0.020,0.000,0.000,0.000
1644926818263087872,2022-02-15-12:06:58,10.1.1.10,28,0.030,0.030,0.030,0.000,0.000,0.000
1644926818328392960,2022-02-15-12:06:58,10.1.1.10,37,0.040,0.040,0.040,0.000,0.000,0.000
1644926818362360064,2022-02-15-12:06:58,10.1.1.10,26,0.050,0.050,0.050,0.000,0.000,0.000
1644926818423412992,2022-02-15-12:06:58,10.1.1.10,36,0.060,0.060,0.060,0.000,0.000,0.000
1644926818462456064,2022-02-15-12:06:58,10.1.1.10,25,0.070,0.070,0.070,0.000,0.000,0.000
1644926818523332096,2022-02-15-12:06:58,10.1.1.10,35,0.080,0.080,0.080,0.000,0.000,0.000
1644926818562633984,2022-02-15-12:06:58,10.1.1.10,24,0.090,0.090,0.090,0.000,0.000,0.000
1644926818623096832,2022-02-15-12:06:58,10.1.1.10,33,0.100,0.100,0.100,0.000,0.000,0.000
1644926818662955008,2022-02-15-12:06:58,10.1.1.10,22,0.090,0.090,0.090,0.000,0.000,0.000
1644926818723390976,2022-02-15-12:06:58,10.1.1.10,32,0.080,0.080,0.080,0.000,0.000,0.000
1644926818762862080,2022-02-15-12:06:58,10.1.1.10,21,0.070,0.070,0.070,0.000,0.000,0.000
1644926818822968832,2022-02-15-12:06:58,10.1.1.10,31,0.060,0.060,0.060,0.000,0.000,0.000
1644926818862109952,2022-02-15-12:06:58,10.1.1.10,20,0.050,0.050,0.050,0.000,0.000,0.000
1644926818922537984,2022-02-15-12:06:58,10.1.1.10,29,0.040,0.040,0.040,0.000,0.000,0.000
1644926818982633984,2022-02-15-12:06:58,10.1.1.10,38,0.030,0.030,0.030,0.000,0.000,0.000
1644926819023896064,2022-02-15-12:06:59,10.1.1.10,28,0.020,0.020,0.020,0.000,0.000,0.000
1644926819082528000,2022-02-15-12:06:59,10.1.1.10,37,0.010,0.010,0.010,0.000,0.000,0.000
1644926819183279872,2022-02-15-12:06:59,10.1.1.10,35,-0.010,-0.010,-0.010,0.000,0.000,0.000
1644926819223534080,2022-02-15-12:06:59,10.1.1.10,24,-0.020,-0.020,-0.020,0.000,0.000,0.000
1644926819283382784,2022-02-15-12:06:59,10.1.1.10,33,-0.030,-0.030,-0.030,0.000,0.000,0.000
1644926819323694080,2022-02-15-12:06:59,10.1.1.10,22,-0.040,-0.040,-0.040,0.000,0.000,0.000
1644926819382961152,2022-02-15-12:06:59,10.1.1.10,32,-0.050,-0.050,-0.050,0.000,0.000,0.000
1644926819422734848,2022-02-15-12:06:59,10.1.1.10,22,-0.060,-0.060,-0.060,0.000,0.000,0.000
1644926819482619136,2022-02-15-12:06:59,10.1.1.10,31,-0.070,-0.070,-0.070,0.000,0.000,0.000
1644926819522960896,2022-02-15-12:06:59,10.1.1.10,21,-0.080,-0.080,-0.080,0.000,0.000,0.000
1644926819582868992,2022-02-15-12:06:59,10.1.1.10,30,-0.090,-0.090,-0.090,0.000,0.000,0.000
1644926819623444992,2022-02-15-12:06:59,10.1.1.10,20,-0.100,-0.100,-0.100,0.000,0.000,0.000
1644926819683223040,2022-02-15-12:06:59,10.1.1.10,29,-0.090,-0.090,-0.090,0.000,0.000,0.000
1644926819722875136,2022-02-15-12:06:59,10.1.1.10,19,-0.081,-0.081,-0.081,0.000,0.000,0.000
1644926819782913024,2022-02-15-12:06:59,10.1.1.10,28,-0.070,-0.070,-0.070,0.000,0.000,0.000
1644926819842391040,2022-02-15-12:06:59,10.1.1.10,38,-0.060,-0.060,-0.060,0.000,0.000,0.000
1644926819882778880,2022-02-15-12:06:59,10.1.1.10,27,-0.050,-0.050,-0.050,0.000,0.000,0.000
1644926819943280896,2022-02-15-12:06:59,10.1.1.10,37,-0.040,-0.040,-0.040,0.000,0.000,0.000
1644926819983441152,2022-02-15-12:06:59,10.1.1.10,26,-0.030,-0.030,-0.030,0.000,0.000,0.000
1644926820043420160,2022-02-15-12:07:00,10.1.1.10,36,-0.020,-0.020,-0.020,0.000,0.000,0.000
1644926820083020800,2022-02-15-12:07:00,10.1.1.10,25,-0.010,-0.010,-0.010,0.000,0.000,0.000
1644926820143589888,2022-02-15-12:07:00,10.1.1.10,35,0.000,0.000,0.000,0.000,0.000,0.000
1644926820183203840,2022-02-15-12:07:00,10.1.1.10,21,0.010,0.010,0.010,0.000,0.000,0.000
1644926820243248896,2022-02-15-12:07:00,10.1.1.10,31,0.020,0.020,0.020,0.000,0.000,0.000
1644926820282754816,2022-02-15-12:07:00,10.1.1.10,20,0.030,0.030,0.030,0.000,0.000,0.000
1644926820342681856,2022-02-15-12:07:00,10.1.1.10,29,0.040,0.040,0.040,0.000,0.000,0.000
1644926820384488192,2022-02-15-12:07:00,10.1.1.10,19,0.050,0.050,0.050,0.000,0.000,0.000
1644926820443734016,2022-02-15-12:07:00,10.1.1.10,28,0.060,0.060,0.060,0.000,0.000,0.000
1644926820503120896,2022-02-15-12:07:00,10.1.1.10,37,0.070,0.070,0.070,0.000,0.000,0.000
1644926820543235072,2022-02-15-12:07:00,10.1.1.10,27,0.080,0.080,0.080,0.000,0.000,0.000
1644926820603399936,2022-02-15-12:07:00,10.1.1.10,36,0.090,0.090,0.090,0.000,0.000,0.000
1644926820643137024,2022-02-15-12:07:00,10.1.1.10,26,0.100,0.100,0.100,0.000,0.000,0.000
1644926820703375104,2022-02-15-12:07:00,10.1.1.10,36,0.090,0.090,0.090,0.000,0.000,0.000
1644926820743017984,2022-02-15-12:07:00,10.1.1.10,25,0.080,0.080,0.080,0.000,0.000,0.000
1644926820803514880,2022-02-15-12:07:00,10.1.1.10,34,0.070,0.070,0.070,0.000,0.000,0.000
1644926820843452928,2022-02-15-12:07:00,10.1.1.10,23,0.060,0.060,0.060,0.000,0.000,0.000
1644926820903065856,2022-02-15-12:07:00,10.1.1.10,33,0.050,0.050,0.050,0.000,0.000,0.000
1644926820942696960,2022-02-15-12:07:00,10.1.1.10,22,0.040,0.040,0.040,0.000,0.000,0.000
1644926821003331840,2022-02-15-12:07:01,10.1.1.10,32,0.030,0.030,0.030,0.000,0.000,0.000
1644926821046519040,2022-02-15-12:07:01,10.1.1.10,22,0.020,0.020,0.020,0.000,0.000,0.000
1644926821103401984,2022-02-15-12:07:01,10.1.1.10,31,0.010,0.010,0.010,0.000,0.000,0.000
1644926821163364864,2022-02-15-12:07:01,10.1.1.10,36,0.000,0.000,0.000,0.000,0.000,0.000
1644926821203907840,2022-02-15-12:07:01,10.1.1.10,25,-0.010,-0.010,-0.010,0.000,0.000,0.000
1644926821263375104,2022-02-15-12:07:01,10.1.1.10,35,-0.020,-0.020,-0.020,0.000,0.000,0.000
1644926821303366912,2022-02-15-12:07:01,10.1.1.10,25,-0.030,-0.030,-0.030,0.000,0.000,0.000
1644926821363414016,2022-02-15-12:07:01,10.1.1.10,34,-0.040,-0.040,-0.040,0.000,0.000,0.000
1644926821402959104,2022-02-15-12:07:01,10.1.1.10,23,-0.050,-0.050,-0.050,0.000,0.000,0.000
1644926821463041024,2022-02-15-12:07:01,10.1.1.10,33,-0.060,-0.060,-0.060,0.000,0.000,0.000
1644926821503070208,2022-02-15-12:07:01,10.1.1.10,22,-0.070,-0.070,-0.070,0.000,0.000,0.000
1644926821563067904,2022-02-15-12:07:01,10.1.1.10,31,-0.080,-0.080,-0.080,0.000,0.000,0.000
1644926821603385088,2022-02-15-12:07:01,10.1.1.10,21,-0.090,-0.090,-0.090,0.000,0.000,0.000
1644926821663465984,2022-02-15-12:07:01,10.1.1.10,31,-0.100,-0.100,-0.100,0.000,0.000,0.000
1644926821702469120,2022-02-15-12:07:01,10.1.1.10,20,-0.090,-0.090,-0.090,0.000,0.000,0.000
1644926821763469056,2022-02-15-12:07:01,10.1.1.10,30,-0.080,-0.080,-0.080,0.000,0.000,0.000
1644926821802014976,2022-02-15-12:07:01,10.1.1.10,19,-0.070,-0.070,-0.070,0.000,0.000,0.000
1644926821863010816,2022-02-15-12:07:01,10.1.1.10,28,-0.060,-0.060,-0.060,0.000,0.000,0.000
1644926821923762944,2022-02-15-12:07:01,10.1.1.10,38,-0.050,-0.050,-0.050,0.000,0.000,0.000
1644926821962927104,2022-02-15-12:07:01,10.1.1.10,27,-0.040,-0.040,-0.040,0.000,0.000,0.000
1644926822022584832,2022-02-15-12:07:02,10.1.1.10,37,-0.030,-0.030,-0.030,0.000,0.000,0.000
1644926822064747008,2022-02-15-12:07:02,10.1.1.10,26,-0.020,-0.020,-0.020,0.000,0.000,0.000
1644926822123150080,2022-02-15-12:07:02,10.1.1.10,36,-0.010,-0.010,-0.010,0.000,0.000,0.000
1644926822164140032,2022-02-15-12:07:02,10.1.1.10,25,0.000,0.000,0.000,0.000,0.000,0.000
1644926822223893760,2022-02-15-12:07:02,10.1.1.10,35,0.010,0.010,0.010,0.000,0.000,0.000
1644926822263351040,2022-02-15-12:07:02,10.1.1.10,23,0.020,0.020,0.020,0.000,0.000,0.000
1644926822323204096,2022-02-15-12:07:02,10.1.1.10,33,0.030,0.030,0.030,0.000,0.000,0.000
1644926822364240896,2022-02-15-12:07:02,10.1.1.10,23,0.040,0.040,0.040,0.000,0.000,0.000
1644926822423670016,2022-02-15-12:07:02,10.1.1.10,32,0.050,0.050,0.050,0.000,0.000,0.000
1644926822464227072,2022-02-15-12:07:02,10.1.1.10,22,0.060,0.060,0.060,0.000,0.000,0.000
1644926822522108928,2022-02-15-12:07:02,10.1.1.10,31,0.070,0.070,0.070,0.000,0.000,0.000
1644926822562947072,2022-02-15-12:07:02,10.1.1.10,21,0.080,0.080,0.080,0.000,0.000,0.000
1644926822624172800,2022-02-15-12:07:02,10.1.1.10,31,0.090,0.090,0.090,0.000,0.000,0.000
1644926822664162048,2022-02-15-12:07:02,10.1.1.10,20,0.100,0.100,0.100,0.000,0.000,0.000
1644926822724567040,2022-02-15-12:07:02,10.1.1.10,30,0.090,0.090,0.090,0.000,0.000,0.000
1644926822809172992,2022-02-15-12:07:02,10.1.1.10,19,0.081,0.081,0.081,0.000,0.000,0.000
1644926822903561984,2022-02-15-12:07:02,10.1.1.10,20,0.060,0.060,0.060,0.000,0.000,0.000
1644926822963314176,2022-02-15-12:07:02,10.1.1.10,30,0.050,0.050,0.050,0.000,0.000,0.000
1644926823003333120,2022-02-15-12:07:03,10.1.1.10,19,0.040,0.040,0.040,0.000,0.000,0.000
1644926823063031808,2022-02-15-12:07:03,10.1.1.10,28,0.030,0.030,0.030,0.000,0.000,0.000
1644926823123115008,2022-02-15-12:07:03,10.1.1.10,38,0.020,0.020,0.020,0.000,0.000,0.000
1644926823163696896,2022-02-15-12:07:03,10.1.1.10,27,0.010,0.010,0.010,0.000,0.000,0.000
1644926823223714048,2022-02-15-12:07:03,10.1.1.10,37,0.000,0.000,0.000,0.000,0.000,0.000
1644926823263245056,2022-02-15-12:07:03,10.1.1.10,26,-0.010,-0.010,-0.010,0.000,0.000,0.000
1644926823324151040,2022-02-15-12:07:03,10.1.1.10,36,-0.020,-0.020,-0.020,0.000,0.000,0.000
1644926823364284928,2022-02-15-12:07:03,10.1.1.10,25,-0.030,-0.030,-0.030,0.000,0.000,0.000
1644926823423742976,2022-02-15-12:07:03,10.1.1.10,34,-0.040,-0.040,-0.040,0.000,0.000,0.000
1644926823463313152,2022-02-15-12:07:03,10.1.1.10,24,-0.050,-0.050,-0.050,0.000,0.000,0.000
1644926823523323904,2022-02-15-12:07:03,10.1.1.10,33,-0.060,-0.060,-0.060,0.000,0.000,0.000
1644926823563698176,2022-02-15-12:07:03,10.1.1.10,22,-0.070,-0.070,-0.070,0.000,0.000,0.000
1644926823624198912,2022-02-15-12:07:03,10.1.1.10,32,-0.080,-0.080,-0.080,0.000,0.000,0.000
1644926823663173888,2022-02-15-12:07:03,10.1.1.10,21,-0.090,-0.090,-0.090,0.000,0.000,0.000
1644926823723433984,2022-02-15-12:07:03,10.1.1.10,30,-0.100,-0.100,-0.100,0.000,0.000,0.000
1644926823762983936,2022-02-15-12:07:03,10.1.1.10,20,-0.090,-0.090,-0.090,0.000,0.000,0.000
1644926823828121856,2022-02-15-12:07:03,10.1.1.10,29,-0.080,-0.080,-0.080,0.000,0.000,0.000
1644926823886228992,2022-02-15-12:07:03,10.1.1.10,37,-0.070,-0.070,-0.070,0.000,0.000,0.000
1644926823923575040,2022-02-15-12:07:03,10.1.1.10,26,-0.060,-0.060,-0.060,0.000,0.000,0.000
1644926823982998016,2022-02-15-12:07:03,10.1.1.10,35,-0.050,-0.050,-0.050,0.000,0.000,0.000
1644926824023708160,2022-02-15-12:07:04,10.1.1.10,24,-0.040,-0.040,-0.040,0.000,0.000,0.000
