FedericoMungari/DigitalTwin_service/01_WiredScenario/Output/Output_script/script_rosapi_2_output_robots8_freq0_5.txt
timestamp,date,node,latency,joint_1,joint_2,joint_3,joint_4,joint_5,joint_6
1641207847592178944,2022-01-03-11:04:07,10.1.1.6,176,-0.010,-0.010,-0.010,0.000,0.000,0.000
1641207847792956160,2022-01-03-11:04:07,10.1.1.6,176,-0.020,-0.020,-0.020,0.000,0.000,0.000
1641207847992839936,2022-01-03-11:04:07,10.1.1.6,175,-0.030,-0.030,-0.030,0.000,0.000,0.000
1641207848190979840,2022-01-03-11:04:08,10.1.1.6,173,-0.040,-0.040,-0.040,0.000,0.000,0.000
1641207848390626048,2022-01-03-11:04:08,10.1.1.6,172,-0.050,-0.050,-0.050,0.000,0.000,0.000
1641207848590787840,2022-01-03-11:04:08,10.1.1.6,171,-0.060,-0.060,-0.060,0.000,0.000,0.000
1641207848790486016,2022-01-03-11:04:08,10.1.1.6,168,-0.070,-0.070,-0.070,0.000,0.000,0.000
1641207848989975040,2022-01-03-11:04:08,10.1.1.6,165,-0.080,-0.080,-0.080,0.000,0.000,0.000
1641207849190732032,2022-01-03-11:04:09,10.1.1.6,165,-0.090,-0.090,-0.090,0.000,0.000,0.000
1641207849393048064,2022-01-03-11:04:09,10.1.1.6,167,-0.100,-0.100,-0.100,0.000,0.000,0.000
1641207849593314816,2022-01-03-11:04:09,10.1.1.6,166,-0.110,-0.110,-0.110,0.000,0.000,0.000
1641207849794504960,2022-01-03-11:04:09,10.1.1.6,166,-0.120,-0.120,-0.120,0.000,0.000,0.000
1641207849994632960,2022-01-03-11:04:09,10.1.1.6,165,-0.130,-0.130,-0.130,0.000,0.000,0.000
1641207850196176896,2022-01-03-11:04:10,10.1.1.6,164,-0.140,-0.140,-0.140,0.000,0.000,0.000
1641207850417516032,2022-01-03-11:04:10,10.1.1.6,179,-0.150,-0.150,-0.150,0.000,0.000,0.000
1641207850612070144,2022-01-03-11:04:10,10.1.1.6,170,-0.160,-0.160,-0.160,0.000,0.000,0.000
1641207850821094912,2022-01-03-11:04:10,10.1.1.6,180,-0.170,-0.170,-0.170,0.000,0.000,0.000
1641207851022134016,2022-01-03-11:04:11,10.1.1.6,179,-0.180,-0.180,-0.180,0.000,0.000,0.000
1641207851220530944,2022-01-03-11:04:11,10.1.1.6,175,-0.190,-0.190,-0.190,0.000,0.000,0.000
1641207851422765056,2022-01-03-11:04:11,10.1.1.6,171,-0.200,-0.200,-0.200,0.000,0.000,0.000
1641207851622598912,2022-01-03-11:04:11,10.1.1.6,170,-0.210,-0.210,-0.210,0.000,0.000,0.000
1641207851843333888,2022-01-03-11:04:11,10.1.1.6,189,-0.220,-0.220,-0.220,0.000,0.000,0.000
1641207852042691840,2022-01-03-11:04:12,10.1.1.6,188,-0.230,-0.230,-0.230,0.000,0.000,0.000
1641207852244734976,2022-01-03-11:04:12,10.1.1.6,189,-0.240,-0.240,-0.240,0.000,0.000,0.000
1641207852443623168,2022-01-03-11:04:12,10.1.1.6,186,-0.250,-0.250,-0.250,0.000,0.000,0.000
1641207852644876032,2022-01-03-11:04:12,10.1.1.6,185,-0.260,-0.260,-0.260,0.000,0.000,0.000
1641207852845455872,2022-01-03-11:04:12,10.1.1.6,186,-0.270,-0.270,-0.270,0.000,0.000,0.000
1641207853045634048,2022-01-03-11:04:13,10.1.1.6,184,-0.280,-0.280,-0.280,0.000,0.000,0.000
1641207853247004928,2022-01-03-11:04:13,10.1.1.6,185,-0.290,-0.290,-0.290,0.000,0.000,0.000
1641207853448286976,2022-01-03-11:04:13,10.1.1.6,184,-0.300,-0.300,-0.300,0.000,0.000,0.000
1641207853648720896,2022-01-03-11:04:13,10.1.1.6,184,-0.310,-0.310,-0.310,0.000,0.000,0.000
1641207853847454976,2022-01-03-11:04:13,10.1.1.6,182,-0.320,-0.320,-0.320,0.000,0.000,0.000
1641207854048343808,2022-01-03-11:04:14,10.1.1.6,182,-0.330,-0.330,-0.330,0.000,0.000,0.000
1641207854249492992,2022-01-03-11:04:14,10.1.1.6,182,-0.340,-0.340,-0.340,0.000,0.000,0.000
1641207854448216832,2022-01-03-11:04:14,10.1.1.6,180,-0.350,-0.350,-0.350,0.000,0.000,0.000
1641207854649082880,2022-01-03-11:04:14,10.1.1.6,180,-0.360,-0.360,-0.360,0.000,0.000,0.000
1641207854869406976,2022-01-03-11:04:14,10.1.1.6,200,-0.370,-0.370,-0.370,0.000,0.000,0.000
1641207855048962048,2022-01-03-11:04:15,10.1.1.6,179,-0.380,-0.380,-0.380,0.000,0.000,0.000
1641207855253313024,2022-01-03-11:04:15,10.1.1.6,182,-0.390,-0.390,-0.390,0.000,0.000,0.000
1641207855450670848,2022-01-03-11:04:15,10.1.1.6,178,-0.400,-0.400,-0.400,0.000,0.000,0.000
1641207855650561024,2022-01-03-11:04:15,10.1.1.6,178,-0.410,-0.410,-0.410,0.000,0.000,0.000
1641207855871154176,2022-01-03-11:04:15,10.1.1.6,198,-0.420,-0.420,-0.420,0.000,0.000,0.000
1641207856071432192,2022-01-03-11:04:16,10.1.1.6,198,-0.430,-0.430,-0.430,0.000,0.000,0.000
1641207856262370048,2022-01-03-11:04:16,10.1.1.6,188,-0.440,-0.440,-0.440,0.000,0.000,0.000
1641207856461217024,2022-01-03-11:04:16,10.1.1.6,186,-0.450,-0.450,-0.450,0.000,0.000,0.000
1641207856671153152,2022-01-03-11:04:16,10.1.1.6,195,-0.460,-0.460,-0.460,0.000,0.000,0.000
1641207856875065088,2022-01-03-11:04:16,10.1.1.6,198,-0.470,-0.470,-0.470,0.000,0.000,0.000
1641207857065735168,2022-01-03-11:04:17,10.1.1.6,187,-0.480,-0.480,-0.480,0.000,0.000,0.000
1641207857273433088,2022-01-03-11:04:17,10.1.1.6,193,-0.490,-0.490,-0.490,0.000,0.000,0.000
1641207857472614144,2022-01-03-11:04:17,10.1.1.6,193,-0.480,-0.480,-0.480,0.000,0.000,0.000
1641207857673325056,2022-01-03-11:04:17,10.1.1.6,192,-0.470,-0.470,-0.470,0.000,0.000,0.000
1641207857872494848,2022-01-03-11:04:17,10.1.1.6,190,-0.460,-0.460,-0.460,0.000,0.000,0.000
1641207858072037888,2022-01-03-11:04:18,10.1.1.6,189,-0.450,-0.450,-0.450,0.000,0.000,0.000
1641207858273619968,2022-01-03-11:04:18,10.1.1.6,190,-0.440,-0.440,-0.440,0.000,0.000,0.000
1641207858472694016,2022-01-03-11:04:18,10.1.1.6,189,-0.430,-0.430,-0.430,0.000,0.000,0.000
1641207858672077056,2022-01-03-11:04:18,10.1.1.6,188,-0.420,-0.420,-0.420,0.000,0.000,0.000
1641207858872813056,2022-01-03-11:04:18,10.1.1.6,188,-0.410,-0.410,-0.410,0.000,0.000,0.000
1641207859072726016,2022-01-03-11:04:19,10.1.1.6,187,-0.400,-0.400,-0.400,0.000,0.000,0.000
1641207859272695040,2022-01-03-11:04:19,10.1.1.6,186,-0.390,-0.390,-0.390,0.000,0.000,0.000
1641207859476717824,2022-01-03-11:04:19,10.1.1.6,190,-0.380,-0.380,-0.380,0.000,0.000,0.000
1641207859673073920,2022-01-03-11:04:19,10.1.1.6,186,-0.370,-0.370,-0.370,0.000,0.000,0.000
1641207859883559936,2022-01-03-11:04:19,10.1.1.6,194,-0.360,-0.360,-0.360,0.000,0.000,0.000
1641207860072819968,2022-01-03-11:04:20,10.1.1.6,183,-0.350,-0.350,-0.350,0.000,0.000,0.000
1641207860273655040,2022-01-03-11:04:20,10.1.1.6,183,-0.340,-0.340,-0.340,0.000,0.000,0.000
1641207860674260992,2022-01-03-11:04:20,10.1.1.6,182,-0.320,-0.320,-0.320,0.000,0.000,0.000
1641207860893306112,2022-01-03-11:04:20,10.1.1.6,199,-0.310,-0.310,-0.310,0.000,0.000,0.000
1641207861084486912,2022-01-03-11:04:21,10.1.1.6,188,-0.300,-0.300,-0.300,0.000,0.000,0.000
1641207861293332992,2022-01-03-11:04:21,10.1.1.6,195,-0.290,-0.290,-0.290,0.000,0.000,0.000
1641207861492728832,2022-01-03-11:04:21,10.1.1.6,191,-0.280,-0.280,-0.280,0.000,0.000,0.000
1641207861693632000,2022-01-03-11:04:21,10.1.1.6,191,-0.270,-0.270,-0.270,0.000,0.000,0.000
1641207861893857024,2022-01-03-11:04:21,10.1.1.6,190,-0.260,-0.260,-0.260,0.000,0.000,0.000
1641207862092574976,2022-01-03-11:04:22,10.1.1.6,187,-0.250,-0.250,-0.250,0.000,0.000,0.000
1641207862291784960,2022-01-03-11:04:22,10.1.1.6,185,-0.240,-0.240,-0.240,0.000,0.000,0.000
1641207862491555840,2022-01-03-11:04:22,10.1.1.6,185,-0.230,-0.230,-0.230,0.000,0.000,0.000
1641207862691452928,2022-01-03-11:04:22,10.1.1.6,184,-0.220,-0.220,-0.220,0.000,0.000,0.000
1641207862891525888,2022-01-03-11:04:22,10.1.1.6,183,-0.210,-0.210,-0.210,0.000,0.000,0.000
1641207863093118976,2022-01-03-11:04:23,10.1.1.6,183,-0.200,-0.200,-0.200,0.000,0.000,0.000
1641207863291296000,2022-01-03-11:04:23,10.1.1.6,180,-0.190,-0.190,-0.190,0.000,0.000,0.000
1641207863494930944,2022-01-03-11:04:23,10.1.1.6,180,-0.180,-0.180,-0.180,0.000,0.000,0.000
1641207863690952960,2022-01-03-11:04:23,10.1.1.6,178,-0.170,-0.170,-0.170,0.000,0.000,0.000
1641207863912342016,2022-01-03-11:04:23,10.1.1.6,198,-0.160,-0.160,-0.160,0.000,0.000,0.000
1641207864310615040,2022-01-03-11:04:24,10.1.1.6,193,-0.140,-0.140,-0.140,0.000,0.000,0.000
1641207864500443904,2022-01-03-11:04:24,10.1.1.6,181,-0.130,-0.130,-0.130,0.000,0.000,0.000
1641207864710410240,2022-01-03-11:04:24,10.1.1.6,190,-0.120,-0.120,-0.120,0.000,0.000,0.000
1641207864910108160,2022-01-03-11:04:24,10.1.1.6,188,-0.110,-0.110,-0.110,0.000,0.000,0.000
1641207865111386112,2022-01-03-11:04:25,10.1.1.6,189,-0.100,-0.100,-0.100,0.000,0.000,0.000
1641207865309789952,2022-01-03-11:04:25,10.1.1.6,186,-0.090,-0.090,-0.090,0.000,0.000,0.000
1641207865509556992,2022-01-03-11:04:25,10.1.1.6,185,-0.080,-0.080,-0.080,0.000,0.000,0.000
1641207865709507072,2022-01-03-11:04:25,10.1.1.6,185,-0.070,-0.070,-0.070,0.000,0.000,0.000
1641207866109586944,2022-01-03-11:04:26,10.1.1.6,183,-0.050,-0.050,-0.050,0.000,0.000,0.000
1641207866510072064,2022-01-03-11:04:26,10.1.1.6,182,-0.030,-0.030,-0.030,0.000,0.000,0.000
1641207866709058048,2022-01-03-11:04:26,10.1.1.6,180,-0.020,-0.020,-0.020,0.000,0.000,0.000
1641207866908782848,2022-01-03-11:04:26,10.1.1.6,179,-0.010,-0.010,-0.010,0.000,0.000,0.000
1641207867109574144,2022-01-03-11:04:27,10.1.1.6,179,0.000,0.000,0.000,0.000,0.000,0.000
1641207867330686208,2022-01-03-11:04:27,10.1.1.6,200,-0.010,-0.010,-0.010,0.000,0.000,0.000
1641207867508822016,2022-01-03-11:04:27,10.1.1.6,177,-0.020,-0.020,-0.020,0.000,0.000,0.000
1641207867708606976,2022-01-03-11:04:27,10.1.1.6,176,-0.030,-0.030,-0.030,0.000,0.000,0.000
1641207867926747136,2022-01-03-11:04:27,10.1.1.6,193,-0.040,-0.040,-0.040,0.000,0.000,0.000
1641207868129116160,2022-01-03-11:04:28,10.1.1.6,194,-0.050,-0.050,-0.050,0.000,0.000,0.000
1641207868317150976,2022-01-03-11:04:28,10.1.1.6,182,-0.060,-0.060,-0.060,0.000,0.000,0.000
1641207868527291136,2022-01-03-11:04:28,10.1.1.6,191,-0.070,-0.070,-0.070,0.000,0.000,0.000
1641207868716409856,2022-01-03-11:04:28,10.1.1.6,180,-0.080,-0.080,-0.080,0.000,0.000,0.000
1641207868926137856,2022-01-03-11:04:28,10.1.1.6,189,-0.090,-0.090,-0.090,0.000,0.000,0.000
1641207869126004992,2022-01-03-11:04:29,10.1.1.6,188,-0.100,-0.100,-0.100,0.000,0.000,0.000
1641207869326502144,2022-01-03-11:04:29,10.1.1.6,188,-0.110,-0.110,-0.110,0.000,0.000,0.000
1641207869525772032,2022-01-03-11:04:29,10.1.1.6,186,-0.120,-0.120,-0.120,0.000,0.000,0.000
1641207869725364992,2022-01-03-11:04:29,10.1.1.6,185,-0.130,-0.130,-0.130,0.000,0.000,0.000
1641207869925360896,2022-01-03-11:04:29,10.1.1.6,180,-0.140,-0.140,-0.140,0.000,0.000,0.000
1641207870124464896,2022-01-03-11:04:30,10.1.1.6,178,-0.150,-0.150,-0.150,0.000,0.000,0.000
1641207870326903040,2022-01-03-11:04:30,10.1.1.6,180,-0.160,-0.160,-0.160,0.000,0.000,0.000
1641207870524908032,2022-01-03-11:04:30,10.1.1.6,178,-0.170,-0.170,-0.170,0.000,0.000,0.000
1641207870723536128,2022-01-03-11:04:30,10.1.1.6,176,-0.180,-0.180,-0.180,0.000,0.000,0.000
1641207870923890944,2022-01-03-11:04:30,10.1.1.6,176,-0.190,-0.190,-0.190,0.000,0.000,0.000
1641207871144516864,2022-01-03-11:04:31,10.1.1.6,196,-0.200,-0.200,-0.200,0.000,0.000,0.000
1641207871323800064,2022-01-03-11:04:31,10.1.1.6,174,-0.210,-0.210,-0.210,0.000,0.000,0.000
1641207871522852864,2022-01-03-11:04:31,10.1.1.6,173,-0.220,-0.220,-0.220,0.000,0.000,0.000
1641207871722204928,2022-01-03-11:04:31,10.1.1.6,171,-0.230,-0.230,-0.230,0.000,0.000,0.000
1641207871921920000,2022-01-03-11:04:31,10.1.1.6,171,-0.240,-0.240,-0.240,0.000,0.000,0.000
1641207872122322944,2022-01-03-11:04:32,10.1.1.6,171,-0.250,-0.250,-0.250,0.000,0.000,0.000
1641207872321844992,2022-01-03-11:04:32,10.1.1.6,170,-0.260,-0.260,-0.260,0.000,0.000,0.000
1641207872521259008,2022-01-03-11:04:32,10.1.1.6,168,-0.270,-0.270,-0.270,0.000,0.000,0.000
1641207872741810176,2022-01-03-11:04:32,10.1.1.6,188,-0.280,-0.280,-0.280,0.000,0.000,0.000
1641207872932715776,2022-01-03-11:04:32,10.1.1.6,179,-0.290,-0.290,-0.290,0.000,0.000,0.000
1641207873140777216,2022-01-03-11:04:33,10.1.1.6,186,-0.300,-0.300,-0.300,0.000,0.000,0.000
1641207873340125184,2022-01-03-11:04:33,10.1.1.6,185,-0.310,-0.310,-0.310,0.000,0.000,0.000
1641207873540572928,2022-01-03-11:04:33,10.1.1.6,185,-0.320,-0.320,-0.320,0.000,0.000,0.000
1641207873740438016,2022-01-03-11:04:33,10.1.1.6,184,-0.330,-0.330,-0.330,0.000,0.000,0.000
1641207873938981120,2022-01-03-11:04:33,10.1.1.6,181,-0.340,-0.340,-0.340,0.000,0.000,0.000
1641207874139563008,2022-01-03-11:04:34,10.1.1.6,181,-0.350,-0.350,-0.350,0.000,0.000,0.000
1641207874330535936,2022-01-03-11:04:34,10.1.1.6,170,-0.360,-0.360,-0.360,0.000,0.000,0.000
1641207874530014976,2022-01-03-11:04:34,10.1.1.6,169,-0.370,-0.370,-0.370,0.000,0.000,0.000
1641207874738580992,2022-01-03-11:04:34,10.1.1.6,176,-0.380,-0.380,-0.380,0.000,0.000,0.000
1641207874937882880,2022-01-03-11:04:34,10.1.1.6,174,-0.390,-0.390,-0.390,0.000,0.000,0.000
1641207875137680128,2022-01-03-11:04:35,10.1.1.6,173,-0.400,-0.400,-0.400,0.000,0.000,0.000
1641207875337136896,2022-01-03-11:04:35,10.1.1.6,171,-0.410,-0.410,-0.410,0.000,0.000,0.000
1641207875537138944,2022-01-03-11:04:35,10.1.1.6,170,-0.420,-0.420,-0.420,0.000,0.000,0.000
1641207875737132032,2022-01-03-11:04:35,10.1.1.6,170,-0.430,-0.430,-0.430,0.000,0.000,0.000
1641207875936817920,2022-01-03-11:04:35,10.1.1.6,169,-0.440,-0.440,-0.440,0.000,0.000,0.000
1641207876136180992,2022-01-03-11:04:36,10.1.1.6,168,-0.450,-0.450,-0.450,0.000,0.000,0.000
1641207876336107008,2022-01-03-11:04:36,10.1.1.6,167,-0.460,-0.460,-0.460,0.000,0.000,0.000
1641207876556308992,2022-01-03-11:04:36,10.1.1.6,187,-0.470,-0.470,-0.470,0.000,0.000,0.000
1641207876735073024,2022-01-03-11:04:36,10.1.1.6,165,-0.480,-0.480,-0.480,0.000,0.000,0.000
1641207876938894080,2022-01-03-11:04:36,10.1.1.6,168,-0.490,-0.490,-0.490,0.000,0.000,0.000
1641207877154138112,2022-01-03-11:04:37,10.1.1.6,183,-0.480,-0.480,-0.480,0.000,0.000,0.000
1641207877333623808,2022-01-03-11:04:37,10.1.1.6,161,-0.470,-0.470,-0.470,0.000,0.000,0.000
1641207877561400064,2022-01-03-11:04:37,10.1.1.6,176,-0.460,-0.460,-0.460,0.000,0.000,0.000
1641207877773595136,2022-01-03-11:04:37,10.1.1.6,167,-0.450,-0.450,-0.450,0.000,0.000,0.000
1641207877973294848,2022-01-03-11:04:37,10.1.1.6,167,-0.440,-0.440,-0.440,0.000,0.000,0.000
1641207878173677824,2022-01-03-11:04:38,10.1.1.6,166,-0.430,-0.430,-0.430,0.000,0.000,0.000
1641207878372237056,2022-01-03-11:04:38,10.1.1.6,164,-0.420,-0.420,-0.420,0.000,0.000,0.000
1641207878582680832,2022-01-03-11:04:38,10.1.1.6,174,-0.410,-0.410,-0.410,0.000,0.000,0.000
1641207878774540800,2022-01-03-11:04:38,10.1.1.6,165,-0.400,-0.400,-0.400,0.000,0.000,0.000
1641207878972295936,2022-01-03-11:04:38,10.1.1.6,162,-0.390,-0.390,-0.390,0.000,0.000,0.000
1641207879171362048,2022-01-03-11:04:39,10.1.1.6,161,-0.380,-0.380,-0.380,0.000,0.000,0.000
1641207879371094016,2022-01-03-11:04:39,10.1.1.6,160,-0.370,-0.370,-0.370,0.000,0.000,0.000
1641207879571160064,2022-01-03-11:04:39,10.1.1.6,159,-0.360,-0.360,-0.360,0.000,0.000,0.000
1641207879770699008,2022-01-03-11:04:39,10.1.1.6,158,-0.350,-0.350,-0.350,0.000,0.000,0.000
1641207879969846016,2022-01-03-11:04:39,10.1.1.6,157,-0.340,-0.340,-0.340,0.000,0.000,0.000
1641207880190960896,2022-01-03-11:04:40,10.1.1.6,178,-0.330,-0.330,-0.330,0.000,0.000,0.000
1641207880389431040,2022-01-03-11:04:40,10.1.1.6,176,-0.320,-0.320,-0.320,0.000,0.000,0.000
1641207880589111040,2022-01-03-11:04:40,10.1.1.6,175,-0.310,-0.310,-0.310,0.000,0.000,0.000
1641207880789868032,2022-01-03-11:04:40,10.1.1.6,175,-0.300,-0.300,-0.300,0.000,0.000,0.000
1641207880988189952,2022-01-03-11:04:40,10.1.1.6,173,-0.290,-0.290,-0.290,0.000,0.000,0.000
1641207881189438208,2022-01-03-11:04:41,10.1.1.6,173,-0.280,-0.280,-0.280,0.000,0.000,0.000
1641207881390904064,2022-01-03-11:04:41,10.1.1.6,174,-0.270,-0.270,-0.270,0.000,0.000,0.000
1641207881591446016,2022-01-03-11:04:41,10.1.1.6,174,-0.260,-0.260,-0.260,0.000,0.000,0.000
1641207881792283904,2022-01-03-11:04:41,10.1.1.6,175,-0.250,-0.250,-0.250,0.000,0.000,0.000
1641207881993797120,2022-01-03-11:04:41,10.1.1.6,176,-0.240,-0.240,-0.240,0.000,0.000,0.000
1641207882186098176,2022-01-03-11:04:42,10.1.1.6,168,-0.230,-0.230,-0.230,0.000,0.000,0.000
1641207882397747968,2022-01-03-11:04:42,10.1.1.6,179,-0.220,-0.220,-0.220,0.000,0.000,0.000
1641207882596631040,2022-01-03-11:04:42,10.1.1.6,177,-0.210,-0.210,-0.210,0.000,0.000,0.000
1641207882797057024,2022-01-03-11:04:42,10.1.1.6,177,-0.200,-0.200,-0.200,0.000,0.000,0.000
1641207882998217216,2022-01-03-11:04:42,10.1.1.6,177,-0.190,-0.190,-0.190,0.000,0.000,0.000
1641207883201661184,2022-01-03-11:04:43,10.1.1.6,180,-0.180,-0.180,-0.180,0.000,0.000,0.000
1641207883399360768,2022-01-03-11:04:43,10.1.1.6,177,-0.170,-0.170,-0.170,0.000,0.000,0.000
1641207883600259072,2022-01-03-11:04:43,10.1.1.6,177,-0.160,-0.160,-0.160,0.000,0.000,0.000
1641207883800802048,2022-01-03-11:04:43,10.1.1.6,178,-0.150,-0.150,-0.150,0.000,0.000,0.000
1641207884001206016,2022-01-03-11:04:44,10.1.1.6,177,-0.140,-0.140,-0.140,0.000,0.000,0.000
1641207884202706176,2022-01-03-11:04:44,10.1.1.6,178,-0.130,-0.130,-0.130,0.000,0.000,0.000
1641207884402844928,2022-01-03-11:04:44,10.1.1.6,178,-0.120,-0.120,-0.120,0.000,0.000,0.000
1641207884603266048,2022-01-03-11:04:44,10.1.1.6,178,-0.110,-0.110,-0.110,0.000,0.000,0.000
1641207884804742144,2022-01-03-11:04:44,10.1.1.6,179,-0.100,-0.100,-0.100,0.000,0.000,0.000
1641207885005053952,2022-01-03-11:04:45,10.1.1.6,179,-0.090,-0.090,-0.090,0.000,0.000,0.000
1641207885204952832,2022-01-03-11:04:45,10.1.1.6,178,-0.080,-0.080,-0.080,0.000,0.000,0.000
1641207885405356800,2022-01-03-11:04:45,10.1.1.6,177,-0.070,-0.070,-0.070,0.000,0.000,0.000
1641207885606067968,2022-01-03-11:04:45,10.1.1.6,177,-0.060,-0.060,-0.060,0.000,0.000,0.000
1641207885811091968,2022-01-03-11:04:45,10.1.1.6,182,-0.050,-0.050,-0.050,0.000,0.000,0.000
1641207886007245056,2022-01-03-11:04:46,10.1.1.6,178,-0.040,-0.040,-0.040,0.000,0.000,0.000
1641207886207896064,2022-01-03-11:04:46,10.1.1.6,178,-0.030,-0.030,-0.030,0.000,0.000,0.000
1641207886408647936,2022-01-03-11:04:46,10.1.1.6,178,-0.020,-0.020,-0.020,0.000,0.000,0.000
1641207886608258048,2022-01-03-11:04:46,10.1.1.6,177,-0.010,-0.010,-0.010,0.000,0.000,0.000
1641207886809031936,2022-01-03-11:04:46,10.1.1.6,177,-0.000,-0.000,-0.000,0.000,0.000,0.000
1641207887009225984,2022-01-03-11:04:47,10.1.1.6,177,-0.010,-0.010,-0.010,0.000,0.000,0.000
1641207887209803008,2022-01-03-11:04:47,10.1.1.6,177,-0.020,-0.020,-0.020,0.000,0.000,0.000
1641207887629775104,2022-01-03-11:04:47,10.1.1.6,194,-0.040,-0.040,-0.040,0.000,0.000,0.000
1641207887830184960,2022-01-03-11:04:47,10.1.1.6,192,-0.050,-0.050,-0.050,0.000,0.000,0.000
1641207888023013120,2022-01-03-11:04:48,10.1.1.6,184,-0.060,-0.060,-0.060,0.000,0.000,0.000
1641207888231104000,2022-01-03-11:04:48,10.1.1.6,191,-0.070,-0.070,-0.070,0.000,0.000,0.000
1641207888432566784,2022-01-03-11:04:48,10.1.1.6,192,-0.080,-0.080,-0.080,0.000,0.000,0.000
1641207888631812096,2022-01-03-11:04:48,10.1.1.6,190,-0.090,-0.090,-0.090,0.000,0.000,0.000
1641207888831602944,2022-01-03-11:04:48,10.1.1.6,189,-0.100,-0.100,-0.100,0.000,0.000,0.000
1641207889031148800,2022-01-03-11:04:49,10.1.1.6,189,-0.110,-0.110,-0.110,0.000,0.000,0.000
1641207889231970048,2022-01-03-11:04:49,10.1.1.6,189,-0.120,-0.120,-0.120,0.000,0.000,0.000
1641207889431675904,2022-01-03-11:04:49,10.1.1.6,188,-0.130,-0.130,-0.130,0.000,0.000,0.000
1641207889632487168,2022-01-03-11:04:49,10.1.1.6,189,-0.140,-0.140,-0.140,0.000,0.000,0.000
1641207889834454016,2022-01-03-11:04:49,10.1.1.6,190,-0.150,-0.150,-0.150,0.000,0.000,0.000
1641207890032675072,2022-01-03-11:04:50,10.1.1.6,188,-0.160,-0.160,-0.160,0.000,0.000,0.000
1641207890233211904,2022-01-03-11:04:50,10.1.1.6,188,-0.170,-0.170,-0.170,0.000,0.000,0.000
1641207890434482944,2022-01-03-11:04:50,10.1.1.6,187,-0.180,-0.180,-0.180,0.000,0.000,0.000
1641207890637649152,2022-01-03-11:04:50,10.1.1.6,190,-0.190,-0.190,-0.190,0.000,0.000,0.000
1641207890833522944,2022-01-03-11:04:50,10.1.1.6,183,-0.200,-0.200,-0.200,0.000,0.000,0.000
1641207891032397056,2022-01-03-11:04:51,10.1.1.6,181,-0.210,-0.210,-0.210,0.000,0.000,0.000
1641207891232644096,2022-01-03-11:04:51,10.1.1.6,181,-0.220,-0.220,-0.220,0.000,0.000,0.000
1641207891433047040,2022-01-03-11:04:51,10.1.1.6,180,-0.230,-0.230,-0.230,0.000,0.000,0.000
1641207891632548096,2022-01-03-11:04:51,10.1.1.6,180,-0.240,-0.240,-0.240,0.000,0.000,0.000
1641207892043661056,2022-01-03-11:04:52,10.1.1.6,189,-0.260,-0.260,-0.260,0.000,0.000,0.000
1641207892252656896,2022-01-03-11:04:52,10.1.1.6,198,-0.270,-0.270,-0.270,0.000,0.000,0.000
1641207892452403968,2022-01-03-11:04:52,10.1.1.6,197,-0.280,-0.280,-0.280,0.000,0.000,0.000
1641207892652869888,2022-01-03-11:04:52,10.1.1.6,198,-0.290,-0.290,-0.290,0.000,0.000,0.000
1641207892852742912,2022-01-03-11:04:52,10.1.1.6,197,-0.300,-0.300,-0.300,0.000,0.000,0.000
1641207893052855040,2022-01-03-11:04:53,10.1.1.6,197,-0.310,-0.310,-0.310,0.000,0.000,0.000
1641207893253849088,2022-01-03-11:04:53,10.1.1.6,197,-0.320,-0.320,-0.320,0.000,0.000,0.000
1641207893452749056,2022-01-03-11:04:53,10.1.1.6,195,-0.330,-0.330,-0.330,0.000,0.000,0.000
1641207893652132096,2022-01-03-11:04:53,10.1.1.6,194,-0.340,-0.340,-0.340,0.000,0.000,0.000
1641207893854152960,2022-01-03-11:04:53,10.1.1.6,196,-0.350,-0.350,-0.350,0.000,0.000,0.000
1641207894043447040,2022-01-03-11:04:54,10.1.1.6,184,-0.360,-0.360,-0.360,0.000,0.000,0.000
1641207894252481024,2022-01-03-11:04:54,10.1.1.6,193,-0.370,-0.370,-0.370,0.000,0.000,0.000
1641207894456870912,2022-01-03-11:04:54,10.1.1.6,193,-0.380,-0.380,-0.380,0.000,0.000,0.000
1641207894656747008,2022-01-03-11:04:54,10.1.1.6,196,-0.390,-0.390,-0.390,0.000,0.000,0.000
1641207894854608896,2022-01-03-11:04:54,10.1.1.6,192,-0.400,-0.400,-0.400,0.000,0.000,0.000
1641207895052673024,2022-01-03-11:04:55,10.1.1.6,187,-0.410,-0.410,-0.410,0.000,0.000,0.000
1641207895252758016,2022-01-03-11:04:55,10.1.1.6,186,-0.420,-0.420,-0.420,0.000,0.000,0.000
1641207895451805952,2022-01-03-11:04:55,10.1.1.6,185,-0.430,-0.430,-0.430,0.000,0.000,0.000
1641207895654000128,2022-01-03-11:04:55,10.1.1.6,187,-0.440,-0.440,-0.440,0.000,0.000,0.000
1641207895852286976,2022-01-03-11:04:55,10.1.1.6,184,-0.450,-0.450,-0.450,0.000,0.000,0.000
1641207896051266816,2022-01-03-11:04:56,10.1.1.6,182,-0.460,-0.460,-0.460,0.000,0.000,0.000
1641207896252315904,2022-01-03-11:04:56,10.1.1.6,183,-0.470,-0.470,-0.470,0.000,0.000,0.000
1641207896451450112,2022-01-03-11:04:56,10.1.1.6,182,-0.480,-0.480,-0.480,0.000,0.000,0.000
1641207896850646016,2022-01-03-11:04:56,10.1.1.6,180,-0.480,-0.480,-0.480,0.000,0.000,0.000
1641207897050009856,2022-01-03-11:04:57,10.1.1.6,178,-0.470,-0.470,-0.470,0.000,0.000,0.000
1641207897270385152,2022-01-03-11:04:57,10.1.1.6,198,-0.460,-0.460,-0.460,0.000,0.000,0.000
1641207897449961984,2022-01-03-11:04:57,10.1.1.6,177,-0.450,-0.450,-0.450,0.000,0.000,0.000
1641207897669833984,2022-01-03-11:04:57,10.1.1.6,196,-0.440,-0.440,-0.440,0.000,0.000,0.000
1641207897869939968,2022-01-03-11:04:57,10.1.1.6,196,-0.430,-0.430,-0.430,0.000,0.000,0.000
1641207898268882944,2022-01-03-11:04:58,10.1.1.6,194,-0.410,-0.410,-0.410,0.000,0.000,0.000
1641207898470824960,2022-01-03-11:04:58,10.1.1.6,195,-0.400,-0.400,-0.400,0.000,0.000,0.000
1641207898668320000,2022-01-03-11:04:58,10.1.1.6,192,-0.390,-0.390,-0.390,0.000,0.000,0.000
1641207898869122048,2022-01-03-11:04:58,10.1.1.6,192,-0.380,-0.380,-0.380,0.000,0.000,0.000
1641207899068953088,2022-01-03-11:04:59,10.1.1.6,192,-0.370,-0.370,-0.370,0.000,0.000,0.000
1641207899268271872,2022-01-03-11:04:59,10.1.1.6,191,-0.360,-0.360,-0.360,0.000,0.000,0.000
1641207899468587008,2022-01-03-11:04:59,10.1.1.6,191,-0.350,-0.350,-0.350,0.000,0.000,0.000
1641207899667890944,2022-01-03-11:04:59,10.1.1.6,189,-0.340,-0.340,-0.340,0.000,0.000,0.000
1641207899867988992,2022-01-03-11:04:59,10.1.1.6,189,-0.330,-0.330,-0.330,0.000,0.000,0.000
1641207900068134912,2022-01-03-11:05:00,10.1.1.6,188,-0.320,-0.320,-0.320,0.000,0.000,0.000
1641207900267131136,2022-01-03-11:05:00,10.1.1.6,187,-0.310,-0.310,-0.310,0.000,0.000,0.000
1641207900466674176,2022-01-03-11:05:00,10.1.1.6,186,-0.300,-0.300,-0.300,0.000,0.000,0.000
1641207900667001856,2022-01-03-11:05:00,10.1.1.6,185,-0.290,-0.290,-0.290,0.000,0.000,0.000
1641207900867635968,2022-01-03-11:05:00,10.1.1.6,185,-0.280,-0.280,-0.280,0.000,0.000,0.000
1641207901066952960,2022-01-03-11:05:01,10.1.1.6,184,-0.270,-0.270,-0.270,0.000,0.000,0.000
1641207901265778176,2022-01-03-11:05:01,10.1.1.6,182,-0.260,-0.260,-0.260,0.000,0.000,0.000
1641207901467084032,2022-01-03-11:05:01,10.1.1.6,183,-0.250,-0.250,-0.250,0.000,0.000,0.000
1641207901666192128,2022-01-03-11:05:01,10.1.1.6,181,-0.240,-0.240,-0.240,0.000,0.000,0.000
1641207901865492992,2022-01-03-11:05:01,10.1.1.6,180,-0.230,-0.230,-0.230,0.000,0.000,0.000
1641207902076112128,2022-01-03-11:05:02,10.1.1.6,190,-0.220,-0.220,-0.220,0.000,0.000,0.000
1641207902286616064,2022-01-03-11:05:02,10.1.1.6,198,-0.210,-0.210,-0.210,0.000,0.000,0.000
1641207902466275840,2022-01-03-11:05:02,10.1.1.6,178,-0.200,-0.200,-0.200,0.000,0.000,0.000
1641207902665414144,2022-01-03-11:05:02,10.1.1.6,176,-0.190,-0.190,-0.190,0.000,0.000,0.000
1641207902866400000,2022-01-03-11:05:02,10.1.1.6,177,-0.180,-0.180,-0.180,0.000,0.000,0.000
1641207903064578048,2022-01-03-11:05:03,10.1.1.6,174,-0.170,-0.170,-0.170,0.000,0.000,0.000
1641207903264743936,2022-01-03-11:05:03,10.1.1.6,174,-0.160,-0.160,-0.160,0.000,0.000,0.000
1641207903463848960,2022-01-03-11:05:03,10.1.1.6,172,-0.150,-0.150,-0.150,0.000,0.000,0.000
1641207903663979008,2022-01-03-11:05:03,10.1.1.6,171,-0.140,-0.140,-0.140,0.000,0.000,0.000
1641207903882791936,2022-01-03-11:05:03,10.1.1.6,189,-0.130,-0.130,-0.130,0.000,0.000,0.000
1641207904082290944,2022-01-03-11:05:04,10.1.1.6,188,-0.120,-0.120,-0.120,0.000,0.000,0.000
1641207904281907200,2022-01-03-11:05:04,10.1.1.6,187,-0.110,-0.110,-0.110,0.000,0.000,0.000
1641207904482222080,2022-01-03-11:05:04,10.1.1.6,187,-0.100,-0.100,-0.100,0.000,0.000,0.000
1641207904672041984,2022-01-03-11:05:04,10.1.1.6,176,-0.090,-0.090,-0.090,0.000,0.000,0.000
1641207904872896000,2022-01-03-11:05:04,10.1.1.6,176,-0.080,-0.080,-0.080,0.000,0.000,0.000
1641207905081752064,2022-01-03-11:05:05,10.1.1.6,185,-0.070,-0.070,-0.070,0.000,0.000,0.000
1641207905281158912,2022-01-03-11:05:05,10.1.1.6,179,-0.060,-0.060,-0.060,0.000,0.000,0.000
1641207905480212992,2022-01-03-11:05:05,10.1.1.6,177,-0.050,-0.050,-0.050,0.000,0.000,0.000
1641207905700137984,2022-01-03-11:05:05,10.1.1.6,196,-0.040,-0.040,-0.040,0.000,0.000,0.000
1641207905880016128,2022-01-03-11:05:05,10.1.1.6,175,-0.030,-0.030,-0.030,0.000,0.000,0.000
1641207906080004864,2022-01-03-11:05:06,10.1.1.6,174,-0.020,-0.020,-0.020,0.000,0.000,0.000
1641207906299237120,2022-01-03-11:05:06,10.1.1.6,193,-0.010,-0.010,-0.010,0.000,0.000,0.000
1641207906479397120,2022-01-03-11:05:06,10.1.1.6,173,0.000,0.000,0.000,0.000,0.000,0.000
1641207906698679040,2022-01-03-11:05:06,10.1.1.6,192,-0.010,-0.010,-0.010,0.000,0.000,0.000
1641207906890070016,2022-01-03-11:05:06,10.1.1.6,182,-0.020,-0.020,-0.020,0.000,0.000,0.000
1641207907098139904,2022-01-03-11:05:07,10.1.1.6,190,-0.030,-0.030,-0.030,0.000,0.000,0.000
1641207907277716992,2022-01-03-11:05:07,10.1.1.6,169,-0.040,-0.040,-0.040,0.000,0.000,0.000
1641207907477011968,2022-01-03-11:05:07,10.1.1.6,168,-0.050,-0.050,-0.050,0.000,0.000,0.000
1641207907677982976,2022-01-03-11:05:07,10.1.1.6,168,-0.060,-0.060,-0.060,0.000,0.000,0.000
1641207907876761856,2022-01-03-11:05:07,10.1.1.6,166,-0.070,-0.070,-0.070,0.000,0.000,0.000
1641207908076764160,2022-01-03-11:05:08,10.1.1.6,166,-0.080,-0.080,-0.080,0.000,0.000,0.000
1641207908276290048,2022-01-03-11:05:08,10.1.1.6,165,-0.090,-0.090,-0.090,0.000,0.000,0.000
1641207908495922176,2022-01-03-11:05:08,10.1.1.6,184,-0.100,-0.100,-0.100,0.000,0.000,0.000
1641207908679333888,2022-01-03-11:05:08,10.1.1.6,167,-0.110,-0.110,-0.110,0.000,0.000,0.000
1641207908885291008,2022-01-03-11:05:08,10.1.1.6,172,-0.120,-0.120,-0.120,0.000,0.000,0.000
1641207909095150080,2022-01-03-11:05:09,10.1.1.6,181,-0.130,-0.130,-0.130,0.000,0.000,0.000
1641207909295515904,2022-01-03-11:05:09,10.1.1.6,180,-0.140,-0.140,-0.140,0.000,0.000,0.000
1641207909493865984,2022-01-03-11:05:09,10.1.1.6,177,-0.150,-0.150,-0.150,0.000,0.000,0.000
1641207909694083072,2022-01-03-11:05:09,10.1.1.6,176,-0.160,-0.160,-0.160,0.000,0.000,0.000
1641207909893709056,2022-01-03-11:05:09,10.1.1.6,175,-0.170,-0.170,-0.170,0.000,0.000,0.000
1641207910084278016,2022-01-03-11:05:10,10.1.1.6,165,-0.180,-0.180,-0.180,0.000,0.000,0.000
1641207910293176832,2022-01-03-11:05:10,10.1.1.6,173,-0.190,-0.190,-0.190,0.000,0.000,0.000
1641207910486350080,2022-01-03-11:05:10,10.1.1.6,166,-0.200,-0.200,-0.200,0.000,0.000,0.000
1641207910692641024,2022-01-03-11:05:10,10.1.1.6,171,-0.210,-0.210,-0.210,0.000,0.000,0.000
1641207910893038080,2022-01-03-11:05:10,10.1.1.6,171,-0.220,-0.220,-0.220,0.000,0.000,0.000
1641207911092355840,2022-01-03-11:05:11,10.1.1.6,170,-0.230,-0.230,-0.230,0.000,0.000,0.000
1641207911291446016,2022-01-03-11:05:11,10.1.1.6,169,-0.240,-0.240,-0.240,0.000,0.000,0.000
1641207911491046912,2022-01-03-11:05:11,10.1.1.6,168,-0.250,-0.250,-0.250,0.000,0.000,0.000
1641207911690756096,2022-01-03-11:05:11,10.1.1.6,167,-0.260,-0.260,-0.260,0.000,0.000,0.000
1641207911890758912,2022-01-03-11:05:11,10.1.1.6,167,-0.270,-0.270,-0.270,0.000,0.000,0.000
1641207912090300160,2022-01-03-11:05:12,10.1.1.6,166,-0.280,-0.280,-0.280,0.000,0.000,0.000
1641207912290554880,2022-01-03-11:05:12,10.1.1.6,165,-0.290,-0.290,-0.290,0.000,0.000,0.000
1641207912489593088,2022-01-03-11:05:12,10.1.1.6,164,-0.300,-0.300,-0.300,0.000,0.000,0.000
1641207912699619072,2022-01-03-11:05:12,10.1.1.6,173,-0.310,-0.310,-0.310,0.000,0.000,0.000
1641207912888987904,2022-01-03-11:05:12,10.1.1.6,162,-0.320,-0.320,-0.320,0.000,0.000,0.000
1641207913088988928,2022-01-03-11:05:13,10.1.1.6,158,-0.330,-0.330,-0.330,0.000,0.000,0.000
1641207913289388032,2022-01-03-11:05:13,10.1.1.6,158,-0.340,-0.340,-0.340,0.000,0.000,0.000
1641207913487983104,2022-01-03-11:05:13,10.1.1.6,156,-0.350,-0.350,-0.350,0.000,0.000,0.000
1641207913708945920,2022-01-03-11:05:13,10.1.1.6,176,-0.360,-0.360,-0.360,0.000,0.000,0.000
1641207913908866816,2022-01-03-11:05:13,10.1.1.6,175,-0.370,-0.370,-0.370,0.000,0.000,0.000
1641207914107976960,2022-01-03-11:05:14,10.1.1.6,172,-0.380,-0.380,-0.380,0.000,0.000,0.000
1641207914309895936,2022-01-03-11:05:14,10.1.1.6,173,-0.390,-0.390,-0.390,0.000,0.000,0.000
1641207914512100096,2022-01-03-11:05:14,10.1.1.6,173,-0.400,-0.400,-0.400,0.000,0.000,0.000
1641207914711568128,2022-01-03-11:05:14,10.1.1.6,174,-0.410,-0.410,-0.410,0.000,0.000,0.000
1641207914913108992,2022-01-03-11:05:14,10.1.1.6,175,-0.420,-0.420,-0.420,0.000,0.000,0.000
1641207915114972160,2022-01-03-11:05:15,10.1.1.6,176,-0.430,-0.430,-0.430,0.000,0.000,0.000
1641207915314144000,2022-01-03-11:05:15,10.1.1.6,175,-0.440,-0.440,-0.440,0.000,0.000,0.000
1641207915521449984,2022-01-03-11:05:15,10.1.1.6,181,-0.450,-0.450,-0.450,0.000,0.000,0.000
1641207915715853056,2022-01-03-11:05:15,10.1.1.6,175,-0.460,-0.460,-0.460,0.000,0.000,0.000
1641207915917200128,2022-01-03-11:05:15,10.1.1.6,175,-0.470,-0.470,-0.470,0.000,0.000,0.000
1641207916117757184,2022-01-03-11:05:16,10.1.1.6,175,-0.480,-0.480,-0.480,0.000,0.000,0.000
1641207916318536960,2022-01-03-11:05:16,10.1.1.6,173,-0.490,-0.490,-0.490,0.000,0.000,0.000
1641207916519139072,2022-01-03-11:05:16,10.1.1.6,173,-0.480,-0.480,-0.480,0.000,0.000,0.000
1641207916719849984,2022-01-03-11:05:16,10.1.1.6,173,-0.470,-0.470,-0.470,0.000,0.000,0.000
1641207916920228864,2022-01-03-11:05:16,10.1.1.6,173,-0.460,-0.460,-0.460,0.000,0.000,0.000
1641207917123062016,2022-01-03-11:05:17,10.1.1.6,175,-0.450,-0.450,-0.450,0.000,0.000,0.000
1641207917322257920,2022-01-03-11:05:17,10.1.1.6,173,-0.440,-0.440,-0.440,0.000,0.000,0.000
1641207917523907072,2022-01-03-11:05:17,10.1.1.6,174,-0.430,-0.430,-0.430,0.000,0.000,0.000
1641207917743348992,2022-01-03-11:05:17,10.1.1.6,193,-0.420,-0.420,-0.420,0.000,0.000,0.000
1641207917923311104,2022-01-03-11:05:17,10.1.1.6,172,-0.410,-0.410,-0.410,0.000,0.000,0.000
1641207918123892992,2022-01-03-11:05:18,10.1.1.6,172,-0.400,-0.400,-0.400,0.000,0.000,0.000
1641207918344481024,2022-01-03-11:05:18,10.1.1.6,191,-0.390,-0.390,-0.390,0.000,0.000,0.000
1641207918545037056,2022-01-03-11:05:18,10.1.1.6,191,-0.380,-0.380,-0.380,0.000,0.000,0.000
1641207918746469120,2022-01-03-11:05:18,10.1.1.6,191,-0.370,-0.370,-0.370,0.000,0.000,0.000
1641207918945814016,2022-01-03-11:05:18,10.1.1.6,190,-0.360,-0.360,-0.360,0.000,0.000,0.000
1641207919146995968,2022-01-03-11:05:19,10.1.1.6,191,-0.350,-0.350,-0.350,0.000,0.000,0.000
1641207919346530816,2022-01-03-11:05:19,10.1.1.6,190,-0.340,-0.340,-0.340,0.000,0.000,0.000
1641207919547087872,2022-01-03-11:05:19,10.1.1.6,190,-0.330,-0.330,-0.330,0.000,0.000,0.000
1641207919747504896,2022-01-03-11:05:19,10.1.1.6,190,-0.320,-0.320,-0.320,0.000,0.000,0.000
1641207919953869056,2022-01-03-11:05:19,10.1.1.6,196,-0.310,-0.310,-0.310,0.000,0.000,0.000
1641207920148161792,2022-01-03-11:05:20,10.1.1.6,187,-0.300,-0.300,-0.300,0.000,0.000,0.000
1641207920350951936,2022-01-03-11:05:20,10.1.1.6,190,-0.290,-0.290,-0.290,0.000,0.000,0.000
1641207920549516800,2022-01-03-11:05:20,10.1.1.6,187,-0.280,-0.280,-0.280,0.000,0.000,0.000
1641207920749640960,2022-01-03-11:05:20,10.1.1.6,187,-0.270,-0.270,-0.270,0.000,0.000,0.000
1641207920949127936,2022-01-03-11:05:20,10.1.1.6,185,-0.260,-0.260,-0.260,0.000,0.000,0.000
1641207921352157184,2022-01-03-11:05:21,10.1.1.6,187,-0.240,-0.240,-0.240,0.000,0.000,0.000
1641207921750437120,2022-01-03-11:05:21,10.1.1.6,184,-0.220,-0.220,-0.220,0.000,0.000,0.000
1641207921952317952,2022-01-03-11:05:21,10.1.1.6,185,-0.210,-0.210,-0.210,0.000,0.000,0.000
1641207922153064960,2022-01-03-11:05:22,10.1.1.6,185,-0.200,-0.200,-0.200,0.000,0.000,0.000
1641207922351378944,2022-01-03-11:05:22,10.1.1.6,182,-0.190,-0.190,-0.190,0.000,0.000,0.000
1641207922551398912,2022-01-03-11:05:22,10.1.1.6,180,-0.180,-0.180,-0.180,0.000,0.000,0.000
1641207922751372032,2022-01-03-11:05:22,10.1.1.6,179,-0.170,-0.170,-0.170,0.000,0.000,0.000
1641207922972700160,2022-01-03-11:05:22,10.1.1.6,199,-0.160,-0.160,-0.160,0.000,0.000,0.000
1641207923172578048,2022-01-03-11:05:23,10.1.1.6,199,-0.150,-0.150,-0.150,0.000,0.000,0.000
1641207923372935936,2022-01-03-11:05:23,10.1.1.6,199,-0.140,-0.140,-0.140,0.000,0.000,0.000
1641207923771849984,2022-01-03-11:05:23,10.1.1.6,193,-0.120,-0.120,-0.120,0.000,0.000,0.000
1641207923971597824,2022-01-03-11:05:23,10.1.1.6,191,-0.110,-0.110,-0.110,0.000,0.000,0.000
1641207924172780032,2022-01-03-11:05:24,10.1.1.6,191,-0.100,-0.100,-0.100,0.000,0.000,0.000
1641207924372674816,2022-01-03-11:05:24,10.1.1.6,191,-0.090,-0.090,-0.090,0.000,0.000,0.000
1641207924571688960,2022-01-03-11:05:24,10.1.1.6,190,-0.080,-0.080,-0.080,0.000,0.000,0.000
1641207924772329216,2022-01-03-11:05:24,10.1.1.6,190,-0.070,-0.070,-0.070,0.000,0.000,0.000
1641207924972987904,2022-01-03-11:05:24,10.1.1.6,190,-0.060,-0.060,-0.060,0.000,0.000,0.000
1641207925172002048,2022-01-03-11:05:25,10.1.1.6,188,-0.050,-0.050,-0.050,0.000,0.000,0.000
1641207925376972800,2022-01-03-11:05:25,10.1.1.6,193,-0.040,-0.040,-0.040,0.000,0.000,0.000
1641207925571729920,2022-01-03-11:05:25,10.1.1.6,187,-0.030,-0.030,-0.030,0.000,0.000,0.000
1641207925971831040,2022-01-03-11:05:25,10.1.1.6,185,-0.010,-0.010,-0.010,0.000,0.000,0.000
1641207926172993792,2022-01-03-11:05:26,10.1.1.6,184,0.000,0.000,0.000,0.000,0.000,0.000
1641207926372396032,2022-01-03-11:05:26,10.1.1.6,183,-0.010,-0.010,-0.010,0.000,0.000,0.000
1641207926572576000,2022-01-03-11:05:26,10.1.1.6,182,-0.020,-0.020,-0.020,0.000,0.000,0.000
1641207926772440832,2022-01-03-11:05:26,10.1.1.6,181,-0.030,-0.030,-0.030,0.000,0.000,0.000
1641207926983483136,2022-01-03-11:05:26,10.1.1.6,192,-0.040,-0.040,-0.040,0.000,0.000,0.000
1641207927171056128,2022-01-03-11:05:27,10.1.1.6,179,-0.050,-0.050,-0.050,0.000,0.000,0.000
1641207927378957056,2022-01-03-11:05:27,10.1.1.6,183,-0.060,-0.060,-0.060,0.000,0.000,0.000
1641207927590929920,2022-01-03-11:05:27,10.1.1.6,196,-0.070,-0.070,-0.070,0.000,0.000,0.000
1641207927785972224,2022-01-03-11:05:27,10.1.1.6,190,-0.080,-0.080,-0.080,0.000,0.000,0.000
1641207927991254016,2022-01-03-11:05:27,10.1.1.6,195,-0.090,-0.090,-0.090,0.000,0.000,0.000
1641207928192101120,2022-01-03-11:05:28,10.1.1.6,195,-0.100,-0.100,-0.100,0.000,0.000,0.000
1641207928392595968,2022-01-03-11:05:28,10.1.1.6,195,-0.110,-0.110,-0.110,0.000,0.000,0.000
1641207928591085824,2022-01-03-11:05:28,10.1.1.6,192,-0.120,-0.120,-0.120,0.000,0.000,0.000
1641207928791193088,2022-01-03-11:05:28,10.1.1.6,191,-0.130,-0.130,-0.130,0.000,0.000,0.000
1641207928991281152,2022-01-03-11:05:28,10.1.1.6,190,-0.140,-0.140,-0.140,0.000,0.000,0.000
1641207929190594816,2022-01-03-11:05:29,10.1.1.6,189,-0.150,-0.150,-0.150,0.000,0.000,0.000
1641207929390086912,2022-01-03-11:05:29,10.1.1.6,188,-0.160,-0.160,-0.160,0.000,0.000,0.000
1641207929590030848,2022-01-03-11:05:29,10.1.1.6,187,-0.170,-0.170,-0.170,0.000,0.000,0.000
1641207929790972928,2022-01-03-11:05:29,10.1.1.6,186,-0.180,-0.180,-0.180,0.000,0.000,0.000
1641207929989698816,2022-01-03-11:05:29,10.1.1.6,184,-0.190,-0.190,-0.190,0.000,0.000,0.000
1641207930190606080,2022-01-03-11:05:30,10.1.1.6,184,-0.200,-0.200,-0.200,0.000,0.000,0.000
1641207930389377024,2022-01-03-11:05:30,10.1.1.6,182,-0.210,-0.210,-0.210,0.000,0.000,0.000
1641207930589263872,2022-01-03-11:05:30,10.1.1.6,181,-0.220,-0.220,-0.220,0.000,0.000,0.000
1641207930789307136,2022-01-03-11:05:30,10.1.1.6,179,-0.230,-0.230,-0.230,0.000,0.000,0.000
1641207930988934912,2022-01-03-11:05:30,10.1.1.6,176,-0.240,-0.240,-0.240,0.000,0.000,0.000
1641207931208859904,2022-01-03-11:05:31,10.1.1.6,195,-0.250,-0.250,-0.250,0.000,0.000,0.000
1641207931409622784,2022-01-03-11:05:31,10.1.1.6,195,-0.260,-0.260,-0.260,0.000,0.000,0.000
1641207931614006016,2022-01-03-11:05:31,10.1.1.6,199,-0.270,-0.270,-0.270,0.000,0.000,0.000
1641207931808000000,2022-01-03-11:05:31,10.1.1.6,192,-0.280,-0.280,-0.280,0.000,0.000,0.000
1641207932007682048,2022-01-03-11:05:32,10.1.1.6,191,-0.290,-0.290,-0.290,0.000,0.000,0.000
1641207932207386880,2022-01-03-11:05:32,10.1.1.6,190,-0.300,-0.300,-0.300,0.000,0.000,0.000
1641207932407203840,2022-01-03-11:05:32,10.1.1.6,189,-0.310,-0.310,-0.310,0.000,0.000,0.000
1641207932598028032,2022-01-03-11:05:32,10.1.1.6,179,-0.320,-0.320,-0.320,0.000,0.000,0.000
1641207932807360000,2022-01-03-11:05:32,10.1.1.6,187,-0.330,-0.330,-0.330,0.000,0.000,0.000
1641207932997252864,2022-01-03-11:05:32,10.1.1.6,177,-0.340,-0.340,-0.340,0.000,0.000,0.000
1641207933206161920,2022-01-03-11:05:33,10.1.1.6,184,-0.350,-0.350,-0.350,0.000,0.000,0.000
1641207933406092800,2022-01-03-11:05:33,10.1.1.6,184,-0.360,-0.360,-0.360,0.000,0.000,0.000
1641207933606040064,2022-01-03-11:05:33,10.1.1.6,183,-0.370,-0.370,-0.370,0.000,0.000,0.000
1641207933805465856,2022-01-03-11:05:33,10.1.1.6,181,-0.380,-0.380,-0.380,0.000,0.000,0.000
1641207934005278208,2022-01-03-11:05:34,10.1.1.6,180,-0.390,-0.390,-0.390,0.000,0.000,0.000
1641207934204866816,2022-01-03-11:05:34,10.1.1.6,179,-0.400,-0.400,-0.400,0.000,0.000,0.000
1641207934404807936,2022-01-03-11:05:34,10.1.1.6,178,-0.410,-0.410,-0.410,0.000,0.000,0.000
1641207934604729856,2022-01-03-11:05:34,10.1.1.6,178,-0.420,-0.420,-0.420,0.000,0.000,0.000
1641207934805149184,2022-01-03-11:05:34,10.1.1.6,177,-0.430,-0.430,-0.430,0.000,0.000,0.000
1641207935007917824,2022-01-03-11:05:35,10.1.1.6,180,-0.440,-0.440,-0.440,0.000,0.000,0.000
1641207935214658048,2022-01-03-11:05:35,10.1.1.6,186,-0.450,-0.450,-0.450,0.000,0.000,0.000
1641207935403363840,2022-01-03-11:05:35,10.1.1.6,174,-0.460,-0.460,-0.460,0.000,0.000,0.000
1641207935603425024,2022-01-03-11:05:35,10.1.1.6,173,-0.470,-0.470,-0.470,0.000,0.000,0.000
1641207935803101952,2022-01-03-11:05:35,10.1.1.6,172,-0.480,-0.480,-0.480,0.000,0.000,0.000
1641207936003102976,2022-01-03-11:05:36,10.1.1.6,171,-0.490,-0.490,-0.490,0.000,0.000,0.000
1641207936213964032,2022-01-03-11:05:36,10.1.1.6,175,-0.480,-0.480,-0.480,0.000,0.000,0.000
1641207936422004992,2022-01-03-11:05:36,10.1.1.6,188,-0.470,-0.470,-0.470,0.000,0.000,0.000
1641207936621985024,2022-01-03-11:05:36,10.1.1.6,187,-0.460,-0.460,-0.460,0.000,0.000,0.000
1641207936821597952,2022-01-03-11:05:36,10.1.1.6,186,-0.450,-0.450,-0.450,0.000,0.000,0.000
1641207937021244928,2022-01-03-11:05:37,10.1.1.6,186,-0.440,-0.440,-0.440,0.000,0.000,0.000
1641207937221060096,2022-01-03-11:05:37,10.1.1.6,185,-0.430,-0.430,-0.430,0.000,0.000,0.000
1641207937422513920,2022-01-03-11:05:37,10.1.1.6,185,-0.420,-0.420,-0.420,0.000,0.000,0.000
1641207937620150016,2022-01-03-11:05:37,10.1.1.6,183,-0.410,-0.410,-0.410,0.000,0.000,0.000
1641207937811677952,2022-01-03-11:05:37,10.1.1.6,174,-0.400,-0.400,-0.400,0.000,0.000,0.000
1641207938020339968,2022-01-03-11:05:38,10.1.1.6,182,-0.390,-0.390,-0.390,0.000,0.000,0.000
1641207938220227072,2022-01-03-11:05:38,10.1.1.6,181,-0.380,-0.380,-0.380,0.000,0.000,0.000
1641207938412625152,2022-01-03-11:05:38,10.1.1.6,172,-0.370,-0.370,-0.370,0.000,0.000,0.000
1641207938619604992,2022-01-03-11:05:38,10.1.1.6,178,-0.360,-0.360,-0.360,0.000,0.000,0.000
1641207938820032000,2022-01-03-11:05:38,10.1.1.6,177,-0.350,-0.350,-0.350,0.000,0.000,0.000
1641207939018345216,2022-01-03-11:05:39,10.1.1.6,175,-0.340,-0.340,-0.340,0.000,0.000,0.000
1641207939218457856,2022-01-03-11:05:39,10.1.1.6,174,-0.330,-0.330,-0.330,0.000,0.000,0.000
1641207939418958848,2022-01-03-11:05:39,10.1.1.6,174,-0.320,-0.320,-0.320,0.000,0.000,0.000
1641207939617554944,2022-01-03-11:05:39,10.1.1.6,172,-0.310,-0.310,-0.310,0.000,0.000,0.000
1641207939816988928,2022-01-03-11:05:39,10.1.1.6,171,-0.300,-0.300,-0.300,0.000,0.000,0.000
1641207940017123072,2022-01-03-11:05:40,10.1.1.6,171,-0.290,-0.290,-0.290,0.000,0.000,0.000
1641207940218780160,2022-01-03-11:05:40,10.1.1.6,172,-0.280,-0.280,-0.280,0.000,0.000,0.000
1641207940417190912,2022-01-03-11:05:40,10.1.1.6,170,-0.270,-0.270,-0.270,0.000,0.000,0.000
1641207940616168960,2022-01-03-11:05:40,10.1.1.6,168,-0.260,-0.260,-0.260,0.000,0.000,0.000
1641207940816345088,2022-01-03-11:05:40,10.1.1.6,167,-0.250,-0.250,-0.250,0.000,0.000,0.000
1641207941016189184,2022-01-03-11:05:41,10.1.1.6,166,-0.240,-0.240,-0.240,0.000,0.000,0.000
1641207941215339008,2022-01-03-11:05:41,10.1.1.6,164,-0.230,-0.230,-0.230,0.000,0.000,0.000
1641207941415371008,2022-01-03-11:05:41,10.1.1.6,163,-0.220,-0.220,-0.220,0.000,0.000,0.000
1641207941634846976,2022-01-03-11:05:41,10.1.1.6,182,-0.210,-0.210,-0.210,0.000,0.000,0.000
1641207941835222016,2022-01-03-11:05:41,10.1.1.6,180,-0.200,-0.200,-0.200,0.000,0.000,0.000
1641207942034356224,2022-01-03-11:05:42,10.1.1.6,180,-0.190,-0.190,-0.190,0.000,0.000,0.000
1641207942234694912,2022-01-03-11:05:42,10.1.1.6,178,-0.180,-0.180,-0.180,0.000,0.000,0.000
1641207942428450048,2022-01-03-11:05:42,10.1.1.6,172,-0.170,-0.170,-0.170,0.000,0.000,0.000
1641207942644295936,2022-01-03-11:05:42,10.1.1.6,187,-0.160,-0.160,-0.160,0.000,0.000,0.000
1641207942834739968,2022-01-03-11:05:42,10.1.1.6,177,-0.150,-0.150,-0.150,0.000,0.000,0.000
1641207943032443904,2022-01-03-11:05:43,10.1.1.6,172,-0.140,-0.140,-0.140,0.000,0.000,0.000
1641207943222821888,2022-01-03-11:05:43,10.1.1.6,162,-0.130,-0.130,-0.130,0.000,0.000,0.000
1641207943432264960,2022-01-03-11:05:43,10.1.1.6,170,-0.120,-0.120,-0.120,0.000,0.000,0.000
1641207943632587008,2022-01-03-11:05:43,10.1.1.6,169,-0.110,-0.110,-0.110,0.000,0.000,0.000
1641207943852640000,2022-01-03-11:05:43,10.1.1.6,189,-0.100,-0.100,-0.100,0.000,0.000,0.000
1641207944031531008,2022-01-03-11:05:44,10.1.1.6,167,-0.090,-0.090,-0.090,0.000,0.000,0.000
1641207944231986944,2022-01-03-11:05:44,10.1.1.6,166,-0.080,-0.080,-0.080,0.000,0.000,0.000
1641207944431292160,2022-01-03-11:05:44,10.1.1.6,164,-0.070,-0.070,-0.070,0.000,0.000,0.000
1641207944633405952,2022-01-03-11:05:44,10.1.1.6,166,-0.060,-0.060,-0.060,0.000,0.000,0.000
1641207944829731840,2022-01-03-11:05:44,10.1.1.6,158,-0.050,-0.050,-0.050,0.000,0.000,0.000
1641207945050932992,2022-01-03-11:05:45,10.1.1.6,177,-0.040,-0.040,-0.040,0.000,0.000,0.000
1641207945249533952,2022-01-03-11:05:45,10.1.1.6,175,-0.030,-0.030,-0.030,0.000,0.000,0.000
1641207945439655168,2022-01-03-11:05:45,10.1.1.6,164,-0.020,-0.020,-0.020,0.000,0.000,0.000
1641207945648680960,2022-01-03-11:05:45,10.1.1.6,173,-0.010,-0.010,-0.010,0.000,0.000,0.000
1641207945848648960,2022-01-03-11:05:45,10.1.1.6,172,0.000,0.000,0.000,0.000,0.000,0.000
1641207946052267008,2022-01-03-11:05:46,10.1.1.6,175,-0.010,-0.010,-0.010,0.000,0.000,0.000
1641207946250863104,2022-01-03-11:05:46,10.1.1.6,172,-0.020,-0.020,-0.020,0.000,0.000,0.000
1641207946451278848,2022-01-03-11:05:46,10.1.1.6,172,-0.030,-0.030,-0.030,0.000,0.000,0.000
1641207946651834880,2022-01-03-11:05:46,10.1.1.6,172,-0.040,-0.040,-0.040,0.000,0.000,0.000
1641207946853169920,2022-01-03-11:05:46,10.1.1.6,172,-0.050,-0.050,-0.050,0.000,0.000,0.000
1641207947057683968,2022-01-03-11:05:47,10.1.1.6,172,-0.060,-0.060,-0.060,0.000,0.000,0.000
1641207947254178048,2022-01-03-11:05:47,10.1.1.6,170,-0.070,-0.070,-0.070,0.000,0.000,0.000
1641207947454972928,2022-01-03-11:05:47,10.1.1.6,170,-0.080,-0.080,-0.080,0.000,0.000,0.000
1641207947656382976,2022-01-03-11:05:47,10.1.1.6,171,-0.090,-0.090,-0.090,0.000,0.000,0.000
1641207947856722944,2022-01-03-11:05:47,10.1.1.6,170,-0.100,-0.100,-0.100,0.000,0.000,0.000
1641207948057463040,2022-01-03-11:05:48,10.1.1.6,170,-0.110,-0.110,-0.110,0.000,0.000,0.000
1641207948258678016,2022-01-03-11:05:48,10.1.1.6,170,-0.120,-0.120,-0.120,0.000,0.000,0.000
1641207948479545088,2022-01-03-11:05:48,10.1.1.6,190,-0.130,-0.130,-0.130,0.000,0.000,0.000
1641207948670942976,2022-01-03-11:05:48,10.1.1.6,181,-0.140,-0.140,-0.140,0.000,0.000,0.000
1641207948862031104,2022-01-03-11:05:48,10.1.1.6,171,-0.150,-0.150,-0.150,0.000,0.000,0.000
1641207949073014016,2022-01-03-11:05:49,10.1.1.6,180,-0.160,-0.160,-0.160,0.000,0.000,0.000
1641207949283788032,2022-01-03-11:05:49,10.1.1.6,190,-0.170,-0.170,-0.170,0.000,0.000,0.000
1641207949472814080,2022-01-03-11:05:49,10.1.1.6,178,-0.180,-0.180,-0.180,0.000,0.000,0.000
1641207949682900992,2022-01-03-11:05:49,10.1.1.6,188,-0.190,-0.190,-0.190,0.000,0.000,0.000
1641207949884058880,2022-01-03-11:05:49,10.1.1.6,188,-0.200,-0.200,-0.200,0.000,0.000,0.000
1641207950084919808,2022-01-03-11:05:50,10.1.1.6,188,-0.210,-0.210,-0.210,0.000,0.000,0.000
1641207950286032896,2022-01-03-11:05:50,10.1.1.6,189,-0.220,-0.220,-0.220,0.000,0.000,0.000
1641207950485368064,2022-01-03-11:05:50,10.1.1.6,188,-0.230,-0.230,-0.230,0.000,0.000,0.000
1641207950685789952,2022-01-03-11:05:50,10.1.1.6,187,-0.240,-0.240,-0.240,0.000,0.000,0.000
1641207950885957888,2022-01-03-11:05:50,10.1.1.6,187,-0.250,-0.250,-0.250,0.000,0.000,0.000
1641207951087668992,2022-01-03-11:05:51,10.1.1.6,187,-0.260,-0.260,-0.260,0.000,0.000,0.000
1641207951287000064,2022-01-03-11:05:51,10.1.1.6,186,-0.270,-0.270,-0.270,0.000,0.000,0.000
1641207951487219200,2022-01-03-11:05:51,10.1.1.6,185,-0.280,-0.280,-0.280,0.000,0.000,0.000
1641207951688782848,2022-01-03-11:05:51,10.1.1.6,185,-0.290,-0.290,-0.290,0.000,0.000,0.000
1641207951889817856,2022-01-03-11:05:51,10.1.1.6,180,-0.300,-0.300,-0.300,0.000,0.000,0.000
1641207952092269824,2022-01-03-11:05:52,10.1.1.6,182,-0.310,-0.310,-0.310,0.000,0.000,0.000
1641207952289037056,2022-01-03-11:05:52,10.1.1.6,178,-0.320,-0.320,-0.320,0.000,0.000,0.000
1641207952489385984,2022-01-03-11:05:52,10.1.1.6,178,-0.330,-0.330,-0.330,0.000,0.000,0.000
1641207952690054912,2022-01-03-11:05:52,10.1.1.6,177,-0.340,-0.340,-0.340,0.000,0.000,0.000
1641207952909648896,2022-01-03-11:05:52,10.1.1.6,196,-0.350,-0.350,-0.350,0.000,0.000,0.000
1641207953111876864,2022-01-03-11:05:53,10.1.1.6,198,-0.360,-0.360,-0.360,0.000,0.000,0.000
1641207953310124032,2022-01-03-11:05:53,10.1.1.6,195,-0.370,-0.370,-0.370,0.000,0.000,0.000
1641207953510771968,2022-01-03-11:05:53,10.1.1.6,189,-0.380,-0.380,-0.380,0.000,0.000,0.000
1641207953712294144,2022-01-03-11:05:53,10.1.1.6,189,-0.390,-0.390,-0.390,0.000,0.000,0.000
1641207953912230912,2022-01-03-11:05:53,10.1.1.6,188,-0.400,-0.400,-0.400,0.000,0.000,0.000
1641207954112246016,2022-01-03-11:05:54,10.1.1.6,188,-0.410,-0.410,-0.410,0.000,0.000,0.000
1641207954314053888,2022-01-03-11:05:54,10.1.1.6,185,-0.420,-0.420,-0.420,0.000,0.000,0.000
1641207954713007872,2022-01-03-11:05:54,10.1.1.6,182,-0.440,-0.440,-0.440,0.000,0.000,0.000
1641207955113020928,2022-01-03-11:05:55,10.1.1.6,180,-0.460,-0.460,-0.460,0.000,0.000,0.000
1641207955522900224,2022-01-03-11:05:55,10.1.1.6,189,-0.480,-0.480,-0.480,0.000,0.000,0.000
1641207955732715008,2022-01-03-11:05:55,10.1.1.6,198,-0.490,-0.490,-0.490,0.000,0.000,0.000
1641207955933515008,2022-01-03-11:05:55,10.1.1.6,199,-0.480,-0.480,-0.480,0.000,0.000,0.000
1641207956123356160,2022-01-03-11:05:56,10.1.1.6,188,-0.470,-0.470,-0.470,0.000,0.000,0.000
1641207956334177024,2022-01-03-11:05:56,10.1.1.6,198,-0.460,-0.460,-0.460,0.000,0.000,0.000
1641207956532350976,2022-01-03-11:05:56,10.1.1.6,196,-0.450,-0.450,-0.450,0.000,0.000,0.000
1641207956731975936,2022-01-03-11:05:56,10.1.1.6,195,-0.440,-0.440,-0.440,0.000,0.000,0.000
1641207956932401920,2022-01-03-11:05:56,10.1.1.6,195,-0.430,-0.430,-0.430,0.000,0.000,0.000
1641207957132848896,2022-01-03-11:05:57,10.1.1.6,194,-0.420,-0.420,-0.420,0.000,0.000,0.000
1641207957334161152,2022-01-03-11:05:57,10.1.1.6,195,-0.410,-0.410,-0.410,0.000,0.000,0.000
1641207957535814144,2022-01-03-11:05:57,10.1.1.6,194,-0.400,-0.400,-0.400,0.000,0.000,0.000
1641207957752865024,2022-01-03-11:05:57,10.1.1.6,198,-0.390,-0.390,-0.390,0.000,0.000,0.000
1641207957952284928,2022-01-03-11:05:57,10.1.1.6,197,-0.380,-0.380,-0.380,0.000,0.000,0.000
1641207958153039104,2022-01-03-11:05:58,10.1.1.6,196,-0.370,-0.370,-0.370,0.000,0.000,0.000
1641207958345833984,2022-01-03-11:05:58,10.1.1.6,189,-0.360,-0.360,-0.360,0.000,0.000,0.000
1641207958542359040,2022-01-03-11:05:58,10.1.1.6,185,-0.350,-0.350,-0.350,0.000,0.000,0.000
1641207958752551936,2022-01-03-11:05:58,10.1.1.6,194,-0.340,-0.340,-0.340,0.000,0.000,0.000
1641207958952559104,2022-01-03-11:05:58,10.1.1.6,194,-0.330,-0.330,-0.330,0.000,0.000,0.000
1641207959141666816,2022-01-03-11:05:59,10.1.1.6,182,-0.320,-0.320,-0.320,0.000,0.000,0.000
1641207959351676928,2022-01-03-11:05:59,10.1.1.6,192,-0.310,-0.310,-0.310,0.000,0.000,0.000
1641207959551512064,2022-01-03-11:05:59,10.1.1.6,191,-0.300,-0.300,-0.300,0.000,0.000,0.000
1641207959751337984,2022-01-03-11:05:59,10.1.1.6,191,-0.290,-0.290,-0.290,0.000,0.000,0.000
1641207959942227968,2022-01-03-11:05:59,10.1.1.6,180,-0.280,-0.280,-0.280,0.000,0.000,0.000
1641207960152357120,2022-01-03-11:06:00,10.1.1.6,188,-0.270,-0.270,-0.270,0.000,0.000,0.000
1641207960550893056,2022-01-03-11:06:00,10.1.1.6,186,-0.250,-0.250,-0.250,0.000,0.000,0.000
1641207960950987008,2022-01-03-11:06:00,10.1.1.6,184,-0.230,-0.230,-0.230,0.000,0.000,0.000
1641207961151344896,2022-01-03-11:06:01,10.1.1.6,184,-0.220,-0.220,-0.220,0.000,0.000,0.000
1641207961352508928,2022-01-03-11:06:01,10.1.1.6,184,-0.210,-0.210,-0.210,0.000,0.000,0.000
1641207961553486080,2022-01-03-11:06:01,10.1.1.6,186,-0.200,-0.200,-0.200,0.000,0.000,0.000
1641207961749972224,2022-01-03-11:06:01,10.1.1.6,181,-0.190,-0.190,-0.190,0.000,0.000,0.000
1641207961951611136,2022-01-03-11:06:01,10.1.1.6,182,-0.180,-0.180,-0.180,0.000,0.000,0.000
1641207962150926080,2022-01-03-11:06:02,10.1.1.6,180,-0.170,-0.170,-0.170,0.000,0.000,0.000
1641207962370310912,2022-01-03-11:06:02,10.1.1.6,198,-0.160,-0.160,-0.160,0.000,0.000,0.000
1641207962549308928,2022-01-03-11:06:02,10.1.1.6,178,-0.150,-0.150,-0.150,0.000,0.000,0.000
1641207962748854016,2022-01-03-11:06:02,10.1.1.6,177,-0.140,-0.140,-0.140,0.000,0.000,0.000
1641207962949161984,2022-01-03-11:06:02,10.1.1.6,177,-0.130,-0.130,-0.130,0.000,0.000,0.000
1641207963169225984,2022-01-03-11:06:03,10.1.1.6,196,-0.120,-0.120,-0.120,0.000,0.000,0.000
1641207963368776960,2022-01-03-11:06:03,10.1.1.6,195,-0.110,-0.110,-0.110,0.000,0.000,0.000
1641207963558829056,2022-01-03-11:06:03,10.1.1.6,185,-0.100,-0.100,-0.100,0.000,0.000,0.000
1641207963768230912,2022-01-03-11:06:03,10.1.1.6,193,-0.090,-0.090,-0.090,0.000,0.000,0.000
1641207963972059136,2022-01-03-11:06:03,10.1.1.6,196,-0.080,-0.080,-0.080,0.000,0.000,0.000
1641207964167769856,2022-01-03-11:06:04,10.1.1.6,192,-0.070,-0.070,-0.070,0.000,0.000,0.000
1641207964368105984,2022-01-03-11:06:04,10.1.1.6,190,-0.060,-0.060,-0.060,0.000,0.000,0.000
1641207964567311104,2022-01-03-11:06:04,10.1.1.6,190,-0.050,-0.050,-0.050,0.000,0.000,0.000
1641207964766941952,2022-01-03-11:06:04,10.1.1.6,189,-0.040,-0.040,-0.040,0.000,0.000,0.000
1641207964967443968,2022-01-03-11:06:04,10.1.1.6,188,-0.030,-0.030,-0.030,0.000,0.000,0.000
1641207965168402944,2022-01-03-11:06:05,10.1.1.6,188,-0.020,-0.020,-0.020,0.000,0.000,0.000
1641207965366800128,2022-01-03-11:06:05,10.1.1.6,186,-0.010,-0.010,-0.010,0.000,0.000,0.000
1641207965567810048,2022-01-03-11:06:05,10.1.1.6,187,0.000,0.000,0.000,0.000,0.000,0.000
1641207965756748800,2022-01-03-11:06:05,10.1.1.6,176,-0.010,-0.010,-0.010,0.000,0.000,0.000
1641207965957746944,2022-01-03-11:06:05,10.1.1.6,176,-0.020,-0.020,-0.020,0.000,0.000,0.000
1641207966157601024,2022-01-03-11:06:06,10.1.1.6,175,-0.030,-0.030,-0.030,0.000,0.000,0.000
1641207966365832960,2022-01-03-11:06:06,10.1.1.6,183,-0.040,-0.040,-0.040,0.000,0.000,0.000
1641207966556631040,2022-01-03-11:06:06,10.1.1.6,173,-0.050,-0.050,-0.050,0.000,0.000,0.000
1641207966765701120,2022-01-03-11:06:06,10.1.1.6,182,-0.060,-0.060,-0.060,0.000,0.000,0.000
1641207966965406976,2022-01-03-11:06:06,10.1.1.6,181,-0.070,-0.070,-0.070,0.000,0.000,0.000
1641207967164297216,2022-01-03-11:06:07,10.1.1.6,179,-0.080,-0.080,-0.080,0.000,0.000,0.000
1641207967364080896,2022-01-03-11:06:07,10.1.1.6,179,-0.090,-0.090,-0.090,0.000,0.000,0.000
1641207967563502080,2022-01-03-11:06:07,10.1.1.6,177,-0.100,-0.100,-0.100,0.000,0.000,0.000
1641207967764043008,2022-01-03-11:06:07,10.1.1.6,177,-0.110,-0.110,-0.110,0.000,0.000,0.000
1641207967963566080,2022-01-03-11:06:07,10.1.1.6,176,-0.120,-0.120,-0.120,0.000,0.000,0.000
1641207968162938112,2022-01-03-11:06:08,10.1.1.6,175,-0.130,-0.130,-0.130,0.000,0.000,0.000
1641207968362466048,2022-01-03-11:06:08,10.1.1.6,174,-0.140,-0.140,-0.140,0.000,0.000,0.000
1641207968562498048,2022-01-03-11:06:08,10.1.1.6,174,-0.150,-0.150,-0.150,0.000,0.000,0.000
1641207968763427072,2022-01-03-11:06:08,10.1.1.6,174,-0.160,-0.160,-0.160,0.000,0.000,0.000
1641207968962238976,2022-01-03-11:06:08,10.1.1.6,172,-0.170,-0.170,-0.170,0.000,0.000,0.000
1641207969164713984,2022-01-03-11:06:09,10.1.1.6,173,-0.180,-0.180,-0.180,0.000,0.000,0.000
1641207969381641984,2022-01-03-11:06:09,10.1.1.6,184,-0.190,-0.190,-0.190,0.000,0.000,0.000
1641207969573272064,2022-01-03-11:06:09,10.1.1.6,175,-0.200,-0.200,-0.200,0.000,0.000,0.000
1641207969773891840,2022-01-03-11:06:09,10.1.1.6,175,-0.210,-0.210,-0.210,0.000,0.000,0.000
1641207969980869120,2022-01-03-11:06:09,10.1.1.6,181,-0.220,-0.220,-0.220,0.000,0.000,0.000
1641207970183095040,2022-01-03-11:06:10,10.1.1.6,183,-0.230,-0.230,-0.230,0.000,0.000,0.000
1641207970380112896,2022-01-03-11:06:10,10.1.1.6,180,-0.240,-0.240,-0.240,0.000,0.000,0.000
1641207970579754240,2022-01-03-11:06:10,10.1.1.6,179,-0.250,-0.250,-0.250,0.000,0.000,0.000
1641207970770643968,2022-01-03-11:06:10,10.1.1.6,169,-0.260,-0.260,-0.260,0.000,0.000,0.000
1641207970979272960,2022-01-03-11:06:10,10.1.1.6,177,-0.270,-0.270,-0.270,0.000,0.000,0.000
1641207971178551040,2022-01-03-11:06:11,10.1.1.6,176,-0.280,-0.280,-0.280,0.000,0.000,0.000
1641207971378585088,2022-01-03-11:06:11,10.1.1.6,176,-0.290,-0.290,-0.290,0.000,0.000,0.000
1641207971578244864,2022-01-03-11:06:11,10.1.1.6,175,-0.300,-0.300,-0.300,0.000,0.000,0.000
1641207971798171904,2022-01-03-11:06:11,10.1.1.6,194,-0.310,-0.310,-0.310,0.000,0.000,0.000
1641207971977448960,2022-01-03-11:06:11,10.1.1.6,173,-0.320,-0.320,-0.320,0.000,0.000,0.000
1641207972177181952,2022-01-03-11:06:12,10.1.1.6,172,-0.330,-0.330,-0.330,0.000,0.000,0.000
1641207972377382144,2022-01-03-11:06:12,10.1.1.6,171,-0.340,-0.340,-0.340,0.000,0.000,0.000
1641207972576759040,2022-01-03-11:06:12,10.1.1.6,170,-0.350,-0.350,-0.350,0.000,0.000,0.000
1641207972784229120,2022-01-03-11:06:12,10.1.1.6,177,-0.360,-0.360,-0.360,0.000,0.000,0.000
1641207972997158144,2022-01-03-11:06:12,10.1.1.6,189,-0.370,-0.370,-0.370,0.000,0.000,0.000
1641207973176132864,2022-01-03-11:06:13,10.1.1.6,168,-0.380,-0.380,-0.380,0.000,0.000,0.000
1641207973386046976,2022-01-03-11:06:13,10.1.1.6,177,-0.390,-0.390,-0.390,0.000,0.000,0.000
1641207973595278080,2022-01-03-11:06:13,10.1.1.6,185,-0.400,-0.400,-0.400,0.000,0.000,0.000
1641207973775387136,2022-01-03-11:06:13,10.1.1.6,165,-0.410,-0.410,-0.410,0.000,0.000,0.000
1641207973979127808,2022-01-03-11:06:13,10.1.1.6,168,-0.420,-0.420,-0.420,0.000,0.000,0.000
1641207974175425024,2022-01-03-11:06:14,10.1.1.6,164,-0.430,-0.430,-0.430,0.000,0.000,0.000
1641207974373622016,2022-01-03-11:06:14,10.1.1.6,162,-0.440,-0.440,-0.440,0.000,0.000,0.000
1641207974573944064,2022-01-03-11:06:14,10.1.1.6,161,-0.450,-0.450,-0.450,0.000,0.000,0.000
1641207974793999872,2022-01-03-11:06:14,10.1.1.6,180,-0.460,-0.460,-0.460,0.000,0.000,0.000
1641207974983320832,2022-01-03-11:06:14,10.1.1.6,169,-0.470,-0.470,-0.470,0.000,0.000,0.000
1641207975194575104,2022-01-03-11:06:15,10.1.1.6,178,-0.480,-0.480,-0.480,0.000,0.000,0.000
1641207975396897024,2022-01-03-11:06:15,10.1.1.6,181,-0.490,-0.490,-0.490,0.000,0.000,0.000
1641207975592678144,2022-01-03-11:06:15,10.1.1.6,175,-0.480,-0.480,-0.480,0.000,0.000,0.000
1641207975796255232,2022-01-03-11:06:15,10.1.1.6,178,-0.470,-0.470,-0.470,0.000,0.000,0.000
1641207975992083200,2022-01-03-11:06:15,10.1.1.6,173,-0.460,-0.460,-0.460,0.000,0.000,0.000
1641207976191299072,2022-01-03-11:06:16,10.1.1.6,172,-0.450,-0.450,-0.450,0.000,0.000,0.000
1641207976390376192,2022-01-03-11:06:16,10.1.1.6,165,-0.440,-0.440,-0.440,0.000,0.000,0.000
1641207976590887936,2022-01-03-11:06:16,10.1.1.6,170,-0.430,-0.430,-0.430,0.000,0.000,0.000
1641207976791865088,2022-01-03-11:06:16,10.1.1.6,169,-0.420,-0.420,-0.420,0.000,0.000,0.000
1641207976991322112,2022-01-03-11:06:16,10.1.1.6,169,-0.410,-0.410,-0.410,0.000,0.000,0.000
1641207977189487104,2022-01-03-11:06:17,10.1.1.6,164,-0.400,-0.400,-0.400,0.000,0.000,0.000
1641207977389131008,2022-01-03-11:06:17,10.1.1.6,157,-0.390,-0.390,-0.390,0.000,0.000,0.000
1641207977601878016,2022-01-03-11:06:17,10.1.1.6,163,-0.380,-0.380,-0.380,0.000,0.000,0.000
1641207977808221184,2022-01-03-11:06:17,10.1.1.6,168,-0.370,-0.370,-0.370,0.000,0.000,0.000
1641207978001852160,2022-01-03-11:06:18,10.1.1.6,161,-0.360,-0.360,-0.360,0.000,0.000,0.000
1641207978202106880,2022-01-03-11:06:18,10.1.1.6,161,-0.350,-0.350,-0.350,0.000,0.000,0.000
1641207978402318848,2022-01-03-11:06:18,10.1.1.6,160,-0.340,-0.340,-0.340,0.000,0.000,0.000
1641207978613126144,2022-01-03-11:06:18,10.1.1.6,171,-0.330,-0.330,-0.330,0.000,0.000,0.000
1641207978813673984,2022-01-03-11:06:18,10.1.1.6,171,-0.320,-0.320,-0.320,0.000,0.000,0.000
1641207979013297920,2022-01-03-11:06:19,10.1.1.6,170,-0.310,-0.310,-0.310,0.000,0.000,0.000
1641207979214343936,2022-01-03-11:06:19,10.1.1.6,170,-0.300,-0.300,-0.300,0.000,0.000,0.000
1641207979415465216,2022-01-03-11:06:19,10.1.1.6,171,-0.290,-0.290,-0.290,0.000,0.000,0.000
1641207979615915008,2022-01-03-11:06:19,10.1.1.6,171,-0.280,-0.280,-0.280,0.000,0.000,0.000
1641207979816685824,2022-01-03-11:06:19,10.1.1.6,171,-0.270,-0.270,-0.270,0.000,0.000,0.000
1641207980017867008,2022-01-03-11:06:20,10.1.1.6,172,-0.260,-0.260,-0.260,0.000,0.000,0.000
1641207980218321152,2022-01-03-11:06:20,10.1.1.6,171,-0.250,-0.250,-0.250,0.000,0.000,0.000
1641207980419292928,2022-01-03-11:06:20,10.1.1.6,172,-0.240,-0.240,-0.240,0.000,0.000,0.000
1641207980621295872,2022-01-03-11:06:20,10.1.1.6,173,-0.230,-0.230,-0.230,0.000,0.000,0.000
1641207980842921984,2022-01-03-11:06:20,10.1.1.6,194,-0.220,-0.220,-0.220,0.000,0.000,0.000
1641207981043181056,2022-01-03-11:06:21,10.1.1.6,194,-0.210,-0.210,-0.210,0.000,0.000,0.000
1641207981223313920,2022-01-03-11:06:21,10.1.1.6,174,-0.200,-0.200,-0.200,0.000,0.000,0.000
1641207981443738880,2022-01-03-11:06:21,10.1.1.6,190,-0.190,-0.190,-0.190,0.000,0.000,0.000
1641207981643692032,2022-01-03-11:06:21,10.1.1.6,190,-0.180,-0.180,-0.180,0.000,0.000,0.000
1641207981845694976,2022-01-03-11:06:21,10.1.1.6,192,-0.170,-0.170,-0.170,0.000,0.000,0.000
1641207982048909824,2022-01-03-11:06:22,10.1.1.6,194,-0.160,-0.160,-0.160,0.000,0.000,0.000
1641207982246699008,2022-01-03-11:06:22,10.1.1.6,191,-0.150,-0.150,-0.150,0.000,0.000,0.000
1641207982437513984,2022-01-03-11:06:22,10.1.1.6,181,-0.140,-0.140,-0.140,0.000,0.000,0.000
1641207982636609024,2022-01-03-11:06:22,10.1.1.6,178,-0.130,-0.130,-0.130,0.000,0.000,0.000
1641207982846842880,2022-01-03-11:06:22,10.1.1.6,187,-0.120,-0.120,-0.120,0.000,0.000,0.000
1641207983038844160,2022-01-03-11:06:23,10.1.1.6,178,-0.110,-0.110,-0.110,0.000,0.000,0.000
1641207983247812096,2022-01-03-11:06:23,10.1.1.6,187,-0.100,-0.100,-0.100,0.000,0.000,0.000
1641207983447869952,2022-01-03-11:06:23,10.1.1.6,186,-0.090,-0.090,-0.090,0.000,0.000,0.000
1641207983648086016,2022-01-03-11:06:23,10.1.1.6,185,-0.080,-0.080,-0.080,0.000,0.000,0.000
1641207983848620800,2022-01-03-11:06:23,10.1.1.6,185,-0.070,-0.070,-0.070,0.000,0.000,0.000
1641207984048961024,2022-01-03-11:06:24,10.1.1.6,184,-0.060,-0.060,-0.060,0.000,0.000,0.000
1641207984249427200,2022-01-03-11:06:24,10.1.1.6,184,-0.050,-0.050,-0.050,0.000,0.000,0.000
1641207984851904000,2022-01-03-11:06:24,10.1.1.6,184,-0.020,-0.020,-0.020,0.000,0.000,0.000
1641207985050326016,2022-01-03-11:06:25,10.1.1.6,179,-0.010,-0.010,-0.010,0.000,0.000,0.000
1641207985255193088,2022-01-03-11:06:25,10.1.1.6,183,-0.000,-0.000,-0.000,0.000,0.000,0.000
1641207985452465920,2022-01-03-11:06:25,10.1.1.6,179,-0.010,-0.010,-0.010,0.000,0.000,0.000
1641207985675076864,2022-01-03-11:06:25,10.1.1.6,200,-0.020,-0.020,-0.020,0.000,0.000,0.000
1641207985871432960,2022-01-03-11:06:25,10.1.1.6,196,-0.030,-0.030,-0.030,0.000,0.000,0.000
1641207986072748800,2022-01-03-11:06:26,10.1.1.6,196,-0.040,-0.040,-0.040,0.000,0.000,0.000
1641207986272073984,2022-01-03-11:06:26,10.1.1.6,195,-0.050,-0.050,-0.050,0.000,0.000,0.000
1641207986472076800,2022-01-03-11:06:26,10.1.1.6,194,-0.060,-0.060,-0.060,0.000,0.000,0.000
1641207986672324864,2022-01-03-11:06:26,10.1.1.6,194,-0.070,-0.070,-0.070,0.000,0.000,0.000
1641207986871961088,2022-01-03-11:06:26,10.1.1.6,192,-0.080,-0.080,-0.080,0.000,0.000,0.000
1641207987072526080,2022-01-03-11:06:27,10.1.1.6,192,-0.090,-0.090,-0.090,0.000,0.000,0.000
1641207987262521088,2022-01-03-11:06:27,10.1.1.6,182,-0.100,-0.100,-0.100,0.000,0.000,0.000
1641207987472903936,2022-01-03-11:06:27,10.1.1.6,191,-0.110,-0.110,-0.110,0.000,0.000,0.000
1641207987673022976,2022-01-03-11:06:27,10.1.1.6,190,-0.120,-0.120,-0.120,0.000,0.000,0.000
1641207988077254144,2022-01-03-11:06:28,10.1.1.6,194,-0.140,-0.140,-0.140,0.000,0.000,0.000
1641207988472486144,2022-01-03-11:06:28,10.1.1.6,188,-0.160,-0.160,-0.160,0.000,0.000,0.000
1641207988673559808,2022-01-03-11:06:28,10.1.1.6,187,-0.170,-0.170,-0.170,0.000,0.000,0.000
1641207988872795136,2022-01-03-11:06:28,10.1.1.6,186,-0.180,-0.180,-0.180,0.000,0.000,0.000
1641207989074296064,2022-01-03-11:06:29,10.1.1.6,187,-0.190,-0.190,-0.190,0.000,0.000,0.000
1641207989272646912,2022-01-03-11:06:29,10.1.1.6,185,-0.200,-0.200,-0.200,0.000,0.000,0.000
1641207989474541824,2022-01-03-11:06:29,10.1.1.6,186,-0.210,-0.210,-0.210,0.000,0.000,0.000
1641207989672583168,2022-01-03-11:06:29,10.1.1.6,183,-0.220,-0.220,-0.220,0.000,0.000,0.000
1641207989872723968,2022-01-03-11:06:29,10.1.1.6,183,-0.230,-0.230,-0.230,0.000,0.000,0.000
1641207990072606208,2022-01-03-11:06:30,10.1.1.6,182,-0.240,-0.240,-0.240,0.000,0.000,0.000
1641207990272748032,2022-01-03-11:06:30,10.1.1.6,182,-0.250,-0.250,-0.250,0.000,0.000,0.000
1641207990472520192,2022-01-03-11:06:30,10.1.1.6,181,-0.260,-0.260,-0.260,0.000,0.000,0.000
1641207990672467968,2022-01-03-11:06:30,10.1.1.6,180,-0.270,-0.270,-0.270,0.000,0.000,0.000
1641207990872730880,2022-01-03-11:06:30,10.1.1.6,180,-0.280,-0.280,-0.280,0.000,0.000,0.000
1641207991092598016,2022-01-03-11:06:31,10.1.1.6,199,-0.290,-0.290,-0.290,0.000,0.000,0.000
1641207991291933184,2022-01-03-11:06:31,10.1.1.6,198,-0.300,-0.300,-0.300,0.000,0.000,0.000
1641207991492971776,2022-01-03-11:06:31,10.1.1.6,198,-0.310,-0.310,-0.310,0.000,0.000,0.000
1641207991693039872,2022-01-03-11:06:31,10.1.1.6,197,-0.320,-0.320,-0.320,0.000,0.000,0.000
1641207991894875904,2022-01-03-11:06:31,10.1.1.6,199,-0.330,-0.330,-0.330,0.000,0.000,0.000
1641207992091933952,2022-01-03-11:06:32,10.1.1.6,195,-0.340,-0.340,-0.340,0.000,0.000,0.000
1641207992292404992,2022-01-03-11:06:32,10.1.1.6,194,-0.350,-0.350,-0.350,0.000,0.000,0.000
1641207992491354112,2022-01-03-11:06:32,10.1.1.6,193,-0.360,-0.360,-0.360,0.000,0.000,0.000
1641207992691332096,2022-01-03-11:06:32,10.1.1.6,193,-0.370,-0.370,-0.370,0.000,0.000,0.000
1641207992884328960,2022-01-03-11:06:32,10.1.1.6,185,-0.380,-0.380,-0.380,0.000,0.000,0.000
1641207993091283200,2022-01-03-11:06:33,10.1.1.6,191,-0.390,-0.390,-0.390,0.000,0.000,0.000
1641207993291302912,2022-01-03-11:06:33,10.1.1.6,191,-0.400,-0.400,-0.400,0.000,0.000,0.000
1641207993491516160,2022-01-03-11:06:33,10.1.1.6,190,-0.410,-0.410,-0.410,0.000,0.000,0.000
1641207993681513984,2022-01-03-11:06:33,10.1.1.6,179,-0.420,-0.420,-0.420,0.000,0.000,0.000
1641207993890736128,2022-01-03-11:06:33,10.1.1.6,188,-0.430,-0.430,-0.430,0.000,0.000,0.000
1641207994090117888,2022-01-03-11:06:34,10.1.1.6,187,-0.440,-0.440,-0.440,0.000,0.000,0.000
1641207994300425984,2022-01-03-11:06:34,10.1.1.6,196,-0.450,-0.450,-0.450,0.000,0.000,0.000
1641207994691203072,2022-01-03-11:06:34,10.1.1.6,186,-0.470,-0.470,-0.470,0.000,0.000,0.000
1641207994890404096,2022-01-03-11:06:34,10.1.1.6,184,-0.480,-0.480,-0.480,0.000,0.000,0.000
1641207995089300992,2022-01-03-11:06:35,10.1.1.6,183,-0.490,-0.490,-0.490,0.000,0.000,0.000
1641207995289449984,2022-01-03-11:06:35,10.1.1.6,182,-0.480,-0.480,-0.480,0.000,0.000,0.000
1641207995489569792,2022-01-03-11:06:35,10.1.1.6,182,-0.470,-0.470,-0.470,0.000,0.000,0.000
1641207995689286912,2022-01-03-11:06:35,10.1.1.6,181,-0.460,-0.460,-0.460,0.000,0.000,0.000
1641207996088558848,2022-01-03-11:06:36,10.1.1.6,179,-0.440,-0.440,-0.440,0.000,0.000,0.000
1641207996308460032,2022-01-03-11:06:36,10.1.1.6,199,-0.430,-0.430,-0.430,0.000,0.000,0.000
1641207996488076032,2022-01-03-11:06:36,10.1.1.6,178,-0.420,-0.420,-0.420,0.000,0.000,0.000
1641207996691556096,2022-01-03-11:06:36,10.1.1.6,180,-0.410,-0.410,-0.410,0.000,0.000,0.000
1641207996900371968,2022-01-03-11:06:36,10.1.1.6,188,-0.400,-0.400,-0.400,0.000,0.000,0.000
1641207997087186944,2022-01-03-11:06:37,10.1.1.6,175,-0.390,-0.390,-0.390,0.000,0.000,0.000
1641207997287127040,2022-01-03-11:06:37,10.1.1.6,174,-0.380,-0.380,-0.380,0.000,0.000,0.000
1641207997509735936,2022-01-03-11:06:37,10.1.1.6,196,-0.370,-0.370,-0.370,0.000,0.000,0.000
1641207997706757120,2022-01-03-11:06:37,10.1.1.6,193,-0.360,-0.360,-0.360,0.000,0.000,0.000
1641207997906776832,2022-01-03-11:06:37,10.1.1.6,192,-0.350,-0.350,-0.350,0.000,0.000,0.000
1641207998106056960,2022-01-03-11:06:38,10.1.1.6,190,-0.340,-0.340,-0.340,0.000,0.000,0.000
1641207998306147072,2022-01-03-11:06:38,10.1.1.6,190,-0.330,-0.330,-0.330,0.000,0.000,0.000
1641207998505959936,2022-01-03-11:06:38,10.1.1.6,188,-0.320,-0.320,-0.320,0.000,0.000,0.000
1641207998705317120,2022-01-03-11:06:38,10.1.1.6,187,-0.310,-0.310,-0.310,0.000,0.000,0.000
1641207998905276160,2022-01-03-11:06:38,10.1.1.6,187,-0.300,-0.300,-0.300,0.000,0.000,0.000
1641207999106183168,2022-01-03-11:06:39,10.1.1.6,187,-0.290,-0.290,-0.290,0.000,0.000,0.000
1641207999304369920,2022-01-03-11:06:39,10.1.1.6,184,-0.280,-0.280,-0.280,0.000,0.000,0.000
1641207999504587008,2022-01-03-11:06:39,10.1.1.6,182,-0.270,-0.270,-0.270,0.000,0.000,0.000
1641207999704541952,2022-01-03-11:06:39,10.1.1.6,182,-0.260,-0.260,-0.260,0.000,0.000,0.000
1641207999904473088,2022-01-03-11:06:39,10.1.1.6,181,-0.250,-0.250,-0.250,0.000,0.000,0.000
1641208000103625984,2022-01-03-11:06:40,10.1.1.6,180,-0.240,-0.240,-0.240,0.000,0.000,0.000
1641208000306288896,2022-01-03-11:06:40,10.1.1.6,182,-0.230,-0.230,-0.230,0.000,0.000,0.000
1641208000503357952,2022-01-03-11:06:40,10.1.1.6,178,-0.220,-0.220,-0.220,0.000,0.000,0.000
1641208000702827008,2022-01-03-11:06:40,10.1.1.6,175,-0.210,-0.210,-0.210,0.000,0.000,0.000
1641208000904476928,2022-01-03-11:06:40,10.1.1.6,176,-0.200,-0.200,-0.200,0.000,0.000,0.000
1641208001122210048,2022-01-03-11:06:41,10.1.1.6,191,-0.190,-0.190,-0.190,0.000,0.000,0.000
1641208001312733952,2022-01-03-11:06:41,10.1.1.6,170,-0.180,-0.180,-0.180,0.000,0.000,0.000
1641208001523948800,2022-01-03-11:06:41,10.1.1.6,181,-0.170,-0.170,-0.170,0.000,0.000,0.000
1641208001721779968,2022-01-03-11:06:41,10.1.1.6,178,-0.160,-0.160,-0.160,0.000,0.000,0.000
1641208001922971904,2022-01-03-11:06:41,10.1.1.6,178,-0.150,-0.150,-0.150,0.000,0.000,0.000
1641208002123023872,2022-01-03-11:06:42,10.1.1.6,177,-0.140,-0.140,-0.140,0.000,0.000,0.000
1641208002341056000,2022-01-03-11:06:42,10.1.1.6,187,-0.130,-0.130,-0.130,0.000,0.000,0.000
1641208002541025024,2022-01-03-11:06:42,10.1.1.6,184,-0.120,-0.120,-0.120,0.000,0.000,0.000
1641208002741036800,2022-01-03-11:06:42,10.1.1.6,182,-0.110,-0.110,-0.110,0.000,0.000,0.000
1641208002939706112,2022-01-03-11:06:42,10.1.1.6,181,-0.100,-0.100,-0.100,0.000,0.000,0.000
1641208003145068032,2022-01-03-11:06:43,10.1.1.6,184,-0.090,-0.090,-0.090,0.000,0.000,0.000
1641208003339719936,2022-01-03-11:06:43,10.1.1.6,176,-0.080,-0.080,-0.080,0.000,0.000,0.000
1641208003539887872,2022-01-03-11:06:43,10.1.1.6,175,-0.070,-0.070,-0.070,0.000,0.000,0.000
1641208003738588928,2022-01-03-11:06:43,10.1.1.6,173,-0.060,-0.060,-0.060,0.000,0.000,0.000
1641208003938393088,2022-01-03-11:06:43,10.1.1.6,172,-0.050,-0.050,-0.050,0.000,0.000,0.000
1641208004139179008,2022-01-03-11:06:44,10.1.1.6,172,-0.040,-0.040,-0.040,0.000,0.000,0.000
1641208004339250944,2022-01-03-11:06:44,10.1.1.6,171,-0.030,-0.030,-0.030,0.000,0.000,0.000
1641208004537655040,2022-01-03-11:06:44,10.1.1.6,168,-0.020,-0.020,-0.020,0.000,0.000,0.000
1641208004747168000,2022-01-03-11:06:44,10.1.1.6,177,-0.010,-0.010,-0.010,0.000,0.000,0.000
1641208004967917824,2022-01-03-11:06:44,10.1.1.6,193,0.000,0.000,0.000,0.000,0.000,0.000
1641208005161356800,2022-01-03-11:06:45,10.1.1.6,179,-0.010,-0.010,-0.010,0.000,0.000,0.000
1641208005396573184,2022-01-03-11:06:45,10.1.1.6,177,-0.020,-0.020,-0.020,0.000,0.000,0.000
1641208005595891968,2022-01-03-11:06:45,10.1.1.6,176,-0.030,-0.030,-0.030,0.000,0.000,0.000
1641208005795254016,2022-01-03-11:06:45,10.1.1.6,174,-0.040,-0.040,-0.040,0.000,0.000,0.000
1641208005997023232,2022-01-03-11:06:45,10.1.1.6,174,-0.050,-0.050,-0.050,0.000,0.000,0.000
1641208006195715840,2022-01-03-11:06:46,10.1.1.6,173,-0.060,-0.060,-0.060,0.000,0.000,0.000
1641208006394565120,2022-01-03-11:06:46,10.1.1.6,171,-0.070,-0.070,-0.070,0.000,0.000,0.000
1641208006594786816,2022-01-03-11:06:46,10.1.1.6,170,-0.080,-0.080,-0.080,0.000,0.000,0.000
1641208006794281984,2022-01-03-11:06:46,10.1.1.6,168,-0.090,-0.090,-0.090,0.000,0.000,0.000
1641208006994630144,2022-01-03-11:06:46,10.1.1.6,167,-0.100,-0.100,-0.100,0.000,0.000,0.000
1641208007205857024,2022-01-03-11:06:47,10.1.1.6,178,-0.110,-0.110,-0.110,0.000,0.000,0.000
1641208007397885952,2022-01-03-11:06:47,10.1.1.6,169,-0.120,-0.120,-0.120,0.000,0.000,0.000
1641208007593003008,2022-01-03-11:06:47,10.1.1.6,163,-0.130,-0.130,-0.130,0.000,0.000,0.000
1641208007803147008,2022-01-03-11:06:47,10.1.1.6,172,-0.140,-0.140,-0.140,0.000,0.000,0.000
1641208007993347840,2022-01-03-11:06:47,10.1.1.6,162,-0.150,-0.150,-0.150,0.000,0.000,0.000
1641208008191778048,2022-01-03-11:06:48,10.1.1.6,160,-0.160,-0.160,-0.160,0.000,0.000,0.000
1641208008391508992,2022-01-03-11:06:48,10.1.1.6,159,-0.170,-0.170,-0.170,0.000,0.000,0.000
1641208008611545088,2022-01-03-11:06:48,10.1.1.6,178,-0.180,-0.180,-0.180,0.000,0.000,0.000
1641208008815145984,2022-01-03-11:06:48,10.1.1.6,181,-0.190,-0.190,-0.190,0.000,0.000,0.000
1641208009010543104,2022-01-03-11:06:49,10.1.1.6,176,-0.200,-0.200,-0.200,0.000,0.000,0.000
1641208009202110976,2022-01-03-11:06:49,10.1.1.6,166,-0.210,-0.210,-0.210,0.000,0.000,0.000
1641208009411785984,2022-01-03-11:06:49,10.1.1.6,173,-0.220,-0.220,-0.220,0.000,0.000,0.000
1641208009609711872,2022-01-03-11:06:49,10.1.1.6,171,-0.230,-0.230,-0.230,0.000,0.000,0.000
1641208009809387008,2022-01-03-11:06:49,10.1.1.6,170,-0.240,-0.240,-0.240,0.000,0.000,0.000
1641208010009555200,2022-01-03-11:06:50,10.1.1.6,170,-0.250,-0.250,-0.250,0.000,0.000,0.000
1641208010209860096,2022-01-03-11:06:50,10.1.1.6,170,-0.260,-0.260,-0.260,0.000,0.000,0.000
1641208010411875072,2022-01-03-11:06:50,10.1.1.6,170,-0.270,-0.270,-0.270,0.000,0.000,0.000
1641208010603055872,2022-01-03-11:06:50,10.1.1.6,162,-0.280,-0.280,-0.280,0.000,0.000,0.000
1641208010813298944,2022-01-03-11:06:50,10.1.1.6,171,-0.290,-0.290,-0.290,0.000,0.000,0.000
1641208011034468864,2022-01-03-11:06:51,10.1.1.6,191,-0.300,-0.300,-0.300,0.000,0.000,0.000
1641208011214792960,2022-01-03-11:06:51,10.1.1.6,169,-0.310,-0.310,-0.310,0.000,0.000,0.000
1641208011416312064,2022-01-03-11:06:51,10.1.1.6,169,-0.320,-0.320,-0.320,0.000,0.000,0.000
1641208011617000192,2022-01-03-11:06:51,10.1.1.6,170,-0.330,-0.330,-0.330,0.000,0.000,0.000
1641208011817712896,2022-01-03-11:06:51,10.1.1.6,170,-0.340,-0.340,-0.340,0.000,0.000,0.000
1641208012020669952,2022-01-03-11:06:52,10.1.1.6,172,-0.350,-0.350,-0.350,0.000,0.000,0.000
1641208012219412992,2022-01-03-11:06:52,10.1.1.6,170,-0.360,-0.360,-0.360,0.000,0.000,0.000
1641208012440593920,2022-01-03-11:06:52,10.1.1.6,191,-0.370,-0.370,-0.370,0.000,0.000,0.000
1641208012620645888,2022-01-03-11:06:52,10.1.1.6,170,-0.380,-0.380,-0.380,0.000,0.000,0.000
1641208012823025920,2022-01-03-11:06:52,10.1.1.6,172,-0.390,-0.390,-0.390,0.000,0.000,0.000
1641208013042097152,2022-01-03-11:06:53,10.1.1.6,191,-0.400,-0.400,-0.400,0.000,0.000,0.000
1641208013244592896,2022-01-03-11:06:53,10.1.1.6,192,-0.410,-0.410,-0.410,0.000,0.000,0.000
1641208013433559808,2022-01-03-11:06:53,10.1.1.6,181,-0.420,-0.420,-0.420,0.000,0.000,0.000
1641208013624086016,2022-01-03-11:06:53,10.1.1.6,171,-0.430,-0.430,-0.430,0.000,0.000,0.000
1641208013845330944,2022-01-03-11:06:53,10.1.1.6,192,-0.440,-0.440,-0.440,0.000,0.000,0.000
1641208014037830144,2022-01-03-11:06:54,10.1.1.6,183,-0.450,-0.450,-0.450,0.000,0.000,0.000
1641208014246589952,2022-01-03-11:06:54,10.1.1.6,192,-0.460,-0.460,-0.460,0.000,0.000,0.000
1641208014447022080,2022-01-03-11:06:54,10.1.1.6,191,-0.470,-0.470,-0.470,0.000,0.000,0.000
1641208014647234816,2022-01-03-11:06:54,10.1.1.6,191,-0.480,-0.480,-0.480,0.000,0.000,0.000
1641208014847068160,2022-01-03-11:06:54,10.1.1.6,190,-0.490,-0.490,-0.490,0.000,0.000,0.000
1641208015048023040,2022-01-03-11:06:55,10.1.1.6,191,-0.480,-0.480,-0.480,0.000,0.000,0.000
1641208015238862080,2022-01-03-11:06:55,10.1.1.6,180,-0.470,-0.470,-0.470,0.000,0.000,0.000
1641208015448237824,2022-01-03-11:06:55,10.1.1.6,188,-0.460,-0.460,-0.460,0.000,0.000,0.000
1641208015645270016,2022-01-03-11:06:55,10.1.1.6,184,-0.450,-0.450,-0.450,0.000,0.000,0.000
1641208015849922816,2022-01-03-11:06:55,10.1.1.6,188,-0.440,-0.440,-0.440,0.000,0.000,0.000
1641208016053422848,2022-01-03-11:06:56,10.1.1.6,191,-0.430,-0.430,-0.430,0.000,0.000,0.000
1641208016250082048,2022-01-03-11:06:56,10.1.1.6,182,-0.420,-0.420,-0.420,0.000,0.000,0.000
1641208016471129856,2022-01-03-11:06:56,10.1.1.6,194,-0.410,-0.410,-0.410,0.000,0.000,0.000
1641208016670476032,2022-01-03-11:06:56,10.1.1.6,193,-0.400,-0.400,-0.400,0.000,0.000,0.000
1641208016870651904,2022-01-03-11:06:56,10.1.1.6,193,-0.390,-0.390,-0.390,0.000,0.000,0.000
1641208017071089152,2022-01-03-11:06:57,10.1.1.6,190,-0.380,-0.380,-0.380,0.000,0.000,0.000
1641208017272488960,2022-01-03-11:06:57,10.1.1.6,191,-0.370,-0.370,-0.370,0.000,0.000,0.000
1641208017471230976,2022-01-03-11:06:57,10.1.1.6,188,-0.360,-0.360,-0.360,0.000,0.000,0.000
1641208017671430144,2022-01-03-11:06:57,10.1.1.6,188,-0.350,-0.350,-0.350,0.000,0.000,0.000
1641208017872940032,2022-01-03-11:06:57,10.1.1.6,188,-0.340,-0.340,-0.340,0.000,0.000,0.000
1641208018072210176,2022-01-03-11:06:58,10.1.1.6,187,-0.330,-0.330,-0.330,0.000,0.000,0.000
1641208018273324032,2022-01-03-11:06:58,10.1.1.6,187,-0.320,-0.320,-0.320,0.000,0.000,0.000
1641208018673062144,2022-01-03-11:06:58,10.1.1.6,185,-0.300,-0.300,-0.300,0.000,0.000,0.000
1641208018873921024,2022-01-03-11:06:58,10.1.1.6,186,-0.290,-0.290,-0.290,0.000,0.000,0.000
1641208019073373184,2022-01-03-11:06:59,10.1.1.6,184,-0.280,-0.280,-0.280,0.000,0.000,0.000
1641208019474219008,2022-01-03-11:06:59,10.1.1.6,183,-0.260,-0.260,-0.260,0.000,0.000,0.000
1641208019683482880,2022-01-03-11:06:59,10.1.1.6,191,-0.250,-0.250,-0.250,0.000,0.000,0.000
1641208020093403136,2022-01-03-11:07:00,10.1.1.6,200,-0.230,-0.230,-0.230,0.000,0.000,0.000
1641208020284046848,2022-01-03-11:07:00,10.1.1.6,190,-0.220,-0.220,-0.220,0.000,0.000,0.000
1641208020495176192,2022-01-03-11:07:00,10.1.1.6,200,-0.210,-0.210,-0.210,0.000,0.000,0.000
1641208020697107968,2022-01-03-11:07:00,10.1.1.6,201,-0.200,-0.200,-0.200,0.000,0.000,0.000
1641208020894816000,2022-01-03-11:07:00,10.1.1.6,196,-0.190,-0.190,-0.190,0.000,0.000,0.000
1641208021098046976,2022-01-03-11:07:01,10.1.1.6,200,-0.180,-0.180,-0.180,0.000,0.000,0.000
1641208021293772032,2022-01-03-11:07:01,10.1.1.6,195,-0.170,-0.170,-0.170,0.000,0.000,0.000
1641208021494937856,2022-01-03-11:07:01,10.1.1.6,195,-0.160,-0.160,-0.160,0.000,0.000,0.000
1641208021686978048,2022-01-03-11:07:01,10.1.1.6,187,-0.150,-0.150,-0.150,0.000,0.000,0.000
1641208021892980224,2022-01-03-11:07:01,10.1.1.6,192,-0.140,-0.140,-0.140,0.000,0.000,0.000
1641208022093321984,2022-01-03-11:07:02,10.1.1.6,192,-0.130,-0.130,-0.130,0.000,0.000,0.000
1641208022288440064,2022-01-03-11:07:02,10.1.1.6,187,-0.120,-0.120,-0.120,0.000,0.000,0.000
1641208022494842112,2022-01-03-11:07:02,10.1.1.6,191,-0.110,-0.110,-0.110,0.000,0.000,0.000
1641208022693639936,2022-01-03-11:07:02,10.1.1.6,191,-0.100,-0.100,-0.100,0.000,0.000,0.000
1641208022893296896,2022-01-03-11:07:02,10.1.1.6,189,-0.090,-0.090,-0.090,0.000,0.000,0.000
1641208023097349888,2022-01-03-11:07:03,10.1.1.6,192,-0.080,-0.080,-0.080,0.000,0.000,0.000
1641208023293157120,2022-01-03-11:07:03,10.1.1.6,188,-0.070,-0.070,-0.070,0.000,0.000,0.000
1641208023492701952,2022-01-03-11:07:03,10.1.1.6,185,-0.060,-0.060,-0.060,0.000,0.000,0.000
1641208023692800000,2022-01-03-11:07:03,10.1.1.6,184,-0.050,-0.050,-0.050,0.000,0.000,0.000
1641208024293370112,2022-01-03-11:07:04,10.1.1.6,181,-0.020,-0.020,-0.020,0.000,0.000,0.000
1641208024512918016,2022-01-03-11:07:04,10.1.1.6,199,-0.010,-0.010,-0.010,0.000,0.000,0.000
1641208024711781120,2022-01-03-11:07:04,10.1.1.6,197,0.000,0.000,0.000,0.000,0.000,0.000
1641208024911964928,2022-01-03-11:07:04,10.1.1.6,197,-0.010,-0.010,-0.010,0.000,0.000,0.000
1641208025116594176,2022-01-03-11:07:05,10.1.1.6,201,-0.020,-0.020,-0.020,0.000,0.000,0.000
1641208025312603904,2022-01-03-11:07:05,10.1.1.6,195,-0.030,-0.030,-0.030,0.000,0.000,0.000
1641208025512413952,2022-01-03-11:07:05,10.1.1.6,193,-0.040,-0.040,-0.040,0.000,0.000,0.000
1641208025706424832,2022-01-03-11:07:05,10.1.1.6,187,-0.050,-0.050,-0.050,0.000,0.000,0.000
1641208025911155968,2022-01-03-11:07:05,10.1.1.6,190,-0.060,-0.060,-0.060,0.000,0.000,0.000
1641208026112897024,2022-01-03-11:07:06,10.1.1.6,191,-0.070,-0.070,-0.070,0.000,0.000,0.000
1641208026311297024,2022-01-03-11:07:06,10.1.1.6,189,-0.080,-0.080,-0.080,0.000,0.000,0.000
1641208026510737920,2022-01-03-11:07:06,10.1.1.6,187,-0.090,-0.090,-0.090,0.000,0.000,0.000
1641208026910592000,2022-01-03-11:07:06,10.1.1.6,186,-0.110,-0.110,-0.110,0.000,0.000,0.000
1641208027110491136,2022-01-03-11:07:07,10.1.1.6,185,-0.120,-0.120,-0.120,0.000,0.000,0.000
1641208027311315968,2022-01-03-11:07:07,10.1.1.6,184,-0.130,-0.130,-0.130,0.000,0.000,0.000
1641208027509238016,2022-01-03-11:07:07,10.1.1.6,182,-0.140,-0.140,-0.140,0.000,0.000,0.000
1641208027709353984,2022-01-03-11:07:07,10.1.1.6,182,-0.150,-0.150,-0.150,0.000,0.000,0.000
1641208027912379904,2022-01-03-11:07:07,10.1.1.6,182,-0.160,-0.160,-0.160,0.000,0.000,0.000
1641208028121007872,2022-01-03-11:07:08,10.1.1.6,193,-0.170,-0.170,-0.170,0.000,0.000,0.000
1641208028509777920,2022-01-03-11:07:08,10.1.1.6,180,-0.190,-0.190,-0.190,0.000,0.000,0.000
1641208028709698816,2022-01-03-11:07:08,10.1.1.6,178,-0.200,-0.200,-0.200,0.000,0.000,0.000
1641208028929724928,2022-01-03-11:07:08,10.1.1.6,195,-0.210,-0.210,-0.210,0.000,0.000,0.000
1641208029128954880,2022-01-03-11:07:09,10.1.1.6,194,-0.220,-0.220,-0.220,0.000,0.000,0.000
1641208029334512896,2022-01-03-11:07:09,10.1.1.6,197,-0.230,-0.230,-0.230,0.000,0.000,0.000
1641208029527446016,2022-01-03-11:07:09,10.1.1.6,189,-0.240,-0.240,-0.240,0.000,0.000,0.000
1641208029727886080,2022-01-03-11:07:09,10.1.1.6,189,-0.250,-0.250,-0.250,0.000,0.000,0.000
1641208029926692864,2022-01-03-11:07:09,10.1.1.6,187,-0.260,-0.260,-0.260,0.000,0.000,0.000
1641208030118552064,2022-01-03-11:07:10,10.1.1.6,178,-0.270,-0.270,-0.270,0.000,0.000,0.000
1641208030326353920,2022-01-03-11:07:10,10.1.1.6,182,-0.280,-0.280,-0.280,0.000,0.000,0.000
1641208030528114944,2022-01-03-11:07:10,10.1.1.6,182,-0.290,-0.290,-0.290,0.000,0.000,0.000
1641208030725920000,2022-01-03-11:07:10,10.1.1.6,180,-0.300,-0.300,-0.300,0.000,0.000,0.000
1641208030926144000,2022-01-03-11:07:10,10.1.1.6,179,-0.310,-0.310,-0.310,0.000,0.000,0.000
1641208031127316992,2022-01-03-11:07:11,10.1.1.6,178,-0.320,-0.320,-0.320,0.000,0.000,0.000
1641208031326297088,2022-01-03-11:07:11,10.1.1.6,175,-0.330,-0.330,-0.330,0.000,0.000,0.000
1641208031525294080,2022-01-03-11:07:11,10.1.1.6,173,-0.340,-0.340,-0.340,0.000,0.000,0.000
1641208031725922048,2022-01-03-11:07:11,10.1.1.6,173,-0.350,-0.350,-0.350,0.000,0.000,0.000
1641208031944442880,2022-01-03-11:07:11,10.1.1.6,190,-0.360,-0.360,-0.360,0.000,0.000,0.000
1641208032144115968,2022-01-03-11:07:12,10.1.1.6,189,-0.370,-0.370,-0.370,0.000,0.000,0.000
1641208032334916096,2022-01-03-11:07:12,10.1.1.6,179,-0.380,-0.380,-0.380,0.000,0.000,0.000
1641208032549097984,2022-01-03-11:07:12,10.1.1.6,193,-0.390,-0.390,-0.390,0.000,0.000,0.000
1641208032745167872,2022-01-03-11:07:12,10.1.1.6,187,-0.400,-0.400,-0.400,0.000,0.000,0.000
1641208032943314944,2022-01-03-11:07:12,10.1.1.6,184,-0.410,-0.410,-0.410,0.000,0.000,0.000
1641208033142838016,2022-01-03-11:07:13,10.1.1.6,180,-0.420,-0.420,-0.420,0.000,0.000,0.000
1641208033342540032,2022-01-03-11:07:13,10.1.1.6,178,-0.430,-0.430,-0.430,0.000,0.000,0.000
1641208033564275968,2022-01-03-11:07:13,10.1.1.6,198,-0.440,-0.440,-0.440,0.000,0.000,0.000
1641208033743557888,2022-01-03-11:07:13,10.1.1.6,173,-0.450,-0.450,-0.450,0.000,0.000,0.000
1641208033941946112,2022-01-03-11:07:13,10.1.1.6,171,-0.460,-0.460,-0.460,0.000,0.000,0.000
1641208034142574080,2022-01-03-11:07:14,10.1.1.6,171,-0.470,-0.470,-0.470,0.000,0.000,0.000
1641208034341553920,2022-01-03-11:07:14,10.1.1.6,170,-0.480,-0.480,-0.480,0.000,0.000,0.000
1641208034541539072,2022-01-03-11:07:14,10.1.1.6,169,-0.490,-0.490,-0.490,0.000,0.000,0.000
1641208034760659968,2022-01-03-11:07:14,10.1.1.6,187,-0.480,-0.480,-0.480,0.000,0.000,0.000
1641208034961852160,2022-01-03-11:07:14,10.1.1.6,187,-0.470,-0.470,-0.470,0.000,0.000,0.000
1641208035161058816,2022-01-03-11:07:15,10.1.1.6,185,-0.460,-0.460,-0.460,0.000,0.000,0.000
1641208035359831040,2022-01-03-11:07:15,10.1.1.6,182,-0.450,-0.450,-0.450,0.000,0.000,0.000
1641208035559150848,2022-01-03-11:07:15,10.1.1.6,180,-0.440,-0.440,-0.440,0.000,0.000,0.000
1641208035759790848,2022-01-03-11:07:15,10.1.1.6,180,-0.430,-0.430,-0.430,0.000,0.000,0.000
1641208035948823808,2022-01-03-11:07:15,10.1.1.6,168,-0.420,-0.420,-0.420,0.000,0.000,0.000
1641208036158864128,2022-01-03-11:07:16,10.1.1.6,177,-0.410,-0.410,-0.410,0.000,0.000,0.000
1641208036360250880,2022-01-03-11:07:16,10.1.1.6,177,-0.400,-0.400,-0.400,0.000,0.000,0.000
1641208036558644992,2022-01-03-11:07:16,10.1.1.6,174,-0.390,-0.390,-0.390,0.000,0.000,0.000
1641208036758876928,2022-01-03-11:07:16,10.1.1.6,172,-0.380,-0.380,-0.380,0.000,0.000,0.000
1641208036957808128,2022-01-03-11:07:16,10.1.1.6,171,-0.370,-0.370,-0.370,0.000,0.000,0.000
1641208037158188032,2022-01-03-11:07:17,10.1.1.6,170,-0.360,-0.360,-0.360,0.000,0.000,0.000
1641208037357896960,2022-01-03-11:07:17,10.1.1.6,168,-0.350,-0.350,-0.350,0.000,0.000,0.000
1641208037560882176,2022-01-03-11:07:17,10.1.1.6,170,-0.340,-0.340,-0.340,0.000,0.000,0.000
1641208037756353024,2022-01-03-11:07:17,10.1.1.6,165,-0.330,-0.330,-0.330,0.000,0.000,0.000
1641208037978040832,2022-01-03-11:07:17,10.1.1.6,184,-0.320,-0.320,-0.320,0.000,0.000,0.000
1641208038176598016,2022-01-03-11:07:18,10.1.1.6,180,-0.310,-0.310,-0.310,0.000,0.000,0.000
1641208038377180160,2022-01-03-11:07:18,10.1.1.6,178,-0.300,-0.300,-0.300,0.000,0.000,0.000
1641208038575883008,2022-01-03-11:07:18,10.1.1.6,174,-0.290,-0.290,-0.290,0.000,0.000,0.000
1641208038765292032,2022-01-03-11:07:18,10.1.1.6,163,-0.280,-0.280,-0.280,0.000,0.000,0.000
1641208038974477056,2022-01-03-11:07:18,10.1.1.6,172,-0.270,-0.270,-0.270,0.000,0.000,0.000
1641208039174621952,2022-01-03-11:07:19,10.1.1.6,171,-0.260,-0.260,-0.260,0.000,0.000,0.000
1641208039373515008,2022-01-03-11:07:19,10.1.1.6,168,-0.250,-0.250,-0.250,0.000,0.000,0.000
1641208039573278976,2022-01-03-11:07:19,10.1.1.6,167,-0.240,-0.240,-0.240,0.000,0.000,0.000
1641208039797332992,2022-01-03-11:07:19,10.1.1.6,190,-0.230,-0.230,-0.230,0.000,0.000,0.000
1641208039972724992,2022-01-03-11:07:19,10.1.1.6,165,-0.220,-0.220,-0.220,0.000,0.000,0.000
1641208040172400896,2022-01-03-11:07:20,10.1.1.6,164,-0.210,-0.210,-0.210,0.000,0.000,0.000
1641208040371815936,2022-01-03-11:07:20,10.1.1.6,163,-0.200,-0.200,-0.200,0.000,0.000,0.000
1641208040571681024,2022-01-03-11:07:20,10.1.1.6,162,-0.190,-0.190,-0.190,0.000,0.000,0.000
1641208040788194816,2022-01-03-11:07:20,10.1.1.6,177,-0.180,-0.180,-0.180,0.000,0.000,0.000
1641208040981338880,2022-01-03-11:07:20,10.1.1.6,171,-0.170,-0.170,-0.170,0.000,0.000,0.000
1641208041171087872,2022-01-03-11:07:21,10.1.1.6,159,-0.160,-0.160,-0.160,0.000,0.000,0.000
1641208041370588928,2022-01-03-11:07:21,10.1.1.6,158,-0.150,-0.150,-0.150,0.000,0.000,0.000
1641208041590612992,2022-01-03-11:07:21,10.1.1.6,177,-0.140,-0.140,-0.140,0.000,0.000,0.000
1641208041790412800,2022-01-03-11:07:21,10.1.1.6,177,-0.130,-0.130,-0.130,0.000,0.000,0.000
1641208041990003200,2022-01-03-11:07:21,10.1.1.6,175,-0.120,-0.120,-0.120,0.000,0.000,0.000
1641208042189647872,2022-01-03-11:07:22,10.1.1.6,174,-0.110,-0.110,-0.110,0.000,0.000,0.000
1641208042388813056,2022-01-03-11:07:22,10.1.1.6,173,-0.100,-0.100,-0.100,0.000,0.000,0.000
1641208042588944896,2022-01-03-11:07:22,10.1.1.6,172,-0.090,-0.090,-0.090,0.000,0.000,0.000
1641208042788204032,2022-01-03-11:07:22,10.1.1.6,171,-0.080,-0.080,-0.080,0.000,0.000,0.000
1641208042989857792,2022-01-03-11:07:22,10.1.1.6,172,-0.070,-0.070,-0.070,0.000,0.000,0.000
1641208043188880896,2022-01-03-11:07:23,10.1.1.6,171,-0.060,-0.060,-0.060,0.000,0.000,0.000
1641208043389668096,2022-01-03-11:07:23,10.1.1.6,171,-0.050,-0.050,-0.050,0.000,0.000,0.000
1641208043590843904,2022-01-03-11:07:23,10.1.1.6,171,-0.040,-0.040,-0.040,0.000,0.000,0.000
1641208043798214912,2022-01-03-11:07:23,10.1.1.6,178,-0.030,-0.030,-0.030,0.000,0.000,0.000
1641208043993423104,2022-01-03-11:07:23,10.1.1.6,173,-0.020,-0.020,-0.020,0.000,0.000,0.000
1641208044195218944,2022-01-03-11:07:24,10.1.1.6,174,-0.010,-0.010,-0.010,0.000,0.000,0.000
1641208044397207040,2022-01-03-11:07:24,10.1.1.6,176,0.000,0.000,0.000,0.000,0.000,0.000
1641208044599278848,2022-01-03-11:07:24,10.1.1.6,177,-0.010,-0.010,-0.010,0.000,0.000,0.000
1641208044799521024,2022-01-03-11:07:24,10.1.1.6,177,-0.020,-0.020,-0.020,0.000,0.000,0.000
1641208044999800064,2022-01-03-11:07:24,10.1.1.6,177,-0.030,-0.030,-0.030,0.000,0.000,0.000
1641208045204022784,2022-01-03-11:07:25,10.1.1.6,180,-0.040,-0.040,-0.040,0.000,0.000,0.000
1641208045400641792,2022-01-03-11:07:25,10.1.1.6,170,-0.050,-0.050,-0.050,0.000,0.000,0.000
1641208045620379904,2022-01-03-11:07:25,10.1.1.6,189,-0.060,-0.060,-0.060,0.000,0.000,0.000
1641208045805367040,2022-01-03-11:07:25,10.1.1.6,174,-0.070,-0.070,-0.070,0.000,0.000,0.000
1641208046002249984,2022-01-03-11:07:26,10.1.1.6,169,-0.080,-0.080,-0.080,0.000,0.000,0.000
1641208046203112960,2022-01-03-11:07:26,10.1.1.6,170,-0.090,-0.090,-0.090,0.000,0.000,0.000
1641208046422292992,2022-01-03-11:07:26,10.1.1.6,189,-0.100,-0.100,-0.100,0.000,0.000,0.000
1641208046614856960,2022-01-03-11:07:26,10.1.1.6,181,-0.110,-0.110,-0.110,0.000,0.000,0.000
1641208046824155136,2022-01-03-11:07:26,10.1.1.6,190,-0.120,-0.120,-0.120,0.000,0.000,0.000
1641208047024252928,2022-01-03-11:07:27,10.1.1.6,188,-0.130,-0.130,-0.130,0.000,0.000,0.000
1641208047216677888,2022-01-03-11:07:27,10.1.1.6,180,-0.140,-0.140,-0.140,0.000,0.000,0.000
1641208047425427968,2022-01-03-11:07:27,10.1.1.6,188,-0.150,-0.150,-0.150,0.000,0.000,0.000
1641208047632025856,2022-01-03-11:07:27,10.1.1.6,194,-0.160,-0.160,-0.160,0.000,0.000,0.000
1641208047827034880,2022-01-03-11:07:27,10.1.1.6,185,-0.170,-0.170,-0.170,0.000,0.000,0.000
1641208048047184896,2022-01-03-11:07:28,10.1.1.6,183,-0.180,-0.180,-0.180,0.000,0.000,0.000
1641208048247891968,2022-01-03-11:07:28,10.1.1.6,183,-0.190,-0.190,-0.190,0.000,0.000,0.000
1641208048447717888,2022-01-03-11:07:28,10.1.1.6,182,-0.200,-0.200,-0.200,0.000,0.000,0.000
1641208048648598784,2022-01-03-11:07:28,10.1.1.6,182,-0.210,-0.210,-0.210,0.000,0.000,0.000
1641208048852163072,2022-01-03-11:07:28,10.1.1.6,184,-0.220,-0.220,-0.220,0.000,0.000,0.000
1641208049068640000,2022-01-03-11:07:29,10.1.1.6,197,-0.230,-0.230,-0.230,0.000,0.000,0.000
1641208049269192960,2022-01-03-11:07:29,10.1.1.6,194,-0.240,-0.240,-0.240,0.000,0.000,0.000
1641208049461739008,2022-01-03-11:07:29,10.1.1.6,186,-0.250,-0.250,-0.250,0.000,0.000,0.000
1641208049670615040,2022-01-03-11:07:29,10.1.1.6,194,-0.260,-0.260,-0.260,0.000,0.000,0.000
1641208049870366208,2022-01-03-11:07:29,10.1.1.6,192,-0.270,-0.270,-0.270,0.000,0.000,0.000
1641208050070419968,2022-01-03-11:07:30,10.1.1.6,192,-0.280,-0.280,-0.280,0.000,0.000,0.000
1641208050270747904,2022-01-03-11:07:30,10.1.1.6,191,-0.290,-0.290,-0.290,0.000,0.000,0.000
1641208050470705920,2022-01-03-11:07:30,10.1.1.6,190,-0.300,-0.300,-0.300,0.000,0.000,0.000
1641208050671188992,2022-01-03-11:07:30,10.1.1.6,190,-0.310,-0.310,-0.310,0.000,0.000,0.000
1641208050871489024,2022-01-03-11:07:30,10.1.1.6,189,-0.320,-0.320,-0.320,0.000,0.000,0.000
1641208051071846912,2022-01-03-11:07:31,10.1.1.6,188,-0.330,-0.330,-0.330,0.000,0.000,0.000
1641208051271586048,2022-01-03-11:07:31,10.1.1.6,188,-0.340,-0.340,-0.340,0.000,0.000,0.000
1641208051472052992,2022-01-03-11:07:31,10.1.1.6,185,-0.350,-0.350,-0.350,0.000,0.000,0.000
1641208051672171008,2022-01-03-11:07:31,10.1.1.6,184,-0.360,-0.360,-0.360,0.000,0.000,0.000
1641208051873096960,2022-01-03-11:07:31,10.1.1.6,185,-0.370,-0.370,-0.370,0.000,0.000,0.000
1641208052072966144,2022-01-03-11:07:32,10.1.1.6,184,-0.380,-0.380,-0.380,0.000,0.000,0.000
1641208052273684992,2022-01-03-11:07:32,10.1.1.6,185,-0.390,-0.390,-0.390,0.000,0.000,0.000
1641208052672027136,2022-01-03-11:07:32,10.1.1.6,181,-0.410,-0.410,-0.410,0.000,0.000,0.000
1641208052872600064,2022-01-03-11:07:32,10.1.1.6,180,-0.420,-0.420,-0.420,0.000,0.000,0.000
1641208053092472064,2022-01-03-11:07:33,10.1.1.6,198,-0.430,-0.430,-0.430,0.000,0.000,0.000
1641208053492695040,2022-01-03-11:07:33,10.1.1.6,194,-0.450,-0.450,-0.450,0.000,0.000,0.000
1641208053692616960,2022-01-03-11:07:33,10.1.1.6,193,-0.460,-0.460,-0.460,0.000,0.000,0.000
1641208053893995008,2022-01-03-11:07:33,10.1.1.6,192,-0.470,-0.470,-0.470,0.000,0.000,0.000
1641208054107281920,2022-01-03-11:07:34,10.1.1.6,204,-0.480,-0.480,-0.480,0.000,0.000,0.000
1641208054293011968,2022-01-03-11:07:34,10.1.1.6,184,-0.490,-0.490,-0.490,0.000,0.000,0.000
1641208054492861952,2022-01-03-11:07:34,10.1.1.6,183,-0.480,-0.480,-0.480,0.000,0.000,0.000
1641208054892837888,2022-01-03-11:07:34,10.1.1.6,183,-0.460,-0.460,-0.460,0.000,0.000,0.000
1641208055098607104,2022-01-03-11:07:35,10.1.1.6,188,-0.450,-0.450,-0.450,0.000,0.000,0.000
1641208055292502016,2022-01-03-11:07:35,10.1.1.6,181,-0.440,-0.440,-0.440,0.000,0.000,0.000
1641208055494851072,2022-01-03-11:07:35,10.1.1.6,182,-0.430,-0.430,-0.430,0.000,0.000,0.000
1641208055712168960,2022-01-03-11:07:35,10.1.1.6,197,-0.420,-0.420,-0.420,0.000,0.000,0.000
1641208056104195072,2022-01-03-11:07:36,10.1.1.6,188,-0.400,-0.400,-0.400,0.000,0.000,0.000
1641208056312731136,2022-01-03-11:07:36,10.1.1.6,195,-0.390,-0.390,-0.390,0.000,0.000,0.000
1641208056513731840,2022-01-03-11:07:36,10.1.1.6,196,-0.380,-0.380,-0.380,0.000,0.000,0.000
1641208056712656128,2022-01-03-11:07:36,10.1.1.6,194,-0.370,-0.370,-0.370,0.000,0.000,0.000
1641208056912909056,2022-01-03-11:07:36,10.1.1.6,194,-0.360,-0.360,-0.360,0.000,0.000,0.000
1641208057113790976,2022-01-03-11:07:37,10.1.1.6,192,-0.350,-0.350,-0.350,0.000,0.000,0.000
1641208057302619904,2022-01-03-11:07:37,10.1.1.6,181,-0.340,-0.340,-0.340,0.000,0.000,0.000
1641208057511718912,2022-01-03-11:07:37,10.1.1.6,188,-0.330,-0.330,-0.330,0.000,0.000,0.000
1641208057912046080,2022-01-03-11:07:37,10.1.1.6,186,-0.310,-0.310,-0.310,0.000,0.000,0.000
1641208058111315968,2022-01-03-11:07:38,10.1.1.6,185,-0.300,-0.300,-0.300,0.000,0.000,0.000
1641208058313067008,2022-01-03-11:07:38,10.1.1.6,185,-0.290,-0.290,-0.290,0.000,0.000,0.000
1641208058530513920,2022-01-03-11:07:38,10.1.1.6,200,-0.280,-0.280,-0.280,0.000,0.000,0.000
1641208058730616064,2022-01-03-11:07:38,10.1.1.6,197,-0.270,-0.270,-0.270,0.000,0.000,0.000
1641208058920833024,2022-01-03-11:07:38,10.1.1.6,186,-0.260,-0.260,-0.260,0.000,0.000,0.000
1641208059120392960,2022-01-03-11:07:39,10.1.1.6,185,-0.250,-0.250,-0.250,0.000,0.000,0.000
1641208059333280000,2022-01-03-11:07:39,10.1.1.6,197,-0.240,-0.240,-0.240,0.000,0.000,0.000
1641208059520638976,2022-01-03-11:07:39,10.1.1.6,184,-0.230,-0.230,-0.230,0.000,0.000,0.000
1641208059729649920,2022-01-03-11:07:39,10.1.1.6,192,-0.220,-0.220,-0.220,0.000,0.000,0.000
1641208059919506944,2022-01-03-11:07:39,10.1.1.6,181,-0.210,-0.210,-0.210,0.000,0.000,0.000
1641208060134171904,2022-01-03-11:07:40,10.1.1.6,196,-0.200,-0.200,-0.200,0.000,0.000,0.000
1641208060329492992,2022-01-03-11:07:40,10.1.1.6,190,-0.190,-0.190,-0.190,0.000,0.000,0.000
1641208060529701120,2022-01-03-11:07:40,10.1.1.6,190,-0.180,-0.180,-0.180,0.000,0.000,0.000
1641208060719838976,2022-01-03-11:07:40,10.1.1.6,180,-0.170,-0.170,-0.170,0.000,0.000,0.000
1641208060929939968,2022-01-03-11:07:40,10.1.1.6,189,-0.160,-0.160,-0.160,0.000,0.000,0.000
1641208061128638976,2022-01-03-11:07:41,10.1.1.6,187,-0.150,-0.150,-0.150,0.000,0.000,0.000
1641208061328115968,2022-01-03-11:07:41,10.1.1.6,186,-0.140,-0.140,-0.140,0.000,0.000,0.000
1641208061527878912,2022-01-03-11:07:41,10.1.1.6,185,-0.130,-0.130,-0.130,0.000,0.000,0.000
1641208061728153856,2022-01-03-11:07:41,10.1.1.6,185,-0.120,-0.120,-0.120,0.000,0.000,0.000
1641208061928781056,2022-01-03-11:07:41,10.1.1.6,184,-0.110,-0.110,-0.110,0.000,0.000,0.000
1641208062130001920,2022-01-03-11:07:42,10.1.1.6,183,-0.100,-0.100,-0.100,0.000,0.000,0.000
1641208062368097024,2022-01-03-11:07:42,10.1.1.6,184,-0.090,-0.090,-0.090,0.000,0.000,0.000
1641208062588048896,2022-01-03-11:07:42,10.1.1.6,194,-0.080,-0.080,-0.080,0.000,0.000,0.000
1641208062787302912,2022-01-03-11:07:42,10.1.1.6,191,-0.070,-0.070,-0.070,0.000,0.000,0.000
1641208062989312768,2022-01-03-11:07:42,10.1.1.6,192,-0.060,-0.060,-0.060,0.000,0.000,0.000
1641208063189598208,2022-01-03-11:07:43,10.1.1.6,187,-0.050,-0.050,-0.050,0.000,0.000,0.000
1641208063385571840,2022-01-03-11:07:43,10.1.1.6,185,-0.040,-0.040,-0.040,0.000,0.000,0.000
1641208063585628160,2022-01-03-11:07:43,10.1.1.6,182,-0.030,-0.030,-0.030,0.000,0.000,0.000
1641208063784826880,2022-01-03-11:07:43,10.1.1.6,177,-0.020,-0.020,-0.020,0.000,0.000,0.000
1641208063985341952,2022-01-03-11:07:43,10.1.1.6,177,-0.010,-0.010,-0.010,0.000,0.000,0.000
1641208064184840960,2022-01-03-11:07:44,10.1.1.6,176,0.000,0.000,0.000,0.000,0.000,0.000
1641208064392548096,2022-01-03-11:07:44,10.1.1.6,184,-0.010,-0.010,-0.010,0.000,0.000,0.000
1641208064604634880,2022-01-03-11:07:44,10.1.1.6,195,-0.020,-0.020,-0.020,0.000,0.000,0.000
1641208064783757824,2022-01-03-11:07:44,10.1.1.6,173,-0.030,-0.030,-0.030,0.000,0.000,0.000
1641208064995400960,2022-01-03-11:07:44,10.1.1.6,184,-0.040,-0.040,-0.040,0.000,0.000,0.000
1641208065183759872,2022-01-03-11:07:45,10.1.1.6,172,-0.050,-0.050,-0.050,0.000,0.000,0.000
1641208065403544832,2022-01-03-11:07:45,10.1.1.6,191,-0.060,-0.060,-0.060,0.000,0.000,0.000
1641208065603126016,2022-01-03-11:07:45,10.1.1.6,190,-0.070,-0.070,-0.070,0.000,0.000,0.000
1641208065805735168,2022-01-03-11:07:45,10.1.1.6,192,-0.080,-0.080,-0.080,0.000,0.000,0.000
1641208066006337024,2022-01-03-11:07:46,10.1.1.6,192,-0.090,-0.090,-0.090,0.000,0.000,0.000
1641208066212238080,2022-01-03-11:07:46,10.1.1.6,191,-0.100,-0.100,-0.100,0.000,0.000,0.000
1641208066391737088,2022-01-03-11:07:46,10.1.1.6,175,-0.110,-0.110,-0.110,0.000,0.000,0.000
1641208066637388032,2022-01-03-11:07:46,10.1.1.6,219,-0.120,-0.120,-0.120,0.000,0.000,0.000
1641208066822247936,2022-01-03-11:07:46,10.1.1.6,183,-0.130,-0.130,-0.130,0.000,0.000,0.000
1641208067020875008,2022-01-03-11:07:47,10.1.1.6,181,-0.140,-0.140,-0.140,0.000,0.000,0.000
1641208067221435136,2022-01-03-11:07:47,10.1.1.6,180,-0.150,-0.150,-0.150,0.000,0.000,0.000
1641208067420589056,2022-01-03-11:07:47,10.1.1.6,178,-0.160,-0.160,-0.160,0.000,0.000,0.000
1641208067640902144,2022-01-03-11:07:47,10.1.1.6,197,-0.170,-0.170,-0.170,0.000,0.000,0.000
1641208067821515008,2022-01-03-11:07:47,10.1.1.6,177,-0.180,-0.180,-0.180,0.000,0.000,0.000
1641208068020544000,2022-01-03-11:07:48,10.1.1.6,174,-0.190,-0.190,-0.190,0.000,0.000,0.000
1641208068438828032,2022-01-03-11:07:48,10.1.1.6,177,-0.210,-0.210,-0.210,0.000,0.000,0.000
1641208068639453952,2022-01-03-11:07:48,10.1.1.6,176,-0.220,-0.220,-0.220,0.000,0.000,0.000
1641208068838577920,2022-01-03-11:07:48,10.1.1.6,175,-0.230,-0.230,-0.230,0.000,0.000,0.000
1641208069037904896,2022-01-03-11:07:49,10.1.1.6,174,-0.240,-0.240,-0.240,0.000,0.000,0.000
1641208069237568000,2022-01-03-11:07:49,10.1.1.6,173,-0.250,-0.250,-0.250,0.000,0.000,0.000
1641208069437916160,2022-01-03-11:07:49,10.1.1.6,172,-0.260,-0.260,-0.260,0.000,0.000,0.000
1641208069640739072,2022-01-03-11:07:49,10.1.1.6,175,-0.270,-0.270,-0.270,0.000,0.000,0.000
1641208069837905920,2022-01-03-11:07:49,10.1.1.6,172,-0.280,-0.280,-0.280,0.000,0.000,0.000
1641208070036144128,2022-01-03-11:07:50,10.1.1.6,169,-0.290,-0.290,-0.290,0.000,0.000,0.000
1641208070236905984,2022-01-03-11:07:50,10.1.1.6,169,-0.300,-0.300,-0.300,0.000,0.000,0.000
1641208070436410880,2022-01-03-11:07:50,10.1.1.6,168,-0.310,-0.310,-0.310,0.000,0.000,0.000
1641208070636410112,2022-01-03-11:07:50,10.1.1.6,168,-0.320,-0.320,-0.320,0.000,0.000,0.000
