FedericoMungari/DigitalTwin_service/01_WiredScenario/Output/Output_script/script_rosapi_2_output_robots8_freq0_4.txt
timestamp,date,node,latency,joint_1,joint_2,joint_3,joint_4,joint_5,joint_6
1641102611965812992,2022-01-02-05:50:11,10.1.1.5,169,-0.010,-0.010,-0.010,0.000,0.000,0.000
1641102612170573824,2022-01-02-05:50:12,10.1.1.5,173,-0.020,-0.020,-0.020,0.000,0.000,0.000
1641102612367342080,2022-01-02-05:50:12,10.1.1.5,169,-0.030,-0.030,-0.030,0.000,0.000,0.000
1641102612566317056,2022-01-02-05:50:12,10.1.1.5,168,-0.040,-0.040,-0.040,0.000,0.000,0.000
1641102612766185984,2022-01-02-05:50:12,10.1.1.5,167,-0.050,-0.050,-0.050,0.000,0.000,0.000
1641102612986323200,2022-01-02-05:50:12,10.1.1.5,187,-0.060,-0.060,-0.060,0.000,0.000,0.000
1641102613186374912,2022-01-02-05:50:13,10.1.1.5,186,-0.070,-0.070,-0.070,0.000,0.000,0.000
1641102613385538048,2022-01-02-05:50:13,10.1.1.5,184,-0.080,-0.080,-0.080,0.000,0.000,0.000
1641102613585477120,2022-01-02-05:50:13,10.1.1.5,183,-0.090,-0.090,-0.090,0.000,0.000,0.000
1641102613783386112,2022-01-02-05:50:13,10.1.1.5,181,-0.100,-0.100,-0.100,0.000,0.000,0.000
1641102613985755904,2022-01-02-05:50:13,10.1.1.5,181,-0.110,-0.110,-0.110,0.000,0.000,0.000
1641102614182614016,2022-01-02-05:50:14,10.1.1.5,176,-0.120,-0.120,-0.120,0.000,0.000,0.000
1641102614385844992,2022-01-02-05:50:14,10.1.1.5,179,-0.130,-0.130,-0.130,0.000,0.000,0.000
1641102614583569152,2022-01-02-05:50:14,10.1.1.5,176,-0.140,-0.140,-0.140,0.000,0.000,0.000
1641102614781768192,2022-01-02-05:50:14,10.1.1.5,174,-0.150,-0.150,-0.150,0.000,0.000,0.000
1641102614982384896,2022-01-02-05:50:14,10.1.1.5,174,-0.160,-0.160,-0.160,0.000,0.000,0.000
1641102615180915200,2022-01-02-05:50:15,10.1.1.5,171,-0.170,-0.170,-0.170,0.000,0.000,0.000
1641102615380851968,2022-01-02-05:50:15,10.1.1.5,171,-0.180,-0.180,-0.180,0.000,0.000,0.000
1641102615581524992,2022-01-02-05:50:15,10.1.1.5,171,-0.190,-0.190,-0.190,0.000,0.000,0.000
1641102615780209152,2022-01-02-05:50:15,10.1.1.5,169,-0.200,-0.200,-0.200,0.000,0.000,0.000
1641102615982916096,2022-01-02-05:50:15,10.1.1.5,171,-0.210,-0.210,-0.210,0.000,0.000,0.000
1641102616181228032,2022-01-02-05:50:16,10.1.1.5,168,-0.220,-0.220,-0.220,0.000,0.000,0.000
1641102616380739840,2022-01-02-05:50:16,10.1.1.5,166,-0.230,-0.230,-0.230,0.000,0.000,0.000
1641102616581004032,2022-01-02-05:50:16,10.1.1.5,167,-0.240,-0.240,-0.240,0.000,0.000,0.000
1641102616779550976,2022-01-02-05:50:16,10.1.1.5,164,-0.250,-0.250,-0.250,0.000,0.000,0.000
1641102616980040192,2022-01-02-05:50:16,10.1.1.5,165,-0.260,-0.260,-0.260,0.000,0.000,0.000
1641102617178864896,2022-01-02-05:50:17,10.1.1.5,162,-0.270,-0.270,-0.270,0.000,0.000,0.000
1641102617378632960,2022-01-02-05:50:17,10.1.1.5,160,-0.280,-0.280,-0.280,0.000,0.000,0.000
1641102617600065024,2022-01-02-05:50:17,10.1.1.5,180,-0.290,-0.290,-0.290,0.000,0.000,0.000
1641102617799275008,2022-01-02-05:50:17,10.1.1.5,178,-0.300,-0.300,-0.300,0.000,0.000,0.000
1641102617998085120,2022-01-02-05:50:17,10.1.1.5,176,-0.310,-0.310,-0.310,0.000,0.000,0.000
1641102618199894784,2022-01-02-05:50:18,10.1.1.5,177,-0.320,-0.320,-0.320,0.000,0.000,0.000
1641102618597903872,2022-01-02-05:50:18,10.1.1.5,171,-0.340,-0.340,-0.340,0.000,0.000,0.000
1641102618797199872,2022-01-02-05:50:18,10.1.1.5,165,-0.350,-0.350,-0.350,0.000,0.000,0.000
1641102619004293888,2022-01-02-05:50:19,10.1.1.5,171,-0.360,-0.360,-0.360,0.000,0.000,0.000
1641102619196666112,2022-01-02-05:50:19,10.1.1.5,163,-0.370,-0.370,-0.370,0.000,0.000,0.000
1641102619397232128,2022-01-02-05:50:19,10.1.1.5,162,-0.380,-0.380,-0.380,0.000,0.000,0.000
1641102619599555072,2022-01-02-05:50:19,10.1.1.5,164,-0.390,-0.390,-0.390,0.000,0.000,0.000
1641102619799597056,2022-01-02-05:50:19,10.1.1.5,164,-0.400,-0.400,-0.400,0.000,0.000,0.000
1641102620000297984,2022-01-02-05:50:20,10.1.1.5,164,-0.410,-0.410,-0.410,0.000,0.000,0.000
1641102620212413952,2022-01-02-05:50:20,10.1.1.5,175,-0.420,-0.420,-0.420,0.000,0.000,0.000
1641102620402646016,2022-01-02-05:50:20,10.1.1.5,165,-0.430,-0.430,-0.430,0.000,0.000,0.000
1641102620606283008,2022-01-02-05:50:20,10.1.1.5,167,-0.440,-0.440,-0.440,0.000,0.000,0.000
1641102620806024192,2022-01-02-05:50:20,10.1.1.5,167,-0.450,-0.450,-0.450,0.000,0.000,0.000
1641102621026295808,2022-01-02-05:50:21,10.1.1.5,186,-0.460,-0.460,-0.460,0.000,0.000,0.000
1641102621225800960,2022-01-02-05:50:21,10.1.1.5,185,-0.470,-0.470,-0.470,0.000,0.000,0.000
1641102621431358208,2022-01-02-05:50:21,10.1.1.5,190,-0.480,-0.480,-0.480,0.000,0.000,0.000
1641102621629138944,2022-01-02-05:50:21,10.1.1.5,188,-0.490,-0.490,-0.490,0.000,0.000,0.000
1641102621829398016,2022-01-02-05:50:21,10.1.1.5,187,-0.480,-0.480,-0.480,0.000,0.000,0.000
1641102622028507904,2022-01-02-05:50:22,10.1.1.5,186,-0.470,-0.470,-0.470,0.000,0.000,0.000
1641102622228192000,2022-01-02-05:50:22,10.1.1.5,185,-0.460,-0.460,-0.460,0.000,0.000,0.000
1641102622430889984,2022-01-02-05:50:22,10.1.1.5,187,-0.450,-0.450,-0.450,0.000,0.000,0.000
1641102622633115904,2022-01-02-05:50:22,10.1.1.5,187,-0.440,-0.440,-0.440,0.000,0.000,0.000
1641102622832335104,2022-01-02-05:50:22,10.1.1.5,188,-0.430,-0.430,-0.430,0.000,0.000,0.000
1641102623031941888,2022-01-02-05:50:23,10.1.1.5,187,-0.420,-0.420,-0.420,0.000,0.000,0.000
1641102623234145024,2022-01-02-05:50:23,10.1.1.5,188,-0.410,-0.410,-0.410,0.000,0.000,0.000
1641102623437236992,2022-01-02-05:50:23,10.1.1.5,191,-0.400,-0.400,-0.400,0.000,0.000,0.000
1641102623641617920,2022-01-02-05:50:23,10.1.1.5,195,-0.390,-0.390,-0.390,0.000,0.000,0.000
1641102623835386880,2022-01-02-05:50:23,10.1.1.5,188,-0.380,-0.380,-0.380,0.000,0.000,0.000
1641102624034842880,2022-01-02-05:50:24,10.1.1.5,186,-0.370,-0.370,-0.370,0.000,0.000,0.000
1641102624234520064,2022-01-02-05:50:24,10.1.1.5,185,-0.360,-0.360,-0.360,0.000,0.000,0.000
1641102624434493952,2022-01-02-05:50:24,10.1.1.5,185,-0.350,-0.350,-0.350,0.000,0.000,0.000
1641102624634479872,2022-01-02-05:50:24,10.1.1.5,184,-0.340,-0.340,-0.340,0.000,0.000,0.000
1641102624834893056,2022-01-02-05:50:24,10.1.1.5,184,-0.330,-0.330,-0.330,0.000,0.000,0.000
1641102625035990016,2022-01-02-05:50:25,10.1.1.5,185,-0.320,-0.320,-0.320,0.000,0.000,0.000
1641102625237008128,2022-01-02-05:50:25,10.1.1.5,185,-0.310,-0.310,-0.310,0.000,0.000,0.000
1641102625440432128,2022-01-02-05:50:25,10.1.1.5,187,-0.300,-0.300,-0.300,0.000,0.000,0.000
1641102625636604160,2022-01-02-05:50:25,10.1.1.5,183,-0.290,-0.290,-0.290,0.000,0.000,0.000
1641102625837466112,2022-01-02-05:50:25,10.1.1.5,184,-0.280,-0.280,-0.280,0.000,0.000,0.000
1641102626260776960,2022-01-02-05:50:26,10.1.1.5,199,-0.260,-0.260,-0.260,0.000,0.000,0.000
1641102626663523072,2022-01-02-05:50:26,10.1.1.5,194,-0.240,-0.240,-0.240,0.000,0.000,0.000
1641102626858557952,2022-01-02-05:50:26,10.1.1.5,186,-0.230,-0.230,-0.230,0.000,0.000,0.000
1641102627058726144,2022-01-02-05:50:27,10.1.1.5,186,-0.220,-0.220,-0.220,0.000,0.000,0.000
1641102627259843072,2022-01-02-05:50:27,10.1.1.5,186,-0.210,-0.210,-0.210,0.000,0.000,0.000
1641102627458735872,2022-01-02-05:50:27,10.1.1.5,185,-0.200,-0.200,-0.200,0.000,0.000,0.000
1641102627659885824,2022-01-02-05:50:27,10.1.1.5,180,-0.190,-0.190,-0.190,0.000,0.000,0.000
1641102627858760192,2022-01-02-05:50:27,10.1.1.5,179,-0.180,-0.180,-0.180,0.000,0.000,0.000
1641102628279678976,2022-01-02-05:50:28,10.1.1.5,198,-0.160,-0.160,-0.160,0.000,0.000,0.000
1641102628478743040,2022-01-02-05:50:28,10.1.1.5,197,-0.150,-0.150,-0.150,0.000,0.000,0.000
1641102628678953984,2022-01-02-05:50:28,10.1.1.5,197,-0.140,-0.140,-0.140,0.000,0.000,0.000
1641102628880642816,2022-01-02-05:50:28,10.1.1.5,196,-0.130,-0.130,-0.130,0.000,0.000,0.000
1641102629079564032,2022-01-02-05:50:29,10.1.1.5,196,-0.120,-0.120,-0.120,0.000,0.000,0.000
1641102629280502016,2022-01-02-05:50:29,10.1.1.5,196,-0.110,-0.110,-0.110,0.000,0.000,0.000
1641102629478151936,2022-01-02-05:50:29,10.1.1.5,191,-0.100,-0.100,-0.100,0.000,0.000,0.000
1641102629679855104,2022-01-02-05:50:29,10.1.1.5,191,-0.090,-0.090,-0.090,0.000,0.000,0.000
1641102629878846976,2022-01-02-05:50:29,10.1.1.5,190,-0.080,-0.080,-0.080,0.000,0.000,0.000
1641102630079476224,2022-01-02-05:50:30,10.1.1.5,190,-0.070,-0.070,-0.070,0.000,0.000,0.000
1641102630279256064,2022-01-02-05:50:30,10.1.1.5,189,-0.060,-0.060,-0.060,0.000,0.000,0.000
1641102630480251904,2022-01-02-05:50:30,10.1.1.5,190,-0.050,-0.050,-0.050,0.000,0.000,0.000
1641102630679943936,2022-01-02-05:50:30,10.1.1.5,189,-0.040,-0.040,-0.040,0.000,0.000,0.000
1641102630878479872,2022-01-02-05:50:30,10.1.1.5,187,-0.030,-0.030,-0.030,0.000,0.000,0.000
1641102631079030016,2022-01-02-05:50:31,10.1.1.5,187,-0.020,-0.020,-0.020,0.000,0.000,0.000
1641102631280094976,2022-01-02-05:50:31,10.1.1.5,186,-0.010,-0.010,-0.010,0.000,0.000,0.000
1641102631480006912,2022-01-02-05:50:31,10.1.1.5,185,0.000,0.000,0.000,0.000,0.000,0.000
1641102631679867904,2022-01-02-05:50:31,10.1.1.5,184,-0.010,-0.010,-0.010,0.000,0.000,0.000
1641102631878669056,2022-01-02-05:50:31,10.1.1.5,183,-0.020,-0.020,-0.020,0.000,0.000,0.000
1641102632078270976,2022-01-02-05:50:32,10.1.1.5,182,-0.030,-0.030,-0.030,0.000,0.000,0.000
1641102632279618048,2022-01-02-05:50:32,10.1.1.5,183,-0.040,-0.040,-0.040,0.000,0.000,0.000
1641102632479294976,2022-01-02-05:50:32,10.1.1.5,181,-0.050,-0.050,-0.050,0.000,0.000,0.000
1641102632685022208,2022-01-02-05:50:32,10.1.1.5,185,-0.060,-0.060,-0.060,0.000,0.000,0.000
1641102632901412864,2022-01-02-05:50:32,10.1.1.5,199,-0.070,-0.070,-0.070,0.000,0.000,0.000
1641102633099492096,2022-01-02-05:50:33,10.1.1.5,195,-0.080,-0.080,-0.080,0.000,0.000,0.000
1641102633298051072,2022-01-02-05:50:33,10.1.1.5,193,-0.090,-0.090,-0.090,0.000,0.000,0.000
1641102633501830144,2022-01-02-05:50:33,10.1.1.5,196,-0.100,-0.100,-0.100,0.000,0.000,0.000
1641102633699742976,2022-01-02-05:50:33,10.1.1.5,193,-0.110,-0.110,-0.110,0.000,0.000,0.000
1641102633898080000,2022-01-02-05:50:33,10.1.1.5,191,-0.120,-0.120,-0.120,0.000,0.000,0.000
1641102634101840128,2022-01-02-05:50:34,10.1.1.5,194,-0.130,-0.130,-0.130,0.000,0.000,0.000
1641102634302202880,2022-01-02-05:50:34,10.1.1.5,193,-0.140,-0.140,-0.140,0.000,0.000,0.000
1641102634501020928,2022-01-02-05:50:34,10.1.1.5,192,-0.150,-0.150,-0.150,0.000,0.000,0.000
1641102634698821120,2022-01-02-05:50:34,10.1.1.5,189,-0.160,-0.160,-0.160,0.000,0.000,0.000
1641102634898045184,2022-01-02-05:50:34,10.1.1.5,187,-0.170,-0.170,-0.170,0.000,0.000,0.000
1641102635098771968,2022-01-02-05:50:35,10.1.1.5,188,-0.180,-0.180,-0.180,0.000,0.000,0.000
1641102635299259904,2022-01-02-05:50:35,10.1.1.5,185,-0.190,-0.190,-0.190,0.000,0.000,0.000
1641102635505341952,2022-01-02-05:50:35,10.1.1.5,193,-0.200,-0.200,-0.200,0.000,0.000,0.000
1641102635697660928,2022-01-02-05:50:35,10.1.1.5,184,-0.210,-0.210,-0.210,0.000,0.000,0.000
1641102635917747968,2022-01-02-05:50:35,10.1.1.5,193,-0.220,-0.220,-0.220,0.000,0.000,0.000
1641102636116189952,2022-01-02-05:50:36,10.1.1.5,191,-0.230,-0.230,-0.230,0.000,0.000,0.000
1641102636318546176,2022-01-02-05:50:36,10.1.1.5,193,-0.240,-0.240,-0.240,0.000,0.000,0.000
1641102636518281984,2022-01-02-05:50:36,10.1.1.5,192,-0.250,-0.250,-0.250,0.000,0.000,0.000
1641102636717216000,2022-01-02-05:50:36,10.1.1.5,190,-0.260,-0.260,-0.260,0.000,0.000,0.000
1641102636918188032,2022-01-02-05:50:36,10.1.1.5,190,-0.270,-0.270,-0.270,0.000,0.000,0.000
1641102637117652992,2022-01-02-05:50:37,10.1.1.5,189,-0.280,-0.280,-0.280,0.000,0.000,0.000
1641102637317709824,2022-01-02-05:50:37,10.1.1.5,189,-0.290,-0.290,-0.290,0.000,0.000,0.000
1641102637518726144,2022-01-02-05:50:37,10.1.1.5,189,-0.300,-0.300,-0.300,0.000,0.000,0.000
1641102637716859136,2022-01-02-05:50:37,10.1.1.5,187,-0.310,-0.310,-0.310,0.000,0.000,0.000
1641102637913559040,2022-01-02-05:50:37,10.1.1.5,183,-0.320,-0.320,-0.320,0.000,0.000,0.000
1641102638113584128,2022-01-02-05:50:38,10.1.1.5,182,-0.330,-0.330,-0.330,0.000,0.000,0.000
1641102638313296128,2022-01-02-05:50:38,10.1.1.5,181,-0.340,-0.340,-0.340,0.000,0.000,0.000
1641102638515033856,2022-01-02-05:50:38,10.1.1.5,180,-0.350,-0.350,-0.350,0.000,0.000,0.000
1641102638715433984,2022-01-02-05:50:38,10.1.1.5,180,-0.360,-0.360,-0.360,0.000,0.000,0.000
1641102638916531200,2022-01-02-05:50:38,10.1.1.5,181,-0.370,-0.370,-0.370,0.000,0.000,0.000
1641102639115747072,2022-01-02-05:50:39,10.1.1.5,179,-0.380,-0.380,-0.380,0.000,0.000,0.000
1641102639316339968,2022-01-02-05:50:39,10.1.1.5,179,-0.390,-0.390,-0.390,0.000,0.000,0.000
1641102639513287936,2022-01-02-05:50:39,10.1.1.5,175,-0.400,-0.400,-0.400,0.000,0.000,0.000
1641102639711923968,2022-01-02-05:50:39,10.1.1.5,173,-0.410,-0.410,-0.410,0.000,0.000,0.000
1641102639912849920,2022-01-02-05:50:39,10.1.1.5,174,-0.420,-0.420,-0.420,0.000,0.000,0.000
1641102640132029952,2022-01-02-05:50:40,10.1.1.5,192,-0.430,-0.430,-0.430,0.000,0.000,0.000
1641102640331800064,2022-01-02-05:50:40,10.1.1.5,191,-0.440,-0.440,-0.440,0.000,0.000,0.000
1641102640536911872,2022-01-02-05:50:40,10.1.1.5,193,-0.450,-0.450,-0.450,0.000,0.000,0.000
1641102640730871040,2022-01-02-05:50:40,10.1.1.5,188,-0.460,-0.460,-0.460,0.000,0.000,0.000
1641102640930056192,2022-01-02-05:50:40,10.1.1.5,187,-0.470,-0.470,-0.470,0.000,0.000,0.000
1641102641129944064,2022-01-02-05:50:41,10.1.1.5,187,-0.480,-0.480,-0.480,0.000,0.000,0.000
1641102641330138880,2022-01-02-05:50:41,10.1.1.5,186,-0.490,-0.490,-0.490,0.000,0.000,0.000
1641102641534662912,2022-01-02-05:50:41,10.1.1.5,190,-0.480,-0.480,-0.480,0.000,0.000,0.000
1641102641738262784,2022-01-02-05:50:41,10.1.1.5,193,-0.470,-0.470,-0.470,0.000,0.000,0.000
1641102641928144896,2022-01-02-05:50:41,10.1.1.5,182,-0.460,-0.460,-0.460,0.000,0.000,0.000
1641102642128582912,2022-01-02-05:50:42,10.1.1.5,181,-0.450,-0.450,-0.450,0.000,0.000,0.000
1641102642328832000,2022-01-02-05:50:42,10.1.1.5,180,-0.440,-0.440,-0.440,0.000,0.000,0.000
1641102642528572928,2022-01-02-05:50:42,10.1.1.5,179,-0.430,-0.430,-0.430,0.000,0.000,0.000
1641102642728070912,2022-01-02-05:50:42,10.1.1.5,178,-0.420,-0.420,-0.420,0.000,0.000,0.000
1641102642927835904,2022-01-02-05:50:42,10.1.1.5,177,-0.410,-0.410,-0.410,0.000,0.000,0.000
1641102643130223104,2022-01-02-05:50:43,10.1.1.5,178,-0.400,-0.400,-0.400,0.000,0.000,0.000
1641102643328457216,2022-01-02-05:50:43,10.1.1.5,176,-0.390,-0.390,-0.390,0.000,0.000,0.000
1641102643526948096,2022-01-02-05:50:43,10.1.1.5,175,-0.380,-0.380,-0.380,0.000,0.000,0.000
1641102643726539008,2022-01-02-05:50:43,10.1.1.5,175,-0.370,-0.370,-0.370,0.000,0.000,0.000
1641102643925797888,2022-01-02-05:50:43,10.1.1.5,173,-0.360,-0.360,-0.360,0.000,0.000,0.000
1641102644125472000,2022-01-02-05:50:44,10.1.1.5,173,-0.350,-0.350,-0.350,0.000,0.000,0.000
1641102644325725952,2022-01-02-05:50:44,10.1.1.5,172,-0.340,-0.340,-0.340,0.000,0.000,0.000
1641102644526438912,2022-01-02-05:50:44,10.1.1.5,173,-0.330,-0.330,-0.330,0.000,0.000,0.000
1641102644724272128,2022-01-02-05:50:44,10.1.1.5,170,-0.320,-0.320,-0.320,0.000,0.000,0.000
1641102644925024000,2022-01-02-05:50:44,10.1.1.5,169,-0.310,-0.310,-0.310,0.000,0.000,0.000
1641102645124414976,2022-01-02-05:50:45,10.1.1.5,168,-0.300,-0.300,-0.300,0.000,0.000,0.000
1641102645325027840,2022-01-02-05:50:45,10.1.1.5,168,-0.290,-0.290,-0.290,0.000,0.000,0.000
1641102645524038912,2022-01-02-05:50:45,10.1.1.5,167,-0.280,-0.280,-0.280,0.000,0.000,0.000
1641102645723891968,2022-01-02-05:50:45,10.1.1.5,165,-0.270,-0.270,-0.270,0.000,0.000,0.000
1641102645927249920,2022-01-02-05:50:45,10.1.1.5,168,-0.260,-0.260,-0.260,0.000,0.000,0.000
1641102646124226048,2022-01-02-05:50:46,10.1.1.5,165,-0.250,-0.250,-0.250,0.000,0.000,0.000
1641102646542098944,2022-01-02-05:50:46,10.1.1.5,179,-0.230,-0.230,-0.230,0.000,0.000,0.000
1641102646745563136,2022-01-02-05:50:46,10.1.1.5,178,-0.220,-0.220,-0.220,0.000,0.000,0.000
1641102646954664960,2022-01-02-05:50:46,10.1.1.5,179,-0.210,-0.210,-0.210,0.000,0.000,0.000
1641102647143290880,2022-01-02-05:50:47,10.1.1.5,174,-0.200,-0.200,-0.200,0.000,0.000,0.000
1641102647343513856,2022-01-02-05:50:47,10.1.1.5,174,-0.190,-0.190,-0.190,0.000,0.000,0.000
1641102647541191168,2022-01-02-05:50:47,10.1.1.5,171,-0.180,-0.180,-0.180,0.000,0.000,0.000
1641102647739705088,2022-01-02-05:50:47,10.1.1.5,169,-0.170,-0.170,-0.170,0.000,0.000,0.000
1641102647940923904,2022-01-02-05:50:47,10.1.1.5,169,-0.160,-0.160,-0.160,0.000,0.000,0.000
1641102648139123968,2022-01-02-05:50:48,10.1.1.5,167,-0.150,-0.150,-0.150,0.000,0.000,0.000
1641102648339790080,2022-01-02-05:50:48,10.1.1.5,167,-0.140,-0.140,-0.140,0.000,0.000,0.000
1641102648538712064,2022-01-02-05:50:48,10.1.1.5,165,-0.130,-0.130,-0.130,0.000,0.000,0.000
1641102648739366912,2022-01-02-05:50:48,10.1.1.5,165,-0.120,-0.120,-0.120,0.000,0.000,0.000
1641102648939536128,2022-01-02-05:50:48,10.1.1.5,165,-0.110,-0.110,-0.110,0.000,0.000,0.000
1641102649137531904,2022-01-02-05:50:49,10.1.1.5,162,-0.100,-0.100,-0.100,0.000,0.000,0.000
1641102649343732992,2022-01-02-05:50:49,10.1.1.5,168,-0.090,-0.090,-0.090,0.000,0.000,0.000
1641102649536932864,2022-01-02-05:50:49,10.1.1.5,161,-0.080,-0.080,-0.080,0.000,0.000,0.000
1641102649736185088,2022-01-02-05:50:49,10.1.1.5,159,-0.070,-0.070,-0.070,0.000,0.000,0.000
1641102649937833984,2022-01-02-05:50:49,10.1.1.5,160,-0.060,-0.060,-0.060,0.000,0.000,0.000
1641102650136805888,2022-01-02-05:50:50,10.1.1.5,158,-0.050,-0.050,-0.050,0.000,0.000,0.000
1641102650356142080,2022-01-02-05:50:50,10.1.1.5,176,-0.040,-0.040,-0.040,0.000,0.000,0.000
1641102650555623168,2022-01-02-05:50:50,10.1.1.5,174,-0.030,-0.030,-0.030,0.000,0.000,0.000
1641102650755693056,2022-01-02-05:50:50,10.1.1.5,174,-0.020,-0.020,-0.020,0.000,0.000,0.000
1641102650957277184,2022-01-02-05:50:50,10.1.1.5,172,-0.010,-0.010,-0.010,0.000,0.000,0.000
1641102651156994048,2022-01-02-05:50:51,10.1.1.5,170,0.000,0.000,0.000,0.000,0.000,0.000
1641102651363368960,2022-01-02-05:50:51,10.1.1.5,176,-0.010,-0.010,-0.010,0.000,0.000,0.000
1641102651562951168,2022-01-02-05:50:51,10.1.1.5,174,-0.020,-0.020,-0.020,0.000,0.000,0.000
1641102651762816000,2022-01-02-05:50:51,10.1.1.5,172,-0.030,-0.030,-0.030,0.000,0.000,0.000
1641102651961946880,2022-01-02-05:50:51,10.1.1.5,170,-0.040,-0.040,-0.040,0.000,0.000,0.000
1641102652162383104,2022-01-02-05:50:52,10.1.1.5,170,-0.050,-0.050,-0.050,0.000,0.000,0.000
1641102652364857856,2022-01-02-05:50:52,10.1.1.5,172,-0.060,-0.060,-0.060,0.000,0.000,0.000
1641102652568068096,2022-01-02-05:50:52,10.1.1.5,174,-0.070,-0.070,-0.070,0.000,0.000,0.000
1641102652764555008,2022-01-02-05:50:52,10.1.1.5,170,-0.080,-0.080,-0.080,0.000,0.000,0.000
1641102652965869056,2022-01-02-05:50:52,10.1.1.5,171,-0.090,-0.090,-0.090,0.000,0.000,0.000
1641102653166712064,2022-01-02-05:50:53,10.1.1.5,170,-0.100,-0.100,-0.100,0.000,0.000,0.000
1641102653369180928,2022-01-02-05:50:53,10.1.1.5,172,-0.110,-0.110,-0.110,0.000,0.000,0.000
1641102653573796096,2022-01-02-05:50:53,10.1.1.5,175,-0.120,-0.120,-0.120,0.000,0.000,0.000
1641102653793381888,2022-01-02-05:50:53,10.1.1.5,192,-0.130,-0.130,-0.130,0.000,0.000,0.000
1641102653994710016,2022-01-02-05:50:53,10.1.1.5,193,-0.140,-0.140,-0.140,0.000,0.000,0.000
1641102654195169024,2022-01-02-05:50:54,10.1.1.5,193,-0.150,-0.150,-0.150,0.000,0.000,0.000
1641102654392787968,2022-01-02-05:50:54,10.1.1.5,190,-0.160,-0.160,-0.160,0.000,0.000,0.000
1641102654597598976,2022-01-02-05:50:54,10.1.1.5,194,-0.170,-0.170,-0.170,0.000,0.000,0.000
1641102654793658880,2022-01-02-05:50:54,10.1.1.5,189,-0.180,-0.180,-0.180,0.000,0.000,0.000
1641102654995188992,2022-01-02-05:50:54,10.1.1.5,190,-0.190,-0.190,-0.190,0.000,0.000,0.000
1641102655194786048,2022-01-02-05:50:55,10.1.1.5,189,-0.200,-0.200,-0.200,0.000,0.000,0.000
1641102655393080064,2022-01-02-05:50:55,10.1.1.5,186,-0.210,-0.210,-0.210,0.000,0.000,0.000
1641102655593453056,2022-01-02-05:50:55,10.1.1.5,184,-0.220,-0.220,-0.220,0.000,0.000,0.000
1641102655793891072,2022-01-02-05:50:55,10.1.1.5,184,-0.230,-0.230,-0.230,0.000,0.000,0.000
1641102655995325184,2022-01-02-05:50:55,10.1.1.5,184,-0.240,-0.240,-0.240,0.000,0.000,0.000
1641102656196270848,2022-01-02-05:50:56,10.1.1.5,185,-0.250,-0.250,-0.250,0.000,0.000,0.000
1641102656396177920,2022-01-02-05:50:56,10.1.1.5,183,-0.260,-0.260,-0.260,0.000,0.000,0.000
1641102656596334080,2022-01-02-05:50:56,10.1.1.5,183,-0.270,-0.270,-0.270,0.000,0.000,0.000
1641102656798422016,2022-01-02-05:50:56,10.1.1.5,184,-0.280,-0.280,-0.280,0.000,0.000,0.000
1641102656997057792,2022-01-02-05:50:56,10.1.1.5,182,-0.290,-0.290,-0.290,0.000,0.000,0.000
1641102657197608960,2022-01-02-05:50:57,10.1.1.5,181,-0.300,-0.300,-0.300,0.000,0.000,0.000
1641102657400672000,2022-01-02-05:50:57,10.1.1.5,183,-0.310,-0.310,-0.310,0.000,0.000,0.000
1641102657597486080,2022-01-02-05:50:57,10.1.1.5,178,-0.320,-0.320,-0.320,0.000,0.000,0.000
1641102657819300864,2022-01-02-05:50:57,10.1.1.5,199,-0.330,-0.330,-0.330,0.000,0.000,0.000
1641102658018280960,2022-01-02-05:50:58,10.1.1.5,198,-0.340,-0.340,-0.340,0.000,0.000,0.000
1641102658219310080,2022-01-02-05:50:58,10.1.1.5,198,-0.350,-0.350,-0.350,0.000,0.000,0.000
1641102658421426944,2022-01-02-05:50:58,10.1.1.5,199,-0.360,-0.360,-0.360,0.000,0.000,0.000
1641102658620999936,2022-01-02-05:50:58,10.1.1.5,198,-0.370,-0.370,-0.370,0.000,0.000,0.000
1641102658819587072,2022-01-02-05:50:58,10.1.1.5,195,-0.380,-0.380,-0.380,0.000,0.000,0.000
1641102659020057088,2022-01-02-05:50:59,10.1.1.5,195,-0.390,-0.390,-0.390,0.000,0.000,0.000
1641102659219618048,2022-01-02-05:50:59,10.1.1.5,193,-0.400,-0.400,-0.400,0.000,0.000,0.000
1641102659423467008,2022-01-02-05:50:59,10.1.1.5,196,-0.410,-0.410,-0.410,0.000,0.000,0.000
1641102659621140992,2022-01-02-05:50:59,10.1.1.5,193,-0.420,-0.420,-0.420,0.000,0.000,0.000
1641102659819837952,2022-01-02-05:50:59,10.1.1.5,191,-0.430,-0.430,-0.430,0.000,0.000,0.000
1641102660023297024,2022-01-02-05:51:00,10.1.1.5,194,-0.440,-0.440,-0.440,0.000,0.000,0.000
1641102660223310080,2022-01-02-05:51:00,10.1.1.5,192,-0.450,-0.450,-0.450,0.000,0.000,0.000
1641102660421236992,2022-01-02-05:51:00,10.1.1.5,190,-0.460,-0.460,-0.460,0.000,0.000,0.000
1641102660624955904,2022-01-02-05:51:00,10.1.1.5,192,-0.470,-0.470,-0.470,0.000,0.000,0.000
1641102660820108032,2022-01-02-05:51:00,10.1.1.5,186,-0.480,-0.480,-0.480,0.000,0.000,0.000
1641102661020643840,2022-01-02-05:51:01,10.1.1.5,187,-0.490,-0.490,-0.490,0.000,0.000,0.000
1641102661222008064,2022-01-02-05:51:01,10.1.1.5,187,-0.480,-0.480,-0.480,0.000,0.000,0.000
1641102661422694912,2022-01-02-05:51:01,10.1.1.5,188,-0.470,-0.470,-0.470,0.000,0.000,0.000
1641102661621409792,2022-01-02-05:51:01,10.1.1.5,186,-0.460,-0.460,-0.460,0.000,0.000,0.000
1641102661821060864,2022-01-02-05:51:01,10.1.1.5,185,-0.450,-0.450,-0.450,0.000,0.000,0.000
1641102662021794048,2022-01-02-05:51:02,10.1.1.5,185,-0.440,-0.440,-0.440,0.000,0.000,0.000
1641102662236356096,2022-01-02-05:51:02,10.1.1.5,197,-0.430,-0.430,-0.430,0.000,0.000,0.000
1641102662443582976,2022-01-02-05:51:02,10.1.1.5,191,-0.420,-0.420,-0.420,0.000,0.000,0.000
1641102662864694016,2022-01-02-05:51:02,10.1.1.5,191,-0.400,-0.400,-0.400,0.000,0.000,0.000
1641102663061822976,2022-01-02-05:51:03,10.1.1.5,187,-0.390,-0.390,-0.390,0.000,0.000,0.000
1641102663260688896,2022-01-02-05:51:03,10.1.1.5,185,-0.380,-0.380,-0.380,0.000,0.000,0.000
1641102663464098816,2022-01-02-05:51:03,10.1.1.5,188,-0.370,-0.370,-0.370,0.000,0.000,0.000
1641102663660188928,2022-01-02-05:51:03,10.1.1.5,184,-0.360,-0.360,-0.360,0.000,0.000,0.000
1641102663862263808,2022-01-02-05:51:03,10.1.1.5,186,-0.350,-0.350,-0.350,0.000,0.000,0.000
1641102664060858112,2022-01-02-05:51:04,10.1.1.5,182,-0.340,-0.340,-0.340,0.000,0.000,0.000
1641102664263783936,2022-01-02-05:51:04,10.1.1.5,184,-0.330,-0.330,-0.330,0.000,0.000,0.000
1641102664680270080,2022-01-02-05:51:04,10.1.1.5,199,-0.310,-0.310,-0.310,0.000,0.000,0.000
1641102664881220096,2022-01-02-05:51:04,10.1.1.5,199,-0.300,-0.300,-0.300,0.000,0.000,0.000
1641102665081715200,2022-01-02-05:51:05,10.1.1.5,197,-0.290,-0.290,-0.290,0.000,0.000,0.000
1641102665280795136,2022-01-02-05:51:05,10.1.1.5,198,-0.280,-0.280,-0.280,0.000,0.000,0.000
1641102665679207936,2022-01-02-05:51:05,10.1.1.5,192,-0.260,-0.260,-0.260,0.000,0.000,0.000
1641102665880561152,2022-01-02-05:51:05,10.1.1.5,193,-0.250,-0.250,-0.250,0.000,0.000,0.000
1641102666081432064,2022-01-02-05:51:06,10.1.1.5,193,-0.240,-0.240,-0.240,0.000,0.000,0.000
1641102666278480128,2022-01-02-05:51:06,10.1.1.5,189,-0.230,-0.230,-0.230,0.000,0.000,0.000
1641102666479759872,2022-01-02-05:51:06,10.1.1.5,189,-0.220,-0.220,-0.220,0.000,0.000,0.000
1641102666678329856,2022-01-02-05:51:06,10.1.1.5,187,-0.210,-0.210,-0.210,0.000,0.000,0.000
1641102666879415040,2022-01-02-05:51:06,10.1.1.5,188,-0.200,-0.200,-0.200,0.000,0.000,0.000
1641102667078545152,2022-01-02-05:51:07,10.1.1.5,186,-0.190,-0.190,-0.190,0.000,0.000,0.000
1641102667277800192,2022-01-02-05:51:07,10.1.1.5,185,-0.180,-0.180,-0.180,0.000,0.000,0.000
1641102667480106240,2022-01-02-05:51:07,10.1.1.5,185,-0.170,-0.170,-0.170,0.000,0.000,0.000
1641102667678464000,2022-01-02-05:51:07,10.1.1.5,184,-0.160,-0.160,-0.160,0.000,0.000,0.000
1641102667877880064,2022-01-02-05:51:07,10.1.1.5,183,-0.150,-0.150,-0.150,0.000,0.000,0.000
1641102668080720896,2022-01-02-05:51:08,10.1.1.5,186,-0.140,-0.140,-0.140,0.000,0.000,0.000
1641102668277112064,2022-01-02-05:51:08,10.1.1.5,180,-0.130,-0.130,-0.130,0.000,0.000,0.000
1641102668476169984,2022-01-02-05:51:08,10.1.1.5,177,-0.120,-0.120,-0.120,0.000,0.000,0.000
1641102668698484992,2022-01-02-05:51:08,10.1.1.5,198,-0.110,-0.110,-0.110,0.000,0.000,0.000
1641102668895977984,2022-01-02-05:51:08,10.1.1.5,195,-0.100,-0.100,-0.100,0.000,0.000,0.000
1641102669096073984,2022-01-02-05:51:09,10.1.1.5,195,-0.090,-0.090,-0.090,0.000,0.000,0.000
1641102669295907072,2022-01-02-05:51:09,10.1.1.5,194,-0.080,-0.080,-0.080,0.000,0.000,0.000
1641102669500112128,2022-01-02-05:51:09,10.1.1.5,198,-0.070,-0.070,-0.070,0.000,0.000,0.000
1641102669696951040,2022-01-02-05:51:09,10.1.1.5,193,-0.060,-0.060,-0.060,0.000,0.000,0.000
1641102669895673088,2022-01-02-05:51:09,10.1.1.5,191,-0.050,-0.050,-0.050,0.000,0.000,0.000
1641102670103867904,2022-01-02-05:51:10,10.1.1.5,198,-0.040,-0.040,-0.040,0.000,0.000,0.000
1641102670296822016,2022-01-02-05:51:10,10.1.1.5,184,-0.030,-0.030,-0.030,0.000,0.000,0.000
1641102670496516096,2022-01-02-05:51:10,10.1.1.5,183,-0.020,-0.020,-0.020,0.000,0.000,0.000
1641102670697127168,2022-01-02-05:51:10,10.1.1.5,183,-0.010,-0.010,-0.010,0.000,0.000,0.000
1641102670894708992,2022-01-02-05:51:10,10.1.1.5,178,0.000,0.000,0.000,0.000,0.000,0.000
1641102671095159040,2022-01-02-05:51:11,10.1.1.5,179,-0.010,-0.010,-0.010,0.000,0.000,0.000
1641102671295510016,2022-01-02-05:51:11,10.1.1.5,178,-0.020,-0.020,-0.020,0.000,0.000,0.000
1641102671493884160,2022-01-02-05:51:11,10.1.1.5,176,-0.030,-0.030,-0.030,0.000,0.000,0.000
1641102671694545920,2022-01-02-05:51:11,10.1.1.5,176,-0.040,-0.040,-0.040,0.000,0.000,0.000
1641102671918276096,2022-01-02-05:51:11,10.1.1.5,199,-0.050,-0.050,-0.050,0.000,0.000,0.000
1641102672115674880,2022-01-02-05:51:12,10.1.1.5,195,-0.060,-0.060,-0.060,0.000,0.000,0.000
1641102672313363968,2022-01-02-05:51:12,10.1.1.5,192,-0.070,-0.070,-0.070,0.000,0.000,0.000
1641102672515623168,2022-01-02-05:51:12,10.1.1.5,193,-0.080,-0.080,-0.080,0.000,0.000,0.000
1641102672715727104,2022-01-02-05:51:12,10.1.1.5,193,-0.090,-0.090,-0.090,0.000,0.000,0.000
1641102672913629952,2022-01-02-05:51:12,10.1.1.5,190,-0.100,-0.100,-0.100,0.000,0.000,0.000
1641102673113004032,2022-01-02-05:51:13,10.1.1.5,189,-0.110,-0.110,-0.110,0.000,0.000,0.000
1641102673312811008,2022-01-02-05:51:13,10.1.1.5,188,-0.120,-0.120,-0.120,0.000,0.000,0.000
1641102673511360000,2022-01-02-05:51:13,10.1.1.5,185,-0.130,-0.130,-0.130,0.000,0.000,0.000
1641102673712534784,2022-01-02-05:51:13,10.1.1.5,185,-0.140,-0.140,-0.140,0.000,0.000,0.000
1641102673912958976,2022-01-02-05:51:13,10.1.1.5,179,-0.150,-0.150,-0.150,0.000,0.000,0.000
1641102674110390016,2022-01-02-05:51:14,10.1.1.5,176,-0.160,-0.160,-0.160,0.000,0.000,0.000
1641102674311657984,2022-01-02-05:51:14,10.1.1.5,175,-0.170,-0.170,-0.170,0.000,0.000,0.000
1641102674509751040,2022-01-02-05:51:14,10.1.1.5,174,-0.180,-0.180,-0.180,0.000,0.000,0.000
1641102674710073088,2022-01-02-05:51:14,10.1.1.5,174,-0.190,-0.190,-0.190,0.000,0.000,0.000
1641102674910362112,2022-01-02-05:51:14,10.1.1.5,173,-0.200,-0.200,-0.200,0.000,0.000,0.000
1641102675111351040,2022-01-02-05:51:15,10.1.1.5,173,-0.210,-0.210,-0.210,0.000,0.000,0.000
1641102675529200128,2022-01-02-05:51:15,10.1.1.5,171,-0.230,-0.230,-0.230,0.000,0.000,0.000
1641102675729669120,2022-01-02-05:51:15,10.1.1.5,170,-0.240,-0.240,-0.240,0.000,0.000,0.000
1641102675948741888,2022-01-02-05:51:15,10.1.1.5,189,-0.250,-0.250,-0.250,0.000,0.000,0.000
1641102676148220928,2022-01-02-05:51:16,10.1.1.5,188,-0.260,-0.260,-0.260,0.000,0.000,0.000
1641102676347716096,2022-01-02-05:51:16,10.1.1.5,186,-0.270,-0.270,-0.270,0.000,0.000,0.000
1641102676549093120,2022-01-02-05:51:16,10.1.1.5,185,-0.280,-0.280,-0.280,0.000,0.000,0.000
1641102676746809088,2022-01-02-05:51:16,10.1.1.5,184,-0.290,-0.290,-0.290,0.000,0.000,0.000
1641102676946088960,2022-01-02-05:51:16,10.1.1.5,183,-0.300,-0.300,-0.300,0.000,0.000,0.000
1641102677148396032,2022-01-02-05:51:17,10.1.1.5,183,-0.310,-0.310,-0.310,0.000,0.000,0.000
1641102677348485888,2022-01-02-05:51:17,10.1.1.5,180,-0.320,-0.320,-0.320,0.000,0.000,0.000
1641102677545353984,2022-01-02-05:51:17,10.1.1.5,175,-0.330,-0.330,-0.330,0.000,0.000,0.000
1641102677749100800,2022-01-02-05:51:17,10.1.1.5,179,-0.340,-0.340,-0.340,0.000,0.000,0.000
1641102677944578048,2022-01-02-05:51:17,10.1.1.5,173,-0.350,-0.350,-0.350,0.000,0.000,0.000
1641102678144350976,2022-01-02-05:51:18,10.1.1.5,173,-0.360,-0.360,-0.360,0.000,0.000,0.000
1641102678346291968,2022-01-02-05:51:18,10.1.1.5,173,-0.370,-0.370,-0.370,0.000,0.000,0.000
1641102678545722880,2022-01-02-05:51:18,10.1.1.5,172,-0.380,-0.380,-0.380,0.000,0.000,0.000
1641102678745238016,2022-01-02-05:51:18,10.1.1.5,171,-0.390,-0.390,-0.390,0.000,0.000,0.000
1641102678946203904,2022-01-02-05:51:18,10.1.1.5,172,-0.400,-0.400,-0.400,0.000,0.000,0.000
1641102679144232960,2022-01-02-05:51:19,10.1.1.5,169,-0.410,-0.410,-0.410,0.000,0.000,0.000
1641102679346437888,2022-01-02-05:51:19,10.1.1.5,168,-0.420,-0.420,-0.420,0.000,0.000,0.000
1641102679546191872,2022-01-02-05:51:19,10.1.1.5,165,-0.430,-0.430,-0.430,0.000,0.000,0.000
1641102679742798080,2022-01-02-05:51:19,10.1.1.5,165,-0.440,-0.440,-0.440,0.000,0.000,0.000
1641102679942439168,2022-01-02-05:51:19,10.1.1.5,164,-0.450,-0.450,-0.450,0.000,0.000,0.000
1641102680363155968,2022-01-02-05:51:20,10.1.1.5,173,-0.470,-0.470,-0.470,0.000,0.000,0.000
1641102680560434944,2022-01-02-05:51:20,10.1.1.5,170,-0.480,-0.480,-0.480,0.000,0.000,0.000
1641102680761241856,2022-01-02-05:51:20,10.1.1.5,170,-0.490,-0.490,-0.490,0.000,0.000,0.000
1641102680960623104,2022-01-02-05:51:20,10.1.1.5,169,-0.480,-0.480,-0.480,0.000,0.000,0.000
1641102681159696128,2022-01-02-05:51:21,10.1.1.5,168,-0.470,-0.470,-0.470,0.000,0.000,0.000
1641102681360944896,2022-01-02-05:51:21,10.1.1.5,168,-0.460,-0.460,-0.460,0.000,0.000,0.000
1641102681560686080,2022-01-02-05:51:21,10.1.1.5,168,-0.450,-0.450,-0.450,0.000,0.000,0.000
1641102681758462976,2022-01-02-05:51:21,10.1.1.5,165,-0.440,-0.440,-0.440,0.000,0.000,0.000
1641102681972308992,2022-01-02-05:51:21,10.1.1.5,178,-0.430,-0.430,-0.430,0.000,0.000,0.000
1641102682180474112,2022-01-02-05:51:22,10.1.1.5,177,-0.420,-0.420,-0.420,0.000,0.000,0.000
1641102682378156032,2022-01-02-05:51:22,10.1.1.5,166,-0.410,-0.410,-0.410,0.000,0.000,0.000
1641102682596611072,2022-01-02-05:51:22,10.1.1.5,166,-0.400,-0.400,-0.400,0.000,0.000,0.000
1641102682796720128,2022-01-02-05:51:22,10.1.1.5,164,-0.390,-0.390,-0.390,0.000,0.000,0.000
1641102682996193024,2022-01-02-05:51:22,10.1.1.5,162,-0.380,-0.380,-0.380,0.000,0.000,0.000
1641102683198576896,2022-01-02-05:51:23,10.1.1.5,163,-0.370,-0.370,-0.370,0.000,0.000,0.000
1641102683397937152,2022-01-02-05:51:23,10.1.1.5,162,-0.360,-0.360,-0.360,0.000,0.000,0.000
1641102683597462784,2022-01-02-05:51:23,10.1.1.5,158,-0.350,-0.350,-0.350,0.000,0.000,0.000
1641102683795236096,2022-01-02-05:51:23,10.1.1.5,156,-0.340,-0.340,-0.340,0.000,0.000,0.000
1641102684016654080,2022-01-02-05:51:24,10.1.1.5,175,-0.330,-0.330,-0.330,0.000,0.000,0.000
1641102684216172032,2022-01-02-05:51:24,10.1.1.5,173,-0.320,-0.320,-0.320,0.000,0.000,0.000
1641102684417412096,2022-01-02-05:51:24,10.1.1.5,173,-0.310,-0.310,-0.310,0.000,0.000,0.000
1641102684618676992,2022-01-02-05:51:24,10.1.1.5,174,-0.300,-0.300,-0.300,0.000,0.000,0.000
1641102684818800896,2022-01-02-05:51:24,10.1.1.5,173,-0.290,-0.290,-0.290,0.000,0.000,0.000
1641102685020036864,2022-01-02-05:51:25,10.1.1.5,174,-0.280,-0.280,-0.280,0.000,0.000,0.000
1641102685220700928,2022-01-02-05:51:25,10.1.1.5,173,-0.270,-0.270,-0.270,0.000,0.000,0.000
1641102685423540224,2022-01-02-05:51:25,10.1.1.5,175,-0.260,-0.260,-0.260,0.000,0.000,0.000
1641102685624982016,2022-01-02-05:51:25,10.1.1.5,173,-0.250,-0.250,-0.250,0.000,0.000,0.000
1641102685823324928,2022-01-02-05:51:25,10.1.1.5,168,-0.240,-0.240,-0.240,0.000,0.000,0.000
1641102686024753152,2022-01-02-05:51:26,10.1.1.5,169,-0.230,-0.230,-0.230,0.000,0.000,0.000
1641102686225166080,2022-01-02-05:51:26,10.1.1.5,168,-0.220,-0.220,-0.220,0.000,0.000,0.000
1641102686428819968,2022-01-02-05:51:26,10.1.1.5,171,-0.210,-0.210,-0.210,0.000,0.000,0.000
1641102686629405952,2022-01-02-05:51:26,10.1.1.5,171,-0.200,-0.200,-0.200,0.000,0.000,0.000
1641102686848788992,2022-01-02-05:51:26,10.1.1.5,189,-0.190,-0.190,-0.190,0.000,0.000,0.000
1641102687058959104,2022-01-02-05:51:27,10.1.1.5,199,-0.180,-0.180,-0.180,0.000,0.000,0.000
1641102687250313984,2022-01-02-05:51:27,10.1.1.5,189,-0.170,-0.170,-0.170,0.000,0.000,0.000
1641102687449431808,2022-01-02-05:51:27,10.1.1.5,187,-0.160,-0.160,-0.160,0.000,0.000,0.000
1641102687650127872,2022-01-02-05:51:27,10.1.1.5,187,-0.150,-0.150,-0.150,0.000,0.000,0.000
1641102687853389056,2022-01-02-05:51:27,10.1.1.5,190,-0.140,-0.140,-0.140,0.000,0.000,0.000
1641102688051136000,2022-01-02-05:51:28,10.1.1.5,187,-0.130,-0.130,-0.130,0.000,0.000,0.000
1641102688253839104,2022-01-02-05:51:28,10.1.1.5,189,-0.120,-0.120,-0.120,0.000,0.000,0.000
1641102688454446080,2022-01-02-05:51:28,10.1.1.5,189,-0.110,-0.110,-0.110,0.000,0.000,0.000
1641102688652944128,2022-01-02-05:51:28,10.1.1.5,187,-0.100,-0.100,-0.100,0.000,0.000,0.000
1641102688852978944,2022-01-02-05:51:28,10.1.1.5,186,-0.090,-0.090,-0.090,0.000,0.000,0.000
1641102689053174016,2022-01-02-05:51:29,10.1.1.5,185,-0.080,-0.080,-0.080,0.000,0.000,0.000
1641102689255049984,2022-01-02-05:51:29,10.1.1.5,187,-0.070,-0.070,-0.070,0.000,0.000,0.000
1641102689456636928,2022-01-02-05:51:29,10.1.1.5,187,-0.060,-0.060,-0.060,0.000,0.000,0.000
1641102689659588096,2022-01-02-05:51:29,10.1.1.5,189,-0.050,-0.050,-0.050,0.000,0.000,0.000
1641102689855020032,2022-01-02-05:51:29,10.1.1.5,183,-0.040,-0.040,-0.040,0.000,0.000,0.000
1641102690055510016,2022-01-02-05:51:30,10.1.1.5,183,-0.030,-0.030,-0.030,0.000,0.000,0.000
1641102690256933888,2022-01-02-05:51:30,10.1.1.5,183,-0.020,-0.020,-0.020,0.000,0.000,0.000
1641102690455205888,2022-01-02-05:51:30,10.1.1.5,181,-0.010,-0.010,-0.010,0.000,0.000,0.000
1641102690657018880,2022-01-02-05:51:30,10.1.1.5,178,-0.000,-0.000,-0.000,0.000,0.000,0.000
1641102690858699008,2022-01-02-05:51:30,10.1.1.5,179,-0.010,-0.010,-0.010,0.000,0.000,0.000
1641102691076698112,2022-01-02-05:51:31,10.1.1.5,196,-0.020,-0.020,-0.020,0.000,0.000,0.000
1641102691279060992,2022-01-02-05:51:31,10.1.1.5,198,-0.030,-0.030,-0.030,0.000,0.000,0.000
1641102691478710784,2022-01-02-05:51:31,10.1.1.5,197,-0.040,-0.040,-0.040,0.000,0.000,0.000
1641102691677332992,2022-01-02-05:51:31,10.1.1.5,195,-0.050,-0.050,-0.050,0.000,0.000,0.000
1641102691877410048,2022-01-02-05:51:31,10.1.1.5,195,-0.060,-0.060,-0.060,0.000,0.000,0.000
1641102692077265152,2022-01-02-05:51:32,10.1.1.5,194,-0.070,-0.070,-0.070,0.000,0.000,0.000
1641102692278264064,2022-01-02-05:51:32,10.1.1.5,194,-0.080,-0.080,-0.080,0.000,0.000,0.000
1641102692478235904,2022-01-02-05:51:32,10.1.1.5,193,-0.090,-0.090,-0.090,0.000,0.000,0.000
1641102692680907008,2022-01-02-05:51:32,10.1.1.5,195,-0.100,-0.100,-0.100,0.000,0.000,0.000
1641102692882277120,2022-01-02-05:51:32,10.1.1.5,195,-0.110,-0.110,-0.110,0.000,0.000,0.000
1641102693077629952,2022-01-02-05:51:33,10.1.1.5,189,-0.120,-0.120,-0.120,0.000,0.000,0.000
1641102693280080128,2022-01-02-05:51:33,10.1.1.5,191,-0.130,-0.130,-0.130,0.000,0.000,0.000
1641102693479474944,2022-01-02-05:51:33,10.1.1.5,189,-0.140,-0.140,-0.140,0.000,0.000,0.000
1641102693679058176,2022-01-02-05:51:33,10.1.1.5,187,-0.150,-0.150,-0.150,0.000,0.000,0.000
1641102693879641088,2022-01-02-05:51:33,10.1.1.5,186,-0.160,-0.160,-0.160,0.000,0.000,0.000
1641102694079358976,2022-01-02-05:51:34,10.1.1.5,185,-0.170,-0.170,-0.170,0.000,0.000,0.000
1641102694280237824,2022-01-02-05:51:34,10.1.1.5,186,-0.180,-0.180,-0.180,0.000,0.000,0.000
1641102694495287040,2022-01-02-05:51:34,10.1.1.5,200,-0.190,-0.190,-0.190,0.000,0.000,0.000
1641102694678339072,2022-01-02-05:51:34,10.1.1.5,181,-0.200,-0.200,-0.200,0.000,0.000,0.000
1641102694901016064,2022-01-02-05:51:34,10.1.1.5,187,-0.210,-0.210,-0.210,0.000,0.000,0.000
1641102695098308096,2022-01-02-05:51:35,10.1.1.5,183,-0.220,-0.220,-0.220,0.000,0.000,0.000
1641102695298217984,2022-01-02-05:51:35,10.1.1.5,183,-0.230,-0.230,-0.230,0.000,0.000,0.000
1641102695503953920,2022-01-02-05:51:35,10.1.1.5,188,-0.240,-0.240,-0.240,0.000,0.000,0.000
1641102695700349184,2022-01-02-05:51:35,10.1.1.5,182,-0.250,-0.250,-0.250,0.000,0.000,0.000
1641102695920964864,2022-01-02-05:51:35,10.1.1.5,198,-0.260,-0.260,-0.260,0.000,0.000,0.000
1641102696120178944,2022-01-02-05:51:36,10.1.1.5,198,-0.270,-0.270,-0.270,0.000,0.000,0.000
1641102696319098112,2022-01-02-05:51:36,10.1.1.5,197,-0.280,-0.280,-0.280,0.000,0.000,0.000
1641102696519578880,2022-01-02-05:51:36,10.1.1.5,196,-0.290,-0.290,-0.290,0.000,0.000,0.000
1641102696719446784,2022-01-02-05:51:36,10.1.1.5,195,-0.300,-0.300,-0.300,0.000,0.000,0.000
1641102696918430208,2022-01-02-05:51:36,10.1.1.5,193,-0.310,-0.310,-0.310,0.000,0.000,0.000
1641102697117810944,2022-01-02-05:51:37,10.1.1.5,191,-0.320,-0.320,-0.320,0.000,0.000,0.000
1641102697320407040,2022-01-02-05:51:37,10.1.1.5,193,-0.330,-0.330,-0.330,0.000,0.000,0.000
1641102697521688832,2022-01-02-05:51:37,10.1.1.5,194,-0.340,-0.340,-0.340,0.000,0.000,0.000
1641102697721275136,2022-01-02-05:51:37,10.1.1.5,191,-0.350,-0.350,-0.350,0.000,0.000,0.000
1641102697921259008,2022-01-02-05:51:37,10.1.1.5,192,-0.360,-0.360,-0.360,0.000,0.000,0.000
1641102698118208000,2022-01-02-05:51:38,10.1.1.5,188,-0.370,-0.370,-0.370,0.000,0.000,0.000
1641102698318276864,2022-01-02-05:51:38,10.1.1.5,188,-0.380,-0.380,-0.380,0.000,0.000,0.000
1641102698519337984,2022-01-02-05:51:38,10.1.1.5,188,-0.390,-0.390,-0.390,0.000,0.000,0.000
1641102698719259904,2022-01-02-05:51:38,10.1.1.5,188,-0.400,-0.400,-0.400,0.000,0.000,0.000
1641102698918670848,2022-01-02-05:51:38,10.1.1.5,186,-0.410,-0.410,-0.410,0.000,0.000,0.000
1641102699118925056,2022-01-02-05:51:39,10.1.1.5,185,-0.420,-0.420,-0.420,0.000,0.000,0.000
1641102699325768960,2022-01-02-05:51:39,10.1.1.5,187,-0.430,-0.430,-0.430,0.000,0.000,0.000
1641102699537815040,2022-01-02-05:51:39,10.1.1.5,197,-0.440,-0.440,-0.440,0.000,0.000,0.000
1641102699936246016,2022-01-02-05:51:39,10.1.1.5,193,-0.460,-0.460,-0.460,0.000,0.000,0.000
1641102700137419008,2022-01-02-05:51:40,10.1.1.5,194,-0.470,-0.470,-0.470,0.000,0.000,0.000
1641102700336976128,2022-01-02-05:51:40,10.1.1.5,192,-0.480,-0.480,-0.480,0.000,0.000,0.000
1641102700536540928,2022-01-02-05:51:40,10.1.1.5,191,-0.490,-0.490,-0.490,0.000,0.000,0.000
1641102700739582976,2022-01-02-05:51:40,10.1.1.5,193,-0.480,-0.480,-0.480,0.000,0.000,0.000
1641102700935939072,2022-01-02-05:51:40,10.1.1.5,189,-0.470,-0.470,-0.470,0.000,0.000,0.000
1641102701135062016,2022-01-02-05:51:41,10.1.1.5,188,-0.460,-0.460,-0.460,0.000,0.000,0.000
1641102701336419072,2022-01-02-05:51:41,10.1.1.5,188,-0.450,-0.450,-0.450,0.000,0.000,0.000
1641102701534412032,2022-01-02-05:51:41,10.1.1.5,185,-0.440,-0.440,-0.440,0.000,0.000,0.000
1641102701734144000,2022-01-02-05:51:41,10.1.1.5,185,-0.430,-0.430,-0.430,0.000,0.000,0.000
1641102701934863104,2022-01-02-05:51:41,10.1.1.5,185,-0.420,-0.420,-0.420,0.000,0.000,0.000
1641102702134553856,2022-01-02-05:51:42,10.1.1.5,183,-0.410,-0.410,-0.410,0.000,0.000,0.000
1641102702337723904,2022-01-02-05:51:42,10.1.1.5,185,-0.400,-0.400,-0.400,0.000,0.000,0.000
1641102702536429824,2022-01-02-05:51:42,10.1.1.5,180,-0.390,-0.390,-0.390,0.000,0.000,0.000
1641102702732500992,2022-01-02-05:51:42,10.1.1.5,175,-0.380,-0.380,-0.380,0.000,0.000,0.000
1641102702938860032,2022-01-02-05:51:42,10.1.1.5,180,-0.370,-0.370,-0.370,0.000,0.000,0.000
1641102703153707008,2022-01-02-05:51:43,10.1.1.5,192,-0.360,-0.360,-0.360,0.000,0.000,0.000
1641102703354327808,2022-01-02-05:51:43,10.1.1.5,193,-0.350,-0.350,-0.350,0.000,0.000,0.000
1641102703553221888,2022-01-02-05:51:43,10.1.1.5,191,-0.340,-0.340,-0.340,0.000,0.000,0.000
1641102703752278016,2022-01-02-05:51:43,10.1.1.5,189,-0.330,-0.330,-0.330,0.000,0.000,0.000
1641102703955025920,2022-01-02-05:51:43,10.1.1.5,189,-0.320,-0.320,-0.320,0.000,0.000,0.000
1641102704152737024,2022-01-02-05:51:44,10.1.1.5,187,-0.310,-0.310,-0.310,0.000,0.000,0.000
1641102704351556096,2022-01-02-05:51:44,10.1.1.5,185,-0.300,-0.300,-0.300,0.000,0.000,0.000
1641102704552231936,2022-01-02-05:51:44,10.1.1.5,184,-0.290,-0.290,-0.290,0.000,0.000,0.000
1641102704751262976,2022-01-02-05:51:44,10.1.1.5,182,-0.280,-0.280,-0.280,0.000,0.000,0.000
1641102704952497920,2022-01-02-05:51:44,10.1.1.5,183,-0.270,-0.270,-0.270,0.000,0.000,0.000
1641102705150953984,2022-01-02-05:51:45,10.1.1.5,181,-0.260,-0.260,-0.260,0.000,0.000,0.000
1641102705350500096,2022-01-02-05:51:45,10.1.1.5,179,-0.250,-0.250,-0.250,0.000,0.000,0.000
1641102705550177024,2022-01-02-05:51:45,10.1.1.5,178,-0.240,-0.240,-0.240,0.000,0.000,0.000
1641102705749538048,2022-01-02-05:51:45,10.1.1.5,177,-0.230,-0.230,-0.230,0.000,0.000,0.000
1641102705949619968,2022-01-02-05:51:45,10.1.1.5,175,-0.220,-0.220,-0.220,0.000,0.000,0.000
1641102706150295040,2022-01-02-05:51:46,10.1.1.5,172,-0.210,-0.210,-0.210,0.000,0.000,0.000
1641102706348151040,2022-01-02-05:51:46,10.1.1.5,170,-0.200,-0.200,-0.200,0.000,0.000,0.000
1641102706548263168,2022-01-02-05:51:46,10.1.1.5,169,-0.190,-0.190,-0.190,0.000,0.000,0.000
1641102706750039040,2022-01-02-05:51:46,10.1.1.5,170,-0.180,-0.180,-0.180,0.000,0.000,0.000
1641102706969890048,2022-01-02-05:51:46,10.1.1.5,189,-0.170,-0.170,-0.170,0.000,0.000,0.000
1641102707168450048,2022-01-02-05:51:47,10.1.1.5,187,-0.160,-0.160,-0.160,0.000,0.000,0.000
1641102707369327104,2022-01-02-05:51:47,10.1.1.5,188,-0.150,-0.150,-0.150,0.000,0.000,0.000
1641102707569979904,2022-01-02-05:51:47,10.1.1.5,188,-0.140,-0.140,-0.140,0.000,0.000,0.000
1641102707769373952,2022-01-02-05:51:47,10.1.1.5,187,-0.130,-0.130,-0.130,0.000,0.000,0.000
1641102707966202880,2022-01-02-05:51:47,10.1.1.5,183,-0.120,-0.120,-0.120,0.000,0.000,0.000
1641102708167493120,2022-01-02-05:51:48,10.1.1.5,183,-0.110,-0.110,-0.110,0.000,0.000,0.000
1641102708367332096,2022-01-02-05:51:48,10.1.1.5,182,-0.100,-0.100,-0.100,0.000,0.000,0.000
1641102708566189056,2022-01-02-05:51:48,10.1.1.5,177,-0.090,-0.090,-0.090,0.000,0.000,0.000
1641102708765875968,2022-01-02-05:51:48,10.1.1.5,176,-0.080,-0.080,-0.080,0.000,0.000,0.000
1641102708964688896,2022-01-02-05:51:48,10.1.1.5,174,-0.070,-0.070,-0.070,0.000,0.000,0.000
1641102709165065984,2022-01-02-05:51:49,10.1.1.5,174,-0.060,-0.060,-0.060,0.000,0.000,0.000
1641102709365358080,2022-01-02-05:51:49,10.1.1.5,173,-0.050,-0.050,-0.050,0.000,0.000,0.000
1641102709563891968,2022-01-02-05:51:49,10.1.1.5,171,-0.040,-0.040,-0.040,0.000,0.000,0.000
1641102709764983808,2022-01-02-05:51:49,10.1.1.5,171,-0.030,-0.030,-0.030,0.000,0.000,0.000
1641102709962720000,2022-01-02-05:51:49,10.1.1.5,167,-0.020,-0.020,-0.020,0.000,0.000,0.000
1641102710163911168,2022-01-02-05:51:50,10.1.1.5,168,-0.010,-0.010,-0.010,0.000,0.000,0.000
1641102710366127104,2022-01-02-05:51:50,10.1.1.5,167,-0.000,-0.000,-0.000,0.000,0.000,0.000
1641102710584686080,2022-01-02-05:51:50,10.1.1.5,183,-0.010,-0.010,-0.010,0.000,0.000,0.000
1641102710785285888,2022-01-02-05:51:50,10.1.1.5,183,-0.020,-0.020,-0.020,0.000,0.000,0.000
1641102710984133120,2022-01-02-05:51:50,10.1.1.5,180,-0.030,-0.030,-0.030,0.000,0.000,0.000
1641102711181737984,2022-01-02-05:51:51,10.1.1.5,175,-0.040,-0.040,-0.040,0.000,0.000,0.000
1641102711383744000,2022-01-02-05:51:51,10.1.1.5,177,-0.050,-0.050,-0.050,0.000,0.000,0.000
1641102711586021888,2022-01-02-05:51:51,10.1.1.5,179,-0.060,-0.060,-0.060,0.000,0.000,0.000
1641102711783885056,2022-01-02-05:51:51,10.1.1.5,176,-0.070,-0.070,-0.070,0.000,0.000,0.000
1641102711980060928,2022-01-02-05:51:51,10.1.1.5,172,-0.080,-0.080,-0.080,0.000,0.000,0.000
1641102712181238016,2022-01-02-05:51:52,10.1.1.5,172,-0.090,-0.090,-0.090,0.000,0.000,0.000
1641102712380360960,2022-01-02-05:51:52,10.1.1.5,171,-0.100,-0.100,-0.100,0.000,0.000,0.000
1641102712580729856,2022-01-02-05:51:52,10.1.1.5,169,-0.110,-0.110,-0.110,0.000,0.000,0.000
1641102712779763968,2022-01-02-05:51:52,10.1.1.5,170,-0.120,-0.120,-0.120,0.000,0.000,0.000
1641102712979367936,2022-01-02-05:51:52,10.1.1.5,169,-0.130,-0.130,-0.130,0.000,0.000,0.000
1641102713178531840,2022-01-02-05:51:53,10.1.1.5,168,-0.140,-0.140,-0.140,0.000,0.000,0.000
1641102713377595904,2022-01-02-05:51:53,10.1.1.5,166,-0.150,-0.150,-0.150,0.000,0.000,0.000
1641102713577779968,2022-01-02-05:51:53,10.1.1.5,166,-0.160,-0.160,-0.160,0.000,0.000,0.000
1641102713777876992,2022-01-02-05:51:53,10.1.1.5,164,-0.170,-0.170,-0.170,0.000,0.000,0.000
1641102713978915072,2022-01-02-05:51:53,10.1.1.5,164,-0.180,-0.180,-0.180,0.000,0.000,0.000
1641102714178679040,2022-01-02-05:51:54,10.1.1.5,163,-0.190,-0.190,-0.190,0.000,0.000,0.000
1641102714377041152,2022-01-02-05:51:54,10.1.1.5,158,-0.200,-0.200,-0.200,0.000,0.000,0.000
1641102714597817856,2022-01-02-05:51:54,10.1.1.5,178,-0.210,-0.210,-0.210,0.000,0.000,0.000
1641102714796338176,2022-01-02-05:51:54,10.1.1.5,176,-0.220,-0.220,-0.220,0.000,0.000,0.000
1641102714998003968,2022-01-02-05:51:54,10.1.1.5,176,-0.230,-0.230,-0.230,0.000,0.000,0.000
1641102715199886080,2022-01-02-05:51:55,10.1.1.5,178,-0.240,-0.240,-0.240,0.000,0.000,0.000
1641102715395042048,2022-01-02-05:51:55,10.1.1.5,173,-0.250,-0.250,-0.250,0.000,0.000,0.000
1641102715595230976,2022-01-02-05:51:55,10.1.1.5,172,-0.260,-0.260,-0.260,0.000,0.000,0.000
1641102715797050112,2022-01-02-05:51:55,10.1.1.5,173,-0.270,-0.270,-0.270,0.000,0.000,0.000
1641102715995283968,2022-01-02-05:51:55,10.1.1.5,171,-0.280,-0.280,-0.280,0.000,0.000,0.000
1641102716195534080,2022-01-02-05:51:56,10.1.1.5,171,-0.290,-0.290,-0.290,0.000,0.000,0.000
1641102716397372928,2022-01-02-05:51:56,10.1.1.5,172,-0.300,-0.300,-0.300,0.000,0.000,0.000
1641102716598086144,2022-01-02-05:51:56,10.1.1.5,172,-0.310,-0.310,-0.310,0.000,0.000,0.000
1641102716800622848,2022-01-02-05:51:56,10.1.1.5,174,-0.320,-0.320,-0.320,0.000,0.000,0.000
1641102717001574144,2022-01-02-05:51:57,10.1.1.5,174,-0.330,-0.330,-0.330,0.000,0.000,0.000
1641102717202565888,2022-01-02-05:51:57,10.1.1.5,173,-0.340,-0.340,-0.340,0.000,0.000,0.000
1641102717402287104,2022-01-02-05:51:57,10.1.1.5,174,-0.350,-0.350,-0.350,0.000,0.000,0.000
1641102717604062208,2022-01-02-05:51:57,10.1.1.5,175,-0.360,-0.360,-0.360,0.000,0.000,0.000
1641102717803890944,2022-01-02-05:51:57,10.1.1.5,174,-0.370,-0.370,-0.370,0.000,0.000,0.000
1641102718005832960,2022-01-02-05:51:58,10.1.1.5,175,-0.380,-0.380,-0.380,0.000,0.000,0.000
1641102718206134016,2022-01-02-05:51:58,10.1.1.5,175,-0.390,-0.390,-0.390,0.000,0.000,0.000
1641102718405216000,2022-01-02-05:51:58,10.1.1.5,173,-0.400,-0.400,-0.400,0.000,0.000,0.000
1641102718606457856,2022-01-02-05:51:58,10.1.1.5,173,-0.410,-0.410,-0.410,0.000,0.000,0.000
1641102718806936064,2022-01-02-05:51:58,10.1.1.5,173,-0.420,-0.420,-0.420,0.000,0.000,0.000
1641102719007514880,2022-01-02-05:51:59,10.1.1.5,173,-0.430,-0.430,-0.430,0.000,0.000,0.000
1641102719211150848,2022-01-02-05:51:59,10.1.1.5,176,-0.440,-0.440,-0.440,0.000,0.000,0.000
1641102719411076096,2022-01-02-05:51:59,10.1.1.5,175,-0.450,-0.450,-0.450,0.000,0.000,0.000
1641102719610161920,2022-01-02-05:51:59,10.1.1.5,174,-0.460,-0.460,-0.460,0.000,0.000,0.000
1641102719812743936,2022-01-02-05:51:59,10.1.1.5,175,-0.470,-0.470,-0.470,0.000,0.000,0.000
1641102720013062912,2022-01-02-05:52:00,10.1.1.5,175,-0.480,-0.480,-0.480,0.000,0.000,0.000
1641102720210739968,2022-01-02-05:52:00,10.1.1.5,172,-0.490,-0.490,-0.490,0.000,0.000,0.000
1641102720411746048,2022-01-02-05:52:00,10.1.1.5,172,-0.480,-0.480,-0.480,0.000,0.000,0.000
1641102720632376064,2022-01-02-05:52:00,10.1.1.5,193,-0.470,-0.470,-0.470,0.000,0.000,0.000
1641102720832269824,2022-01-02-05:52:00,10.1.1.5,192,-0.460,-0.460,-0.460,0.000,0.000,0.000
1641102721033462016,2022-01-02-05:52:01,10.1.1.5,193,-0.450,-0.450,-0.450,0.000,0.000,0.000
1641102721233628160,2022-01-02-05:52:01,10.1.1.5,190,-0.440,-0.440,-0.440,0.000,0.000,0.000
1641102721433427968,2022-01-02-05:52:01,10.1.1.5,189,-0.430,-0.430,-0.430,0.000,0.000,0.000
1641102721634781952,2022-01-02-05:52:01,10.1.1.5,190,-0.420,-0.420,-0.420,0.000,0.000,0.000
1641102721835009024,2022-01-02-05:52:01,10.1.1.5,189,-0.410,-0.410,-0.410,0.000,0.000,0.000
1641102722036092928,2022-01-02-05:52:02,10.1.1.5,189,-0.400,-0.400,-0.400,0.000,0.000,0.000
1641102722234874880,2022-01-02-05:52:02,10.1.1.5,188,-0.390,-0.390,-0.390,0.000,0.000,0.000
1641102722436692992,2022-01-02-05:52:02,10.1.1.5,189,-0.380,-0.380,-0.380,0.000,0.000,0.000
1641102722637403136,2022-01-02-05:52:02,10.1.1.5,190,-0.370,-0.370,-0.370,0.000,0.000,0.000
1641102722836307968,2022-01-02-05:52:02,10.1.1.5,188,-0.360,-0.360,-0.360,0.000,0.000,0.000
1641102723036680960,2022-01-02-05:52:03,10.1.1.5,188,-0.350,-0.350,-0.350,0.000,0.000,0.000
1641102723237083904,2022-01-02-05:52:03,10.1.1.5,187,-0.340,-0.340,-0.340,0.000,0.000,0.000
1641102723436508928,2022-01-02-05:52:03,10.1.1.5,186,-0.330,-0.330,-0.330,0.000,0.000,0.000
1641102723637372928,2022-01-02-05:52:03,10.1.1.5,187,-0.320,-0.320,-0.320,0.000,0.000,0.000
1641102723836862208,2022-01-02-05:52:03,10.1.1.5,186,-0.310,-0.310,-0.310,0.000,0.000,0.000
1641102724038754816,2022-01-02-05:52:04,10.1.1.5,187,-0.300,-0.300,-0.300,0.000,0.000,0.000
1641102724242417152,2022-01-02-05:52:04,10.1.1.5,190,-0.290,-0.290,-0.290,0.000,0.000,0.000
1641102724437405184,2022-01-02-05:52:04,10.1.1.5,185,-0.280,-0.280,-0.280,0.000,0.000,0.000
1641102724637790976,2022-01-02-05:52:04,10.1.1.5,185,-0.270,-0.270,-0.270,0.000,0.000,0.000
1641102724840640000,2022-01-02-05:52:04,10.1.1.5,186,-0.260,-0.260,-0.260,0.000,0.000,0.000
1641102725037751040,2022-01-02-05:52:05,10.1.1.5,184,-0.250,-0.250,-0.250,0.000,0.000,0.000
1641102725238328832,2022-01-02-05:52:05,10.1.1.5,184,-0.240,-0.240,-0.240,0.000,0.000,0.000
1641102725439656960,2022-01-02-05:52:05,10.1.1.5,184,-0.230,-0.230,-0.230,0.000,0.000,0.000
1641102725637975040,2022-01-02-05:52:05,10.1.1.5,182,-0.220,-0.220,-0.220,0.000,0.000,0.000
1641102725837956864,2022-01-02-05:52:05,10.1.1.5,180,-0.210,-0.210,-0.210,0.000,0.000,0.000
1641102726037543936,2022-01-02-05:52:06,10.1.1.5,179,-0.200,-0.200,-0.200,0.000,0.000,0.000
1641102726239019008,2022-01-02-05:52:06,10.1.1.5,180,-0.190,-0.190,-0.190,0.000,0.000,0.000
1641102726458780160,2022-01-02-05:52:06,10.1.1.5,198,-0.180,-0.180,-0.180,0.000,0.000,0.000
1641102726660259840,2022-01-02-05:52:06,10.1.1.5,199,-0.170,-0.170,-0.170,0.000,0.000,0.000
1641102726859885056,2022-01-02-05:52:06,10.1.1.5,198,-0.160,-0.160,-0.160,0.000,0.000,0.000
1641102727060244992,2022-01-02-05:52:07,10.1.1.5,198,-0.150,-0.150,-0.150,0.000,0.000,0.000
1641102727258721024,2022-01-02-05:52:07,10.1.1.5,196,-0.140,-0.140,-0.140,0.000,0.000,0.000
1641102727460662016,2022-01-02-05:52:07,10.1.1.5,196,-0.130,-0.130,-0.130,0.000,0.000,0.000
1641102727658651136,2022-01-02-05:52:07,10.1.1.5,193,-0.120,-0.120,-0.120,0.000,0.000,0.000
1641102727858289920,2022-01-02-05:52:07,10.1.1.5,192,-0.110,-0.110,-0.110,0.000,0.000,0.000
1641102728059098880,2022-01-02-05:52:08,10.1.1.5,192,-0.100,-0.100,-0.100,0.000,0.000,0.000
1641102728258404096,2022-01-02-05:52:08,10.1.1.5,191,-0.090,-0.090,-0.090,0.000,0.000,0.000
1641102728460141824,2022-01-02-05:52:08,10.1.1.5,189,-0.080,-0.080,-0.080,0.000,0.000,0.000
1641102728662381824,2022-01-02-05:52:08,10.1.1.5,191,-0.070,-0.070,-0.070,0.000,0.000,0.000
1641102728860104960,2022-01-02-05:52:08,10.1.1.5,188,-0.060,-0.060,-0.060,0.000,0.000,0.000
1641102729058841088,2022-01-02-05:52:09,10.1.1.5,186,-0.050,-0.050,-0.050,0.000,0.000,0.000
1641102729259624960,2022-01-02-05:52:09,10.1.1.5,186,-0.040,-0.040,-0.040,0.000,0.000,0.000
1641102729458674944,2022-01-02-05:52:09,10.1.1.5,185,-0.030,-0.030,-0.030,0.000,0.000,0.000
1641102729658132992,2022-01-02-05:52:09,10.1.1.5,184,-0.020,-0.020,-0.020,0.000,0.000,0.000
1641102729859546880,2022-01-02-05:52:09,10.1.1.5,183,-0.010,-0.010,-0.010,0.000,0.000,0.000
1641102730057531136,2022-01-02-05:52:10,10.1.1.5,179,0.000,0.000,0.000,0.000,0.000,0.000
1641102730258372096,2022-01-02-05:52:10,10.1.1.5,179,-0.010,-0.010,-0.010,0.000,0.000,0.000
1641102730479835904,2022-01-02-05:52:10,10.1.1.5,200,-0.020,-0.020,-0.020,0.000,0.000,0.000
1641102730677117952,2022-01-02-05:52:10,10.1.1.5,196,-0.030,-0.030,-0.030,0.000,0.000,0.000
1641102730879446016,2022-01-02-05:52:10,10.1.1.5,198,-0.040,-0.040,-0.040,0.000,0.000,0.000
1641102731076733184,2022-01-02-05:52:11,10.1.1.5,194,-0.050,-0.050,-0.050,0.000,0.000,0.000
1641102731278471936,2022-01-02-05:52:11,10.1.1.5,194,-0.060,-0.060,-0.060,0.000,0.000,0.000
1641102731477044992,2022-01-02-05:52:11,10.1.1.5,192,-0.070,-0.070,-0.070,0.000,0.000,0.000
1641102731675791872,2022-01-02-05:52:11,10.1.1.5,190,-0.080,-0.080,-0.080,0.000,0.000,0.000
1641102731876462848,2022-01-02-05:52:11,10.1.1.5,190,-0.090,-0.090,-0.090,0.000,0.000,0.000
1641102732077346048,2022-01-02-05:52:12,10.1.1.5,189,-0.100,-0.100,-0.100,0.000,0.000,0.000
1641102732279558912,2022-01-02-05:52:12,10.1.1.5,192,-0.110,-0.110,-0.110,0.000,0.000,0.000
1641102732482125056,2022-01-02-05:52:12,10.1.1.5,192,-0.120,-0.120,-0.120,0.000,0.000,0.000
1641102732674962944,2022-01-02-05:52:12,10.1.1.5,182,-0.130,-0.130,-0.130,0.000,0.000,0.000
1641102732897424896,2022-01-02-05:52:12,10.1.1.5,193,-0.140,-0.140,-0.140,0.000,0.000,0.000
1641102733098017024,2022-01-02-05:52:13,10.1.1.5,192,-0.150,-0.150,-0.150,0.000,0.000,0.000
1641102733296680960,2022-01-02-05:52:13,10.1.1.5,191,-0.160,-0.160,-0.160,0.000,0.000,0.000
1641102733494551040,2022-01-02-05:52:13,10.1.1.5,188,-0.170,-0.170,-0.170,0.000,0.000,0.000
1641102733696773888,2022-01-02-05:52:13,10.1.1.5,190,-0.180,-0.180,-0.180,0.000,0.000,0.000
1641102733895222016,2022-01-02-05:52:13,10.1.1.5,187,-0.190,-0.190,-0.190,0.000,0.000,0.000
1641102734094904064,2022-01-02-05:52:14,10.1.1.5,186,-0.200,-0.200,-0.200,0.000,0.000,0.000
1641102734294068224,2022-01-02-05:52:14,10.1.1.5,184,-0.210,-0.210,-0.210,0.000,0.000,0.000
1641102734494385920,2022-01-02-05:52:14,10.1.1.5,184,-0.220,-0.220,-0.220,0.000,0.000,0.000
1641102734693286912,2022-01-02-05:52:14,10.1.1.5,182,-0.230,-0.230,-0.230,0.000,0.000,0.000
1641102734894658048,2022-01-02-05:52:14,10.1.1.5,183,-0.240,-0.240,-0.240,0.000,0.000,0.000
1641102735093584128,2022-01-02-05:52:15,10.1.1.5,181,-0.250,-0.250,-0.250,0.000,0.000,0.000
1641102735293477120,2022-01-02-05:52:15,10.1.1.5,179,-0.260,-0.260,-0.260,0.000,0.000,0.000
1641102735492097024,2022-01-02-05:52:15,10.1.1.5,177,-0.270,-0.270,-0.270,0.000,0.000,0.000
1641102735692194048,2022-01-02-05:52:15,10.1.1.5,177,-0.280,-0.280,-0.280,0.000,0.000,0.000
1641102735892214016,2022-01-02-05:52:15,10.1.1.5,175,-0.290,-0.290,-0.290,0.000,0.000,0.000
1641102736092324096,2022-01-02-05:52:16,10.1.1.5,175,-0.300,-0.300,-0.300,0.000,0.000,0.000
1641102736291815936,2022-01-02-05:52:16,10.1.1.5,174,-0.310,-0.310,-0.310,0.000,0.000,0.000
1641102736494881024,2022-01-02-05:52:16,10.1.1.5,176,-0.320,-0.320,-0.320,0.000,0.000,0.000
1641102736691833088,2022-01-02-05:52:16,10.1.1.5,173,-0.330,-0.330,-0.330,0.000,0.000,0.000
1641102736912763136,2022-01-02-05:52:16,10.1.1.5,193,-0.340,-0.340,-0.340,0.000,0.000,0.000
1641102737110840064,2022-01-02-05:52:17,10.1.1.5,190,-0.350,-0.350,-0.350,0.000,0.000,0.000
1641102737312690944,2022-01-02-05:52:17,10.1.1.5,190,-0.360,-0.360,-0.360,0.000,0.000,0.000
1641102737515451904,2022-01-02-05:52:17,10.1.1.5,192,-0.370,-0.370,-0.370,0.000,0.000,0.000
1641102737710093056,2022-01-02-05:52:17,10.1.1.5,186,-0.380,-0.380,-0.380,0.000,0.000,0.000
1641102737911990784,2022-01-02-05:52:17,10.1.1.5,187,-0.390,-0.390,-0.390,0.000,0.000,0.000
1641102738110366976,2022-01-02-05:52:18,10.1.1.5,185,-0.400,-0.400,-0.400,0.000,0.000,0.000
1641102738314876160,2022-01-02-05:52:18,10.1.1.5,189,-0.410,-0.410,-0.410,0.000,0.000,0.000
1641102738510134016,2022-01-02-05:52:18,10.1.1.5,176,-0.420,-0.420,-0.420,0.000,0.000,0.000
1641102738711296000,2022-01-02-05:52:18,10.1.1.5,177,-0.430,-0.430,-0.430,0.000,0.000,0.000
1641102738908371968,2022-01-02-05:52:18,10.1.1.5,173,-0.440,-0.440,-0.440,0.000,0.000,0.000
1641102739108582912,2022-01-02-05:52:19,10.1.1.5,173,-0.450,-0.450,-0.450,0.000,0.000,0.000
1641102739309483008,2022-01-02-05:52:19,10.1.1.5,172,-0.460,-0.460,-0.460,0.000,0.000,0.000
1641102739508930816,2022-01-02-05:52:19,10.1.1.5,170,-0.470,-0.470,-0.470,0.000,0.000,0.000
1641102739728713984,2022-01-02-05:52:19,10.1.1.5,187,-0.480,-0.480,-0.480,0.000,0.000,0.000
1641102739926702080,2022-01-02-05:52:19,10.1.1.5,186,-0.490,-0.490,-0.490,0.000,0.000,0.000
1641102740129383936,2022-01-02-05:52:20,10.1.1.5,188,-0.480,-0.480,-0.480,0.000,0.000,0.000
1641102740326150912,2022-01-02-05:52:20,10.1.1.5,184,-0.470,-0.470,-0.470,0.000,0.000,0.000
1641102740528551936,2022-01-02-05:52:20,10.1.1.5,185,-0.460,-0.460,-0.460,0.000,0.000,0.000
1641102740727607040,2022-01-02-05:52:20,10.1.1.5,184,-0.450,-0.450,-0.450,0.000,0.000,0.000
1641102740926125056,2022-01-02-05:52:20,10.1.1.5,181,-0.440,-0.440,-0.440,0.000,0.000,0.000
1641102741126548992,2022-01-02-05:52:21,10.1.1.5,180,-0.430,-0.430,-0.430,0.000,0.000,0.000
1641102741326891776,2022-01-02-05:52:21,10.1.1.5,180,-0.420,-0.420,-0.420,0.000,0.000,0.000
1641102741526618880,2022-01-02-05:52:21,10.1.1.5,179,-0.410,-0.410,-0.410,0.000,0.000,0.000
1641102741725332992,2022-01-02-05:52:21,10.1.1.5,176,-0.400,-0.400,-0.400,0.000,0.000,0.000
1641102741924290048,2022-01-02-05:52:21,10.1.1.5,175,-0.390,-0.390,-0.390,0.000,0.000,0.000
1641102742124604928,2022-01-02-05:52:22,10.1.1.5,175,-0.380,-0.380,-0.380,0.000,0.000,0.000
1641102742323235072,2022-01-02-05:52:22,10.1.1.5,173,-0.370,-0.370,-0.370,0.000,0.000,0.000
1641102742525542912,2022-01-02-05:52:22,10.1.1.5,172,-0.360,-0.360,-0.360,0.000,0.000,0.000
1641102742724638976,2022-01-02-05:52:22,10.1.1.5,172,-0.350,-0.350,-0.350,0.000,0.000,0.000
1641102742924527872,2022-01-02-05:52:22,10.1.1.5,170,-0.340,-0.340,-0.340,0.000,0.000,0.000
1641102743125211904,2022-01-02-05:52:23,10.1.1.5,168,-0.330,-0.330,-0.330,0.000,0.000,0.000
1641102743323968000,2022-01-02-05:52:23,10.1.1.5,167,-0.320,-0.320,-0.320,0.000,0.000,0.000
1641102743522126080,2022-01-02-05:52:23,10.1.1.5,164,-0.310,-0.310,-0.310,0.000,0.000,0.000
1641102743724185856,2022-01-02-05:52:23,10.1.1.5,165,-0.300,-0.300,-0.300,0.000,0.000,0.000
1641102743945097984,2022-01-02-05:52:23,10.1.1.5,179,-0.290,-0.290,-0.290,0.000,0.000,0.000
1641102744141443840,2022-01-02-05:52:24,10.1.1.5,171,-0.280,-0.280,-0.280,0.000,0.000,0.000
1641102744341243904,2022-01-02-05:52:24,10.1.1.5,170,-0.270,-0.270,-0.270,0.000,0.000,0.000
1641102744541537024,2022-01-02-05:52:24,10.1.1.5,168,-0.260,-0.260,-0.260,0.000,0.000,0.000
1641102744744801024,2022-01-02-05:52:24,10.1.1.5,168,-0.250,-0.250,-0.250,0.000,0.000,0.000
1641102744942356992,2022-01-02-05:52:24,10.1.1.5,164,-0.240,-0.240,-0.240,0.000,0.000,0.000
1641102745158850048,2022-01-02-05:52:25,10.1.1.5,177,-0.230,-0.230,-0.230,0.000,0.000,0.000
1641102745359380992,2022-01-02-05:52:25,10.1.1.5,176,-0.220,-0.220,-0.220,0.000,0.000,0.000
1641102745557442048,2022-01-02-05:52:25,10.1.1.5,174,-0.210,-0.210,-0.210,0.000,0.000,0.000
1641102745760427008,2022-01-02-05:52:25,10.1.1.5,177,-0.200,-0.200,-0.200,0.000,0.000,0.000
1641102745962380800,2022-01-02-05:52:25,10.1.1.5,178,-0.190,-0.190,-0.190,0.000,0.000,0.000
1641102746157555968,2022-01-02-05:52:26,10.1.1.5,172,-0.180,-0.180,-0.180,0.000,0.000,0.000
1641102746358871040,2022-01-02-05:52:26,10.1.1.5,173,-0.170,-0.170,-0.170,0.000,0.000,0.000
1641102746557758976,2022-01-02-05:52:26,10.1.1.5,171,-0.160,-0.160,-0.160,0.000,0.000,0.000
1641102746756166912,2022-01-02-05:52:26,10.1.1.5,169,-0.150,-0.150,-0.150,0.000,0.000,0.000
1641102746955924992,2022-01-02-05:52:26,10.1.1.5,168,-0.140,-0.140,-0.140,0.000,0.000,0.000
1641102747155486208,2022-01-02-05:52:27,10.1.1.5,167,-0.130,-0.130,-0.130,0.000,0.000,0.000
1641102747355084032,2022-01-02-05:52:27,10.1.1.5,166,-0.120,-0.120,-0.120,0.000,0.000,0.000
1641102747557230848,2022-01-02-05:52:27,10.1.1.5,165,-0.110,-0.110,-0.110,0.000,0.000,0.000
1641102747756406016,2022-01-02-05:52:27,10.1.1.5,166,-0.100,-0.100,-0.100,0.000,0.000,0.000
1641102747957228032,2022-01-02-05:52:27,10.1.1.5,167,-0.090,-0.090,-0.090,0.000,0.000,0.000
1641102748156450048,2022-01-02-05:52:28,10.1.1.5,164,-0.080,-0.080,-0.080,0.000,0.000,0.000
1641102748361629952,2022-01-02-05:52:28,10.1.1.5,170,-0.070,-0.070,-0.070,0.000,0.000,0.000
1641102748557555968,2022-01-02-05:52:28,10.1.1.5,165,-0.060,-0.060,-0.060,0.000,0.000,0.000
1641102748758651136,2022-01-02-05:52:28,10.1.1.5,165,-0.050,-0.050,-0.050,0.000,0.000,0.000
1641102748961379072,2022-01-02-05:52:28,10.1.1.5,167,-0.040,-0.040,-0.040,0.000,0.000,0.000
1641102749160649984,2022-01-02-05:52:29,10.1.1.5,165,-0.030,-0.030,-0.030,0.000,0.000,0.000
1641102749361885952,2022-01-02-05:52:29,10.1.1.5,166,-0.020,-0.020,-0.020,0.000,0.000,0.000
1641102749562691840,2022-01-02-05:52:29,10.1.1.5,166,-0.010,-0.010,-0.010,0.000,0.000,0.000
1641102749763001088,2022-01-02-05:52:29,10.1.1.5,165,0.000,0.000,0.000,0.000,0.000,0.000
1641102749965019904,2022-01-02-05:52:29,10.1.1.5,165,-0.010,-0.010,-0.010,0.000,0.000,0.000
1641102750185932032,2022-01-02-05:52:30,10.1.1.5,186,-0.020,-0.020,-0.020,0.000,0.000,0.000
1641102750384601088,2022-01-02-05:52:30,10.1.1.5,184,-0.030,-0.030,-0.030,0.000,0.000,0.000
1641102750586404096,2022-01-02-05:52:30,10.1.1.5,185,-0.040,-0.040,-0.040,0.000,0.000,0.000
1641102750786972928,2022-01-02-05:52:30,10.1.1.5,185,-0.050,-0.050,-0.050,0.000,0.000,0.000
1641102750989145088,2022-01-02-05:52:30,10.1.1.5,187,-0.060,-0.060,-0.060,0.000,0.000,0.000
1641102751190118912,2022-01-02-05:52:31,10.1.1.5,187,-0.070,-0.070,-0.070,0.000,0.000,0.000
1641102751393626880,2022-01-02-05:52:31,10.1.1.5,190,-0.080,-0.080,-0.080,0.000,0.000,0.000
1641102751591959040,2022-01-02-05:52:31,10.1.1.5,188,-0.090,-0.090,-0.090,0.000,0.000,0.000
1641102751790294016,2022-01-02-05:52:31,10.1.1.5,185,-0.100,-0.100,-0.100,0.000,0.000,0.000
1641102751992754944,2022-01-02-05:52:31,10.1.1.5,186,-0.110,-0.110,-0.110,0.000,0.000,0.000
1641102752192285184,2022-01-02-05:52:32,10.1.1.5,185,-0.120,-0.120,-0.120,0.000,0.000,0.000
1641102752394321920,2022-01-02-05:52:32,10.1.1.5,187,-0.130,-0.130,-0.130,0.000,0.000,0.000
1641102752593760000,2022-01-02-05:52:32,10.1.1.5,185,-0.140,-0.140,-0.140,0.000,0.000,0.000
1641102752801536000,2022-01-02-05:52:32,10.1.1.5,192,-0.150,-0.150,-0.150,0.000,0.000,0.000
1641102752994068992,2022-01-02-05:52:32,10.1.1.5,184,-0.160,-0.160,-0.160,0.000,0.000,0.000
1641102753194458880,2022-01-02-05:52:33,10.1.1.5,184,-0.170,-0.170,-0.170,0.000,0.000,0.000
1641102753394391040,2022-01-02-05:52:33,10.1.1.5,184,-0.180,-0.180,-0.180,0.000,0.000,0.000
1641102753595499008,2022-01-02-05:52:33,10.1.1.5,183,-0.190,-0.190,-0.190,0.000,0.000,0.000
1641102753794941952,2022-01-02-05:52:33,10.1.1.5,181,-0.200,-0.200,-0.200,0.000,0.000,0.000
1641102753997211904,2022-01-02-05:52:33,10.1.1.5,182,-0.210,-0.210,-0.210,0.000,0.000,0.000
1641102754218765056,2022-01-02-05:52:34,10.1.1.5,200,-0.220,-0.220,-0.220,0.000,0.000,0.000
1641102754418029056,2022-01-02-05:52:34,10.1.1.5,198,-0.230,-0.230,-0.230,0.000,0.000,0.000
1641102754615655936,2022-01-02-05:52:34,10.1.1.5,195,-0.240,-0.240,-0.240,0.000,0.000,0.000
1641102754816382976,2022-01-02-05:52:34,10.1.1.5,195,-0.250,-0.250,-0.250,0.000,0.000,0.000
1641102755016364032,2022-01-02-05:52:35,10.1.1.5,195,-0.260,-0.260,-0.260,0.000,0.000,0.000
1641102755216653056,2022-01-02-05:52:35,10.1.1.5,194,-0.270,-0.270,-0.270,0.000,0.000,0.000
1641102755618946048,2022-01-02-05:52:35,10.1.1.5,195,-0.290,-0.290,-0.290,0.000,0.000,0.000
1641102755820799232,2022-01-02-05:52:35,10.1.1.5,197,-0.300,-0.300,-0.300,0.000,0.000,0.000
1641102756019223040,2022-01-02-05:52:36,10.1.1.5,195,-0.310,-0.310,-0.310,0.000,0.000,0.000
1641102756218363904,2022-01-02-05:52:36,10.1.1.5,193,-0.320,-0.320,-0.320,0.000,0.000,0.000
1641102756420802048,2022-01-02-05:52:36,10.1.1.5,195,-0.330,-0.330,-0.330,0.000,0.000,0.000
1641102756818753024,2022-01-02-05:52:36,10.1.1.5,191,-0.350,-0.350,-0.350,0.000,0.000,0.000
1641102757018595072,2022-01-02-05:52:37,10.1.1.5,189,-0.360,-0.360,-0.360,0.000,0.000,0.000
1641102757218522112,2022-01-02-05:52:37,10.1.1.5,188,-0.370,-0.370,-0.370,0.000,0.000,0.000
1641102757420721152,2022-01-02-05:52:37,10.1.1.5,190,-0.380,-0.380,-0.380,0.000,0.000,0.000
1641102757622961152,2022-01-02-05:52:37,10.1.1.5,191,-0.390,-0.390,-0.390,0.000,0.000,0.000
1641102757820614144,2022-01-02-05:52:37,10.1.1.5,188,-0.400,-0.400,-0.400,0.000,0.000,0.000
1641102758021541120,2022-01-02-05:52:38,10.1.1.5,188,-0.410,-0.410,-0.410,0.000,0.000,0.000
1641102758222206976,2022-01-02-05:52:38,10.1.1.5,188,-0.420,-0.420,-0.420,0.000,0.000,0.000
1641102758420579840,2022-01-02-05:52:38,10.1.1.5,185,-0.430,-0.430,-0.430,0.000,0.000,0.000
1641102758621083904,2022-01-02-05:52:38,10.1.1.5,185,-0.440,-0.440,-0.440,0.000,0.000,0.000
1641102758820226048,2022-01-02-05:52:38,10.1.1.5,183,-0.450,-0.450,-0.450,0.000,0.000,0.000
1641102759021981952,2022-01-02-05:52:39,10.1.1.5,184,-0.460,-0.460,-0.460,0.000,0.000,0.000
1641102759220588800,2022-01-02-05:52:39,10.1.1.5,182,-0.470,-0.470,-0.470,0.000,0.000,0.000
1641102759421869056,2022-01-02-05:52:39,10.1.1.5,182,-0.480,-0.480,-0.480,0.000,0.000,0.000
1641102759642016000,2022-01-02-05:52:39,10.1.1.5,200,-0.490,-0.490,-0.490,0.000,0.000,0.000
1641102759842132992,2022-01-02-05:52:39,10.1.1.5,199,-0.480,-0.480,-0.480,0.000,0.000,0.000
1641102760038899968,2022-01-02-05:52:40,10.1.1.5,194,-0.470,-0.470,-0.470,0.000,0.000,0.000
1641102760242073088,2022-01-02-05:52:40,10.1.1.5,196,-0.460,-0.460,-0.460,0.000,0.000,0.000
1641102760441238016,2022-01-02-05:52:40,10.1.1.5,193,-0.450,-0.450,-0.450,0.000,0.000,0.000
1641102760641026048,2022-01-02-05:52:40,10.1.1.5,192,-0.440,-0.440,-0.440,0.000,0.000,0.000
1641102760842344960,2022-01-02-05:52:40,10.1.1.5,191,-0.430,-0.430,-0.430,0.000,0.000,0.000
1641102761039684096,2022-01-02-05:52:41,10.1.1.5,186,-0.420,-0.420,-0.420,0.000,0.000,0.000
1641102761239460864,2022-01-02-05:52:41,10.1.1.5,185,-0.410,-0.410,-0.410,0.000,0.000,0.000
1641102761439781888,2022-01-02-05:52:41,10.1.1.5,185,-0.400,-0.400,-0.400,0.000,0.000,0.000
1641102761638663936,2022-01-02-05:52:41,10.1.1.5,183,-0.390,-0.390,-0.390,0.000,0.000,0.000
1641102761838371072,2022-01-02-05:52:41,10.1.1.5,181,-0.380,-0.380,-0.380,0.000,0.000,0.000
1641102762038387968,2022-01-02-05:52:42,10.1.1.5,182,-0.370,-0.370,-0.370,0.000,0.000,0.000
1641102762237981952,2022-01-02-05:52:42,10.1.1.5,181,-0.360,-0.360,-0.360,0.000,0.000,0.000
1641102762445527040,2022-01-02-05:52:42,10.1.1.5,187,-0.350,-0.350,-0.350,0.000,0.000,0.000
1641102762638436096,2022-01-02-05:52:42,10.1.1.5,180,-0.340,-0.340,-0.340,0.000,0.000,0.000
1641102762838139136,2022-01-02-05:52:42,10.1.1.5,178,-0.330,-0.330,-0.330,0.000,0.000,0.000
1641102763057558016,2022-01-02-05:52:43,10.1.1.5,197,-0.320,-0.320,-0.320,0.000,0.000,0.000
1641102763257153024,2022-01-02-05:52:43,10.1.1.5,196,-0.310,-0.310,-0.310,0.000,0.000,0.000
1641102763458049024,2022-01-02-05:52:43,10.1.1.5,196,-0.300,-0.300,-0.300,0.000,0.000,0.000
1641102763656924928,2022-01-02-05:52:43,10.1.1.5,194,-0.290,-0.290,-0.290,0.000,0.000,0.000
1641102763857132800,2022-01-02-05:52:43,10.1.1.5,194,-0.280,-0.280,-0.280,0.000,0.000,0.000
1641102764057390080,2022-01-02-05:52:44,10.1.1.5,192,-0.270,-0.270,-0.270,0.000,0.000,0.000
1641102764256573952,2022-01-02-05:52:44,10.1.1.5,191,-0.260,-0.260,-0.260,0.000,0.000,0.000
1641102764456144128,2022-01-02-05:52:44,10.1.1.5,190,-0.250,-0.250,-0.250,0.000,0.000,0.000
1641102764656368128,2022-01-02-05:52:44,10.1.1.5,189,-0.240,-0.240,-0.240,0.000,0.000,0.000
1641102764855834880,2022-01-02-05:52:44,10.1.1.5,188,-0.230,-0.230,-0.230,0.000,0.000,0.000
1641102765059535104,2022-01-02-05:52:45,10.1.1.5,191,-0.220,-0.220,-0.220,0.000,0.000,0.000
1641102765256127232,2022-01-02-05:52:45,10.1.1.5,186,-0.210,-0.210,-0.210,0.000,0.000,0.000
1641102765457145856,2022-01-02-05:52:45,10.1.1.5,187,-0.200,-0.200,-0.200,0.000,0.000,0.000
1641102765658973952,2022-01-02-05:52:45,10.1.1.5,188,-0.190,-0.190,-0.190,0.000,0.000,0.000
1641102765856781056,2022-01-02-05:52:45,10.1.1.5,185,-0.180,-0.180,-0.180,0.000,0.000,0.000
1641102766054620928,2022-01-02-05:52:46,10.1.1.5,181,-0.170,-0.170,-0.170,0.000,0.000,0.000
1641102766255299072,2022-01-02-05:52:46,10.1.1.5,182,-0.160,-0.160,-0.160,0.000,0.000,0.000
1641102766458481152,2022-01-02-05:52:46,10.1.1.5,184,-0.150,-0.150,-0.150,0.000,0.000,0.000
1641102766654070016,2022-01-02-05:52:46,10.1.1.5,177,-0.140,-0.140,-0.140,0.000,0.000,0.000
1641102766855407872,2022-01-02-05:52:46,10.1.1.5,176,-0.130,-0.130,-0.130,0.000,0.000,0.000
1641102767053512960,2022-01-02-05:52:47,10.1.1.5,175,-0.120,-0.120,-0.120,0.000,0.000,0.000
1641102767257528064,2022-01-02-05:52:47,10.1.1.5,178,-0.110,-0.110,-0.110,0.000,0.000,0.000
1641102767457620992,2022-01-02-05:52:47,10.1.1.5,178,-0.100,-0.100,-0.100,0.000,0.000,0.000
1641102767674120960,2022-01-02-05:52:47,10.1.1.5,192,-0.090,-0.090,-0.090,0.000,0.000,0.000
1641102767873716224,2022-01-02-05:52:47,10.1.1.5,189,-0.080,-0.080,-0.080,0.000,0.000,0.000
1641102768072214016,2022-01-02-05:52:48,10.1.1.5,187,-0.070,-0.070,-0.070,0.000,0.000,0.000
1641102768273057024,2022-01-02-05:52:48,10.1.1.5,187,-0.060,-0.060,-0.060,0.000,0.000,0.000
1641102768472507904,2022-01-02-05:52:48,10.1.1.5,186,-0.050,-0.050,-0.050,0.000,0.000,0.000
1641102768673150976,2022-01-02-05:52:48,10.1.1.5,185,-0.040,-0.040,-0.040,0.000,0.000,0.000
1641102768874669056,2022-01-02-05:52:48,10.1.1.5,186,-0.030,-0.030,-0.030,0.000,0.000,0.000
1641102769074019072,2022-01-02-05:52:49,10.1.1.5,184,-0.020,-0.020,-0.020,0.000,0.000,0.000
1641102769271840000,2022-01-02-05:52:49,10.1.1.5,180,-0.010,-0.010,-0.010,0.000,0.000,0.000
1641102769471503104,2022-01-02-05:52:49,10.1.1.5,176,0.000,0.000,0.000,0.000,0.000,0.000
1641102769674192896,2022-01-02-05:52:49,10.1.1.5,178,-0.010,-0.010,-0.010,0.000,0.000,0.000
1641102769875942912,2022-01-02-05:52:49,10.1.1.5,179,-0.020,-0.020,-0.020,0.000,0.000,0.000
1641102770074105856,2022-01-02-05:52:50,10.1.1.5,176,-0.030,-0.030,-0.030,0.000,0.000,0.000
1641102770272945920,2022-01-02-05:52:50,10.1.1.5,174,-0.040,-0.040,-0.040,0.000,0.000,0.000
1641102770475534080,2022-01-02-05:52:50,10.1.1.5,176,-0.050,-0.050,-0.050,0.000,0.000,0.000
1641102770689523968,2022-01-02-05:52:50,10.1.1.5,189,-0.060,-0.060,-0.060,0.000,0.000,0.000
1641102770890791936,2022-01-02-05:52:50,10.1.1.5,190,-0.070,-0.070,-0.070,0.000,0.000,0.000
1641102771089380096,2022-01-02-05:52:51,10.1.1.5,187,-0.080,-0.080,-0.080,0.000,0.000,0.000
1641102771289017088,2022-01-02-05:52:51,10.1.1.5,186,-0.090,-0.090,-0.090,0.000,0.000,0.000
1641102771490994944,2022-01-02-05:52:51,10.1.1.5,187,-0.100,-0.100,-0.100,0.000,0.000,0.000
1641102771687977984,2022-01-02-05:52:51,10.1.1.5,183,-0.110,-0.110,-0.110,0.000,0.000,0.000
1641102771888984064,2022-01-02-05:52:51,10.1.1.5,183,-0.120,-0.120,-0.120,0.000,0.000,0.000
1641102772092228864,2022-01-02-05:52:52,10.1.1.5,184,-0.130,-0.130,-0.130,0.000,0.000,0.000
1641102772287041792,2022-01-02-05:52:52,10.1.1.5,178,-0.140,-0.140,-0.140,0.000,0.000,0.000
1641102772489253888,2022-01-02-05:52:52,10.1.1.5,179,-0.150,-0.150,-0.150,0.000,0.000,0.000
1641102772689125888,2022-01-02-05:52:52,10.1.1.5,178,-0.160,-0.160,-0.160,0.000,0.000,0.000
1641102772888552960,2022-01-02-05:52:52,10.1.1.5,176,-0.170,-0.170,-0.170,0.000,0.000,0.000
1641102773089710080,2022-01-02-05:52:53,10.1.1.5,173,-0.180,-0.180,-0.180,0.000,0.000,0.000
1641102773287895808,2022-01-02-05:52:53,10.1.1.5,173,-0.190,-0.190,-0.190,0.000,0.000,0.000
1641102773485157120,2022-01-02-05:52:53,10.1.1.5,170,-0.200,-0.200,-0.200,0.000,0.000,0.000
1641102773684205056,2022-01-02-05:52:53,10.1.1.5,169,-0.210,-0.210,-0.210,0.000,0.000,0.000
1641102773886168064,2022-01-02-05:52:53,10.1.1.5,169,-0.220,-0.220,-0.220,0.000,0.000,0.000
1641102774086900992,2022-01-02-05:52:54,10.1.1.5,170,-0.230,-0.230,-0.230,0.000,0.000,0.000
1641102774284129024,2022-01-02-05:52:54,10.1.1.5,166,-0.240,-0.240,-0.240,0.000,0.000,0.000
1641102774487382016,2022-01-02-05:52:54,10.1.1.5,169,-0.250,-0.250,-0.250,0.000,0.000,0.000
1641102774684535040,2022-01-02-05:52:54,10.1.1.5,165,-0.260,-0.260,-0.260,0.000,0.000,0.000
1641102774905833984,2022-01-02-05:52:54,10.1.1.5,186,-0.270,-0.270,-0.270,0.000,0.000,0.000
1641102775103923200,2022-01-02-05:52:55,10.1.1.5,183,-0.280,-0.280,-0.280,0.000,0.000,0.000
1641102775305277184,2022-01-02-05:52:55,10.1.1.5,183,-0.290,-0.290,-0.290,0.000,0.000,0.000
1641102775505570816,2022-01-02-05:52:55,10.1.1.5,183,-0.300,-0.300,-0.300,0.000,0.000,0.000
1641102775701734144,2022-01-02-05:52:55,10.1.1.5,176,-0.310,-0.310,-0.310,0.000,0.000,0.000
1641102775901138176,2022-01-02-05:52:55,10.1.1.5,174,-0.320,-0.320,-0.320,0.000,0.000,0.000
1641102776102407936,2022-01-02-05:52:56,10.1.1.5,174,-0.330,-0.330,-0.330,0.000,0.000,0.000
1641102776300698112,2022-01-02-05:52:56,10.1.1.5,172,-0.340,-0.340,-0.340,0.000,0.000,0.000
1641102776502522880,2022-01-02-05:52:56,10.1.1.5,173,-0.350,-0.350,-0.350,0.000,0.000,0.000
1641102776701895936,2022-01-02-05:52:56,10.1.1.5,172,-0.360,-0.360,-0.360,0.000,0.000,0.000
1641102776900564992,2022-01-02-05:52:56,10.1.1.5,168,-0.370,-0.370,-0.370,0.000,0.000,0.000
1641102777100331008,2022-01-02-05:52:57,10.1.1.5,168,-0.380,-0.380,-0.380,0.000,0.000,0.000
1641102777300889088,2022-01-02-05:52:57,10.1.1.5,167,-0.390,-0.390,-0.390,0.000,0.000,0.000
1641102777499612928,2022-01-02-05:52:57,10.1.1.5,165,-0.400,-0.400,-0.400,0.000,0.000,0.000
1641102777700284928,2022-01-02-05:52:57,10.1.1.5,165,-0.410,-0.410,-0.410,0.000,0.000,0.000
1641102777901530880,2022-01-02-05:52:57,10.1.1.5,164,-0.420,-0.420,-0.420,0.000,0.000,0.000
1641102778120420864,2022-01-02-05:52:58,10.1.1.5,180,-0.430,-0.430,-0.430,0.000,0.000,0.000
1641102778319346944,2022-01-02-05:52:58,10.1.1.5,177,-0.440,-0.440,-0.440,0.000,0.000,0.000
1641102778520513024,2022-01-02-05:52:58,10.1.1.5,178,-0.450,-0.450,-0.450,0.000,0.000,0.000
1641102778717460992,2022-01-02-05:52:58,10.1.1.5,174,-0.460,-0.460,-0.460,0.000,0.000,0.000
1641102778920245760,2022-01-02-05:52:58,10.1.1.5,175,-0.470,-0.470,-0.470,0.000,0.000,0.000
1641102779118499072,2022-01-02-05:52:59,10.1.1.5,173,-0.480,-0.480,-0.480,0.000,0.000,0.000
1641102779321415936,2022-01-02-05:52:59,10.1.1.5,174,-0.490,-0.490,-0.490,0.000,0.000,0.000
1641102779515714816,2022-01-02-05:52:59,10.1.1.5,168,-0.480,-0.480,-0.480,0.000,0.000,0.000
1641102779720890112,2022-01-02-05:52:59,10.1.1.5,171,-0.470,-0.470,-0.470,0.000,0.000,0.000
1641102779916327936,2022-01-02-05:52:59,10.1.1.5,166,-0.460,-0.460,-0.460,0.000,0.000,0.000
1641102780116709120,2022-01-02-05:53:00,10.1.1.5,166,-0.450,-0.450,-0.450,0.000,0.000,0.000
1641102780319027968,2022-01-02-05:53:00,10.1.1.5,167,-0.440,-0.440,-0.440,0.000,0.000,0.000
1641102780518248192,2022-01-02-05:53:00,10.1.1.5,165,-0.430,-0.430,-0.430,0.000,0.000,0.000
1641102780719034880,2022-01-02-05:53:00,10.1.1.5,164,-0.420,-0.420,-0.420,0.000,0.000,0.000
1641102780921172992,2022-01-02-05:53:00,10.1.1.5,165,-0.410,-0.410,-0.410,0.000,0.000,0.000
1641102781126109952,2022-01-02-05:53:01,10.1.1.5,169,-0.400,-0.400,-0.400,0.000,0.000,0.000
1641102781322957056,2022-01-02-05:53:01,10.1.1.5,165,-0.390,-0.390,-0.390,0.000,0.000,0.000
1641102781524198912,2022-01-02-05:53:01,10.1.1.5,164,-0.380,-0.380,-0.380,0.000,0.000,0.000
1641102781725619968,2022-01-02-05:53:01,10.1.1.5,166,-0.370,-0.370,-0.370,0.000,0.000,0.000
1641102781944574208,2022-01-02-05:53:01,10.1.1.5,184,-0.360,-0.360,-0.360,0.000,0.000,0.000
1641102782149950976,2022-01-02-05:53:02,10.1.1.5,188,-0.350,-0.350,-0.350,0.000,0.000,0.000
1641102782348162048,2022-01-02-05:53:02,10.1.1.5,186,-0.340,-0.340,-0.340,0.000,0.000,0.000
1641102782550784000,2022-01-02-05:53:02,10.1.1.5,185,-0.330,-0.330,-0.330,0.000,0.000,0.000
1641102782750030080,2022-01-02-05:53:02,10.1.1.5,184,-0.320,-0.320,-0.320,0.000,0.000,0.000
1641102782952732160,2022-01-02-05:53:02,10.1.1.5,182,-0.310,-0.310,-0.310,0.000,0.000,0.000
1641102783151247104,2022-01-02-05:53:03,10.1.1.5,178,-0.300,-0.300,-0.300,0.000,0.000,0.000
1641102783350928128,2022-01-02-05:53:03,10.1.1.5,176,-0.290,-0.290,-0.290,0.000,0.000,0.000
1641102783553054208,2022-01-02-05:53:03,10.1.1.5,178,-0.280,-0.280,-0.280,0.000,0.000,0.000
1641102783751604992,2022-01-02-05:53:03,10.1.1.5,175,-0.270,-0.270,-0.270,0.000,0.000,0.000
1641102783973204992,2022-01-02-05:53:03,10.1.1.5,193,-0.260,-0.260,-0.260,0.000,0.000,0.000
1641102784172386048,2022-01-02-05:53:04,10.1.1.5,190,-0.250,-0.250,-0.250,0.000,0.000,0.000
1641102784374993920,2022-01-02-05:53:04,10.1.1.5,191,-0.240,-0.240,-0.240,0.000,0.000,0.000
1641102784572967168,2022-01-02-05:53:04,10.1.1.5,188,-0.230,-0.230,-0.230,0.000,0.000,0.000
1641102784781441024,2022-01-02-05:53:04,10.1.1.5,196,-0.220,-0.220,-0.220,0.000,0.000,0.000
1641102784977751040,2022-01-02-05:53:04,10.1.1.5,191,-0.210,-0.210,-0.210,0.000,0.000,0.000
1641102785176753920,2022-01-02-05:53:05,10.1.1.5,189,-0.200,-0.200,-0.200,0.000,0.000,0.000
1641102785375689984,2022-01-02-05:53:05,10.1.1.5,188,-0.190,-0.190,-0.190,0.000,0.000,0.000
1641102785577275136,2022-01-02-05:53:05,10.1.1.5,189,-0.180,-0.180,-0.180,0.000,0.000,0.000
1641102785781914880,2022-01-02-05:53:05,10.1.1.5,190,-0.170,-0.170,-0.170,0.000,0.000,0.000
1641102785976087040,2022-01-02-05:53:05,10.1.1.5,186,-0.160,-0.160,-0.160,0.000,0.000,0.000
1641102786179100928,2022-01-02-05:53:06,10.1.1.5,186,-0.150,-0.150,-0.150,0.000,0.000,0.000
1641102786378696960,2022-01-02-05:53:06,10.1.1.5,183,-0.140,-0.140,-0.140,0.000,0.000,0.000
1641102786581356032,2022-01-02-05:53:06,10.1.1.5,185,-0.130,-0.130,-0.130,0.000,0.000,0.000
1641102786780785152,2022-01-02-05:53:06,10.1.1.5,181,-0.120,-0.120,-0.120,0.000,0.000,0.000
1641102787001565952,2022-01-02-05:53:07,10.1.1.5,195,-0.110,-0.110,-0.110,0.000,0.000,0.000
1641102787198697984,2022-01-02-05:53:07,10.1.1.5,188,-0.100,-0.100,-0.100,0.000,0.000,0.000
1641102787398558976,2022-01-02-05:53:07,10.1.1.5,187,-0.090,-0.090,-0.090,0.000,0.000,0.000
1641102787602030080,2022-01-02-05:53:07,10.1.1.5,189,-0.080,-0.080,-0.080,0.000,0.000,0.000
1641102787802014976,2022-01-02-05:53:07,10.1.1.5,189,-0.070,-0.070,-0.070,0.000,0.000,0.000
1641102787999727104,2022-01-02-05:53:07,10.1.1.5,186,-0.060,-0.060,-0.060,0.000,0.000,0.000
1641102788199084032,2022-01-02-05:53:08,10.1.1.5,184,-0.050,-0.050,-0.050,0.000,0.000,0.000
1641102788398658048,2022-01-02-05:53:08,10.1.1.5,184,-0.040,-0.040,-0.040,0.000,0.000,0.000
1641102788601231104,2022-01-02-05:53:08,10.1.1.5,185,-0.030,-0.030,-0.030,0.000,0.000,0.000
1641102788800343040,2022-01-02-05:53:08,10.1.1.5,184,-0.020,-0.020,-0.020,0.000,0.000,0.000
1641102788999598080,2022-01-02-05:53:08,10.1.1.5,183,-0.010,-0.010,-0.010,0.000,0.000,0.000
1641102789201494016,2022-01-02-05:53:09,10.1.1.5,182,0.000,0.000,0.000,0.000,0.000,0.000
1641102789399909888,2022-01-02-05:53:09,10.1.1.5,181,-0.010,-0.010,-0.010,0.000,0.000,0.000
1641102789621344000,2022-01-02-05:53:09,10.1.1.5,199,-0.020,-0.020,-0.020,0.000,0.000,0.000
1641102789821424128,2022-01-02-05:53:09,10.1.1.5,196,-0.030,-0.030,-0.030,0.000,0.000,0.000
1641102790022707968,2022-01-02-05:53:10,10.1.1.5,196,-0.040,-0.040,-0.040,0.000,0.000,0.000
1641102790222332928,2022-01-02-05:53:10,10.1.1.5,195,-0.050,-0.050,-0.050,0.000,0.000,0.000
1641102790422400000,2022-01-02-05:53:10,10.1.1.5,194,-0.060,-0.060,-0.060,0.000,0.000,0.000
1641102790619923200,2022-01-02-05:53:10,10.1.1.5,191,-0.070,-0.070,-0.070,0.000,0.000,0.000
1641102790819872000,2022-01-02-05:53:10,10.1.1.5,190,-0.080,-0.080,-0.080,0.000,0.000,0.000
1641102791020641024,2022-01-02-05:53:11,10.1.1.5,190,-0.090,-0.090,-0.090,0.000,0.000,0.000
1641102791219854080,2022-01-02-05:53:11,10.1.1.5,189,-0.100,-0.100,-0.100,0.000,0.000,0.000
1641102791420901888,2022-01-02-05:53:11,10.1.1.5,189,-0.110,-0.110,-0.110,0.000,0.000,0.000
1641102791620963072,2022-01-02-05:53:11,10.1.1.5,189,-0.120,-0.120,-0.120,0.000,0.000,0.000
1641102791827302912,2022-01-02-05:53:11,10.1.1.5,195,-0.130,-0.130,-0.130,0.000,0.000,0.000
1641102792019947008,2022-01-02-05:53:12,10.1.1.5,186,-0.140,-0.140,-0.140,0.000,0.000,0.000
1641102792219398912,2022-01-02-05:53:12,10.1.1.5,185,-0.150,-0.150,-0.150,0.000,0.000,0.000
1641102792421125888,2022-01-02-05:53:12,10.1.1.5,186,-0.160,-0.160,-0.160,0.000,0.000,0.000
1641102792620239872,2022-01-02-05:53:12,10.1.1.5,184,-0.170,-0.170,-0.170,0.000,0.000,0.000
1641102792819556096,2022-01-02-05:53:12,10.1.1.5,183,-0.180,-0.180,-0.180,0.000,0.000,0.000
1641102793020067072,2022-01-02-05:53:13,10.1.1.5,183,-0.190,-0.190,-0.190,0.000,0.000,0.000
1641102793220217088,2022-01-02-05:53:13,10.1.1.5,183,-0.200,-0.200,-0.200,0.000,0.000,0.000
1641102793420436992,2022-01-02-05:53:13,10.1.1.5,182,-0.210,-0.210,-0.210,0.000,0.000,0.000
1641102793620851968,2022-01-02-05:53:13,10.1.1.5,181,-0.220,-0.220,-0.220,0.000,0.000,0.000
1641102793841276928,2022-01-02-05:53:13,10.1.1.5,199,-0.230,-0.230,-0.230,0.000,0.000,0.000
1641102794039997184,2022-01-02-05:53:14,10.1.1.5,198,-0.240,-0.240,-0.240,0.000,0.000,0.000
1641102794240624896,2022-01-02-05:53:14,10.1.1.5,197,-0.250,-0.250,-0.250,0.000,0.000,0.000
1641102794438992896,2022-01-02-05:53:14,10.1.1.5,195,-0.260,-0.260,-0.260,0.000,0.000,0.000
1641102794638947840,2022-01-02-05:53:14,10.1.1.5,195,-0.270,-0.270,-0.270,0.000,0.000,0.000
1641102794839683072,2022-01-02-05:53:14,10.1.1.5,195,-0.280,-0.280,-0.280,0.000,0.000,0.000
1641102795038839040,2022-01-02-05:53:15,10.1.1.5,193,-0.290,-0.290,-0.290,0.000,0.000,0.000
1641102795238096896,2022-01-02-05:53:15,10.1.1.5,192,-0.300,-0.300,-0.300,0.000,0.000,0.000
1641102795438251008,2022-01-02-05:53:15,10.1.1.5,191,-0.310,-0.310,-0.310,0.000,0.000,0.000
1641102795638932992,2022-01-02-05:53:15,10.1.1.5,191,-0.320,-0.320,-0.320,0.000,0.000,0.000
1641102795837990144,2022-01-02-05:53:15,10.1.1.5,190,-0.330,-0.330,-0.330,0.000,0.000,0.000
1641102796037463040,2022-01-02-05:53:16,10.1.1.5,189,-0.340,-0.340,-0.340,0.000,0.000,0.000
1641102796239499008,2022-01-02-05:53:16,10.1.1.5,190,-0.350,-0.350,-0.350,0.000,0.000,0.000
1641102796437480960,2022-01-02-05:53:16,10.1.1.5,188,-0.360,-0.360,-0.360,0.000,0.000,0.000
1641102796637892096,2022-01-02-05:53:16,10.1.1.5,188,-0.370,-0.370,-0.370,0.000,0.000,0.000
1641102796837223936,2022-01-02-05:53:16,10.1.1.5,187,-0.380,-0.380,-0.380,0.000,0.000,0.000
1641102797036798976,2022-01-02-05:53:17,10.1.1.5,186,-0.390,-0.390,-0.390,0.000,0.000,0.000
1641102797237047808,2022-01-02-05:53:17,10.1.1.5,185,-0.400,-0.400,-0.400,0.000,0.000,0.000
1641102797437326848,2022-01-02-05:53:17,10.1.1.5,185,-0.410,-0.410,-0.410,0.000,0.000,0.000
1641102797638729984,2022-01-02-05:53:17,10.1.1.5,184,-0.420,-0.420,-0.420,0.000,0.000,0.000
1641102797836935936,2022-01-02-05:53:17,10.1.1.5,184,-0.430,-0.430,-0.430,0.000,0.000,0.000
1641102798041449984,2022-01-02-05:53:18,10.1.1.5,188,-0.440,-0.440,-0.440,0.000,0.000,0.000
1641102798237037056,2022-01-02-05:53:18,10.1.1.5,181,-0.450,-0.450,-0.450,0.000,0.000,0.000
1641102798436150016,2022-01-02-05:53:18,10.1.1.5,178,-0.460,-0.460,-0.460,0.000,0.000,0.000
1641102798635823104,2022-01-02-05:53:18,10.1.1.5,176,-0.470,-0.470,-0.470,0.000,0.000,0.000
1641102798835275776,2022-01-02-05:53:18,10.1.1.5,176,-0.480,-0.480,-0.480,0.000,0.000,0.000
1641102799054878976,2022-01-02-05:53:19,10.1.1.5,195,-0.490,-0.490,-0.490,0.000,0.000,0.000
1641102799254076928,2022-01-02-05:53:19,10.1.1.5,193,-0.480,-0.480,-0.480,0.000,0.000,0.000
1641102799455020032,2022-01-02-05:53:19,10.1.1.5,193,-0.470,-0.470,-0.470,0.000,0.000,0.000
1641102799653793024,2022-01-02-05:53:19,10.1.1.5,191,-0.460,-0.460,-0.460,0.000,0.000,0.000
1641102799853996032,2022-01-02-05:53:19,10.1.1.5,190,-0.450,-0.450,-0.450,0.000,0.000,0.000
1641102800053929216,2022-01-02-05:53:20,10.1.1.5,189,-0.440,-0.440,-0.440,0.000,0.000,0.000
1641102800253933056,2022-01-02-05:53:20,10.1.1.5,188,-0.430,-0.430,-0.430,0.000,0.000,0.000
1641102800453604096,2022-01-02-05:53:20,10.1.1.5,187,-0.420,-0.420,-0.420,0.000,0.000,0.000
1641102800652972032,2022-01-02-05:53:20,10.1.1.5,186,-0.410,-0.410,-0.410,0.000,0.000,0.000
1641102800853223936,2022-01-02-05:53:20,10.1.1.5,186,-0.400,-0.400,-0.400,0.000,0.000,0.000
1641102801052033792,2022-01-02-05:53:21,10.1.1.5,184,-0.390,-0.390,-0.390,0.000,0.000,0.000
1641102801251905024,2022-01-02-05:53:21,10.1.1.5,183,-0.380,-0.380,-0.380,0.000,0.000,0.000
1641102801453528832,2022-01-02-05:53:21,10.1.1.5,184,-0.370,-0.370,-0.370,0.000,0.000,0.000
1641102801651362816,2022-01-02-05:53:21,10.1.1.5,181,-0.360,-0.360,-0.360,0.000,0.000,0.000
1641102801852155904,2022-01-02-05:53:21,10.1.1.5,181,-0.350,-0.350,-0.350,0.000,0.000,0.000
1641102802050771968,2022-01-02-05:53:22,10.1.1.5,179,-0.340,-0.340,-0.340,0.000,0.000,0.000
1641102802250652928,2022-01-02-05:53:22,10.1.1.5,177,-0.330,-0.330,-0.330,0.000,0.000,0.000
1641102802451708928,2022-01-02-05:53:22,10.1.1.5,177,-0.320,-0.320,-0.320,0.000,0.000,0.000
1641102802651657216,2022-01-02-05:53:22,10.1.1.5,174,-0.310,-0.310,-0.310,0.000,0.000,0.000
1641102802851617024,2022-01-02-05:53:22,10.1.1.5,173,-0.300,-0.300,-0.300,0.000,0.000,0.000
1641102803050752000,2022-01-02-05:53:23,10.1.1.5,171,-0.290,-0.290,-0.290,0.000,0.000,0.000
1641102803269603840,2022-01-02-05:53:23,10.1.1.5,171,-0.280,-0.280,-0.280,0.000,0.000,0.000
1641102803472759040,2022-01-02-05:53:23,10.1.1.5,173,-0.270,-0.270,-0.270,0.000,0.000,0.000
1641102803689496064,2022-01-02-05:53:23,10.1.1.5,188,-0.260,-0.260,-0.260,0.000,0.000,0.000
1641102803888394240,2022-01-02-05:53:23,10.1.1.5,187,-0.250,-0.250,-0.250,0.000,0.000,0.000
1641102804087991040,2022-01-02-05:53:24,10.1.1.5,186,-0.240,-0.240,-0.240,0.000,0.000,0.000
1641102804288979968,2022-01-02-05:53:24,10.1.1.5,186,-0.230,-0.230,-0.230,0.000,0.000,0.000
1641102804487490048,2022-01-02-05:53:24,10.1.1.5,184,-0.220,-0.220,-0.220,0.000,0.000,0.000
1641102804689629184,2022-01-02-05:53:24,10.1.1.5,186,-0.210,-0.210,-0.210,0.000,0.000,0.000
1641102804888516864,2022-01-02-05:53:24,10.1.1.5,183,-0.200,-0.200,-0.200,0.000,0.000,0.000
1641102805086458880,2022-01-02-05:53:25,10.1.1.5,180,-0.190,-0.190,-0.190,0.000,0.000,0.000
1641102805290225152,2022-01-02-05:53:25,10.1.1.5,183,-0.180,-0.180,-0.180,0.000,0.000,0.000
1641102805489649152,2022-01-02-05:53:25,10.1.1.5,181,-0.170,-0.170,-0.170,0.000,0.000,0.000
1641102805685856000,2022-01-02-05:53:25,10.1.1.5,176,-0.160,-0.160,-0.160,0.000,0.000,0.000
1641102805886008064,2022-01-02-05:53:25,10.1.1.5,175,-0.150,-0.150,-0.150,0.000,0.000,0.000
1641102806088075008,2022-01-02-05:53:26,10.1.1.5,177,-0.140,-0.140,-0.140,0.000,0.000,0.000
1641102806285243904,2022-01-02-05:53:26,10.1.1.5,173,-0.130,-0.130,-0.130,0.000,0.000,0.000
1641102806488691200,2022-01-02-05:53:26,10.1.1.5,176,-0.120,-0.120,-0.120,0.000,0.000,0.000
1641102806687639040,2022-01-02-05:53:26,10.1.1.5,175,-0.110,-0.110,-0.110,0.000,0.000,0.000
1641102806887901184,2022-01-02-05:53:26,10.1.1.5,174,-0.100,-0.100,-0.100,0.000,0.000,0.000
1641102807088184064,2022-01-02-05:53:27,10.1.1.5,174,-0.090,-0.090,-0.090,0.000,0.000,0.000
1641102807285927168,2022-01-02-05:53:27,10.1.1.5,171,-0.080,-0.080,-0.080,0.000,0.000,0.000
1641102807488135936,2022-01-02-05:53:27,10.1.1.5,173,-0.070,-0.070,-0.070,0.000,0.000,0.000
1641102807685161984,2022-01-02-05:53:27,10.1.1.5,166,-0.060,-0.060,-0.060,0.000,0.000,0.000
1641102807902464000,2022-01-02-05:53:27,10.1.1.5,182,-0.050,-0.050,-0.050,0.000,0.000,0.000
1641102808104726016,2022-01-02-05:53:28,10.1.1.5,183,-0.040,-0.040,-0.040,0.000,0.000,0.000
1641102808306088960,2022-01-02-05:53:28,10.1.1.5,183,-0.030,-0.030,-0.030,0.000,0.000,0.000
1641102808504295168,2022-01-02-05:53:28,10.1.1.5,180,-0.020,-0.020,-0.020,0.000,0.000,0.000
1641102808701700096,2022-01-02-05:53:28,10.1.1.5,176,-0.010,-0.010,-0.010,0.000,0.000,0.000
1641102808903054848,2022-01-02-05:53:28,10.1.1.5,177,0.000,0.000,0.000,0.000,0.000,0.000
1641102809102360064,2022-01-02-05:53:29,10.1.1.5,174,-0.010,-0.010,-0.010,0.000,0.000,0.000
1641102809302213888,2022-01-02-05:53:29,10.1.1.5,173,-0.020,-0.020,-0.020,0.000,0.000,0.000
1641102809501255936,2022-01-02-05:53:29,10.1.1.5,171,-0.030,-0.030,-0.030,0.000,0.000,0.000
1641102809701396992,2022-01-02-05:53:29,10.1.1.5,171,-0.040,-0.040,-0.040,0.000,0.000,0.000
1641102809901527040,2022-01-02-05:53:29,10.1.1.5,170,-0.050,-0.050,-0.050,0.000,0.000,0.000
1641102810099723008,2022-01-02-05:53:30,10.1.1.5,167,-0.060,-0.060,-0.060,0.000,0.000,0.000
1641102810301995008,2022-01-02-05:53:30,10.1.1.5,169,-0.070,-0.070,-0.070,0.000,0.000,0.000
1641102810501612800,2022-01-02-05:53:30,10.1.1.5,168,-0.080,-0.080,-0.080,0.000,0.000,0.000
1641102810700766208,2022-01-02-05:53:30,10.1.1.5,166,-0.090,-0.090,-0.090,0.000,0.000,0.000
1641102810919569920,2022-01-02-05:53:30,10.1.1.5,185,-0.100,-0.100,-0.100,0.000,0.000,0.000
1641102811098771968,2022-01-02-05:53:31,10.1.1.5,163,-0.110,-0.110,-0.110,0.000,0.000,0.000
1641102811298953984,2022-01-02-05:53:31,10.1.1.5,162,-0.120,-0.120,-0.120,0.000,0.000,0.000
1641102811521664000,2022-01-02-05:53:31,10.1.1.5,180,-0.130,-0.130,-0.130,0.000,0.000,0.000
1641102811720802048,2022-01-02-05:53:31,10.1.1.5,178,-0.140,-0.140,-0.140,0.000,0.000,0.000
1641102811916130048,2022-01-02-05:53:31,10.1.1.5,171,-0.150,-0.150,-0.150,0.000,0.000,0.000
1641102812117818112,2022-01-02-05:53:32,10.1.1.5,162,-0.160,-0.160,-0.160,0.000,0.000,0.000
1641102812318240768,2022-01-02-05:53:32,10.1.1.5,163,-0.170,-0.170,-0.170,0.000,0.000,0.000
1641102812516283136,2022-01-02-05:53:32,10.1.1.5,157,-0.180,-0.180,-0.180,0.000,0.000,0.000
1641102812736460032,2022-01-02-05:53:32,10.1.1.5,162,-0.190,-0.190,-0.190,0.000,0.000,0.000
1641102812935239936,2022-01-02-05:53:32,10.1.1.5,156,-0.200,-0.200,-0.200,0.000,0.000,0.000
1641102813137808128,2022-01-02-05:53:33,10.1.1.5,158,-0.210,-0.210,-0.210,0.000,0.000,0.000
1641102813356625152,2022-01-02-05:53:33,10.1.1.5,177,-0.220,-0.220,-0.220,0.000,0.000,0.000
1641102813557275904,2022-01-02-05:53:33,10.1.1.5,177,-0.230,-0.230,-0.230,0.000,0.000,0.000
1641102813759744768,2022-01-02-05:53:33,10.1.1.5,178,-0.240,-0.240,-0.240,0.000,0.000,0.000
1641102813959598080,2022-01-02-05:53:33,10.1.1.5,177,-0.250,-0.250,-0.250,0.000,0.000,0.000
1641102814160652032,2022-01-02-05:53:34,10.1.1.5,178,-0.260,-0.260,-0.260,0.000,0.000,0.000
1641102814364121856,2022-01-02-05:53:34,10.1.1.5,181,-0.270,-0.270,-0.270,0.000,0.000,0.000
1641102814563970048,2022-01-02-05:53:34,10.1.1.5,180,-0.280,-0.280,-0.280,0.000,0.000,0.000
1641102814762664960,2022-01-02-05:53:34,10.1.1.5,178,-0.290,-0.290,-0.290,0.000,0.000,0.000
1641102814963813120,2022-01-02-05:53:34,10.1.1.5,177,-0.300,-0.300,-0.300,0.000,0.000,0.000
1641102815164535040,2022-01-02-05:53:35,10.1.1.5,177,-0.310,-0.310,-0.310,0.000,0.000,0.000
1641102815368592896,2022-01-02-05:53:35,10.1.1.5,181,-0.320,-0.320,-0.320,0.000,0.000,0.000
1641102815566188032,2022-01-02-05:53:35,10.1.1.5,178,-0.330,-0.330,-0.330,0.000,0.000,0.000
1641102815766578944,2022-01-02-05:53:35,10.1.1.5,178,-0.340,-0.340,-0.340,0.000,0.000,0.000
1641102815970056960,2022-01-02-05:53:35,10.1.1.5,180,-0.350,-0.350,-0.350,0.000,0.000,0.000
1641102816169696000,2022-01-02-05:53:36,10.1.1.5,178,-0.360,-0.360,-0.360,0.000,0.000,0.000
1641102816368709120,2022-01-02-05:53:36,10.1.1.5,176,-0.370,-0.370,-0.370,0.000,0.000,0.000
1641102816569768960,2022-01-02-05:53:36,10.1.1.5,177,-0.380,-0.380,-0.380,0.000,0.000,0.000
1641102816770176768,2022-01-02-05:53:36,10.1.1.5,176,-0.390,-0.390,-0.390,0.000,0.000,0.000
1641102816971100160,2022-01-02-05:53:36,10.1.1.5,177,-0.400,-0.400,-0.400,0.000,0.000,0.000
1641102817172904960,2022-01-02-05:53:37,10.1.1.5,178,-0.410,-0.410,-0.410,0.000,0.000,0.000
1641102817373039104,2022-01-02-05:53:37,10.1.1.5,176,-0.420,-0.420,-0.420,0.000,0.000,0.000
1641102817573744128,2022-01-02-05:53:37,10.1.1.5,178,-0.430,-0.430,-0.430,0.000,0.000,0.000
1641102817772228864,2022-01-02-05:53:37,10.1.1.5,175,-0.440,-0.440,-0.440,0.000,0.000,0.000
1641102817973790976,2022-01-02-05:53:37,10.1.1.5,176,-0.450,-0.450,-0.450,0.000,0.000,0.000
1641102818174732800,2022-01-02-05:53:38,10.1.1.5,174,-0.460,-0.460,-0.460,0.000,0.000,0.000
1641102818394413824,2022-01-02-05:53:38,10.1.1.5,195,-0.470,-0.470,-0.470,0.000,0.000,0.000
1641102818594567936,2022-01-02-05:53:38,10.1.1.5,194,-0.480,-0.480,-0.480,0.000,0.000,0.000
1641102818796664064,2022-01-02-05:53:38,10.1.1.5,196,-0.490,-0.490,-0.490,0.000,0.000,0.000
1641102818996299008,2022-01-02-05:53:38,10.1.1.5,194,-0.480,-0.480,-0.480,0.000,0.000,0.000
1641102819195753984,2022-01-02-05:53:39,10.1.1.5,193,-0.470,-0.470,-0.470,0.000,0.000,0.000
1641102819396441088,2022-01-02-05:53:39,10.1.1.5,193,-0.460,-0.460,-0.460,0.000,0.000,0.000
1641102819601726976,2022-01-02-05:53:39,10.1.1.5,197,-0.450,-0.450,-0.450,0.000,0.000,0.000
1641102819799799808,2022-01-02-05:53:39,10.1.1.5,189,-0.440,-0.440,-0.440,0.000,0.000,0.000
1641102819996866816,2022-01-02-05:53:39,10.1.1.5,186,-0.430,-0.430,-0.430,0.000,0.000,0.000
1641102820210944000,2022-01-02-05:53:40,10.1.1.5,185,-0.420,-0.420,-0.420,0.000,0.000,0.000
1641102820396975872,2022-01-02-05:53:40,10.1.1.5,184,-0.410,-0.410,-0.410,0.000,0.000,0.000
1641102820597462784,2022-01-02-05:53:40,10.1.1.5,183,-0.400,-0.400,-0.400,0.000,0.000,0.000
1641102820796881920,2022-01-02-05:53:40,10.1.1.5,180,-0.390,-0.390,-0.390,0.000,0.000,0.000
1641102820998651136,2022-01-02-05:53:40,10.1.1.5,178,-0.380,-0.380,-0.380,0.000,0.000,0.000
1641102821216988928,2022-01-02-05:53:41,10.1.1.5,196,-0.370,-0.370,-0.370,0.000,0.000,0.000
1641102821418211072,2022-01-02-05:53:41,10.1.1.5,197,-0.360,-0.360,-0.360,0.000,0.000,0.000
1641102821617341952,2022-01-02-05:53:41,10.1.1.5,196,-0.350,-0.350,-0.350,0.000,0.000,0.000
1641102821817814016,2022-01-02-05:53:41,10.1.1.5,196,-0.340,-0.340,-0.340,0.000,0.000,0.000
1641102822020513024,2022-01-02-05:53:42,10.1.1.5,197,-0.330,-0.330,-0.330,0.000,0.000,0.000
1641102822217398016,2022-01-02-05:53:42,10.1.1.5,189,-0.320,-0.320,-0.320,0.000,0.000,0.000
1641102822418195968,2022-01-02-05:53:42,10.1.1.5,188,-0.310,-0.310,-0.310,0.000,0.000,0.000
1641102822618062080,2022-01-02-05:53:42,10.1.1.5,187,-0.300,-0.300,-0.300,0.000,0.000,0.000
1641102822817277952,2022-01-02-05:53:42,10.1.1.5,186,-0.290,-0.290,-0.290,0.000,0.000,0.000
1641102823019418880,2022-01-02-05:53:43,10.1.1.5,187,-0.280,-0.280,-0.280,0.000,0.000,0.000
1641102823218787072,2022-01-02-05:53:43,10.1.1.5,186,-0.270,-0.270,-0.270,0.000,0.000,0.000
1641102823419537152,2022-01-02-05:53:43,10.1.1.5,186,-0.260,-0.260,-0.260,0.000,0.000,0.000
1641102823619942912,2022-01-02-05:53:43,10.1.1.5,185,-0.250,-0.250,-0.250,0.000,0.000,0.000
1641102823817914112,2022-01-02-05:53:43,10.1.1.5,183,-0.240,-0.240,-0.240,0.000,0.000,0.000
1641102824018836992,2022-01-02-05:53:44,10.1.1.5,181,-0.230,-0.230,-0.230,0.000,0.000,0.000
1641102824239141888,2022-01-02-05:53:44,10.1.1.5,199,-0.220,-0.220,-0.220,0.000,0.000,0.000
1641102824440363008,2022-01-02-05:53:44,10.1.1.5,199,-0.210,-0.210,-0.210,0.000,0.000,0.000
1641102824841634048,2022-01-02-05:53:44,10.1.1.5,196,-0.190,-0.190,-0.190,0.000,0.000,0.000
1641102825038682880,2022-01-02-05:53:45,10.1.1.5,194,-0.180,-0.180,-0.180,0.000,0.000,0.000
1641102825239849984,2022-01-02-05:53:45,10.1.1.5,195,-0.170,-0.170,-0.170,0.000,0.000,0.000
1641102825437891072,2022-01-02-05:53:45,10.1.1.5,192,-0.160,-0.160,-0.160,0.000,0.000,0.000
1641102825640801024,2022-01-02-05:53:45,10.1.1.5,194,-0.150,-0.150,-0.150,0.000,0.000,0.000
1641102825842156800,2022-01-02-05:53:45,10.1.1.5,194,-0.140,-0.140,-0.140,0.000,0.000,0.000
1641102826038286080,2022-01-02-05:53:46,10.1.1.5,190,-0.130,-0.130,-0.130,0.000,0.000,0.000
1641102826237943040,2022-01-02-05:53:46,10.1.1.5,188,-0.120,-0.120,-0.120,0.000,0.000,0.000
1641102826437287168,2022-01-02-05:53:46,10.1.1.5,187,-0.110,-0.110,-0.110,0.000,0.000,0.000
1641102826644516096,2022-01-02-05:53:46,10.1.1.5,191,-0.100,-0.100,-0.100,0.000,0.000,0.000
1641102826857198848,2022-01-02-05:53:46,10.1.1.5,187,-0.090,-0.090,-0.090,0.000,0.000,0.000
1641102827058935040,2022-01-02-05:53:47,10.1.1.5,188,-0.080,-0.080,-0.080,0.000,0.000,0.000
1641102827262423040,2022-01-02-05:53:47,10.1.1.5,191,-0.070,-0.070,-0.070,0.000,0.000,0.000
1641102827459075072,2022-01-02-05:53:47,10.1.1.5,186,-0.060,-0.060,-0.060,0.000,0.000,0.000
1641102827656795136,2022-01-02-05:53:47,10.1.1.5,183,-0.050,-0.050,-0.050,0.000,0.000,0.000
1641102827857410816,2022-01-02-05:53:47,10.1.1.5,183,-0.040,-0.040,-0.040,0.000,0.000,0.000
1641102828061254144,2022-01-02-05:53:48,10.1.1.5,187,-0.030,-0.030,-0.030,0.000,0.000,0.000
1641102828266791168,2022-01-02-05:53:48,10.1.1.5,191,-0.020,-0.020,-0.020,0.000,0.000,0.000
1641102828461810176,2022-01-02-05:53:48,10.1.1.5,186,-0.010,-0.010,-0.010,0.000,0.000,0.000
1641102828676140032,2022-01-02-05:53:48,10.1.1.5,196,0.000,0.000,0.000,0.000,0.000,0.000
1641102828876519936,2022-01-02-05:53:48,10.1.1.5,195,-0.010,-0.010,-0.010,0.000,0.000,0.000
1641102829074991104,2022-01-02-05:53:49,10.1.1.5,193,-0.020,-0.020,-0.020,0.000,0.000,0.000
1641102829275411968,2022-01-02-05:53:49,10.1.1.5,191,-0.030,-0.030,-0.030,0.000,0.000,0.000
1641102829476141824,2022-01-02-05:53:49,10.1.1.5,192,-0.040,-0.040,-0.040,0.000,0.000,0.000
1641102829677551104,2022-01-02-05:53:49,10.1.1.5,193,-0.050,-0.050,-0.050,0.000,0.000,0.000
1641102829875006976,2022-01-02-05:53:49,10.1.1.5,189,-0.060,-0.060,-0.060,0.000,0.000,0.000
1641102830074612992,2022-01-02-05:53:50,10.1.1.5,189,-0.070,-0.070,-0.070,0.000,0.000,0.000
1641102830274565888,2022-01-02-05:53:50,10.1.1.5,188,-0.080,-0.080,-0.080,0.000,0.000,0.000
1641102830473604864,2022-01-02-05:53:50,10.1.1.5,187,-0.090,-0.090,-0.090,0.000,0.000,0.000
1641102830674087936,2022-01-02-05:53:50,10.1.1.5,186,-0.100,-0.100,-0.100,0.000,0.000,0.000
