FedericoMungari/DigitalTwin_service/01_WiredScenario/Output/Output_script/script_rosapi_2_output_robots12_freq0_8.txt
timestamp,date,node,latency,joint_1,joint_2,joint_3,joint_4,joint_5,joint_6
1644939577275651840,2022-02-15-15:39:36,10.1.1.9,-101,-0.100,-0.100,-0.100,-0.000,-0.000,0.000
1644939577657263872,2022-02-15-15:39:37,10.1.1.9,28,-0.050,-0.050,-0.050,0.000,0.000,0.000
1644939579480822016,2022-02-15-15:39:39,10.1.1.9,4,-0.050,-0.050,-0.050,0.000,0.000,0.000
1644939579971656192,2022-02-15-15:39:39,10.1.1.9,10,-0.050,-0.050,-0.050,0.000,0.000,0.000
1644939581135602944,2022-02-15-15:39:40,10.1.1.9,39,0.060,0.060,0.060,0.000,0.000,0.000
1644939581431905024,2022-02-15-15:39:41,10.1.1.9,39,0.080,0.080,0.080,0.000,0.000,0.000
1644939581471638016,2022-02-15-15:39:41,10.1.1.9,28,0.070,0.070,0.070,0.000,0.000,0.000
1644939582992402176,2022-02-15-15:39:42,10.1.1.9,29,0.010,0.010,0.010,0.000,0.000,0.000
1644939583052700160,2022-02-15-15:39:43,10.1.1.9,39,0.020,0.020,0.020,0.000,0.000,0.000
1644939583091886080,2022-02-15-15:39:43,10.1.1.9,29,0.030,0.030,0.030,0.000,0.000,0.000
1644939583979693056,2022-02-15-15:39:43,10.1.1.9,11,0.030,0.030,0.030,0.000,0.000,0.000
1644939584191424000,2022-02-15-15:39:44,10.1.1.9,22,0.000,0.000,0.000,0.000,0.000,0.000
1644939584511169792,2022-02-15-15:39:44,10.1.1.9,33,-0.060,-0.060,-0.060,0.000,0.000,0.000
1644939584909924096,2022-02-15-15:39:44,10.1.1.9,13,-0.060,-0.060,-0.060,0.000,0.000,0.000
1644939585232280064,2022-02-15-15:39:45,10.1.1.9,20,0.000,0.000,0.000,0.000,0.000,0.000
1644939585971692032,2022-02-15-15:39:45,10.1.1.9,38,0.070,0.070,0.070,0.000,0.000,0.000
1644939586271424000,2022-02-15-15:39:46,10.1.1.9,28,0.010,0.010,0.010,0.000,0.000,0.000
1644939586530217984,2022-02-15-15:39:46,10.1.1.9,29,-0.040,-0.040,-0.040,0.000,0.000,0.000
1644939586591689984,2022-02-15-15:39:46,10.1.1.9,39,-0.050,-0.050,-0.050,0.000,0.000,0.000
1644939587051287040,2022-02-15-15:39:47,10.1.1.9,39,-0.060,-0.060,-0.060,0.000,0.000,0.000
1644939587091456768,2022-02-15-15:39:47,10.1.1.9,28,-0.050,-0.050,-0.050,0.000,0.000,0.000
1644939587511044864,2022-02-15-15:39:47,10.1.1.9,39,0.030,0.030,0.030,0.000,0.000,0.000
1644939587810628864,2022-02-15-15:39:47,10.1.1.9,28,0.090,0.090,0.090,0.000,0.000,0.000
1644939587892362240,2022-02-15-15:39:47,10.1.1.9,5,0.090,0.090,0.090,0.000,0.000,0.000
1644939588171229952,2022-02-15-15:39:48,10.1.1.9,30,0.040,0.040,0.040,0.000,0.000,0.000
1644939588253808896,2022-02-15-15:39:48,10.1.1.9,38,0.030,0.030,0.030,0.000,0.000,0.000
1644939588290502912,2022-02-15-15:39:48,10.1.1.9,38,0.020,0.020,0.020,0.000,0.000,0.000
1644939589497769216,2022-02-15-15:39:48,10.1.1.9,20,-0.060,-0.060,-0.060,0.000,0.000,0.000
1644939589889436928,2022-02-15-15:39:49,10.1.1.9,24,-0.060,-0.060,-0.060,0.000,0.000,0.000
1644939590437114880,2022-02-15-15:39:50,10.1.1.9,28,0.040,0.040,0.040,0.000,0.000,0.000
1644939590550872064,2022-02-15-15:39:50,10.1.1.9,28,0.060,0.060,0.060,0.000,0.000,0.000
1644939590995151104,2022-02-15-15:39:50,10.1.1.9,-34,0.060,0.060,0.060,0.000,0.000,0.000
1644939591905065984,2022-02-15-15:39:51,10.1.1.9,29,-0.080,-0.080,-0.080,0.000,0.000,0.000
1644939592087877888,2022-02-15-15:39:52,10.1.1.9,-32,-0.080,-0.080,-0.080,0.000,0.000,0.000
1644939592930854912,2022-02-15-15:39:52,10.1.1.9,38,0.040,0.040,0.040,0.000,0.000,0.000
1644939593530162176,2022-02-15-15:39:53,10.1.1.9,10,0.040,0.040,0.040,0.000,0.000,0.000
1644939593610071040,2022-02-15-15:39:53,10.1.1.9,38,0.030,0.030,0.030,0.000,0.000,0.000
1644939594169403136,2022-02-15-15:39:54,10.1.1.9,29,-0.080,-0.080,-0.080,0.000,0.000,0.000
1644939594240685824,2022-02-15-15:39:54,10.1.1.9,39,-0.090,-0.090,-0.090,0.000,0.000,0.000
1644939594270867200,2022-02-15-15:39:54,10.1.1.9,28,-0.100,-0.100,-0.100,0.000,0.000,0.000
1644939595789800960,2022-02-15-15:39:55,10.1.1.9,29,0.010,0.010,0.010,0.000,0.000,0.000
1644939595849880832,2022-02-15-15:39:55,10.1.1.9,38,0.000,0.000,0.000,0.000,0.000,0.000
1644939596049772032,2022-02-15-15:39:56,10.1.1.9,30,-0.040,-0.040,-0.040,0.000,0.000,0.000
1644939596109805056,2022-02-15-15:39:56,10.1.1.9,39,-0.050,-0.050,-0.050,0.000,0.000,0.000
1644939596149818880,2022-02-15-15:39:56,10.1.1.9,28,-0.060,-0.060,-0.060,0.000,0.000,0.000
1644939596550139904,2022-02-15-15:39:56,10.1.1.9,15,-0.060,-0.060,-0.060,0.000,0.000,0.000
1644939597290061056,2022-02-15-15:39:57,10.1.1.9,29,0.080,0.080,0.080,0.000,0.000,0.000
1644939597470562816,2022-02-15-15:39:57,10.1.1.9,5,0.080,0.080,0.080,0.000,0.000,0.000
1644939598269372928,2022-02-15-15:39:58,10.1.1.9,20,-0.070,-0.070,-0.070,0.000,0.000,0.000
1644939598571538944,2022-02-15-15:39:58,10.1.1.9,13,-0.070,-0.070,-0.070,0.000,0.000,0.000
1644939599869551872,2022-02-15-15:39:59,10.1.1.9,38,0.020,0.020,0.020,0.000,0.000,0.000
1644939600369977088,2022-02-15-15:40:00,10.1.1.9,29,-0.080,-0.080,-0.080,0.000,0.000,0.000
1644939600570236928,2022-02-15-15:40:00,10.1.1.9,24,-0.080,-0.080,-0.080,0.000,0.000,0.000
1644939601189959168,2022-02-15-15:40:01,10.1.1.9,29,0.040,0.040,0.040,0.000,0.000,0.000
1644939601250637056,2022-02-15-15:40:01,10.1.1.9,38,0.050,0.050,0.050,0.000,0.000,0.000
1644939601289666816,2022-02-15-15:40:01,10.1.1.9,28,0.060,0.060,0.060,0.000,0.000,0.000
1644939601690599936,2022-02-15-15:40:01,10.1.1.9,21,0.060,0.060,0.060,0.000,0.000,0.000
1644939601750253824,2022-02-15-15:40:01,10.1.1.9,28,0.050,0.050,0.050,0.000,0.000,0.000
1644939602313313024,2022-02-15-15:40:02,10.1.1.9,30,-0.060,-0.060,-0.060,0.000,0.000,0.000
1644939602370409984,2022-02-15-15:40:02,10.1.1.9,38,-0.070,-0.070,-0.070,0.000,0.000,0.000
1644939602651265024,2022-02-15-15:40:02,10.1.1.9,11,-0.070,-0.070,-0.070,0.000,0.000,0.000
1644939602989844992,2022-02-15-15:40:02,10.1.1.9,38,-0.010,-0.010,-0.010,0.000,0.000,0.000
1644939603710231040,2022-02-15-15:40:03,10.1.1.9,39,0.070,0.070,0.070,0.000,0.000,0.000
1644939604171122944,2022-02-15-15:40:04,10.1.1.9,38,-0.020,-0.020,-0.020,0.000,0.000,0.000
1644939604874580992,2022-02-15-15:40:04,10.1.1.9,29,-0.040,-0.040,-0.040,0.000,0.000,0.000
1644939605492101888,2022-02-15-15:40:05,10.1.1.9,28,0.080,0.080,0.080,0.000,0.000,0.000
1644939605691860992,2022-02-15-15:40:05,10.1.1.9,24,0.080,0.080,0.080,0.000,0.000,0.000
1644939605850189056,2022-02-15-15:40:05,10.1.1.9,29,0.050,0.050,0.050,0.000,0.000,0.000
1644939606271506176,2022-02-15-15:40:06,10.1.1.9,40,-0.030,-0.030,-0.030,0.000,0.000,0.000
1644939606311597056,2022-02-15-15:40:06,10.1.1.9,29,-0.040,-0.040,-0.040,0.000,0.000,0.000
1644939606371300864,2022-02-15-15:40:06,10.1.1.9,38,-0.050,-0.050,-0.050,0.000,0.000,0.000
1644939606870029824,2022-02-15-15:40:06,10.1.1.9,25,-0.050,-0.050,-0.050,0.000,0.000,0.000
1644939607192101120,2022-02-15-15:40:07,10.1.1.9,39,0.010,0.010,0.010,0.000,0.000,0.000
1644939607231440896,2022-02-15-15:40:07,10.1.1.9,28,0.020,0.020,0.020,0.000,0.000,0.000
1644939608032197888,2022-02-15-15:40:08,10.1.1.9,6,0.020,0.020,0.020,0.000,0.000,0.000
1644939609369901824,2022-02-15-15:40:09,10.1.1.9,13,0.020,0.020,0.020,0.000,0.000,0.000
1644939609849752064,2022-02-15-15:40:09,10.1.1.9,30,0.090,0.090,0.090,0.000,0.000,0.000
1644939610210736128,2022-02-15-15:40:10,10.1.1.9,29,0.020,0.020,0.020,0.000,0.000,0.000
1644939610270347008,2022-02-15-15:40:10,10.1.1.9,38,0.010,0.010,0.010,0.000,0.000,0.000
1644939610833267968,2022-02-15-15:40:10,10.1.1.9,39,-0.100,-0.100,-0.100,0.000,0.000,0.000
1644939612271735808,2022-02-15-15:40:12,10.1.1.9,28,0.020,0.020,0.020,0.000,0.000,0.000
1644939612730427904,2022-02-15-15:40:12,10.1.1.9,30,-0.070,-0.070,-0.070,0.000,0.000,0.000
1644939613029639936,2022-02-15-15:40:13,10.1.1.9,21,-0.070,-0.070,-0.070,0.000,0.000,0.000
1644939613569773056,2022-02-15-15:40:13,10.1.1.9,39,0.030,0.030,0.030,0.000,0.000,0.000
1644939614283405056,2022-02-15-15:40:14,10.1.1.9,-3,0.030,0.030,0.030,0.000,0.000,0.000
1644939615630129152,2022-02-15-15:40:15,10.1.1.9,10,0.030,0.030,0.030,0.000,0.000,0.000
1644939615750417920,2022-02-15-15:40:15,10.1.1.9,29,0.050,0.050,0.050,0.000,0.000,0.000
1644939615809489920,2022-02-15-15:40:15,10.1.1.9,38,0.060,0.060,0.060,0.000,0.000,0.000
1644939616190663936,2022-02-15-15:40:16,10.1.1.9,13,0.060,0.060,0.060,0.000,0.000,0.000
1644939616431549184,2022-02-15-15:40:16,10.1.1.9,38,0.020,0.020,0.020,0.000,0.000,0.000
1644939616949824000,2022-02-15-15:40:16,10.1.1.9,39,-0.080,-0.080,-0.080,0.000,0.000,0.000
1644939616991048960,2022-02-15-15:40:16,10.1.1.9,28,-0.090,-0.090,-0.090,0.000,0.000,0.000
1644939617071825152,2022-02-15-15:40:17,10.1.1.9,7,-0.090,-0.090,-0.090,0.000,0.000,0.000
1644939617510808064,2022-02-15-15:40:17,10.1.1.9,39,-0.010,-0.010,-0.010,0.000,0.000,0.000
1644939617550528000,2022-02-15-15:40:17,10.1.1.9,28,0.000,0.000,0.000,0.000,0.000,0.000
1644939618110832896,2022-02-15-15:40:18,10.1.1.9,28,0.090,0.090,0.090,0.000,0.000,0.000
1644939618811847936,2022-02-15-15:40:18,10.1.1.9,20,-0.050,-0.050,-0.050,0.000,0.000,0.000
1644939618870546944,2022-02-15-15:40:18,10.1.1.9,29,-0.060,-0.060,-0.060,0.000,0.000,0.000
1644939618931636992,2022-02-15-15:40:18,10.1.1.9,38,-0.070,-0.070,-0.070,0.000,0.000,0.000
1644939619210814976,2022-02-15-15:40:19,10.1.1.9,16,-0.070,-0.070,-0.070,0.000,0.000,0.000
1644939619590878976,2022-02-15-15:40:19,10.1.1.9,40,0.000,0.000,0.000,0.000,0.000,0.000
1644939619629223936,2022-02-15-15:40:19,10.1.1.9,28,0.010,0.010,0.010,0.000,0.000,0.000
1644939620549329920,2022-02-15-15:40:20,10.1.1.9,17,0.010,0.010,0.010,0.000,0.000,0.000
1644939620771353856,2022-02-15-15:40:20,10.1.1.9,29,-0.030,-0.030,-0.030,0.000,0.000,0.000
1644939621469469952,2022-02-15-15:40:21,10.1.1.9,7,-0.030,-0.030,-0.030,0.000,0.000,0.000
1644939621810710784,2022-02-15-15:40:21,10.1.1.9,39,0.030,0.030,0.030,0.000,0.000,0.000
1644939621851485952,2022-02-15-15:40:21,10.1.1.9,28,0.040,0.040,0.040,0.000,0.000,0.000
1644939622462603008,2022-02-15-15:40:22,10.1.1.9,-1,0.040,0.040,0.040,0.000,0.000,0.000
1644939623091083008,2022-02-15-15:40:23,10.1.1.9,29,-0.080,-0.080,-0.080,0.000,0.000,0.000
1644939623150615040,2022-02-15-15:40:23,10.1.1.9,38,-0.090,-0.090,-0.090,0.000,0.000,0.000
1644939623191875072,2022-02-15-15:40:23,10.1.1.9,28,-0.100,-0.100,-0.100,0.000,0.000,0.000
1644939623811032064,2022-02-15-15:40:23,10.1.1.9,39,0.020,0.020,0.020,0.000,0.000,0.000
1644939624310417920,2022-02-15-15:40:24,10.1.1.9,29,0.080,0.080,0.080,0.000,0.000,0.000
1644939625130692096,2022-02-15-15:40:25,10.1.1.9,28,-0.080,-0.080,-0.080,0.000,0.000,0.000
1644939625311664128,2022-02-15-15:40:25,10.1.1.9,6,-0.080,-0.080,-0.080,0.000,0.000,0.000
1644939625710875904,2022-02-15-15:40:25,10.1.1.9,38,-0.010,-0.010,-0.010,0.000,0.000,0.000
1644939626211054080,2022-02-15-15:40:26,10.1.1.9,28,0.090,0.090,0.090,0.000,0.000,0.000
1644939626295528960,2022-02-15-15:40:26,10.1.1.9,8,0.090,0.090,0.090,0.000,0.000,0.000
1644939626769643008,2022-02-15-15:40:26,10.1.1.9,29,0.000,0.000,0.000,0.000,0.000,0.000
1644939627549412864,2022-02-15-15:40:27,10.1.1.9,38,-0.050,-0.050,-0.050,0.000,0.000,0.000
1644939628090236928,2022-02-15-15:40:28,10.1.1.9,30,0.050,0.050,0.050,0.000,0.000,0.000
1644939628151590144,2022-02-15-15:40:28,10.1.1.9,38,0.060,0.060,0.060,0.000,0.000,0.000
1644939628450897920,2022-02-15-15:40:28,10.1.1.9,29,0.080,0.080,0.080,0.000,0.000,0.000
1644939628910219008,2022-02-15-15:40:28,10.1.1.9,30,-0.010,-0.010,-0.010,0.000,0.000,0.000
1644939628971016960,2022-02-15-15:40:28,10.1.1.9,38,-0.020,-0.020,-0.020,0.000,0.000,0.000
1644939629770545920,2022-02-15-15:40:29,10.1.1.9,22,-0.020,-0.020,-0.020,0.000,0.000,0.000
1644939629929929984,2022-02-15-15:40:29,10.1.1.9,29,0.010,0.010,0.010,0.000,0.000,0.000
1644939630690635008,2022-02-15-15:40:30,10.1.1.9,19,0.040,0.040,0.040,0.000,0.000,0.000
1644939630750125056,2022-02-15-15:40:30,10.1.1.9,28,0.030,0.030,0.030,0.000,0.000,0.000
1644939631490822144,2022-02-15-15:40:31,10.1.1.9,38,-0.090,-0.090,-0.090,0.000,0.000,0.000
1644939633192065024,2022-02-15-15:40:33,10.1.1.9,30,-0.030,-0.030,-0.030,0.000,0.000,0.000
1644939633529573888,2022-02-15-15:40:33,10.1.1.9,39,-0.090,-0.090,-0.090,0.000,0.000,0.000
1644939633569850880,2022-02-15-15:40:33,10.1.1.9,28,-0.100,-0.100,-0.100,0.000,0.000,0.000
1644939633754137088,2022-02-15-15:40:33,10.1.1.9,29,-0.070,-0.070,-0.070,0.000,0.000,0.000
1644939634751600896,2022-02-15-15:40:34,10.1.1.9,29,0.070,0.070,0.070,0.000,0.000,0.000
1644939635310306048,2022-02-15-15:40:35,10.1.1.9,30,-0.040,-0.040,-0.040,0.000,0.000,0.000
1644939635835358976,2022-02-15-15:40:35,10.1.1.9,39,-0.060,-0.060,-0.060,0.000,0.000,0.000
1644939636350159872,2022-02-15-15:40:36,10.1.1.9,39,0.040,0.040,0.040,0.000,0.000,0.000
1644939636412152064,2022-02-15-15:40:36,10.1.1.9,28,0.050,0.050,0.050,0.000,0.000,0.000
1644939636536000000,2022-02-15-15:40:36,10.1.1.9,38,0.070,0.070,0.070,0.000,0.000,0.000
1644939636750621952,2022-02-15-15:40:36,10.1.1.9,39,0.090,0.090,0.090,0.000,0.000,0.000
1644939638133601024,2022-02-15-15:40:38,10.1.1.9,30,-0.060,-0.060,-0.060,0.000,0.000,0.000
1644939639190934016,2022-02-15-15:40:39,10.1.1.9,29,0.060,0.060,0.060,0.000,0.000,0.000
1644939639609947904,2022-02-15-15:40:39,10.1.1.9,36,-0.020,-0.020,-0.020,0.000,0.000,0.000
1644939640329920000,2022-02-15-15:40:40,10.1.1.9,38,-0.050,-0.050,-0.050,0.000,0.000,0.000
1644939640869869824,2022-02-15-15:40:40,10.1.1.9,39,0.050,0.050,0.050,0.000,0.000,0.000
1644939640910407936,2022-02-15-15:40:40,10.1.1.9,28,0.060,0.060,0.060,0.000,0.000,0.000
1644939641130063104,2022-02-15-15:40:41,10.1.1.9,39,0.100,0.100,0.100,0.000,0.000,0.000
1644939641793776128,2022-02-15-15:40:41,10.1.1.9,39,-0.020,-0.020,-0.020,0.000,0.000,0.000
1644939642130723840,2022-02-15-15:40:42,10.1.1.9,38,-0.080,-0.080,-0.080,0.000,0.000,0.000
1644939642319681024,2022-02-15-15:40:42,10.1.1.9,-23,-0.080,-0.080,-0.080,0.000,0.000,0.000
1644939642574767104,2022-02-15-15:40:42,10.1.1.9,29,-0.040,-0.040,-0.040,0.000,0.000,0.000
1644939642633625088,2022-02-15-15:40:42,10.1.1.9,38,-0.030,-0.030,-0.030,0.000,0.000,0.000
1644939643050148864,2022-02-15-15:40:43,10.1.1.9,39,0.040,0.040,0.040,0.000,0.000,0.000
1644939643689647872,2022-02-15-15:40:43,10.1.1.9,-13,0.040,0.040,0.040,0.000,0.000,0.000
1644939644510516992,2022-02-15-15:40:44,10.1.1.9,39,-0.090,-0.090,-0.090,0.000,0.000,0.000
1644939644590137088,2022-02-15-15:40:44,10.1.1.9,16,-0.090,-0.090,-0.090,0.000,0.000,0.000
1644939645849879040,2022-02-15-15:40:45,10.1.1.9,39,0.050,0.050,0.050,0.000,0.000,0.000
1644939645889932032,2022-02-15-15:40:45,10.1.1.9,29,0.040,0.040,0.040,0.000,0.000,0.000
1644939647411564032,2022-02-15-15:40:47,10.1.1.9,22,0.040,0.040,0.040,0.000,0.000,0.000
1644939647531235072,2022-02-15-15:40:47,10.1.1.9,36,0.060,0.060,0.060,0.000,0.000,0.000
1644939647786078976,2022-02-15-15:40:47,10.1.1.9,38,0.100,0.100,0.100,0.000,0.000,0.000
1644939649711209984,2022-02-15-15:40:49,10.1.1.9,39,0.050,0.050,0.050,0.000,0.000,0.000
1644939650091645952,2022-02-15-15:40:50,10.1.1.9,29,0.080,0.080,0.080,0.000,0.000,0.000
1644939650491190784,2022-02-15-15:40:50,10.1.1.9,29,0.000,0.000,0.000,0.000,0.000,0.000
1644939650551297024,2022-02-15-15:40:50,10.1.1.9,39,-0.010,-0.010,-0.010,0.000,0.000,0.000
1644939651252728064,2022-02-15-15:40:51,10.1.1.9,39,-0.060,-0.060,-0.060,0.000,0.000,0.000
1644939651292896000,2022-02-15-15:40:51,10.1.1.9,28,-0.050,-0.050,-0.050,0.000,0.000,0.000
1644939652877796864,2022-02-15-15:40:52,10.1.1.9,10,-0.050,-0.050,-0.050,0.000,0.000,0.000
1644939653309178112,2022-02-15-15:40:53,10.1.1.9,29,-0.070,-0.070,-0.070,0.000,0.000,0.000
1644939653810946048,2022-02-15-15:40:53,10.1.1.9,38,0.020,0.020,0.020,0.000,0.000,0.000
1644939654190923008,2022-02-15-15:40:54,10.1.1.9,38,0.090,0.090,0.090,0.000,0.000,0.000
1644939654269992192,2022-02-15-15:40:54,10.1.1.9,17,0.090,0.090,0.090,0.000,0.000,0.000
1644939655411201024,2022-02-15-15:40:55,10.1.1.9,40,-0.080,-0.080,-0.080,0.000,0.000,0.000
1644939655710771968,2022-02-15-15:40:55,10.1.1.9,30,-0.020,-0.020,-0.020,0.000,0.000,0.000
1644939655769516032,2022-02-15-15:40:55,10.1.1.9,39,-0.010,-0.010,-0.010,0.000,0.000,0.000
1644939657955828992,2022-02-15-15:40:56,10.1.1.9,29,0.040,0.040,0.040,0.000,0.000,0.000
1644939658881638912,2022-02-15-15:40:58,10.1.1.9,28,-0.060,-0.060,-0.060,0.000,0.000,0.000
1644939659409908992,2022-02-15-15:40:59,10.1.1.9,29,0.040,0.040,0.040,0.000,0.000,0.000
1644939659470752000,2022-02-15-15:40:59,10.1.1.9,38,0.050,0.050,0.050,0.000,0.000,0.000
1644939659971201792,2022-02-15-15:40:59,10.1.1.9,-15,0.050,0.050,0.050,0.000,0.000,0.000
1644939660975735040,2022-02-15-15:41:00,10.1.1.9,29,-0.060,-0.060,-0.060,0.000,0.000,0.000
1644939661890008832,2022-02-15-15:41:01,10.1.1.9,20,0.080,0.080,0.080,0.000,0.000,0.000
1644939661950016000,2022-02-15-15:41:01,10.1.1.9,29,0.070,0.070,0.070,0.000,0.000,0.000
1644939662012084992,2022-02-15-15:41:02,10.1.1.9,38,0.060,0.060,0.060,0.000,0.000,0.000
1644939662571568128,2022-02-15-15:41:02,10.1.1.9,38,-0.050,-0.050,-0.050,0.000,0.000,0.000
1644939663062454016,2022-02-15-15:41:03,10.1.1.9,-46,-0.050,-0.050,-0.050,0.000,0.000,0.000
1644939663650540032,2022-02-15-15:41:03,10.1.1.9,38,0.050,0.050,0.050,0.000,0.000,0.000
1644939664151220992,2022-02-15-15:41:04,10.1.1.9,10,0.050,0.050,0.050,0.000,0.000,0.000
1644939664649460992,2022-02-15-15:41:04,10.1.1.9,28,-0.040,-0.040,-0.040,0.000,0.000,0.000
1644939664710094080,2022-02-15-15:41:04,10.1.1.9,38,-0.050,-0.050,-0.050,0.000,0.000,0.000
1644939665211810048,2022-02-15-15:41:05,10.1.1.9,14,-0.050,-0.050,-0.050,0.000,0.000,0.000
1644939665393587968,2022-02-15-15:41:05,10.1.1.9,29,-0.020,-0.020,-0.020,0.000,0.000,0.000
1644939665609847040,2022-02-15-15:41:05,10.1.1.9,39,0.020,0.020,0.020,0.000,0.000,0.000
1644939666195385856,2022-02-15-15:41:06,10.1.1.9,39,0.070,0.070,0.070,0.000,0.000,0.000
1644939666470049024,2022-02-15-15:41:06,10.1.1.9,39,0.020,0.020,0.020,0.000,0.000,0.000
1644939667732470016,2022-02-15-15:41:07,10.1.1.9,3,0.020,0.020,0.020,0.000,0.000,0.000
1644939667850642944,2022-02-15-15:41:07,10.1.1.9,22,0.040,0.040,0.040,0.000,0.000,0.000
1644939667950393088,2022-02-15-15:41:07,10.1.1.9,20,0.060,0.060,0.060,0.000,0.000,0.000
1644939668352904192,2022-02-15-15:41:08,10.1.1.9,8,0.060,0.060,0.060,0.000,0.000,0.000
1644939668549495808,2022-02-15-15:41:08,10.1.1.9,39,0.030,0.030,0.030,0.000,0.000,0.000
1644939668590828032,2022-02-15-15:41:08,10.1.1.9,28,0.020,0.020,0.020,0.000,0.000,0.000
1644939669951049984,2022-02-15-15:41:09,10.1.1.9,15,0.020,0.020,0.020,0.000,0.000,0.000
1644939670651514112,2022-02-15-15:41:10,10.1.1.9,39,0.050,0.050,0.050,0.000,0.000,0.000
1644939670750243840,2022-02-15-15:41:10,10.1.1.9,38,0.030,0.030,0.030,0.000,0.000,0.000
1644939671770842112,2022-02-15-15:41:11,10.1.1.9,30,-0.040,-0.040,-0.040,0.000,0.000,0.000
1644939671930480128,2022-02-15-15:41:11,10.1.1.9,29,-0.010,-0.010,-0.010,0.000,0.000,0.000
1644939671990947840,2022-02-15-15:41:11,10.1.1.9,38,0.000,0.000,0.000,0.000,0.000,0.000
1644939672998254080,2022-02-15-15:41:12,10.1.1.9,4,0.000,0.000,0.000,0.000,0.000,0.000
1644939673229664000,2022-02-15-15:41:13,10.1.1.9,29,-0.040,-0.040,-0.040,0.000,0.000,0.000
1644939673849421056,2022-02-15-15:41:13,10.1.1.9,19,-0.040,-0.040,-0.040,0.000,0.000,0.000
1644939674352299008,2022-02-15-15:41:14,10.1.1.9,39,0.050,0.050,0.050,0.000,0.000,0.000
1644939674870265088,2022-02-15-15:41:14,10.1.1.9,7,0.050,0.050,0.050,0.000,0.000,0.000
1644939675370153984,2022-02-15-15:41:15,10.1.1.9,29,-0.040,-0.040,-0.040,0.000,0.000,0.000
1644939675432368896,2022-02-15-15:41:15,10.1.1.9,38,-0.050,-0.050,-0.050,0.000,0.000,0.000
1644939675999456768,2022-02-15-15:41:15,10.1.1.9,23,-0.050,-0.050,-0.050,0.000,0.000,0.000
1644939676549271040,2022-02-15-15:41:16,10.1.1.9,38,0.060,0.060,0.060,0.000,0.000,0.000
1644939676929611008,2022-02-15-15:41:16,10.1.1.9,12,0.060,0.060,0.060,0.000,0.000,0.000
1644939677009656064,2022-02-15-15:41:17,10.1.1.9,39,0.050,0.050,0.050,0.000,0.000,0.000
1644939677530423040,2022-02-15-15:41:17,10.1.1.9,39,-0.050,-0.050,-0.050,0.000,0.000,0.000
1644939678031234048,2022-02-15-15:41:18,10.1.1.9,22,-0.050,-0.050,-0.050,0.000,0.000,0.000
1644939678152434176,2022-02-15-15:41:18,10.1.1.9,39,-0.030,-0.030,-0.030,0.000,0.000,0.000
1644939679474565120,2022-02-15-15:41:19,10.1.1.9,6,-0.030,-0.030,-0.030,0.000,0.000,0.000
1644939680009383936,2022-02-15-15:41:20,10.1.1.9,19,-0.070,-0.070,-0.070,0.000,0.000,0.000
1644939680069654016,2022-02-15-15:41:20,10.1.1.9,29,-0.060,-0.060,-0.060,0.000,0.000,0.000
1644939680129895936,2022-02-15-15:41:20,10.1.1.9,38,-0.050,-0.050,-0.050,0.000,0.000,0.000
1644939680857465856,2022-02-15-15:41:20,10.1.1.9,29,0.080,0.080,0.080,0.000,0.000,0.000
1644939681071717888,2022-02-15-15:41:21,10.1.1.9,17,0.080,0.080,0.080,0.000,0.000,0.000
1644939681830499840,2022-02-15-15:41:21,10.1.1.9,29,-0.060,-0.060,-0.060,0.000,0.000,0.000
1644939681890043136,2022-02-15-15:41:21,10.1.1.9,38,-0.070,-0.070,-0.070,0.000,0.000,0.000
1644939682170803968,2022-02-15-15:41:22,10.1.1.9,13,-0.070,-0.070,-0.070,0.000,0.000,0.000
1644939683291027968,2022-02-15-15:41:23,10.1.1.9,40,0.060,0.060,0.060,0.000,0.000,0.000
1644939683330884096,2022-02-15-15:41:23,10.1.1.9,29,0.050,0.050,0.050,0.000,0.000,0.000
1644939683390853888,2022-02-15-15:41:23,10.1.1.9,38,0.040,0.040,0.040,0.000,0.000,0.000
1644939684809143040,2022-02-15-15:41:24,10.1.1.9,23,0.040,0.040,0.040,0.000,0.000,0.000
1644939685350231808,2022-02-15-15:41:25,10.1.1.9,19,0.060,0.060,0.060,0.000,0.000,0.000
1644939686335313920,2022-02-15-15:41:26,10.1.1.9,30,-0.070,-0.070,-0.070,0.000,0.000,0.000
1644939688052423936,2022-02-15-15:41:28,10.1.1.9,20,-0.070,-0.070,-0.070,0.000,0.000,0.000
1644939688176276992,2022-02-15-15:41:28,10.1.1.9,39,-0.090,-0.090,-0.090,0.000,0.000,0.000
1644939688252332800,2022-02-15-15:41:28,10.1.1.9,18,-0.090,-0.090,-0.090,0.000,0.000,0.000
1644939689400774912,2022-02-15-15:41:29,10.1.1.9,29,0.070,0.070,0.070,0.000,0.000,0.000
1644939689450018048,2022-02-15-15:41:29,10.1.1.9,38,0.060,0.060,0.060,0.000,0.000,0.000
1644939690129488896,2022-02-15-15:41:30,10.1.1.9,28,-0.060,-0.060,-0.060,0.000,0.000,0.000
1644939690549679872,2022-02-15-15:41:30,10.1.1.9,19,-0.060,-0.060,-0.060,0.000,0.000,0.000
1644939691990340864,2022-02-15-15:41:31,10.1.1.9,29,-0.000,-0.000,-0.000,0.000,0.000,0.000
1644939692913524992,2022-02-15-15:41:32,10.1.1.9,28,-0.060,-0.060,-0.060,0.000,0.000,0.000
1644939693170460928,2022-02-15-15:41:33,10.1.1.9,39,-0.010,-0.010,-0.010,0.000,0.000,0.000
1644939693651235072,2022-02-15-15:41:33,10.1.1.9,39,0.080,0.080,0.080,0.000,0.000,0.000
1644939693836698112,2022-02-15-15:41:33,10.1.1.9,10,0.080,0.080,0.080,0.000,0.000,0.000
1644939695431051008,2022-02-15-15:41:35,10.1.1.9,29,0.020,0.020,0.020,0.000,0.000,0.000
1644939695791220992,2022-02-15-15:41:35,10.1.1.9,29,0.090,0.090,0.090,0.000,0.000,0.000
1644939695869741056,2022-02-15-15:41:35,10.1.1.9,7,0.090,0.090,0.090,0.000,0.000,0.000
1644939696330596864,2022-02-15-15:41:36,10.1.1.9,29,0.010,0.010,0.010,0.000,0.000,0.000
1644939696590014976,2022-02-15-15:41:36,10.1.1.9,28,-0.040,-0.040,-0.040,0.000,0.000,0.000
1644939697211031808,2022-02-15-15:41:37,10.1.1.9,8,-0.040,-0.040,-0.040,0.000,0.000,0.000
1644939697969976832,2022-02-15-15:41:37,10.1.1.9,39,0.100,0.100,0.100,0.000,0.000,0.000
1644939698037876992,2022-02-15-15:41:38,10.1.1.9,29,0.090,0.090,0.090,0.000,0.000,0.000
1644939699319431168,2022-02-15-15:41:39,10.1.1.9,20,-0.070,-0.070,-0.070,0.000,0.000,0.000
1644939699953174016,2022-02-15-15:41:39,10.1.1.9,20,0.060,0.060,0.060,0.000,0.000,0.000
1644939700351780864,2022-02-15-15:41:40,10.1.1.9,8,0.060,0.060,0.060,0.000,0.000,0.000
1644939701091598080,2022-02-15-15:41:41,10.1.1.9,30,-0.080,-0.080,-0.080,0.000,0.000,0.000
1644939701193715968,2022-02-15-15:41:41,10.1.1.9,28,-0.100,-0.100,-0.100,0.000,0.000,0.000
1644939701550019072,2022-02-15-15:41:41,10.1.1.9,29,-0.030,-0.030,-0.030,0.000,0.000,0.000
1644939703102545920,2022-02-15-15:41:43,10.1.1.9,9,-0.030,-0.030,-0.030,0.000,0.000,0.000
1644939704428539136,2022-02-15-15:41:43,10.1.1.9,19,-0.080,-0.080,-0.080,0.000,0.000,0.000
1644939704537218048,2022-02-15-15:41:44,10.1.1.9,39,-0.060,-0.060,-0.060,0.000,0.000,0.000
1644939704569559040,2022-02-15-15:41:44,10.1.1.9,28,-0.050,-0.050,-0.050,0.000,0.000,0.000
1644939705089520896,2022-02-15-15:41:45,10.1.1.9,40,0.050,0.050,0.050,0.000,0.000,0.000
1644939705590654976,2022-02-15-15:41:45,10.1.1.9,16,0.050,0.050,0.050,0.000,0.000,0.000
1644939705809860864,2022-02-15-15:41:45,10.1.1.9,29,0.010,0.010,0.010,0.000,0.000,0.000
1644939706242903040,2022-02-15-15:41:46,10.1.1.9,18,-0.070,-0.070,-0.070,0.000,0.000,0.000
1644939706889043200,2022-02-15-15:41:46,10.1.1.9,28,-0.090,-0.090,-0.090,0.000,0.000,0.000
1644939707531436032,2022-02-15-15:41:47,10.1.1.9,29,0.040,0.040,0.040,0.000,0.000,0.000
1644939708155035904,2022-02-15-15:41:48,10.1.1.9,6,0.040,0.040,0.040,0.000,0.000,0.000
1644939708229864960,2022-02-15-15:41:48,10.1.1.9,29,0.030,0.030,0.030,0.000,0.000,0.000
1644939708668361984,2022-02-15-15:41:48,10.1.1.9,29,-0.050,-0.050,-0.050,0.000,0.000,0.000
1644939708929389056,2022-02-15-15:41:48,10.1.1.9,30,-0.100,-0.100,-0.100,0.000,0.000,0.000
1644939708990008064,2022-02-15-15:41:48,10.1.1.9,39,-0.090,-0.090,-0.090,0.000,0.000,0.000
1644939709311290880,2022-02-15-15:41:49,10.1.1.9,38,-0.030,-0.030,-0.030,0.000,0.000,0.000
1644939714623273984,2022-02-15-15:41:50,10.1.1.9,13,-0.030,-0.030,-0.030,0.000,0.000,0.000
1644939720043729920,2022-02-15-15:41:55,10.1.1.9,29,-0.060,-0.060,-0.060,0.000,0.000,0.000
1644939724931507200,2022-02-15-15:42:01,10.1.1.9,39,0.030,0.030,0.030,0.000,0.000,0.000
1644939730441644800,2022-02-15-15:42:06,10.1.1.9,15,0.050,0.050,0.050,0.000,0.000,0.000
1644939736080451840,2022-02-15-15:42:12,10.1.1.9,17,0.050,0.050,0.050,0.000,0.000,0.000
1644939740394590976,2022-02-15-15:42:16,10.1.1.9,39,0.080,0.080,0.080,0.000,0.000,0.000
1644939741774526976,2022-02-15-15:42:21,10.1.1.9,29,-0.090,-0.090,-0.090,0.000,0.000,0.000
1644939741890620928,2022-02-15-15:42:21,10.1.1.9,22,-0.090,-0.090,-0.090,0.000,0.000,0.000
1644939742672122112,2022-02-15-15:42:22,10.1.1.9,28,0.030,0.030,0.030,0.000,0.000,0.000
1644939742950638080,2022-02-15-15:42:22,10.1.1.9,28,0.070,0.070,0.070,0.000,0.000,0.000
1644939743983938048,2022-02-15-15:42:23,10.1.1.9,-1,0.070,0.070,0.070,0.000,0.000,0.000
1644939746845310976,2022-02-15-15:42:24,10.1.1.9,39,0.030,0.030,0.030,0.000,0.000,0.000
1644939751033742848,2022-02-15-15:42:30,10.1.1.9,28,0.010,0.010,0.010,0.000,0.000,0.000
1644939757265048064,2022-02-15-15:42:33,10.1.1.9,29,-0.080,-0.080,-0.080,0.000,0.000,0.000
1644939757433392896,2022-02-15-15:42:37,10.1.1.9,29,-0.060,-0.060,-0.060,0.000,0.000,0.000
1644939758129491200,2022-02-15-15:42:38,10.1.1.9,29,0.070,0.070,0.070,0.000,0.000,0.000
1644939758513572096,2022-02-15-15:42:38,10.1.1.9,24,0.070,0.070,0.070,0.000,0.000,0.000
1644939761017755136,2022-02-15-15:42:40,10.1.1.9,38,-0.070,-0.070,-0.070,0.000,0.000,0.000
1644939766043313152,2022-02-15-15:42:45,10.1.1.9,20,-0.060,-0.060,-0.060,0.000,0.000,0.000
1644939769327369984,2022-02-15-15:42:46,10.1.1.9,28,0.050,0.050,0.050,0.000,0.000,0.000
1644939772021949952,2022-02-15-15:42:49,10.1.1.9,10,0.070,0.070,0.070,0.000,0.000,0.000
1644939775836836096,2022-02-15-15:42:55,10.1.1.9,29,-0.090,-0.090,-0.090,0.000,0.000,0.000
1644939776601394944,2022-02-15-15:42:56,10.1.1.9,20,-0.020,-0.020,-0.020,0.000,0.000,0.000
1644939776949608192,2022-02-15-15:42:56,10.1.1.9,29,0.050,0.050,0.050,0.000,0.000,0.000
1644939777449624064,2022-02-15-15:42:57,10.1.1.9,21,0.050,0.050,0.050,0.000,0.000,0.000
1644939777629524992,2022-02-15-15:42:57,10.1.1.9,29,0.020,0.020,0.020,0.000,0.000,0.000
1644939778932694016,2022-02-15-15:42:58,10.1.1.9,15,0.020,0.020,0.020,0.000,0.000,0.000
1644939779389862912,2022-02-15-15:42:59,10.1.1.9,29,0.090,0.090,0.090,0.000,0.000,0.000
1644939780652364032,2022-02-15-15:43:00,10.1.1.9,39,-0.060,-0.060,-0.060,0.000,0.000,0.000
1644939780690087168,2022-02-15-15:43:00,10.1.1.9,29,-0.050,-0.050,-0.050,0.000,0.000,0.000
1644939782377902080,2022-02-15-15:43:02,10.1.1.9,0,-0.050,-0.050,-0.050,0.000,0.000,0.000
1644939782990836992,2022-02-15-15:43:02,10.1.1.9,-15,-0.050,-0.050,-0.050,0.000,0.000,0.000
1644939784730923776,2022-02-15-15:43:04,10.1.1.9,8,-0.050,-0.050,-0.050,0.000,0.000,0.000
1644939785330540800,2022-02-15-15:43:05,10.1.1.9,14,-0.050,-0.050,-0.050,0.000,0.000,0.000
1644939786912817920,2022-02-15-15:43:06,10.1.1.9,18,-0.050,-0.050,-0.050,0.000,0.000,0.000
1644939787089907968,2022-02-15-15:43:07,10.1.1.9,29,-0.080,-0.080,-0.080,0.000,0.000,0.000
1644939787272523008,2022-02-15-15:43:07,10.1.1.9,6,-0.080,-0.080,-0.080,0.000,0.000,0.000
1644939787698238976,2022-02-15-15:43:07,10.1.1.9,29,-0.020,-0.020,-0.020,0.000,0.000,0.000
1644939787910092032,2022-02-15-15:43:07,10.1.1.9,38,0.020,0.020,0.020,0.000,0.000,0.000
1644939788710017792,2022-02-15-15:43:08,10.1.1.9,-8,0.020,0.020,0.020,0.000,0.000,0.000
1644939789873792000,2022-02-15-15:43:09,10.1.1.9,28,-0.050,-0.050,-0.050,0.000,0.000,0.000
1644939790349373952,2022-02-15-15:43:10,10.1.1.9,29,-0.080,-0.080,-0.080,0.000,0.000,0.000
1644939790429254912,2022-02-15-15:43:10,10.1.1.9,29,-0.070,-0.070,-0.070,0.000,0.000,0.000
1644939790491412992,2022-02-15-15:43:10,10.1.1.9,39,-0.060,-0.060,-0.060,0.000,0.000,0.000
1644939791840930048,2022-02-15-15:43:11,10.1.1.9,29,0.030,0.030,0.030,0.000,0.000,0.000
1644939792531027968,2022-02-15-15:43:12,10.1.1.9,8,0.030,0.030,0.030,0.000,0.000,0.000
1644939795813833984,2022-02-15-15:43:13,10.1.1.9,8,-0.050,-0.050,-0.050,0.000,0.000,0.000
1644939798241779968,2022-02-15-15:43:16,10.1.1.9,38,0.020,0.020,0.020,0.000,0.000,0.000
1644939798549926912,2022-02-15-15:43:18,10.1.1.9,39,0.050,0.050,0.050,0.000,0.000,0.000
1644939798593795072,2022-02-15-15:43:18,10.1.1.9,29,0.060,0.060,0.060,0.000,0.000,0.000
1644939799048960000,2022-02-15-15:43:19,10.1.1.9,-14,0.060,0.060,0.060,0.000,0.000,0.000
1644939799589172992,2022-02-15-15:43:19,10.1.1.9,29,-0.040,-0.040,-0.040,0.000,0.000,0.000
1644939800466003968,2022-02-15-15:43:20,10.1.1.9,12,-0.040,-0.040,-0.040,0.000,0.000,0.000
1644939800850722048,2022-02-15-15:43:20,10.1.1.9,29,0.010,0.010,0.010,0.000,0.000,0.000
1644939801209346048,2022-02-15-15:43:21,10.1.1.9,28,0.080,0.080,0.080,0.000,0.000,0.000
1644939801413238016,2022-02-15-15:43:21,10.1.1.9,23,0.080,0.080,0.080,0.000,0.000,0.000
1644939801577747968,2022-02-15-15:43:21,10.1.1.9,29,0.050,0.050,0.050,0.000,0.000,0.000
1644939802496401152,2022-02-15-15:43:21,10.1.1.9,39,0.010,0.010,0.010,0.000,0.000,0.000
1644939802831268096,2022-02-15-15:43:22,10.1.1.9,29,-0.060,-0.060,-0.060,0.000,0.000,0.000
1644939803149704960,2022-02-15-15:43:23,10.1.1.9,39,-0.080,-0.080,-0.080,0.000,0.000,0.000
1644939804866518016,2022-02-15-15:43:24,10.1.1.9,39,-0.020,-0.020,-0.020,0.000,0.000,0.000
1644939807046471168,2022-02-15-15:43:25,10.1.1.9,22,-0.020,-0.020,-0.020,0.000,0.000,0.000
1644939807180231936,2022-02-15-15:43:27,10.1.1.9,20,0.010,0.010,0.010,0.000,0.000,0.000
1644939807229742080,2022-02-15-15:43:27,10.1.1.9,28,0.020,0.020,0.020,0.000,0.000,0.000
1644939808973392128,2022-02-15-15:43:27,10.1.1.9,29,0.090,0.090,0.090,0.000,0.000,0.000
1644939809109201920,2022-02-15-15:43:29,10.1.1.9,11,0.090,0.090,0.090,0.000,0.000,0.000
1644939809570735104,2022-02-15-15:43:29,10.1.1.9,29,0.010,0.010,0.010,0.000,0.000,0.000
1644939810751961088,2022-02-15-15:43:30,10.1.1.9,10,0.010,0.010,0.010,0.000,0.000,0.000
1644939812439168000,2022-02-15-15:43:32,10.1.1.9,29,-0.020,-0.020,-0.020,0.000,0.000,0.000
1644939812887300096,2022-02-15-15:43:32,10.1.1.9,38,-0.050,-0.050,-0.050,0.000,0.000,0.000
1644939813393347072,2022-02-15-15:43:33,10.1.1.9,6,-0.050,-0.050,-0.050,0.000,0.000,0.000
1644939813768979968,2022-02-15-15:43:33,10.1.1.9,29,0.020,0.020,0.020,0.000,0.000,0.000
1644939813841228032,2022-02-15-15:43:33,10.1.1.9,39,0.030,0.030,0.030,0.000,0.000,0.000
1644939814574222080,2022-02-15-15:43:34,10.1.1.9,3,0.030,0.030,0.030,0.000,0.000,0.000
1644939816559798016,2022-02-15-15:43:35,10.1.1.9,20,0.020,0.020,0.020,0.000,0.000,0.000
1644939817369285120,2022-02-15-15:43:37,10.1.1.9,23,0.020,0.020,0.020,0.000,0.000,0.000
1644939818354962944,2022-02-15-15:43:38,10.1.1.9,39,-0.050,-0.050,-0.050,0.000,0.000,0.000
1644939819351526144,2022-02-15-15:43:39,10.1.1.9,29,0.050,0.050,0.050,0.000,0.000,0.000
1644939820350627072,2022-02-15-15:43:40,10.1.1.9,29,-0.080,-0.080,-0.080,0.000,0.000,0.000
1644939820537372160,2022-02-15-15:43:40,10.1.1.9,-153,-0.080,-0.080,-0.080,0.000,0.000,0.000
1644939823060250112,2022-02-15-15:43:42,10.1.1.9,17,-0.080,-0.080,-0.080,0.000,0.000,0.000
1644939823351627008,2022-02-15-15:43:43,10.1.1.9,-31,-0.080,-0.080,-0.080,0.000,0.000,0.000
1644939823441169920,2022-02-15-15:43:43,10.1.1.9,-52,-0.080,-0.080,-0.080,0.000,0.000,0.000
1644939824539443968,2022-02-15-15:43:44,10.1.1.9,39,0.080,0.080,0.080,0.000,0.000,0.000
1644939824637555968,2022-02-15-15:43:44,10.1.1.9,39,0.100,0.100,0.100,0.000,0.000,0.000
1644939824741437952,2022-02-15-15:43:44,10.1.1.9,29,0.080,0.080,0.080,0.000,0.000,0.000
1644939824790273792,2022-02-15-15:43:44,10.1.1.9,38,0.070,0.070,0.070,0.000,0.000,0.000
1644939825871019008,2022-02-15-15:43:45,10.1.1.9,29,-0.040,-0.040,-0.040,0.000,0.000,0.000
1644939826098864128,2022-02-15-15:43:46,10.1.1.9,-263,-0.040,-0.040,-0.040,0.000,0.000,0.000
1644939826698471936,2022-02-15-15:43:46,10.1.1.9,30,-0.050,-0.050,-0.050,0.000,0.000,0.000
1644939826831166976,2022-02-15-15:43:46,10.1.1.9,29,-0.020,-0.020,-0.020,0.000,0.000,0.000
1644939831055059968,2022-02-15-15:43:48,10.1.1.9,17,-0.020,-0.020,-0.020,0.000,0.000,0.000
1644939833049005056,2022-02-15-15:43:51,10.1.1.9,39,-0.070,-0.070,-0.070,0.000,0.000,0.000
1644939833289360896,2022-02-15-15:43:53,10.1.1.9,20,-0.080,-0.080,-0.080,0.000,0.000,0.000
1644939833351144192,2022-02-15-15:43:53,10.1.1.9,29,-0.070,-0.070,-0.070,0.000,0.000,0.000
1644939833710571008,2022-02-15-15:43:53,10.1.1.9,29,0.000,0.000,0.000,0.000,0.000,0.000
1644939834913918976,2022-02-15-15:43:54,10.1.1.9,10,0.000,0.000,0.000,0.000,0.000,0.000
1644939835991113984,2022-02-15-15:43:55,10.1.1.9,9,0.000,0.000,0.000,0.000,0.000,0.000
1644939837231929088,2022-02-15-15:43:57,10.1.1.9,4,0.000,0.000,0.000,0.000,0.000,0.000
1644939839153124096,2022-02-15-15:43:58,10.1.1.9,7,0.000,0.000,0.000,0.000,0.000,0.000
1644939839671879168,2022-02-15-15:43:59,10.1.1.9,30,0.100,0.100,0.100,0.000,0.000,0.000
1644939840489198080,2022-02-15-15:44:00,10.1.1.9,28,0.040,0.040,0.040,0.000,0.000,0.000
1644939840569421056,2022-02-15-15:44:00,10.1.1.9,30,0.020,0.020,0.020,0.000,0.000,0.000
1644939841009090048,2022-02-15-15:44:01,10.1.1.9,28,-0.060,-0.060,-0.060,0.000,0.000,0.000
1644939841409532160,2022-02-15-15:44:01,10.1.1.9,23,-0.060,-0.060,-0.060,0.000,0.000,0.000
1644939842870557952,2022-02-15-15:44:02,10.1.1.9,28,0.010,0.010,0.010,0.000,0.000,0.000
1644939845752145152,2022-02-15-15:44:04,10.1.1.9,10,0.010,0.010,0.010,0.000,0.000,0.000
1644939847265350144,2022-02-15-15:44:06,10.1.1.9,39,0.040,0.040,0.040,0.000,0.000,0.000
1644939848389956096,2022-02-15-15:44:07,10.1.1.9,-91,0.090,0.090,0.090,0.000,0.000,0.000
1644939849124772096,2022-02-15-15:44:09,10.1.1.9,29,-0.030,-0.030,-0.030,0.000,0.000,0.000
1644939849409772032,2022-02-15-15:44:09,10.1.1.9,29,-0.090,-0.090,-0.090,0.000,0.000,0.000
1644939849490094848,2022-02-15-15:44:09,10.1.1.9,7,-0.090,-0.090,-0.090,0.000,0.000,0.000
1644939849889905920,2022-02-15-15:44:09,10.1.1.9,39,-0.020,-0.020,-0.020,0.000,0.000,0.000
1644939850050625024,2022-02-15-15:44:10,10.1.1.9,38,0.010,0.010,0.010,0.000,0.000,0.000
1644939850813682176,2022-02-15-15:44:10,10.1.1.9,11,0.070,0.070,0.070,0.000,0.000,0.000
1644939857242968064,2022-02-15-15:44:15,10.1.1.9,12,0.070,0.070,0.070,0.000,0.000,0.000
1644939860041208064,2022-02-15-15:44:18,10.1.1.9,9,0.070,0.070,0.070,0.000,0.000,0.000
1644939867182193152,2022-02-15-15:44:26,10.1.1.9,17,0.070,0.070,0.070,0.000,0.000,0.000
1644939875720621056,2022-02-15-15:44:32,10.1.1.9,28,0.050,0.050,0.050,0.000,0.000,0.000
1644939877872730112,2022-02-15-15:44:37,10.1.1.9,24,0.050,0.050,0.050,0.000,0.000,0.000
1644939877881521920,2022-02-15-15:44:37,10.1.1.9,-18,0.050,0.050,0.050,0.000,0.000,0.000
1644939878090533120,2022-02-15-15:44:38,10.1.1.9,19,0.000,0.000,0.000,0.000,0.000,0.000
1644939878150319104,2022-02-15-15:44:38,10.1.1.9,29,-0.010,-0.010,-0.010,0.000,0.000,0.000
1644939880466809088,2022-02-15-15:44:40,10.1.1.9,4,-0.010,-0.010,-0.010,0.000,0.000,0.000
1644939889068065792,2022-02-15-15:44:46,10.1.1.9,-413,-0.010,-0.010,-0.010,0.000,0.000,0.000
1644939892501274112,2022-02-15-15:44:50,10.1.1.9,29,0.010,0.010,0.010,0.000,0.000,0.000
1644939944438163968,2022-02-15-15:45:30,10.1.1.9,14,-0.010,-0.010,-0.010,0.000,0.000,0.000
1644939946268923904,2022-02-15-15:45:46,10.1.1.9,29,-0.080,-0.080,-0.080,0.000,0.000,0.000
1644939947010109952,2022-02-15-15:45:47,10.1.1.9,29,0.060,0.060,0.060,0.000,0.000,0.000
1644939947409689856,2022-02-15-15:45:47,10.1.1.9,21,0.060,0.060,0.060,0.000,0.000,0.000
1644939949069345024,2022-02-15-15:45:49,10.1.1.9,20,0.060,0.060,0.060,0.000,0.000,0.000
1644939949471458048,2022-02-15-15:45:49,10.1.1.9,6,0.060,0.060,0.060,0.000,0.000,0.000
1644939949809611008,2022-02-15-15:45:49,10.1.1.9,29,0.000,0.000,0.000,0.000,0.000,0.000
1644939950689129984,2022-02-15-15:45:50,10.1.1.9,39,-0.030,-0.030,-0.030,0.000,0.000,0.000
1644939950710683136,2022-02-15-15:45:50,10.1.1.9,5,-0.030,-0.030,-0.030,0.000,0.000,0.000
1644939951349065984,2022-02-15-15:45:51,10.1.1.9,29,0.100,0.100,0.100,0.000,0.000,0.000
1644939951531138816,2022-02-15-15:45:51,10.1.1.9,39,0.070,0.070,0.070,0.000,0.000,0.000
1644939953218554880,2022-02-15-15:45:53,10.1.1.9,29,0.050,0.050,0.050,0.000,0.000,0.000
1644939953713466880,2022-02-15-15:45:53,10.1.1.9,7,0.050,0.050,0.050,0.000,0.000,0.000
1644939954889316096,2022-02-15-15:45:54,10.1.1.9,29,-0.060,-0.060,-0.060,0.000,0.000,0.000
1644939956574220800,2022-02-15-15:45:56,10.1.1.9,19,-0.060,-0.060,-0.060,0.000,0.000,0.000
1644939956957123072,2022-02-15-15:45:56,10.1.1.9,39,-0.070,-0.070,-0.070,0.000,0.000,0.000
1644939958037724928,2022-02-15-15:45:58,10.1.1.9,39,0.080,0.080,0.080,0.000,0.000,0.000
1644939959890903040,2022-02-15-15:45:59,10.1.1.9,23,0.080,0.080,0.080,0.000,0.000,0.000
1644939960089766912,2022-02-15-15:46:00,10.1.1.9,18,0.080,0.080,0.080,0.000,0.000,0.000
1644939961629584128,2022-02-15-15:46:01,10.1.1.9,20,0.000,0.000,0.000,0.000,0.000,0.000
1644939962689308928,2022-02-15-15:46:02,10.1.1.9,14,0.000,0.000,0.000,0.000,0.000,0.000
1644939962970048000,2022-02-15-15:46:02,10.1.1.9,39,-0.050,-0.050,-0.050,0.000,0.000,0.000
1644939963471569152,2022-02-15-15:46:03,10.1.1.9,21,-0.050,-0.050,-0.050,0.000,0.000,0.000
1644939963649647872,2022-02-15-15:46:03,10.1.1.9,40,-0.020,-0.020,-0.020,0.000,0.000,0.000
1644939964113761024,2022-02-15-15:46:04,10.1.1.9,29,0.070,0.070,0.070,0.000,0.000,0.000
1644939964408198144,2022-02-15-15:46:04,10.1.1.9,4,0.070,0.070,0.070,0.000,0.000,0.000
1644939965949846016,2022-02-15-15:46:05,10.1.1.9,40,0.020,0.020,0.020,0.000,0.000,0.000
1644939965989723904,2022-02-15-15:46:05,10.1.1.9,29,0.030,0.030,0.030,0.000,0.000,0.000
1644939966690712832,2022-02-15-15:46:06,10.1.1.9,20,0.030,0.030,0.030,0.000,0.000,0.000
1644939967368964864,2022-02-15-15:46:07,10.1.1.9,39,-0.100,-0.100,-0.100,0.000,0.000,0.000
1644939967411433984,2022-02-15-15:46:07,10.1.1.9,29,-0.090,-0.090,-0.090,0.000,0.000,0.000
1644939967469696000,2022-02-15-15:46:07,10.1.1.9,39,-0.080,-0.080,-0.080,0.000,0.000,0.000
1644939969089097984,2022-02-15-15:46:09,10.1.1.9,39,-0.040,-0.040,-0.040,0.000,0.000,0.000
1644939969670629120,2022-02-15-15:46:09,10.1.1.9,10,-0.040,-0.040,-0.040,0.000,0.000,0.000
1644939970454277888,2022-02-15-15:46:10,10.1.1.9,30,0.090,0.090,0.090,0.000,0.000,0.000
1644939972030198016,2022-02-15-15:46:12,10.1.1.9,29,0.000,0.000,0.000,0.000,0.000,0.000
1644939972591073024,2022-02-15-15:46:12,10.1.1.9,28,0.090,0.090,0.090,0.000,0.000,0.000
1644939973349980160,2022-02-15-15:46:13,10.1.1.9,30,-0.060,-0.060,-0.060,0.000,0.000,0.000
1644939973749694976,2022-02-15-15:46:13,10.1.1.9,22,-0.060,-0.060,-0.060,0.000,0.000,0.000
1644939974009910016,2022-02-15-15:46:14,10.1.1.9,29,-0.010,-0.010,-0.010,0.000,0.000,0.000
1644939975109790208,2022-02-15-15:46:15,10.1.1.9,14,-0.010,-0.010,-0.010,0.000,0.000,0.000
1644939975429188864,2022-02-15-15:46:15,10.1.1.9,29,-0.070,-0.070,-0.070,0.000,0.000,0.000
1644939975729657856,2022-02-15-15:46:15,10.1.1.9,24,-0.070,-0.070,-0.070,0.000,0.000,0.000
1644939976150487040,2022-02-15-15:46:16,10.1.1.9,39,0.010,0.010,0.010,0.000,0.000,0.000
1644939977032023040,2022-02-15-15:46:17,10.1.1.9,8,0.010,0.010,0.010,0.000,0.000,0.000
1644939977870619136,2022-02-15-15:46:17,10.1.1.9,39,-0.050,-0.050,-0.050,0.000,0.000,0.000
1644939977909861120,2022-02-15-15:46:17,10.1.1.9,29,-0.040,-0.040,-0.040,0.000,0.000,0.000
1644939978871414784,2022-02-15-15:46:18,10.1.1.9,30,0.050,0.050,0.050,0.000,0.000,0.000
1644939979730084864,2022-02-15-15:46:19,10.1.1.9,29,-0.080,-0.080,-0.080,0.000,0.000,0.000
1644939981550676224,2022-02-15-15:46:21,10.1.1.9,19,-0.080,-0.080,-0.080,0.000,0.000,0.000
1644939981611252992,2022-02-15-15:46:21,10.1.1.9,29,-0.090,-0.090,-0.090,0.000,0.000,0.000
1644939981692514816,2022-02-15-15:46:21,10.1.1.9,8,-0.090,-0.090,-0.090,0.000,0.000,0.000
1644939982269218816,2022-02-15-15:46:22,10.1.1.9,29,0.020,0.020,0.020,0.000,0.000,0.000
1644939983073025024,2022-02-15-15:46:23,10.1.1.9,14,0.020,0.020,0.020,0.000,0.000,0.000
1644939983549048832,2022-02-15-15:46:23,10.1.1.9,29,-0.070,-0.070,-0.070,0.000,0.000,0.000
1644939983849164032,2022-02-15-15:46:23,10.1.1.9,24,-0.070,-0.070,-0.070,0.000,0.000,0.000
1644939984648848128,2022-02-15-15:46:24,10.1.1.9,38,0.080,0.080,0.080,0.000,0.000,0.000
1644939984829227008,2022-02-15-15:46:24,10.1.1.9,16,0.080,0.080,0.080,0.000,0.000,0.000
1644939985309829120,2022-02-15-15:46:25,10.1.1.9,29,-0.010,-0.010,-0.010,0.000,0.000,0.000
1644939985768913152,2022-02-15-15:46:25,10.1.1.9,29,-0.100,-0.100,-0.100,0.000,0.000,0.000
1644939987308957952,2022-02-15-15:46:27,10.1.1.9,30,0.000,0.000,0.000,0.000,0.000,0.000
1644939988328902912,2022-02-15-15:46:28,10.1.1.9,17,0.000,0.000,0.000,0.000,0.000,0.000
1644939989349252864,2022-02-15-15:46:29,10.1.1.9,7,0.000,0.000,0.000,0.000,0.000,0.000
1644939990389157120,2022-02-15-15:46:30,10.1.1.9,22,0.000,0.000,0.000,0.000,0.000,0.000
1644939990909998848,2022-02-15-15:46:30,10.1.1.9,29,0.100,0.100,0.100,0.000,0.000,0.000
1644939992454520064,2022-02-15-15:46:32,10.1.1.9,29,-0.000,-0.000,-0.000,0.000,0.000,0.000
1644939993471291136,2022-02-15-15:46:33,10.1.1.9,17,-0.000,-0.000,-0.000,0.000,0.000,0.000
1644939994111067136,2022-02-15-15:46:34,10.1.1.9,39,-0.080,-0.080,-0.080,0.000,0.000,0.000
1644939995951037952,2022-02-15-15:46:35,10.1.1.9,17,-0.080,-0.080,-0.080,0.000,0.000,0.000
1644939996151244032,2022-02-15-15:46:36,10.1.1.9,12,-0.080,-0.080,-0.080,0.000,0.000,0.000
1644939996628845824,2022-02-15-15:46:36,10.1.1.9,29,0.010,0.010,0.010,0.000,0.000,0.000
1644939996690262016,2022-02-15-15:46:36,10.1.1.9,39,0.020,0.020,0.020,0.000,0.000,0.000
1644939997391814912,2022-02-15-15:46:37,10.1.1.9,29,0.040,0.040,0.040,0.000,0.000,0.000
1644939997448851968,2022-02-15-15:46:37,10.1.1.9,39,0.030,0.030,0.030,0.000,0.000,0.000
1644939998110199040,2022-02-15-15:46:38,10.1.1.9,39,-0.100,-0.100,-0.100,0.000,0.000,0.000
1644939998770961152,2022-02-15-15:46:38,10.1.1.9,39,0.030,0.030,0.030,0.000,0.000,0.000
1644939999448843008,2022-02-15-15:46:39,10.1.1.9,9,0.030,0.030,0.030,0.000,0.000,0.000
1644940000230475776,2022-02-15-15:46:40,10.1.1.9,29,-0.080,-0.080,-0.080,0.000,0.000,0.000
1644940000289297152,2022-02-15-15:46:40,10.1.1.9,39,-0.070,-0.070,-0.070,0.000,0.000,0.000
1644940001050690816,2022-02-15-15:46:41,10.1.1.9,39,0.080,0.080,0.080,0.000,0.000,0.000
1644940001229927168,2022-02-15-15:46:41,10.1.1.9,17,0.080,0.080,0.080,0.000,0.000,0.000
1644940003049815040,2022-02-15-15:46:43,10.1.1.9,9,0.080,0.080,0.080,0.000,0.000,0.000
1644940003250828032,2022-02-15-15:46:43,10.1.1.9,7,0.080,0.080,0.080,0.000,0.000,0.000
1644940005089540864,2022-02-15-15:46:45,10.1.1.9,10,0.080,0.080,0.080,0.000,0.000,0.000
1644940005169152000,2022-02-15-15:46:45,10.1.1.9,39,0.090,0.090,0.090,0.000,0.000,0.000
1644940005249859072,2022-02-15-15:46:45,10.1.1.9,18,0.090,0.090,0.090,0.000,0.000,0.000
1644940007169646080,2022-02-15-15:46:47,10.1.1.9,9,0.090,0.090,0.090,0.000,0.000,0.000
1644940007270176000,2022-02-15-15:46:47,10.1.1.9,9,0.090,0.090,0.090,0.000,0.000,0.000
1644940007429163008,2022-02-15-15:46:47,10.1.1.9,17,0.060,0.060,0.060,0.000,0.000,0.000
1644940007949316096,2022-02-15-15:46:47,10.1.1.9,29,-0.040,-0.040,-0.040,0.000,0.000,0.000
1644940008309698048,2022-02-15-15:46:48,10.1.1.9,30,-0.090,-0.090,-0.090,0.000,0.000,0.000
1644940009029357824,2022-02-15-15:46:49,10.1.1.9,40,0.050,0.050,0.050,0.000,0.000,0.000
1644940009510795008,2022-02-15-15:46:49,10.1.1.9,14,0.050,0.050,0.050,0.000,0.000,0.000
1644940009929178112,2022-02-15-15:46:49,10.1.1.9,30,-0.030,-0.030,-0.030,0.000,0.000,0.000
1644940010634848000,2022-02-15-15:46:50,10.1.1.9,22,-0.030,-0.030,-0.030,0.000,0.000,0.000
1644940010850676992,2022-02-15-15:46:50,10.1.1.9,39,0.010,0.010,0.010,0.000,0.000,0.000
1644940011651931904,2022-02-15-15:46:51,10.1.1.9,29,0.030,0.030,0.030,0.000,0.000,0.000
1644940012351644160,2022-02-15-15:46:52,10.1.1.9,20,-0.090,-0.090,-0.090,0.000,0.000,0.000
1644940013131268864,2022-02-15-15:46:53,10.1.1.9,39,0.060,0.060,0.060,0.000,0.000,0.000
1644940013509958144,2022-02-15-15:46:53,10.1.1.9,13,0.060,0.060,0.060,0.000,0.000,0.000
1644940013730753024,2022-02-15-15:46:53,10.1.1.9,29,0.020,0.020,0.020,0.000,0.000,0.000
1644940014929733888,2022-02-15-15:46:54,10.1.1.9,13,0.020,0.020,0.020,0.000,0.000,0.000
1644940015751092992,2022-02-15-15:46:55,10.1.1.9,19,0.020,0.020,0.020,0.000,0.000,0.000
1644940015809144064,2022-02-15-15:46:55,10.1.1.9,29,0.010,0.010,0.010,0.000,0.000,0.000
1644940016912952832,2022-02-15-15:46:56,10.1.1.9,17,0.010,0.010,0.010,0.000,0.000,0.000
1644940017828818944,2022-02-15-15:46:57,10.1.1.9,22,0.010,0.010,0.010,0.000,0.000,0.000
1644940017990000896,2022-02-15-15:46:57,10.1.1.9,29,-0.020,-0.020,-0.020,0.000,0.000,0.000
1644940018788980992,2022-02-15-15:46:58,10.1.1.9,20,-0.020,-0.020,-0.020,0.000,0.000,0.000
1644940018849266944,2022-02-15-15:46:58,10.1.1.9,30,-0.010,-0.010,-0.010,0.000,0.000,0.000
1644940019950326016,2022-02-15-15:46:59,10.1.1.9,6,-0.010,-0.010,-0.010,0.000,0.000,0.000
1644940020890247168,2022-02-15-15:47:00,10.1.1.9,12,-0.010,-0.010,-0.010,0.000,0.000,0.000
1644940021069169920,2022-02-15-15:47:01,10.1.1.9,39,0.020,0.020,0.020,0.000,0.000,0.000
1644940021569526784,2022-02-15-15:47:01,10.1.1.9,29,0.080,0.080,0.080,0.000,0.000,0.000
1644940022289921024,2022-02-15-15:47:02,10.1.1.9,39,-0.060,-0.060,-0.060,0.000,0.000,0.000
1644940022670051072,2022-02-15-15:47:02,10.1.1.9,11,-0.060,-0.060,-0.060,0.000,0.000,0.000
1644940023368907008,2022-02-15-15:47:03,10.1.1.9,39,0.070,0.070,0.070,0.000,0.000,0.000
1644940023671483136,2022-02-15-15:47:03,10.1.1.9,22,0.070,0.070,0.070,0.000,0.000,0.000
1644940024730156032,2022-02-15-15:47:04,10.1.1.9,29,-0.070,-0.070,-0.070,0.000,0.000,0.000
1644940025451333120,2022-02-15-15:47:05,10.1.1.9,29,0.070,0.070,0.070,0.000,0.000,0.000
1644940025751486976,2022-02-15-15:47:05,10.1.1.9,16,0.070,0.070,0.070,0.000,0.000,0.000
1644940025909841152,2022-02-15-15:47:05,10.1.1.9,17,0.040,0.040,0.040,0.000,0.000,0.000
1644940026769315072,2022-02-15-15:47:06,10.1.1.9,29,-0.080,-0.080,-0.080,0.000,0.000,0.000
1644940027389553152,2022-02-15-15:47:07,10.1.1.9,29,0.040,0.040,0.040,0.000,0.000,0.000
1644940027989953024,2022-02-15-15:47:07,10.1.1.9,13,0.040,0.040,0.040,0.000,0.000,0.000
1644940029429286912,2022-02-15-15:47:09,10.1.1.9,19,0.040,0.040,0.040,0.000,0.000,0.000
1644940030049336832,2022-02-15-15:47:10,10.1.1.9,24,0.040,0.040,0.040,0.000,0.000,0.000
1644940030268508928,2022-02-15-15:47:10,10.1.1.9,39,0.000,0.000,0.000,0.000,0.000,0.000
1644940031270029056,2022-02-15-15:47:11,10.1.1.9,6,0.000,0.000,0.000,0.000,0.000,0.000
1644940031510416128,2022-02-15-15:47:11,10.1.1.9,39,0.040,0.040,0.040,0.000,0.000,0.000
1644940031869067008,2022-02-15-15:47:11,10.1.1.9,39,0.090,0.090,0.090,0.000,0.000,0.000
1644940033248936960,2022-02-15-15:47:13,10.1.1.9,39,-0.020,-0.020,-0.020,0.000,0.000,0.000
1644940034489800960,2022-02-15-15:47:14,10.1.1.9,18,-0.020,-0.020,-0.020,0.000,0.000,0.000
1644940035309588992,2022-02-15-15:47:15,10.1.1.9,19,-0.020,-0.020,-0.020,0.000,0.000,0.000
1644940035889357056,2022-02-15-15:47:15,10.1.1.9,38,0.090,0.090,0.090,0.000,0.000,0.000
1644940035970791168,2022-02-15-15:47:15,10.1.1.9,18,0.090,0.090,0.090,0.000,0.000,0.000
1644940036391422976,2022-02-15-15:47:16,10.1.1.9,30,0.010,0.010,0.010,0.000,0.000,0.000
1644940037208813056,2022-02-15-15:47:17,10.1.1.9,29,-0.050,-0.050,-0.050,0.000,0.000,0.000
1644940038769701120,2022-02-15-15:47:18,10.1.1.9,8,-0.050,-0.050,-0.050,0.000,0.000,0.000
1644940039249052928,2022-02-15-15:47:19,10.1.1.9,29,-0.060,-0.060,-0.060,0.000,0.000,0.000
1644940040870824192,2022-02-15-15:47:20,10.1.1.9,24,-0.060,-0.060,-0.060,0.000,0.000,0.000
1644940041230833152,2022-02-15-15:47:21,10.1.1.9,30,-0.070,-0.070,-0.070,0.000,0.000,0.000
1644940041930294016,2022-02-15-15:47:21,10.1.1.9,20,0.070,0.070,0.070,0.000,0.000,0.000
1644940042051138048,2022-02-15-15:47:22,10.1.1.9,39,0.090,0.090,0.090,0.000,0.000,0.000
1644940042131748864,2022-02-15-15:47:22,10.1.1.9,18,0.090,0.090,0.090,0.000,0.000,0.000
1644940043990320896,2022-02-15-15:47:23,10.1.1.9,39,0.070,0.070,0.070,0.000,0.000,0.000
1644940044269306880,2022-02-15-15:47:24,10.1.1.9,16,0.070,0.070,0.070,0.000,0.000,0.000
1644940046008806912,2022-02-15-15:47:26,10.1.1.9,12,0.070,0.070,0.070,0.000,0.000,0.000
1644940046089121024,2022-02-15-15:47:26,10.1.1.9,39,0.080,0.080,0.080,0.000,0.000,0.000
1644940046270870016,2022-02-15-15:47:26,10.1.1.9,14,0.080,0.080,0.080,0.000,0.000,0.000
1644940046890996992,2022-02-15-15:47:26,10.1.1.9,19,-0.040,-0.040,-0.040,0.000,0.000,0.000
1644940047489020160,2022-02-15-15:47:27,10.1.1.9,8,-0.040,-0.040,-0.040,0.000,0.000,0.000
1644940048069530880,2022-02-15-15:47:28,10.1.1.9,29,0.070,0.070,0.070,0.000,0.000,0.000
1644940048368979968,2022-02-15-15:47:28,10.1.1.9,23,0.070,0.070,0.070,0.000,0.000,0.000
1644940048529134080,2022-02-15-15:47:28,10.1.1.9,29,0.040,0.040,0.040,0.000,0.000,0.000
1644940049930870016,2022-02-15-15:47:29,10.1.1.9,5,0.040,0.040,0.040,0.000,0.000,0.000
1644940050571433984,2022-02-15-15:47:30,10.1.1.9,14,0.040,0.040,0.040,0.000,0.000,0.000
1644940052010514944,2022-02-15-15:47:32,10.1.1.9,20,0.040,0.040,0.040,0.000,0.000,0.000
1644940052071340032,2022-02-15-15:47:32,10.1.1.9,30,0.050,0.050,0.050,0.000,0.000,0.000
1644940052569690880,2022-02-15-15:47:32,10.1.1.9,22,0.050,0.050,0.050,0.000,0.000,0.000
1644940053809114880,2022-02-15-15:47:33,10.1.1.9,29,-0.010,-0.010,-0.010,0.000,0.000,0.000
1644940054431572992,2022-02-15-15:47:34,10.1.1.9,39,0.090,0.090,0.090,0.000,0.000,0.000
1644940055289277952,2022-02-15-15:47:35,10.1.1.9,30,-0.080,-0.080,-0.080,0.000,0.000,0.000
1644940055469719040,2022-02-15-15:47:35,10.1.1.9,7,-0.080,-0.080,-0.080,0.000,0.000,0.000
1644940056409378048,2022-02-15-15:47:36,10.1.1.9,30,0.100,0.100,0.100,0.000,0.000,0.000
1644940056448889856,2022-02-15-15:47:36,10.1.1.9,19,0.090,0.090,0.090,0.000,0.000,0.000
1644940057131203840,2022-02-15-15:47:37,10.1.1.9,29,-0.040,-0.040,-0.040,0.000,0.000,0.000
1644940057728950016,2022-02-15-15:47:37,10.1.1.9,20,-0.040,-0.040,-0.040,0.000,0.000,0.000
1644940057790534144,2022-02-15-15:47:37,10.1.1.9,29,-0.030,-0.030,-0.030,0.000,0.000,0.000
1644940059089704960,2022-02-15-15:47:39,10.1.1.9,7,-0.030,-0.030,-0.030,0.000,0.000,0.000
1644940059469702912,2022-02-15-15:47:39,10.1.1.9,29,-0.100,-0.100,-0.100,0.000,0.000,0.000
1644940060491170048,2022-02-15-15:47:40,10.1.1.9,30,0.100,0.100,0.100,0.000,0.000,0.000
1644940062150651904,2022-02-15-15:47:42,10.1.1.9,20,0.020,0.020,0.020,0.000,0.000,0.000
1644940062970504960,2022-02-15-15:47:42,10.1.1.9,22,0.020,0.020,0.020,0.000,0.000,0.000
1644940064188914176,2022-02-15-15:47:44,10.1.1.9,18,0.020,0.020,0.020,0.000,0.000,0.000
1644940064709427968,2022-02-15-15:47:44,10.1.1.9,29,0.080,0.080,0.080,0.000,0.000,0.000
1644940066575036928,2022-02-15-15:47:46,10.1.1.9,5,0.080,0.080,0.080,0.000,0.000,0.000
1644940066790977024,2022-02-15-15:47:46,10.1.1.9,16,0.080,0.080,0.080,0.000,0.000,0.000
1644940067629308928,2022-02-15-15:47:47,10.1.1.9,39,-0.080,-0.080,-0.080,0.000,0.000,0.000
1644940067809988864,2022-02-15-15:47:47,10.1.1.9,16,-0.080,-0.080,-0.080,0.000,0.000,0.000
1644940068229417984,2022-02-15-15:47:48,10.1.1.9,30,0.000,0.000,0.000,0.000,0.000,0.000
1644940068288985856,2022-02-15-15:47:48,10.1.1.9,38,0.010,0.010,0.010,0.000,0.000,0.000
1644940068589358080,2022-02-15-15:47:48,10.1.1.9,29,0.070,0.070,0.070,0.000,0.000,0.000
1644940068889499904,2022-02-15-15:47:48,10.1.1.9,19,0.070,0.070,0.070,0.000,0.000,0.000
1644940069170329088,2022-02-15-15:47:49,10.1.1.9,39,0.020,0.020,0.020,0.000,0.000,0.000
1644940069990412032,2022-02-15-15:47:49,10.1.1.9,29,-0.060,-0.060,-0.060,0.000,0.000,0.000
1644940071610625024,2022-02-15-15:47:51,10.1.1.9,10,-0.060,-0.060,-0.060,0.000,0.000,0.000
1644940072029367808,2022-02-15-15:47:52,10.1.1.9,20,-0.060,-0.060,-0.060,0.000,0.000,0.000
1644940072089129984,2022-02-15-15:47:52,10.1.1.9,29,-0.050,-0.050,-0.050,0.000,0.000,0.000
1644940073010711040,2022-02-15-15:47:53,10.1.1.9,29,0.070,0.070,0.070,0.000,0.000,0.000
1644940074289078016,2022-02-15-15:47:54,10.1.1.9,29,-0.020,-0.020,-0.020,0.000,0.000,0.000
1644940075108475904,2022-02-15-15:47:55,10.1.1.9,30,0.060,0.060,0.060,0.000,0.000,0.000
1644940075169346048,2022-02-15-15:47:55,10.1.1.9,39,0.050,0.050,0.050,0.000,0.000,0.000
1644940075529412864,2022-02-15-15:47:55,10.1.1.9,39,-0.020,-0.020,-0.020,0.000,0.000,0.000
1644940076188571904,2022-02-15-15:47:56,10.1.1.9,29,-0.050,-0.050,-0.050,0.000,0.000,0.000
1644940076251127040,2022-02-15-15:47:56,10.1.1.9,39,-0.040,-0.040,-0.040,0.000,0.000,0.000
1644940076909079040,2022-02-15-15:47:56,10.1.1.9,29,0.090,0.090,0.090,0.000,0.000,0.000
1644940076989687808,2022-02-15-15:47:56,10.1.1.9,8,0.090,0.090,0.090,0.000,0.000,0.000
1644940077372596992,2022-02-15-15:47:57,10.1.1.9,29,0.020,0.020,0.020,0.000,0.000,0.000
1644940078593359104,2022-02-15-15:47:58,10.1.1.9,5,0.020,0.020,0.020,0.000,0.000,0.000
1644940078989878784,2022-02-15-15:47:58,10.1.1.9,29,0.090,0.090,0.090,0.000,0.000,0.000
1644940079070137856,2022-02-15-15:47:59,10.1.1.9,8,0.090,0.090,0.090,0.000,0.000,0.000
1644940080811652864,2022-02-15-15:48:00,10.1.1.9,29,0.030,0.030,0.030,0.000,0.000,0.000
1644940081510343168,2022-02-15-15:48:01,10.1.1.9,17,0.030,0.030,0.030,0.000,0.000,0.000
1644940082089073920,2022-02-15-15:48:02,10.1.1.9,39,-0.080,-0.080,-0.080,0.000,0.000,0.000
1644940082270750976,2022-02-15-15:48:02,10.1.1.9,17,-0.080,-0.080,-0.080,0.000,0.000,0.000
1644940084208813056,2022-02-15-15:48:04,10.1.1.9,26,-0.080,-0.080,-0.080,0.000,0.000,0.000
1644940084409480960,2022-02-15-15:48:04,10.1.1.9,24,-0.080,-0.080,-0.080,0.000,0.000,0.000
1644940084728861184,2022-02-15-15:48:04,10.1.1.9,39,-0.020,-0.020,-0.020,0.000,0.000,0.000
1644940085631361024,2022-02-15-15:48:05,10.1.1.9,30,0.040,0.040,0.040,0.000,0.000,0.000
1644940085688596992,2022-02-15-15:48:05,10.1.1.9,39,0.030,0.030,0.030,0.000,0.000,0.000
1644940086348941056,2022-02-15-15:48:06,10.1.1.9,39,-0.100,-0.100,-0.100,0.000,0.000,0.000
1644940086950927872,2022-02-15-15:48:06,10.1.1.9,29,0.020,0.020,0.020,0.000,0.000,0.000
1644940087010276096,2022-02-15-15:48:07,10.1.1.9,39,0.030,0.030,0.030,0.000,0.000,0.000
1644940087689219840,2022-02-15-15:48:07,10.1.1.9,9,0.030,0.030,0.030,0.000,0.000,0.000
1644940088328891904,2022-02-15-15:48:08,10.1.1.9,39,-0.090,-0.090,-0.090,0.000,0.000,0.000
1644940088409921792,2022-02-15-15:48:08,10.1.1.9,18,-0.090,-0.090,-0.090,0.000,0.000,0.000
1644940088729403136,2022-02-15-15:48:08,10.1.1.9,19,-0.030,-0.030,-0.030,0.000,0.000,0.000
1644940089548602112,2022-02-15-15:48:09,10.1.1.9,29,0.070,0.070,0.070,0.000,0.000,0.000
1644940090510795008,2022-02-15-15:48:10,10.1.1.9,29,-0.080,-0.080,-0.080,0.000,0.000,0.000
1644940090569585920,2022-02-15-15:48:10,10.1.1.9,40,-0.070,-0.070,-0.070,0.000,0.000,0.000
1644940091280478976,2022-02-15-15:48:11,10.1.1.9,29,0.070,0.070,0.070,0.000,0.000,0.000
1644940091550579968,2022-02-15-15:48:11,10.1.1.9,5,0.070,0.070,0.070,0.000,0.000,0.000
1644940092889026048,2022-02-15-15:48:12,10.1.1.9,30,-0.010,-0.010,-0.010,0.000,0.000,0.000
1644940092949454080,2022-02-15-15:48:12,10.1.1.9,39,0.000,0.000,0.000,0.000,0.000,0.000
1644940093949022976,2022-02-15-15:48:13,10.1.1.9,25,0.000,0.000,0.000,0.000,0.000,0.000
1644940094309089792,2022-02-15-15:48:14,10.1.1.9,29,-0.070,-0.070,-0.070,0.000,0.000,0.000
1644940094610054144,2022-02-15-15:48:14,10.1.1.9,25,-0.070,-0.070,-0.070,0.000,0.000,0.000
1644940095129477888,2022-02-15-15:48:15,10.1.1.9,39,0.030,0.030,0.030,0.000,0.000,0.000
1644940095810635008,2022-02-15-15:48:15,10.1.1.9,10,0.030,0.030,0.030,0.000,0.000,0.000
1644940096189897984,2022-02-15-15:48:16,10.1.1.9,29,-0.040,-0.040,-0.040,0.000,0.000,0.000
1644940096790266880,2022-02-15-15:48:16,10.1.1.9,12,-0.040,-0.040,-0.040,0.000,0.000,0.000
1644940096909739008,2022-02-15-15:48:16,10.1.1.9,29,-0.020,-0.020,-0.020,0.000,0.000,0.000
1644940097530060032,2022-02-15-15:48:17,10.1.1.9,29,0.100,0.100,0.100,0.000,0.000,0.000
1644940097788715008,2022-02-15-15:48:17,10.1.1.9,30,0.050,0.050,0.050,0.000,0.000,0.000
1644940099330660096,2022-02-15-15:48:19,10.1.1.9,8,0.050,0.050,0.050,0.000,0.000,0.000
1644940099609870080,2022-02-15-15:48:19,10.1.1.9,29,0.100,0.100,0.100,0.000,0.000,0.000
1644940101650938880,2022-02-15-15:48:21,10.1.1.9,6,0.100,0.100,0.100,0.000,0.000,0.000
1644940101929167872,2022-02-15-15:48:21,10.1.1.9,29,0.050,0.050,0.050,0.000,0.000,0.000
1644940102949229056,2022-02-15-15:48:22,10.1.1.9,18,-0.050,-0.050,-0.050,0.000,0.000,0.000
1644940103369005824,2022-02-15-15:48:23,10.1.1.9,29,0.030,0.030,0.030,0.000,0.000,0.000
1644940103829408768,2022-02-15-15:48:23,10.1.1.9,30,0.080,0.080,0.080,0.000,0.000,0.000
1644940103888739072,2022-02-15-15:48:23,10.1.1.9,39,0.070,0.070,0.070,0.000,0.000,0.000
1644940104709882112,2022-02-15-15:48:24,10.1.1.9,39,-0.090,-0.090,-0.090,0.000,0.000,0.000
1644940104789728000,2022-02-15-15:48:24,10.1.1.9,17,-0.090,-0.090,-0.090,0.000,0.000,0.000
1644940105369273856,2022-02-15-15:48:25,10.1.1.9,29,0.020,0.020,0.020,0.000,0.000,0.000
1644940105789161984,2022-02-15-15:48:25,10.1.1.9,39,0.100,0.100,0.100,0.000,0.000,0.000
1644940107388654080,2022-02-15-15:48:27,10.1.1.9,29,0.010,0.010,0.010,0.000,0.000,0.000
1644940107848634112,2022-02-15-15:48:27,10.1.1.9,29,0.100,0.100,0.100,0.000,0.000,0.000
1644940108111418880,2022-02-15-15:48:28,10.1.1.9,29,0.050,0.050,0.050,0.000,0.000,0.000
1644940108890295040,2022-02-15-15:48:28,10.1.1.9,39,-0.100,-0.100,-0.100,0.000,0.000,0.000
1644940109609432064,2022-02-15-15:48:29,10.1.1.9,39,0.040,0.040,0.040,0.000,0.000,0.000
1644940110191426048,2022-02-15-15:48:30,10.1.1.9,5,0.040,0.040,0.040,0.000,0.000,0.000
1644940110430944000,2022-02-15-15:48:30,10.1.1.9,39,0.000,0.000,0.000,0.000,0.000,0.000
1644940110790461184,2022-02-15-15:48:30,10.1.1.9,39,-0.070,-0.070,-0.070,0.000,0.000,0.000
1644940111069127168,2022-02-15-15:48:31,10.1.1.9,10,-0.070,-0.070,-0.070,0.000,0.000,0.000
1644940112832132096,2022-02-15-15:48:32,10.1.1.9,23,-0.070,-0.070,-0.070,0.000,0.000,0.000
1644940113138874880,2022-02-15-15:48:33,10.1.1.9,7,-0.070,-0.070,-0.070,0.000,0.000,0.000
1644940113429328896,2022-02-15-15:48:33,10.1.1.9,39,-0.020,-0.020,-0.020,0.000,0.000,0.000
1644940114628850944,2022-02-15-15:48:34,10.1.1.9,14,-0.020,-0.020,-0.020,0.000,0.000,0.000
1644940115453629952,2022-02-15-15:48:35,10.1.1.9,18,-0.020,-0.020,-0.020,0.000,0.000,0.000
1644940116670958080,2022-02-15-15:48:36,10.1.1.9,12,-0.020,-0.020,-0.020,0.000,0.000,0.000
1644940116788877056,2022-02-15-15:48:36,10.1.1.9,30,-0.040,-0.040,-0.040,0.000,0.000,0.000
1644940117390885120,2022-02-15-15:48:37,10.1.1.9,12,-0.040,-0.040,-0.040,0.000,0.000,0.000
1644940118849089024,2022-02-15-15:48:38,10.1.1.9,21,-0.040,-0.040,-0.040,0.000,0.000,0.000
1644940119471621120,2022-02-15-15:48:39,10.1.1.9,21,-0.040,-0.040,-0.040,0.000,0.000,0.000
1644940119588996864,2022-02-15-15:48:39,10.1.1.9,39,-0.020,-0.020,-0.020,0.000,0.000,0.000
1644940119989815040,2022-02-15-15:48:39,10.1.1.9,30,0.060,0.060,0.060,0.000,0.000,0.000
1644940120388425984,2022-02-15-15:48:40,10.1.1.9,19,0.060,0.060,0.060,0.000,0.000,0.000
1644940120769604864,2022-02-15-15:48:40,10.1.1.9,39,-0.010,-0.010,-0.010,0.000,0.000,0.000
1644940121669380864,2022-02-15-15:48:41,10.1.1.9,22,-0.010,-0.010,-0.010,0.000,0.000,0.000
1644940122549926912,2022-02-15-15:48:42,10.1.1.9,39,0.040,0.040,0.040,0.000,0.000,0.000
1644940123909616896,2022-02-15-15:48:43,10.1.1.9,29,0.030,0.030,0.030,0.000,0.000,0.000
1644940124529380096,2022-02-15-15:48:44,10.1.1.9,39,0.050,0.050,0.050,0.000,0.000,0.000
1644940125331038976,2022-02-15-15:48:45,10.1.1.9,20,-0.090,-0.090,-0.090,0.000,0.000,0.000
1644940126150077184,2022-02-15-15:48:46,10.1.1.9,29,0.070,0.070,0.070,0.000,0.000,0.000
1644940126448777984,2022-02-15-15:48:46,10.1.1.9,27,0.070,0.070,0.070,0.000,0.000,0.000
1644940127109131008,2022-02-15-15:48:47,10.1.1.9,30,-0.060,-0.060,-0.060,0.000,0.000,0.000
1644940127169044992,2022-02-15-15:48:47,10.1.1.9,39,-0.070,-0.070,-0.070,0.000,0.000,0.000
1644940127449875968,2022-02-15-15:48:47,10.1.1.9,15,-0.070,-0.070,-0.070,0.000,0.000,0.000
1644940128789827072,2022-02-15-15:48:48,10.1.1.9,29,0.010,0.010,0.010,0.000,0.000,0.000
1644940129909136896,2022-02-15-15:48:49,10.1.1.9,14,0.010,0.010,0.010,0.000,0.000,0.000
1644940130189131008,2022-02-15-15:48:50,10.1.1.9,39,0.060,0.060,0.060,0.000,0.000,0.000
1644940130573164032,2022-02-15-15:48:50,10.1.1.9,13,0.060,0.060,0.060,0.000,0.000,0.000
1644940131569612032,2022-02-15-15:48:51,10.1.1.9,29,-0.070,-0.070,-0.070,0.000,0.000,0.000
1644940132030031872,2022-02-15-15:48:52,10.1.1.9,29,0.020,0.020,0.020,0.000,0.000,0.000
1644940132830547200,2022-02-15-15:48:52,10.1.1.9,14,0.020,0.020,0.020,0.000,0.000,0.000
1644940133149385984,2022-02-15-15:48:53,10.1.1.9,29,-0.040,-0.040,-0.040,0.000,0.000,0.000
1644940133748616960,2022-02-15-15:48:53,10.1.1.9,21,-0.040,-0.040,-0.040,0.000,0.000,0.000
1644940133848818176,2022-02-15-15:48:53,10.1.1.9,20,-0.020,-0.020,-0.020,0.000,0.000,0.000
1644940133908951040,2022-02-15-15:48:53,10.1.1.9,29,-0.010,-0.010,-0.010,0.000,0.000,0.000
1644940135009035008,2022-02-15-15:48:55,10.1.1.9,18,-0.010,-0.010,-0.010,0.000,0.000,0.000
1644940135908963072,2022-02-15-15:48:55,10.1.1.9,8,-0.010,-0.010,-0.010,0.000,0.000,0.000
1644940136450752000,2022-02-15-15:48:56,10.1.1.9,39,0.090,0.090,0.090,0.000,0.000,0.000
1644940136530185984,2022-02-15-15:48:56,10.1.1.9,18,0.090,0.090,0.090,0.000,0.000,0.000
1644940138491271936,2022-02-15-15:48:58,10.1.1.9,12,0.090,0.090,0.090,0.000,0.000,0.000
1644940138589405952,2022-02-15-15:48:58,10.1.1.9,11,0.090,0.090,0.090,0.000,0.000,0.000
1644940138770270976,2022-02-15-15:48:58,10.1.1.9,39,0.060,0.060,0.060,0.000,0.000,0.000
1644940139569915904,2022-02-15-15:48:59,10.1.1.9,29,-0.100,-0.100,-0.100,0.000,0.000,0.000
1644940140329839872,2022-02-15-15:49:00,10.1.1.9,29,0.050,0.050,0.050,0.000,0.000,0.000
1644940140829568000,2022-02-15-15:49:00,10.1.1.9,22,0.050,0.050,0.050,0.000,0.000,0.000
1644940140949069056,2022-02-15-15:49:00,10.1.1.9,39,0.030,0.030,0.030,0.000,0.000,0.000
1644940141710164992,2022-02-15-15:49:01,10.1.1.9,39,-0.080,-0.080,-0.080,0.000,0.000,0.000
1644940141751087872,2022-02-15-15:49:01,10.1.1.9,29,-0.070,-0.070,-0.070,0.000,0.000,0.000
1644940142268940032,2022-02-15-15:49:02,10.1.1.9,39,0.030,0.030,0.030,0.000,0.000,0.000
1644940142951215872,2022-02-15-15:49:02,10.1.1.9,11,0.030,0.030,0.030,0.000,0.000,0.000
1644940143071030016,2022-02-15-15:49:03,10.1.1.9,29,0.010,0.010,0.010,0.000,0.000,0.000
1644940143129672960,2022-02-15-15:49:03,10.1.1.9,39,0.000,0.000,0.000,0.000,0.000,0.000
1644940144128830976,2022-02-15-15:49:04,10.1.1.9,25,0.000,0.000,0.000,0.000,0.000,0.000
1644940145157118208,2022-02-15-15:49:05,10.1.1.9,18,0.000,0.000,0.000,0.000,0.000,0.000
1644940145791023104,2022-02-15-15:49:05,10.1.1.9,29,-0.080,-0.080,-0.080,0.000,0.000,0.000
1644940146210864896,2022-02-15-15:49:06,10.1.1.9,39,0.000,0.000,0.000,0.000,0.000,0.000
1644940146249583872,2022-02-15-15:49:06,10.1.1.9,29,0.010,0.010,0.010,0.000,0.000,0.000
1644940146809817088,2022-02-15-15:49:06,10.1.1.9,29,0.080,0.080,0.080,0.000,0.000,0.000
1644940148628914176,2022-02-15-15:49:08,10.1.1.9,17,0.080,0.080,0.080,0.000,0.000,0.000
1644940148831526144,2022-02-15-15:49:08,10.1.1.9,15,0.080,0.080,0.080,0.000,0.000,0.000
1644940149150904064,2022-02-15-15:49:09,10.1.1.9,30,0.020,0.020,0.020,0.000,0.000,0.000
1644940149509857792,2022-02-15-15:49:09,10.1.1.9,29,-0.050,-0.050,-0.050,0.000,0.000,0.000
1644940150008552960,2022-02-15-15:49:10,10.1.1.9,18,-0.050,-0.050,-0.050,0.000,0.000,0.000
1644940151550371840,2022-02-15-15:49:11,10.1.1.9,20,-0.050,-0.050,-0.050,0.000,0.000,0.000
1644940151612781056,2022-02-15-15:49:11,10.1.1.9,29,-0.060,-0.060,-0.060,0.000,0.000,0.000
1644940152008352000,2022-02-15-15:49:12,10.1.1.9,15,-0.060,-0.060,-0.060,0.000,0.000,0.000
1644940153669327104,2022-02-15-15:49:13,10.1.1.9,25,-0.060,-0.060,-0.060,0.000,0.000,0.000
1644940154069228800,2022-02-15-15:49:14,10.1.1.9,19,-0.060,-0.060,-0.060,0.000,0.000,0.000
1644940155089570048,2022-02-15-15:49:15,10.1.1.9,29,0.060,0.060,0.060,0.000,0.000,0.000
1644940155950000896,2022-02-15-15:49:15,10.1.1.9,29,-0.090,-0.090,-0.090,0.000,0.000,0.000
1644940156009612032,2022-02-15-15:49:16,10.1.1.9,39,-0.080,-0.080,-0.080,0.000,0.000,0.000
1644940157570641152,2022-02-15-15:49:17,10.1.1.9,29,-0.030,-0.030,-0.030,0.000,0.000,0.000
1644940158189960960,2022-02-15-15:49:18,10.1.1.9,30,-0.050,-0.050,-0.050,0.000,0.000,0.000
1644940159710843136,2022-02-15-15:49:19,10.1.1.9,6,-0.050,-0.050,-0.050,0.000,0.000,0.000
1644940160230038784,2022-02-15-15:49:20,10.1.1.9,6,-0.050,-0.050,-0.050,0.000,0.000,0.000
1644940160610632960,2022-02-15-15:49:20,10.1.1.9,29,0.020,0.020,0.020,0.000,0.000,0.000
1644940161329363968,2022-02-15-15:49:21,10.1.1.9,39,0.040,0.040,0.040,0.000,0.000,0.000
1644940162030637056,2022-02-15-15:49:22,10.1.1.9,30,-0.100,-0.100,-0.100,0.000,0.000,0.000
1644940162790385920,2022-02-15-15:49:22,10.1.1.9,30,0.050,0.050,0.050,0.000,0.000,0.000
1644940162849315840,2022-02-15-15:49:22,10.1.1.9,39,0.060,0.060,0.060,0.000,0.000,0.000
1644940163231124992,2022-02-15-15:49:23,10.1.1.9,11,0.060,0.060,0.060,0.000,0.000,0.000
1644940163850210816,2022-02-15-15:49:23,10.1.1.9,20,-0.060,-0.060,-0.060,0.000,0.000,0.000
1644940163908803840,2022-02-15-15:49:23,10.1.1.9,29,-0.070,-0.070,-0.070,0.000,0.000,0.000
1644940164189511936,2022-02-15-15:49:24,10.1.1.9,6,-0.070,-0.070,-0.070,0.000,0.000,0.000
1644940164569334016,2022-02-15-15:49:24,10.1.1.9,29,0.000,0.000,0.000,0.000,0.000,0.000
1644940165228724992,2022-02-15-15:49:25,10.1.1.9,29,0.070,0.070,0.070,0.000,0.000,0.000
1644940165788528896,2022-02-15-15:49:25,10.1.1.9,29,-0.040,-0.040,-0.040,0.000,0.000,0.000
1644940166388716032,2022-02-15-15:49:26,10.1.1.9,17,-0.040,-0.040,-0.040,0.000,0.000,0.000
1644940166811470080,2022-02-15-15:49:26,10.1.1.9,29,0.040,0.040,0.040,0.000,0.000,0.000
1644940166870696960,2022-02-15-15:49:26,10.1.1.9,39,0.050,0.050,0.050,0.000,0.000,0.000
1644940167350920960,2022-02-15-15:49:27,10.1.1.9,6,0.050,0.050,0.050,0.000,0.000,0.000
1644940167729059072,2022-02-15-15:49:27,10.1.1.9,29,-0.020,-0.020,-0.020,0.000,0.000,0.000
1644940168531117056,2022-02-15-15:49:28,10.1.1.9,19,-0.020,-0.020,-0.020,0.000,0.000,0.000
1644940169150577920,2022-02-15-15:49:29,10.1.1.9,29,0.100,0.100,0.100,0.000,0.000,0.000
1644940169769573888,2022-02-15-15:49:29,10.1.1.9,30,-0.020,-0.020,-0.020,0.000,0.000,0.000
1644940170569172992,2022-02-15-15:49:30,10.1.1.9,14,-0.020,-0.020,-0.020,0.000,0.000,0.000
1644940171791183872,2022-02-15-15:49:31,10.1.1.9,22,-0.020,-0.020,-0.020,0.000,0.000,0.000
1644940172109522176,2022-02-15-15:49:32,10.1.1.9,39,-0.080,-0.080,-0.080,0.000,0.000,0.000
1644940172290343168,2022-02-15-15:49:32,10.1.1.9,16,-0.080,-0.080,-0.080,0.000,0.000,0.000
1644940172910035968,2022-02-15-15:49:32,10.1.1.9,29,0.040,0.040,0.040,0.000,0.000,0.000
1644940172949227008,2022-02-15-15:49:32,10.1.1.9,18,0.050,0.050,0.050,0.000,0.000,0.000
1644940173449000960,2022-02-15-15:49:33,10.1.1.9,14,0.050,0.050,0.050,0.000,0.000,0.000
1644940173729238016,2022-02-15-15:49:33,10.1.1.9,39,0.000,0.000,0.000,0.000,0.000,0.000
1644940174709222144,2022-02-15-15:49:34,10.1.1.9,7,0.000,0.000,0.000,0.000,0.000,0.000
1644940175748835072,2022-02-15-15:49:35,10.1.1.9,21,0.000,0.000,0.000,0.000,0.000,0.000
1644940175810018048,2022-02-15-15:49:35,10.1.1.9,29,-0.010,-0.010,-0.010,0.000,0.000,0.000
1644940176729090048,2022-02-15-15:49:36,10.1.1.9,8,-0.010,-0.010,-0.010,0.000,0.000,0.000
1644940177629348096,2022-02-15-15:49:37,10.1.1.9,39,0.040,0.040,0.040,0.000,0.000,0.000
1644940179049865984,2022-02-15-15:49:39,10.1.1.9,24,0.040,0.040,0.040,0.000,0.000,0.000
1644940179649238016,2022-02-15-15:49:39,10.1.1.9,8,0.040,0.040,0.040,0.000,0.000,0.000
1644940181090457088,2022-02-15-15:49:41,10.1.1.9,12,0.040,0.040,0.040,0.000,0.000,0.000
1644940181208857088,2022-02-15-15:49:41,10.1.1.9,29,0.060,0.060,0.060,0.000,0.000,0.000
1644940181609700864,2022-02-15-15:49:41,10.1.1.9,22,0.060,0.060,0.060,0.000,0.000,0.000
1644940182170591232,2022-02-15-15:49:42,10.1.1.9,22,-0.050,-0.050,-0.050,0.000,0.000,0.000
1644940182669015808,2022-02-15-15:49:42,10.1.1.9,9,-0.050,-0.050,-0.050,0.000,0.000,0.000
1644940183929573120,2022-02-15-15:49:43,10.1.1.9,39,0.010,0.010,0.010,0.000,0.000,0.000
1644940184370534912,2022-02-15-15:49:44,10.1.1.9,20,-0.080,-0.080,-0.080,0.000,0.000,0.000
1644940184571206144,2022-02-15-15:49:44,10.1.1.9,17,-0.080,-0.080,-0.080,0.000,0.000,0.000
1644940184849905920,2022-02-15-15:49:44,10.1.1.9,39,-0.030,-0.030,-0.030,0.000,0.000,0.000
1644940185609576960,2022-02-15-15:49:45,10.1.1.9,29,0.080,0.080,0.080,0.000,0.000,0.000
1644940186749470976,2022-02-15-15:49:46,10.1.1.9,39,-0.060,-0.060,-0.060,0.000,0.000,0.000
1644940188353689856,2022-02-15-15:49:48,10.1.1.9,6,-0.060,-0.060,-0.060,0.000,0.000,0.000
1644940188770489088,2022-02-15-15:49:48,10.1.1.9,21,-0.060,-0.060,-0.060,0.000,0.000,0.000
1644940189648471040,2022-02-15-15:49:49,10.1.1.9,29,0.090,0.090,0.090,0.000,0.000,0.000
1644940189710774016,2022-02-15-15:49:49,10.1.1.9,39,0.080,0.080,0.080,0.000,0.000,0.000
1644940190210496000,2022-02-15-15:49:50,10.1.1.9,30,-0.020,-0.020,-0.020,0.000,0.000,0.000
1644940191011586048,2022-02-15-15:49:51,10.1.1.9,11,-0.020,-0.020,-0.020,0.000,0.000,0.000
1644940191729219840,2022-02-15-15:49:51,10.1.1.9,20,0.080,0.080,0.080,0.000,0.000,0.000
1644940191790593024,2022-02-15-15:49:51,10.1.1.9,30,0.070,0.070,0.070,0.000,0.000,0.000
1644940192710785024,2022-02-15-15:49:52,10.1.1.9,39,-0.090,-0.090,-0.090,0.000,0.000,0.000
1644940192749165056,2022-02-15-15:49:52,10.1.1.9,29,-0.080,-0.080,-0.080,0.000,0.000,0.000
1644940193509812992,2022-02-15-15:49:53,10.1.1.9,30,0.070,0.070,0.070,0.000,0.000,0.000
1644940193609606144,2022-02-15-15:49:53,10.1.1.9,29,0.090,0.090,0.090,0.000,0.000,0.000
1644940193669723904,2022-02-15-15:49:53,10.1.1.9,39,0.100,0.100,0.100,0.000,0.000,0.000
1644940194530519040,2022-02-15-15:49:54,10.1.1.9,39,-0.070,-0.070,-0.070,0.000,0.000,0.000
1644940194810944000,2022-02-15-15:49:54,10.1.1.9,15,-0.070,-0.070,-0.070,0.000,0.000,0.000
1644940196188771072,2022-02-15-15:49:56,10.1.1.9,29,0.000,0.000,0.000,0.000,0.000,0.000
1644940196249871872,2022-02-15-15:49:56,10.1.1.9,39,-0.010,-0.010,-0.010,0.000,0.000,0.000
1644940196949676032,2022-02-15-15:49:56,10.1.1.9,30,-0.050,-0.050,-0.050,0.000,0.000,0.000
1644940198468636160,2022-02-15-15:49:58,10.1.1.9,26,-0.050,-0.050,-0.050,0.000,0.000,0.000
1644940198969192960,2022-02-15-15:49:58,10.1.1.9,16,-0.050,-0.050,-0.050,0.000,0.000,0.000
1644940200489615872,2022-02-15-15:50:00,10.1.1.9,9,-0.050,-0.050,-0.050,0.000,0.000,0.000
1644940201048487936,2022-02-15-15:50:01,10.1.1.9,12,-0.050,-0.050,-0.050,0.000,0.000,0.000
1644940201228736000,2022-02-15-15:50:01,10.1.1.9,39,-0.020,-0.020,-0.020,0.000,0.000,0.000
1644940201629659904,2022-02-15-15:50:01,10.1.1.9,29,0.060,0.060,0.060,0.000,0.000,0.000
1644940201689155072,2022-02-15-15:50:01,10.1.1.9,39,0.070,0.070,0.070,0.000,0.000,0.000
1644940201969481984,2022-02-15-15:50:01,10.1.1.9,13,0.070,0.070,0.070,0.000,0.000,0.000
1644940202228969216,2022-02-15-15:50:02,10.1.1.9,19,0.020,0.020,0.020,0.000,0.000,0.000
1644940203049036032,2022-02-15-15:50:03,10.1.1.9,29,-0.060,-0.060,-0.060,0.000,0.000,0.000
1644940204690082048,2022-02-15-15:50:04,10.1.1.9,17,-0.060,-0.060,-0.060,0.000,0.000,0.000
1644940205089607936,2022-02-15-15:50:05,10.1.1.9,9,-0.060,-0.060,-0.060,0.000,0.000,0.000
1644940206731073024,2022-02-15-15:50:06,10.1.1.9,26,-0.060,-0.060,-0.060,0.000,0.000,0.000
1644940207129362176,2022-02-15-15:50:07,10.1.1.9,20,-0.060,-0.060,-0.060,0.000,0.000,0.000
1644940207948688128,2022-02-15-15:50:07,10.1.1.9,30,0.100,0.100,0.100,0.000,0.000,0.000
1644940209966403072,2022-02-15-15:50:09,10.1.1.9,-7,0.100,0.100,0.100,0.000,0.000,0.000
1644940210348925952,2022-02-15-15:50:10,10.1.1.9,39,0.030,0.030,0.030,0.000,0.000,0.000
1644940211652926976,2022-02-15-15:50:11,10.1.1.9,8,0.030,0.030,0.030,0.000,0.000,0.000
1644940212130515200,2022-02-15-15:50:12,10.1.1.9,29,0.080,0.080,0.080,0.000,0.000,0.000
1644940213988493056,2022-02-15-15:50:13,10.1.1.9,17,0.080,0.080,0.080,0.000,0.000,0.000
1644940214188471040,2022-02-15-15:50:14,10.1.1.9,10,0.080,0.080,0.080,0.000,0.000,0.000
1644940216068476928,2022-02-15-15:50:16,10.1.1.9,22,0.080,0.080,0.080,0.000,0.000,0.000
1644940216268340992,2022-02-15-15:50:16,10.1.1.9,18,0.080,0.080,0.080,0.000,0.000,0.000
1644940216988291072,2022-02-15-15:50:16,10.1.1.9,29,-0.060,-0.060,-0.060,0.000,0.000,0.000
1644940217389945856,2022-02-15-15:50:17,10.1.1.9,24,-0.060,-0.060,-0.060,0.000,0.000,0.000
1644940219008785920,2022-02-15-15:50:19,10.1.1.9,15,-0.060,-0.060,-0.060,0.000,0.000,0.000
1644940219288593920,2022-02-15-15:50:19,10.1.1.9,39,-0.090,-0.090,-0.090,0.000,0.000,0.000
1644940220648494848,2022-02-15-15:50:20,10.1.1.9,29,0.020,0.020,0.020,0.000,0.000,0.000
1644940221568893952,2022-02-15-15:50:21,10.1.1.9,39,-0.040,-0.040,-0.040,0.000,0.000,0.000
1644940222489619968,2022-02-15-15:50:22,10.1.1.9,39,0.060,0.060,0.060,0.000,0.000,0.000
1644940224109612032,2022-02-15-15:50:24,10.1.1.9,20,0.060,0.060,0.060,0.000,0.000,0.000
1644940224168775936,2022-02-15-15:50:24,10.1.1.9,29,0.070,0.070,0.070,0.000,0.000,0.000
1644940224469358848,2022-02-15-15:50:24,10.1.1.9,21,0.070,0.070,0.070,0.000,0.000,0.000
1644940224988410880,2022-02-15-15:50:24,10.1.1.9,29,-0.030,-0.030,-0.030,0.000,0.000,0.000
1644940225693789952,2022-02-15-15:50:25,10.1.1.9,19,-0.030,-0.030,-0.030,0.000,0.000,0.000
1644940226369272064,2022-02-15-15:50:26,10.1.1.9,39,0.100,0.100,0.100,0.000,0.000,0.000
1644940227830243072,2022-02-15-15:50:27,10.1.1.9,29,-0.010,-0.010,-0.010,0.000,0.000,0.000
1644940228768960000,2022-02-15-15:50:28,10.1.1.9,29,0.030,0.030,0.030,0.000,0.000,0.000
1644940229449911040,2022-02-15-15:50:29,10.1.1.9,39,-0.100,-0.100,-0.100,0.000,0.000,0.000
1644940231510237952,2022-02-15-15:50:31,10.1.1.9,20,-0.100,-0.100,-0.100,0.000,0.000,0.000
1644940232288636928,2022-02-15-15:50:32,10.1.1.9,29,0.050,0.050,0.050,0.000,0.000,0.000
1644940232790932992,2022-02-15-15:50:32,10.1.1.9,17,0.050,0.050,0.050,0.000,0.000,0.000
1644940234268378112,2022-02-15-15:50:34,10.1.1.9,40,0.030,0.030,0.030,0.000,0.000,0.000
1644940234968913920,2022-02-15-15:50:34,10.1.1.9,18,0.030,0.030,0.030,0.000,0.000,0.000
1644940235148935168,2022-02-15-15:50:35,10.1.1.9,39,0.000,0.000,0.000,0.000,0.000,0.000
1644940235509763840,2022-02-15-15:50:35,10.1.1.9,39,-0.070,-0.070,-0.070,0.000,0.000,0.000
1644940235788739072,2022-02-15-15:50:35,10.1.1.9,8,-0.070,-0.070,-0.070,0.000,0.000,0.000
1644940236428664832,2022-02-15-15:50:36,10.1.1.9,20,0.050,0.050,0.050,0.000,0.000,0.000
1644940236949384960,2022-02-15-15:50:36,10.1.1.9,16,0.050,0.050,0.050,0.000,0.000,0.000
1644940237810435072,2022-02-15-15:50:37,10.1.1.9,30,-0.090,-0.090,-0.090,0.000,0.000,0.000
1644940239748478976,2022-02-15-15:50:39,10.1.1.9,17,-0.090,-0.090,-0.090,0.000,0.000,0.000
1644940239856587008,2022-02-15-15:50:39,10.1.1.9,8,-0.090,-0.090,-0.090,0.000,0.000,0.000
1644940241835643136,2022-02-15-15:50:41,10.1.1.9,17,-0.090,-0.090,-0.090,0.000,0.000,0.000
1644940241930301952,2022-02-15-15:50:41,10.1.1.9,13,-0.090,-0.090,-0.090,0.000,0.000,0.000
1644940243249704960,2022-02-15-15:50:43,10.1.1.9,29,0.040,0.040,0.040,0.000,0.000,0.000
1644940243708133888,2022-02-15-15:50:43,10.1.1.9,29,-0.050,-0.050,-0.050,0.000,0.000,0.000
1644940244212626944,2022-02-15-15:50:44,10.1.1.9,19,-0.050,-0.050,-0.050,0.000,0.000,0.000
1644940245088907008,2022-02-15-15:50:45,10.1.1.9,29,0.090,0.090,0.090,0.000,0.000,0.000
1644940247032020992,2022-02-15-15:50:47,10.1.1.9,23,0.090,0.090,0.090,0.000,0.000,0.000
1644940247130021120,2022-02-15-15:50:47,10.1.1.9,19,0.090,0.090,0.090,0.000,0.000,0.000
1644940247451627008,2022-02-15-15:50:47,10.1.1.9,29,0.030,0.030,0.030,0.000,0.000,0.000
1644940248791353856,2022-02-15-15:50:48,10.1.1.9,22,0.030,0.030,0.030,0.000,0.000,0.000
1644940249508080128,2022-02-15-15:50:49,10.1.1.9,22,0.030,0.030,0.030,0.000,0.000,0.000
1644940250849477120,2022-02-15-15:50:50,10.1.1.9,13,0.030,0.030,0.030,0.000,0.000,0.000
1644940251571983104,2022-02-15-15:50:51,10.1.1.9,13,0.030,0.030,0.030,0.000,0.000,0.000
1644940252509509120,2022-02-15-15:50:52,10.1.1.9,29,-0.050,-0.050,-0.050,0.000,0.000,0.000
1644940254029373952,2022-02-15-15:50:54,10.1.1.9,14,-0.050,-0.050,-0.050,0.000,0.000,0.000
1644940254548814080,2022-02-15-15:50:54,10.1.1.9,24,-0.050,-0.050,-0.050,0.000,0.000,0.000
1644940255834923008,2022-02-15-15:50:55,10.1.1.9,39,0.000,0.000,0.000,0.000,0.000,0.000
1644940256836873984,2022-02-15-15:50:56,10.1.1.9,14,0.000,0.000,0.000,0.000,0.000,0.000
1644940257848342016,2022-02-15-15:50:57,10.1.1.9,13,0.000,0.000,0.000,0.000,0.000,0.000
1644940258789705984,2022-02-15-15:50:58,10.1.1.9,20,-0.020,-0.020,-0.020,0.000,0.000,0.000
1644940259208150016,2022-02-15-15:50:59,10.1.1.9,29,0.060,0.060,0.060,0.000,0.000,0.000
1644940259609057024,2022-02-15-15:50:59,10.1.1.9,21,0.060,0.060,0.060,0.000,0.000,0.000
1644940261249099008,2022-02-15-15:51:01,10.1.1.9,7,0.060,0.060,0.060,0.000,0.000,0.000
1644940261668288000,2022-02-15-15:51:01,10.1.1.9,19,0.060,0.060,0.060,0.000,0.000,0.000
1644940262249295872,2022-02-15-15:51:02,10.1.1.9,29,-0.050,-0.050,-0.050,0.000,0.000,0.000
1644940262748111104,2022-02-15-15:51:02,10.1.1.9,20,-0.050,-0.050,-0.050,0.000,0.000,0.000
1644940264269020160,2022-02-15-15:51:04,10.1.1.9,19,-0.050,-0.050,-0.050,0.000,0.000,0.000
1644940264777057024,2022-02-15-15:51:04,10.1.1.9,11,-0.050,-0.050,-0.050,0.000,0.000,0.000
1644940266109009152,2022-02-15-15:51:06,10.1.1.9,29,0.000,0.000,0.000,0.000,0.000,0.000
1644940266709045760,2022-02-15-15:51:06,10.1.1.9,20,-0.080,-0.080,-0.080,0.000,0.000,0.000
1644940266768833024,2022-02-15-15:51:06,10.1.1.9,29,-0.070,-0.070,-0.070,0.000,0.000,0.000
1644940268389324032,2022-02-15-15:51:08,10.1.1.9,30,-0.050,-0.050,-0.050,0.000,0.000,0.000
1644940268448937984,2022-02-15-15:51:08,10.1.1.9,39,-0.060,-0.060,-0.060,0.000,0.000,0.000
1644940268829071872,2022-02-15-15:51:08,10.1.1.9,14,-0.060,-0.060,-0.060,0.000,0.000,0.000
1644940269670002944,2022-02-15-15:51:09,10.1.1.9,39,0.100,0.100,0.100,0.000,0.000,0.000
1644940270128875008,2022-02-15-15:51:10,10.1.1.9,29,0.010,0.010,0.010,0.000,0.000,0.000
1644940270788273152,2022-02-15-15:51:10,10.1.1.9,29,-0.080,-0.080,-0.080,0.000,0.000,0.000
1644940271670435072,2022-02-15-15:51:11,10.1.1.9,39,0.090,0.090,0.090,0.000,0.000,0.000
1644940271749202944,2022-02-15-15:51:11,10.1.1.9,19,0.090,0.090,0.090,0.000,0.000,0.000
1644940271791234048,2022-02-15-15:51:11,10.1.1.9,6,0.090,0.090,0.090,0.000,0.000,0.000
1644940273470077952,2022-02-15-15:51:13,10.1.1.9,29,0.040,0.040,0.040,0.000,0.000,0.000
1644940274070105088,2022-02-15-15:51:14,10.1.1.9,18,0.040,0.040,0.040,0.000,0.000,0.000
1644940275491153920,2022-02-15-15:51:15,10.1.1.9,7,0.040,0.040,0.040,0.000,0.000,0.000
1644940275831902976,2022-02-15-15:51:15,10.1.1.9,39,0.100,0.100,0.100,0.000,0.000,0.000
1644940276589932800,2022-02-15-15:51:16,10.1.1.9,39,-0.050,-0.050,-0.050,0.000,0.000,0.000
1644940277068808192,2022-02-15-15:51:17,10.1.1.9,9,-0.050,-0.050,-0.050,0.000,0.000,0.000
1644940278208011008,2022-02-15-15:51:18,10.1.1.9,29,0.030,0.030,0.030,0.000,0.000,0.000
1644940279510148096,2022-02-15-15:51:19,10.1.1.9,13,0.030,0.030,0.030,0.000,0.000,0.000
1644940279688278016,2022-02-15-15:51:19,10.1.1.9,39,0.060,0.060,0.060,0.000,0.000,0.000
1644940280071016192,2022-02-15-15:51:20,10.1.1.9,15,0.060,0.060,0.060,0.000,0.000,0.000
1644940281368489984,2022-02-15-15:51:21,10.1.1.9,39,-0.010,-0.010,-0.010,0.000,0.000,0.000
1644940281969041152,2022-02-15-15:51:21,10.1.1.9,29,0.090,0.090,0.090,0.000,0.000,0.000
1644940282429771776,2022-02-15-15:51:22,10.1.1.9,29,0.000,0.000,0.000,0.000,0.000,0.000
1644940283448584192,2022-02-15-15:51:23,10.1.1.9,22,0.000,0.000,0.000,0.000,0.000,0.000
1644940283608523008,2022-02-15-15:51:23,10.1.1.9,29,0.030,0.030,0.030,0.000,0.000,0.000
1644940283969969152,2022-02-15-15:51:23,10.1.1.9,29,0.100,0.100,0.100,0.000,0.000,0.000
1644940284729063936,2022-02-15-15:51:24,10.1.1.9,20,-0.050,-0.050,-0.050,0.000,0.000,0.000
1644940285230656000,2022-02-15-15:51:25,10.1.1.9,7,-0.050,-0.050,-0.050,0.000,0.000,0.000
1644940285510191872,2022-02-15-15:51:25,10.1.1.9,30,0.000,0.000,0.000,0.000,0.000,0.000
1644940286227904000,2022-02-15-15:51:26,10.1.1.9,29,0.060,0.060,0.060,0.000,0.000,0.000
1644940287849975040,2022-02-15-15:51:27,10.1.1.9,22,0.060,0.060,0.060,0.000,0.000,0.000
1644940288249024000,2022-02-15-15:51:28,10.1.1.9,17,0.060,0.060,0.060,0.000,0.000,0.000
1644940289868879104,2022-02-15-15:51:29,10.1.1.9,17,0.060,0.060,0.060,0.000,0.000,0.000
1644940290268736000,2022-02-15-15:51:30,10.1.1.9,9,0.060,0.060,0.060,0.000,0.000,0.000
1644940291928390144,2022-02-15-15:51:31,10.1.1.9,19,0.060,0.060,0.060,0.000,0.000,0.000
1644940292329649920,2022-02-15-15:51:32,10.1.1.9,7,0.060,0.060,0.060,0.000,0.000,0.000
1644940293189645056,2022-02-15-15:51:33,10.1.1.9,39,-0.100,-0.100,-0.100,0.000,0.000,0.000
1644940294488771840,2022-02-15-15:51:34,10.1.1.9,29,0.050,0.050,0.050,0.000,0.000,0.000
1644940296030774016,2022-02-15-15:51:36,10.1.1.9,11,0.050,0.050,0.050,0.000,0.000,0.000
1644940296448604160,2022-02-15-15:51:36,10.1.1.9,20,0.070,0.070,0.070,0.000,0.000,0.000
1644940298211335936,2022-02-15-15:51:38,10.1.1.9,11,0.070,0.070,0.070,0.000,0.000,0.000
1644940298530057984,2022-02-15-15:51:38,10.1.1.9,20,0.070,0.070,0.070,0.000,0.000,0.000
1644940300270049024,2022-02-15-15:51:40,10.1.1.9,25,0.070,0.070,0.070,0.000,0.000,0.000
1644940300489336064,2022-02-15-15:51:40,10.1.1.9,39,0.090,0.090,0.090,0.000,0.000,0.000
1644940302409874944,2022-02-15-15:51:42,10.1.1.9,16,0.090,0.090,0.090,0.000,0.000,0.000
1644940302513231872,2022-02-15-15:51:42,10.1.1.9,15,0.090,0.090,0.090,0.000,0.000,0.000
1644940304109675776,2022-02-15-15:51:44,10.1.1.9,30,0.020,0.020,0.020,0.000,0.000,0.000
1644940304910629888,2022-02-15-15:51:44,10.1.1.9,10,0.020,0.020,0.020,0.000,0.000,0.000
1644940306011003904,2022-02-15-15:51:46,10.1.1.9,30,-0.010,-0.010,-0.010,0.000,0.000,0.000
1644940307109832960,2022-02-15-15:51:47,10.1.1.9,14,-0.010,-0.010,-0.010,0.000,0.000,0.000
1644940308030368000,2022-02-15-15:51:48,10.1.1.9,17,-0.010,-0.010,-0.010,0.000,0.000,0.000
1644940309150614016,2022-02-15-15:51:49,10.1.1.9,13,-0.010,-0.010,-0.010,0.000,0.000,0.000
1644940310069987072,2022-02-15-15:51:50,10.1.1.9,12,-0.010,-0.010,-0.010,0.000,0.000,0.000
1644940310910002944,2022-02-15-15:51:50,10.1.1.9,39,0.050,0.050,0.050,0.000,0.000,0.000
1644940312328924928,2022-02-15-15:51:52,10.1.1.9,39,0.030,0.030,0.030,0.000,0.000,0.000
1644940313029142016,2022-02-15-15:51:53,10.1.1.9,24,0.030,0.030,0.030,0.000,0.000,0.000
1644940313088787968,2022-02-15-15:51:53,10.1.1.9,29,0.020,0.020,0.020,0.000,0.000,0.000
1644940313928240128,2022-02-15-15:51:53,10.1.1.9,40,-0.060,-0.060,-0.060,0.000,0.000,0.000
1644940315549815040,2022-02-15-15:51:55,10.1.1.9,15,-0.060,-0.060,-0.060,0.000,0.000,0.000
1644940315967863040,2022-02-15-15:51:55,10.1.1.9,25,-0.060,-0.060,-0.060,0.000,0.000,0.000
1644940316989184000,2022-02-15-15:51:56,10.1.1.9,20,0.060,0.060,0.060,0.000,0.000,0.000
1644940318629053952,2022-02-15-15:51:58,10.1.1.9,12,0.060,0.060,0.060,0.000,0.000,0.000
1644940319048795904,2022-02-15-15:51:59,10.1.1.9,24,0.060,0.060,0.060,0.000,0.000,0.000
1644940319629652992,2022-02-15-15:51:59,10.1.1.9,39,-0.050,-0.050,-0.050,0.000,0.000,0.000
1644940320129123840,2022-02-15-15:52:00,10.1.1.9,20,-0.050,-0.050,-0.050,0.000,0.000,0.000
1644940321369991168,2022-02-15-15:52:01,10.1.1.9,39,0.010,0.010,0.010,0.000,0.000,0.000
1644940322468898048,2022-02-15-15:52:02,10.1.1.9,15,0.010,0.010,0.010,0.000,0.000,0.000
1644940323388830976,2022-02-15-15:52:03,10.1.1.9,9,0.010,0.010,0.010,0.000,0.000,0.000
1644940323888118016,2022-02-15-15:52:03,10.1.1.9,39,-0.080,-0.080,-0.080,0.000,0.000,0.000
1644940324068427008,2022-02-15-15:52:04,10.1.1.9,14,-0.080,-0.080,-0.080,0.000,0.000,0.000
1644940325909204992,2022-02-15-15:52:05,10.1.1.9,23,-0.080,-0.080,-0.080,0.000,0.000,0.000
1644940326108790016,2022-02-15-15:52:06,10.1.1.9,21,-0.080,-0.080,-0.080,0.000,0.000,0.000
1644940326228977920,2022-02-15-15:52:06,10.1.1.9,39,-0.060,-0.060,-0.060,0.000,0.000,0.000
1644940327878697984,2022-02-15-15:52:07,10.1.1.9,16,-0.060,-0.060,-0.060,0.000,0.000,0.000
1644940328308468992,2022-02-15-15:52:08,10.1.1.9,12,-0.060,-0.060,-0.060,0.000,0.000,0.000
1644940328529171968,2022-02-15-15:52:08,10.1.1.9,29,-0.020,-0.020,-0.020,0.000,0.000,0.000
1644940329749031168,2022-02-15-15:52:09,10.1.1.9,18,-0.020,-0.020,-0.020,0.000,0.000,0.000
1644940330549787136,2022-02-15-15:52:10,10.1.1.9,7,-0.020,-0.020,-0.020,0.000,0.000,0.000
1644940331130012160,2022-02-15-15:52:11,10.1.1.9,30,0.090,0.090,0.090,0.000,0.000,0.000
1644940331208122880,2022-02-15-15:52:11,10.1.1.9,8,0.090,0.090,0.090,0.000,0.000,0.000
1644940332210503168,2022-02-15-15:52:12,10.1.1.9,30,-0.100,-0.100,-0.100,0.000,0.000,0.000
1644940334255919872,2022-02-15-15:52:14,10.1.1.9,18,-0.100,-0.100,-0.100,0.000,0.000,0.000
1644940336289230080,2022-02-15-15:52:16,10.1.1.9,9,-0.100,-0.100,-0.100,0.000,0.000,0.000
1644940338349766912,2022-02-15-15:52:18,10.1.1.9,19,-0.100,-0.100,-0.100,0.000,0.000,0.000
1644940340390710016,2022-02-15-15:52:20,10.1.1.9,13,-0.100,-0.100,-0.100,0.000,0.000,0.000
1644940340570480128,2022-02-15-15:52:20,10.1.1.9,39,-0.070,-0.070,-0.070,0.000,0.000,0.000
1644940341108741888,2022-02-15-15:52:21,10.1.1.9,20,0.040,0.040,0.040,0.000,0.000,0.000
1644940341708105984,2022-02-15-15:52:21,10.1.1.9,8,0.040,0.040,0.040,0.000,0.000,0.000
1644940342150419968,2022-02-15-15:52:22,10.1.1.9,40,-0.040,-0.040,-0.040,0.000,0.000,0.000
1644940342730653952,2022-02-15-15:52:22,10.1.1.9,7,-0.040,-0.040,-0.040,0.000,0.000,0.000
1644940342949822976,2022-02-15-15:52:22,10.1.1.9,19,0.000,0.000,0.000,0.000,0.000,0.000
1644940343968139776,2022-02-15-15:52:23,10.1.1.9,16,0.000,0.000,0.000,0.000,0.000,0.000
1644940344388753920,2022-02-15-15:52:24,10.1.1.9,30,-0.080,-0.080,-0.080,0.000,0.000,0.000
1644940344568537088,2022-02-15-15:52:24,10.1.1.9,8,-0.080,-0.080,-0.080,0.000,0.000,0.000
1644940344627960064,2022-02-15-15:52:24,10.1.1.9,17,-0.070,-0.070,-0.070,0.000,0.000,0.000
1644940346368860928,2022-02-15-15:52:26,10.1.1.9,22,-0.070,-0.070,-0.070,0.000,0.000,0.000
1644940346668139008,2022-02-15-15:52:26,10.1.1.9,12,-0.070,-0.070,-0.070,0.000,0.000,0.000
1644940346729638144,2022-02-15-15:52:26,10.1.1.9,20,-0.060,-0.060,-0.060,0.000,0.000,0.000
1644940347308389888,2022-02-15-15:52:27,10.1.1.9,40,0.050,0.050,0.050,0.000,0.000,0.000
1644940347788211968,2022-02-15-15:52:27,10.1.1.9,11,0.050,0.050,0.050,0.000,0.000,0.000
1644940348929786880,2022-02-15-15:52:28,10.1.1.9,29,-0.030,-0.030,-0.030,0.000,0.000,0.000
1644940349489826048,2022-02-15-15:52:29,10.1.1.9,29,0.080,0.080,0.080,0.000,0.000,0.000
1644940349688739072,2022-02-15-15:52:29,10.1.1.9,26,0.080,0.080,0.080,0.000,0.000,0.000
1644940351129220864,2022-02-15-15:52:31,10.1.1.9,40,0.000,0.000,0.000,0.000,0.000,0.000
1644940352130189824,2022-02-15-15:52:32,10.1.1.9,21,0.000,0.000,0.000,0.000,0.000,0.000
1644940353148654080,2022-02-15-15:52:33,10.1.1.9,22,0.000,0.000,0.000,0.000,0.000,0.000
1644940354168988928,2022-02-15-15:52:34,10.1.1.9,17,0.000,0.000,0.000,0.000,0.000,0.000
1644940355188759040,2022-02-15-15:52:35,10.1.1.9,16,0.000,0.000,0.000,0.000,0.000,0.000
1644940356028336896,2022-02-15-15:52:36,10.1.1.9,39,0.040,0.040,0.040,0.000,0.000,0.000
1644940357348809984,2022-02-15-15:52:37,10.1.1.9,29,0.020,0.020,0.020,0.000,0.000,0.000
1644940358150535936,2022-02-15-15:52:38,10.1.1.9,14,0.020,0.020,0.020,0.000,0.000,0.000
1644940359368781056,2022-02-15-15:52:39,10.1.1.9,8,0.020,0.020,0.020,0.000,0.000,0.000
1644940360210248960,2022-02-15-15:52:40,10.1.1.9,15,0.020,0.020,0.020,0.000,0.000,0.000
1644940361429784064,2022-02-15-15:52:41,10.1.1.9,12,0.020,0.020,0.020,0.000,0.000,0.000
1644940362249113088,2022-02-15-15:52:42,10.1.1.9,19,0.020,0.020,0.020,0.000,0.000,0.000
1644940362669379840,2022-02-15-15:52:42,10.1.1.9,29,-0.060,-0.060,-0.060,0.000,0.000,0.000
1644940363069102080,2022-02-15-15:52:43,10.1.1.9,16,-0.060,-0.060,-0.060,0.000,0.000,0.000
1644940364388564992,2022-02-15-15:52:44,10.1.1.9,39,0.010,0.010,0.010,0.000,0.000,0.000
1644940364948064000,2022-02-15-15:52:44,10.1.1.9,39,-0.100,-0.100,-0.100,0.000,0.000,0.000
1644940365549572864,2022-02-15-15:52:45,10.1.1.9,29,0.020,0.020,0.020,0.000,0.000,0.000
1644940366070440960,2022-02-15-15:52:46,10.1.1.9,40,0.080,0.080,0.080,0.000,0.000,0.000
1644940367890018816,2022-02-15-15:52:47,10.1.1.9,12,0.080,0.080,0.080,0.000,0.000,0.000
1644940368090311936,2022-02-15-15:52:48,10.1.1.9,6,0.080,0.080,0.080,0.000,0.000,0.000
1644940369951899136,2022-02-15-15:52:49,10.1.1.9,12,0.080,0.080,0.080,0.000,0.000,0.000
1644940370149797888,2022-02-15-15:52:50,10.1.1.9,9,0.080,0.080,0.080,0.000,0.000,0.000
1644940371988564992,2022-02-15-15:52:51,10.1.1.9,16,0.080,0.080,0.080,0.000,0.000,0.000
1644940372187772928,2022-02-15-15:52:52,10.1.1.9,13,0.080,0.080,0.080,0.000,0.000,0.000
1644940374029277952,2022-02-15-15:52:54,10.1.1.9,24,0.080,0.080,0.080,0.000,0.000,0.000
1644940374229613056,2022-02-15-15:52:54,10.1.1.9,22,0.080,0.080,0.080,0.000,0.000,0.000
1644940374390140928,2022-02-15-15:52:54,10.1.1.9,29,0.050,0.050,0.050,0.000,0.000,0.000
1644940375888919040,2022-02-15-15:52:55,10.1.1.9,10,0.050,0.050,0.050,0.000,0.000,0.000
1644940376408335872,2022-02-15-15:52:56,10.1.1.9,22,0.050,0.050,0.050,0.000,0.000,0.000
1644940377928994048,2022-02-15-15:52:57,10.1.1.9,20,0.050,0.050,0.050,0.000,0.000,0.000
1644940377988540928,2022-02-15-15:52:57,10.1.1.9,29,0.060,0.060,0.060,0.000,0.000,0.000
1644940378387872000,2022-02-15-15:52:58,10.1.1.9,25,0.060,0.060,0.060,0.000,0.000,0.000
1644940380000713984,2022-02-15-15:53:00,10.1.1.9,6,0.060,0.060,0.060,0.000,0.000,0.000
1644940380408939008,2022-02-15-15:53:00,10.1.1.9,18,0.060,0.060,0.060,0.000,0.000,0.000
1644940382049212928,2022-02-15-15:53:02,10.1.1.9,16,0.060,0.060,0.060,0.000,0.000,0.000
1644940382450198016,2022-02-15-15:53:02,10.1.1.9,7,0.060,0.060,0.060,0.000,0.000,0.000
1644940384089273856,2022-02-15-15:53:04,10.1.1.9,13,0.060,0.060,0.060,0.000,0.000,0.000
1644940384489890048,2022-02-15-15:53:04,10.1.1.9,7,0.060,0.060,0.060,0.000,0.000,0.000
1644940385688376064,2022-02-15-15:53:05,10.1.1.9,39,-0.030,-0.030,-0.030,0.000,0.000,0.000
1644940386990200064,2022-02-15-15:53:06,10.1.1.9,14,-0.030,-0.030,-0.030,0.000,0.000,0.000
1644940387708920832,2022-02-15-15:53:07,10.1.1.9,23,-0.030,-0.030,-0.030,0.000,0.000,0.000
1644940388028013824,2022-02-15-15:53:08,10.1.1.9,39,0.030,0.030,0.030,0.000,0.000,0.000
1644940388710761984,2022-02-15-15:53:08,10.1.1.9,11,0.030,0.030,0.030,0.000,0.000,0.000
1644940390050411008,2022-02-15-15:53:10,10.1.1.9,16,0.030,0.030,0.030,0.000,0.000,0.000
1644940390767817984,2022-02-15-15:53:10,10.1.1.9,26,0.030,0.030,0.030,0.000,0.000,0.000
1644940392089939968,2022-02-15-15:53:12,10.1.1.9,7,0.030,0.030,0.030,0.000,0.000,0.000
1644940392812804096,2022-02-15-15:53:12,10.1.1.9,10,0.030,0.030,0.030,0.000,0.000,0.000
1644940394129414144,2022-02-15-15:53:14,10.1.1.9,6,0.030,0.030,0.030,0.000,0.000,0.000
1644940394869931008,2022-02-15-15:53:14,10.1.1.9,27,0.030,0.030,0.030,0.000,0.000,0.000
1644940395228483072,2022-02-15-15:53:15,10.1.1.9,30,-0.040,-0.040,-0.040,0.000,0.000,0.000
1644940395830839040,2022-02-15-15:53:15,10.1.1.9,20,-0.040,-0.040,-0.040,0.000,0.000,0.000
1644940396910144000,2022-02-15-15:53:16,10.1.1.9,31,0.030,0.030,0.030,0.000,0.000,0.000
1644940398210490880,2022-02-15-15:53:18,10.1.1.9,9,0.030,0.030,0.030,0.000,0.000,0.000
1644940398928541952,2022-02-15-15:53:18,10.1.1.9,19,0.030,0.030,0.030,0.000,0.000,0.000
1644940400250544128,2022-02-15-15:53:20,10.1.1.9,19,0.030,0.030,0.030,0.000,0.000,0.000
1644940400668333056,2022-02-15-15:53:20,10.1.1.9,30,0.090,0.090,0.090,0.000,0.000,0.000
1644940402568360192,2022-02-15-15:53:22,10.1.1.9,8,0.090,0.090,0.090,0.000,0.000,0.000
1644940402688029952,2022-02-15-15:53:22,10.1.1.9,27,0.090,0.090,0.090,0.000,0.000,0.000
1644940404608620032,2022-02-15-15:53:24,10.1.1.9,24,0.090,0.090,0.090,0.000,0.000,0.000
1644940404708750848,2022-02-15-15:53:24,10.1.1.9,23,0.090,0.090,0.090,0.000,0.000,0.000
1644940405008182016,2022-02-15-15:53:25,10.1.1.9,19,0.030,0.030,0.030,0.000,0.000,0.000
1644940406329864960,2022-02-15-15:53:26,10.1.1.9,22,0.030,0.030,0.030,0.000,0.000,0.000
1644940407030135040,2022-02-15-15:53:27,10.1.1.9,15,0.030,0.030,0.030,0.000,0.000,0.000
1644940408349139968,2022-02-15-15:53:28,10.1.1.9,18,0.030,0.030,0.030,0.000,0.000,0.000
1644940409049132032,2022-02-15-15:53:29,10.1.1.9,8,0.030,0.030,0.030,0.000,0.000,0.000
1644940410388896000,2022-02-15-15:53:30,10.1.1.9,8,0.030,0.030,0.030,0.000,0.000,0.000
1644940411134288128,2022-02-15-15:53:31,10.1.1.9,9,0.030,0.030,0.030,0.000,0.000,0.000
1644940412429368064,2022-02-15-15:53:32,10.1.1.9,7,0.030,0.030,0.030,0.000,0.000,0.000
1644940413174146048,2022-02-15-15:53:33,10.1.1.9,24,0.030,0.030,0.030,0.000,0.000,0.000
1644940414509682944,2022-02-15-15:53:34,10.1.1.9,11,0.030,0.030,0.030,0.000,0.000,0.000
1644940415228702976,2022-02-15-15:53:35,10.1.1.9,23,0.030,0.030,0.030,0.000,0.000,0.000
1644940415527847936,2022-02-15-15:53:35,10.1.1.9,20,-0.030,-0.030,-0.030,0.000,0.000,0.000
1644940416229870080,2022-02-15-15:53:36,10.1.1.9,10,-0.030,-0.030,-0.030,0.000,0.000,0.000
1644940417547674880,2022-02-15-15:53:37,10.1.1.9,13,-0.030,-0.030,-0.030,0.000,0.000,0.000
1644940417608238848,2022-02-15-15:53:37,10.1.1.9,22,-0.040,-0.040,-0.040,0.000,0.000,0.000
1644940418209917184,2022-02-15-15:53:38,10.1.1.9,16,-0.040,-0.040,-0.040,0.000,0.000,0.000
1644940419628512000,2022-02-15-15:53:39,10.1.1.9,58,-0.040,-0.040,-0.040,0.000,0.000,0.000
1644940420249187840,2022-02-15-15:53:40,10.1.1.9,9,-0.040,-0.040,-0.040,0.000,0.000,0.000
1644940421687848192,2022-02-15-15:53:41,10.1.1.9,18,-0.040,-0.040,-0.040,0.000,0.000,0.000
1644940422330382080,2022-02-15-15:53:42,10.1.1.9,19,-0.040,-0.040,-0.040,0.000,0.000,0.000
1644940423768925952,2022-02-15-15:53:43,10.1.1.9,20,-0.040,-0.040,-0.040,0.000,0.000,0.000
1644940424390768128,2022-02-15-15:53:44,10.1.1.9,21,-0.040,-0.040,-0.040,0.000,0.000,0.000
1644940425828144128,2022-02-15-15:53:45,10.1.1.9,15,-0.040,-0.040,-0.040,0.000,0.000,0.000
1644940426437462016,2022-02-15-15:53:46,10.1.1.9,-2,-0.040,-0.040,-0.040,0.000,0.000,0.000
1644940427867766016,2022-02-15-15:53:47,10.1.1.9,19,-0.040,-0.040,-0.040,0.000,0.000,0.000
1644940428469420032,2022-02-15-15:53:48,10.1.1.9,10,-0.040,-0.040,-0.040,0.000,0.000,0.000
1644940429929948928,2022-02-15-15:53:49,10.1.1.9,21,-0.040,-0.040,-0.040,0.000,0.000,0.000
1644940430549969920,2022-02-15-15:53:50,10.1.1.9,7,-0.040,-0.040,-0.040,0.000,0.000,0.000
1644940432010208000,2022-02-15-15:53:52,10.1.1.9,19,-0.040,-0.040,-0.040,0.000,0.000,0.000
1644940432609692928,2022-02-15-15:53:52,10.1.1.9,10,-0.040,-0.040,-0.040,0.000,0.000,0.000
1644940433754505984,2022-02-15-15:53:53,10.1.1.9,30,0.020,0.020,0.020,0.000,0.000,0.000
1644940434949902080,2022-02-15-15:53:54,10.1.1.9,13,0.020,0.020,0.020,0.000,0.000,0.000
1644940435108977920,2022-02-15-15:53:55,10.1.1.9,20,0.050,0.050,0.050,0.000,0.000,0.000
1644940435609565952,2022-02-15-15:53:55,10.1.1.9,8,0.050,0.050,0.050,0.000,0.000,0.000
1644940437148528128,2022-02-15-15:53:57,10.1.1.9,12,0.050,0.050,0.050,0.000,0.000,0.000
1644940437669249024,2022-02-15-15:53:57,10.1.1.9,18,0.050,0.050,0.050,0.000,0.000,0.000
1644940438031027968,2022-02-15-15:53:58,10.1.1.9,20,-0.020,-0.020,-0.020,0.000,0.000,0.000
1644940438588210944,2022-02-15-15:53:58,10.1.1.9,20,-0.070,-0.070,-0.070,0.000,0.000,0.000
1644940440329165824,2022-02-15-15:54:00,10.1.1.9,18,-0.070,-0.070,-0.070,0.000,0.000,0.000
1644940440631022080,2022-02-15-15:54:00,10.1.1.9,5,-0.070,-0.070,-0.070,0.000,0.000,0.000
1644940441068763904,2022-02-15-15:54:01,10.1.1.9,29,0.010,0.010,0.010,0.000,0.000,0.000
1644940441989646080,2022-02-15-15:54:01,10.1.1.9,17,0.010,0.010,0.010,0.000,0.000,0.000
1644940443149039104,2022-02-15-15:54:03,10.1.1.9,12,0.010,0.010,0.010,0.000,0.000,0.000
1644940444068151040,2022-02-15-15:54:04,10.1.1.9,21,0.010,0.010,0.010,0.000,0.000,0.000
1644940445168570880,2022-02-15-15:54:05,10.1.1.9,7,0.010,0.010,0.010,0.000,0.000,0.000
1644940446089172992,2022-02-15-15:54:06,10.1.1.9,14,0.010,0.010,0.010,0.000,0.000,0.000
1644940447208118016,2022-02-15-15:54:07,10.1.1.9,18,0.010,0.010,0.010,0.000,0.000,0.000
1644940448127799040,2022-02-15-15:54:08,10.1.1.9,27,0.010,0.010,0.010,0.000,0.000,0.000
1644940449229149952,2022-02-15-15:54:09,10.1.1.9,13,0.010,0.010,0.010,0.000,0.000,0.000
1644940450052583936,2022-02-15-15:54:10,10.1.1.9,19,0.030,0.030,0.030,0.000,0.000,0.000
1644940451389799168,2022-02-15-15:54:11,10.1.1.9,16,0.030,0.030,0.030,0.000,0.000,0.000
1644940452109234944,2022-02-15-15:54:12,10.1.1.9,22,0.030,0.030,0.030,0.000,0.000,0.000
1644940453429570048,2022-02-15-15:54:13,10.1.1.9,17,0.030,0.030,0.030,0.000,0.000,0.000
1644940454149408000,2022-02-15-15:54:14,10.1.1.9,21,0.030,0.030,0.030,0.000,0.000,0.000
1644940455509135104,2022-02-15-15:54:15,10.1.1.9,18,0.030,0.030,0.030,0.000,0.000,0.000
1644940456211832064,2022-02-15-15:54:16,10.1.1.9,5,0.030,0.030,0.030,0.000,0.000,0.000
1644940457611531008,2022-02-15-15:54:17,10.1.1.9,16,0.030,0.030,0.030,0.000,0.000,0.000
1644940458327707904,2022-02-15-15:54:18,10.1.1.9,17,0.030,0.030,0.030,0.000,0.000,0.000
1644940459688108800,2022-02-15-15:54:19,10.1.1.9,18,0.030,0.030,0.030,0.000,0.000,0.000
1644940460108467968,2022-02-15-15:54:20,10.1.1.9,19,0.090,0.090,0.090,0.000,0.000,0.000
1644940462048051200,2022-02-15-15:54:22,10.1.1.9,23,0.090,0.090,0.090,0.000,0.000,0.000
1644940462149310208,2022-02-15-15:54:22,10.1.1.9,21,0.090,0.090,0.090,0.000,0.000,0.000
1644940463273575936,2022-02-15-15:54:23,10.1.1.9,20,-0.070,-0.070,-0.070,0.000,0.000,0.000
