FedericoMungari/DigitalTwin_service/01_WiredScenario/Output/Output_script/script_rosapi_2_output_robots12_freq0_9.txt
timestamp,date,node,latency,joint_1,joint_2,joint_3,joint_4,joint_5,joint_6
1641234796253021952,2022-01-03-18:33:16,10.1.1.10,200,-0.010,-0.010,-0.010,0.000,0.000,0.000
1641234797487375872,2022-01-03-18:33:17,10.1.1.10,197,-0.070,-0.070,-0.070,0.000,0.000,0.000
1641234797700838144,2022-01-03-18:33:17,10.1.1.10,205,-0.080,-0.080,-0.080,0.000,0.000,0.000
1641234797911310080,2022-01-03-18:33:17,10.1.1.10,197,-0.090,-0.090,-0.090,0.000,0.000,0.000
1641234798108696832,2022-01-03-18:33:18,10.1.1.10,197,-0.100,-0.100,-0.100,0.000,0.000,0.000
1641234798320064000,2022-01-03-18:33:18,10.1.1.10,195,-0.110,-0.110,-0.110,0.000,0.000,0.000
1641234798521603072,2022-01-03-18:33:18,10.1.1.10,199,-0.120,-0.120,-0.120,0.000,0.000,0.000
1641234799115947008,2022-01-03-18:33:19,10.1.1.10,191,-0.150,-0.150,-0.150,0.000,0.000,0.000
1641234799335879936,2022-01-03-18:33:19,10.1.1.10,197,-0.160,-0.160,-0.160,0.000,0.000,0.000
1641234799535939840,2022-01-03-18:33:19,10.1.1.10,196,-0.170,-0.170,-0.170,0.000,0.000,0.000
1641234799736502016,2022-01-03-18:33:19,10.1.1.10,196,-0.180,-0.180,-0.180,0.000,0.000,0.000
1641234799936291840,2022-01-03-18:33:19,10.1.1.10,194,-0.190,-0.190,-0.190,0.000,0.000,0.000
1641234800335973888,2022-01-03-18:33:20,10.1.1.10,192,-0.210,-0.210,-0.210,0.000,0.000,0.000
1641234800737099776,2022-01-03-18:33:20,10.1.1.10,192,-0.230,-0.230,-0.230,0.000,0.000,0.000
1641234800946721024,2022-01-03-18:33:20,10.1.1.10,194,-0.240,-0.240,-0.240,0.000,0.000,0.000
1641234801156397056,2022-01-03-18:33:21,10.1.1.10,200,-0.250,-0.250,-0.250,0.000,0.000,0.000
1641234802155888128,2022-01-03-18:33:22,10.1.1.10,189,-0.300,-0.300,-0.300,0.000,0.000,0.000
1641234802366592000,2022-01-03-18:33:22,10.1.1.10,199,-0.310,-0.310,-0.310,0.000,0.000,0.000
1641234802567180032,2022-01-03-18:33:22,10.1.1.10,199,-0.320,-0.320,-0.320,0.000,0.000,0.000
1641234803169298944,2022-01-03-18:33:23,10.1.1.10,200,-0.350,-0.350,-0.350,0.000,0.000,0.000
1641234803365549056,2022-01-03-18:33:23,10.1.1.10,195,-0.360,-0.360,-0.360,0.000,0.000,0.000
1641234804166171904,2022-01-03-18:33:24,10.1.1.10,188,-0.400,-0.400,-0.400,0.000,0.000,0.000
1641234807006507008,2022-01-03-18:33:27,10.1.1.10,199,-0.440,-0.440,-0.440,0.000,0.000,0.000
1641234807205654016,2022-01-03-18:33:27,10.1.1.10,197,-0.430,-0.430,-0.430,0.000,0.000,0.000
1641234807404672000,2022-01-03-18:33:27,10.1.1.10,195,-0.420,-0.420,-0.420,0.000,0.000,0.000
1641234807609052928,2022-01-03-18:33:27,10.1.1.10,199,-0.410,-0.410,-0.410,0.000,0.000,0.000
1641234807805414912,2022-01-03-18:33:27,10.1.1.10,192,-0.400,-0.400,-0.400,0.000,0.000,0.000
1641234808004672000,2022-01-03-18:33:28,10.1.1.10,189,-0.390,-0.390,-0.390,0.000,0.000,0.000
1641234808626884864,2022-01-03-18:33:28,10.1.1.10,205,-0.360,-0.360,-0.360,0.000,0.000,0.000
1641234809024390912,2022-01-03-18:33:29,10.1.1.10,193,-0.340,-0.340,-0.340,0.000,0.000,0.000
1641234809225945088,2022-01-03-18:33:29,10.1.1.10,193,-0.330,-0.330,-0.330,0.000,0.000,0.000
1641234809423173888,2022-01-03-18:33:29,10.1.1.10,189,-0.320,-0.320,-0.320,0.000,0.000,0.000
1641234809621773056,2022-01-03-18:33:29,10.1.1.10,186,-0.310,-0.310,-0.310,0.000,0.000,0.000
1641234809821362944,2022-01-03-18:33:29,10.1.1.10,184,-0.300,-0.300,-0.300,0.000,0.000,0.000
1641234810023785984,2022-01-03-18:33:30,10.1.1.10,186,-0.290,-0.290,-0.290,0.000,0.000,0.000
1641234811040045056,2022-01-03-18:33:31,10.1.1.10,194,-0.240,-0.240,-0.240,0.000,0.000,0.000
1641234811240703232,2022-01-03-18:33:31,10.1.1.10,191,-0.230,-0.230,-0.230,0.000,0.000,0.000
1641234811443067136,2022-01-03-18:33:31,10.1.1.10,191,-0.220,-0.220,-0.220,0.000,0.000,0.000
1641234811640672000,2022-01-03-18:33:31,10.1.1.10,186,-0.210,-0.210,-0.210,0.000,0.000,0.000
1641234811839680000,2022-01-03-18:33:31,10.1.1.10,184,-0.200,-0.200,-0.200,0.000,0.000,0.000
1641234812038466816,2022-01-03-18:33:32,10.1.1.10,182,-0.190,-0.190,-0.190,0.000,0.000,0.000
1641234812241861120,2022-01-03-18:33:32,10.1.1.10,184,-0.180,-0.180,-0.180,0.000,0.000,0.000
1641234812459290880,2022-01-03-18:33:32,10.1.1.10,-1,-0.170,-0.170,-0.170,0.000,0.000,0.000
1641234812857587968,2022-01-03-18:33:32,10.1.1.10,198,-0.150,-0.150,-0.150,0.000,0.000,0.000
1641234813058149120,2022-01-03-18:33:33,10.1.1.10,196,-0.140,-0.140,-0.140,0.000,0.000,0.000
1641234813257446144,2022-01-03-18:33:33,10.1.1.10,193,-0.130,-0.130,-0.130,0.000,0.000,0.000
1641234813456715008,2022-01-03-18:33:33,10.1.1.10,188,-0.120,-0.120,-0.120,0.000,0.000,0.000
1641234813657126912,2022-01-03-18:33:33,10.1.1.10,186,-0.110,-0.110,-0.110,0.000,0.000,0.000
1641234813857614080,2022-01-03-18:33:33,10.1.1.10,186,-0.100,-0.100,-0.100,0.000,0.000,0.000
1641234814055865088,2022-01-03-18:33:34,10.1.1.10,183,-0.090,-0.090,-0.090,0.000,0.000,0.000
1641234814259002880,2022-01-03-18:33:34,10.1.1.10,186,-0.080,-0.080,-0.080,0.000,0.000,0.000
1641234814456337920,2022-01-03-18:33:34,10.1.1.10,182,-0.070,-0.070,-0.070,0.000,0.000,0.000
1641234814658112000,2022-01-03-18:33:34,10.1.1.10,181,-0.060,-0.060,-0.060,0.000,0.000,0.000
1641234814875056128,2022-01-03-18:33:34,10.1.1.10,196,-0.050,-0.050,-0.050,0.000,0.000,0.000
1641234815074995968,2022-01-03-18:33:35,10.1.1.10,195,-0.040,-0.040,-0.040,0.000,0.000,0.000
1641234815274012160,2022-01-03-18:33:35,10.1.1.10,194,-0.030,-0.030,-0.030,0.000,0.000,0.000
1641234815474565120,2022-01-03-18:33:35,10.1.1.10,192,-0.020,-0.020,-0.020,0.000,0.000,0.000
1641234815674344960,2022-01-03-18:33:35,10.1.1.10,192,-0.010,-0.010,-0.010,0.000,0.000,0.000
1641234815873256960,2022-01-03-18:33:35,10.1.1.10,190,0.000,0.000,0.000,0.000,0.000,0.000
1641234816073446144,2022-01-03-18:33:36,10.1.1.10,189,-0.010,-0.010,-0.010,0.000,0.000,0.000
1641234816275553024,2022-01-03-18:33:36,10.1.1.10,190,-0.020,-0.020,-0.020,0.000,0.000,0.000
1641234816473097984,2022-01-03-18:33:36,10.1.1.10,186,-0.030,-0.030,-0.030,0.000,0.000,0.000
1641234816688780032,2022-01-03-18:33:36,10.1.1.10,201,-0.040,-0.040,-0.040,0.000,0.000,0.000
1641234816875691008,2022-01-03-18:33:36,10.1.1.10,186,-0.050,-0.050,-0.050,0.000,0.000,0.000
1641234817072236032,2022-01-03-18:33:37,10.1.1.10,182,-0.060,-0.060,-0.060,0.000,0.000,0.000
1641234817270862080,2022-01-03-18:33:37,10.1.1.10,178,-0.070,-0.070,-0.070,0.000,0.000,0.000
1641234817470877952,2022-01-03-18:33:37,10.1.1.10,177,-0.080,-0.080,-0.080,0.000,0.000,0.000
1641234817670341120,2022-01-03-18:33:37,10.1.1.10,175,-0.090,-0.090,-0.090,0.000,0.000,0.000
1641234817871372032,2022-01-03-18:33:37,10.1.1.10,175,-0.100,-0.100,-0.100,0.000,0.000,0.000
1641234818069844992,2022-01-03-18:33:38,10.1.1.10,173,-0.110,-0.110,-0.110,0.000,0.000,0.000
1641234818289388032,2022-01-03-18:33:38,10.1.1.10,191,-0.120,-0.120,-0.120,0.000,0.000,0.000
1641234818492167936,2022-01-03-18:33:38,10.1.1.10,188,-0.130,-0.130,-0.130,0.000,0.000,0.000
1641234818689743872,2022-01-03-18:33:38,10.1.1.10,184,-0.140,-0.140,-0.140,0.000,0.000,0.000
1641234818888360960,2022-01-03-18:33:38,10.1.1.10,181,-0.150,-0.150,-0.150,0.000,0.000,0.000
1641234819090607872,2022-01-03-18:33:39,10.1.1.10,181,-0.160,-0.160,-0.160,0.000,0.000,0.000
1641234819289351936,2022-01-03-18:33:39,10.1.1.10,179,-0.170,-0.170,-0.170,0.000,0.000,0.000
1641234819489274112,2022-01-03-18:33:39,10.1.1.10,178,-0.180,-0.180,-0.180,0.000,0.000,0.000
1641234819689284096,2022-01-03-18:33:39,10.1.1.10,178,-0.190,-0.190,-0.190,0.000,0.000,0.000
1641234819889425152,2022-01-03-18:33:39,10.1.1.10,177,-0.200,-0.200,-0.200,0.000,0.000,0.000
1641234820087346176,2022-01-03-18:33:40,10.1.1.10,173,-0.210,-0.210,-0.210,0.000,0.000,0.000
1641234820289323008,2022-01-03-18:33:40,10.1.1.10,172,-0.220,-0.220,-0.220,0.000,0.000,0.000
1641234820507746816,2022-01-03-18:33:40,10.1.1.10,188,-0.230,-0.230,-0.230,0.000,0.000,0.000
1641234820709570048,2022-01-03-18:33:40,10.1.1.10,188,-0.240,-0.240,-0.240,0.000,0.000,0.000
1641234821109582848,2022-01-03-18:33:41,10.1.1.10,181,-0.260,-0.260,-0.260,0.000,0.000,0.000
1641234821330694912,2022-01-03-18:33:41,10.1.1.10,192,-0.270,-0.270,-0.270,0.000,0.000,0.000
1641234821529465088,2022-01-03-18:33:41,10.1.1.10,185,-0.280,-0.280,-0.280,0.000,0.000,0.000
1641234821730374144,2022-01-03-18:33:41,10.1.1.10,185,-0.290,-0.290,-0.290,0.000,0.000,0.000
1641234821930944000,2022-01-03-18:33:41,10.1.1.10,185,-0.300,-0.300,-0.300,0.000,0.000,0.000
1641234822133094912,2022-01-03-18:33:42,10.1.1.10,186,-0.310,-0.310,-0.310,0.000,0.000,0.000
1641234822328654080,2022-01-03-18:33:42,10.1.1.10,181,-0.320,-0.320,-0.320,0.000,0.000,0.000
1641234822531193856,2022-01-03-18:33:42,10.1.1.10,183,-0.330,-0.330,-0.330,0.000,0.000,0.000
1641234822732336128,2022-01-03-18:33:42,10.1.1.10,183,-0.340,-0.340,-0.340,0.000,0.000,0.000
1641234822929755904,2022-01-03-18:33:42,10.1.1.10,179,-0.350,-0.350,-0.350,0.000,0.000,0.000
1641234823131056128,2022-01-03-18:33:43,10.1.1.10,179,-0.360,-0.360,-0.360,0.000,0.000,0.000
1641234823328762112,2022-01-03-18:33:43,10.1.1.10,176,-0.370,-0.370,-0.370,0.000,0.000,0.000
1641234823529805056,2022-01-03-18:33:43,10.1.1.10,177,-0.380,-0.380,-0.380,0.000,0.000,0.000
1641234823732930048,2022-01-03-18:33:43,10.1.1.10,178,-0.390,-0.390,-0.390,0.000,0.000,0.000
1641234823972210944,2022-01-03-18:33:43,10.1.1.10,190,-0.400,-0.400,-0.400,0.000,0.000,0.000
1641234824172962048,2022-01-03-18:33:44,10.1.1.10,184,-0.410,-0.410,-0.410,0.000,0.000,0.000
1641234824370084096,2022-01-03-18:33:44,10.1.1.10,183,-0.420,-0.420,-0.420,0.000,0.000,0.000
1641234824570323968,2022-01-03-18:33:44,10.1.1.10,183,-0.430,-0.430,-0.430,0.000,0.000,0.000
1641234824769431040,2022-01-03-18:33:44,10.1.1.10,181,-0.440,-0.440,-0.440,0.000,0.000,0.000
1641234824969694976,2022-01-03-18:33:44,10.1.1.10,181,-0.450,-0.450,-0.450,0.000,0.000,0.000
1641234825174496000,2022-01-03-18:33:45,10.1.1.10,182,-0.460,-0.460,-0.460,0.000,0.000,0.000
1641234825369252864,2022-01-03-18:33:45,10.1.1.10,177,-0.470,-0.470,-0.470,0.000,0.000,0.000
1641234825571755008,2022-01-03-18:33:45,10.1.1.10,179,-0.480,-0.480,-0.480,0.000,0.000,0.000
1641234825773410048,2022-01-03-18:33:45,10.1.1.10,180,-0.490,-0.490,-0.490,0.000,0.000,0.000
1641234825970920960,2022-01-03-18:33:45,10.1.1.10,177,-0.480,-0.480,-0.480,0.000,0.000,0.000
1641234826170505984,2022-01-03-18:33:46,10.1.1.10,175,-0.470,-0.470,-0.470,0.000,0.000,0.000
1641234826373841920,2022-01-03-18:33:46,10.1.1.10,178,-0.460,-0.460,-0.460,0.000,0.000,0.000
1641234826590048000,2022-01-03-18:33:46,10.1.1.10,192,-0.450,-0.450,-0.450,0.000,0.000,0.000
1641234826790891776,2022-01-03-18:33:46,10.1.1.10,191,-0.440,-0.440,-0.440,0.000,0.000,0.000
1641234826997814016,2022-01-03-18:33:46,10.1.1.10,194,-0.430,-0.430,-0.430,0.000,0.000,0.000
1641234827205509888,2022-01-03-18:33:47,10.1.1.10,197,-0.420,-0.420,-0.420,0.000,0.000,0.000
1641234827392517120,2022-01-03-18:33:47,10.1.1.10,186,-0.410,-0.410,-0.410,0.000,0.000,0.000
1641234827595997184,2022-01-03-18:33:47,10.1.1.10,189,-0.400,-0.400,-0.400,0.000,0.000,0.000
1641234827790856960,2022-01-03-18:33:47,10.1.1.10,184,-0.390,-0.390,-0.390,0.000,0.000,0.000
1641234827994523136,2022-01-03-18:33:47,10.1.1.10,186,-0.380,-0.380,-0.380,0.000,0.000,0.000
1641234828189245952,2022-01-03-18:33:48,10.1.1.10,181,-0.370,-0.370,-0.370,0.000,0.000,0.000
1641234828389272064,2022-01-03-18:33:48,10.1.1.10,179,-0.360,-0.360,-0.360,0.000,0.000,0.000
1641234828589816064,2022-01-03-18:33:48,10.1.1.10,179,-0.350,-0.350,-0.350,0.000,0.000,0.000
1641234828788640000,2022-01-03-18:33:48,10.1.1.10,177,-0.340,-0.340,-0.340,0.000,0.000,0.000
1641234828988804096,2022-01-03-18:33:48,10.1.1.10,177,-0.330,-0.330,-0.330,0.000,0.000,0.000
1641234829198916864,2022-01-03-18:33:49,10.1.1.10,186,-0.320,-0.320,-0.320,0.000,0.000,0.000
1641234829389720832,2022-01-03-18:33:49,10.1.1.10,176,-0.310,-0.310,-0.310,0.000,0.000,0.000
1641234829590533120,2022-01-03-18:33:49,10.1.1.10,176,-0.300,-0.300,-0.300,0.000,0.000,0.000
1641234829789166080,2022-01-03-18:33:49,10.1.1.10,174,-0.290,-0.290,-0.290,0.000,0.000,0.000
1641234829988894976,2022-01-03-18:33:49,10.1.1.10,173,-0.280,-0.280,-0.280,0.000,0.000,0.000
1641234830188945920,2022-01-03-18:33:50,10.1.1.10,172,-0.270,-0.270,-0.270,0.000,0.000,0.000
1641234830409341184,2022-01-03-18:33:50,10.1.1.10,191,-0.260,-0.260,-0.260,0.000,0.000,0.000
1641234830608658176,2022-01-03-18:33:50,10.1.1.10,189,-0.250,-0.250,-0.250,0.000,0.000,0.000
1641234830811627008,2022-01-03-18:33:50,10.1.1.10,190,-0.240,-0.240,-0.240,0.000,0.000,0.000
1641234831009702912,2022-01-03-18:33:51,10.1.1.10,187,-0.230,-0.230,-0.230,0.000,0.000,0.000
1641234831209767936,2022-01-03-18:33:51,10.1.1.10,185,-0.220,-0.220,-0.220,0.000,0.000,0.000
1641234831408709120,2022-01-03-18:33:51,10.1.1.10,183,-0.210,-0.210,-0.210,0.000,0.000,0.000
1641234831611421184,2022-01-03-18:33:51,10.1.1.10,185,-0.200,-0.200,-0.200,0.000,0.000,0.000
1641234832030700032,2022-01-03-18:33:52,10.1.1.10,192,-0.180,-0.180,-0.180,0.000,0.000,0.000
1641234832228104192,2022-01-03-18:33:52,10.1.1.10,189,-0.170,-0.170,-0.170,0.000,0.000,0.000
1641234832428449024,2022-01-03-18:33:52,10.1.1.10,188,-0.160,-0.160,-0.160,0.000,0.000,0.000
1641234832627522048,2022-01-03-18:33:52,10.1.1.10,187,-0.150,-0.150,-0.150,0.000,0.000,0.000
1641234832828164096,2022-01-03-18:33:52,10.1.1.10,187,-0.140,-0.140,-0.140,0.000,0.000,0.000
1641234833027772928,2022-01-03-18:33:53,10.1.1.10,186,-0.130,-0.130,-0.130,0.000,0.000,0.000
1641234833228851968,2022-01-03-18:33:53,10.1.1.10,187,-0.120,-0.120,-0.120,0.000,0.000,0.000
1641234833432168960,2022-01-03-18:33:53,10.1.1.10,188,-0.110,-0.110,-0.110,0.000,0.000,0.000
1641234833627717888,2022-01-03-18:33:53,10.1.1.10,183,-0.100,-0.100,-0.100,0.000,0.000,0.000
1641234833828294912,2022-01-03-18:33:53,10.1.1.10,183,-0.090,-0.090,-0.090,0.000,0.000,0.000
1641234834026664960,2022-01-03-18:33:54,10.1.1.10,181,-0.080,-0.080,-0.080,0.000,0.000,0.000
1641234834226963968,2022-01-03-18:33:54,10.1.1.10,177,-0.070,-0.070,-0.070,0.000,0.000,0.000
1641234834444529920,2022-01-03-18:33:54,10.1.1.10,194,-0.060,-0.060,-0.060,0.000,0.000,0.000
1641234834628453888,2022-01-03-18:33:54,10.1.1.10,173,-0.050,-0.050,-0.050,0.000,0.000,0.000
1641234834847613952,2022-01-03-18:33:54,10.1.1.10,178,-0.040,-0.040,-0.040,0.000,0.000,0.000
1641234835046782976,2022-01-03-18:33:55,10.1.1.10,176,-0.030,-0.030,-0.030,0.000,0.000,0.000
1641234835268143872,2022-01-03-18:33:55,10.1.1.10,187,-0.020,-0.020,-0.020,0.000,0.000,0.000
1641234835470290944,2022-01-03-18:33:55,10.1.1.10,188,-0.010,-0.010,-0.010,0.000,0.000,0.000
1641234835666970112,2022-01-03-18:33:55,10.1.1.10,183,0.000,0.000,0.000,0.000,0.000,0.000
1641234835866192128,2022-01-03-18:33:55,10.1.1.10,182,-0.010,-0.010,-0.010,0.000,0.000,0.000
1641234836066979840,2022-01-03-18:33:56,10.1.1.10,182,-0.020,-0.020,-0.020,0.000,0.000,0.000
1641234836268152832,2022-01-03-18:33:56,10.1.1.10,181,-0.030,-0.030,-0.030,0.000,0.000,0.000
1641234836466678016,2022-01-03-18:33:56,10.1.1.10,178,-0.040,-0.040,-0.040,0.000,0.000,0.000
1641234836866054144,2022-01-03-18:33:56,10.1.1.10,172,-0.060,-0.060,-0.060,0.000,0.000,0.000
1641234837064742144,2022-01-03-18:33:57,10.1.1.10,170,-0.070,-0.070,-0.070,0.000,0.000,0.000
1641234837264965120,2022-01-03-18:33:57,10.1.1.10,169,-0.080,-0.080,-0.080,0.000,0.000,0.000
1641234837463982080,2022-01-03-18:33:57,10.1.1.10,168,-0.090,-0.090,-0.090,0.000,0.000,0.000
1641234837663963136,2022-01-03-18:33:57,10.1.1.10,166,-0.100,-0.100,-0.100,0.000,0.000,0.000
1641234837884071168,2022-01-03-18:33:57,10.1.1.10,185,-0.110,-0.110,-0.110,0.000,0.000,0.000
1641234838086695936,2022-01-03-18:33:58,10.1.1.10,187,-0.120,-0.120,-0.120,0.000,0.000,0.000
1641234838283169024,2022-01-03-18:33:58,10.1.1.10,182,-0.130,-0.130,-0.130,0.000,0.000,0.000
1641234838484350976,2022-01-03-18:33:58,10.1.1.10,183,-0.140,-0.140,-0.140,0.000,0.000,0.000
1641234838898571008,2022-01-03-18:33:58,10.1.1.10,196,-0.160,-0.160,-0.160,0.000,0.000,0.000
1641234839083446016,2022-01-03-18:33:59,10.1.1.10,175,-0.170,-0.170,-0.170,0.000,0.000,0.000
1641234839322998016,2022-01-03-18:33:59,10.1.1.10,169,-0.180,-0.180,-0.180,0.000,0.000,0.000
1641234839522180096,2022-01-03-18:33:59,10.1.1.10,167,-0.190,-0.190,-0.190,0.000,0.000,0.000
1641234839722832896,2022-01-03-18:33:59,10.1.1.10,167,-0.200,-0.200,-0.200,0.000,0.000,0.000
1641234839921867008,2022-01-03-18:33:59,10.1.1.10,165,-0.210,-0.210,-0.210,0.000,0.000,0.000
1641234840122596096,2022-01-03-18:34:00,10.1.1.10,165,-0.220,-0.220,-0.220,0.000,0.000,0.000
1641234840341522944,2022-01-03-18:34:00,10.1.1.10,180,-0.230,-0.230,-0.230,0.000,0.000,0.000
1641234840541750016,2022-01-03-18:34:00,10.1.1.10,176,-0.240,-0.240,-0.240,0.000,0.000,0.000
1641234840741664000,2022-01-03-18:34:00,10.1.1.10,176,-0.250,-0.250,-0.250,0.000,0.000,0.000
1641234840940985856,2022-01-03-18:34:00,10.1.1.10,174,-0.260,-0.260,-0.260,0.000,0.000,0.000
1641234841140594944,2022-01-03-18:34:01,10.1.1.10,172,-0.270,-0.270,-0.270,0.000,0.000,0.000
1641234841342119936,2022-01-03-18:34:01,10.1.1.10,166,-0.280,-0.280,-0.280,0.000,0.000,0.000
1641234841540570880,2022-01-03-18:34:01,10.1.1.10,163,-0.290,-0.290,-0.290,0.000,0.000,0.000
1641234841760168960,2022-01-03-18:34:01,10.1.1.10,181,-0.300,-0.300,-0.300,0.000,0.000,0.000
1641234841960071168,2022-01-03-18:34:01,10.1.1.10,181,-0.310,-0.310,-0.310,0.000,0.000,0.000
1641234842164225024,2022-01-03-18:34:02,10.1.1.10,182,-0.320,-0.320,-0.320,0.000,0.000,0.000
1641234842359832064,2022-01-03-18:34:02,10.1.1.10,177,-0.330,-0.330,-0.330,0.000,0.000,0.000
1641234842559384064,2022-01-03-18:34:02,10.1.1.10,174,-0.340,-0.340,-0.340,0.000,0.000,0.000
1641234842759525888,2022-01-03-18:34:02,10.1.1.10,172,-0.350,-0.350,-0.350,0.000,0.000,0.000
1641234842958528000,2022-01-03-18:34:02,10.1.1.10,164,-0.360,-0.360,-0.360,0.000,0.000,0.000
1641234843160130048,2022-01-03-18:34:03,10.1.1.10,164,-0.370,-0.370,-0.370,0.000,0.000,0.000
1641234843377634048,2022-01-03-18:34:03,10.1.1.10,178,-0.380,-0.380,-0.380,0.000,0.000,0.000
1641234843580419072,2022-01-03-18:34:03,10.1.1.10,180,-0.390,-0.390,-0.390,0.000,0.000,0.000
1641234843778515968,2022-01-03-18:34:03,10.1.1.10,177,-0.400,-0.400,-0.400,0.000,0.000,0.000
1641234843979697920,2022-01-03-18:34:03,10.1.1.10,177,-0.410,-0.410,-0.410,0.000,0.000,0.000
1641234844177915136,2022-01-03-18:34:04,10.1.1.10,174,-0.420,-0.420,-0.420,0.000,0.000,0.000
1641234844377149184,2022-01-03-18:34:04,10.1.1.10,173,-0.430,-0.430,-0.430,0.000,0.000,0.000
1641234844578982144,2022-01-03-18:34:04,10.1.1.10,174,-0.440,-0.440,-0.440,0.000,0.000,0.000
1641234844779419904,2022-01-03-18:34:04,10.1.1.10,174,-0.450,-0.450,-0.450,0.000,0.000,0.000
1641234844976186880,2022-01-03-18:34:04,10.1.1.10,169,-0.460,-0.460,-0.460,0.000,0.000,0.000
1641234845196405760,2022-01-03-18:34:05,10.1.1.10,178,-0.470,-0.470,-0.470,0.000,0.000,0.000
1641234845396161024,2022-01-03-18:34:05,10.1.1.10,177,-0.480,-0.480,-0.480,0.000,0.000,0.000
1641234845596786944,2022-01-03-18:34:05,10.1.1.10,177,-0.490,-0.490,-0.490,0.000,0.000,0.000
1641234845797765120,2022-01-03-18:34:05,10.1.1.10,177,-0.480,-0.480,-0.480,0.000,0.000,0.000
1641234846011348992,2022-01-03-18:34:06,10.1.1.10,189,-0.470,-0.470,-0.470,0.000,0.000,0.000
1641234846195872000,2022-01-03-18:34:06,10.1.1.10,170,-0.460,-0.460,-0.460,0.000,0.000,0.000
1641234846395440128,2022-01-03-18:34:06,10.1.1.10,169,-0.450,-0.450,-0.450,0.000,0.000,0.000
1641234846595730176,2022-01-03-18:34:06,10.1.1.10,168,-0.440,-0.440,-0.440,0.000,0.000,0.000
1641234846798253056,2022-01-03-18:34:06,10.1.1.10,170,-0.430,-0.430,-0.430,0.000,0.000,0.000
1641234847196088064,2022-01-03-18:34:07,10.1.1.10,160,-0.410,-0.410,-0.410,0.000,0.000,0.000
1641234847394347008,2022-01-03-18:34:07,10.1.1.10,158,-0.400,-0.400,-0.400,0.000,0.000,0.000
1641234847594598912,2022-01-03-18:34:07,10.1.1.10,158,-0.390,-0.390,-0.390,0.000,0.000,0.000
1641234847794254080,2022-01-03-18:34:07,10.1.1.10,155,-0.380,-0.380,-0.380,0.000,0.000,0.000
1641234848014323968,2022-01-03-18:34:08,10.1.1.10,175,-0.370,-0.370,-0.370,0.000,0.000,0.000
1641234848213900032,2022-01-03-18:34:08,10.1.1.10,174,-0.360,-0.360,-0.360,0.000,0.000,0.000
1641234848394512896,2022-01-03-18:34:08,10.1.1.10,152,-0.350,-0.350,-0.350,0.000,0.000,0.000
1641234848611952896,2022-01-03-18:34:08,10.1.1.10,168,-0.340,-0.340,-0.340,0.000,0.000,0.000
1641234848812997120,2022-01-03-18:34:08,10.1.1.10,168,-0.330,-0.330,-0.330,0.000,0.000,0.000
1641234849013560064,2022-01-03-18:34:09,10.1.1.10,166,-0.320,-0.320,-0.320,0.000,0.000,0.000
1641234849212439040,2022-01-03-18:34:09,10.1.1.10,165,-0.310,-0.310,-0.310,0.000,0.000,0.000
1641234849448733952,2022-01-03-18:34:09,10.1.1.10,201,-0.300,-0.300,-0.300,0.000,0.000,0.000
1641234849613785856,2022-01-03-18:34:09,10.1.1.10,163,-0.290,-0.290,-0.290,0.000,0.000,0.000
1641234849810600960,2022-01-03-18:34:09,10.1.1.10,156,-0.280,-0.280,-0.280,0.000,0.000,0.000
1641234850012100864,2022-01-03-18:34:10,10.1.1.10,157,-0.270,-0.270,-0.270,0.000,0.000,0.000
1641234850210221056,2022-01-03-18:34:10,10.1.1.10,155,-0.260,-0.260,-0.260,0.000,0.000,0.000
1641234850409949952,2022-01-03-18:34:10,10.1.1.10,154,-0.250,-0.250,-0.250,0.000,0.000,0.000
1641234850629435136,2022-01-03-18:34:10,10.1.1.10,162,-0.240,-0.240,-0.240,0.000,0.000,0.000
1641234850830612992,2022-01-03-18:34:10,10.1.1.10,158,-0.230,-0.230,-0.230,0.000,0.000,0.000
1641234851030134016,2022-01-03-18:34:11,10.1.1.10,158,-0.220,-0.220,-0.220,0.000,0.000,0.000
1641234851236304128,2022-01-03-18:34:11,10.1.1.10,163,-0.210,-0.210,-0.210,0.000,0.000,0.000
1641234851428700928,2022-01-03-18:34:11,10.1.1.10,155,-0.200,-0.200,-0.200,0.000,0.000,0.000
1641234851650198016,2022-01-03-18:34:11,10.1.1.10,152,-0.190,-0.190,-0.190,0.000,0.000,0.000
1641234851851883008,2022-01-03-18:34:11,10.1.1.10,165,-0.180,-0.180,-0.180,0.000,0.000,0.000
1641234852046758912,2022-01-03-18:34:12,10.1.1.10,161,-0.170,-0.170,-0.170,0.000,0.000,0.000
1641234852246234880,2022-01-03-18:34:12,10.1.1.10,160,-0.160,-0.160,-0.160,0.000,0.000,0.000
1641234852446331904,2022-01-03-18:34:12,10.1.1.10,159,-0.150,-0.150,-0.150,0.000,0.000,0.000
1641234852646934016,2022-01-03-18:34:12,10.1.1.10,159,-0.140,-0.140,-0.140,0.000,0.000,0.000
1641234852845997056,2022-01-03-18:34:12,10.1.1.10,156,-0.130,-0.130,-0.130,0.000,0.000,0.000
1641234853065833984,2022-01-03-18:34:13,10.1.1.10,165,-0.120,-0.120,-0.120,0.000,0.000,0.000
1641234853265355008,2022-01-03-18:34:13,10.1.1.10,162,-0.110,-0.110,-0.110,0.000,0.000,0.000
1641234853465376000,2022-01-03-18:34:13,10.1.1.10,161,-0.100,-0.100,-0.100,0.000,0.000,0.000
1641234853673927168,2022-01-03-18:34:13,10.1.1.10,169,-0.090,-0.090,-0.090,0.000,0.000,0.000
1641234853864818176,2022-01-03-18:34:13,10.1.1.10,159,-0.080,-0.080,-0.080,0.000,0.000,0.000
1641234854065483008,2022-01-03-18:34:14,10.1.1.10,159,-0.070,-0.070,-0.070,0.000,0.000,0.000
1641234854264689920,2022-01-03-18:34:14,10.1.1.10,157,-0.060,-0.060,-0.060,0.000,0.000,0.000
1641234854465553920,2022-01-03-18:34:14,10.1.1.10,157,-0.050,-0.050,-0.050,0.000,0.000,0.000
1641234854666345984,2022-01-03-18:34:14,10.1.1.10,157,-0.040,-0.040,-0.040,0.000,0.000,0.000
1641234854865722880,2022-01-03-18:34:14,10.1.1.10,156,-0.030,-0.030,-0.030,0.000,0.000,0.000
1641234855267023104,2022-01-03-18:34:15,10.1.1.10,153,-0.010,-0.010,-0.010,0.000,0.000,0.000
1641234855483990016,2022-01-03-18:34:15,10.1.1.10,165,0.000,0.000,0.000,0.000,0.000,0.000
1641234855689021952,2022-01-03-18:34:15,10.1.1.10,165,-0.010,-0.010,-0.010,0.000,0.000,0.000
1641234855881617920,2022-01-03-18:34:15,10.1.1.10,157,-0.020,-0.020,-0.020,0.000,0.000,0.000
1641234856081047040,2022-01-03-18:34:16,10.1.1.10,154,-0.030,-0.030,-0.030,0.000,0.000,0.000
1641234856502674944,2022-01-03-18:34:16,10.1.1.10,146,-0.050,-0.050,-0.050,0.000,0.000,0.000
1641234856726701056,2022-01-03-18:34:16,10.1.1.10,163,-0.060,-0.060,-0.060,0.000,0.000,0.000
1641234856920571136,2022-01-03-18:34:16,10.1.1.10,155,-0.070,-0.070,-0.070,0.000,0.000,0.000
1641234857119663104,2022-01-03-18:34:17,10.1.1.10,154,-0.080,-0.080,-0.080,0.000,0.000,0.000
1641234857320676096,2022-01-03-18:34:17,10.1.1.10,154,-0.090,-0.090,-0.090,0.000,0.000,0.000
1641234857539601152,2022-01-03-18:34:17,10.1.1.10,159,-0.100,-0.100,-0.100,0.000,0.000,0.000
1641234857758919936,2022-01-03-18:34:17,10.1.1.10,155,-0.110,-0.110,-0.110,0.000,0.000,0.000
1641234857958787072,2022-01-03-18:34:17,10.1.1.10,154,-0.120,-0.120,-0.120,0.000,0.000,0.000
1641234858166742016,2022-01-03-18:34:18,10.1.1.10,159,-0.130,-0.130,-0.130,0.000,0.000,0.000
1641234858358153216,2022-01-03-18:34:18,10.1.1.10,142,-0.140,-0.140,-0.140,0.000,0.000,0.000
1641234858559124992,2022-01-03-18:34:18,10.1.1.10,142,-0.150,-0.150,-0.150,0.000,0.000,0.000
1641234858757566976,2022-01-03-18:34:18,10.1.1.10,139,-0.160,-0.160,-0.160,0.000,0.000,0.000
1641234858977908992,2022-01-03-18:34:18,10.1.1.10,159,-0.170,-0.170,-0.170,0.000,0.000,0.000
1641234859176583936,2022-01-03-18:34:19,10.1.1.10,157,-0.180,-0.180,-0.180,0.000,0.000,0.000
1641234859376946944,2022-01-03-18:34:19,10.1.1.10,157,-0.190,-0.190,-0.190,0.000,0.000,0.000
1641234859575820800,2022-01-03-18:34:19,10.1.1.10,155,-0.200,-0.200,-0.200,0.000,0.000,0.000
1641234859796570112,2022-01-03-18:34:19,10.1.1.10,157,-0.210,-0.210,-0.210,0.000,0.000,0.000
1641234860015916032,2022-01-03-18:34:20,10.1.1.10,145,-0.220,-0.220,-0.220,0.000,0.000,0.000
1641234860220911104,2022-01-03-18:34:20,10.1.1.10,149,-0.230,-0.230,-0.230,0.000,0.000,0.000
1641234860414982144,2022-01-03-18:34:20,10.1.1.10,143,-0.240,-0.240,-0.240,0.000,0.000,0.000
1641234860614006016,2022-01-03-18:34:20,10.1.1.10,141,-0.250,-0.250,-0.250,0.000,0.000,0.000
1641234860817820928,2022-01-03-18:34:20,10.1.1.10,144,-0.260,-0.260,-0.260,0.000,0.000,0.000
1641234861013801216,2022-01-03-18:34:21,10.1.1.10,139,-0.270,-0.270,-0.270,0.000,0.000,0.000
1641234861213538048,2022-01-03-18:34:21,10.1.1.10,138,-0.280,-0.280,-0.280,0.000,0.000,0.000
1641234861413538816,2022-01-03-18:34:21,10.1.1.10,138,-0.290,-0.290,-0.290,0.000,0.000,0.000
1641234861613179904,2022-01-03-18:34:21,10.1.1.10,137,-0.300,-0.300,-0.300,0.000,0.000,0.000
1641234861813168896,2022-01-03-18:34:21,10.1.1.10,135,-0.310,-0.310,-0.310,0.000,0.000,0.000
1641234862033298944,2022-01-03-18:34:22,10.1.1.10,154,-0.320,-0.320,-0.320,0.000,0.000,0.000
1641234862233489920,2022-01-03-18:34:22,10.1.1.10,152,-0.330,-0.330,-0.330,0.000,0.000,0.000
1641234862432964096,2022-01-03-18:34:22,10.1.1.10,151,-0.340,-0.340,-0.340,0.000,0.000,0.000
1641234862632221952,2022-01-03-18:34:22,10.1.1.10,137,-0.350,-0.350,-0.350,0.000,0.000,0.000
1641234862850996992,2022-01-03-18:34:22,10.1.1.10,146,-0.360,-0.360,-0.360,0.000,0.000,0.000
1641234863051160064,2022-01-03-18:34:23,10.1.1.10,145,-0.370,-0.370,-0.370,0.000,0.000,0.000
1641234863251015936,2022-01-03-18:34:23,10.1.1.10,144,-0.380,-0.380,-0.380,0.000,0.000,0.000
1641234863451136000,2022-01-03-18:34:23,10.1.1.10,142,-0.390,-0.390,-0.390,0.000,0.000,0.000
1641234863652020992,2022-01-03-18:34:23,10.1.1.10,142,-0.400,-0.400,-0.400,0.000,0.000,0.000
1641234863850202112,2022-01-03-18:34:23,10.1.1.10,140,-0.410,-0.410,-0.410,0.000,0.000,0.000
1641234864049412864,2022-01-03-18:34:24,10.1.1.10,136,-0.420,-0.420,-0.420,0.000,0.000,0.000
1641234864270242048,2022-01-03-18:34:24,10.1.1.10,143,-0.430,-0.430,-0.430,0.000,0.000,0.000
1641234864473417984,2022-01-03-18:34:24,10.1.1.10,146,-0.440,-0.440,-0.440,0.000,0.000,0.000
1641234864674413824,2022-01-03-18:34:24,10.1.1.10,145,-0.450,-0.450,-0.450,0.000,0.000,0.000
1641234864876528896,2022-01-03-18:34:24,10.1.1.10,144,-0.460,-0.460,-0.460,0.000,0.000,0.000
1641234865068238080,2022-01-03-18:34:25,10.1.1.10,134,-0.470,-0.470,-0.470,0.000,0.000,0.000
1641234865271368960,2022-01-03-18:34:25,10.1.1.10,137,-0.480,-0.480,-0.480,0.000,0.000,0.000
1641234865486670848,2022-01-03-18:34:25,10.1.1.10,148,-0.490,-0.490,-0.490,0.000,0.000,0.000
1641234865688278016,2022-01-03-18:34:25,10.1.1.10,149,-0.480,-0.480,-0.480,0.000,0.000,0.000
1641234865890007040,2022-01-03-18:34:25,10.1.1.10,150,-0.470,-0.470,-0.470,0.000,0.000,0.000
1641234866088041984,2022-01-03-18:34:26,10.1.1.10,146,-0.460,-0.460,-0.460,0.000,0.000,0.000
1641234866286118912,2022-01-03-18:34:26,10.1.1.10,144,-0.450,-0.450,-0.450,0.000,0.000,0.000
1641234866688452096,2022-01-03-18:34:26,10.1.1.10,138,-0.430,-0.430,-0.430,0.000,0.000,0.000
1641234866884443904,2022-01-03-18:34:26,10.1.1.10,133,-0.420,-0.420,-0.420,0.000,0.000,0.000
1641234867087239936,2022-01-03-18:34:27,10.1.1.10,135,-0.410,-0.410,-0.410,0.000,0.000,0.000
1641234867287538944,2022-01-03-18:34:27,10.1.1.10,135,-0.400,-0.400,-0.400,0.000,0.000,0.000
1641234867486006016,2022-01-03-18:34:27,10.1.1.10,133,-0.390,-0.390,-0.390,0.000,0.000,0.000
1641234867704286208,2022-01-03-18:34:27,10.1.1.10,131,-0.380,-0.380,-0.380,0.000,0.000,0.000
1641234867903120128,2022-01-03-18:34:27,10.1.1.10,129,-0.370,-0.370,-0.370,0.000,0.000,0.000
1641234868102224128,2022-01-03-18:34:28,10.1.1.10,128,-0.360,-0.360,-0.360,0.000,0.000,0.000
1641234868302469888,2022-01-03-18:34:28,10.1.1.10,128,-0.350,-0.350,-0.350,0.000,0.000,0.000
1641234868502393856,2022-01-03-18:34:28,10.1.1.10,127,-0.340,-0.340,-0.340,0.000,0.000,0.000
1641234868712424960,2022-01-03-18:34:28,10.1.1.10,131,-0.330,-0.330,-0.330,0.000,0.000,0.000
1641234868901774848,2022-01-03-18:34:28,10.1.1.10,124,-0.320,-0.320,-0.320,0.000,0.000,0.000
1641234869121664000,2022-01-03-18:34:29,10.1.1.10,144,-0.310,-0.310,-0.310,0.000,0.000,0.000
1641234869320646912,2022-01-03-18:34:29,10.1.1.10,142,-0.300,-0.300,-0.300,0.000,0.000,0.000
1641234869520957952,2022-01-03-18:34:29,10.1.1.10,141,-0.290,-0.290,-0.290,0.000,0.000,0.000
1641234869730691840,2022-01-03-18:34:29,10.1.1.10,148,-0.280,-0.280,-0.280,0.000,0.000,0.000
1641234869925630208,2022-01-03-18:34:29,10.1.1.10,142,-0.270,-0.270,-0.270,0.000,0.000,0.000
1641234870120734976,2022-01-03-18:34:30,10.1.1.10,137,-0.260,-0.260,-0.260,0.000,0.000,0.000
1641234870319552000,2022-01-03-18:34:30,10.1.1.10,135,-0.250,-0.250,-0.250,0.000,0.000,0.000
1641234870522865152,2022-01-03-18:34:30,10.1.1.10,138,-0.240,-0.240,-0.240,0.000,0.000,0.000
1641234870720402944,2022-01-03-18:34:30,10.1.1.10,134,-0.230,-0.230,-0.230,0.000,0.000,0.000
1641234871138341888,2022-01-03-18:34:31,10.1.1.10,124,-0.210,-0.210,-0.210,0.000,0.000,0.000
1641234871338422016,2022-01-03-18:34:31,10.1.1.10,124,-0.200,-0.200,-0.200,0.000,0.000,0.000
1641234871567192064,2022-01-03-18:34:31,10.1.1.10,151,-0.190,-0.190,-0.190,0.000,0.000,0.000
1641234871746603008,2022-01-03-18:34:31,10.1.1.10,128,-0.180,-0.180,-0.180,0.000,0.000,0.000
1641234871957943040,2022-01-03-18:34:31,10.1.1.10,124,-0.170,-0.170,-0.170,0.000,0.000,0.000
1641234872174190080,2022-01-03-18:34:32,10.1.1.10,139,-0.160,-0.160,-0.160,0.000,0.000,0.000
1641234872377152000,2022-01-03-18:34:32,10.1.1.10,137,-0.150,-0.150,-0.150,0.000,0.000,0.000
1641234872575136000,2022-01-03-18:34:32,10.1.1.10,134,-0.140,-0.140,-0.140,0.000,0.000,0.000
1641234872776020992,2022-01-03-18:34:32,10.1.1.10,134,-0.130,-0.130,-0.130,0.000,0.000,0.000
1641234872975536128,2022-01-03-18:34:32,10.1.1.10,133,-0.120,-0.120,-0.120,0.000,0.000,0.000
1641234873175707136,2022-01-03-18:34:33,10.1.1.10,131,-0.110,-0.110,-0.110,0.000,0.000,0.000
1641234873374060032,2022-01-03-18:34:33,10.1.1.10,126,-0.100,-0.100,-0.100,0.000,0.000,0.000
1641234873574554880,2022-01-03-18:34:33,10.1.1.10,121,-0.090,-0.090,-0.090,0.000,0.000,0.000
1641234873774347008,2022-01-03-18:34:33,10.1.1.10,120,-0.080,-0.080,-0.080,0.000,0.000,0.000
1641234873973537024,2022-01-03-18:34:33,10.1.1.10,118,-0.070,-0.070,-0.070,0.000,0.000,0.000
1641234874172965888,2022-01-03-18:34:34,10.1.1.10,116,-0.060,-0.060,-0.060,0.000,0.000,0.000
1641234874409841152,2022-01-03-18:34:34,10.1.1.10,135,-0.050,-0.050,-0.050,0.000,0.000,0.000
1641234874595917056,2022-01-03-18:34:34,10.1.1.10,119,-0.040,-0.040,-0.040,0.000,0.000,0.000
1641234874793325824,2022-01-03-18:34:34,10.1.1.10,116,-0.030,-0.030,-0.030,0.000,0.000,0.000
1641234875014157056,2022-01-03-18:34:35,10.1.1.10,136,-0.020,-0.020,-0.020,0.000,0.000,0.000
1641234875211333888,2022-01-03-18:34:35,10.1.1.10,133,-0.010,-0.010,-0.010,0.000,0.000,0.000
1641234875411636224,2022-01-03-18:34:35,10.1.1.10,133,0.000,0.000,0.000,0.000,0.000,0.000
1641234875626022144,2022-01-03-18:34:35,10.1.1.10,145,-0.010,-0.010,-0.010,0.000,0.000,0.000
1641234875812634112,2022-01-03-18:34:35,10.1.1.10,131,-0.020,-0.020,-0.020,0.000,0.000,0.000
1641234876010459904,2022-01-03-18:34:36,10.1.1.10,128,-0.030,-0.030,-0.030,0.000,0.000,0.000
1641234876222316032,2022-01-03-18:34:36,10.1.1.10,139,-0.040,-0.040,-0.040,0.000,0.000,0.000
1641234876410268160,2022-01-03-18:34:36,10.1.1.10,126,-0.050,-0.050,-0.050,0.000,0.000,0.000
1641234876666321920,2022-01-03-18:34:36,10.1.1.10,181,-0.060,-0.060,-0.060,0.000,0.000,0.000
1641234876829259008,2022-01-03-18:34:36,10.1.1.10,123,-0.070,-0.070,-0.070,0.000,0.000,0.000
1641234877028134144,2022-01-03-18:34:37,10.1.1.10,120,-0.080,-0.080,-0.080,0.000,0.000,0.000
1641234877228068096,2022-01-03-18:34:37,10.1.1.10,117,-0.090,-0.090,-0.090,0.000,0.000,0.000
1641234877429074944,2022-01-03-18:34:37,10.1.1.10,118,-0.100,-0.100,-0.100,0.000,0.000,0.000
1641234877627984128,2022-01-03-18:34:37,10.1.1.10,115,-0.110,-0.110,-0.110,0.000,0.000,0.000
1641234877861671936,2022-01-03-18:34:37,10.1.1.10,149,-0.120,-0.120,-0.120,0.000,0.000,0.000
1641234878026822144,2022-01-03-18:34:38,10.1.1.10,113,-0.130,-0.130,-0.130,0.000,0.000,0.000
1641234878227185920,2022-01-03-18:34:38,10.1.1.10,113,-0.140,-0.140,-0.140,0.000,0.000,0.000
1641234878426289152,2022-01-03-18:34:38,10.1.1.10,111,-0.150,-0.150,-0.150,0.000,0.000,0.000
1641234878628017920,2022-01-03-18:34:38,10.1.1.10,111,-0.160,-0.160,-0.160,0.000,0.000,0.000
1641234878824992768,2022-01-03-18:34:38,10.1.1.10,108,-0.170,-0.170,-0.170,0.000,0.000,0.000
1641234879057136128,2022-01-03-18:34:39,10.1.1.10,140,-0.180,-0.180,-0.180,0.000,0.000,0.000
1641234879244733952,2022-01-03-18:34:39,10.1.1.10,121,-0.190,-0.190,-0.190,0.000,0.000,0.000
1641234879443820032,2022-01-03-18:34:39,10.1.1.10,118,-0.200,-0.200,-0.200,0.000,0.000,0.000
1641234879645150976,2022-01-03-18:34:39,10.1.1.10,119,-0.210,-0.210,-0.210,0.000,0.000,0.000
1641234879846627072,2022-01-03-18:34:39,10.1.1.10,116,-0.220,-0.220,-0.220,0.000,0.000,0.000
1641234880075017984,2022-01-03-18:34:40,10.1.1.10,144,-0.230,-0.230,-0.230,0.000,0.000,0.000
1641234880262315008,2022-01-03-18:34:40,10.1.1.10,116,-0.240,-0.240,-0.240,0.000,0.000,0.000
1641234880461801984,2022-01-03-18:34:40,10.1.1.10,115,-0.250,-0.250,-0.250,0.000,0.000,0.000
1641234880661981952,2022-01-03-18:34:40,10.1.1.10,114,-0.260,-0.260,-0.260,0.000,0.000,0.000
1641234880862138880,2022-01-03-18:34:40,10.1.1.10,113,-0.270,-0.270,-0.270,0.000,0.000,0.000
1641234881063399936,2022-01-03-18:34:41,10.1.1.10,114,-0.280,-0.280,-0.280,0.000,0.000,0.000
1641234881261591808,2022-01-03-18:34:41,10.1.1.10,111,-0.290,-0.290,-0.290,0.000,0.000,0.000
1641234881460818176,2022-01-03-18:34:41,10.1.1.10,110,-0.300,-0.300,-0.300,0.000,0.000,0.000
1641234881659767040,2022-01-03-18:34:41,10.1.1.10,108,-0.310,-0.310,-0.310,0.000,0.000,0.000
1641234881860069888,2022-01-03-18:34:41,10.1.1.10,108,-0.320,-0.320,-0.320,0.000,0.000,0.000
1641234882061674240,2022-01-03-18:34:42,10.1.1.10,109,-0.330,-0.330,-0.330,0.000,0.000,0.000
1641234882259990016,2022-01-03-18:34:42,10.1.1.10,106,-0.340,-0.340,-0.340,0.000,0.000,0.000
1641234882458750976,2022-01-03-18:34:42,10.1.1.10,104,-0.350,-0.350,-0.350,0.000,0.000,0.000
1641234882658225152,2022-01-03-18:34:42,10.1.1.10,102,-0.360,-0.360,-0.360,0.000,0.000,0.000
1641234882878031872,2022-01-03-18:34:42,10.1.1.10,121,-0.370,-0.370,-0.370,0.000,0.000,0.000
1641234883087362048,2022-01-03-18:34:43,10.1.1.10,128,-0.380,-0.380,-0.380,0.000,0.000,0.000
1641234883279650048,2022-01-03-18:34:43,10.1.1.10,115,-0.390,-0.390,-0.390,0.000,0.000,0.000
1641234883552968960,2022-01-03-18:34:43,10.1.1.10,190,-0.400,-0.400,-0.400,0.000,0.000,0.000
1641234883677058816,2022-01-03-18:34:43,10.1.1.10,113,-0.410,-0.410,-0.410,0.000,0.000,0.000
1641234883876796928,2022-01-03-18:34:43,10.1.1.10,112,-0.420,-0.420,-0.420,0.000,0.000,0.000
1641234884077306880,2022-01-03-18:34:44,10.1.1.10,111,-0.430,-0.430,-0.430,0.000,0.000,0.000
1641234884278643968,2022-01-03-18:34:44,10.1.1.10,112,-0.440,-0.440,-0.440,0.000,0.000,0.000
1641234884479751168,2022-01-03-18:34:44,10.1.1.10,112,-0.450,-0.450,-0.450,0.000,0.000,0.000
1641234884680696064,2022-01-03-18:34:44,10.1.1.10,109,-0.460,-0.460,-0.460,0.000,0.000,0.000
1641234884882388224,2022-01-03-18:34:44,10.1.1.10,110,-0.470,-0.470,-0.470,0.000,0.000,0.000
1641234885082201088,2022-01-03-18:34:45,10.1.1.10,109,-0.480,-0.480,-0.480,0.000,0.000,0.000
1641234885283833856,2022-01-03-18:34:45,10.1.1.10,109,-0.490,-0.490,-0.490,0.000,0.000,0.000
1641234885489029888,2022-01-03-18:34:45,10.1.1.10,111,-0.480,-0.480,-0.480,0.000,0.000,0.000
1641234885696558848,2022-01-03-18:34:45,10.1.1.10,121,-0.470,-0.470,-0.470,0.000,0.000,0.000
1641234885885288960,2022-01-03-18:34:45,10.1.1.10,109,-0.460,-0.460,-0.460,0.000,0.000,0.000
1641234886087902976,2022-01-03-18:34:46,10.1.1.10,111,-0.450,-0.450,-0.450,0.000,0.000,0.000
1641234886308155904,2022-01-03-18:34:46,10.1.1.10,130,-0.440,-0.440,-0.440,0.000,0.000,0.000
1641234886509169152,2022-01-03-18:34:46,10.1.1.10,130,-0.430,-0.430,-0.430,0.000,0.000,0.000
1641234886709477888,2022-01-03-18:34:46,10.1.1.10,129,-0.420,-0.420,-0.420,0.000,0.000,0.000
1641234886939333888,2022-01-03-18:34:46,10.1.1.10,158,-0.410,-0.410,-0.410,0.000,0.000,0.000
1641234887117122048,2022-01-03-18:34:47,10.1.1.10,133,-0.400,-0.400,-0.400,0.000,0.000,0.000
1641234887312542976,2022-01-03-18:34:47,10.1.1.10,130,-0.390,-0.390,-0.390,0.000,0.000,0.000
1641234887512631808,2022-01-03-18:34:47,10.1.1.10,130,-0.380,-0.380,-0.380,0.000,0.000,0.000
1641234887723067904,2022-01-03-18:34:47,10.1.1.10,140,-0.370,-0.370,-0.370,0.000,0.000,0.000
1641234887922137088,2022-01-03-18:34:47,10.1.1.10,132,-0.360,-0.360,-0.360,0.000,0.000,0.000
1641234888117460992,2022-01-03-18:34:48,10.1.1.10,131,-0.350,-0.350,-0.350,0.000,0.000,0.000
1641234888316404992,2022-01-03-18:34:48,10.1.1.10,130,-0.340,-0.340,-0.340,0.000,0.000,0.000
1641234888517291008,2022-01-03-18:34:48,10.1.1.10,131,-0.330,-0.330,-0.330,0.000,0.000,0.000
1641234888718468864,2022-01-03-18:34:48,10.1.1.10,131,-0.320,-0.320,-0.320,0.000,0.000,0.000
1641234888918606080,2022-01-03-18:34:48,10.1.1.10,131,-0.310,-0.310,-0.310,0.000,0.000,0.000
1641234889150446848,2022-01-03-18:34:49,10.1.1.10,162,-0.300,-0.300,-0.300,0.000,0.000,0.000
1641234889321903104,2022-01-03-18:34:49,10.1.1.10,128,-0.290,-0.290,-0.290,0.000,0.000,0.000
1641234889520183040,2022-01-03-18:34:49,10.1.1.10,126,-0.280,-0.280,-0.280,0.000,0.000,0.000
1641234889721417984,2022-01-03-18:34:49,10.1.1.10,126,-0.270,-0.270,-0.270,0.000,0.000,0.000
1641234889943267072,2022-01-03-18:34:49,10.1.1.10,145,-0.260,-0.260,-0.260,0.000,0.000,0.000
1641234890170066944,2022-01-03-18:34:50,10.1.1.10,172,-0.250,-0.250,-0.250,0.000,0.000,0.000
1641234890345601024,2022-01-03-18:34:50,10.1.1.10,140,-0.240,-0.240,-0.240,0.000,0.000,0.000
1641234890544768000,2022-01-03-18:34:50,10.1.1.10,136,-0.230,-0.230,-0.230,0.000,0.000,0.000
1641234890744362240,2022-01-03-18:34:50,10.1.1.10,133,-0.220,-0.220,-0.220,0.000,0.000,0.000
1641234890945219072,2022-01-03-18:34:50,10.1.1.10,133,-0.210,-0.210,-0.210,0.000,0.000,0.000
1641234891145617920,2022-01-03-18:34:51,10.1.1.10,132,-0.200,-0.200,-0.200,0.000,0.000,0.000
1641234891373515008,2022-01-03-18:34:51,10.1.1.10,160,-0.190,-0.190,-0.190,0.000,0.000,0.000
1641234891568620800,2022-01-03-18:34:51,10.1.1.10,149,-0.180,-0.180,-0.180,0.000,0.000,0.000
1641234891767545088,2022-01-03-18:34:51,10.1.1.10,138,-0.170,-0.170,-0.170,0.000,0.000,0.000
1641234891975969024,2022-01-03-18:34:51,10.1.1.10,146,-0.160,-0.160,-0.160,0.000,0.000,0.000
1641234892202981120,2022-01-03-18:34:52,10.1.1.10,171,-0.150,-0.150,-0.150,0.000,0.000,0.000
1641234892369103872,2022-01-03-18:34:52,10.1.1.10,136,-0.140,-0.140,-0.140,0.000,0.000,0.000
1641234892590974976,2022-01-03-18:34:52,10.1.1.10,151,-0.130,-0.130,-0.130,0.000,0.000,0.000
1641234892794290944,2022-01-03-18:34:52,10.1.1.10,134,-0.120,-0.120,-0.120,0.000,0.000,0.000
1641234893011367936,2022-01-03-18:34:53,10.1.1.10,153,-0.110,-0.110,-0.110,0.000,0.000,0.000
1641234893211085056,2022-01-03-18:34:53,10.1.1.10,153,-0.100,-0.100,-0.100,0.000,0.000,0.000
1641234893414115072,2022-01-03-18:34:53,10.1.1.10,155,-0.090,-0.090,-0.090,0.000,0.000,0.000
1641234893814192128,2022-01-03-18:34:53,10.1.1.10,153,-0.070,-0.070,-0.070,0.000,0.000,0.000
1641234894013540864,2022-01-03-18:34:54,10.1.1.10,152,-0.060,-0.060,-0.060,0.000,0.000,0.000
1641234894241154816,2022-01-03-18:34:54,10.1.1.10,178,-0.050,-0.050,-0.050,0.000,0.000,0.000
1641234894421297920,2022-01-03-18:34:54,10.1.1.10,151,-0.040,-0.040,-0.040,0.000,0.000,0.000
1641234894613655040,2022-01-03-18:34:54,10.1.1.10,143,-0.030,-0.030,-0.030,0.000,0.000,0.000
1641234894831305984,2022-01-03-18:34:54,10.1.1.10,160,-0.020,-0.020,-0.020,0.000,0.000,0.000
1641234895013721856,2022-01-03-18:34:55,10.1.1.10,141,-0.010,-0.010,-0.010,0.000,0.000,0.000
1641234895214970112,2022-01-03-18:34:55,10.1.1.10,142,0.000,0.000,0.000,0.000,0.000,0.000
1641234895416662016,2022-01-03-18:34:55,10.1.1.10,143,-0.010,-0.010,-0.010,0.000,0.000,0.000
1641234895615739136,2022-01-03-18:34:55,10.1.1.10,141,-0.020,-0.020,-0.020,0.000,0.000,0.000
1641234895824302080,2022-01-03-18:34:55,10.1.1.10,149,-0.030,-0.030,-0.030,0.000,0.000,0.000
1641234896039585024,2022-01-03-18:34:56,10.1.1.10,161,-0.040,-0.040,-0.040,0.000,0.000,0.000
1641234896236193024,2022-01-03-18:34:56,10.1.1.10,149,-0.050,-0.050,-0.050,0.000,0.000,0.000
1641234896436114944,2022-01-03-18:34:56,10.1.1.10,148,-0.060,-0.060,-0.060,0.000,0.000,0.000
1641234896640252160,2022-01-03-18:34:56,10.1.1.10,152,-0.070,-0.070,-0.070,0.000,0.000,0.000
1641234896847697920,2022-01-03-18:34:56,10.1.1.10,153,-0.080,-0.080,-0.080,0.000,0.000,0.000
1641234897074503936,2022-01-03-18:34:57,10.1.1.10,180,-0.090,-0.090,-0.090,0.000,0.000,0.000
1641234897237766912,2022-01-03-18:34:57,10.1.1.10,142,-0.100,-0.100,-0.100,0.000,0.000,0.000
1641234897439208960,2022-01-03-18:34:57,10.1.1.10,142,-0.110,-0.110,-0.110,0.000,0.000,0.000
1641234897639312896,2022-01-03-18:34:57,10.1.1.10,142,-0.120,-0.120,-0.120,0.000,0.000,0.000
1641234897858729984,2022-01-03-18:34:57,10.1.1.10,161,-0.130,-0.130,-0.130,0.000,0.000,0.000
1641234898062422016,2022-01-03-18:34:58,10.1.1.10,164,-0.140,-0.140,-0.140,0.000,0.000,0.000
1641234898253807104,2022-01-03-18:34:58,10.1.1.10,155,-0.150,-0.150,-0.150,0.000,0.000,0.000
1641234898463232000,2022-01-03-18:34:58,10.1.1.10,152,-0.160,-0.160,-0.160,0.000,0.000,0.000
1641234898660866048,2022-01-03-18:34:58,10.1.1.10,148,-0.170,-0.170,-0.170,0.000,0.000,0.000
1641234898865388032,2022-01-03-18:34:58,10.1.1.10,152,-0.180,-0.180,-0.180,0.000,0.000,0.000
1641234899071116800,2022-01-03-18:34:59,10.1.1.10,154,-0.190,-0.190,-0.190,0.000,0.000,0.000
1641234899282232064,2022-01-03-18:34:59,10.1.1.10,160,-0.200,-0.200,-0.200,0.000,0.000,0.000
1641234899482851072,2022-01-03-18:34:59,10.1.1.10,160,-0.210,-0.210,-0.210,0.000,0.000,0.000
1641234899681647104,2022-01-03-18:34:59,10.1.1.10,158,-0.220,-0.220,-0.220,0.000,0.000,0.000
1641234899880767232,2022-01-03-18:34:59,10.1.1.10,157,-0.230,-0.230,-0.230,0.000,0.000,0.000
1641234900081059840,2022-01-03-18:35:00,10.1.1.10,156,-0.240,-0.240,-0.240,0.000,0.000,0.000
1641234900282907904,2022-01-03-18:35:00,10.1.1.10,156,-0.250,-0.250,-0.250,0.000,0.000,0.000
1641234900481851136,2022-01-03-18:35:00,10.1.1.10,155,-0.260,-0.260,-0.260,0.000,0.000,0.000
1641234900681185024,2022-01-03-18:35:00,10.1.1.10,153,-0.270,-0.270,-0.270,0.000,0.000,0.000
1641234900881771008,2022-01-03-18:35:00,10.1.1.10,153,-0.280,-0.280,-0.280,0.000,0.000,0.000
1641234901082195968,2022-01-03-18:35:01,10.1.1.10,153,-0.290,-0.290,-0.290,0.000,0.000,0.000
1641234901283212032,2022-01-03-18:35:01,10.1.1.10,153,-0.300,-0.300,-0.300,0.000,0.000,0.000
1641234901482366208,2022-01-03-18:35:01,10.1.1.10,152,-0.310,-0.310,-0.310,0.000,0.000,0.000
1641234901735842048,2022-01-03-18:35:01,10.1.1.10,181,-0.320,-0.320,-0.320,0.000,0.000,0.000
1641234901904571136,2022-01-03-18:35:01,10.1.1.10,153,-0.330,-0.330,-0.330,0.000,0.000,0.000
1641234902104093184,2022-01-03-18:35:02,10.1.1.10,150,-0.340,-0.340,-0.340,0.000,0.000,0.000
1641234902302917888,2022-01-03-18:35:02,10.1.1.10,148,-0.350,-0.350,-0.350,0.000,0.000,0.000
1641234902503138048,2022-01-03-18:35:02,10.1.1.10,146,-0.360,-0.360,-0.360,0.000,0.000,0.000
1641234902702503936,2022-01-03-18:35:02,10.1.1.10,145,-0.370,-0.370,-0.370,0.000,0.000,0.000
1641234902922470144,2022-01-03-18:35:02,10.1.1.10,164,-0.380,-0.380,-0.380,0.000,0.000,0.000
1641234903133006080,2022-01-03-18:35:03,10.1.1.10,175,-0.390,-0.390,-0.390,0.000,0.000,0.000
1641234903326617856,2022-01-03-18:35:03,10.1.1.10,167,-0.400,-0.400,-0.400,0.000,0.000,0.000
1641234903540147968,2022-01-03-18:35:03,10.1.1.10,175,-0.410,-0.410,-0.410,0.000,0.000,0.000
1641234903723913984,2022-01-03-18:35:03,10.1.1.10,164,-0.420,-0.420,-0.420,0.000,0.000,0.000
1641234904162388992,2022-01-03-18:35:04,10.1.1.10,148,-0.440,-0.440,-0.440,0.000,0.000,0.000
1641234904364357888,2022-01-03-18:35:04,10.1.1.10,148,-0.450,-0.450,-0.450,0.000,0.000,0.000
1641234904582576128,2022-01-03-18:35:04,10.1.1.10,165,-0.460,-0.460,-0.460,0.000,0.000,0.000
1641234904782797056,2022-01-03-18:35:04,10.1.1.10,164,-0.470,-0.470,-0.470,0.000,0.000,0.000
1641234904982859008,2022-01-03-18:35:04,10.1.1.10,163,-0.480,-0.480,-0.480,0.000,0.000,0.000
1641234905188469760,2022-01-03-18:35:05,10.1.1.10,168,-0.490,-0.490,-0.490,0.000,0.000,0.000
1641234905382987008,2022-01-03-18:35:05,10.1.1.10,160,-0.480,-0.480,-0.480,0.000,0.000,0.000
1641234905582534912,2022-01-03-18:35:05,10.1.1.10,156,-0.470,-0.470,-0.470,0.000,0.000,0.000
1641234905783052800,2022-01-03-18:35:05,10.1.1.10,153,-0.460,-0.460,-0.460,0.000,0.000,0.000
1641234906024792064,2022-01-03-18:35:06,10.1.1.10,184,-0.450,-0.450,-0.450,0.000,0.000,0.000
1641234906425556992,2022-01-03-18:35:06,10.1.1.10,167,-0.430,-0.430,-0.430,0.000,0.000,0.000
1641234906623162880,2022-01-03-18:35:06,10.1.1.10,162,-0.420,-0.420,-0.420,0.000,0.000,0.000
1641234906824161024,2022-01-03-18:35:06,10.1.1.10,161,-0.410,-0.410,-0.410,0.000,0.000,0.000
1641234907028582144,2022-01-03-18:35:07,10.1.1.10,165,-0.400,-0.400,-0.400,0.000,0.000,0.000
1641234907230447104,2022-01-03-18:35:07,10.1.1.10,166,-0.390,-0.390,-0.390,0.000,0.000,0.000
1641234907624706048,2022-01-03-18:35:07,10.1.1.10,151,-0.370,-0.370,-0.370,0.000,0.000,0.000
1641234907844736000,2022-01-03-18:35:07,10.1.1.10,149,-0.360,-0.360,-0.360,0.000,0.000,0.000
1641234908047329024,2022-01-03-18:35:08,10.1.1.10,150,-0.350,-0.350,-0.350,0.000,0.000,0.000
1641234908245747200,2022-01-03-18:35:08,10.1.1.10,148,-0.340,-0.340,-0.340,0.000,0.000,0.000
1641234908465744128,2022-01-03-18:35:08,10.1.1.10,167,-0.330,-0.330,-0.330,0.000,0.000,0.000
1641234908692128000,2022-01-03-18:35:08,10.1.1.10,193,-0.320,-0.320,-0.320,0.000,0.000,0.000
1641234908865168128,2022-01-03-18:35:08,10.1.1.10,158,-0.310,-0.310,-0.310,0.000,0.000,0.000
1641234909063772928,2022-01-03-18:35:09,10.1.1.10,156,-0.300,-0.300,-0.300,0.000,0.000,0.000
1641234909263490048,2022-01-03-18:35:09,10.1.1.10,155,-0.290,-0.290,-0.290,0.000,0.000,0.000
1641234909462435840,2022-01-03-18:35:09,10.1.1.10,153,-0.280,-0.280,-0.280,0.000,0.000,0.000
1641234909861772032,2022-01-03-18:35:09,10.1.1.10,147,-0.260,-0.260,-0.260,0.000,0.000,0.000
1641234910065324032,2022-01-03-18:35:10,10.1.1.10,149,-0.250,-0.250,-0.250,0.000,0.000,0.000
1641234910262588928,2022-01-03-18:35:10,10.1.1.10,146,-0.240,-0.240,-0.240,0.000,0.000,0.000
1641234910462168832,2022-01-03-18:35:10,10.1.1.10,145,-0.230,-0.230,-0.230,0.000,0.000,0.000
1641234910685012992,2022-01-03-18:35:10,10.1.1.10,167,-0.220,-0.220,-0.220,0.000,0.000,0.000
1641234911082935040,2022-01-03-18:35:11,10.1.1.10,162,-0.200,-0.200,-0.200,0.000,0.000,0.000
1641234911282043904,2022-01-03-18:35:11,10.1.1.10,158,-0.190,-0.190,-0.190,0.000,0.000,0.000
1641234911482615040,2022-01-03-18:35:11,10.1.1.10,157,-0.180,-0.180,-0.180,0.000,0.000,0.000
1641234911681184000,2022-01-03-18:35:11,10.1.1.10,154,-0.170,-0.170,-0.170,0.000,0.000,0.000
1641234911883301888,2022-01-03-18:35:11,10.1.1.10,154,-0.160,-0.160,-0.160,0.000,0.000,0.000
1641234912113455104,2022-01-03-18:35:12,10.1.1.10,183,-0.150,-0.150,-0.150,0.000,0.000,0.000
1641234912285736960,2022-01-03-18:35:12,10.1.1.10,151,-0.140,-0.140,-0.140,0.000,0.000,0.000
1641234912481563136,2022-01-03-18:35:12,10.1.1.10,148,-0.130,-0.130,-0.130,0.000,0.000,0.000
1641234912682370816,2022-01-03-18:35:12,10.1.1.10,148,-0.120,-0.120,-0.120,0.000,0.000,0.000
1641234912901398016,2022-01-03-18:35:12,10.1.1.10,162,-0.110,-0.110,-0.110,0.000,0.000,0.000
1641234913101413888,2022-01-03-18:35:13,10.1.1.10,157,-0.100,-0.100,-0.100,0.000,0.000,0.000
1641234913302198016,2022-01-03-18:35:13,10.1.1.10,150,-0.090,-0.090,-0.090,0.000,0.000,0.000
1641234913501867008,2022-01-03-18:35:13,10.1.1.10,148,-0.080,-0.080,-0.080,0.000,0.000,0.000
1641234913704606976,2022-01-03-18:35:13,10.1.1.10,150,-0.070,-0.070,-0.070,0.000,0.000,0.000
1641234913900824064,2022-01-03-18:35:13,10.1.1.10,144,-0.060,-0.060,-0.060,0.000,0.000,0.000
1641234914104888064,2022-01-03-18:35:14,10.1.1.10,149,-0.050,-0.050,-0.050,0.000,0.000,0.000
1641234914329646080,2022-01-03-18:35:14,10.1.1.10,172,-0.040,-0.040,-0.040,0.000,0.000,0.000
1641234914520006912,2022-01-03-18:35:14,10.1.1.10,151,-0.030,-0.030,-0.030,0.000,0.000,0.000
1641234914720602112,2022-01-03-18:35:14,10.1.1.10,151,-0.020,-0.020,-0.020,0.000,0.000,0.000
1641234914924717824,2022-01-03-18:35:14,10.1.1.10,155,-0.010,-0.010,-0.010,0.000,0.000,0.000
1641234915119852032,2022-01-03-18:35:15,10.1.1.10,149,0.000,0.000,0.000,0.000,0.000,0.000
1641234915326519040,2022-01-03-18:35:15,10.1.1.10,153,-0.010,-0.010,-0.010,0.000,0.000,0.000
1641234915526441216,2022-01-03-18:35:15,10.1.1.10,145,-0.020,-0.020,-0.020,0.000,0.000,0.000
1641234915726392064,2022-01-03-18:35:15,10.1.1.10,151,-0.030,-0.030,-0.030,0.000,0.000,0.000
1641234915919184896,2022-01-03-18:35:15,10.1.1.10,143,-0.040,-0.040,-0.040,0.000,0.000,0.000
1641234916121704960,2022-01-03-18:35:16,10.1.1.10,145,-0.050,-0.050,-0.050,0.000,0.000,0.000
1641234916324677888,2022-01-03-18:35:16,10.1.1.10,147,-0.060,-0.060,-0.060,0.000,0.000,0.000
1641234916739000064,2022-01-03-18:35:16,10.1.1.10,144,-0.080,-0.080,-0.080,0.000,0.000,0.000
1641234916940231168,2022-01-03-18:35:16,10.1.1.10,146,-0.090,-0.090,-0.090,0.000,0.000,0.000
1641234917138371072,2022-01-03-18:35:17,10.1.1.10,143,-0.100,-0.100,-0.100,0.000,0.000,0.000
1641234917374784000,2022-01-03-18:35:17,10.1.1.10,160,-0.110,-0.110,-0.110,0.000,0.000,0.000
1641234917560409088,2022-01-03-18:35:17,10.1.1.10,144,-0.120,-0.120,-0.120,0.000,0.000,0.000
1641234917758761984,2022-01-03-18:35:17,10.1.1.10,142,-0.130,-0.130,-0.130,0.000,0.000,0.000
1641234917957303040,2022-01-03-18:35:17,10.1.1.10,140,-0.140,-0.140,-0.140,0.000,0.000,0.000
1641234918177523968,2022-01-03-18:35:18,10.1.1.10,159,-0.150,-0.150,-0.150,0.000,0.000,0.000
1641234918377059072,2022-01-03-18:35:18,10.1.1.10,157,-0.160,-0.160,-0.160,0.000,0.000,0.000
1641234918577022976,2022-01-03-18:35:18,10.1.1.10,156,-0.170,-0.170,-0.170,0.000,0.000,0.000
1641234918780706816,2022-01-03-18:35:18,10.1.1.10,159,-0.180,-0.180,-0.180,0.000,0.000,0.000
1641234918980752896,2022-01-03-18:35:18,10.1.1.10,157,-0.190,-0.190,-0.190,0.000,0.000,0.000
1641234919176051968,2022-01-03-18:35:19,10.1.1.10,151,-0.200,-0.200,-0.200,0.000,0.000,0.000
1641234919375911936,2022-01-03-18:35:19,10.1.1.10,151,-0.210,-0.210,-0.210,0.000,0.000,0.000
1641234919575115008,2022-01-03-18:35:19,10.1.1.10,149,-0.220,-0.220,-0.220,0.000,0.000,0.000
1641234919774998784,2022-01-03-18:35:19,10.1.1.10,144,-0.230,-0.230,-0.230,0.000,0.000,0.000
1641234919976247040,2022-01-03-18:35:19,10.1.1.10,145,-0.240,-0.240,-0.240,0.000,0.000,0.000
1641234920175364096,2022-01-03-18:35:20,10.1.1.10,144,-0.250,-0.250,-0.250,0.000,0.000,0.000
1641234920374653952,2022-01-03-18:35:20,10.1.1.10,142,-0.260,-0.260,-0.260,0.000,0.000,0.000
1641234920574224896,2022-01-03-18:35:20,10.1.1.10,139,-0.270,-0.270,-0.270,0.000,0.000,0.000
1641234920774172928,2022-01-03-18:35:20,10.1.1.10,138,-0.280,-0.280,-0.280,0.000,0.000,0.000
1641234920974499072,2022-01-03-18:35:20,10.1.1.10,138,-0.290,-0.290,-0.290,0.000,0.000,0.000
1641234921173635840,2022-01-03-18:35:21,10.1.1.10,136,-0.300,-0.300,-0.300,0.000,0.000,0.000
1641234921403151872,2022-01-03-18:35:21,10.1.1.10,151,-0.310,-0.310,-0.310,0.000,0.000,0.000
1641234921593324032,2022-01-03-18:35:21,10.1.1.10,140,-0.320,-0.320,-0.320,0.000,0.000,0.000
1641234921793207808,2022-01-03-18:35:21,10.1.1.10,140,-0.330,-0.330,-0.330,0.000,0.000,0.000
1641234921993596160,2022-01-03-18:35:21,10.1.1.10,139,-0.340,-0.340,-0.340,0.000,0.000,0.000
1641234922194616064,2022-01-03-18:35:22,10.1.1.10,139,-0.350,-0.350,-0.350,0.000,0.000,0.000
1641234922398388992,2022-01-03-18:35:22,10.1.1.10,142,-0.360,-0.360,-0.360,0.000,0.000,0.000
1641234922612886016,2022-01-03-18:35:22,10.1.1.10,155,-0.370,-0.370,-0.370,0.000,0.000,0.000
1641234922813440000,2022-01-03-18:35:22,10.1.1.10,155,-0.380,-0.380,-0.380,0.000,0.000,0.000
1641234923016036864,2022-01-03-18:35:23,10.1.1.10,157,-0.390,-0.390,-0.390,0.000,0.000,0.000
1641234923221734144,2022-01-03-18:35:23,10.1.1.10,163,-0.400,-0.400,-0.400,0.000,0.000,0.000
1641234923411961088,2022-01-03-18:35:23,10.1.1.10,152,-0.410,-0.410,-0.410,0.000,0.000,0.000
1641234923637000960,2022-01-03-18:35:23,10.1.1.10,160,-0.420,-0.420,-0.420,0.000,0.000,0.000
1641234923873617920,2022-01-03-18:35:23,10.1.1.10,143,-0.430,-0.430,-0.430,0.000,0.000,0.000
1641234924077848064,2022-01-03-18:35:24,10.1.1.10,143,-0.440,-0.440,-0.440,0.000,0.000,0.000
1641234924291069952,2022-01-03-18:35:24,10.1.1.10,151,-0.450,-0.450,-0.450,0.000,0.000,0.000
1641234924495763968,2022-01-03-18:35:24,10.1.1.10,153,-0.460,-0.460,-0.460,0.000,0.000,0.000
1641234924702106880,2022-01-03-18:35:24,10.1.1.10,159,-0.470,-0.470,-0.470,0.000,0.000,0.000
1641234924892381952,2022-01-03-18:35:24,10.1.1.10,145,-0.480,-0.480,-0.480,0.000,0.000,0.000
1641234925090338048,2022-01-03-18:35:25,10.1.1.10,144,-0.490,-0.490,-0.490,0.000,0.000,0.000
1641234925289811968,2022-01-03-18:35:25,10.1.1.10,143,-0.480,-0.480,-0.480,0.000,0.000,0.000
1641234925491288064,2022-01-03-18:35:25,10.1.1.10,142,-0.470,-0.470,-0.470,0.000,0.000,0.000
1641234925689603072,2022-01-03-18:35:25,10.1.1.10,139,-0.460,-0.460,-0.460,0.000,0.000,0.000
1641234925953542912,2022-01-03-18:35:25,10.1.1.10,148,-0.450,-0.450,-0.450,0.000,0.000,0.000
1641234926149154048,2022-01-03-18:35:26,10.1.1.10,143,-0.440,-0.440,-0.440,0.000,0.000,0.000
1641234926353908992,2022-01-03-18:35:26,10.1.1.10,142,-0.430,-0.430,-0.430,0.000,0.000,0.000
1641234926578483968,2022-01-03-18:35:26,10.1.1.10,171,-0.420,-0.420,-0.420,0.000,0.000,0.000
1641234926771888128,2022-01-03-18:35:26,10.1.1.10,142,-0.410,-0.410,-0.410,0.000,0.000,0.000
1641234927246728960,2022-01-03-18:35:27,10.1.1.10,142,-0.390,-0.390,-0.390,0.000,0.000,0.000
1641234927446031104,2022-01-03-18:35:27,10.1.1.10,140,-0.380,-0.380,-0.380,0.000,0.000,0.000
1641234927645476096,2022-01-03-18:35:27,10.1.1.10,139,-0.370,-0.370,-0.370,0.000,0.000,0.000
1641234927845520896,2022-01-03-18:35:27,10.1.1.10,138,-0.360,-0.360,-0.360,0.000,0.000,0.000
1641234928044886016,2022-01-03-18:35:28,10.1.1.10,136,-0.350,-0.350,-0.350,0.000,0.000,0.000
1641234928246285056,2022-01-03-18:35:28,10.1.1.10,132,-0.340,-0.340,-0.340,0.000,0.000,0.000
1641234928450782976,2022-01-03-18:35:28,10.1.1.10,136,-0.330,-0.330,-0.330,0.000,0.000,0.000
1641234928644596992,2022-01-03-18:35:28,10.1.1.10,129,-0.320,-0.320,-0.320,0.000,0.000,0.000
1641234928844327936,2022-01-03-18:35:28,10.1.1.10,128,-0.310,-0.310,-0.310,0.000,0.000,0.000
1641234929064316928,2022-01-03-18:35:29,10.1.1.10,146,-0.300,-0.300,-0.300,0.000,0.000,0.000
1641234929264482048,2022-01-03-18:35:29,10.1.1.10,146,-0.290,-0.290,-0.290,0.000,0.000,0.000
1641234929464190976,2022-01-03-18:35:29,10.1.1.10,141,-0.280,-0.280,-0.280,0.000,0.000,0.000
1641234929663714816,2022-01-03-18:35:29,10.1.1.10,138,-0.270,-0.270,-0.270,0.000,0.000,0.000
1641234929863393024,2022-01-03-18:35:29,10.1.1.10,137,-0.260,-0.260,-0.260,0.000,0.000,0.000
1641234930062920192,2022-01-03-18:35:30,10.1.1.10,136,-0.250,-0.250,-0.250,0.000,0.000,0.000
1641234930263448064,2022-01-03-18:35:30,10.1.1.10,133,-0.240,-0.240,-0.240,0.000,0.000,0.000
1641234930478373888,2022-01-03-18:35:30,10.1.1.10,141,-0.230,-0.230,-0.230,0.000,0.000,0.000
1641234930662616064,2022-01-03-18:35:30,10.1.1.10,131,-0.220,-0.220,-0.220,0.000,0.000,0.000
1641234930861947904,2022-01-03-18:35:30,10.1.1.10,130,-0.210,-0.210,-0.210,0.000,0.000,0.000
1641234931062135040,2022-01-03-18:35:31,10.1.1.10,130,-0.200,-0.200,-0.200,0.000,0.000,0.000
1641234931261894912,2022-01-03-18:35:31,10.1.1.10,128,-0.190,-0.190,-0.190,0.000,0.000,0.000
1641234931476809984,2022-01-03-18:35:31,10.1.1.10,142,-0.180,-0.180,-0.180,0.000,0.000,0.000
1641234931680964864,2022-01-03-18:35:31,10.1.1.10,138,-0.170,-0.170,-0.170,0.000,0.000,0.000
1641234931880317952,2022-01-03-18:35:31,10.1.1.10,130,-0.160,-0.160,-0.160,0.000,0.000,0.000
1641234932080818944,2022-01-03-18:35:32,10.1.1.10,130,-0.150,-0.150,-0.150,0.000,0.000,0.000
1641234932283019008,2022-01-03-18:35:32,10.1.1.10,129,-0.140,-0.140,-0.140,0.000,0.000,0.000
1641234932484907008,2022-01-03-18:35:32,10.1.1.10,133,-0.130,-0.130,-0.130,0.000,0.000,0.000
1641234932698870016,2022-01-03-18:35:32,10.1.1.10,146,-0.120,-0.120,-0.120,0.000,0.000,0.000
1641234932885552896,2022-01-03-18:35:32,10.1.1.10,130,-0.110,-0.110,-0.110,0.000,0.000,0.000
1641234933078771968,2022-01-03-18:35:33,10.1.1.10,123,-0.100,-0.100,-0.100,0.000,0.000,0.000
1641234933280459008,2022-01-03-18:35:33,10.1.1.10,124,-0.090,-0.090,-0.090,0.000,0.000,0.000
1641234933498349056,2022-01-03-18:35:33,10.1.1.10,139,-0.080,-0.080,-0.080,0.000,0.000,0.000
1641234933711531008,2022-01-03-18:35:33,10.1.1.10,142,-0.070,-0.070,-0.070,0.000,0.000,0.000
1641234933904397056,2022-01-03-18:35:33,10.1.1.10,142,-0.060,-0.060,-0.060,0.000,0.000,0.000
1641234934097164032,2022-01-03-18:35:34,10.1.1.10,134,-0.050,-0.050,-0.050,0.000,0.000,0.000
1641234934297120000,2022-01-03-18:35:34,10.1.1.10,132,-0.040,-0.040,-0.040,0.000,0.000,0.000
1641234934497904896,2022-01-03-18:35:34,10.1.1.10,132,-0.030,-0.030,-0.030,0.000,0.000,0.000
1641234934697051904,2022-01-03-18:35:34,10.1.1.10,131,-0.020,-0.020,-0.020,0.000,0.000,0.000
1641234935116089088,2022-01-03-18:35:35,10.1.1.10,127,0.000,0.000,0.000,0.000,0.000,0.000
1641234935321132800,2022-01-03-18:35:35,10.1.1.10,130,-0.010,-0.010,-0.010,0.000,0.000,0.000
1641234935514818816,2022-01-03-18:35:35,10.1.1.10,123,-0.020,-0.020,-0.020,0.000,0.000,0.000
1641234935720679936,2022-01-03-18:35:35,10.1.1.10,128,-0.030,-0.030,-0.030,0.000,0.000,0.000
1641234935915105024,2022-01-03-18:35:35,10.1.1.10,118,-0.040,-0.040,-0.040,0.000,0.000,0.000
1641234936128712960,2022-01-03-18:35:36,10.1.1.10,131,-0.050,-0.050,-0.050,0.000,0.000,0.000
1641234936334651904,2022-01-03-18:35:36,10.1.1.10,135,-0.060,-0.060,-0.060,0.000,0.000,0.000
1641234936533966080,2022-01-03-18:35:36,10.1.1.10,134,-0.070,-0.070,-0.070,0.000,0.000,0.000
1641234936733186048,2022-01-03-18:35:36,10.1.1.10,132,-0.080,-0.080,-0.080,0.000,0.000,0.000
1641234936933267200,2022-01-03-18:35:36,10.1.1.10,131,-0.090,-0.090,-0.090,0.000,0.000,0.000
1641234937132834048,2022-01-03-18:35:37,10.1.1.10,130,-0.100,-0.100,-0.100,0.000,0.000,0.000
1641234937334525184,2022-01-03-18:35:37,10.1.1.10,124,-0.110,-0.110,-0.110,0.000,0.000,0.000
1641234937534738176,2022-01-03-18:35:37,10.1.1.10,124,-0.120,-0.120,-0.120,0.000,0.000,0.000
1641234937734617088,2022-01-03-18:35:37,10.1.1.10,123,-0.130,-0.130,-0.130,0.000,0.000,0.000
1641234937931072000,2022-01-03-18:35:37,10.1.1.10,118,-0.140,-0.140,-0.140,0.000,0.000,0.000
1641234938133960960,2022-01-03-18:35:38,10.1.1.10,119,-0.150,-0.150,-0.150,0.000,0.000,0.000
1641234938341464064,2022-01-03-18:35:38,10.1.1.10,124,-0.160,-0.160,-0.160,0.000,0.000,0.000
1641234938550662144,2022-01-03-18:35:38,10.1.1.10,130,-0.170,-0.170,-0.170,0.000,0.000,0.000
1641234938750310912,2022-01-03-18:35:38,10.1.1.10,128,-0.180,-0.180,-0.180,0.000,0.000,0.000
1641234938949573888,2022-01-03-18:35:38,10.1.1.10,127,-0.190,-0.190,-0.190,0.000,0.000,0.000
1641234939149484032,2022-01-03-18:35:39,10.1.1.10,126,-0.200,-0.200,-0.200,0.000,0.000,0.000
1641234939349520896,2022-01-03-18:35:39,10.1.1.10,125,-0.210,-0.210,-0.210,0.000,0.000,0.000
1641234939566488064,2022-01-03-18:35:39,10.1.1.10,142,-0.220,-0.220,-0.220,0.000,0.000,0.000
1641234939748711936,2022-01-03-18:35:39,10.1.1.10,123,-0.230,-0.230,-0.230,0.000,0.000,0.000
1641234939949218048,2022-01-03-18:35:39,10.1.1.10,123,-0.240,-0.240,-0.240,0.000,0.000,0.000
1641234940148947968,2022-01-03-18:35:40,10.1.1.10,122,-0.250,-0.250,-0.250,0.000,0.000,0.000
1641234940349993984,2022-01-03-18:35:40,10.1.1.10,122,-0.260,-0.260,-0.260,0.000,0.000,0.000
1641234940548976896,2022-01-03-18:35:40,10.1.1.10,119,-0.270,-0.270,-0.270,0.000,0.000,0.000
1641234940796551936,2022-01-03-18:35:40,10.1.1.10,134,-0.280,-0.280,-0.280,0.000,0.000,0.000
1641234940996921088,2022-01-03-18:35:40,10.1.1.10,132,-0.290,-0.290,-0.290,0.000,0.000,0.000
1641234941191608064,2022-01-03-18:35:41,10.1.1.10,127,-0.300,-0.300,-0.300,0.000,0.000,0.000
1641234941392157184,2022-01-03-18:35:41,10.1.1.10,127,-0.310,-0.310,-0.310,0.000,0.000,0.000
1641234941590790144,2022-01-03-18:35:41,10.1.1.10,125,-0.320,-0.320,-0.320,0.000,0.000,0.000
1641234941793443840,2022-01-03-18:35:41,10.1.1.10,127,-0.330,-0.330,-0.330,0.000,0.000,0.000
1641234941991233024,2022-01-03-18:35:41,10.1.1.10,124,-0.340,-0.340,-0.340,0.000,0.000,0.000
1641234942189705984,2022-01-03-18:35:42,10.1.1.10,122,-0.350,-0.350,-0.350,0.000,0.000,0.000
1641234942396146944,2022-01-03-18:35:42,10.1.1.10,128,-0.360,-0.360,-0.360,0.000,0.000,0.000
1641234942589112064,2022-01-03-18:35:42,10.1.1.10,120,-0.370,-0.370,-0.370,0.000,0.000,0.000
1641234942790201856,2022-01-03-18:35:42,10.1.1.10,120,-0.380,-0.380,-0.380,0.000,0.000,0.000
1641234942988763136,2022-01-03-18:35:42,10.1.1.10,117,-0.390,-0.390,-0.390,0.000,0.000,0.000
1641234943188317184,2022-01-03-18:35:43,10.1.1.10,115,-0.400,-0.400,-0.400,0.000,0.000,0.000
1641234943390543104,2022-01-03-18:35:43,10.1.1.10,114,-0.410,-0.410,-0.410,0.000,0.000,0.000
1641234943592073984,2022-01-03-18:35:43,10.1.1.10,115,-0.420,-0.420,-0.420,0.000,0.000,0.000
1641234943792963072,2022-01-03-18:35:43,10.1.1.10,112,-0.430,-0.430,-0.430,0.000,0.000,0.000
1641234944228048128,2022-01-03-18:35:44,10.1.1.10,109,-0.450,-0.450,-0.450,0.000,0.000,0.000
1641234944466161920,2022-01-03-18:35:44,10.1.1.10,108,-0.460,-0.460,-0.460,0.000,0.000,0.000
1641234944665800192,2022-01-03-18:35:44,10.1.1.10,108,-0.470,-0.470,-0.470,0.000,0.000,0.000
1641234944892268032,2022-01-03-18:35:44,10.1.1.10,132,-0.480,-0.480,-0.480,0.000,0.000,0.000
1641234945086386944,2022-01-03-18:35:45,10.1.1.10,116,-0.490,-0.490,-0.490,0.000,0.000,0.000
1641234945288508928,2022-01-03-18:35:45,10.1.1.10,111,-0.480,-0.480,-0.480,0.000,0.000,0.000
1641234945486386176,2022-01-03-18:35:45,10.1.1.10,106,-0.470,-0.470,-0.470,0.000,0.000,0.000
1641234945685174016,2022-01-03-18:35:45,10.1.1.10,103,-0.460,-0.460,-0.460,0.000,0.000,0.000
1641234945908109824,2022-01-03-18:35:45,10.1.1.10,125,-0.450,-0.450,-0.450,0.000,0.000,0.000
1641234946103352064,2022-01-03-18:35:46,10.1.1.10,119,-0.440,-0.440,-0.440,0.000,0.000,0.000
1641234946346540032,2022-01-03-18:35:46,10.1.1.10,161,-0.430,-0.430,-0.430,0.000,0.000,0.000
1641234946508111872,2022-01-03-18:35:46,10.1.1.10,114,-0.420,-0.420,-0.420,0.000,0.000,0.000
1641234946750892032,2022-01-03-18:35:46,10.1.1.10,144,-0.410,-0.410,-0.410,0.000,0.000,0.000
1641234946923468032,2022-01-03-18:35:46,10.1.1.10,115,-0.400,-0.400,-0.400,0.000,0.000,0.000
1641234947129057792,2022-01-03-18:35:47,10.1.1.10,120,-0.390,-0.390,-0.390,0.000,0.000,0.000
1641234947345984000,2022-01-03-18:35:47,10.1.1.10,120,-0.380,-0.380,-0.380,0.000,0.000,0.000
1641234947541467904,2022-01-03-18:35:47,10.1.1.10,114,-0.370,-0.370,-0.370,0.000,0.000,0.000
1641234947741328128,2022-01-03-18:35:47,10.1.1.10,114,-0.360,-0.360,-0.360,0.000,0.000,0.000
1641234947949073152,2022-01-03-18:35:47,10.1.1.10,114,-0.350,-0.350,-0.350,0.000,0.000,0.000
1641234948141735936,2022-01-03-18:35:48,10.1.1.10,112,-0.340,-0.340,-0.340,0.000,0.000,0.000
1641234948343033088,2022-01-03-18:35:48,10.1.1.10,112,-0.330,-0.330,-0.330,0.000,0.000,0.000
1641234948546616064,2022-01-03-18:35:48,10.1.1.10,115,-0.320,-0.320,-0.320,0.000,0.000,0.000
1641234948745265920,2022-01-03-18:35:48,10.1.1.10,113,-0.310,-0.310,-0.310,0.000,0.000,0.000
1641234948956634112,2022-01-03-18:35:48,10.1.1.10,115,-0.300,-0.300,-0.300,0.000,0.000,0.000
1641234949167377920,2022-01-03-18:35:49,10.1.1.10,115,-0.290,-0.290,-0.290,0.000,0.000,0.000
1641234949368279040,2022-01-03-18:35:49,10.1.1.10,115,-0.280,-0.280,-0.280,0.000,0.000,0.000
1641234949569634816,2022-01-03-18:35:49,10.1.1.10,110,-0.270,-0.270,-0.270,0.000,0.000,0.000
1641234949770253824,2022-01-03-18:35:49,10.1.1.10,109,-0.260,-0.260,-0.260,0.000,0.000,0.000
1641234949972947968,2022-01-03-18:35:49,10.1.1.10,110,-0.250,-0.250,-0.250,0.000,0.000,0.000
1641234950191869952,2022-01-03-18:35:50,10.1.1.10,127,-0.240,-0.240,-0.240,0.000,0.000,0.000
1641234950392685824,2022-01-03-18:35:50,10.1.1.10,127,-0.230,-0.230,-0.230,0.000,0.000,0.000
1641234950592978944,2022-01-03-18:35:50,10.1.1.10,126,-0.220,-0.220,-0.220,0.000,0.000,0.000
1641234950793847040,2022-01-03-18:35:50,10.1.1.10,126,-0.210,-0.210,-0.210,0.000,0.000,0.000
1641234950994923008,2022-01-03-18:35:50,10.1.1.10,127,-0.200,-0.200,-0.200,0.000,0.000,0.000
1641234951221285120,2022-01-03-18:35:51,10.1.1.10,148,-0.190,-0.190,-0.190,0.000,0.000,0.000
1641234951398771968,2022-01-03-18:35:51,10.1.1.10,123,-0.180,-0.180,-0.180,0.000,0.000,0.000
1641234951598187008,2022-01-03-18:35:51,10.1.1.10,121,-0.170,-0.170,-0.170,0.000,0.000,0.000
1641234951799726080,2022-01-03-18:35:51,10.1.1.10,118,-0.160,-0.160,-0.160,0.000,0.000,0.000
1641234952019980800,2022-01-03-18:35:52,10.1.1.10,134,-0.150,-0.150,-0.150,0.000,0.000,0.000
1641234952230993920,2022-01-03-18:35:52,10.1.1.10,132,-0.140,-0.140,-0.140,0.000,0.000,0.000
1641234952421460992,2022-01-03-18:35:52,10.1.1.10,122,-0.130,-0.130,-0.130,0.000,0.000,0.000
1641234952623537920,2022-01-03-18:35:52,10.1.1.10,124,-0.120,-0.120,-0.120,0.000,0.000,0.000
1641234952842665984,2022-01-03-18:35:52,10.1.1.10,140,-0.110,-0.110,-0.110,0.000,0.000,0.000
1641234953043278080,2022-01-03-18:35:53,10.1.1.10,137,-0.100,-0.100,-0.100,0.000,0.000,0.000
1641234953245328896,2022-01-03-18:35:53,10.1.1.10,136,-0.090,-0.090,-0.090,0.000,0.000,0.000
1641234953475284992,2022-01-03-18:35:53,10.1.1.10,163,-0.080,-0.080,-0.080,0.000,0.000,0.000
1641234953645349888,2022-01-03-18:35:53,10.1.1.10,131,-0.070,-0.070,-0.070,0.000,0.000,0.000
1641234953886679040,2022-01-03-18:35:53,10.1.1.10,142,-0.060,-0.060,-0.060,0.000,0.000,0.000
1641234954089116928,2022-01-03-18:35:54,10.1.1.10,144,-0.050,-0.050,-0.050,0.000,0.000,0.000
1641234954288167936,2022-01-03-18:35:54,10.1.1.10,139,-0.040,-0.040,-0.040,0.000,0.000,0.000
1641234954488460032,2022-01-03-18:35:54,10.1.1.10,139,-0.030,-0.030,-0.030,0.000,0.000,0.000
1641234954689651968,2022-01-03-18:35:54,10.1.1.10,135,-0.020,-0.020,-0.020,0.000,0.000,0.000
1641234954889477120,2022-01-03-18:35:54,10.1.1.10,135,-0.010,-0.010,-0.010,0.000,0.000,0.000
1641234955089678080,2022-01-03-18:35:55,10.1.1.10,134,0.000,0.000,0.000,0.000,0.000,0.000
1641234955291171072,2022-01-03-18:35:55,10.1.1.10,133,-0.010,-0.010,-0.010,0.000,0.000,0.000
1641234955491069952,2022-01-03-18:35:55,10.1.1.10,132,-0.020,-0.020,-0.020,0.000,0.000,0.000
1641234955759041024,2022-01-03-18:35:55,10.1.1.10,199,-0.030,-0.030,-0.030,0.000,0.000,0.000
1641234955913288960,2022-01-03-18:35:55,10.1.1.10,135,-0.040,-0.040,-0.040,0.000,0.000,0.000
1641234956133035008,2022-01-03-18:35:56,10.1.1.10,139,-0.050,-0.050,-0.050,0.000,0.000,0.000
1641234956347378944,2022-01-03-18:35:56,10.1.1.10,152,-0.060,-0.060,-0.060,0.000,0.000,0.000
1641234956554459136,2022-01-03-18:35:56,10.1.1.10,150,-0.070,-0.070,-0.070,0.000,0.000,0.000
1641234956758045952,2022-01-03-18:35:56,10.1.1.10,150,-0.080,-0.080,-0.080,0.000,0.000,0.000
1641234957018345216,2022-01-03-18:35:57,10.1.1.10,137,-0.090,-0.090,-0.090,0.000,0.000,0.000
1641234957237394944,2022-01-03-18:35:57,10.1.1.10,155,-0.100,-0.100,-0.100,0.000,0.000,0.000
1641234957436888064,2022-01-03-18:35:57,10.1.1.10,150,-0.110,-0.110,-0.110,0.000,0.000,0.000
1641234957637348864,2022-01-03-18:35:57,10.1.1.10,149,-0.120,-0.120,-0.120,0.000,0.000,0.000
1641234957836544000,2022-01-03-18:35:57,10.1.1.10,148,-0.130,-0.130,-0.130,0.000,0.000,0.000
1641234958083218176,2022-01-03-18:35:58,10.1.1.10,194,-0.140,-0.140,-0.140,0.000,0.000,0.000
1641234958238600960,2022-01-03-18:35:58,10.1.1.10,144,-0.150,-0.150,-0.150,0.000,0.000,0.000
1641234958440519168,2022-01-03-18:35:58,10.1.1.10,143,-0.160,-0.160,-0.160,0.000,0.000,0.000
1641234958641600000,2022-01-03-18:35:58,10.1.1.10,141,-0.170,-0.170,-0.170,0.000,0.000,0.000
1641234958851064064,2022-01-03-18:35:58,10.1.1.10,150,-0.180,-0.180,-0.180,0.000,0.000,0.000
1641234959041042944,2022-01-03-18:35:59,10.1.1.10,139,-0.190,-0.190,-0.190,0.000,0.000,0.000
1641234959340390912,2022-01-03-18:35:59,10.1.1.10,157,-0.200,-0.200,-0.200,0.000,0.000,0.000
1641234959540328960,2022-01-03-18:35:59,10.1.1.10,156,-0.210,-0.210,-0.210,0.000,0.000,0.000
1641234959740331008,2022-01-03-18:35:59,10.1.1.10,155,-0.220,-0.220,-0.220,0.000,0.000,0.000
1641234959941116928,2022-01-03-18:35:59,10.1.1.10,154,-0.230,-0.230,-0.230,0.000,0.000,0.000
1641234960141242112,2022-01-03-18:36:00,10.1.1.10,154,-0.240,-0.240,-0.240,0.000,0.000,0.000
1641234960354004992,2022-01-03-18:36:00,10.1.1.10,166,-0.250,-0.250,-0.250,0.000,0.000,0.000
1641234960542481920,2022-01-03-18:36:00,10.1.1.10,153,-0.260,-0.260,-0.260,0.000,0.000,0.000
1641234960742414848,2022-01-03-18:36:00,10.1.1.10,150,-0.270,-0.270,-0.270,0.000,0.000,0.000
1641234960948702976,2022-01-03-18:36:00,10.1.1.10,155,-0.280,-0.280,-0.280,0.000,0.000,0.000
1641234961142690816,2022-01-03-18:36:01,10.1.1.10,147,-0.290,-0.290,-0.290,0.000,0.000,0.000
1641234961343095040,2022-01-03-18:36:01,10.1.1.10,146,-0.300,-0.300,-0.300,0.000,0.000,0.000
1641234961543232000,2022-01-03-18:36:01,10.1.1.10,145,-0.310,-0.310,-0.310,0.000,0.000,0.000
1641234961744204032,2022-01-03-18:36:01,10.1.1.10,145,-0.320,-0.320,-0.320,0.000,0.000,0.000
1641234961944286976,2022-01-03-18:36:01,10.1.1.10,145,-0.330,-0.330,-0.330,0.000,0.000,0.000
1641234962145914112,2022-01-03-18:36:02,10.1.1.10,146,-0.340,-0.340,-0.340,0.000,0.000,0.000
1641234962344760064,2022-01-03-18:36:02,10.1.1.10,144,-0.350,-0.350,-0.350,0.000,0.000,0.000
1641234962569748992,2022-01-03-18:36:02,10.1.1.10,164,-0.360,-0.360,-0.360,0.000,0.000,0.000
1641234962764637952,2022-01-03-18:36:02,10.1.1.10,156,-0.370,-0.370,-0.370,0.000,0.000,0.000
1641234962964967936,2022-01-03-18:36:02,10.1.1.10,156,-0.380,-0.380,-0.380,0.000,0.000,0.000
1641234963174396928,2022-01-03-18:36:03,10.1.1.10,164,-0.390,-0.390,-0.390,0.000,0.000,0.000
1641234963365155072,2022-01-03-18:36:03,10.1.1.10,154,-0.400,-0.400,-0.400,0.000,0.000,0.000
1641234963565448960,2022-01-03-18:36:03,10.1.1.10,154,-0.410,-0.410,-0.410,0.000,0.000,0.000
1641234963780574208,2022-01-03-18:36:03,10.1.1.10,168,-0.420,-0.420,-0.420,0.000,0.000,0.000
1641234963970708992,2022-01-03-18:36:03,10.1.1.10,157,-0.430,-0.430,-0.430,0.000,0.000,0.000
1641234964166513920,2022-01-03-18:36:04,10.1.1.10,150,-0.440,-0.440,-0.440,0.000,0.000,0.000
1641234964370560000,2022-01-03-18:36:04,10.1.1.10,152,-0.450,-0.450,-0.450,0.000,0.000,0.000
1641234964567842048,2022-01-03-18:36:04,10.1.1.10,147,-0.460,-0.460,-0.460,0.000,0.000,0.000
1641234964766941952,2022-01-03-18:36:04,10.1.1.10,146,-0.470,-0.470,-0.470,0.000,0.000,0.000
1641234964991761920,2022-01-03-18:36:04,10.1.1.10,158,-0.480,-0.480,-0.480,0.000,0.000,0.000
1641234965209649152,2022-01-03-18:36:05,10.1.1.10,149,-0.490,-0.490,-0.490,0.000,0.000,0.000
1641234965406953984,2022-01-03-18:36:05,10.1.1.10,145,-0.480,-0.480,-0.480,0.000,0.000,0.000
1641234965637608960,2022-01-03-18:36:05,10.1.1.10,173,-0.470,-0.470,-0.470,0.000,0.000,0.000
1641234965847074048,2022-01-03-18:36:05,10.1.1.10,160,-0.460,-0.460,-0.460,0.000,0.000,0.000
1641234966060385024,2022-01-03-18:36:06,10.1.1.10,163,-0.450,-0.450,-0.450,0.000,0.000,0.000
1641234966247899136,2022-01-03-18:36:06,10.1.1.10,159,-0.440,-0.440,-0.440,0.000,0.000,0.000
1641234966447737856,2022-01-03-18:36:06,10.1.1.10,158,-0.430,-0.430,-0.430,0.000,0.000,0.000
1641234966648005888,2022-01-03-18:36:06,10.1.1.10,157,-0.420,-0.420,-0.420,0.000,0.000,0.000
1641234966848069888,2022-01-03-18:36:06,10.1.1.10,157,-0.410,-0.410,-0.410,0.000,0.000,0.000
1641234967048028928,2022-01-03-18:36:07,10.1.1.10,156,-0.400,-0.400,-0.400,0.000,0.000,0.000
1641234967250262016,2022-01-03-18:36:07,10.1.1.10,156,-0.390,-0.390,-0.390,0.000,0.000,0.000
1641234967450802176,2022-01-03-18:36:07,10.1.1.10,154,-0.380,-0.380,-0.380,0.000,0.000,0.000
1641234967648338944,2022-01-03-18:36:07,10.1.1.10,153,-0.370,-0.370,-0.370,0.000,0.000,0.000
1641234967848532992,2022-01-03-18:36:07,10.1.1.10,153,-0.360,-0.360,-0.360,0.000,0.000,0.000
1641234968048749056,2022-01-03-18:36:08,10.1.1.10,152,-0.350,-0.350,-0.350,0.000,0.000,0.000
1641234968261161984,2022-01-03-18:36:08,10.1.1.10,153,-0.340,-0.340,-0.340,0.000,0.000,0.000
1641234968468099072,2022-01-03-18:36:08,10.1.1.10,164,-0.330,-0.330,-0.330,0.000,0.000,0.000
1641234968669526016,2022-01-03-18:36:08,10.1.1.10,165,-0.320,-0.320,-0.320,0.000,0.000,0.000
1641234968869906944,2022-01-03-18:36:08,10.1.1.10,165,-0.310,-0.310,-0.310,0.000,0.000,0.000
1641234969068787968,2022-01-03-18:36:09,10.1.1.10,163,-0.300,-0.300,-0.300,0.000,0.000,0.000
1641234969273555968,2022-01-03-18:36:09,10.1.1.10,167,-0.290,-0.290,-0.290,0.000,0.000,0.000
1641234969502171904,2022-01-03-18:36:09,10.1.1.10,195,-0.280,-0.280,-0.280,0.000,0.000,0.000
1641234969670106880,2022-01-03-18:36:09,10.1.1.10,157,-0.270,-0.270,-0.270,0.000,0.000,0.000
1641234969868841984,2022-01-03-18:36:09,10.1.1.10,155,-0.260,-0.260,-0.260,0.000,0.000,0.000
1641234970068450048,2022-01-03-18:36:10,10.1.1.10,154,-0.250,-0.250,-0.250,0.000,0.000,0.000
1641234970268363008,2022-01-03-18:36:10,10.1.1.10,152,-0.240,-0.240,-0.240,0.000,0.000,0.000
1641234970475960064,2022-01-03-18:36:10,10.1.1.10,152,-0.230,-0.230,-0.230,0.000,0.000,0.000
1641234970668375040,2022-01-03-18:36:10,10.1.1.10,151,-0.220,-0.220,-0.220,0.000,0.000,0.000
1641234970868809984,2022-01-03-18:36:10,10.1.1.10,151,-0.210,-0.210,-0.210,0.000,0.000,0.000
1641234971067892992,2022-01-03-18:36:11,10.1.1.10,149,-0.200,-0.200,-0.200,0.000,0.000,0.000
1641234971268375040,2022-01-03-18:36:11,10.1.1.10,148,-0.190,-0.190,-0.190,0.000,0.000,0.000
1641234971468743168,2022-01-03-18:36:11,10.1.1.10,147,-0.180,-0.180,-0.180,0.000,0.000,0.000
1641234971689872896,2022-01-03-18:36:11,10.1.1.10,167,-0.170,-0.170,-0.170,0.000,0.000,0.000
1641234971888323072,2022-01-03-18:36:11,10.1.1.10,165,-0.160,-0.160,-0.160,0.000,0.000,0.000
1641234972088249088,2022-01-03-18:36:12,10.1.1.10,164,-0.150,-0.150,-0.150,0.000,0.000,0.000
1641234972288315904,2022-01-03-18:36:12,10.1.1.10,164,-0.140,-0.140,-0.140,0.000,0.000,0.000
1641234972487922944,2022-01-03-18:36:12,10.1.1.10,162,-0.130,-0.130,-0.130,0.000,0.000,0.000
1641234972698172928,2022-01-03-18:36:12,10.1.1.10,172,-0.120,-0.120,-0.120,0.000,0.000,0.000
1641234972908292096,2022-01-03-18:36:12,10.1.1.10,153,-0.110,-0.110,-0.110,0.000,0.000,0.000
1641234973129062912,2022-01-03-18:36:13,10.1.1.10,165,-0.100,-0.100,-0.100,0.000,0.000,0.000
1641234973329916928,2022-01-03-18:36:13,10.1.1.10,165,-0.090,-0.090,-0.090,0.000,0.000,0.000
1641234973528204032,2022-01-03-18:36:13,10.1.1.10,163,-0.080,-0.080,-0.080,0.000,0.000,0.000
1641234973729420032,2022-01-03-18:36:13,10.1.1.10,164,-0.070,-0.070,-0.070,0.000,0.000,0.000
1641234973935288064,2022-01-03-18:36:13,10.1.1.10,169,-0.060,-0.060,-0.060,0.000,0.000,0.000
1641234974128581888,2022-01-03-18:36:14,10.1.1.10,158,-0.050,-0.050,-0.050,0.000,0.000,0.000
1641234974327806976,2022-01-03-18:36:14,10.1.1.10,156,-0.040,-0.040,-0.040,0.000,0.000,0.000
1641234974526766080,2022-01-03-18:36:14,10.1.1.10,155,-0.030,-0.030,-0.030,0.000,0.000,0.000
1641234974728535040,2022-01-03-18:36:14,10.1.1.10,156,-0.020,-0.020,-0.020,0.000,0.000,0.000
1641234974927870976,2022-01-03-18:36:14,10.1.1.10,155,-0.010,-0.010,-0.010,0.000,0.000,0.000
1641234975127895040,2022-01-03-18:36:15,10.1.1.10,145,-0.000,-0.000,-0.000,0.000,0.000,0.000
1641234975348731904,2022-01-03-18:36:15,10.1.1.10,164,-0.010,-0.010,-0.010,0.000,0.000,0.000
1641234975547468032,2022-01-03-18:36:15,10.1.1.10,162,-0.020,-0.020,-0.020,0.000,0.000,0.000
1641234975748045056,2022-01-03-18:36:15,10.1.1.10,161,-0.030,-0.030,-0.030,0.000,0.000,0.000
1641234975948942848,2022-01-03-18:36:15,10.1.1.10,162,-0.040,-0.040,-0.040,0.000,0.000,0.000
1641234976166407936,2022-01-03-18:36:16,10.1.1.10,174,-0.050,-0.050,-0.050,0.000,0.000,0.000
1641234976367211008,2022-01-03-18:36:16,10.1.1.10,163,-0.060,-0.060,-0.060,0.000,0.000,0.000
1641234976566001920,2022-01-03-18:36:16,10.1.1.10,158,-0.070,-0.070,-0.070,0.000,0.000,0.000
1641234976777218048,2022-01-03-18:36:16,10.1.1.10,167,-0.080,-0.080,-0.080,0.000,0.000,0.000
1641234976964229120,2022-01-03-18:36:16,10.1.1.10,145,-0.090,-0.090,-0.090,0.000,0.000,0.000
1641234977166588160,2022-01-03-18:36:17,10.1.1.10,146,-0.100,-0.100,-0.100,0.000,0.000,0.000
1641234977387428096,2022-01-03-18:36:17,10.1.1.10,151,-0.110,-0.110,-0.110,0.000,0.000,0.000
1641234977586513152,2022-01-03-18:36:17,10.1.1.10,147,-0.120,-0.120,-0.120,0.000,0.000,0.000
1641234977786166784,2022-01-03-18:36:17,10.1.1.10,147,-0.130,-0.130,-0.130,0.000,0.000,0.000
1641234977986007808,2022-01-03-18:36:17,10.1.1.10,147,-0.140,-0.140,-0.140,0.000,0.000,0.000
1641234978183547904,2022-01-03-18:36:18,10.1.1.10,144,-0.150,-0.150,-0.150,0.000,0.000,0.000
1641234978603518976,2022-01-03-18:36:18,10.1.1.10,160,-0.170,-0.170,-0.170,0.000,0.000,0.000
1641234978805140992,2022-01-03-18:36:18,10.1.1.10,161,-0.180,-0.180,-0.180,0.000,0.000,0.000
1641234979008937984,2022-01-03-18:36:19,10.1.1.10,163,-0.190,-0.190,-0.190,0.000,0.000,0.000
1641234979205952768,2022-01-03-18:36:19,10.1.1.10,159,-0.200,-0.200,-0.200,0.000,0.000,0.000
1641234979405174016,2022-01-03-18:36:19,10.1.1.10,157,-0.210,-0.210,-0.210,0.000,0.000,0.000
1641234979655942912,2022-01-03-18:36:19,10.1.1.10,207,-0.220,-0.220,-0.220,0.000,0.000,0.000
1641234979806786048,2022-01-03-18:36:19,10.1.1.10,150,-0.230,-0.230,-0.230,0.000,0.000,0.000
1641234980003591936,2022-01-03-18:36:20,10.1.1.10,146,-0.240,-0.240,-0.240,0.000,0.000,0.000
1641234980206603008,2022-01-03-18:36:20,10.1.1.10,148,-0.250,-0.250,-0.250,0.000,0.000,0.000
1641234980425519872,2022-01-03-18:36:20,10.1.1.10,165,-0.260,-0.260,-0.260,0.000,0.000,0.000
1641234980624850944,2022-01-03-18:36:20,10.1.1.10,163,-0.270,-0.270,-0.270,0.000,0.000,0.000
1641234980826326016,2022-01-03-18:36:20,10.1.1.10,163,-0.280,-0.280,-0.280,0.000,0.000,0.000
1641234981024976128,2022-01-03-18:36:21,10.1.1.10,160,-0.290,-0.290,-0.290,0.000,0.000,0.000
1641234981225587968,2022-01-03-18:36:21,10.1.1.10,160,-0.300,-0.300,-0.300,0.000,0.000,0.000
1641234981453764864,2022-01-03-18:36:21,10.1.1.10,185,-0.310,-0.310,-0.310,0.000,0.000,0.000
1641234981640655104,2022-01-03-18:36:21,10.1.1.10,148,-0.320,-0.320,-0.320,0.000,0.000,0.000
1641234981867783168,2022-01-03-18:36:21,10.1.1.10,174,-0.330,-0.330,-0.330,0.000,0.000,0.000
1641234982040141056,2022-01-03-18:36:22,10.1.1.10,145,-0.340,-0.340,-0.340,0.000,0.000,0.000
1641234982240322048,2022-01-03-18:36:22,10.1.1.10,144,-0.350,-0.350,-0.350,0.000,0.000,0.000
1641234982439943168,2022-01-03-18:36:22,10.1.1.10,142,-0.360,-0.360,-0.360,0.000,0.000,0.000
1641234982639926016,2022-01-03-18:36:22,10.1.1.10,142,-0.370,-0.370,-0.370,0.000,0.000,0.000
1641234982839278848,2022-01-03-18:36:22,10.1.1.10,140,-0.380,-0.380,-0.380,0.000,0.000,0.000
1641234983073020928,2022-01-03-18:36:23,10.1.1.10,169,-0.390,-0.390,-0.390,0.000,0.000,0.000
1641234983260034048,2022-01-03-18:36:23,10.1.1.10,156,-0.400,-0.400,-0.400,0.000,0.000,0.000
1641234983459057152,2022-01-03-18:36:23,10.1.1.10,154,-0.410,-0.410,-0.410,0.000,0.000,0.000
1641234983658948864,2022-01-03-18:36:23,10.1.1.10,153,-0.420,-0.420,-0.420,0.000,0.000,0.000
1641234983880218112,2022-01-03-18:36:23,10.1.1.10,154,-0.430,-0.430,-0.430,0.000,0.000,0.000
1641234984279191040,2022-01-03-18:36:24,10.1.1.10,139,-0.450,-0.450,-0.450,0.000,0.000,0.000
1641234984500854016,2022-01-03-18:36:24,10.1.1.10,160,-0.460,-0.460,-0.460,0.000,0.000,0.000
1641234984698918144,2022-01-03-18:36:24,10.1.1.10,157,-0.470,-0.470,-0.470,0.000,0.000,0.000
1641234984897366016,2022-01-03-18:36:24,10.1.1.10,154,-0.480,-0.480,-0.480,0.000,0.000,0.000
1641234985097497856,2022-01-03-18:36:25,10.1.1.10,153,-0.490,-0.490,-0.490,0.000,0.000,0.000
1641234985302213888,2022-01-03-18:36:25,10.1.1.10,156,-0.480,-0.480,-0.480,0.000,0.000,0.000
1641234985497553152,2022-01-03-18:36:25,10.1.1.10,151,-0.470,-0.470,-0.470,0.000,0.000,0.000
1641234985697216000,2022-01-03-18:36:25,10.1.1.10,150,-0.460,-0.460,-0.460,0.000,0.000,0.000
1641234985900286976,2022-01-03-18:36:25,10.1.1.10,152,-0.450,-0.450,-0.450,0.000,0.000,0.000
1641234986100845056,2022-01-03-18:36:26,10.1.1.10,153,-0.440,-0.440,-0.440,0.000,0.000,0.000
1641234986305675008,2022-01-03-18:36:26,10.1.1.10,157,-0.430,-0.430,-0.430,0.000,0.000,0.000
1641234986498241024,2022-01-03-18:36:26,10.1.1.10,148,-0.420,-0.420,-0.420,0.000,0.000,0.000
1641234986697387008,2022-01-03-18:36:26,10.1.1.10,146,-0.410,-0.410,-0.410,0.000,0.000,0.000
1641234986894910208,2022-01-03-18:36:26,10.1.1.10,143,-0.400,-0.400,-0.400,0.000,0.000,0.000
1641234987095315968,2022-01-03-18:36:27,10.1.1.10,142,-0.390,-0.390,-0.390,0.000,0.000,0.000
1641234987296508160,2022-01-03-18:36:27,10.1.1.10,142,-0.380,-0.380,-0.380,0.000,0.000,0.000
1641234987517947904,2022-01-03-18:36:27,10.1.1.10,141,-0.370,-0.370,-0.370,0.000,0.000,0.000
1641234987698008064,2022-01-03-18:36:27,10.1.1.10,137,-0.360,-0.360,-0.360,0.000,0.000,0.000
1641234987914136832,2022-01-03-18:36:27,10.1.1.10,153,-0.350,-0.350,-0.350,0.000,0.000,0.000
1641234988116496128,2022-01-03-18:36:28,10.1.1.10,155,-0.340,-0.340,-0.340,0.000,0.000,0.000
1641234988315581952,2022-01-03-18:36:28,10.1.1.10,152,-0.330,-0.330,-0.330,0.000,0.000,0.000
1641234988513936128,2022-01-03-18:36:28,10.1.1.10,147,-0.320,-0.320,-0.320,0.000,0.000,0.000
1641234988714447872,2022-01-03-18:36:28,10.1.1.10,146,-0.310,-0.310,-0.310,0.000,0.000,0.000
1641234988912638976,2022-01-03-18:36:28,10.1.1.10,140,-0.300,-0.300,-0.300,0.000,0.000,0.000
1641234989112766976,2022-01-03-18:36:29,10.1.1.10,140,-0.290,-0.290,-0.290,0.000,0.000,0.000
1641234989312550912,2022-01-03-18:36:29,10.1.1.10,138,-0.280,-0.280,-0.280,0.000,0.000,0.000
1641234989511784960,2022-01-03-18:36:29,10.1.1.10,136,-0.270,-0.270,-0.270,0.000,0.000,0.000
1641234989719214080,2022-01-03-18:36:29,10.1.1.10,142,-0.260,-0.260,-0.260,0.000,0.000,0.000
1641234989942547968,2022-01-03-18:36:29,10.1.1.10,155,-0.250,-0.250,-0.250,0.000,0.000,0.000
1641234990132600064,2022-01-03-18:36:30,10.1.1.10,143,-0.240,-0.240,-0.240,0.000,0.000,0.000
1641234990333297920,2022-01-03-18:36:30,10.1.1.10,144,-0.230,-0.230,-0.230,0.000,0.000,0.000
1641234990561992960,2022-01-03-18:36:30,10.1.1.10,172,-0.220,-0.220,-0.220,0.000,0.000,0.000
1641234990753645056,2022-01-03-18:36:30,10.1.1.10,154,-0.210,-0.210,-0.210,0.000,0.000,0.000
1641234990958328064,2022-01-03-18:36:30,10.1.1.10,153,-0.200,-0.200,-0.200,0.000,0.000,0.000
1641234991158878976,2022-01-03-18:36:31,10.1.1.10,157,-0.190,-0.190,-0.190,0.000,0.000,0.000
1641234991349455104,2022-01-03-18:36:31,10.1.1.10,147,-0.180,-0.180,-0.180,0.000,0.000,0.000
1641234991550077952,2022-01-03-18:36:31,10.1.1.10,147,-0.170,-0.170,-0.170,0.000,0.000,0.000
1641234991749733888,2022-01-03-18:36:31,10.1.1.10,146,-0.160,-0.160,-0.160,0.000,0.000,0.000
1641234991969299200,2022-01-03-18:36:31,10.1.1.10,162,-0.150,-0.150,-0.150,0.000,0.000,0.000
1641234992170136064,2022-01-03-18:36:32,10.1.1.10,142,-0.140,-0.140,-0.140,0.000,0.000,0.000
1641234992368481024,2022-01-03-18:36:32,10.1.1.10,139,-0.130,-0.130,-0.130,0.000,0.000,0.000
1641234992573270016,2022-01-03-18:36:32,10.1.1.10,143,-0.120,-0.120,-0.120,0.000,0.000,0.000
1641234992767821056,2022-01-03-18:36:32,10.1.1.10,136,-0.110,-0.110,-0.110,0.000,0.000,0.000
1641234992967938048,2022-01-03-18:36:32,10.1.1.10,136,-0.100,-0.100,-0.100,0.000,0.000,0.000
1641234993208761088,2022-01-03-18:36:33,10.1.1.10,175,-0.090,-0.090,-0.090,0.000,0.000,0.000
1641234993368361984,2022-01-03-18:36:33,10.1.1.10,133,-0.080,-0.080,-0.080,0.000,0.000,0.000
1641234993568073984,2022-01-03-18:36:33,10.1.1.10,131,-0.070,-0.070,-0.070,0.000,0.000,0.000
1641234993767513088,2022-01-03-18:36:33,10.1.1.10,130,-0.060,-0.060,-0.060,0.000,0.000,0.000
1641234993968836096,2022-01-03-18:36:33,10.1.1.10,130,-0.050,-0.050,-0.050,0.000,0.000,0.000
1641234994407201024,2022-01-03-18:36:34,10.1.1.10,129,-0.030,-0.030,-0.030,0.000,0.000,0.000
1641234994612254976,2022-01-03-18:36:34,10.1.1.10,133,-0.020,-0.020,-0.020,0.000,0.000,0.000
1641234994809714944,2022-01-03-18:36:34,10.1.1.10,130,-0.010,-0.010,-0.010,0.000,0.000,0.000
1641234995032668160,2022-01-03-18:36:35,10.1.1.10,146,0.000,0.000,0.000,0.000,0.000,0.000
1641234995244990976,2022-01-03-18:36:35,10.1.1.10,142,-0.010,-0.010,-0.010,0.000,0.000,0.000
1641234995651415040,2022-01-03-18:36:35,10.1.1.10,141,-0.030,-0.030,-0.030,0.000,0.000,0.000
1641234995846705920,2022-01-03-18:36:35,10.1.1.10,135,-0.040,-0.040,-0.040,0.000,0.000,0.000
1641234996045945856,2022-01-03-18:36:36,10.1.1.10,133,-0.050,-0.050,-0.050,0.000,0.000,0.000
1641234996245155072,2022-01-03-18:36:36,10.1.1.10,132,-0.060,-0.060,-0.060,0.000,0.000,0.000
1641234996445779200,2022-01-03-18:36:36,10.1.1.10,132,-0.070,-0.070,-0.070,0.000,0.000,0.000
1641234996663160064,2022-01-03-18:36:36,10.1.1.10,141,-0.080,-0.080,-0.080,0.000,0.000,0.000
1641234996862895872,2022-01-03-18:36:36,10.1.1.10,140,-0.090,-0.090,-0.090,0.000,0.000,0.000
1641234997061958144,2022-01-03-18:36:37,10.1.1.10,138,-0.100,-0.100,-0.100,0.000,0.000,0.000
1641234997265243136,2022-01-03-18:36:37,10.1.1.10,141,-0.110,-0.110,-0.110,0.000,0.000,0.000
1641234997464276992,2022-01-03-18:36:37,10.1.1.10,138,-0.120,-0.120,-0.120,0.000,0.000,0.000
1641234997732988160,2022-01-03-18:36:37,10.1.1.10,206,-0.130,-0.130,-0.130,0.000,0.000,0.000
1641234997865406976,2022-01-03-18:36:37,10.1.1.10,132,-0.140,-0.140,-0.140,0.000,0.000,0.000
1641234998062501888,2022-01-03-18:36:38,10.1.1.10,128,-0.150,-0.150,-0.150,0.000,0.000,0.000
1641234998269007872,2022-01-03-18:36:38,10.1.1.10,134,-0.160,-0.160,-0.160,0.000,0.000,0.000
1641234998463216896,2022-01-03-18:36:38,10.1.1.10,127,-0.170,-0.170,-0.170,0.000,0.000,0.000
1641234998665502976,2022-01-03-18:36:38,10.1.1.10,127,-0.180,-0.180,-0.180,0.000,0.000,0.000
1641234998962352896,2022-01-03-18:36:38,10.1.1.10,136,-0.190,-0.190,-0.190,0.000,0.000,0.000
1641234999163331072,2022-01-03-18:36:39,10.1.1.10,136,-0.200,-0.200,-0.200,0.000,0.000,0.000
1641234999359008000,2022-01-03-18:36:39,10.1.1.10,131,-0.210,-0.210,-0.210,0.000,0.000,0.000
1641234999564697856,2022-01-03-18:36:39,10.1.1.10,136,-0.220,-0.220,-0.220,0.000,0.000,0.000
1641234999758759936,2022-01-03-18:36:39,10.1.1.10,129,-0.230,-0.230,-0.230,0.000,0.000,0.000
1641234999962548992,2022-01-03-18:36:39,10.1.1.10,131,-0.240,-0.240,-0.240,0.000,0.000,0.000
1641235000160407040,2022-01-03-18:36:40,10.1.1.10,127,-0.250,-0.250,-0.250,0.000,0.000,0.000
1641235000357701120,2022-01-03-18:36:40,10.1.1.10,123,-0.260,-0.260,-0.260,0.000,0.000,0.000
1641235000557135104,2022-01-03-18:36:40,10.1.1.10,122,-0.270,-0.270,-0.270,0.000,0.000,0.000
1641235000756900096,2022-01-03-18:36:40,10.1.1.10,120,-0.280,-0.280,-0.280,0.000,0.000,0.000
1641235000973850112,2022-01-03-18:36:40,10.1.1.10,136,-0.290,-0.290,-0.290,0.000,0.000,0.000
1641235001176091904,2022-01-03-18:36:41,10.1.1.10,135,-0.300,-0.300,-0.300,0.000,0.000,0.000
1641235001376120064,2022-01-03-18:36:41,10.1.1.10,134,-0.310,-0.310,-0.310,0.000,0.000,0.000
1641235001575892992,2022-01-03-18:36:41,10.1.1.10,132,-0.320,-0.320,-0.320,0.000,0.000,0.000
1641235001778418944,2022-01-03-18:36:41,10.1.1.10,133,-0.330,-0.330,-0.330,0.000,0.000,0.000
1641235001978043136,2022-01-03-18:36:41,10.1.1.10,131,-0.340,-0.340,-0.340,0.000,0.000,0.000
1641235002175353088,2022-01-03-18:36:42,10.1.1.10,125,-0.350,-0.350,-0.350,0.000,0.000,0.000
1641235002374612992,2022-01-03-18:36:42,10.1.1.10,122,-0.360,-0.360,-0.360,0.000,0.000,0.000
1641235002575380992,2022-01-03-18:36:42,10.1.1.10,121,-0.370,-0.370,-0.370,0.000,0.000,0.000
1641235002779696896,2022-01-03-18:36:42,10.1.1.10,125,-0.380,-0.380,-0.380,0.000,0.000,0.000
1641235002975619072,2022-01-03-18:36:42,10.1.1.10,119,-0.390,-0.390,-0.390,0.000,0.000,0.000
1641235003395802880,2022-01-03-18:36:43,10.1.1.10,136,-0.410,-0.410,-0.410,0.000,0.000,0.000
1641235003592888064,2022-01-03-18:36:43,10.1.1.10,131,-0.420,-0.420,-0.420,0.000,0.000,0.000
1641235003794667008,2022-01-03-18:36:43,10.1.1.10,132,-0.430,-0.430,-0.430,0.000,0.000,0.000
1641235003992477952,2022-01-03-18:36:43,10.1.1.10,129,-0.440,-0.440,-0.440,0.000,0.000,0.000
1641235004191950080,2022-01-03-18:36:44,10.1.1.10,125,-0.450,-0.450,-0.450,0.000,0.000,0.000
1641235004401272064,2022-01-03-18:36:44,10.1.1.10,134,-0.460,-0.460,-0.460,0.000,0.000,0.000
1641235004592078080,2022-01-03-18:36:44,10.1.1.10,115,-0.470,-0.470,-0.470,0.000,0.000,0.000
1641235004790736896,2022-01-03-18:36:44,10.1.1.10,112,-0.480,-0.480,-0.480,0.000,0.000,0.000
1641235004991565056,2022-01-03-18:36:44,10.1.1.10,112,-0.490,-0.490,-0.490,0.000,0.000,0.000
1641235005210272000,2022-01-03-18:36:45,10.1.1.10,128,-0.480,-0.480,-0.480,0.000,0.000,0.000
1641235005410588928,2022-01-03-18:36:45,10.1.1.10,127,-0.470,-0.470,-0.470,0.000,0.000,0.000
1641235005677391104,2022-01-03-18:36:45,10.1.1.10,150,-0.460,-0.460,-0.460,0.000,0.000,0.000
1641235005809669120,2022-01-03-18:36:45,10.1.1.10,120,-0.450,-0.450,-0.450,0.000,0.000,0.000
1641235005890573056,2022-01-03-18:36:45,10.1.1.10,-1,-0.450,-0.450,-0.450,0.000,0.000,0.000
1641235006210264064,2022-01-03-18:36:46,10.1.1.10,119,-0.430,-0.430,-0.430,0.000,0.000,0.000
1641235006427602944,2022-01-03-18:36:46,10.1.1.10,136,-0.420,-0.420,-0.420,0.000,0.000,0.000
1641235006608067072,2022-01-03-18:36:46,10.1.1.10,116,-0.410,-0.410,-0.410,0.000,0.000,0.000
1641235006808907008,2022-01-03-18:36:46,10.1.1.10,114,-0.400,-0.400,-0.400,0.000,0.000,0.000
1641235007007340800,2022-01-03-18:36:47,10.1.1.10,107,-0.390,-0.390,-0.390,0.000,0.000,0.000
1641235007229052160,2022-01-03-18:36:47,10.1.1.10,127,-0.380,-0.380,-0.380,0.000,0.000,0.000
1641235007427249920,2022-01-03-18:36:47,10.1.1.10,125,-0.370,-0.370,-0.370,0.000,0.000,0.000
1641235007626301952,2022-01-03-18:36:47,10.1.1.10,123,-0.360,-0.360,-0.360,0.000,0.000,0.000
1641235007835251968,2022-01-03-18:36:47,10.1.1.10,131,-0.350,-0.350,-0.350,0.000,0.000,0.000
1641235008025921024,2022-01-03-18:36:48,10.1.1.10,120,-0.340,-0.340,-0.340,0.000,0.000,0.000
1641235008225869824,2022-01-03-18:36:48,10.1.1.10,118,-0.330,-0.330,-0.330,0.000,0.000,0.000
1641235008433768960,2022-01-03-18:36:48,10.1.1.10,125,-0.320,-0.320,-0.320,0.000,0.000,0.000
1641235008627659008,2022-01-03-18:36:48,10.1.1.10,117,-0.310,-0.310,-0.310,0.000,0.000,0.000
1641235008824690176,2022-01-03-18:36:48,10.1.1.10,114,-0.300,-0.300,-0.300,0.000,0.000,0.000
1641235009039334144,2022-01-03-18:36:49,10.1.1.10,127,-0.290,-0.290,-0.290,0.000,0.000,0.000
1641235009225358080,2022-01-03-18:36:49,10.1.1.10,112,-0.280,-0.280,-0.280,0.000,0.000,0.000
1641235009423950848,2022-01-03-18:36:49,10.1.1.10,109,-0.270,-0.270,-0.270,0.000,0.000,0.000
1641235009625143040,2022-01-03-18:36:49,10.1.1.10,109,-0.260,-0.260,-0.260,0.000,0.000,0.000
1641235009825679104,2022-01-03-18:36:49,10.1.1.10,108,-0.250,-0.250,-0.250,0.000,0.000,0.000
1641235010023876864,2022-01-03-18:36:50,10.1.1.10,105,-0.240,-0.240,-0.240,0.000,0.000,0.000
1641235010247824896,2022-01-03-18:36:50,10.1.1.10,125,-0.230,-0.230,-0.230,0.000,0.000,0.000
1641235010443985920,2022-01-03-18:36:50,10.1.1.10,116,-0.220,-0.220,-0.220,0.000,0.000,0.000
1641235010641732096,2022-01-03-18:36:50,10.1.1.10,113,-0.210,-0.210,-0.210,0.000,0.000,0.000
1641235010843158016,2022-01-03-18:36:50,10.1.1.10,112,-0.200,-0.200,-0.200,0.000,0.000,0.000
1641235011049022976,2022-01-03-18:36:51,10.1.1.10,119,-0.190,-0.190,-0.190,0.000,0.000,0.000
1641235011283459072,2022-01-03-18:36:51,10.1.1.10,153,-0.180,-0.180,-0.180,0.000,0.000,0.000
1641235011483240960,2022-01-03-18:36:51,10.1.1.10,125,-0.170,-0.170,-0.170,0.000,0.000,0.000
1641235011641004032,2022-01-03-18:36:51,10.1.1.10,108,-0.160,-0.160,-0.160,0.000,0.000,0.000
1641235011840014848,2022-01-03-18:36:51,10.1.1.10,106,-0.150,-0.150,-0.150,0.000,0.000,0.000
1641235012039585024,2022-01-03-18:36:52,10.1.1.10,105,-0.140,-0.140,-0.140,0.000,0.000,0.000
1641235012241660160,2022-01-03-18:36:52,10.1.1.10,106,-0.130,-0.130,-0.130,0.000,0.000,0.000
1641235012446715136,2022-01-03-18:36:52,10.1.1.10,104,-0.120,-0.120,-0.120,0.000,0.000,0.000
1641235012646873856,2022-01-03-18:36:52,10.1.1.10,109,-0.110,-0.110,-0.110,0.000,0.000,0.000
1641235012841008896,2022-01-03-18:36:52,10.1.1.10,102,-0.100,-0.100,-0.100,0.000,0.000,0.000
1641235013043084032,2022-01-03-18:36:53,10.1.1.10,104,-0.090,-0.090,-0.090,0.000,0.000,0.000
1641235013272505088,2022-01-03-18:36:53,10.1.1.10,131,-0.080,-0.080,-0.080,0.000,0.000,0.000
1641235013461144064,2022-01-03-18:36:53,10.1.1.10,116,-0.070,-0.070,-0.070,0.000,0.000,0.000
1641235013699621888,2022-01-03-18:36:53,10.1.1.10,154,-0.060,-0.060,-0.060,0.000,0.000,0.000
1641235013864794880,2022-01-03-18:36:53,10.1.1.10,118,-0.050,-0.050,-0.050,0.000,0.000,0.000
1641235014064811008,2022-01-03-18:36:54,10.1.1.10,117,-0.040,-0.040,-0.040,0.000,0.000,0.000
1641235014266853120,2022-01-03-18:36:54,10.1.1.10,118,-0.030,-0.030,-0.030,0.000,0.000,0.000
1641235014465817088,2022-01-03-18:36:54,10.1.1.10,116,-0.020,-0.020,-0.020,0.000,0.000,0.000
1641235014665803008,2022-01-03-18:36:54,10.1.1.10,116,-0.010,-0.010,-0.010,0.000,0.000,0.000
1641235014895674880,2022-01-03-18:36:54,10.1.1.10,131,0.000,0.000,0.000,0.000,0.000,0.000
1641235015108856832,2022-01-03-18:36:55,10.1.1.10,109,-0.010,-0.010,-0.010,0.000,0.000,0.000
1641235015333116160,2022-01-03-18:36:55,10.1.1.10,133,-0.020,-0.020,-0.020,0.000,0.000,0.000
1641235015544083968,2022-01-03-18:36:55,10.1.1.10,142,-0.030,-0.030,-0.030,0.000,0.000,0.000
1641235015730925056,2022-01-03-18:36:55,10.1.1.10,127,-0.040,-0.040,-0.040,0.000,0.000,0.000
1641235015939033088,2022-01-03-18:36:55,10.1.1.10,130,-0.050,-0.050,-0.050,0.000,0.000,0.000
1641235016135921920,2022-01-03-18:36:56,10.1.1.10,129,-0.060,-0.060,-0.060,0.000,0.000,0.000
1641235016336683008,2022-01-03-18:36:56,10.1.1.10,126,-0.070,-0.070,-0.070,0.000,0.000,0.000
1641235016535183872,2022-01-03-18:36:56,10.1.1.10,122,-0.080,-0.080,-0.080,0.000,0.000,0.000
1641235016741542144,2022-01-03-18:36:56,10.1.1.10,127,-0.090,-0.090,-0.090,0.000,0.000,0.000
1641235016938724096,2022-01-03-18:36:56,10.1.1.10,123,-0.100,-0.100,-0.100,0.000,0.000,0.000
1641235017142530048,2022-01-03-18:36:57,10.1.1.10,120,-0.110,-0.110,-0.110,0.000,0.000,0.000
1641235017357847808,2022-01-03-18:36:57,10.1.1.10,137,-0.120,-0.120,-0.120,0.000,0.000,0.000
1641235017558887936,2022-01-03-18:36:57,10.1.1.10,137,-0.130,-0.130,-0.130,0.000,0.000,0.000
1641235017760393984,2022-01-03-18:36:57,10.1.1.10,138,-0.140,-0.140,-0.140,0.000,0.000,0.000
1641235017950947072,2022-01-03-18:36:57,10.1.1.10,128,-0.150,-0.150,-0.150,0.000,0.000,0.000
1641235018171961088,2022-01-03-18:36:58,10.1.1.10,142,-0.160,-0.160,-0.160,0.000,0.000,0.000
1641235018361933056,2022-01-03-18:36:58,10.1.1.10,135,-0.170,-0.170,-0.170,0.000,0.000,0.000
1641235018581959936,2022-01-03-18:36:58,10.1.1.10,142,-0.180,-0.180,-0.180,0.000,0.000,0.000
1641235018783107072,2022-01-03-18:36:58,10.1.1.10,142,-0.190,-0.190,-0.190,0.000,0.000,0.000
1641235018983504896,2022-01-03-18:36:58,10.1.1.10,138,-0.200,-0.200,-0.200,0.000,0.000,0.000
1641235019184130816,2022-01-03-18:36:59,10.1.1.10,138,-0.210,-0.210,-0.210,0.000,0.000,0.000
1641235019410777088,2022-01-03-18:36:59,10.1.1.10,164,-0.220,-0.220,-0.220,0.000,0.000,0.000
1641235019591269888,2022-01-03-18:36:59,10.1.1.10,142,-0.230,-0.230,-0.230,0.000,0.000,0.000
1641235019789601024,2022-01-03-18:36:59,10.1.1.10,139,-0.240,-0.240,-0.240,0.000,0.000,0.000
1641235019987281920,2022-01-03-18:36:59,10.1.1.10,137,-0.250,-0.250,-0.250,0.000,0.000,0.000
1641235020226234880,2022-01-03-18:37:00,10.1.1.10,173,-0.260,-0.260,-0.260,0.000,0.000,0.000
1641235020411004160,2022-01-03-18:37:00,10.1.1.10,149,-0.270,-0.270,-0.270,0.000,0.000,0.000
1641235020615560960,2022-01-03-18:37:00,10.1.1.10,138,-0.280,-0.280,-0.280,0.000,0.000,0.000
1641235020850498816,2022-01-03-18:37:00,10.1.1.10,132,-0.290,-0.290,-0.290,0.000,0.000,0.000
1641235021050543104,2022-01-03-18:37:01,10.1.1.10,132,-0.300,-0.300,-0.300,0.000,0.000,0.000
1641235021253100032,2022-01-03-18:37:01,10.1.1.10,134,-0.310,-0.310,-0.310,0.000,0.000,0.000
1641235021472399104,2022-01-03-18:37:01,10.1.1.10,148,-0.320,-0.320,-0.320,0.000,0.000,0.000
1641235021699624960,2022-01-03-18:37:01,10.1.1.10,175,-0.330,-0.330,-0.330,0.000,0.000,0.000
1641235021874568960,2022-01-03-18:37:01,10.1.1.10,149,-0.340,-0.340,-0.340,0.000,0.000,0.000
1641235022072238848,2022-01-03-18:37:02,10.1.1.10,145,-0.350,-0.350,-0.350,0.000,0.000,0.000
1641235022272877056,2022-01-03-18:37:02,10.1.1.10,145,-0.360,-0.360,-0.360,0.000,0.000,0.000
1641235022492985088,2022-01-03-18:37:02,10.1.1.10,149,-0.370,-0.370,-0.370,0.000,0.000,0.000
1641235022693661952,2022-01-03-18:37:02,10.1.1.10,148,-0.380,-0.380,-0.380,0.000,0.000,0.000
1641235022894073088,2022-01-03-18:37:02,10.1.1.10,145,-0.390,-0.390,-0.390,0.000,0.000,0.000
1641235023093967872,2022-01-03-18:37:03,10.1.1.10,144,-0.400,-0.400,-0.400,0.000,0.000,0.000
1641235023294932992,2022-01-03-18:37:03,10.1.1.10,141,-0.410,-0.410,-0.410,0.000,0.000,0.000
1641235023495215872,2022-01-03-18:37:03,10.1.1.10,141,-0.420,-0.420,-0.420,0.000,0.000,0.000
1641235023698204160,2022-01-03-18:37:03,10.1.1.10,143,-0.430,-0.430,-0.430,0.000,0.000,0.000
1641235023909590016,2022-01-03-18:37:03,10.1.1.10,153,-0.440,-0.440,-0.440,0.000,0.000,0.000
1641235024095868160,2022-01-03-18:37:04,10.1.1.10,139,-0.450,-0.450,-0.450,0.000,0.000,0.000
1641235024296616192,2022-01-03-18:37:04,10.1.1.10,139,-0.460,-0.460,-0.460,0.000,0.000,0.000
1641235024497707008,2022-01-03-18:37:04,10.1.1.10,139,-0.470,-0.470,-0.470,0.000,0.000,0.000
1641235024718646016,2022-01-03-18:37:04,10.1.1.10,158,-0.480,-0.480,-0.480,0.000,0.000,0.000
