FedericoMungari/DigitalTwin_service/01_WiredScenario/Output/Output_script/script_rosapi_2_output_robots8_freq0_5.txt
timestamp,date,node,latency,joint_1,joint_2,joint_3,joint_4,joint_5,joint_6
1644915518962302976,2022-02-15-08:58:38,10.1.1.6,12,-0.100,-0.100,-0.100,-0.000,0.000,0.000
1644915519122728192,2022-02-15-08:58:39,10.1.1.6,19,-0.070,-0.070,-0.070,0.000,0.000,0.000
1644915519183276032,2022-02-15-08:58:39,10.1.1.6,29,-0.060,-0.060,-0.060,0.000,0.000,0.000
1644915519242888960,2022-02-15-08:58:39,10.1.1.6,37,-0.050,-0.050,-0.050,0.000,0.000,0.000
1644915519282568960,2022-02-15-08:58:39,10.1.1.6,27,-0.040,-0.040,-0.040,0.000,0.000,0.000
1644915519342747904,2022-02-15-08:58:39,10.1.1.6,36,-0.030,-0.030,-0.030,0.000,0.000,0.000
1644915519382031872,2022-02-15-08:58:39,10.1.1.6,24,-0.020,-0.020,-0.020,0.000,0.000,0.000
1644915519442856192,2022-02-15-08:58:39,10.1.1.6,34,-0.010,-0.010,-0.010,0.000,0.000,0.000
1644915519802621952,2022-02-15-08:58:39,10.1.1.6,39,0.060,0.060,0.060,0.000,0.000,0.000
1644915519842668032,2022-02-15-08:58:39,10.1.1.6,28,0.070,0.070,0.070,0.000,0.000,0.000
1644915519903105024,2022-02-15-08:58:39,10.1.1.6,38,0.080,0.080,0.080,0.000,0.000,0.000
1644915519942516992,2022-02-15-08:58:39,10.1.1.6,27,0.090,0.090,0.090,0.000,0.000,0.000
1644915520002671872,2022-02-15-08:58:40,10.1.1.6,33,0.100,0.100,0.100,0.000,0.000,0.000
1644915520263223040,2022-02-15-08:58:40,10.1.1.6,39,0.050,0.050,0.050,0.000,0.000,0.000
1644915520301882880,2022-02-15-08:58:40,10.1.1.6,29,0.040,0.040,0.040,0.000,0.000,0.000
1644915520363346944,2022-02-15-08:58:40,10.1.1.6,36,0.030,0.030,0.030,0.000,0.000,0.000
1644915520623516160,2022-02-15-08:58:40,10.1.1.6,37,-0.020,-0.020,-0.020,0.000,0.000,0.000
1644915520662127104,2022-02-15-08:58:40,10.1.1.6,27,-0.030,-0.030,-0.030,0.000,0.000,0.000
1644915520722349056,2022-02-15-08:58:40,10.1.1.6,36,-0.040,-0.040,-0.040,0.000,0.000,0.000
1644915520762486016,2022-02-15-08:58:40,10.1.1.6,26,-0.050,-0.050,-0.050,0.000,0.000,0.000
1644915520822571008,2022-02-15-08:58:40,10.1.1.6,35,-0.060,-0.060,-0.060,0.000,0.000,0.000
1644915520863034880,2022-02-15-08:58:40,10.1.1.6,25,-0.070,-0.070,-0.070,0.000,0.000,0.000
1644915520923005952,2022-02-15-08:58:40,10.1.1.6,34,-0.080,-0.080,-0.080,0.000,0.000,0.000
1644915520963248896,2022-02-15-08:58:40,10.1.1.6,24,-0.090,-0.090,-0.090,0.000,0.000,0.000
1644915521022224896,2022-02-15-08:58:41,10.1.1.6,33,-0.100,-0.100,-0.100,0.000,0.000,0.000
1644915521121879040,2022-02-15-08:58:41,10.1.1.6,32,-0.080,-0.080,-0.080,0.000,0.000,0.000
1644915521362694144,2022-02-15-08:58:41,10.1.1.6,19,-0.030,-0.030,-0.030,0.000,0.000,0.000
1644915521422835968,2022-02-15-08:58:41,10.1.1.6,29,-0.020,-0.020,-0.020,0.000,0.000,0.000
1644915521482202880,2022-02-15-08:58:41,10.1.1.6,38,-0.010,-0.010,-0.010,0.000,0.000,0.000
1644915521522731008,2022-02-15-08:58:41,10.1.1.6,28,0.000,0.000,0.000,0.000,0.000,0.000
1644915521581940992,2022-02-15-08:58:41,10.1.1.6,37,0.010,0.010,0.010,0.000,0.000,0.000
1644915521622493952,2022-02-15-08:58:41,10.1.1.6,27,0.020,0.020,0.020,0.000,0.000,0.000
1644915521682068224,2022-02-15-08:58:41,10.1.1.6,37,0.030,0.030,0.030,0.000,0.000,0.000
1644915521722635008,2022-02-15-08:58:41,10.1.1.6,26,0.040,0.040,0.040,0.000,0.000,0.000
1644915521782604032,2022-02-15-08:58:41,10.1.1.6,36,0.050,0.050,0.050,0.000,0.000,0.000
1644915521822582016,2022-02-15-08:58:41,10.1.1.6,25,0.060,0.060,0.060,0.000,0.000,0.000
1644915521882388224,2022-02-15-08:58:41,10.1.1.6,35,0.070,0.070,0.070,0.000,0.000,0.000
1644915521922715904,2022-02-15-08:58:41,10.1.1.6,24,0.080,0.080,0.080,0.000,0.000,0.000
1644915521982606848,2022-02-15-08:58:41,10.1.1.6,34,0.090,0.090,0.090,0.000,0.000,0.000
1644915522062460928,2022-02-15-08:58:42,10.1.1.6,13,0.090,0.090,0.090,0.000,0.000,0.000
1644915522442050048,2022-02-15-08:58:42,10.1.1.6,39,0.020,0.020,0.020,0.000,0.000,0.000
1644915522482923008,2022-02-15-08:58:42,10.1.1.6,29,0.010,0.010,0.010,0.000,0.000,0.000
1644915522743706880,2022-02-15-08:58:42,10.1.1.6,29,-0.040,-0.040,-0.040,0.000,0.000,0.000
1644915522803580160,2022-02-15-08:58:42,10.1.1.6,39,-0.050,-0.050,-0.050,0.000,0.000,0.000
1644915522842505984,2022-02-15-08:58:42,10.1.1.6,28,-0.060,-0.060,-0.060,0.000,0.000,0.000
1644915522903553024,2022-02-15-08:58:42,10.1.1.6,38,-0.070,-0.070,-0.070,0.000,0.000,0.000
1644915522942359040,2022-02-15-08:58:42,10.1.1.6,27,-0.080,-0.080,-0.080,0.000,0.000,0.000
1644915523002489088,2022-02-15-08:58:43,10.1.1.6,36,-0.090,-0.090,-0.090,0.000,0.000,0.000
1644915523042174208,2022-02-15-08:58:43,10.1.1.6,26,-0.100,-0.100,-0.100,0.000,0.000,0.000
1644915523102426112,2022-02-15-08:58:43,10.1.1.6,35,-0.090,-0.090,-0.090,0.000,0.000,0.000
1644915523142366976,2022-02-15-08:58:43,10.1.1.6,24,-0.080,-0.080,-0.080,0.000,0.000,0.000
1644915523203814144,2022-02-15-08:58:43,10.1.1.6,33,-0.070,-0.070,-0.070,0.000,0.000,0.000
1644915523402625024,2022-02-15-08:58:43,10.1.1.6,29,-0.030,-0.030,-0.030,0.000,0.000,0.000
1644915523462714880,2022-02-15-08:58:43,10.1.1.6,39,-0.020,-0.020,-0.020,0.000,0.000,0.000
1644915523502151936,2022-02-15-08:58:43,10.1.1.6,28,-0.010,-0.010,-0.010,0.000,0.000,0.000
1644915523563772928,2022-02-15-08:58:43,10.1.1.6,38,0.000,0.000,0.000,0.000,0.000,0.000
1644915523602284032,2022-02-15-08:58:43,10.1.1.6,27,0.010,0.010,0.010,0.000,0.000,0.000
1644915523662210816,2022-02-15-08:58:43,10.1.1.6,36,0.020,0.020,0.020,0.000,0.000,0.000
1644915523701875968,2022-02-15-08:58:43,10.1.1.6,26,0.030,0.030,0.030,0.000,0.000,0.000
1644915523762497024,2022-02-15-08:58:43,10.1.1.6,35,0.040,0.040,0.040,0.000,0.000,0.000
1644915523802895104,2022-02-15-08:58:43,10.1.1.6,24,0.050,0.050,0.050,0.000,0.000,0.000
1644915523862350080,2022-02-15-08:58:43,10.1.1.6,33,0.060,0.060,0.060,0.000,0.000,0.000
1644915524122235136,2022-02-15-08:58:44,10.1.1.6,39,0.090,0.090,0.090,0.000,0.000,0.000
1644915524162003968,2022-02-15-08:58:44,10.1.1.6,29,0.080,0.080,0.080,0.000,0.000,0.000
1644915524222289152,2022-02-15-08:58:44,10.1.1.6,37,0.070,0.070,0.070,0.000,0.000,0.000
1644915524262268928,2022-02-15-08:58:44,10.1.1.6,25,0.060,0.060,0.060,0.000,0.000,0.000
1644915524322418944,2022-02-15-08:58:44,10.1.1.6,35,0.050,0.050,0.050,0.000,0.000,0.000
1644915524362236928,2022-02-15-08:58:44,10.1.1.6,19,0.040,0.040,0.040,0.000,0.000,0.000
1644915524422354944,2022-02-15-08:58:44,10.1.1.6,29,0.030,0.030,0.030,0.000,0.000,0.000
1644915524482291968,2022-02-15-08:58:44,10.1.1.6,38,0.020,0.020,0.020,0.000,0.000,0.000
1644915524522126848,2022-02-15-08:58:44,10.1.1.6,28,0.010,0.010,0.010,0.000,0.000,0.000
1644915524582590976,2022-02-15-08:58:44,10.1.1.6,38,0.000,0.000,0.000,0.000,0.000,0.000
1644915524622575104,2022-02-15-08:58:44,10.1.1.6,27,-0.010,-0.010,-0.010,0.000,0.000,0.000
1644915524682156032,2022-02-15-08:58:44,10.1.1.6,37,-0.020,-0.020,-0.020,0.000,0.000,0.000
1644915524722238976,2022-02-15-08:58:44,10.1.1.6,26,-0.030,-0.030,-0.030,0.000,0.000,0.000
1644915525222722048,2022-02-15-08:58:45,10.1.1.6,20,-0.070,-0.070,-0.070,0.000,0.000,0.000
1644915525282635008,2022-02-15-08:58:45,10.1.1.6,29,-0.060,-0.060,-0.060,0.000,0.000,0.000
1644915525342256128,2022-02-15-08:58:45,10.1.1.6,39,-0.050,-0.050,-0.050,0.000,0.000,0.000
1644915525382277888,2022-02-15-08:58:45,10.1.1.6,29,-0.040,-0.040,-0.040,0.000,0.000,0.000
1644915525443037952,2022-02-15-08:58:45,10.1.1.6,38,-0.030,-0.030,-0.030,0.000,0.000,0.000
1644915525482366208,2022-02-15-08:58:45,10.1.1.6,27,-0.020,-0.020,-0.020,0.000,0.000,0.000
1644915525542174208,2022-02-15-08:58:45,10.1.1.6,37,-0.010,-0.010,-0.010,0.000,0.000,0.000
1644915525582568960,2022-02-15-08:58:45,10.1.1.6,26,0.000,0.000,0.000,0.000,0.000,0.000
1644915525642412800,2022-02-15-08:58:45,10.1.1.6,35,0.010,0.010,0.010,0.000,0.000,0.000
1644915525682552064,2022-02-15-08:58:45,10.1.1.6,25,0.020,0.020,0.020,0.000,0.000,0.000
1644915525902502912,2022-02-15-08:58:45,10.1.1.6,39,0.060,0.060,0.060,0.000,0.000,0.000
1644915525942822912,2022-02-15-08:58:45,10.1.1.6,28,0.070,0.070,0.070,0.000,0.000,0.000
1644915526002080000,2022-02-15-08:58:46,10.1.1.6,37,0.080,0.080,0.080,0.000,0.000,0.000
1644915526042215168,2022-02-15-08:58:46,10.1.1.6,27,0.090,0.090,0.090,0.000,0.000,0.000
1644915526102552064,2022-02-15-08:58:46,10.1.1.6,37,0.100,0.100,0.100,0.000,0.000,0.000
1644915526142292992,2022-02-15-08:58:46,10.1.1.6,26,0.090,0.090,0.090,0.000,0.000,0.000
1644915526203151104,2022-02-15-08:58:46,10.1.1.6,35,0.080,0.080,0.080,0.000,0.000,0.000
1644915526242738944,2022-02-15-08:58:46,10.1.1.6,25,0.070,0.070,0.070,0.000,0.000,0.000
1644915526302578944,2022-02-15-08:58:46,10.1.1.6,33,0.060,0.060,0.060,0.000,0.000,0.000
1644915526562040064,2022-02-15-08:58:46,10.1.1.6,39,0.010,0.010,0.010,0.000,0.000,0.000
1644915526602387968,2022-02-15-08:58:46,10.1.1.6,28,0.000,0.000,0.000,0.000,0.000,0.000
1644915526663110912,2022-02-15-08:58:46,10.1.1.6,38,-0.010,-0.010,-0.010,0.000,0.000,0.000
1644915526702028032,2022-02-15-08:58:46,10.1.1.6,27,-0.020,-0.020,-0.020,0.000,0.000,0.000
1644915526762102016,2022-02-15-08:58:46,10.1.1.6,37,-0.030,-0.030,-0.030,0.000,0.000,0.000
1644915526802434816,2022-02-15-08:58:46,10.1.1.6,26,-0.040,-0.040,-0.040,0.000,0.000,0.000
1644915526862292992,2022-02-15-08:58:46,10.1.1.6,36,-0.050,-0.050,-0.050,0.000,0.000,0.000
1644915527202501888,2022-02-15-08:58:47,10.1.1.6,20,-0.080,-0.080,-0.080,0.000,0.000,0.000
1644915527322316032,2022-02-15-08:58:47,10.1.1.6,39,-0.060,-0.060,-0.060,0.000,0.000,0.000
1644915527363936000,2022-02-15-08:58:47,10.1.1.6,27,-0.050,-0.050,-0.050,0.000,0.000,0.000
1644915527422465024,2022-02-15-08:58:47,10.1.1.6,36,-0.040,-0.040,-0.040,0.000,0.000,0.000
1644915527462359808,2022-02-15-08:58:47,10.1.1.6,25,-0.030,-0.030,-0.030,0.000,0.000,0.000
1644915527522427136,2022-02-15-08:58:47,10.1.1.6,35,-0.020,-0.020,-0.020,0.000,0.000,0.000
1644915527562582016,2022-02-15-08:58:47,10.1.1.6,24,-0.010,-0.010,-0.010,0.000,0.000,0.000
1644915527623371008,2022-02-15-08:58:47,10.1.1.6,34,0.000,0.000,0.000,0.000,0.000,0.000
1644915528022598912,2022-02-15-08:58:48,10.1.1.6,29,0.080,0.080,0.080,0.000,0.000,0.000
1644915528082473984,2022-02-15-08:58:48,10.1.1.6,39,0.090,0.090,0.090,0.000,0.000,0.000
1644915528122219008,2022-02-15-08:58:48,10.1.1.6,28,0.100,0.100,0.100,0.000,0.000,0.000
1644915528182917120,2022-02-15-08:58:48,10.1.1.6,38,0.090,0.090,0.090,0.000,0.000,0.000
1644915528222328832,2022-02-15-08:58:48,10.1.1.6,27,0.080,0.080,0.080,0.000,0.000,0.000
1644915528283698176,2022-02-15-08:58:48,10.1.1.6,36,0.070,0.070,0.070,0.000,0.000,0.000
1644915528322098944,2022-02-15-08:58:48,10.1.1.6,25,0.060,0.060,0.060,0.000,0.000,0.000
1644915528382587904,2022-02-15-08:58:48,10.1.1.6,35,0.050,0.050,0.050,0.000,0.000,0.000
1644915528422296064,2022-02-15-08:58:48,10.1.1.6,24,0.040,0.040,0.040,0.000,0.000,0.000
1644915528482307072,2022-02-15-08:58:48,10.1.1.6,34,0.030,0.030,0.030,0.000,0.000,0.000
1644915528723164928,2022-02-15-08:58:48,10.1.1.6,19,-0.020,-0.020,-0.020,0.000,0.000,0.000
1644915528843652864,2022-02-15-08:58:48,10.1.1.6,38,-0.040,-0.040,-0.040,0.000,0.000,0.000
1644915528882558976,2022-02-15-08:58:48,10.1.1.6,27,-0.050,-0.050,-0.050,0.000,0.000,0.000
1644915528943619840,2022-02-15-08:58:48,10.1.1.6,37,-0.060,-0.060,-0.060,0.000,0.000,0.000
1644915528982501888,2022-02-15-08:58:48,10.1.1.6,26,-0.070,-0.070,-0.070,0.000,0.000,0.000
1644915529042967040,2022-02-15-08:58:49,10.1.1.6,36,-0.080,-0.080,-0.080,0.000,0.000,0.000
1644915529082689024,2022-02-15-08:58:49,10.1.1.6,25,-0.090,-0.090,-0.090,0.000,0.000,0.000
1644915529143330048,2022-02-15-08:58:49,10.1.1.6,34,-0.100,-0.100,-0.100,0.000,0.000,0.000
1644915529243529984,2022-02-15-08:58:49,10.1.1.6,33,-0.080,-0.080,-0.080,0.000,0.000,0.000
1644915529382294016,2022-02-15-08:58:49,10.1.1.6,19,-0.050,-0.050,-0.050,0.000,0.000,0.000
1644915529463331072,2022-02-15-08:58:49,10.1.1.6,28,-0.040,-0.040,-0.040,0.000,0.000,0.000
1644915529762569984,2022-02-15-08:58:49,10.1.1.6,39,0.020,0.020,0.020,0.000,0.000,0.000
1644915529804049920,2022-02-15-08:58:49,10.1.1.6,29,0.030,0.030,0.030,0.000,0.000,0.000
1644915529863467008,2022-02-15-08:58:49,10.1.1.6,38,0.040,0.040,0.040,0.000,0.000,0.000
1644915529902349824,2022-02-15-08:58:49,10.1.1.6,27,0.050,0.050,0.050,0.000,0.000,0.000
1644915529962732032,2022-02-15-08:58:49,10.1.1.6,36,0.060,0.060,0.060,0.000,0.000,0.000
1644915530002579968,2022-02-15-08:58:50,10.1.1.6,26,0.070,0.070,0.070,0.000,0.000,0.000
1644915530062267904,2022-02-15-08:58:50,10.1.1.6,36,0.080,0.080,0.080,0.000,0.000,0.000
1644915530102588928,2022-02-15-08:58:50,10.1.1.6,25,0.090,0.090,0.090,0.000,0.000,0.000
1644915530162786048,2022-02-15-08:58:50,10.1.1.6,34,0.100,0.100,0.100,0.000,0.000,0.000
1644915530403038976,2022-02-15-08:58:50,10.1.1.6,19,0.050,0.050,0.050,0.000,0.000,0.000
1644915530462508032,2022-02-15-08:58:50,10.1.1.6,28,0.040,0.040,0.040,0.000,0.000,0.000
1644915530522358016,2022-02-15-08:58:50,10.1.1.6,38,0.030,0.030,0.030,0.000,0.000,0.000
1644915530562832128,2022-02-15-08:58:50,10.1.1.6,27,0.020,0.020,0.020,0.000,0.000,0.000
1644915530622530816,2022-02-15-08:58:50,10.1.1.6,36,0.010,0.010,0.010,0.000,0.000,0.000
1644915530662696960,2022-02-15-08:58:50,10.1.1.6,25,0.000,0.000,0.000,0.000,0.000,0.000
1644915530721810176,2022-02-15-08:58:50,10.1.1.6,34,-0.010,-0.010,-0.010,0.000,0.000,0.000
1644915530982661888,2022-02-15-08:58:50,10.1.1.6,39,-0.060,-0.060,-0.060,0.000,0.000,0.000
1644915531022398976,2022-02-15-08:58:51,10.1.1.6,29,-0.070,-0.070,-0.070,0.000,0.000,0.000
1644915531082489856,2022-02-15-08:58:51,10.1.1.6,38,-0.080,-0.080,-0.080,0.000,0.000,0.000
1644915531122510080,2022-02-15-08:58:51,10.1.1.6,27,-0.090,-0.090,-0.090,0.000,0.000,0.000
1644915531182576896,2022-02-15-08:58:51,10.1.1.6,36,-0.100,-0.100,-0.100,0.000,0.000,0.000
1644915531222732032,2022-02-15-08:58:51,10.1.1.6,25,-0.090,-0.090,-0.090,0.000,0.000,0.000
1644915531282563072,2022-02-15-08:58:51,10.1.1.6,35,-0.080,-0.080,-0.080,0.000,0.000,0.000
1644915531323048192,2022-02-15-08:58:51,10.1.1.6,24,-0.070,-0.070,-0.070,0.000,0.000,0.000
1644915531382884096,2022-02-15-08:58:51,10.1.1.6,33,-0.060,-0.060,-0.060,0.000,0.000,0.000
1644915531542633984,2022-02-15-08:58:51,10.1.1.6,39,-0.030,-0.030,-0.030,0.000,0.000,0.000
1644915531582250240,2022-02-15-08:58:51,10.1.1.6,28,-0.020,-0.020,-0.020,0.000,0.000,0.000
1644915531642236928,2022-02-15-08:58:51,10.1.1.6,38,-0.010,-0.010,-0.010,0.000,0.000,0.000
1644915531682689792,2022-02-15-08:58:51,10.1.1.6,27,0.000,0.000,0.000,0.000,0.000,0.000
1644915531742883072,2022-02-15-08:58:51,10.1.1.6,37,0.010,0.010,0.010,0.000,0.000,0.000
1644915531783489024,2022-02-15-08:58:51,10.1.1.6,26,0.020,0.020,0.020,0.000,0.000,0.000
1644915531842691072,2022-02-15-08:58:51,10.1.1.6,35,0.030,0.030,0.030,0.000,0.000,0.000
1644915531882278912,2022-02-15-08:58:51,10.1.1.6,24,0.040,0.040,0.040,0.000,0.000,0.000
1644915531943547904,2022-02-15-08:58:51,10.1.1.6,33,0.050,0.050,0.050,0.000,0.000,0.000
1644915532203036928,2022-02-15-08:58:52,10.1.1.6,39,0.100,0.100,0.100,0.000,0.000,0.000
1644915532242818048,2022-02-15-08:58:52,10.1.1.6,28,0.090,0.090,0.090,0.000,0.000,0.000
1644915532302436096,2022-02-15-08:58:52,10.1.1.6,37,0.080,0.080,0.080,0.000,0.000,0.000
1644915532342525952,2022-02-15-08:58:52,10.1.1.6,26,0.070,0.070,0.070,0.000,0.000,0.000
1644915532403147008,2022-02-15-08:58:52,10.1.1.6,36,0.060,0.060,0.060,0.000,0.000,0.000
1644915532442870016,2022-02-15-08:58:52,10.1.1.6,25,0.050,0.050,0.050,0.000,0.000,0.000
1644915532502417920,2022-02-15-08:58:52,10.1.1.6,35,0.040,0.040,0.040,0.000,0.000,0.000
1644915532543278080,2022-02-15-08:58:52,10.1.1.6,24,0.030,0.030,0.030,0.000,0.000,0.000
1644915532602780160,2022-02-15-08:58:52,10.1.1.6,33,0.020,0.020,0.020,0.000,0.000,0.000
1644915532762140160,2022-02-15-08:58:52,10.1.1.6,39,-0.010,-0.010,-0.010,0.000,0.000,0.000
1644915532804528896,2022-02-15-08:58:52,10.1.1.6,28,-0.020,-0.020,-0.020,0.000,0.000,0.000
1644915532862288896,2022-02-15-08:58:52,10.1.1.6,37,-0.030,-0.030,-0.030,0.000,0.000,0.000
1644915532902734080,2022-02-15-08:58:52,10.1.1.6,27,-0.040,-0.040,-0.040,0.000,0.000,0.000
1644915532962182912,2022-02-15-08:58:52,10.1.1.6,36,-0.050,-0.050,-0.050,0.000,0.000,0.000
1644915533002471936,2022-02-15-08:58:53,10.1.1.6,26,-0.060,-0.060,-0.060,0.000,0.000,0.000
1644915533062792960,2022-02-15-08:58:53,10.1.1.6,35,-0.070,-0.070,-0.070,0.000,0.000,0.000
1644915533102468864,2022-02-15-08:58:53,10.1.1.6,24,-0.080,-0.080,-0.080,0.000,0.000,0.000
1644915533162167040,2022-02-15-08:58:53,10.1.1.6,34,-0.090,-0.090,-0.090,0.000,0.000,0.000
1644915533242227200,2022-02-15-08:58:53,10.1.1.6,11,-0.090,-0.090,-0.090,0.000,0.000,0.000
1644915533422462976,2022-02-15-08:58:53,10.1.1.6,39,-0.060,-0.060,-0.060,0.000,0.000,0.000
1644915533462321152,2022-02-15-08:58:53,10.1.1.6,28,-0.050,-0.050,-0.050,0.000,0.000,0.000
1644915533522046976,2022-02-15-08:58:53,10.1.1.6,38,-0.040,-0.040,-0.040,0.000,0.000,0.000
1644915533562043904,2022-02-15-08:58:53,10.1.1.6,27,-0.030,-0.030,-0.030,0.000,0.000,0.000
1644915533624852992,2022-02-15-08:58:53,10.1.1.6,36,-0.020,-0.020,-0.020,0.000,0.000,0.000
1644915533662082816,2022-02-15-08:58:53,10.1.1.6,24,-0.010,-0.010,-0.010,0.000,0.000,0.000
1644915533782509056,2022-02-15-08:58:53,10.1.1.6,28,0.010,0.010,0.010,0.000,0.000,0.000
1644915534063815168,2022-02-15-08:58:54,10.1.1.6,39,0.060,0.060,0.060,0.000,0.000,0.000
1644915534102116096,2022-02-15-08:58:54,10.1.1.6,28,0.070,0.070,0.070,0.000,0.000,0.000
1644915534162386944,2022-02-15-08:58:54,10.1.1.6,38,0.080,0.080,0.080,0.000,0.000,0.000
1644915534202780928,2022-02-15-08:58:54,10.1.1.6,27,0.090,0.090,0.090,0.000,0.000,0.000
1644915534262780928,2022-02-15-08:58:54,10.1.1.6,36,0.100,0.100,0.100,0.000,0.000,0.000
1644915534302629888,2022-02-15-08:58:54,10.1.1.6,26,0.090,0.090,0.090,0.000,0.000,0.000
1644915534362174976,2022-02-15-08:58:54,10.1.1.6,35,0.080,0.080,0.080,0.000,0.000,0.000
1644915534402013184,2022-02-15-08:58:54,10.1.1.6,25,0.070,0.070,0.070,0.000,0.000,0.000
1644915534462426880,2022-02-15-08:58:54,10.1.1.6,33,0.060,0.060,0.060,0.000,0.000,0.000
1644915534702352128,2022-02-15-08:58:54,10.1.1.6,20,0.010,0.010,0.010,0.000,0.000,0.000
1644915534762632960,2022-02-15-08:58:54,10.1.1.6,29,0.000,0.000,0.000,0.000,0.000,0.000
1644915534822000128,2022-02-15-08:58:54,10.1.1.6,39,-0.010,-0.010,-0.010,0.000,0.000,0.000
1644915534861833984,2022-02-15-08:58:54,10.1.1.6,28,-0.020,-0.020,-0.020,0.000,0.000,0.000
1644915534922344960,2022-02-15-08:58:54,10.1.1.6,37,-0.030,-0.030,-0.030,0.000,0.000,0.000
1644915534962214912,2022-02-15-08:58:54,10.1.1.6,27,-0.040,-0.040,-0.040,0.000,0.000,0.000
1644915535022636032,2022-02-15-08:58:55,10.1.1.6,37,-0.050,-0.050,-0.050,0.000,0.000,0.000
1644915535062473984,2022-02-15-08:58:55,10.1.1.6,26,-0.060,-0.060,-0.060,0.000,0.000,0.000
1644915535122947840,2022-02-15-08:58:55,10.1.1.6,36,-0.070,-0.070,-0.070,0.000,0.000,0.000
1644915535222318848,2022-02-15-08:58:55,10.1.1.6,34,-0.090,-0.090,-0.090,0.000,0.000,0.000
1644915535303508992,2022-02-15-08:58:55,10.1.1.6,12,-0.090,-0.090,-0.090,0.000,0.000,0.000
1644915535481925888,2022-02-15-08:58:55,10.1.1.6,39,-0.060,-0.060,-0.060,0.000,0.000,0.000
1644915535522358784,2022-02-15-08:58:55,10.1.1.6,29,-0.050,-0.050,-0.050,0.000,0.000,0.000
1644915535582382080,2022-02-15-08:58:55,10.1.1.6,38,-0.040,-0.040,-0.040,0.000,0.000,0.000
1644915535622565120,2022-02-15-08:58:55,10.1.1.6,28,-0.030,-0.030,-0.030,0.000,0.000,0.000
1644915535681754112,2022-02-15-08:58:55,10.1.1.6,37,-0.020,-0.020,-0.020,0.000,0.000,0.000
1644915535722219008,2022-02-15-08:58:55,10.1.1.6,26,-0.010,-0.010,-0.010,0.000,0.000,0.000
1644915535783318016,2022-02-15-08:58:55,10.1.1.6,36,0.000,0.000,0.000,0.000,0.000,0.000
1644915535822288896,2022-02-15-08:58:55,10.1.1.6,25,0.010,0.010,0.010,0.000,0.000,0.000
1644915535881718016,2022-02-15-08:58:55,10.1.1.6,34,0.020,0.020,0.020,0.000,0.000,0.000
1644915536042016000,2022-02-15-08:58:56,10.1.1.6,39,0.050,0.050,0.050,0.000,0.000,0.000
1644915536081928960,2022-02-15-08:58:56,10.1.1.6,29,0.060,0.060,0.060,0.000,0.000,0.000
1644915536142532096,2022-02-15-08:58:56,10.1.1.6,38,0.070,0.070,0.070,0.000,0.000,0.000
1644915536182387200,2022-02-15-08:58:56,10.1.1.6,28,0.080,0.080,0.080,0.000,0.000,0.000
1644915536242605056,2022-02-15-08:58:56,10.1.1.6,36,0.090,0.090,0.090,0.000,0.000,0.000
1644915536282599936,2022-02-15-08:58:56,10.1.1.6,26,0.100,0.100,0.100,0.000,0.000,0.000
1644915536342482944,2022-02-15-08:58:56,10.1.1.6,35,0.090,0.090,0.090,0.000,0.000,0.000
1644915536382569984,2022-02-15-08:58:56,10.1.1.6,25,0.080,0.080,0.080,0.000,0.000,0.000
1644915536803057920,2022-02-15-08:58:56,10.1.1.6,39,0.000,0.000,0.000,0.000,0.000,0.000
1644915536842159872,2022-02-15-08:58:56,10.1.1.6,29,-0.010,-0.010,-0.010,0.000,0.000,0.000
1644915536902415104,2022-02-15-08:58:56,10.1.1.6,39,-0.020,-0.020,-0.020,0.000,0.000,0.000
1644915536943717888,2022-02-15-08:58:56,10.1.1.6,28,-0.030,-0.030,-0.030,0.000,0.000,0.000
1644915537001907200,2022-02-15-08:58:57,10.1.1.6,38,-0.040,-0.040,-0.040,0.000,0.000,0.000
1644915537042102016,2022-02-15-08:58:57,10.1.1.6,27,-0.050,-0.050,-0.050,0.000,0.000,0.000
1644915537102197760,2022-02-15-08:58:57,10.1.1.6,37,-0.060,-0.060,-0.060,0.000,0.000,0.000
1644915537142103808,2022-02-15-08:58:57,10.1.1.6,26,-0.070,-0.070,-0.070,0.000,0.000,0.000
1644915537202568960,2022-02-15-08:58:57,10.1.1.6,36,-0.080,-0.080,-0.080,0.000,0.000,0.000
1644915537242656000,2022-02-15-08:58:57,10.1.1.6,24,-0.090,-0.090,-0.090,0.000,0.000,0.000
1644915537302606080,2022-02-15-08:58:57,10.1.1.6,33,-0.100,-0.100,-0.100,0.000,0.000,0.000
1644915537763063040,2022-02-15-08:58:57,10.1.1.6,38,-0.010,-0.010,-0.010,0.000,0.000,0.000
1644915537801931008,2022-02-15-08:58:57,10.1.1.6,27,0.000,0.000,0.000,0.000,0.000,0.000
1644915537862231040,2022-02-15-08:58:57,10.1.1.6,37,0.010,0.010,0.010,0.000,0.000,0.000
1644915537901672960,2022-02-15-08:58:57,10.1.1.6,26,0.020,0.020,0.020,0.000,0.000,0.000
1644915537962481920,2022-02-15-08:58:57,10.1.1.6,36,0.030,0.030,0.030,0.000,0.000,0.000
1644915538002598912,2022-02-15-08:58:58,10.1.1.6,25,0.040,0.040,0.040,0.000,0.000,0.000
1644915538062299904,2022-02-15-08:58:58,10.1.1.6,35,0.050,0.050,0.050,0.000,0.000,0.000
1644915538102243840,2022-02-15-08:58:58,10.1.1.6,24,0.060,0.060,0.060,0.000,0.000,0.000
1644915538422610944,2022-02-15-08:58:58,10.1.1.6,38,0.080,0.080,0.080,0.000,0.000,0.000
1644915538462917120,2022-02-15-08:58:58,10.1.1.6,27,0.070,0.070,0.070,0.000,0.000,0.000
1644915538522305024,2022-02-15-08:58:58,10.1.1.6,37,0.060,0.060,0.060,0.000,0.000,0.000
1644915538562397952,2022-02-15-08:58:58,10.1.1.6,26,0.050,0.050,0.050,0.000,0.000,0.000
1644915538622823936,2022-02-15-08:58:58,10.1.1.6,36,0.040,0.040,0.040,0.000,0.000,0.000
1644915538662349056,2022-02-15-08:58:58,10.1.1.6,25,0.030,0.030,0.030,0.000,0.000,0.000
1644915538722421760,2022-02-15-08:58:58,10.1.1.6,35,0.020,0.020,0.020,0.000,0.000,0.000
1644915538762428928,2022-02-15-08:58:58,10.1.1.6,24,0.010,0.010,0.010,0.000,0.000,0.000
1644915538822560000,2022-02-15-08:58:58,10.1.1.6,34,0.000,0.000,0.000,0.000,0.000,0.000
1644915538862381824,2022-02-15-08:58:58,10.1.1.6,23,-0.010,-0.010,-0.010,0.000,0.000,0.000
1644915539222158080,2022-02-15-08:58:59,10.1.1.6,29,-0.080,-0.080,-0.080,0.000,0.000,0.000
1644915539282283008,2022-02-15-08:58:59,10.1.1.6,39,-0.090,-0.090,-0.090,0.000,0.000,0.000
1644915539321882112,2022-02-15-08:58:59,10.1.1.6,28,-0.100,-0.100,-0.100,0.000,0.000,0.000
1644915539382119936,2022-02-15-08:58:59,10.1.1.6,38,-0.090,-0.090,-0.090,0.000,0.000,0.000
1644915539422860032,2022-02-15-08:58:59,10.1.1.6,27,-0.080,-0.080,-0.080,0.000,0.000,0.000
1644915539482156032,2022-02-15-08:58:59,10.1.1.6,37,-0.070,-0.070,-0.070,0.000,0.000,0.000
1644915539522650880,2022-02-15-08:58:59,10.1.1.6,26,-0.060,-0.060,-0.060,0.000,0.000,0.000
1644915539581868032,2022-02-15-08:58:59,10.1.1.6,35,-0.050,-0.050,-0.050,0.000,0.000,0.000
1644915539622100992,2022-02-15-08:58:59,10.1.1.6,25,-0.040,-0.040,-0.040,0.000,0.000,0.000
1644915539682125056,2022-02-15-08:58:59,10.1.1.6,34,-0.030,-0.030,-0.030,0.000,0.000,0.000
1644915539722322944,2022-02-15-08:58:59,10.1.1.6,24,-0.020,-0.020,-0.020,0.000,0.000,0.000
1644915539782944000,2022-02-15-08:58:59,10.1.1.6,33,-0.010,-0.010,-0.010,0.000,0.000,0.000
1644915540022643200,2022-02-15-08:59:00,10.1.1.6,20,0.040,0.040,0.040,0.000,0.000,0.000
1644915540142523136,2022-02-15-08:59:00,10.1.1.6,39,0.060,0.060,0.060,0.000,0.000,0.000
1644915540182265088,2022-02-15-08:59:00,10.1.1.6,28,0.070,0.070,0.070,0.000,0.000,0.000
1644915540242452992,2022-02-15-08:59:00,10.1.1.6,38,0.080,0.080,0.080,0.000,0.000,0.000
1644915540282188800,2022-02-15-08:59:00,10.1.1.6,27,0.090,0.090,0.090,0.000,0.000,0.000
1644915540345166848,2022-02-15-08:59:00,10.1.1.6,34,0.100,0.100,0.100,0.000,0.000,0.000
1644915540782251008,2022-02-15-08:59:00,10.1.1.6,19,0.010,0.010,0.010,0.000,0.000,0.000
1644915540842051072,2022-02-15-08:59:00,10.1.1.6,29,0.000,0.000,0.000,0.000,0.000,0.000
1644915540902211840,2022-02-15-08:59:00,10.1.1.6,38,-0.010,-0.010,-0.010,0.000,0.000,0.000
1644915540942043136,2022-02-15-08:59:00,10.1.1.6,28,-0.020,-0.020,-0.020,0.000,0.000,0.000
1644915541002336000,2022-02-15-08:59:01,10.1.1.6,37,-0.030,-0.030,-0.030,0.000,0.000,0.000
1644915541041733120,2022-02-15-08:59:01,10.1.1.6,27,-0.040,-0.040,-0.040,0.000,0.000,0.000
1644915541102027776,2022-02-15-08:59:01,10.1.1.6,36,-0.050,-0.050,-0.050,0.000,0.000,0.000
1644915541142141184,2022-02-15-08:59:01,10.1.1.6,25,-0.060,-0.060,-0.060,0.000,0.000,0.000
1644915541202234112,2022-02-15-08:59:01,10.1.1.6,35,-0.070,-0.070,-0.070,0.000,0.000,0.000
1644915541242608128,2022-02-15-08:59:01,10.1.1.6,24,-0.080,-0.080,-0.080,0.000,0.000,0.000
1644915541301785088,2022-02-15-08:59:01,10.1.1.6,34,-0.090,-0.090,-0.090,0.000,0.000,0.000
1644915541342348032,2022-02-15-08:59:01,10.1.1.6,24,-0.100,-0.100,-0.100,0.000,0.000,0.000
1644915541402196992,2022-02-15-08:59:01,10.1.1.6,33,-0.090,-0.090,-0.090,0.000,0.000,0.000
1644915541701998080,2022-02-15-08:59:01,10.1.1.6,29,-0.030,-0.030,-0.030,0.000,0.000,0.000
1644915541762775040,2022-02-15-08:59:01,10.1.1.6,39,-0.020,-0.020,-0.020,0.000,0.000,0.000
1644915541803251968,2022-02-15-08:59:01,10.1.1.6,29,-0.010,-0.010,-0.010,0.000,0.000,0.000
1644915541862041088,2022-02-15-08:59:01,10.1.1.6,38,0.000,0.000,0.000,0.000,0.000,0.000
1644915541902653952,2022-02-15-08:59:01,10.1.1.6,28,0.010,0.010,0.010,0.000,0.000,0.000
1644915541961946880,2022-02-15-08:59:01,10.1.1.6,38,0.020,0.020,0.020,0.000,0.000,0.000
1644915542002201088,2022-02-15-08:59:02,10.1.1.6,27,0.030,0.030,0.030,0.000,0.000,0.000
1644915542064691968,2022-02-15-08:59:02,10.1.1.6,36,0.040,0.040,0.040,0.000,0.000,0.000
1644915542162167040,2022-02-15-08:59:02,10.1.1.6,34,0.060,0.060,0.060,0.000,0.000,0.000
1644915542202263040,2022-02-15-08:59:02,10.1.1.6,23,0.070,0.070,0.070,0.000,0.000,0.000
1644915542262470912,2022-02-15-08:59:02,10.1.1.6,33,0.080,0.080,0.080,0.000,0.000,0.000
1644915542443276032,2022-02-15-08:59:02,10.1.1.6,9,0.080,0.080,0.080,0.000,0.000,0.000
1644915542522499072,2022-02-15-08:59:02,10.1.1.6,38,0.070,0.070,0.070,0.000,0.000,0.000
1644915542562572032,2022-02-15-08:59:02,10.1.1.6,27,0.060,0.060,0.060,0.000,0.000,0.000
1644915542622772992,2022-02-15-08:59:02,10.1.1.6,37,0.050,0.050,0.050,0.000,0.000,0.000
1644915542662523904,2022-02-15-08:59:02,10.1.1.6,27,0.040,0.040,0.040,0.000,0.000,0.000
1644915542723154176,2022-02-15-08:59:02,10.1.1.6,36,0.030,0.030,0.030,0.000,0.000,0.000
1644915542762605824,2022-02-15-08:59:02,10.1.1.6,26,0.020,0.020,0.020,0.000,0.000,0.000
1644915542822597888,2022-02-15-08:59:02,10.1.1.6,36,0.010,0.010,0.010,0.000,0.000,0.000
1644915542862728960,2022-02-15-08:59:02,10.1.1.6,25,0.000,0.000,0.000,0.000,0.000,0.000
1644915542922137856,2022-02-15-08:59:02,10.1.1.6,35,-0.010,-0.010,-0.010,0.000,0.000,0.000
1644915543283056128,2022-02-15-08:59:03,10.1.1.6,39,-0.080,-0.080,-0.080,0.000,0.000,0.000
1644915543382496000,2022-02-15-08:59:03,10.1.1.6,38,-0.100,-0.100,-0.100,0.000,0.000,0.000
1644915543422386944,2022-02-15-08:59:03,10.1.1.6,27,-0.090,-0.090,-0.090,0.000,0.000,0.000
1644915543481960960,2022-02-15-08:59:03,10.1.1.6,37,-0.080,-0.080,-0.080,0.000,0.000,0.000
1644915543522001152,2022-02-15-08:59:03,10.1.1.6,26,-0.070,-0.070,-0.070,0.000,0.000,0.000
1644915543582515968,2022-02-15-08:59:03,10.1.1.6,36,-0.060,-0.060,-0.060,0.000,0.000,0.000
1644915543622258944,2022-02-15-08:59:03,10.1.1.6,25,-0.050,-0.050,-0.050,0.000,0.000,0.000
1644915543682219008,2022-02-15-08:59:03,10.1.1.6,35,-0.040,-0.040,-0.040,0.000,0.000,0.000
1644915543722409984,2022-02-15-08:59:03,10.1.1.6,25,-0.030,-0.030,-0.030,0.000,0.000,0.000
1644915543783878144,2022-02-15-08:59:03,10.1.1.6,34,-0.020,-0.020,-0.020,0.000,0.000,0.000
1644915543902543104,2022-02-15-08:59:03,10.1.1.6,24,0.000,0.000,0.000,0.000,0.000,0.000
1644915543962044928,2022-02-15-08:59:03,10.1.1.6,34,0.010,0.010,0.010,0.000,0.000,0.000
1644915544002880000,2022-02-15-08:59:04,10.1.1.6,23,0.020,0.020,0.020,0.000,0.000,0.000
1644915544321982976,2022-02-15-08:59:04,10.1.1.6,39,0.080,0.080,0.080,0.000,0.000,0.000
1644915544362603776,2022-02-15-08:59:04,10.1.1.6,29,0.090,0.090,0.090,0.000,0.000,0.000
1644915544422544896,2022-02-15-08:59:04,10.1.1.6,38,0.100,0.100,0.100,0.000,0.000,0.000
1644915544461859840,2022-02-15-08:59:04,10.1.1.6,27,0.090,0.090,0.090,0.000,0.000,0.000
1644915544522740992,2022-02-15-08:59:04,10.1.1.6,36,0.080,0.080,0.080,0.000,0.000,0.000
1644915544562235136,2022-02-15-08:59:04,10.1.1.6,26,0.070,0.070,0.070,0.000,0.000,0.000
1644915544622950912,2022-02-15-08:59:04,10.1.1.6,36,0.060,0.060,0.060,0.000,0.000,0.000
1644915544662610944,2022-02-15-08:59:04,10.1.1.6,25,0.050,0.050,0.050,0.000,0.000,0.000
1644915544722673920,2022-02-15-08:59:04,10.1.1.6,34,0.040,0.040,0.040,0.000,0.000,0.000
1644915544762388992,2022-02-15-08:59:04,10.1.1.6,24,0.030,0.030,0.030,0.000,0.000,0.000
1644915544822277120,2022-02-15-08:59:04,10.1.1.6,34,0.020,0.020,0.020,0.000,0.000,0.000
1644915544862502144,2022-02-15-08:59:04,10.1.1.6,23,0.010,0.010,0.010,0.000,0.000,0.000
1644915544922471168,2022-02-15-08:59:04,10.1.1.6,33,0.000,0.000,0.000,0.000,0.000,0.000
1644915545182102016,2022-02-15-08:59:05,10.1.1.6,38,-0.050,-0.050,-0.050,0.000,0.000,0.000
1644915545222618112,2022-02-15-08:59:05,10.1.1.6,28,-0.060,-0.060,-0.060,0.000,0.000,0.000
1644915545282539008,2022-02-15-08:59:05,10.1.1.6,37,-0.070,-0.070,-0.070,0.000,0.000,0.000
1644915545322360064,2022-02-15-08:59:05,10.1.1.6,26,-0.080,-0.080,-0.080,0.000,0.000,0.000
1644915545382102016,2022-02-15-08:59:05,10.1.1.6,36,-0.090,-0.090,-0.090,0.000,0.000,0.000
1644915545422342912,2022-02-15-08:59:05,10.1.1.6,25,-0.100,-0.100,-0.100,0.000,0.000,0.000
1644915545482573056,2022-02-15-08:59:05,10.1.1.6,35,-0.090,-0.090,-0.090,0.000,0.000,0.000
1644915545522531072,2022-02-15-08:59:05,10.1.1.6,24,-0.080,-0.080,-0.080,0.000,0.000,0.000
1644915545582106112,2022-02-15-08:59:05,10.1.1.6,33,-0.070,-0.070,-0.070,0.000,0.000,0.000
1644915545923919872,2022-02-15-08:59:05,10.1.1.6,20,0.000,0.000,0.000,0.000,0.000,0.000
1644915546042278144,2022-02-15-08:59:06,10.1.1.6,39,0.020,0.020,0.020,0.000,0.000,0.000
1644915546082277888,2022-02-15-08:59:06,10.1.1.6,28,0.030,0.030,0.030,0.000,0.000,0.000
1644915546142825984,2022-02-15-08:59:06,10.1.1.6,38,0.040,0.040,0.040,0.000,0.000,0.000
1644915546182811136,2022-02-15-08:59:06,10.1.1.6,27,0.050,0.050,0.050,0.000,0.000,0.000
1644915546242793984,2022-02-15-08:59:06,10.1.1.6,36,0.060,0.060,0.060,0.000,0.000,0.000
1644915546282382080,2022-02-15-08:59:06,10.1.1.6,26,0.070,0.070,0.070,0.000,0.000,0.000
1644915546342216960,2022-02-15-08:59:06,10.1.1.6,35,0.080,0.080,0.080,0.000,0.000,0.000
1644915546382016000,2022-02-15-08:59:06,10.1.1.6,24,0.090,0.090,0.090,0.000,0.000,0.000
1644915546442383104,2022-02-15-08:59:06,10.1.1.6,34,0.100,0.100,0.100,0.000,0.000,0.000
1644915546783013120,2022-02-15-08:59:06,10.1.1.6,19,0.030,0.030,0.030,0.000,0.000,0.000
1644915546902789120,2022-02-15-08:59:06,10.1.1.6,39,0.010,0.010,0.010,0.000,0.000,0.000
1644915546943192064,2022-02-15-08:59:06,10.1.1.6,28,0.000,0.000,0.000,0.000,0.000,0.000
1644915547002808064,2022-02-15-08:59:07,10.1.1.6,37,-0.010,-0.010,-0.010,0.000,0.000,0.000
1644915547041884928,2022-02-15-08:59:07,10.1.1.6,25,-0.020,-0.020,-0.020,0.000,0.000,0.000
1644915547362551808,2022-02-15-08:59:07,10.1.1.6,39,-0.080,-0.080,-0.080,0.000,0.000,0.000
1644915547402684928,2022-02-15-08:59:07,10.1.1.6,28,-0.090,-0.090,-0.090,0.000,0.000,0.000
1644915547462342144,2022-02-15-08:59:07,10.1.1.6,37,-0.100,-0.100,-0.100,0.000,0.000,0.000
1644915547502331136,2022-02-15-08:59:07,10.1.1.6,27,-0.090,-0.090,-0.090,0.000,0.000,0.000
1644915547561955072,2022-02-15-08:59:07,10.1.1.6,37,-0.080,-0.080,-0.080,0.000,0.000,0.000
1644915547601815040,2022-02-15-08:59:07,10.1.1.6,26,-0.070,-0.070,-0.070,0.000,0.000,0.000
1644915547662275072,2022-02-15-08:59:07,10.1.1.6,35,-0.060,-0.060,-0.060,0.000,0.000,0.000
1644915547702073088,2022-02-15-08:59:07,10.1.1.6,24,-0.050,-0.050,-0.050,0.000,0.000,0.000
1644915547803041024,2022-02-15-08:59:07,10.1.1.6,23,-0.030,-0.030,-0.030,0.000,0.000,0.000
1644915547903415808,2022-02-15-08:59:07,10.1.1.6,20,-0.010,-0.010,-0.010,0.000,0.000,0.000
1644915548022938880,2022-02-15-08:59:08,10.1.1.6,38,0.010,0.010,0.010,0.000,0.000,0.000
1644915548062785024,2022-02-15-08:59:08,10.1.1.6,28,0.020,0.020,0.020,0.000,0.000,0.000
1644915548122046976,2022-02-15-08:59:08,10.1.1.6,37,0.030,0.030,0.030,0.000,0.000,0.000
1644915548162103040,2022-02-15-08:59:08,10.1.1.6,27,0.040,0.040,0.040,0.000,0.000,0.000
1644915548223977984,2022-02-15-08:59:08,10.1.1.6,36,0.050,0.050,0.050,0.000,0.000,0.000
1644915548262827008,2022-02-15-08:59:08,10.1.1.6,26,0.060,0.060,0.060,0.000,0.000,0.000
1644915548322375936,2022-02-15-08:59:08,10.1.1.6,34,0.070,0.070,0.070,0.000,0.000,0.000
1644915548602742784,2022-02-15-08:59:08,10.1.1.6,9,0.070,0.070,0.070,0.000,0.000,0.000
1644915548682801920,2022-02-15-08:59:08,10.1.1.6,38,0.060,0.060,0.060,0.000,0.000,0.000
1644915548722076928,2022-02-15-08:59:08,10.1.1.6,28,0.050,0.050,0.050,0.000,0.000,0.000
1644915548782799872,2022-02-15-08:59:08,10.1.1.6,38,0.040,0.040,0.040,0.000,0.000,0.000
1644915548822979072,2022-02-15-08:59:08,10.1.1.6,27,0.030,0.030,0.030,0.000,0.000,0.000
1644915548882195968,2022-02-15-08:59:08,10.1.1.6,37,0.020,0.020,0.020,0.000,0.000,0.000
1644915548923042048,2022-02-15-08:59:08,10.1.1.6,26,0.010,0.010,0.010,0.000,0.000,0.000
1644915548982775808,2022-02-15-08:59:08,10.1.1.6,35,0.000,0.000,0.000,0.000,0.000,0.000
1644915549082285824,2022-02-15-08:59:09,10.1.1.6,33,-0.020,-0.020,-0.020,0.000,0.000,0.000
1644915549322740992,2022-02-15-08:59:09,10.1.1.6,19,-0.070,-0.070,-0.070,0.000,0.000,0.000
1644915549383732992,2022-02-15-08:59:09,10.1.1.6,29,-0.080,-0.080,-0.080,0.000,0.000,0.000
1644915549521933056,2022-02-15-08:59:09,10.1.1.6,28,-0.100,-0.100,-0.100,0.000,0.000,0.000
1644915549582784768,2022-02-15-08:59:09,10.1.1.6,37,-0.090,-0.090,-0.090,0.000,0.000,0.000
1644915549622628864,2022-02-15-08:59:09,10.1.1.6,27,-0.080,-0.080,-0.080,0.000,0.000,0.000
1644915549682596864,2022-02-15-08:59:09,10.1.1.6,35,-0.070,-0.070,-0.070,0.000,0.000,0.000
1644915549722382080,2022-02-15-08:59:09,10.1.1.6,24,-0.060,-0.060,-0.060,0.000,0.000,0.000
1644915549782589952,2022-02-15-08:59:09,10.1.1.6,34,-0.050,-0.050,-0.050,0.000,0.000,0.000
1644915549821901056,2022-02-15-08:59:09,10.1.1.6,23,-0.040,-0.040,-0.040,0.000,0.000,0.000
1644915550083044096,2022-02-15-08:59:10,10.1.1.6,28,0.010,0.010,0.010,0.000,0.000,0.000
1644915550142286080,2022-02-15-08:59:10,10.1.1.6,37,0.020,0.020,0.020,0.000,0.000,0.000
1644915550182529024,2022-02-15-08:59:10,10.1.1.6,26,0.030,0.030,0.030,0.000,0.000,0.000
1644915550242813952,2022-02-15-08:59:10,10.1.1.6,35,0.040,0.040,0.040,0.000,0.000,0.000
1644915550282000128,2022-02-15-08:59:10,10.1.1.6,25,0.050,0.050,0.050,0.000,0.000,0.000
1644915550342363136,2022-02-15-08:59:10,10.1.1.6,33,0.060,0.060,0.060,0.000,0.000,0.000
1644915550722230016,2022-02-15-08:59:10,10.1.1.6,9,0.060,0.060,0.060,0.000,0.000,0.000
1644915550802604032,2022-02-15-08:59:10,10.1.1.6,39,0.050,0.050,0.050,0.000,0.000,0.000
1644915550842222848,2022-02-15-08:59:10,10.1.1.6,29,0.040,0.040,0.040,0.000,0.000,0.000
1644915550902359040,2022-02-15-08:59:10,10.1.1.6,38,0.030,0.030,0.030,0.000,0.000,0.000
1644915550942754048,2022-02-15-08:59:10,10.1.1.6,28,0.020,0.020,0.020,0.000,0.000,0.000
1644915551002439936,2022-02-15-08:59:11,10.1.1.6,38,0.010,0.010,0.010,0.000,0.000,0.000
1644915551042841856,2022-02-15-08:59:11,10.1.1.6,27,0.000,0.000,0.000,0.000,0.000,0.000
1644915551102235136,2022-02-15-08:59:11,10.1.1.6,37,-0.010,-0.010,-0.010,0.000,0.000,0.000
1644915551142487040,2022-02-15-08:59:11,10.1.1.6,26,-0.020,-0.020,-0.020,0.000,0.000,0.000
1644915551202564096,2022-02-15-08:59:11,10.1.1.6,36,-0.030,-0.030,-0.030,0.000,0.000,0.000
1644915551242661888,2022-02-15-08:59:11,10.1.1.6,25,-0.040,-0.040,-0.040,0.000,0.000,0.000
1644915551302342912,2022-02-15-08:59:11,10.1.1.6,35,-0.050,-0.050,-0.050,0.000,0.000,0.000
1644915551343138048,2022-02-15-08:59:11,10.1.1.6,25,-0.060,-0.060,-0.060,0.000,0.000,0.000
1644915551442297088,2022-02-15-08:59:11,10.1.1.6,23,-0.080,-0.080,-0.080,0.000,0.000,0.000
1644915551502299904,2022-02-15-08:59:11,10.1.1.6,33,-0.090,-0.090,-0.090,0.000,0.000,0.000
1644915551583916800,2022-02-15-08:59:11,10.1.1.6,11,-0.090,-0.090,-0.090,0.000,0.000,0.000
1644915551662328064,2022-02-15-08:59:11,10.1.1.6,37,-0.080,-0.080,-0.080,0.000,0.000,0.000
1644915551703218944,2022-02-15-08:59:11,10.1.1.6,26,-0.070,-0.070,-0.070,0.000,0.000,0.000
1644915551762383872,2022-02-15-08:59:11,10.1.1.6,36,-0.060,-0.060,-0.060,0.000,0.000,0.000
1644915551802383872,2022-02-15-08:59:11,10.1.1.6,25,-0.050,-0.050,-0.050,0.000,0.000,0.000
1644915551862637056,2022-02-15-08:59:11,10.1.1.6,35,-0.040,-0.040,-0.040,0.000,0.000,0.000
1644915551902426112,2022-02-15-08:59:11,10.1.1.6,24,-0.030,-0.030,-0.030,0.000,0.000,0.000
1644915552363126016,2022-02-15-08:59:12,10.1.1.6,29,0.060,0.060,0.060,0.000,0.000,0.000
1644915552422398208,2022-02-15-08:59:12,10.1.1.6,38,0.070,0.070,0.070,0.000,0.000,0.000
1644915552462193920,2022-02-15-08:59:12,10.1.1.6,28,0.080,0.080,0.080,0.000,0.000,0.000
1644915552522347008,2022-02-15-08:59:12,10.1.1.6,37,0.090,0.090,0.090,0.000,0.000,0.000
1644915552616142080,2022-02-15-08:59:12,10.1.1.6,-12,0.090,0.090,0.090,0.000,0.000,0.000
1644915552702452992,2022-02-15-08:59:12,10.1.1.6,38,0.080,0.080,0.080,0.000,0.000,0.000
1644915552742836992,2022-02-15-08:59:12,10.1.1.6,27,0.070,0.070,0.070,0.000,0.000,0.000
1644915552802936064,2022-02-15-08:59:12,10.1.1.6,36,0.060,0.060,0.060,0.000,0.000,0.000
1644915552842267136,2022-02-15-08:59:12,10.1.1.6,26,0.050,0.050,0.050,0.000,0.000,0.000
1644915552904146944,2022-02-15-08:59:12,10.1.1.6,36,0.040,0.040,0.040,0.000,0.000,0.000
1644915552962793984,2022-02-15-08:59:12,10.1.1.6,24,0.030,0.030,0.030,0.000,0.000,0.000
1644915553103468032,2022-02-15-08:59:13,10.1.1.6,29,0.000,0.000,0.000,0.000,0.000,0.000
1644915553162238976,2022-02-15-08:59:13,10.1.1.6,38,-0.010,-0.010,-0.010,0.000,0.000,0.000
1644915553201988096,2022-02-15-08:59:13,10.1.1.6,27,-0.020,-0.020,-0.020,0.000,0.000,0.000
1644915553262455040,2022-02-15-08:59:13,10.1.1.6,36,-0.030,-0.030,-0.030,0.000,0.000,0.000
1644915553302167808,2022-02-15-08:59:13,10.1.1.6,26,-0.040,-0.040,-0.040,0.000,0.000,0.000
1644915553362194176,2022-02-15-08:59:13,10.1.1.6,35,-0.050,-0.050,-0.050,0.000,0.000,0.000
1644915553402381824,2022-02-15-08:59:13,10.1.1.6,24,-0.060,-0.060,-0.060,0.000,0.000,0.000
1644915553462558976,2022-02-15-08:59:13,10.1.1.6,34,-0.070,-0.070,-0.070,0.000,0.000,0.000
1644915553502244096,2022-02-15-08:59:13,10.1.1.6,23,-0.080,-0.080,-0.080,0.000,0.000,0.000
1644915553682603008,2022-02-15-08:59:13,10.1.1.6,1,-0.080,-0.080,-0.080,0.000,0.000,0.000
1644915553766094080,2022-02-15-08:59:13,10.1.1.6,28,-0.070,-0.070,-0.070,0.000,0.000,0.000
1644915553822529024,2022-02-15-08:59:13,10.1.1.6,29,-0.060,-0.060,-0.060,0.000,0.000,0.000
1644915553882114048,2022-02-15-08:59:13,10.1.1.6,38,-0.050,-0.050,-0.050,0.000,0.000,0.000
1644915553921787136,2022-02-15-08:59:13,10.1.1.6,27,-0.040,-0.040,-0.040,0.000,0.000,0.000
1644915553982507008,2022-02-15-08:59:13,10.1.1.6,37,-0.030,-0.030,-0.030,0.000,0.000,0.000
1644915554022945792,2022-02-15-08:59:14,10.1.1.6,27,-0.020,-0.020,-0.020,0.000,0.000,0.000
1644915554082569984,2022-02-15-08:59:14,10.1.1.6,36,-0.010,-0.010,-0.010,0.000,0.000,0.000
1644915554122513152,2022-02-15-08:59:14,10.1.1.6,26,0.000,0.000,0.000,0.000,0.000,0.000
1644915554182216960,2022-02-15-08:59:14,10.1.1.6,35,0.010,0.010,0.010,0.000,0.000,0.000
1644915554222667008,2022-02-15-08:59:14,10.1.1.6,24,0.020,0.020,0.020,0.000,0.000,0.000
1644915554289585152,2022-02-15-08:59:14,10.1.1.6,33,0.030,0.030,0.030,0.000,0.000,0.000
1644915554522788096,2022-02-15-08:59:14,10.1.1.6,20,0.080,0.080,0.080,0.000,0.000,0.000
1644915554642336000,2022-02-15-08:59:14,10.1.1.6,38,0.100,0.100,0.100,0.000,0.000,0.000
1644915554683043840,2022-02-15-08:59:14,10.1.1.6,27,0.090,0.090,0.090,0.000,0.000,0.000
1644915554742288128,2022-02-15-08:59:14,10.1.1.6,37,0.080,0.080,0.080,0.000,0.000,0.000
1644915554781714944,2022-02-15-08:59:14,10.1.1.6,26,0.070,0.070,0.070,0.000,0.000,0.000
1644915554842035968,2022-02-15-08:59:14,10.1.1.6,36,0.060,0.060,0.060,0.000,0.000,0.000
1644915554942605056,2022-02-15-08:59:14,10.1.1.6,35,0.040,0.040,0.040,0.000,0.000,0.000
1644915554982285056,2022-02-15-08:59:14,10.1.1.6,25,0.030,0.030,0.030,0.000,0.000,0.000
1644915555042383872,2022-02-15-08:59:15,10.1.1.6,34,0.020,0.020,0.020,0.000,0.000,0.000
1644915555093914112,2022-02-15-08:59:15,10.1.1.6,24,0.010,0.010,0.010,0.000,0.000,0.000
1644915555202692864,2022-02-15-08:59:15,10.1.1.6,27,-0.010,-0.010,-0.010,0.000,0.000,0.000
1644915555262558976,2022-02-15-08:59:15,10.1.1.6,37,-0.020,-0.020,-0.020,0.000,0.000,0.000
1644915555302082048,2022-02-15-08:59:15,10.1.1.6,26,-0.030,-0.030,-0.030,0.000,0.000,0.000
1644915555362416896,2022-02-15-08:59:15,10.1.1.6,36,-0.040,-0.040,-0.040,0.000,0.000,0.000
1644915555402317056,2022-02-15-08:59:15,10.1.1.6,25,-0.050,-0.050,-0.050,0.000,0.000,0.000
1644915555463109120,2022-02-15-08:59:15,10.1.1.6,35,-0.060,-0.060,-0.060,0.000,0.000,0.000
1644915555502194944,2022-02-15-08:59:15,10.1.1.6,25,-0.070,-0.070,-0.070,0.000,0.000,0.000
1644915555561809152,2022-02-15-08:59:15,10.1.1.6,34,-0.080,-0.080,-0.080,0.000,0.000,0.000
1644915555602328064,2022-02-15-08:59:15,10.1.1.6,24,-0.090,-0.090,-0.090,0.000,0.000,0.000
1644915555683051008,2022-02-15-08:59:15,10.1.1.6,3,-0.090,-0.090,-0.090,0.000,0.000,0.000
1644915555843674880,2022-02-15-08:59:15,10.1.1.6,39,-0.070,-0.070,-0.070,0.000,0.000,0.000
1644915555882686976,2022-02-15-08:59:15,10.1.1.6,28,-0.060,-0.060,-0.060,0.000,0.000,0.000
1644915555944453120,2022-02-15-08:59:15,10.1.1.6,37,-0.050,-0.050,-0.050,0.000,0.000,0.000
1644915555987410944,2022-02-15-08:59:15,10.1.1.6,26,-0.040,-0.040,-0.040,0.000,0.000,0.000
1644915556046447872,2022-02-15-08:59:16,10.1.1.6,36,-0.030,-0.030,-0.030,0.000,0.000,0.000
1644915556085875968,2022-02-15-08:59:16,10.1.1.6,25,-0.020,-0.020,-0.020,0.000,0.000,0.000
1644915556166141952,2022-02-15-08:59:16,10.1.1.6,46,-0.010,-0.010,-0.010,0.000,0.000,0.000
1644915556216814080,2022-02-15-08:59:16,10.1.1.6,32,0.000,0.000,0.000,0.000,0.000,0.000
1644915556364947200,2022-02-15-08:59:16,10.1.1.6,38,0.030,0.030,0.030,0.000,0.000,0.000
1644915556402731776,2022-02-15-08:59:16,10.1.1.6,28,0.040,0.040,0.040,0.000,0.000,0.000
1644915556463368960,2022-02-15-08:59:16,10.1.1.6,35,0.050,0.050,0.050,0.000,0.000,0.000
1644915556521747968,2022-02-15-08:59:16,10.1.1.6,24,0.060,0.060,0.060,0.000,0.000,0.000
1644915556564621056,2022-02-15-08:59:16,10.1.1.6,30,0.070,0.070,0.070,0.000,0.000,0.000
1644915556626488064,2022-02-15-08:59:16,10.1.1.6,39,0.080,0.080,0.080,0.000,0.000,0.000
1644915556663037952,2022-02-15-08:59:16,10.1.1.6,28,0.090,0.090,0.090,0.000,0.000,0.000
1644915556721657088,2022-02-15-08:59:16,10.1.1.6,33,0.100,0.100,0.100,0.000,0.000,0.000
1644915556762612992,2022-02-15-08:59:16,10.1.1.6,24,0.090,0.090,0.090,0.000,0.000,0.000
1644915556884075008,2022-02-15-08:59:16,10.1.1.6,37,0.070,0.070,0.070,0.000,0.000,0.000
1644915556924089856,2022-02-15-08:59:16,10.1.1.6,26,0.060,0.060,0.060,0.000,0.000,0.000
1644915556985428992,2022-02-15-08:59:16,10.1.1.6,35,0.050,0.050,0.050,0.000,0.000,0.000
1644915557022653184,2022-02-15-08:59:17,10.1.1.6,23,0.040,0.040,0.040,0.000,0.000,0.000
1644915557144284928,2022-02-15-08:59:17,10.1.1.6,35,0.020,0.020,0.020,0.000,0.000,0.000
1644915557182502144,2022-02-15-08:59:17,10.1.1.6,24,0.010,0.010,0.010,0.000,0.000,0.000
1644915557403113984,2022-02-15-08:59:17,10.1.1.6,36,-0.030,-0.030,-0.030,0.000,0.000,0.000
1644915557443300864,2022-02-15-08:59:17,10.1.1.6,26,-0.040,-0.040,-0.040,0.000,0.000,0.000
1644915557503305984,2022-02-15-08:59:17,10.1.1.6,35,-0.050,-0.050,-0.050,0.000,0.000,0.000
1644915557542691072,2022-02-15-08:59:17,10.1.1.6,24,-0.060,-0.060,-0.060,0.000,0.000,0.000
1644915557744990976,2022-02-15-08:59:17,10.1.1.6,22,-0.100,-0.100,-0.100,0.000,0.000,0.000
1644915557803090944,2022-02-15-08:59:17,10.1.1.6,29,-0.090,-0.090,-0.090,0.000,0.000,0.000
1644915557962626048,2022-02-15-08:59:17,10.1.1.6,37,-0.060,-0.060,-0.060,0.000,0.000,0.000
1644915558002751232,2022-02-15-08:59:18,10.1.1.6,25,-0.050,-0.050,-0.050,0.000,0.000,0.000
1644915558062731008,2022-02-15-08:59:18,10.1.1.6,35,-0.040,-0.040,-0.040,0.000,0.000,0.000
1644915558103279104,2022-02-15-08:59:18,10.1.1.6,24,-0.030,-0.030,-0.030,0.000,0.000,0.000
1644915558162790912,2022-02-15-08:59:18,10.1.1.6,33,-0.020,-0.020,-0.020,0.000,0.000,0.000
1644915558383128832,2022-02-15-08:59:18,10.1.1.6,35,0.020,0.020,0.020,0.000,0.000,0.000
1644915558423203072,2022-02-15-08:59:18,10.1.1.6,24,0.030,0.030,0.030,0.000,0.000,0.000
1644915558642689024,2022-02-15-08:59:18,10.1.1.6,39,0.070,0.070,0.070,0.000,0.000,0.000
1644915558683324928,2022-02-15-08:59:18,10.1.1.6,28,0.080,0.080,0.080,0.000,0.000,0.000
1644915558743458048,2022-02-15-08:59:18,10.1.1.6,37,0.090,0.090,0.090,0.000,0.000,0.000
1644915558783483904,2022-02-15-08:59:18,10.1.1.6,26,0.100,0.100,0.100,0.000,0.000,0.000
1644915558844142080,2022-02-15-08:59:18,10.1.1.6,36,0.090,0.090,0.090,0.000,0.000,0.000
1644915558882676992,2022-02-15-08:59:18,10.1.1.6,25,0.080,0.080,0.080,0.000,0.000,0.000
1644915558952677888,2022-02-15-08:59:18,10.1.1.6,35,0.070,0.070,0.070,0.000,0.000,0.000
1644915558983581184,2022-02-15-08:59:18,10.1.1.6,24,0.060,0.060,0.060,0.000,0.000,0.000
1644915559102662144,2022-02-15-08:59:19,10.1.1.6,29,0.040,0.040,0.040,0.000,0.000,0.000
1644915559163398144,2022-02-15-08:59:19,10.1.1.6,37,0.030,0.030,0.030,0.000,0.000,0.000
1644915559202411776,2022-02-15-08:59:19,10.1.1.6,26,0.020,0.020,0.020,0.000,0.000,0.000
1644915559264014080,2022-02-15-08:59:19,10.1.1.6,36,0.010,0.010,0.010,0.000,0.000,0.000
1644915559305782016,2022-02-15-08:59:19,10.1.1.6,24,0.000,0.000,0.000,0.000,0.000,0.000
1644915559366224896,2022-02-15-08:59:19,10.1.1.6,29,-0.010,-0.010,-0.010,0.000,0.000,0.000
1644915559424144128,2022-02-15-08:59:19,10.1.1.6,38,-0.020,-0.020,-0.020,0.000,0.000,0.000
1644915559463884032,2022-02-15-08:59:19,10.1.1.6,26,-0.030,-0.030,-0.030,0.000,0.000,0.000
1644915559522178816,2022-02-15-08:59:19,10.1.1.6,35,-0.040,-0.040,-0.040,0.000,0.000,0.000
1644915559562927872,2022-02-15-08:59:19,10.1.1.6,24,-0.050,-0.050,-0.050,0.000,0.000,0.000
1644915559723661056,2022-02-15-08:59:19,10.1.1.6,29,-0.080,-0.080,-0.080,0.000,0.000,0.000
1644915559902582016,2022-02-15-08:59:19,10.1.1.6,23,-0.090,-0.090,-0.090,0.000,0.000,0.000
1644915560122930176,2022-02-15-08:59:20,10.1.1.6,39,-0.050,-0.050,-0.050,0.000,0.000,0.000
1644915560162172160,2022-02-15-08:59:20,10.1.1.6,29,-0.040,-0.040,-0.040,0.000,0.000,0.000
1644915560262605824,2022-02-15-08:59:20,10.1.1.6,28,-0.020,-0.020,-0.020,0.000,0.000,0.000
1644915560322300928,2022-02-15-08:59:20,10.1.1.6,37,-0.010,-0.010,-0.010,0.000,0.000,0.000
1644915560367803136,2022-02-15-08:59:20,10.1.1.6,26,0.000,0.000,0.000,0.000,0.000,0.000
1644915560422540800,2022-02-15-08:59:20,10.1.1.6,36,0.010,0.010,0.010,0.000,0.000,0.000
1644915560462403072,2022-02-15-08:59:20,10.1.1.6,24,0.020,0.020,0.020,0.000,0.000,0.000
1644915560662755840,2022-02-15-08:59:20,10.1.1.6,19,0.060,0.060,0.060,0.000,0.000,0.000
1644915560723162880,2022-02-15-08:59:20,10.1.1.6,28,0.070,0.070,0.070,0.000,0.000,0.000
1644915560783514112,2022-02-15-08:59:20,10.1.1.6,36,0.080,0.080,0.080,0.000,0.000,0.000
1644915560822990848,2022-02-15-08:59:20,10.1.1.6,25,0.090,0.090,0.090,0.000,0.000,0.000
1644915560905261056,2022-02-15-08:59:20,10.1.1.6,1,0.090,0.090,0.090,0.000,0.000,0.000
1644915561142636032,2022-02-15-08:59:21,10.1.1.6,39,0.050,0.050,0.050,0.000,0.000,0.000
1644915561182962944,2022-02-15-08:59:21,10.1.1.6,29,0.040,0.040,0.040,0.000,0.000,0.000
1644915561242848000,2022-02-15-08:59:21,10.1.1.6,38,0.030,0.030,0.030,0.000,0.000,0.000
1644915561281851904,2022-02-15-08:59:21,10.1.1.6,27,0.020,0.020,0.020,0.000,0.000,0.000
1644915561342366976,2022-02-15-08:59:21,10.1.1.6,37,0.010,0.010,0.010,0.000,0.000,0.000
1644915561382697216,2022-02-15-08:59:21,10.1.1.6,25,0.000,0.000,0.000,0.000,0.000,0.000
1644915561443721984,2022-02-15-08:59:21,10.1.1.6,35,-0.010,-0.010,-0.010,0.000,0.000,0.000
1644915561605340928,2022-02-15-08:59:21,10.1.1.6,38,-0.040,-0.040,-0.040,0.000,0.000,0.000
1644915561703397888,2022-02-15-08:59:21,10.1.1.6,34,-0.060,-0.060,-0.060,0.000,0.000,0.000
1644915561841857792,2022-02-15-08:59:21,10.1.1.6,20,-0.090,-0.090,-0.090,0.000,0.000,0.000
1644915561902238976,2022-02-15-08:59:21,10.1.1.6,29,-0.100,-0.100,-0.100,0.000,0.000,0.000
1644915561962408960,2022-02-15-08:59:21,10.1.1.6,37,-0.090,-0.090,-0.090,0.000,0.000,0.000
1644915562002241024,2022-02-15-08:59:22,10.1.1.6,24,-0.080,-0.080,-0.080,0.000,0.000,0.000
1644915562062750976,2022-02-15-08:59:22,10.1.1.6,34,-0.070,-0.070,-0.070,0.000,0.000,0.000
1644915562302580224,2022-02-15-08:59:22,10.1.1.6,20,-0.020,-0.020,-0.020,0.000,0.000,0.000
1644915562362329856,2022-02-15-08:59:22,10.1.1.6,29,-0.010,-0.010,-0.010,0.000,0.000,0.000
1644915562423315968,2022-02-15-08:59:22,10.1.1.6,38,0.000,0.000,0.000,0.000,0.000,0.000
1644915562463087104,2022-02-15-08:59:22,10.1.1.6,27,0.010,0.010,0.010,0.000,0.000,0.000
1644915562522131968,2022-02-15-08:59:22,10.1.1.6,37,0.020,0.020,0.020,0.000,0.000,0.000
1644915562564055808,2022-02-15-08:59:22,10.1.1.6,24,0.030,0.030,0.030,0.000,0.000,0.000
1644915562882323968,2022-02-15-08:59:22,10.1.1.6,38,0.090,0.090,0.090,0.000,0.000,0.000
1644915562921787904,2022-02-15-08:59:22,10.1.1.6,27,0.100,0.100,0.100,0.000,0.000,0.000
1644915562982522112,2022-02-15-08:59:22,10.1.1.6,36,0.090,0.090,0.090,0.000,0.000,0.000
1644915563023304960,2022-02-15-08:59:23,10.1.1.6,25,0.080,0.080,0.080,0.000,0.000,0.000
1644915563242286848,2022-02-15-08:59:23,10.1.1.6,35,0.040,0.040,0.040,0.000,0.000,0.000
1644915563501862144,2022-02-15-08:59:23,10.1.1.6,39,-0.010,-0.010,-0.010,0.000,0.000,0.000
1644915563541954048,2022-02-15-08:59:23,10.1.1.6,29,-0.020,-0.020,-0.020,0.000,0.000,0.000
1644915563601924864,2022-02-15-08:59:23,10.1.1.6,38,-0.030,-0.030,-0.030,0.000,0.000,0.000
1644915563641673216,2022-02-15-08:59:23,10.1.1.6,27,-0.040,-0.040,-0.040,0.000,0.000,0.000
1644915563702564864,2022-02-15-08:59:23,10.1.1.6,37,-0.050,-0.050,-0.050,0.000,0.000,0.000
1644915563745614080,2022-02-15-08:59:23,10.1.1.6,26,-0.060,-0.060,-0.060,0.000,0.000,0.000
1644915563863079168,2022-02-15-08:59:23,10.1.1.6,37,-0.080,-0.080,-0.080,0.000,0.000,0.000
1644915563901940992,2022-02-15-08:59:23,10.1.1.6,26,-0.090,-0.090,-0.090,0.000,0.000,0.000
1644915563962796800,2022-02-15-08:59:23,10.1.1.6,36,-0.100,-0.100,-0.100,0.000,0.000,0.000
1644915564002940928,2022-02-15-08:59:24,10.1.1.6,25,-0.090,-0.090,-0.090,0.000,0.000,0.000
1644915564062038784,2022-02-15-08:59:24,10.1.1.6,34,-0.080,-0.080,-0.080,0.000,0.000,0.000
1644915564162663936,2022-02-15-08:59:24,10.1.1.6,28,-0.060,-0.060,-0.060,0.000,0.000,0.000
1644915564222661120,2022-02-15-08:59:24,10.1.1.6,37,-0.050,-0.050,-0.050,0.000,0.000,0.000
1644915564262693888,2022-02-15-08:59:24,10.1.1.6,25,-0.040,-0.040,-0.040,0.000,0.000,0.000
1644915564522984960,2022-02-15-08:59:24,10.1.1.6,27,0.010,0.010,0.010,0.000,0.000,0.000
1644915564582284800,2022-02-15-08:59:24,10.1.1.6,37,0.020,0.020,0.020,0.000,0.000,0.000
1644915564623232000,2022-02-15-08:59:24,10.1.1.6,26,0.030,0.030,0.030,0.000,0.000,0.000
1644915564682337024,2022-02-15-08:59:24,10.1.1.6,35,0.040,0.040,0.040,0.000,0.000,0.000
1644915564722394880,2022-02-15-08:59:24,10.1.1.6,24,0.050,0.050,0.050,0.000,0.000,0.000
1644915564782369024,2022-02-15-08:59:24,10.1.1.6,34,0.060,0.060,0.060,0.000,0.000,0.000
1644915564822482944,2022-02-15-08:59:24,10.1.1.6,24,0.070,0.070,0.070,0.000,0.000,0.000
1644915565042516992,2022-02-15-08:59:25,10.1.1.6,39,0.090,0.090,0.090,0.000,0.000,0.000
1644915565082519040,2022-02-15-08:59:25,10.1.1.6,29,0.080,0.080,0.080,0.000,0.000,0.000
1644915565142576896,2022-02-15-08:59:25,10.1.1.6,39,0.070,0.070,0.070,0.000,0.000,0.000
1644915565182910976,2022-02-15-08:59:25,10.1.1.6,29,0.060,0.060,0.060,0.000,0.000,0.000
1644915565242422016,2022-02-15-08:59:25,10.1.1.6,38,0.050,0.050,0.050,0.000,0.000,0.000
1644915565282094080,2022-02-15-08:59:25,10.1.1.6,27,0.040,0.040,0.040,0.000,0.000,0.000
1644915565341707008,2022-02-15-08:59:25,10.1.1.6,36,0.030,0.030,0.030,0.000,0.000,0.000
1644915565382123008,2022-02-15-08:59:25,10.1.1.6,26,0.020,0.020,0.020,0.000,0.000,0.000
1644915565566912768,2022-02-15-08:59:25,10.1.1.6,28,0.000,0.000,0.000,0.000,0.000,0.000
1644915565603033088,2022-02-15-08:59:25,10.1.1.6,35,-0.010,-0.010,-0.010,0.000,0.000,0.000
1644915565642187008,2022-02-15-08:59:25,10.1.1.6,24,-0.020,-0.020,-0.020,0.000,0.000,0.000
1644915565825617920,2022-02-15-08:59:25,10.1.1.6,35,-0.050,-0.050,-0.050,0.000,0.000,0.000
1644915565866624000,2022-02-15-08:59:25,10.1.1.6,24,-0.060,-0.060,-0.060,0.000,0.000,0.000
1644915566154956032,2022-02-15-08:59:26,10.1.1.6,37,-0.090,-0.090,-0.090,0.000,0.000,0.000
1644915566195804160,2022-02-15-08:59:26,10.1.1.6,25,-0.080,-0.080,-0.080,0.000,0.000,0.000
1644915566243134976,2022-02-15-08:59:26,10.1.1.6,34,-0.070,-0.070,-0.070,0.000,0.000,0.000
1644915566362571008,2022-02-15-08:59:26,10.1.1.6,26,-0.050,-0.050,-0.050,0.000,0.000,0.000
1644915566422377984,2022-02-15-08:59:26,10.1.1.6,34,-0.040,-0.040,-0.040,0.000,0.000,0.000
1644915566478298880,2022-02-15-08:59:26,10.1.1.6,24,-0.030,-0.030,-0.030,0.000,0.000,0.000
1644915566523194112,2022-02-15-08:59:26,10.1.1.6,27,-0.020,-0.020,-0.020,0.000,0.000,0.000
1644915566584649984,2022-02-15-08:59:26,10.1.1.6,19,-0.011,-0.011,-0.011,0.000,0.000,0.000
1644915566642110976,2022-02-15-08:59:26,10.1.1.6,27,0.000,0.000,0.000,0.000,0.000,0.000
1644915566702862080,2022-02-15-08:59:26,10.1.1.6,37,0.010,0.010,0.010,0.000,0.000,0.000
1644915566830436096,2022-02-15-08:59:26,10.1.1.6,25,0.030,0.030,0.030,0.000,0.000,0.000
1644915566982121984,2022-02-15-08:59:26,10.1.1.6,29,0.060,0.060,0.060,0.000,0.000,0.000
1644915567050960128,2022-02-15-08:59:27,10.1.1.6,39,0.070,0.070,0.070,0.000,0.000,0.000
1644915567081918976,2022-02-15-08:59:27,10.1.1.6,28,0.080,0.080,0.080,0.000,0.000,0.000
1644915567141943808,2022-02-15-08:59:27,10.1.1.6,37,0.090,0.090,0.090,0.000,0.000,0.000
1644915567182848000,2022-02-15-08:59:27,10.1.1.6,26,0.100,0.100,0.100,0.000,0.000,0.000
1644915567242088960,2022-02-15-08:59:27,10.1.1.6,35,0.090,0.090,0.090,0.000,0.000,0.000
1644915567282244864,2022-02-15-08:59:27,10.1.1.6,24,0.080,0.080,0.080,0.000,0.000,0.000
1644915567342609920,2022-02-15-08:59:27,10.1.1.6,33,0.070,0.070,0.070,0.000,0.000,0.000
1644915567582667008,2022-02-15-08:59:27,10.1.1.6,19,0.020,0.020,0.020,0.000,0.000,0.000
1644915567642628864,2022-02-15-08:59:27,10.1.1.6,29,0.010,0.010,0.010,0.000,0.000,0.000
1644915567702748160,2022-02-15-08:59:27,10.1.1.6,38,0.000,0.000,0.000,0.000,0.000,0.000
1644915567755631872,2022-02-15-08:59:27,10.1.1.6,27,-0.010,-0.010,-0.010,0.000,0.000,0.000
1644915567862031872,2022-02-15-08:59:27,10.1.1.6,34,-0.030,-0.030,-0.030,0.000,0.000,0.000
1644915567901842176,2022-02-15-08:59:27,10.1.1.6,24,-0.040,-0.040,-0.040,0.000,0.000,0.000
1644915568001965056,2022-02-15-08:59:28,10.1.1.6,19,-0.060,-0.060,-0.060,0.000,0.000,0.000
1644915568063358976,2022-02-15-08:59:28,10.1.1.6,29,-0.070,-0.070,-0.070,0.000,0.000,0.000
1644915568122891008,2022-02-15-08:59:28,10.1.1.6,34,-0.080,-0.080,-0.080,0.000,0.000,0.000
1644915568282302976,2022-02-15-08:59:28,10.1.1.6,39,-0.090,-0.090,-0.090,0.000,0.000,0.000
1644915568322921984,2022-02-15-08:59:28,10.1.1.6,28,-0.080,-0.080,-0.080,0.000,0.000,0.000
1644915568382523136,2022-02-15-08:59:28,10.1.1.6,38,-0.070,-0.070,-0.070,0.000,0.000,0.000
1644915568423746048,2022-02-15-08:59:28,10.1.1.6,25,-0.060,-0.060,-0.060,0.000,0.000,0.000
1644915568582468096,2022-02-15-08:59:28,10.1.1.6,29,-0.030,-0.030,-0.030,0.000,0.000,0.000
1644915568646931968,2022-02-15-08:59:28,10.1.1.6,39,-0.020,-0.020,-0.020,0.000,0.000,0.000
1644915568687038976,2022-02-15-08:59:28,10.1.1.6,28,-0.010,-0.010,-0.010,0.000,0.000,0.000
1644915568742806016,2022-02-15-08:59:28,10.1.1.6,35,0.000,0.000,0.000,0.000,0.000,0.000
1644915568793606912,2022-02-15-08:59:28,10.1.1.6,24,0.010,0.010,0.010,0.000,0.000,0.000
1644915568942946816,2022-02-15-08:59:28,10.1.1.6,29,0.040,0.040,0.040,0.000,0.000,0.000
1644915569005906176,2022-02-15-08:59:29,10.1.1.6,37,0.050,0.050,0.050,0.000,0.000,0.000
1644915569053993984,2022-02-15-08:59:29,10.1.1.6,26,0.060,0.060,0.060,0.000,0.000,0.000
1644915569103171072,2022-02-15-08:59:29,10.1.1.6,36,0.070,0.070,0.070,0.000,0.000,0.000
1644915569143086848,2022-02-15-08:59:29,10.1.1.6,25,0.080,0.080,0.080,0.000,0.000,0.000
1644915569307336192,2022-02-15-08:59:29,10.1.1.6,27,0.090,0.090,0.090,0.000,0.000,0.000
1644915569422946048,2022-02-15-08:59:29,10.1.1.6,27,0.070,0.070,0.070,0.000,0.000,0.000
1644915569602242048,2022-02-15-08:59:29,10.1.1.6,27,0.040,0.040,0.040,0.000,0.000,0.000
1644915569662589952,2022-02-15-08:59:29,10.1.1.6,37,0.030,0.030,0.030,0.000,0.000,0.000
1644915569702199040,2022-02-15-08:59:29,10.1.1.6,26,0.020,0.020,0.020,0.000,0.000,0.000
1644915569762181888,2022-02-15-08:59:29,10.1.1.6,36,0.010,0.010,0.010,0.000,0.000,0.000
1644915570122149888,2022-02-15-08:59:30,10.1.1.6,39,-0.060,-0.060,-0.060,0.000,0.000,0.000
1644915570162810112,2022-02-15-08:59:30,10.1.1.6,29,-0.070,-0.070,-0.070,0.000,0.000,0.000
1644915570222120960,2022-02-15-08:59:30,10.1.1.6,38,-0.080,-0.080,-0.080,0.000,0.000,0.000
1644915570262810880,2022-02-15-08:59:30,10.1.1.6,27,-0.090,-0.090,-0.090,0.000,0.000,0.000
1644915570321852928,2022-02-15-08:59:30,10.1.1.6,37,-0.100,-0.100,-0.100,0.000,0.000,0.000
1644915570369571840,2022-02-15-08:59:30,10.1.1.6,26,-0.090,-0.090,-0.090,0.000,0.000,0.000
1644915570462374912,2022-02-15-08:59:30,10.1.1.6,26,-0.070,-0.070,-0.070,0.000,0.000,0.000
1644915570522236160,2022-02-15-08:59:30,10.1.1.6,35,-0.060,-0.060,-0.060,0.000,0.000,0.000
1644915570562448896,2022-02-15-08:59:30,10.1.1.6,23,-0.050,-0.050,-0.050,0.000,0.000,0.000
1644915570724303104,2022-02-15-08:59:30,10.1.1.6,29,-0.020,-0.020,-0.020,0.000,0.000,0.000
1644915570782044928,2022-02-15-08:59:30,10.1.1.6,38,-0.010,-0.010,-0.010,0.000,0.000,0.000
1644915570822167040,2022-02-15-08:59:30,10.1.1.6,26,0.000,0.000,0.000,0.000,0.000,0.000
1644915570882287872,2022-02-15-08:59:30,10.1.1.6,34,0.010,0.010,0.010,0.000,0.000,0.000
1644915570982661120,2022-02-15-08:59:30,10.1.1.6,27,0.030,0.030,0.030,0.000,0.000,0.000
1644915571042038016,2022-02-15-08:59:31,10.1.1.6,35,0.040,0.040,0.040,0.000,0.000,0.000
1644915571204668160,2022-02-15-08:59:31,10.1.1.6,39,0.070,0.070,0.070,0.000,0.000,0.000
1644915571302688000,2022-02-15-08:59:31,10.1.1.6,35,0.090,0.090,0.090,0.000,0.000,0.000
1644915571342750976,2022-02-15-08:59:31,10.1.1.6,24,0.100,0.100,0.100,0.000,0.000,0.000
1644915571402912000,2022-02-15-08:59:31,10.1.1.6,33,0.090,0.090,0.090,0.000,0.000,0.000
1644915571602935040,2022-02-15-08:59:31,10.1.1.6,29,0.050,0.050,0.050,0.000,0.000,0.000
1644915571662537216,2022-02-15-08:59:31,10.1.1.6,39,0.040,0.040,0.040,0.000,0.000,0.000
1644915571702749952,2022-02-15-08:59:31,10.1.1.6,29,0.030,0.030,0.030,0.000,0.000,0.000
1644915571762764032,2022-02-15-08:59:31,10.1.1.6,38,0.020,0.020,0.020,0.000,0.000,0.000
1644915571804548096,2022-02-15-08:59:31,10.1.1.6,26,0.010,0.010,0.010,0.000,0.000,0.000
1644915571862205952,2022-02-15-08:59:31,10.1.1.6,36,0.000,0.000,0.000,0.000,0.000,0.000
1644915571962023936,2022-02-15-08:59:31,10.1.1.6,34,-0.020,-0.020,-0.020,0.000,0.000,0.000
1644915572002320128,2022-02-15-08:59:32,10.1.1.6,23,-0.030,-0.030,-0.030,0.000,0.000,0.000
1644915572302427904,2022-02-15-08:59:32,10.1.1.6,19,-0.090,-0.090,-0.090,0.000,0.000,0.000
1644915572362333184,2022-02-15-08:59:32,10.1.1.6,28,-0.100,-0.100,-0.100,0.000,0.000,0.000
1644915572422339072,2022-02-15-08:59:32,10.1.1.6,36,-0.090,-0.090,-0.090,0.000,0.000,0.000
1644915572462024960,2022-02-15-08:59:32,10.1.1.6,26,-0.080,-0.080,-0.080,0.000,0.000,0.000
1644915572521817856,2022-02-15-08:59:32,10.1.1.6,35,-0.070,-0.070,-0.070,0.000,0.000,0.000
1644915572562192896,2022-02-15-08:59:32,10.1.1.6,25,-0.060,-0.060,-0.060,0.000,0.000,0.000
1644915572622728960,2022-02-15-08:59:32,10.1.1.6,34,-0.050,-0.050,-0.050,0.000,0.000,0.000
1644915572664201984,2022-02-15-08:59:32,10.1.1.6,24,-0.040,-0.040,-0.040,0.000,0.000,0.000
1644915572903245056,2022-02-15-08:59:32,10.1.1.6,36,-0.010,-0.010,-0.010,0.000,0.000,0.000
1644915572943959040,2022-02-15-08:59:32,10.1.1.6,25,0.000,0.000,0.000,0.000,0.000,0.000
1644915573106526976,2022-02-15-08:59:33,10.1.1.6,25,0.030,0.030,0.030,0.000,0.000,0.000
1644915573222402048,2022-02-15-08:59:33,10.1.1.6,24,0.050,0.050,0.050,0.000,0.000,0.000
1644915573482286080,2022-02-15-08:59:33,10.1.1.6,20,0.100,0.100,0.100,0.000,0.000,0.000
1644915573542295040,2022-02-15-08:59:33,10.1.1.6,28,0.090,0.090,0.090,0.000,0.000,0.000
1644915573602246912,2022-02-15-08:59:33,10.1.1.6,38,0.080,0.080,0.080,0.000,0.000,0.000
1644915573642412032,2022-02-15-08:59:33,10.1.1.6,27,0.070,0.070,0.070,0.000,0.000,0.000
1644915573702127872,2022-02-15-08:59:33,10.1.1.6,36,0.060,0.060,0.060,0.000,0.000,0.000
1644915573744856064,2022-02-15-08:59:33,10.1.1.6,25,0.050,0.050,0.050,0.000,0.000,0.000
1644915573862622976,2022-02-15-08:59:33,10.1.1.6,39,0.030,0.030,0.030,0.000,0.000,0.000
1644915573903408128,2022-02-15-08:59:33,10.1.1.6,28,0.020,0.020,0.020,0.000,0.000,0.000
1644915573962633984,2022-02-15-08:59:33,10.1.1.6,35,0.010,0.010,0.010,0.000,0.000,0.000
1644915574002824192,2022-02-15-08:59:34,10.1.1.6,24,0.000,0.000,0.000,0.000,0.000,0.000
1644915574073622016,2022-02-15-08:59:34,10.1.1.6,33,-0.010,-0.010,-0.010,0.000,0.000,0.000
1644915574122550016,2022-02-15-08:59:34,10.1.1.6,38,-0.020,-0.020,-0.020,0.000,0.000,0.000
1644915574165245952,2022-02-15-08:59:34,10.1.1.6,27,-0.030,-0.030,-0.030,0.000,0.000,0.000
1644915574282694144,2022-02-15-08:59:34,10.1.1.6,36,-0.050,-0.050,-0.050,0.000,0.000,0.000
1644915574322671872,2022-02-15-08:59:34,10.1.1.6,24,-0.060,-0.060,-0.060,0.000,0.000,0.000
1644915574483254784,2022-02-15-08:59:34,10.1.1.6,29,-0.090,-0.090,-0.090,0.000,0.000,0.000
1644915574543590912,2022-02-15-08:59:34,10.1.1.6,37,-0.100,-0.100,-0.100,0.000,0.000,0.000
1644915574583667968,2022-02-15-08:59:34,10.1.1.6,25,-0.090,-0.090,-0.090,0.000,0.000,0.000
1644915574902582016,2022-02-15-08:59:34,10.1.1.6,39,-0.030,-0.030,-0.030,0.000,0.000,0.000
1644915574943168000,2022-02-15-08:59:34,10.1.1.6,26,-0.020,-0.020,-0.020,0.000,0.000,0.000
1644915575202595072,2022-02-15-08:59:35,10.1.1.6,29,0.030,0.030,0.030,0.000,0.000,0.000
1644915575322427136,2022-02-15-08:59:35,10.1.1.6,27,0.050,0.050,0.050,0.000,0.000,0.000
1644915575383119104,2022-02-15-08:59:35,10.1.1.6,37,0.060,0.060,0.060,0.000,0.000,0.000
1644915575422217984,2022-02-15-08:59:35,10.1.1.6,26,0.070,0.070,0.070,0.000,0.000,0.000
1644915575482192896,2022-02-15-08:59:35,10.1.1.6,35,0.080,0.080,0.080,0.000,0.000,0.000
1644915575522247936,2022-02-15-08:59:35,10.1.1.6,24,0.090,0.090,0.090,0.000,0.000,0.000
1644915575582222080,2022-02-15-08:59:35,10.1.1.6,33,0.100,0.100,0.100,0.000,0.000,0.000
1644915575922348032,2022-02-15-08:59:35,10.1.1.6,19,0.030,0.030,0.030,0.000,0.000,0.000
1644915575982156032,2022-02-15-08:59:35,10.1.1.6,29,0.020,0.020,0.020,0.000,0.000,0.000
1644915576041917952,2022-02-15-08:59:36,10.1.1.6,38,0.010,0.010,0.010,0.000,0.000,0.000
1644915576082284800,2022-02-15-08:59:36,10.1.1.6,27,0.000,0.000,0.000,0.000,0.000,0.000
1644915576142079232,2022-02-15-08:59:36,10.1.1.6,37,-0.010,-0.010,-0.010,0.000,0.000,0.000
1644915576182540800,2022-02-15-08:59:36,10.1.1.6,26,-0.020,-0.020,-0.020,0.000,0.000,0.000
1644915576242824192,2022-02-15-08:59:36,10.1.1.6,36,-0.030,-0.030,-0.030,0.000,0.000,0.000
1644915576282040064,2022-02-15-08:59:36,10.1.1.6,25,-0.040,-0.040,-0.040,0.000,0.000,0.000
1644915576341783040,2022-02-15-08:59:36,10.1.1.6,35,-0.050,-0.050,-0.050,0.000,0.000,0.000
1644915576382013184,2022-02-15-08:59:36,10.1.1.6,25,-0.060,-0.060,-0.060,0.000,0.000,0.000
1644915576442465024,2022-02-15-08:59:36,10.1.1.6,34,-0.070,-0.070,-0.070,0.000,0.000,0.000
1644915576482439936,2022-02-15-08:59:36,10.1.1.6,23,-0.080,-0.080,-0.080,0.000,0.000,0.000
1644915576662338048,2022-02-15-08:59:36,10.1.1.6,1,-0.080,-0.080,-0.080,0.000,0.000,0.000
1644915576902099968,2022-02-15-08:59:36,10.1.1.6,39,-0.040,-0.040,-0.040,0.000,0.000,0.000
1644915576943280896,2022-02-15-08:59:36,10.1.1.6,27,-0.030,-0.030,-0.030,0.000,0.000,0.000
1644915577003133952,2022-02-15-08:59:37,10.1.1.6,36,-0.020,-0.020,-0.020,0.000,0.000,0.000
1644915577042767104,2022-02-15-08:59:37,10.1.1.6,25,-0.010,-0.010,-0.010,0.000,0.000,0.000
1644915577102492160,2022-02-15-08:59:37,10.1.1.6,34,0.000,0.000,0.000,0.000,0.000,0.000
1644915577142342144,2022-02-15-08:59:37,10.1.1.6,23,0.010,0.010,0.010,0.000,0.000,0.000
1644915577302548992,2022-02-15-08:59:37,10.1.1.6,30,0.040,0.040,0.040,0.000,0.000,0.000
1644915577362643968,2022-02-15-08:59:37,10.1.1.6,36,0.050,0.050,0.050,0.000,0.000,0.000
1644915577402322944,2022-02-15-08:59:37,10.1.1.6,24,0.060,0.060,0.060,0.000,0.000,0.000
1644915577462065920,2022-02-15-08:59:37,10.1.1.6,33,0.070,0.070,0.070,0.000,0.000,0.000
1644915577622773760,2022-02-15-08:59:37,10.1.1.6,37,0.100,0.100,0.100,0.000,0.000,0.000
1644915577662370048,2022-02-15-08:59:37,10.1.1.6,27,0.090,0.090,0.090,0.000,0.000,0.000
1644915577722513920,2022-02-15-08:59:37,10.1.1.6,34,0.080,0.080,0.080,0.000,0.000,0.000
1644915578042524160,2022-02-15-08:59:38,10.1.1.6,37,0.020,0.020,0.020,0.000,0.000,0.000
1644915578082420992,2022-02-15-08:59:38,10.1.1.6,26,0.010,0.010,0.010,0.000,0.000,0.000
1644915578142863104,2022-02-15-08:59:38,10.1.1.6,36,0.000,0.000,0.000,0.000,0.000,0.000
1644915578182313984,2022-02-15-08:59:38,10.1.1.6,25,-0.010,-0.010,-0.010,0.000,0.000,0.000
1644915578245344000,2022-02-15-08:59:38,10.1.1.6,33,-0.020,-0.020,-0.020,0.000,0.000,0.000
1644915578442689024,2022-02-15-08:59:38,10.1.1.6,29,-0.060,-0.060,-0.060,0.000,0.000,0.000
1644915578502818048,2022-02-15-08:59:38,10.1.1.6,38,-0.070,-0.070,-0.070,0.000,0.000,0.000
1644915578543014912,2022-02-15-08:59:38,10.1.1.6,28,-0.080,-0.080,-0.080,0.000,0.000,0.000
1644915578604377088,2022-02-15-08:59:38,10.1.1.6,33,-0.090,-0.090,-0.090,0.000,0.000,0.000
1644915578694886912,2022-02-15-08:59:38,10.1.1.6,-5,-0.090,-0.090,-0.090,0.000,0.000,0.000
1644915578834638080,2022-02-15-08:59:38,10.1.1.6,28,-0.070,-0.070,-0.070,0.000,0.000,0.000
1644915578882352128,2022-02-15-08:59:38,10.1.1.6,37,-0.060,-0.060,-0.060,0.000,0.000,0.000
1644915578922662144,2022-02-15-08:59:38,10.1.1.6,27,-0.050,-0.050,-0.050,0.000,0.000,0.000
1644915579044635904,2022-02-15-08:59:39,10.1.1.6,35,-0.030,-0.030,-0.030,0.000,0.000,0.000
1644915579082557952,2022-02-15-08:59:39,10.1.1.6,24,-0.020,-0.020,-0.020,0.000,0.000,0.000
1644915579144384000,2022-02-15-08:59:39,10.1.1.6,33,-0.010,-0.010,-0.010,0.000,0.000,0.000
1644915579282639104,2022-02-15-08:59:39,10.1.1.6,28,0.010,0.010,0.010,0.000,0.000,0.000
1644915579342461952,2022-02-15-08:59:39,10.1.1.6,38,0.020,0.020,0.020,0.000,0.000,0.000
1644915579382361856,2022-02-15-08:59:39,10.1.1.6,27,0.030,0.030,0.030,0.000,0.000,0.000
1644915579442068992,2022-02-15-08:59:39,10.1.1.6,36,0.040,0.040,0.040,0.000,0.000,0.000
1644915579482139136,2022-02-15-08:59:39,10.1.1.6,25,0.050,0.050,0.050,0.000,0.000,0.000
1644915579541695232,2022-02-15-08:59:39,10.1.1.6,35,0.060,0.060,0.060,0.000,0.000,0.000
1644915579582230016,2022-02-15-08:59:39,10.1.1.6,24,0.070,0.070,0.070,0.000,0.000,0.000
1644915579643297792,2022-02-15-08:59:39,10.1.1.6,34,0.080,0.080,0.080,0.000,0.000,0.000
1644915579802354176,2022-02-15-08:59:39,10.1.1.6,37,0.090,0.090,0.090,0.000,0.000,0.000
1644915579842114816,2022-02-15-08:59:39,10.1.1.6,24,0.080,0.080,0.080,0.000,0.000,0.000
1644915579902077952,2022-02-15-08:59:39,10.1.1.6,33,0.070,0.070,0.070,0.000,0.000,0.000
1644915580141882880,2022-02-15-08:59:40,10.1.1.6,20,0.020,0.020,0.020,0.000,0.000,0.000
1644915580202539008,2022-02-15-08:59:40,10.1.1.6,29,0.010,0.010,0.010,0.000,0.000,0.000
1644915580262152960,2022-02-15-08:59:40,10.1.1.6,38,0.000,0.000,0.000,0.000,0.000,0.000
1644915580301785856,2022-02-15-08:59:40,10.1.1.6,28,-0.010,-0.010,-0.010,0.000,0.000,0.000
1644915580361820928,2022-02-15-08:59:40,10.1.1.6,36,-0.020,-0.020,-0.020,0.000,0.000,0.000
1644915580402584064,2022-02-15-08:59:40,10.1.1.6,25,-0.030,-0.030,-0.030,0.000,0.000,0.000
1644915580461747968,2022-02-15-08:59:40,10.1.1.6,34,-0.040,-0.040,-0.040,0.000,0.000,0.000
1644915580762750976,2022-02-15-08:59:40,10.1.1.6,29,-0.100,-0.100,-0.100,0.000,0.000,0.000
1644915580823628800,2022-02-15-08:59:40,10.1.1.6,38,-0.090,-0.090,-0.090,0.000,0.000,0.000
1644915580863064064,2022-02-15-08:59:40,10.1.1.6,27,-0.080,-0.080,-0.080,0.000,0.000,0.000
1644915580921709056,2022-02-15-08:59:40,10.1.1.6,35,-0.070,-0.070,-0.070,0.000,0.000,0.000
1644915580962869760,2022-02-15-08:59:40,10.1.1.6,26,-0.060,-0.060,-0.060,0.000,0.000,0.000
1644915581222691072,2022-02-15-08:59:41,10.1.1.6,23,-0.010,-0.010,-0.010,0.000,0.000,0.000
1644915581583282944,2022-02-15-08:59:41,10.1.1.6,29,0.060,0.060,0.060,0.000,0.000,0.000
1644915581642462976,2022-02-15-08:59:41,10.1.1.6,38,0.070,0.070,0.070,0.000,0.000,0.000
1644915581683342848,2022-02-15-08:59:41,10.1.1.6,27,0.080,0.080,0.080,0.000,0.000,0.000
1644915581743155968,2022-02-15-08:59:41,10.1.1.6,38,0.090,0.090,0.090,0.000,0.000,0.000
1644915581783173120,2022-02-15-08:59:41,10.1.1.6,27,0.100,0.100,0.100,0.000,0.000,0.000
1644915581842348032,2022-02-15-08:59:41,10.1.1.6,36,0.090,0.090,0.090,0.000,0.000,0.000
1644915581882147072,2022-02-15-08:59:41,10.1.1.6,25,0.080,0.080,0.080,0.000,0.000,0.000
1644915581943646976,2022-02-15-08:59:41,10.1.1.6,34,0.070,0.070,0.070,0.000,0.000,0.000
1644915581982569984,2022-02-15-08:59:41,10.1.1.6,24,0.060,0.060,0.060,0.000,0.000,0.000
1644915582342160896,2022-02-15-08:59:42,10.1.1.6,29,-0.010,-0.010,-0.010,0.000,0.000,0.000
1644915582449742080,2022-02-15-08:59:42,10.1.1.6,29,-0.030,-0.030,-0.030,0.000,0.000,0.000
1644915582542072064,2022-02-15-08:59:42,10.1.1.6,26,-0.050,-0.050,-0.050,0.000,0.000,0.000
1644915582602149888,2022-02-15-08:59:42,10.1.1.6,35,-0.060,-0.060,-0.060,0.000,0.000,0.000
1644915582641783040,2022-02-15-08:59:42,10.1.1.6,24,-0.070,-0.070,-0.070,0.000,0.000,0.000
1644915582702524928,2022-02-15-08:59:42,10.1.1.6,34,-0.080,-0.080,-0.080,0.000,0.000,0.000
1644915582742489088,2022-02-15-08:59:42,10.1.1.6,24,-0.090,-0.090,-0.090,0.000,0.000,0.000
1644915582802237952,2022-02-15-08:59:42,10.1.1.6,34,-0.100,-0.100,-0.100,0.000,0.000,0.000
1644915582842351872,2022-02-15-08:59:42,10.1.1.6,23,-0.090,-0.090,-0.090,0.000,0.000,0.000
1644915583202776064,2022-02-15-08:59:43,10.1.1.6,29,-0.020,-0.020,-0.020,0.000,0.000,0.000
1644915583262147072,2022-02-15-08:59:43,10.1.1.6,39,-0.010,-0.010,-0.010,0.000,0.000,0.000
1644915583302200064,2022-02-15-08:59:43,10.1.1.6,27,0.000,0.000,0.000,0.000,0.000,0.000
1644915583362000896,2022-02-15-08:59:43,10.1.1.6,36,0.010,0.010,0.010,0.000,0.000,0.000
1644915583402407936,2022-02-15-08:59:43,10.1.1.6,26,0.020,0.020,0.020,0.000,0.000,0.000
1644915583462522880,2022-02-15-08:59:43,10.1.1.6,35,0.030,0.030,0.030,0.000,0.000,0.000
1644915583501764096,2022-02-15-08:59:43,10.1.1.6,24,0.040,0.040,0.040,0.000,0.000,0.000
1644915583762553856,2022-02-15-08:59:43,10.1.1.6,29,0.090,0.090,0.090,0.000,0.000,0.000
1644915583822725888,2022-02-15-08:59:43,10.1.1.6,39,0.100,0.100,0.100,0.000,0.000,0.000
1644915583866800128,2022-02-15-08:59:43,10.1.1.6,28,0.090,0.090,0.090,0.000,0.000,0.000
1644915584182557184,2022-02-15-08:59:44,10.1.1.6,35,0.040,0.040,0.040,0.000,0.000,0.000
1644915584222395904,2022-02-15-08:59:44,10.1.1.6,24,0.030,0.030,0.030,0.000,0.000,0.000
1644915584281837824,2022-02-15-08:59:44,10.1.1.6,34,0.020,0.020,0.020,0.000,0.000,0.000
1644915584322334976,2022-02-15-08:59:44,10.1.1.6,23,0.010,0.010,0.010,0.000,0.000,0.000
1644915584582021888,2022-02-15-08:59:44,10.1.1.6,25,-0.040,-0.040,-0.040,0.000,0.000,0.000
1644915584642843136,2022-02-15-08:59:44,10.1.1.6,35,-0.050,-0.050,-0.050,0.000,0.000,0.000
1644915584684389120,2022-02-15-08:59:44,10.1.1.6,24,-0.060,-0.060,-0.060,0.000,0.000,0.000
1644915585082330880,2022-02-15-08:59:45,10.1.1.6,20,-0.060,-0.060,-0.060,0.000,0.000,0.000
1644915585202440960,2022-02-15-08:59:45,10.1.1.6,39,-0.040,-0.040,-0.040,0.000,0.000,0.000
1644915585302275840,2022-02-15-08:59:45,10.1.1.6,38,-0.020,-0.020,-0.020,0.000,0.000,0.000
1644915585342379008,2022-02-15-08:59:45,10.1.1.6,27,-0.010,-0.010,-0.010,0.000,0.000,0.000
1644915585402781952,2022-02-15-08:59:45,10.1.1.6,35,0.000,0.000,0.000,0.000,0.000,0.000
1644915585442480128,2022-02-15-08:59:45,10.1.1.6,25,0.010,0.010,0.010,0.000,0.000,0.000
1644915585542251008,2022-02-15-08:59:45,10.1.1.6,23,0.030,0.030,0.030,0.000,0.000,0.000
1644915585863038976,2022-02-15-08:59:45,10.1.1.6,39,0.090,0.090,0.090,0.000,0.000,0.000
1644915585902131200,2022-02-15-08:59:45,10.1.1.6,28,0.100,0.100,0.100,0.000,0.000,0.000
1644915585962201088,2022-02-15-08:59:45,10.1.1.6,38,0.090,0.090,0.090,0.000,0.000,0.000
1644915586002125056,2022-02-15-08:59:46,10.1.1.6,27,0.080,0.080,0.080,0.000,0.000,0.000
1644915586062379008,2022-02-15-08:59:46,10.1.1.6,36,0.070,0.070,0.070,0.000,0.000,0.000
1644915586102358016,2022-02-15-08:59:46,10.1.1.6,24,0.060,0.060,0.060,0.000,0.000,0.000
1644915586162158848,2022-02-15-08:59:46,10.1.1.6,33,0.050,0.050,0.050,0.000,0.000,0.000
1644915586202599936,2022-02-15-08:59:46,10.1.1.6,23,0.040,0.040,0.040,0.000,0.000,0.000
1644915586422292992,2022-02-15-08:59:46,10.1.1.6,40,0.000,0.000,0.000,0.000,0.000,0.000
1644915586462270976,2022-02-15-08:59:46,10.1.1.6,29,-0.010,-0.010,-0.010,0.000,0.000,0.000
1644915586502353920,2022-02-15-08:59:46,10.1.1.6,18,-0.020,-0.020,-0.020,0.000,0.000,0.000
1644915586561976832,2022-02-15-08:59:46,10.1.1.6,27,-0.030,-0.030,-0.030,0.000,0.000,0.000
1644915586622982144,2022-02-15-08:59:46,10.1.1.6,36,-0.040,-0.040,-0.040,0.000,0.000,0.000
1644915586662082816,2022-02-15-08:59:46,10.1.1.6,25,-0.050,-0.050,-0.050,0.000,0.000,0.000
1644915586721892096,2022-02-15-08:59:46,10.1.1.6,33,-0.060,-0.060,-0.060,0.000,0.000,0.000
1644915586762462976,2022-02-15-08:59:46,10.1.1.6,23,-0.070,-0.070,-0.070,0.000,0.000,0.000
1644915586862360064,2022-02-15-08:59:46,10.1.1.6,19,-0.090,-0.090,-0.090,0.000,0.000,0.000
1644915586922784000,2022-02-15-08:59:46,10.1.1.6,29,-0.100,-0.100,-0.100,0.000,0.000,0.000
1644915586982955008,2022-02-15-08:59:46,10.1.1.6,37,-0.090,-0.090,-0.090,0.000,0.000,0.000
1644915587023204096,2022-02-15-08:59:47,10.1.1.6,26,-0.080,-0.080,-0.080,0.000,0.000,0.000
1644915587082829056,2022-02-15-08:59:47,10.1.1.6,36,-0.070,-0.070,-0.070,0.000,0.000,0.000
1644915587122221056,2022-02-15-08:59:47,10.1.1.6,23,-0.060,-0.060,-0.060,0.000,0.000,0.000
1644915587342761984,2022-02-15-08:59:47,10.1.1.6,38,-0.020,-0.020,-0.020,0.000,0.000,0.000
1644915587382963968,2022-02-15-08:59:47,10.1.1.6,28,-0.010,-0.010,-0.010,0.000,0.000,0.000
1644915587442017024,2022-02-15-08:59:47,10.1.1.6,37,0.000,0.000,0.000,0.000,0.000,0.000
1644915587581814016,2022-02-15-08:59:47,10.1.1.6,20,0.030,0.030,0.030,0.000,0.000,0.000
1644915587642329856,2022-02-15-08:59:47,10.1.1.6,29,0.040,0.040,0.040,0.000,0.000,0.000
1644915587702217984,2022-02-15-08:59:47,10.1.1.6,36,0.050,0.050,0.050,0.000,0.000,0.000
1644915587742628096,2022-02-15-08:59:47,10.1.1.6,25,0.060,0.060,0.060,0.000,0.000,0.000
1644915588003719936,2022-02-15-08:59:48,10.1.1.6,29,0.090,0.090,0.090,0.000,0.000,0.000
1644915588063156992,2022-02-15-08:59:48,10.1.1.6,37,0.080,0.080,0.080,0.000,0.000,0.000
1644915588102659072,2022-02-15-08:59:48,10.1.1.6,26,0.070,0.070,0.070,0.000,0.000,0.000
1644915588163387136,2022-02-15-08:59:48,10.1.1.6,36,0.060,0.060,0.060,0.000,0.000,0.000
1644915588202909952,2022-02-15-08:59:48,10.1.1.6,25,0.050,0.050,0.050,0.000,0.000,0.000
1644915588363010048,2022-02-15-08:59:48,10.1.1.6,28,0.020,0.020,0.020,0.000,0.000,0.000
1644915588422430976,2022-02-15-08:59:48,10.1.1.6,37,0.010,0.010,0.010,0.000,0.000,0.000
1644915588462336000,2022-02-15-08:59:48,10.1.1.6,25,0.000,0.000,0.000,0.000,0.000,0.000
1644915588522656000,2022-02-15-08:59:48,10.1.1.6,34,-0.010,-0.010,-0.010,0.000,0.000,0.000
1644915588562962176,2022-02-15-08:59:48,10.1.1.6,23,-0.020,-0.020,-0.020,0.000,0.000,0.000
1644915588682861056,2022-02-15-08:59:48,10.1.1.6,38,-0.040,-0.040,-0.040,0.000,0.000,0.000
1644915588722567936,2022-02-15-08:59:48,10.1.1.6,25,-0.050,-0.050,-0.050,0.000,0.000,0.000
1644915588783018240,2022-02-15-08:59:48,10.1.1.6,34,-0.060,-0.060,-0.060,0.000,0.000,0.000
1644915588822766080,2022-02-15-08:59:48,10.1.1.6,23,-0.070,-0.070,-0.070,0.000,0.000,0.000
1644915588982501888,2022-02-15-08:59:48,10.1.1.6,29,-0.100,-0.100,-0.100,0.000,0.000,0.000
1644915589042782976,2022-02-15-08:59:49,10.1.1.6,37,-0.090,-0.090,-0.090,0.000,0.000,0.000
1644915589083276032,2022-02-15-08:59:49,10.1.1.6,26,-0.080,-0.080,-0.080,0.000,0.000,0.000
1644915589142651136,2022-02-15-08:59:49,10.1.1.6,35,-0.070,-0.070,-0.070,0.000,0.000,0.000
1644915589182859008,2022-02-15-08:59:49,10.1.1.6,24,-0.060,-0.060,-0.060,0.000,0.000,0.000
1644915589343002112,2022-02-15-08:59:49,10.1.1.6,29,-0.030,-0.030,-0.030,0.000,0.000,0.000
1644915589403868928,2022-02-15-08:59:49,10.1.1.6,38,-0.020,-0.020,-0.020,0.000,0.000,0.000
1644915589456259072,2022-02-15-08:59:49,10.1.1.6,27,-0.010,-0.010,-0.010,0.000,0.000,0.000
1644915589562198016,2022-02-15-08:59:49,10.1.1.6,35,0.010,0.010,0.010,0.000,0.000,0.000
1644915589602782976,2022-02-15-08:59:49,10.1.1.6,24,0.020,0.020,0.020,0.000,0.000,0.000
1644915589662256128,2022-02-15-08:59:49,10.1.1.6,33,0.030,0.030,0.030,0.000,0.000,0.000
1644915590023233024,2022-02-15-08:59:50,10.1.1.6,39,0.100,0.100,0.100,0.000,0.000,0.000
1644915590062874112,2022-02-15-08:59:50,10.1.1.6,27,0.090,0.090,0.090,0.000,0.000,0.000
1644915590122381824,2022-02-15-08:59:50,10.1.1.6,34,0.080,0.080,0.080,0.000,0.000,0.000
1644915590162499840,2022-02-15-08:59:50,10.1.1.6,23,0.070,0.070,0.070,0.000,0.000,0.000
1644915590301878016,2022-02-15-08:59:50,10.1.1.6,37,0.050,0.050,0.050,0.000,0.000,0.000
1644915590342051072,2022-02-15-08:59:50,10.1.1.6,26,0.040,0.040,0.040,0.000,0.000,0.000
1644915590402062848,2022-02-15-08:59:50,10.1.1.6,33,0.030,0.030,0.030,0.000,0.000,0.000
1644915590602722048,2022-02-15-08:59:50,10.1.1.6,30,-0.010,-0.010,-0.010,0.000,0.000,0.000
1644915590662204928,2022-02-15-08:59:50,10.1.1.6,39,-0.020,-0.020,-0.020,0.000,0.000,0.000
1644915590702654976,2022-02-15-08:59:50,10.1.1.6,28,-0.030,-0.030,-0.030,0.000,0.000,0.000
1644915590763271168,2022-02-15-08:59:50,10.1.1.6,38,-0.040,-0.040,-0.040,0.000,0.000,0.000
1644915590802983168,2022-02-15-08:59:50,10.1.1.6,27,-0.050,-0.050,-0.050,0.000,0.000,0.000
1644915590862673152,2022-02-15-08:59:50,10.1.1.6,34,-0.060,-0.060,-0.060,0.000,0.000,0.000
1644915590903360000,2022-02-15-08:59:50,10.1.1.6,24,-0.070,-0.070,-0.070,0.000,0.000,0.000
1644915591122273024,2022-02-15-08:59:51,10.1.1.6,38,-0.090,-0.090,-0.090,0.000,0.000,0.000
1644915591162072832,2022-02-15-08:59:51,10.1.1.6,27,-0.080,-0.080,-0.080,0.000,0.000,0.000
1644915591222342912,2022-02-15-08:59:51,10.1.1.6,37,-0.070,-0.070,-0.070,0.000,0.000,0.000
1644915591263284992,2022-02-15-08:59:51,10.1.1.6,26,-0.060,-0.060,-0.060,0.000,0.000,0.000
1644915591322097920,2022-02-15-08:59:51,10.1.1.6,36,-0.050,-0.050,-0.050,0.000,0.000,0.000
1644915591583236096,2022-02-15-08:59:51,10.1.1.6,39,0.000,0.000,0.000,0.000,0.000,0.000
1644915591623059968,2022-02-15-08:59:51,10.1.1.6,29,0.010,0.010,0.010,0.000,0.000,0.000
1644915591683108096,2022-02-15-08:59:51,10.1.1.6,38,0.020,0.020,0.020,0.000,0.000,0.000
1644915591722147840,2022-02-15-08:59:51,10.1.1.6,27,0.030,0.030,0.030,0.000,0.000,0.000
1644915591783105024,2022-02-15-08:59:51,10.1.1.6,36,0.040,0.040,0.040,0.000,0.000,0.000
1644915591822225152,2022-02-15-08:59:51,10.1.1.6,26,0.050,0.050,0.050,0.000,0.000,0.000
1644915592143014912,2022-02-15-08:59:52,10.1.1.6,39,0.090,0.090,0.090,0.000,0.000,0.000
1644915592182550784,2022-02-15-08:59:52,10.1.1.6,28,0.080,0.080,0.080,0.000,0.000,0.000
1644915592243278080,2022-02-15-08:59:52,10.1.1.6,37,0.070,0.070,0.070,0.000,0.000,0.000
1644915592282322944,2022-02-15-08:59:52,10.1.1.6,26,0.060,0.060,0.060,0.000,0.000,0.000
1644915592342249984,2022-02-15-08:59:52,10.1.1.6,35,0.050,0.050,0.050,0.000,0.000,0.000
1644915592382801152,2022-02-15-08:59:52,10.1.1.6,24,0.040,0.040,0.040,0.000,0.000,0.000
1644915592742350080,2022-02-15-08:59:52,10.1.1.6,29,-0.030,-0.030,-0.030,0.000,0.000,0.000
1644915592803024128,2022-02-15-08:59:52,10.1.1.6,39,-0.040,-0.040,-0.040,0.000,0.000,0.000
1644915592842622976,2022-02-15-08:59:52,10.1.1.6,26,-0.050,-0.050,-0.050,0.000,0.000,0.000
1644915592902582784,2022-02-15-08:59:52,10.1.1.6,34,-0.060,-0.060,-0.060,0.000,0.000,0.000
1644915593262434048,2022-02-15-08:59:53,10.1.1.6,38,-0.070,-0.070,-0.070,0.000,0.000,0.000
1644915593302382848,2022-02-15-08:59:53,10.1.1.6,25,-0.060,-0.060,-0.060,0.000,0.000,0.000
1644915593362373120,2022-02-15-08:59:53,10.1.1.6,33,-0.050,-0.050,-0.050,0.000,0.000,0.000
1644915593622048000,2022-02-15-08:59:53,10.1.1.6,39,-0.000,-0.000,-0.000,0.000,0.000,0.000
1644915593662110208,2022-02-15-08:59:53,10.1.1.6,26,0.010,0.010,0.010,0.000,0.000,0.000
1644915593722151936,2022-02-15-08:59:53,10.1.1.6,35,0.020,0.020,0.020,0.000,0.000,0.000
1644915593762433024,2022-02-15-08:59:53,10.1.1.6,25,0.030,0.030,0.030,0.000,0.000,0.000
1644915593822309888,2022-02-15-08:59:53,10.1.1.6,34,0.040,0.040,0.040,0.000,0.000,0.000
1644915593982528000,2022-02-15-08:59:53,10.1.1.6,25,0.070,0.070,0.070,0.000,0.000,0.000
1644915594042473984,2022-02-15-08:59:54,10.1.1.6,34,0.080,0.080,0.080,0.000,0.000,0.000
1644915594202568960,2022-02-15-08:59:54,10.1.1.6,38,0.100,0.100,0.100,0.000,0.000,0.000
1644915594249321984,2022-02-15-08:59:54,10.1.1.6,28,0.090,0.090,0.090,0.000,0.000,0.000
1644915594302344960,2022-02-15-08:59:54,10.1.1.6,37,0.080,0.080,0.080,0.000,0.000,0.000
1644915594342449920,2022-02-15-08:59:54,10.1.1.6,26,0.070,0.070,0.070,0.000,0.000,0.000
1644915594402589952,2022-02-15-08:59:54,10.1.1.6,35,0.060,0.060,0.060,0.000,0.000,0.000
1644915594442109952,2022-02-15-08:59:54,10.1.1.6,24,0.050,0.050,0.050,0.000,0.000,0.000
1644915594502509056,2022-02-15-08:59:54,10.1.1.6,34,0.040,0.040,0.040,0.000,0.000,0.000
1644915594542608128,2022-02-15-08:59:54,10.1.1.6,23,0.030,0.030,0.030,0.000,0.000,0.000
1644915594942206976,2022-02-15-08:59:54,10.1.1.6,33,-0.040,-0.040,-0.040,0.000,0.000,0.000
1644915595203006976,2022-02-15-08:59:55,10.1.1.6,39,-0.090,-0.090,-0.090,0.000,0.000,0.000
1644915595282098176,2022-02-15-08:59:55,10.1.1.6,18,-0.090,-0.090,-0.090,0.000,0.000,0.000
1644915595343249920,2022-02-15-08:59:55,10.1.1.6,27,-0.080,-0.080,-0.080,0.000,0.000,0.000
1644915595402488064,2022-02-15-08:59:55,10.1.1.6,37,-0.070,-0.070,-0.070,0.000,0.000,0.000
1644915595442599168,2022-02-15-08:59:55,10.1.1.6,26,-0.060,-0.060,-0.060,0.000,0.000,0.000
1644915595502553856,2022-02-15-08:59:55,10.1.1.6,36,-0.050,-0.050,-0.050,0.000,0.000,0.000
1644915595622323968,2022-02-15-08:59:55,10.1.1.6,29,-0.030,-0.030,-0.030,0.000,0.000,0.000
1644915595687374080,2022-02-15-08:59:55,10.1.1.6,38,-0.020,-0.020,-0.020,0.000,0.000,0.000
1644915595803085056,2022-02-15-08:59:55,10.1.1.6,26,0.000,0.000,0.000,0.000,0.000,0.000
1644915595862994944,2022-02-15-08:59:55,10.1.1.6,33,0.010,0.010,0.010,0.000,0.000,0.000
1644915596002529024,2022-02-15-08:59:56,10.1.1.6,20,0.040,0.040,0.040,0.000,0.000,0.000
1644915596062124032,2022-02-15-08:59:56,10.1.1.6,28,0.050,0.050,0.050,0.000,0.000,0.000
1644915596122601984,2022-02-15-08:59:56,10.1.1.6,36,0.060,0.060,0.060,0.000,0.000,0.000
1644915596162502912,2022-02-15-08:59:56,10.1.1.6,24,0.070,0.070,0.070,0.000,0.000,0.000
1644915596222405888,2022-02-15-08:59:56,10.1.1.6,33,0.080,0.080,0.080,0.000,0.000,0.000
1644915596382451968,2022-02-15-08:59:56,10.1.1.6,39,0.090,0.090,0.090,0.000,0.000,0.000
1644915596604101888,2022-02-15-08:59:56,10.1.1.6,39,0.050,0.050,0.050,0.000,0.000,0.000
1644915596642123008,2022-02-15-08:59:56,10.1.1.6,29,0.040,0.040,0.040,0.000,0.000,0.000
1644915596702881024,2022-02-15-08:59:56,10.1.1.6,38,0.030,0.030,0.030,0.000,0.000,0.000
1644915596743168000,2022-02-15-08:59:56,10.1.1.6,26,0.020,0.020,0.020,0.000,0.000,0.000
1644915596802497024,2022-02-15-08:59:56,10.1.1.6,35,0.010,0.010,0.010,0.000,0.000,0.000
1644915596843130112,2022-02-15-08:59:56,10.1.1.6,24,0.000,0.000,0.000,0.000,0.000,0.000
1644915596903172096,2022-02-15-08:59:56,10.1.1.6,33,-0.010,-0.010,-0.010,0.000,0.000,0.000
1644915597162905088,2022-02-15-08:59:57,10.1.1.6,39,-0.060,-0.060,-0.060,0.000,0.000,0.000
1644915597202853888,2022-02-15-08:59:57,10.1.1.6,29,-0.070,-0.070,-0.070,0.000,0.000,0.000
1644915597282722048,2022-02-15-08:59:57,10.1.1.6,36,-0.080,-0.080,-0.080,0.000,0.000,0.000
1644915597322267136,2022-02-15-08:59:57,10.1.1.6,25,-0.090,-0.090,-0.090,0.000,0.000,0.000
1644915597382200832,2022-02-15-08:59:57,10.1.1.6,34,-0.100,-0.100,-0.100,0.000,0.000,0.000
1644915597422306048,2022-02-15-08:59:57,10.1.1.6,24,-0.090,-0.090,-0.090,0.000,0.000,0.000
1644915597482136064,2022-02-15-08:59:57,10.1.1.6,33,-0.080,-0.080,-0.080,0.000,0.000,0.000
1644915597642854912,2022-02-15-08:59:57,10.1.1.6,36,-0.050,-0.050,-0.050,0.000,0.000,0.000
1644915597682440960,2022-02-15-08:59:57,10.1.1.6,25,-0.040,-0.040,-0.040,0.000,0.000,0.000
1644915597743204096,2022-02-15-08:59:57,10.1.1.6,33,-0.030,-0.030,-0.030,0.000,0.000,0.000
1644915597783088896,2022-02-15-08:59:57,10.1.1.6,23,-0.020,-0.020,-0.020,0.000,0.000,0.000
1644915598042379008,2022-02-15-08:59:58,10.1.1.6,29,0.030,0.030,0.030,0.000,0.000,0.000
1644915598102504960,2022-02-15-08:59:58,10.1.1.6,38,0.040,0.040,0.040,0.000,0.000,0.000
1644915598142087936,2022-02-15-08:59:58,10.1.1.6,27,0.050,0.050,0.050,0.000,0.000,0.000
1644915598203394048,2022-02-15-08:59:58,10.1.1.6,36,0.060,0.060,0.060,0.000,0.000,0.000
1644915598242393856,2022-02-15-08:59:58,10.1.1.6,24,0.070,0.070,0.070,0.000,0.000,0.000
1644915598502068992,2022-02-15-08:59:58,10.1.1.6,28,0.080,0.080,0.080,0.000,0.000,0.000
1644915598562114048,2022-02-15-08:59:58,10.1.1.6,36,0.070,0.070,0.070,0.000,0.000,0.000
1644915598603124992,2022-02-15-08:59:58,10.1.1.6,25,0.060,0.060,0.060,0.000,0.000,0.000
1644915598661961984,2022-02-15-08:59:58,10.1.1.6,35,0.050,0.050,0.050,0.000,0.000,0.000
1644915598702071040,2022-02-15-08:59:58,10.1.1.6,24,0.040,0.040,0.040,0.000,0.000,0.000
1644915598762834176,2022-02-15-08:59:58,10.1.1.6,34,0.030,0.030,0.030,0.000,0.000,0.000
1644915598801979904,2022-02-15-08:59:58,10.1.1.6,23,0.020,0.020,0.020,0.000,0.000,0.000
1644915599022362112,2022-02-15-08:59:59,10.1.1.6,39,-0.020,-0.020,-0.020,0.000,0.000,0.000
1644915599062450944,2022-02-15-08:59:59,10.1.1.6,29,-0.030,-0.030,-0.030,0.000,0.000,0.000
1644915599121961216,2022-02-15-08:59:59,10.1.1.6,36,-0.040,-0.040,-0.040,0.000,0.000,0.000
1644915599162349056,2022-02-15-08:59:59,10.1.1.6,25,-0.050,-0.050,-0.050,0.000,0.000,0.000
1644915599222604032,2022-02-15-08:59:59,10.1.1.6,33,-0.060,-0.060,-0.060,0.000,0.000,0.000
1644915599262340096,2022-02-15-08:59:59,10.1.1.6,23,-0.070,-0.070,-0.070,0.000,0.000,0.000
1644915599522350080,2022-02-15-08:59:59,10.1.1.6,28,-0.080,-0.080,-0.080,0.000,0.000,0.000
1644915599582377984,2022-02-15-08:59:59,10.1.1.6,37,-0.070,-0.070,-0.070,0.000,0.000,0.000
1644915599623131904,2022-02-15-08:59:59,10.1.1.6,27,-0.060,-0.060,-0.060,0.000,0.000,0.000
1644915599682492928,2022-02-15-08:59:59,10.1.1.6,36,-0.050,-0.050,-0.050,0.000,0.000,0.000
1644915599722675968,2022-02-15-08:59:59,10.1.1.6,25,-0.040,-0.040,-0.040,0.000,0.000,0.000
1644915599782334976,2022-02-15-08:59:59,10.1.1.6,34,-0.030,-0.030,-0.030,0.000,0.000,0.000
1644915599822226944,2022-02-15-08:59:59,10.1.1.6,23,-0.020,-0.020,-0.020,0.000,0.000,0.000
1644915599982251008,2022-02-15-08:59:59,10.1.1.6,28,0.010,0.010,0.010,0.000,0.000,0.000
1644915600042507008,2022-02-15-09:00:00,10.1.1.6,38,0.020,0.020,0.020,0.000,0.000,0.000
1644915600082384128,2022-02-15-09:00:00,10.1.1.6,27,0.030,0.030,0.030,0.000,0.000,0.000
1644915600143264000,2022-02-15-09:00:00,10.1.1.6,35,0.040,0.040,0.040,0.000,0.000,0.000
1644915600182249984,2022-02-15-09:00:00,10.1.1.6,25,0.050,0.050,0.050,0.000,0.000,0.000
1644915600242266880,2022-02-15-09:00:00,10.1.1.6,34,0.060,0.060,0.060,0.000,0.000,0.000
1644915600502659072,2022-02-15-09:00:00,10.1.1.6,36,0.090,0.090,0.090,0.000,0.000,0.000
1644915600622877952,2022-02-15-09:00:00,10.1.1.6,39,0.070,0.070,0.070,0.000,0.000,0.000
1644915600662235136,2022-02-15-09:00:00,10.1.1.6,28,0.060,0.060,0.060,0.000,0.000,0.000
1644915600722782976,2022-02-15-09:00:00,10.1.1.6,37,0.050,0.050,0.050,0.000,0.000,0.000
1644915600762507008,2022-02-15-09:00:00,10.1.1.6,25,0.040,0.040,0.040,0.000,0.000,0.000
1644915600822472192,2022-02-15-09:00:00,10.1.1.6,35,0.030,0.030,0.030,0.000,0.000,0.000
1644915600862066944,2022-02-15-09:00:00,10.1.1.6,23,0.020,0.020,0.020,0.000,0.000,0.000
1644915601082158080,2022-02-15-09:00:01,10.1.1.6,39,-0.020,-0.020,-0.020,0.000,0.000,0.000
1644915601122461952,2022-02-15-09:00:01,10.1.1.6,28,-0.030,-0.030,-0.030,0.000,0.000,0.000
1644915601262504960,2022-02-15-09:00:01,10.1.1.6,36,-0.050,-0.050,-0.050,0.000,0.000,0.000
1644915601302402048,2022-02-15-09:00:01,10.1.1.6,26,-0.060,-0.060,-0.060,0.000,0.000,0.000
1644915601362339072,2022-02-15-09:00:01,10.1.1.6,35,-0.070,-0.070,-0.070,0.000,0.000,0.000
1644915601483464960,2022-02-15-09:00:01,10.1.1.6,35,-0.090,-0.090,-0.090,0.000,0.000,0.000
1644915601521893120,2022-02-15-09:00:01,10.1.1.6,25,-0.100,-0.100,-0.100,0.000,0.000,0.000
1644915601594521088,2022-02-15-09:00:01,10.1.1.6,34,-0.090,-0.090,-0.090,0.000,0.000,0.000
1644915601682276096,2022-02-15-09:00:01,10.1.1.6,26,-0.070,-0.070,-0.070,0.000,0.000,0.000
1644915601744033024,2022-02-15-09:00:01,10.1.1.6,36,-0.060,-0.060,-0.060,0.000,0.000,0.000
1644915601782309120,2022-02-15-09:00:01,10.1.1.6,26,-0.050,-0.050,-0.050,0.000,0.000,0.000
1644915601844140032,2022-02-15-09:00:01,10.1.1.6,35,-0.040,-0.040,-0.040,0.000,0.000,0.000
1644915601882155008,2022-02-15-09:00:01,10.1.1.6,25,-0.030,-0.030,-0.030,0.000,0.000,0.000
1644915601942686208,2022-02-15-09:00:01,10.1.1.6,34,-0.020,-0.020,-0.020,0.000,0.000,0.000
1644915601983527936,2022-02-15-09:00:01,10.1.1.6,24,-0.010,-0.010,-0.010,0.000,0.000,0.000
1644915602042702848,2022-02-15-09:00:02,10.1.1.6,33,0.000,0.000,0.000,0.000,0.000,0.000
1644915602403426048,2022-02-15-09:00:02,10.1.1.6,39,0.070,0.070,0.070,0.000,0.000,0.000
1644915602443821056,2022-02-15-09:00:02,10.1.1.6,28,0.080,0.080,0.080,0.000,0.000,0.000
1644915602503386880,2022-02-15-09:00:02,10.1.1.6,37,0.090,0.090,0.090,0.000,0.000,0.000
1644915602542993920,2022-02-15-09:00:02,10.1.1.6,27,0.100,0.100,0.100,0.000,0.000,0.000
1644915602603748096,2022-02-15-09:00:02,10.1.1.6,35,0.090,0.090,0.090,0.000,0.000,0.000
1644915602902926080,2022-02-15-09:00:02,10.1.1.6,29,0.030,0.030,0.030,0.000,0.000,0.000
1644915602963174144,2022-02-15-09:00:02,10.1.1.6,39,0.020,0.020,0.020,0.000,0.000,0.000
1644915603003473920,2022-02-15-09:00:03,10.1.1.6,28,0.010,0.010,0.010,0.000,0.000,0.000
1644915603062580224,2022-02-15-09:00:03,10.1.1.6,37,0.000,0.000,0.000,0.000,0.000,0.000
1644915603102957056,2022-02-15-09:00:03,10.1.1.6,27,-0.010,-0.010,-0.010,0.000,0.000,0.000
1644915603162939136,2022-02-15-09:00:03,10.1.1.6,35,-0.020,-0.020,-0.020,0.000,0.000,0.000
1644915603202405888,2022-02-15-09:00:03,10.1.1.6,24,-0.030,-0.030,-0.030,0.000,0.000,0.000
1644915603302316032,2022-02-15-09:00:03,10.1.1.6,23,-0.050,-0.050,-0.050,0.000,0.000,0.000
1644915603565769984,2022-02-15-09:00:03,10.1.1.6,29,-0.100,-0.100,-0.100,0.000,0.000,0.000
1644915603744558080,2022-02-15-09:00:03,10.1.1.6,38,-0.070,-0.070,-0.070,0.000,0.000,0.000
1644915603783006976,2022-02-15-09:00:03,10.1.1.6,27,-0.060,-0.060,-0.060,0.000,0.000,0.000
1644915603845146880,2022-02-15-09:00:03,10.1.1.6,37,-0.050,-0.050,-0.050,0.000,0.000,0.000
1644915603883790848,2022-02-15-09:00:03,10.1.1.6,26,-0.040,-0.040,-0.040,0.000,0.000,0.000
1644915603944408064,2022-02-15-09:00:03,10.1.1.6,34,-0.030,-0.030,-0.030,0.000,0.000,0.000
1644915603983428864,2022-02-15-09:00:03,10.1.1.6,24,-0.020,-0.020,-0.020,0.000,0.000,0.000
1644915604102807040,2022-02-15-09:00:04,10.1.1.6,38,0.000,0.000,0.000,0.000,0.000,0.000
1644915604142572032,2022-02-15-09:00:04,10.1.1.6,27,0.010,0.010,0.010,0.000,0.000,0.000
1644915604203464960,2022-02-15-09:00:04,10.1.1.6,36,0.020,0.020,0.020,0.000,0.000,0.000
1644915604242902016,2022-02-15-09:00:04,10.1.1.6,24,0.030,0.030,0.030,0.000,0.000,0.000
1644915604302621952,2022-02-15-09:00:04,10.1.1.6,33,0.040,0.040,0.040,0.000,0.000,0.000
1644915604442443008,2022-02-15-09:00:04,10.1.1.6,19,0.070,0.070,0.070,0.000,0.000,0.000
1644915604502424064,2022-02-15-09:00:04,10.1.1.6,27,0.080,0.080,0.080,0.000,0.000,0.000
1644915604563708928,2022-02-15-09:00:04,10.1.1.6,37,0.090,0.090,0.090,0.000,0.000,0.000
1644915604605637120,2022-02-15-09:00:04,10.1.1.6,24,0.100,0.100,0.100,0.000,0.000,0.000
1644915604702649088,2022-02-15-09:00:04,10.1.1.6,19,0.080,0.080,0.080,0.000,0.000,0.000
1644915604762013952,2022-02-15-09:00:04,10.1.1.6,29,0.070,0.070,0.070,0.000,0.000,0.000
1644915604822578944,2022-02-15-09:00:04,10.1.1.6,36,0.060,0.060,0.060,0.000,0.000,0.000
1644915604862461184,2022-02-15-09:00:04,10.1.1.6,24,0.050,0.050,0.050,0.000,0.000,0.000
1644915604922789120,2022-02-15-09:00:04,10.1.1.6,34,0.040,0.040,0.040,0.000,0.000,0.000
1644915605183949056,2022-02-15-09:00:05,10.1.1.6,39,-0.010,-0.010,-0.010,0.000,0.000,0.000
1644915605223720960,2022-02-15-09:00:05,10.1.1.6,27,-0.020,-0.020,-0.020,0.000,0.000,0.000
1644915605311805952,2022-02-15-09:00:05,10.1.1.6,37,-0.030,-0.030,-0.030,0.000,0.000,0.000
1644915605342009088,2022-02-15-09:00:05,10.1.1.6,29,-0.040,-0.040,-0.040,0.000,0.000,0.000
1644915605402162944,2022-02-15-09:00:05,10.1.1.6,39,-0.050,-0.050,-0.050,0.000,0.000,0.000
1644915605443331840,2022-02-15-09:00:05,10.1.1.6,28,-0.060,-0.060,-0.060,0.000,0.000,0.000
1644915605502083072,2022-02-15-09:00:05,10.1.1.6,37,-0.070,-0.070,-0.070,0.000,0.000,0.000
1644915605543410944,2022-02-15-09:00:05,10.1.1.6,27,-0.080,-0.080,-0.080,0.000,0.000,0.000
1644915605703383808,2022-02-15-09:00:05,10.1.1.6,30,-0.090,-0.090,-0.090,0.000,0.000,0.000
1644915605823298816,2022-02-15-09:00:05,10.1.1.6,40,-0.070,-0.070,-0.070,0.000,0.000,0.000
1644915605862883072,2022-02-15-09:00:05,10.1.1.6,29,-0.060,-0.060,-0.060,0.000,0.000,0.000
1644915605922169088,2022-02-15-09:00:05,10.1.1.6,38,-0.050,-0.050,-0.050,0.000,0.000,0.000
1644915605962548992,2022-02-15-09:00:05,10.1.1.6,28,-0.040,-0.040,-0.040,0.000,0.000,0.000
1644915606023565056,2022-02-15-09:00:06,10.1.1.6,37,-0.030,-0.030,-0.030,0.000,0.000,0.000
1644915606062275840,2022-02-15-09:00:06,10.1.1.6,26,-0.020,-0.020,-0.020,0.000,0.000,0.000
1644915606121690112,2022-02-15-09:00:06,10.1.1.6,36,-0.010,-0.010,-0.010,0.000,0.000,0.000
1644915606161856768,2022-02-15-09:00:06,10.1.1.6,25,0.000,0.000,0.000,0.000,0.000,0.000
1644915606222398976,2022-02-15-09:00:06,10.1.1.6,34,0.010,0.010,0.010,0.000,0.000,0.000
1644915606262348032,2022-02-15-09:00:06,10.1.1.6,24,0.020,0.020,0.020,0.000,0.000,0.000
1644915606547590144,2022-02-15-09:00:06,10.1.1.6,38,0.070,0.070,0.070,0.000,0.000,0.000
1644915606626943232,2022-02-15-09:00:06,10.1.1.6,26,0.080,0.080,0.080,0.000,0.000,0.000
1644915606802717952,2022-02-15-09:00:06,10.1.1.6,20,0.080,0.080,0.080,0.000,0.000,0.000
1644915606862097152,2022-02-15-09:00:06,10.1.1.6,29,0.070,0.070,0.070,0.000,0.000,0.000
1644915606922912000,2022-02-15-09:00:06,10.1.1.6,38,0.060,0.060,0.060,0.000,0.000,0.000
1644915606962387200,2022-02-15-09:00:06,10.1.1.6,27,0.050,0.050,0.050,0.000,0.000,0.000
1644915607022449920,2022-02-15-09:00:07,10.1.1.6,36,0.040,0.040,0.040,0.000,0.000,0.000
1644915607064304128,2022-02-15-09:00:07,10.1.1.6,25,0.030,0.030,0.030,0.000,0.000,0.000
1644915607122834944,2022-02-15-09:00:07,10.1.1.6,34,0.020,0.020,0.020,0.000,0.000,0.000
1644915607162231040,2022-02-15-09:00:07,10.1.1.6,23,0.010,0.010,0.010,0.000,0.000,0.000
1644915607283010048,2022-02-15-09:00:07,10.1.1.6,37,-0.010,-0.010,-0.010,0.000,0.000,0.000
1644915607323152896,2022-02-15-09:00:07,10.1.1.6,26,-0.020,-0.020,-0.020,0.000,0.000,0.000
1644915607384306944,2022-02-15-09:00:07,10.1.1.6,35,-0.030,-0.030,-0.030,0.000,0.000,0.000
1644915607422305024,2022-02-15-09:00:07,10.1.1.6,23,-0.040,-0.040,-0.040,0.000,0.000,0.000
1644915607545704960,2022-02-15-09:00:07,10.1.1.6,36,-0.060,-0.060,-0.060,0.000,0.000,0.000
1644915607583417856,2022-02-15-09:00:07,10.1.1.6,25,-0.070,-0.070,-0.070,0.000,0.000,0.000
1644915607643663872,2022-02-15-09:00:07,10.1.1.6,35,-0.080,-0.080,-0.080,0.000,0.000,0.000
1644915607813554176,2022-02-15-09:00:07,10.1.1.6,38,-0.090,-0.090,-0.090,0.000,0.000,0.000
1644915607942744064,2022-02-15-09:00:07,10.1.1.6,23,-0.060,-0.060,-0.060,0.000,0.000,0.000
1644915608162686976,2022-02-15-09:00:08,10.1.1.6,39,-0.020,-0.020,-0.020,0.000,0.000,0.000
1644915608202932992,2022-02-15-09:00:08,10.1.1.6,28,-0.010,-0.010,-0.010,0.000,0.000,0.000
1644915608262814976,2022-02-15-09:00:08,10.1.1.6,37,0.000,0.000,0.000,0.000,0.000,0.000
1644915608305083904,2022-02-15-09:00:08,10.1.1.6,27,0.010,0.010,0.010,0.000,0.000,0.000
1644915608362981120,2022-02-15-09:00:08,10.1.1.6,36,0.020,0.020,0.020,0.000,0.000,0.000
1644915608402960128,2022-02-15-09:00:08,10.1.1.6,25,0.030,0.030,0.030,0.000,0.000,0.000
1644915608462738944,2022-02-15-09:00:08,10.1.1.6,35,0.040,0.040,0.040,0.000,0.000,0.000
1644915608502177024,2022-02-15-09:00:08,10.1.1.6,24,0.050,0.050,0.050,0.000,0.000,0.000
1644915608729470976,2022-02-15-09:00:08,10.1.1.6,39,0.090,0.090,0.090,0.000,0.000,0.000
1644915608762479104,2022-02-15-09:00:08,10.1.1.6,28,0.100,0.100,0.100,0.000,0.000,0.000
1644915608822798080,2022-02-15-09:00:08,10.1.1.6,38,0.090,0.090,0.090,0.000,0.000,0.000
1644915608863289088,2022-02-15-09:00:08,10.1.1.6,24,0.080,0.080,0.080,0.000,0.000,0.000
1644915608962075904,2022-02-15-09:00:08,10.1.1.6,23,0.060,0.060,0.060,0.000,0.000,0.000
1644915609182234880,2022-02-15-09:00:09,10.1.1.6,39,0.020,0.020,0.020,0.000,0.000,0.000
