FedericoMungari/DigitalTwin_service/01_WiredScenario/Output/Output_script/script_rosapi_2_output_robots12_freq0_1.txt
timestamp,date,node,latency,joint_1,joint_2,joint_3,joint_4,joint_5,joint_6
1644374684450567936,2022-02-09-02:44:42,10.1.1.2,22,-0.030,-0.030,-0.030,0.000,0.000,0.000
1644374694183193856,2022-02-09-02:44:53,10.1.1.2,36,0.020,0.020,0.020,0.000,0.000,0.000
1644374698711607808,2022-02-09-02:44:55,10.1.1.2,20,-0.050,-0.050,-0.050,0.000,0.000,0.000
1644374698794778112,2022-02-09-02:44:58,10.1.1.2,26,-0.060,-0.060,-0.060,0.000,0.000,0.000
1644374698859491072,2022-02-09-02:44:58,10.1.1.2,25,-0.070,-0.070,-0.070,0.000,0.000,0.000
1644374698961880064,2022-02-09-02:44:58,10.1.1.2,24,-0.080,-0.080,-0.080,0.000,0.000,0.000
1644374699059205888,2022-02-09-02:44:59,10.1.1.2,24,-0.090,-0.090,-0.090,0.000,0.000,0.000
1644374699159433984,2022-02-09-02:44:59,10.1.1.2,22,-0.100,-0.100,-0.100,0.000,0.000,0.000
1644374699261712128,2022-02-09-02:44:59,10.1.1.2,21,-0.090,-0.090,-0.090,0.000,0.000,0.000
1644374699375458048,2022-02-09-02:44:59,10.1.1.2,20,-0.080,-0.080,-0.080,0.000,0.000,0.000
1644374699469882880,2022-02-09-02:44:59,10.1.1.2,29,-0.070,-0.070,-0.070,0.000,0.000,0.000
1644374699579161856,2022-02-09-02:44:59,10.1.1.2,38,-0.060,-0.060,-0.060,0.000,0.000,0.000
1644374699678951936,2022-02-09-02:44:59,10.1.1.2,36,-0.050,-0.050,-0.050,0.000,0.000,0.000
1644374699747771904,2022-02-09-02:44:59,10.1.1.2,-29,-0.050,-0.050,-0.050,0.000,0.000,0.000
1644374699999654144,2022-02-09-02:44:59,10.1.1.2,34,-0.020,-0.020,-0.020,0.000,0.000,0.000
1644374701953364992,2022-02-09-02:45:00,10.1.1.2,21,-0.010,-0.010,-0.010,0.000,0.000,0.000
1644374705773078016,2022-02-09-02:45:04,10.1.1.2,36,0.050,0.050,0.050,0.000,0.000,0.000
1644374717815168000,2022-02-09-02:45:14,10.1.1.2,31,-0.100,-0.100,-0.100,0.000,0.000,0.000
1644374722828788992,2022-02-09-02:45:19,10.1.1.2,29,-0.050,-0.050,-0.050,0.000,0.000,0.000
1644374728178733056,2022-02-09-02:45:25,10.1.1.2,29,0.020,0.020,0.020,0.000,0.000,0.000
1644374738175116032,2022-02-09-02:45:33,10.1.1.2,-1495,0.070,0.070,0.070,0.000,0.000,0.000
1644374740227996160,2022-02-09-02:45:38,10.1.1.2,44,0.060,0.060,0.060,0.000,0.000,0.000
1644374740363581952,2022-02-09-02:45:40,10.1.1.2,27,0.050,0.050,0.050,0.000,0.000,0.000
1644374740419424000,2022-02-09-02:45:40,10.1.1.2,26,0.040,0.040,0.040,0.000,0.000,0.000
1644374740529882880,2022-02-09-02:45:40,10.1.1.2,35,0.030,0.030,0.030,0.000,0.000,0.000
1644374740632672000,2022-02-09-02:45:40,10.1.1.2,34,0.020,0.020,0.020,0.000,0.000,0.000
1644374740729276928,2022-02-09-02:45:40,10.1.1.2,30,0.010,0.010,0.010,0.000,0.000,0.000
1644374740820897024,2022-02-09-02:45:40,10.1.1.2,20,0.000,0.000,0.000,0.000,0.000,0.000
1644374740961963776,2022-02-09-02:45:40,10.1.1.2,35,-0.010,-0.010,-0.010,0.000,0.000,0.000
1644374741059959808,2022-02-09-02:45:41,10.1.1.2,23,-0.020,-0.020,-0.020,0.000,0.000,0.000
1644374741159403008,2022-02-09-02:45:41,10.1.1.2,22,-0.030,-0.030,-0.030,0.000,0.000,0.000
1644374741259905024,2022-02-09-02:45:41,10.1.1.2,22,-0.040,-0.040,-0.040,0.000,0.000,0.000
1644374741358903040,2022-02-09-02:45:41,10.1.1.2,21,-0.050,-0.050,-0.050,0.000,0.000,0.000
1644374741482723072,2022-02-09-02:45:41,10.1.1.2,37,-0.060,-0.060,-0.060,0.000,0.000,0.000
1644374741582562048,2022-02-09-02:45:41,10.1.1.2,35,-0.070,-0.070,-0.070,0.000,0.000,0.000
1644374741680019968,2022-02-09-02:45:41,10.1.1.2,33,-0.080,-0.080,-0.080,0.000,0.000,0.000
1644374745370959104,2022-02-09-02:45:41,10.1.1.2,32,-0.090,-0.090,-0.090,0.000,0.000,0.000
1644374749788088064,2022-02-09-02:45:45,10.1.1.2,27,-0.100,-0.100,-0.100,0.000,0.000,0.000
1644374754144815872,2022-02-09-02:45:50,10.1.1.2,37,-0.080,-0.080,-0.080,0.000,0.000,0.000
1644374763375817984,2022-02-09-02:46:01,10.1.1.2,27,0.060,0.060,0.060,0.000,0.000,0.000
1644374766208563968,2022-02-09-02:46:03,10.1.1.2,-435,0.060,0.060,0.060,0.000,0.000,0.000
1644374778352292096,2022-02-09-02:46:14,10.1.1.2,-131,-0.080,-0.080,-0.080,0.000,0.000,0.000
1644374824500840960,2022-02-09-02:47:00,10.1.1.2,-202,0.040,0.040,0.040,0.000,0.000,0.000
1644374841787918080,2022-02-09-02:47:18,10.1.1.2,-178,0.040,0.040,0.040,0.000,0.000,0.000
1644374848609303040,2022-02-09-02:47:24,10.1.1.2,-2397,0.040,0.040,0.040,0.000,0.000,0.000
1644374859103723008,2022-02-09-02:47:38,10.1.1.2,-784,0.040,0.040,0.040,0.000,0.000,0.000
1644374863562522880,2022-02-09-02:47:41,10.1.1.2,-240,0.040,0.040,0.040,0.000,0.000,0.000
1644374875965399040,2022-02-09-02:47:52,10.1.1.2,-229,0.040,0.040,0.040,0.000,0.000,0.000
1644374889609213952,2022-02-09-02:48:05,10.1.1.2,-81,0.040,0.040,0.040,0.000,0.000,0.000
1644374896980654848,2022-02-09-02:48:13,10.1.1.2,-68,0.040,0.040,0.040,0.000,0.000,0.000
1644374908161595136,2022-02-09-02:48:25,10.1.1.2,-915,0.040,0.040,0.040,0.000,0.000,0.000
1644374914043481088,2022-02-09-02:48:31,10.1.1.2,-2516,0.040,0.040,0.040,0.000,0.000,0.000
1644374924289244928,2022-02-09-02:48:42,10.1.1.2,-229,0.040,0.040,0.040,0.000,0.000,0.000
1644374941310523136,2022-02-09-02:48:59,10.1.1.2,-233,0.040,0.040,0.040,0.000,0.000,0.000
1644374947006804992,2022-02-09-02:49:04,10.1.1.2,-18,0.040,0.040,0.040,0.000,0.000,0.000
1644374960838726144,2022-02-09-02:49:18,10.1.1.2,-67,0.040,0.040,0.040,0.000,0.000,0.000
1644374972817532928,2022-02-09-02:49:30,10.1.1.2,-115,0.040,0.040,0.040,0.000,0.000,0.000
1644374980963746048,2022-02-09-02:49:38,10.1.1.2,-1222,0.040,0.040,0.040,0.000,0.000,0.000
1644374983660995840,2022-02-09-02:49:41,10.1.1.2,-4698,0.040,0.040,0.040,0.000,0.000,0.000
1644374994621700096,2022-02-09-02:49:52,10.1.1.2,2,0.040,0.040,0.040,0.000,0.000,0.000
1644375003860966912,2022-02-09-02:50:02,10.1.1.2,-57,0.040,0.040,0.040,0.000,0.000,0.000
1644375008791003904,2022-02-09-02:50:07,10.1.1.2,-131,0.040,0.040,0.040,0.000,0.000,0.000
1644375027882030848,2022-02-09-02:50:26,10.1.1.2,-1380,0.040,0.040,0.040,0.000,0.000,0.000
1644375032056209152,2022-02-09-02:50:30,10.1.1.2,-61,0.040,0.040,0.040,0.000,0.000,0.000
1644375040149147904,2022-02-09-02:50:37,10.1.1.2,-12,0.040,0.040,0.040,0.000,0.000,0.000
1644375045762153984,2022-02-09-02:50:44,10.1.1.2,-445,0.040,0.040,0.040,0.000,0.000,0.000
1644375057225848832,2022-02-09-02:50:54,10.1.1.2,-1152,0.040,0.040,0.040,0.000,0.000,0.000
1644375064273318912,2022-02-09-02:51:01,10.1.1.2,-241,0.040,0.040,0.040,0.000,0.000,0.000
1644375075671979008,2022-02-09-02:51:13,10.1.1.2,-57,0.040,0.040,0.040,0.000,0.000,0.000
1644375110520399104,2022-02-09-02:51:46,10.1.1.2,-1317,0.040,0.040,0.040,0.000,0.000,0.000
1644375127050457088,2022-02-09-02:52:05,10.1.1.2,-97,0.040,0.040,0.040,0.000,0.000,0.000
1644375135770663936,2022-02-09-02:52:12,10.1.1.2,-653,0.040,0.040,0.040,0.000,0.000,0.000
1644375147739047936,2022-02-09-02:52:24,10.1.1.2,-108,0.040,0.040,0.040,0.000,0.000,0.000
1644375154316678912,2022-02-09-02:52:31,10.1.1.2,-227,0.040,0.040,0.040,0.000,0.000,0.000
1644375166638319104,2022-02-09-02:52:42,10.1.1.2,-1441,0.040,0.040,0.040,0.000,0.000,0.000
1644375183490992128,2022-02-09-02:53:01,10.1.1.2,-8,0.040,0.040,0.040,0.000,0.000,0.000
1644375188042898944,2022-02-09-02:53:05,10.1.1.2,-123,0.040,0.040,0.040,0.000,0.000,0.000
1644375195480635904,2022-02-09-02:53:14,10.1.1.2,-453,0.040,0.040,0.040,0.000,0.000,0.000
1644375199382395904,2022-02-09-02:53:17,10.1.1.2,-280,0.040,0.040,0.040,0.000,0.000,0.000
1644375215378823936,2022-02-09-02:53:33,10.1.1.2,-552,0.040,0.040,0.040,0.000,0.000,0.000
1644375224071578112,2022-02-09-02:53:41,10.1.1.2,-148,0.040,0.040,0.040,0.000,0.000,0.000
1644375229354456064,2022-02-09-02:53:47,10.1.1.2,-26,0.040,0.040,0.040,0.000,0.000,0.000
1644375247564673792,2022-02-09-02:54:06,10.1.1.2,-541,0.040,0.040,0.040,0.000,0.000,0.000
1644375257771382016,2022-02-09-02:54:16,10.1.1.2,3,0.040,0.040,0.040,0.000,0.000,0.000
1644375263873678080,2022-02-09-02:54:19,10.1.1.2,-163,0.040,0.040,0.040,0.000,0.000,0.000
1644375282217262080,2022-02-09-02:54:40,10.1.1.2,10,0.040,0.040,0.040,0.000,0.000,0.000
1644375284998132992,2022-02-09-02:54:44,10.1.1.2,-27,0.040,0.040,0.040,0.000,0.000,0.000
1644375286222724864,2022-02-09-02:54:46,10.1.1.2,3,0.040,0.040,0.040,0.000,0.000,0.000
1644375289152807936,2022-02-09-02:54:49,10.1.1.2,-8,0.040,0.040,0.040,0.000,0.000,0.000
1644375290411820800,2022-02-09-02:54:50,10.1.1.2,-7,0.040,0.040,0.040,0.000,0.000,0.000
1644375293300368128,2022-02-09-02:54:53,10.1.1.2,-1,0.040,0.040,0.040,0.000,0.000,0.000
1644375294561477888,2022-02-09-02:54:54,10.1.1.2,-6,0.040,0.040,0.040,0.000,0.000,0.000
1644375297430187008,2022-02-09-02:54:57,10.1.1.2,5,0.040,0.040,0.040,0.000,0.000,0.000
1644375298620563968,2022-02-09-02:54:58,10.1.1.2,-11,0.040,0.040,0.040,0.000,0.000,0.000
1644375301440399872,2022-02-09-02:55:01,10.1.1.2,-11,0.040,0.040,0.040,0.000,0.000,0.000
1644375302649662976,2022-02-09-02:55:02,10.1.1.2,-8,0.040,0.040,0.040,0.000,0.000,0.000
1644375305480012800,2022-02-09-02:55:05,10.1.1.2,-8,0.040,0.040,0.040,0.000,0.000,0.000
1644375306702057984,2022-02-09-02:55:06,10.1.1.2,-3,0.040,0.040,0.040,0.000,0.000,0.000
1644375309539792128,2022-02-09-02:55:09,10.1.1.2,-5,0.040,0.040,0.040,0.000,0.000,0.000
1644375310761812992,2022-02-09-02:55:10,10.1.1.2,-6,0.040,0.040,0.040,0.000,0.000,0.000
1644375313600809984,2022-02-09-02:55:13,10.1.1.2,0,0.040,0.040,0.040,0.000,0.000,0.000
1644375314820204032,2022-02-09-02:55:14,10.1.1.2,3,0.040,0.040,0.040,0.000,0.000,0.000
1644375317660934912,2022-02-09-02:55:17,10.1.1.2,1,0.040,0.040,0.040,0.000,0.000,0.000
1644375318880767232,2022-02-09-02:55:18,10.1.1.2,5,0.040,0.040,0.040,0.000,0.000,0.000
1644375322447681792,2022-02-09-02:55:21,10.1.1.2,-5,0.040,0.040,0.040,0.000,0.000,0.000
1644375323595659008,2022-02-09-02:55:23,10.1.1.2,-27,0.040,0.040,0.040,0.000,0.000,0.000
1644375347344097024,2022-02-09-02:55:42,10.1.1.2,-4293,0.040,0.040,0.040,0.000,0.000,0.000
1644375348460530944,2022-02-09-02:55:48,10.1.1.2,-10,0.040,0.040,0.040,0.000,0.000,0.000
1644375351370237184,2022-02-09-02:55:51,10.1.1.2,-11,0.040,0.040,0.040,0.000,0.000,0.000
1644375352625736960,2022-02-09-02:55:52,10.1.1.2,-5,0.040,0.040,0.040,0.000,0.000,0.000
1644375355632983040,2022-02-09-02:55:55,10.1.1.2,3,0.040,0.040,0.040,0.000,0.000,0.000
1644375356760866048,2022-02-09-02:55:56,10.1.1.2,0,0.040,0.040,0.040,0.000,0.000,0.000
1644375359632870912,2022-02-09-02:55:59,10.1.1.2,-2,0.040,0.040,0.040,0.000,0.000,0.000
1644375360842531840,2022-02-09-02:56:00,10.1.1.2,-10,0.040,0.040,0.040,0.000,0.000,0.000
1644375363700592128,2022-02-09-02:56:03,10.1.1.2,4,0.040,0.040,0.040,0.000,0.000,0.000
1644375364925797888,2022-02-09-02:56:04,10.1.1.2,-5,0.040,0.040,0.040,0.000,0.000,0.000
1644375367783204096,2022-02-09-02:56:07,10.1.1.2,-2,0.040,0.040,0.040,0.000,0.000,0.000
1644375369054932224,2022-02-09-02:56:09,10.1.1.2,3,0.040,0.040,0.040,0.000,0.000,0.000
1644375371841697024,2022-02-09-02:56:11,10.1.1.2,-11,0.040,0.040,0.040,0.000,0.000,0.000
1644375373101618176,2022-02-09-02:56:13,10.1.1.2,-8,0.040,0.040,0.040,0.000,0.000,0.000
1644375376289193984,2022-02-09-02:56:16,10.1.1.2,-10,0.040,0.040,0.040,0.000,0.000,0.000
1644375377646543872,2022-02-09-02:56:17,10.1.1.2,-27,0.040,0.040,0.040,0.000,0.000,0.000
1644375381524478976,2022-02-09-02:56:20,10.1.1.2,0,0.040,0.040,0.040,0.000,0.000,0.000
1644375382826055168,2022-02-09-02:56:22,10.1.1.2,-12,0.040,0.040,0.040,0.000,0.000,0.000
1644375387162367232,2022-02-09-02:56:25,10.1.1.2,7,0.040,0.040,0.040,0.000,0.000,0.000
1644375389697689088,2022-02-09-02:56:28,10.1.1.2,-19,0.040,0.040,0.040,0.000,0.000,0.000
1644375392962874880,2022-02-09-02:56:32,10.1.1.2,1,0.040,0.040,0.040,0.000,0.000,0.000
1644375394283122176,2022-02-09-02:56:34,10.1.1.2,-6,0.040,0.040,0.040,0.000,0.000,0.000
1644375398625828096,2022-02-09-02:56:37,10.1.1.2,-40,0.040,0.040,0.040,0.000,0.000,0.000
1644375399893931008,2022-02-09-02:56:39,10.1.1.2,-5,0.040,0.040,0.040,0.000,0.000,0.000
1644375403711879936,2022-02-09-02:56:42,10.1.1.2,15,0.040,0.040,0.040,0.000,0.000,0.000
1644375405978377216,2022-02-09-02:56:44,10.1.1.2,-6,0.040,0.040,0.040,0.000,0.000,0.000
1644375407371200000,2022-02-09-02:56:46,10.1.1.2,-711,0.040,0.040,0.040,0.000,0.000,0.000
1644375410190573824,2022-02-09-02:56:50,10.1.1.2,3,0.040,0.040,0.040,0.000,0.000,0.000
1644375411378436096,2022-02-09-02:56:51,10.1.1.2,8,0.040,0.040,0.040,0.000,0.000,0.000
1644375414371520000,2022-02-09-02:56:54,10.1.1.2,-4,0.040,0.040,0.040,0.000,0.000,0.000
1644375415722045952,2022-02-09-02:56:55,10.1.1.2,-6,0.040,0.040,0.040,0.000,0.000,0.000
1644375419835144960,2022-02-09-02:56:59,10.1.1.2,5,0.040,0.040,0.040,0.000,0.000,0.000
1644375421041966848,2022-02-09-02:57:01,10.1.1.2,-13,0.040,0.040,0.040,0.000,0.000,0.000
1644375428096185088,2022-02-09-02:57:04,10.1.1.2,-10,0.040,0.040,0.040,0.000,0.000,0.000
1644375431423897088,2022-02-09-02:57:09,10.1.1.2,9,0.040,0.040,0.040,0.000,0.000,0.000
1644375435045720064,2022-02-09-02:57:14,10.1.1.2,-12,0.040,0.040,0.040,0.000,0.000,0.000
1644375436178031872,2022-02-09-02:57:16,10.1.1.2,2,0.040,0.040,0.040,0.000,0.000,0.000
1644375439110748160,2022-02-09-02:57:19,10.1.1.2,8,0.040,0.040,0.040,0.000,0.000,0.000
1644375440248574976,2022-02-09-02:57:20,10.1.1.2,-3,0.040,0.040,0.040,0.000,0.000,0.000
1644375443140548096,2022-02-09-02:57:23,10.1.1.2,-12,0.040,0.040,0.040,0.000,0.000,0.000
1644375444360637952,2022-02-09-02:57:24,10.1.1.2,-6,0.040,0.040,0.040,0.000,0.000,0.000
1644375447190454016,2022-02-09-02:57:27,10.1.1.2,-1,0.040,0.040,0.040,0.000,0.000,0.000
1644375448410639104,2022-02-09-02:57:28,10.1.1.2,6,0.040,0.040,0.040,0.000,0.000,0.000
1644375451240430080,2022-02-09-02:57:31,10.1.1.2,-8,0.040,0.040,0.040,0.000,0.000,0.000
1644375452462862080,2022-02-09-02:57:32,10.1.1.2,-1,0.040,0.040,0.040,0.000,0.000,0.000
1644375455340441856,2022-02-09-02:57:35,10.1.1.2,-11,0.040,0.040,0.040,0.000,0.000,0.000
1644375456609708032,2022-02-09-02:57:36,10.1.1.2,-8,0.040,0.040,0.040,0.000,0.000,0.000
1644375459707273984,2022-02-09-02:57:39,10.1.1.2,-14,0.040,0.040,0.040,0.000,0.000,0.000
1644375460982323968,2022-02-09-02:57:40,10.1.1.2,-12,0.040,0.040,0.040,0.000,0.000,0.000
1644375464007889152,2022-02-09-02:57:43,10.1.1.2,11,0.040,0.040,0.040,0.000,0.000,0.000
1644375465276470016,2022-02-09-02:57:45,10.1.1.2,5,0.040,0.040,0.040,0.000,0.000,0.000
1644375468026680832,2022-02-09-02:57:48,10.1.1.2,-18,0.040,0.040,0.040,0.000,0.000,0.000
1644375469281933056,2022-02-09-02:57:49,10.1.1.2,-5,0.040,0.040,0.040,0.000,0.000,0.000
1644375472814369792,2022-02-09-02:57:52,10.1.1.2,-7,0.040,0.040,0.040,0.000,0.000,0.000
1644375473942259968,2022-02-09-02:57:53,10.1.1.2,4,0.040,0.040,0.040,0.000,0.000,0.000
1644375478673106944,2022-02-09-02:57:56,10.1.1.2,2,0.040,0.040,0.040,0.000,0.000,0.000
1644375480033658880,2022-02-09-02:58:00,10.1.1.2,-61,0.040,0.040,0.040,0.000,0.000,0.000
1644375484802635008,2022-02-09-02:58:03,10.1.1.2,13,0.040,0.040,0.040,0.000,0.000,0.000
1644375486696943872,2022-02-09-02:58:06,10.1.1.2,-18,0.040,0.040,0.040,0.000,0.000,0.000
1644375492899111936,2022-02-09-02:58:09,10.1.1.2,5,0.040,0.040,0.040,0.000,0.000,0.000
1644375497088777984,2022-02-09-02:58:15,10.1.1.2,-9,0.040,0.040,0.040,0.000,0.000,0.000
1644375503341049856,2022-02-09-02:58:20,10.1.1.2,1,0.040,0.040,0.040,0.000,0.000,0.000
1644375504783162112,2022-02-09-02:58:24,10.1.1.2,-6,0.040,0.040,0.040,0.000,0.000,0.000
1644375509533927936,2022-02-09-02:58:27,10.1.1.2,-9,0.040,0.040,0.040,0.000,0.000,0.000
1644375510910659072,2022-02-09-02:58:30,10.1.1.2,10,0.040,0.040,0.040,0.000,0.000,0.000
1644375516908352000,2022-02-09-02:58:33,10.1.1.2,-2,0.040,0.040,0.040,0.000,0.000,0.000
1644375519123544064,2022-02-09-02:58:38,10.1.1.2,-3,0.040,0.040,0.040,0.000,0.000,0.000
1644375524177457920,2022-02-09-02:58:42,10.1.1.2,-33,0.040,0.040,0.040,0.000,0.000,0.000
1644375525520988928,2022-02-09-02:58:45,10.1.1.2,6,0.040,0.040,0.040,0.000,0.000,0.000
1644375532945918976,2022-02-09-02:58:48,10.1.1.2,-10,0.040,0.040,0.040,0.000,0.000,0.000
1644375534089854976,2022-02-09-02:58:54,10.1.1.2,-21,0.040,0.040,0.040,0.000,0.000,0.000
1644375540031971072,2022-02-09-02:58:57,10.1.1.2,7,0.040,0.040,0.040,0.000,0.000,0.000
1644375545786597888,2022-02-09-02:59:02,10.1.1.2,1,0.040,0.040,0.040,0.000,0.000,0.000
1644375559257458944,2022-02-09-02:59:14,10.1.1.2,-15,0.040,0.040,0.040,0.000,0.000,0.000
1644375564513284864,2022-02-09-02:59:20,10.1.1.2,-12,0.040,0.040,0.040,0.000,0.000,0.000
1644375570270807040,2022-02-09-02:59:28,10.1.1.2,-4,0.040,0.040,0.040,0.000,0.000,0.000
1644375572010910976,2022-02-09-02:59:32,10.1.1.2,15,0.040,0.040,0.040,0.000,0.000,0.000
1644375578970387968,2022-02-09-02:59:34,10.1.1.2,6,0.040,0.040,0.040,0.000,0.000,0.000
1644375585139215872,2022-02-09-02:59:40,10.1.1.2,-3,0.040,0.040,0.040,0.000,0.000,0.000
1644375593678476032,2022-02-09-02:59:49,10.1.1.2,-12,0.040,0.040,0.040,0.000,0.000,0.000
1644375601676989952,2022-02-09-02:59:57,10.1.1.2,-1964,0.040,0.040,0.040,0.000,0.000,0.000
1644375612701643008,2022-02-09-03:00:05,10.1.1.2,-2,0.040,0.040,0.040,0.000,0.000,0.000
1644375629401929984,2022-02-09-03:00:18,10.1.1.2,-39,0.040,0.040,0.040,0.000,0.000,0.000
1644375643989281792,2022-02-09-03:00:35,10.1.1.2,10,0.040,0.040,0.040,0.000,0.000,0.000
1644375646886326016,2022-02-09-03:00:46,10.1.1.2,1,0.040,0.040,0.040,0.000,0.000,0.000
1644375649764164864,2022-02-09-03:00:49,10.1.1.2,-9,0.040,0.040,0.040,0.000,0.000,0.000
1644375651002353920,2022-02-09-03:00:51,10.1.1.2,-5,0.040,0.040,0.040,0.000,0.000,0.000
1644375654265939968,2022-02-09-03:00:53,10.1.1.2,-6,0.040,0.040,0.040,0.000,0.000,0.000
1644375655381841920,2022-02-09-03:00:55,10.1.1.2,-8,0.040,0.040,0.040,0.000,0.000,0.000
1644375658303739136,2022-02-09-03:00:58,10.1.1.2,-74,0.040,0.040,0.040,0.000,0.000,0.000
1644375659501470208,2022-02-09-03:00:59,10.1.1.2,1,0.040,0.040,0.040,0.000,0.000,0.000
1644375662414771968,2022-02-09-03:01:02,10.1.1.2,8,0.040,0.040,0.040,0.000,0.000,0.000
1644375664590764032,2022-02-09-03:01:03,10.1.1.2,1,0.040,0.040,0.040,0.000,0.000,0.000
1644375664596506112,2022-02-09-03:01:04,10.1.1.2,-598,0.040,0.040,0.040,0.000,0.000,0.000
1644375667500793088,2022-02-09-03:01:07,10.1.1.2,-36,0.040,0.040,0.040,0.000,0.000,0.000
1644375668791778048,2022-02-09-03:01:08,10.1.1.2,2,0.040,0.040,0.040,0.000,0.000,0.000
1644375671779102208,2022-02-09-03:01:11,10.1.1.2,-43,0.040,0.040,0.040,0.000,0.000,0.000
1644375675424066048,2022-02-09-03:01:12,10.1.1.2,-12,0.040,0.040,0.040,0.000,0.000,0.000
1644375678234093056,2022-02-09-03:01:18,10.1.1.2,-23,0.040,0.040,0.040,0.000,0.000,0.000
1644375679442394880,2022-02-09-03:01:19,10.1.1.2,-13,0.040,0.040,0.040,0.000,0.000,0.000
1644375682262205952,2022-02-09-03:01:22,10.1.1.2,-14,0.040,0.040,0.040,0.000,0.000,0.000
1644375683484086016,2022-02-09-03:01:23,10.1.1.2,-4,0.040,0.040,0.040,0.000,0.000,0.000
1644375686348592128,2022-02-09-03:01:26,10.1.1.2,-4,0.040,0.040,0.040,0.000,0.000,0.000
1644375687563945984,2022-02-09-03:01:27,10.1.1.2,-14,0.040,0.040,0.040,0.000,0.000,0.000
1644375690791954944,2022-02-09-03:01:30,10.1.1.2,-57,0.040,0.040,0.040,0.000,0.000,0.000
1644375691970298112,2022-02-09-03:01:31,10.1.1.2,-3,0.040,0.040,0.040,0.000,0.000,0.000
1644375695145857024,2022-02-09-03:01:34,10.1.1.2,-10,0.040,0.040,0.040,0.000,0.000,0.000
1644375696593533952,2022-02-09-03:01:36,10.1.1.2,-29,0.040,0.040,0.040,0.000,0.000,0.000
1644375708232975104,2022-02-09-03:01:39,10.1.1.2,12,0.040,0.040,0.040,0.000,0.000,0.000
1644375865752815104,2022-02-09-03:04:25,10.1.1.2,-11,0.040,0.040,0.040,0.000,0.000,0.000
1644375868583956992,2022-02-09-03:04:28,10.1.1.2,-3,0.040,0.040,0.040,0.000,0.000,0.000
1644375869783158016,2022-02-09-03:04:29,10.1.1.2,-9,0.040,0.040,0.040,0.000,0.000,0.000
1644375872603162112,2022-02-09-03:04:32,10.1.1.2,-7,0.040,0.040,0.040,0.000,0.000,0.000
1644375873823336960,2022-02-09-03:04:33,10.1.1.2,1,0.040,0.040,0.040,0.000,0.000,0.000
1644375876642870784,2022-02-09-03:04:36,10.1.1.2,-3,0.040,0.040,0.040,0.000,0.000,0.000
1644375877842343168,2022-02-09-03:04:37,10.1.1.2,-12,0.040,0.040,0.040,0.000,0.000,0.000
1644375880662025984,2022-02-09-03:04:40,10.1.1.2,-10,0.040,0.040,0.040,0.000,0.000,0.000
1644375881884032000,2022-02-09-03:04:41,10.1.1.2,2,0.040,0.040,0.040,0.000,0.000,0.000
1644375884703260928,2022-02-09-03:04:44,10.1.1.2,1,0.040,0.040,0.040,0.000,0.000,0.000
1644375885902694912,2022-02-09-03:04:45,10.1.1.2,-5,0.040,0.040,0.040,0.000,0.000,0.000
1644375888722914816,2022-02-09-03:04:48,10.1.1.2,-12,0.040,0.040,0.040,0.000,0.000,0.000
1644375889943453184,2022-02-09-03:04:49,10.1.1.2,-5,0.040,0.040,0.040,0.000,0.000,0.000
1644375892767502080,2022-02-09-03:04:52,10.1.1.2,-6,0.040,0.040,0.040,0.000,0.000,0.000
1644375893983895040,2022-02-09-03:04:53,10.1.1.2,5,0.040,0.040,0.040,0.000,0.000,0.000
1644375896803805952,2022-02-09-03:04:56,10.1.1.2,-1,0.040,0.040,0.040,0.000,0.000,0.000
1644375898006156800,2022-02-09-03:04:58,10.1.1.2,-6,0.040,0.040,0.040,0.000,0.000,0.000
1644375900827655168,2022-02-09-03:05:00,10.1.1.2,-12,0.040,0.040,0.040,0.000,0.000,0.000
1644375902045595904,2022-02-09-03:05:02,10.1.1.2,-6,0.040,0.040,0.040,0.000,0.000,0.000
1644375904922652928,2022-02-09-03:05:04,10.1.1.2,-5,0.040,0.040,0.040,0.000,0.000,0.000
1644375906132584192,2022-02-09-03:05:06,10.1.1.2,-1,0.040,0.040,0.040,0.000,0.000,0.000
1644375908942481920,2022-02-09-03:05:08,10.1.1.2,-5,0.040,0.040,0.040,0.000,0.000,0.000
1644375910162419968,2022-02-09-03:05:10,10.1.1.2,3,0.040,0.040,0.040,0.000,0.000,0.000
1644375913003204096,2022-02-09-03:05:13,10.1.1.2,-4,0.040,0.040,0.040,0.000,0.000,0.000
1644375914207973888,2022-02-09-03:05:14,10.1.1.2,-9,0.040,0.040,0.040,0.000,0.000,0.000
1644375917022744832,2022-02-09-03:05:17,10.1.1.2,-5,0.040,0.040,0.040,0.000,0.000,0.000
1644375918223347968,2022-02-09-03:05:18,10.1.1.2,-11,0.040,0.040,0.040,0.000,0.000,0.000
1644375921046191104,2022-02-09-03:05:21,10.1.1.2,-10,0.040,0.040,0.040,0.000,0.000,0.000
1644375922263195136,2022-02-09-03:05:22,10.1.1.2,4,0.040,0.040,0.040,0.000,0.000,0.000
1644375925062669056,2022-02-09-03:05:25,10.1.1.2,-12,0.040,0.040,0.040,0.000,0.000,0.000
1644375926283523072,2022-02-09-03:05:26,10.1.1.2,-7,0.040,0.040,0.040,0.000,0.000,0.000
1644375929112381952,2022-02-09-03:05:29,10.1.1.2,-1,0.040,0.040,0.040,0.000,0.000,0.000
1644375930323851008,2022-02-09-03:05:30,10.1.1.2,-1,0.040,0.040,0.040,0.000,0.000,0.000
1644375933152327168,2022-02-09-03:05:33,10.1.1.2,14,0.040,0.040,0.040,0.000,0.000,0.000
1644375934344707072,2022-02-09-03:05:34,10.1.1.2,-5,0.040,0.040,0.040,0.000,0.000,0.000
1644375937163404032,2022-02-09-03:05:37,10.1.1.2,-1,0.040,0.040,0.040,0.000,0.000,0.000
1644375938364891904,2022-02-09-03:05:38,10.1.1.2,-6,0.040,0.040,0.040,0.000,0.000,0.000
1644375941183293952,2022-02-09-03:05:41,10.1.1.2,-3,0.040,0.040,0.040,0.000,0.000,0.000
1644375942383443200,2022-02-09-03:05:42,10.1.1.2,-11,0.040,0.040,0.040,0.000,0.000,0.000
1644375945203452160,2022-02-09-03:05:45,10.1.1.2,-11,0.040,0.040,0.040,0.000,0.000,0.000
1644375946422467840,2022-02-09-03:05:46,10.1.1.2,-4,0.040,0.040,0.040,0.000,0.000,0.000
1644375949262289920,2022-02-09-03:05:49,10.1.1.2,-5,0.040,0.040,0.040,0.000,0.000,0.000
1644375950462672896,2022-02-09-03:05:50,10.1.1.2,-10,0.040,0.040,0.040,0.000,0.000,0.000
1644375953303152128,2022-02-09-03:05:53,10.1.1.2,4,0.040,0.040,0.040,0.000,0.000,0.000
1644375954503091968,2022-02-09-03:05:54,10.1.1.2,-10,0.040,0.040,0.040,0.000,0.000,0.000
1644375957312374016,2022-02-09-03:05:57,10.1.1.2,-14,0.040,0.040,0.040,0.000,0.000,0.000
1644375958544094208,2022-02-09-03:05:58,10.1.1.2,-1,0.040,0.040,0.040,0.000,0.000,0.000
1644375961352550912,2022-02-09-03:06:01,10.1.1.2,-6,0.040,0.040,0.040,0.000,0.000,0.000
1644375962568676096,2022-02-09-03:06:02,10.1.1.2,-1,0.040,0.040,0.040,0.000,0.000,0.000
1644375965388984064,2022-02-09-03:06:05,10.1.1.2,-8,0.040,0.040,0.040,0.000,0.000,0.000
1644375966584041216,2022-02-09-03:06:06,10.1.1.2,-12,0.040,0.040,0.040,0.000,0.000,0.000
1644375969423908864,2022-02-09-03:06:09,10.1.1.2,-7,0.040,0.040,0.040,0.000,0.000,0.000
1644375970623558912,2022-02-09-03:06:10,10.1.1.2,-15,0.040,0.040,0.040,0.000,0.000,0.000
1644375973442807808,2022-02-09-03:06:13,10.1.1.2,-13,0.040,0.040,0.040,0.000,0.000,0.000
1644375974662586880,2022-02-09-03:06:14,10.1.1.2,-8,0.040,0.040,0.040,0.000,0.000,0.000
1644375977483510016,2022-02-09-03:06:17,10.1.1.2,-5,0.040,0.040,0.040,0.000,0.000,0.000
1644375978683021056,2022-02-09-03:06:18,10.1.1.2,-12,0.040,0.040,0.040,0.000,0.000,0.000
1644375981504043008,2022-02-09-03:06:21,10.1.1.2,-16,0.040,0.040,0.040,0.000,0.000,0.000
1644375982722899968,2022-02-09-03:06:22,10.1.1.2,-6,0.040,0.040,0.040,0.000,0.000,0.000
1644375985543895040,2022-02-09-03:06:25,10.1.1.2,-6,0.040,0.040,0.040,0.000,0.000,0.000
1644375986742672896,2022-02-09-03:06:26,10.1.1.2,-13,0.040,0.040,0.040,0.000,0.000,0.000
1644375989568811008,2022-02-09-03:06:29,10.1.1.2,-17,0.040,0.040,0.040,0.000,0.000,0.000
1644375990764070144,2022-02-09-03:06:30,10.1.1.2,-13,0.040,0.040,0.040,0.000,0.000,0.000
1644375993584323840,2022-02-09-03:06:33,10.1.1.2,-9,0.040,0.040,0.040,0.000,0.000,0.000
1644375994783680000,2022-02-09-03:06:34,10.1.1.2,-14,0.040,0.040,0.040,0.000,0.000,0.000
1644375997606208000,2022-02-09-03:06:37,10.1.1.2,-9,0.040,0.040,0.040,0.000,0.000,0.000
1644375998828457216,2022-02-09-03:06:38,10.1.1.2,-1,0.040,0.040,0.040,0.000,0.000,0.000
1644376001643397120,2022-02-09-03:06:41,10.1.1.2,-5,0.040,0.040,0.040,0.000,0.000,0.000
1644376002883102976,2022-02-09-03:06:42,10.1.1.2,4,0.040,0.040,0.040,0.000,0.000,0.000
1644376005683943936,2022-02-09-03:06:45,10.1.1.2,-15,0.040,0.040,0.040,0.000,0.000,0.000
1644376006903422976,2022-02-09-03:06:46,10.1.1.2,0,0.040,0.040,0.040,0.000,0.000,0.000
1644376009703885056,2022-02-09-03:06:49,10.1.1.2,-14,0.040,0.040,0.040,0.000,0.000,0.000
1644376010923166976,2022-02-09-03:06:50,10.1.1.2,-4,0.040,0.040,0.040,0.000,0.000,0.000
1644376013744041984,2022-02-09-03:06:53,10.1.1.2,3,0.040,0.040,0.040,0.000,0.000,0.000
1644376014943293184,2022-02-09-03:06:54,10.1.1.2,-6,0.040,0.040,0.040,0.000,0.000,0.000
1644376017783646208,2022-02-09-03:06:57,10.1.1.2,-4,0.040,0.040,0.040,0.000,0.000,0.000
1644376019002947072,2022-02-09-03:06:59,10.1.1.2,4,0.040,0.040,0.040,0.000,0.000,0.000
1644376021824990976,2022-02-09-03:07:01,10.1.1.2,-10,0.040,0.040,0.040,0.000,0.000,0.000
1644376023043755008,2022-02-09-03:07:03,10.1.1.2,-5,0.040,0.040,0.040,0.000,0.000,0.000
1644376025887531008,2022-02-09-03:07:05,10.1.1.2,5,0.040,0.040,0.040,0.000,0.000,0.000
1644376027073065984,2022-02-09-03:07:07,10.1.1.2,-15,0.040,0.040,0.040,0.000,0.000,0.000
1644376029904033792,2022-02-09-03:07:09,10.1.1.2,-8,0.040,0.040,0.040,0.000,0.000,0.000
1644376031122881024,2022-02-09-03:07:11,10.1.1.2,4,0.040,0.040,0.040,0.000,0.000,0.000
1644376033933155072,2022-02-09-03:07:13,10.1.1.2,-4,0.040,0.040,0.040,0.000,0.000,0.000
1644376035144356096,2022-02-09-03:07:15,10.1.1.2,-1,0.040,0.040,0.040,0.000,0.000,0.000
1644376037963941120,2022-02-09-03:07:17,10.1.1.2,3,0.040,0.040,0.040,0.000,0.000,0.000
1644376039164043776,2022-02-09-03:07:19,10.1.1.2,-5,0.040,0.040,0.040,0.000,0.000,0.000
1644376041983545088,2022-02-09-03:07:21,10.1.1.2,-9,0.040,0.040,0.040,0.000,0.000,0.000
1644376043204060160,2022-02-09-03:07:23,10.1.1.2,0,0.040,0.040,0.040,0.000,0.000,0.000
1644376046013123072,2022-02-09-03:07:26,10.1.1.2,-1,0.040,0.040,0.040,0.000,0.000,0.000
1644376047223987968,2022-02-09-03:07:27,10.1.1.2,-1,0.040,0.040,0.040,0.000,0.000,0.000
1644376050034563072,2022-02-09-03:07:30,10.1.1.2,-7,0.040,0.040,0.040,0.000,0.000,0.000
1644376051245541120,2022-02-09-03:07:31,10.1.1.2,-5,0.040,0.040,0.040,0.000,0.000,0.000
1644376054063137024,2022-02-09-03:07:34,10.1.1.2,-4,0.040,0.040,0.040,0.000,0.000,0.000
1644376055264470016,2022-02-09-03:07:35,10.1.1.2,-11,0.040,0.040,0.040,0.000,0.000,0.000
1644376058084003072,2022-02-09-03:07:38,10.1.1.2,-9,0.040,0.040,0.040,0.000,0.000,0.000
1644376059287419136,2022-02-09-03:07:39,10.1.1.2,-17,0.040,0.040,0.040,0.000,0.000,0.000
1644376062103897088,2022-02-09-03:07:42,10.1.1.2,-12,0.040,0.040,0.040,0.000,0.000,0.000
1644376063323453952,2022-02-09-03:07:43,10.1.1.2,0,0.040,0.040,0.040,0.000,0.000,0.000
1644376066133692928,2022-02-09-03:07:46,10.1.1.2,-5,0.040,0.040,0.040,0.000,0.000,0.000
1644376067344337920,2022-02-09-03:07:47,10.1.1.2,-3,0.040,0.040,0.040,0.000,0.000,0.000
1644376070163609856,2022-02-09-03:07:50,10.1.1.2,3,0.040,0.040,0.040,0.000,0.000,0.000
1644376071373719040,2022-02-09-03:07:51,10.1.1.2,6,0.040,0.040,0.040,0.000,0.000,0.000
1644376074173432064,2022-02-09-03:07:54,10.1.1.2,-11,0.040,0.040,0.040,0.000,0.000,0.000
1644376075385598976,2022-02-09-03:07:55,10.1.1.2,-6,0.040,0.040,0.040,0.000,0.000,0.000
1644376078203468032,2022-02-09-03:07:58,10.1.1.2,-2,0.040,0.040,0.040,0.000,0.000,0.000
1644376079403988992,2022-02-09-03:07:59,10.1.1.2,-7,0.040,0.040,0.040,0.000,0.000,0.000
1644376082226810880,2022-02-09-03:08:02,10.1.1.2,-4,0.040,0.040,0.040,0.000,0.000,0.000
1644376083423260928,2022-02-09-03:08:03,10.1.1.2,-10,0.040,0.040,0.040,0.000,0.000,0.000
1644376086244406016,2022-02-09-03:08:06,10.1.1.2,-5,0.040,0.040,0.040,0.000,0.000,0.000
1644376087443396096,2022-02-09-03:08:07,10.1.1.2,-11,0.040,0.040,0.040,0.000,0.000,0.000
1644376090265944064,2022-02-09-03:08:10,10.1.1.2,-10,0.040,0.040,0.040,0.000,0.000,0.000
1644376091484161024,2022-02-09-03:08:11,10.1.1.2,1,0.040,0.040,0.040,0.000,0.000,0.000
1644376094283618816,2022-02-09-03:08:14,10.1.1.2,-12,0.040,0.040,0.040,0.000,0.000,0.000
1644376095503482112,2022-02-09-03:08:15,10.1.1.2,-1,0.040,0.040,0.040,0.000,0.000,0.000
1644376098305874944,2022-02-09-03:08:18,10.1.1.2,-12,0.040,0.040,0.040,0.000,0.000,0.000
1644376099523785984,2022-02-09-03:08:19,10.1.1.2,0,0.040,0.040,0.040,0.000,0.000,0.000
1644376102344182016,2022-02-09-03:08:22,10.1.1.2,3,0.040,0.040,0.040,0.000,0.000,0.000
1644376103543078912,2022-02-09-03:08:23,10.1.1.2,-4,0.040,0.040,0.040,0.000,0.000,0.000
1644376106363303936,2022-02-09-03:08:26,10.1.1.2,0,0.040,0.040,0.040,0.000,0.000,0.000
1644376107563354112,2022-02-09-03:08:27,10.1.1.2,-9,0.040,0.040,0.040,0.000,0.000,0.000
1644376110384349184,2022-02-09-03:08:30,10.1.1.2,-13,0.040,0.040,0.040,0.000,0.000,0.000
1644376111608119040,2022-02-09-03:08:31,10.1.1.2,-3,0.040,0.040,0.040,0.000,0.000,0.000
1644376114424624896,2022-02-09-03:08:34,10.1.1.2,-11,0.040,0.040,0.040,0.000,0.000,0.000
1644376115643599104,2022-02-09-03:08:35,10.1.1.2,0,0.040,0.040,0.040,0.000,0.000,0.000
1644376118444485888,2022-02-09-03:08:38,10.1.1.2,-13,0.040,0.040,0.040,0.000,0.000,0.000
1644376119663495936,2022-02-09-03:08:39,10.1.1.2,1,0.040,0.040,0.040,0.000,0.000,0.000
1644376122463480064,2022-02-09-03:08:42,10.1.1.2,-10,0.040,0.040,0.040,0.000,0.000,0.000
1644376123684564992,2022-02-09-03:08:43,10.1.1.2,-2,0.040,0.040,0.040,0.000,0.000,0.000
1644376126484760064,2022-02-09-03:08:46,10.1.1.2,-15,0.040,0.040,0.040,0.000,0.000,0.000
1644376127704054016,2022-02-09-03:08:47,10.1.1.2,-3,0.040,0.040,0.040,0.000,0.000,0.000
1644376130524274944,2022-02-09-03:08:50,10.1.1.2,0,0.040,0.040,0.040,0.000,0.000,0.000
1644376131715107840,2022-02-09-03:08:51,10.1.1.2,-26,0.040,0.040,0.040,0.000,0.000,0.000
1644376134554130176,2022-02-09-03:08:54,10.1.1.2,2,0.040,0.040,0.040,0.000,0.000,0.000
1644376135747812096,2022-02-09-03:08:55,10.1.1.2,-16,0.040,0.040,0.040,0.000,0.000,0.000
1644376138574423040,2022-02-09-03:08:58,10.1.1.2,-5,0.040,0.040,0.040,0.000,0.000,0.000
1644376139784267776,2022-02-09-03:08:59,10.1.1.2,-7,0.040,0.040,0.040,0.000,0.000,0.000
1644376142604398848,2022-02-09-03:09:02,10.1.1.2,-13,0.040,0.040,0.040,0.000,0.000,0.000
1644376143831796992,2022-02-09-03:09:03,10.1.1.2,-6,0.040,0.040,0.040,0.000,0.000,0.000
1644376146646351104,2022-02-09-03:09:06,10.1.1.2,-8,0.040,0.040,0.040,0.000,0.000,0.000
1644376147873895936,2022-02-09-03:09:07,10.1.1.2,8,0.040,0.040,0.040,0.000,0.000,0.000
1644376150683955968,2022-02-09-03:09:10,10.1.1.2,-10,0.040,0.040,0.040,0.000,0.000,0.000
1644376151904644096,2022-02-09-03:09:11,10.1.1.2,-8,0.040,0.040,0.040,0.000,0.000,0.000
1644376154722689024,2022-02-09-03:09:14,10.1.1.2,-6,0.040,0.040,0.040,0.000,0.000,0.000
1644376155923175168,2022-02-09-03:09:15,10.1.1.2,-12,0.040,0.040,0.040,0.000,0.000,0.000
1644376158745032960,2022-02-09-03:09:18,10.1.1.2,-4,0.040,0.040,0.040,0.000,0.000,0.000
1644376159965900800,2022-02-09-03:09:19,10.1.1.2,0,0.040,0.040,0.040,0.000,0.000,0.000
1644376162802887936,2022-02-09-03:09:22,10.1.1.2,-10,0.040,0.040,0.040,0.000,0.000,0.000
1644376164013010944,2022-02-09-03:09:24,10.1.1.2,-10,0.040,0.040,0.040,0.000,0.000,0.000
1644376166832971008,2022-02-09-03:09:26,10.1.1.2,-7,0.040,0.040,0.040,0.000,0.000,0.000
1644376168032476928,2022-02-09-03:09:28,10.1.1.2,-14,0.040,0.040,0.040,0.000,0.000,0.000
1644376170843826176,2022-02-09-03:09:30,10.1.1.2,-16,0.040,0.040,0.040,0.000,0.000,0.000
1644376172063262976,2022-02-09-03:09:32,10.1.1.2,-2,0.040,0.040,0.040,0.000,0.000,0.000
1644376174863075072,2022-02-09-03:09:34,10.1.1.2,-14,0.040,0.040,0.040,0.000,0.000,0.000
1644376176082400000,2022-02-09-03:09:36,10.1.1.2,-4,0.040,0.040,0.040,0.000,0.000,0.000
1644376178912256000,2022-02-09-03:09:38,10.1.1.2,6,0.040,0.040,0.040,0.000,0.000,0.000
1644376180111504128,2022-02-09-03:09:40,10.1.1.2,-1,0.040,0.040,0.040,0.000,0.000,0.000
1644376182921907968,2022-02-09-03:09:42,10.1.1.2,-12,0.040,0.040,0.040,0.000,0.000,0.000
1644376184148664832,2022-02-09-03:09:44,10.1.1.2,-2,0.040,0.040,0.040,0.000,0.000,0.000
1644376186963269120,2022-02-09-03:09:46,10.1.1.2,-8,0.040,0.040,0.040,0.000,0.000,0.000
1644376188182702080,2022-02-09-03:09:48,10.1.1.2,-1,0.040,0.040,0.040,0.000,0.000,0.000
1644376191001569024,2022-02-09-03:09:51,10.1.1.2,-4,0.040,0.040,0.040,0.000,0.000,0.000
1644376192214390016,2022-02-09-03:09:52,10.1.1.2,-4,0.040,0.040,0.040,0.000,0.000,0.000
1644376195022136064,2022-02-09-03:09:55,10.1.1.2,-13,0.040,0.040,0.040,0.000,0.000,0.000
1644376195122572032,2022-02-09-03:09:55,10.1.1.2,-14,0.040,0.040,0.040,0.000,0.000,0.000
1644376196242667008,2022-02-09-03:09:56,10.1.1.2,-1,0.040,0.040,0.040,0.000,0.000,0.000
1644376199062049024,2022-02-09-03:09:59,10.1.1.2,0,0.040,0.040,0.040,0.000,0.000,0.000
1644376200263575040,2022-02-09-03:10:00,10.1.1.2,-11,0.040,0.040,0.040,0.000,0.000,0.000
1644376203090811136,2022-02-09-03:10:03,10.1.1.2,3,0.040,0.040,0.040,0.000,0.000,0.000
1644376204286385920,2022-02-09-03:10:04,10.1.1.2,-13,0.040,0.040,0.040,0.000,0.000,0.000
1644376207105907968,2022-02-09-03:10:07,10.1.1.2,-8,0.040,0.040,0.040,0.000,0.000,0.000
1644376208303196928,2022-02-09-03:10:08,10.1.1.2,-13,0.040,0.040,0.040,0.000,0.000,0.000
1644376211142046976,2022-02-09-03:10:11,10.1.1.2,-3,0.040,0.040,0.040,0.000,0.000,0.000
1644376212384875008,2022-02-09-03:10:12,10.1.1.2,6,0.040,0.040,0.040,0.000,0.000,0.000
1644376215200276992,2022-02-09-03:10:15,10.1.1.2,2,0.040,0.040,0.040,0.000,0.000,0.000
1644376216400825856,2022-02-09-03:10:16,10.1.1.2,-7,0.040,0.040,0.040,0.000,0.000,0.000
1644376219221245952,2022-02-09-03:10:19,10.1.1.2,-9,0.040,0.040,0.040,0.000,0.000,0.000
1644376220440697856,2022-02-09-03:10:20,10.1.1.2,1,0.040,0.040,0.040,0.000,0.000,0.000
1644376223290528000,2022-02-09-03:10:23,10.1.1.2,16,0.040,0.040,0.040,0.000,0.000,0.000
1644376224484590080,2022-02-09-03:10:24,10.1.1.2,-3,0.040,0.040,0.040,0.000,0.000,0.000
1644376227286701056,2022-02-09-03:10:27,10.1.1.2,-17,0.040,0.040,0.040,0.000,0.000,0.000
1644376228511725824,2022-02-09-03:10:28,10.1.1.2,3,0.040,0.040,0.040,0.000,0.000,0.000
1644376231330265088,2022-02-09-03:10:31,10.1.1.2,2,0.040,0.040,0.040,0.000,0.000,0.000
1644376232552589824,2022-02-09-03:10:32,10.1.1.2,13,0.040,0.040,0.040,0.000,0.000,0.000
1644376235360774912,2022-02-09-03:10:35,10.1.1.2,7,0.040,0.040,0.040,0.000,0.000,0.000
1644376236561001984,2022-02-09-03:10:36,10.1.1.2,3,0.040,0.040,0.040,0.000,0.000,0.000
1644376239379774208,2022-02-09-03:10:39,10.1.1.2,8,0.040,0.040,0.040,0.000,0.000,0.000
1644376240584794112,2022-02-09-03:10:40,10.1.1.2,2,0.040,0.040,0.040,0.000,0.000,0.000
1644376243400541952,2022-02-09-03:10:43,10.1.1.2,6,0.040,0.040,0.040,0.000,0.000,0.000
1644376244600112896,2022-02-09-03:10:44,10.1.1.2,-1,0.040,0.040,0.040,0.000,0.000,0.000
1644376247419182080,2022-02-09-03:10:47,10.1.1.2,2,0.040,0.040,0.040,0.000,0.000,0.000
1644376248619821056,2022-02-09-03:10:48,10.1.1.2,-6,0.040,0.040,0.040,0.000,0.000,0.000
1644376251439536128,2022-02-09-03:10:51,10.1.1.2,-3,0.040,0.040,0.040,0.000,0.000,0.000
1644376252639045888,2022-02-09-03:10:52,10.1.1.2,-9,0.040,0.040,0.040,0.000,0.000,0.000
1644376255459959040,2022-02-09-03:10:55,10.1.1.2,-7,0.040,0.040,0.040,0.000,0.000,0.000
1644376256680148992,2022-02-09-03:10:56,10.1.1.2,6,0.040,0.040,0.040,0.000,0.000,0.000
1644376259480375040,2022-02-09-03:10:59,10.1.1.2,-9,0.040,0.040,0.040,0.000,0.000,0.000
1644376260699259904,2022-02-09-03:11:00,10.1.1.2,6,0.040,0.040,0.040,0.000,0.000,0.000
1644376263498806016,2022-02-09-03:11:03,10.1.1.2,-7,0.040,0.040,0.040,0.000,0.000,0.000
1644376264718883072,2022-02-09-03:11:04,10.1.1.2,0,0.040,0.040,0.040,0.000,0.000,0.000
1644376267539341824,2022-02-09-03:11:07,10.1.1.2,-8,0.040,0.040,0.040,0.000,0.000,0.000
1644376268759437056,2022-02-09-03:11:08,10.1.1.2,-6,0.040,0.040,0.040,0.000,0.000,0.000
1644376271578268160,2022-02-09-03:11:11,10.1.1.2,-8,0.040,0.040,0.040,0.000,0.000,0.000
1644376272798216192,2022-02-09-03:11:12,10.1.1.2,5,0.040,0.040,0.040,0.000,0.000,0.000
1644376275619575040,2022-02-09-03:11:15,10.1.1.2,-2,0.040,0.040,0.040,0.000,0.000,0.000
1644376276818941184,2022-02-09-03:11:16,10.1.1.2,-11,0.040,0.040,0.040,0.000,0.000,0.000
1644376279667834112,2022-02-09-03:11:19,10.1.1.2,15,0.040,0.040,0.040,0.000,0.000,0.000
1644376280907710976,2022-02-09-03:11:20,10.1.1.2,9,0.040,0.040,0.040,0.000,0.000,0.000
1644376283738935040,2022-02-09-03:11:23,10.1.1.2,-1,0.040,0.040,0.040,0.000,0.000,0.000
1644376284963740160,2022-02-09-03:11:24,10.1.1.2,7,0.040,0.040,0.040,0.000,0.000,0.000
1644376287757986048,2022-02-09-03:11:27,10.1.1.2,-9,0.040,0.040,0.040,0.000,0.000,0.000
1644376288977630976,2022-02-09-03:11:28,10.1.1.2,1,0.040,0.040,0.040,0.000,0.000,0.000
1644376291798227968,2022-02-09-03:11:31,10.1.1.2,1,0.040,0.040,0.040,0.000,0.000,0.000
1644376292998754048,2022-02-09-03:11:32,10.1.1.2,-7,0.040,0.040,0.040,0.000,0.000,0.000
1644376295828804096,2022-02-09-03:11:35,10.1.1.2,2,0.040,0.040,0.040,0.000,0.000,0.000
1644376297037814016,2022-02-09-03:11:37,10.1.1.2,2,0.040,0.040,0.040,0.000,0.000,0.000
1644376299858323968,2022-02-09-03:11:39,10.1.1.2,-3,0.040,0.040,0.040,0.000,0.000,0.000
1644376301078310912,2022-02-09-03:11:41,10.1.1.2,4,0.040,0.040,0.040,0.000,0.000,0.000
1644376303897922048,2022-02-09-03:11:43,10.1.1.2,3,0.040,0.040,0.040,0.000,0.000,0.000
1644376305106878976,2022-02-09-03:11:45,10.1.1.2,4,0.040,0.040,0.040,0.000,0.000,0.000
1644376307917729024,2022-02-09-03:11:47,10.1.1.2,-4,0.040,0.040,0.040,0.000,0.000,0.000
1644376309139188992,2022-02-09-03:11:49,10.1.1.2,5,0.040,0.040,0.040,0.000,0.000,0.000
1644376311960055040,2022-02-09-03:11:51,10.1.1.2,3,0.040,0.040,0.040,0.000,0.000,0.000
1644376313158482176,2022-02-09-03:11:53,10.1.1.2,-6,0.040,0.040,0.040,0.000,0.000,0.000
1644376315976943872,2022-02-09-03:11:55,10.1.1.2,-7,0.040,0.040,0.040,0.000,0.000,0.000
1644376317198277888,2022-02-09-03:11:57,10.1.1.2,-5,0.040,0.040,0.040,0.000,0.000,0.000
1644376320062352896,2022-02-09-03:12:00,10.1.1.2,1,0.040,0.040,0.040,0.000,0.000,0.000
1644376321257786880,2022-02-09-03:12:01,10.1.1.2,-8,0.040,0.040,0.040,0.000,0.000,0.000
1644376324106945024,2022-02-09-03:12:04,10.1.1.2,15,0.040,0.040,0.040,0.000,0.000,0.000
1644376325321945856,2022-02-09-03:12:05,10.1.1.2,2,0.040,0.040,0.040,0.000,0.000,0.000
1644376328177583104,2022-02-09-03:12:08,10.1.1.2,2,0.040,0.040,0.040,0.000,0.000,0.000
1644376329377933056,2022-02-09-03:12:09,10.1.1.2,-10,0.040,0.040,0.040,0.000,0.000,0.000
1644376332220536832,2022-02-09-03:12:12,10.1.1.2,-2,0.040,0.040,0.040,0.000,0.000,0.000
1644376333420942080,2022-02-09-03:12:13,10.1.1.2,-11,0.040,0.040,0.040,0.000,0.000,0.000
1644376336256393984,2022-02-09-03:12:16,10.1.1.2,5,0.040,0.040,0.040,0.000,0.000,0.000
1644376337456811008,2022-02-09-03:12:17,10.1.1.2,-3,0.040,0.040,0.040,0.000,0.000,0.000
1644376340276573952,2022-02-09-03:12:20,10.1.1.2,1,0.040,0.040,0.040,0.000,0.000,0.000
1644376341476732928,2022-02-09-03:12:21,10.1.1.2,-5,0.040,0.040,0.040,0.000,0.000,0.000
1644376344306170880,2022-02-09-03:12:24,10.1.1.2,11,0.040,0.040,0.040,0.000,0.000,0.000
1644376345495827968,2022-02-09-03:12:25,10.1.1.2,-5,0.040,0.040,0.040,0.000,0.000,0.000
1644376348346308096,2022-02-09-03:12:28,10.1.1.2,14,0.040,0.040,0.040,0.000,0.000,0.000
1644376349535842816,2022-02-09-03:12:29,10.1.1.2,-3,0.040,0.040,0.040,0.000,0.000,0.000
1644376352356712960,2022-02-09-03:12:32,10.1.1.2,3,0.040,0.040,0.040,0.000,0.000,0.000
1644376353556253952,2022-02-09-03:12:33,10.1.1.2,-4,0.040,0.040,0.040,0.000,0.000,0.000
1644376356376002048,2022-02-09-03:12:36,10.1.1.2,-1,0.040,0.040,0.040,0.000,0.000,0.000
1644376357586241024,2022-02-09-03:12:37,10.1.1.2,3,0.040,0.040,0.040,0.000,0.000,0.000
1644376360396377088,2022-02-09-03:12:40,10.1.1.2,-5,0.040,0.040,0.040,0.000,0.000,0.000
1644376361605313024,2022-02-09-03:12:41,10.1.1.2,-2,0.040,0.040,0.040,0.000,0.000,0.000
1644376364419152128,2022-02-09-03:12:44,10.1.1.2,-5,0.040,0.040,0.040,0.000,0.000,0.000
1644376365646662912,2022-02-09-03:12:45,10.1.1.2,1,0.040,0.040,0.040,0.000,0.000,0.000
1644376368455245056,2022-02-09-03:12:48,10.1.1.2,0,0.040,0.040,0.040,0.000,0.000,0.000
1644376369665967872,2022-02-09-03:12:49,10.1.1.2,4,0.040,0.040,0.040,0.000,0.000,0.000
1644376372475200000,2022-02-09-03:12:52,10.1.1.2,-1,0.040,0.040,0.040,0.000,0.000,0.000
1644376373685598976,2022-02-09-03:12:53,10.1.1.2,2,0.040,0.040,0.040,0.000,0.000,0.000
1644376376504463872,2022-02-09-03:12:56,10.1.1.2,-2,0.040,0.040,0.040,0.000,0.000,0.000
1644376377716139008,2022-02-09-03:12:57,10.1.1.2,0,0.040,0.040,0.040,0.000,0.000,0.000
1644376380545732864,2022-02-09-03:13:00,10.1.1.2,4,0.040,0.040,0.040,0.000,0.000,0.000
1644376381755044096,2022-02-09-03:13:01,10.1.1.2,3,0.040,0.040,0.040,0.000,0.000,0.000
1644376384615660800,2022-02-09-03:13:04,10.1.1.2,6,0.040,0.040,0.040,0.000,0.000,0.000
1644376385815148032,2022-02-09-03:13:05,10.1.1.2,-2,0.040,0.040,0.040,0.000,0.000,0.000
1644376388675862016,2022-02-09-03:13:08,10.1.1.2,7,0.040,0.040,0.040,0.000,0.000,0.000
1644376389878673920,2022-02-09-03:13:09,10.1.1.2,-1,0.040,0.040,0.040,0.000,0.000,0.000
1644376392695885824,2022-02-09-03:13:12,10.1.1.2,-7,0.040,0.040,0.040,0.000,0.000,0.000
1644376393924206848,2022-02-09-03:13:13,10.1.1.2,15,0.040,0.040,0.040,0.000,0.000,0.000
1644376396724179968,2022-02-09-03:13:16,10.1.1.2,-1,0.040,0.040,0.040,0.000,0.000,0.000
1644376397934409984,2022-02-09-03:13:17,10.1.1.2,4,0.040,0.040,0.040,0.000,0.000,0.000
1644376400756107008,2022-02-09-03:13:20,10.1.1.2,3,0.040,0.040,0.040,0.000,0.000,0.000
1644376401975665152,2022-02-09-03:13:21,10.1.1.2,12,0.040,0.040,0.040,0.000,0.000,0.000
1644376404775495168,2022-02-09-03:13:24,10.1.1.2,-4,0.040,0.040,0.040,0.000,0.000,0.000
1644376405999182080,2022-02-09-03:13:25,10.1.1.2,8,0.040,0.040,0.040,0.000,0.000,0.000
1644376408814910976,2022-02-09-03:13:28,10.1.1.2,11,0.040,0.040,0.040,0.000,0.000,0.000
1644376410024036864,2022-02-09-03:13:30,10.1.1.2,15,0.040,0.040,0.040,0.000,0.000,0.000
1644376412834074112,2022-02-09-03:13:32,10.1.1.2,2,0.040,0.040,0.040,0.000,0.000,0.000
1644376414054328832,2022-02-09-03:13:34,10.1.1.2,13,0.040,0.040,0.040,0.000,0.000,0.000
1644376416854952960,2022-02-09-03:13:36,10.1.1.2,-3,0.040,0.040,0.040,0.000,0.000,0.000
1644376418075136000,2022-02-09-03:13:38,10.1.1.2,4,0.040,0.040,0.040,0.000,0.000,0.000
1644376420894689024,2022-02-09-03:13:40,10.1.1.2,10,0.040,0.040,0.040,0.000,0.000,0.000
1644376422095529984,2022-02-09-03:13:42,10.1.1.2,5,0.040,0.040,0.040,0.000,0.000,0.000
1644376424914189056,2022-02-09-03:13:44,10.1.1.2,7,0.040,0.040,0.040,0.000,0.000,0.000
1644376426116029952,2022-02-09-03:13:46,10.1.1.2,1,0.040,0.040,0.040,0.000,0.000,0.000
1644376428934693120,2022-02-09-03:13:48,10.1.1.2,0,0.040,0.040,0.040,0.000,0.000,0.000
1644376430154797056,2022-02-09-03:13:50,10.1.1.2,8,0.040,0.040,0.040,0.000,0.000,0.000
1644376432976197120,2022-02-09-03:13:52,10.1.1.2,5,0.040,0.040,0.040,0.000,0.000,0.000
1644376434180079872,2022-02-09-03:13:54,10.1.1.2,-4,0.040,0.040,0.040,0.000,0.000,0.000
1644376437014755840,2022-02-09-03:13:57,10.1.1.2,3,0.040,0.040,0.040,0.000,0.000,0.000
1644376438233726976,2022-02-09-03:13:58,10.1.1.2,9,0.040,0.040,0.040,0.000,0.000,0.000
1644376441053453056,2022-02-09-03:14:01,10.1.1.2,8,0.040,0.040,0.040,0.000,0.000,0.000
1644376442253844992,2022-02-09-03:14:02,10.1.1.2,0,0.040,0.040,0.040,0.000,0.000,0.000
1644376445073676032,2022-02-09-03:14:05,10.1.1.2,1,0.040,0.040,0.040,0.000,0.000,0.000
1644376446274498048,2022-02-09-03:14:06,10.1.1.2,-6,0.040,0.040,0.040,0.000,0.000,0.000
1644376449094180096,2022-02-09-03:14:09,10.1.1.2,-2,0.040,0.040,0.040,0.000,0.000,0.000
1644376450314264064,2022-02-09-03:14:10,10.1.1.2,8,0.040,0.040,0.040,0.000,0.000,0.000
1644376453133851136,2022-02-09-03:14:13,10.1.1.2,-2,0.040,0.040,0.040,0.000,0.000,0.000
1644376454354572032,2022-02-09-03:14:14,10.1.1.2,3,0.040,0.040,0.040,0.000,0.000,0.000
1644376457180880128,2022-02-09-03:14:17,10.1.1.2,11,0.040,0.040,0.040,0.000,0.000,0.000
1644376458373810176,2022-02-09-03:14:18,10.1.1.2,-4,0.040,0.040,0.040,0.000,0.000,0.000
1644376461194135808,2022-02-09-03:14:21,10.1.1.2,-4,0.040,0.040,0.040,0.000,0.000,0.000
1644376462412708096,2022-02-09-03:14:22,10.1.1.2,4,0.040,0.040,0.040,0.000,0.000,0.000
1644376465232027904,2022-02-09-03:14:25,10.1.1.2,5,0.040,0.040,0.040,0.000,0.000,0.000
1644376466432090112,2022-02-09-03:14:26,10.1.1.2,-1,0.040,0.040,0.040,0.000,0.000,0.000
1644376469305826816,2022-02-09-03:14:29,10.1.1.2,10,0.040,0.040,0.040,0.000,0.000,0.000
1644376470522839040,2022-02-09-03:14:30,10.1.1.2,10,0.040,0.040,0.040,0.000,0.000,0.000
1644376473343176960,2022-02-09-03:14:33,10.1.1.2,3,0.040,0.040,0.040,0.000,0.000,0.000
1644376474552279040,2022-02-09-03:14:34,10.1.1.2,7,0.040,0.040,0.040,0.000,0.000,0.000
1644376477371874048,2022-02-09-03:14:37,10.1.1.2,13,0.040,0.040,0.040,0.000,0.000,0.000
1644376478574469120,2022-02-09-03:14:38,10.1.1.2,-3,0.040,0.040,0.040,0.000,0.000,0.000
1644376481412211968,2022-02-09-03:14:41,10.1.1.2,14,0.040,0.040,0.040,0.000,0.000,0.000
1644376482612541952,2022-02-09-03:14:42,10.1.1.2,6,0.040,0.040,0.040,0.000,0.000,0.000
1644376485432344832,2022-02-09-03:14:45,10.1.1.2,14,0.040,0.040,0.040,0.000,0.000,0.000
1644376486632740864,2022-02-09-03:14:46,10.1.1.2,8,0.040,0.040,0.040,0.000,0.000,0.000
1644376489452745984,2022-02-09-03:14:49,10.1.1.2,12,0.040,0.040,0.040,0.000,0.000,0.000
1644376490653075968,2022-02-09-03:14:50,10.1.1.2,7,0.040,0.040,0.040,0.000,0.000,0.000
1644376493472562944,2022-02-09-03:14:53,10.1.1.2,9,0.040,0.040,0.040,0.000,0.000,0.000
1644376494672056832,2022-02-09-03:14:54,10.1.1.2,3,0.040,0.040,0.040,0.000,0.000,0.000
1644376497491163136,2022-02-09-03:14:57,10.1.1.2,9,0.040,0.040,0.040,0.000,0.000,0.000
1644376498692519936,2022-02-09-03:14:58,10.1.1.2,5,0.040,0.040,0.040,0.000,0.000,0.000
1644376501512626944,2022-02-09-03:15:01,10.1.1.2,3,0.040,0.040,0.040,0.000,0.000,0.000
1644376502731583232,2022-02-09-03:15:02,10.1.1.2,2,0.040,0.040,0.040,0.000,0.000,0.000
1644376505554574080,2022-02-09-03:15:05,10.1.1.2,3,0.040,0.040,0.040,0.000,0.000,0.000
1644376506753523200,2022-02-09-03:15:06,10.1.1.2,-5,0.040,0.040,0.040,0.000,0.000,0.000
1644376509591651072,2022-02-09-03:15:09,10.1.1.2,14,0.040,0.040,0.040,0.000,0.000,0.000
1644376510792821760,2022-02-09-03:15:10,10.1.1.2,9,0.040,0.040,0.040,0.000,0.000,0.000
1644376513603838976,2022-02-09-03:15:13,10.1.1.2,2,0.040,0.040,0.040,0.000,0.000,0.000
1644376514812593920,2022-02-09-03:15:14,10.1.1.2,7,0.040,0.040,0.040,0.000,0.000,0.000
1644376517621944064,2022-02-09-03:15:17,10.1.1.2,-3,0.040,0.040,0.040,0.000,0.000,0.000
1644376518832216064,2022-02-09-03:15:18,10.1.1.2,-2,0.040,0.040,0.040,0.000,0.000,0.000
1644376521651438848,2022-02-09-03:15:21,10.1.1.2,-1,0.040,0.040,0.040,0.000,0.000,0.000
1644376522861999104,2022-02-09-03:15:22,10.1.1.2,2,0.040,0.040,0.040,0.000,0.000,0.000
1644376525671858944,2022-02-09-03:15:25,10.1.1.2,-3,0.040,0.040,0.040,0.000,0.000,0.000
1644376526900711936,2022-02-09-03:15:26,10.1.1.2,17,0.040,0.040,0.040,0.000,0.000,0.000
1644376529712024064,2022-02-09-03:15:29,10.1.1.2,3,0.040,0.040,0.040,0.000,0.000,0.000
1644376530921120000,2022-02-09-03:15:30,10.1.1.2,5,0.040,0.040,0.040,0.000,0.000,0.000
1644376533751737088,2022-02-09-03:15:33,10.1.1.2,7,0.040,0.040,0.040,0.000,0.000,0.000
1644376534951732992,2022-02-09-03:15:34,10.1.1.2,0,0.040,0.040,0.040,0.000,0.000,0.000
1644376537793019136,2022-02-09-03:15:37,10.1.1.2,11,0.040,0.040,0.040,0.000,0.0