FedericoMungari/DigitalTwin_service/01_WiredScenario/Output/Output_script/script_rosapi_2_output_robots4_freq0_4.txt
timestamp,date,node,latency,joint_1,joint_2,joint_3,joint_4,joint_5,joint_6
1644895899277976064,2022-02-15-03:31:39,10.1.1.5,9,-0.100,-0.100,-0.100,-0.000,0.000,-0.000
1644895899354521088,2022-02-15-03:31:39,10.1.1.5,37,-0.090,-0.090,-0.090,0.000,0.000,0.000
1644895899394396928,2022-02-15-03:31:39,10.1.1.5,25,-0.080,-0.080,-0.080,0.000,0.000,0.000
1644895899554402048,2022-02-15-03:31:39,10.1.1.5,28,-0.050,-0.050,-0.050,0.000,0.000,0.000
1644895899614945792,2022-02-15-03:31:39,10.1.1.5,37,-0.040,-0.040,-0.040,0.000,0.000,0.000
1644895899655168000,2022-02-15-03:31:39,10.1.1.5,24,-0.030,-0.030,-0.030,0.000,0.000,0.000
1644895899715095040,2022-02-15-03:31:39,10.1.1.5,33,-0.020,-0.020,-0.020,0.000,0.000,0.000
1644895899814706944,2022-02-15-03:31:39,10.1.1.5,28,0.000,0.000,0.000,0.000,0.000,0.000
1644895899875523072,2022-02-15-03:31:39,10.1.1.5,35,0.010,0.010,0.010,0.000,0.000,0.000
1644895899915042048,2022-02-15-03:31:39,10.1.1.5,22,0.020,0.020,0.020,0.000,0.000,0.000
1644895900035279872,2022-02-15-03:31:40,10.1.1.5,35,0.040,0.040,0.040,0.000,0.000,0.000
1644895900076047872,2022-02-15-03:31:40,10.1.1.5,24,0.050,0.050,0.050,0.000,0.000,0.000
1644895900138006016,2022-02-15-03:31:40,10.1.1.5,33,0.060,0.060,0.060,0.000,0.000,0.000
1644895900178201856,2022-02-15-03:31:40,10.1.1.5,22,0.070,0.070,0.070,0.000,0.000,0.000
1644895900293943040,2022-02-15-03:31:40,10.1.1.5,37,0.090,0.090,0.090,0.000,0.000,0.000
1644895900335407104,2022-02-15-03:31:40,10.1.1.5,22,0.100,0.100,0.100,0.000,0.000,0.000
1644895900494402816,2022-02-15-03:31:40,10.1.1.5,26,0.070,0.070,0.070,0.000,0.000,0.000
1644895900553738240,2022-02-15-03:31:40,10.1.1.5,35,0.060,0.060,0.060,0.000,0.000,0.000
1644895900594050048,2022-02-15-03:31:40,10.1.1.5,24,0.050,0.050,0.050,0.000,0.000,0.000
1644895900696791808,2022-02-15-03:31:40,10.1.1.5,21,0.030,0.030,0.030,0.000,0.000,0.000
1644895900817110016,2022-02-15-03:31:40,10.1.1.5,37,0.010,0.010,0.010,0.000,0.000,0.000
1644895900853959168,2022-02-15-03:31:40,10.1.1.5,22,0.000,0.000,0.000,0.000,0.000,0.000
1644895900974798848,2022-02-15-03:31:40,10.1.1.5,36,-0.020,-0.020,-0.020,0.000,0.000,0.000
1644895901015311872,2022-02-15-03:31:41,10.1.1.5,24,-0.030,-0.030,-0.030,0.000,0.000,0.000
1644895901073404160,2022-02-15-03:31:41,10.1.1.5,33,-0.040,-0.040,-0.040,0.000,0.000,0.000
1644895901113917952,2022-02-15-03:31:41,10.1.1.5,21,-0.050,-0.050,-0.050,0.000,0.000,0.000
1644895901172738048,2022-02-15-03:31:41,10.1.1.5,28,-0.060,-0.060,-0.060,0.000,0.000,0.000
1644895901235363840,2022-02-15-03:31:41,10.1.1.5,37,-0.070,-0.070,-0.070,0.000,0.000,0.000
1644895901274169856,2022-02-15-03:31:41,10.1.1.5,27,-0.080,-0.080,-0.080,0.000,0.000,0.000
1644895901335209984,2022-02-15-03:31:41,10.1.1.5,36,-0.090,-0.090,-0.090,0.000,0.000,0.000
1644895901374969856,2022-02-15-03:31:41,10.1.1.5,25,-0.100,-0.100,-0.100,0.000,0.000,0.000
1644895901434672128,2022-02-15-03:31:41,10.1.1.5,34,-0.090,-0.090,-0.090,0.000,0.000,0.000
1644895901473789952,2022-02-15-03:31:41,10.1.1.5,23,-0.080,-0.080,-0.080,0.000,0.000,0.000
1644895901536047104,2022-02-15-03:31:41,10.1.1.5,33,-0.070,-0.070,-0.070,0.000,0.000,0.000
1644895901576103936,2022-02-15-03:31:41,10.1.1.5,21,-0.060,-0.060,-0.060,0.000,0.000,0.000
1644895901733125888,2022-02-15-03:31:41,10.1.1.5,28,-0.030,-0.030,-0.030,0.000,0.000,0.000
1644895901795970048,2022-02-15-03:31:41,10.1.1.5,36,-0.020,-0.020,-0.020,0.000,0.000,0.000
1644895901834798080,2022-02-15-03:31:41,10.1.1.5,25,-0.010,-0.010,-0.010,0.000,0.000,0.000
1644895901894304000,2022-02-15-03:31:41,10.1.1.5,33,0.000,0.000,0.000,0.000,0.000,0.000
1644895901935062784,2022-02-15-03:31:41,10.1.1.5,22,0.010,0.010,0.010,0.000,0.000,0.000
1644895901994259200,2022-02-15-03:31:41,10.1.1.5,32,0.020,0.020,0.020,0.000,0.000,0.000
1644895902153806080,2022-02-15-03:31:42,10.1.1.5,39,0.050,0.050,0.050,0.000,0.000,0.000
1644895902193809920,2022-02-15-03:31:42,10.1.1.5,27,0.060,0.060,0.060,0.000,0.000,0.000
1644895902253541888,2022-02-15-03:31:42,10.1.1.5,35,0.070,0.070,0.070,0.000,0.000,0.000
1644895902295567104,2022-02-15-03:31:42,10.1.1.5,23,0.080,0.080,0.080,0.000,0.000,0.000
1644895902354317056,2022-02-15-03:31:42,10.1.1.5,33,0.090,0.090,0.090,0.000,0.000,0.000
1644895902415195904,2022-02-15-03:31:42,10.1.1.5,39,0.100,0.100,0.100,0.000,0.000,0.000
1644895902455037952,2022-02-15-03:31:42,10.1.1.5,26,0.090,0.090,0.090,0.000,0.000,0.000
1644895902514492928,2022-02-15-03:31:42,10.1.1.5,35,0.080,0.080,0.080,0.000,0.000,0.000
1644895902554379008,2022-02-15-03:31:42,10.1.1.5,23,0.070,0.070,0.070,0.000,0.000,0.000
1644895902614563072,2022-02-15-03:31:42,10.1.1.5,32,0.060,0.060,0.060,0.000,0.000,0.000
1644895902677323008,2022-02-15-03:31:42,10.1.1.5,39,0.050,0.050,0.050,0.000,0.000,0.000
1644895902714579200,2022-02-15-03:31:42,10.1.1.5,28,0.040,0.040,0.040,0.000,0.000,0.000
1644895902774717952,2022-02-15-03:31:42,10.1.1.5,36,0.030,0.030,0.030,0.000,0.000,0.000
1644895902814377984,2022-02-15-03:31:42,10.1.1.5,25,0.020,0.020,0.020,0.000,0.000,0.000
1644895902874021888,2022-02-15-03:31:42,10.1.1.5,34,0.010,0.010,0.010,0.000,0.000,0.000
1644895902914472960,2022-02-15-03:31:42,10.1.1.5,23,0.000,0.000,0.000,0.000,0.000,0.000
1644895902976844032,2022-02-15-03:31:42,10.1.1.5,32,-0.010,-0.010,-0.010,0.000,0.000,0.000
1644895903114483200,2022-02-15-03:31:43,10.1.1.5,19,-0.040,-0.040,-0.040,0.000,0.000,0.000
1644895903174828032,2022-02-15-03:31:43,10.1.1.5,28,-0.050,-0.050,-0.050,0.000,0.000,0.000
1644895903234252032,2022-02-15-03:31:43,10.1.1.5,37,-0.060,-0.060,-0.060,0.000,0.000,0.000
1644895903272754944,2022-02-15-03:31:43,10.1.1.5,26,-0.070,-0.070,-0.070,0.000,0.000,0.000
1644895903334721024,2022-02-15-03:31:43,10.1.1.5,35,-0.080,-0.080,-0.080,0.000,0.000,0.000
1644895903374756096,2022-02-15-03:31:43,10.1.1.5,24,-0.090,-0.090,-0.090,0.000,0.000,0.000
1644895903433506048,2022-02-15-03:31:43,10.1.1.5,34,-0.100,-0.100,-0.100,0.000,0.000,0.000
1644895903474036992,2022-02-15-03:31:43,10.1.1.5,23,-0.090,-0.090,-0.090,0.000,0.000,0.000
1644895903533427968,2022-02-15-03:31:43,10.1.1.5,32,-0.080,-0.080,-0.080,0.000,0.000,0.000
1644895903574596864,2022-02-15-03:31:43,10.1.1.5,21,-0.070,-0.070,-0.070,0.000,0.000,0.000
1644895903677201920,2022-02-15-03:31:43,10.1.1.5,20,-0.050,-0.050,-0.050,0.000,0.000,0.000
1644895903784944896,2022-02-15-03:31:43,10.1.1.5,29,-0.030,-0.030,-0.030,0.000,0.000,0.000
1644895903837133824,2022-02-15-03:31:43,10.1.1.5,27,-0.020,-0.020,-0.020,0.000,0.000,0.000
1644895903895375872,2022-02-15-03:31:43,10.1.1.5,36,-0.010,-0.010,-0.010,0.000,0.000,0.000
1644895903935625984,2022-02-15-03:31:43,10.1.1.5,24,-0.000,-0.000,-0.000,0.000,0.000,0.000
1644895903995367936,2022-02-15-03:31:43,10.1.1.5,34,0.010,0.010,0.010,0.000,0.000,0.000
1644895904134397952,2022-02-15-03:31:44,10.1.1.5,20,0.040,0.040,0.040,0.000,0.000,0.000
1644895904195113984,2022-02-15-03:31:44,10.1.1.5,28,0.050,0.050,0.050,0.000,0.000,0.000
1644895904295223040,2022-02-15-03:31:44,10.1.1.5,25,0.070,0.070,0.070,0.000,0.000,0.000
1644895904354213888,2022-02-15-03:31:44,10.1.1.5,34,0.080,0.080,0.080,0.000,0.000,0.000
1644895904493664000,2022-02-15-03:31:44,10.1.1.5,20,0.090,0.090,0.090,0.000,0.000,0.000
1644895904554630144,2022-02-15-03:31:44,10.1.1.5,28,0.080,0.080,0.080,0.000,0.000,0.000
1644895904615149056,2022-02-15-03:31:44,10.1.1.5,37,0.070,0.070,0.070,0.000,0.000,0.000
1644895904655257856,2022-02-15-03:31:44,10.1.1.5,25,0.060,0.060,0.060,0.000,0.000,0.000
1644895904715003136,2022-02-15-03:31:44,10.1.1.5,34,0.050,0.050,0.050,0.000,0.000,0.000
1644895904753647104,2022-02-15-03:31:44,10.1.1.5,23,0.040,0.040,0.040,0.000,0.000,0.000
1644895904973801984,2022-02-15-03:31:44,10.1.1.5,39,0.000,0.000,0.000,0.000,0.000,0.000
1644895905013238784,2022-02-15-03:31:45,10.1.1.5,26,-0.010,-0.010,-0.010,0.000,0.000,0.000
1644895905073488896,2022-02-15-03:31:45,10.1.1.5,36,-0.020,-0.020,-0.020,0.000,0.000,0.000
1644895905114816000,2022-02-15-03:31:45,10.1.1.5,25,-0.030,-0.030,-0.030,0.000,0.000,0.000
1644895905176049920,2022-02-15-03:31:45,10.1.1.5,33,-0.040,-0.040,-0.040,0.000,0.000,0.000
1644895905434758912,2022-02-15-03:31:45,10.1.1.5,38,-0.090,-0.090,-0.090,0.000,0.000,0.000
1644895905475030784,2022-02-15-03:31:45,10.1.1.5,26,-0.100,-0.100,-0.100,0.000,0.000,0.000
1644895905535505152,2022-02-15-03:31:45,10.1.1.5,33,-0.090,-0.090,-0.090,0.000,0.000,0.000
1644895905574800896,2022-02-15-03:31:45,10.1.1.5,22,-0.080,-0.080,-0.080,0.000,0.000,0.000
1644895905734406912,2022-02-15-03:31:45,10.1.1.5,28,-0.050,-0.050,-0.050,0.000,0.000,0.000
1644895905793497088,2022-02-15-03:31:45,10.1.1.5,37,-0.040,-0.040,-0.040,0.000,0.000,0.000
1644895905835095808,2022-02-15-03:31:45,10.1.1.5,25,-0.030,-0.030,-0.030,0.000,0.000,0.000
1644895905894674944,2022-02-15-03:31:45,10.1.1.5,33,-0.020,-0.020,-0.020,0.000,0.000,0.000
1644895905935190016,2022-02-15-03:31:45,10.1.1.5,22,-0.010,-0.010,-0.010,0.000,0.000,0.000
1644895906094461952,2022-02-15-03:31:46,10.1.1.5,29,0.020,0.020,0.020,0.000,0.000,0.000
1644895906154750976,2022-02-15-03:31:46,10.1.1.5,38,0.030,0.030,0.030,0.000,0.000,0.000
1644895906194541056,2022-02-15-03:31:46,10.1.1.5,26,0.040,0.040,0.040,0.000,0.000,0.000
1644895906223395072,2022-02-15-03:31:46,10.1.1.5,-5,0.040,0.040,0.040,0.000,0.000,0.000
1644895906297200896,2022-02-15-03:31:46,10.1.1.5,22,0.060,0.060,0.060,0.000,0.000,0.000
1644895906414753024,2022-02-15-03:31:46,10.1.1.5,39,0.080,0.080,0.080,0.000,0.000,0.000
1644895906455066880,2022-02-15-03:31:46,10.1.1.5,23,0.090,0.090,0.090,0.000,0.000,0.000
1644895906514662912,2022-02-15-03:31:46,10.1.1.5,32,0.100,0.100,0.100,0.000,0.000,0.000
1644895906674309120,2022-02-15-03:31:46,10.1.1.5,37,0.070,0.070,0.070,0.000,0.000,0.000
1644895906715552000,2022-02-15-03:31:46,10.1.1.5,26,0.060,0.060,0.060,0.000,0.000,0.000
1644895906775599872,2022-02-15-03:31:46,10.1.1.5,35,0.050,0.050,0.050,0.000,0.000,0.000
1644895906814543872,2022-02-15-03:31:46,10.1.1.5,21,0.040,0.040,0.040,0.000,0.000,0.000
1644895906937460992,2022-02-15-03:31:46,10.1.1.5,39,0.020,0.020,0.020,0.000,0.000,0.000
1644895906980474112,2022-02-15-03:31:46,10.1.1.5,24,0.010,0.010,0.010,0.000,0.000,0.000
1644895907033790208,2022-02-15-03:31:47,10.1.1.5,33,0.000,0.000,0.000,0.000,0.000,0.000
1644895907074665984,2022-02-15-03:31:47,10.1.1.5,22,-0.010,-0.010,-0.010,0.000,0.000,0.000
1644895907234142976,2022-02-15-03:31:47,10.1.1.5,28,-0.040,-0.040,-0.040,0.000,0.000,0.000
1644895907297136896,2022-02-15-03:31:47,10.1.1.5,36,-0.050,-0.050,-0.050,0.000,0.000,0.000
1644895907337726208,2022-02-15-03:31:47,10.1.1.5,25,-0.060,-0.060,-0.060,0.000,0.000,0.000
1644895907394504960,2022-02-15-03:31:47,10.1.1.5,33,-0.070,-0.070,-0.070,0.000,0.000,0.000
1644895907435520000,2022-02-15-03:31:47,10.1.1.5,22,-0.080,-0.080,-0.080,0.000,0.000,0.000
1644895907594180096,2022-02-15-03:31:47,10.1.1.5,27,-0.090,-0.090,-0.090,0.000,0.000,0.000
1644895907653352960,2022-02-15-03:31:47,10.1.1.5,36,-0.080,-0.080,-0.080,0.000,0.000,0.000
1644895907694753792,2022-02-15-03:31:47,10.1.1.5,24,-0.070,-0.070,-0.070,0.000,0.000,0.000
1644895907754505984,2022-02-15-03:31:47,10.1.1.5,33,-0.060,-0.060,-0.060,0.000,0.000,0.000
1644895907793873152,2022-02-15-03:31:47,10.1.1.5,22,-0.050,-0.050,-0.050,0.000,0.000,0.000
1644895907915443968,2022-02-15-03:31:47,10.1.1.5,39,-0.030,-0.030,-0.030,0.000,0.000,0.000
1644895907954848000,2022-02-15-03:31:47,10.1.1.5,24,-0.020,-0.020,-0.020,0.000,0.000,0.000
1644895908014190080,2022-02-15-03:31:48,10.1.1.5,33,-0.010,-0.010,-0.010,0.000,0.000,0.000
1644895908054697984,2022-02-15-03:31:48,10.1.1.5,22,0.000,0.000,0.000,0.000,0.000,0.000
1644895908178482176,2022-02-15-03:31:48,10.1.1.5,32,0.020,0.020,0.020,0.000,0.000,0.000
1644895908336889856,2022-02-15-03:31:48,10.1.1.5,37,0.050,0.050,0.050,0.000,0.000,0.000
1644895908377135872,2022-02-15-03:31:48,10.1.1.5,24,0.060,0.060,0.060,0.000,0.000,0.000
1644895908434823936,2022-02-15-03:31:48,10.1.1.5,33,0.070,0.070,0.070,0.000,0.000,0.000
1644895908535449856,2022-02-15-03:31:48,10.1.1.5,26,0.090,0.090,0.090,0.000,0.000,0.000
1644895908595282944,2022-02-15-03:31:48,10.1.1.5,32,0.100,0.100,0.100,0.000,0.000,0.000
1644895908694100992,2022-02-15-03:31:48,10.1.1.5,24,0.080,0.080,0.080,0.000,0.000,0.000
1644895908754651136,2022-02-15-03:31:48,10.1.1.5,33,0.070,0.070,0.070,0.000,0.000,0.000
1644895908792846080,2022-02-15-03:31:48,10.1.1.5,22,0.060,0.060,0.060,0.000,0.000,0.000
1644895908954137088,2022-02-15-03:31:48,10.1.1.5,27,0.030,0.030,0.030,0.000,0.000,0.000
1644895909016665088,2022-02-15-03:31:49,10.1.1.5,37,0.020,0.020,0.020,0.000,0.000,0.000
1644895909055348992,2022-02-15-03:31:49,10.1.1.5,26,0.010,0.010,0.010,0.000,0.000,0.000
1644895909115886080,2022-02-15-03:31:49,10.1.1.5,35,0.000,0.000,0.000,0.000,0.000,0.000
1644895909154636032,2022-02-15-03:31:49,10.1.1.5,23,-0.010,-0.010,-0.010,0.000,0.000,0.000
1644895909214742784,2022-02-15-03:31:49,10.1.1.5,33,-0.020,-0.020,-0.020,0.000,0.000,0.000
1644895909377410048,2022-02-15-03:31:49,10.1.1.5,36,-0.050,-0.050,-0.050,0.000,0.000,0.000
1644895909514770944,2022-02-15-03:31:49,10.1.1.5,20,-0.080,-0.080,-0.080,0.000,0.000,0.000
1644895909578382080,2022-02-15-03:31:49,10.1.1.5,29,-0.090,-0.090,-0.090,0.000,0.000,0.000
1644895909634181120,2022-02-15-03:31:49,10.1.1.5,37,-0.100,-0.100,-0.100,0.000,0.000,0.000
1644895909673965824,2022-02-15-03:31:49,10.1.1.5,26,-0.090,-0.090,-0.090,0.000,0.000,0.000
1644895909735037184,2022-02-15-03:31:49,10.1.1.5,33,-0.080,-0.080,-0.080,0.000,0.000,0.000
1644895909774441984,2022-02-15-03:31:49,10.1.1.5,22,-0.070,-0.070,-0.070,0.000,0.000,0.000
1644895909894747904,2022-02-15-03:31:49,10.1.1.5,39,-0.050,-0.050,-0.050,0.000,0.000,0.000
1644895909935535872,2022-02-15-03:31:49,10.1.1.5,23,-0.040,-0.040,-0.040,0.000,0.000,0.000
1644895910094089984,2022-02-15-03:31:50,10.1.1.5,27,-0.010,-0.010,-0.010,0.000,0.000,0.000
1644895910154577920,2022-02-15-03:31:50,10.1.1.5,36,0.000,0.000,0.000,0.000,0.000,0.000
1644895910195257856,2022-02-15-03:31:50,10.1.1.5,25,0.010,0.010,0.010,0.000,0.000,0.000
1644895910255546112,2022-02-15-03:31:50,10.1.1.5,33,0.020,0.020,0.020,0.000,0.000,0.000
1644895910294321152,2022-02-15-03:31:50,10.1.1.5,22,0.030,0.030,0.030,0.000,0.000,0.000
1644895910355282944,2022-02-15-03:31:50,10.1.1.5,32,0.040,0.040,0.040,0.000,0.000,0.000
1644895910513412096,2022-02-15-03:31:50,10.1.1.5,39,0.070,0.070,0.070,0.000,0.000,0.000
1644895910553437952,2022-02-15-03:31:50,10.1.1.5,28,0.080,0.080,0.080,0.000,0.000,0.000
1644895910614601984,2022-02-15-03:31:50,10.1.1.5,36,0.090,0.090,0.090,0.000,0.000,0.000
1644895910654208000,2022-02-15-03:31:50,10.1.1.5,24,0.100,0.100,0.100,0.000,0.000,0.000
1644895910714112000,2022-02-15-03:31:50,10.1.1.5,33,0.090,0.090,0.090,0.000,0.000,0.000
1644895910757107968,2022-02-15-03:31:50,10.1.1.5,23,0.080,0.080,0.080,0.000,0.000,0.000
1644895910815126016,2022-02-15-03:31:50,10.1.1.5,32,0.070,0.070,0.070,0.000,0.000,0.000
1644895910913913856,2022-02-15-03:31:50,10.1.1.5,29,0.050,0.050,0.050,0.000,0.000,0.000
1644895910976422912,2022-02-15-03:31:50,10.1.1.5,36,0.040,0.040,0.040,0.000,0.000,0.000
1644895911013957888,2022-02-15-03:31:51,10.1.1.5,23,0.030,0.030,0.030,0.000,0.000,0.000
1644895911075386880,2022-02-15-03:31:51,10.1.1.5,32,0.020,0.020,0.020,0.000,0.000,0.000
1644895911114511104,2022-02-15-03:31:51,10.1.1.5,21,0.010,0.010,0.010,0.000,0.000,0.000
1644895911234280960,2022-02-15-03:31:51,10.1.1.5,38,-0.010,-0.010,-0.010,0.000,0.000,0.000
1644895911274276864,2022-02-15-03:31:51,10.1.1.5,26,-0.020,-0.020,-0.020,0.000,0.000,0.000
1644895911334814976,2022-02-15-03:31:51,10.1.1.5,36,-0.030,-0.030,-0.030,0.000,0.000,0.000
1644895911378062080,2022-02-15-03:31:51,10.1.1.5,25,-0.040,-0.040,-0.040,0.000,0.000,0.000
1644895911433542912,2022-02-15-03:31:51,10.1.1.5,34,-0.050,-0.050,-0.050,0.000,0.000,0.000
1644895911477468928,2022-02-15-03:31:51,10.1.1.5,24,-0.060,-0.060,-0.060,0.000,0.000,0.000
1644895911534704896,2022-02-15-03:31:51,10.1.1.5,33,-0.070,-0.070,-0.070,0.000,0.000,0.000
1644895911575668224,2022-02-15-03:31:51,10.1.1.5,22,-0.080,-0.080,-0.080,0.000,0.000,0.000
1644895911634597120,2022-02-15-03:31:51,10.1.1.5,31,-0.090,-0.090,-0.090,0.000,0.000,0.000
1644895911714652160,2022-02-15-03:31:51,10.1.1.5,10,-0.090,-0.090,-0.090,0.000,0.000,0.000
1644895911795042048,2022-02-15-03:31:51,10.1.1.5,38,-0.080,-0.080,-0.080,0.000,0.000,0.000
1644895911834150912,2022-02-15-03:31:51,10.1.1.5,27,-0.070,-0.070,-0.070,0.000,0.000,0.000
1644895911893428992,2022-02-15-03:31:51,10.1.1.5,36,-0.060,-0.060,-0.060,0.000,0.000,0.000
1644895911937935104,2022-02-15-03:31:51,10.1.1.5,25,-0.050,-0.050,-0.050,0.000,0.000,0.000
1644895911994416896,2022-02-15-03:31:51,10.1.1.5,34,-0.040,-0.040,-0.040,0.000,0.000,0.000
1644895912034832128,2022-02-15-03:31:52,10.1.1.5,23,-0.030,-0.030,-0.030,0.000,0.000,0.000
1644895912094299136,2022-02-15-03:31:52,10.1.1.5,32,-0.020,-0.020,-0.020,0.000,0.000,0.000
1644895912294127872,2022-02-15-03:31:52,10.1.1.5,28,0.020,0.020,0.020,0.000,0.000,0.000
1644895912354549760,2022-02-15-03:31:52,10.1.1.5,36,0.030,0.030,0.030,0.000,0.000,0.000
1644895912394120960,2022-02-15-03:31:52,10.1.1.5,25,0.040,0.040,0.040,0.000,0.000,0.000
1644895912453492992,2022-02-15-03:31:52,10.1.1.5,35,0.050,0.050,0.050,0.000,0.000,0.000
1644895912494429184,2022-02-15-03:31:52,10.1.1.5,24,0.060,0.060,0.060,0.000,0.000,0.000
1644895912553494016,2022-02-15-03:31:52,10.1.1.5,33,0.070,0.070,0.070,0.000,0.000,0.000
1644895912595267072,2022-02-15-03:31:52,10.1.1.5,22,0.080,0.080,0.080,0.000,0.000,0.000
1644895912714454016,2022-02-15-03:31:52,10.1.1.5,38,0.100,0.100,0.100,0.000,0.000,0.000
1644895912753495040,2022-02-15-03:31:52,10.1.1.5,26,0.090,0.090,0.090,0.000,0.000,0.000
1644895912813378048,2022-02-15-03:31:52,10.1.1.5,35,0.080,0.080,0.080,0.000,0.000,0.000
1644895912874919936,2022-02-15-03:31:52,10.1.1.5,43,0.070,0.070,0.070,0.000,0.000,0.000
1644895912914497024,2022-02-15-03:31:52,10.1.1.5,32,0.060,0.060,0.060,0.000,0.000,0.000
1644895912954679040,2022-02-15-03:31:52,10.1.1.5,21,0.050,0.050,0.050,0.000,0.000,0.000
1644895913115623936,2022-02-15-03:31:53,10.1.1.5,27,0.020,0.020,0.020,0.000,0.000,0.000
1644895913176058880,2022-02-15-03:31:53,10.1.1.5,36,0.010,0.010,0.010,0.000,0.000,0.000
1644895913215225856,2022-02-15-03:31:53,10.1.1.5,25,0.000,0.000,0.000,0.000,0.000,0.000
1644895913274087936,2022-02-15-03:31:53,10.1.1.5,35,-0.010,-0.010,-0.010,0.000,0.000,0.000
1644895913315190016,2022-02-15-03:31:53,10.1.1.5,24,-0.020,-0.020,-0.020,0.000,0.000,0.000
1644895913374501888,2022-02-15-03:31:53,10.1.1.5,33,-0.030,-0.030,-0.030,0.000,0.000,0.000
1644895913415746048,2022-02-15-03:31:53,10.1.1.5,22,-0.040,-0.040,-0.040,0.000,0.000,0.000
1644895913475392000,2022-02-15-03:31:53,10.1.1.5,32,-0.050,-0.050,-0.050,0.000,0.000,0.000
1644895913574912000,2022-02-15-03:31:53,10.1.1.5,29,-0.070,-0.070,-0.070,0.000,0.000,0.000
1644895913633229056,2022-02-15-03:31:53,10.1.1.5,37,-0.080,-0.080,-0.080,0.000,0.000,0.000
1644895913675451904,2022-02-15-03:31:53,10.1.1.5,26,-0.090,-0.090,-0.090,0.000,0.000,0.000
1644895913734564096,2022-02-15-03:31:53,10.1.1.5,35,-0.100,-0.100,-0.100,0.000,0.000,0.000
1644895913774761984,2022-02-15-03:31:53,10.1.1.5,21,-0.090,-0.090,-0.090,0.000,0.000,0.000
1644895913894620928,2022-02-15-03:31:53,10.1.1.5,36,-0.070,-0.070,-0.070,0.000,0.000,0.000
1644895913935216896,2022-02-15-03:31:53,10.1.1.5,24,-0.060,-0.060,-0.060,0.000,0.000,0.000
1644895913994370816,2022-02-15-03:31:53,10.1.1.5,32,-0.050,-0.050,-0.050,0.000,0.000,0.000
1644895914154312960,2022-02-15-03:31:54,10.1.1.5,39,-0.020,-0.020,-0.020,0.000,0.000,0.000
1644895914194430208,2022-02-15-03:31:54,10.1.1.5,25,-0.010,-0.010,-0.010,0.000,0.000,0.000
1644895914255068160,2022-02-15-03:31:54,10.1.1.5,33,0.000,0.000,0.000,0.000,0.000,0.000
1644895914414649856,2022-02-15-03:31:54,10.1.1.5,39,0.030,0.030,0.030,0.000,0.000,0.000
1644895914454814976,2022-02-15-03:31:54,10.1.1.5,25,0.040,0.040,0.040,0.000,0.000,0.000
1644895914515280128,2022-02-15-03:31:54,10.1.1.5,34,0.050,0.050,0.050,0.000,0.000,0.000
1644895914555407104,2022-02-15-03:31:54,10.1.1.5,22,0.060,0.060,0.060,0.000,0.000,0.000
1644895914675538176,2022-02-15-03:31:54,10.1.1.5,39,0.080,0.080,0.080,0.000,0.000,0.000
1644895914714302976,2022-02-15-03:31:54,10.1.1.5,27,0.090,0.090,0.090,0.000,0.000,0.000
1644895914777777920,2022-02-15-03:31:54,10.1.1.5,36,0.100,0.100,0.100,0.000,0.000,0.000
1644895914815244800,2022-02-15-03:31:54,10.1.1.5,23,0.090,0.090,0.090,0.000,0.000,0.000
1644895914874802944,2022-02-15-03:31:54,10.1.1.5,32,0.080,0.080,0.080,0.000,0.000,0.000
1644895914914063104,2022-02-15-03:31:54,10.1.1.5,21,0.070,0.070,0.070,0.000,0.000,0.000
1644895915035557888,2022-02-15-03:31:55,10.1.1.5,39,0.050,0.050,0.050,0.000,0.000,0.000
1644895915074273024,2022-02-15-03:31:55,10.1.1.5,28,0.040,0.040,0.040,0.000,0.000,0.000
1644895915137629952,2022-02-15-03:31:55,10.1.1.5,37,0.030,0.030,0.030,0.000,0.000,0.000
1644895915173715968,2022-02-15-03:31:55,10.1.1.5,26,0.020,0.020,0.020,0.000,0.000,0.000
1644895915234477056,2022-02-15-03:31:55,10.1.1.5,33,0.010,0.010,0.010,0.000,0.000,0.000
1644895915275156992,2022-02-15-03:31:55,10.1.1.5,22,0.000,0.000,0.000,0.000,0.000,0.000
1644895915434855936,2022-02-15-03:31:55,10.1.1.5,25,-0.030,-0.030,-0.030,0.000,0.000,0.000
1644895915494458880,2022-02-15-03:31:55,10.1.1.5,34,-0.040,-0.040,-0.040,0.000,0.000,0.000
1644895915534579968,2022-02-15-03:31:55,10.1.1.5,23,-0.050,-0.050,-0.050,0.000,0.000,0.000
1644895915593925888,2022-02-15-03:31:55,10.1.1.5,33,-0.060,-0.060,-0.060,0.000,0.000,0.000
1644895915694706944,2022-02-15-03:31:55,10.1.1.5,29,-0.080,-0.080,-0.080,0.000,0.000,0.000
1644895915754287872,2022-02-15-03:31:55,10.1.1.5,36,-0.090,-0.090,-0.090,0.000,0.000,0.000
1644895915795949056,2022-02-15-03:31:55,10.1.1.5,26,-0.100,-0.100,-0.100,0.000,0.000,0.000
1644895915854417152,2022-02-15-03:31:55,10.1.1.5,35,-0.090,-0.090,-0.090,0.000,0.000,0.000
1644895915894938880,2022-02-15-03:31:55,10.1.1.5,23,-0.080,-0.080,-0.080,0.000,0.000,0.000
1644895915955180032,2022-02-15-03:31:55,10.1.1.5,32,-0.070,-0.070,-0.070,0.000,0.000,0.000
1644895916114880000,2022-02-15-03:31:56,10.1.1.5,40,-0.040,-0.040,-0.040,0.000,0.000,0.000
1644895916154982144,2022-02-15-03:31:56,10.1.1.5,28,-0.030,-0.030,-0.030,0.000,0.000,0.000
1644895916215367936,2022-02-15-03:31:56,10.1.1.5,35,-0.020,-0.020,-0.020,0.000,0.000,0.000
1644895916254304768,2022-02-15-03:31:56,10.1.1.5,25,-0.010,-0.010,-0.010,0.000,0.000,0.000
1644895916314856960,2022-02-15-03:31:56,10.1.1.5,32,0.000,0.000,0.000,0.000,0.000,0.000
1644895916354084096,2022-02-15-03:31:56,10.1.1.5,22,0.010,0.010,0.010,0.000,0.000,0.000
1644895916476006144,2022-02-15-03:31:56,10.1.1.5,36,0.030,0.030,0.030,0.000,0.000,0.000
1644895916514693120,2022-02-15-03:31:56,10.1.1.5,25,0.040,0.040,0.040,0.000,0.000,0.000
1644895916575974912,2022-02-15-03:31:56,10.1.1.5,35,0.050,0.050,0.050,0.000,0.000,0.000
1644895916617378048,2022-02-15-03:31:56,10.1.1.5,22,0.060,0.060,0.060,0.000,0.000,0.000
1644895916677345024,2022-02-15-03:31:56,10.1.1.5,32,0.070,0.070,0.070,0.000,0.000,0.000
1644895916834036224,2022-02-15-03:31:56,10.1.1.5,39,0.100,0.100,0.100,0.000,0.000,0.000
1644895916875284992,2022-02-15-03:31:56,10.1.1.5,28,0.090,0.090,0.090,0.000,0.000,0.000
1644895916935115008,2022-02-15-03:31:56,10.1.1.5,37,0.080,0.080,0.080,0.000,0.000,0.000
1644895916975429888,2022-02-15-03:31:56,10.1.1.5,26,0.070,0.070,0.070,0.000,0.000,0.000
1644895917034439936,2022-02-15-03:31:57,10.1.1.5,35,0.060,0.060,0.060,0.000,0.000,0.000
1644895917074678016,2022-02-15-03:31:57,10.1.1.5,24,0.050,0.050,0.050,0.000,0.000,0.000
1644895917134257152,2022-02-15-03:31:57,10.1.1.5,33,0.040,0.040,0.040,0.000,0.000,0.000
1644895917299668992,2022-02-15-03:31:57,10.1.1.5,36,0.010,0.010,0.010,0.000,0.000,0.000
1644895917334738944,2022-02-15-03:31:57,10.1.1.5,25,0.000,0.000,0.000,0.000,0.000,0.000
1644895917394222848,2022-02-15-03:31:57,10.1.1.5,33,-0.010,-0.010,-0.010,0.000,0.000,0.000
1644895917434745088,2022-02-15-03:31:57,10.1.1.5,22,-0.020,-0.020,-0.020,0.000,0.000,0.000
1644895917554209024,2022-02-15-03:31:57,10.1.1.5,37,-0.040,-0.040,-0.040,0.000,0.000,0.000
1644895917593938944,2022-02-15-03:31:57,10.1.1.5,24,-0.050,-0.050,-0.050,0.000,0.000,0.000
1644895917653827072,2022-02-15-03:31:57,10.1.1.5,33,-0.060,-0.060,-0.060,0.000,0.000,0.000
1644895917693779968,2022-02-15-03:31:57,10.1.1.5,22,-0.070,-0.070,-0.070,0.000,0.000,0.000
1644895917753820928,2022-02-15-03:31:57,10.1.1.5,31,-0.080,-0.080,-0.080,0.000,0.000,0.000
1644895917914896128,2022-02-15-03:31:57,10.1.1.5,39,-0.090,-0.090,-0.090,0.000,0.000,0.000
1644895917953900032,2022-02-15-03:31:57,10.1.1.5,27,-0.080,-0.080,-0.080,0.000,0.000,0.000
1644895918013465856,2022-02-15-03:31:58,10.1.1.5,36,-0.070,-0.070,-0.070,0.000,0.000,0.000
1644895918054361088,2022-02-15-03:31:58,10.1.1.5,25,-0.060,-0.060,-0.060,0.000,0.000,0.000
1644895918081146880,2022-02-15-03:31:58,10.1.1.5,-8,-0.060,-0.060,-0.060,0.000,0.000,0.000
1644895918274766848,2022-02-15-03:31:58,10.1.1.5,39,-0.020,-0.020,-0.020,0.000,0.000,0.000
1644895918314498816,2022-02-15-03:31:58,10.1.1.5,27,-0.010,-0.010,-0.010,0.000,0.000,0.000
1644895918378973952,2022-02-15-03:31:58,10.1.1.5,37,0.000,0.000,0.000,0.000,0.000,0.000
1644895918478147072,2022-02-15-03:31:58,10.1.1.5,27,0.020,0.020,0.020,0.000,0.000,0.000
1644895918535300096,2022-02-15-03:31:58,10.1.1.5,36,0.030,0.030,0.030,0.000,0.000,0.000
1644895918576612096,2022-02-15-03:31:58,10.1.1.5,25,0.040,0.040,0.040,0.000,0.000,0.000
1644895918633413120,2022-02-15-03:31:58,10.1.1.5,34,0.050,0.050,0.050,0.000,0.000,0.000
1644895918674616064,2022-02-15-03:31:58,10.1.1.5,23,0.060,0.060,0.060,0.000,0.000,0.000
1644895918734489088,2022-02-15-03:31:58,10.1.1.5,33,0.070,0.070,0.070,0.000,0.000,0.000
1644895918773860096,2022-02-15-03:31:58,10.1.1.5,22,0.080,0.080,0.080,0.000,0.000,0.000
1644895918835447040,2022-02-15-03:31:58,10.1.1.5,32,0.090,0.090,0.090,0.000,0.000,0.000
1644895918872849920,2022-02-15-03:31:58,10.1.1.5,21,0.100,0.100,0.100,0.000,0.000,0.000
1644895918994678016,2022-02-15-03:31:58,10.1.1.5,39,0.080,0.080,0.080,0.000,0.000,0.000
1644895919034193152,2022-02-15-03:31:59,10.1.1.5,27,0.070,0.070,0.070,0.000,0.000,0.000
1644895919093978880,2022-02-15-03:31:59,10.1.1.5,37,0.060,0.060,0.060,0.000,0.000,0.000
1644895919135003136,2022-02-15-03:31:59,10.1.1.5,24,0.050,0.050,0.050,0.000,0.000,0.000
1644895919194871808,2022-02-15-03:31:59,10.1.1.5,33,0.040,0.040,0.040,0.000,0.000,0.000
1644895919234707968,2022-02-15-03:31:59,10.1.1.5,22,0.030,0.030,0.030,0.000,0.000,0.000
1644895919355160832,2022-02-15-03:31:59,10.1.1.5,39,0.010,0.010,0.010,0.000,0.000,0.000
1644895919394609920,2022-02-15-03:31:59,10.1.1.5,26,0.000,0.000,0.000,0.000,0.000,0.000
1644895919453992960,2022-02-15-03:31:59,10.1.1.5,33,-0.010,-0.010,-0.010,0.000,0.000,0.000
1644895919493926912,2022-02-15-03:31:59,10.1.1.5,22,-0.020,-0.020,-0.020,0.000,0.000,0.000
1644895919613824000,2022-02-15-03:31:59,10.1.1.5,39,-0.040,-0.040,-0.040,0.000,0.000,0.000
1644895919654350080,2022-02-15-03:31:59,10.1.1.5,27,-0.050,-0.050,-0.050,0.000,0.000,0.000
1644895919675923200,2022-02-15-03:31:59,10.1.1.5,-4,-0.050,-0.050,-0.050,0.000,0.000,0.000
1644895919754057984,2022-02-15-03:31:59,10.1.1.5,25,-0.070,-0.070,-0.070,0.000,0.000,0.000
1644895919813395968,2022-02-15-03:31:59,10.1.1.5,33,-0.080,-0.080,-0.080,0.000,0.000,0.000
1644895919853735936,2022-02-15-03:31:59,10.1.1.5,22,-0.090,-0.090,-0.090,0.000,0.000,0.000
1644895919914729984,2022-02-15-03:31:59,10.1.1.5,31,-0.100,-0.100,-0.100,0.000,0.000,0.000
1644895920074876160,2022-02-15-03:32:00,10.1.1.5,39,-0.070,-0.070,-0.070,0.000,0.000,0.000
1644895920114480896,2022-02-15-03:32:00,10.1.1.5,27,-0.060,-0.060,-0.060,0.000,0.000,0.000
1644895920138936064,2022-02-15-03:32:00,10.1.1.5,-4,-0.060,-0.060,-0.060,0.000,0.000,0.000
1644895920215720960,2022-02-15-03:32:00,10.1.1.5,22,-0.040,-0.040,-0.040,0.000,0.000,0.000
1644895920375858176,2022-02-15-03:32:00,10.1.1.5,27,-0.010,-0.010,-0.010,0.000,0.000,0.000
1644895920434302208,2022-02-15-03:32:00,10.1.1.5,33,0.000,0.000,0.000,0.000,0.000,0.000
1644895920475621888,2022-02-15-03:32:00,10.1.1.5,21,0.010,0.010,0.010,0.000,0.000,0.000
1644895920633584128,2022-02-15-03:32:00,10.1.1.5,28,0.040,0.040,0.040,0.000,0.000,0.000
1644895920694585088,2022-02-15-03:32:00,10.1.1.5,35,0.050,0.050,0.050,0.000,0.000,0.000
1644895920735140096,2022-02-15-03:32:00,10.1.1.5,24,0.060,0.060,0.060,0.000,0.000,0.000
1644895920794016000,2022-02-15-03:32:00,10.1.1.5,32,0.070,0.070,0.070,0.000,0.000,0.000
1644895920834189824,2022-02-15-03:32:00,10.1.1.5,21,0.080,0.080,0.080,0.000,0.000,0.000
1644895920956145920,2022-02-15-03:32:00,10.1.1.5,39,0.100,0.100,0.100,0.000,0.000,0.000
1644895920994345984,2022-02-15-03:32:00,10.1.1.5,28,0.090,0.090,0.090,0.000,0.000,0.000
1644895921054960128,2022-02-15-03:32:01,10.1.1.5,36,0.080,0.080,0.080,0.000,0.000,0.000
1644895921099234048,2022-02-15-03:32:01,10.1.1.5,24,0.070,0.070,0.070,0.000,0.000,0.000
1644895921153875968,2022-02-15-03:32:01,10.1.1.5,33,0.060,0.060,0.060,0.000,0.000,0.000
1644895921193804032,2022-02-15-03:32:01,10.1.1.5,22,0.050,0.050,0.050,0.000,0.000,0.000
1644895921254236928,2022-02-15-03:32:01,10.1.1.5,32,0.040,0.040,0.040,0.000,0.000,0.000
1644895921297692928,2022-02-15-03:32:01,10.1.1.5,21,0.030,0.030,0.030,0.000,0.000,0.000
1644895921353810944,2022-02-15-03:32:01,10.1.1.5,29,0.020,0.020,0.020,0.000,0.000,0.000
1644895921415142912,2022-02-15-03:32:01,10.1.1.5,36,0.010,0.010,0.010,0.000,0.000,0.000
1644895921455090944,2022-02-15-03:32:01,10.1.1.5,24,0.000,0.000,0.000,0.000,0.000,0.000
1644895921513936128,2022-02-15-03:32:01,10.1.1.5,33,-0.010,-0.010,-0.010,0.000,0.000,0.000
1644895921552911872,2022-02-15-03:32:01,10.1.1.5,23,-0.020,-0.020,-0.020,0.000,0.000,0.000
1644895921613056000,2022-02-15-03:32:01,10.1.1.5,31,-0.030,-0.030,-0.030,0.000,0.000,0.000
1644895921714301952,2022-02-15-03:32:01,10.1.1.5,28,-0.050,-0.050,-0.050,0.000,0.000,0.000
1644895921776696832,2022-02-15-03:32:01,10.1.1.5,36,-0.060,-0.060,-0.060,0.000,0.000,0.000
1644895921814529024,2022-02-15-03:32:01,10.1.1.5,24,-0.070,-0.070,-0.070,0.000,0.000,0.000
1644895921872972032,2022-02-15-03:32:01,10.1.1.5,33,-0.080,-0.080,-0.080,0.000,0.000,0.000
1644895921914962176,2022-02-15-03:32:01,10.1.1.5,22,-0.090,-0.090,-0.090,0.000,0.000,0.000
1644895921993807104,2022-02-15-03:32:01,10.1.1.5,-1,-0.090,-0.090,-0.090,0.000,0.000,0.000
1644895922075116032,2022-02-15-03:32:02,10.1.1.5,27,-0.080,-0.080,-0.080,0.000,0.000,0.000
1644895922135448064,2022-02-15-03:32:02,10.1.1.5,36,-0.070,-0.070,-0.070,0.000,0.000,0.000
1644895922177957888,2022-02-15-03:32:02,10.1.1.5,26,-0.060,-0.060,-0.060,0.000,0.000,0.000
1644895922234309888,2022-02-15-03:32:02,10.1.1.5,33,-0.050,-0.050,-0.050,0.000,0.000,0.000
1644895922335549952,2022-02-15-03:32:02,10.1.1.5,28,-0.030,-0.030,-0.030,0.000,0.000,0.000
1644895922394375168,2022-02-15-03:32:02,10.1.1.5,36,-0.020,-0.020,-0.020,0.000,0.000,0.000
1644895922434123008,2022-02-15-03:32:02,10.1.1.5,24,-0.010,-0.010,-0.010,0.000,0.000,0.000
1644895922495934976,2022-02-15-03:32:02,10.1.1.5,33,0.000,0.000,0.000,0.000,0.000,0.000
1644895922535085824,2022-02-15-03:32:02,10.1.1.5,23,0.010,0.010,0.010,0.000,0.000,0.000
1644895922594938880,2022-02-15-03:32:02,10.1.1.5,32,0.020,0.020,0.020,0.000,0.000,0.000
1644895922794043136,2022-02-15-03:32:02,10.1.1.5,28,0.060,0.060,0.060,0.000,0.000,0.000
1644895922855310848,2022-02-15-03:32:02,10.1.1.5,36,0.070,0.070,0.070,0.000,0.000,0.000
1644895922894629888,2022-02-15-03:32:02,10.1.1.5,25,0.080,0.080,0.080,0.000,0.000,0.000
1644895922954788096,2022-02-15-03:32:02,10.1.1.5,33,0.090,0.090,0.090,0.000,0.000,0.000
1644895922993719040,2022-02-15-03:32:02,10.1.1.5,22,0.100,0.100,0.100,0.000,0.000,0.000
1644895923094402048,2022-02-15-03:32:03,10.1.1.5,19,0.080,0.080,0.080,0.000,0.000,0.000
1644895923153737984,2022-02-15-03:32:03,10.1.1.5,28,0.070,0.070,0.070,0.000,0.000,0.000
1644895923215436032,2022-02-15-03:32:03,10.1.1.5,36,0.060,0.060,0.060,0.000,0.000,0.000
1644895923254648064,2022-02-15-03:32:03,10.1.1.5,25,0.050,0.050,0.050,0.000,0.000,0.000
1644895923314048000,2022-02-15-03:32:03,10.1.1.5,34,0.040,0.040,0.040,0.000,0.000,0.000
1644895923353360896,2022-02-15-03:32:03,10.1.1.5,23,0.030,0.030,0.030,0.000,0.000,0.000
1644895923415119872,2022-02-15-03:32:03,10.1.1.5,32,0.020,0.020,0.020,0.000,0.000,0.000
1644895923514398976,2022-02-15-03:32:03,10.1.1.5,29,0.000,0.000,0.000,0.000,0.000,0.000
1644895923575714048,2022-02-15-03:32:03,10.1.1.5,39,-0.010,-0.010,-0.010,0.000,0.000,0.000
1644895923614574080,2022-02-15-03:32:03,10.1.1.5,26,-0.020,-0.020,-0.020,0.000,0.000,0.000
1644895923673960960,2022-02-15-03:32:03,10.1.1.5,35,-0.030,-0.030,-0.030,0.000,0.000,0.000
1644895923714256896,2022-02-15-03:32:03,10.1.1.5,24,-0.040,-0.040,-0.040,0.000,0.000,0.000
1644895923778341888,2022-02-15-03:32:03,10.1.1.5,33,-0.050,-0.050,-0.050,0.000,0.000,0.000
1644895923814902016,2022-02-15-03:32:03,10.1.1.5,23,-0.060,-0.060,-0.060,0.000,0.000,0.000
1644895923934031104,2022-02-15-03:32:03,10.1.1.5,39,-0.080,-0.080,-0.080,0.000,0.000,0.000
1644895923978044160,2022-02-15-03:32:03,10.1.1.5,28,-0.090,-0.090,-0.090,0.000,0.000,0.000
1644895924034176000,2022-02-15-03:32:04,10.1.1.5,36,-0.100,-0.100,-0.100,0.000,0.000,0.000
1644895924074301952,2022-02-15-03:32:04,10.1.1.5,25,-0.090,-0.090,-0.090,0.000,0.000,0.000
1644895924136233984,2022-02-15-03:32:04,10.1.1.5,33,-0.080,-0.080,-0.080,0.000,0.000,0.000
1644895924174936064,2022-02-15-03:32:04,10.1.1.5,22,-0.070,-0.070,-0.070,0.000,0.000,0.000
1644895924293838080,2022-02-15-03:32:04,10.1.1.5,39,-0.050,-0.050,-0.050,0.000,0.000,0.000
1644895924334763008,2022-02-15-03:32:04,10.1.1.5,28,-0.040,-0.040,-0.040,0.000,0.000,0.000
1644895924355834880,2022-02-15-03:32:04,10.1.1.5,-4,-0.040,-0.040,-0.040,0.000,0.000,0.000
1644895924433861120,2022-02-15-03:32:04,10.1.1.5,24,-0.020,-0.020,-0.020,0.000,0.000,0.000
1644895924494290176,2022-02-15-03:32:04,10.1.1.5,32,-0.010,-0.010,-0.010,0.000,0.000,0.000
1644895924654743808,2022-02-15-03:32:04,10.1.1.5,37,0.020,0.020,0.020,0.000,0.000,0.000
1644895924694656000,2022-02-15-03:32:04,10.1.1.5,26,0.030,0.030,0.030,0.000,0.000,0.000
1644895924754512128,2022-02-15-03:32:04,10.1.1.5,33,0.040,0.040,0.040,0.000,0.000,0.000
1644895924853720832,2022-02-15-03:32:04,10.1.1.5,27,0.060,0.060,0.060,0.000,0.000,0.000
1644895924915087872,2022-02-15-03:32:04,10.1.1.5,32,0.070,0.070,0.070,0.000,0.000,0.000
1644895925014580992,2022-02-15-03:32:05,10.1.1.5,28,0.090,0.090,0.090,0.000,0.000,0.000
1644895925075730944,2022-02-15-03:32:05,10.1.1.5,36,0.100,0.100,0.100,0.000,0.000,0.000
1644895925114533888,2022-02-15-03:32:05,10.1.1.5,26,0.090,0.090,0.090,0.000,0.000,0.000
1644895925175108864,2022-02-15-03:32:05,10.1.1.5,35,0.080,0.080,0.080,0.000,0.000,0.000
1644895925214324992,2022-02-15-03:32:05,10.1.1.5,23,0.070,0.070,0.070,0.000,0.000,0.000
1644895925278414848,2022-02-15-03:32:05,10.1.1.5,33,0.060,0.060,0.060,0.000,0.000,0.000
1644895925313786880,2022-02-15-03:32:05,10.1.1.5,22,0.050,0.050,0.050,0.000,0.000,0.000
1644895925414144000,2022-02-15-03:32:05,10.1.1.5,20,0.030,0.030,0.030,0.000,0.000,0.000
1644895925535254016,2022-02-15-03:32:05,10.1.1.5,37,0.010,0.010,0.010,0.000,0.000,0.000
1644895925577857024,2022-02-15-03:32:05,10.1.1.5,25,0.000,0.000,0.000,0.000,0.000,0.000
1644895925638444032,2022-02-15-03:32:05,10.1.1.5,33,-0.010,-0.010,-0.010,0.000,0.000,0.000
1644895925678582784,2022-02-15-03:32:05,10.1.1.5,23,-0.020,-0.020,-0.020,0.000,0.000,0.000
1644895925735372032,2022-02-15-03:32:05,10.1.1.5,32,-0.030,-0.030,-0.030,0.000,0.000,0.000
1644895925894327040,2022-02-15-03:32:05,10.1.1.5,39,-0.060,-0.060,-0.060,0.000,0.000,0.000
1644895925938888960,2022-02-15-03:32:05,10.1.1.5,26,-0.070,-0.070,-0.070,0.000,0.000,0.000
1644895925994226944,2022-02-15-03:32:05,10.1.1.5,34,-0.080,-0.080,-0.080,0.000,0.000,0.000
1644895926034086912,2022-02-15-03:32:06,10.1.1.5,22,-0.090,-0.090,-0.090,0.000,0.000,0.000
1644895926094505984,2022-02-15-03:32:06,10.1.1.5,27,-0.100,-0.100,-0.100,0.000,0.000,0.000
1644895926157520896,2022-02-15-03:32:06,10.1.1.5,32,-0.090,-0.090,-0.090,0.000,0.000,0.000
1644895926255141120,2022-02-15-03:32:06,10.1.1.5,27,-0.070,-0.070,-0.070,0.000,0.000,0.000
1644895926314452992,2022-02-15-03:32:06,10.1.1.5,34,-0.060,-0.060,-0.060,0.000,0.000,0.000
1644895926352952832,2022-02-15-03:32:06,10.1.1.5,23,-0.050,-0.050,-0.050,0.000,0.000,0.000
1644895926414621184,2022-02-15-03:32:06,10.1.1.5,31,-0.040,-0.040,-0.040,0.000,0.000,0.000
1644895926515380992,2022-02-15-03:32:06,10.1.1.5,29,-0.020,-0.020,-0.020,0.000,0.000,0.000
1644895926579344896,2022-02-15-03:32:06,10.1.1.5,37,-0.010,-0.010,-0.010,0.000,0.000,0.000
1644895926623934976,2022-02-15-03:32:06,10.1.1.5,26,0.000,0.000,0.000,0.000,0.000,0.000
1644895926678249984,2022-02-15-03:32:06,10.1.1.5,33,0.010,0.010,0.010,0.000,0.000,0.000
1644895926714061056,2022-02-15-03:32:06,10.1.1.5,22,0.020,0.020,0.020,0.000,0.000,0.000
1644895926834324992,2022-02-15-03:32:06,10.1.1.5,39,0.040,0.040,0.040,0.000,0.000,0.000
1644895926878215168,2022-02-15-03:32:06,10.1.1.5,27,0.050,0.050,0.050,0.000,0.000,0.000
1644895926935666944,2022-02-15-03:32:06,10.1.1.5,36,0.060,0.060,0.060,0.000,0.000,0.000
1644895926985954048,2022-02-15-03:32:06,10.1.1.5,26,0.070,0.070,0.070,0.000,0.000,0.000
1644895927037854976,2022-02-15-03:32:07,10.1.1.5,35,0.080,0.080,0.080,0.000,0.000,0.000
1644895927075201024,2022-02-15-03:32:07,10.1.1.5,22,0.090,0.090,0.090,0.000,0.000,0.000
1644895927154653952,2022-02-15-03:32:07,10.1.1.5,-1,0.090,0.090,0.090,0.000,0.000,0.000
1644895927234013184,2022-02-15-03:32:07,10.1.1.5,28,0.080,0.080,0.080,0.000,0.000,0.000
1644895927294226944,2022-02-15-03:32:07,10.1.1.5,37,0.070,0.070,0.070,0.000,0.000,0.000
1644895927337789952,2022-02-15-03:32:07,10.1.1.5,25,0.060,0.060,0.060,0.000,0.000,0.000
1644895927394732032,2022-02-15-03:32:07,10.1.1.5,33,0.050,0.050,0.050,0.000,0.000,0.000
1644895927434635008,2022-02-15-03:32:07,10.1.1.5,21,0.040,0.040,0.040,0.000,0.000,0.000
1644895927554373888,2022-02-15-03:32:07,10.1.1.5,38,0.020,0.020,0.020,0.000,0.000,0.000
1644895927593678080,2022-02-15-03:32:07,10.1.1.5,24,0.010,0.010,0.010,0.000,0.000,0.000
1644895927655070976,2022-02-15-03:32:07,10.1.1.5,33,0.000,0.000,0.000,0.000,0.000,0.000
1644895927694366976,2022-02-15-03:32:07,10.1.1.5,21,-0.010,-0.010,-0.010,0.000,0.000,0.000
1644895927854064896,2022-02-15-03:32:07,10.1.1.5,29,-0.040,-0.040,-0.040,0.000,0.000,0.000
1644895927914892032,2022-02-15-03:32:07,10.1.1.5,36,-0.050,-0.050,-0.050,0.000,0.000,0.000
1644895927958960128,2022-02-15-03:32:07,10.1.1.5,25,-0.060,-0.060,-0.060,0.000,0.000,0.000
1644895928014753024,2022-02-15-03:32:08,10.1.1.5,32,-0.070,-0.070,-0.070,0.000,0.000,0.000
1644895928054192896,2022-02-15-03:32:08,10.1.1.5,22,-0.080,-0.080,-0.080,0.000,0.000,0.000
1644895928214420992,2022-02-15-03:32:08,10.1.1.5,29,-0.090,-0.090,-0.090,0.000,0.000,0.000
1644895928274854912,2022-02-15-03:32:08,10.1.1.5,37,-0.080,-0.080,-0.080,0.000,0.000,0.000
1644895928314801920,2022-02-15-03:32:08,10.1.1.5,25,-0.070,-0.070,-0.070,0.000,0.000,0.000
1644895928377618944,2022-02-15-03:32:08,10.1.1.5,34,-0.060,-0.060,-0.060,0.000,0.000,0.000
1644895928414460928,2022-02-15-03:32:08,10.1.1.5,23,-0.050,-0.050,-0.050,0.000,0.000,0.000
1644895928474685952,2022-02-15-03:32:08,10.1.1.5,32,-0.040,-0.040,-0.040,0.000,0.000,0.000
1644895928514710784,2022-02-15-03:32:08,10.1.1.5,21,-0.030,-0.030,-0.030,0.000,0.000,0.000
1644895928634577152,2022-02-15-03:32:08,10.1.1.5,39,-0.010,-0.010,-0.010,0.000,0.000,0.000
1644895928677460992,2022-02-15-03:32:08,10.1.1.5,28,0.000,0.000,0.000,0.000,0.000,0.000
1644895928780504832,2022-02-15-03:32:08,10.1.1.5,22,0.020,0.020,0.020,0.000,0.000,0.000
1644895928833174016,2022-02-15-03:32:08,10.1.1.5,32,0.030,0.030,0.030,0.000,0.000,0.000
1644895928873106944,2022-02-15-03:32:08,10.1.1.5,21,0.040,0.040,0.040,0.000,0.000,0.000
1644895929032429056,2022-02-15-03:32:09,10.1.1.5,29,0.070,0.070,0.070,0.000,0.000,0.000
1644895929092973824,2022-02-15-03:32:09,10.1.1.5,39,0.080,0.080,0.080,0.000,0.000,0.000
1644895929132322048,2022-02-15-03:32:09,10.1.1.5,28,0.090,0.090,0.090,0.000,0.000,0.000
1644895929192241920,2022-02-15-03:32:09,10.1.1.5,37,0.100,0.100,0.100,0.000,0.000,0.000
1644895929233860096,2022-02-15-03:32:09,10.1.1.5,27,0.090,0.090,0.090,0.000,0.000,0.000
1644895929293377024,2022-02-15-03:32:09,10.1.1.5,36,0.080,0.080,0.080,0.000,0.000,0.000
1644895929334106880,2022-02-15-03:32:09,10.1.1.5,26,0.070,0.070,0.070,0.000,0.000,0.000
1644895929393452800,2022-02-15-03:32:09,10.1.1.5,34,0.060,0.060,0.060,0.000,0.000,0.000
1644895929433752064,2022-02-15-03:32:09,10.1.1.5,23,0.050,0.050,0.050,0.000,0.000,0.000
1644895929493660928,2022-02-15-03:32:09,10.1.1.5,32,0.040,0.040,0.040,0.000,0.000,0.000
1644895929533772032,2022-02-15-03:32:09,10.1.1.5,22,0.030,0.030,0.030,0.000,0.000,0.000
1644895929593504000,2022-02-15-03:32:09,10.1.1.5,31,0.020,0.020,0.020,0.000,0.000,0.000
1644895929753176064,2022-02-15-03:32:09,10.1.1.5,39,-0.010,-0.010,-0.010,0.000,0.000,0.000
1644895929793356032,2022-02-15-03:32:09,10.1.1.5,28,-0.020,-0.020,-0.020,0.000,0.000,0.000
1644895929853003008,2022-02-15-03:32:09,10.1.1.5,37,-0.030,-0.030,-0.030,0.000,0.000,0.000
1644895929893803008,2022-02-15-03:32:09,10.1.1.5,26,-0.040,-0.040,-0.040,0.000,0.000,0.000
1644895929953630976,2022-02-15-03:32:09,10.1.1.5,35,-0.050,-0.050,-0.050,0.000,0.000,0.000
1644895929993571072,2022-02-15-03:32:09,10.1.1.5,25,-0.060,-0.060,-0.060,0.000,0.000,0.000
1644895930055104000,2022-02-15-03:32:10,10.1.1.5,34,-0.070,-0.070,-0.070,0.000,0.000,0.000
1644895930100972800,2022-02-15-03:32:10,10.1.1.5,23,-0.080,-0.080,-0.080,0.000,0.000,0.000
1644895930154892032,2022-02-15-03:32:10,10.1.1.5,31,-0.090,-0.090,-0.090,0.000,0.000,0.000
1644895930237624832,2022-02-15-03:32:10,10.1.1.5,10,-0.090,-0.090,-0.090,0.000,0.000,0.000
1644895930315674112,2022-02-15-03:32:10,10.1.1.5,35,-0.080,-0.080,-0.080,0.000,0.000,0.000
1644895930355140864,2022-02-15-03:32:10,10.1.1.5,22,-0.070,-0.070,-0.070,0.000,0.000,0.000
1644895930514419968,2022-02-15-03:32:10,10.1.1.5,28,-0.040,-0.040,-0.040,0.000,0.000,0.000
1644895930577342976,2022-02-15-03:32:10,10.1.1.5,35,-0.030,-0.030,-0.030,0.000,0.000,0.000
1644895930614490880,2022-02-15-03:32:10,10.1.1.5,22,-0.020,-0.020,-0.020,0.000,0.000,0.000
1644895930779567104,2022-02-15-03:32:10,10.1.1.5,27,0.010,0.010,0.010,0.000,0.000,0.000
1644895930834542080,2022-02-15-03:32:10,10.1.1.5,36,0.020,0.020,0.020,0.000,0.000,0.000
1644895930876996096,2022-02-15-03:32:10,10.1.1.5,25,0.030,0.030,0.030,0.000,0.000,0.000
1644895930936446976,2022-02-15-03:32:10,10.1.1.5,34,0.040,0.040,0.040,0.000,0.000,0.000
1644895930979811840,2022-02-15-03:32:10,10.1.1.5,23,0.050,0.050,0.050,0.000,0.000,0.000
1644895931035873792,2022-02-15-03:32:11,10.1.1.5,32,0.060,0.060,0.060,0.000,0.000,0.000
1644895931194225920,2022-02-15-03:32:11,10.1.1.5,37,0.090,0.090,0.090,0.000,0.000,0.000
1644895931234791936,2022-02-15-03:32:11,10.1.1.5,25,0.100,0.100,0.100,0.000,0.000,0.000
1644895931293391104,2022-02-15-03:32:11,10.1.1.5,33,0.090,0.090,0.090,0.000,0.000,0.000
1644895931335757056,2022-02-15-03:32:11,10.1.1.5,22,0.080,0.080,0.080,0.000,0.000,0.000
1644895931434312192,2022-02-15-03:32:11,10.1.1.5,19,0.060,0.060,0.060,0.000,0.000,0.000
1644895931498024960,2022-02-15-03:32:11,10.1.1.5,25,0.050,0.050,0.050,0.000,0.000,0.000
1644895931553783040,2022-02-15-03:32:11,10.1.1.5,34,0.040,0.040,0.040,0.000,0.000,0.000
1644895931594244864,2022-02-15-03:32:11,10.1.1.5,23,0.030,0.030,0.030,0.000,0.000,0.000
1644895931693481984,2022-02-15-03:32:11,10.1.1.5,21,0.010,0.010,0.010,0.000,0.000,0.000
1644895931793977088,2022-02-15-03:32:11,10.1.1.5,19,-0.010,-0.010,-0.010,0.000,0.000,0.000
1644895931854927104,2022-02-15-03:32:11,10.1.1.5,28,-0.020,-0.020,-0.020,0.000,0.000,0.000
1644895931915102976,2022-02-15-03:32:11,10.1.1.5,36,-0.030,-0.030,-0.030,0.000,0.000,0.000
1644895931955353856,2022-02-15-03:32:11,10.1.1.5,25,-0.040,-0.040,-0.040,0.000,0.000,0.000
1644895932016316928,2022-02-15-03:32:12,10.1.1.5,33,-0.050,-0.050,-0.050,0.000,0.000,0.000
1644895932053911040,2022-02-15-03:32:12,10.1.1.5,22,-0.060,-0.060,-0.060,0.000,0.000,0.000
1644895932113686016,2022-02-15-03:32:12,10.1.1.5,31,-0.070,-0.070,-0.070,0.000,0.000,0.000
1644895932214927872,2022-02-15-03:32:12,10.1.1.5,30,-0.090,-0.090,-0.090,0.000,0.000,0.000
1644895932274179840,2022-02-15-03:32:12,10.1.1.5,39,-0.100,-0.100,-0.100,0.000,0.000,0.000
1644895932314435840,2022-02-15-03:32:12,10.1.1.5,28,-0.090,-0.090,-0.090,0.000,0.000,0.000
1644895932375129088,2022-02-15-03:32:12,10.1.1.5,36,-0.080,-0.080,-0.080,0.000,0.000,0.000
1644895932414733056,2022-02-15-03:32:12,10.1.1.5,26,-0.070,-0.070,-0.070,0.000,0.000,0.000
1644895932474426112,2022-02-15-03:32:12,10.1.1.5,33,-0.060,-0.060,-0.060,0.000,0.000,0.000
1644895932514638848,2022-02-15-03:32:12,10.1.1.5,22,-0.050,-0.050,-0.050,0.000,0.000,0.000
1644895932577676032,2022-02-15-03:32:12,10.1.1.5,32,-0.040,-0.040,-0.040,0.000,0.000,0.000
1644895932676347136,2022-02-15-03:32:12,10.1.1.5,28,-0.020,-0.020,-0.020,0.000,0.000,0.000
1644895932734055168,2022-02-15-03:32:12,10.1.1.5,37,-0.010,-0.010,-0.010,0.000,0.000,0.000
1644895932778572032,2022-02-15-03:32:12,10.1.1.5,26,0.000,0.000,0.000,0.000,0.000,0.000
1644895932833940992,2022-02-15-03:32:12,10.1.1.5,34,0.010,0.010,0.010,0.000,0.000,0.000
1644895932873733120,2022-02-15-03:32:12,10.1.1.5,24,0.020,0.020,0.020,0.000,0.000,0.000
1644895932937058048,2022-02-15-03:32:12,10.1.1.5,32,0.030,0.030,0.030,0.000,0.000,0.000
1644895932975855104,2022-02-15-03:32:12,10.1.1.5,22,0.040,0.040,0.040,0.000,0.000,0.000
1644895933093741056,2022-02-15-03:32:13,10.1.1.5,39,0.060,0.060,0.060,0.000,0.000,0.000
1644895933137496064,2022-02-15-03:32:13,10.1.1.5,26,0.070,0.070,0.070,0.000,0.000,0.000
1644895933195219968,2022-02-15-03:32:13,10.1.1.5,33,0.080,0.080,0.080,0.000,0.000,0.000
1644895933235644928,2022-02-15-03:32:13,10.1.1.5,22,0.090,0.090,0.090,0.000,0.000,0.000
1644895933314164992,2022-02-15-03:32:13,10.1.1.5,1,0.090,0.090,0.090,0.000,0.000,0.000
1644895933454019072,2022-02-15-03:32:13,10.1.1.5,35,0.070,0.070,0.070,0.000,0.000,0.000
1644895933494672896,2022-02-15-03:32:13,10.1.1.5,25,0.060,0.060,0.060,0.000,0.000,0.000
1644895933553939968,2022-02-15-03:32:13,10.1.1.5,33,0.050,0.050,0.050,0.000,0.000,0.000
1644895933595010048,2022-02-15-03:32:13,10.1.1.5,22,0.040,0.040,0.040,0.000,0.000,0.000
1644895933655256064,2022-02-15-03:32:13,10.1.1.5,29,0.030,0.030,0.030,0.000,0.000,0.000
1644895933715628032,2022-02-15-03:32:13,10.1.1.5,36,0.020,0.020,0.020,0.000,0.000,0.000
1644895933758067968,2022-02-15-03:32:13,10.1.1.5,22,0.010,0.010,0.010,0.000,0.000,0.000
1644895933853574144,2022-02-15-03:32:13,10.1.1.5,20,-0.010,-0.010,-0.010,0.000,0.000,0.000
1644895933919200000,2022-02-15-03:32:13,10.1.1.5,27,-0.020,-0.020,-0.020,0.000,0.000,0.000
1644895933977291008,2022-02-15-03:32:13,10.1.1.5,33,-0.030,-0.030,-0.030,0.000,0.000,0.000
1644895934074637056,2022-02-15-03:32:14,10.1.1.5,27,-0.050,-0.050,-0.050,0.000,0.000,0.000
1644895934139710976,2022-02-15-03:32:14,10.1.1.5,37,-0.060,-0.060,-0.060,0.000,0.000,0.000
1644895934177133056,2022-02-15-03:32:14,10.1.1.5,25,-0.070,-0.070,-0.070,0.000,0.000,0.000
1644895934234388224,2022-02-15-03:32:14,10.1.1.5,33,-0.080,-0.080,-0.080,0.000,0.000,0.000
1644895934335469056,2022-02-15-03:32:14,10.1.1.5,28,-0.100,-0.100,-0.100,0.000,0.000,0.000
1644895934397769984,2022-02-15-03:32:14,10.1.1.5,37,-0.090,-0.090,-0.090,0.000,0.000,0.000
1644895934435014912,2022-02-15-03:32:14,10.1.1.5,24,-0.080,-0.080,-0.080,0.000,0.000,0.000
1644895934499674112,2022-02-15-03:32:14,10.1.1.5,33,-0.070,-0.070,-0.070,0.000,0.000,0.000
1644895934538562048,2022-02-15-03:32:14,10.1.1.5,22,-0.060,-0.060,-0.060,0.000,0.000,0.000
1644895934754523136,2022-02-15-03:32:14,10.1.1.5,38,-0.020,-0.020,-0.020,0.000,0.000,0.000
1644895934794446080,2022-02-15-03:32:14,10.1.1.5,25,-0.010,-0.010,-0.010,0.000,0.000,0.000
1644895934855773952,2022-02-15-03:32:14,10.1.1.5,33,0.000,0.000,0.000,0.000,0.000,0.000
1644895934894296832,2022-02-15-03:32:14,10.1.1.5,22,0.010,0.010,0.010,0.000,0.000,0.000
1644895935054626816,2022-02-15-03:32:15,10.1.1.5,28,0.040,0.040,0.040,0.000,0.000,0.000
1644895935115483136,2022-02-15-03:32:15,10.1.1.5,36,0.050,0.050,0.050,0.000,0.000,0.000
1644895935153938944,2022-02-15-03:32:15,10.1.1.5,25,0.060,0.060,0.060,0.000,0.000,0.000
1644895935213836032,2022-02-15-03:32:15,10.1.1.5,33,0.070,0.070,0.070,0.000,0.000,0.000
1644895935254707200,2022-02-15-03:32:15,10.1.1.5,22,0.080,0.080,0.080,0.000,0.000,0.000
1644895935315261952,2022-02-15-03:32:15,10.1.1.5,32,0.090,0.090,0.090,0.000,0.000,0.000
1644895935396723968,2022-02-15-03:32:15,10.1.1.5,10,0.090,0.090,0.090,0.000,0.000,0.000
1644895935474319872,2022-02-15-03:32:15,10.1.1.5,39,0.080,0.080,0.080,0.000,0.000,0.000
1644895935514358016,2022-02-15-03:32:15,10.1.1.5,27,0.070,0.070,0.070,0.000,0.000,0.000
1644895935575495936,2022-02-15-03:32:15,10.1.1.5,36,0.060,0.060,0.060,0.000,0.000,0.000
1644895935614376192,2022-02-15-03:32:15,10.1.1.5,25,0.050,0.050,0.050,0.000,0.000,0.000
1644895935677628160,2022-02-15-03:32:15,10.1.1.5,33,0.040,0.040,0.040,0.000,0.000,0.000
1644895935833939200,2022-02-15-03:32:15,10.1.1.5,39,0.010,0.010,0.010,0.000,0.000,0.000
1644895935875531008,2022-02-15-03:32:15,10.1.1.5,27,0.000,0.000,0.000,0.000,0.000,0.000
1644895935980473088,2022-02-15-03:32:15,10.1.1.5,23,-0.020,-0.020,-0.020,0.000,0.000,0.000
1644895936094368000,2022-02-15-03:32:16,10.1.1.5,40,-0.040,-0.040,-0.040,0.000,0.000,0.000
1644895936134681088,2022-02-15-03:32:16,10.1.1.5,28,-0.050,-0.050,-0.050,0.000,0.000,0.000
1644895936194057984,2022-02-15-03:32:16,10.1.1.5,37,-0.060,-0.060,-0.060,0.000,0.000,0.000
1644895936236116992,2022-02-15-03:32:16,10.1.1.5,25,-0.070,-0.070,-0.070,0.000,0.000,0.000
1644895936293374976,2022-02-15-03:32:16,10.1.1.5,34,-0.080,-0.080,-0.080,0.000,0.000,0.000
1644895936334865920,2022-02-15-03:32:16,10.1.1.5,22,-0.090,-0.090,-0.090,0.000,0.000,0.000
1644895936394080000,2022-02-15-03:32:16,10.1.1.5,32,-0.100,-0.100,-0.100,0.000,0.000,0.000
1644895936497356800,2022-02-15-03:32:16,10.1.1.5,26,-0.080,-0.080,-0.080,0.000,0.000,0.000
1644895936554236928,2022-02-15-03:32:16,10.1.1.5,35,-0.070,-0.070,-0.070,0.000,0.000,0.000
1644895936595817984,2022-02-15-03:32:16,10.1.1.5,25,-0.060,-0.060,-0.060,0.000,0.000,0.000
1644895936656944896,2022-02-15-03:32:16,10.1.1.5,34,-0.050,-0.050,-0.050,0.000,0.000,0.000
1644895936692706048,2022-02-15-03:32:16,10.1.1.5,23,-0.040,-0.040,-0.040,0.000,0.000,0.000
1644895936754290176,2022-02-15-03:32:16,10.1.1.5,32,-0.030,-0.030,-0.030,0.000,0.000,0.000
1644895936797270016,2022-02-15-03:32:16,10.1.1.5,21,-0.020,-0.020,-0.020,0.000,0.000,0.000
1644895936893716224,2022-02-15-03:32:16,10.1.1.5,19,0.000,0.000,0.000,0.000,0.000,0.000
1644895936953861120,2022-02-15-03:32:16,10.1.1.5,28,0.010,0.010,0.010,0.000,0.000,0.000
1644895937013715968,2022-02-15-03:32:17,10.1.1.5,35,0.020,0.020,0.020,0.000,0.000,0.000
1644895937175090944,2022-02-15-03:32:17,10.1.1.5,39,0.050,0.050,0.050,0.000,0.000,0.000
1644895937214689024,2022-02-15-03:32:17,10.1.1.5,28,0.060,0.060,0.060,0.000,0.000,0.000
1644895937274183936,2022-02-15-03:32:17,10.1.1.5,37,0.070,0.070,0.070,0.000,0.000,0.000
1644895937315555072,2022-02-15-03:32:17,10.1.1.5,26,0.080,0.080,0.080,0.000,0.000,0.000
1644895937375334912,2022-02-15-03:32:17,10.1.1.5,34,0.090,0.090,0.090,0.000,0.000,0.000
1644895937454756096,2022-02-15-03:32:17,10.1.1.5,10,0.090,0.090,0.090,0.000,0.000,0.000
1644895937534169856,2022-02-15-03:32:17,10.1.1.5,39,0.080,0.080,0.080,0.000,0.000,0.000
1644895937575359232,2022-02-15-03:32:17,10.1.1.5,26,0.070,0.070,0.070,0.000,0.000,0.000
1644895937633476864,2022-02-15-03:32:17,10.1.1.5,35,0.060,0.060,0.060,0.000,0.000,0.000
1644895937675004928,2022-02-15-03:32:17,10.1.1.5,23,0.050,0.050,0.050,0.000,0.000,0.000
1644895937734590976,2022-02-15-03:32:17,10.1.1.5,32,0.040,0.040,0.040,0.000,0.000,0.000
1644895937774744064,2022-02-15-03:32:17,10.1.1.5,22,0.030,0.030,0.030,0.000,0.000,0.000
1644895937933939968,2022-02-15-03:32:17,10.1.1.5,29,0.000,0.000,0.000,0.000,0.000,0.000
1644895937995398912,2022-02-15-03:32:17,10.1.1.5,38,-0.010,-0.010,-0.010,0.000,0.000,0.000
1644895938034178048,2022-02-15-03:32:18,10.1.1.5,27,-0.020,-0.020,-0.020,0.000,0.000,0.000
1644895938094672896,2022-02-15-03:32:18,10.1.1.5,36,-0.030,-0.030,-0.030,0.000,0.000,0.000
1644895938133684992,2022-02-15-03:32:18,10.1.1.5,25,-0.040,-0.040,-0.040,0.000,0.000,0.000
1644895938193927168,2022-02-15-03:32:18,10.1.1.5,34,-0.050,-0.050,-0.050,0.000,0.000,0.000
1644895938233448960,2022-02-15-03:32:18,10.1.1.5,23,-0.060,-0.060,-0.060,0.000,0.000,0.000
1644895938294290176,2022-02-15-03:32:18,10.1.1.5,32,-0.070,-0.070,-0.070,0.000,0.000,0.000
1644895938335410176,2022-02-15-03:32:18,10.1.1.5,21,-0.080,-0.080,-0.080,0.000,0.000,0.000
1644895938492768000,2022-02-15-03:32:18,10.1.1.5,29,-0.090,-0.090,-0.090,0.000,0.000,0.000
1644895938554092800,2022-02-15-03:32:18,10.1.1.5,38,-0.080,-0.080,-0.080,0.000,0.000,0.000
1644895938595352832,2022-02-15-03:32:18,10.1.1.5,27,-0.070,-0.070,-0.070,0.000,0.000,0.000
1644895938653997056,2022-02-15-03:32:18,10.1.1.5,36,-0.060,-0.060,-0.060,0.000,0.000,0.000
1644895938693864192,2022-02-15-03:32:18,10.1.1.5,25,-0.050,-0.050,-0.050,0.000,0.000,0.000
1644895938752826880,2022-02-15-03:32:18,10.1.1.5,34,-0.040,-0.040,-0.040,0.000,0.000,0.000
1644895938794161920,2022-02-15-03:32:18,10.1.1.5,23,-0.030,-0.030,-0.030,0.000,0.000,0.000
1644895938914714112,2022-02-15-03:32:18,10.1.1.5,39,-0.010,-0.010,-0.010,0.000,0.000,0.000
1644895938954448896,2022-02-15-03:32:18,10.1.1.5,28,0.000,0.000,0.000,0.000,0.000,0.000
1644895939014148864,2022-02-15-03:32:19,10.1.1.5,32,0.010,0.010,0.010,0.000,0.000,0.000
1644895939175398144,2022-02-15-03:32:19,10.1.1.5,39,0.040,0.040,0.040,0.000,0.000,0.000
1644895939214999040,2022-02-15-03:32:19,10.1.1.5,25,0.050,0.050,0.050,0.000,0.000,0.000
1644895939274311168,2022-02-15-03:32:19,10.1.1.5,34,0.060,0.060,0.060,0.000,0.000,0.000
1644895939313628928,2022-02-15-03:32:19,10.1.1.5,23,0.070,0.070,0.070,0.000,0.000,0.000
1644895939474765056,2022-02-15-03:32:19,10.1.1.5,28,0.100,0.100,0.100,0.000,0.000,0.000
1644895939538502912,2022-02-15-03:32:19,10.1.1.5,37,0.090,0.090,0.090,0.000,0.000,0.000
1644895939575959040,2022-02-15-03:32:19,10.1.1.5,25,0.080,0.080,0.080,0.000,0.000,0.000
1644895939633778176,2022-02-15-03:32:19,10.1.1.5,34,0.070,0.070,0.070,0.000,0.000,0.000
1644895939775237120,2022-02-15-03:32:19,10.1.1.5,20,0.040,0.040,0.040,0.000,0.000,0.000
1644895939835195136,2022-02-15-03:32:19,10.1.1.5,28,0.030,0.030,0.030,0.000,0.000,0.000
1644895939894673152,2022-02-15-03:32:19,10.1.1.5,37,0.020,0.020,0.020,0.000,0.000,0.000
1644895939934488064,2022-02-15-03:32:19,10.1.1.5,27,0.010,0.010,0.010,0.000,0.000,0.000
1644895939993894144,2022-02-15-03:32:19,10.1.1.5,36,0.000,0.000,0.000,0.000,0.000,0.000
1644895940034914048,2022-02-15-03:32:20,10.1.1.5,25,-0.010,-0.010,-0.010,0.000,0.000,0.000
1644895940097504000,2022-02-15-03:32:20,10.1.1.5,34,-0.020,-0.020,-0.020,0.000,0.000,0.000
1644895940134196992,2022-02-15-03:32:20,10.1.1.5,23,-0.030,-0.030,-0.030,0.000,0.000,0.000
1644895940193764864,2022-02-15-03:32:20,10.1.1.5,33,-0.040,-0.040,-0.040,0.000,0.000,0.000
1644895940234932992,2022-02-15-03:32:20,10.1.1.5,21,-0.050,-0.050,-0.050,0.000,0.000,0.000
1644895940354276864,2022-02-15-03:32:20,10.1.1.5,36,-0.070,-0.070,-0.070,0.000,0.000,0.000
1644895940395255040,2022-02-15-03:32:20,10.1.1.5,25,-0.080,-0.080,-0.080,0.000,0.000,0.000
1644895940454649856,2022-02-15-03:32:20,10.1.1.5,34,-0.090,-0.090,-0.090,0.000,0.000,0.000
1644895940494023168,2022-02-15-03:32:20,10.1.1.5,23,-0.100,-0.100,-0.100,0.000,0.000,0.000
1644895940554322944,2022-02-15-03:32:20,10.1.1.5,32,-0.090,-0.090,-0.090,0.000,0.000,0.000
1644895940594063104,2022-02-15-03:32:20,10.1.1.5,21,-0.080,-0.080,-0.080,0.000,0.000,0.000
1644895940718247936,2022-02-15-03:32:20,10.1.1.5,39,-0.060,-0.060,-0.060,0.000,0.000,0.000
1644895940753968128,2022-02-15-03:32:20,10.1.1.5,28,-0.050,-0.050,-0.050,0.000,0.000,0.000
1644895940813954048,2022-02-15-03:32:20,10.1.1.5,36,-0.040,-0.040,-0.040,0.000,0.000,0.000
1644895940853231872,2022-02-15-03:32:20,10.1.1.5,23,-0.030,-0.030,-0.030,0.000,0.000,0.000
1644895940914088960,2022-02-15-03:32:20,10.1.1.5,32,-0.020,-0.020,-0.020,0.000,0.000,0.000
1644895941015232000,2022-02-15-03:32:21,10.1.1.5,31,-0.000,-0.000,-0.000,0.000,0.000,0.000
1644895941114088960,2022-02-15-03:32:21,10.1.1.5,29,0.020,0.020,0.020,0.000,0.000,0.000
1644895941178456064,2022-02-15-03:32:21,10.1.1.5,36,0.030,0.030,0.030,0.000,0.000,0.000
1644895941214865920,2022-02-15-03:32:21,10.1.1.5,23,0.040,0.040,0.040,0.000,0.000,0.000
1644895941278789888,2022-02-15-03:32:21,10.1.1.5,32,0.050,0.050,0.050,0.000,0.000,0.000
1644895941434004992,2022-02-15-03:32:21,10.1.1.5,38,0.080,0.080,0.080,0.000,0.000,0.000
1644895941472892160,2022-02-15-03:32:21,10.1.1.5,28,0.090,0.090,0.090,0.000,0.000,0.000
1644895941533592832,2022-02-15-03:32:21,10.1.1.5,37,0.100,0.100,0.100,0.000,0.000,0.000
1644895941575180032,2022-02-15-03:32:21,10.1.1.5,26,0.090,0.090,0.090,0.000,0.000,0.000
1644895941721069056,2022-02-15-03:32:21,10.1.1.5,26,0.070,0.070,0.070,0.000,0.000,0.000
1644895941976171008,2022-02-15-03:32:21,10.1.1.5,32,0.020,0.020,0.020,0.000,0.000,0.000
1644895942066891008,2022-02-15-03:32:22,10.1.1.5,25,0.000,0.000,0.000,0.000,0.000,0.000
1644895942235940096,2022-02-15-03:32:22,10.1.1.5,43,-0.030,-0.030,-0.030,0.000,0.000,0.000
1644895942278511104,2022-02-15-03:32:22,10.1.1.5,31,-0.040,-0.040,-0.040,0.000,0.000,0.000
1644895942374356992,2022-02-15-03:32:22,10.1.1.5,26,-0.060,-0.060,-0.060,0.000,0.000,0.000
1644895942433260032,2022-02-15-03:32:22,10.1.1.5,36,-0.070,-0.070,-0.070,0.000,0.000,0.000
1644895942473704192,2022-02-15-03:32:22,10.1.1.5,23,-0.080,-0.080,-0.080,0.000,0.000,0.000
1644895942537292032,2022-02-15-03:32:22,10.1.1.5,33,-0.090,-0.090,-0.090,0.000,0.000,0.000
1644895942593150976,2022-02-15-03:32:22,10.1.1.5,37,-0.100,-0.100,-0.100,0.000,0.000,0.000
1644895942647362048,2022-02-15-03:32:22,10.1.1.5,27,-0.090,-0.090,-0.090,0.000,0.000,0.000
1644895942699721984,2022-02-15-03:32:22,10.1.1.5,38,-0.080,-0.080,-0.080,0.000,0.000,0.000
1644895942745378048,2022-02-15-03:32:22,10.1.1.5,38,-0.070,-0.070,-0.070,0.000,0.000,0.000
1644895942792664064,2022-02-15-03:32:22,10.1.1.5,34,-0.060,-0.060,-0.060,0.000,0.000,0.000
1644895942837965056,2022-02-15-03:32:22,10.1.1.5,26,-0.050,-0.050,-0.050,0.000,0.000,0.000
1644895942900114176,2022-02-15-03:32:22,10.1.1.5,38,-0.040,-0.040,-0.040,0.000,0.000,0.000
1644895942934269952,2022-02-15-03:32:22,10.1.1.5,21,-0.030,-0.030,-0.030,0.000,0.000,0.000
1644895943053392896,2022-02-15-03:32:23,10.1.1.5,38,-0.010,-0.010,-0.010,0.000,0.000,0.000
1644895943098170880,2022-02-15-03:32:23,10.1.1.5,29,0.000,0.000,0.000,0.000,0.000,0.000
1644895943158489088,2022-02-15-03:32:23,10.1.1.5,39,0.010,0.010,0.010,0.000,0.000,0.000
1644895943194885888,2022-02-15-03:32:23,10.1.1.5,28,0.020,0.020,0.020,0.000,0.000,0.000
1644895943253415936,2022-02-15-03:32:23,10.1.1.5,37,0.030,0.030,0.030,0.000,0.000,0.000
1644895943292217088,2022-02-15-03:32:23,10.1.1.5,26,0.040,0.040,0.040,0.000,0.000,0.000
1644895943352884992,2022-02-15-03:32:23,10.1.1.5,35,0.050,0.050,0.050,0.000,0.000,0.000
1644895943392936960,2022-02-15-03:32:23,10.1.1.5,23,0.060,0.060,0.060,0.000,0.000,0.000
1644895943453262080,2022-02-15-03:32:23,10.1.1.5,33,0.070,0.070,0.070,0.000,0.000,0.000
1644895943492239872,2022-02-15-03:32:23,10.1.1.5,23,0.080,0.080,0.080,0.000,0.000,0.000
1644895943553273856,2022-02-15-03:32:23,10.1.1.5,32,0.090,0.090,0.090,0.000,0.000,0.000
1644895943593001984,2022-02-15-03:32:23,10.1.1.5,22,0.100,0.100,0.100,0.000,0.000,0.000
1644895943655442944,2022-02-15-03:32:23,10.1.1.5,31,0.090,0.090,0.090,0.000,0.000,0.000
1644895943753929984,2022-02-15-03:32:23,10.1.1.5,27,0.070,0.070,0.070,0.000,0.000,0.000
1644895943813824768,2022-02-15-03:32:23,10.1.1.5,36,0.060,0.060,0.060,0.000,0.000,0.000
1644895943852852992,2022-02-15-03:32:23,10.1.1.5,26,0.050,0.050,0.050,0.000,0.000,0.000
1644895943912890880,2022-02-15-03:32:23,10.1.1.5,35,0.040,0.040,0.040,0.000,0.000,0.000
1644895943954426880,2022-02-15-03:32:23,10.1.1.5,24,0.030,0.030,0.030,0.000,0.000,0.000
1644895944015687936,2022-02-15-03:32:24,10.1.1.5,33,0.020,0.020,0.020,0.000,0.000,0.000
1644895944054428160,2022-02-15-03:32:24,10.1.1.5,21,0.010,0.010,0.010,0.000,0.000,0.000
1644895944274580992,2022-02-15-03:32:24,10.1.1.5,37,-0.030,-0.030,-0.030,0.000,0.000,0.000
1644895944325760000,2022-02-15-03:32:24,10.1.1.5,27,-0.040,-0.040,-0.040,0.000,0.000,0.000
1644895944377864960,2022-02-15-03:32:24,10.1.1.5,33,-0.050,-0.050,-0.050,0.000,0.000,0.000
1644895944473707008,2022-02-15-03:32:24,10.1.1.5,27,-0.070,-0.070,-0.070,0.000,0.000,0.000
1644895944533499904,2022-02-15-03:32:24,10.1.1.5,33,-0.080,-0.080,-0.080,0.000,0.000,0.000
1644895944573457920,2022-02-15-03:32:24,10.1.1.5,22,-0.090,-0.090,-0.090,0.000,0.000,0.000
1644895944653580032,2022-02-15-03:32:24,10.1.1.5,0,-0.090,-0.090,-0.090,0.000,0.000,0.000
1644895944733625856,2022-02-15-03:32:24,10.1.1.5,29,-0.080,-0.080,-0.080,0.000,0.000,0.000
1644895944794790144,2022-02-15-03:32:24,10.1.1.5,37,-0.070,-0.070,-0.070,0.000,0.000,0.000
1644895944834323968,2022-02-15-03:32:24,10.1.1.5,25,-0.060,-0.060,-0.060,0.000,0.000,0.000
1644895944892945920,2022-02-15-03:32:24,10.1.1.5,32,-0.050,-0.050,-0.050,0.000,0.000,0.000
1644895945112729088,2022-02-15-03:32:25,10.1.1.5,37,-0.010,-0.010,-0.010,0.000,0.000,0.000
1644895945153233920,2022-02-15-03:32:25,10.1.1.5,25,0.000,0.000,0.000,0.000,0.000,0.000
1644895945213716992,2022-02-15-03:32:25,10.1.1.5,35,0.010,0.010,0.010,0.000,0.000,0.000
1644895945253469952,2022-02-15-03:32:25,10.1.1.5,21,0.020,0.020,0.020,0.000,0.000,0.000
1644895945313380864,2022-02-15-03:32:25,10.1.1.5,28,0.030,0.030,0.030,0.000,0.000,0.000
1644895945374110976,2022-02-15-03:32:25,10.1.1.5,37,0.040,0.040,0.040,0.000,0.000,0.000
1644895945413732096,2022-02-15-03:32:25,10.1.1.5,27,0.050,0.050,0.050,0.000,0.000,0.000
1644895945473513984,2022-02-15-03:32:25,10.1.1.5,36,0.060,0.060,0.060,0.000,0.000,0.000
1644895945513600000,2022-02-15-03:32:25,10.1.1.5,26,0.070,0.070,0.070,0.000,0.000,0.000
1644895945572424960,2022-02-15-03:32:25,10.1.1.5,34,0.080,0.080,0.080,0.000,0.000,0.000
1644895945614223872,2022-02-15-03:32:25,10.1.1.5,24,0.090,0.090,0.090,0.000,0.000,0.000
1644895945673216000,2022-02-15-03:32:25,10.1.1.5,33,0.100,0.100,0.100,0.000,0.000,0.000
1644895945714030080,2022-02-15-03:32:25,10.1.1.5,23,0.090,0.090,0.090,0.000,0.000,0.000
1644895945775078912,2022-02-15-03:32:25,10.1.1.5,32,0.080,0.080,0.080,0.000,0.000,0.000
1644895945813689856,2022-02-15-03:32:25,10.1.1.5,22,0.070,0.070,0.070,0.000,0.000,0.000
1644895946094970880,2022-02-15-03:32:26,10.1.1.5,33,0.020,0.020,0.020,0.000,0.000,0.000
1644895946135345920,2022-02-15-03:32:26,10.1.1.5,21,0.010,0.010,0.010,0.000,0.000,0.000
1644895946255608064,2022-02-15-03:32:26,10.1.1.5,38,-0.010,-0.010,-0.010,0.000,0.000,0.000
1644895946305711872,2022-02-15-03:32:26,10.1.1.5,26,-0.020,-0.020,-0.020,0.000,0.000,0.000
1644895946353316096,2022-02-15-03:32:26,10.1.1.5,36,-0.030,-0.030,-0.030,0.000,0.000,0.000
1644895946392427008,2022-02-15-03:32:26,10.1.1.5,25,-0.040,-0.040,-0.040,0.000,0.000,0.000
1644895946453402880,2022-02-15-03:32:26,10.1.1.5,35,-0.050,-0.050,-0.050,0.000,0.000,0.000
1644895946496934912,2022-02-15-03:32:26,10.1.1.5,24,-0.060,-0.060,-0.060,0.000,0.000,0.000
1644895946552304896,2022-02-15-03:32:26,10.1.1.5,34,-0.070,-0.070,-0.070,0.000,0.000,0.000
1644895946593560832,2022-02-15-03:32:26,10.1.1.5,24,-0.080,-0.080,-0.080,0.000,0.000,0.000
1644895946652843008,2022-02-15-03:32:26,10.1.1.5,33,-0.090,-0.090,-0.090,0.000,0.000,0.000
1644895946696745984,2022-02-15-03:32:26,10.1.1.5,23,-0.100,-0.100,-0.100,0.000,0.000,0.000
1644895946754360832,2022-02-15-03:32:26,10.1.1.5,32,-0.090,-0.090,-0.090,0.000,0.000,0.000
1644895946796950016,2022-02-15-03:32:26,10.1.1.5,22,-0.080,-0.080,-0.080,0.000,0.000,0.000
1644895946854022912,2022-02-15-03:32:26,10.1.1.5,27,-0.070,-0.070,-0.070,0.000,0.000,0.000
1644895946915132928,2022-02-15-03:32:26,10.1.1.5,33,-0.060,-0.060,-0.060,0.000,0.000,0.000
1644895946953870080,2022-02-15-03:32:26,10.1.1.5,22,-0.050,-0.050,-0.050,0.000,0.000,0.000
1644895947079038976,2022-02-15-03:32:27,10.1.1.5,37,-0.030,-0.030,-0.030,0.000,0.000,0.000
1644895947116434176,2022-02-15-03:32:27,10.1.1.5,26,-0.020,-0.020,-0.020,0.000,0.000,0.000
1644895947172910080,2022-02-15-03:32:27,10.1.1.5,34,-0.010,-0.010,-0.010,0.000,0.000,0.000
1644895947215065088,2022-02-15-03:32:27,10.1.1.5,23,0.000,0.000,0.000,0.000,0.000,0.000
1644895947273236992,2022-02-15-03:32:27,10.1.1.5,32,0.010,0.010,0.010,0.000,0.000,0.000
1644895947374641920,2022-02-15-03:32:27,10.1.1.5,28,0.030,0.030,0.030,0.000,0.000,0.000
1644895947633809152,2022-02-15-03:32:27,10.1.1.5,39,0.070,0.070,0.070,0.000,0.000,0.000
1644895947676524032,2022-02-15-03:32:27,10.1.1.5,25,0.080,0.080,0.080,0.000,0.000,0.000
1644895947733826048,2022-02-15-03:32:27,10.1.1.5,33,0.090,0.090,0.090,0.000,0.000,0.000
1644895947773561088,2022-02-15-03:32:27,10.1.1.5,22,0.100,0.100,0.100,0.000,0.000,0.000
1644895947935239168,2022-02-15-03:32:27,10.1.1.5,28,0.070,0.070,0.070,0.000,0.000,0.000
1644895947993330944,2022-02-15-03:32:27,10.1.1.5,29,0.060,0.060,0.060,0.000,0.000,0.000
1644895948053158144,2022-02-15-03:32:28,10.1.1.5,37,0.050,0.050,0.050,0.000,0.000,0.000
1644895948099428864,2022-02-15-03:32:28,10.1.1.5,26,0.040,0.040,0.040,0.000,0.000,0.000
1644895948154715136,2022-02-15-03:32:28,10.1.1.5,35,0.030,0.030,0.030,0.000,0.000,0.000
1644895948354199040,2022-02-15-03:32:28,10.1.1.5,28,-0.010,-0.010,-0.010,0.000,0.000,0.000
1644895948426650112,2022-02-15-03:32:28,10.1.1.5,36,-0.020,-0.020,-0.020,0.000,0.000,0.000
1644895948454984960,2022-02-15-03:32:28,10.1.1.5,23,-0.030,-0.030,-0.030,0.000,0.000,0.000
1644895948518276864,2022-02-15-03:32:28,10.1.1.5,31,-0.040,-0.040,-0.040,0.000,0.000,0.000
1644895948614407936,2022-02-15-03:32:28,10.1.1.5,27,-0.060,-0.060,-0.060,0.000,0.000,0.000
1644895948686137856,2022-02-15-03:32:28,10.1.1.5,33,-0.070,-0.070,-0.070,0.000,0.000,0.000
1644895948733402880,2022-02-15-03:32:28,10.1.1.5,37,-0.080,-0.080,-0.080,0.000,0.000,0.000
1644895948774962944,2022-02-15-03:32:28,10.1.1.5,26,-0.090,-0.090,-0.090,0.000,0.000,0.000
1644895948834487040,2022-02-15-03:32:28,10.1.1.5,36,-0.100,-0.100,-0.100,0.000,0.000,0.000
1644895948873132032,2022-02-15-03:32:28,10.1.1.5,25,-0.090,-0.090,-0.090,0.000,0.000,0.000
1644895948935113984,2022-02-15-03:32:28,10.1.1.5,32,-0.080,-0.080,-0.080,0.000,0.000,0.000
1644895948975006208,2022-02-15-03:32:28,10.1.1.5,21,-0.070,-0.070,-0.070,0.000,0.000,0.000
1644895949193430016,2022-02-15-03:32:29,10.1.1.5,39,-0.030,-0.030,-0.030,0.000,0.000,0.000
1644895949234200064,2022-02-15-03:32:29,10.1.1.5,27,-0.020,-0.020,-0.020,0.000,0.000,0.000
1644895949304198144,2022-02-15-03:32:29,10.1.1.5,36,-0.010,-0.010,-0.010,0.000,0.000,0.000
1644895949334602240,2022-02-15-03:32:29,10.1.1.5,23,0.000,0.000,0.000,0.000,0.000,0.000
1644895949393697024,2022-02-15-03:32:29,10.1.1.5,32,0.010,0.010,0.010,0.000,0.000,0.000
1644895949433609984,2022-02-15-03:32:29,10.1.1.5,20,0.020,0.020,0.020,0.000,0.000,0.000
1644895949497188096,2022-02-15-03:32:29,10.1.1.5,21,0.030,0.030,0.030,0.000,0.000,0.000
1644895949653466112,2022-02-15-03:32:29,10.1.1.5,29,0.060,0.060,0.060,0.000,0.000,0.000
1644895949714322176,2022-02-15-03:32:29,10.1.1.5,38,0.070,0.070,0.070,0.000,0.000,0.000
1644895949755023872,2022-02-15-03:32:29,10.1.1.5,27,0.080,0.080,0.080,0.000,0.000,0.000
1644895949814866176,2022-02-15-03:32:29,10.1.1.5,35,0.090,0.090,0.090,0.000,0.000,0.000
1644895949875422976,2022-02-15-03:32:29,10.1.1.5,39,0.100,0.100,0.100,0.000,0.000,0.000
1644895949913906176,2022-02-15-03:32:29,10.1.1.5,28,0.090,0.090,0.090,0.000,0.000,0.000
1644895949975055872,2022-02-15-03:32:29,10.1.1.5,37,0.080,0.080,0.080,0.000,0.000,0.000
1644895950014163968,2022-02-15-03:32:30,10.1.1.5,26,0.070,0.070,0.070,0.000,0.000,0.000
1644895950075357952,2022-02-15-03:32:30,10.1.1.5,35,0.060,0.060,0.060,0.000,0.000,0.000
1644895950113899008,2022-02-15-03:32:30,10.1.1.5,24,0.050,0.050,0.050,0.000,0.000,0.000
1644895950173750016,2022-02-15-03:32:30,10.1.1.5,34,0.040,0.040,0.040,0.000,0.000,0.000
1644895950212397056,2022-02-15-03:32:30,10.1.1.5,24,0.030,0.030,0.030,0.000,0.000,0.000
1644895950272568832,2022-02-15-03:32:30,10.1.1.5,33,0.020,0.020,0.020,0.000,0.000,0.000
1644895950432919040,2022-02-15-03:32:30,10.1.1.5,39,-0.010,-0.010,-0.010,0.000,0.000,0.000
1644895950473503232,2022-02-15-03:32:30,10.1.1.5,22,-0.020,-0.020,-0.020,0.000,0.000,0.000
1644895950533929984,2022-02-15-03:32:30,10.1.1.5,32,-0.030,-0.030,-0.030,0.000,0.000,0.000
1644895950593810176,2022-02-15-03:32:30,10.1.1.5,38,-0.040,-0.040,-0.040,0.000,0.000,0.000
1644895950633656064,2022-02-15-03:32:30,10.1.1.5,27,-0.050,-0.050,-0.050,0.000,0.000,0.000
1644895950693878016,2022-02-15-03:32:30,10.1.1.5,36,-0.060,-0.060,-0.060,0.000,0.000,0.000
1644895950734263808,2022-02-15-03:32:30,10.1.1.5,25,-0.070,-0.070,-0.070,0.000,0.000,0.000
1644895950793564160,2022-02-15-03:32:30,10.1.1.5,35,-0.080,-0.080,-0.080,0.000,0.000,0.000
1644895950833563136,2022-02-15-03:32:30,10.1.1.5,23,-0.090,-0.090,-0.090,0.000,0.000,0.000
1644895950892957952,2022-02-15-03:32:30,10.1.1.5,32,-0.100,-0.100,-0.100,0.000,0.000,0.000
1644895950933847040,2022-02-15-03:32:30,10.1.1.5,22,-0.090,-0.090,-0.090,0.000,0.000,0.000
1644895951161169920,2022-02-15-03:32:31,10.1.1.5,39,-0.050,-0.050,-0.050,0.000,0.000,0.000
1644895951194418944,2022-02-15-03:32:31,10.1.1.5,29,-0.040,-0.040,-0.040,0.000,0.000,0.000
1644895951293255168,2022-02-15-03:32:31,10.1.1.5,25,-0.020,-0.020,-0.020,0.000,0.000,0.000
1644895951353200896,2022-02-15-03:32:31,10.1.1.5,34,-0.010,-0.010,-0.010,0.000,0.000,0.000
1644895951392832000,2022-02-15-03:32:31,10.1.1.5,24,0.000,0.000,0.000,0.000,0.000,0.000
1644895951452222976,2022-02-15-03:32:31,10.1.1.5,33,0.010,0.010,0.010,0.000,0.000,0.000
1644895951493309952,2022-02-15-03:32:31,10.1.1.5,22,0.020,0.020,0.020,0.000,0.000,0.000
1644895951552969984,2022-02-15-03:32:31,10.1.1.5,32,0.030,0.030,0.030,0.000,0.000,0.000
1644895951593928960,2022-02-15-03:32:31,10.1.1.5,22,0.040,0.040,0.040,0.000,0.000,0.000
1644895951752716032,2022-02-15-03:32:31,10.1.1.5,28,0.070,0.070,0.070,0.000,0.000,0.000
1644895951813739008,2022-02-15-03:32:31,10.1.1.5,38,0.080,0.080,0.080,0.000,0.000,0.000
1644895951858237952,2022-02-15-03:32:31,10.1.1.5,27,0.090,0.090,0.090,0.000,0.000,0.000
1644895951927227136,2022-02-15-03:32:31,10.1.1.5,36,0.100,0.100,0.100,0.000,0.000,0.000
1644895951986216192,2022-02-15-03:32:31,10.1.1.5,37,0.090,0.090,0.090,0.000,0.000,0.000
1644895952013867008,2022-02-15-03:32:32,10.1.1.5,21,0.080,0.080,0.080,0.000,0.000,0.000
1644895952073574912,2022-02-15-03:32:32,10.1.1.5,28,0.070,0.070,0.070,0.000,0.000,0.000
1644895952093633024,2022-02-15-03:32:32,10.1.1.5,-3,0.070,0.070,0.070,0.000,0.000,0.000
1644895952173443072,2022-02-15-03:32:32,10.1.1.5,27,0.050,0.050,0.050,0.000,0.000,0.000
1644895952233236992,2022-02-15-03:32:32,10.1.1.5,37,0.040,0.040,0.040,0.000,0.000,0.000
1644895952273953792,2022-02-15-03:32:32,10.1.1.5,26,0.030,0.030,0.030,0.000,0.000,0.000
1644895952332896000,2022-02-15-03:32:32,10.1.1.5,36,0.020,0.020,0.020,0.000,0.000,0.000
1644895952372535040,2022-02-15-03:32:32,10.1.1.5,25,0.010,0.010,0.010,0.000,0.000,0.000
1644895952433486848,2022-02-15-03:32:32,10.1.1.5,34,0.000,0.000,0.000,0.000,0.000,0.000
1644895952472652800,2022-02-15-03:32:32,10.1.1.5,22,-0.010,-0.010,-0.010,0.000,0.000,0.000
1644895952533355008,2022-02-15-03:32:32,10.1.1.5,32,-0.020,-0.020,-0.020,0.000,0.000,0.000
1644895952573295104,2022-02-15-03:32:32,10.1.1.5,22,-0.030,-0.030,-0.030,0.000,0.000,0.000
1644895952634432000,2022-02-15-03:32:32,10.1.1.5,31,-0.040,-0.040,-0.040,0.000,0.000,0.000
1644895952793821952,2022-02-15-03:32:32,10.1.1.5,39,-0.070,-0.070,-0.070,0.000,0.000,0.000
1644895952834237952,2022-02-15-03:32:32,10.1.1.5,27,-0.080,-0.080,-0.080,0.000,0.000,0.000
1644895952894808064,2022-02-15-03:32:32,10.1.1.5,36,-0.090,-0.090,-0.090,0.000,0.000,0.000
1644895952938025984,2022-02-15-03:32:32,10.1.1.5,25,-0.100,-0.100,-0.100,0.000,0.000,0.000
1644895952994284032,2022-02-15-03:32:32,10.1.1.5,33,-0.090,-0.090,-0.090,0.000,0.000,0.000
1644895953035665152,2022-02-15-03:32:33,10.1.1.5,22,-0.080,-0.080,-0.080,0.000,0.000,0.000
1644895953158444800,2022-02-15-03:32:33,10.1.1.5,38,-0.060,-0.060,-0.060,0.000,0.000,0.000
1644895953192995072,2022-02-15-03:32:33,10.1.1.5,25,-0.050,-0.050,-0.050,0.000,0.000,0.000
1644895953253239040,2022-02-15-03:32:33,10.1.1.5,35,-0.040,-0.040,-0.040,0.000,0.000,0.000
1644895953293521920,2022-02-15-03:32:33,10.1.1.5,24,-0.030,-0.030,-0.030,0.000,0.000,0.000
1644895953353848064,2022-02-15-03:32:33,10.1.1.5,33,-0.020,-0.020,-0.020,0.000,0.000,0.000
1644895953515789056,2022-02-15-03:32:33,10.1.1.5,36,0.010,0.010,0.010,0.000,0.000,0.000
1644895953554663936,2022-02-15-03:32:33,10.1.1.5,25,0.020,0.020,0.020,0.000,0.000,0.000
1644895953617492992,2022-02-15-03:32:33,10.1.1.5,33,0.030,0.030,0.030,0.000,0.000,0.000
1644895953713272064,2022-02-15-03:32:33,10.1.1.5,29,0.050,0.050,0.050,0.000,0.000,0.000
1644895953773929984,2022-02-15-03:32:33,10.1.1.5,34,0.060,0.060,0.060,0.000,0.000,0.000
1644895953814034944,2022-02-15-03:32:33,10.1.1.5,23,0.070,0.070,0.070,0.000,0.000,0.000
1644895953874038016,2022-02-15-03:32:33,10.1.1.5,32,0.080,0.080,0.080,0.000,0.000,0.000
1644895954034938112,2022-02-15-03:32:34,10.1.1.5,39,0.090,0.090,0.090,0.000,0.000,0.000
1644895954073828096,2022-02-15-03:32:34,10.1.1.5,26,0.080,0.080,0.080,0.000,0.000,0.000
1644895954137401088,2022-02-15-03:32:34,10.1.1.5,35,0.070,0.070,0.070,0.000,0.000,0.000
1644895954174596096,2022-02-15-03:32:34,10.1.1.5,22,0.060,0.060,0.060,0.000,0.000,0.000
1644895954234409984,2022-02-15-03:32:34,10.1.1.5,30,0.050,0.050,0.050,0.000,0.000,0.000
1644895954292505088,2022-02-15-03:32:34,10.1.1.5,37,0.040,0.040,0.040,0.000,0.000,0.000
1644895954333602048,2022-02-15-03:32:34,10.1.1.5,26,0.030,0.030,0.030,0.000,0.000,0.000
1644895954393356032,2022-02-15-03:32:34,10.1.1.5,36,0.020,0.020,0.020,0.000,0.000,0.000
1644895954433552128,2022-02-15-03:32:34,10.1.1.5,26,0.010,0.010,0.010,0.000,0.000,0.000
1644895954558832896,2022-02-15-03:32:34,10.1.1.5,34,-0.010,-0.010,-0.010,0.000,0.000,0.000
1644895954614351872,2022-02-15-03:32:34,10.1.1.5,31,-0.020,-0.020,-0.020,0.000,0.000,0.000
1644895954712475136,2022-02-15-03:32:34,10.1.1.5,29,-0.040,-0.040,-0.040,0.000,0.000,0.000
1644895954773699072,2022-02-15-03:32:34,10.1.1.5,37,-0.050,-0.050,-0.050,0.000,0.000,0.000
1644895954815418112,2022-02-15-03:32:34,10.1.1.5,26,-0.060,-0.060,-0.060,0.000,0.000,0.000
1644895954874888960,2022-02-15-03:32:34,10.1.1.5,34,-0.070,-0.070,-0.070,0.000,0.000,0.000
1644895954913655040,2022-02-15-03:32:34,10.1.1.5,24,-0.080,-0.080,-0.080,0.000,0.000,0.000
1644895954977396992,2022-02-15-03:32:34,10.1.1.5,32,-0.090,-0.090,-0.090,0.000,0.000,0.000
1644895955014801920,2022-02-15-03:32:35,10.1.1.5,22,-0.100,-0.100,-0.100,0.000,0.000,0.000
1644895955174387968,2022-02-15-03:32:35,10.1.1.5,29,-0.070,-0.070,-0.070,0.000,0.000,0.000
1644895955233732864,2022-02-15-03:32:35,10.1.1.5,37,-0.060,-0.060,-0.060,0.000,0.000,0.000
1644895955273325824,2022-02-15-03:32:35,10.1.1.5,26,-0.050,-0.050,-0.050,0.000,0.000,0.000
1644895955333692160,2022-02-15-03:32:35,10.1.1.5,35,-0.040,-0.040,-0.040,0.000,0.000,0.000
1644895955394210048,2022-02-15-03:32:35,10.1.1.5,34,-0.030,-0.030,-0.030,0.000,0.000,0.000
1644895955433623040,2022-02-15-03:32:35,10.1.1.5,23,-0.020,-0.020,-0.020,0.000,0.000,0.000
1644895955493928960,2022-02-15-03:32:35,10.1.1.5,32,-0.010,-0.010,-0.010,0.000,0.000,0.000
1644895955533647104,2022-02-15-03:32:35,10.1.1.5,21,0.000,0.000,0.000,0.000,0.000,0.000
1644895955654278144,2022-02-15-03:32:35,10.1.1.5,39,0.020,0.020,0.020,0.000,0.000,0.000
1644895955692826880,2022-02-15-03:32:35,10.1.1.5,28,0.030,0.030,0.030,0.000,0.000,0.000
1644895955753760000,2022-02-15-03:32:35,10.1.1.5,37,0.040,0.040,0.040,0.000,0.000,0.000
1644895955793756928,2022-02-15-03:32:35,10.1.1.5,26,0.050,0.050,0.050,0.000,0.000,0.000
1644895955853595136,2022-02-15-03:32:35,10.1.1.5,35,0.060,0.060,0.060,0.000,0.000,0.000
1644895955893768192,2022-02-15-03:32:35,10.1.1.5,23,0.070,0.070,0.070,0.000,0.000,0.000
1644895955953015040,2022-02-15-03:32:35,10.1.1.5,32,0.080,0.080,0.080,0.000,0.000,0.000
1644895955993110016,2022-02-15-03:32:35,10.1.1.5,21,0.090,0.090,0.090,0.000,0.000,0.000
1644895956092678912,2022-02-15-03:32:36,10.1.1.5,17,0.090,0.090,0.090,0.000,0.000,0.000
1644895956153611776,2022-02-15-03:32:36,10.1.1.5,27,0.080,0.080,0.080,0.000,0.000,0.000
1644895956213825024,2022-02-15-03:32:36,10.1.1.5,36,0.070,0.070,0.070,0.000,0.000,0.000
1644895956253667072,2022-02-15-03:32:36,10.1.1.5,25,0.060,0.060,0.060,0.000,0.000,0.000
1644895956313711872,2022-02-15-03:32:36,10.1.1.5,34,0.050,0.050,0.050,0.000,0.000,0.000
1644895956354024960,2022-02-15-03:32:36,10.1.1.5,23,0.040,0.040,0.040,0.000,0.000,0.000
1644895956414497024,2022-02-15-03:32:36,10.1.1.5,31,0.030,0.030,0.030,0.000,0.000,0.000
1644895956454859008,2022-02-15-03:32:36,10.1.1.5,20,0.020,0.020,0.020,0.000,0.000,0.000
1644895956514033152,2022-02-15-03:32:36,10.1.1.5,28,0.010,0.010,0.010,0.000,0.000,0.000
1644895956575234048,2022-02-15-03:32:36,10.1.1.5,37,0.000,0.000,0.000,0.000,0.000,0.000
1644895956614612992,2022-02-15-03:32:36,10.1.1.5,26,-0.010,-0.010,-0.010,0.000,0.000,0.000
1644895956673244928,2022-02-15-03:32:36,10.1.1.5,35,-0.020,-0.020,-0.020,0.000,0.000,0.000
1644895956712638976,2022-02-15-03:32:36,10.1.1.5,24,-0.030,-0.030,-0.030,0.000,0.000,0.000
1644895956775337984,2022-02-15-03:32:36,10.1.1.5,33,-0.040,-0.040,-0.040,0.000,0.000,0.000
1644895956813360896,2022-02-15-03:32:36,10.1.1.5,23,-0.050,-0.050,-0.050,0.000,0.000,0.000
1644895956873654016,2022-02-15-03:32:36,10.1.1.5,32,-0.060,-0.060,-0.060,0.000,0.000,0.000
1644895956914958848,2022-02-15-03:32:36,10.1.1.5,21,-0.070,-0.070,-0.070,0.000,0.000,0.000
1644895957033669888,2022-02-15-03:32:37,10.1.1.5,38,-0.090,-0.090,-0.090,0.000,0.000,0.000
1644895957073494784,2022-02-15-03:32:37,10.1.1.5,27,-0.100,-0.100,-0.100,0.000,0.000,0.000
1644895957135139840,2022-02-15-03:32:37,10.1.1.5,36,-0.090,-0.090,-0.090,0.000,0.000,0.000
1644895957175236864,2022-02-15-03:32:37,10.1.1.5,27,-0.080,-0.080,-0.080,0.000,0.000,0.000
1644895957233499904,2022-02-15-03:32:37,10.1.1.5,33,-0.070,-0.070,-0.070,0.000,0.000,0.000
1644895957273747968,2022-02-15-03:32:37,10.1.1.5,22,-0.060,-0.060,-0.060,0.000,0.000,0.000
1644895957333641984,2022-02-15-03:32:37,10.1.1.5,31,-0.050,-0.050,-0.050,0.000,0.000,0.000
1644895957433687808,2022-02-15-03:32:37,10.1.1.5,29,-0.030,-0.030,-0.030,0.000,0.000,0.000
1644895957493756928,2022-02-15-03:32:37,10.1.1.5,37,-0.020,-0.020,-0.020,0.000,0.000,0.000
1644895957534620160,2022-02-15-03:32:37,10.1.1.5,26,-0.010,-0.010,-0.010,0.000,0.000,0.000
1644895957593406976,2022-02-15-03:32:37,10.1.1.5,35,0.000,0.000,0.000,0.000,0.000,0.000
1644895957633938176,2022-02-15-03:32:37,10.1.1.5,23,0.010,0.010,0.010,0.000,0.000,0.000
1644895957700290816,2022-02-15-03:32:37,10.1.1.5,32,0.020,0.020,0.020,0.000,0.000,0.000
1644895957753715968,2022-02-15-03:32:37,10.1.1.5,39,0.030,0.030,0.030,0.000,0.000,0.000
1644895957795393024,2022-02-15-03:32:37,10.1.1.5,28,0.040,0.040,0.040,0.000,0.000,0.000
1644895957854321920,2022-02-15-03:32:37,10.1.1.5,32,0.050,0.050,0.050,0.000,0.000,0.000
1644895957894370048,2022-02-15-03:32:37,10.1.1.5,22,0.060,0.060,0.060,0.000,0.000,0.000
1644895958021064960,2022-02-15-03:32:38,10.1.1.5,39,0.080,0.080,0.080,0.000,0.000,0.000
1644895958054555904,2022-02-15-03:32:38,10.1.1.5,25,0.090,0.090,0.090,0.000,0.000,0.000
1644895958114697984,2022-02-15-03:32:38,10.1.1.5,34,0.100,0.100,0.100,0.000,0.000,0.000
1644895958155097088,2022-02-15-03:32:38,10.1.1.5,23,0.090,0.090,0.090,0.000,0.000,0.000
1644895958219991040,2022-02-15-03:32:38,10.1.1.5,32,0.080,0.080,0.080,0.000,0.000,0.000
1644895958378594048,2022-02-15-03:32:38,10.1.1.5,36,0.050,0.050,0.050,0.000,0.000,0.000
1644895958415819776,2022-02-15-03:32:38,10.1.1.5,22,0.040,0.040,0.040,0.000,0.000,0.000
1644895958515124992,2022-02-15-03:32:38,10.1.1.5,19,0.020,0.020,0.020,0.000,0.000,0.000
1644895958575650816,2022-02-15-03:32:38,10.1.1.5,27,0.010,0.010,0.010,0.000,0.000,0.000
1644895958635198208,2022-02-15-03:32:38,10.1.1.5,34,0.000,0.000,0.000,0.000,0.000,0.000
1644895958690530048,2022-02-15-03:32:38,10.1.1.5,34,-0.010,-0.010,-0.010,0.000,0.000,0.000
1644895958738256896,2022-02-15-03:32:38,10.1.1.5,32,-0.020,-0.020,-0.020,0.000,0.000,0.000
1644895958835684096,2022-02-15-03:32:38,10.1.1.5,29,-0.040,-0.040,-0.040,0.000,0.000,0.000
1644895958894184960,2022-02-15-03:32:38,10.1.1.5,36,-0.050,-0.050,-0.050,0.000,0.000,0.000
1644895958935602944,2022-02-15-03:32:38,10.1.1.5,25,-0.060,-0.060,-0.060,0.000,0.000,0.000
1644895958999180032,2022-02-15-03:32:38,10.1.1.5,34,-0.070,-0.070,-0.070,0.000,0.000,0.000
1644895959033315840,2022-02-15-03:32:39,10.1.1.5,23,-0.080,-0.080,-0.080,0.000,0.000,0.000
1644895959094813184,2022-02-15-03:32:39,10.1.1.5,32,-0.090,-0.090,-0.090,0.000,0.000,0.000
1644895959178292992,2022-02-15-03:32:39,10.1.1.5,10,-0.090,-0.090,-0.090,0.000,0.000,0.000
1644895959253312000,2022-02-15-03:32:39,10.1.1.5,36,-0.080,-0.080,-0.080,0.000,0.000,0.000
1644895959293370880,2022-02-15-03:32:39,10.1.1.5,25,-0.070,-0.070,-0.070,0.000,0.000,0.000
1644895959354393856,2022-02-15-03:32:39,10.1.1.5,35,-0.060,-0.060,-0.060,0.000,0.000,0.000
1644895959393286912,2022-02-15-03:32:39,10.1.1.5,24,-0.050,-0.050,-0.050,0.000,0.000,0.000
1644895959453683968,2022-02-15-03:32:39,10.1.1.5,34,-0.040,-0.040,-0.040,0.000,0.000,0.000
1644895959497255936,2022-02-15-03:32:39,10.1.1.5,23,-0.030,-0.030,-0.030,0.000,0.000,0.000
1644895959554596864,2022-02-15-03:32:39,10.1.1.5,32,-0.020,-0.020,-0.020,0.000,0.000,0.000
1644895959594400000,2022-02-15-03:32:39,10.1.1.5,22,-0.010,-0.010,-0.010,0.000,0.000,0.000
1644895959814888960,2022-02-15-03:32:39,10.1.1.5,39,0.030,0.030,0.030,0.000,0.000,0.000
1644895959853626880,2022-02-15-03:32:39,10.1.1.5,27,0.040,0.040,0.040,0.000,0.000,0.000
1644895959913842944,2022-02-15-03:32:39,10.1.1.5,36,0.050,0.050,0.050,0.000,0.000,0.000
1644895959955673856,2022-02-15-03:32:39,10.1.1.5,25,0.060,0.060,0.060,0.000,0.000,0.000
1644895960012944896,2022-02-15-03:32:40,10.1.1.5,34,0.070,0.070,0.070,0.000,0.000,0.000
1644895960053080064,2022-02-15-03:32:40,10.1.1.5,23,0.080,0.080,0.080,0.000,0.000,0.000
1644895960114018816,2022-02-15-03:32:40,10.1.1.5,32,0.090,0.090,0.090,0.000,0.000,0.000
1644895960153410048,2022-02-15-03:32:40,10.1.1.5,22,0.100,0.100,0.100,0.000,0.000,0.000
1644895960374764800,2022-02-15-03:32:40,10.1.1.5,35,0.060,0.060,0.060,0.000,0.000,0.000
1644895960417906944,2022-02-15-03:32:40,10.1.1.5,23,0.050,0.050,0.050,0.000,0.000,0.000
1644895960477819904,2022-02-15-03:32:40,10.1.1.5,31,0.040,0.040,0.040,0.000,0.000,0.000
1644895960634641920,2022-02-15-03:32:40,10.1.1.5,37,0.010,0.010,0.010,0.000,0.000,0.000
1644895960678446080,2022-02-15-03:32:40,10.1.1.5,26,0.000,0.000,0.000,0.000,0.000,0.000
1644895960734384896,2022-02-15-03:32:40,10.1.1.5,32,-0.010,-0.010,-0.010,0.000,0.000,0.000
1644895960774622976,2022-02-15-03:32:40,10.1.1.5,22,-0.020,-0.020,-0.020,0.000,0.000,0.000
1644895960893785856,2022-02-15-03:32:40,10.1.1.5,37,-0.040,-0.040,-0.040,0.000,0.000,0.000
1644895960938661120,2022-02-15-03:32:40,10.1.1.5,26,-0.050,-0.050,-0.050,0.000,0.000,0.000
1644895960994148864,2022-02-15-03:32:40,10.1.1.5,35,-0.060,-0.060,-0.060,0.000,0.000,0.000
1644895961033484032,2022-02-15-03:32:41,10.1.1.5,24,-0.070,-0.070,-0.070,0.000,0.000,0.000
1644895961094767104,2022-02-15-03:32:41,10.1.1.5,33,-0.080,-0.080,-0.080,0.000,0.000,0.000
1644895961135684096,2022-02-15-03:32:41,10.1.1.5,22,-0.090,-0.090,-0.090,0.000,0.000,0.000
1644895961214934016,2022-02-15-03:32:41,10.1.1.5,0,-0.090,-0.090,-0.090,0.000,0.000,0.000
1644895961297313024,2022-02-15-03:32:41,10.1.1.5,28,-0.080,-0.080,-0.080,0.000,0.000,0.000
1644895961353668864,2022-02-15-03:32:41,10.1.1.5,35,-0.070,-0.070,-0.070,0.000,0.000,0.000
1644895961395122176,2022-02-15-03:32:41,10.1.1.5,24,-0.060,-0.060,-0.060,0.000,0.000,0.000
1644895961455785984,2022-02-15-03:32:41,10.1.1.5,33,-0.050,-0.050,-0.050,0.000,0.000,0.000
1644895961498155008,2022-02-15-03:32:41,10.1.1.5,22,-0.040,-0.040,-0.040,0.000,0.000,0.000
1644895961654851072,2022-02-15-03:32:41,10.1.1.5,29,-0.010,-0.010,-0.010,0.000,0.000,0.000
1644895961715293952,2022-02-15-03:32:41,10.1.1.5,35,0.000,0.000,0.000,0.000,0.000,0.000
1644895961756484864,2022-02-15-03:32:41,10.1.1.5,24,0.010,0.010,0.010,0.000,0.000,0.000
1644895961814428928,2022-02-15-03:32:41,10.1.1.5,33,0.020,0.020,0.020,0.000,0.000,0.000
1644895961916011008,2022-02-15-03:32:41,10.1.1.5,28,0.040,0.040,0.040,0.000,0.000,0.000
1644895961980022016,2022-02-15-03:32:41,10.1.1.5,33,0.050,0.050,0.050,0.000,0.000,0.000
1644895962073822976,2022-02-15-03:32:42,10.1.1.5,28,0.070,0.070,0.070,0.000,0.000,0.000
1644895962136122112,2022-02-15-03:32:42,10.1.1.5,36,0.080,0.080,0.080,0.000,0.000,0.000
1644895962178173184,2022-02-15-03:32:42,10.1.1.5,26,0.090,0.090,0.090,0.000,0.000,0.000
1644895962234909184,2022-02-15-03:32:42,10.1.1.5,35,0.100,0.100,0.100,0.000,0.000,0.000
1644895962273408000,2022-02-15-03:32:42,10.1.1.5,23,0.090,0.090,0.090,0.000,0.000,0.000
1644895962335553792,2022-02-15-03:32:42,10.1.1.5,32,0.080,0.080,0.080,0.000,0.000,0.000
1644895962375572992,2022-02-15-03:32:42,10.1.1.5,20,0.070,0.070,0.070,0.000,0.000,0.000
1644895962434673920,2022-02-15-03:32:42,10.1.1.5,27,0.060,0.060,0.060,0.000,0.000,0.000
1644895962494375936,2022-02-15-03:32:42,10.1.1.5,36,0.050,0.050,0.050,0.000,0.000,0.000
1644895962534929152,2022-02-15-03:32:42,10.1.1.5,24,0.040,0.040,0.040,0.000,0.000,0.000
1644895962594547968,2022-02-15-03:32:42,10.1.1.5,33,0.030,0.030,0.030,0.000,0.000,0.000
1644895962693658112,2022-02-15-03:32:42,10.1.1.5,27,0.010,0.010,0.010,0.000,0.000,0.000
1644895962754548992,2022-02-15-03:32:42,10.1.1.5,36,0.000,0.000,0.000,0.000,0.000,0.000
1644895962797244160,2022-02-15-03:32:42,10.1.1.5,24,-0.010,-0.010,-0.010,0.000,0.000,0.000
1644895962854428160,2022-02-15-03:32:42,10.1.1.5,33,-0.020,-0.020,-0.020,0.000,0.000,0.000
1644895962894222080,2022-02-15-03:32:42,10.1.1.5,22,-0.030,-0.030,-0.030,0.000,0.000,0.000
1644895962954065920,2022-02-15-03:32:42,10.1.1.5,32,-0.040,-0.040,-0.040,0.000,0.000,0.000
1644895963053797120,2022-02-15-03:32:43,10.1.1.5,28,-0.060,-0.060,-0.060,0.000,0.000,0.000
1644895963113421824,2022-02-15-03:32:43,10.1.1.5,37,-0.070,-0.070,-0.070,0.000,0.000,0.000
1644895963154525952,2022-02-15-03:32:43,10.1.1.5,26,-0.080,-0.080,-0.080,0.000,0.000,0.000
1644895963214534144,2022-02-15-03:32:43,10.1.1.5,34,-0.090,-0.090,-0.090,0.000,0.000,0.000
1644895963253462016,2022-02-15-03:32:43,10.1.1.5,23,-0.100,-0.100,-0.100,0.000,0.000,0.000
1644895963313568000,2022-02-15-03:32:43,10.1.1.5,33,-0.090,-0.090,-0.090,0.000,0.000,0.000
1644895963354008832,2022-02-15-03:32:43,10.1.1.5,22,-0.080,-0.080,-0.080,0.000,0.000,0.000
1644895963513829888,2022-02-15-03:32:43,10.1.1.5,28,-0.050,-0.050,-0.050,0.000,0.000,0.000
1644895963574109184,2022-02-15-03:32:43,10.1.1.5,37,-0.040,-0.040,-0.040,0.000,0.000,0.000
1644895963615586048,2022-02-15-03:32:43,10.1.1.5,23,-0.030,-0.030,-0.030,0.000,0.000,0.000
1644895963673595904,2022-02-15-03:32:43,10.1.1.5,32,-0.020,-0.020,-0.020,0.000,0.000,0.000
1644895963713946112,2022-02-15-03:32:43,10.1.1.5,22,-0.010,-0.010,-0.010,0.000,0.000,0.000
1644895963876986880,2022-02-15-03:32:43,10.1.1.5,29,0.020,0.020,0.020,0.000,0.000,0.000
1644895963935219968,2022-02-15-03:32:43,10.1.1.5,37,0.030,0.030,0.030,0.000,0.000,0.000
1644895963975190016,2022-02-15-03:32:43,10.1.1.5,26,0.040,0.040,0.040,0.000,0.000,0.000
1644895964034073088,2022-02-15-03:32:44,10.1.1.5,33,0.050,0.050,0.050,0.000,0.000,0.000
1644895964194473984,2022-02-15-03:32:44,10.1.1.5,39,0.080,0.080,0.080,0.000,0.000,0.000
1644895964234134016,2022-02-15-03:32:44,10.1.1.5,27,0.090,0.090,0.090,0.000,0.000,0.000
1644895964298404096,2022-02-15-03:32:44,10.1.1.5,36,0.100,0.100,0.100,0.000,0.000,0.000
1644895964335067904,2022-02-15-03:32:44,10.1.1.5,22,0.090,0.090,0.090,0.000,0.000,0.000
1644895964494738176,2022-02-15-03:32:44,10.1.1.5,28,0.060,0.060,0.060,0.000,0.000,0.000
1644895964554836992,2022-02-15-03:32:44,10.1.1.5,36,0.050,0.050,0.050,0.000,0.000,0.000
1644895964595000064,2022-02-15-03:32:44,10.1.1.5,25,0.040,0.040,0.040,0.000,0.000,0.000
1644895964653780992,2022-02-15-03:32:44,10.1.1.5,34,0.030,0.030,0.030,0.000,0.000,0.000
1644895964694032896,2022-02-15-03:32:44,10.1.1.5,23,0.020,0.020,0.020,0.000,0.000,0.000
1644895964753186816,2022-02-15-03:32:44,10.1.1.5,32,0.010,0.010,0.010,0.000,0.000,0.000
1644895964793246976,2022-02-15-03:32:44,10.1.1.5,21,0.000,0.000,0.000,0.000,0.000,0.000
1644895964917278976,2022-02-15-03:32:44,10.1.1.5,39,-0.020,-0.020,-0.020,0.000,0.000,0.000
1644895964954699008,2022-02-15-03:32:44,10.1.1.5,27,-0.030,-0.030,-0.030,0.000,0.000,0.000
1644895965013797120,2022-02-15-03:32:45,10.1.1.5,36,-0.040,-0.040,-0.040,0.000,0.000,0.000
1644895965054430976,2022-02-15-03:32:45,10.1.1.5,25,-0.050,-0.050,-0.050,0.000,0.000,0.000
1644895965113796096,2022-02-15-03:32:45,10.1.1.5,33,-0.060,-0.060,-0.060,0.000,0.000,0.000
1644895965155237888,2022-02-15-03:32:45,10.1.1.5,22,-0.070,-0.070,-0.070,0.000,0.000,0.000
1644895965313580032,2022-02-15-03:32:45,10.1.1.5,28,-0.100,-0.100,-0.100,0.000,0.000,0.000
1644895965375341824,2022-02-15-03:32:45,10.1.1.5,37,-0.090,-0.090,-0.090,0.000,0.000,0.000
1644895965414510848,2022-02-15-03:32:45,10.1.1.5,26,-0.080,-0.080,-0.080,0.000,0.000,0.000
1644895965473982208,2022-02-15-03:32:45,10.1.1.5,35,-0.070,-0.070,-0.070,0.000,0.000,0.000
1644895965513809920,2022-02-15-03:32:45,10.1.1.5,23,-0.060,-0.060,-0.060,0.000,0.000,0.000
1644895965572932864,2022-02-15-03:32:45,10.1.1.5,33,-0.050,-0.050,-0.050,0.000,0.000,0.000
1644895965613321984,2022-02-15-03:32:45,10.1.1.5,22,-0.040,-0.040,-0.040,0.000,0.000,0.000
1644895965737893120,2022-02-15-03:32:45,10.1.1.5,37,-0.020,-0.020,-0.020,0.000,0.000,0.000
1644895965773731072,2022-02-15-03:32:45,10.1.1.5,26,-0.010,-0.010,-0.010,0.000,0.000,0.000
1644895965834675200,2022-02-15-03:32:45,10.1.1.5,35,0.000,0.000,0.000,0.000,0.000,0.000
1644895965874541056,2022-02-15-03:32:45,10.1.1.5,24,0.010,0.010,0.010,0.000,0.000,0.000
1644895965935472896,2022-02-15-03:32:45,10.1.1.5,33,0.020,0.020,0.020,0.000,0.000,0.000
1644895965974804992,2022-02-15-03:32:45,10.1.1.5,22,0.030,0.030,0.030,0.000,0.000,0.000
1644895966093241088,2022-02-15-03:32:46,10.1.1.5,37,0.050,0.050,0.050,0.000,0.000,0.000
1644895966134514176,2022-02-15-03:32:46,10.1.1.5,25,0.060,0.060,0.060,0.000,0.000,0.000
1644895966193638912,2022-02-15-03:32:46,10.1.1.5,35,0.070,0.070,0.070,0.000,0.000,0.000
1644895966233884160,2022-02-15-03:32:46,10.1.1.5,24,0.080,0.080,0.080,0.000,0.000,0.000
1644895966293644032,2022-02-15-03:32:46,10.1.1.5,33,0.090,0.090,0.090,0.000,0.000,0.000
1644895966337816832,2022-02-15-03:32:46,10.1.1.5,22,0.100,0.100,0.100,0.000,0.000,0.000
1644895966393377024,2022-02-15-03:32:46,10.1.1.5,32,0.090,0.090,0.090,0.000,0.000,0.000
1644895966594664960,2022-02-15-03:32:46,10.1.1.5,30,0.050,0.050,0.050,0.000,0.000,0.000
1644895966655083008,2022-02-15-03:32:46,10.1.1.5,37,0.040,0.040,0.040,0.000,0.000,0.000
1644895966697835008,2022-02-15-03:32:46,10.1.1.5,26,0.030,0.030,0.030,0.000,0.000,0.000
1644895966753454848,2022-02-15-03:32:46,10.1.1.5,34,0.020,0.020,0.020,0.000,0.000,0.000
1644895966793757952,2022-02-15-03:32:46,10.1.1.5,22,0.010,0.010,0.010,0.000,0.000,0.000
1644895966853869824,2022-02-15-03:32:46,10.1.1.5,31,0.000,0.000,0.000,0.000,0.000,0.000
1644895966954670848,2022-02-15-03:32:46,10.1.1.5,30,-0.020,-0.020,-0.020,0.000,0.000,0.000
1644895967014662912,2022-02-15-03:32:47,10.1.1.5,37,-0.030,-0.030,-0.030,0.000,0.000,0.000
1644895967054639104,2022-02-15-03:32:47,10.1.1.5,25,-0.040,-0.040,-0.040,0.000,0.000,0.000
1644895967114603008,2022-02-15-03:32:47,10.1.1.5,35,-0.050,-0.050,-0.050,0.000,0.000,0.000
1644895967155214080,2022-02-15-03:32:47,10.1.1.5,24,-0.060,-0.060,-0.060,0.000,0.000,0.000
1644895967214865920,2022-02-15-03:32:47,10.1.1.5,33,-0.070,-0.070,-0.070,0.000,0.000,0.000
1644895967257747968,2022-02-15-03:32:47,10.1.1.5,22,-0.080,-0.080,-0.080,0.000,0.000,0.000
1644895967415144960,2022-02-15-03:32:47,10.1.1.5,29,-0.090,-0.090,-0.090,0.000,0.000,0.000
1644895967474430976,2022-02-15-03:32:47,10.1.1.5,37,-0.080,-0.080,-0.080,0.000,0.000,0.000
1644895967515017984,2022-02-15-03:32:47,10.1.1.5,26,-0.070,-0.070,-0.070,0.000,0.000,0.000
1644895967575657984,2022-02-15-03:32:47,10.1.1.5,33,-0.060,-0.060,-0.060,0.000,0.000,0.000
1644895967614376960,2022-02-15-03:32:47,10.1.1.5,22,-0.050,-0.050,-0.050,0.000,0.000,0.000
1644895967672808960,2022-02-15-03:32:47,10.1.1.5,32,-0.040,-0.040,-0.040,0.000,0.000,0.000
1644895967774902016,2022-02-15-03:32:47,10.1.1.5,28,-0.020,-0.020,-0.020,0.000,0.000,0.000
1644895967834422016,2022-02-15-03:32:47,10.1.1.5,37,-0.010,-0.010,-0.010,0.000,0.000,0.000
1644895967873795072,2022-02-15-03:32:47,10.1.1.5,26,0.000,0.000,0.000,0.000,0.000,0.000
1644895967934888960,2022-02-15-03:32:47,10.1.1.5,36,0.010,0.010,0.010,0.000,0.000,0.000
1644895967977502208,2022-02-15-03:32:47,10.1.1.5,25,0.020,0.020,0.020,0.000,0.000,0.000
1644895968034266880,2022-02-15-03:32:48,10.1.1.5,33,0.030,0.030,0.030,0.000,0.000,0.000
1644895968074834176,2022-02-15-03:32:48,10.1.1.5,22,0.040,0.040,0.040,0.000,0.000,0.000
1644895968234394112,2022-02-15-03:32:48,10.1.1.5,23,0.070,0.070,0.070,0.000,0.000,0.000
1644895968294457856,2022-02-15-03:32:48,10.1.1.5,33,0.080,0.080,0.080,0.000,0.000,0.000
1644895968335497984,2022-02-15-03:32:48,10.1.1.5,21,0.090,0.090,0.090,0.000,0.000,0.000
1644895968414611968,2022-02-15-03:32:48,10.1.1.5,0,0.090,0.090,0.090,0.000,0.000,0.000
1644895968495912960,2022-02-15-03:32:48,10.1.1.5,29,0.080,0.080,0.080,0.000,0.000,0.000
1644895968554668800,2022-02-15-03:32:48,10.1.1.5,38,0.070,0.070,0.070,0.000,0.000,0.000
1644895968594212096,2022-02-15-03:32:48,10.1.1.5,27,0.060,0.060,0.060,0.000,0.000,0.000
1644895968654835968,2022-02-15-03:32:48,10.1.1.5,36,0.050,0.050,0.050,0.000,0.000,0.000
1644895968694302208,2022-02-15-03:32:48,10.1.1.5,25,0.040,0.040,0.040,0.000,0.000,0.000
1644895968754566912,2022-02-15-03:32:48,10.1.1.5,34,0.030,0.030,0.030,0.000,0.000,0.000
1644895968794297856,2022-02-15-03:32:48,10.1.1.5,23,0.020,0.020,0.020,0.000,0.000,0.000
1644895968913554944,2022-02-15-03:32:48,10.1.1.5,40,0.000,0.000,0.000,0.000,0.000,0.000
1644895968953716992,2022-02-15-03:32:48,10.1.1.5,28,-0.010,-0.010,-0.010,0.000,0.000,0.000
1644895969013577984,2022-02-15-03:32:49,10.1.1.5,37,-0.020,-0.020,-0.020,0.000,0.000,0.000
1644895969053826048,2022-02-15-03:32:49,10.1.1.5,25,-0.030,-0.030,-0.030,0.000,0.000,0.000
1644895969114382080,2022-02-15-03:32:49,10.1.1.5,33,-0.040,-0.040,-0.040,0.000,0.000,0.000
1644895969155417088,2022-02-15-03:32:49,10.1.1.5,23,-0.050,-0.050,-0.050,0.000,0.000,0.000
1644895969214979840,2022-02-15-03:32:49,10.1.1.5,32,-0.060,-0.060,-0.060,0.000,0.000,0.000
1644895969414398976,2022-02-15-03:32:49,10.1.1.5,28,-0.100,-0.100,-0.100,0.000,0.000,0.000
1644895969474475008,2022-02-15-03:32:49,10.1.1.5,36,-0.090,-0.090,-0.090,0.000,0.000,0.000
1644895969513166848,2022-02-15-03:32:49,10.1.1.5,25,-0.080,-0.080,-0.080,0.000,0.000,0.000
1644895969574917120,2022-02-15-03:32:49,10.1.1.5,33,-0.070,-0.070,-0.070,0.000,0.000,0.000
1644895969615411968,2022-02-15-03:32:49,10.1.1.5,22,-0.060,-0.060,-0.060,0.000,0.000,0.000
1644895969737995008,2022-02-15-03:32:49,10.1.1.5,36,-0.040,-0.040,-0.040,0.000,0.000,0.000
1644895969774283008,2022-02-15-03:32:49,10.1.1.5,24,-0.030,-0.030,-0.030,0.000,0.000,0.000
1644895969833710848,2022-02-15-03:32:49,10.1.1.5,33,-0.020,-0.020,-0.020,0.000,0.000,0.000
1644895969979798016,2022-02-15-03:32:49,10.1.1.5,19,0.010,0.010,0.010,0.000,0.000,0.000
1644895970035161088,2022-02-15-03:32:50,10.1.1.5,29,0.020,0.020,0.020,0.000,0.000,0.000
1644895970094893824,2022-02-15-03:32:50,10.1.1.5,36,0.030,0.030,0.030,0.000,0.000,0.000
1644895970134993920,2022-02-15-03:32:50,10.1.1.5,25,0.040,0.040,0.040,0.000,0.000,0.000
1644895970194041088,2022-02-15-03:32:50,10.1.1.5,34,0.050,0.050,0.050,0.000,0.000,0.000
1644895970235040000,2022-02-15-03:32:50,10.1.1.5,23,0.060,0.060,0.060,0.000,0.000,0.000
1644895970294533120,2022-02-15-03:32:50,10.1.1.5,32,0.070,0.070,0.070,0.000,0.000,0.000
1644895970453801984,2022-02-15-03:32:50,10.1.1.5,40,0.100,0.100,0.100,0.000,0.000,0.000
1644895970494662144,2022-02-15-03:32:50,10.1.1.5,28,0.090,0.090,0.090,0.000,0.000,0.000
1644895970554144000,2022-02-15-03:32:50,10.1.1.5,36,0.080,0.080,0.080,0.000,0.000,0.000
1644895970594935040,2022-02-15-03:32:50,10.1.1.5,25,0.070,0.070,0.070,0.000,0.000,0.000
1644895970653559808,2022-02-15-03:32:50,10.1.1.5,34,0.060,0.060,0.060,0.000,0.000,0.000
1644895970713314048,2022-02-15-03:32:50,10.1.1.5,43,0.050,0.050,0.050,0.000,0.000,0.000
1644895970754651136,2022-02-15-03:32:50,10.1.1.5,32,0.040,0.040,0.040,0.000,0.000,0.000
1644895970854713856,2022-02-15-03:32:50,10.1.1.5,28,0.020,0.020,0.020,0.000,0.000,0.000
1644895970914462208,2022-02-15-03:32:50,10.1.1.5,37,0.010,0.010,0.010,0.000,0.000,0.000
1644895970958170880,2022-02-15-03:32:50,10.1.1.5,27,0.000,0.000,0.000,0.000,0.000,0.000
1644895971016890112,2022-02-15-03:32:51,10.1.1.5,36,-0.010,-0.010,-0.010,0.000,0.000,0.000
1644895971053767936,2022-02-15-03:32:51,10.1.1.5,24,-0.020,-0.020,-0.020,0.000,0.000,0.000
1644895971114093056,2022-02-15-03:32:51,10.1.1.5,34,-0.030,-0.030,-0.030,0.000,0.000,0.000
1644895971153856000,2022-02-15-03:32:51,10.1.1.5,22,-0.040,-0.040,-0.040,0.000,0.000,0.000
1644895971272685056,2022-02-15-03:32:51,10.1.1.5,36,-0.060,-0.060,-0.060,0.000,0.000,0.000
1644895971312926976,2022-02-15-03:32:51,10.1.1.5,26,-0.070,-0.070,-0.070,0.000,0.000,0.000
1644895971373903104,2022-02-15-03:32:51,10.1.1.5,34,-0.080,-0.080,-0.080,0.000,0.000,0.000
1644895971413832960,2022-02-15-03:32:51,10.1.1.5,24,-0.090,-0.090,-0.090,0.000,0.000,0.000
1644895971475366144,2022-02-15-03:32:51,10.1.1.5,33,-0.100,-0.100,-0.100,0.000,0.000,0.000
1644895971524747008,2022-02-15-03:32:51,10.1.1.5,22,-0.090,-0.090,-0.090,0.000,0.000,0.000
1644895971573847040,2022-02-15-03:32:51,10.1.1.5,31,-0.080,-0.080,-0.080,0.000,0.000,0.000
1644895971734499072,2022-02-15-03:32:51,10.1.1.5,39,-0.050,-0.050,-0.050,0.000,0.000,0.000
1644895971773639936,2022-02-15-03:32:51,10.1.1.5,28,-0.040,-0.040,-0.040,0.000,0.000,0.000
1644895971833560064,2022-02-15-03:32:51,10.1.1.5,37,-0.030,-0.030,-0.030,0.000,0.000,0.000
1644895971873615104,2022-02-15-03:32:51,10.1.1.5,26,-0.020,-0.020,-0.020,0.000,0.000,0.000
1644895971934045184,2022-02-15-03:32:51,10.1.1.5,34,-0.010,-0.010,-0.010,0.000,0.000,0.000
1644895971975518976,2022-02-15-03:32:51,10.1.1.5,24,0.000,0.000,0.000,0.000,0.000,0.000
