FedericoMungari/DigitalTwin_service/01_WiredScenario/Output/Output_script/script_ROSAPI_output_robots12_freq0_6.txt.csv
timestamp,node,latency,joint_1,joint_2,joint_3,joint_4,joint_5,joint_6
1640078367420130048,"2021-12-21,09:19:27",10.1.1.7,57090,0.000,0.000,0.000,0.000,0.000,0.000
1640078369876414976,"2021-12-21,09:19:29",10.1.1.7,934,-0.010,-0.010,-0.010,0.000,0.000,0.000
1640078369907603968,"2021-12-21,09:19:29",10.1.1.7,0.9637949466705322,-0.010,-0.010,-0.010,0.000,0.000,0.000
1640078370310929152,"2021-12-21,09:19:30",10.1.1.7,400,-0.020,-0.020,-0.020,0.000,0.000,0.000
1640078370356786944,"2021-12-21,09:19:30",10.1.1.7,0.44614410400390625,-0.020,-0.020,-0.020,0.000,0.000,0.000
1640078370723897856,"2021-12-21,09:19:30",10.1.1.7,363,-0.030,-0.030,-0.030,0.000,0.000,0.000
1640078370783934208,"2021-12-21,09:19:30",10.1.1.7,0.4233250617980957,-0.030,-0.030,-0.030,0.000,0.000,0.000
1640078371438227968,"2021-12-21,09:19:31",10.1.1.7,607,-0.040,-0.040,-0.040,0.000,0.000,0.000
1640078371474505984,"2021-12-21,09:19:31",10.1.1.7,0.6415340900421143,-0.040,-0.040,-0.040,0.000,0.000,0.000
1640078371921238016,"2021-12-21,09:19:31",10.1.1.7,437,-0.050,-0.050,-0.050,0.000,0.000,0.000
1640078371953437184,"2021-12-21,09:19:31",10.1.1.7,0.4698610305786133,-0.050,-0.050,-0.050,0.000,0.000,0.000
1640078372445280000,"2021-12-21,09:19:32",10.1.1.7,490,-0.060,-0.060,-0.060,0.000,0.000,0.000
1640078372480829952,"2021-12-21,09:19:32",10.1.1.7,0.5257549285888672,-0.060,-0.060,-0.060,0.000,0.000,0.000
1640078372949632000,"2021-12-21,09:19:32",10.1.1.7,0.4618849754333496,-0.070,-0.070,-0.070,0.000,0.000,0.000
1640078374180752128,"2021-12-21,09:19:34",10.1.1.7,1.1056640148162842,-0.080,-0.080,-0.080,0.000,0.000,0.000
1640078375961609984,"2021-12-21,09:19:35",10.1.1.7,1125,-0.090,-0.090,-0.090,0.000,0.000,0.000
1640078376437465856,"2021-12-21,09:19:36",10.1.1.7,2.000734806060791,-0.090,-0.090,-0.090,0.000,0.000,0.000
1640078380749308160,"2021-12-21,09:19:39",10.1.1.7,1775,-0.100,-0.100,-0.100,0.000,0.000,0.000
1640078380813220096,"2021-12-21,09:19:40",10.1.1.7,2.9595251083374023,-0.100,-0.100,-0.100,0.000,0.000,0.000
1640078381262525184,"2021-12-21,09:19:41",10.1.1.7,440,-0.110,-0.110,-0.110,0.000,0.000,0.000
1640078381283813120,"2021-12-21,09:19:41",10.1.1.7,0.461683988571167,-0.110,-0.110,-0.110,0.000,0.000,0.000
1640078381751108864,"2021-12-21,09:19:41",10.1.1.7,0.4586610794067383,-0.120,-0.120,-0.120,0.000,0.000,0.000
1640078381752566016,"2021-12-21,09:19:41",10.1.1.7,451,-0.120,-0.120,-0.120,0.000,0.000,0.000
1640078382301899008,"2021-12-21,09:19:42",10.1.1.7,537,-0.130,-0.130,-0.130,0.000,0.000,0.000
1640078382334004992,"2021-12-21,09:19:42",10.1.1.7,0.5701310634613037,-0.130,-0.130,-0.130,0.000,0.000,0.000
1640078382718551040,"2021-12-21,09:19:42",10.1.1.7,378,-0.140,-0.140,-0.140,0.000,0.000,0.000
1640078382786695936,"2021-12-21,09:19:42",10.1.1.7,0.44473910331726074,-0.140,-0.140,-0.140,0.000,0.000,0.000
1640078383247016960,"2021-12-21,09:19:43",10.1.1.7,458,-0.150,-0.150,-0.150,0.000,0.000,0.000
1640078383264416000,"2021-12-21,09:19:43",10.1.1.7,0.47556400299072266,-0.150,-0.150,-0.150,0.000,0.000,0.000
1640078388075362816,"2021-12-21,09:19:48",10.1.1.7,4806,-0.160,-0.160,-0.160,0.000,0.000,0.000
1640078388117788160,"2021-12-21,09:19:48",10.1.1.7,4.849292039871216,-0.160,-0.160,-0.160,0.000,0.000,0.000
1640078388544035840,"2021-12-21,09:19:48",10.1.1.7,424,-0.170,-0.170,-0.170,0.000,0.000,0.000
1640078388605547008,"2021-12-21,09:19:48",10.1.1.7,0.4855940341949463,-0.170,-0.170,-0.170,0.000,0.000,0.000
1640078389108393984,"2021-12-21,09:19:49",10.1.1.7,436,-0.180,-0.180,-0.180,0.000,0.000,0.000
1640078389155915008,"2021-12-21,09:19:49",10.1.1.7,0.48754215240478516,-0.180,-0.180,-0.180,0.000,0.000,0.000
1640078389644589824,"2021-12-21,09:19:49",10.1.1.7,0.4867568016052246,-0.190,-0.190,-0.190,0.000,0.000,0.000
1640078389644943872,"2021-12-21,09:19:49",10.1.1.7,487,-0.190,-0.190,-0.190,0.000,0.000,0.000
1640078390103001088,"2021-12-21,09:19:50",10.1.1.7,444,-0.200,-0.200,-0.200,0.000,0.000,0.000
1640078390130859008,"2021-12-21,09:19:50",10.1.1.7,0.4728729724884033,-0.200,-0.200,-0.200,0.000,0.000,0.000
1640078390518928896,"2021-12-21,09:19:50",10.1.1.7,383,-0.210,-0.210,-0.210,0.000,0.000,0.000
1640078390577861120,"2021-12-21,09:19:50",10.1.1.7,0.44289207458496094,-0.210,-0.210,-0.210,0.000,0.000,0.000
1640078391042637056,"2021-12-21,09:19:51",10.1.1.7,462,-0.220,-0.220,-0.220,0.000,0.000,0.000
1640078391049732096,"2021-12-21,09:19:51",10.1.1.7,0.4695301055908203,-0.220,-0.220,-0.220,0.000,0.000,0.000
1640078391364753920,"2021-12-21,09:19:51",10.1.1.7,310,-0.230,-0.230,-0.230,0.000,0.000,0.000
1640078391420231936,"2021-12-21,09:19:51",10.1.1.7,0.3645188808441162,-0.230,-0.230,-0.230,0.000,0.000,0.000
1640078392002413056,"2021-12-21,09:19:52",10.1.1.7,577,-0.240,-0.240,-0.240,0.000,0.000,0.000
1640078392023441920,"2021-12-21,09:19:52",10.1.1.7,0.5986449718475342,-0.240,-0.240,-0.240,0.000,0.000,0.000
1640078392400878848,"2021-12-21,09:19:52",10.1.1.7,374,-0.250,-0.250,-0.250,0.000,0.000,0.000
1640078392414244864,"2021-12-21,09:19:52",10.1.1.7,0.38828182220458984,-0.250,-0.250,-0.250,0.000,0.000,0.000
1640078392782185984,"2021-12-21,09:19:52",10.1.1.7,365,-0.260,-0.260,-0.260,0.000,0.000,0.000
1640078392822083072,"2021-12-21,09:19:52",10.1.1.7,0.4055318832397461,-0.260,-0.260,-0.260,0.000,0.000,0.000
1640078393206678016,"2021-12-21,09:19:53",10.1.1.7,382,-0.270,-0.270,-0.270,0.000,0.000,0.000
1640078393266051072,"2021-12-21,09:19:53",10.1.1.7,0.44225597381591797,-0.270,-0.270,-0.270,0.000,0.000,0.000
1640078393630162944,"2021-12-21,09:19:53",10.1.1.7,360,-0.280,-0.280,-0.280,0.000,0.000,0.000
1640078393671240192,"2021-12-21,09:19:53",10.1.1.7,0.4019899368286133,-0.280,-0.280,-0.280,0.000,0.000,0.000
1640078393997988864,"2021-12-21,09:19:53",10.1.1.7,325,-0.290,-0.290,-0.290,0.000,0.000,0.000
1640078394010124800,"2021-12-21,09:19:54",10.1.1.7,0.33746790885925293,-0.290,-0.290,-0.290,0.000,0.000,0.000
1640078394340333824,"2021-12-21,09:19:54",10.1.1.7,328,-0.300,-0.300,-0.300,0.000,0.000,0.000
1640078394385519104,"2021-12-21,09:19:54",10.1.1.7,0.3738369941711426,-0.300,-0.300,-0.300,0.000,0.000,0.000
1640078394768750848,"2021-12-21,09:19:54",10.1.1.7,381,-0.310,-0.310,-0.310,0.000,0.000,0.000
1640078394788278016,"2021-12-21,09:19:54",10.1.1.7,0.40105390548706055,-0.310,-0.310,-0.310,0.000,0.000,0.000
1640078395237232896,"2021-12-21,09:19:55",10.1.1.7,447,-0.320,-0.320,-0.320,0.000,0.000,0.000
1640078395311773184,"2021-12-21,09:19:55",10.1.1.7,0.5074188709259033,-0.320,-0.320,-0.320,0.000,0.000,0.000
1640078395657545216,"2021-12-21,09:19:55",10.1.1.7,342,-0.330,-0.330,-0.330,0.000,0.000,0.000
1640078395706893056,"2021-12-21,09:19:55",10.1.1.7,0.3922100067138672,-0.330,-0.330,-0.330,0.000,0.000,0.000
1640078396165004032,"2021-12-21,09:19:56",10.1.1.7,454,-0.340,-0.340,-0.340,0.000,0.000,0.000
1640078396247869952,"2021-12-21,09:19:56",10.1.1.7,0.5371358394622803,-0.340,-0.340,-0.340,0.000,0.000,0.000
1640078396626385920,"2021-12-21,09:19:56",10.1.1.7,376,-0.350,-0.350,-0.350,0.000,0.000,0.000
1640078396664422144,"2021-12-21,09:19:56",10.1.1.7,0.41466403007507324,-0.350,-0.350,-0.350,0.000,0.000,0.000
1640078397061809152,"2021-12-21,09:19:57",10.1.1.7,0.39498186111450195,-0.360,-0.360,-0.360,0.000,0.000,0.000
1640078397525543936,"2021-12-21,09:19:57",10.1.1.7,458,-0.370,-0.370,-0.370,0.000,0.000,0.000
1640078397537592832,"2021-12-21,09:19:57",10.1.1.7,0.4709320068359375,-0.370,-0.370,-0.370,0.000,0.000,0.000
1640078397923027968,"2021-12-21,09:19:57",10.1.1.7,376,-0.380,-0.380,-0.380,0.000,0.000,0.000
1640078397965977856,"2021-12-21,09:19:57",10.1.1.7,0.41956210136413574,-0.380,-0.380,-0.380,0.000,0.000,0.000
1640078398310332928,"2021-12-21,09:19:58",10.1.1.7,338,-0.390,-0.390,-0.390,0.000,0.000,0.000
1640078398380024832,"2021-12-21,09:19:58",10.1.1.7,0.41284799575805664,-0.390,-0.390,-0.390,0.000,0.000,0.000
1640078398754545920,"2021-12-21,09:19:58",10.1.1.7,372,-0.400,-0.400,-0.400,0.000,0.000,0.000
1640078398808284160,"2021-12-21,09:19:58",10.1.1.7,0.42607784271240234,-0.400,-0.400,-0.400,0.000,0.000,0.000
1640078399152230144,"2021-12-21,09:19:59",10.1.1.7,342,-0.410,-0.410,-0.410,0.000,0.000,0.000
1640078399219341056,"2021-12-21,09:19:59",10.1.1.7,0.4084920883178711,-0.410,-0.410,-0.410,0.000,0.000,0.000
1640078399553494016,"2021-12-21,09:19:59",10.1.1.7,329,-0.420,-0.420,-0.420,0.000,0.000,0.000
1640078399587800064,"2021-12-21,09:19:59",10.1.1.7,0.36371803283691406,-0.420,-0.420,-0.420,0.000,0.000,0.000
1640078400048873984,"2021-12-21,09:20:00",10.1.1.7,0.4417428970336914,-0.430,-0.430,-0.430,0.000,0.000,0.000
1640078400049277952,"2021-12-21,09:20:00",10.1.1.7,442,-0.430,-0.430,-0.430,0.000,0.000,0.000
1640078401240946176,"2021-12-21,09:20:00",10.1.1.7,0.5156340599060059,-0.440,-0.440,-0.440,0.000,0.000,0.000
1640078401248836096,"2021-12-21,09:20:01",10.1.1.7,1185,-0.440,-0.440,-0.440,0.000,0.000,0.000
1640078401328728064,"2021-12-21,09:20:01",10.1.1.7,-3,-0.450,-0.450,-0.450,0.000,0.000,0.000
1640078401982027008,"2021-12-21,09:20:01",10.1.1.7,0.6717329025268555,-0.450,-0.450,-0.450,0.000,0.000,0.000
1640078402336509952,"2021-12-21,09:20:02",10.1.1.7,345,-0.460,-0.460,-0.460,0.000,0.000,0.000
1640078402344921088,"2021-12-21,09:20:02",10.1.1.7,0.35418009757995605,-0.460,-0.460,-0.460,0.000,0.000,0.000
1640078402695591936,"2021-12-21,09:20:02",10.1.1.7,349,-0.470,-0.470,-0.470,0.000,0.000,0.000
1640078402768482048,"2021-12-21,09:20:02",10.1.1.7,0.4221000671386719,-0.470,-0.470,-0.470,0.000,0.000,0.000
1640078403136279040,"2021-12-21,09:20:03",10.1.1.7,366,-0.480,-0.480,-0.480,0.000,0.000,0.000
1640078403142608896,"2021-12-21,09:20:03",10.1.1.7,0.3724641799926758,-0.480,-0.480,-0.480,0.000,0.000,0.000
1640078403648706816,"2021-12-21,09:20:03",10.1.1.7,0.4852120876312256,-0.490,-0.490,-0.490,0.000,0.000,0.000
1640078403649017088,"2021-12-21,09:20:03",10.1.1.7,485,-0.490,-0.490,-0.490,0.000,0.000,0.000
1640078404287312128,"2021-12-21,09:20:04",10.1.1.7,625,-0.480,-0.480,-0.480,0.000,0.000,0.000
1640078404310136064,"2021-12-21,09:20:04",10.1.1.7,0.6494250297546387,-0.480,-0.480,-0.480,0.000,0.000,0.000
1640078404819511040,"2021-12-21,09:20:04",10.1.1.7,507,-0.470,-0.470,-0.470,0.000,0.000,0.000
1640078404850819072,"2021-12-21,09:20:04",10.1.1.7,0.5393760204315186,-0.470,-0.470,-0.470,0.000,0.000,0.000
1640078405267995136,"2021-12-21,09:20:05",10.1.1.7,385,-0.460,-0.460,-0.460,0.000,0.000,0.000
1640078405316976128,"2021-12-21,09:20:05",10.1.1.7,0.434661865234375,-0.460,-0.460,-0.460,0.000,0.000,0.000
1640078405687275776,"2021-12-21,09:20:05",10.1.1.7,366,-0.450,-0.450,-0.450,0.000,0.000,0.000
1640078405745920000,"2021-12-21,09:20:05",10.1.1.7,0.4254469871520996,-0.450,-0.450,-0.450,0.000,0.000,0.000
1640078406098040064,"2021-12-21,09:20:06",10.1.1.7,350,-0.440,-0.440,-0.440,0.000,0.000,0.000
1640078406123918080,"2021-12-21,09:20:06",10.1.1.7,0.3732130527496338,-0.440,-0.440,-0.440,0.000,0.000,0.000
1640078406492801792,"2021-12-21,09:20:06",10.1.1.7,366,-0.430,-0.430,-0.430,0.000,0.000,0.000
1640078406533367040,"2021-12-21,09:20:06",10.1.1.7,0.4052760601043701,-0.430,-0.430,-0.430,0.000,0.000,0.000
1640078406967695872,"2021-12-21,09:20:06",10.1.1.7,429,-0.420,-0.420,-0.420,0.000,0.000,0.000
1640078407010878208,"2021-12-21,09:20:07",10.1.1.7,0.4735889434814453,-0.420,-0.420,-0.420,0.000,0.000,0.000
1640078407348249856,"2021-12-21,09:20:07",10.1.1.7,334,-0.410,-0.410,-0.410,0.000,0.000,0.000
1640078407439692032,"2021-12-21,09:20:07",10.1.1.7,0.42643213272094727,-0.410,-0.410,-0.410,0.000,0.000,0.000
1640078407881036032,"2021-12-21,09:20:07",10.1.1.7,437,-0.400,-0.400,-0.400,0.000,0.000,0.000
1640078407931819008,"2021-12-21,09:20:07",10.1.1.7,0.48822593688964844,-0.400,-0.400,-0.400,0.000,0.000,0.000
1640078408340866048,"2021-12-21,09:20:08",10.1.1.7,407,-0.390,-0.390,-0.390,0.000,0.000,0.000
1640078408371707904,"2021-12-21,09:20:08",10.1.1.7,0.4382150173187256,-0.390,-0.390,-0.390,0.000,0.000,0.000
1640078408798245888,"2021-12-21,09:20:08",10.1.1.7,424,-0.380,-0.380,-0.380,0.000,0.000,0.000
1640078408841820928,"2021-12-21,09:20:08",10.1.1.7,0.4675719738006592,-0.380,-0.380,-0.380,0.000,0.000,0.000
1640078409310772992,"2021-12-21,09:20:09",10.1.1.7,466,-0.370,-0.370,-0.370,0.000,0.000,0.000
1640078409351944960,"2021-12-21,09:20:09",10.1.1.7,0.5082747936248779,-0.370,-0.370,-0.370,0.000,0.000,0.000
1640078409788342016,"2021-12-21,09:20:09",10.1.1.7,430,-0.360,-0.360,-0.360,0.000,0.000,0.000
1640078409829711872,"2021-12-21,09:20:09",10.1.1.7,0.4718451499938965,-0.360,-0.360,-0.360,0.000,0.000,0.000
1640078410197712896,"2021-12-21,09:20:10",10.1.1.7,366,-0.350,-0.350,-0.350,0.000,0.000,0.000
1640078410255064064,"2021-12-21,09:20:10",10.1.1.7,0.42365097999572754,-0.350,-0.350,-0.350,0.000,0.000,0.000
1640078410602323968,"2021-12-21,09:20:10",10.1.1.7,336,-0.340,-0.340,-0.340,0.000,0.000,0.000
1640078410649202944,"2021-12-21,09:20:10",10.1.1.7,0.3837721347808838,-0.340,-0.340,-0.340,0.000,0.000,0.000
1640078411078748928,"2021-12-21,09:20:11",10.1.1.7,410,-0.330,-0.330,-0.330,0.000,0.000,0.000
1640078411079440128,"2021-12-21,09:20:11",10.1.1.7,0.41173601150512695,-0.330,-0.330,-0.330,0.000,0.000,0.000
1640078411566595072,"2021-12-21,09:20:11",10.1.1.7,484,-0.320,-0.320,-0.320,0.000,0.000,0.000
1640078411622904064,"2021-12-21,09:20:11",10.1.1.7,0.5406198501586914,-0.320,-0.320,-0.320,0.000,0.000,0.000
1640078411986267136,"2021-12-21,09:20:11",10.1.1.7,355,-0.310,-0.310,-0.310,0.000,0.000,0.000
1640078412079906816,"2021-12-21,09:20:12",10.1.1.7,0.4553840160369873,-0.310,-0.310,-0.310,0.000,0.000,0.000
1640078412502168064,"2021-12-21,09:20:12",10.1.1.7,410,-0.300,-0.300,-0.300,0.000,0.000,0.000
1640078412532190208,"2021-12-21,09:20:12",10.1.1.7,0.4421091079711914,-0.300,-0.300,-0.300,0.000,0.000,0.000
1640078412946981888,"2021-12-21,09:20:12",10.1.1.7,411,-0.290,-0.290,-0.290,0.000,0.000,0.000
1640078412968975104,"2021-12-21,09:20:12",10.1.1.7,0.43364906311035156,-0.290,-0.290,-0.290,0.000,0.000,0.000
1640078413311847936,"2021-12-21,09:20:13",10.1.1.7,340,-0.280,-0.280,-0.280,0.000,0.000,0.000
1640078413328399872,"2021-12-21,09:20:13",10.1.1.7,0.35756611824035645,-0.280,-0.280,-0.280,0.000,0.000,0.000
1640078413667982080,"2021-12-21,09:20:13",10.1.1.7,336,-0.270,-0.270,-0.270,0.000,0.000,0.000
1640078413702667008,"2021-12-21,09:20:13",10.1.1.7,0.37268495559692383,-0.270,-0.270,-0.270,0.000,0.000,0.000
1640078414057825024,"2021-12-21,09:20:14",10.1.1.7,353,-0.260,-0.260,-0.260,0.000,0.000,0.000
1640078414061083136,"2021-12-21,09:20:14",10.1.1.7,0.356950044631958,-0.260,-0.260,-0.260,0.000,0.000,0.000
1640078414450074880,"2021-12-21,09:20:14",10.1.1.7,383,-0.250,-0.250,-0.250,0.000,0.000,0.000
1640078414510166784,"2021-12-21,09:20:14",10.1.1.7,0.4440348148345947,-0.250,-0.250,-0.250,0.000,0.000,0.000
1640078415014051840,"2021-12-21,09:20:15",10.1.1.7,487,-0.240,-0.240,-0.240,0.000,0.000,0.000
1640078415046084864,"2021-12-21,09:20:15",10.1.1.7,0.5198678970336914,-0.240,-0.240,-0.240,0.000,0.000,0.000
1640078415452274176,"2021-12-21,09:20:15",10.1.1.7,404,-0.230,-0.230,-0.230,0.000,0.000,0.000
1640078415509135872,"2021-12-21,09:20:15",10.1.1.7,0.4598851203918457,-0.230,-0.230,-0.230,0.000,0.000,0.000
1640078415989849088,"2021-12-21,09:20:15",10.1.1.7,470,-0.220,-0.220,-0.220,0.000,0.000,0.000
1640078416064626944,"2021-12-21,09:20:16",10.1.1.7,0.5454480648040771,-0.220,-0.220,-0.220,0.000,0.000,0.000
1640078416514437888,"2021-12-21,09:20:16",10.1.1.7,448,-0.210,-0.210,-0.210,0.000,0.000,0.000
1640078416598983168,"2021-12-21,09:20:16",10.1.1.7,0.5331220626831055,-0.210,-0.210,-0.210,0.000,0.000,0.000
1640078417019289856,"2021-12-21,09:20:17",10.1.1.7,410,-0.200,-0.200,-0.200,0.000,0.000,0.000
1640078417053406976,"2021-12-21,09:20:17",10.1.1.7,0.4471888542175293,-0.200,-0.200,-0.200,0.000,0.000,0.000
1640078417428738048,"2021-12-21,09:20:17",10.1.1.7,365,-0.190,-0.190,-0.190,0.000,0.000,0.000
1640078417467736064,"2021-12-21,09:20:17",10.1.1.7,0.41254115104675293,-0.190,-0.190,-0.190,0.000,0.000,0.000
1640078417884481024,"2021-12-21,09:20:17",10.1.1.7,415,-0.180,-0.180,-0.180,0.000,0.000,0.000
1640078417942457856,"2021-12-21,09:20:17",10.1.1.7,0.4734790325164795,-0.180,-0.180,-0.180,0.000,0.000,0.000
1640078418378656000,"2021-12-21,09:20:18",10.1.1.7,429,-0.170,-0.170,-0.170,0.000,0.000,0.000
1640078418430830848,"2021-12-21,09:20:18",10.1.1.7,0.48148298263549805,-0.170,-0.170,-0.170,0.000,0.000,0.000
1640078419044274944,"2021-12-21,09:20:19",10.1.1.7,525,-0.160,-0.160,-0.160,0.000,0.000,0.000
1640078419095109888,"2021-12-21,09:20:19",10.1.1.7,0.5769150257110596,-0.160,-0.160,-0.160,0.000,0.000,0.000
1640078419583395072,"2021-12-21,09:20:19",10.1.1.7,476,-0.150,-0.150,-0.150,0.000,0.000,0.000
1640078419595740928,"2021-12-21,09:20:19",10.1.1.7,0.4884939193725586,-0.150,-0.150,-0.150,0.000,0.000,0.000
1640078420051877120,"2021-12-21,09:20:20",10.1.1.7,454,-0.140,-0.140,-0.140,0.000,0.000,0.000
1640078420097636096,"2021-12-21,09:20:20",10.1.1.7,0.5002357959747314,-0.140,-0.140,-0.140,0.000,0.000,0.000
1640078420570905856,"2021-12-21,09:20:20",10.1.1.7,471,-0.130,-0.130,-0.130,0.000,0.000,0.000
1640078420667650816,"2021-12-21,09:20:20",10.1.1.7,0.5682330131530762,-0.130,-0.130,-0.130,0.000,0.000,0.000
1640078421632828928,"2021-12-21,09:20:21",10.1.1.7,0.8425719738006592,-0.120,-0.120,-0.120,0.000,0.000,0.000
1640078435021814016,"2021-12-21,09:20:33",10.1.1.7,12229,-0.110,-0.110,-0.110,0.000,0.000,0.000
1640078435060199936,"2021-12-21,09:20:35",10.1.1.7,13.40459394454956,-0.110,-0.110,-0.110,0.000,0.000,0.000
1640078435432697088,"2021-12-21,09:20:35",10.1.1.7,367,-0.100,-0.100,-0.100,0.000,0.000,0.000
1640078435440365056,"2021-12-21,09:20:35",10.1.1.7,0.3746919631958008,-0.100,-0.100,-0.100,0.000,0.000,0.000
1640078435753082112,"2021-12-21,09:20:35",10.1.1.7,310,-0.090,-0.090,-0.090,0.000,0.000,0.000
1640078435802840832,"2021-12-21,09:20:35",10.1.1.7,0.3606250286102295,-0.090,-0.090,-0.090,0.000,0.000,0.000
1640078436143922944,"2021-12-21,09:20:36",10.1.1.7,337,-0.080,-0.080,-0.080,0.000,0.000,0.000
1640078436144429824,"2021-12-21,09:20:36",10.1.1.7,0.3378481864929199,-0.080,-0.080,-0.080,0.000,0.000,0.000
1640078436483773952,"2021-12-21,09:20:36",10.1.1.7,337,-0.070,-0.070,-0.070,0.000,0.000,0.000
1640078436494888192,"2021-12-21,09:20:36",10.1.1.7,0.34915900230407715,-0.070,-0.070,-0.070,0.000,0.000,0.000
1640078436792521984,"2021-12-21,09:20:36",10.1.1.7,296,-0.060,-0.060,-0.060,0.000,0.000,0.000
1640078436832380160,"2021-12-21,09:20:36",10.1.1.7,0.33594512939453125,-0.060,-0.060,-0.060,0.000,0.000,0.000
1640078437192097024,"2021-12-21,09:20:37",10.1.1.7,356,-0.050,-0.050,-0.050,0.000,0.000,0.000
1640078437234016000,"2021-12-21,09:20:37",10.1.1.7,0.39878082275390625,-0.050,-0.050,-0.050,0.000,0.000,0.000
1640078437527145984,"2021-12-21,09:20:37",10.1.1.7,291,-0.040,-0.040,-0.040,0.000,0.000,0.000
1640078437555020032,"2021-12-21,09:20:37",10.1.1.7,0.31967616081237793,-0.040,-0.040,-0.040,0.000,0.000,0.000
1640078437869339904,"2021-12-21,09:20:37",10.1.1.7,304,-0.030,-0.030,-0.030,0.000,0.000,0.000
1640078437897233920,"2021-12-21,09:20:37",10.1.1.7,0.3321411609649658,-0.030,-0.030,-0.030,0.000,0.000,0.000
1640078438199467776,"2021-12-21,09:20:38",10.1.1.7,300,-0.020,-0.020,-0.020,0.000,0.000,0.000
1640078438248399872,"2021-12-21,09:20:38",10.1.1.7,0.3494710922241211,-0.020,-0.020,-0.020,0.000,0.000,0.000
1640078438578779904,"2021-12-21,09:20:38",10.1.1.7,329,-0.010,-0.010,-0.010,0.000,0.000,0.000
1640078438592265984,"2021-12-21,09:20:38",10.1.1.7,0.3426392078399658,-0.010,-0.010,-0.010,0.000,0.000,0.000
1640078439666807808,"2021-12-21,09:20:39",10.1.1.7,1072,0.000,0.000,0.000,0.000,0.000,0.000
1640078439699707136,"2021-12-21,09:20:39",10.1.1.7,1.1056430339813232,0.000,0.000,0.000,0.000,0.000,0.000
1640078440026375168,"2021-12-21,09:20:40",10.1.1.7,319,-0.010,-0.010,-0.010,0.000,0.000,0.000
1640078440067698944,"2021-12-21,09:20:40",10.1.1.7,0.36115002632141113,-0.010,-0.010,-0.010,0.000,0.000,0.000
1640078440405844992,"2021-12-21,09:20:40",10.1.1.7,336,-0.020,-0.020,-0.020,0.000,0.000,0.000
1640078440425364992,"2021-12-21,09:20:40",10.1.1.7,0.35508298873901367,-0.020,-0.020,-0.020,0.000,0.000,0.000
1640078440765979904,"2021-12-21,09:20:40",10.1.1.7,338,-0.030,-0.030,-0.030,0.000,0.000,0.000
1640078440788935936,"2021-12-21,09:20:40",10.1.1.7,0.36193299293518066,-0.030,-0.030,-0.030,0.000,0.000,0.000
1640078441124787968,"2021-12-21,09:20:41",10.1.1.7,332,-0.040,-0.040,-0.040,0.000,0.000,0.000
1640078441179080960,"2021-12-21,09:20:41",10.1.1.7,0.3871500492095947,-0.040,-0.040,-0.040,0.000,0.000,0.000
1640078441524025856,"2021-12-21,09:20:41",10.1.1.7,343,-0.050,-0.050,-0.050,0.000,0.000,0.000
1640078441577238016,"2021-12-21,09:20:41",10.1.1.7,0.39681100845336914,-0.050,-0.050,-0.050,0.000,0.000,0.000
1640078441896558080,"2021-12-21,09:20:41",10.1.1.7,317,-0.060,-0.060,-0.060,0.000,0.000,0.000
1640078441935700992,"2021-12-21,09:20:41",10.1.1.7,0.3562161922454834,-0.060,-0.060,-0.060,0.000,0.000,0.000
1640078442283372032,"2021-12-21,09:20:42",10.1.1.7,337,-0.070,-0.070,-0.070,0.000,0.000,0.000
1640078442368791040,"2021-12-21,09:20:42",10.1.1.7,0.4228520393371582,-0.070,-0.070,-0.070,0.000,0.000,0.000
1640078442723397120,"2021-12-21,09:20:42",10.1.1.7,353,-0.080,-0.080,-0.080,0.000,0.000,0.000
1640078442745740032,"2021-12-21,09:20:42",10.1.1.7,0.3754251003265381,-0.080,-0.080,-0.080,0.000,0.000,0.000
1640078443101479936,"2021-12-21,09:20:43",10.1.1.7,354,-0.090,-0.090,-0.090,0.000,0.000,0.000
1640078443134892032,"2021-12-21,09:20:43",10.1.1.7,0.3875401020050049,-0.090,-0.090,-0.090,0.000,0.000,0.000
1640078443514609152,"2021-12-21,09:20:43",10.1.1.7,372,-0.100,-0.100,-0.100,0.000,0.000,0.000
1640078443548573952,"2021-12-21,09:20:43",10.1.1.7,0.4032769203186035,-0.100,-0.100,-0.100,0.000,0.000,0.000
1640078443884560128,"2021-12-21,09:20:43",10.1.1.7,319,-0.110,-0.110,-0.110,0.000,0.000,0.000
1640078443945466880,"2021-12-21,09:20:43",10.1.1.7,0.38997483253479004,-0.110,-0.110,-0.110,0.000,0.000,0.000
1640078444402217984,"2021-12-21,09:20:44",10.1.1.7,445,-0.120,-0.120,-0.120,0.000,0.000,0.000
1640078444416083968,"2021-12-21,09:20:44",10.1.1.7,0.4598109722137451,-0.120,-0.120,-0.120,0.000,0.000,0.000
1640078444773844992,"2021-12-21,09:20:44",10.1.1.7,355,-0.130,-0.130,-0.130,0.000,0.000,0.000
1640078444818856960,"2021-12-21,09:20:44",10.1.1.7,0.4008371829986572,-0.130,-0.130,-0.130,0.000,0.000,0.000
1640078445229754880,"2021-12-21,09:20:45",10.1.1.7,397,-0.140,-0.140,-0.140,0.000,0.000,0.000
1640078445301875200,"2021-12-21,09:20:45",10.1.1.7,0.4699208736419678,-0.140,-0.140,-0.140,0.000,0.000,0.000
1640078445717494016,"2021-12-21,09:20:45",10.1.1.7,413,-0.150,-0.150,-0.150,0.000,0.000,0.000
1640078445785048064,"2021-12-21,09:20:45",10.1.1.7,0.48090600967407227,-0.150,-0.150,-0.150,0.000,0.000,0.000
1640078446177622016,"2021-12-21,09:20:46",10.1.1.7,390,-0.160,-0.160,-0.160,0.000,0.000,0.000
1640078446210326016,"2021-12-21,09:20:46",10.1.1.7,0.4218320846557617,-0.160,-0.160,-0.160,0.000,0.000,0.000
1640078446580389888,"2021-12-21,09:20:46",10.1.1.7,368,-0.170,-0.170,-0.170,0.000,0.000,0.000
1640078446669698048,"2021-12-21,09:20:46",10.1.1.7,0.4526839256286621,-0.170,-0.170,-0.170,0.000,0.000,0.000
1640078447885127168,"2021-12-21,09:20:47",10.1.1.7,1213,-0.180,-0.180,-0.180,0.000,0.000,0.000
1640078447944953856,"2021-12-21,09:20:47",10.1.1.7,1.2738380432128906,-0.180,-0.180,-0.180,0.000,0.000,0.000
1640078448294408192,"2021-12-21,09:20:48",10.1.1.7,345,-0.190,-0.190,-0.190,0.000,0.000,0.000
1640078448405164032,"2021-12-21,09:20:48",10.1.1.7,0.45617103576660156,-0.190,-0.190,-0.190,0.000,0.000,0.000
1640078448807055872,"2021-12-21,09:20:48",10.1.1.7,365,-0.200,-0.200,-0.200,0.000,0.000,0.000
1640078448813978880,"2021-12-21,09:20:48",10.1.1.7,0.4067411422729492,-0.200,-0.200,-0.200,0.000,0.000,0.000
1640078449213458176,"2021-12-21,09:20:49",10.1.1.7,397,-0.210,-0.210,-0.210,0.000,0.000,0.000
1640078449273714944,"2021-12-21,09:20:49",10.1.1.7,0.4576120376586914,-0.210,-0.210,-0.210,0.000,0.000,0.000
1640078449661379072,"2021-12-21,09:20:49",10.1.1.7,385,-0.220,-0.220,-0.220,0.000,0.000,0.000
1640078449708573184,"2021-12-21,09:20:49",10.1.1.7,0.4328179359436035,-0.220,-0.220,-0.220,0.000,0.000,0.000
1640078450100171008,"2021-12-21,09:20:50",10.1.1.7,386,-0.230,-0.230,-0.230,0.000,0.000,0.000
1640078450148006912,"2021-12-21,09:20:50",10.1.1.7,0.4345371723175049,-0.230,-0.230,-0.230,0.000,0.000,0.000
1640078450600609024,"2021-12-21,09:20:50",10.1.1.7,444,-0.240,-0.240,-0.240,0.000,0.000,0.000
1640078450681436160,"2021-12-21,09:20:50",10.1.1.7,0.5252609252929688,-0.240,-0.240,-0.240,0.000,0.000,0.000
1640078451059060224,"2021-12-21,09:20:51",10.1.1.7,366,-0.250,-0.250,-0.250,0.000,0.000,0.000
1640078451103798016,"2021-12-21,09:20:51",10.1.1.7,0.4114229679107666,-0.250,-0.250,-0.250,0.000,0.000,0.000
1640078451498223104,"2021-12-21,09:20:51",10.1.1.7,392,-0.260,-0.260,-0.260,0.000,0.000,0.000
1640078451544681984,"2021-12-21,09:20:51",10.1.1.7,0.43880486488342285,-0.260,-0.260,-0.260,0.000,0.000,0.000
1640078451899202048,"2021-12-21,09:20:51",10.1.1.7,353,-0.270,-0.270,-0.270,0.000,0.000,0.000
1640078451933590784,"2021-12-21,09:20:51",10.1.1.7,0.38730692863464355,-0.270,-0.270,-0.270,0.000,0.000,0.000
1640078452312144128,"2021-12-21,09:20:52",10.1.1.7,377,-0.280,-0.280,-0.280,0.000,0.000,0.000
1640078452330486016,"2021-12-21,09:20:52",10.1.1.7,0.3954918384552002,-0.280,-0.280,-0.280,0.000,0.000,0.000
1640078452687931136,"2021-12-21,09:20:52",10.1.1.7,354,-0.290,-0.290,-0.290,0.000,0.000,0.000
1640078452722956800,"2021-12-21,09:20:52",10.1.1.7,0.3897700309753418,-0.290,-0.290,-0.290,0.000,0.000,0.000
1640078453060686080,"2021-12-21,09:20:53",10.1.1.7,336,-0.300,-0.300,-0.300,0.000,0.000,0.000
1640078453152105984,"2021-12-21,09:20:53",10.1.1.7,0.427868127822876,-0.300,-0.300,-0.300,0.000,0.000,0.000
1640078453586033152,"2021-12-21,09:20:53",10.1.1.7,428,-0.310,-0.310,-0.310,0.000,0.000,0.000
1640078453621926912,"2021-12-21,09:20:53",10.1.1.7,0.4649078845977783,-0.310,-0.310,-0.310,0.000,0.000,0.000
1640078454171771136,"2021-12-21,09:20:54",10.1.1.7,0.5419301986694336,-0.320,-0.320,-0.320,0.000,0.000,0.000
1640078454177547008,"2021-12-21,09:20:54",10.1.1.7,547,-0.320,-0.320,-0.320,0.000,0.000,0.000
1640078454275593984,"2021-12-21,09:20:54",10.1.1.7,-9,-0.330,-0.330,-0.330,0.000,0.000,0.000
1640078454743520000,"2021-12-21,09:20:54",10.1.1.7,0.5576338768005371,-0.330,-0.330,-0.330,0.000,0.000,0.000
1640078455083059968,"2021-12-21,09:20:55",10.1.1.7,338,-0.340,-0.340,-0.340,0.000,0.000,0.000
1640078455125569024,"2021-12-21,09:20:55",10.1.1.7,0.3807539939880371,-0.340,-0.340,-0.340,0.000,0.000,0.000
1640078455485614080,"2021-12-21,09:20:55",10.1.1.7,357,-0.350,-0.350,-0.350,0.000,0.000,0.000
1640078455549690880,"2021-12-21,09:20:55",10.1.1.7,0.42211198806762695,-0.350,-0.350,-0.350,0.000,0.000,0.000
1640078455871810048,"2021-12-21,09:20:55",10.1.1.7,318,-0.360,-0.360,-0.360,0.000,0.000,0.000
1640078455917990912,"2021-12-21,09:20:55",10.1.1.7,0.36460304260253906,-0.360,-0.360,-0.360,0.000,0.000,0.000
1640078456430093056,"2021-12-21,09:20:56",10.1.1.7,508,-0.370,-0.370,-0.370,0.000,0.000,0.000
1640078456471735040,"2021-12-21,09:20:56",10.1.1.7,0.5503730773925781,-0.370,-0.370,-0.370,0.000,0.000,0.000
1640078456829551104,"2021-12-21,09:20:56",10.1.1.7,355,-0.380,-0.380,-0.380,0.000,0.000,0.000
1640078456864343040,"2021-12-21,09:20:56",10.1.1.7,0.3907279968261719,-0.380,-0.380,-0.380,0.000,0.000,0.000
1640078457310324992,"2021-12-21,09:20:57",10.1.1.7,442,-0.390,-0.390,-0.390,0.000,0.000,0.000
1640078457343076864,"2021-12-21,09:20:57",10.1.1.7,0.4750518798828125,-0.390,-0.390,-0.390,0.000,0.000,0.000
1640078457704961024,"2021-12-21,09:20:57",10.1.1.7,360,-0.400,-0.400,-0.400,0.000,0.000,0.000
1640078457729413120,"2021-12-21,09:20:57",10.1.1.7,0.3845360279083252,-0.400,-0.400,-0.400,0.000,0.000,0.000
1640078458131267072,"2021-12-21,09:20:58",10.1.1.7,399,-0.410,-0.410,-0.410,0.000,0.000,0.000
1640078458178275072,"2021-12-21,09:20:58",10.1.1.7,0.4470820426940918,-0.410,-0.410,-0.410,0.000,0.000,0.000
1640078458536880128,"2021-12-21,09:20:58",10.1.1.7,355,-0.420,-0.420,-0.420,0.000,0.000,0.000
1640078458548657920,"2021-12-21,09:20:58",10.1.1.7,0.36754584312438965,-0.420,-0.420,-0.420,0.000,0.000,0.000
1640078459032860160,"2021-12-21,09:20:58",10.1.1.7,0.4463210105895996,-0.430,-0.430,-0.430,0.000,0.000,0.000
1640078459784653824,"2021-12-21,09:20:59",10.1.1.7,743,-0.440,-0.440,-0.440,0.000,0.000,0.000
1640078459818387968,"2021-12-21,09:20:59",10.1.1.7,0.7770211696624756,-0.440,-0.440,-0.440,0.000,0.000,0.000
1640078460206146048,"2021-12-21,09:21:00",10.1.1.7,385,-0.450,-0.450,-0.450,0.000,0.000,0.000
1640078460266243840,"2021-12-21,09:21:00",10.1.1.7,0.4413270950317383,-0.450,-0.450,-0.450,0.000,0.000,0.000
1640078460669591040,"2021-12-21,09:21:00",10.1.1.7,390,-0.460,-0.460,-0.460,0.000,0.000,0.000
1640078460726478080,"2021-12-21,09:21:00",10.1.1.7,0.45047616958618164,-0.460,-0.460,-0.460,0.000,0.000,0.000
1640078461133830144,"2021-12-21,09:21:01",10.1.1.7,402,-0.470,-0.470,-0.470,0.000,0.000,0.000
1640078461149840128,"2021-12-21,09:21:01",10.1.1.7,0.41884589195251465,-0.470,-0.470,-0.470,0.000,0.000,0.000
1640078461564582144,"2021-12-21,09:21:01",10.1.1.7,413,-0.480,-0.480,-0.480,0.000,0.000,0.000
1640078461590881024,"2021-12-21,09:21:01",10.1.1.7,0.4394049644470215,-0.480,-0.480,-0.480,0.000,0.000,0.000
1640078461968628992,"2021-12-21,09:21:01",10.1.1.7,376,-0.490,-0.490,-0.490,0.000,0.000,0.000
1640078461984301056,"2021-12-21,09:21:01",10.1.1.7,0.39197206497192383,-0.490,-0.490,-0.490,0.000,0.000,0.000
1640078462332057088,"2021-12-21,09:21:02",10.1.1.7,344,-0.480,-0.480,-0.480,0.000,0.000,0.000
1640078462394073856,"2021-12-21,09:21:02",10.1.1.7,0.4068419933319092,-0.480,-0.480,-0.480,0.000,0.000,0.000
1640078462754039040,"2021-12-21,09:21:02",10.1.1.7,356,-0.470,-0.470,-0.470,0.000,0.000,0.000
1640078462805547008,"2021-12-21,09:21:02",10.1.1.7,0.40764284133911133,-0.470,-0.470,-0.470,0.000,0.000,0.000
1640078463237255168,"2021-12-21,09:21:03",10.1.1.7,424,-0.460,-0.460,-0.460,0.000,0.000,0.000
1640078463265364992,"2021-12-21,09:21:03",10.1.1.7,0.453110933303833,-0.460,-0.460,-0.460,0.000,0.000,0.000
1640078463642713088,"2021-12-21,09:21:03",10.1.1.7,375,-0.450,-0.450,-0.450,0.000,0.000,0.000
1640078463700943104,"2021-12-21,09:21:03",10.1.1.7,0.4342379570007324,-0.450,-0.450,-0.450,0.000,0.000,0.000
1640078464133119232,"2021-12-21,09:21:04",10.1.1.7,430,-0.440,-0.440,-0.440,0.000,0.000,0.000
1640078464245929984,"2021-12-21,09:21:04",10.1.1.7,0.5432350635528564,-0.440,-0.440,-0.440,0.000,0.000,0.000
1640078464886548992,"2021-12-21,09:21:04",10.1.1.7,616,-0.430,-0.430,-0.430,0.000,0.000,0.000
1640078464930140928,"2021-12-21,09:21:04",10.1.1.7,0.6589901447296143,-0.430,-0.430,-0.430,0.000,0.000,0.000
1640078465334692096,"2021-12-21,09:21:05",10.1.1.7,396,-0.420,-0.420,-0.420,0.000,0.000,0.000
1640078465395814912,"2021-12-21,09:21:05",10.1.1.7,0.45789504051208496,-0.420,-0.420,-0.420,0.000,0.000,0.000
1640078465847707904,"2021-12-21,09:21:05",10.1.1.7,444,-0.410,-0.410,-0.410,0.000,0.000,0.000
1640078465874263040,"2021-12-21,09:21:05",10.1.1.7,0.471235990524292,-0.410,-0.410,-0.410,0.000,0.000,0.000
1640078466229288960,"2021-12-21,09:21:06",10.1.1.7,353,-0.400,-0.400,-0.400,0.000,0.000,0.000
1640078466248437760,"2021-12-21,09:21:06",10.1.1.7,0.3725697994232178,-0.400,-0.400,-0.400,0.000,0.000,0.000
1640078466581938944,"2021-12-21,09:21:06",10.1.1.7,331,-0.390,-0.390,-0.390,0.000,0.000,0.000
1640078466597682944,"2021-12-21,09:21:06",10.1.1.7,0.3473050594329834,-0.390,-0.390,-0.390,0.000,0.000,0.000
1640078466934146816,"2021-12-21,09:21:06",10.1.1.7,0.3349909782409668,-0.380,-0.380,-0.380,0.000,0.000,0.000
1640078467254264064,"2021-12-21,09:21:07",10.1.1.7,314,-0.370,-0.370,-0.370,0.000,0.000,0.000
1640078467328484096,"2021-12-21,09:21:07",10.1.1.7,0.3888280391693115,-0.370,-0.370,-0.370,0.000,0.000,0.000
1640078467675659008,"2021-12-21,09:21:07",10.1.1.7,344,-0.360,-0.360,-0.360,0.000,0.000,0.000
1640078467713316864,"2021-12-21,09:21:07",10.1.1.7,0.3822629451751709,-0.360,-0.360,-0.360,0.000,0.000,0.000
1640078468161217024,"2021-12-21,09:21:08",10.1.1.7,440,-0.350,-0.350,-0.350,0.000,0.000,0.000
1640078468213721088,"2021-12-21,09:21:08",10.1.1.7,0.49283409118652344,-0.350,-0.350,-0.350,0.000,0.000,0.000
1640078468610213120,"2021-12-21,09:21:08",10.1.1.7,394,-0.340,-0.340,-0.340,0.000,0.000,0.000
1640078468672609024,"2021-12-21,09:21:08",10.1.1.7,0.4574398994445801,-0.340,-0.340,-0.340,0.000,0.000,0.000
1640078469084487936,"2021-12-21,09:21:09",10.1.1.7,409,-0.330,-0.330,-0.330,0.000,0.000,0.000
1640078469229207040,"2021-12-21,09:21:09",10.1.1.7,0.5539999008178711,-0.330,-0.330,-0.330,0.000,0.000,0.000
1640078470174823168,"2021-12-21,09:21:09",10.1.1.7,547,-0.320,-0.320,-0.320,0.000,0.000,0.000
1640078470179259136,"2021-12-21,09:21:10",10.1.1.7,0.9206030368804932,-0.320,-0.320,-0.320,0.000,0.000,0.000
1640078470772322048,"2021-12-21,09:21:10",10.1.1.7,588,-0.310,-0.310,-0.310,0.000,0.000,0.000
1640078470799822080,"2021-12-21,09:21:10",10.1.1.7,0.6163198947906494,-0.310,-0.310,-0.310,0.000,0.000,0.000
1640078471842405120,"2021-12-21,09:21:11",10.1.1.7,1040,-0.300,-0.300,-0.300,0.000,0.000,0.000
1640078471891715072,"2021-12-21,09:21:11",10.1.1.7,1.0900061130523682,-0.300,-0.300,-0.300,0.000,0.000,0.000
1640078472271059968,"2021-12-21,09:21:12",10.1.1.7,377,-0.290,-0.290,-0.290,0.000,0.000,0.000
1640078472340007168,"2021-12-21,09:21:12",10.1.1.7,0.44660496711730957,-0.290,-0.290,-0.290,0.000,0.000,0.000
1640078472715203072,"2021-12-21,09:21:12",10.1.1.7,372,-0.280,-0.280,-0.280,0.000,0.000,0.000
1640078472788048128,"2021-12-21,09:21:12",10.1.1.7,0.4450960159301758,-0.280,-0.280,-0.280,0.000,0.000,0.000
1640078473135156992,"2021-12-21,09:21:13",10.1.1.7,344,-0.270,-0.270,-0.270,0.000,0.000,0.000
1640078473183047168,"2021-12-21,09:21:13",10.1.1.7,0.39368510246276855,-0.270,-0.270,-0.270,0.000,0.000,0.000
1640078473574204928,"2021-12-21,09:21:13",10.1.1.7,389,-0.260,-0.260,-0.260,0.000,0.000,0.000
1640078473614150144,"2021-12-21,09:21:13",10.1.1.7,0.42943286895751953,-0.260,-0.260,-0.260,0.000,0.000,0.000
1640078473934663936,"2021-12-21,09:21:13",10.1.1.7,317,-0.250,-0.250,-0.250,0.000,0.000,0.000
1640078473986408960,"2021-12-21,09:21:13",10.1.1.7,0.3691730499267578,-0.250,-0.250,-0.250,0.000,0.000,0.000
1640078474324864000,"2021-12-21,09:21:14",10.1.1.7,334,-0.240,-0.240,-0.240,0.000,0.000,0.000
1640078474378977024,"2021-12-21,09:21:14",10.1.1.7,0.3882269859313965,-0.240,-0.240,-0.240,0.000,0.000,0.000
1640078474866699008,"2021-12-21,09:21:14",10.1.1.7,484,-0.230,-0.230,-0.230,0.000,0.000,0.000
1640078474969180160,"2021-12-21,09:21:14",10.1.1.7,0.5870010852813721,-0.230,-0.230,-0.230,0.000,0.000,0.000
1640078475574998016,"2021-12-21,09:21:15",10.1.1.7,602,-0.220,-0.220,-0.220,0.000,0.000,0.000
1640078475576349952,"2021-12-21,09:21:15",10.1.1.7,0.6039118766784668,-0.220,-0.220,-0.220,0.000,0.000,0.000
1640078475949636096,"2021-12-21,09:21:15",10.1.1.7,371,-0.210,-0.210,-0.210,0.000,0.000,0.000
1640078476031817984,"2021-12-21,09:21:16",10.1.1.7,0.45362401008605957,-0.210,-0.210,-0.210,0.000,0.000,0.000
1640078476389950976,"2021-12-21,09:21:16",10.1.1.7,356,-0.200,-0.200,-0.200,0.000,0.000,0.000
1640078476434547968,"2021-12-21,09:21:16",10.1.1.7,0.4012019634246826,-0.200,-0.200,-0.200,0.000,0.000,0.000
1640078476926856960,"2021-12-21,09:21:16",10.1.1.7,459,-0.190,-0.190,-0.190,0.000,0.000,0.000
1640078477013731840,"2021-12-21,09:21:17",10.1.1.7,0.5466079711914062,-0.190,-0.190,-0.190,0.000,0.000,0.000
1640078477412573952,"2021-12-21,09:21:17",10.1.1.7,396,-0.180,-0.180,-0.180,0.000,0.000,0.000
1640078477459171072,"2021-12-21,09:21:17",10.1.1.7,0.44337010383605957,-0.180,-0.180,-0.180,0.000,0.000,0.000
1640078477942151168,"2021-12-21,09:21:17",10.1.1.7,481,-0.170,-0.170,-0.170,0.000,0.000,0.000
1640078478052086016,"2021-12-21,09:21:18",10.1.1.7,0.5914430618286133,-0.170,-0.170,-0.170,0.000,0.000,0.000
1640078478408904192,"2021-12-21,09:21:18",10.1.1.7,354,-0.160,-0.160,-0.160,0.000,0.000,0.000
1640078478446661888,"2021-12-21,09:21:18",10.1.1.7,0.39279603958129883,-0.160,-0.160,-0.160,0.000,0.000,0.000
1640078478962147840,"2021-12-21,09:21:18",10.1.1.7,512,-0.150,-0.150,-0.150,0.000,0.000,0.000
1640078479059627008,"2021-12-21,09:21:19",10.1.1.7,0.6095848083496094,-0.150,-0.150,-0.150,0.000,0.000,0.000
1640078479733284864,"2021-12-21,09:21:19",10.1.1.7,669,-0.140,-0.140,-0.140,0.000,0.000,0.000
1640078479746660864,"2021-12-21,09:21:19",10.1.1.7,0.6827220916748047,-0.140,-0.140,-0.140,0.000,0.000,0.000
1640078480264802816,"2021-12-21,09:21:20",10.1.1.7,513,-0.130,-0.130,-0.130,0.000,0.000,0.000
1640078480336920064,"2021-12-21,09:21:20",10.1.1.7,0.5855998992919922,-0.130,-0.130,-0.130,0.000,0.000,0.000
1640078480825102080,"2021-12-21,09:21:20",10.1.1.7,486,-0.120,-0.120,-0.120,0.000,0.000,0.000
1640078480837483776,"2021-12-21,09:21:20",10.1.1.7,0.49918293952941895,-0.120,-0.120,-0.120,0.000,0.000,0.000
1640078481224878080,"2021-12-21,09:21:21",10.1.1.7,377,-0.110,-0.110,-0.110,0.000,0.000,0.000
1640078481288891136,"2021-12-21,09:21:21",10.1.1.7,0.4415910243988037,-0.110,-0.110,-0.110,0.000,0.000,0.000
1640078481855382016,"2021-12-21,09:21:21",10.1.1.7,562,-0.100,-0.100,-0.100,0.000,0.000,0.000
1640078481950967040,"2021-12-21,09:21:21",10.1.1.7,0.6582958698272705,-0.100,-0.100,-0.100,0.000,0.000,0.000
1640078482466376192,"2021-12-21,09:21:22",10.1.1.7,513,-0.090,-0.090,-0.090,0.000,0.000,0.000
1640078482569101056,"2021-12-21,09:21:22",10.1.1.7,0.6164131164550781,-0.090,-0.090,-0.090,0.000,0.000,0.000
1640078482995086848,"2021-12-21,09:21:22",10.1.1.7,418,-0.080,-0.080,-0.080,0.000,0.000,0.000
1640078483109169920,"2021-12-21,09:21:23",10.1.1.7,0.5323638916015625,-0.080,-0.080,-0.080,0.000,0.000,0.000
1640078483675810048,"2021-12-21,09:21:23",10.1.1.7,496,-0.070,-0.070,-0.070,0.000,0.000,0.000
1640078483770773760,"2021-12-21,09:21:23",10.1.1.7,0.5916330814361572,-0.070,-0.070,-0.070,0.000,0.000,0.000
1640078484319000064,"2021-12-21,09:21:24",10.1.1.7,529,-0.060,-0.060,-0.060,0.000,0.000,0.000
1640078484410638080,"2021-12-21,09:21:24",10.1.1.7,0.6215128898620605,-0.060,-0.060,-0.060,0.000,0.000,0.000
1640078484915781120,"2021-12-21,09:21:24",10.1.1.7,466,-0.050,-0.050,-0.050,0.000,0.000,0.000
1640078484962192896,"2021-12-21,09:21:24",10.1.1.7,0.5133099555969238,-0.050,-0.050,-0.050,0.000,0.000,0.000
1640078485356577024,"2021-12-21,09:21:25",10.1.1.7,387,-0.040,-0.040,-0.040,0.000,0.000,0.000
1640078485371095040,"2021-12-21,09:21:25",10.1.1.7,0.4008200168609619,-0.040,-0.040,-0.040,0.000,0.000,0.000
1640078485827399936,"2021-12-21,09:21:25",10.1.1.7,448,-0.030,-0.030,-0.030,0.000,0.000,0.000
1640078485877808128,"2021-12-21,09:21:25",10.1.1.7,0.49903202056884766,-0.030,-0.030,-0.030,0.000,0.000,0.000
1640078486297748992,"2021-12-21,09:21:26",10.1.1.7,418,-0.020,-0.020,-0.020,0.000,0.000,0.000
1640078486342052864,"2021-12-21,09:21:26",10.1.1.7,0.462540864944458,-0.020,-0.020,-0.020,0.000,0.000,0.000
1640078486766066176,"2021-12-21,09:21:26",10.1.1.7,392,-0.010,-0.010,-0.010,0.000,0.000,0.000
1640078486831474944,"2021-12-21,09:21:26",10.1.1.7,0.45702695846557617,-0.010,-0.010,-0.010,0.000,0.000,0.000
1640078487206289152,"2021-12-21,09:21:27",10.1.1.7,372,0.000,0.000,0.000,0.000,0.000,0.000
1640078487249051136,"2021-12-21,09:21:27",10.1.1.7,0.41509509086608887,0.000,0.000,0.000,0.000,0.000,0.000
1640078487677752064,"2021-12-21,09:21:27",10.1.1.7,424,-0.010,-0.010,-0.010,0.000,0.000,0.000
1640078487726145024,"2021-12-21,09:21:27",10.1.1.7,0.47362804412841797,-0.010,-0.010,-0.010,0.000,0.000,0.000
1640078487734088960,"2021-12-21,09:21:27",10.1.1.7,-4,-0.020,-0.020,-0.020,0.000,0.000,0.000
1640078488172837120,"2021-12-21,09:21:28",10.1.1.7,0.4434819221496582,-0.020,-0.020,-0.020,0.000,0.000,0.000
1640078488539247872,"2021-12-21,09:21:28",10.1.1.7,363,-0.030,-0.030,-0.030,0.000,0.000,0.000
1640078488604037888,"2021-12-21,09:21:28",10.1.1.7,0.42806196212768555,-0.030,-0.030,-0.030,0.000,0.000,0.000
1640078489027383040,"2021-12-21,09:21:29",10.1.1.7,394,-0.040,-0.040,-0.040,0.000,0.000,0.000
1640078489058008832,"2021-12-21,09:21:29",10.1.1.7,0.4256858825683594,-0.040,-0.040,-0.040,0.000,0.000,0.000
1640078489485712896,"2021-12-21,09:21:29",10.1.1.7,425,-0.050,-0.050,-0.050,0.000,0.000,0.000
1640078489548101888,"2021-12-21,09:21:29",10.1.1.7,0.4875020980834961,-0.050,-0.050,-0.050,0.000,0.000,0.000
1640078489968283904,"2021-12-21,09:21:29",10.1.1.7,0.41771984100341797,-0.060,-0.060,-0.060,0.000,0.000,0.000
1640078500835386112,"2021-12-21,09:21:30",10.1.1.7,862,-0.070,-0.070,-0.070,0.000,0.000,0.000
1640078502588384000,"2021-12-21,09:21:41",10.1.1.7,11.302934885025024,-0.070,-0.070,-0.070,0.000,0.000,0.000
1640078505375472896,"2021-12-21,09:21:45",10.1.1.7,2779,-0.080,-0.080,-0.080,0.000,0.000,0.000
1640078505417065984,"2021-12-21,09:21:45",10.1.1.7,2.8210439682006836,-0.080,-0.080,-0.080,0.000,0.000,0.000
1640078505772154112,"2021-12-21,09:21:45",10.1.1.7,353,-0.090,-0.090,-0.090,0.000,0.000,0.000
1640078505838228992,"2021-12-21,09:21:45",10.1.1.7,0.41987109184265137,-0.090,-0.090,-0.090,0.000,0.000,0.000
1640078506201246976,"2021-12-21,09:21:46",10.1.1.7,360,-0.100,-0.100,-0.100,0.000,0.000,0.000
1640078506217757952,"2021-12-21,09:21:46",10.1.1.7,0.3775200843811035,-0.100,-0.100,-0.100,0.000,0.000,0.000
1640078506541664000,"2021-12-21,09:21:46",10.1.1.7,322,-0.110,-0.110,-0.110,0.000,0.000,0.000
1640078506569474048,"2021-12-21,09:21:46",10.1.1.7,0.35015201568603516,-0.110,-0.110,-0.110,0.000,0.000,0.000
1640078506883225856,"2021-12-21,09:21:46",10.1.1.7,312,-0.120,-0.120,-0.120,0.000,0.000,0.000
1640078506950531072,"2021-12-21,09:21:46",10.1.1.7,0.3793950080871582,-0.120,-0.120,-0.120,0.000,0.000,0.000
1640078507253127936,"2021-12-21,09:21:47",10.1.1.7,300,-0.130,-0.130,-0.130,0.000,0.000,0.000
1640078507302038784,"2021-12-21,09:21:47",10.1.1.7,0.34945106506347656,-0.130,-0.130,-0.130,0.000,0.000,0.000
1640078507642259968,"2021-12-21,09:21:47",10.1.1.7,338,-0.140,-0.140,-0.140,0.000,0.000,0.000
1640078507664105984,"2021-12-21,09:21:47",10.1.1.7,0.3607778549194336,-0.140,-0.140,-0.140,0.000,0.000,0.000
1640078508014760960,"2021-12-21,09:21:48",10.1.1.7,348,-0.150,-0.150,-0.150,0.000,0.000,0.000
1640078508077757952,"2021-12-21,09:21:48",10.1.1.7,0.4116220474243164,-0.150,-0.150,-0.150,0.000,0.000,0.000
1640078508399478016,"2021-12-21,09:21:48",10.1.1.7,320,-0.160,-0.160,-0.160,0.000,0.000,0.000
1640078508433474048,"2021-12-21,09:21:48",10.1.1.7,0.35415220260620117,-0.160,-0.160,-0.160,0.000,0.000,0.000
1640078508769412096,"2021-12-21,09:21:48",10.1.1.7,334,-0.170,-0.170,-0.170,0.000,0.000,0.000
1640078508862284032,"2021-12-21,09:21:48",10.1.1.7,0.427325963973999,-0.170,-0.170,-0.170,0.000,0.000,0.000
1640078509198035968,"2021-12-21,09:21:49",10.1.1.7,333,-0.180,-0.180,-0.180,0.000,0.000,0.000
1640078509273058048,"2021-12-21,09:21:49",10.1.1.7,0.4083421230316162,-0.180,-0.180,-0.180,0.000,0.000,0.000
1640078509596556800,"2021-12-21,09:21:49",10.1.1.7,321,-0.190,-0.190,-0.190,0.000,0.000,0.000
1640078509648768000,"2021-12-21,09:21:49",10.1.1.7,0.3726050853729248,-0.190,-0.190,-0.190,0.000,0.000,0.000
1640078526962322944,"2021-12-21,09:22:06",10.1.1.7,16940,-0.200,-0.200,-0.200,0.000,0.000,0.000
1640078526973879040,"2021-12-21,09:22:06",10.1.1.7,17.323373079299927,-0.200,-0.200,-0.200,0.000,0.000,0.000
1640078527330123008,"2021-12-21,09:22:07",10.1.1.7,336,-0.210,-0.210,-0.210,0.000,0.000,0.000
1640078527365583872,"2021-12-21,09:22:07",10.1.1.7,0.3715698719024658,-0.210,-0.210,-0.210,0.000,0.000,0.000
1640078527771574016,"2021-12-21,09:22:07",10.1.1.7,403,-0.220,-0.220,-0.220,0.000,0.000,0.000
1640078527787358976,"2021-12-21,09:22:07",10.1.1.7,0.4200448989868164,-0.220,-0.220,-0.220,0.000,0.000,0.000
1640078538064044032,"2021-12-21,09:22:08",10.1.1.7,459,-0.230,-0.230,-0.230,0.000,0.000,0.000
1640078542841139968,"2021-12-21,09:22:18",10.1.1.7,10.430904865264893,-0.230,-0.230,-0.230,0.000,0.000,0.000
1640078551409091072,"2021-12-21,09:22:25",10.1.1.7,1331,-0.240,-0.240,-0.240,0.000,0.000,0.000
1640078551862123008,"2021-12-21,09:22:31",10.1.1.7,7.443997144699097,-0.240,-0.240,-0.240,0.000,0.000,0.000
1640078554466792192,"2021-12-21,09:22:34",10.1.1.7,2595,-0.250,-0.250,-0.250,0.000,0.000,0.000
1640078554475177984,"2021-12-21,09:22:34",10.1.1.7,2.603869915008545,-0.250,-0.250,-0.250,0.000,0.000,0.000
1640078554817584896,"2021-12-21,09:22:34",10.1.1.7,340,-0.260,-0.260,-0.260,0.000,0.000,0.000
1640078554878880000,"2021-12-21,09:22:34",10.1.1.7,0.40200090408325195,-0.260,-0.260,-0.260,0.000,0.000,0.000
1640078556114420992,"2021-12-21,09:22:36",10.1.1.7,375,-0.270,-0.270,-0.270,0.000,0.000,0.000
1640078556154242048,"2021-12-21,09:22:36",10.1.1.7,0.4155118465423584,-0.270,-0.270,-0.270,0.000,0.000,0.000
1640078556562671872,"2021-12-21,09:22:36",10.1.1.7,406,-0.280,-0.280,-0.280,0.000,0.000,0.000
1640078556636042240,"2021-12-21,09:22:36",10.1.1.7,0.47959017753601074,-0.280,-0.280,-0.280,0.000,0.000,0.000
1640078557072273920,"2021-12-21,09:22:37",10.1.1.7,434,-0.290,-0.290,-0.290,0.000,0.000,0.000
1640078557114193920,"2021-12-21,09:22:37",10.1.1.7,0.4762611389160156,-0.290,-0.290,-0.290,0.000,0.000,0.000
1640078557521060864,"2021-12-21,09:22:37",10.1.1.7,403,-0.300,-0.300,-0.300,0.000,0.000,0.000
1640078557594525952,"2021-12-21,09:22:37",10.1.1.7,0.4774169921875,-0.300,-0.300,-0.300,0.000,0.000,0.000
1640078558019272192,"2021-12-21,09:22:38",10.1.1.7,419,-0.310,-0.310,-0.310,0.000,0.000,0.000
1640078558104288000,"2021-12-21,09:22:38",10.1.1.7,0.5046319961547852,-0.310,-0.310,-0.310,0.000,0.000,0.000
1640078558529894144,"2021-12-21,09:22:38",10.1.1.7,424,-0.320,-0.320,-0.320,0.000,0.000,0.000
1640078558563718144,"2021-12-21,09:22:38",10.1.1.7,0.45821094512939453,-0.320,-0.320,-0.320,0.000,0.000,0.000
1640078558959988992,"2021-12-21,09:22:38",10.1.1.7,393,-0.330,-0.330,-0.330,0.000,0.000,0.000
1640078559040615168,"2021-12-21,09:22:39",10.1.1.7,0.4747300148010254,-0.330,-0.330,-0.330,0.000,0.000,0.000
1640078559494108928,"2021-12-21,09:22:39",10.1.1.7,447,-0.340,-0.340,-0.340,0.000,0.000,0.000
1640078559590714880,"2021-12-21,09:22:39",10.1.1.7,0.5480000972747803,-0.340,-0.340,-0.340,0.000,0.000,0.000
1640078559975745792,"2021-12-21,09:22:39",10.1.1.7,380,-0.350,-0.350,-0.350,0.000,0.000,0.000
1640078560057095168,"2021-12-21,09:22:40",10.1.1.7,0.4614989757537842,-0.350,-0.350,-0.350,0.000,0.000,0.000
1640078560426583040,"2021-12-21,09:22:40",10.1.1.7,367,-0.360,-0.360,-0.360,0.000,0.000,0.000
1640078560466844160,"2021-12-21,09:22:40",10.1.1.7,0.4074878692626953,-0.360,-0.360,-0.360,0.000,0.000,0.000
1640078560825336064,"2021-12-21,09:22:40",10.1.1.7,353,-0.370,-0.370,-0.370,0.000,0.000,0.000
1640078560877910016,"2021-12-21,09:22:40",10.1.1.7,0.4062509536743164,-0.370,-0.370,-0.370,0.000,0.000,0.000
1640078561263955968,"2021-12-21,09:22:41",10.1.1.7,381,-0.380,-0.380,-0.380,0.000,0.000,0.000
1640078561335320832,"2021-12-21,09:22:41",10.1.1.7,0.4534471035003662,-0.380,-0.380,-0.380,0.000,0.000,0.000
1640078561759267072,"2021-12-21,09:22:41",10.1.1.7,420,-0.390,-0.390,-0.390,0.000,0.000,0.000
1640078561794262016,"2021-12-21,09:22:41",10.1.1.7,0.45575594902038574,-0.390,-0.390,-0.390,0.000,0.000,0.000
1640078562231945984,"2021-12-21,09:22:42",10.1.1.7,435,-0.400,-0.400,-0.400,0.000,0.000,0.000
1640078562343507968,"2021-12-21,09:22:42",10.1.1.7,0.5475790500640869,-0.400,-0.400,-0.400,0.000,0.000,0.000
1640078562706080000,"2021-12-21,09:22:42",10.1.1.7,360,-0.410,-0.410,-0.410,0.000,0.000,0.000
1640078562738217216,"2021-12-21,09:22:42",10.1.1.7,0.392780065536499,-0.410,-0.410,-0.410,0.000,0.000,0.000
1640078563110419968,"2021-12-21,09:22:43",10.1.1.7,370,-0.420,-0.420,-0.420,0.000,0.000,0.000
1640078563163837952,"2021-12-21,09:22:43",10.1.1.7,0.4240078926086426,-0.420,-0.420,-0.420,0.000,0.000,0.000
1640078563505018112,"2021-12-21,09:22:43",10.1.1.7,339,-0.430,-0.430,-0.430,0.000,0.000,0.000
1640078563763490816,"2021-12-21,09:22:43",10.1.1.7,0.5983209609985352,-0.430,-0.430,-0.430,0.000,0.000,0.000
1640078563769308928,"2021-12-21,09:22:43",10.1.1.7,-3,-0.440,-0.440,-0.440,0.000,0.000,0.000
1640078564370925824,"2021-12-21,09:22:44",10.1.1.7,0.593156099319458,-0.440,-0.440,-0.440,0.000,0.000,0.000
1640078564737881856,"2021-12-21,09:22:44",10.1.1.7,364,-0.450,-0.450,-0.450,0.000,0.000,0.000
1640078564793843968,"2021-12-21,09:22:44",10.1.1.7,0.4207441806793213,-0.450,-0.450,-0.450,0.000,0.000,0.000
1640078565160146944,"2021-12-21,09:22:45",10.1.1.7,364,-0.460,-0.460,-0.460,0.000,0.000,0.000
1640078565227768064,"2021-12-21,09:22:45",10.1.1.7,0.4321870803833008,-0.460,-0.460,-0.460,0.000,0.000,0.000
1640078565579080192,"2021-12-21,09:22:45",10.1.1.7,347,-0.470,-0.470,-0.470,0.000,0.000,0.000
1640078565678740992,"2021-12-21,09:22:45",10.1.1.7,0.4466731548309326,-0.470,-0.470,-0.470,0.000,0.000,0.000
1640078566111162880,"2021-12-21,09:22:46",10.1.1.7,430,-0.480,-0.480,-0.480,0.000,0.000,0.000
1640078566205799168,"2021-12-21,09:22:46",10.1.1.7,0.5255110263824463,-0.480,-0.480,-0.480,0.000,0.000,0.000
1640078566564090880,"2021-12-21,09:22:46",10.1.1.7,356,-0.490,-0.490,-0.490,0.000,0.000,0.000
1640078566653455872,"2021-12-21,09:22:46",10.1.1.7,0.4459969997406006,-0.490,-0.490,-0.490,0.000,0.000,0.000
1640078566996134144,"2021-12-21,09:22:46",10.1.1.7,339,-0.480,-0.480,-0.480,0.000,0.000,0.000
1640078567061572096,"2021-12-21,09:22:47",10.1.1.7,0.40488409996032715,-0.480,-0.480,-0.480,0.000,0.000,0.000
1640078567426976000,"2021-12-21,09:22:47",10.1.1.7,362,-0.470,-0.470,-0.470,0.000,0.000,0.000
1640078567458187008,"2021-12-21,09:22:47",10.1.1.7,0.39467310905456543,-0.470,-0.470,-0.470,0.000,0.000,0.000
1640078567807062016,"2021-12-21,09:22:47",10.1.1.7,346,-0.460,-0.460,-0.460,0.000,0.000,0.000
1640078567836016896,"2021-12-21,09:22:47",10.1.1.7,0.3752858638763428,-0.460,-0.460,-0.460,0.000,0.000,0.000
1640078568221782016,"2021-12-21,09:22:48",10.1.1.7,351,-0.450,-0.450,-0.450,0.000,0.000,0.000
1640078568298728960,"2021-12-21,09:22:48",10.1.1.7,0.4288499355316162,-0.450,-0.450,-0.450,0.000,0.000,0.000
1640078568686102016,"2021-12-21,09:22:48",10.1.1.7,0.3827641010284424,-0.440,-0.440,-0.440,0.000,0.000,0.000
1640078569061608960,"2021-12-21,09:22:49",10.1.1.7,364,-0.430,-0.430,-0.430,0.000,0.000,0.000
1640078569097143808,"2021-12-21,09:22:49",10.1.1.7,0.39969420433044434,-0.430,-0.430,-0.430,0.000,0.000,0.000
1640078569460154112,"2021-12-21,09:22:49",10.1.1.7,355,-0.420,-0.420,-0.420,0.000,0.000,0.000
1640078569745678848,"2021-12-21,09:22:49",10.1.1.7,0.5371501445770264,-0.420,-0.420,-0.420,0.000,0.000,0.000
1640078570079642112,"2021-12-21,09:22:50",10.1.1.7,331,-0.410,-0.410,-0.410,0.000,0.000,0.000
1640078570122145792,"2021-12-21,09:22:50",10.1.1.7,0.37362098693847656,-0.410,-0.410,-0.410,0.000,0.000,0.000
1640078570468044032,"2021-12-21,09:22:50",10.1.1.7,344,-0.400,-0.400,-0.400,0.000,0.000,0.000
1640078570495470080,"2021-12-21,09:22:50",10.1.1.7,0.37172889709472656,-0.400,-0.400,-0.400,0.000,0.000,0.000
1640078570848797952,"2021-12-21,09:22:50",10.1.1.7,347,-0.390,-0.390,-0.390,0.000,0.000,0.000
1640078570903404032,"2021-12-21,09:22:50",10.1.1.7,0.40227603912353516,-0.390,-0.390,-0.390,0.000,0.000,0.000
1640078571258022912,"2021-12-21,09:22:51",10.1.1.7,352,-0.380,-0.380,-0.380,0.000,0.000,0.000
1640078571299280896,"2021-12-21,09:22:51",10.1.1.7,0.39380598068237305,-0.380,-0.380,-0.380,0.000,0.000,0.000
1640078571756850944,"2021-12-21,09:22:51",10.1.1.7,451,-0.370,-0.370,-0.370,0.000,0.000,0.000
1640078571790669824,"2021-12-21,09:22:51",10.1.1.7,0.48523902893066406,-0.370,-0.370,-0.370,0.000,0.000,0.000
1640078572195281152,"2021-12-21,09:22:52",10.1.1.7,395,-0.360,-0.360,-0.360,0.000,0.000,0.000
1640078572258223104,"2021-12-21,09:22:52",10.1.1.7,0.4588348865509033,-0.360,-0.360,-0.360,0.000,0.000,0.000
1640078572899529984,"2021-12-21,09:22:52",10.1.1.7,638,-0.350,-0.350,-0.350,0.000,0.000,0.000
1640078572945892096,"2021-12-21,09:22:52",10.1.1.7,0.6861579418182373,-0.350,-0.350,-0.350,0.000,0.000,0.000
1640078573314184960,"2021-12-21,09:22:53",10.1.1.7,366,-0.340,-0.340,-0.340,0.000,0.000,0.000
1640078573430057984,"2021-12-21,09:22:53",10.1.1.7,0.4824388027191162,-0.340,-0.340,-0.340,0.000,0.000,0.000
1640078573804008960,"2021-12-21,09:22:53",10.1.1.7,364,-0.330,-0.330,-0.330,0.000,0.000,0.000
1640078573876261888,"2021-12-21,09:22:53",10.1.1.7,0.43641209602355957,-0.330,-0.330,-0.330,0.000,0.000,0.000
1640078574212732928,"2021-12-21,09:22:54",10.1.1.7,334,-0.320,-0.320,-0.320,0.000,0.000,0.000
1640078574272502784,"2021-12-21,09:22:54",10.1.1.7,0.39490795135498047,-0.320,-0.320,-0.320,0.000,0.000,0.000
1640078574614171136,"2021-12-21,09:22:54",10.1.1.7,340,-0.310,-0.310,-0.310,0.000,0.000,0.000
1640078574645828864,"2021-12-21,09:22:54",10.1.1.7,0.37198400497436523,-0.310,-0.310,-0.310,0.000,0.000,0.000
1640078574980967936,"2021-12-21,09:22:54",10.1.1.7,333,-0.300,-0.300,-0.300,0.000,0.000,0.000
1640078575030860800,"2021-12-21,09:22:55",10.1.1.7,0.3831770420074463,-0.300,-0.300,-0.300,0.000,0.000,0.000
1640078575359805184,"2021-12-21,09:22:55",10.1.1.7,326,-0.290,-0.290,-0.290,0.000,0.000,0.000
1640078575433931008,"2021-12-21,09:22:55",10.1.1.7,0.4009830951690674,-0.290,-0.290,-0.290,0.000,0.000,0.000
1640078578337303040,"2021-12-21,09:22:58",10.1.1.7,2901,-0.280,-0.280,-0.280,0.000,0.000,0.000
1640078578436448000,"2021-12-21,09:22:58",10.1.1.7,3.0002739429473877,-0.280,-0.280,-0.280,0.000,0.000,0.000
1640078578814362880,"2021-12-21,09:22:58",10.1.1.7,372,-0.270,-0.270,-0.270,0.000,0.000,0.000
1640078578901818112,"2021-12-21,09:22:58",10.1.1.7,0.46046996116638184,-0.270,-0.270,-0.270,0.000,0.000,0.000
1640078579275387136,"2021-12-21,09:22:59",10.1.1.7,371,-0.260,-0.260,-0.260,0.000,0.000,0.000
1640078579358011904,"2021-12-21,09:22:59",10.1.1.7,0.4543290138244629,-0.260,-0.260,-0.260,0.000,0.000,0.000
1640078579796315904,"2021-12-21,09:22:59",10.1.1.7,435,-0.250,-0.250,-0.250,0.000,0.000,0.000
1640078579906785024,"2021-12-21,09:22:59",10.1.1.7,0.546436071395874,-0.250,-0.250,-0.250,0.000,0.000,0.000
1640078580292958976,"2021-12-21,09:23:00",10.1.1.7,381,-0.240,-0.240,-0.240,0.000,0.000,0.000
1640078580366406912,"2021-12-21,09:23:00",10.1.1.7,0.4549560546875,-0.240,-0.240,-0.240,0.000,0.000,0.000
1640078581528215040,"2021-12-21,09:23:00",10.1.1.7,447,-0.230,-0.230,-0.230,0.000,0.000,0.000
1640078581616055040,"2021-12-21,09:23:01",10.1.1.7,1.2153329849243164,-0.230,-0.230,-0.230,0.000,0.000,0.000
1640078581661449984,"2021-12-21,09:23:01",10.1.1.7,-4,-0.220,-0.220,-0.220,0.000,0.000,0.000
1640078582008599040,"2021-12-21,09:23:02",10.1.1.7,0.3883790969848633,-0.220,-0.220,-0.220,0.000,0.000,0.000
1640078582339660800,"2021-12-21,09:23:02",10.1.1.7,329,-0.210,-0.210,-0.210,0.000,0.000,0.000
1640078582371753984,"2021-12-21,09:23:02",10.1.1.7,0.36187100410461426,-0.210,-0.210,-0.210,0.000,0.000,0.000
1640078582707282944,"2021-12-21,09:23:02",10.1.1.7,334,-0.200,-0.200,-0.200,0.000,0.000,0.000
1640078582728861952,"2021-12-21,09:23:02",10.1.1.7,0.355741024017334,-0.200,-0.200,-0.200,0.000,0.000,0.000
1640078583070787840,"2021-12-21,09:23:03",10.1.1.7,340,-0.190,-0.190,-0.190,0.000,0.000,0.000
1640078583098226944,"2021-12-21,09:23:03",10.1.1.7,0.3679819107055664,-0.190,-0.190,-0.190,0.000,0.000,0.000
1640078583405111040,"2021-12-21,09:23:03",10.1.1.7,304,-0.180,-0.180,-0.180,0.000,0.000,0.000
1640078583432040960,"2021-12-21,09:23:03",10.1.1.7,0.33194804191589355,-0.180,-0.180,-0.180,0.000,0.000,0.000
1640078583758565888,"2021-12-21,09:23:03",10.1.1.7,324,-0.170,-0.170,-0.170,0.000,0.000,0.000
1640078583828681984,"2021-12-21,09:23:03",10.1.1.7,0.3946361541748047,-0.170,-0.170,-0.170,0.000,0.000,0.000
1640078584134030080,"2021-12-21,09:23:04",10.1.1.7,303,-0.160,-0.160,-0.160,0.000,0.000,0.000
1640078584196273920,"2021-12-21,09:23:04",10.1.1.7,0.36598801612854004,-0.160,-0.160,-0.160,0.000,0.000,0.000
1640078584554929920,"2021-12-21,09:23:04",10.1.1.7,356,-0.150,-0.150,-0.150,0.000,0.000,0.000
1640078584594011136,"2021-12-21,09:23:04",10.1.1.7,0.3957250118255615,-0.150,-0.150,-0.150,0.000,0.000,0.000
1640078584933085952,"2021-12-21,09:23:04",10.1.1.7,337,-0.140,-0.140,-0.140,0.000,0.000,0.000
1640078585006288128,"2021-12-21,09:23:05",10.1.1.7,0.41098809242248535,-0.140,-0.140,-0.140,0.000,0.000,0.000
1640078585312081152,"2021-12-21,09:23:05",10.1.1.7,304,-0.130,-0.130,-0.130,0.000,0.000,0.000
1640078585365160960,"2021-12-21,09:23:05",10.1.1.7,0.3574819564819336,-0.130,-0.130,-0.130,0.000,0.000,0.000
1640078586335586048,"2021-12-21,09:23:05",10.1.1.7,355,-0.120,-0.120,-0.120,0.000,0.000,0.000
1640078586360582144,"2021-12-21,09:23:06",10.1.1.7,0.9922809600830078,-0.120,-0.120,-0.120,0.000,0.000,0.000
1640078587511373056,"2021-12-21,09:23:07",10.1.1.7,1145,-0.110,-0.110,-0.110,0.000,0.000,0.000
1640078587557837056,"2021-12-21,09:23:07",10.1.1.7,1.19504714012146,-0.110,-0.110,-0.110,0.000,0.000,0.000
1640078588263452928,"2021-12-21,09:23:08",10.1.1.7,322,-0.100,-0.100,-0.100,0.000,0.000,0.000
1640078588352390912,"2021-12-21,09:23:08",10.1.1.7,0.41419100761413574,-0.100,-0.100,-0.100,0.000,0.000,0.000
1640078588676408064,"2021-12-21,09:23:08",10.1.1.7,322,-0.090,-0.090,-0.090,0.000,0.000,0.000
1640078588706336000,"2021-12-21,09:23:08",10.1.1.7,0.3526160717010498,-0.090,-0.090,-0.090,0.000,0.000,0.000
1640078589029863168,"2021-12-21,09:23:09",10.1.1.7,322,-0.080,-0.080,-0.080,0.000,0.000,0.000
1640078589098418944,"2021-12-21,09:23:09",10.1.1.7,0.39061403274536133,-0.080,-0.080,-0.080,0.000,0.000,0.000
1640078591067383040,"2021-12-21,09:23:09",10.1.1.7,363,-0.070,-0.070,-0.070,0.000,0.000,0.000
1640078597881355008,"2021-12-21,09:23:14",10.1.1.7,5.54208517074585,-0.070,-0.070,-0.070,0.000,0.000,0.000
1640078606524966912,"2021-12-21,09:23:19",10.1.1.7,1415,-0.060,-0.060,-0.060,0.000,0.000,0.000
1640078607226515968,"2021-12-21,09:23:27",10.1.1.7,9.192085027694702,-0.060,-0.060,-0.060,0.000,0.000,0.000
1640078941673264896,"2021-12-21,09:29:01",10.1.1.7,334007,-0.050,-0.050,-0.050,0.000,0.000,0.000
1640078942619222016,"2021-12-21,09:29:02",10.1.1.7,335.39117908477783,-0.050,-0.050,-0.050,0.000,0.000,0.000
1640078943161395968,"2021-12-21,09:29:03",10.1.1.7,540,-0.040,-0.040,-0.040,0.000,0.000,0.000
1640078943230132992,"2021-12-21,09:29:03",10.1.1.7,0.6092259883880615,-0.040,-0.040,-0.040,0.000,0.000,0.000
1640078945128797952,"2021-12-21,09:29:05",10.1.1.7,1896,-0.030,-0.030,-0.030,0.000,0.000,0.000
1640078945182571776,"2021-12-21,09:29:05",10.1.1.7,1.9505739212036133,-0.030,-0.030,-0.030,0.000,0.000,0.000
1640078945549920000,"2021-12-21,09:29:05",10.1.1.7,365,-0.020,-0.020,-0.020,0.000,0.000,0.000
1640078945612459008,"2021-12-21,09:29:05",10.1.1.7,0.427868127822876,-0.020,-0.020,-0.020,0.000,0.000,0.000
1640078946018433024,"2021-12-21,09:29:06",10.1.1.7,404,-0.010,-0.010,-0.010,0.000,0.000,0.000
1640078946089894912,"2021-12-21,09:29:06",10.1.1.7,0.47598719596862793,-0.010,-0.010,-0.010,0.000,0.000,0.000
1640078948155558144,"2021-12-21,09:29:08",10.1.1.7,2063,0.000,0.000,0.000,0.000,0.000,0.000
1640078948219006976,"2021-12-21,09:29:08",10.1.1.7,2.1273231506347656,0.000,0.000,0.000,0.000,0.000,0.000
1640078948571546112,"2021-12-21,09:29:08",10.1.1.7,345,-0.010,-0.010,-0.010,0.000,0.000,0.000
1640078948663120128,"2021-12-21,09:29:08",10.1.1.7,0.43734002113342285,-0.010,-0.010,-0.010,0.000,0.000,0.000
1640078949092366848,"2021-12-21,09:29:09",10.1.1.7,416,-0.020,-0.020,-0.020,0.000,0.000,0.000
1640078949164788992,"2021-12-21,09:29:09",10.1.1.7,0.48892807960510254,-0.020,-0.020,-0.020,0.000,0.000,0.000
1640078950002736128,"2021-12-21,09:29:10",10.1.1.7,836,-0.030,-0.030,-0.030,0.000,0.000,0.000
1640078950077904896,"2021-12-21,09:29:10",10.1.1.7,0.9114151000976562,-0.030,-0.030,-0.030,0.000,0.000,0.000
1640078950540608000,"2021-12-21,09:29:10",10.1.1.7,451,-0.040,-0.040,-0.040,0.000,0.000,0.000
1640078950643846144,"2021-12-21,09:29:10",10.1.1.7,0.5587730407714844,-0.040,-0.040,-0.040,0.000,0.000,0.000
1640078951169306112,"2021-12-21,09:29:11",10.1.1.7,460,-0.050,-0.050,-0.050,0.000,0.000,0.000
1640078951209081856,"2021-12-21,09:29:11",10.1.1.7,0.5003619194030762,-0.050,-0.050,-0.050,0.000,0.000,0.000
1640078951591898880,"2021-12-21,09:29:11",10.1.1.7,376,-0.060,-0.060,-0.060,0.000,0.000,0.000
1640078951683651840,"2021-12-21,09:29:11",10.1.1.7,0.46797800064086914,-0.060,-0.060,-0.060,0.000,0.000,0.000
1640078952057656064,"2021-12-21,09:29:12",10.1.1.7,371,-0.070,-0.070,-0.070,0.000,0.000,0.000
1640078952139659776,"2021-12-21,09:29:12",10.1.1.7,0.45383715629577637,-0.070,-0.070,-0.070,0.000,0.000,0.000
1640078952525577984,"2021-12-21,09:29:12",10.1.1.7,376,-0.080,-0.080,-0.080,0.000,0.000,0.000
1640078952584323840,"2021-12-21,09:29:12",10.1.1.7,0.43654513359069824,-0.080,-0.080,-0.080,0.000,0.000,0.000
1640078952971610112,"2021-12-21,09:29:12",10.1.1.7,385,-0.090,-0.090,-0.090,0.000,0.000,0.000
1640078953047493888,"2021-12-21,09:29:13",10.1.1.7,0.4613311290740967,-0.090,-0.090,-0.090,0.000,0.000,0.000
1640078953573265152,"2021-12-21,09:29:13",10.1.1.7,430,-0.100,-0.100,-0.100,0.000,0.000,0.000
1640078953645905920,"2021-12-21,09:29:13",10.1.1.7,0.5035970211029053,-0.100,-0.100,-0.100,0.000,0.000,0.000
1640078954017793792,"2021-12-21,09:29:14",10.1.1.7,368,-0.110,-0.110,-0.110,0.000,0.000,0.000
1640078954095159040,"2021-12-21,09:29:14",10.1.1.7,0.4462759494781494,-0.110,-0.110,-0.110,0.000,0.000,0.000
1640078954488486144,"2021-12-21,09:29:14",10.1.1.7,385,-0.120,-0.120,-0.120,0.000,0.000,0.000
1640078954608332032,"2021-12-21,09:29:14",10.1.1.7,0.5052640438079834,-0.120,-0.120,-0.120,0.000,0.000,0.000
1640078955029001984,"2021-12-21,09:29:15",10.1.1.7,418,-0.130,-0.130,-0.130,0.000,0.000,0.000
1640078955095128064,"2021-12-21,09:29:15",10.1.1.7,0.4853389263153076,-0.130,-0.130,-0.130,0.000,0.000,0.000
1640078955509638912,"2021-12-21,09:29:15",10.1.1.7,413,-0.140,-0.140,-0.140,0.000,0.000,0.000
1640078955558258176,"2021-12-21,09:29:15",10.1.1.7,0.4615201950073242,-0.140,-0.140,-0.140,0.000,0.000,0.000
1640078955985708032,"2021-12-21,09:29:15",10.1.1.7,412,-0.150,-0.150,-0.150,0.000,0.000,0.000
1640078956064270080,"2021-12-21,09:29:16",10.1.1.7,0.49671101570129395,-0.150,-0.150,-0.150,0.000,0.000,0.000
1640078956417681920,"2021-12-21,09:29:16",10.1.1.7,348,-0.160,-0.160,-0.160,0.000,0.000,0.000
1640078956541344000,"2021-12-21,09:29:16",10.1.1.7,0.47339701652526855,-0.160,-0.160,-0.160,0.000,0.000,0.000
1640078956958359040,"2021-12-21,09:29:16",10.1.1.7,406,-0.170,-0.170,-0.170,0.000,0.000,0.000
1640078957062617088,"2021-12-21,09:29:17",10.1.1.7,0.5085549354553223,-0.170,-0.170,-0.170,0.000,0.000,0.000
1640078957492249856,"2021-12-21,09:29:17",10.1.1.7,423,-0.180,-0.180,-0.180,0.000,0.000,0.000
1640078957616180992,"2021-12-21,09:29:17",10.1.1.7,0.5253989696502686,-0.180,-0.180,-0.180,0.000,0.000,0.000
1640078957973675008,"2021-12-21,09:29:17",10.1.1.7,353,-0.190,-0.190,-0.190,0.000,0.000,0.000
1640078958043312128,"2021-12-21,09:29:18",10.1.1.7,0.42336010932922363,-0.190,-0.190,-0.190,0.000,0.000,0.000
1640078958459617024,"2021-12-21,09:29:18",10.1.1.7,414,-0.200,-0.200,-0.200,0.000,0.000,0.000
1640078958577462784,"2021-12-21,09:29:18",10.1.1.7,0.5321428775787354,-0.200,-0.200,-0.200,0.000,0.000,0.000
1640078959002921984,"2021-12-21,09:29:19",10.1.1.7,423,-0.210,-0.210,-0.210,0.000,0.000,0.000
1640078959183474176,"2021-12-21,09:29:19",10.1.1.7,0.6037061214447021,-0.210,-0.210,-0.210,0.000,0.000,0.000
1640078961776102912,"2021-12-21,09:29:21",10.1.1.7,2583,-0.220,-0.220,-0.220,0.000,0.000,0.000
1640078961876882944,"2021-12-21,09:29:21",10.1.1.7,2.6839330196380615,-0.220,-0.220,-0.220,0.000,0.000,0.000
1640078962381753088,"2021-12-21,09:29:22",10.1.1.7,487,-0.230,-0.230,-0.230,0.000,0.000,0.000
1640078962445806080,"2021-12-21,09:29:22",10.1.1.7,0.5515329837799072,-0.230,-0.230,-0.230,0.000,0.000,0.000
1640078962936374016,"2021-12-21,09:29:22",10.1.1.7,464,-0.240,-0.240,-0.240,0.000,0.000,0.000
1640078962990201088,"2021-12-21,09:29:22",10.1.1.7,0.5201449394226074,-0.240,-0.240,-0.240,0.000,0.000,0.000
1640078963402071040,"2021-12-21,09:29:23",10.1.1.7,397,-0.250,-0.250,-0.250,0.000,0.000,0.000
1640078963442189056,"2021-12-21,09:29:23",10.1.1.7,0.4393479824066162,-0.250,-0.250,-0.250,0.000,0.000,0.000
1640078963814469120,"2021-12-21,09:29:23",10.1.1.7,358,-0.260,-0.260,-0.260,0.000,0.000,0.000
1640078963999062016,"2021-12-21,09:29:23",10.1.1.7,0.5452969074249268,-0.260,-0.260,-0.260,0.000,0.000,0.000
1640078964415180800,"2021-12-21,09:29:24",10.1.1.7,414,-0.270,-0.270,-0.270,0.000,0.000,0.000
1640078964540647936,"2021-12-21,09:29:24",10.1.1.7,0.540043830871582,-0.270,-0.270,-0.270,0.000,0.000,0.000
1640078964894712064,"2021-12-21,09:29:24",10.1.1.7,352,-0.280,-0.280,-0.280,0.000,0.000,0.000
1640078964985228032,"2021-12-21,09:29:24",10.1.1.7,0.44319581985473633,-0.280,-0.280,-0.280,0.000,0.000,0.000
1640078965344489984,"2021-12-21,09:29:25",10.1.1.7,350,-0.290,-0.290,-0.290,0.000,0.000,0.000
1640078965368658944,"2021-12-21,09:29:25",10.1.1.7,0.3750498294830322,-0.290,-0.290,-0.290,0.000,0.000,0.000
1640078965771159040,"2021-12-21,09:29:25",10.1.1.7,400,-0.300,-0.300,-0.300,0.000,0.000,0.000
1640078965801451008,"2021-12-21,09:29:25",10.1.1.7,0.4307990074157715,-0.300,-0.300,-0.300,0.000,0.000,0.000
1640078966214437120,"2021-12-21,09:29:26",10.1.1.7,410,-0.310,-0.310,-0.310,0.000,0.000,0.000
1640078966264667904,"2021-12-21,09:29:26",10.1.1.7,0.46070003509521484,-0.310,-0.310,-0.310,0.000,0.000,0.000
1640078966648623872,"2021-12-21,09:29:26",10.1.1.7,379,-0.320,-0.320,-0.320,0.000,0.000,0.000
1640078966712812032,"2021-12-21,09:29:26",10.1.1.7,0.4436631202697754,-0.320,-0.320,-0.320,0.000,0.000,0.000
1640078967077030912,"2021-12-21,09:29:27",10.1.1.7,358,-0.330,-0.330,-0.330,0.000,0.000,0.000
1640078967133536000,"2021-12-21,09:29:27",10.1.1.7,0.4169120788574219,-0.330,-0.330,-0.330,0.000,0.000,0.000
1640078967137854976,"2021-12-21,09:29:27",10.1.1.7,-2,-0.340,-0.340,-0.340,0.000,0.000,0.000
1640078967592849920,"2021-12-21,09:29:27",10.1.1.7,0.4573071002960205,-0.340,-0.340,-0.340,0.000,0.000,0.000
1640078967908016896,"2021-12-21,09:29:27",10.1.1.7,313,-0.350,-0.350,-0.350,0.000,0.000,0.000
1640078968020524032,"2021-12-21,09:29:28",10.1.1.7,0.42612719535827637,-0.350,-0.350,-0.350,0.000,0.000,0.000
1640078968429415936,"2021-12-21,09:29:28",10.1.1.7,406,-0.360,-0.360,-0.360,0.000,0.000,0.000
1640078968495203072,"2021-12-21,09:29:28",10.1.1.7,0.472714900970459,-0.360,-0.360,-0.360,0.000,0.000,0.000
1640078968845758976,"2021-12-21,09:29:28",10.1.1.7,341,-0.370,-0.370,-0.370,0.000,0.000,0.000
1640078968952128768,"2021-12-21,09:29:28",10.1.1.7,0.4477958679199219,-0.370,-0.370,-0.370,0.000,0.000,0.000
1640078969317946880,"2021-12-21,09:29:29",10.1.1.7,364,-0.380,-0.380,-0.380,0.000,0.000,0.000
1640078969353472000,"2021-12-21,09:29:29",10.1.1.7,0.3997929096221924,-0.380,-0.380,-0.380,0.000,0.000,0.000
1640078969740216064,"2021-12-21,09:29:29",10.1.1.7,382,-0.390,-0.390,-0.390,0.000,0.000,0.000
1640078969807734016,"2021-12-21,09:29:29",10.1.1.7,0.44988298416137695,-0.390,-0.390,-0.390,0.000,0.000,0.000
1640078970245426944,"2021-12-21,09:29:30",10.1.1.7,435,-0.400,-0.400,-0.400,0.000,0.000,0.000
1640078970290852096,"2021-12-21,09:29:30",10.1.1.7,0.48123788833618164,-0.400,-0.400,-0.400,0.000,0.000,0.000
1640078970673920000,"2021-12-21,09:29:30",10.1.1.7,381,-0.410,-0.410,-0.410,0.000,0.000,0.000
1640078970741786112,"2021-12-21,09:29:30",10.1.1.7,0.44964003562927246,-0.410,-0.410,-0.410,0.000,0.000,0.000
1640078971105936896,"2021-12-21,09:29:31",10.1.1.7,357,-0.420,-0.420,-0.420,0.000,0.000,0.000
1640078971214627072,"2021-12-21,09:29:31",10.1.1.7,0.46677088737487793,-0.420,-0.420,-0.420,0.000,0.000,0.000
1640078971571123968,"2021-12-21,09:29:31",10.1.1.7,346,-0.430,-0.430,-0.430,0.000,0.000,0.000
1640078971658999808,"2021-12-21,09:29:31",10.1.1.7,0.43435192108154297,-0.430,-0.430,-0.430,0.000,0.000,0.000
1640078972037501952,"2021-12-21,09:29:32",10.1.1.7,376,-0.440,-0.440,-0.440,0.000,0.000,0.000
1640078972098249984,"2021-12-21,09:29:32",10.1.1.7,0.4375269412994385,-0.440,-0.440,-0.440,0.000,0.000,0.000
1640078972491686144,"2021-12-21,09:29:32",10.1.1.7,385,-0.450,-0.450,-0.450,0.000,0.000,0.000
1640078972579715072,"2021-12-21,09:29:32",10.1.1.7,0.4740030765533447,-0.450,-0.450,-0.450,0.000,0.000,0.000
1640078972965459200,"2021-12-21,09:29:32",10.1.1.7,383,-0.460,-0.460,-0.460,0.000,0.000,0.000
1640078972974716928,"2021-12-21,09:29:32",10.1.1.7,0.3929409980773926,-0.460,-0.460,-0.460,0.000,0.000,0.000
1640078973351465984,"2021-12-21,09:29:33",10.1.1.7,375,-0.470,-0.470,-0.470,0.000,0.000,0.000
1640078973408510976,"2021-12-21,09:29:33",10.1.1.7,0.43240785598754883,-0.470,-0.470,-0.470,0.000,0.000,0.000
1640078973817486080,"2021-12-21,09:29:33",10.1.1.7,404,-0.480,-0.480,-0.480,0.000,0.000,0.000
1640078973860876032,"2021-12-21,09:29:33",10.1.1.7,0.44803595542907715,-0.480,-0.480,-0.480,0.000,0.000,0.000
1640078974303313920,"2021-12-21,09:29:34",10.1.1.7,440,-0.490,-0.490,-0.490,0.000,0.000,0.000
1640078974424416000,"2021-12-21,09:29:34",10.1.1.7,0.5623149871826172,-0.490,-0.490,-0.490,0.000,0.000,0.000
1640078974830185984,"2021-12-21,09:29:34",10.1.1.7,403,-0.480,-0.480,-0.480,0.000,0.000,0.000
1640078974926012928,"2021-12-21,09:29:34",10.1.1.7,0.499204158782959,-0.480,-0.480,-0.480,0.000,0.000,0.000
1640078975282605056,"2021-12-21,09:29:35",10.1.1.7,337,-0.470,-0.470,-0.470,0.000,0.000,0.000
1640078975320826880,"2021-12-21,09:29:35",10.1.1.7,0.39072203636169434,-0.470,-0.470,-0.470,0.000,0.000,0.000
1640078975704931072,"2021-12-21,09:29:35",10.1.1.7,377,-0.460,-0.460,-0.460,0.000,0.000,0.000
1640078975759138048,"2021-12-21,09:29:35",10.1.1.7,0.4320399761199951,-0.460,-0.460,-0.460,0.000,0.000,0.000
1640078976109200896,"2021-12-21,09:29:36",10.1.1.7,343,-0.450,-0.450,-0.450,0.000,0.000,0.000
1640078976178504960,"2021-12-21,09:29:36",10.1.1.7,0.41323304176330566,-0.450,-0.450,-0.450,0.000,0.000,0.000
1640078976529063936,"2021-12-21,09:29:36",10.1.1.7,348,-0.440,-0.440,-0.440,0.000,0.000,0.000
1640078976620699904,"2021-12-21,09:29:36",10.1.1.7,0.4400970935821533,-0.440,-0.440,-0.440,0.000,0.000,0.000
1640078977014162944,"2021-12-21,09:29:37",10.1.1.7,391,-0.430,-0.430,-0.430,0.000,0.000,0.000
1640078977061594112,"2021-12-21,09:29:37",10.1.1.7,0.4389159679412842,-0.430,-0.430,-0.430,0.000,0.000,0.000
1640078977454286080,"2021-12-21,09:29:37",10.1.1.7,391,-0.420,-0.420,-0.420,0.000,0.000,0.000
1640078977526541824,"2021-12-21,09:29:37",10.1.1.7,0.4637110233306885,-0.420,-0.420,-0.420,0.000,0.000,0.000
1640078977946949120,"2021-12-21,09:29:37",10.1.1.7,391,-0.410,-0.410,-0.410,0.000,0.000,0.000
1640078978011320064,"2021-12-21,09:29:38",10.1.1.7,0.45626091957092285,-0.410,-0.410,-0.410,0.000,0.000,0.000
1640078978342931968,"2021-12-21,09:29:38",10.1.1.7,329,-0.400,-0.400,-0.400,0.000,0.000,0.000
1640078978412282112,"2021-12-21,09:29:38",10.1.1.7,0.3990750312805176,-0.400,-0.400,-0.400,0.000,0.000,0.000
1640078978791096832,"2021-12-21,09:29:38",10.1.1.7,375,-0.390,-0.390,-0.390,0.000,0.000,0.000
1640078978870977024,"2021-12-21,09:29:38",10.1.1.7,0.45585203170776367,-0.390,-0.390,-0.390,0.000,0.000,0.000
1640078979205615872,"2021-12-21,09:29:39",10.1.1.7,332,-0.380,-0.380,-0.380,0.000,0.000,0.000
1640078979278776832,"2021-12-21,09:29:39",10.1.1.7,0.4057741165161133,-0.380,-0.380,-0.380,0.000,0.000,0.000
1640078979693945856,"2021-12-21,09:29:39",10.1.1.7,413,-0.370,-0.370,-0.370,0.000,0.000,0.000
1640078979719940864,"2021-12-21,09:29:39",10.1.1.7,0.43980908393859863,-0.370,-0.370,-0.370,0.000,0.000,0.000
1640078980094227968,"2021-12-21,09:29:40",10.1.1.7,372,-0.360,-0.360,-0.360,0.000,0.000,0.000
1640078980153374976,"2021-12-21,09:29:40",10.1.1.7,0.4316990375518799,-0.360,-0.360,-0.360,0.000,0.000,0.000
1640078980631469056,"2021-12-21,09:29:40",10.1.1.7,472,-0.350,-0.350,-0.350,0.000,0.000,0.000
1640078980684439808,"2021-12-21,09:29:40",10.1.1.7,0.5252971649169922,-0.350,-0.350,-0.350,0.000,0.000,0.000
1640078981066854912,"2021-12-21,09:29:41",10.1.1.7,376,-0.340,-0.340,-0.340,0.000,0.000,0.000
1640078981171302912,"2021-12-21,09:29:41",10.1.1.7,0.48411011695861816,-0.340,-0.340,-0.340,0.000,0.000,0.000
1640078981618542080,"2021-12-21,09:29:41",10.1.1.7,438,-0.330,-0.330,-0.330,0.000,0.000,0.000
1640078981677309952,"2021-12-21,09:29:41",10.1.1.7,0.49745988845825195,-0.330,-0.330,-0.330,0.000,0.000,0.000
1640078982070213120,"2021-12-21,09:29:42",10.1.1.7,390,-0.320,-0.320,-0.320,0.000,0.000,0.000
1640078982180916992,"2021-12-21,09:29:42",10.1.1.7,0.5013830661773682,-0.320,-0.320,-0.320,0.000,0.000,0.000
1640078982631966976,"2021-12-21,09:29:42",10.1.1.7,449,-0.310,-0.310,-0.310,0.000,0.000,0.000
1640078982670558976,"2021-12-21,09:29:42",10.1.1.7,0.488048791885376,-0.310,-0.310,-0.310,0.000,0.000,0.000
1640078983031922176,"2021-12-21,09:29:43",10.1.1.7,359,-0.300,-0.300,-0.300,0.000,0.000,0.000
1640078983093310208,"2021-12-21,09:29:43",10.1.1.7,0.42119789123535156,-0.300,-0.300,-0.300,0.000,0.000,0.000
1640078983471145984,"2021-12-21,09:29:43",10.1.1.7,369,-0.290,-0.290,-0.290,0.000,0.000,0.000
1640078983592643072,"2021-12-21,09:29:43",10.1.1.7,0.49166083335876465,-0.290,-0.290,-0.290,0.000,0.000,0.000
1640078984034356992,"2021-12-21,09:29:44",10.1.1.7,440,-0.280,-0.280,-0.280,0.000,0.000,0.000
1640078984040889088,"2021-12-21,09:29:44",10.1.1.7,0.4469029903411865,-0.280,-0.280,-0.280,0.000,0.000,0.000
1640078984433912064,"2021-12-21,09:29:44",10.1.1.7,381,-0.270,-0.270,-0.270,0.000,0.000,0.000
1640078984518467072,"2021-12-21,09:29:44",10.1.1.7,0.47270989418029785,-0.270,-0.270,-0.270,0.000,0.000,0.000
1640078984931979776,"2021-12-21,09:29:44",10.1.1.7,409,-0.260,-0.260,-0.260,0.000,0.000,0.000
1640078985084606976,"2021-12-21,09:29:45",10.1.1.7,0.5621719360351562,-0.260,-0.260,-0.260,0.000,0.000,0.000
1640078985413050880,"2021-12-21,09:29:45",10.1.1.7,324,-0.250,-0.250,-0.250,0.000,0.000,0.000
1640078985545607168,"2021-12-21,09:29:45",10.1.1.7,0.4561469554901123,-0.250,-0.250,-0.250,0.000,0.000,0.000
1640078985910440960,"2021-12-21,09:29:45",10.1.1.7,362,-0.240,-0.240,-0.240,0.000,0.000,0.000
1640078985996992000,"2021-12-21,09:29:45",10.1.1.7,0.44921112060546875,-0.240,-0.240,-0.240,0.000,0.000,0.000
1640078986473017856,"2021-12-21,09:29:46",10.1.1.7,446,-0.230,-0.230,-0.230,0.000,0.000,0.000
1640078986542409984,"2021-12-21,09:29:46",10.1.1.7,0.5256350040435791,-0.230,-0.230,-0.230,0.000,0.000,0.000
1640078986942356992,"2021-12-21,09:29:46",10.1.1.7,394,-0.220,-0.220,-0.220,0.000,0.000,0.000
1640078987033024000,"2021-12-21,09:29:47",10.1.1.7,0.4847071170806885,-0.220,-0.220,-0.220,0.000,0.000,0.000
1640078987441224192,"2021-12-21,09:29:47",10.1.1.7,405,-0.210,-0.210,-0.210,0.000,0.000,0.000
1640078987451808000,"2021-12-21,09:29:47",10.1.1.7,0.4160950183868408,-0.210,-0.210,-0.210,0.000,0.000,0.000
1640078987863201024,"2021-12-21,09:29:47",10.1.1.7,407,-0.200,-0.200,-0.200,0.000,0.000,0.000
1640078987935340800,"2021-12-21,09:29:47",10.1.1.7,0.47921204566955566,-0.200,-0.200,-0.200,0.000,0.000,0.000
1640078988383290112,"2021-12-21,09:29:48",10.1.1.7,438,-0.190,-0.190,-0.190,0.000,0.000,0.000
1640078988451633920,"2021-12-21,09:29:48",10.1.1.7,0.5071020126342773,-0.190,-0.190,-0.190,0.000,0.000,0.000
1640078988813149952,"2021-12-21,09:29:48",10.1.1.7,359,-0.180,-0.180,-0.180,0.000,0.000,0.000
1640078988919835136,"2021-12-21,09:29:48",10.1.1.7,0.46578097343444824,-0.180,-0.180,-0.180,0.000,0.000,0.000
1640078989336466176,"2021-12-21,09:29:49",10.1.1.7,411,-0.170,-0.170,-0.170,0.000,0.000,0.000
1640078989424307200,"2021-12-21,09:29:49",10.1.1.7,0.5029218196868896,-0.170,-0.170,-0.170,0.000,0.000,0.000
1640078989843512064,"2021-12-21,09:29:49",10.1.1.7,417,-0.160,-0.160,-0.160,0.000,0.000,0.000
1640078989922207232,"2021-12-21,09:29:49",10.1.1.7,0.4962160587310791,-0.160,-0.160,-0.160,0.000,0.000,0.000
1640078990381625856,"2021-12-21,09:29:50",10.1.1.7,457,-0.150,-0.150,-0.150,0.000,0.000,0.000
1640078990414906112,"2021-12-21,09:29:50",10.1.1.7,0.49108290672302246,-0.150,-0.150,-0.150,0.000,0.000,0.000
1640078990821902080,"2021-12-21,09:29:50",10.1.1.7,405,-0.140,-0.140,-0.140,0.000,0.000,0.000
1640078990896500224,"2021-12-21,09:29:50",10.1.1.7,0.48032498359680176,-0.140,-0.140,-0.140,0.000,0.000,0.000
1640078991666289920,"2021-12-21,09:29:51",10.1.1.7,759,-0.130,-0.130,-0.130,0.000,0.000,0.000
1640078991694150912,"2021-12-21,09:29:51",10.1.1.7,0.790388822555542,-0.130,-0.130,-0.130,0.000,0.000,0.000
1640078992078351104,"2021-12-21,09:29:52",10.1.1.7,365,-0.120,-0.120,-0.120,0.000,0.000,0.000
1640078992180668160,"2021-12-21,09:29:52",10.1.1.7,0.46817803382873535,-0.120,-0.120,-0.120,0.000,0.000,0.000
1640078992529009152,"2021-12-21,09:29:52",10.1.1.7,346,-0.110,-0.110,-0.110,0.000,0.000,0.000
1640078992574490112,"2021-12-21,09:29:52",10.1.1.7,0.39246582984924316,-0.110,-0.110,-0.110,0.000,0.000,0.000
1640078992918158080,"2021-12-21,09:29:52",10.1.1.7,340,-0.100,-0.100,-0.100,0.000,0.000,0.000
1640078992993467136,"2021-12-21,09:29:52",10.1.1.7,0.413287878036499,-0.100,-0.100,-0.100,0.000,0.000,0.000
1640078993328649984,"2021-12-21,09:29:53",10.1.1.7,333,-0.090,-0.090,-0.090,0.000,0.000,0.000
1640078993410838016,"2021-12-21,09:29:53",10.1.1.7,0.415910005569458,-0.090,-0.090,-0.090,0.000,0.000,0.000
1640078993727080192,"2021-12-21,09:29:53",10.1.1.7,314,-0.080,-0.080,-0.080,0.000,0.000,0.000
1640078993784951040,"2021-12-21,09:29:53",10.1.1.7,0.3727278709411621,-0.080,-0.080,-0.080,0.000,0.000,0.000
1640078994117073920,"2021-12-21,09:29:54",10.1.1.7,330,-0.070,-0.070,-0.070,0.000,0.000,0.000
1640078994283793920,"2021-12-21,09:29:54",10.1.1.7,0.49706292152404785,-0.070,-0.070,-0.070,0.000,0.000,0.000
1640078994652584192,"2021-12-21,09:29:54",10.1.1.7,367,-0.060,-0.060,-0.060,0.000,0.000,0.000
1640078994689987840,"2021-12-21,09:29:54",10.1.1.7,0.40467000007629395,-0.060,-0.060,-0.060,0.000,0.000,0.000
1640078995035768064,"2021-12-21,09:29:55",10.1.1.7,344,-0.050,-0.050,-0.050,0.000,0.000,0.000
1640078995087696128,"2021-12-21,09:29:55",10.1.1.7,0.39635205268859863,-0.050,-0.050,-0.050,0.000,0.000,0.000
1640078995435096064,"2021-12-21,09:29:55",10.1.1.7,345,-0.040,-0.040,-0.040,0.000,0.000,0.000
1640078995476278016,"2021-12-21,09:29:55",10.1.1.7,0.3852829933166504,-0.040,-0.040,-0.040,0.000,0.000,0.000
1640078995826034944,"2021-12-21,09:29:55",10.1.1.7,346,-0.030,-0.030,-0.030,0.000,0.000,0.000
1640078995871098112,"2021-12-21,09:29:55",10.1.1.7,0.3921201229095459,-0.030,-0.030,-0.030,0.000,0.000,0.000
1640078996279788032,"2021-12-21,09:29:56",10.1.1.7,405,-0.020,-0.020,-0.020,0.000,0.000,0.000
1640078996310746880,"2021-12-21,09:29:56",10.1.1.7,0.43715906143188477,-0.020,-0.020,-0.020,0.000,0.000,0.000
1640078996653427968,"2021-12-21,09:29:56",10.1.1.7,341,-0.010,-0.010,-0.010,0.000,0.000,0.000
1640078996710125824,"2021-12-21,09:29:56",10.1.1.7,0.3978738784790039,-0.010,-0.010,-0.010,0.000,0.000,0.000
1640078997053379072,"2021-12-21,09:29:57",10.1.1.7,341,0.000,0.000,0.000,0.000,0.000,0.000
1640078997139282944,"2021-12-21,09:29:57",10.1.1.7,0.42740893363952637,0.000,0.000,0.000,0.000,0.000,0.000
1640078997473895168,"2021-12-21,09:29:57",10.1.1.7,332,-0.010,-0.010,-0.010,0.000,0.000,0.000
1640078997549121024,"2021-12-21,09:29:57",10.1.1.7,0.40787220001220703,-0.010,-0.010,-0.010,0.000,0.000,0.000
1640078997956248064,"2021-12-21,09:29:57",10.1.1.7,399,-0.020,-0.020,-0.020,0.000,0.000,0.000
1640078997999525120,"2021-12-21,09:29:57",10.1.1.7,0.4423091411590576,-0.020,-0.020,-0.020,0.000,0.000,0.000
1640078998401371904,"2021-12-21,09:29:58",10.1.1.7,400,-0.030,-0.030,-0.030,0.000,0.000,0.000
1640078998467331840,"2021-12-21,09:29:58",10.1.1.7,0.4664938449859619,-0.030,-0.030,-0.030,0.000,0.000,0.000
1640078998891539968,"2021-12-21,09:29:58",10.1.1.7,400,-0.040,-0.040,-0.040,0.000,0.000,0.000
1640078998975560960,"2021-12-21,09:29:58",10.1.1.7,0.48511791229248047,-0.040,-0.040,-0.040,0.000,0.000,0.000
1640078999364226048,"2021-12-21,09:29:59",10.1.1.7,387,-0.050,-0.050,-0.050,0.000,0.000,0.000
1640078999425193984,"2021-12-21,09:29:59",10.1.1.7,0.44810986518859863,-0.050,-0.050,-0.050,0.000,0.000,0.000
1640078999834810112,"2021-12-21,09:29:59",10.1.1.7,392,-0.060,-0.060,-0.060,0.000,0.000,0.000
1640078999867352064,"2021-12-21,09:29:59",10.1.1.7,0.42550086975097656,-0.060,-0.060,-0.060,0.000,0.000,0.000
1640079000289537024,"2021-12-21,09:30:00",10.1.1.7,418,-0.070,-0.070,-0.070,0.000,0.000,0.000
1640079000317511936,"2021-12-21,09:30:00",10.1.1.7,0.44693613052368164,-0.070,-0.070,-0.070,0.000,0.000,0.000
1640079000708410880,"2021-12-21,09:30:00",10.1.1.7,388,-0.080,-0.080,-0.080,0.000,0.000,0.000
1640079000765837056,"2021-12-21,09:30:00",10.1.1.7,0.44596004486083984,-0.080,-0.080,-0.080,0.000,0.000,0.000
1640079001167921152,"2021-12-21,09:30:01",10.1.1.7,399,-0.090,-0.090,-0.090,0.000,0.000,0.000
1640079001291831040,"2021-12-21,09:30:01",10.1.1.7,0.5234229564666748,-0.090,-0.090,-0.090,0.000,0.000,0.000
1640079001677124096,"2021-12-21,09:30:01",10.1.1.7,383,-0.100,-0.100,-0.100,0.000,0.000,0.000
1640079001758582016,"2021-12-21,09:30:01",10.1.1.7,0.4650731086730957,-0.100,-0.100,-0.100,0.000,0.000,0.000
1640079002096600064,"2021-12-21,09:30:02",10.1.1.7,336,-0.110,-0.110,-0.110,0.000,0.000,0.000
1640079002135790080,"2021-12-21,09:30:02",10.1.1.7,0.3737962245941162,-0.110,-0.110,-0.110,0.000,0.000,0.000
1640079002466185984,"2021-12-21,09:30:02",10.1.1.7,324,-0.120,-0.120,-0.120,0.000,0.000,0.000
1640079002553332992,"2021-12-21,09:30:02",10.1.1.7,0.4113290309906006,-0.120,-0.120,-0.120,0.000,0.000,0.000
1640079002895604992,"2021-12-21,09:30:02",10.1.1.7,334,-0.130,-0.130,-0.130,0.000,0.000,0.000
1640079003021377024,"2021-12-21,09:30:03",10.1.1.7,0.45155787467956543,-0.130,-0.130,-0.130,0.000,0.000,0.000
1640079003437666048,"2021-12-21,09:30:03",10.1.1.7,414,-0.140,-0.140,-0.140,0.000,0.000,0.000
1640079003468421888,"2021-12-21,09:30:03",10.1.1.7,0.4448208808898926,-0.140,-0.140,-0.140,0.000,0.000,0.000
1640079003823961088,"2021-12-21,09:30:03",10.1.1.7,354,-0.150,-0.150,-0.150,0.000,0.000,0.000
1640079003936726016,"2021-12-21,09:30:03",10.1.1.7,0.4619019031524658,-0.150,-0.150,-0.150,0.000,0.000,0.000
1640079004302812160,"2021-12-21,09:30:04",10.1.1.7,362,-0.160,-0.160,-0.160,0.000,0.000,0.000
1640079004369665024,"2021-12-21,09:30:04",10.1.1.7,0.430070161819458,-0.160,-0.160,-0.160,0.000,0.000,0.000
1640079004743208960,"2021-12-21,09:30:04",10.1.1.7,368,-0.170,-0.170,-0.170,0.000,0.000,0.000
1640079004805910016,"2021-12-21,09:30:04",10.1.1.7,0.43035387992858887,-0.170,-0.170,-0.170,0.000,0.000,0.000
1640079005123251968,"2021-12-21,09:30:05",10.1.1.7,315,-0.180,-0.180,-0.180,0.000,0.000,0.000
1640079005185463808,"2021-12-21,09:30:05",10.1.1.7,0.3781311511993408,-0.180,-0.180,-0.180,0.000,0.000,0.000
1640079005579230976,"2021-12-21,09:30:05",10.1.1.7,389,-0.190,-0.190,-0.190,0.000,0.000,0.000
1640079005601239808,"2021-12-21,09:30:05",10.1.1.7,0.4111311435699463,-0.190,-0.190,-0.190,0.000,0.000,0.000
1640079005975961088,"2021-12-21,09:30:05",10.1.1.7,371,-0.200,-0.200,-0.200,0.000,0.000,0.000
1640079006026269952,"2021-12-21,09:30:06",10.1.1.7,0.4229710102081299,-0.200,-0.200,-0.200,0.000,0.000,0.000
1640079006390176000,"2021-12-21,09:30:06",10.1.1.7,361,-0.210,-0.210,-0.210,0.000,0.000,0.000
1640079006468955136,"2021-12-21,09:30:06",10.1.1.7,0.44058990478515625,-0.210,-0.210,-0.210,0.000,0.000,0.000
1640079006839104000,"2021-12-21,09:30:06",10.1.1.7,367,-0.220,-0.220,-0.220,0.000,0.000,0.000
1640079006948441856,"2021-12-21,09:30:06",10.1.1.7,0.47722601890563965,-0.220,-0.220,-0.220,0.000,0.000,0.000
1640079007279092992,"2021-12-21,09:30:07",10.1.1.7,329,-0.230,-0.230,-0.230,0.000,0.000,0.000
1640079007327188992,"2021-12-21,09:30:07",10.1.1.7,0.37624406814575195,-0.230,-0.230,-0.230,0.000,0.000,0.000
1640079007724560128,"2021-12-21,09:30:07",10.1.1.7,394,-0.240,-0.240,-0.240,0.000,0.000,0.000
1640079007886437888,"2021-12-21,09:30:07",10.1.1.7,0.5558948516845703,-0.240,-0.240,-0.240,0.000,0.000,0.000
1640079008330234112,"2021-12-21,09:30:08",10.1.1.7,439,-0.250,-0.250,-0.250,0.000,0.000,0.000
1640079008364342016,"2021-12-21,09:30:08",10.1.1.7,0.47347116470336914,-0.250,-0.250,-0.250,0.000,0.000,0.000
1640079008733284864,"2021-12-21,09:30:08",10.1.1.7,365,-0.260,-0.260,-0.260,0.000,0.000,0.000
1640079008818269952,"2021-12-21,09:30:08",10.1.1.7,0.45095014572143555,-0.260,-0.260,-0.260,0.000,0.000,0.000
1640079009190138112,"2021-12-21,09:30:09",10.1.1.7,0.36344003677368164,-0.270,-0.270,-0.270,0.000,0.000,0.000
1640079009199354880,"2021-12-21,09:30:09",10.1.1.7,365,-0.270,-0.270,-0.270,0.000,0.000,0.000
1640079009575751936,"2021-12-21,09:30:09",10.1.1.7,376,-0.280,-0.280,-0.280,0.000,0.000,0.000
1640079009668229120,"2021-12-21,09:30:09",10.1.1.7,0.4682590961456299,-0.280,-0.280,-0.280,0.000,0.000,0.000
1640079010017666048,"2021-12-21,09:30:10",10.1.1.7,345,-0.290,-0.290,-0.290,0.000,0.000,0.000
1640079010104239104,"2021-12-21,09:30:10",10.1.1.7,0.43236494064331055,-0.290,-0.290,-0.290,0.000,0.000,0.000
1640079010449291008,"2021-12-21,09:30:10",10.1.1.7,343,-0.300,-0.300,-0.300,0.000,0.000,0.000
1640079010521605888,"2021-12-21,09:30:10",10.1.1.7,0.41578078269958496,-0.300,-0.300,-0.300,0.000,0.000,0.000
1640079010911955200,"2021-12-21,09:30:10",10.1.1.7,383,-0.310,-0.310,-0.310,0.000,0.000,0.000
1640079011001271040,"2021-12-21,09:30:11",10.1.1.7,0.4737849235534668,-0.310,-0.310,-0.310,0.000,0.000,0.000
1640079011311153920,"2021-12-21,09:30:11",10.1.1.7,307,-0.320,-0.320,-0.320,0.000,0.000,0.000
1640079011398469888,"2021-12-21,09:30:11",10.1.1.7,0.3953559398651123,-0.320,-0.320,-0.320,0.000,0.000,0.000
1640079013647365120,"2021-12-21,09:30:13",10.1.1.7,2246,-0.330,-0.330,-0.330,0.000,0.000,0.000
1640079013718630912,"2021-12-21,09:30:13",10.1.1.7,2.3180959224700928,-0.330,-0.330,-0.330,0.000,0.000,0.000
1640079014060224000,"2021-12-21,09:30:14",10.1.1.7,340,-0.340,-0.340,-0.340,0.000,0.000,0.000
1640079014135106048,"2021-12-21,09:30:14",10.1.1.7,0.4149940013885498,-0.340,-0.340,-0.340,0.000,0.000,0.000
1640079014493902848,"2021-12-21,09:30:14",10.1.1.7,357,-0.350,-0.350,-0.350,0.000,0.000,0.000
1640079014544507904,"2021-12-21,09:30:14",10.1.1.7,0.40810704231262207,-0.350,-0.350,-0.350,0.000,0.000,0.000
1640079014982160128,"2021-12-21,09:30:14",10.1.1.7,436,-0.360,-0.360,-0.360,0.000,0.000,0.000
1640079015058434048,"2021-12-21,09:30:15",10.1.1.7,0.5099940299987793,-0.360,-0.360,-0.360,0.000,0.000,0.000
1640079015451646208,"2021-12-21,09:30:15",10.1.1.7,388,-0.370,-0.370,-0.370,0.000,0.000,0.000
1640079015514398976,"2021-12-21,09:30:15",10.1.1.7,0.45290493965148926,-0.370,-0.370,-0.370,0.000,0.000,0.000
1640079015879904000,"2021-12-21,09:30:15",10.1.1.7,364,-0.380,-0.380,-0.380,0.000,0.000,0.000
1640079015995926016,"2021-12-21,09:30:15",10.1.1.7,0.4800429344177246,-0.380,-0.380,-0.380,0.000,0.000,0.000
1640079016384571136,"2021-12-21,09:30:16",10.1.1.7,385,-0.390,-0.390,-0.390,0.000,0.000,0.000
1640079016435372032,"2021-12-21,09:30:16",10.1.1.7,0.4363548755645752,-0.390,-0.390,-0.390,0.000,0.000,0.000
1640079016835268864,"2021-12-21,09:30:16",10.1.1.7,398,-0.400,-0.400,-0.400,0.000,0.000,0.000
1640079016891320832,"2021-12-21,09:30:16",10.1.1.7,0.4542570114135742,-0.400,-0.400,-0.400,0.000,0.000,0.000
1640079017272336896,"2021-12-21,09:30:17",10.1.1.7,379,-0.410,-0.410,-0.410,0.000,0.000,0.000
1640079017340455936,"2021-12-21,09:30:17",10.1.1.7,0.4478940963745117,-0.410,-0.410,-0.410,0.000,0.000,0.000
1640079017724999936,"2021-12-21,09:30:17",10.1.1.7,380,-0.420,-0.420,-0.420,0.000,0.000,0.000
1640079017795977216,"2021-12-21,09:30:17",10.1.1.7,0.4516029357910156,-0.420,-0.420,-0.420,0.000,0.000,0.000
1640079018151953920,"2021-12-21,09:30:18",10.1.1.7,354,-0.430,-0.430,-0.430,0.000,0.000,0.000
1640079018252535040,"2021-12-21,09:30:18",10.1.1.7,0.4549238681793213,-0.430,-0.430,-0.430,0.000,0.000,0.000
1640079018622469888,"2021-12-21,09:30:18",10.1.1.7,367,-0.440,-0.440,-0.440,0.000,0.000,0.000
1640079018704696064,"2021-12-21,09:30:18",10.1.1.7,0.45008206367492676,-0.440,-0.440,-0.440,0.000,0.000,0.000
1640079019092546816,"2021-12-21,09:30:19",10.1.1.7,386,-0.450,-0.450,-0.450,0.000,0.000,0.000
1640079019188894976,"2021-12-21,09:30:19",10.1.1.7,0.48270487785339355,-0.450,-0.450,-0.450,0.000,0.000,0.000
1640079019547700992,"2021-12-21,09:30:19",10.1.1.7,347,-0.460,-0.460,-0.460,0.000,0.000,0.000
1640079019646900992,"2021-12-21,09:30:19",10.1.1.7,0.4485969543457031,-0.460,-0.460,-0.460,0.000,0.000,0.000
1640079020034415872,"2021-12-21,09:30:20",10.1.1.7,380,-0.470,-0.470,-0.470,0.000,0.000,0.000
1640079020113531136,"2021-12-21,09:30:20",10.1.1.7,0.461101770401001,-0.470,-0.470,-0.470,0.000,0.000,0.000
1640079020442894080,"2021-12-21,09:30:20",10.1.1.7,327,-0.480,-0.480,-0.480,0.000,0.000,0.000
1640079020527483904,"2021-12-21,09:30:20",10.1.1.7,0.4120349884033203,-0.480,-0.480,-0.480,0.000,0.000,0.000
1640079020881780992,"2021-12-21,09:30:20",10.1.1.7,348,-0.490,-0.490,-0.490,0.000,0.000,0.000
1640079020945478912,"2021-12-21,09:30:20",10.1.1.7,0.4117889404296875,-0.490,-0.490,-0.490,0.000,0.000,0.000
1640079021322190080,"2021-12-21,09:30:21",10.1.1.7,368,-0.480,-0.480,-0.480,0.000,0.000,0.000
1640079021374557952,"2021-12-21,09:30:21",10.1.1.7,0.4207189083099365,-0.480,-0.480,-0.480,0.000,0.000,0.000
1640079021811331072,"2021-12-21,09:30:21",10.1.1.7,434,-0.470,-0.470,-0.470,0.000,0.000,0.000
1640079021844489984,"2021-12-21,09:30:21",10.1.1.7,0.46764397621154785,-0.470,-0.470,-0.470,0.000,0.000,0.000
1640079022270292992,"2021-12-21,09:30:22",10.1.1.7,423,-0.460,-0.460,-0.460,0.000,0.000,0.000
1640079022314467072,"2021-12-21,09:30:22",10.1.1.7,0.46792101860046387,-0.460,-0.460,-0.460,0.000,0.000,0.000
1640079022732402176,"2021-12-21,09:30:22",10.1.1.7,414,-0.450,-0.450,-0.450,0.000,0.000,0.000
1640079022791924992,"2021-12-21,09:30:22",10.1.1.7,0.4744250774383545,-0.450,-0.450,-0.450,0.000,0.000,0.000
1640079023182295040,"2021-12-21,09:30:23",10.1.1.7,386,-0.440,-0.440,-0.440,0.000,0.000,0.000
1640079023241494016,"2021-12-21,09:30:23",10.1.1.7,0.4459381103515625,-0.440,-0.440,-0.440,0.000,0.000,0.000
1640079023573147136,"2021-12-21,09:30:23",10.1.1.7,330,-0.430,-0.430,-0.430,0.000,0.000,0.000
1640079023626536960,"2021-12-21,09:30:23",10.1.1.7,0.38362693786621094,-0.430,-0.430,-0.430,0.000,0.000,0.000
1640079024009382912,"2021-12-21,09:30:24",10.1.1.7,372,-0.420,-0.420,-0.420,0.000,0.000,0.000
1640079024116684032,"2021-12-21,09:30:24",10.1.1.7,0.4802241325378418,-0.420,-0.420,-0.420,0.000,0.000,0.000
1640079024508944128,"2021-12-21,09:30:24",10.1.1.7,387,-0.410,-0.410,-0.410,0.000,0.000,0.000
1640079024559351808,"2021-12-21,09:30:24",10.1.1.7,0.4376189708709717,-0.410,-0.410,-0.410,0.000,0.000,0.000
1640079024929054976,"2021-12-21,09:30:24",10.1.1.7,358,-0.400,-0.400,-0.400,0.000,0.000,0.000
1640079025003674112,"2021-12-21,09:30:25",10.1.1.7,0.43274593353271484,-0.400,-0.400,-0.400,0.000,0.000,0.000
1640079025369935872,"2021-12-21,09:30:25",10.1.1.7,363,-0.390,-0.390,-0.390,0.000,0.000,0.000
1640079025482515200,"2021-12-21,09:30:25",10.1.1.7,0.4760148525238037,-0.390,-0.390,-0.390,0.000,0.000,0.000
1640079026001679872,"2021-12-21,09:30:26",10.1.1.7,517,-0.380,-0.380,-0.380,0.000,0.000,0.000
1640079026080185856,"2021-12-21,09:30:26",10.1.1.7,0.5954890251159668,-0.380,-0.380,-0.380,0.000,0.000,0.000
1640079026518016000,"2021-12-21,09:30:26",10.1.1.7,436,-0.370,-0.370,-0.370,0.000,0.000,0.000
1640079026588116992,"2021-12-21,09:30:26",10.1.1.7,0.5063159465789795,-0.370,-0.370,-0.370,0.000,0.000,0.000
1640079027019746048,"2021-12-21,09:30:27",10.1.1.7,428,-0.360,-0.360,-0.360,0.000,0.000,0.000
1640079027104707072,"2021-12-21,09:30:27",10.1.1.7,0.5132451057434082,-0.360,-0.360,-0.360,0.000,0.000,0.000
1640079027533111040,"2021-12-21,09:30:27",10.1.1.7,425,-0.350,-0.350,-0.350,0.000,0.000,0.000
1640079027646871040,"2021-12-21,09:30:27",10.1.1.7,0.5397920608520508,-0.350,-0.350,-0.350,0.000,0.000,0.000
1640079028026958080,"2021-12-21,09:30:28",10.1.1.7,377,-0.340,-0.340,-0.340,0.000,0.000,0.000
1640079028114720000,"2021-12-21,09:30:28",10.1.1.7,0.4654200077056885,-0.340,-0.340,-0.340,0.000,0.000,0.000
1640079028508861952,"2021-12-21,09:30:28",10.1.1.7,389,-0.330,-0.330,-0.330,0.000,0.000,0.000
1640079028568556032,"2021-12-21,09:30:28",10.1.1.7,0.45247697830200195,-0.330,-0.330,-0.330,0.000,0.000,0.000
1640079028958690048,"2021-12-21,09:30:28",10.1.1.7,385,-0.320,-0.320,-0.320,0.000,0.000,0.000
1640079029052068096,"2021-12-21,09:30:29",10.1.1.7,0.47893190383911133,-0.320,-0.320,-0.320,0.000,0.000,0.000
1640079029415921920,"2021-12-21,09:30:29",10.1.1.7,362,-0.310,-0.310,-0.310,0.000,0.000,0.000
1640079029492912128,"2021-12-21,09:30:29",10.1.1.7,0.43906092643737793,-0.310,-0.310,-0.310,0.000,0.000,0.000
1640079029833709056,"2021-12-21,09:30:29",10.1.1.7,337,-0.300,-0.300,-0.300,0.000,0.000,0.000
1640079029925688064,"2021-12-21,09:30:29",10.1.1.7,0.4265880584716797,-0.300,-0.300,-0.300,0.000,0.000,0.000
1640079030294099200,"2021-12-21,09:30:30",10.1.1.7,366,-0.290,-0.290,-0.290,0.000,0.000,0.000
1640079030416583168,"2021-12-21,09:30:30",10.1.1.7,0.4895319938659668,-0.290,-0.290,-0.290,0.000,0.000,0.000
1640079030853178112,"2021-12-21,09:30:30",10.1.1.7,416,-0.280,-0.280,-0.280,0.000,0.000,0.000
1640079030902019072,"2021-12-21,09:30:30",10.1.1.7,0.4654998779296875,-0.280,-0.280,-0.280,0.000,0.000,0.000
1640079031368116992,"2021-12-21,09:30:31",10.1.1.7,463,-0.270,-0.270,-0.270,0.000,0.000,0.000
1640079031430529024,"2021-12-21,09:30:31",10.1.1.7,0.5259079933166504,-0.270,-0.270,-0.270,0.000,0.000,0.000
1640079031801337088,"2021-12-21,09:30:31",10.1.1.7,367,-0.260,-0.260,-0.260,0.000,0.000,0.000
1640079031897233920,"2021-12-21,09:30:31",10.1.1.7,0.4636988639831543,-0.260,-0.260,-0.260,0.000,0.000,0.000
1640079032271609088,"2021-12-21,09:30:32",10.1.1.7,366,-0.250,-0.250,-0.250,0.000,0.000,0.000
1640079032319611136,"2021-12-21,09:30:32",10.1.1.7,0.41494107246398926,-0.250,-0.250,-0.250,0.000,0.000,0.000
1640079032671857152,"2021-12-21,09:30:32",10.1.1.7,350,-0.240,-0.240,-0.240,0.000,0.000,0.000
1640079032761172992,"2021-12-21,09:30:32",10.1.1.7,0.4398350715637207,-0.240,-0.240,-0.240,0.000,0.000,0.000
1640079033131268096,"2021-12-21,09:30:33",10.1.1.7,363,-0.230,-0.230,-0.230,0.000,0.000,0.000
1640079033199955968,"2021-12-21,09:30:33",10.1.1.7,0.43237805366516113,-0.230,-0.230,-0.230,0.000,0.000,0.000
1640079033549496832,"2021-12-21,09:30:33",10.1.1.7,337,-0.220,-0.220,-0.220,0.000,0.000,0.000
1640079033572585216,"2021-12-21,09:30:33",10.1.1.7,0.3610401153564453,-0.220,-0.220,-0.220,0.000,0.000,0.000
1640079033969945856,"2021-12-21,09:30:33",10.1.1.7,392,-0.210,-0.210,-0.210,0.000,0.000,0.000
1640079034122700032,"2021-12-21,09:30:34",10.1.1.7,0.5457830429077148,-0.210,-0.210,-0.210,0.000,0.000,0.000
1640079034459016192,"2021-12-21,09:30:34",10.1.1.7,334,-0.200,-0.200,-0.200,0.000,0.000,0.000
1640079034543556864,"2021-12-21,09:30:34",10.1.1.7,0.4189150333404541,-0.200,-0.200,-0.200,0.000,0.000,0.000
1640079034928589056,"2021-12-21,09:30:34",10.1.1.7,382,-0.190,-0.190,-0.190,0.000,0.000,0.000
1640079035000168192,"2021-12-21,09:30:35",10.1.1.7,0.45451807975769043,-0.190,-0.190,-0.190,0.000,0.000,0.000
1640079035356772864,"2021-12-21,09:30:35",10.1.1.7,350,-0.180,-0.180,-0.180,0.000,0.000,0.000
1640079035424568832,"2021-12-21,09:30:35",10.1.1.7,0.41880106925964355,-0.180,-0.180,-0.180,0.000,0.000,0.000
1640079035809562880,"2021-12-21,09:30:35",10.1.1.7,383,-0.170,-0.170,-0.170,0.000,0.000,0.000
1640079035934868992,"2021-12-21,09:30:35",10.1.1.7,0.5084271430969238,-0.170,-0.170,-0.170,0.000,0.000,0.000
1640079036375571968,"2021-12-21,09:30:36",10.1.1.7,435,-0.160,-0.160,-0.160,0.000,0.000,0.000
1640079036472378112,"2021-12-21,09:30:36",10.1.1.7,0.5322329998016357,-0.160,-0.160,-0.160,0.000,0.000,0.000
1640079036896961024,"2021-12-21,09:30:36",10.1.1.7,412,-0.150,-0.150,-0.150,0.000,0.000,0.000
1640079036968502016,"2021-12-21,09:30:36",10.1.1.7,0.4837980270385742,-0.150,-0.150,-0.150,0.000,0.000,0.000
1640079037392822016,"2021-12-21,09:30:37",10.1.1.7,422,-0.140,-0.140,-0.140,0.000,0.000,0.000
1640079037476871936,"2021-12-21,09:30:37",10.1.1.7,0.5067589282989502,-0.140,-0.140,-0.140,0.000,0.000,0.000
1640079037823732992,"2021-12-21,09:30:37",10.1.1.7,345,-0.130,-0.130,-0.130,0.000,0.000,0.000
1640079037945700864,"2021-12-21,09:30:37",10.1.1.7,0.46746301651000977,-0.130,-0.130,-0.130,0.000,0.000,0.000
1640079038321267968,"2021-12-21,09:30:38",10.1.1.7,366,-0.120,-0.120,-0.120,0.000,0.000,0.000
1640079038389128960,"2021-12-21,09:30:38",10.1.1.7,0.4347958564758301,-0.120,-0.120,-0.120,0.000,0.000,0.000
1640079038770819072,"2021-12-21,09:30:38",10.1.1.7,380,-0.110,-0.110,-0.110,0.000,0.000,0.000
1640079038845746944,"2021-12-21,09:30:38",10.1.1.7,0.45470619201660156,-0.110,-0.110,-0.110,0.000,0.000,0.000
1640079039210227968,"2021-12-21,09:30:39",10.1.1.7,362,-0.100,-0.100,-0.100,0.000,0.000,0.000
1640079039280257024,"2021-12-21,09:30:39",10.1.1.7,0.43227696418762207,-0.100,-0.100,-0.100,0.000,0.000,0.000
1640079039629391872,"2021-12-21,09:30:39",10.1.1.7,347,-0.090,-0.090,-0.090,0.000,0.000,0.000
1640079039681513984,"2021-12-21,09:30:39",10.1.1.7,0.3999149799346924,-0.090,-0.090,-0.090,0.000,0.000,0.000
1640079040028800000,"2021-12-21,09:30:40",10.1.1.7,345,-0.080,-0.080,-0.080,0.000,0.000,0.000
1640079040094621952,"2021-12-21,09:30:40",10.1.1.7,0.4115281105041504,-0.080,-0.080,-0.080,0.000,0.000,0.000
1640079040467833088,"2021-12-21,09:30:40",10.1.1.7,371,-0.070,-0.070,-0.070,0.000,0.000,0.000
1640079040526324992,"2021-12-21,09:30:40",10.1.1.7,0.43016600608825684,-0.070,-0.070,-0.070,0.000,0.000,0.000
1640079040993633024,"2021-12-21,09:30:40",10.1.1.7,464,-0.060,-0.060,-0.060,0.000,0.000,0.000
1640079041035972096,"2021-12-21,09:30:41",10.1.1.7,0.5077219009399414,-0.060,-0.060,-0.060,0.000,0.000,0.000
1640079041440016896,"2021-12-21,09:30:41",10.1.1.7,401,-0.050,-0.050,-0.050,0.000,0.000,0.000
1640079041495628032,"2021-12-21,09:30:41",10.1.1.7,0.4573938846588135,-0.050,-0.050,-0.050,0.000,0.000,0.000
1640079041811744000,"2021-12-21,09:30:41",10.1.1.7,314,-0.040,-0.040,-0.040,0.000,0.000,0.000
1640079042079358976,"2021-12-21,09:30:42",10.1.1.7,0.5820930004119873,-0.040,-0.040,-0.040,0.000,0.000,0.000
1640079042506894080,"2021-12-21,09:30:42",10.1.1.7,425,-0.030,-0.030,-0.030,0.000,0.000,0.000
1640079042585452032,"2021-12-21,09:30:42",10.1.1.7,0.5042710304260254,-0.030,-0.030,-0.030,0.000,0.000,0.000
1640079042928299776,"2021-12-21,09:30:42",10.1.1.7,339,-0.020,-0.020,-0.020,0.000,0.000,0.000
1640079043034364928,"2021-12-21,09:30:43",10.1.1.7,0.44589900970458984,-0.020,-0.020,-0.020,0.000,0.000,0.000
1640079043439213056,"2021-12-21,09:30:43",10.1.1.7,383,-0.010,-0.010,-0.010,0.000,0.000,0.000
1640079043653709056,"2021-12-21,09:30:43",10.1.1.7,0.597808837890625,-0.010,-0.010,-0.010,0.000,0.000,0.000
1640079044044037120,"2021-12-21,09:30:44",10.1.1.7,383,0.000,0.000,0.000,0.000,0.000,0.000
1640079044160972032,"2021-12-21,09:30:44",10.1.1.7,0.5019659996032715,0.000,0.000,0.000,0.000,0.000,0.000
