FedericoMungari/DigitalTwin_service/01_WiredScenario/Output/Output_script/script_rosapi_2_output_robots4_freq0_3.txt
timestamp,date,node,latency,joint_1,joint_2,joint_3,joint_4,joint_5,joint_6
1644344711582568960,2022-02-08-18:25:11,10.1.1.4,9,-0.100,-0.100,-0.100,-0.000,0.000,-0.000
1644344711701905920,2022-02-08-18:25:11,10.1.1.4,28,-0.090,-0.090,-0.090,0.000,0.000,0.000
1644344711802510080,2022-02-08-18:25:11,10.1.1.4,26,-0.080,-0.080,-0.080,0.000,0.000,0.000
1644344711902477056,2022-02-08-18:25:11,10.1.1.4,25,-0.070,-0.070,-0.070,0.000,0.000,0.000
1644344712023303936,2022-02-08-18:25:12,10.1.1.4,45,-0.060,-0.060,-0.060,0.000,0.000,0.000
1644344712105285888,2022-02-08-18:25:12,10.1.1.4,23,-0.050,-0.050,-0.050,0.000,0.000,0.000
1644344712203335936,2022-02-08-18:25:12,10.1.1.4,22,-0.040,-0.040,-0.040,0.000,0.000,0.000
1644344712302656768,2022-02-08-18:25:12,10.1.1.4,21,-0.030,-0.030,-0.030,0.000,0.000,0.000
1644344712402324992,2022-02-08-18:25:12,10.1.1.4,19,-0.020,-0.020,-0.020,0.000,0.000,0.000
1644344712522244864,2022-02-08-18:25:12,10.1.1.4,38,-0.010,-0.010,-0.010,0.000,0.000,0.000
1644344712624436992,2022-02-08-18:25:12,10.1.1.4,35,0.000,0.000,0.000,0.000,0.000,0.000
1644344712723921152,2022-02-08-18:25:12,10.1.1.4,32,0.010,0.010,0.010,0.000,0.000,0.000
1644344712822656000,2022-02-08-18:25:12,10.1.1.4,31,0.020,0.020,0.020,0.000,0.000,0.000
1644344712922738176,2022-02-08-18:25:12,10.1.1.4,30,0.030,0.030,0.030,0.000,0.000,0.000
1644344713022816000,2022-02-08-18:25:13,10.1.1.4,28,0.040,0.040,0.040,0.000,0.000,0.000
1644344713123617024,2022-02-08-18:25:13,10.1.1.4,21,0.050,0.050,0.050,0.000,0.000,0.000
1644344713242125056,2022-02-08-18:25:13,10.1.1.4,38,0.060,0.060,0.060,0.000,0.000,0.000
1644344713343091968,2022-02-08-18:25:13,10.1.1.4,36,0.070,0.070,0.070,0.000,0.000,0.000
1644344713443875072,2022-02-08-18:25:13,10.1.1.4,34,0.080,0.080,0.080,0.000,0.000,0.000
1644344713542445824,2022-02-08-18:25:13,10.1.1.4,33,0.090,0.090,0.090,0.000,0.000,0.000
1644344713642906880,2022-02-08-18:25:13,10.1.1.4,31,0.100,0.100,0.100,0.000,0.000,0.000
1644344713742232064,2022-02-08-18:25:13,10.1.1.4,30,0.090,0.090,0.090,0.000,0.000,0.000
1644344713842411008,2022-02-08-18:25:13,10.1.1.4,29,0.080,0.080,0.080,0.000,0.000,0.000
1644344713942289152,2022-02-08-18:25:13,10.1.1.4,28,0.070,0.070,0.070,0.000,0.000,0.000
1644344714042412032,2022-02-08-18:25:14,10.1.1.4,25,0.060,0.060,0.060,0.000,0.000,0.000
1644344714141721088,2022-02-08-18:25:14,10.1.1.4,22,0.050,0.050,0.050,0.000,0.000,0.000
1644344714242269952,2022-02-08-18:25:14,10.1.1.4,21,0.040,0.040,0.040,0.000,0.000,0.000
1644344714363030784,2022-02-08-18:25:14,10.1.1.4,39,0.030,0.030,0.030,0.000,0.000,0.000
1644344714462012928,2022-02-08-18:25:14,10.1.1.4,38,0.020,0.020,0.020,0.000,0.000,0.000
1644344714563864832,2022-02-08-18:25:14,10.1.1.4,37,0.010,0.010,0.010,0.000,0.000,0.000
1644344714662556928,2022-02-08-18:25:14,10.1.1.4,35,0.000,0.000,0.000,0.000,0.000,0.000
1644344714762289920,2022-02-08-18:25:14,10.1.1.4,33,-0.010,-0.010,-0.010,0.000,0.000,0.000
1644344714862288896,2022-02-08-18:25:14,10.1.1.4,32,-0.020,-0.020,-0.020,0.000,0.000,0.000
1644344714962548992,2022-02-08-18:25:14,10.1.1.4,31,-0.030,-0.030,-0.030,0.000,0.000,0.000
1644344715062779904,2022-02-08-18:25:15,10.1.1.4,30,-0.040,-0.040,-0.040,0.000,0.000,0.000
1644344715162115072,2022-02-08-18:25:15,10.1.1.4,29,-0.050,-0.050,-0.050,0.000,0.000,0.000
1644344715261755904,2022-02-08-18:25:15,10.1.1.4,28,-0.060,-0.060,-0.060,0.000,0.000,0.000
1644344715361645056,2022-02-08-18:25:15,10.1.1.4,28,-0.070,-0.070,-0.070,0.000,0.000,0.000
1644344715461756928,2022-02-08-18:25:15,10.1.1.4,27,-0.080,-0.080,-0.080,0.000,0.000,0.000
1644344715561924096,2022-02-08-18:25:15,10.1.1.4,24,-0.090,-0.090,-0.090,0.000,0.000,0.000
1644344715661495040,2022-02-08-18:25:15,10.1.1.4,24,-0.100,-0.100,-0.100,0.000,0.000,0.000
1644344715762190080,2022-02-08-18:25:15,10.1.1.4,23,-0.090,-0.090,-0.090,0.000,0.000,0.000
1644344715862489088,2022-02-08-18:25:15,10.1.1.4,22,-0.080,-0.080,-0.080,0.000,0.000,0.000
1644344715962095104,2022-02-08-18:25:15,10.1.1.4,19,-0.070,-0.070,-0.070,0.000,0.000,0.000
1644344716081792000,2022-02-08-18:25:16,10.1.1.4,38,-0.060,-0.060,-0.060,0.000,0.000,0.000
1644344716182353920,2022-02-08-18:25:16,10.1.1.4,36,-0.050,-0.050,-0.050,0.000,0.000,0.000
1644344716282149120,2022-02-08-18:25:16,10.1.1.4,35,-0.040,-0.040,-0.040,0.000,0.000,0.000
1644344716382849024,2022-02-08-18:25:16,10.1.1.4,34,-0.030,-0.030,-0.030,0.000,0.000,0.000
1644344716482094080,2022-02-08-18:25:16,10.1.1.4,33,-0.020,-0.020,-0.020,0.000,0.000,0.000
1644344716582076160,2022-02-08-18:25:16,10.1.1.4,32,-0.010,-0.010,-0.010,0.000,0.000,0.000
1644344716682665984,2022-02-08-18:25:16,10.1.1.4,31,0.000,0.000,0.000,0.000,0.000,0.000
1644344716782994944,2022-02-08-18:25:16,10.1.1.4,30,0.010,0.010,0.010,0.000,0.000,0.000
1644344716882968832,2022-02-08-18:25:16,10.1.1.4,30,0.020,0.020,0.020,0.000,0.000,0.000
1644344716983333120,2022-02-08-18:25:16,10.1.1.4,26,0.030,0.030,0.030,0.000,0.000,0.000
1644344717082961920,2022-02-08-18:25:17,10.1.1.4,21,0.040,0.040,0.040,0.000,0.000,0.000
1644344717202328064,2022-02-08-18:25:17,10.1.1.4,38,0.050,0.050,0.050,0.000,0.000,0.000
1644344717301889024,2022-02-08-18:25:17,10.1.1.4,37,0.060,0.060,0.060,0.000,0.000,0.000
1644344717402791936,2022-02-08-18:25:17,10.1.1.4,36,0.070,0.070,0.070,0.000,0.000,0.000
1644344717502233088,2022-02-08-18:25:17,10.1.1.4,32,0.080,0.080,0.080,0.000,0.000,0.000
1644344717603473920,2022-02-08-18:25:17,10.1.1.4,31,0.090,0.090,0.090,0.000,0.000,0.000
1644344717702734080,2022-02-08-18:25:17,10.1.1.4,30,0.100,0.100,0.100,0.000,0.000,0.000
1644344717802644992,2022-02-08-18:25:17,10.1.1.4,29,0.090,0.090,0.090,0.000,0.000,0.000
1644344717902915072,2022-02-08-18:25:17,10.1.1.4,28,0.080,0.080,0.080,0.000,0.000,0.000
1644344718002547968,2022-02-08-18:25:18,10.1.1.4,27,0.070,0.070,0.070,0.000,0.000,0.000
1644344718103761920,2022-02-08-18:25:18,10.1.1.4,22,0.060,0.060,0.060,0.000,0.000,0.000
1644344718203394816,2022-02-08-18:25:18,10.1.1.4,21,0.050,0.050,0.050,0.000,0.000,0.000
1644344718303420160,2022-02-08-18:25:18,10.1.1.4,20,0.040,0.040,0.040,0.000,0.000,0.000
1644344718422168064,2022-02-08-18:25:18,10.1.1.4,37,0.030,0.030,0.030,0.000,0.000,0.000
1644344718523469824,2022-02-08-18:25:18,10.1.1.4,35,0.020,0.020,0.020,0.000,0.000,0.000
1644344718623924992,2022-02-08-18:25:18,10.1.1.4,34,0.010,0.010,0.010,0.000,0.000,0.000
1644344718722035968,2022-02-08-18:25:18,10.1.1.4,30,0.000,0.000,0.000,0.000,0.000,0.000
1644344718822158080,2022-02-08-18:25:18,10.1.1.4,29,-0.010,-0.010,-0.010,0.000,0.000,0.000
1644344718921915136,2022-02-08-18:25:18,10.1.1.4,28,-0.020,-0.020,-0.020,0.000,0.000,0.000
1644344719023240192,2022-02-08-18:25:19,10.1.1.4,28,-0.030,-0.030,-0.030,0.000,0.000,0.000
1644344719122103808,2022-02-08-18:25:19,10.1.1.4,22,-0.040,-0.040,-0.040,0.000,0.000,0.000
1644344719343156992,2022-02-08-18:25:19,10.1.1.4,38,-0.060,-0.060,-0.060,0.000,0.000,0.000
1644344719442405888,2022-02-08-18:25:19,10.1.1.4,36,-0.070,-0.070,-0.070,0.000,0.000,0.000
1644344719542472960,2022-02-08-18:25:19,10.1.1.4,35,-0.080,-0.080,-0.080,0.000,0.000,0.000
1644344719642551040,2022-02-08-18:25:19,10.1.1.4,33,-0.090,-0.090,-0.090,0.000,0.000,0.000
1644344719742584064,2022-02-08-18:25:19,10.1.1.4,31,-0.100,-0.100,-0.100,0.000,0.000,0.000
1644344719845328128,2022-02-08-18:25:19,10.1.1.4,31,-0.090,-0.090,-0.090,0.000,0.000,0.000
1644344719942337024,2022-02-08-18:25:19,10.1.1.4,29,-0.080,-0.080,-0.080,0.000,0.000,0.000
1644344720042308096,2022-02-08-18:25:20,10.1.1.4,23,-0.070,-0.070,-0.070,0.000,0.000,0.000
1644344720142791936,2022-02-08-18:25:20,10.1.1.4,22,-0.060,-0.060,-0.060,0.000,0.000,0.000
1644344720262508032,2022-02-08-18:25:20,10.1.1.4,39,-0.050,-0.050,-0.050,0.000,0.000,0.000
1644344720363014912,2022-02-08-18:25:20,10.1.1.4,37,-0.040,-0.040,-0.040,0.000,0.000,0.000
1644344720462824192,2022-02-08-18:25:20,10.1.1.4,35,-0.030,-0.030,-0.030,0.000,0.000,0.000
1644344720566281984,2022-02-08-18:25:20,10.1.1.4,35,-0.020,-0.020,-0.020,0.000,0.000,0.000
1644344720661976064,2022-02-08-18:25:20,10.1.1.4,34,-0.010,-0.010,-0.010,0.000,0.000,0.000
1644344720762837760,2022-02-08-18:25:20,10.1.1.4,33,0.000,0.000,0.000,0.000,0.000,0.000
1644344720862390016,2022-02-08-18:25:20,10.1.1.4,32,0.010,0.010,0.010,0.000,0.000,0.000
1644344720962927104,2022-02-08-18:25:20,10.1.1.4,31,0.020,0.020,0.020,0.000,0.000,0.000
1644344721062397952,2022-02-08-18:25:21,10.1.1.4,23,0.030,0.030,0.030,0.000,0.000,0.000
1644344721163515136,2022-02-08-18:25:21,10.1.1.4,22,0.040,0.040,0.040,0.000,0.000,0.000
1644344721262110976,2022-02-08-18:25:21,10.1.1.4,21,0.050,0.050,0.050,0.000,0.000,0.000
1644344721361982208,2022-02-08-18:25:21,10.1.1.4,20,0.060,0.060,0.060,0.000,0.000,0.000
1644344721483400192,2022-02-08-18:25:21,10.1.1.4,39,0.070,0.070,0.070,0.000,0.000,0.000
1644344721583599104,2022-02-08-18:25:21,10.1.1.4,35,0.080,0.080,0.080,0.000,0.000,0.000
1644344721682526976,2022-02-08-18:25:21,10.1.1.4,34,0.090,0.090,0.090,0.000,0.000,0.000
1644344721782105088,2022-02-08-18:25:21,10.1.1.4,33,0.100,0.100,0.100,0.000,0.000,0.000
1644344721882388224,2022-02-08-18:25:21,10.1.1.4,32,0.090,0.090,0.090,0.000,0.000,0.000
1644344721981915904,2022-02-08-18:25:21,10.1.1.4,31,0.080,0.080,0.080,0.000,0.000,0.000
1644344722082300928,2022-02-08-18:25:22,10.1.1.4,30,0.070,0.070,0.070,0.000,0.000,0.000
1644344722283185920,2022-02-08-18:25:22,10.1.1.4,23,0.050,0.050,0.050,0.000,0.000,0.000
1644344722403644928,2022-02-08-18:25:22,10.1.1.4,38,0.040,0.040,0.040,0.000,0.000,0.000
1644344722502717952,2022-02-08-18:25:22,10.1.1.4,38,0.030,0.030,0.030,0.000,0.000,0.000
1644344722602446080,2022-02-08-18:25:22,10.1.1.4,36,0.020,0.020,0.020,0.000,0.000,0.000
1644344722702550784,2022-02-08-18:25:22,10.1.1.4,35,0.010,0.010,0.010,0.000,0.000,0.000
1644344722803921920,2022-02-08-18:25:22,10.1.1.4,33,0.000,0.000,0.000,0.000,0.000,0.000
1644344722902414080,2022-02-08-18:25:22,10.1.1.4,31,-0.010,-0.010,-0.010,0.000,0.000,0.000
1644344723002579968,2022-02-08-18:25:23,10.1.1.4,30,-0.020,-0.020,-0.020,0.000,0.000,0.000
1644344723103624960,2022-02-08-18:25:23,10.1.1.4,28,-0.030,-0.030,-0.030,0.000,0.000,0.000
1644344723202807808,2022-02-08-18:25:23,10.1.1.4,24,-0.040,-0.040,-0.040,0.000,0.000,0.000
1644344723302219008,2022-02-08-18:25:23,10.1.1.4,23,-0.050,-0.050,-0.050,0.000,0.000,0.000
1644344723402082816,2022-02-08-18:25:23,10.1.1.4,22,-0.060,-0.060,-0.060,0.000,0.000,0.000
1644344723522977024,2022-02-08-18:25:23,10.1.1.4,38,-0.070,-0.070,-0.070,0.000,0.000,0.000
1644344723622862080,2022-02-08-18:25:23,10.1.1.4,36,-0.080,-0.080,-0.080,0.000,0.000,0.000
1644344723723225088,2022-02-08-18:25:23,10.1.1.4,33,-0.090,-0.090,-0.090,0.000,0.000,0.000
1644344723822402048,2022-02-08-18:25:23,10.1.1.4,31,-0.100,-0.100,-0.100,0.000,0.000,0.000
1644344723922388992,2022-02-08-18:25:23,10.1.1.4,29,-0.090,-0.090,-0.090,0.000,0.000,0.000
1644344724021938176,2022-02-08-18:25:24,10.1.1.4,28,-0.080,-0.080,-0.080,0.000,0.000,0.000
1644344724121668096,2022-02-08-18:25:24,10.1.1.4,26,-0.070,-0.070,-0.070,0.000,0.000,0.000
1644344724222598912,2022-02-08-18:25:24,10.1.1.4,21,-0.060,-0.060,-0.060,0.000,0.000,0.000
1644344724322515968,2022-02-08-18:25:24,10.1.1.4,20,-0.050,-0.050,-0.050,0.000,0.000,0.000
1644344724422596864,2022-02-08-18:25:24,10.1.1.4,19,-0.040,-0.040,-0.040,0.000,0.000,0.000
1644344724542247168,2022-02-08-18:25:24,10.1.1.4,38,-0.030,-0.030,-0.030,0.000,0.000,0.000
1644344724642812928,2022-02-08-18:25:24,10.1.1.4,38,-0.020,-0.020,-0.020,0.000,0.000,0.000
1644344724741886976,2022-02-08-18:25:24,10.1.1.4,37,-0.010,-0.010,-0.010,0.000,0.000,0.000
1644344724841979136,2022-02-08-18:25:24,10.1.1.4,36,0.000,0.000,0.000,0.000,0.000,0.000
1644344724943191040,2022-02-08-18:25:24,10.1.1.4,35,0.010,0.010,0.010,0.000,0.000,0.000
1644344725042488064,2022-02-08-18:25:25,10.1.1.4,35,0.020,0.020,0.020,0.000,0.000,0.000
1644344725148521984,2022-02-08-18:25:25,10.1.1.4,35,0.030,0.030,0.030,0.000,0.000,0.000
1644344725243309056,2022-02-08-18:25:25,10.1.1.4,32,0.040,0.040,0.040,0.000,0.000,0.000
1644344725343614208,2022-02-08-18:25:25,10.1.1.4,30,0.050,0.050,0.050,0.000,0.000,0.000
1644344725441956096,2022-02-08-18:25:25,10.1.1.4,30,0.060,0.060,0.060,0.000,0.000,0.000
1644344725542472960,2022-02-08-18:25:25,10.1.1.4,29,0.070,0.070,0.070,0.000,0.000,0.000
1644344725642689024,2022-02-08-18:25:25,10.1.1.4,28,0.080,0.080,0.080,0.000,0.000,0.000
1644344725741734912,2022-02-08-18:25:25,10.1.1.4,26,0.090,0.090,0.090,0.000,0.000,0.000
1644344725841684224,2022-02-08-18:25:25,10.1.1.4,19,0.100,0.100,0.100,0.000,0.000,0.000
1644344725961925888,2022-02-08-18:25:25,10.1.1.4,38,0.090,0.090,0.090,0.000,0.000,0.000
1644344726062539008,2022-02-08-18:25:26,10.1.1.4,37,0.080,0.080,0.080,0.000,0.000,0.000
1644344726162149888,2022-02-08-18:25:26,10.1.1.4,34,0.070,0.070,0.070,0.000,0.000,0.000
1644344726262301952,2022-02-08-18:25:26,10.1.1.4,32,0.060,0.060,0.060,0.000,0.000,0.000
1644344726362746880,2022-02-08-18:25:26,10.1.1.4,30,0.050,0.050,0.050,0.000,0.000,0.000
1644344726463385088,2022-02-08-18:25:26,10.1.1.4,29,0.040,0.040,0.040,0.000,0.000,0.000
1644344726562130944,2022-02-08-18:25:26,10.1.1.4,27,0.030,0.030,0.030,0.000,0.000,0.000
1644344726783762944,2022-02-08-18:25:26,10.1.1.4,38,0.010,0.010,0.010,0.000,0.000,0.000
1644344726882571008,2022-02-08-18:25:26,10.1.1.4,36,0.000,0.000,0.000,0.000,0.000,0.000
1644344726981956864,2022-02-08-18:25:26,10.1.1.4,35,-0.010,-0.010,-0.010,0.000,0.000,0.000
1644344727082585088,2022-02-08-18:25:27,10.1.1.4,34,-0.020,-0.020,-0.020,0.000,0.000,0.000
1644344727182457856,2022-02-08-18:25:27,10.1.1.4,33,-0.030,-0.030,-0.030,0.000,0.000,0.000
1644344727282316800,2022-02-08-18:25:27,10.1.1.4,32,-0.040,-0.040,-0.040,0.000,0.000,0.000
1644344727382600192,2022-02-08-18:25:27,10.1.1.4,31,-0.050,-0.050,-0.050,0.000,0.000,0.000
1644344727482039040,2022-02-08-18:25:27,10.1.1.4,30,-0.060,-0.060,-0.060,0.000,0.000,0.000
1644344727582164992,2022-02-08-18:25:27,10.1.1.4,29,-0.070,-0.070,-0.070,0.000,0.000,0.000
1644344727801912064,2022-02-08-18:25:27,10.1.1.4,33,-0.090,-0.090,-0.090,0.000,0.000,0.000
1644344727902370048,2022-02-08-18:25:27,10.1.1.4,32,-0.100,-0.100,-0.100,0.000,0.000,0.000
1644344728102152192,2022-02-08-18:25:28,10.1.1.4,28,-0.080,-0.080,-0.080,0.000,0.000,0.000
1644344728202465024,2022-02-08-18:25:28,10.1.1.4,26,-0.070,-0.070,-0.070,0.000,0.000,0.000
1644344728302031104,2022-02-08-18:25:28,10.1.1.4,19,-0.060,-0.060,-0.060,0.000,0.000,0.000
1644344728422348032,2022-02-08-18:25:28,10.1.1.4,35,-0.050,-0.050,-0.050,0.000,0.000,0.000
1644344728521583104,2022-02-08-18:25:28,10.1.1.4,34,-0.040,-0.040,-0.040,0.000,0.000,0.000
1644344728622044928,2022-02-08-18:25:28,10.1.1.4,32,-0.030,-0.030,-0.030,0.000,0.000,0.000
1644344728722574848,2022-02-08-18:25:28,10.1.1.4,32,-0.020,-0.020,-0.020,0.000,0.000,0.000
1644344728823409920,2022-02-08-18:25:28,10.1.1.4,30,-0.010,-0.010,-0.010,0.000,0.000,0.000
1644344728923043072,2022-02-08-18:25:28,10.1.1.4,29,0.000,0.000,0.000,0.000,0.000,0.000
1644344729025592064,2022-02-08-18:25:29,10.1.1.4,23,0.010,0.010,0.010,0.000,0.000,0.000
1644344729121840128,2022-02-08-18:25:29,10.1.1.4,21,0.020,0.020,0.020,0.000,0.000,0.000
1644344729222035968,2022-02-08-18:25:29,10.1.1.4,20,0.030,0.030,0.030,0.000,0.000,0.000
1644344729341895936,2022-02-08-18:25:29,10.1.1.4,39,0.040,0.040,0.040,0.000,0.000,0.000
1644344729442009088,2022-02-08-18:25:29,10.1.1.4,38,0.050,0.050,0.050,0.000,0.000,0.000
1644344729542402048,2022-02-08-18:25:29,10.1.1.4,36,0.060,0.060,0.060,0.000,0.000,0.000
1644344729642350080,2022-02-08-18:25:29,10.1.1.4,34,0.070,0.070,0.070,0.000,0.000,0.000
1644344729742556928,2022-02-08-18:25:29,10.1.1.4,34,0.080,0.080,0.080,0.000,0.000,0.000
1644344729842595072,2022-02-08-18:25:29,10.1.1.4,32,0.090,0.090,0.090,0.000,0.000,0.000
1644344729942703104,2022-02-08-18:25:29,10.1.1.4,32,0.100,0.100,0.100,0.000,0.000,0.000
1644344730041912064,2022-02-08-18:25:30,10.1.1.4,29,0.090,0.090,0.090,0.000,0.000,0.000
1644344730143808000,2022-02-08-18:25:30,10.1.1.4,28,0.080,0.080,0.080,0.000,0.000,0.000
1644344730242832896,2022-02-08-18:25:30,10.1.1.4,27,0.070,0.070,0.070,0.000,0.000,0.000
1644344730341720064,2022-02-08-18:25:30,10.1.1.4,24,0.060,0.060,0.060,0.000,0.000,0.000
1644344730441934080,2022-02-08-18:25:30,10.1.1.4,23,0.050,0.050,0.050,0.000,0.000,0.000
1644344730542177792,2022-02-08-18:25:30,10.1.1.4,22,0.040,0.040,0.040,0.000,0.000,0.000
1644344730641998080,2022-02-08-18:25:30,10.1.1.4,21,0.030,0.030,0.030,0.000,0.000,0.000
1644344730741952000,2022-02-08-18:25:30,10.1.1.4,20,0.020,0.020,0.020,0.000,0.000,0.000
1644344730842159104,2022-02-08-18:25:30,10.1.1.4,20,0.010,0.010,0.010,0.000,0.000,0.000
1644344730962806016,2022-02-08-18:25:30,10.1.1.4,38,0.000,0.000,0.000,0.000,0.000,0.000
1644344731063139072,2022-02-08-18:25:31,10.1.1.4,38,-0.010,-0.010,-0.010,0.000,0.000,0.000
1644344731162333952,2022-02-08-18:25:31,10.1.1.4,37,-0.020,-0.020,-0.020,0.000,0.000,0.000
1644344731262927104,2022-02-08-18:25:31,10.1.1.4,36,-0.030,-0.030,-0.030,0.000,0.000,0.000
1644344731363179008,2022-02-08-18:25:31,10.1.1.4,35,-0.040,-0.040,-0.040,0.000,0.000,0.000
1644344731464971008,2022-02-08-18:25:31,10.1.1.4,31,-0.050,-0.050,-0.050,0.000,0.000,0.000
1644344731562433024,2022-02-08-18:25:31,10.1.1.4,24,-0.060,-0.060,-0.060,0.000,0.000,0.000
1644344731662148096,2022-02-08-18:25:31,10.1.1.4,23,-0.070,-0.070,-0.070,0.000,0.000,0.000
1644344731762173952,2022-02-08-18:25:31,10.1.1.4,22,-0.080,-0.080,-0.080,0.000,0.000,0.000
1644344731882235136,2022-02-08-18:25:31,10.1.1.4,39,-0.090,-0.090,-0.090,0.000,0.000,0.000
1644344731981700864,2022-02-08-18:25:31,10.1.1.4,38,-0.100,-0.100,-0.100,0.000,0.000,0.000
1644344732082567936,2022-02-08-18:25:32,10.1.1.4,37,-0.090,-0.090,-0.090,0.000,0.000,0.000
1644344732181729024,2022-02-08-18:25:32,10.1.1.4,35,-0.080,-0.080,-0.080,0.000,0.000,0.000
1644344732283427840,2022-02-08-18:25:32,10.1.1.4,35,-0.070,-0.070,-0.070,0.000,0.000,0.000
1644344732382118912,2022-02-08-18:25:32,10.1.1.4,31,-0.060,-0.060,-0.060,0.000,0.000,0.000
1644344732482275840,2022-02-08-18:25:32,10.1.1.4,29,-0.050,-0.050,-0.050,0.000,0.000,0.000
1644344732582391040,2022-02-08-18:25:32,10.1.1.4,28,-0.040,-0.040,-0.040,0.000,0.000,0.000
1644344732682269184,2022-02-08-18:25:32,10.1.1.4,27,-0.030,-0.030,-0.030,0.000,0.000,0.000
1644344732782886912,2022-02-08-18:25:32,10.1.1.4,24,-0.020,-0.020,-0.020,0.000,0.000,0.000
1644344732882780160,2022-02-08-18:25:32,10.1.1.4,22,-0.010,-0.010,-0.010,0.000,0.000,0.000
1644344732981831936,2022-02-08-18:25:32,10.1.1.4,22,0.000,0.000,0.000,0.000,0.000,0.000
1644344733082178048,2022-02-08-18:25:33,10.1.1.4,21,0.010,0.010,0.010,0.000,0.000,0.000
1644344733182454016,2022-02-08-18:25:33,10.1.1.4,20,0.020,0.020,0.020,0.000,0.000,0.000
1644344733302097920,2022-02-08-18:25:33,10.1.1.4,39,0.030,0.030,0.030,0.000,0.000,0.000
1644344733401937920,2022-02-08-18:25:33,10.1.1.4,38,0.040,0.040,0.040,0.000,0.000,0.000
1644344733502427136,2022-02-08-18:25:33,10.1.1.4,37,0.050,0.050,0.050,0.000,0.000,0.000
1644344733602323968,2022-02-08-18:25:33,10.1.1.4,36,0.060,0.060,0.060,0.000,0.000,0.000
1644344733701819904,2022-02-08-18:25:33,10.1.1.4,35,0.070,0.070,0.070,0.000,0.000,0.000
1644344733801927168,2022-02-08-18:25:33,10.1.1.4,34,0.080,0.080,0.080,0.000,0.000,0.000
1644344733902121984,2022-02-08-18:25:33,10.1.1.4,33,0.090,0.090,0.090,0.000,0.000,0.000
1644344734002897920,2022-02-08-18:25:34,10.1.1.4,32,0.100,0.100,0.100,0.000,0.000,0.000
1644344734103270912,2022-02-08-18:25:34,10.1.1.4,32,0.090,0.090,0.090,0.000,0.000,0.000
1644344734202321920,2022-02-08-18:25:34,10.1.1.4,31,0.080,0.080,0.080,0.000,0.000,0.000
1644344734303472896,2022-02-08-18:25:34,10.1.1.4,31,0.070,0.070,0.070,0.000,0.000,0.000
1644344734401957888,2022-02-08-18:25:34,10.1.1.4,29,0.060,0.060,0.060,0.000,0.000,0.000
1644344734602256896,2022-02-08-18:25:34,10.1.1.4,28,0.040,0.040,0.040,0.000,0.000,0.000
1644344734702332928,2022-02-08-18:25:34,10.1.1.4,23,0.030,0.030,0.030,0.000,0.000,0.000
1644344734802455808,2022-02-08-18:25:34,10.1.1.4,20,0.020,0.020,0.020,0.000,0.000,0.000
1644344734902244096,2022-02-08-18:25:34,10.1.1.4,20,0.010,0.010,0.010,0.000,0.000,0.000
1644344735023014912,2022-02-08-18:25:35,10.1.1.4,38,0.000,0.000,0.000,0.000,0.000,0.000
1644344735123063040,2022-02-08-18:25:35,10.1.1.4,37,-0.010,-0.010,-0.010,0.000,0.000,0.000
1644344735223571968,2022-02-08-18:25:35,10.1.1.4,36,-0.020,-0.020,-0.020,0.000,0.000,0.000
1644344735324028928,2022-02-08-18:25:35,10.1.1.4,35,-0.030,-0.030,-0.030,0.000,0.000,0.000
1644344735422568192,2022-02-08-18:25:35,10.1.1.4,34,-0.040,-0.040,-0.040,0.000,0.000,0.000
1644344735521841920,2022-02-08-18:25:35,10.1.1.4,33,-0.050,-0.050,-0.050,0.000,0.000,0.000
1644344735622236928,2022-02-08-18:25:35,10.1.1.4,31,-0.060,-0.060,-0.060,0.000,0.000,0.000
1644344735722575872,2022-02-08-18:25:35,10.1.1.4,31,-0.070,-0.070,-0.070,0.000,0.000,0.000
1644344735822477056,2022-02-08-18:25:35,10.1.1.4,28,-0.080,-0.080,-0.080,0.000,0.000,0.000
1644344735922508032,2022-02-08-18:25:35,10.1.1.4,25,-0.090,-0.090,-0.090,0.000,0.000,0.000
1644344736022831872,2022-02-08-18:25:36,10.1.1.4,23,-0.100,-0.100,-0.100,0.000,0.000,0.000
1644344736122951936,2022-02-08-18:25:36,10.1.1.4,22,-0.090,-0.090,-0.090,0.000,0.000,0.000
1644344736222913024,2022-02-08-18:25:36,10.1.1.4,19,-0.080,-0.080,-0.080,0.000,0.000,0.000
1644344736342840832,2022-02-08-18:25:36,10.1.1.4,38,-0.070,-0.070,-0.070,0.000,0.000,0.000
1644344736443095040,2022-02-08-18:25:36,10.1.1.4,36,-0.060,-0.060,-0.060,0.000,0.000,0.000
1644344736542373888,2022-02-08-18:25:36,10.1.1.4,34,-0.050,-0.050,-0.050,0.000,0.000,0.000
1644344736643047168,2022-02-08-18:25:36,10.1.1.4,33,-0.040,-0.040,-0.040,0.000,0.000,0.000
1644344736741583104,2022-02-08-18:25:36,10.1.1.4,32,-0.030,-0.030,-0.030,0.000,0.000,0.000
1644344736842235136,2022-02-08-18:25:36,10.1.1.4,31,-0.020,-0.020,-0.020,0.000,0.000,0.000
1644344736942224896,2022-02-08-18:25:36,10.1.1.4,29,-0.010,-0.010,-0.010,0.000,0.000,0.000
1644344737042539008,2022-02-08-18:25:37,10.1.1.4,28,0.000,0.000,0.000,0.000,0.000,0.000
1644344737142214144,2022-02-08-18:25:37,10.1.1.4,22,0.010,0.010,0.010,0.000,0.000,0.000
1644344737242508800,2022-02-08-18:25:37,10.1.1.4,20,0.020,0.020,0.020,0.000,0.000,0.000
1644344737362579968,2022-02-08-18:25:37,10.1.1.4,37,0.030,0.030,0.030,0.000,0.000,0.000
1644344737462508032,2022-02-08-18:25:37,10.1.1.4,36,0.040,0.040,0.040,0.000,0.000,0.000
1644344737563038208,2022-02-08-18:25:37,10.1.1.4,34,0.050,0.050,0.050,0.000,0.000,0.000
1644344737662471936,2022-02-08-18:25:37,10.1.1.4,34,0.060,0.060,0.060,0.000,0.000,0.000
1644344737762414080,2022-02-08-18:25:37,10.1.1.4,32,0.070,0.070,0.070,0.000,0.000,0.000
1644344737862478848,2022-02-08-18:25:37,10.1.1.4,31,0.080,0.080,0.080,0.000,0.000,0.000
1644344737962743040,2022-02-08-18:25:37,10.1.1.4,31,0.090,0.090,0.090,0.000,0.000,0.000
1644344738062684928,2022-02-08-18:25:38,10.1.1.4,29,0.100,0.100,0.100,0.000,0.000,0.000
1644344738162586880,2022-02-08-18:25:38,10.1.1.4,28,0.090,0.090,0.090,0.000,0.000,0.000
1644344738262358784,2022-02-08-18:25:38,10.1.1.4,23,0.080,0.080,0.080,0.000,0.000,0.000
1644344738362622976,2022-02-08-18:25:38,10.1.1.4,21,0.070,0.070,0.070,0.000,0.000,0.000
1644344738483129856,2022-02-08-18:25:38,10.1.1.4,39,0.060,0.060,0.060,0.000,0.000,0.000
1644344738582263040,2022-02-08-18:25:38,10.1.1.4,38,0.050,0.050,0.050,0.000,0.000,0.000
1644344738682352128,2022-02-08-18:25:38,10.1.1.4,37,0.040,0.040,0.040,0.000,0.000,0.000
1644344738782478080,2022-02-08-18:25:38,10.1.1.4,36,0.030,0.030,0.030,0.000,0.000,0.000
1644344738882211840,2022-02-08-18:25:38,10.1.1.4,35,0.020,0.020,0.020,0.000,0.000,0.000
1644344738981890816,2022-02-08-18:25:38,10.1.1.4,34,0.010,0.010,0.010,0.000,0.000,0.000
1644344739082092032,2022-02-08-18:25:39,10.1.1.4,33,0.000,0.000,0.000,0.000,0.000,0.000
1644344739183036928,2022-02-08-18:25:39,10.1.1.4,32,-0.010,-0.010,-0.010,0.000,0.000,0.000
1644344739282385152,2022-02-08-18:25:39,10.1.1.4,31,-0.020,-0.020,-0.020,0.000,0.000,0.000
1644344739382199040,2022-02-08-18:25:39,10.1.1.4,31,-0.030,-0.030,-0.030,0.000,0.000,0.000
1644344739481713152,2022-02-08-18:25:39,10.1.1.4,30,-0.040,-0.040,-0.040,0.000,0.000,0.000
1644344739582357760,2022-02-08-18:25:39,10.1.1.4,29,-0.050,-0.050,-0.050,0.000,0.000,0.000
1644344739683047168,2022-02-08-18:25:39,10.1.1.4,28,-0.060,-0.060,-0.060,0.000,0.000,0.000
1644344739782372864,2022-02-08-18:25:39,10.1.1.4,22,-0.070,-0.070,-0.070,0.000,0.000,0.000
1644344739882308864,2022-02-08-18:25:39,10.1.1.4,21,-0.080,-0.080,-0.080,0.000,0.000,0.000
1644344740003022848,2022-02-08-18:25:40,10.1.1.4,35,-0.090,-0.090,-0.090,0.000,0.000,0.000
1644344740101739776,2022-02-08-18:25:40,10.1.1.4,34,-0.100,-0.100,-0.100,0.000,0.000,0.000
1644344740201854976,2022-02-08-18:25:40,10.1.1.4,33,-0.090,-0.090,-0.090,0.000,0.000,0.000
1644344740303054080,2022-02-08-18:25:40,10.1.1.4,33,-0.080,-0.080,-0.080,0.000,0.000,0.000
1644344740402158848,2022-02-08-18:25:40,10.1.1.4,31,-0.070,-0.070,-0.070,0.000,0.000,0.000
1644344740502526976,2022-02-08-18:25:40,10.1.1.4,30,-0.060,-0.060,-0.060,0.000,0.000,0.000
1644344740603152896,2022-02-08-18:25:40,10.1.1.4,29,-0.050,-0.050,-0.050,0.000,0.000,0.000
1644344740703115008,2022-02-08-18:25:40,10.1.1.4,28,-0.040,-0.040,-0.040,0.000,0.000,0.000
1644344740802679040,2022-02-08-18:25:40,10.1.1.4,27,-0.030,-0.030,-0.030,0.000,0.000,0.000
1644344740902895872,2022-02-08-18:25:40,10.1.1.4,21,-0.020,-0.020,-0.020,0.000,0.000,0.000
1644344741002206208,2022-02-08-18:25:41,10.1.1.4,20,-0.010,-0.010,-0.010,0.000,0.000,0.000
1644344741122158080,2022-02-08-18:25:41,10.1.1.4,39,0.000,0.000,0.000,0.000,0.000,0.000
1644344741222241024,2022-02-08-18:25:41,10.1.1.4,38,0.010,0.010,0.010,0.000,0.000,0.000
1644344741322344192,2022-02-08-18:25:41,10.1.1.4,33,0.020,0.020,0.020,0.000,0.000,0.000
1644344741423095040,2022-02-08-18:25:41,10.1.1.4,32,0.030,0.030,0.030,0.000,0.000,0.000
1644344741522182912,2022-02-08-18:25:41,10.1.1.4,31,0.040,0.040,0.040,0.000,0.000,0.000
1644344741622515968,2022-02-08-18:25:41,10.1.1.4,29,0.050,0.050,0.050,0.000,0.000,0.000
1644344741722374912,2022-02-08-18:25:41,10.1.1.4,28,0.060,0.060,0.060,0.000,0.000,0.000
1644344741822629888,2022-02-08-18:25:41,10.1.1.4,24,0.070,0.070,0.070,0.000,0.000,0.000
1644344741922818816,2022-02-08-18:25:41,10.1.1.4,23,0.080,0.080,0.080,0.000,0.000,0.000
1644344742023408896,2022-02-08-18:25:42,10.1.1.4,23,0.090,0.090,0.090,0.000,0.000,0.000
1644344742123262976,2022-02-08-18:25:42,10.1.1.4,21,0.100,0.100,0.100,0.000,0.000,0.000
1644344742225018880,2022-02-08-18:25:42,10.1.1.4,20,0.090,0.090,0.090,0.000,0.000,0.000
1644344742342185984,2022-02-08-18:25:42,10.1.1.4,39,0.080,0.080,0.080,0.000,0.000,0.000
1644344742442717952,2022-02-08-18:25:42,10.1.1.4,38,0.070,0.070,0.070,0.000,0.000,0.000
1644344742542740992,2022-02-08-18:25:42,10.1.1.4,35,0.060,0.060,0.060,0.000,0.000,0.000
1644344742642364928,2022-02-08-18:25:42,10.1.1.4,33,0.050,0.050,0.050,0.000,0.000,0.000
1644344742742550016,2022-02-08-18:25:42,10.1.1.4,31,0.040,0.040,0.040,0.000,0.000,0.000
1644344742842427904,2022-02-08-18:25:42,10.1.1.4,30,0.030,0.030,0.030,0.000,0.000,0.000
1644344742942974976,2022-02-08-18:25:42,10.1.1.4,29,0.020,0.020,0.020,0.000,0.000,0.000
1644344743042746112,2022-02-08-18:25:43,10.1.1.4,28,0.010,0.010,0.010,0.000,0.000,0.000
1644344743142831104,2022-02-08-18:25:43,10.1.1.4,28,0.000,0.000,0.000,0.000,0.000,0.000
1644344743243395072,2022-02-08-18:25:43,10.1.1.4,24,-0.010,-0.010,-0.010,0.000,0.000,0.000
1644344743342508032,2022-02-08-18:25:43,10.1.1.4,23,-0.020,-0.020,-0.020,0.000,0.000,0.000
1644344743442373120,2022-02-08-18:25:43,10.1.1.4,22,-0.030,-0.030,-0.030,0.000,0.000,0.000
1644344743542586112,2022-02-08-18:25:43,10.1.1.4,21,-0.040,-0.040,-0.040,0.000,0.000,0.000
1644344743642571008,2022-02-08-18:25:43,10.1.1.4,20,-0.050,-0.050,-0.050,0.000,0.000,0.000
1644344743862665984,2022-02-08-18:25:43,10.1.1.4,38,-0.070,-0.070,-0.070,0.000,0.000,0.000
1644344743962766848,2022-02-08-18:25:43,10.1.1.4,38,-0.080,-0.080,-0.080,0.000,0.000,0.000
1644344744062719232,2022-02-08-18:25:44,10.1.1.4,36,-0.090,-0.090,-0.090,0.000,0.000,0.000
1644344744164124928,2022-02-08-18:25:44,10.1.1.4,34,-0.100,-0.100,-0.100,0.000,0.000,0.000
1644344744262468096,2022-02-08-18:25:44,10.1.1.4,33,-0.090,-0.090,-0.090,0.000,0.000,0.000
1644344744363580928,2022-02-08-18:25:44,10.1.1.4,32,-0.080,-0.080,-0.080,0.000,0.000,0.000
1644344744462515200,2022-02-08-18:25:44,10.1.1.4,31,-0.070,-0.070,-0.070,0.000,0.000,0.000
1644344744563080960,2022-02-08-18:25:44,10.1.1.4,30,-0.060,-0.060,-0.060,0.000,0.000,0.000
1644344744662787840,2022-02-08-18:25:44,10.1.1.4,28,-0.050,-0.050,-0.050,0.000,0.000,0.000
1644344744762396160,2022-02-08-18:25:44,10.1.1.4,25,-0.040,-0.040,-0.040,0.000,0.000,0.000
1644344744862582016,2022-02-08-18:25:44,10.1.1.4,24,-0.030,-0.030,-0.030,0.000,0.000,0.000
1644344744963201024,2022-02-08-18:25:44,10.1.1.4,23,-0.020,-0.020,-0.020,0.000,0.000,0.000
1644344745063280128,2022-02-08-18:25:45,10.1.1.4,22,-0.010,-0.010,-0.010,0.000,0.000,0.000
1644344745163383040,2022-02-08-18:25:45,10.1.1.4,20,0.000,0.000,0.000,0.000,0.000,0.000
1644344745283098880,2022-02-08-18:25:45,10.1.1.4,39,0.010,0.010,0.010,0.000,0.000,0.000
1644344745382635008,2022-02-08-18:25:45,10.1.1.4,37,0.020,0.020,0.020,0.000,0.000,0.000
1644344745483640832,2022-02-08-18:25:45,10.1.1.4,35,0.030,0.030,0.030,0.000,0.000,0.000
1644344745582227968,2022-02-08-18:25:45,10.1.1.4,34,0.040,0.040,0.040,0.000,0.000,0.000
1644344745682210816,2022-02-08-18:25:45,10.1.1.4,34,0.050,0.050,0.050,0.000,0.000,0.000
1644344745783520000,2022-02-08-18:25:45,10.1.1.4,33,0.060,0.060,0.060,0.000,0.000,0.000
1644344745882754048,2022-02-08-18:25:45,10.1.1.4,32,0.070,0.070,0.070,0.000,0.000,0.000
1644344745982462976,2022-02-08-18:25:45,10.1.1.4,30,0.080,0.080,0.080,0.000,0.000,0.000
1644344746182174976,2022-02-08-18:25:46,10.1.1.4,26,0.100,0.100,0.100,0.000,0.000,0.000
1644344746284184832,2022-02-08-18:25:46,10.1.1.4,24,0.090,0.090,0.090,0.000,0.000,0.000
1644344746383041024,2022-02-08-18:25:46,10.1.1.4,24,0.080,0.080,0.080,0.000,0.000,0.000
1644344746482017024,2022-02-08-18:25:46,10.1.1.4,22,0.070,0.070,0.070,0.000,0.000,0.000
1644344746582041088,2022-02-08-18:25:46,10.1.1.4,21,0.060,0.060,0.060,0.000,0.000,0.000
1644344746682452992,2022-02-08-18:25:46,10.1.1.4,20,0.050,0.050,0.050,0.000,0.000,0.000
1644344746803276032,2022-02-08-18:25:46,10.1.1.4,39,0.040,0.040,0.040,0.000,0.000,0.000
1644344746903417088,2022-02-08-18:25:46,10.1.1.4,37,0.030,0.030,0.030,0.000,0.000,0.000
1644344747003518976,2022-02-08-18:25:47,10.1.1.4,36,0.020,0.020,0.020,0.000,0.000,0.000
1644344747102575104,2022-02-08-18:25:47,10.1.1.4,35,0.010,0.010,0.010,0.000,0.000,0.000
1644344747202553088,2022-02-08-18:25:47,10.1.1.4,33,0.000,0.000,0.000,0.000,0.000,0.000
1644344747302660864,2022-02-08-18:25:47,10.1.1.4,32,-0.010,-0.010,-0.010,0.000,0.000,0.000
1644344747402149888,2022-02-08-18:25:47,10.1.1.4,31,-0.020,-0.020,-0.020,0.000,0.000,0.000
1644344747502299904,2022-02-08-18:25:47,10.1.1.4,30,-0.030,-0.030,-0.030,0.000,0.000,0.000
1644344747602130944,2022-02-08-18:25:47,10.1.1.4,29,-0.040,-0.040,-0.040,0.000,0.000,0.000
1644344747702161152,2022-02-08-18:25:47,10.1.1.4,27,-0.050,-0.050,-0.050,0.000,0.000,0.000
1644344747801933056,2022-02-08-18:25:47,10.1.1.4,25,-0.060,-0.060,-0.060,0.000,0.000,0.000
1644344747902121984,2022-02-08-18:25:47,10.1.1.4,24,-0.070,-0.070,-0.070,0.000,0.000,0.000
1644344748002213120,2022-02-08-18:25:48,10.1.1.4,23,-0.080,-0.080,-0.080,0.000,0.000,0.000
1644344748102598912,2022-02-08-18:25:48,10.1.1.4,22,-0.090,-0.090,-0.090,0.000,0.000,0.000
1644344748202491904,2022-02-08-18:25:48,10.1.1.4,21,-0.100,-0.100,-0.100,0.000,0.000,0.000
1644344748302179072,2022-02-08-18:25:48,10.1.1.4,20,-0.090,-0.090,-0.090,0.000,0.000,0.000
1644344748402711040,2022-02-08-18:25:48,10.1.1.4,19,-0.080,-0.080,-0.080,0.000,0.000,0.000
1644344748522715136,2022-02-08-18:25:48,10.1.1.4,38,-0.070,-0.070,-0.070,0.000,0.000,0.000
1644344748623271936,2022-02-08-18:25:48,10.1.1.4,37,-0.060,-0.060,-0.060,0.000,0.000,0.000
1644344748722241024,2022-02-08-18:25:48,10.1.1.4,36,-0.050,-0.050,-0.050,0.000,0.000,0.000
1644344748821867008,2022-02-08-18:25:48,10.1.1.4,35,-0.040,-0.040,-0.040,0.000,0.000,0.000
1644344748921504000,2022-02-08-18:25:48,10.1.1.4,35,-0.030,-0.030,-0.030,0.000,0.000,0.000
1644344749022640896,2022-02-08-18:25:49,10.1.1.4,34,-0.020,-0.020,-0.020,0.000,0.000,0.000
1644344749122275072,2022-02-08-18:25:49,10.1.1.4,33,-0.010,-0.010,-0.010,0.000,0.000,0.000
1644344749222735872,2022-02-08-18:25:49,10.1.1.4,33,0.000,0.000,0.000,0.000,0.000,0.000
1644344749322400000,2022-02-08-18:25:49,10.1.1.4,31,0.010,0.010,0.010,0.000,0.000,0.000
1644344749422324992,2022-02-08-18:25:49,10.1.1.4,30,0.020,0.020,0.020,0.000,0.000,0.000
1644344749522129920,2022-02-08-18:25:49,10.1.1.4,29,0.030,0.030,0.030,0.000,0.000,0.000
1644344749622396928,2022-02-08-18:25:49,10.1.1.4,28,0.040,0.040,0.040,0.000,0.000,0.000
1644344749722167040,2022-02-08-18:25:49,10.1.1.4,28,0.050,0.050,0.050,0.000,0.000,0.000
1644344749822387968,2022-02-08-18:25:49,10.1.1.4,27,0.060,0.060,0.060,0.000,0.000,0.000
1644344749922276864,2022-02-08-18:25:49,10.1.1.4,26,0.070,0.070,0.070,0.000,0.000,0.000
1644344750121943040,2022-02-08-18:25:50,10.1.1.4,24,0.090,0.090,0.090,0.000,0.000,0.000
1644344750222307840,2022-02-08-18:25:50,10.1.1.4,23,0.100,0.100,0.100,0.000,0.000,0.000
1644344750321778944,2022-02-08-18:25:50,10.1.1.4,22,0.090,0.090,0.090,0.000,0.000,0.000
1644344750422236928,2022-02-08-18:25:50,10.1.1.4,21,0.080,0.080,0.080,0.000,0.000,0.000
1644344750521784064,2022-02-08-18:25:50,10.1.1.4,21,0.070,0.070,0.070,0.000,0.000,0.000
1644344750621910016,2022-02-08-18:25:50,10.1.1.4,20,0.060,0.060,0.060,0.000,0.000,0.000
1644344750732598016,2022-02-08-18:25:50,10.1.1.4,30,0.050,0.050,0.050,0.000,0.000,0.000
1644344750842940160,2022-02-08-18:25:50,10.1.1.4,38,0.040,0.040,0.040,0.000,0.000,0.000
1644344750942082048,2022-02-08-18:25:50,10.1.1.4,37,0.030,0.030,0.030,0.000,0.000,0.000
1644344751043938048,2022-02-08-18:25:51,10.1.1.4,36,0.020,0.020,0.020,0.000,0.000,0.000
1644344751143017984,2022-02-08-18:25:51,10.1.1.4,35,0.010,0.010,0.010,0.000,0.000,0.000
1644344751243098112,2022-02-08-18:25:51,10.1.1.4,34,0.000,0.000,0.000,0.000,0.000,0.000
1644344751342926080,2022-02-08-18:25:51,10.1.1.4,33,-0.010,-0.010,-0.010,0.000,0.000,0.000
1644344751442981120,2022-02-08-18:25:51,10.1.1.4,31,-0.020,-0.020,-0.020,0.000,0.000,0.000
1644344751543693056,2022-02-08-18:25:51,10.1.1.4,29,-0.030,-0.030,-0.030,0.000,0.000,0.000
1644344751642955008,2022-02-08-18:25:51,10.1.1.4,27,-0.040,-0.040,-0.040,0.000,0.000,0.000
1644344751743877888,2022-02-08-18:25:51,10.1.1.4,26,-0.050,-0.050,-0.050,0.000,0.000,0.000
1644344751842799872,2022-02-08-18:25:51,10.1.1.4,24,-0.060,-0.060,-0.060,0.000,0.000,0.000
1644344751941942016,2022-02-08-18:25:51,10.1.1.4,22,-0.070,-0.070,-0.070,0.000,0.000,0.000
1644344752043129856,2022-02-08-18:25:52,10.1.1.4,20,-0.080,-0.080,-0.080,0.000,0.000,0.000
1644344752142546944,2022-02-08-18:25:52,10.1.1.4,19,-0.090,-0.090,-0.090,0.000,0.000,0.000
1644344752267312128,2022-02-08-18:25:52,10.1.1.4,42,-0.100,-0.100,-0.100,0.000,0.000,0.000
1644344752362380032,2022-02-08-18:25:52,10.1.1.4,37,-0.090,-0.090,-0.090,0.000,0.000,0.000
1644344752463361024,2022-02-08-18:25:52,10.1.1.4,34,-0.080,-0.080,-0.080,0.000,0.000,0.000
1644344752562334976,2022-02-08-18:25:52,10.1.1.4,33,-0.070,-0.070,-0.070,0.000,0.000,0.000
1644344752662251008,2022-02-08-18:25:52,10.1.1.4,32,-0.060,-0.060,-0.060,0.000,0.000,0.000
1644344752762508032,2022-02-08-18:25:52,10.1.1.4,30,-0.050,-0.050,-0.050,0.000,0.000,0.000
1644344752863518976,2022-02-08-18:25:52,10.1.1.4,30,-0.040,-0.040,-0.040,0.000,0.000,0.000
1644344752962324992,2022-02-08-18:25:52,10.1.1.4,27,-0.030,-0.030,-0.030,0.000,0.000,0.000
1644344753063020032,2022-02-08-18:25:53,10.1.1.4,25,-0.020,-0.020,-0.020,0.000,0.000,0.000
1644344753162906880,2022-02-08-18:25:53,10.1.1.4,23,-0.010,-0.010,-0.010,0.000,0.000,0.000
1644344753263518976,2022-02-08-18:25:53,10.1.1.4,22,0.000,0.000,0.000,0.000,0.000,0.000
1644344753382379008,2022-02-08-18:25:53,10.1.1.4,38,0.010,0.010,0.010,0.000,0.000,0.000
1644344753482425856,2022-02-08-18:25:53,10.1.1.4,38,0.020,0.020,0.020,0.000,0.000,0.000
1644344753582215936,2022-02-08-18:25:53,10.1.1.4,36,0.030,0.030,0.030,0.000,0.000,0.000
1644344753682607872,2022-02-08-18:25:53,10.1.1.4,35,0.040,0.040,0.040,0.000,0.000,0.000
1644344753783404032,2022-02-08-18:25:53,10.1.1.4,34,0.050,0.050,0.050,0.000,0.000,0.000
1644344753882078976,2022-02-08-18:25:53,10.1.1.4,33,0.060,0.060,0.060,0.000,0.000,0.000
1644344753982292992,2022-02-08-18:25:53,10.1.1.4,30,0.070,0.070,0.070,0.000,0.000,0.000
1644344754083241984,2022-02-08-18:25:54,10.1.1.4,30,0.080,0.080,0.080,0.000,0.000,0.000
1644344754182329856,2022-02-08-18:25:54,10.1.1.4,29,0.090,0.090,0.090,0.000,0.000,0.000
1644344754282397952,2022-02-08-18:25:54,10.1.1.4,28,0.100,0.100,0.100,0.000,0.000,0.000
1644344754382615040,2022-02-08-18:25:54,10.1.1.4,26,0.090,0.090,0.090,0.000,0.000,0.000
1644344754482381056,2022-02-08-18:25:54,10.1.1.4,25,0.080,0.080,0.080,0.000,0.000,0.000
1644344754582076160,2022-02-08-18:25:54,10.1.1.4,24,0.070,0.070,0.070,0.000,0.000,0.000
1644344754682985984,2022-02-08-18:25:54,10.1.1.4,23,0.060,0.060,0.060,0.000,0.000,0.000
1644344754783129088,2022-02-08-18:25:54,10.1.1.4,22,0.050,0.050,0.050,0.000,0.000,0.000
1644344754882145024,2022-02-08-18:25:54,10.1.1.4,21,0.040,0.040,0.040,0.000,0.000,0.000
1644344754982323968,2022-02-08-18:25:54,10.1.1.4,20,0.030,0.030,0.030,0.000,0.000,0.000
1644344755103566848,2022-02-08-18:25:55,10.1.1.4,37,0.020,0.020,0.020,0.000,0.000,0.000
1644344755201889024,2022-02-08-18:25:55,10.1.1.4,36,0.010,0.010,0.010,0.000,0.000,0.000
1644344755302789888,2022-02-08-18:25:55,10.1.1.4,35,0.000,0.000,0.000,0.000,0.000,0.000
1644344755402223104,2022-02-08-18:25:55,10.1.1.4,34,-0.010,-0.010,-0.010,0.000,0.000,0.000
1644344755501760000,2022-02-08-18:25:55,10.1.1.4,31,-0.020,-0.020,-0.020,0.000,0.000,0.000
1644344755602466048,2022-02-08-18:25:55,10.1.1.4,29,-0.030,-0.030,-0.030,0.000,0.000,0.000
1644344755703471872,2022-02-08-18:25:55,10.1.1.4,28,-0.040,-0.040,-0.040,0.000,0.000,0.000
1644344755802066176,2022-02-08-18:25:55,10.1.1.4,27,-0.050,-0.050,-0.050,0.000,0.000,0.000
1644344755903012096,2022-02-08-18:25:55,10.1.1.4,26,-0.060,-0.060,-0.060,0.000,0.000,0.000
1644344756002185984,2022-02-08-18:25:56,10.1.1.4,24,-0.070,-0.070,-0.070,0.000,0.000,0.000
1644344756102489856,2022-02-08-18:25:56,10.1.1.4,23,-0.080,-0.080,-0.080,0.000,0.000,0.000
1644344756223476992,2022-02-08-18:25:56,10.1.1.4,43,-0.090,-0.090,-0.090,0.000,0.000,0.000
1644344756302115840,2022-02-08-18:25:56,10.1.1.4,21,-0.100,-0.100,-0.100,0.000,0.000,0.000
1644344756402723072,2022-02-08-18:25:56,10.1.1.4,20,-0.090,-0.090,-0.090,0.000,0.000,0.000
1644344756523109888,2022-02-08-18:25:56,10.1.1.4,39,-0.080,-0.080,-0.080,0.000,0.000,0.000
1644344756623141888,2022-02-08-18:25:56,10.1.1.4,37,-0.070,-0.070,-0.070,0.000,0.000,0.000
1644344756722664192,2022-02-08-18:25:56,10.1.1.4,36,-0.060,-0.060,-0.060,0.000,0.000,0.000
1644344756822439936,2022-02-08-18:25:56,10.1.1.4,35,-0.050,-0.050,-0.050,0.000,0.000,0.000
1644344757022859008,2022-02-08-18:25:57,10.1.1.4,32,-0.030,-0.030,-0.030,0.000,0.000,0.000
1644344757261710848,2022-02-08-18:25:57,10.1.1.4,37,-0.010,-0.010,-0.010,0.000,0.000,0.000
1644344757462694912,2022-02-08-18:25:57,10.1.1.4,34,0.010,0.010,0.010,0.000,0.000,0.000
1644344757662647040,2022-02-08-18:25:57,10.1.1.4,31,0.030,0.030,0.030,0.000,0.000,0.000
1644344757763757056,2022-02-08-18:25:57,10.1.1.4,31,0.040,0.040,0.040,0.000,0.000,0.000
1644344757962140160,2022-02-08-18:25:57,10.1.1.4,21,0.060,0.060,0.060,0.000,0.000,0.000
1644344758101485056,2022-02-08-18:25:58,10.1.1.4,53,0.070,0.070,0.070,0.000,0.000,0.000
1644344758183224832,2022-02-08-18:25:58,10.1.1.4,36,0.080,0.080,0.080,0.000,0.000,0.000
1644344758282891008,2022-02-08-18:25:58,10.1.1.4,34,0.090,0.090,0.090,0.000,0.000,0.000
1644344758393235968,2022-02-08-18:25:58,10.1.1.4,42,0.100,0.100,0.100,0.000,0.000,0.000
1644344758482839040,2022-02-08-18:25:58,10.1.1.4,32,0.090,0.090,0.090,0.000,0.000,0.000
1644344758584100096,2022-02-08-18:25:58,10.1.1.4,33,0.080,0.080,0.080,0.000,0.000,0.000
1644344758681724160,2022-02-08-18:25:58,10.1.1.4,30,0.070,0.070,0.070,0.000,0.000,0.000
1644344758781541120,2022-02-08-18:25:58,10.1.1.4,29,0.060,0.060,0.060,0.000,0.000,0.000
1644344758881968896,2022-02-08-18:25:58,10.1.1.4,29,0.050,0.050,0.050,0.000,0.000,0.000
1644344758982953984,2022-02-08-18:25:58,10.1.1.4,28,0.040,0.040,0.040,0.000,0.000,0.000
1644344759081480960,2022-02-08-18:25:59,10.1.1.4,27,0.030,0.030,0.030,0.000,0.000,0.000
1644344759181691904,2022-02-08-18:25:59,10.1.1.4,24,0.020,0.020,0.020,0.000,0.000,0.000
1644344759281618944,2022-02-08-18:25:59,10.1.1.4,23,0.010,0.010,0.010,0.000,0.000,0.000
1644344759381858048,2022-02-08-18:25:59,10.1.1.4,23,0.000,0.000,0.000,0.000,0.000,0.000
1644344759482515968,2022-02-08-18:25:59,10.1.1.4,22,-0.010,-0.010,-0.010,0.000,0.000,0.000
1644344759581923840,2022-02-08-18:25:59,10.1.1.4,21,-0.020,-0.020,-0.020,0.000,0.000,0.000
1644344759682640128,2022-02-08-18:25:59,10.1.1.4,21,-0.030,-0.030,-0.030,0.000,0.000,0.000
1644344759782025216,2022-02-08-18:25:59,10.1.1.4,20,-0.040,-0.040,-0.040,0.000,0.000,0.000
1644344759901742080,2022-02-08-18:25:59,10.1.1.4,39,-0.050,-0.050,-0.050,0.000,0.000,0.000
1644344760019340032,2022-02-08-18:26:00,10.1.1.4,37,-0.060,-0.060,-0.060,0.000,0.000,0.000
1644344760101342976,2022-02-08-18:26:00,10.1.1.4,36,-0.070,-0.070,-0.070,0.000,0.000,0.000
1644344760201710080,2022-02-08-18:26:00,10.1.1.4,36,-0.080,-0.080,-0.080,0.000,0.000,0.000
1644344760301454080,2022-02-08-18:26:00,10.1.1.4,35,-0.090,-0.090,-0.090,0.000,0.000,0.000
1644344760430131968,2022-02-08-18:26:00,10.1.1.4,34,-0.100,-0.100,-0.100,0.000,0.000,0.000
1644344760501709824,2022-02-08-18:26:00,10.1.1.4,34,-0.090,-0.090,-0.090,0.000,0.000,0.000
1644344760602145024,2022-02-08-18:26:00,10.1.1.4,30,-0.080,-0.080,-0.080,0.000,0.000,0.000
1644344760701888000,2022-02-08-18:26:00,10.1.1.4,25,-0.070,-0.070,-0.070,0.000,0.000,0.000
1644344760802056960,2022-02-08-18:26:00,10.1.1.4,24,-0.060,-0.060,-0.060,0.000,0.000,0.000
1644344760903474176,2022-02-08-18:26:00,10.1.1.4,23,-0.050,-0.050,-0.050,0.000,0.000,0.000
1644344761023531008,2022-02-08-18:26:01,10.1.1.4,39,-0.040,-0.040,-0.040,0.000,0.000,0.000
1644344761126962944,2022-02-08-18:26:01,10.1.1.4,35,-0.030,-0.030,-0.030,0.000,0.000,0.000
1644344761223889152,2022-02-08-18:26:01,10.1.1.4,32,-0.020,-0.020,-0.020,0.000,0.000,0.000
1644344761322809088,2022-02-08-18:26:01,10.1.1.4,31,-0.010,-0.010,-0.010,0.000,0.000,0.000
1644344761422700032,2022-02-08-18:26:01,10.1.1.4,28,0.000,0.000,0.000,0.000,0.000,0.000
1644344761521585920,2022-02-08-18:26:01,10.1.1.4,21,0.010,0.010,0.010,0.000,0.000,0.000
1644344761641966080,2022-02-08-18:26:01,10.1.1.4,20,0.020,0.020,0.020,0.000,0.000,0.000
1644344761721739008,2022-02-08-18:26:01,10.1.1.4,19,0.029,0.029,0.029,0.000,0.000,0.000
1644344761841747968,2022-02-08-18:26:01,10.1.1.4,38,0.040,0.040,0.040,0.000,0.000,0.000
1644344761942867968,2022-02-08-18:26:01,10.1.1.4,36,0.050,0.050,0.050,0.000,0.000,0.000
1644344762050099968,2022-02-08-18:26:02,10.1.1.4,35,0.060,0.060,0.060,0.000,0.000,0.000
1644344762142898944,2022-02-08-18:26:02,10.1.1.4,35,0.070,0.070,0.070,0.000,0.000,0.000
1644344762243319040,2022-02-08-18:26:02,10.1.1.4,32,0.080,0.080,0.080,0.000,0.000,0.000
1644344762342708992,2022-02-08-18:26:02,10.1.1.4,27,0.090,0.090,0.090,0.000,0.000,0.000
1644344762462585856,2022-02-08-18:26:02,10.1.1.4,38,0.100,0.100,0.100,0.000,0.000,0.000
1644344762562387968,2022-02-08-18:26:02,10.1.1.4,29,0.090,0.090,0.090,0.000,0.000,0.000
1644344762673688832,2022-02-08-18:26:02,10.1.1.4,28,0.080,0.080,0.080,0.000,0.000,0.000
1644344762761662976,2022-02-08-18:26:02,10.1.1.4,27,0.070,0.070,0.070,0.000,0.000,0.000
1644344762861543936,2022-02-08-18:26:02,10.1.1.4,27,0.060,0.060,0.060,0.000,0.000,0.000
1644344762961380864,2022-02-08-18:26:02,10.1.1.4,25,0.050,0.050,0.050,0.000,0.000,0.000
1644344763061778176,2022-02-08-18:26:03,10.1.1.4,24,0.040,0.040,0.040,0.000,0.000,0.000
1644344763161293056,2022-02-08-18:26:03,10.1.1.4,23,0.030,0.030,0.030,0.000,0.000,0.000
1644344763261475072,2022-02-08-18:26:03,10.1.1.4,22,0.020,0.020,0.020,0.000,0.000,0.000
1644344763361513984,2022-02-08-18:26:03,10.1.1.4,21,0.010,0.010,0.010,0.000,0.000,0.000
1644344763461338880,2022-02-08-18:26:03,10.1.1.4,20,0.000,0.000,0.000,0.000,0.000,0.000
1644344763582365952,2022-02-08-18:26:03,10.1.1.4,38,-0.010,-0.010,-0.010,0.000,0.000,0.000
1644344763685250048,2022-02-08-18:26:03,10.1.1.4,36,-0.020,-0.020,-0.020,0.000,0.000,0.000
1644344763781873920,2022-02-08-18:26:03,10.1.1.4,35,-0.030,-0.030,-0.030,0.000,0.000,0.000
1644344763881606144,2022-02-08-18:26:03,10.1.1.4,34,-0.040,-0.040,-0.040,0.000,0.000,0.000
1644344763981689088,2022-02-08-18:26:03,10.1.1.4,33,-0.050,-0.050,-0.050,0.000,0.000,0.000
1644344764082663168,2022-02-08-18:26:04,10.1.1.4,32,-0.060,-0.060,-0.060,0.000,0.000,0.000
1644344764187787008,2022-02-08-18:26:04,10.1.1.4,32,-0.070,-0.070,-0.070,0.000,0.000,0.000
1644344764282073856,2022-02-08-18:26:04,10.1.1.4,28,-0.080,-0.080,-0.080,0.000,0.000,0.000
1644344764381735168,2022-02-08-18:26:04,10.1.1.4,27,-0.090,-0.090,-0.090,0.000,0.000,0.000
1644344764481832960,2022-02-08-18:26:04,10.1.1.4,24,-0.100,-0.100,-0.100,0.000,0.000,0.000
1644344764581687040,2022-02-08-18:26:04,10.1.1.4,21,-0.090,-0.090,-0.090,0.000,0.000,0.000
1644344764681457152,2022-02-08-18:26:04,10.1.1.4,20,-0.080,-0.080,-0.080,0.000,0.000,0.000
1644344764803898112,2022-02-08-18:26:04,10.1.1.4,34,-0.070,-0.070,-0.070,0.000,0.000,0.000
1644344764901502976,2022-02-08-18:26:04,10.1.1.4,33,-0.060,-0.060,-0.060,0.000,0.000,0.000
1644344765001710848,2022-02-08-18:26:05,10.1.1.4,32,-0.050,-0.050,-0.050,0.000,0.000,0.000
1644344765101339136,2022-02-08-18:26:05,10.1.1.4,32,-0.040,-0.040,-0.040,0.000,0.000,0.000
1644344765202192128,2022-02-08-18:26:05,10.1.1.4,31,-0.030,-0.030,-0.030,0.000,0.000,0.000
1644344765301821952,2022-02-08-18:26:05,10.1.1.4,31,-0.020,-0.020,-0.020,0.000,0.000,0.000
1644344765401915136,2022-02-08-18:26:05,10.1.1.4,27,-0.010,-0.010,-0.010,0.000,0.000,0.000
1644344765501686016,2022-02-08-18:26:05,10.1.1.4,26,0.000,0.000,0.000,0.000,0.000,0.000
1644344765601527808,2022-02-08-18:26:05,10.1.1.4,26,0.010,0.010,0.010,0.000,0.000,0.000
1644344765701446912,2022-02-08-18:26:05,10.1.1.4,25,0.020,0.020,0.020,0.000,0.000,0.000
1644344765801724928,2022-02-08-18:26:05,10.1.1.4,25,0.030,0.030,0.030,0.000,0.000,0.000
1644344765902883072,2022-02-08-18:26:05,10.1.1.4,22,0.040,0.040,0.040,0.000,0.000,0.000
1644344766002415872,2022-02-08-18:26:06,10.1.1.4,20,0.050,0.050,0.050,0.000,0.000,0.000
1644344766103899904,2022-02-08-18:26:06,10.1.1.4,19,0.060,0.060,0.060,0.000,0.000,0.000
1644344766222685184,2022-02-08-18:26:06,10.1.1.4,35,0.070,0.070,0.070,0.000,0.000,0.000
1644344766322441216,2022-02-08-18:26:06,10.1.1.4,33,0.080,0.080,0.080,0.000,0.000,0.000
1644344766422787840,2022-02-08-18:26:06,10.1.1.4,31,0.090,0.090,0.090,0.000,0.000,0.000
1644344766522841088,2022-02-08-18:26:06,10.1.1.4,30,0.100,0.100,0.100,0.000,0.000,0.000
1644344766633257984,2022-02-08-18:26:06,10.1.1.4,21,0.090,0.090,0.090,0.000,0.000,0.000
1644344766722232064,2022-02-08-18:26:06,10.1.1.4,20,0.080,0.080,0.080,0.000,0.000,0.000
1644344766825735168,2022-02-08-18:26:06,10.1.1.4,23,0.070,0.070,0.070,0.000,0.000,0.000
1644344766922243072,2022-02-08-18:26:06,10.1.1.4,19,0.060,0.060,0.060,0.000,0.000,0.000
1644344767022152960,2022-02-08-18:26:07,10.1.1.4,19,0.051,0.051,0.051,0.000,0.000,0.000
1644344767141815040,2022-02-08-18:26:07,10.1.1.4,37,0.040,0.040,0.040,0.000,0.000,0.000
1644344767241967872,2022-02-08-18:26:07,10.1.1.4,35,0.030,0.030,0.030,0.000,0.000,0.000
1644344767341926144,2022-02-08-18:26:07,10.1.1.4,35,0.020,0.020,0.020,0.000,0.000,0.000
1644344767441714176,2022-02-08-18:26:07,10.1.1.4,33,0.010,0.010,0.010,0.000,0.000,0.000
1644344767541893888,2022-02-08-18:26:07,10.1.1.4,33,0.000,0.000,0.000,0.000,0.000,0.000
1644344767641577984,2022-02-08-18:26:07,10.1.1.4,32,-0.010,-0.010,-0.010,0.000,0.000,0.000
1644344767741504000,2022-02-08-18:26:07,10.1.1.4,31,-0.020,-0.020,-0.020,0.000,0.000,0.000
1644344767841732864,2022-02-08-18:26:07,10.1.1.4,31,-0.030,-0.030,-0.030,0.000,0.000,0.000
1644344767942251008,2022-02-08-18:26:07,10.1.1.4,30,-0.040,-0.040,-0.040,0.000,0.000,0.000
1644344768041512960,2022-02-08-18:26:08,10.1.1.4,25,-0.050,-0.050,-0.050,0.000,0.000,0.000
1644344768142273792,2022-02-08-18:26:08,10.1.1.4,25,-0.060,-0.060,-0.060,0.000,0.000,0.000
1644344768241486080,2022-02-08-18:26:08,10.1.1.4,24,-0.070,-0.070,-0.070,0.000,0.000,0.000
1644344768342164992,2022-02-08-18:26:08,10.1.1.4,23,-0.080,-0.080,-0.080,0.000,0.000,0.000
1644344768462479104,2022-02-08-18:26:08,10.1.1.4,39,-0.090,-0.090,-0.090,0.000,0.000,0.000
1644344768562589952,2022-02-08-18:26:08,10.1.1.4,38,-0.100,-0.100,-0.100,0.000,0.000,0.000
1644344768661929984,2022-02-08-18:26:08,10.1.1.4,37,-0.090,-0.090,-0.090,0.000,0.000,0.000
1644344768762487808,2022-02-08-18:26:08,10.1.1.4,34,-0.080,-0.080,-0.080,0.000,0.000,0.000
1644344768863058944,2022-02-08-18:26:08,10.1.1.4,28,-0.070,-0.070,-0.070,0.000,0.000,0.000
1644344768962856960,2022-02-08-18:26:08,10.1.1.4,25,-0.060,-0.060,-0.060,0.000,0.000,0.000
1644344769063097856,2022-02-08-18:26:09,10.1.1.4,23,-0.050,-0.050,-0.050,0.000,0.000,0.000
1644344769164491008,2022-02-08-18:26:09,10.1.1.4,21,-0.040,-0.040,-0.040,0.000,0.000,0.000
1644344769265743872,2022-02-08-18:26:09,10.1.1.4,22,-0.030,-0.030,-0.030,0.000,0.000,0.000
1644344769382740992,2022-02-08-18:26:09,10.1.1.4,32,-0.020,-0.020,-0.020,0.000,0.000,0.000
1644344769482383872,2022-02-08-18:26:09,10.1.1.4,29,-0.010,-0.010,-0.010,0.000,0.000,0.000
1644344769583717120,2022-02-08-18:26:09,10.1.1.4,26,0.000,0.000,0.000,0.000,0.000,0.000
1644344769683083008,2022-02-08-18:26:09,10.1.1.4,22,0.010,0.010,0.010,0.000,0.000,0.000
1644344769786521856,2022-02-08-18:26:09,10.1.1.4,20,0.020,0.020,0.020,0.000,0.000,0.000
1644344769903513856,2022-02-08-18:26:09,10.1.1.4,37,0.030,0.030,0.030,0.000,0.000,0.000
1644344770002469120,2022-02-08-18:26:10,10.1.1.4,34,0.040,0.040,0.040,0.000,0.000,0.000
1644344770103802880,2022-02-08-18:26:10,10.1.1.4,32,0.050,0.050,0.050,0.000,0.000,0.000
1644344770202621952,2022-02-08-18:26:10,10.1.1.4,30,0.060,0.060,0.060,0.000,0.000,0.000
1644344770304024064,2022-02-08-18:26:10,10.1.1.4,28,0.070,0.070,0.070,0.000,0.000,0.000
1644344770403482880,2022-02-08-18:26:10,10.1.1.4,23,0.080,0.080,0.080,0.000,0.000,0.000
1644344770501754112,2022-02-08-18:26:10,10.1.1.4,22,0.090,0.090,0.090,0.000,0.000,0.000
1644344770601614848,2022-02-08-18:26:10,10.1.1.4,21,0.100,0.100,0.100,0.000,0.000,0.000
1644344770702776832,2022-02-08-18:26:10,10.1.1.4,20,0.090,0.090,0.090,0.000,0.000,0.000
1644344770803482112,2022-02-08-18:26:10,10.1.1.4,19,0.081,0.081,0.081,0.000,0.000,0.000
1644344770926742016,2022-02-08-18:26:10,10.1.1.4,37,0.070,0.070,0.070,0.000,0.000,0.000
1644344771023902976,2022-02-08-18:26:11,10.1.1.4,35,0.060,0.060,0.060,0.000,0.000,0.000
1644344771122482944,2022-02-08-18:26:11,10.1.1.4,32,0.050,0.050,0.050,0.000,0.000,0.000
1644344771224072960,2022-02-08-18:26:11,10.1.1.4,29,0.040,0.040,0.040,0.000,0.000,0.000
1644344771327446016,2022-02-08-18:26:11,10.1.1.4,26,0.030,0.030,0.030,0.000,0.000,0.000
1644344771424055040,2022-02-08-18:26:11,10.1.1.4,24,0.020,0.020,0.020,0.000,0.000,0.000
1644344771523987968,2022-02-08-18:26:11,10.1.1.4,22,0.010,0.010,0.010,0.000,0.000,0.000
1644344771624687872,2022-02-08-18:26:11,10.1.1.4,20,0.000,0.000,0.000,0.000,0.000,0.000
1644344771721693952,2022-02-08-18:26:11,10.1.1.4,19,-0.010,-0.010,-0.010,0.000,0.000,0.000
1644344771842375168,2022-02-08-18:26:11,10.1.1.4,37,-0.020,-0.020,-0.020,0.000,0.000,0.000
1644344771942843904,2022-02-08-18:26:11,10.1.1.4,35,-0.030,-0.030,-0.030,0.000,0.000,0.000
1644344772043108864,2022-02-08-18:26:12,10.1.1.4,31,-0.040,-0.040,-0.040,0.000,0.000,0.000
1644344772144882944,2022-02-08-18:26:12,10.1.1.4,30,-0.050,-0.050,-0.050,0.000,0.000,0.000
1644344772242636032,2022-02-08-18:26:12,10.1.1.4,27,-0.060,-0.060,-0.060,0.000,0.000,0.000
1644344772343092992,2022-02-08-18:26:12,10.1.1.4,25,-0.070,-0.070,-0.070,0.000,0.000,0.000
1644344772443737088,2022-02-08-18:26:12,10.1.1.4,23,-0.080,-0.080,-0.080,0.000,0.000,0.000
1644344772542445056,2022-02-08-18:26:12,10.1.1.4,22,-0.090,-0.090,-0.090,0.000,0.000,0.000
1644344772642860032,2022-02-08-18:26:12,10.1.1.4,20,-0.100,-0.100,-0.100,0.000,0.000,0.000
1644344772762564864,2022-02-08-18:26:12,10.1.1.4,38,-0.090,-0.090,-0.090,0.000,0.000,0.000
1644344772862694912,2022-02-08-18:26:12,10.1.1.4,34,-0.080,-0.080,-0.080,0.000,0.000,0.000
1644344772962824960,2022-02-08-18:26:12,10.1.1.4,32,-0.070,-0.070,-0.070,0.000,0.000,0.000
1644344773063205120,2022-02-08-18:26:13,10.1.1.4,30,-0.060,-0.060,-0.060,0.000,0.000,0.000
1644344773162704896,2022-02-08-18:26:13,10.1.1.4,24,-0.050,-0.050,-0.050,0.000,0.000,0.000
1644344773264209152,2022-02-08-18:26:13,10.1.1.4,25,-0.040,-0.040,-0.040,0.000,0.000,0.000
1644344773363884800,2022-02-08-18:26:13,10.1.1.4,22,-0.030,-0.030,-0.030,0.000,0.000,0.000
1644344773462862848,2022-02-08-18:26:13,10.1.1.4,19,-0.020,-0.020,-0.020,0.000,0.000,0.000
1644344773582827008,2022-02-08-18:26:13,10.1.1.4,38,-0.010,-0.010,-0.010,0.000,0.000,0.000
1644344773683418112,2022-02-08-18:26:13,10.1.1.4,35,0.000,0.000,0.000,0.000,0.000,0.000
1644344773782646784,2022-02-08-18:26:13,10.1.1.4,34,0.010,0.010,0.010,0.000,0.000,0.000
1644344773883250944,2022-02-08-18:26:13,10.1.1.4,32,0.020,0.020,0.020,0.000,0.000,0.000
1644344773983280896,2022-02-08-18:26:13,10.1.1.4,30,0.030,0.030,0.030,0.000,0.000,0.000
1644344774083358976,2022-02-08-18:26:14,10.1.1.4,28,0.040,0.040,0.040,0.000,0.000,0.000
1644344774186455040,2022-02-08-18:26:14,10.1.1.4,26,0.050,0.050,0.050,0.000,0.000,0.000
1644344774283616000,2022-02-08-18:26:14,10.1.1.4,22,0.060,0.060,0.060,0.000,0.000,0.000
1644344774403554048,2022-02-08-18:26:14,10.1.1.4,38,0.070,0.070,0.070,0.000,0.000,0.000
1644344774503843072,2022-02-08-18:26:14,10.1.1.4,35,0.080,0.080,0.080,0.000,0.000,0.000
1644344774605745152,2022-02-08-18:26:14,10.1.1.4,33,0.090,0.090,0.090,0.000,0.000,0.000
1644344774706622976,2022-02-08-18:26:14,10.1.1.4,32,0.100,0.100,0.100,0.000,0.000,0.000
1644344774803642112,2022-02-08-18:26:14,10.1.1.4,30,0.090,0.090,0.090,0.000,0.000,0.000
1644344774904141056,2022-02-08-18:26:14,10.1.1.4,28,0.080,0.080,0.080,0.000,0.000,0.000
1644344775006556160,2022-02-08-18:26:15,10.1.1.4,24,0.070,0.070,0.070,0.000,0.000,0.000
1644344775104156928,2022-02-08-18:26:15,10.1.1.4,22,0.060,0.060,0.060,0.000,0.000,0.000
1644344775203597056,2022-02-08-18:26:15,10.1.1.4,20,0.050,0.050,0.050,0.000,0.000,0.000
1644344775324142848,2022-02-08-18:26:15,10.1.1.4,39,0.040,0.040,0.040,0.000,0.000,0.000
1644344775422900992,2022-02-08-18:26:15,10.1.1.4,34,0.030,0.030,0.030,0.000,0.000,0.000
1644344775522654976,2022-02-08-18:26:15,10.1.1.4,33,0.020,0.020,0.020,0.000,0.000,0.000
1644344775622705920,2022-02-08-18:26:15,10.1.1.4,31,0.010,0.010,0.010,0.000,0.000,0.000
1644344775723074816,2022-02-08-18:26:15,10.1.1.4,29,0.000,0.000,0.000,0.000,0.000,0.000
1644344775823538176,2022-02-08-18:26:15,10.1.1.4,25,-0.010,-0.010,-0.010,0.000,0.000,0.000
1644344775924081152,2022-02-08-18:26:15,10.1.1.4,23,-0.020,-0.020,-0.020,0.000,0.000,0.000
1644344776023181056,2022-02-08-18:26:16,10.1.1.4,21,-0.030,-0.030,-0.030,0.000,0.000,0.000
1644344776122423808,2022-02-08-18:26:16,10.1.1.4,19,-0.039,-0.039,-0.039,0.000,0.000,0.000
1644344776243433984,2022-02-08-18:26:16,10.1.1.4,33,-0.050,-0.050,-0.050,0.000,0.000,0.000
1644344776342252032,2022-02-08-18:26:16,10.1.1.4,31,-0.060,-0.060,-0.060,0.000,0.000,0.000
1644344776443547136,2022-02-08-18:26:16,10.1.1.4,30,-0.070,-0.070,-0.070,0.000,0.000,0.000
1644344776544555008,2022-02-08-18:26:16,10.1.1.4,28,-0.080,-0.080,-0.080,0.000,0.000,0.000
1644344776643051008,2022-02-08-18:26:16,10.1.1.4,26,-0.090,-0.090,-0.090,0.000,0.000,0.000
1644344776742633216,2022-02-08-18:26:16,10.1.1.4,23,-0.100,-0.100,-0.100,0.000,0.000,0.000
1644344776842635008,2022-02-08-18:26:16,10.1.1.4,22,-0.090,-0.090,-0.090,0.000,0.000,0.000
1644344776963032064,2022-02-08-18:26:16,10.1.1.4,34,-0.080,-0.080,-0.080,0.000,0.000,0.000
1644344777063038208,2022-02-08-18:26:17,10.1.1.4,30,-0.070,-0.070,-0.070,0.000,0.000,0.000
1644344777162942976,2022-02-08-18:26:17,10.1.1.4,29,-0.060,-0.060,-0.060,0.000,0.000,0.000
1644344777262737920,2022-02-08-18:26:17,10.1.1.4,28,-0.050,-0.050,-0.050,0.000,0.000,0.000
1644344777362689024,2022-02-08-18:26:17,10.1.1.4,25,-0.040,-0.040,-0.040,0.000,0.000,0.000
1644344777463620864,2022-02-08-18:26:17,10.1.1.4,23,-0.030,-0.030,-0.030,0.000,0.000,0.000
1644344777562041088,2022-02-08-18:26:17,10.1.1.4,22,-0.020,-0.020,-0.020,0.000,0.000,0.000
1644344777662637056,2022-02-08-18:26:17,10.1.1.4,21,-0.010,-0.010,-0.010,0.000,0.000,0.000
1644344777763118080,2022-02-08-18:26:17,10.1.1.4,19,-0.001,-0.001,-0.001,0.000,0.000,0.000
1644344777883305984,2022-02-08-18:26:17,10.1.1.4,35,0.010,0.010,0.010,0.000,0.000,0.000
1644344777983456000,2022-02-08-18:26:17,10.1.1.4,32,0.020,0.020,0.020,0.000,0.000,0.000
1644344778082434048,2022-02-08-18:26:18,10.1.1.4,31,0.030,0.030,0.030,0.000,0.000,0.000
1644344778182795008,2022-02-08-18:26:18,10.1.1.4,26,0.040,0.040,0.040,0.000,0.000,0.000
1644344778283677184,2022-02-08-18:26:18,10.1.1.4,20,0.050,0.050,0.050,0.000,0.000,0.000
1644344778403495936,2022-02-08-18:26:18,10.1.1.4,38,0.060,0.060,0.060,0.000,0.000,0.000
1644344778502481920,2022-02-08-18:26:18,10.1.1.4,38,0.070,0.070,0.070,0.000,0.000,0.000
1644344778602147072,2022-02-08-18:26:18,10.1.1.4,36,0.080,0.080,0.080,0.000,0.000,0.000
1644344778702785024,2022-02-08-18:26:18,10.1.1.4,34,0.090,0.090,0.090,0.000,0.000,0.000
1644344778803112960,2022-02-08-18:26:18,10.1.1.4,34,0.100,0.100,0.100,0.000,0.000,0.000
1644344778901804032,2022-02-08-18:26:18,10.1.1.4,31,0.090,0.090,0.090,0.000,0.000,0.000
1644344779002729984,2022-02-08-18:26:19,10.1.1.4,30,0.080,0.080,0.080,0.000,0.000,0.000
1644344779103821056,2022-02-08-18:26:19,10.1.1.4,30,0.070,0.070,0.070,0.000,0.000,0.000
1644344779203521024,2022-02-08-18:26:19,10.1.1.4,29,0.060,0.060,0.060,0.000,0.000,0.000
1644344779302580224,2022-02-08-18:26:19,10.1.1.4,27,0.050,0.050,0.050,0.000,0.000,0.000
1644344779403127040,2022-02-08-18:26:19,10.1.1.4,23,0.040,0.040,0.040,0.000,0.000,0.000
1644344779503232000,2022-02-08-18:26:19,10.1.1.4,22,0.030,0.030,0.030,0.000,0.000,0.000
1644344779605928960,2022-02-08-18:26:19,10.1.1.4,21,0.020,0.020,0.020,0.000,0.000,0.000
1644344779703262976,2022-02-08-18:26:19,10.1.1.4,19,0.010,0.010,0.010,0.000,0.000,0.000
1644344779824260864,2022-02-08-18:26:19,10.1.1.4,37,0.000,0.000,0.000,0.000,0.000,0.000
1644344779922396928,2022-02-08-18:26:19,10.1.1.4,36,-0.010,-0.010,-0.010,0.000,0.000,0.000
1644344780023412992,2022-02-08-18:26:20,10.1.1.4,35,-0.020,-0.020,-0.020,0.000,0.000,0.000
1644344780122828032,2022-02-08-18:26:20,10.1.1.4,34,-0.030,-0.030,-0.030,0.000,0.000,0.000
1644344780222501120,2022-02-08-18:26:20,10.1.1.4,33,-0.040,-0.040,-0.040,0.000,0.000,0.000
1644344780321806848,2022-02-08-18:26:20,10.1.1.4,32,-0.050,-0.050,-0.050,0.000,0.000,0.000
1644344780423363072,2022-02-08-18:26:20,10.1.1.4,31,-0.060,-0.060,-0.060,0.000,0.000,0.000
1644344780523021056,2022-02-08-18:26:20,10.1.1.4,30,-0.070,-0.070,-0.070,0.000,0.000,0.000
1644344780623089152,2022-02-08-18:26:20,10.1.1.4,24,-0.080,-0.080,-0.080,0.000,0.000,0.000
1644344780724030976,2022-02-08-18:26:20,10.1.1.4,22,-0.090,-0.090,-0.090,0.000,0.000,0.000
1644344780822813952,2022-02-08-18:26:20,10.1.1.4,21,-0.100,-0.100,-0.100,0.000,0.000,0.000
1644344780942625024,2022-02-08-18:26:20,10.1.1.4,39,-0.090,-0.090,-0.090,0.000,0.000,0.000
1644344781042740992,2022-02-08-18:26:21,10.1.1.4,38,-0.080,-0.080,-0.080,0.000,0.000,0.000
1644344781142610944,2022-02-08-18:26:21,10.1.1.4,36,-0.070,-0.070,-0.070,0.000,0.000,0.000
1644344781242578944,2022-02-08-18:26:21,10.1.1.4,34,-0.060,-0.060,-0.060,0.000,0.000,0.000
1644344781342592000,2022-02-08-18:26:21,10.1.1.4,32,-0.050,-0.050,-0.050,0.000,0.000,0.000
1644344781443546112,2022-02-08-18:26:21,10.1.1.4,31,-0.040,-0.040,-0.040,0.000,0.000,0.000
1644344781542503168,2022-02-08-18:26:21,10.1.1.4,28,-0.030,-0.030,-0.030,0.000,0.000,0.000
1644344781642942976,2022-02-08-18:26:21,10.1.1.4,23,-0.020,-0.020,-0.020,0.000,0.000,0.000
1644344781743258880,2022-02-08-18:26:21,10.1.1.4,22,-0.010,-0.010,-0.010,0.000,0.000,0.000
1644344781863023872,2022-02-08-18:26:21,10.1.1.4,39,0.000,0.000,0.000,0.000,0.000,0.000
1644344781962953216,2022-02-08-18:26:21,10.1.1.4,38,0.010,0.010,0.010,0.000,0.000,0.000
1644344782062861056,2022-02-08-18:26:22,10.1.1.4,37,0.020,0.020,0.020,0.000,0.000,0.000
1644344782162136064,2022-02-08-18:26:22,10.1.1.4,35,0.030,0.030,0.030,0.000,0.000,0.000
1644344782262651904,2022-02-08-18:26:22,10.1.1.4,34,0.040,0.040,0.040,0.000,0.000,0.000
1644344782325249792,2022-02-08-18:26:22,10.1.1.4,-7,0.040,0.040,0.040,0.000,0.000,0.000
1644344782462723072,2022-02-08-18:26:22,10.1.1.4,33,0.060,0.060,0.060,0.000,0.000,0.000
1644344782562829056,2022-02-08-18:26:22,10.1.1.4,32,0.070,0.070,0.070,0.000,0.000,0.000
1644344782662683904,2022-02-08-18:26:22,10.1.1.4,30,0.080,0.080,0.080,0.000,0.000,0.000
1644344782762973952,2022-02-08-18:26:22,10.1.1.4,30,0.090,0.090,0.090,0.000,0.000,0.000
1644344782862799872,2022-02-08-18:26:22,10.1.1.4,29,0.100,0.100,0.100,0.000,0.000,0.000
1644344782962609920,2022-02-08-18:26:22,10.1.1.4,28,0.090,0.090,0.090,0.000,0.000,0.000
1644344783063170048,2022-02-08-18:26:23,10.1.1.4,23,0.080,0.080,0.080,0.000,0.000,0.000
1644344783163446016,2022-02-08-18:26:23,10.1.1.4,22,0.070,0.070,0.070,0.000,0.000,0.000
1644344783265896192,2022-02-08-18:26:23,10.1.1.4,19,0.060,0.060,0.060,0.000,0.000,0.000
1644344783383250944,2022-02-08-18:26:23,10.1.1.4,38,0.050,0.050,0.050,0.000,0.000,0.000
1644344783484422912,2022-02-08-18:26:23,10.1.1.4,38,0.040,0.040,0.040,0.000,0.000,0.000
1644344783586068992,2022-02-08-18:26:23,10.1.1.4,36,0.030,0.030,0.030,0.000,0.000,0.000
1644344783682528000,2022-02-08-18:26:23,10.1.1.4,35,0.020,0.020,0.020,0.000,0.000,0.000
1644344783783190016,2022-02-08-18:26:23,10.1.1.4,33,0.010,0.010,0.010,0.000,0.000,0.000
1644344783882648064,2022-02-08-18:26:23,10.1.1.4,32,0.000,0.000,0.000,0.000,0.000,0.000
1644344783982180096,2022-02-08-18:26:23,10.1.1.4,31,-0.010,-0.010,-0.010,0.000,0.000,0.000
1644344784082273024,2022-02-08-18:26:24,10.1.1.4,29,-0.020,-0.020,-0.020,0.000,0.000,0.000
1644344784182884864,2022-02-08-18:26:24,10.1.1.4,28,-0.030,-0.030,-0.030,0.000,0.000,0.000
1644344784282209024,2022-02-08-18:26:24,10.1.1.4,27,-0.040,-0.040,-0.040,0.000,0.000,0.000
1644344784382759168,2022-02-08-18:26:24,10.1.1.4,23,-0.050,-0.050,-0.050,0.000,0.000,0.000
1644344784483841792,2022-02-08-18:26:24,10.1.1.4,22,-0.060,-0.060,-0.060,0.000,0.000,0.000
1644344784582542848,2022-02-08-18:26:24,10.1.1.4,21,-0.070,-0.070,-0.070,0.000,0.000,0.000
1644344784682907136,2022-02-08-18:26:24,10.1.1.4,19,-0.079,-0.079,-0.079,0.000,0.000,0.000
1644344784814223104,2022-02-08-18:26:24,10.1.1.4,46,-0.090,-0.090,-0.090,0.000,0.000,0.000
1644344784902529024,2022-02-08-18:26:24,10.1.1.4,34,-0.100,-0.100,-0.100,0.000,0.000,0.000
1644344785002437120,2022-02-08-18:26:25,10.1.1.4,34,-0.090,-0.090,-0.090,0.000,0.000,0.000
1644344785103945984,2022-02-08-18:26:25,10.1.1.4,33,-0.080,-0.080,-0.080,0.000,0.000,0.000
1644344785203228928,2022-02-08-18:26:25,10.1.1.4,32,-0.070,-0.070,-0.070,0.000,0.000,0.000
1644344785302639104,2022-02-08-18:26:25,10.1.1.4,31,-0.060,-0.060,-0.060,0.000,0.000,0.000
1644344785402684928,2022-02-08-18:26:25,10.1.1.4,29,-0.050,-0.050,-0.050,0.000,0.000,0.000
1644344785502561024,2022-02-08-18:26:25,10.1.1.4,28,-0.040,-0.040,-0.040,0.000,0.000,0.000
1644344785602384128,2022-02-08-18:26:25,10.1.1.4,27,-0.030,-0.030,-0.030,0.000,0.000,0.000
1644344785702541056,2022-02-08-18:26:25,10.1.1.4,26,-0.020,-0.020,-0.020,0.000,0.000,0.000
1644344785802576128,2022-02-08-18:26:25,10.1.1.4,21,-0.010,-0.010,-0.010,0.000,0.000,0.000
1644344785902089216,2022-02-08-18:26:25,10.1.1.4,21,0.000,0.000,0.000,0.000,0.000,0.000
1644344786003763968,2022-02-08-18:26:26,10.1.1.4,20,0.010,0.010,0.010,0.000,0.000,0.000
1644344786102377984,2022-02-08-18:26:26,10.1.1.4,19,0.020,0.020,0.020,0.000,0.000,0.000
1644344786222859008,2022-02-08-18:26:26,10.1.1.4,38,0.030,0.030,0.030,0.000,0.000,0.000
1644344786322479104,2022-02-08-18:26:26,10.1.1.4,37,0.040,0.040,0.040,0.000,0.000,0.000
1644344786422974976,2022-02-08-18:26:26,10.1.1.4,35,0.050,0.050,0.050,0.000,0.000,0.000
1644344786522706944,2022-02-08-18:26:26,10.1.1.4,34,0.060,0.060,0.060,0.000,0.000,0.000
1644344786622452992,2022-02-08-18:26:26,10.1.1.4,32,0.070,0.070,0.070,0.000,0.000,0.000
1644344786725595904,2022-02-08-18:26:26,10.1.1.4,32,0.080,0.080,0.080,0.000,0.000,0.000
1644344786822793984,2022-02-08-18:26:26,10.1.1.4,31,0.090,0.090,0.090,0.000,0.000,0.000
1644344786921907968,2022-02-08-18:26:26,10.1.1.4,30,0.100,0.100,0.100,0.000,0.000,0.000
1644344787022897920,2022-02-08-18:26:27,10.1.1.4,28,0.090,0.090,0.090,0.000,0.000,0.000
1644344787123266816,2022-02-08-18:26:27,10.1.1.4,27,0.080,0.080,0.080,0.000,0.000,0.000
1644344787224852992,2022-02-08-18:26:27,10.1.1.4,19,0.070,0.070,0.070,0.000,0.000,0.000
1644344787342444800,2022-02-08-18:26:27,10.1.1.4,36,0.060,0.060,0.060,0.000,0.000,0.000
1644344787442981120,2022-02-08-18:26:27,10.1.1.4,35,0.050,0.050,0.050,0.000,0.000,0.000
1644344787542195968,2022-02-08-18:26:27,10.1.1.4,34,0.040,0.040,0.040,0.000,0.000,0.000
1644344787642416896,2022-02-08-18:26:27,10.1.1.4,33,0.030,0.030,0.030,0.000,0.000,0.000
1644344787742011904,2022-02-08-18:26:27,10.1.1.4,30,0.020,0.020,0.020,0.000,0.000,0.000
1644344787842622976,2022-02-08-18:26:27,10.1.1.4,29,0.010,0.010,0.010,0.000,0.000,0.000
1644344788043219200,2022-02-08-18:26:28,10.1.1.4,28,-0.010,-0.010,-0.010,0.000,0.000,0.000
1644344788143048960,2022-02-08-18:26:28,10.1.1.4,25,-0.020,-0.020,-0.020,0.000,0.000,0.000
1644344788242348032,2022-02-08-18:26:28,10.1.1.4,22,-0.030,-0.030,-0.030,0.000,0.000,0.000
1644344788343010048,2022-02-08-18:26:28,10.1.1.4,21,-0.040,-0.040,-0.040,0.000,0.000,0.000
1644344788443272192,2022-02-08-18:26:28,10.1.1.4,20,-0.050,-0.050,-0.050,0.000,0.000,0.000
1644344788562728960,2022-02-08-18:26:28,10.1.1.4,38,-0.060,-0.060,-0.060,0.000,0.000,0.000
1644344788662877952,2022-02-08-18:26:28,10.1.1.4,38,-0.070,-0.070,-0.070,0.000,0.000,0.000
1644344788762379776,2022-02-08-18:26:28,10.1.1.4,35,-0.080,-0.080,-0.080,0.000,0.000,0.000
1644344788862881024,2022-02-08-18:26:28,10.1.1.4,34,-0.090,-0.090,-0.090,0.000,0.000,0.000
1644344788963143168,2022-02-08-18:26:28,10.1.1.4,32,-0.100,-0.100,-0.100,0.000,0.000,0.000
1644344789062915072,2022-02-08-18:26:29,10.1.1.4,31,-0.090,-0.090,-0.090,0.000,0.000,0.000
1644344789163069952,2022-02-08-18:26:29,10.1.1.4,29,-0.080,-0.080,-0.080,0.000,0.000,0.000
1644344789363195904,2022-02-08-18:26:29,10.1.1.4,24,-0.060,-0.060,-0.060,0.000,0.000,0.000
1644344789463751936,2022-02-08-18:26:29,10.1.1.4,23,-0.050,-0.050,-0.050,0.000,0.000,0.000
1644344789563930112,2022-02-08-18:26:29,10.1.1.4,22,-0.040,-0.040,-0.040,0.000,0.000,0.000
1644344789661865984,2022-02-08-18:26:29,10.1.1.4,21,-0.030,-0.030,-0.030,0.000,0.000,0.000
1644344789762253056,2022-02-08-18:26:29,10.1.1.4,20,-0.020,-0.020,-0.020,0.000,0.000,0.000
1644344789863058176,2022-02-08-18:26:29,10.1.1.4,19,-0.010,-0.010,-0.010,0.000,0.000,0.000
1644344789983966208,2022-02-08-18:26:29,10.1.1.4,38,0.000,0.000,0.000,0.000,0.000,0.000
1644344790082925056,2022-02-08-18:26:30,10.1.1.4,36,0.010,0.010,0.010,0.000,0.000,0.000
1644344790183088128,2022-02-08-18:26:30,10.1.1.4,35,0.020,0.020,0.020,0.000,0.000,0.000
1644344790282466816,2022-02-08-18:26:30,10.1.1.4,34,0.030,0.030,0.030,0.000,0.000,0.000
1644344790382920960,2022-02-08-18:26:30,10.1.1.4,33,0.040,0.040,0.040,0.000,0.000,0.000
1644344790483328000,2022-02-08-18:26:30,10.1.1.4,32,0.050,0.050,0.050,0.000,0.000,0.000
1644344790583077888,2022-02-08-18:26:30,10.1.1.4,32,0.060,0.060,0.060,0.000,0.000,0.000
1644344790682632960,2022-02-08-18:26:30,10.1.1.4,31,0.070,0.070,0.070,0.000,0.000,0.000
1644344790784454144,2022-02-08-18:26:30,10.1.1.4,31,0.080,0.080,0.080,0.000,0.000,0.000
1644344790882893056,2022-02-08-18:26:30,10.1.1.4,28,0.090,0.090,0.090,0.000,0.000,0.000
1644344790983041024,2022-02-08-18:26:30,10.1.1.4,27,0.100,0.100,0.100,0.000,0.000,0.000
1644344791085074944,2022-02-08-18:26:31,10.1.1.4,26,0.090,0.090,0.090,0.000,0.000,0.000
1644344791183525120,2022-02-08-18:26:31,10.1.1.4,23,0.080,0.080,0.080,0.000,0.000,0.000
1644344791283792896,2022-02-08-18:26:31,10.1.1.4,21,0.070,0.070,0.070,0.000,0.000,0.000
1644344791385741056,2022-02-08-18:26:31,10.1.1.4,20,0.060,0.060,0.060,0.000,0.000,0.000
1644344791503827968,2022-02-08-18:26:31,10.1.1.4,39,0.050,0.050,0.050,0.000,0.000,0.000
1644344791602477056,2022-02-08-18:26:31,10.1.1.4,37,0.040,0.040,0.040,0.000,0.000,0.000
1644344791703408896,2022-02-08-18:26:31,10.1.1.4,36,0.030,0.030,0.030,0.000,0.000,0.000
1644344791802496000,2022-02-08-18:26:31,10.1.1.4,35,0.020,0.020,0.020,0.000,0.000,0.000
1644344791903565824,2022-02-08-18:26:31,10.1.1.4,34,0.010,0.010,0.010,0.000,0.000,0.000
1644344792002612992,2022-02-08-18:26:32,10.1.1.4,33,0.000,0.000,0.000,0.000,0.000,0.000
1644344792103168000,2022-02-08-18:26:32,10.1.1.4,32,-0.010,-0.010,-0.010,0.000,0.000,0.000
1644344792204061952,2022-02-08-18:26:32,10.1.1.4,30,-0.020,-0.020,-0.020,0.000,0.000,0.000
1644344792303094016,2022-02-08-18:26:32,10.1.1.4,29,-0.030,-0.030,-0.030,0.000,0.000,0.000
1644344792403256832,2022-02-08-18:26:32,10.1.1.4,28,-0.040,-0.040,-0.040,0.000,0.000,0.000
1644344792503198976,2022-02-08-18:26:32,10.1.1.4,19,-0.050,-0.050,-0.050,0.000,0.000,0.000
1644344792622729984,2022-02-08-18:26:32,10.1.1.4,38,-0.060,-0.060,-0.060,0.000,0.000,0.000
1644344792721644032,2022-02-08-18:26:32,10.1.1.4,38,-0.070,-0.070,-0.070,0.000,0.000,0.000
1644344792822397952,2022-02-08-18:26:32,10.1.1.4,37,-0.080,-0.080,-0.080,0.000,0.000,0.000
1644344792922418176,2022-02-08-18:26:32,10.1.1.4,36,-0.090,-0.090,-0.090,0.000,0.000,0.000
1644344793022626048,2022-02-08-18:26:33,10.1.1.4,35,-0.100,-0.100,-0.100,0.000,0.000,0.000
1644344793121836800,2022-02-08-18:26:33,10.1.1.4,33,-0.090,-0.090,-0.090,0.000,0.000,0.000
1644344793222564864,2022-02-08-18:26:33,10.1.1.4,32,-0.080,-0.080,-0.080,0.000,0.000,0.000
1644344793321989888,2022-02-08-18:26:33,10.1.1.4,31,-0.070,-0.070,-0.070,0.000,0.000,0.000
1644344793422409984,2022-02-08-18:26:33,10.1.1.4,30,-0.060,-0.060,-0.060,0.000,0.000,0.000
1644344793522864128,2022-02-08-18:26:33,10.1.1.4,29,-0.050,-0.050,-0.050,0.000,0.000,0.000
1644344793622724096,2022-02-08-18:26:33,10.1.1.4,27,-0.040,-0.040,-0.040,0.000,0.000,0.000
1644344793723371008,2022-02-08-18:26:33,10.1.1.4,26,-0.030,-0.030,-0.030,0.000,0.000,0.000
1644344793822344960,2022-02-08-18:26:33,10.1.1.4,24,-0.020,-0.020,-0.020,0.000,0.000,0.000
1644344793921964032,2022-02-08-18:26:33,10.1.1.4,23,-0.010,-0.010,-0.010,0.000,0.000,0.000
1644344794022597120,2022-02-08-18:26:34,10.1.1.4,23,0.000,0.000,0.000,0.000,0.000,0.000
1644344794122224128,2022-02-08-18:26:34,10.1.1.4,21,0.010,0.010,0.010,0.000,0.000,0.000
1644344794224915968,2022-02-08-18:26:34,10.1.1.4,21,0.020,0.020,0.020,0.000,0.000,0.000
1644344794322659072,2022-02-08-18:26:34,10.1.1.4,20,0.030,0.030,0.030,0.000,0.000,0.000
1644344794422644992,2022-02-08-18:26:34,10.1.1.4,19,0.040,0.040,0.040,0.000,0.000,0.000
1644344794542279936,2022-02-08-18:26:34,10.1.1.4,38,0.050,0.050,0.050,0.000,0.000,0.000
1644344794642427904,2022-02-08-18:26:34,10.1.1.4,36,0.060,0.060,0.060,0.000,0.000,0.000
1644344794742939904,2022-02-08-18:26:34,10.1.1.4,35,0.070,0.070,0.070,0.000,0.000,0.000
1644344794843143936,2022-02-08-18:26:34,10.1.1.4,34,0.080,0.080,0.080,0.000,0.000,0.000
1644344794941991936,2022-02-08-18:26:34,10.1.1.4,33,0.090,0.090,0.090,0.000,0.000,0.000
1644344795042460928,2022-02-08-18:26:35,10.1.1.4,31,0.100,0.100,0.100,0.000,0.000,0.000
1644344795141853952,2022-02-08-18:26:35,10.1.1.4,30,0.090,0.090,0.090,0.000,0.000,0.000
1644344795242168064,2022-02-08-18:26:35,10.1.1.4,28,0.080,0.080,0.080,0.000,0.000,0.000
1644344795341761024,2022-02-08-18:26:35,10.1.1.4,26,0.070,0.070,0.070,0.000,0.000,0.000
1644344795442430976,2022-02-08-18:26:35,10.1.1.4,24,0.060,0.060,0.060,0.000,0.000,0.000
1644344795542167808,2022-02-08-18:26:35,10.1.1.4,22,0.050,0.050,0.050,0.000,0.000,0.000
1644344795642254080,2022-02-08-18:26:35,10.1.1.4,22,0.040,0.040,0.040,0.000,0.000,0.000
1644344795741923072,2022-02-08-18:26:35,10.1.1.4,21,0.030,0.030,0.030,0.000,0.000,0.000
1644344795842947840,2022-02-08-18:26:35,10.1.1.4,19,0.020,0.020,0.020,0.000,0.000,0.000
1644344795962959104,2022-02-08-18:26:35,10.1.1.4,38,0.010,0.010,0.010,0.000,0.000,0.000
1644344796062886912,2022-02-08-18:26:36,10.1.1.4,38,0.000,0.000,0.000,0.000,0.000,0.000
1644344796162766080,2022-02-08-18:26:36,10.1.1.4,37,-0.010,-0.010,-0.010,0.000,0.000,0.000
1644344796262499072,2022-02-08-18:26:36,10.1.1.4,36,-0.020,-0.020,-0.020,0.000,0.000,0.000
1644344796363470080,2022-02-08-18:26:36,10.1.1.4,32,-0.030,-0.030,-0.030,0.000,0.000,0.000
1644344796462616832,2022-02-08-18:26:36,10.1.1.4,29,-0.040,-0.040,-0.040,0.000,0.000,0.000
1644344796562976000,2022-02-08-18:26:36,10.1.1.4,29,-0.050,-0.050,-0.050,0.000,0.000,0.000
1644344796663575808,2022-02-08-18:26:36,10.1.1.4,28,-0.060,-0.060,-0.060,0.000,0.000,0.000
1644344796762392064,2022-02-08-18:26:36,10.1.1.4,27,-0.070,-0.070,-0.070,0.000,0.000,0.000
1644344796863132928,2022-02-08-18:26:36,10.1.1.4,26,-0.080,-0.080,-0.080,0.000,0.000,0.000
1644344796962703872,2022-02-08-18:26:36,10.1.1.4,24,-0.090,-0.090,-0.090,0.000,0.000,0.000
1644344797063437056,2022-02-08-18:26:37,10.1.1.4,23,-0.100,-0.100,-0.100,0.000,0.000,0.000
1644344797162914048,2022-02-08-18:26:37,10.1.1.4,21,-0.090,-0.090,-0.090,0.000,0.000,0.000
1644344797262601984,2022-02-08-18:26:37,10.1.1.4,20,-0.080,-0.080,-0.080,0.000,0.000,0.000
1644344797383347968,2022-02-08-18:26:37,10.1.1.4,39,-0.070,-0.070,-0.070,0.000,0.000,0.000
1644344797483544064,2022-02-08-18:26:37,10.1.1.4,38,-0.060,-0.060,-0.060,0.000,0.000,0.000
1644344797582528000,2022-02-08-18:26:37,10.1.1.4,37,-0.050,-0.050,-0.050,0.000,0.000,0.000
1644344797683404800,2022-02-08-18:26:37,10.1.1.4,34,-0.040,-0.040,-0.040,0.000,0.000,0.000
1644344797783267072,2022-02-08-18:26:37,10.1.1.4,33,-0.030,-0.030,-0.030,0.000,0.000,0.000
1644344797882489856,2022-02-08-18:26:37,10.1.1.4,32,-0.020,-0.020,-0.020,0.000,0.000,0.000
1644344797982630912,2022-02-08-18:26:37,10.1.1.4,31,-0.010,-0.010,-0.010,0.000,0.000,0.000
1644344798082598912,2022-02-08-18:26:38,10.1.1.4,30,0.000,0.000,0.000,0.000,0.000,0.000
1644344798182595072,2022-02-08-18:26:38,10.1.1.4,27,0.010,0.010,0.010,0.000,0.000,0.000
1644344798283205888,2022-02-08-18:26:38,10.1.1.4,24,0.020,0.020,0.020,0.000,0.000,0.000
1644344798382523904,2022-02-08-18:26:38,10.1.1.4,23,0.030,0.030,0.030,0.000,0.000,0.000
1644344798483239936,2022-02-08-18:26:38,10.1.1.4,22,0.040,0.040,0.040,0.000,0.000,0.000
1644344798583090176,2022-02-08-18:26:38,10.1.1.4,20,0.050,0.050,0.050,0.000,0.000,0.000
1644344798702842112,2022-02-08-18:26:38,10.1.1.4,38,0.060,0.060,0.060,0.000,0.000,0.000
1644344798802373888,2022-02-08-18:26:38,10.1.1.4,36,0.070,0.070,0.070,0.000,0.000,0.000
1644344798902843904,2022-02-08-18:26:38,10.1.1.4,34,0.080,0.080,0.080,0.000,0.000,0.000
1644344799002850048,2022-02-08-18:26:39,10.1.1.4,33,0.090,0.090,0.090,0.000,0.000,0.000
1644344799103528960,2022-02-08-18:26:39,10.1.1.4,31,0.100,0.100,0.100,0.000,0.000,0.000
1644344799203248896,2022-02-08-18:26:39,10.1.1.4,30,0.090,0.090,0.090,0.000,0.000,0.000
1644344799305346048,2022-02-08-18:26:39,10.1.1.4,29,0.080,0.080,0.080,0.000,0.000,0.000
1644344799402373120,2022-02-08-18:26:39,10.1.1.4,23,0.070,0.070,0.070,0.000,0.000,0.000
1644344799502935808,2022-02-08-18:26:39,10.1.1.4,22,0.060,0.060,0.060,0.000,0.000,0.000
1644344799602530048,2022-02-08-18:26:39,10.1.1.4,20,0.050,0.050,0.050,0.000,0.000,0.000
1644344799722529024,2022-02-08-18:26:39,10.1.1.4,38,0.040,0.040,0.040,0.000,0.000,0.000
1644344799822258944,2022-02-08-18:26:39,10.1.1.4,36,0.030,0.030,0.030,0.000,0.000,0.000
1644344799922755072,2022-02-08-18:26:39,10.1.1.4,34,0.020,0.020,0.020,0.000,0.000,0.000
1644344800022481920,2022-02-08-18:26:40,10.1.1.4,32,0.010,0.010,0.010,0.000,0.000,0.000
1644344800122297088,2022-02-08-18:26:40,10.1.1.4,31,0.000,0.000,0.000,0.000,0.000,0.000
1644344800223876096,2022-02-08-18:26:40,10.1.1.4,30,-0.010,-0.010,-0.010,0.000,0.000,0.000
1644344800322583808,2022-02-08-18:26:40,10.1.1.4,28,-0.020,-0.020,-0.020,0.000,0.000,0.000
1644344800422398208,2022-02-08-18:26:40,10.1.1.4,28,-0.030,-0.030,-0.030,0.000,0.000,0.000
1644344800522619136,2022-02-08-18:26:40,10.1.1.4,27,-0.040,-0.040,-0.040,0.000,0.000,0.000
1644344800622993920,2022-02-08-18:26:40,10.1.1.4,25,-0.050,-0.050,-0.050,0.000,0.000,0.000
1644344800724000000,2022-02-08-18:26:40,10.1.1.4,24,-0.060,-0.060,-0.060,0.000,0.000,0.000
1644344800822232064,2022-02-08-18:26:40,10.1.1.4,23,-0.070,-0.070,-0.070,0.000,0.000,0.000
1644344800924105984,2022-02-08-18:26:40,10.1.1.4,22,-0.080,-0.080,-0.080,0.000,0.000,0.000
1644344801023792896,2022-02-08-18:26:41,10.1.1.4,20,-0.090,-0.090,-0.090,0.000,0.000,0.000
1644344801142252032,2022-02-08-18:26:41,10.1.1.4,38,-0.100,-0.100,-0.100,0.000,0.000,0.000
1644344801242868992,2022-02-08-18:26:41,10.1.1.4,37,-0.090,-0.090,-0.090,0.000,0.000,0.000
1644344801343470080,2022-02-08-18:26:41,10.1.1.4,35,-0.080,-0.080,-0.080,0.000,0.000,0.000
1644344801443089920,2022-02-08-18:26:41,10.1.1.4,34,-0.070,-0.070,-0.070,0.000,0.000,0.000
1644344801542528000,2022-02-08-18:26:41,10.1.1.4,33,-0.060,-0.060,-0.060,0.000,0.000,0.000
1644344801642976000,2022-02-08-18:26:41,10.1.1.4,32,-0.050,-0.050,-0.050,0.000,0.000,0.000
1644344801743105792,2022-02-08-18:26:41,10.1.1.4,32,-0.040,-0.040,-0.040,0.000,0.000,0.000
1644344801843152896,2022-02-08-18:26:41,10.1.1.4,30,-0.030,-0.030,-0.030,0.000,0.000,0.000
1644344801942814976,2022-02-08-18:26:41,10.1.1.4,29,-0.020,-0.020,-0.020,0.000,0.000,0.000
1644344802043812096,2022-02-08-18:26:42,10.1.1.4,28,-0.010,-0.010,-0.010,0.000,0.000,0.000
1644344802143176192,2022-02-08-18:26:42,10.1.1.4,27,0.000,0.000,0.000,0.000,0.000,0.000
1644344802242598144,2022-02-08-18:26:42,10.1.1.4,24,0.010,0.010,0.010,0.000,0.000,0.000
1644344802342382848,2022-02-08-18:26:42,10.1.1.4,23,0.020,0.020,0.020,0.000,0.000,0.000
1644344802442027008,2022-02-08-18:26:42,10.1.1.4,20,0.030,0.030,0.030,0.000,0.000,0.000
1644344802542498048,2022-02-08-18:26:42,10.1.1.4,19,0.040,0.040,0.040,0.000,0.000,0.000
1644344802662831104,2022-02-08-18:26:42,10.1.1.4,38,0.050,0.050,0.050,0.000,0.000,0.000
1644344802763177984,2022-02-08-18:26:42,10.1.1.4,38,0.060,0.060,0.060,0.000,0.000,0.000
1644344802863307008,2022-02-08-18:26:42,10.1.1.4,36,0.070,0.070,0.070,0.000,0.000,0.000
1644344802963052032,2022-02-08-18:26:42,10.1.1.4,34,0.080,0.080,0.080,0.000,0.000,0.000
1644344803063625216,2022-02-08-18:26:43,10.1.1.4,33,0.090,0.090,0.090,0.000,0.000,0.000
1644344803162895872,2022-02-08-18:26:43,10.1.1.4,32,0.100,0.100,0.100,0.000,0.000,0.000
1644344803262675968,2022-02-08-18:26:43,10.1.1.4,30,0.090,0.090,0.090,0.000,0.000,0.000
1644344803363002112,2022-02-08-18:26:43,10.1.1.4,30,0.080,0.080,0.080,0.000,0.000,0.000
1644344803462324992,2022-02-08-18:26:43,10.1.1.4,28,0.070,0.070,0.070,0.000,0.000,0.000
1644344803562969088,2022-02-08-18:26:43,10.1.1.4,27,0.060,0.060,0.060,0.000,0.000,0.000
1644344803661696000,2022-02-08-18:26:43,10.1.1.4,27,0.050,0.050,0.050,0.000,0.000,0.000
1644344803762157056,2022-02-08-18:26:43,10.1.1.4,24,0.040,0.040,0.040,0.000,0.000,0.000
1644344803862045952,2022-02-08-18:26:43,10.1.1.4,23,0.030,0.030,0.030,0.000,0.000,0.000
1644344803962765056,2022-02-08-18:26:43,10.1.1.4,22,0.020,0.020,0.020,0.000,0.000,0.000
1644344804063111168,2022-02-08-18:26:44,10.1.1.4,21,0.010,0.010,0.010,0.000,0.000,0.000
1644344804182287872,2022-02-08-18:26:44,10.1.1.4,37,0.000,0.000,0.000,0.000,0.000,0.000
1644344804283081984,2022-02-08-18:26:44,10.1.1.4,35,-0.010,-0.010,-0.010,0.000,0.000,0.000
1644344804383662848,2022-02-08-18:26:44,10.1.1.4,32,-0.020,-0.020,-0.020,0.000,0.000,0.000
1644344804485400832,2022-02-08-18:26:44,10.1.1.4,31,-0.030,-0.030,-0.030,0.000,0.000,0.000
1644344804585810944,2022-02-08-18:26:44,10.1.1.4,30,-0.040,-0.040,-0.040,0.000,0.000,0.000
1644344804687998976,2022-02-08-18:26:44,10.1.1.4,29,-0.050,-0.050,-0.050,0.000,0.000,0.000
1644344804783709952,2022-02-08-18:26:44,10.1.1.4,28,-0.060,-0.060,-0.060,0.000,0.000,0.000
1644344804903139072,2022-02-08-18:26:44,10.1.1.4,39,-0.070,-0.070,-0.070,0.000,0.000,0.000
1644344805006531840,2022-02-08-18:26:45,10.1.1.4,38,-0.080,-0.080,-0.080,0.000,0.000,0.000
1644344805105453056,2022-02-08-18:26:45,10.1.1.4,36,-0.090,-0.090,-0.090,0.000,0.000,0.000
1644344805203710976,2022-02-08-18:26:45,10.1.1.4,35,-0.100,-0.100,-0.100,0.000,0.000,0.000
1644344805303859968,2022-02-08-18:26:45,10.1.1.4,34,-0.090,-0.090,-0.090,0.000,0.000,0.000
1644344805403107840,2022-02-08-18:26:45,10.1.1.4,32,-0.080,-0.080,-0.080,0.000,0.000,0.000
1644344805504837120,2022-02-08-18:26:45,10.1.1.4,31,-0.070,-0.070,-0.070,0.000,0.000,0.000
1644344805605041152,2022-02-08-18:26:45,10.1.1.4,29,-0.060,-0.060,-0.060,0.000,0.000,0.000
1644344805703012096,2022-02-08-18:26:45,10.1.1.4,19,-0.051,-0.051,-0.051,0.000,0.000,0.000
1644344805825357824,2022-02-08-18:26:45,10.1.1.4,38,-0.040,-0.040,-0.040,0.000,0.000,0.000
1644344805923846912,2022-02-08-18:26:45,10.1.1.4,38,-0.030,-0.030,-0.030,0.000,0.000,0.000
1644344806024052992,2022-02-08-18:26:46,10.1.1.4,36,-0.020,-0.020,-0.020,0.000,0.000,0.000
1644344806124531968,2022-02-08-18:26:46,10.1.1.4,34,-0.010,-0.010,-0.010,0.000,0.000,0.000
1644344806224514048,2022-02-08-18:26:46,10.1.1.4,34,0.000,0.000,0.000,0.000,0.000,0.000
1644344806322903040,2022-02-08-18:26:46,10.1.1.4,33,0.010,0.010,0.010,0.000,0.000,0.000
1644344806422593024,2022-02-08-18:26:46,10.1.1.4,31,0.020,0.020,0.020,0.000,0.000,0.000
1644344806522028032,2022-02-08-18:26:46,10.1.1.4,30,0.030,0.030,0.030,0.000,0.000,0.000
1644344806622669824,2022-02-08-18:26:46,10.1.1.4,29,0.040,0.040,0.040,0.000,0.000,0.000
1644344806723636992,2022-02-08-18:26:46,10.1.1.4,23,0.050,0.050,0.050,0.000,0.000,0.000
1644344806824529920,2022-02-08-18:26:46,10.1.1.4,23,0.060,0.060,0.060,0.000,0.000,0.000
1644344806922099200,2022-02-08-18:26:46,10.1.1.4,21,0.070,0.070,0.070,0.000,0.000,0.000
1644344807022648064,2022-02-08-18:26:47,10.1.1.4,20,0.080,0.080,0.080,0.000,0.000,0.000
1644344807142364928,2022-02-08-18:26:47,10.1.1.4,38,0.090,0.090,0.090,0.000,0.000,0.000
1644344807242836992,2022-02-08-18:26:47,10.1.1.4,34,0.100,0.100,0.100,0.000,0.000,0.000
1644344807343107840,2022-02-08-18:26:47,10.1.1.4,31,0.090,0.090,0.090,0.000,0.000,0.000
1644344807442547968,2022-02-08-18:26:47,10.1.1.4,30,0.080,0.080,0.080,0.000,0.000,0.000
1644344807542387968,2022-02-08-18:26:47,10.1.1.4,29,0.070,0.070,0.070,0.000,0.000,0.000
1644344807642638080,2022-02-08-18:26:47,10.1.1.4,28,0.060,0.060,0.060,0.000,0.000,0.000
1644344807742621952,2022-02-08-18:26:47,10.1.1.4,22,0.050,0.050,0.050,0.000,0.000,0.000
1644344807843384064,2022-02-08-18:26:47,10.1.1.4,20,0.040,0.040,0.040,0.000,0.000,0.000
1644344807962523904,2022-02-08-18:26:47,10.1.1.4,38,0.030,0.030,0.030,0.000,0.000,0.000
1644344808062526976,2022-02-08-18:26:48,10.1.1.4,37,0.020,0.020,0.020,0.000,0.000,0.000
1644344808163248896,2022-02-08-18:26:48,10.1.1.4,36,0.010,0.010,0.010,0.000,0.000,0.000
1644344808262316032,2022-02-08-18:26:48,10.1.1.4,35,0.000,0.000,0.000,0.000,0.000,0.000
1644344808362929152,2022-02-08-18:26:48,10.1.1.4,34,-0.010,-0.010,-0.010,0.000,0.000,0.000
1644344808462117888,2022-02-08-18:26:48,10.1.1.4,32,-0.020,-0.020,-0.020,0.000,0.000,0.000
1644344808563422976,2022-02-08-18:26:48,10.1.1.4,31,-0.030,-0.030,-0.030,0.000,0.000,0.000
1644344808663169024,2022-02-08-18:26:48,10.1.1.4,28,-0.040,-0.040,-0.040,0.000,0.000,0.000
1644344808762648064,2022-02-08-18:26:48,10.1.1.4,25,-0.050,-0.050,-0.050,0.000,0.000,0.000
1644344808862423808,2022-02-08-18:26:48,10.1.1.4,23,-0.060,-0.060,-0.060,0.000,0.000,0.000
1644344808962904832,2022-02-08-18:26:48,10.1.1.4,23,-0.070,-0.070,-0.070,0.000,0.000,0.000
1644344809062385152,2022-02-08-18:26:49,10.1.1.4,21,-0.080,-0.080,-0.080,0.000,0.000,0.000
1644344809162296064,2022-02-08-18:26:49,10.1.1.4,19,-0.089,-0.089,-0.089,0.000,0.000,0.000
1644344809281904896,2022-02-08-18:26:49,10.1.1.4,38,-0.100,-0.100,-0.100,0.000,0.000,0.000
1644344809382697216,2022-02-08-18:26:49,10.1.1.4,38,-0.090,-0.090,-0.090,0.000,0.000,0.000
1644344809482163968,2022-02-08-18:26:49,10.1.1.4,36,-0.080,-0.080,-0.080,0.000,0.000,0.000
1644344809581991936,2022-02-08-18:26:49,10.1.1.4,35,-0.070,-0.070,-0.070,0.000,0.000,0.000
1644344809682169856,2022-02-08-18:26:49,10.1.1.4,34,-0.060,-0.060,-0.060,0.000,0.000,0.000
1644344809782313216,2022-02-08-18:26:49,10.1.1.4,34,-0.050,-0.050,-0.050,0.000,0.000,0.000
1644344809881863168,2022-02-08-18:26:49,10.1.1.4,33,-0.040,-0.040,-0.040,0.000,0.000,0.000
1644344809982825984,2022-02-08-18:26:49,10.1.1.4,32,-0.030,-0.030,-0.030,0.000,0.000,0.000
1644344810082551040,2022-02-08-18:26:50,10.1.1.4,31,-0.020,-0.020,-0.020,0.000,0.000,0.000
1644344810182128896,2022-02-08-18:26:50,10.1.1.4,31,-0.010,-0.010,-0.010,0.000,0.000,0.000
1644344810283638016,2022-02-08-18:26:50,10.1.1.4,29,0.000,0.000,0.000,0.000,0.000,0.000
1644344810382725120,2022-02-08-18:26:50,10.1.1.4,22,0.010,0.010,0.010,0.000,0.000,0.000
1644344810504160000,2022-02-08-18:26:50,10.1.1.4,38,0.020,0.020,0.020,0.000,0.000,0.000
1644344810606803968,2022-02-08-18:26:50,10.1.1.4,36,0.030,0.030,0.030,0.000,0.000,0.000
1644344810702977792,2022-02-08-18:26:50,10.1.1.4,34,0.040,0.040,0.040,0.000,0.000,0.000
1644344810802994944,2022-02-08-18:26:50,10.1.1.4,31,0.050,0.050,0.050,0.000,0.000,0.000
1644344810902991104,2022-02-08-18:26:50,10.1.1.4,30,0.060,0.060,0.060,0.000,0.000,0.000
1644344811002825984,2022-02-08-18:26:51,10.1.1.4,29,0.070,0.070,0.070,0.000,0.000,0.000
1644344811102708224,2022-02-08-18:26:51,10.1.1.4,26,0.080,0.080,0.080,0.000,0.000,0.000
1644344811223198976,2022-02-08-18:26:51,10.1.1.4,38,0.090,0.090,0.090,0.000,0.000,0.000
1644344811324357888,2022-02-08-18:26:51,10.1.1.4,37,0.100,0.100,0.100,0.000,0.000,0.000
1644344811424005888,2022-02-08-18:26:51,10.1.1.4,36,0.090,0.090,0.090,0.000,0.000,0.000
1644344811523000832,2022-02-08-18:26:51,10.1.1.4,35,0.080,0.080,0.080,0.000,0.000,0.000
1644344811623716096,2022-02-08-18:26:51,10.1.1.4,32,0.070,0.070,0.070,0.000,0.000,0.000
1644344811724190976,2022-02-08-18:26:51,10.1.1.4,31,0.060,0.060,0.060,0.000,0.000,0.000
1644344811822791936,2022-02-08-18:26:51,10.1.1.4,30,0.050,0.050,0.050,0.000,0.000,0.000
1644344811922523136,2022-02-08-18:26:51,10.1.1.4,29,0.040,0.040,0.040,0.000,0.000,0.000
1644344812024569088,2022-02-08-18:26:52,10.1.1.4,27,0.030,0.030,0.030,0.000,0.000,0.000
1644344812122469888,2022-02-08-18:26:52,10.1.1.4,26,0.020,0.020,0.020,0.000,0.000,0.000
1644344812223508992,2022-02-08-18:26:52,10.1.1.4,21,0.010,0.010,0.010,0.000,0.000,0.000
1644344812322701056,2022-02-08-18:26:52,10.1.1.4,21,0.000,0.000,0.000,0.000,0.000,0.000
1644344812422560000,2022-02-08-18:26:52,10.1.1.4,19,-0.010,-0.010,-0.010,0.000,0.000,0.000
1644344812542507776,2022-02-08-18:26:52,10.1.1.4,39,-0.020,-0.020,-0.020,0.000,0.000,0.000
1644344812641811968,2022-02-08-18:26:52,10.1.1.4,38,-0.030,-0.030,-0.030,0.000,0.000,0.000
1644344812742443008,2022-02-08-18:26:52,10.1.1.4,37,-0.040,-0.040,-0.040,0.000,0.000,0.000
1644344812843045888,2022-02-08-18:26:52,10.1.1.4,35,-0.050,-0.050,-0.050,0.000,0.000,0.000
1644344812942562048,2022-02-08-18:26:52,10.1.1.4,34,-0.060,-0.060,-0.060,0.000,0.000,0.000
1644344813042906112,2022-02-08-18:26:53,10.1.1.4,33,-0.070,-0.070,-0.070,0.000,0.000,0.000
1644344813142579968,2022-02-08-18:26:53,10.1.1.4,32,-0.080,-0.080,-0.080,0.000,0.000,0.000
1644344813242373888,2022-02-08-18:26:53,10.1.1.4,31,-0.090,-0.090,-0.090,0.000,0.000,0.000
1644344813342181888,2022-02-08-18:26:53,10.1.1.4,31,-0.100,-0.100,-0.100,0.000,0.000,0.000
1644344813442255104,2022-02-08-18:26:53,10.1.1.4,30,-0.090,-0.090,-0.090,0.000,0.000,0.000
1644344813542434048,2022-02-08-18:26:53,10.1.1.4,29,-0.080,-0.080,-0.080,0.000,0.000,0.000
1644344813643165184,2022-02-08-18:26:53,10.1.1.4,28,-0.070,-0.070,-0.070,0.000,0.000,0.000
1644344813742639104,2022-02-08-18:26:53,10.1.1.4,25,-0.060,-0.060,-0.060,0.000,0.000,0.000
1644344813842618880,2022-02-08-18:26:53,10.1.1.4,23,-0.050,-0.050,-0.050,0.000,0.000,0.000
1644344813942606848,2022-02-08-18:26:53,10.1.1.4,21,-0.040,-0.040,-0.040,0.000,0.000,0.000
1644344814061979904,2022-02-08-18:26:54,10.1.1.4,39,-0.030,-0.030,-0.030,0.000,0.000,0.000
1644344814162408192,2022-02-08-18:26:54,10.1.1.4,36,-0.020,-0.020,-0.020,0.000,0.000,0.000
1644344814262643200,2022-02-08-18:26:54,10.1.1.4,34,-0.010,-0.010,-0.010,0.000,0.000,0.000
1644344814363707904,2022-02-08-18:26:54,10.1.1.4,34,0.000,0.000,0.000,0.000,0.000,0.000
1644344814463118080,2022-02-08-18:26:54,10.1.1.4,32,0.010,0.010,0.010,0.000,0.000,0.000
1644344814562203904,2022-02-08-18:26:54,10.1.1.4,30,0.020,0.020,0.020,0.000,0.000,0.000
1644344814662169856,2022-02-08-18:26:54,10.1.1.4,30,0.030,0.030,0.030,0.000,0.000,0.000
1644344814762994176,2022-02-08-18:26:54,10.1.1.4,29,0.040,0.040,0.040,0.000,0.000,0.000
1644344814863062016,2022-02-08-18:26:54,10.1.1.4,28,0.050,0.050,0.050,0.000,0.000,0.000
1644344814962593024,2022-02-08-18:26:54,10.1.1.4,26,0.060,0.060,0.060,0.000,0.000,0.000
1644344815062361856,2022-02-08-18:26:55,10.1.1.4,25,0.070,0.070,0.070,0.000,0.000,0.000
1644344815162648832,2022-02-08-18:26:55,10.1.1.4,23,0.080,0.080,0.080,0.000,0.000,0.000
1644344815262490880,2022-02-08-18:26:55,10.1.1.4,23,0.090,0.090,0.090,0.000,0.000,0.000
1644344815363346176,2022-02-08-18:26:55,10.1.1.4,22,0.100,0.100,0.100,0.000,0.000,0.000
1644344815462668032,2022-02-08-18:26:55,10.1.1.4,21,0.090,0.090,0.090,0.000,0.000,0.000
1644344815562277120,2022-02-08-18:26:55,10.1.1.4,20,0.080,0.080,0.080,0.000,0.000,0.000
1644344815663717888,2022-02-08-18:26:55,10.1.1.4,19,0.071,0.071,0.071,0.000,0.000,0.000
1644344815782852864,2022-02-08-18:26:55,10.1.1.4,37,0.060,0.060,0.060,0.000,0.000,0.000
1644344815882996992,2022-02-08-18:26:55,10.1.1.4,35,0.050,0.050,0.050,0.000,0.000,0.000
1644344815982446080,2022-02-08-18:26:55,10.1.1.4,33,0.040,0.040,0.040,0.000,0.000,0.000
1644344816082195968,2022-02-08-18:26:56,10.1.1.4,32,0.030,0.030,0.030,0.000,0.000,0.000
1644344816177478144,2022-02-08-18:26:56,10.1.1.4,24,0.020,0.020,0.020,0.000,0.000,0.000
1644344816282735104,2022-02-08-18:26:56,10.1.1.4,30,0.010,0.010,0.010,0.000,0.000,0.000
1644344816382755072,2022-02-08-18:26:56,10.1.1.4,30,0.000,0.000,0.000,0.000,0.000,0.000
1644344816482760960,2022-02-08-18:26:56,10.1.1.4,28,-0.010,-0.010,-0.010,0.000,0.000,0.000
1644344816582295040,2022-02-08-18:26:56,10.1.1.4,28,-0.020,-0.020,-0.020,0.000,0.000,0.000
1644344816682365952,2022-02-08-18:26:56,10.1.1.4,26,-0.030,-0.030,-0.030,0.000,0.000,0.000
1644344816782179072,2022-02-08-18:26:56,10.1.1.4,23,-0.040,-0.040,-0.040,0.000,0.000,0.000
1644344816884254976,2022-02-08-18:26:56,10.1.1.4,23,-0.050,-0.050,-0.050,0.000,0.000,0.000
1644344816982998016,2022-02-08-18:26:56,10.1.1.4,22,-0.060,-0.060,-0.060,0.000,0.000,0.000
1644344817083465984,2022-02-08-18:26:57,10.1.1.4,20,-0.070,-0.070,-0.070,0.000,0.000,0.000
1644344817182163968,2022-02-08-18:26:57,10.1.1.4,19,-0.079,-0.079,-0.079,0.000,0.000,0.000
1644344817303397888,2022-02-08-18:26:57,10.1.1.4,38,-0.090,-0.090,-0.090,0.000,0.000,0.000
1644344817402981888,2022-02-08-18:26:57,10.1.1.4,37,-0.100,-0.100,-0.100,0.000,0.000,0.000
1644344817502536960,2022-02-08-18:26:57,10.1.1.4,35,-0.090,-0.090,-0.090,0.000,0.000,0.000
1644344817603523072,2022-02-08-18:26:57,10.1.1.4,34,-0.080,-0.080,-0.080,0.000,0.000,0.000
1644344817702609920,2022-02-08-18:26:57,10.1.1.4,33,-0.070,-0.070,-0.070,0.000,0.000,0.000
1644344817803105024,2022-02-08-18:26:57,10.1.1.4,33,-0.060,-0.060,-0.060,0.000,0.000,0.000
1644344817902689024,2022-02-08-18:26:57,10.1.1.4,32,-0.050,-0.050,-0.050,0.000,0.000,0.000
1644344818003330048,2022-02-08-18:26:58,10.1.1.4,31,-0.040,-0.040,-0.040,0.000,0.000,0.000
1644344818103529984,2022-02-08-18:26:58,10.1.1.4,30,-0.030,-0.030,-0.030,0.000,0.000,0.000
1644344818203171072,2022-02-08-18:26:58,10.1.1.4,29,-0.020,-0.020,-0.020,0.000,0.000,0.000
1644344818302525952,2022-02-08-18:26:58,10.1.1.4,28,-0.010,-0.010,-0.010,0.000,0.000,0.000
1644344818403012096,2022-02-08-18:26:58,10.1.1.4,27,0.000,0.000,0.000,0.000,0.000,0.000
1644344818503591936,2022-02-08-18:26:58,10.1.1.4,23,0.010,0.010,0.010,0.000,0.000,0.000
1644344818603959040,2022-02-08-18:26:58,10.1.1.4,22,0.020,0.020,0.020,0.000,0.000,0.000
1644344818702702080,2022-02-08-18:26:58,10.1.1.4,22,0.030,0.030,0.030,0.000,0.000,0.000
1644344818803056896,2022-02-08-18:26:58,10.1.1.4,21,0.040,0.040,0.040,0.000,0.000,0.000
1644344818903069952,2022-02-08-18:26:58,10.1.1.4,20,0.050,0.050,0.050,0.000,0.000,0.000
1644344819023705088,2022-02-08-18:26:59,10.1.1.4,39,0.060,0.060,0.060,0.000,0.000,0.000
1644344819122912768,2022-02-08-18:26:59,10.1.1.4,36,0.070,0.070,0.070,0.000,0.000,0.000
1644344819222369024,2022-02-08-18:26:59,10.1.1.4,35,0.080,0.080,0.080,0.000,0.000,0.000
1644344819321922048,2022-02-08-18:26:59,10.1.1.4,34,0.090,0.090,0.090,0.000,0.000,0.000
1644344819421783808,2022-02-08-18:26:59,10.1.1.4,34,0.100,0.100,0.100,0.000,0.000,0.000
1644344819524276992,2022-02-08-18:26:59,10.1.1.4,33,0.090,0.090,0.090,0.000,0.000,0.000
1644344819624566016,2022-02-08-18:26:59,10.1.1.4,32,0.080,0.080,0.080,0.000,0.000,0.000
1644344819724443904,2022-02-08-18:26:59,10.1.1.4,31,0.070,0.070,0.070,0.000,0.000,0.000
1644344819823441152,2022-02-08-18:26:59,10.1.1.4,29,0.060,0.060,0.060,0.000,0.000,0.000
1644344819922998784,2022-02-08-18:26:59,10.1.1.4,28,0.050,0.050,0.050,0.000,0.000,0.000
1644344820023271168,2022-02-08-18:27:00,10.1.1.4,27,0.040,0.040,0.040,0.000,0.000,0.000
1644344820123193856,2022-02-08-18:27:00,10.1.1.4,24,0.030,0.030,0.030,0.000,0.000,0.000
1644344820222456832,2022-02-08-18:27:00,10.1.1.4,23,0.020,0.020,0.020,0.000,0.000,0.000
1644344820322798848,2022-02-08-18:27:00,10.1.1.4,21,0.010,0.010,0.010,0.000,0.000,0.000
1644344820422969088,2022-02-08-18:27:00,10.1.1.4,21,0.000,0.000,0.000,0.000,0.000,0.000
1644344820522792960,2022-02-08-18:27:00,10.1.1.4,20,-0.010,-0.010,-0.010,0.000,0.000,0.000
1644344820623720960,2022-02-08-18:27:00,10.1.1.4,20,-0.020,-0.020,-0.020,0.000,0.000,0.000
1644344820723879168,2022-02-08-18:27:00,10.1.1.4,19,-0.029,-0.029,-0.029,0.000,0.000,0.000
1644344820842605056,2022-02-08-18:27:00,10.1.1.4,38,-0.040,-0.040,-0.040,0.000,0.000,0.000
1644344820942915072,2022-02-08-18:27:00,10.1.1.4,36,-0.050,-0.050,-0.050,0.000,0.000,0.000
1644344821042592000,2022-02-08-18:27:01,10.1.1.4,35,-0.060,-0.060,-0.060,0.000,0.000,0.000
1644344821143023872,2022-02-08-18:27:01,10.1.1.4,34,-0.070,-0.070,-0.070,0.000,0.000,0.000
1644344821243215104,2022-02-08-18:27:01,10.1.1.4,32,-0.080,-0.080,-0.080,0.000,0.000,0.000
1644344821342787072,2022-02-08-18:27:01,10.1.1.4,30,-0.090,-0.090,-0.090,0.000,0.000,0.000
1644344821442754048,2022-02-08-18:27:01,10.1.1.4,29,-0.100,-0.100,-0.100,0.000,0.000,0.000
1644344821542924032,2022-02-08-18:27:01,10.1.1.4,24,-0.090,-0.090,-0.090,0.000,0.000,0.000
1644344821642977024,2022-02-08-18:27:01,10.1.1.4,23,-0.080,-0.080,-0.080,0.000,0.000,0.000
1644344821741915904,2022-02-08-18:27:01,10.1.1.4,22,-0.070,-0.070,-0.070,0.000,0.000,0.000
1644344821842637056,2022-02-08-18:27:01,10.1.1.4,21,-0.060,-0.060,-0.060,0.000,0.000,0.000
1644344821942595072,2022-02-08-18:27:01,10.1.1.4,20,-0.050,-0.050,-0.050,0.000,0.000,0.000
1644344822043181056,2022-02-08-18:27:02,10.1.1.4,19,-0.040,-0.040,-0.040,0.000,0.000,0.000
1644344822162742016,2022-02-08-18:27:02,10.1.1.4,38,-0.030,-0.030,-0.030,0.000,0.000,0.000
1644344822262556160,2022-02-08-18:27:02,10.1.1.4,37,-0.020,-0.020,-0.020,0.000,0.000,0.000
1644344822362936064,2022-02-08-18:27:02,10.1.1.4,34,-0.010,-0.010,-0.010,0.000,0.000,0.000
1644344822462930944,2022-02-08-18:27:02,10.1.1.4,32,0.000,0.000,0.000,0.000,0.000,0.000
1644344822562503168,2022-02-08-18:27:02,10.1.1.4,31,0.010,0.010,0.010,0.000,0.000,0.000
1644344822662607872,2022-02-08-18:27:02,10.1.1.4,29,0.020,0.020,0.020,0.000,0.000,0.000
1644344822762002944,2022-02-08-18:27:02,10.1.1.4,29,0.030,0.030,0.030,0.000,0.000,0.000
1644344822862721024,2022-02-08-18:27:02,10.1.1.4,27,0.040,0.040,0.040,0.000,0.000,0.000
1644344822962765056,2022-02-08-18:27:02,10.1.1.4,26,0.050,0.050,0.050,0.000,0.000,0.000
1644344823062583040,2022-02-08-18:27:03,10.1.1.4,24,0.060,0.060,0.060,0.000,0.000,0.000
1644344823163328768,2022-02-08-18:27:03,10.1.1.4,23,0.070,0.070,0.070,0.000,0.000,0.000
1644344823263207936,2022-02-08-18:27:03,10.1.1.4,22,0.080,0.080,0.080,0.000,0.000,0.000
1644344823362694912,2022-02-08-18:27:03,10.1.1.4,22,0.090,0.090,0.090,0.000,0.000,0.000
1644344823462578944,2022-02-08-18:27:03,10.1.1.4,20,0.100,0.100,0.100,0.000,0.000,0.000
1644344823582402048,2022-02-08-18:27:03,10.1.1.4,38,0.090,0.090,0.090,0.000,0.000,0.000
1644344823682545920,2022-02-08-18:27:03,10.1.1.4,37,0.080,0.080,0.080,0.000,0.000,0.000
1644344823783319040,2022-02-08-18:27:03,10.1.1.4,36,0.070,0.070,0.070,0.000,0.000,0.000
1644344823882909184,2022-02-08-18:27:03,10.1.1.4,34,0.060,0.060,0.060,0.000,0.000,0.000
1644344823982780928,2022-02-08-18:27:03,10.1.1.4,32,0.050,0.050,0.050,0.000,0.000,0.000
1644344824082870016,2022-02-08-18:27:04,10.1.1.4,31,0.040,0.040,0.040,0.000,0.000,0.000
1644344824182636032,2022-02-08-18:27:04,10.1.1.4,30,0.030,0.030,0.030,0.000,0.000,0.000
1644344824282339072,2022-02-08-18:27:04,10.1.1.4,28,0.020,0.020,0.020,0.000,0.000,0.000
1644344824383006208,2022-02-08-18:27:04,10.1.1.4,27,0.010,0.010,0.010,0.000,0.000,0.000
1644344824483122944,2022-02-08-18:27:04,10.1.1.4,23,0.000,0.000,0.000,0.000,0.000,0.000
1644344824582097152,2022-02-08-18:27:04,10.1.1.4,22,-0.010,-0.010,-0.010,0.000,0.000,0.000
1644344824683442176,2022-02-08-18:27:04,10.1.1.4,20,-0.020,-0.020,-0.020,0.000,0.000,0.000
1644344824802388992,2022-02-08-18:27:04,10.1.1.4,38,-0.030,-0.030,-0.030,0.000,0.000,0.000
1644344824902934016,2022-02-08-18:27:04,10.1.1.4,37,-0.040,-0.040,-0.040,0.000,0.000,0.000
1644344825002921216,2022-02-08-18:27:05,10.1.1.4,35,-0.050,-0.050,-0.050,0.000,0.000,0.000
1644344825102656000,2022-02-08-18:27:05,10.1.1.4,34,-0.060,-0.060,-0.060,0.000,0.000,0.000
1644344825202824960,2022-02-08-18:27:05,10.1.1.4,33,-0.070,-0.070,-0.070,0.000,0.000,0.000
1644344825302679040,2022-02-08-18:27:05,10.1.1.4,31,-0.080,-0.080,-0.080,0.000,0.000,0.000
1644344825403395840,2022-02-08-18:27:05,10.1.1.4,29,-0.090,-0.090,-0.090,0.000,0.000,0.000
