FedericoMungari/DigitalTwin_service/01_WiredScenario/Output/Output_script/script_rosapi_2_output_robots10_freq0_9.txt
timestamp,date,node,latency,joint_1,joint_2,joint_3,joint_4,joint_5,joint_6
1644362093507467008,2022-02-08-23:14:53,10.1.1.10,11,-0.100,-0.100,-0.100,0.000,-0.000,0.000
1644362093628946176,2022-02-08-23:14:53,10.1.1.10,26,-0.090,-0.090,-0.090,0.000,-0.000,0.000
1644362094148651008,2022-02-08-23:14:54,10.1.1.10,39,-0.040,-0.040,-0.040,0.000,-0.000,0.000
1644362094247604992,2022-02-08-23:14:54,10.1.1.10,39,-0.030,-0.030,-0.030,0.000,0.000,0.000
1644362094349093888,2022-02-08-23:14:54,10.1.1.10,38,-0.020,-0.020,-0.020,0.000,0.000,0.000
1644362094446978048,2022-02-08-23:14:54,10.1.1.10,37,-0.010,-0.010,-0.010,0.000,0.000,0.000
1644362094547655936,2022-02-08-23:14:54,10.1.1.10,37,0.000,0.000,0.000,0.000,0.000,0.000
1644362094649847040,2022-02-08-23:14:54,10.1.1.10,37,0.010,0.010,0.010,0.000,0.000,0.000
1644362094747632896,2022-02-08-23:14:54,10.1.1.10,36,0.020,0.020,0.020,0.000,0.000,0.000
1644362095346530048,2022-02-08-23:14:55,10.1.1.10,28,0.080,0.080,0.080,0.000,0.000,0.000
1644362095446803968,2022-02-08-23:14:55,10.1.1.10,26,0.090,0.090,0.090,0.000,0.000,0.000
1644362095547496192,2022-02-08-23:14:55,10.1.1.10,26,0.100,0.100,0.100,0.000,0.000,0.000
1644362096146987008,2022-02-08-23:14:56,10.1.1.10,20,0.040,0.040,0.040,0.000,0.000,0.000
1644362096267262976,2022-02-08-23:14:56,10.1.1.10,39,0.030,0.030,0.030,0.000,0.000,0.000
1644362096366205952,2022-02-08-23:14:56,10.1.1.10,38,0.020,0.020,0.020,0.000,0.000,0.000
1644362096467762944,2022-02-08-23:14:56,10.1.1.10,38,0.010,0.010,0.010,0.000,0.000,0.000
1644362096567086080,2022-02-08-23:14:56,10.1.1.10,37,0.000,0.000,0.000,0.000,0.000,0.000
1644362096666402048,2022-02-08-23:14:56,10.1.1.10,36,-0.010,-0.010,-0.010,0.000,0.000,0.000
1644362096766546944,2022-02-08-23:14:56,10.1.1.10,36,-0.020,-0.020,-0.020,0.000,0.000,0.000
1644362097187348992,2022-02-08-23:14:57,10.1.1.10,40,-0.060,-0.060,-0.060,0.000,0.000,0.000
1644362097286590208,2022-02-08-23:14:57,10.1.1.10,39,-0.070,-0.070,-0.070,0.000,0.000,0.000
1644362097388224000,2022-02-08-23:14:57,10.1.1.10,38,-0.080,-0.080,-0.080,0.000,0.000,0.000
1644362097486900992,2022-02-08-23:14:57,10.1.1.10,38,-0.090,-0.090,-0.090,0.000,0.000,0.000
1644362097586100224,2022-02-08-23:14:57,10.1.1.10,37,-0.100,-0.100,-0.100,0.000,0.000,0.000
1644362097686321920,2022-02-08-23:14:57,10.1.1.10,36,-0.090,-0.090,-0.090,0.000,0.000,0.000
1644362097786690048,2022-02-08-23:14:57,10.1.1.10,35,-0.080,-0.080,-0.080,0.000,0.000,0.000
1644362098286907904,2022-02-08-23:14:58,10.1.1.10,28,-0.030,-0.030,-0.030,0.000,0.000,0.000
1644362098386028032,2022-02-08-23:14:58,10.1.1.10,27,-0.020,-0.020,-0.020,0.000,0.000,0.000
1644362098486504192,2022-02-08-23:14:58,10.1.1.10,26,-0.010,-0.010,-0.010,0.000,0.000,0.000
1644362099106190080,2022-02-08-23:14:59,10.1.1.10,37,0.050,0.050,0.050,0.000,0.000,0.000
1644362099207001856,2022-02-08-23:14:59,10.1.1.10,37,0.060,0.060,0.060,0.000,0.000,0.000
1644362099306721024,2022-02-08-23:14:59,10.1.1.10,36,0.070,0.070,0.070,0.000,0.000,0.000
1644362099406707968,2022-02-08-23:14:59,10.1.1.10,35,0.080,0.080,0.080,0.000,0.000,0.000
1644362099787404032,2022-02-08-23:14:59,10.1.1.10,11,0.080,0.080,0.080,0.000,0.000,0.000
1644362100126775040,2022-02-08-23:15:00,10.1.1.10,37,0.050,0.050,0.050,0.000,0.000,0.000
1644362100326778880,2022-02-08-23:15:00,10.1.1.10,35,0.030,0.030,0.030,0.000,0.000,0.000
1644362100927963904,2022-02-08-23:15:00,10.1.1.10,25,-0.030,-0.030,-0.030,0.000,0.000,0.000
1644362101246892032,2022-02-08-23:15:01,10.1.1.10,42,-0.060,-0.060,-0.060,0.000,0.000,0.000
1644362101429216000,2022-02-08-23:15:01,10.1.1.10,22,-0.080,-0.080,-0.080,0.000,0.000,0.000
1644362101552450048,2022-02-08-23:15:01,10.1.1.10,38,-0.090,-0.090,-0.090,0.000,0.000,0.000
1644362101640856064,2022-02-08-23:15:01,10.1.1.10,29,-0.100,-0.100,-0.100,0.000,0.000,0.000
1644362101748323840,2022-02-08-23:15:01,10.1.1.10,36,-0.090,-0.090,-0.090,0.000,0.000,0.000
1644362101840955136,2022-02-08-23:15:01,10.1.1.10,28,-0.080,-0.080,-0.080,0.000,0.000,0.000
1644362102206617088,2022-02-08-23:15:02,10.1.1.10,29,-0.050,-0.050,-0.050,0.000,0.000,0.000
1644362102307691008,2022-02-08-23:15:02,10.1.1.10,29,-0.040,-0.040,-0.040,0.000,0.000,0.000
1644362102414464000,2022-02-08-23:15:02,10.1.1.10,27,-0.030,-0.030,-0.030,0.000,0.000,0.000
1644362102509048064,2022-02-08-23:15:02,10.1.1.10,27,-0.020,-0.020,-0.020,0.000,0.000,0.000
1644362103327141120,2022-02-08-23:15:03,10.1.1.10,38,0.060,0.060,0.060,0.000,0.000,0.000
1644362103427100928,2022-02-08-23:15:03,10.1.1.10,38,0.070,0.070,0.070,0.000,0.000,0.000
1644362103626980096,2022-02-08-23:15:03,10.1.1.10,19,0.090,0.090,0.090,0.000,0.000,0.000
1644362103747215104,2022-02-08-23:15:03,10.1.1.10,38,0.100,0.100,0.100,0.000,0.000,0.000
1644362103847276032,2022-02-08-23:15:03,10.1.1.10,38,0.090,0.090,0.090,0.000,0.000,0.000
1644362103951198976,2022-02-08-23:15:03,10.1.1.10,37,0.080,0.080,0.080,0.000,0.000,0.000
1644362104046878976,2022-02-08-23:15:04,10.1.1.10,36,0.070,0.070,0.070,0.000,0.000,0.000
1644362104147172864,2022-02-08-23:15:04,10.1.1.10,35,0.060,0.060,0.060,0.000,0.000,0.000
1644362104246565120,2022-02-08-23:15:04,10.1.1.10,34,0.050,0.050,0.050,0.000,0.000,0.000
1644362105146584064,2022-02-08-23:15:05,10.1.1.10,29,-0.040,-0.040,-0.040,0.000,0.000,0.000
1644362105246828032,2022-02-08-23:15:05,10.1.1.10,28,-0.050,-0.050,-0.050,0.000,0.000,0.000
1644362105347316992,2022-02-08-23:15:05,10.1.1.10,27,-0.060,-0.060,-0.060,0.000,0.000,0.000
1644362105447084032,2022-02-08-23:15:05,10.1.1.10,27,-0.070,-0.070,-0.070,0.000,0.000,0.000
1644362105549424896,2022-02-08-23:15:05,10.1.1.10,27,-0.080,-0.080,-0.080,0.000,0.000,0.000
1644362105647660032,2022-02-08-23:15:05,10.1.1.10,25,-0.090,-0.090,-0.090,0.000,0.000,0.000
1644362105746977024,2022-02-08-23:15:05,10.1.1.10,25,-0.100,-0.100,-0.100,0.000,0.000,0.000
1644362105847404032,2022-02-08-23:15:05,10.1.1.10,25,-0.090,-0.090,-0.090,0.000,0.000,0.000
1644362106366775040,2022-02-08-23:15:06,10.1.1.10,36,-0.040,-0.040,-0.040,0.000,0.000,0.000
1644362106467719168,2022-02-08-23:15:06,10.1.1.10,36,-0.030,-0.030,-0.030,0.000,0.000,0.000
1644362107167236096,2022-02-08-23:15:07,10.1.1.10,28,0.040,0.040,0.040,0.000,0.000,0.000
1644362107266607104,2022-02-08-23:15:07,10.1.1.10,28,0.050,0.050,0.050,0.000,0.000,0.000
1644362107367013888,2022-02-08-23:15:07,10.1.1.10,27,0.060,0.060,0.060,0.000,0.000,0.000
1644362107467264768,2022-02-08-23:15:07,10.1.1.10,26,0.070,0.070,0.070,0.000,0.000,0.000
1644362107567883008,2022-02-08-23:15:07,10.1.1.10,25,0.080,0.080,0.080,0.000,0.000,0.000
1644362107886888960,2022-02-08-23:15:07,10.1.1.10,39,0.090,0.090,0.090,0.000,0.000,0.000
1644362107988398080,2022-02-08-23:15:07,10.1.1.10,38,0.080,0.080,0.080,0.000,0.000,0.000
1644362108087454208,2022-02-08-23:15:08,10.1.1.10,38,0.070,0.070,0.070,0.000,0.000,0.000
1644362108187038976,2022-02-08-23:15:08,10.1.1.10,37,0.060,0.060,0.060,0.000,0.000,0.000
1644362108286638848,2022-02-08-23:15:08,10.1.1.10,36,0.050,0.050,0.050,0.000,0.000,0.000
1644362108386528000,2022-02-08-23:15:08,10.1.1.10,35,0.040,0.040,0.040,0.000,0.000,0.000
1644362108688229120,2022-02-08-23:15:08,10.1.1.10,29,0.010,0.010,0.010,0.000,0.000,0.000
1644362108787145984,2022-02-08-23:15:08,10.1.1.10,29,0.000,0.000,0.000,0.000,0.000,0.000
1644362108886737152,2022-02-08-23:15:08,10.1.1.10,29,-0.010,-0.010,-0.010,0.000,0.000,0.000
1644362109707772928,2022-02-08-23:15:09,10.1.1.10,39,-0.090,-0.090,-0.090,0.000,0.000,0.000
1644362109807894016,2022-02-08-23:15:09,10.1.1.10,38,-0.100,-0.100,-0.100,0.000,0.000,0.000
1644362109907927040,2022-02-08-23:15:09,10.1.1.10,38,-0.090,-0.090,-0.090,0.000,0.000,0.000
1644362110006644992,2022-02-08-23:15:10,10.1.1.10,37,-0.080,-0.080,-0.080,0.000,0.000,0.000
1644362110106721024,2022-02-08-23:15:10,10.1.1.10,36,-0.070,-0.070,-0.070,0.000,0.000,0.000
1644362110607131904,2022-02-08-23:15:10,10.1.1.10,28,-0.020,-0.020,-0.020,0.000,0.000,0.000
1644362110707298048,2022-02-08-23:15:10,10.1.1.10,28,-0.010,-0.010,-0.010,0.000,0.000,0.000
1644362110807177984,2022-02-08-23:15:10,10.1.1.10,27,0.000,0.000,0.000,0.000,0.000,0.000
1644362110906846976,2022-02-08-23:15:10,10.1.1.10,26,0.010,0.010,0.010,0.000,0.000,0.000
1644362111006764032,2022-02-08-23:15:11,10.1.1.10,25,0.020,0.020,0.020,0.000,0.000,0.000
1644362111106893056,2022-02-08-23:15:11,10.1.1.10,24,0.030,0.030,0.030,0.000,0.000,0.000
1644362111888312064,2022-02-08-23:15:11,10.1.1.10,35,0.100,0.100,0.100,0.000,0.000,0.000
1644362111986553856,2022-02-08-23:15:11,10.1.1.10,35,0.090,0.090,0.090,0.000,0.000,0.000
1644362112786760960,2022-02-08-23:15:12,10.1.1.10,29,0.010,0.010,0.010,0.000,0.000,0.000
1644362112887406080,2022-02-08-23:15:12,10.1.1.10,29,0.000,0.000,0.000,0.000,0.000,0.000
1644362112986813952,2022-02-08-23:15:12,10.1.1.10,28,-0.010,-0.010,-0.010,0.000,0.000,0.000
1644362113087636992,2022-02-08-23:15:13,10.1.1.10,28,-0.020,-0.020,-0.020,0.000,0.000,0.000
1644362113186456064,2022-02-08-23:15:13,10.1.1.10,27,-0.030,-0.030,-0.030,0.000,0.000,0.000
1644362113286695936,2022-02-08-23:15:13,10.1.1.10,27,-0.040,-0.040,-0.040,0.000,0.000,0.000
1644362113387088128,2022-02-08-23:15:13,10.1.1.10,25,-0.050,-0.050,-0.050,0.000,0.000,0.000
1644362113487116032,2022-02-08-23:15:13,10.1.1.10,25,-0.060,-0.060,-0.060,0.000,0.000,0.000
1644362113587606784,2022-02-08-23:15:13,10.1.1.10,24,-0.070,-0.070,-0.070,0.000,0.000,0.000
1644362114187798016,2022-02-08-23:15:14,10.1.1.10,20,-0.070,-0.070,-0.070,0.000,0.000,0.000
1644362114306832128,2022-02-08-23:15:14,10.1.1.10,39,-0.060,-0.060,-0.060,0.000,0.000,0.000
1644362114407170048,2022-02-08-23:15:14,10.1.1.10,38,-0.050,-0.050,-0.050,0.000,0.000,0.000
1644362114508496128,2022-02-08-23:15:14,10.1.1.10,38,-0.040,-0.040,-0.040,0.000,0.000,0.000
1644362114606580992,2022-02-08-23:15:14,10.1.1.10,38,-0.030,-0.030,-0.030,0.000,0.000,0.000
1644362114707164928,2022-02-08-23:15:14,10.1.1.10,37,-0.020,-0.020,-0.020,0.000,0.000,0.000
1644362114806480896,2022-02-08-23:15:14,10.1.1.10,36,-0.010,-0.010,-0.010,0.000,0.000,0.000
1644362114907484928,2022-02-08-23:15:14,10.1.1.10,35,0.000,0.000,0.000,0.000,0.000,0.000
1644362115007368960,2022-02-08-23:15:15,10.1.1.10,35,0.010,0.010,0.010,0.000,0.000,0.000
1644362115107481088,2022-02-08-23:15:15,10.1.1.10,34,0.020,0.020,0.020,0.000,0.000,0.000
1644362115207383040,2022-02-08-23:15:15,10.1.1.10,34,0.030,0.030,0.030,0.000,0.000,0.000
1644362115706851840,2022-02-08-23:15:15,10.1.1.10,29,0.080,0.080,0.080,0.000,0.000,0.000
1644362115807243008,2022-02-08-23:15:15,10.1.1.10,28,0.090,0.090,0.090,0.000,0.000,0.000
1644362115910872064,2022-02-08-23:15:15,10.1.1.10,27,0.100,0.100,0.100,0.000,0.000,0.000
1644362116006563840,2022-02-08-23:15:16,10.1.1.10,26,0.090,0.090,0.090,0.000,0.000,0.000
1644362116106637056,2022-02-08-23:15:16,10.1.1.10,26,0.080,0.080,0.080,0.000,0.000,0.000
1644362116207654912,2022-02-08-23:15:16,10.1.1.10,25,0.070,0.070,0.070,0.000,0.000,0.000
1644362116315921920,2022-02-08-23:15:16,10.1.1.10,25,0.060,0.060,0.060,0.000,0.000,0.000
1644362116411185920,2022-02-08-23:15:16,10.1.1.10,25,0.050,0.050,0.050,0.000,0.000,0.000
1644362116506601216,2022-02-08-23:15:16,10.1.1.10,24,0.040,0.040,0.040,0.000,0.000,0.000
1644362117228557056,2022-02-08-23:15:17,10.1.1.10,37,-0.030,-0.030,-0.030,0.000,0.000,0.000
1644362117327815936,2022-02-08-23:15:17,10.1.1.10,37,-0.040,-0.040,-0.040,0.000,0.000,0.000
1644362117427537920,2022-02-08-23:15:17,10.1.1.10,35,-0.050,-0.050,-0.050,0.000,0.000,0.000
1644362117527182080,2022-02-08-23:15:17,10.1.1.10,34,-0.060,-0.060,-0.060,0.000,0.000,0.000
1644362118226926080,2022-02-08-23:15:18,10.1.1.10,29,-0.070,-0.070,-0.070,0.000,0.000,0.000
1644362118327703040,2022-02-08-23:15:18,10.1.1.10,27,-0.060,-0.060,-0.060,0.000,0.000,0.000
1644362118426824960,2022-02-08-23:15:18,10.1.1.10,27,-0.050,-0.050,-0.050,0.000,0.000,0.000
1644362118527170816,2022-02-08-23:15:18,10.1.1.10,26,-0.040,-0.040,-0.040,0.000,0.000,0.000
1644362118628186880,2022-02-08-23:15:18,10.1.1.10,26,-0.030,-0.030,-0.030,0.000,0.000,0.000
1644362118727878144,2022-02-08-23:15:18,10.1.1.10,25,-0.020,-0.020,-0.020,0.000,0.000,0.000
1644362119547969024,2022-02-08-23:15:19,10.1.1.10,39,0.060,0.060,0.060,0.000,0.000,0.000
1644362119647309056,2022-02-08-23:15:19,10.1.1.10,38,0.070,0.070,0.070,0.000,0.000,0.000
1644362119747549952,2022-02-08-23:15:19,10.1.1.10,38,0.080,0.080,0.080,0.000,0.000,0.000
1644362119870772992,2022-02-08-23:15:19,10.1.1.10,38,0.090,0.090,0.090,0.000,0.000,0.000
1644362119966402048,2022-02-08-23:15:19,10.1.1.10,37,0.100,0.100,0.100,0.000,0.000,0.000
1644362120067898880,2022-02-08-23:15:20,10.1.1.10,36,0.090,0.090,0.090,0.000,0.000,0.000
1644362120171233024,2022-02-08-23:15:20,10.1.1.10,35,0.080,0.080,0.080,0.000,0.000,0.000
1644362120767446016,2022-02-08-23:15:20,10.1.1.10,27,0.020,0.020,0.020,0.000,0.000,0.000
1644362120867202048,2022-02-08-23:15:20,10.1.1.10,26,0.010,0.010,0.010,0.000,0.000,0.000
1644362121186937088,2022-02-08-23:15:21,10.1.1.10,26,-0.020,-0.020,-0.020,0.000,0.000,0.000
1644362121410028032,2022-02-08-23:15:21,10.1.1.10,36,-0.040,-0.040,-0.040,0.000,0.000,0.000
1644362121508475136,2022-02-08-23:15:21,10.1.1.10,35,-0.050,-0.050,-0.050,0.000,0.000,0.000
1644362121710810880,2022-02-08-23:15:21,10.1.1.10,27,-0.070,-0.070,-0.070,0.000,0.000,0.000
1644362121806664960,2022-02-08-23:15:21,10.1.1.10,26,-0.080,-0.080,-0.080,0.000,0.000,0.000
1644362122246640896,2022-02-08-23:15:22,10.1.1.10,19,-0.080,-0.080,-0.080,0.000,0.000,0.000
1644362122366897152,2022-02-08-23:15:22,10.1.1.10,39,-0.070,-0.070,-0.070,0.000,0.000,0.000
1644362122466646016,2022-02-08-23:15:22,10.1.1.10,38,-0.060,-0.060,-0.060,0.000,0.000,0.000
1644362122566955008,2022-02-08-23:15:22,10.1.1.10,37,-0.050,-0.050,-0.050,0.000,0.000,0.000
1644362122667239936,2022-02-08-23:15:22,10.1.1.10,37,-0.040,-0.040,-0.040,0.000,0.000,0.000
1644362122766411008,2022-02-08-23:15:22,10.1.1.10,36,-0.030,-0.030,-0.030,0.000,0.000,0.000
1644362122867027968,2022-02-08-23:15:22,10.1.1.10,36,-0.020,-0.020,-0.020,0.000,0.000,0.000
1644362123866863104,2022-02-08-23:15:23,10.1.1.10,29,0.080,0.080,0.080,0.000,0.000,0.000
1644362123967147008,2022-02-08-23:15:23,10.1.1.10,29,0.090,0.090,0.090,0.000,0.000,0.000
1644362124066694912,2022-02-08-23:15:24,10.1.1.10,28,0.100,0.100,0.100,0.000,0.000,0.000
1644362124167994112,2022-02-08-23:15:24,10.1.1.10,28,0.090,0.090,0.090,0.000,0.000,0.000
1644362124267162112,2022-02-08-23:15:24,10.1.1.10,27,0.080,0.080,0.080,0.000,0.000,0.000
1644362124366565888,2022-02-08-23:15:24,10.1.1.10,27,0.070,0.070,0.070,0.000,0.000,0.000
1644362124466813952,2022-02-08-23:15:24,10.1.1.10,26,0.060,0.060,0.060,0.000,0.000,0.000
1644362124567229952,2022-02-08-23:15:24,10.1.1.10,25,0.050,0.050,0.050,0.000,0.000,0.000
1644362124669789184,2022-02-08-23:15:24,10.1.1.10,25,0.040,0.040,0.040,0.000,0.000,0.000
1644362125587460096,2022-02-08-23:15:25,10.1.1.10,39,-0.050,-0.050,-0.050,0.000,0.000,0.000
1644362125687249920,2022-02-08-23:15:25,10.1.1.10,39,-0.060,-0.060,-0.060,0.000,0.000,0.000
1644362125787094016,2022-02-08-23:15:25,10.1.1.10,38,-0.070,-0.070,-0.070,0.000,0.000,0.000
1644362125886599168,2022-02-08-23:15:25,10.1.1.10,37,-0.080,-0.080,-0.080,0.000,0.000,0.000
1644362125987407872,2022-02-08-23:15:25,10.1.1.10,37,-0.090,-0.090,-0.090,0.000,0.000,0.000
1644362126086454016,2022-02-08-23:15:26,10.1.1.10,35,-0.100,-0.100,-0.100,0.000,0.000,0.000
1644362127289430016,2022-02-08-23:15:27,10.1.1.10,29,0.020,0.020,0.020,0.000,0.000,0.000
1644362127387449856,2022-02-08-23:15:27,10.1.1.10,29,0.030,0.030,0.030,0.000,0.000,0.000
1644362127487468032,2022-02-08-23:15:27,10.1.1.10,28,0.040,0.040,0.040,0.000,0.000,0.000
1644362127587454208,2022-02-08-23:15:27,10.1.1.10,28,0.050,0.050,0.050,0.000,0.000,0.000
1644362127686777088,2022-02-08-23:15:27,10.1.1.10,27,0.060,0.060,0.060,0.000,0.000,0.000
1644362127787475968,2022-02-08-23:15:27,10.1.1.10,27,0.070,0.070,0.070,0.000,0.000,0.000
1644362127886359040,2022-02-08-23:15:27,10.1.1.10,26,0.080,0.080,0.080,0.000,0.000,0.000
1644362128017466112,2022-02-08-23:15:28,10.1.1.10,26,0.090,0.090,0.090,0.000,0.000,0.000
1644362128086194944,2022-02-08-23:15:28,10.1.1.10,25,0.100,0.100,0.100,0.000,0.000,0.000
1644362129027596032,2022-02-08-23:15:29,10.1.1.10,39,0.010,0.010,0.010,0.000,0.000,0.000
1644362129227561984,2022-02-08-23:15:29,10.1.1.10,34,-0.010,-0.010,-0.010,0.000,0.000,0.000
1644362130327729920,2022-02-08-23:15:30,10.1.1.10,29,-0.080,-0.080,-0.080,0.000,0.000,0.000
1644362130427104000,2022-02-08-23:15:30,10.1.1.10,28,-0.070,-0.070,-0.070,0.000,0.000,0.000
1644362130528492800,2022-02-08-23:15:30,10.1.1.10,27,-0.060,-0.060,-0.060,0.000,0.000,0.000
1644362130626811904,2022-02-08-23:15:30,10.1.1.10,27,-0.050,-0.050,-0.050,0.000,0.000,0.000
1644362130727474944,2022-02-08-23:15:30,10.1.1.10,27,-0.040,-0.040,-0.040,0.000,0.000,0.000
1644362130829654016,2022-02-08-23:15:30,10.1.1.10,26,-0.030,-0.030,-0.030,0.000,0.000,0.000
1644362130930973952,2022-02-08-23:15:30,10.1.1.10,25,-0.020,-0.020,-0.020,0.000,0.000,0.000
1644362131026319104,2022-02-08-23:15:31,10.1.1.10,25,-0.010,-0.010,-0.010,0.000,0.000,0.000
1644362131748017920,2022-02-08-23:15:31,10.1.1.10,30,0.060,0.060,0.060,0.000,0.000,0.000
1644362132546291200,2022-02-08-23:15:32,10.1.1.10,20,0.060,0.060,0.060,0.000,0.000,0.000
1644362132766608896,2022-02-08-23:15:32,10.1.1.10,38,0.040,0.040,0.040,0.000,0.000,0.000
1644362132866579968,2022-02-08-23:15:32,10.1.1.10,38,0.030,0.030,0.030,0.000,0.000,0.000
1644362132966211072,2022-02-08-23:15:32,10.1.1.10,37,0.020,0.020,0.020,0.000,0.000,0.000
1644362133066340864,2022-02-08-23:15:33,10.1.1.10,36,0.010,0.010,0.010,0.000,0.000,0.000
1644362133166286848,2022-02-08-23:15:33,10.1.1.10,35,0.000,0.000,0.000,0.000,0.000,0.000
1644362134166998016,2022-02-08-23:15:34,10.1.1.10,30,-0.100,-0.100,-0.100,0.000,0.000,0.000
1644362134266540032,2022-02-08-23:15:34,10.1.1.10,29,-0.090,-0.090,-0.090,0.000,0.000,0.000
1644362134366214912,2022-02-08-23:15:34,10.1.1.10,28,-0.080,-0.080,-0.080,0.000,0.000,0.000
1644362134466512896,2022-02-08-23:15:34,10.1.1.10,27,-0.070,-0.070,-0.070,0.000,0.000,0.000
1644362134566907904,2022-02-08-23:15:34,10.1.1.10,27,-0.060,-0.060,-0.060,0.000,0.000,0.000
1644362134686223872,2022-02-08-23:15:34,10.1.1.10,38,-0.050,-0.050,-0.050,0.000,0.000,0.000
1644362134787454976,2022-02-08-23:15:34,10.1.1.10,37,-0.040,-0.040,-0.040,0.000,0.000,0.000
1644362134886660096,2022-02-08-23:15:34,10.1.1.10,37,-0.030,-0.030,-0.030,0.000,0.000,0.000
1644362135009624064,2022-02-08-23:15:35,10.1.1.10,36,-0.020,-0.020,-0.020,0.000,0.000,0.000
1644362135087051008,2022-02-08-23:15:35,10.1.1.10,29,-0.010,-0.010,-0.010,0.000,0.000,0.000
1644362135186292992,2022-02-08-23:15:35,10.1.1.10,28,0.000,0.000,0.000,0.000,0.000,0.000
1644362135288073984,2022-02-08-23:15:35,10.1.1.10,27,0.010,0.010,0.010,0.000,0.000,0.000
1644362135387217152,2022-02-08-23:15:35,10.1.1.10,27,0.020,0.020,0.020,0.000,0.000,0.000
1644362135487760896,2022-02-08-23:15:35,10.1.1.10,26,0.030,0.030,0.030,0.000,0.000,0.000
1644362135591608064,2022-02-08-23:15:35,10.1.1.10,26,0.040,0.040,0.040,0.000,0.000,0.000
1644362135689404928,2022-02-08-23:15:35,10.1.1.10,25,0.050,0.050,0.050,0.000,0.000,0.000
1644362135787518976,2022-02-08-23:15:35,10.1.1.10,24,0.060,0.060,0.060,0.000,0.000,0.000
1644362136588859136,2022-02-08-23:15:36,10.1.1.10,19,0.060,0.060,0.060,0.000,0.000,0.000
1644362136708563968,2022-02-08-23:15:36,10.1.1.10,38,0.050,0.050,0.050,0.000,0.000,0.000
1644362136808096768,2022-02-08-23:15:36,10.1.1.10,25,0.040,0.040,0.040,0.000,0.000,0.000
1644362136908918016,2022-02-08-23:15:36,10.1.1.10,24,0.030,0.030,0.030,0.000,0.000,0.000
1644362137627408896,2022-02-08-23:15:37,10.1.1.10,29,-0.040,-0.040,-0.040,0.000,0.000,0.000
1644362137727896832,2022-02-08-23:15:37,10.1.1.10,28,-0.050,-0.050,-0.050,0.000,0.000,0.000
1644362137827162880,2022-02-08-23:15:37,10.1.1.10,28,-0.060,-0.060,-0.060,0.000,0.000,0.000
1644362137928446976,2022-02-08-23:15:37,10.1.1.10,27,-0.070,-0.070,-0.070,0.000,0.000,0.000
1644362138029121024,2022-02-08-23:15:38,10.1.1.10,27,-0.080,-0.080,-0.080,0.000,0.000,0.000
1644362138127651072,2022-02-08-23:15:38,10.1.1.10,26,-0.090,-0.090,-0.090,0.000,0.000,0.000
1644362138306854912,2022-02-08-23:15:38,10.1.1.10,5,-0.090,-0.090,-0.090,0.000,0.000,0.000
1644362138946650112,2022-02-08-23:15:38,10.1.1.10,39,-0.030,-0.030,-0.030,0.000,0.000,0.000
1644362139046920960,2022-02-08-23:15:39,10.1.1.10,36,-0.020,-0.020,-0.020,0.000,0.000,0.000
1644362139146742016,2022-02-08-23:15:39,10.1.1.10,35,-0.010,-0.010,-0.010,0.000,0.000,0.000
1644362139749736192,2022-02-08-23:15:39,10.1.1.10,29,0.050,0.050,0.050,0.000,0.000,0.000
1644362139847385856,2022-02-08-23:15:39,10.1.1.10,28,0.060,0.060,0.060,0.000,0.000,0.000
1644362139947048960,2022-02-08-23:15:39,10.1.1.10,27,0.070,0.070,0.070,0.000,0.000,0.000
1644362140046369024,2022-02-08-23:15:40,10.1.1.10,27,0.080,0.080,0.080,0.000,0.000,0.000
1644362140146521088,2022-02-08-23:15:40,10.1.1.10,26,0.090,0.090,0.090,0.000,0.000,0.000
1644362140363478016,2022-02-08-23:15:40,10.1.1.10,-3,0.090,0.090,0.090,0.000,0.000,0.000
1644362140466440960,2022-02-08-23:15:40,10.1.1.10,37,0.080,0.080,0.080,0.000,0.000,0.000
1644362140566663936,2022-02-08-23:15:40,10.1.1.10,36,0.070,0.070,0.070,0.000,0.000,0.000
1644362140687462144,2022-02-08-23:15:40,10.1.1.10,39,0.060,0.060,0.060,0.000,0.000,0.000
1644362140787578112,2022-02-08-23:15:40,10.1.1.10,37,0.050,0.050,0.050,0.000,0.000,0.000
1644362140886956032,2022-02-08-23:15:40,10.1.1.10,37,0.040,0.040,0.040,0.000,0.000,0.000
1644362140986855936,2022-02-08-23:15:40,10.1.1.10,36,0.030,0.030,0.030,0.000,0.000,0.000
1644362141087419136,2022-02-08-23:15:41,10.1.1.10,35,0.020,0.020,0.020,0.000,0.000,0.000
1644362141186686976,2022-02-08-23:15:41,10.1.1.10,35,0.010,0.010,0.010,0.000,0.000,0.000
1644362142087259904,2022-02-08-23:15:42,10.1.1.10,29,-0.080,-0.080,-0.080,0.000,0.000,0.000
1644362142186575872,2022-02-08-23:15:42,10.1.1.10,29,-0.090,-0.090,-0.090,0.000,0.000,0.000
1644362142286220032,2022-02-08-23:15:42,10.1.1.10,28,-0.100,-0.100,-0.100,0.000,0.000,0.000
1644362142386347008,2022-02-08-23:15:42,10.1.1.10,28,-0.090,-0.090,-0.090,0.000,0.000,0.000
1644362142487271168,2022-02-08-23:15:42,10.1.1.10,27,-0.080,-0.080,-0.080,0.000,0.000,0.000
1644362142587113984,2022-02-08-23:15:42,10.1.1.10,27,-0.070,-0.070,-0.070,0.000,0.000,0.000
1644362142686515968,2022-02-08-23:15:42,10.1.1.10,26,-0.060,-0.060,-0.060,0.000,0.000,0.000
1644362142789196032,2022-02-08-23:15:42,10.1.1.10,26,-0.050,-0.050,-0.050,0.000,0.000,0.000
1644362143406775040,2022-02-08-23:15:43,10.1.1.10,39,0.010,0.010,0.010,0.000,0.000,0.000
1644362143507266048,2022-02-08-23:15:43,10.1.1.10,38,0.020,0.020,0.020,0.000,0.000,0.000
1644362143632536832,2022-02-08-23:15:43,10.1.1.10,37,0.030,0.030,0.030,0.000,0.000,0.000
1644362143708349952,2022-02-08-23:15:43,10.1.1.10,36,0.040,0.040,0.040,0.000,0.000,0.000
1644362143806863104,2022-02-08-23:15:43,10.1.1.10,35,0.050,0.050,0.050,0.000,0.000,0.000
1644362144107485952,2022-02-08-23:15:44,10.1.1.10,28,0.080,0.080,0.080,0.000,0.000,0.000
1644362144207377920,2022-02-08-23:15:44,10.1.1.10,27,0.090,0.090,0.090,0.000,0.000,0.000
1644362144310190080,2022-02-08-23:15:44,10.1.1.10,25,0.100,0.100,0.100,0.000,0.000,0.000
1644362144406764032,2022-02-08-23:15:44,10.1.1.10,25,0.090,0.090,0.090,0.000,0.000,0.000
1644362144908569088,2022-02-08-23:15:44,10.1.1.10,20,0.040,0.040,0.040,0.000,0.000,0.000
1644362145028093952,2022-02-08-23:15:45,10.1.1.10,26,0.030,0.030,0.030,0.000,0.000,0.000
1644362145162576896,2022-02-08-23:15:45,10.1.1.10,25,0.020,0.020,0.020,0.000,0.000,0.000
1644362145227296000,2022-02-08-23:15:45,10.1.1.10,24,0.010,0.010,0.010,0.000,0.000,0.000
1644362145447748864,2022-02-08-23:15:45,10.1.1.10,39,-0.010,-0.010,-0.010,0.000,0.000,0.000
1644362145546642944,2022-02-08-23:15:45,10.1.1.10,38,-0.020,-0.020,-0.020,0.000,0.000,0.000
1644362145646519808,2022-02-08-23:15:45,10.1.1.10,37,-0.030,-0.030,-0.030,0.000,0.000,0.000
1644362145747016960,2022-02-08-23:15:45,10.1.1.10,37,-0.040,-0.040,-0.040,0.000,0.000,0.000
1644362145847207168,2022-02-08-23:15:45,10.1.1.10,37,-0.050,-0.050,-0.050,0.000,0.000,0.000
1644362145946059008,2022-02-08-23:15:45,10.1.1.10,36,-0.060,-0.060,-0.060,0.000,0.000,0.000
1644362146047028992,2022-02-08-23:15:46,10.1.1.10,35,-0.070,-0.070,-0.070,0.000,0.000,0.000
1644362146626863872,2022-02-08-23:15:46,10.1.1.10,10,-0.070,-0.070,-0.070,0.000,0.000,0.000
1644362146747106048,2022-02-08-23:15:46,10.1.1.10,30,-0.060,-0.060,-0.060,0.000,0.000,0.000
1644362146846860800,2022-02-08-23:15:46,10.1.1.10,29,-0.050,-0.050,-0.050,0.000,0.000,0.000
1644362146946726144,2022-02-08-23:15:46,10.1.1.10,29,-0.040,-0.040,-0.040,0.000,0.000,0.000
1644362147046964992,2022-02-08-23:15:47,10.1.1.10,28,-0.030,-0.030,-0.030,0.000,0.000,0.000
1644362147147424000,2022-02-08-23:15:47,10.1.1.10,27,-0.020,-0.020,-0.020,0.000,0.000,0.000
1644362147466948864,2022-02-08-23:15:47,10.1.1.10,29,0.010,0.010,0.010,0.000,0.000,0.000
1644362147566929152,2022-02-08-23:15:47,10.1.1.10,29,0.020,0.020,0.020,0.000,0.000,0.000
1644362148170312960,2022-02-08-23:15:48,10.1.1.10,20,0.080,0.080,0.080,0.000,0.000,0.000
1644362148306279936,2022-02-08-23:15:48,10.1.1.10,27,0.090,0.090,0.090,0.000,0.000,0.000
1644362148417447168,2022-02-08-23:15:48,10.1.1.10,24,0.100,0.100,0.100,0.000,0.000,0.000
1644362149227049216,2022-02-08-23:15:49,10.1.1.10,29,0.020,0.020,0.020,0.000,0.000,0.000
1644362149326363136,2022-02-08-23:15:49,10.1.1.10,27,0.010,0.010,0.010,0.000,0.000,0.000
1644362149427265024,2022-02-08-23:15:49,10.1.1.10,27,0.000,0.000,0.000,0.000,0.000,0.000
1644362149526472192,2022-02-08-23:15:49,10.1.1.10,26,-0.010,-0.010,-0.010,0.000,0.000,0.000
1644362149627494144,2022-02-08-23:15:49,10.1.1.10,26,-0.020,-0.020,-0.020,0.000,0.000,0.000
1644362149728110080,2022-02-08-23:15:49,10.1.1.10,25,-0.030,-0.030,-0.030,0.000,0.000,0.000
1644362149882329856,2022-02-08-23:15:49,10.1.1.10,35,-0.040,-0.040,-0.040,0.000,0.000,0.000
1644362150347794176,2022-02-08-23:15:50,10.1.1.10,28,-0.090,-0.090,-0.090,0.000,0.000,0.000
1644362150447308032,2022-02-08-23:15:50,10.1.1.10,28,-0.100,-0.100,-0.100,0.000,0.000,0.000
1644362150550728192,2022-02-08-23:15:50,10.1.1.10,27,-0.090,-0.090,-0.090,0.000,0.000,0.000
1644362150647464960,2022-02-08-23:15:50,10.1.1.10,26,-0.080,-0.080,-0.080,0.000,0.000,0.000
1644362150751877120,2022-02-08-23:15:50,10.1.1.10,26,-0.070,-0.070,-0.070,0.000,0.000,0.000
1644362150850225920,2022-02-08-23:15:50,10.1.1.10,24,-0.060,-0.060,-0.060,0.000,0.000,0.000
1644362151367227904,2022-02-08-23:15:51,10.1.1.10,37,-0.010,-0.010,-0.010,0.000,0.000,0.000
1644362151466311936,2022-02-08-23:15:51,10.1.1.10,36,0.000,0.000,0.000,0.000,0.000,0.000
1644362151686782976,2022-02-08-23:15:51,10.1.1.10,39,0.020,0.020,0.020,0.000,0.000,0.000
1644362151786427136,2022-02-08-23:15:51,10.1.1.10,38,0.030,0.030,0.030,0.000,0.000,0.000
1644362151886660096,2022-02-08-23:15:51,10.1.1.10,38,0.040,0.040,0.040,0.000,0.000,0.000
1644362151986876928,2022-02-08-23:15:51,10.1.1.10,35,0.050,0.050,0.050,0.000,0.000,0.000
1644362152086525952,2022-02-08-23:15:52,10.1.1.10,35,0.060,0.060,0.060,0.000,0.000,0.000
1644362152286545920,2022-02-08-23:15:52,10.1.1.10,29,0.080,0.080,0.080,0.000,0.000,0.000
1644362152386930944,2022-02-08-23:15:52,10.1.1.10,29,0.090,0.090,0.090,0.000,0.000,0.000
1644362152487546880,2022-02-08-23:15:52,10.1.1.10,28,0.100,0.100,0.100,0.000,0.000,0.000
1644362152907702016,2022-02-08-23:15:52,10.1.1.10,39,0.060,0.060,0.060,0.000,0.000,0.000
1644362153006715904,2022-02-08-23:15:53,10.1.1.10,39,0.050,0.050,0.050,0.000,0.000,0.000
1644362153206379008,2022-02-08-23:15:53,10.1.1.10,26,0.030,0.030,0.030,0.000,0.000,0.000
1644362153308389888,2022-02-08-23:15:53,10.1.1.10,26,0.020,0.020,0.020,0.000,0.000,0.000
1644362153406612992,2022-02-08-23:15:53,10.1.1.10,25,0.010,0.010,0.010,0.000,0.000,0.000
1644362153506565120,2022-02-08-23:15:53,10.1.1.10,25,0.000,0.000,0.000,0.000,0.000,0.000
1644362153925849856,2022-02-08-23:15:53,10.1.1.10,38,-0.040,-0.040,-0.040,0.000,0.000,0.000
1644362154026493952,2022-02-08-23:15:54,10.1.1.10,38,-0.050,-0.050,-0.050,0.000,0.000,0.000
1644362154126697984,2022-02-08-23:15:54,10.1.1.10,38,-0.060,-0.060,-0.060,0.000,0.000,0.000
1644362154226323968,2022-02-08-23:15:54,10.1.1.10,37,-0.070,-0.070,-0.070,0.000,0.000,0.000
1644362154527538944,2022-02-08-23:15:54,10.1.1.10,28,-0.100,-0.100,-0.100,0.000,0.000,0.000
1644362154626963968,2022-02-08-23:15:54,10.1.1.10,26,-0.090,-0.090,-0.090,0.000,0.000,0.000
1644362154726963968,2022-02-08-23:15:54,10.1.1.10,25,-0.080,-0.080,-0.080,0.000,0.000,0.000
1644362154827899904,2022-02-08-23:15:54,10.1.1.10,25,-0.070,-0.070,-0.070,0.000,0.000,0.000
1644362155447108096,2022-02-08-23:15:55,10.1.1.10,26,-0.010,-0.010,-0.010,0.000,0.000,0.000
1644362155546598912,2022-02-08-23:15:55,10.1.1.10,26,0.000,0.000,0.000,0.000,0.000,0.000
1644362155648005888,2022-02-08-23:15:55,10.1.1.10,26,0.010,0.010,0.010,0.000,0.000,0.000
1644362155748948224,2022-02-08-23:15:55,10.1.1.10,25,0.020,0.020,0.020,0.000,0.000,0.000
1644362156766961152,2022-02-08-23:15:56,10.1.1.10,39,0.080,0.080,0.080,0.000,0.000,0.000
1644362156846648064,2022-02-08-23:15:56,10.1.1.10,19,0.070,0.070,0.070,0.000,0.000,0.000
1644362156966290944,2022-02-08-23:15:56,10.1.1.10,38,0.060,0.060,0.060,0.000,0.000,0.000
1644362157066937856,2022-02-08-23:15:57,10.1.1.10,38,0.050,0.050,0.050,0.000,0.000,0.000
1644362157168945152,2022-02-08-23:15:57,10.1.1.10,37,0.040,0.040,0.040,0.000,0.000,0.000
1644362157266524928,2022-02-08-23:15:57,10.1.1.10,37,0.030,0.030,0.030,0.000,0.000,0.000
1644362157366496000,2022-02-08-23:15:57,10.1.1.10,36,0.020,0.020,0.020,0.000,0.000,0.000
1644362157466609920,2022-02-08-23:15:57,10.1.1.10,36,0.010,0.010,0.010,0.000,0.000,0.000
1644362157566287872,2022-02-08-23:15:57,10.1.1.10,35,0.000,0.000,0.000,0.000,0.000,0.000
1644362157666765824,2022-02-08-23:15:57,10.1.1.10,35,-0.010,-0.010,-0.010,0.000,0.000,0.000
1644362157766060032,2022-02-08-23:15:57,10.1.1.10,34,-0.020,-0.020,-0.020,0.000,0.000,0.000
1644362158766323968,2022-02-08-23:15:58,10.1.1.10,29,-0.080,-0.080,-0.080,0.000,0.000,0.000
1644362158866511104,2022-02-08-23:15:58,10.1.1.10,29,-0.070,-0.070,-0.070,0.000,0.000,0.000
1644362158966872064,2022-02-08-23:15:58,10.1.1.10,29,-0.060,-0.060,-0.060,0.000,0.000,0.000
1644362159067023872,2022-02-08-23:15:59,10.1.1.10,27,-0.050,-0.050,-0.050,0.000,0.000,0.000
1644362159172281088,2022-02-08-23:15:59,10.1.1.10,27,-0.040,-0.040,-0.040,0.000,0.000,0.000
1644362159266500096,2022-02-08-23:15:59,10.1.1.10,24,-0.030,-0.030,-0.030,0.000,0.000,0.000
1644362160186455040,2022-02-08-23:16:00,10.1.1.10,37,0.060,0.060,0.060,0.000,0.000,0.000
1644362160285975808,2022-02-08-23:16:00,10.1.1.10,36,0.070,0.070,0.070,0.000,0.000,0.000
1644362160386382080,2022-02-08-23:16:00,10.1.1.10,35,0.080,0.080,0.080,0.000,0.000,0.000
1644362160486656000,2022-02-08-23:16:00,10.1.1.10,35,0.090,0.090,0.090,0.000,0.000,0.000
1644362160666153984,2022-02-08-23:16:00,10.1.1.10,14,0.090,0.090,0.090,0.000,0.000,0.000
1644362161187812096,2022-02-08-23:16:01,10.1.1.10,29,0.040,0.040,0.040,0.000,0.000,0.000
1644362161287308032,2022-02-08-23:16:01,10.1.1.10,29,0.030,0.030,0.030,0.000,0.000,0.000
1644362161386674944,2022-02-08-23:16:01,10.1.1.10,28,0.020,0.020,0.020,0.000,0.000,0.000
1644362161487386880,2022-02-08-23:16:01,10.1.1.10,27,0.010,0.010,0.010,0.000,0.000,0.000
1644362161586934016,2022-02-08-23:16:01,10.1.1.10,27,0.000,0.000,0.000,0.000,0.000,0.000
1644362161687004928,2022-02-08-23:16:01,10.1.1.10,26,-0.010,-0.010,-0.010,0.000,0.000,0.000
1644362161786947840,2022-02-08-23:16:01,10.1.1.10,26,-0.020,-0.020,-0.020,0.000,0.000,0.000
1644362161887446016,2022-02-08-23:16:01,10.1.1.10,25,-0.030,-0.030,-0.030,0.000,0.000,0.000
1644362162407069952,2022-02-08-23:16:02,10.1.1.10,39,-0.080,-0.080,-0.080,0.000,0.000,0.000
1644362162506537984,2022-02-08-23:16:02,10.1.1.10,38,-0.090,-0.090,-0.090,0.000,0.000,0.000
1644362162606656000,2022-02-08-23:16:02,10.1.1.10,38,-0.100,-0.100,-0.100,0.000,0.000,0.000
1644362162707435008,2022-02-08-23:16:02,10.1.1.10,37,-0.090,-0.090,-0.090,0.000,0.000,0.000
1644362162807232000,2022-02-08-23:16:02,10.1.1.10,36,-0.080,-0.080,-0.080,0.000,0.000,0.000
1644362162906637824,2022-02-08-23:16:02,10.1.1.10,36,-0.070,-0.070,-0.070,0.000,0.000,0.000
1644362163006243072,2022-02-08-23:16:03,10.1.1.10,35,-0.060,-0.060,-0.060,0.000,0.000,0.000
1644362163107947008,2022-02-08-23:16:03,10.1.1.10,35,-0.050,-0.050,-0.050,0.000,0.000,0.000
1644362163207112192,2022-02-08-23:16:03,10.1.1.10,35,-0.040,-0.040,-0.040,0.000,0.000,0.000
1644362163806531072,2022-02-08-23:16:03,10.1.1.10,30,0.020,0.020,0.020,0.000,0.000,0.000
1644362163908148992,2022-02-08-23:16:03,10.1.1.10,29,0.030,0.030,0.030,0.000,0.000,0.000
1644362164006569984,2022-02-08-23:16:04,10.1.1.10,29,0.040,0.040,0.040,0.000,0.000,0.000
1644362164107259904,2022-02-08-23:16:04,10.1.1.10,28,0.050,0.050,0.050,0.000,0.000,0.000
1644362164207112192,2022-02-08-23:16:04,10.1.1.10,28,0.060,0.060,0.060,0.000,0.000,0.000
1644362164306237952,2022-02-08-23:16:04,10.1.1.10,27,0.070,0.070,0.070,0.000,0.000,0.000
1644362164407248128,2022-02-08-23:16:04,10.1.1.10,27,0.080,0.080,0.080,0.000,0.000,0.000
1644362164507715072,2022-02-08-23:16:04,10.1.1.10,26,0.090,0.090,0.090,0.000,0.000,0.000
1644362164607346176,2022-02-08-23:16:04,10.1.1.10,25,0.100,0.100,0.100,0.000,0.000,0.000
1644362165007014144,2022-02-08-23:16:05,10.1.1.10,23,0.060,0.060,0.060,0.000,0.000,0.000
1644362165726833152,2022-02-08-23:16:05,10.1.1.10,38,-0.010,-0.010,-0.010,0.000,0.000,0.000
1644362165926665984,2022-02-08-23:16:05,10.1.1.10,37,-0.030,-0.030,-0.030,0.000,0.000,0.000
1644362166029225216,2022-02-08-23:16:06,10.1.1.10,36,-0.040,-0.040,-0.040,0.000,0.000,0.000
1644362166127311872,2022-02-08-23:16:06,10.1.1.10,35,-0.050,-0.050,-0.050,0.000,0.000,0.000
1644362166225915904,2022-02-08-23:16:06,10.1.1.10,34,-0.060,-0.060,-0.060,0.000,0.000,0.000
1644362167006639104,2022-02-08-23:16:07,10.1.1.10,10,-0.060,-0.060,-0.060,0.000,0.000,0.000
1644362167126050048,2022-02-08-23:16:07,10.1.1.10,28,-0.050,-0.050,-0.050,0.000,0.000,0.000
1644362167227015936,2022-02-08-23:16:07,10.1.1.10,27,-0.040,-0.040,-0.040,0.000,0.000,0.000
1644362167327233024,2022-02-08-23:16:07,10.1.1.10,27,-0.030,-0.030,-0.030,0.000,0.000,0.000
1644362167426789120,2022-02-08-23:16:07,10.1.1.10,26,-0.020,-0.020,-0.020,0.000,0.000,0.000
1644362167526382080,2022-02-08-23:16:07,10.1.1.10,26,-0.010,-0.010,-0.010,0.000,0.000,0.000
1644362167626967808,2022-02-08-23:16:07,10.1.1.10,25,0.000,0.000,0.000,0.000,0.000,0.000
1644362168647449088,2022-02-08-23:16:08,10.1.1.10,29,0.100,0.100,0.100,0.000,0.000,0.000
1644362168747760896,2022-02-08-23:16:08,10.1.1.10,29,0.090,0.090,0.090,0.000,0.000,0.000
1644362168848523008,2022-02-08-23:16:08,10.1.1.10,29,0.080,0.080,0.080,0.000,0.000,0.000
1644362168947320064,2022-02-08-23:16:08,10.1.1.10,28,0.070,0.070,0.070,0.000,0.000,0.000
1644362169047415040,2022-02-08-23:16:09,10.1.1.10,27,0.060,0.060,0.060,0.000,0.000,0.000
1644362169146748928,2022-02-08-23:16:09,10.1.1.10,26,0.050,0.050,0.050,0.000,0.000,0.000
1644362169246262016,2022-02-08-23:16:09,10.1.1.10,26,0.040,0.040,0.040,0.000,0.000,0.000
1644362169349777920,2022-02-08-23:16:09,10.1.1.10,25,0.030,0.030,0.030,0.000,0.000,0.000
1644362169850684928,2022-02-08-23:16:09,10.1.1.10,20,-0.020,-0.020,-0.020,0.000,0.000,0.000
1644362170067120128,2022-02-08-23:16:10,10.1.1.10,38,-0.040,-0.040,-0.040,0.000,0.000,0.000
1644362170167675904,2022-02-08-23:16:10,10.1.1.10,38,-0.050,-0.050,-0.050,0.000,0.000,0.000
1644362170267840000,2022-02-08-23:16:10,10.1.1.10,36,-0.060,-0.060,-0.060,0.000,0.000,0.000
1644362170367616768,2022-02-08-23:16:10,10.1.1.10,36,-0.070,-0.070,-0.070,0.000,0.000,0.000
1644362170467717888,2022-02-08-23:16:10,10.1.1.10,34,-0.080,-0.080,-0.080,0.000,0.000,0.000
1644362170846893056,2022-02-08-23:16:10,10.1.1.10,10,-0.080,-0.080,-0.080,0.000,0.000,0.000
1644362170966938112,2022-02-08-23:16:10,10.1.1.10,29,-0.070,-0.070,-0.070,0.000,0.000,0.000
1644362171068436992,2022-02-08-23:16:11,10.1.1.10,28,-0.060,-0.060,-0.060,0.000,0.000,0.000
1644362171167823104,2022-02-08-23:16:11,10.1.1.10,28,-0.050,-0.050,-0.050,0.000,0.000,0.000
1644362171266932992,2022-02-08-23:16:11,10.1.1.10,26,-0.040,-0.040,-0.040,0.000,0.000,0.000
1644362171366950912,2022-02-08-23:16:11,10.1.1.10,26,-0.030,-0.030,-0.030,0.000,0.000,0.000
1644362171466212096,2022-02-08-23:16:11,10.1.1.10,25,-0.020,-0.020,-0.020,0.000,0.000,0.000
1644362172087683840,2022-02-08-23:16:12,10.1.1.10,38,0.040,0.040,0.040,0.000,0.000,0.000
1644362172190459904,2022-02-08-23:16:12,10.1.1.10,37,0.050,0.050,0.050,0.000,0.000,0.000
1644362172286932992,2022-02-08-23:16:12,10.1.1.10,36,0.060,0.060,0.060,0.000,0.000,0.000
1644362172388684032,2022-02-08-23:16:12,10.1.1.10,35,0.070,0.070,0.070,0.000,0.000,0.000
1644362172967668992,2022-02-08-23:16:12,10.1.1.10,10,0.070,0.070,0.070,0.000,0.000,0.000
1644362173188659968,2022-02-08-23:16:13,10.1.1.10,28,0.050,0.050,0.050,0.000,0.000,0.000
1644362173336644864,2022-02-08-23:16:13,10.1.1.10,27,0.040,0.040,0.040,0.000,0.000,0.000
1644362173387320064,2022-02-08-23:16:13,10.1.1.10,25,0.030,0.030,0.030,0.000,0.000,0.000
1644362173988625152,2022-02-08-23:16:13,10.1.1.10,20,-0.030,-0.030,-0.030,0.000,0.000,0.000
1644362174107252992,2022-02-08-23:16:14,10.1.1.10,39,-0.040,-0.040,-0.040,0.000,0.000,0.000
1644362174206934016,2022-02-08-23:16:14,10.1.1.10,38,-0.050,-0.050,-0.050,0.000,0.000,0.000
1644362174308645888,2022-02-08-23:16:14,10.1.1.10,38,-0.060,-0.060,-0.060,0.000,0.000,0.000
1644362174407608064,2022-02-08-23:16:14,10.1.1.10,37,-0.070,-0.070,-0.070,0.000,0.000,0.000
1644362174507031040,2022-02-08-23:16:14,10.1.1.10,37,-0.080,-0.080,-0.080,0.000,0.000,0.000
1644362174607259136,2022-02-08-23:16:14,10.1.1.10,36,-0.090,-0.090,-0.090,0.000,0.000,0.000
1644362174786937088,2022-02-08-23:16:14,10.1.1.10,13,-0.090,-0.090,-0.090,0.000,0.000,0.000
1644362175308947200,2022-02-08-23:16:15,10.1.1.10,28,-0.040,-0.040,-0.040,0.000,0.000,0.000
1644362175406861056,2022-02-08-23:16:15,10.1.1.10,28,-0.030,-0.030,-0.030,0.000,0.000,0.000
1644362175516491008,2022-02-08-23:16:15,10.1.1.10,26,-0.020,-0.020,-0.020,0.000,0.000,0.000
1644362175608109824,2022-02-08-23:16:15,10.1.1.10,25,-0.010,-0.010,-0.010,0.000,0.000,0.000
1644362176230285824,2022-02-08-23:16:16,10.1.1.10,39,0.050,0.050,0.050,0.000,0.000,0.000
1644362176327052032,2022-02-08-23:16:16,10.1.1.10,39,0.060,0.060,0.060,0.000,0.000,0.000
1644362176431997952,2022-02-08-23:16:16,10.1.1.10,38,0.070,0.070,0.070,0.000,0.000,0.000
1644362176531461888,2022-02-08-23:16:16,10.1.1.10,37,0.080,0.080,0.080,0.000,0.000,0.000
1644362176630436864,2022-02-08-23:16:16,10.1.1.10,36,0.090,0.090,0.090,0.000,0.000,0.000
1644362176730406912,2022-02-08-23:16:16,10.1.1.10,35,0.100,0.100,0.100,0.000,0.000,0.000
1644362176828454912,2022-02-08-23:16:16,10.1.1.10,34,0.090,0.090,0.090,0.000,0.000,0.000
1644362177528453120,2022-02-08-23:16:17,10.1.1.10,29,0.020,0.020,0.020,0.000,0.000,0.000
1644362177628779776,2022-02-08-23:16:17,10.1.1.10,29,0.010,0.010,0.010,0.000,0.000,0.000
1644362177726824960,2022-02-08-23:16:17,10.1.1.10,28,0.000,0.000,0.000,0.000,0.000,0.000
1644362177826098944,2022-02-08-23:16:17,10.1.1.10,27,-0.010,-0.010,-0.010,0.000,0.000,0.000
1644362177926296832,2022-02-08-23:16:17,10.1.1.10,26,-0.020,-0.020,-0.020,0.000,0.000,0.000
1644362178027682048,2022-02-08-23:16:18,10.1.1.10,26,-0.030,-0.030,-0.030,0.000,0.000,0.000
1644362178126722048,2022-02-08-23:16:18,10.1.1.10,25,-0.040,-0.040,-0.040,0.000,0.000,0.000
1644362178227257088,2022-02-08-23:16:18,10.1.1.10,25,-0.050,-0.050,-0.050,0.000,0.000,0.000
1644362178951184896,2022-02-08-23:16:18,10.1.1.10,38,-0.080,-0.080,-0.080,0.000,0.000,0.000
1644362179047329024,2022-02-08-23:16:19,10.1.1.10,37,-0.070,-0.070,-0.070,0.000,0.000,0.000
1644362179150190080,2022-02-08-23:16:19,10.1.1.10,37,-0.060,-0.060,-0.060,0.000,0.000,0.000
1644362179248092928,2022-02-08-23:16:19,10.1.1.10,37,-0.050,-0.050,-0.050,0.000,0.000,0.000
1644362179348062976,2022-02-08-23:16:19,10.1.1.10,36,-0.040,-0.040,-0.040,0.000,0.000,0.000
1644362179446914048,2022-02-08-23:16:19,10.1.1.10,35,-0.030,-0.030,-0.030,0.000,0.000,0.000
1644362179548216064,2022-02-08-23:16:19,10.1.1.10,35,-0.020,-0.020,-0.020,0.000,0.000,0.000
1644362179647401984,2022-02-08-23:16:19,10.1.1.10,35,-0.010,-0.010,-0.010,0.000,0.000,0.000
1644362180748162048,2022-02-08-23:16:20,10.1.1.10,29,0.100,0.100,0.100,0.000,0.000,0.000
1644362180847001088,2022-02-08-23:16:20,10.1.1.10,28,0.090,0.090,0.090,0.000,0.000,0.000
1644362180952146944,2022-02-08-23:16:20,10.1.1.10,28,0.080,0.080,0.080,0.000,0.000,0.000
1644362181050010880,2022-02-08-23:16:21,10.1.1.10,27,0.070,0.070,0.070,0.000,0.000,0.000
1644362181147182080,2022-02-08-23:16:21,10.1.1.10,27,0.060,0.060,0.060,0.000,0.000,0.000
1644362181246575104,2022-02-08-23:16:21,10.1.1.10,26,0.050,0.050,0.050,0.000,0.000,0.000
1644362181351085056,2022-02-08-23:16:21,10.1.1.10,25,0.040,0.040,0.040,0.000,0.000,0.000
1644362181447433984,2022-02-08-23:16:21,10.1.1.10,25,0.030,0.030,0.030,0.000,0.000,0.000
1644362182466025216,2022-02-08-23:16:22,10.1.1.10,39,-0.070,-0.070,-0.070,0.000,0.000,0.000
1644362182566561024,2022-02-08-23:16:22,10.1.1.10,39,-0.080,-0.080,-0.080,0.000,0.000,0.000
1644362182666893056,2022-02-08-23:16:22,10.1.1.10,38,-0.090,-0.090,-0.090,0.000,0.000,0.000
1644362182766411008,2022-02-08-23:16:22,10.1.1.10,38,-0.100,-0.100,-0.100,0.000,0.000,0.000
1644362182867366912,2022-02-08-23:16:22,10.1.1.10,38,-0.090,-0.090,-0.090,0.000,0.000,0.000
1644362182970875904,2022-02-08-23:16:22,10.1.1.10,37,-0.080,-0.080,-0.080,0.000,0.000,0.000
1644362183067900928,2022-02-08-23:16:23,10.1.1.10,37,-0.070,-0.070,-0.070,0.000,0.000,0.000
1644362183167277056,2022-02-08-23:16:23,10.1.1.10,36,-0.060,-0.060,-0.060,0.000,0.000,0.000
1644362183267531008,2022-02-08-23:16:23,10.1.1.10,36,-0.050,-0.050,-0.050,0.000,0.000,0.000
1644362183366749952,2022-02-08-23:16:23,10.1.1.10,35,-0.040,-0.040,-0.040,0.000,0.000,0.000
1644362183466615808,2022-02-08-23:16:23,10.1.1.10,35,-0.030,-0.030,-0.030,0.000,0.000,0.000
1644362183666825984,2022-02-08-23:16:23,10.1.1.10,28,-0.010,-0.010,-0.010,0.000,0.000,0.000
1644362183766691072,2022-02-08-23:16:23,10.1.1.10,27,0.000,0.000,0.000,0.000,0.000,0.000
1644362183866966016,2022-02-08-23:16:23,10.1.1.10,27,0.010,0.010,0.010,0.000,0.000,0.000
1644362183968028160,2022-02-08-23:16:23,10.1.1.10,26,0.020,0.020,0.020,0.000,0.000,0.000
1644362184068634112,2022-02-08-23:16:24,10.1.1.10,26,0.030,0.030,0.030,0.000,0.000,0.000
1644362184166361088,2022-02-08-23:16:24,10.1.1.10,25,0.040,0.040,0.040,0.000,0.000,0.000
1644362184270390016,2022-02-08-23:16:24,10.1.1.10,25,0.050,0.050,0.050,0.000,0.000,0.000
1644362184370611968,2022-02-08-23:16:24,10.1.1.10,24,0.060,0.060,0.060,0.000,0.000,0.000
1644362185167305984,2022-02-08-23:16:25,10.1.1.10,20,0.060,0.060,0.060,0.000,0.000,0.000
1644362185389508864,2022-02-08-23:16:25,10.1.1.10,39,0.040,0.040,0.040,0.000,0.000,0.000
1644362185487468032,2022-02-08-23:16:25,10.1.1.10,39,0.030,0.030,0.030,0.000,0.000,0.000
1644362185590436864,2022-02-08-23:16:25,10.1.1.10,38,0.020,0.020,0.020,0.000,0.000,0.000
1644362185689121024,2022-02-08-23:16:25,10.1.1.10,38,0.010,0.010,0.010,0.000,0.000,0.000
1644362185790304000,2022-02-08-23:16:25,10.1.1.10,37,0.000,0.000,0.000,0.000,0.000,0.000
1644362185887010048,2022-02-08-23:16:25,10.1.1.10,37,-0.010,-0.010,-0.010,0.000,0.000,0.000
1644362185987795968,2022-02-08-23:16:25,10.1.1.10,36,-0.020,-0.020,-0.020,0.000,0.000,0.000
1644362186087422976,2022-02-08-23:16:26,10.1.1.10,36,-0.030,-0.030,-0.030,0.000,0.000,0.000
1644362186188060928,2022-02-08-23:16:26,10.1.1.10,35,-0.040,-0.040,-0.040,0.000,0.000,0.000
1644362187087960064,2022-02-08-23:16:27,10.1.1.10,26,-0.070,-0.070,-0.070,0.000,0.000,0.000
1644362187187171072,2022-02-08-23:16:27,10.1.1.10,25,-0.060,-0.060,-0.060,0.000,0.000,0.000
1644362187286969856,2022-02-08-23:16:27,10.1.1.10,25,-0.050,-0.050,-0.050,0.000,0.000,0.000
1644362187388088064,2022-02-08-23:16:27,10.1.1.10,24,-0.040,-0.040,-0.040,0.000,0.000,0.000
1644362188186505984,2022-02-08-23:16:28,10.1.1.10,20,0.040,0.040,0.040,0.000,0.000,0.000
1644362188307909120,2022-02-08-23:16:28,10.1.1.10,39,0.050,0.050,0.050,0.000,0.000,0.000
1644362188408643072,2022-02-08-23:16:28,10.1.1.10,39,0.060,0.060,0.060,0.000,0.000,0.000
1644362188507246080,2022-02-08-23:16:28,10.1.1.10,38,0.070,0.070,0.070,0.000,0.000,0.000
1644362188607546112,2022-02-08-23:16:28,10.1.1.10,38,0.080,0.080,0.080,0.000,0.000,0.000
1644362188707514112,2022-02-08-23:16:28,10.1.1.10,37,0.090,0.090,0.090,0.000,0.000,0.000
1644362188807006976,2022-02-08-23:16:28,10.1.1.10,36,0.100,0.100,0.100,0.000,0.000,0.000
1644362188907354112,2022-02-08-23:16:28,10.1.1.10,36,0.090,0.090,0.090,0.000,0.000,0.000
1644362189007481088,2022-02-08-23:16:29,10.1.1.10,35,0.080,0.080,0.080,0.000,0.000,0.000
1644362189107389952,2022-02-08-23:16:29,10.1.1.10,34,0.070,0.070,0.070,0.000,0.000,0.000
1644362190007224064,2022-02-08-23:16:30,10.1.1.10,29,-0.020,-0.020,-0.020,0.000,0.000,0.000
1644362190106884096,2022-02-08-23:16:30,10.1.1.10,28,-0.030,-0.030,-0.030,0.000,0.000,0.000
1644362190207168000,2022-02-08-23:16:30,10.1.1.10,28,-0.040,-0.040,-0.040,0.000,0.000,0.000
1644362190307995136,2022-02-08-23:16:30,10.1.1.10,27,-0.050,-0.050,-0.050,0.000,0.000,0.000
1644362190411070208,2022-02-08-23:16:30,10.1.1.10,27,-0.060,-0.060,-0.060,0.000,0.000,0.000
1644362190511430144,2022-02-08-23:16:30,10.1.1.10,27,-0.070,-0.070,-0.070,0.000,0.000,0.000
1644362190607357952,2022-02-08-23:16:30,10.1.1.10,26,-0.080,-0.080,-0.080,0.000,0.000,0.000
1644362190707264000,2022-02-08-23:16:30,10.1.1.10,26,-0.090,-0.090,-0.090,0.000,0.000,0.000
1644362190806799872,2022-02-08-23:16:30,10.1.1.10,25,-0.100,-0.100,-0.100,0.000,0.000,0.000
1644362190907866112,2022-02-08-23:16:30,10.1.1.10,25,-0.090,-0.090,-0.090,0.000,0.000,0.000
1644362191832293120,2022-02-08-23:16:31,10.1.1.10,20,0.000,0.000,0.000,0.000,0.000,0.000
1644362192527340800,2022-02-08-23:16:32,10.1.1.10,30,0.070,0.070,0.070,0.000,0.000,0.000
1644362192726455040,2022-02-08-23:16:32,10.1.1.10,28,0.090,0.090,0.090,0.000,0.000,0.000
1644362192826867200,2022-02-08-23:16:32,10.1.1.10,28,0.100,0.100,0.100,0.000,0.000,0.000
1644362192927431936,2022-02-08-23:16:32,10.1.1.10,28,0.090,0.090,0.090,0.000,0.000,0.000
1644362193028086784,2022-02-08-23:16:33,10.1.1.10,27,0.080,0.080,0.080,0.000,0.000,0.000
1644362193126946816,2022-02-08-23:16:33,10.1.1.10,26,0.070,0.070,0.070,0.000,0.000,0.000
1644362193226385152,2022-02-08-23:16:33,10.1.1.10,26,0.060,0.060,0.060,0.000,0.000,0.000
1644362193326798848,2022-02-08-23:16:33,10.1.1.10,25,0.050,0.050,0.050,0.000,0.000,0.000
1644362193427057152,2022-02-08-23:16:33,10.1.1.10,24,0.040,0.040,0.040,0.000,0.000,0.000
1644362193950151936,2022-02-08-23:16:33,10.1.1.10,39,-0.010,-0.010,-0.010,0.000,0.000,0.000
1644362194050973952,2022-02-08-23:16:34,10.1.1.10,38,-0.020,-0.020,-0.020,0.000,0.000,0.000
1644362194147633920,2022-02-08-23:16:34,10.1.1.10,37,-0.030,-0.030,-0.030,0.000,0.000,0.000
1644362194252003072,2022-02-08-23:16:34,10.1.1.10,36,-0.040,-0.040,-0.040,0.000,0.000,0.000
1644362194347430912,2022-02-08-23:16:34,10.1.1.10,35,-0.050,-0.050,-0.050,0.000,0.000,0.000
1644362194447820800,2022-02-08-23:16:34,10.1.1.10,34,-0.060,-0.060,-0.060,0.000,0.000,0.000
1644362195227865088,2022-02-08-23:16:35,10.1.1.10,9,-0.060,-0.060,-0.060,0.000,0.000,0.000
1644362195349859072,2022-02-08-23:16:35,10.1.1.10,28,-0.050,-0.050,-0.050,0.000,0.000,0.000
1644362195450647040,2022-02-08-23:16:35,10.1.1.10,28,-0.040,-0.040,-0.040,0.000,0.000,0.000
1644362195553286144,2022-02-08-23:16:35,10.1.1.10,28,-0.030,-0.030,-0.030,0.000,0.000,0.000
1644362195646744064,2022-02-08-23:16:35,10.1.1.10,26,-0.020,-0.020,-0.020,0.000,0.000,0.000
1644362195747212800,2022-02-08-23:16:35,10.1.1.10,26,-0.010,-0.010,-0.010,0.000,0.000,0.000
1644362195846908928,2022-02-08-23:16:35,10.1.1.10,25,0.000,0.000,0.000,0.000,0.000,0.000
1644362195947120896,2022-02-08-23:16:35,10.1.1.10,24,0.010,0.010,0.010,0.000,0.000,0.000
1644362196650806016,2022-02-08-23:16:36,10.1.1.10,19,0.080,0.080,0.080,0.000,0.000,0.000
1644362196766401024,2022-02-08-23:16:36,10.1.1.10,39,0.090,0.090,0.090,0.000,0.000,0.000
1644362196867621888,2022-02-08-23:16:36,10.1.1.10,38,0.100,0.100,0.100,0.000,0.000,0.000
1644362196968240128,2022-02-08-23:16:36,10.1.1.10,37,0.090,0.090,0.090,0.000,0.000,0.000
1644362197071616768,2022-02-08-23:16:37,10.1.1.10,37,0.080,0.080,0.080,0.000,0.000,0.000
1644362197170629120,2022-02-08-23:16:37,10.1.1.10,36,0.070,0.070,0.070,0.000,0.000,0.000
1644362197268979968,2022-02-08-23:16:37,10.1.1.10,35,0.060,0.060,0.060,0.000,0.000,0.000
1644362197370508800,2022-02-08-23:16:37,10.1.1.10,35,0.050,0.050,0.050,0.000,0.000,0.000
1644362197966551040,2022-02-08-23:16:37,10.1.1.10,29,-0.010,-0.010,-0.010,0.000,0.000,0.000
1644362198067867136,2022-02-08-23:16:38,10.1.1.10,28,-0.020,-0.020,-0.020,0.000,0.000,0.000
1644362198167290880,2022-02-08-23:16:38,10.1.1.10,28,-0.030,-0.030,-0.030,0.000,0.000,0.000
1644362198267494912,2022-02-08-23:16:38,10.1.1.10,27,-0.040,-0.040,-0.040,0.000,0.000,0.000
1644362198365954048,2022-02-08-23:16:38,10.1.1.10,26,-0.050,-0.050,-0.050,0.000,0.000,0.000
1644362198467973888,2022-02-08-23:16:38,10.1.1.10,25,-0.060,-0.060,-0.060,0.000,0.000,0.000
1644362198566797056,2022-02-08-23:16:38,10.1.1.10,25,-0.070,-0.070,-0.070,0.000,0.000,0.000
1644362199166511104,2022-02-08-23:16:39,10.1.1.10,20,-0.070,-0.070,-0.070,0.000,0.000,0.000
1644362199266042880,2022-02-08-23:16:39,10.1.1.10,19,-0.060,-0.060,-0.060,0.000,0.000,0.000
1644362199387529984,2022-02-08-23:16:39,10.1.1.10,39,-0.050,-0.050,-0.050,0.000,0.000,0.000
1644362199488125184,2022-02-08-23:16:39,10.1.1.10,37,-0.040,-0.040,-0.040,0.000,0.000,0.000
1644362199586961920,2022-02-08-23:16:39,10.1.1.10,37,-0.030,-0.030,-0.030,0.000,0.000,0.000
1644362199687404032,2022-02-08-23:16:39,10.1.1.10,36,-0.020,-0.020,-0.020,0.000,0.000,0.000
1644362199787645952,2022-02-08-23:16:39,10.1.1.10,35,-0.010,-0.010,-0.010,0.000,0.000,0.000
1644362199886476032,2022-02-08-23:16:39,10.1.1.10,34,0.000,0.000,0.000,0.000,0.000,0.000
1644362200786833152,2022-02-08-23:16:40,10.1.1.10,28,0.090,0.090,0.090,0.000,0.000,0.000
1644362200886461952,2022-02-08-23:16:40,10.1.1.10,27,0.100,0.100,0.100,0.000,0.000,0.000
1644362200986766080,2022-02-08-23:16:40,10.1.1.10,24,0.090,0.090,0.090,0.000,0.000,0.000
1644362201587211008,2022-02-08-23:16:41,10.1.1.10,20,0.030,0.030,0.030,0.000,0.000,0.000
1644362201687885056,2022-02-08-23:16:41,10.1.1.10,19,0.020,0.020,0.020,0.000,0.000,0.000
1644362201807112960,2022-02-08-23:16:41,10.1.1.10,38,0.010,0.010,0.010,0.000,0.000,0.000
1644362201910414848,2022-02-08-23:16:41,10.1.1.10,38,0.000,0.000,0.000,0.000,0.000,0.000
1644362202008047104,2022-02-08-23:16:42,10.1.1.10,37,-0.010,-0.010,-0.010,0.000,0.000,0.000
1644362202107944960,2022-02-08-23:16:42,10.1.1.10,36,-0.020,-0.020,-0.020,0.000,0.000,0.000
1644362202206969088,2022-02-08-23:16:42,10.1.1.10,36,-0.030,-0.030,-0.030,0.000,0.000,0.000
1644362202307780864,2022-02-08-23:16:42,10.1.1.10,35,-0.040,-0.040,-0.040,0.000,0.000,0.000
1644362202607120128,2022-02-08-23:16:42,10.1.1.10,29,-0.070,-0.070,-0.070,0.000,0.000,0.000
1644362202707813120,2022-02-08-23:16:42,10.1.1.10,29,-0.080,-0.080,-0.080,0.000,0.000,0.000
1644362202807319040,2022-02-08-23:16:42,10.1.1.10,28,-0.090,-0.090,-0.090,0.000,0.000,0.000
1644362202906918144,2022-02-08-23:16:42,10.1.1.10,27,-0.100,-0.100,-0.100,0.000,0.000,0.000
1644362203007309824,2022-02-08-23:16:43,10.1.1.10,26,-0.090,-0.090,-0.090,0.000,0.000,0.000
1644362203107742976,2022-02-08-23:16:43,10.1.1.10,25,-0.080,-0.080,-0.080,0.000,0.000,0.000
1644362203208013056,2022-02-08-23:16:43,10.1.1.10,25,-0.070,-0.070,-0.070,0.000,0.000,0.000
1644362203806447872,2022-02-08-23:16:43,10.1.1.10,19,-0.010,-0.010,-0.010,0.000,0.000,0.000
1644362203926960896,2022-02-08-23:16:43,10.1.1.10,39,0.000,0.000,0.000,0.000,0.000,0.000
1644362204026774016,2022-02-08-23:16:44,10.1.1.10,38,0.010,0.010,0.010,0.000,0.000,0.000
1644362204127185152,2022-02-08-23:16:44,10.1.1.10,37,0.020,0.020,0.020,0.000,0.000,0.000
1644362204227545088,2022-02-08-23:16:44,10.1.1.10,36,0.030,0.030,0.030,0.000,0.000,0.000
1644362204326364160,2022-02-08-23:16:44,10.1.1.10,35,0.040,0.040,0.040,0.000,0.000,0.000
1644362205028708864,2022-02-08-23:16:45,10.1.1.10,29,0.090,0.090,0.090,0.000,0.000,0.000
1644362205127964928,2022-02-08-23:16:45,10.1.1.10,28,0.080,0.080,0.080,0.000,0.000,0.000
1644362205227462912,2022-02-08-23:16:45,10.1.1.10,27,0.070,0.070,0.070,0.000,0.000,0.000
1644362205327951872,2022-02-08-23:16:45,10.1.1.10,27,0.060,0.060,0.060,0.000,0.000,0.000
1644362205428365056,2022-02-08-23:16:45,10.1.1.10,26,0.050,0.050,0.050,0.000,0.000,0.000
1644362205528317952,2022-02-08-23:16:45,10.1.1.10,25,0.040,0.040,0.040,0.000,0.000,0.000
1644362205626394112,2022-02-08-23:16:45,10.1.1.10,24,0.030,0.030,0.030,0.000,0.000,0.000
1644362205733259008,2022-02-08-23:16:45,10.1.1.10,24,0.020,0.020,0.020,0.000,0.000,0.000
1644362206146668800,2022-02-08-23:16:46,10.1.1.10,39,-0.020,-0.020,-0.020,0.000,0.000,0.000
1644362206248238080,2022-02-08-23:16:46,10.1.1.10,39,-0.030,-0.030,-0.030,0.000,0.000,0.000
1644362206350967808,2022-02-08-23:16:46,10.1.1.10,38,-0.040,-0.040,-0.040,0.000,0.000,0.000
1644362206446706944,2022-02-08-23:16:46,10.1.1.10,37,-0.050,-0.050,-0.050,0.000,0.000,0.000
1644362206550599168,2022-02-08-23:16:46,10.1.1.10,37,-0.060,-0.060,-0.060,0.000,0.000,0.000
1644362206648161792,2022-02-08-23:16:46,10.1.1.10,36,-0.070,-0.070,-0.070,0.000,0.000,0.000
1644362206746735104,2022-02-08-23:16:46,10.1.1.10,35,-0.080,-0.080,-0.080,0.000,0.000,0.000
1644362206847371008,2022-02-08-23:16:46,10.1.1.10,35,-0.090,-0.090,-0.090,0.000,0.000,0.000
1644362207028665088,2022-02-08-23:16:47,10.1.1.10,12,-0.090,-0.090,-0.090,0.000,0.000,0.000
1644362207447098112,2022-02-08-23:16:47,10.1.1.10,29,-0.050,-0.050,-0.050,0.000,0.000,0.000
1644362207547624192,2022-02-08-23:16:47,10.1.1.10,28,-0.040,-0.040,-0.040,0.000,0.000,0.000
1644362207647695104,2022-02-08-23:16:47,10.1.1.10,28,-0.030,-0.030,-0.030,0.000,0.000,0.000
1644362207746563072,2022-02-08-23:16:47,10.1.1.10,26,-0.020,-0.020,-0.020,0.000,0.000,0.000
1644362207846699008,2022-02-08-23:16:47,10.1.1.10,26,-0.010,-0.010,-0.010,0.000,0.000,0.000
1644362207947156992,2022-02-08-23:16:47,10.1.1.10,25,0.000,0.000,0.000,0.000,0.000,0.000
1644362208047661056,2022-02-08-23:16:48,10.1.1.10,25,0.010,0.010,0.010,0.000,0.000,0.000
1644362208147193856,2022-02-08-23:16:48,10.1.1.10,24,0.020,0.020,0.020,0.000,0.000,0.000
1644362208972954880,2022-02-08-23:16:48,10.1.1.10,38,0.100,0.100,0.100,0.000,0.000,0.000
1644362209066699008,2022-02-08-23:16:49,10.1.1.10,36,0.090,0.090,0.090,0.000,0.000,0.000
1644362209168158976,2022-02-08-23:16:49,10.1.1.10,35,0.080,0.080,0.080,0.000,0.000,0.000
1644362209266948096,2022-02-08-23:16:49,10.1.1.10,35,0.070,0.070,0.070,0.000,0.000,0.000
1644362209887248896,2022-02-08-23:16:49,10.1.1.10,38,0.010,0.010,0.010,0.000,0.000,0.000
1644362209990856960,2022-02-08-23:16:49,10.1.1.10,37,0.000,0.000,0.000,0.000,0.000,0.000
1644362210088093952,2022-02-08-23:16:50,10.1.1.10,36,-0.010,-0.010,-0.010,0.000,0.000,0.000
1644362210190577152,2022-02-08-23:16:50,10.1.1.10,35,-0.020,-0.020,-0.020,0.000,0.000,0.000
1644362210788400896,2022-02-08-23:16:50,10.1.1.10,29,-0.080,-0.080,-0.080,0.000,0.000,0.000
1644362210891310848,2022-02-08-23:16:50,10.1.1.10,28,-0.090,-0.090,-0.090,0.000,0.000,0.000
1644362210989675008,2022-02-08-23:16:50,10.1.1.10,28,-0.100,-0.100,-0.100,0.000,0.000,0.000
1644362211088391936,2022-02-08-23:16:51,10.1.1.10,28,-0.090,-0.090,-0.090,0.000,0.000,0.000
1644362211187945984,2022-02-08-23:16:51,10.1.1.10,27,-0.080,-0.080,-0.080,0.000,0.000,0.000
1644362211288348928,2022-02-08-23:16:51,10.1.1.10,26,-0.070,-0.070,-0.070,0.000,0.000,0.000
1644362211386930944,2022-02-08-23:16:51,10.1.1.10,26,-0.060,-0.060,-0.060,0.000,0.000,0.000
1644362211908912896,2022-02-08-23:16:51,10.1.1.10,39,-0.010,-0.010,-0.010,0.000,0.000,0.000
1644362212008045824,2022-02-08-23:16:52,10.1.1.10,37,0.000,0.000,0.000,0.000,0.000,0.000
1644362212109234176,2022-02-08-23:16:52,10.1.1.10,35,0.010,0.010,0.010,0.000,0.000,0.000
1644362212907963904,2022-02-08-23:16:52,10.1.1.10,29,0.090,0.090,0.090,0.000,0.000,0.000
1644362213009654016,2022-02-08-23:16:53,10.1.1.10,29,0.100,0.100,0.100,0.000,0.000,0.000
1644362213106132992,2022-02-08-23:16:53,10.1.1.10,27,0.090,0.090,0.090,0.000,0.000,0.000
1644362213208493056,2022-02-08-23:16:53,10.1.1.10,27,0.080,0.080,0.080,0.000,0.000,0.000
1644362213309287168,2022-02-08-23:16:53,10.1.1.10,26,0.070,0.070,0.070,0.000,0.000,0.000
1644362213788307968,2022-02-08-23:16:53,10.1.1.10,28,0.030,0.030,0.030,0.000,0.000,0.000
1644362213890296064,2022-02-08-23:16:53,10.1.1.10,27,0.020,0.020,0.020,0.000,0.000,0.000
1644362213990151936,2022-02-08-23:16:53,10.1.1.10,27,0.010,0.010,0.010,0.000,0.000,0.000
1644362214807614208,2022-02-08-23:16:54,10.1.1.10,40,-0.070,-0.070,-0.070,0.000,0.000,0.000
1644362214908756992,2022-02-08-23:16:54,10.1.1.10,38,-0.080,-0.080,-0.080,0.000,0.000,0.000
1644362215009540096,2022-02-08-23:16:55,10.1.1.10,36,-0.090,-0.090,-0.090,0.000,0.000,0.000
1644362215187992064,2022-02-08-23:16:55,10.1.1.10,13,-0.090,-0.090,-0.090,0.000,0.000,0.000
1644362215607714816,2022-02-08-23:16:55,10.1.1.10,29,-0.050,-0.050,-0.050,0.000,0.000,0.000
1644362215707358976,2022-02-08-23:16:55,10.1.1.10,28,-0.040,-0.040,-0.040,0.000,0.000,0.000
1644362215907849984,2022-02-08-23:16:55,10.1.1.10,27,-0.020,-0.020,-0.020,0.000,0.000,0.000
1644362216010109952,2022-02-08-23:16:56,10.1.1.10,26,-0.010,-0.010,-0.010,0.000,0.000,0.000
1644362216108409856,2022-02-08-23:16:56,10.1.1.10,25,0.000,0.000,0.000,0.000,0.000,0.000
1644362216628041984,2022-02-08-23:16:56,10.1.1.10,39,0.050,0.050,0.050,0.000,0.000,0.000
1644362216730030080,2022-02-08-23:16:56,10.1.1.10,38,0.060,0.060,0.060,0.000,0.000,0.000
1644362216828936960,2022-02-08-23:16:56,10.1.1.10,38,0.070,0.070,0.070,0.000,0.000,0.000
1644362216926553088,2022-02-08-23:16:56,10.1.1.10,36,0.080,0.080,0.080,0.000,0.000,0.000
1644362217309521920,2022-02-08-23:16:57,10.1.1.10,10,0.080,0.080,0.080,0.000,0.000,0.000
1644362217429538048,2022-02-08-23:16:57,10.1.1.10,29,0.070,0.070,0.070,0.000,0.000,0.000
1644362217528903936,2022-02-08-23:16:57,10.1.1.10,28,0.060,0.060,0.060,0.000,0.000,0.000
1644362217627433984,2022-02-08-23:16:57,10.1.1.10,27,0.050,0.050,0.050,0.000,0.000,0.000
1644362217731758080,2022-02-08-23:16:57,10.1.1.10,26,0.040,0.040,0.040,0.000,0.000,0.000
1644362217827922944,2022-02-08-23:16:57,10.1.1.10,26,0.030,0.030,0.030,0.000,0.000,0.000
1644362217926307840,2022-02-08-23:16:57,10.1.1.10,25,0.020,0.020,0.020,0.000,0.000,0.000
1644362218027983872,2022-02-08-23:16:58,10.1.1.10,24,0.010,0.010,0.010,0.000,0.000,0.000
1644362218351002880,2022-02-08-23:16:58,10.1.1.10,37,-0.020,-0.020,-0.020,0.000,0.000,0.000
1644362218854341120,2022-02-08-23:16:58,10.1.1.10,29,-0.070,-0.070,-0.070,0.000,0.000,0.000
1644362218948264960,2022-02-08-23:16:58,10.1.1.10,29,-0.080,-0.080,-0.080,0.000,0.000,0.000
1644362219049457152,2022-02-08-23:16:59,10.1.1.10,28,-0.090,-0.090,-0.090,0.000,0.000,0.000
1644362219148300800,2022-02-08-23:16:59,10.1.1.10,27,-0.100,-0.100,-0.100,0.000,0.000,0.000
1644362219248462848,2022-02-08-23:16:59,10.1.1.10,26,-0.090,-0.090,-0.090,0.000,0.000,0.000
1644362219668948992,2022-02-08-23:16:59,10.1.1.10,38,-0.050,-0.050,-0.050,0.000,0.000,0.000
1644362219867592192,2022-02-08-23:16:59,10.1.1.10,35,-0.030,-0.030,-0.030,0.000,0.000,0.000
1644362220267587072,2022-02-08-23:17:00,10.1.1.10,29,0.010,0.010,0.010,0.000,0.000,0.000
1644362220368654848,2022-02-08-23:17:00,10.1.1.10,29,0.020,0.020,0.020,0.000,0.000,0.000
1644362220468158976,2022-02-08-23:17:00,10.1.1.10,28,0.030,0.030,0.030,0.000,0.000,0.000
1644362220568655872,2022-02-08-23:17:00,10.1.1.10,27,0.040,0.040,0.040,0.000,0.000,0.000
1644362220667830016,2022-02-08-23:17:00,10.1.1.10,26,0.050,0.050,0.050,0.000,0.000,0.000
1644362220768814080,2022-02-08-23:17:00,10.1.1.10,25,0.060,0.060,0.060,0.000,0.000,0.000
1644362220869497088,2022-02-08-23:17:00,10.1.1.10,24,0.070,0.070,0.070,0.000,0.000,0.000
1644362221289041920,2022-02-08-23:17:01,10.1.1.10,39,0.090,0.090,0.090,0.000,0.000,0.000
1644362221389494016,2022-02-08-23:17:01,10.1.1.10,38,0.080,0.080,0.080,0.000,0.000,0.000
1644362221489666816,2022-02-08-23:17:01,10.1.1.10,37,0.070,0.070,0.070,0.000,0.000,0.000
1644362221587645952,2022-02-08-23:17:01,10.1.1.10,36,0.060,0.060,0.060,0.000,0.000,0.000
1644362221891501056,2022-02-08-23:17:01,10.1.1.10,30,0.030,0.030,0.030,0.000,0.000,0.000
1644362221987903232,2022-02-08-23:17:01,10.1.1.10,29,0.020,0.020,0.020,0.000,0.000,0.000
1644362222090610944,2022-02-08-23:17:02,10.1.1.10,28,0.010,0.010,0.010,0.000,0.000,0.000
1644362222193993216,2022-02-08-23:17:02,10.1.1.10,30,0.000,0.000,0.000,0.000,0.000,0.000
1644362222288600064,2022-02-08-23:17:02,10.1.1.10,27,-0.010,-0.010,-0.010,0.000,0.000,0.000
1644362222388859904,2022-02-08-23:17:02,10.1.1.10,27,-0.020,-0.020,-0.020,0.000,0.000,0.000
1644362222491379968,2022-02-08-23:17:02,10.1.1.10,26,-0.030,-0.030,-0.030,0.000,0.000,0.000
1644362222587791872,2022-02-08-23:17:02,10.1.1.10,24,-0.040,-0.040,-0.040,0.000,0.000,0.000
1644362223089984768,2022-02-08-23:17:03,10.1.1.10,19,-0.090,-0.090,-0.090,0.000,0.000,0.000
1644362223209564928,2022-02-08-23:17:03,10.1.1.10,38,-0.100,-0.100,-0.100,0.000,0.000,0.000
1644362223310030848,2022-02-08-23:17:03,10.1.1.10,37,-0.090,-0.090,-0.090,0.000,0.000,0.000
1644362223508860160,2022-02-08-23:17:03,10.1.1.10,29,-0.070,-0.070,-0.070,0.000,0.000,0.000
1644362223609039104,2022-02-08-23:17:03,10.1.1.10,28,-0.060,-0.060,-0.060,0.000,0.000,0.000
1644362223710546944,2022-02-08-23:17:03,10.1.1.10,28,-0.050,-0.050,-0.050,0.000,0.000,0.000
1644362224349199104,2022-02-08-23:17:04,10.1.1.10,29,0.010,0.010,0.010,0.000,0.000,0.000
1644362224449691136,2022-02-08-23:17:04,10.1.1.10,28,0.020,0.020,0.020,0.000,0.000,0.000
1644362224550599168,2022-02-08-23:17:04,10.1.1.10,27,0.030,0.030,0.030,0.000,0.000,0.000
1644362224649401856,2022-02-08-23:17:04,10.1.1.10,26,0.040,0.040,0.040,0.000,0.000,0.000
1644362224749750016,2022-02-08-23:17:04,10.1.1.10,25,0.050,0.050,0.050,0.000,0.000,0.000
1644362224850728960,2022-02-08-23:17:04,10.1.1.10,24,0.060,0.060,0.060,0.000,0.000,0.000
1644362225467866880,2022-02-08-23:17:05,10.1.1.10,39,0.080,0.080,0.080,0.000,0.000,0.000
1644362225566600960,2022-02-08-23:17:05,10.1.1.10,36,0.070,0.070,0.070,0.000,0.000,0.000
1644362225768982016,2022-02-08-23:17:05,10.1.1.10,25,0.050,0.050,0.050,0.000,0.000,0.000
1644362225866557952,2022-02-08-23:17:05,10.1.1.10,24,0.040,0.040,0.040,0.000,0.000,0.000
1644362226191542016,2022-02-08-23:17:06,10.1.1.10,37,0.010,0.010,0.010,0.000,0.000,0.000
1644362226286550016,2022-02-08-23:17:06,10.1.1.10,36,0.000,0.000,0.000,0.000,0.000,0.000
1644362226388355072,2022-02-08-23:17:06,10.1.1.10,35,-0.010,-0.010,-0.010,0.000,0.000,0.000
1644362226486707968,2022-02-08-23:17:06,10.1.1.10,34,-0.020,-0.020,-0.020,0.000,0.000,0.000
1644362227127307776,2022-02-08-23:17:07,10.1.1.10,27,-0.080,-0.080,-0.080,0.000,0.000,0.000
1644362227227447040,2022-02-08-23:17:07,10.1.1.10,26,-0.090,-0.090,-0.090,0.000,0.000,0.000
1644362227327115008,2022-02-08-23:17:07,10.1.1.10,25,-0.100,-0.100,-0.100,0.000,0.000,0.000
1644362227427467008,2022-02-08-23:17:07,10.1.1.10,25,-0.090,-0.090,-0.090,0.000,0.000,0.000
1644362228147421952,2022-02-08-23:17:08,10.1.1.10,39,-0.020,-0.020,-0.020,0.000,0.000,0.000
1644362228247276032,2022-02-08-23:17:08,10.1.1.10,37,-0.010,-0.010,-0.010,0.000,0.000,0.000
1644362228346764032,2022-02-08-23:17:08,10.1.1.10,37,0.000,0.000,0.000,0.000,0.000,0.000
1644362228447372800,2022-02-08-23:17:08,10.1.1.10,37,0.010,0.010,0.010,0.000,0.000,0.000
1644362228547645184,2022-02-08-23:17:08,10.1.1.10,36,0.020,0.020,0.020,0.000,0.000,0.000
1644362228647865088,2022-02-08-23:17:08,10.1.1.10,35,0.030,0.030,0.030,0.000,0.000,0.000
1644362228748142848,2022-02-08-23:17:08,10.1.1.10,34,0.040,0.040,0.040,0.000,0.000,0.000
1644362229647623936,2022-02-08-23:17:09,10.1.1.10,28,0.070,0.070,0.070,0.000,0.000,0.000
1644362229747744000,2022-02-08-23:17:09,10.1.1.10,26,0.060,0.060,0.060,0.000,0.000,0.000
1644362229847219968,2022-02-08-23:17:09,10.1.1.10,26,0.050,0.050,0.050,0.000,0.000,0.000
1644362229947719168,2022-02-08-23:17:09,10.1.1.10,25,0.040,0.040,0.040,0.000,0.000,0.000
1644362230046755072,2022-02-08-23:17:10,10.1.1.10,25,0.030,0.030,0.030,0.000,0.000,0.000
1644362230647685888,2022-02-08-23:17:10,10.1.1.10,19,-0.030,-0.030,-0.030,0.000,0.000,0.000
1644362230767170048,2022-02-08-23:17:10,10.1.1.10,37,-0.040,-0.040,-0.040,0.000,0.000,0.000
1644362230867158784,2022-02-08-23:17:10,10.1.1.10,37,-0.050,-0.050,-0.050,0.000,0.000,0.000
1644362230967287040,2022-02-08-23:17:10,10.1.1.10,37,-0.060,-0.060,-0.060,0.000,0.000,0.000
1644362231066606080,2022-02-08-23:17:11,10.1.1.10,36,-0.070,-0.070,-0.070,0.000,0.000,0.000
1644362231166891008,2022-02-08-23:17:11,10.1.1.10,35,-0.080,-0.080,-0.080,0.000,0.000,0.000
1644362231267158016,2022-02-08-23:17:11,10.1.1.10,35,-0.090,-0.090,-0.090,0.000,0.000,0.000
1644362231366806016,2022-02-08-23:17:11,10.1.1.10,34,-0.100,-0.100,-0.100,0.000,0.000,0.000
1644362232067919872,2022-02-08-23:17:12,10.1.1.10,29,-0.030,-0.030,-0.030,0.000,0.000,0.000
1644362232267411968,2022-02-08-23:17:12,10.1.1.10,28,-0.010,-0.010,-0.010,0.000,0.000,0.000
1644362232367078912,2022-02-08-23:17:12,10.1.1.10,28,0.000,0.000,0.000,0.000,0.000,0.000
1644362232466928896,2022-02-08-23:17:12,10.1.1.10,27,0.010,0.010,0.010,0.000,0.000,0.000
1644362232567109120,2022-02-08-23:17:12,10.1.1.10,27,0.020,0.020,0.020,0.000,0.000,0.000
1644362232667131904,2022-02-08-23:17:12,10.1.1.10,26,0.030,0.030,0.030,0.000,0.000,0.000
1644362232768132864,2022-02-08-23:17:12,10.1.1.10,26,0.040,0.040,0.040,0.000,0.000,0.000
1644362232867342080,2022-02-08-23:17:12,10.1.1.10,26,0.050,0.050,0.050,0.000,0.000,0.000
1644362232967369984,2022-02-08-23:17:12,10.1.1.10,25,0.060,0.060,0.060,0.000,0.000,0.000
1644362233068150016,2022-02-08-23:17:13,10.1.1.10,24,0.070,0.070,0.070,0.000,0.000,0.000
1644362233567223040,2022-02-08-23:17:13,10.1.1.10,19,0.080,0.080,0.080,0.000,0.000,0.000
1644362233687592960,2022-02-08-23:17:13,10.1.1.10,38,0.070,0.070,0.070,0.000,0.000,0.000
1644362233788242176,2022-02-08-23:17:13,10.1.1.10,38,0.060,0.060,0.060,0.000,0.000,0.000
1644362233887137792,2022-02-08-23:17:13,10.1.1.10,37,0.050,0.050,0.050,0.000,0.000,0.000
1644362233989067008,2022-02-08-23:17:13,10.1.1.10,35,0.040,0.040,0.040,0.000,0.000,0.000
1644362234057713152,2022-02-08-23:17:14,10.1.1.10,-29,0.040,0.040,0.040,0.000,0.000,0.000
1644362234387057152,2022-02-08-23:17:14,10.1.1.10,29,0.000,0.000,0.000,0.000,0.000,0.000
1644362234487000832,2022-02-08-23:17:14,10.1.1.10,28,-0.010,-0.010,-0.010,0.000,0.000,0.000
1644362234588398080,2022-02-08-23:17:14,10.1.1.10,28,-0.020,-0.020,-0.020,0.000,0.000,0.000
1644362234687858176,2022-02-08-23:17:14,10.1.1.10,27,-0.030,-0.030,-0.030,0.000,0.000,0.000
1644362234787589120,2022-02-08-23:17:14,10.1.1.10,27,-0.040,-0.040,-0.040,0.000,0.000,0.000
1644362234891432960,2022-02-08-23:17:14,10.1.1.10,26,-0.050,-0.050,-0.050,0.000,0.000,0.000
1644362234988429056,2022-02-08-23:17:14,10.1.1.10,25,-0.060,-0.060,-0.060,0.000,0.000,0.000
1644362235087717120,2022-02-08-23:17:15,10.1.1.10,25,-0.070,-0.070,-0.070,0.000,0.000,0.000
1644362235188681984,2022-02-08-23:17:15,10.1.1.10,24,-0.080,-0.080,-0.080,0.000,0.000,0.000
1644362235287784192,2022-02-08-23:17:15,10.1.1.10,24,-0.090,-0.090,-0.090,0.000,0.000,0.000
1644362235467837184,2022-02-08-23:17:15,10.1.1.10,3,-0.090,-0.090,-0.090,0.000,0.000,0.000
1644362235808134144,2022-02-08-23:17:15,10.1.1.10,37,-0.060,-0.060,-0.060,0.000,0.000,0.000
1644362235907473920,2022-02-08-23:17:15,10.1.1.10,36,-0.050,-0.050,-0.050,0.000,0.000,0.000
1644362236007864832,2022-02-08-23:17:16,10.1.1.10,36,-0.040,-0.040,-0.040,0.000,0.000,0.000
1644362236108210176,2022-02-08-23:17:16,10.1.1.10,34,-0.030,-0.030,-0.030,0.000,0.000,0.000
1644362236208040960,2022-02-08-23:17:16,10.1.1.10,34,-0.020,-0.020,-0.020,0.000,0.000,0.000
1644362236806969856,2022-02-08-23:17:16,10.1.1.10,29,0.040,0.040,0.040,0.000,0.000,0.000
1644362236907357952,2022-02-08-23:17:16,10.1.1.10,29,0.050,0.050,0.050,0.000,0.000,0.000
1644362237008172032,2022-02-08-23:17:17,10.1.1.10,28,0.060,0.060,0.060,0.000,0.000,0.000
1644362237107685120,2022-02-08-23:17:17,10.1.1.10,27,0.070,0.070,0.070,0.000,0.000,0.000
1644362237207165952,2022-02-08-23:17:17,10.1.1.10,27,0.080,0.080,0.080,0.000,0.000,0.000
1644362237308177920,2022-02-08-23:17:17,10.1.1.10,27,0.090,0.090,0.090,0.000,0.000,0.000
1644362237407535104,2022-02-08-23:17:17,10.1.1.10,26,0.100,0.100,0.100,0.000,0.000,0.000
1644362237508905984,2022-02-08-23:17:17,10.1.1.10,25,0.090,0.090,0.090,0.000,0.000,0.000
1644362238247853056,2022-02-08-23:17:18,10.1.1.10,29,0.020,0.020,0.020,0.000,0.000,0.000
1644362238447077888,2022-02-08-23:17:18,10.1.1.10,27,0.000,0.000,0.000,0.000,0.000,0.000
1644362238547454976,2022-02-08-23:17:18,10.1.1.10,26,-0.010,-0.010,-0.010,0.000,0.000,0.000
1644362238647897856,2022-02-08-23:17:18,10.1.1.10,25,-0.020,-0.020,-0.020,0.000,0.000,0.000
1644362238747627008,2022-02-08-23:17:18,10.1.1.10,24,-0.030,-0.030,-0.030,0.000,0.000,0.000
1644362239167435008,2022-02-08-23:17:19,10.1.1.10,39,-0.070,-0.070,-0.070,0.000,0.000,0.000
1644362239267364864,2022-02-08-23:17:19,10.1.1.10,38,-0.080,-0.080,-0.080,0.000,0.000,0.000
1644362239367700992,2022-02-08-23:17:19,10.1.1.10,37,-0.090,-0.090,-0.090,0.000,0.000,0.000
1644362239467307008,2022-02-08-23:17:19,10.1.1.10,36,-0.100,-0.100,-0.100,0.000,0.000,0.000
1644362239567954944,2022-02-08-23:17:19,10.1.1.10,35,-0.090,-0.090,-0.090,0.000,0.000,0.000
1644362239667720960,2022-02-08-23:17:19,10.1.1.10,34,-0.080,-0.080,-0.080,0.000,0.000,0.000
1644362239767090944,2022-02-08-23:17:19,10.1.1.10,33,-0.070,-0.070,-0.070,0.000,0.000,0.000
1644362239867318016,2022-02-08-23:17:19,10.1.1.10,33,-0.060,-0.060,-0.060,0.000,0.000,0.000
1644362240467523072,2022-02-08-23:17:20,10.1.1.10,29,-0.000,-0.000,-0.000,0.000,0.000,0.000
1644362240567933952,2022-02-08-23:17:20,10.1.1.10,29,0.010,0.010,0.010,0.000,0.000,0.000
1644362240667700992,2022-02-08-23:17:20,10.1.1.10,28,0.020,0.020,0.020,0.000,0.000,0.000
1644362240767323136,2022-02-08-23:17:20,10.1.1.10,27,0.030,0.030,0.030,0.000,0.000,0.000
1644362240867630848,2022-02-08-23:17:20,10.1.1.10,26,0.040,0.040,0.040,0.000,0.000,0.000
1644362240967638016,2022-02-08-23:17:20,10.1.1.10,25,0.050,0.050,0.050,0.000,0.000,0.000
1644362241067176960,2022-02-08-23:17:21,10.1.1.10,24,0.060,0.060,0.060,0.000,0.000,0.000
1644362241167880960,2022-02-08-23:17:21,10.1.1.10,24,0.070,0.070,0.070,0.000,0.000,0.000
1644362241267555840,2022-02-08-23:17:21,10.1.1.10,23,0.080,0.080,0.080,0.000,0.000,0.000
1644362241667362048,2022-02-08-23:17:21,10.1.1.10,20,0.080,0.080,0.080,0.000,0.000,0.000
1644362241787465216,2022-02-08-23:17:21,10.1.1.10,39,0.070,0.070,0.070,0.000,0.000,0.000
1644362241887342848,2022-02-08-23:17:21,10.1.1.10,38,0.060,0.060,0.060,0.000,0.000,0.000
1644362241987081984,2022-02-08-23:17:21,10.1.1.10,37,0.050,0.050,0.050,0.000,0.000,0.000
1644362242087457792,2022-02-08-23:17:22,10.1.1.10,35,0.040,0.040,0.040,0.000,0.000,0.000
1644362242787547136,2022-02-08-23:17:22,10.1.1.10,29,-0.030,-0.030,-0.030,0.000,0.000,0.000
1644362242887677952,2022-02-08-23:17:22,10.1.1.10,28,-0.040,-0.040,-0.040,0.000,0.000,0.000
1644362242987521792,2022-02-08-23:17:22,10.1.1.10,28,-0.050,-0.050,-0.050,0.000,0.000,0.000
1644362243087528960,2022-02-08-23:17:23,10.1.1.10,27,-0.060,-0.060,-0.060,0.000,0.000,0.000
1644362243188226816,2022-02-08-23:17:23,10.1.1.10,26,-0.070,-0.070,-0.070,0.000,0.000,0.000
1644362243287264000,2022-02-08-23:17:23,10.1.1.10,25,-0.080,-0.080,-0.080,0.000,0.000,0.000
1644362243387463168,2022-02-08-23:17:23,10.1.1.10,25,-0.090,-0.090,-0.090,0.000,0.000,0.000
1644362243487252992,2022-02-08-23:17:23,10.1.1.10,24,-0.100,-0.100,-0.100,0.000,0.000,0.000
1644362243587898112,2022-02-08-23:17:23,10.1.1.10,24,-0.090,-0.090,-0.090,0.000,0.000,0.000
1644362244007910912,2022-02-08-23:17:24,10.1.1.10,39,-0.050,-0.050,-0.050,0.000,0.000,0.000
1644362244107631872,2022-02-08-23:17:24,10.1.1.10,38,-0.040,-0.040,-0.040,0.000,0.000,0.000
1644362244207959808,2022-02-08-23:17:24,10.1.1.10,37,-0.030,-0.030,-0.030,0.000,0.000,0.000
1644362244307748096,2022-02-08-23:17:24,10.1.1.10,36,-0.020,-0.020,-0.020,0.000,0.000,0.000
1644362244548013056,2022-02-08-23:17:24,10.1.1.10,27,0.000,0.000,0.000,0.000,0.000,0.000
1644362244648279040,2022-02-08-23:17:24,10.1.1.10,26,0.010,0.010,0.010,0.000,0.000,0.000
1644362244748214016,2022-02-08-23:17:24,10.1.1.10,25,0.020,0.020,0.020,0.000,0.000,0.000
1644362244847335936,2022-02-08-23:17:24,10.1.1.10,25,0.030,0.030,0.030,0.000,0.000,0.000
1644362244948292864,2022-02-08-23:17:24,10.1.1.10,25,0.040,0.040,0.040,0.000,0.000,0.000
1644362245048425984,2022-02-08-23:17:25,10.1.1.10,24,0.050,0.050,0.050,0.000,0.000,0.000
1644362245148411904,2022-02-08-23:17:25,10.1.1.10,24,0.060,0.060,0.060,0.000,0.000,0.000
1644362245368314880,2022-02-08-23:17:25,10.1.1.10,25,0.080,0.080,0.080,0.000,0.000,0.000
1644362245467900160,2022-02-08-23:17:25,10.1.1.10,25,0.090,0.090,0.090,0.000,0.000,0.000
1644362245568538880,2022-02-08-23:17:25,10.1.1.10,24,0.100,0.100,0.100,0.000,0.000,0.000
1644362245667588864,2022-02-08-23:17:25,10.1.1.10,23,0.090,0.090,0.090,0.000,0.000,0.000
1644362246167962112,2022-02-08-23:17:26,10.1.1.10,20,0.040,0.040,0.040,0.000,0.000,0.000
1644362246287419136,2022-02-08-23:17:26,10.1.1.10,39,0.030,0.030,0.030,0.000,0.000,0.000
1644362246387994880,2022-02-08-23:17:26,10.1.1.10,38,0.020,0.020,0.020,0.000,0.000,0.000
1644362246487910912,2022-02-08-23:17:26,10.1.1.10,37,0.010,0.010,0.010,0.000,0.000,0.000
1644362246588380160,2022-02-08-23:17:26,10.1.1.10,36,0.000,0.000,0.000,0.000,0.000,0.000
1644362246687845888,2022-02-08-23:17:26,10.1.1.10,35,-0.010,-0.010,-0.010,0.000,0.000,0.000
1644362246788037120,2022-02-08-23:17:26,10.1.1.10,34,-0.020,-0.020,-0.020,0.000,0.000,0.000
1644362246887816960,2022-02-08-23:17:26,10.1.1.10,33,-0.030,-0.030,-0.030,0.000,0.000,0.000
1644362247688707072,2022-02-08-23:17:27,10.1.1.10,29,-0.090,-0.090,-0.090,0.000,0.000,0.000
1644362247788376064,2022-02-08-23:17:27,10.1.1.10,28,-0.080,-0.080,-0.080,0.000,0.000,0.000
1644362247887581184,2022-02-08-23:17:27,10.1.1.10,27,-0.070,-0.070,-0.070,0.000,0.000,0.000
1644362247987646208,2022-02-08-23:17:27,10.1.1.10,26,-0.060,-0.060,-0.060,0.000,0.000,0.000
1644362248089128960,2022-02-08-23:17:28,10.1.1.10,25,-0.050,-0.050,-0.050,0.000,0.000,0.000
1644362248188472064,2022-02-08-23:17:28,10.1.1.10,24,-0.040,-0.040,-0.040,0.000,0.000,0.000
1644362248287847168,2022-02-08-23:17:28,10.1.1.10,23,-0.030,-0.030,-0.030,0.000,0.000,0.000
1644362248589641216,2022-02-08-23:17:28,10.1.1.10,20,0.000,0.000,0.000,0.000,0.000,0.000
1644362248708809984,2022-02-08-23:17:28,10.1.1.10,38,0.010,0.010,0.010,0.000,0.000,0.000
1644362248807725056,2022-02-08-23:17:28,10.1.1.10,37,0.020,0.020,0.020,0.000,0.000,0.000
1644362248908505088,2022-02-08-23:17:28,10.1.1.10,37,0.030,0.030,0.030,0.000,0.000,0.000
1644362249008518912,2022-02-08-23:17:29,10.1.1.10,36,0.040,0.040,0.040,0.000,0.000,0.000
1644362249109026048,2022-02-08-23:17:29,10.1.1.10,35,0.050,0.050,0.050,0.000,0.000,0.000
1644362249208547072,2022-02-08-23:17:29,10.1.1.10,34,0.060,0.060,0.060,0.000,0.000,0.000
1644362249908602112,2022-02-08-23:17:29,10.1.1.10,29,0.070,0.070,0.070,0.000,0.000,0.000
1644362250008768000,2022-02-08-23:17:30,10.1.1.10,28,0.060,0.060,0.060,0.000,0.000,0.000
1644362250108971008,2022-02-08-23:17:30,10.1.1.10,27,0.050,0.050,0.050,0.000,0.000,0.000
1644362250209024000,2022-02-08-23:17:30,10.1.1.10,25,0.040,0.040,0.040,0.000,0.000,0.000
1644362250308590848,2022-02-08-23:17:30,10.1.1.10,24,0.030,0.030,0.030,0.000,0.000,0.000
1644362250408990976,2022-02-08-23:17:30,10.1.1.10,24,0.020,0.020,0.020,0.000,0.000,0.000
1644362251028242944,2022-02-08-23:17:31,10.1.1.10,39,-0.040,-0.040,-0.040,0.000,0.000,0.000
1644362251128129024,2022-02-08-23:17:31,10.1.1.10,36,-0.050,-0.050,-0.050,0.000,0.000,0.000
1644362251232399872,2022-02-08-23:17:31,10.1.1.10,35,-0.060,-0.060,-0.060,0.000,0.000,0.000
1644362251327450112,2022-02-08-23:17:31,10.1.1.10,34,-0.070,-0.070,-0.070,0.000,0.000,0.000
1644362251427827968,2022-02-08-23:17:31,10.1.1.10,34,-0.080,-0.080,-0.080,0.000,0.000,0.000
1644362251527538944,2022-02-08-23:17:31,10.1.1.10,33,-0.090,-0.090,-0.090,0.000,0.000,0.000
1644362251708553984,2022-02-08-23:17:31,10.1.1.10,12,-0.090,-0.090,-0.090,0.000,0.000,0.000
1644362252127577088,2022-02-08-23:17:32,10.1.1.10,28,-0.050,-0.050,-0.050,0.000,0.000,0.000
1644362252228172032,2022-02-08-23:17:32,10.1.1.10,28,-0.040,-0.040,-0.040,0.000,0.000,0.000
1644362252328388864,2022-02-08-23:17:32,10.1.1.10,27,-0.030,-0.030,-0.030,0.000,0.000,0.000
1644362252427553024,2022-02-08-23:17:32,10.1.1.10,26,-0.020,-0.020,-0.020,0.000,0.000,0.000
1644362252528225792,2022-02-08-23:17:32,10.1.1.10,24,-0.010,-0.010,-0.010,0.000,0.000,0.000
1644362252748791040,2022-02-08-23:17:32,10.1.1.10,39,0.010,0.010,0.010,0.000,0.000,0.000
1644362252848530944,2022-02-08-23:17:32,10.1.1.10,39,0.020,0.020,0.020,0.000,0.000,0.000
1644362252948692992,2022-02-08-23:17:32,10.1.1.10,37,0.030,0.030,0.030,0.000,0.000,0.000
1644362253048156928,2022-02-08-23:17:33,10.1.1.10,36,0.040,0.040,0.040,0.000,0.000,0.000
1644362253148267008,2022-02-08-23:17:33,10.1.1.10,35,0.050,0.050,0.050,0.000,0.000,0.000
1644362253247778048,2022-02-08-23:17:33,10.1.1.10,33,0.060,0.060,0.060,0.000,0.000,0.000
1644362253749246976,2022-02-08-23:17:33,10.1.1.10,28,0.090,0.090,0.090,0.000,0.000,0.000
1644362253849547008,2022-02-08-23:17:33,10.1.1.10,27,0.080,0.080,0.080,0.000,0.000,0.000
1644362253949271040,2022-02-08-23:17:33,10.1.1.10,26,0.070,0.070,0.070,0.000,0.000,0.000
1644362254049190144,2022-02-08-23:17:34,10.1.1.10,25,0.060,0.060,0.060,0.000,0.000,0.000
1644362254148324096,2022-02-08-23:17:34,10.1.1.10,25,0.050,0.050,0.050,0.000,0.000,0.000
1644362254250639872,2022-02-08-23:17:34,10.1.1.10,23,0.040,0.040,0.040,0.000,0.000,0.000
1644362254491401984,2022-02-08-23:17:34,10.1.1.10,24,0.020,0.020,0.020,0.000,0.000,0.000
1644362254988189952,2022-02-08-23:17:34,10.1.1.10,20,-0.030,-0.030,-0.030,0.000,0.000,0.000
1644362255109363968,2022-02-08-23:17:35,10.1.1.10,38,-0.040,-0.040,-0.040,0.000,0.000,0.000
1644362255209121024,2022-02-08-23:17:35,10.1.1.10,37,-0.050,-0.050,-0.050,0.000,0.000,0.000
1644362255310507008,2022-02-08-23:17:35,10.1.1.10,36,-0.060,-0.060,-0.060,0.000,0.000,0.000
1644362255408302080,2022-02-08-23:17:35,10.1.1.10,35,-0.070,-0.070,-0.070,0.000,0.000,0.000
1644362255510870016,2022-02-08-23:17:35,10.1.1.10,34,-0.080,-0.080,-0.080,0.000,0.000,0.000
1644362255607875072,2022-02-08-23:17:35,10.1.1.10,33,-0.090,-0.090,-0.090,0.000,0.000,0.000
1644362255712791040,2022-02-08-23:17:35,10.1.1.10,36,-0.100,-0.100,-0.100,0.000,0.000,0.000
1644362256108109824,2022-02-08-23:17:36,10.1.1.10,29,-0.060,-0.060,-0.060,0.000,0.000,0.000
1644362256208028928,2022-02-08-23:17:36,10.1.1.10,28,-0.050,-0.050,-0.050,0.000,0.000,0.000
1644362256308303104,2022-02-08-23:17:36,10.1.1.10,27,-0.040,-0.040,-0.040,0.000,0.000,0.000
1644362256409133824,2022-02-08-23:17:36,10.1.1.10,27,-0.030,-0.030,-0.030,0.000,0.000,0.000
1644362256508332032,2022-02-08-23:17:36,10.1.1.10,26,-0.020,-0.020,-0.020,0.000,0.000,0.000
1644362256608349184,2022-02-08-23:17:36,10.1.1.10,25,-0.010,-0.010,-0.010,0.000,0.000,0.000
1644362256708344064,2022-02-08-23:17:36,10.1.1.10,25,0.000,0.000,0.000,0.000,0.000,0.000
1644362256808232192,2022-02-08-23:17:36,10.1.1.10,24,0.010,0.010,0.010,0.000,0.000,0.000
1644362256908683008,2022-02-08-23:17:36,10.1.1.10,23,0.020,0.020,0.020,0.000,0.000,0.000
1644362257008439040,2022-02-08-23:17:37,10.1.1.10,23,0.030,0.030,0.030,0.000,0.000,0.000
1644362257382291200,2022-02-08-23:17:37,10.1.1.10,20,0.060,0.060,0.060,0.000,0.000,0.000
1644362257428754176,2022-02-08-23:17:37,10.1.1.10,39,0.070,0.070,0.070,0.000,0.000,0.000
1644362257528830976,2022-02-08-23:17:37,10.1.1.10,37,0.080,0.080,0.080,0.000,0.000,0.000
1644362257631623936,2022-02-08-23:17:37,10.1.1.10,33,0.090,0.090,0.090,0.000,0.000,0.000
1644362257808131840,2022-02-08-23:17:37,10.1.1.10,11,0.090,0.090,0.090,0.000,0.000,0.000
1644362258128365056,2022-02-08-23:17:38,10.1.1.10,29,0.060,0.060,0.060,0.000,0.000,0.000
1644362258228813056,2022-02-08-23:17:38,10.1.1.10,28,0.050,0.050,0.050,0.000,0.000,0.000
1644362258328894976,2022-02-08-23:17:38,10.1.1.10,27,0.040,0.040,0.040,0.000,0.000,0.000
1644362258428268032,2022-02-08-23:17:38,10.1.1.10,26,0.030,0.030,0.030,0.000,0.000,0.000
1644362258528909056,2022-02-08-23:17:38,10.1.1.10,25,0.020,0.020,0.020,0.000,0.000,0.000
1644362258628050944,2022-02-08-23:17:38,10.1.1.10,24,0.010,0.010,0.010,0.000,0.000,0.000
1644362258728741888,2022-02-08-23:17:38,10.1.1.10,24,0.000,0.000,0.000,0.000,0.000,0.000
1644362258828808192,2022-02-08-23:17:38,10.1.1.10,24,-0.010,-0.010,-0.010,0.000,0.000,0.000
1644362258927706112,2022-02-08-23:17:38,10.1.1.10,23,-0.020,-0.020,-0.020,0.000,0.000,0.000
1644362259428731904,2022-02-08-23:17:39,10.1.1.10,20,-0.070,-0.070,-0.070,0.000,0.000,0.000
1644362259548145920,2022-02-08-23:17:39,10.1.1.10,39,-0.080,-0.080,-0.080,0.000,0.000,0.000
1644362259648583936,2022-02-08-23:17:39,10.1.1.10,38,-0.090,-0.090,-0.090,0.000,0.000,0.000
1644362259748182016,2022-02-08-23:17:39,10.1.1.10,37,-0.100,-0.100,-0.100,0.000,0.000,0.000
1644362259848668928,2022-02-08-23:17:39,10.1.1.10,36,-0.090,-0.090,-0.090,0.000,0.000,0.000
1644362259948507136,2022-02-08-23:17:39,10.1.1.10,35,-0.080,-0.080,-0.080,0.000,0.000,0.000
1644362260049022976,2022-02-08-23:17:40,10.1.1.10,35,-0.070,-0.070,-0.070,0.000,0.000,0.000
1644362260148226048,2022-02-08-23:17:40,10.1.1.10,35,-0.060,-0.060,-0.060,0.000,0.000,0.000
1644362260248024832,2022-02-08-23:17:40,10.1.1.10,34,-0.050,-0.050,-0.050,0.000,0.000,0.000
1644362260347863040,2022-02-08-23:17:40,10.1.1.10,33,-0.040,-0.040,-0.040,0.000,0.000,0.000
1644362260948430080,2022-02-08-23:17:40,10.1.1.10,28,0.020,0.020,0.020,0.000,0.000,0.000
1644362261048667904,2022-02-08-23:17:41,10.1.1.10,27,0.030,0.030,0.030,0.000,0.000,0.000
1644362261148955136,2022-02-08-23:17:41,10.1.1.10,26,0.040,0.040,0.040,0.000,0.000,0.000
1644362261248467968,2022-02-08-23:17:41,10.1.1.10,25,0.050,0.050,0.050,0.000,0.000,0.000
1644362261349520896,2022-02-08-23:17:41,10.1.1.10,24,0.060,0.060,0.060,0.000,0.000,0.000
1644362261448432896,2022-02-08-23:17:41,10.1.1.10,24,0.070,0.070,0.070,0.000,0.000,0.000
1644362261548643072,2022-02-08-23:17:41,10.1.1.10,23,0.080,0.080,0.080,0.000,0.000,0.000
1644362261928944128,2022-02-08-23:17:41,10.1.1.10,1,0.080,0.080,0.080,0.000,0.000,0.000
1644362262148862976,2022-02-08-23:17:42,10.1.1.10,19,0.060,0.060,0.060,0.000,0.000,0.000
1644362262269359104,2022-02-08-23:17:42,10.1.1.10,39,0.050,0.050,0.050,0.000,0.000,0.000
1644362262331561216,2022-02-08-23:17:42,10.1.1.10,-3,0.050,0.050,0.050,0.000,0.000,0.000
1644362262469538816,2022-02-08-23:17:42,10.1.1.10,37,0.030,0.030,0.030,0.000,0.000,0.000
1644362262568489984,2022-02-08-23:17:42,10.1.1.10,36,0.020,0.020,0.020,0.000,0.000,0.000
1644362262668960000,2022-02-08-23:17:42,10.1.1.10,36,0.010,0.010,0.010,0.000,0.000,0.000
1644362262769190144,2022-02-08-23:17:42,10.1.1.10,35,0.000,0.000,0.000,0.000,0.000,0.000
1644362262868453888,2022-02-08-23:17:42,10.1.1.10,35,-0.010,-0.010,-0.010,0.000,0.000,0.000
1644362263368570112,2022-02-08-23:17:43,10.1.1.10,29,-0.060,-0.060,-0.060,0.000,0.000,0.000
1644362263469752064,2022-02-08-23:17:43,10.1.1.10,29,-0.070,-0.070,-0.070,0.000,0.000,0.000
1644362263568926976,2022-02-08-23:17:43,10.1.1.10,28,-0.080,-0.080,-0.080,0.000,0.000,0.000
1644362263669657088,2022-02-08-23:17:43,10.1.1.10,27,-0.090,-0.090,-0.090,0.000,0.000,0.000
1644362263768683008,2022-02-08-23:17:43,10.1.1.10,26,-0.100,-0.100,-0.100,0.000,0.000,0.000
1644362263869925888,2022-02-08-23:17:43,10.1.1.10,25,-0.090,-0.090,-0.090,0.000,0.000,0.000
1644362263969465856,2022-02-08-23:17:43,10.1.1.10,25,-0.080,-0.080,-0.080,0.000,0.000,0.000
1644362264068915968,2022-02-08-23:17:44,10.1.1.10,24,-0.070,-0.070,-0.070,0.000,0.000,0.000
1644362264168660992,2022-02-08-23:17:44,10.1.1.10,24,-0.060,-0.060,-0.060,0.000,0.000,0.000
1644362264268892160,2022-02-08-23:17:44,10.1.1.10,23,-0.050,-0.050,-0.050,0.000,0.000,0.000
1644362264688987904,2022-02-08-23:17:44,10.1.1.10,37,-0.010,-0.010,-0.010,0.000,0.000,0.000
1644362264788600064,2022-02-08-23:17:44,10.1.1.10,36,0.000,0.000,0.000,0.000,0.000,0.000
1644362264990050048,2022-02-08-23:17:44,10.1.1.10,30,0.020,0.020,0.020,0.000,0.000,0.000
1644362265089318912,2022-02-08-23:17:45,10.1.1.10,29,0.030,0.030,0.030,0.000,0.000,0.000
1644362265188844032,2022-02-08-23:17:45,10.1.1.10,28,0.040,0.040,0.040,0.000,0.000,0.000
1644362265288218112,2022-02-08-23:17:45,10.1.1.10,28,0.050,0.050,0.050,0.000,0.000,0.000
1644362265389015040,2022-02-08-23:17:45,10.1.1.10,27,0.060,0.060,0.060,0.000,0.000,0.000
1644362265491430144,2022-02-08-23:17:45,10.1.1.10,26,0.070,0.070,0.070,0.000,0.000,0.000
1644362265590503936,2022-02-08-23:17:45,10.1.1.10,26,0.080,0.080,0.080,0.000,0.000,0.000
1644362265688633856,2022-02-08-23:17:45,10.1.1.10,25,0.090,0.090,0.090,0.000,0.000,0.000
1644362265789261056,2022-02-08-23:17:45,10.1.1.10,24,0.100,0.100,0.100,0.000,0.000,0.000
1644362265888154880,2022-02-08-23:17:45,10.1.1.10,24,0.090,0.090,0.090,0.000,0.000,0.000
1644362265988739072,2022-02-08-23:17:45,10.1.1.10,23,0.080,0.080,0.080,0.000,0.000,0.000
1644362266089023232,2022-02-08-23:17:46,10.1.1.10,22,0.070,0.070,0.070,0.000,0.000,0.000
1644362266490524160,2022-02-08-23:17:46,10.1.1.10,20,0.030,0.030,0.030,0.000,0.000,0.000
1644362266608381952,2022-02-08-23:17:46,10.1.1.10,39,0.020,0.020,0.020,0.000,0.000,0.000
1644362266709364992,2022-02-08-23:17:46,10.1.1.10,39,0.010,0.010,0.010,0.000,0.000,0.000
1644362266808876032,2022-02-08-23:17:46,10.1.1.10,38,0.000,0.000,0.000,0.000,0.000,0.000
1644362266909626880,2022-02-08-23:17:46,10.1.1.10,37,-0.010,-0.010,-0.010,0.000,0.000,0.000
1644362267009062912,2022-02-08-23:17:47,10.1.1.10,37,-0.020,-0.020,-0.020,0.000,0.000,0.000
1644362267108984064,2022-02-08-23:17:47,10.1.1.10,36,-0.030,-0.030,-0.030,0.000,0.000,0.000
1644362267209125888,2022-02-08-23:17:47,10.1.1.10,36,-0.040,-0.040,-0.040,0.000,0.000,0.000
1644362267310110976,2022-02-08-23:17:47,10.1.1.10,35,-0.050,-0.050,-0.050,0.000,0.000,0.000
1644362267808536064,2022-02-08-23:17:47,10.1.1.10,29,-0.100,-0.100,-0.100,0.000,0.000,0.000
1644362267911279872,2022-02-08-23:17:47,10.1.1.10,29,-0.090,-0.090,-0.090,0.000,0.000,0.000
1644362268012412160,2022-02-08-23:17:48,10.1.1.10,27,-0.080,-0.080,-0.080,0.000,0.000,0.000
1644362268112551936,2022-02-08-23:17:48,10.1.1.10,26,-0.070,-0.070,-0.070,0.000,0.000,0.000
1644362268209347840,2022-02-08-23:17:48,10.1.1.10,26,-0.060,-0.060,-0.060,0.000,0.000,0.000
1644362268311901952,2022-02-08-23:17:48,10.1.1.10,25,-0.050,-0.050,-0.050,0.000,0.000,0.000
1644362268411736064,2022-02-08-23:17:48,10.1.1.10,25,-0.040,-0.040,-0.040,0.000,0.000,0.000
1644362268509579008,2022-02-08-23:17:48,10.1.1.10,24,-0.030,-0.030,-0.030,0.000,0.000,0.000
1644362268608841984,2022-02-08-23:17:48,10.1.1.10,24,-0.020,-0.020,-0.020,0.000,0.000,0.000
1644362268709357056,2022-02-08-23:17:48,10.1.1.10,23,-0.010,-0.010,-0.010,0.000,0.000,0.000
1644362269228429056,2022-02-08-23:17:49,10.1.1.10,39,0.040,0.040,0.040,0.000,0.000,0.000
1644362269328856832,2022-02-08-23:17:49,10.1.1.10,37,0.050,0.050,0.050,0.000,0.000,0.000
1644362269429488896,2022-02-08-23:17:49,10.1.1.10,36,0.060,0.060,0.060,0.000,0.000,0.000
1644362269530949120,2022-02-08-23:17:49,10.1.1.10,36,0.070,0.070,0.070,0.000,0.000,0.000
1644362269632091904,2022-02-08-23:17:49,10.1.1.10,35,0.080,0.080,0.080,0.000,0.000,0.000
1644362269729389056,2022-02-08-23:17:49,10.1.1.10,33,0.090,0.090,0.090,0.000,0.000,0.000
1644362269829122048,2022-02-08-23:17:49,10.1.1.10,32,0.100,0.100,0.100,0.000,0.000,0.000
1644362269930800896,2022-02-08-23:17:49,10.1.1.10,32,0.090,0.090,0.090,0.000,0.000,0.000
1644362270229619968,2022-02-08-23:17:50,10.1.1.10,29,0.060,0.060,0.060,0.000,0.000,0.000
1644362270329637120,2022-02-08-23:17:50,10.1.1.10,27,0.050,0.050,0.050,0.000,0.000,0.000
1644362270428829952,2022-02-08-23:17:50,10.1.1.10,27,0.040,0.040,0.040,0.000,0.000,0.000
1644362270528749824,2022-02-08-23:17:50,10.1.1.10,27,0.030,0.030,0.030,0.000,0.000,0.000
1644362270848695040,2022-02-08-23:17:50,10.1.1.10,29,0.000,0.000,0.000,0.000,0.000,0.000
1644362270948441856,2022-02-08-23:17:50,10.1.1.10,28,-0.010,-0.010,-0.010,0.000,0.000,0.000
1644362271049384960,2022-02-08-23:17:51,10.1.1.10,27,-0.020,-0.020,-0.020,0.000,0.000,0.000
1644362271168271104,2022-02-08-23:17:51,10.1.1.10,38,-0.030,-0.030,-0.030,0.000,0.000,0.000
1644362271268399872,2022-02-08-23:17:51,10.1.1.10,38,-0.040,-0.040,-0.040,0.000,0.000,0.000
1644362271368710144,2022-02-08-23:17:51,10.1.1.10,37,-0.050,-0.050,-0.050,0.000,0.000,0.000
1644362271468965120,2022-02-08-23:17:51,10.1.1.10,36,-0.060,-0.060,-0.060,0.000,0.000,0.000
1644362271569065984,2022-02-08-23:17:51,10.1.1.10,36,-0.070,-0.070,-0.070,0.000,0.000,0.000
1644362271669516032,2022-02-08-23:17:51,10.1.1.10,35,-0.080,-0.080,-0.080,0.000,0.000,0.000
1644362271768420864,2022-02-08-23:17:51,10.1.1.10,34,-0.090,-0.090,-0.090,0.000,0.000,0.000
1644362271868398848,2022-02-08-23:17:51,10.1.1.10,33,-0.100,-0.100,-0.100,0.000,0.000,0.000
1644362271969182976,2022-02-08-23:17:51,10.1.1.10,33,-0.090,-0.090,-0.090,0.000,0.000,0.000
1644362272069714944,2022-02-08-23:17:52,10.1.1.10,32,-0.080,-0.080,-0.080,0.000,0.000,0.000
1644362272568653056,2022-02-08-23:17:52,10.1.1.10,29,-0.030,-0.030,-0.030,0.000,0.000,0.000
1644362272668376064,2022-02-08-23:17:52,10.1.1.10,28,-0.020,-0.020,-0.020,0.000,0.000,0.000
1644362272768816896,2022-02-08-23:17:52,10.1.1.10,25,-0.010,-0.010,-0.010,0.000,0.000,0.000
1644362272869076992,2022-02-08-23:17:52,10.1.1.10,25,0.000,0.000,0.000,0.000,0.000,0.000
1644362272969693952,2022-02-08-23:17:52,10.1.1.10,24,0.010,0.010,0.010,0.000,0.000,0.000
1644362273068648960,2022-02-08-23:17:53,10.1.1.10,23,0.020,0.020,0.020,0.000,0.000,0.000
1644362273169584896,2022-02-08-23:17:53,10.1.1.10,23,0.030,0.030,0.030,0.000,0.000,0.000
1644362273589351936,2022-02-08-23:17:53,10.1.1.10,36,0.070,0.070,0.070,0.000,0.000,0.000
1644362273689209088,2022-02-08-23:17:53,10.1.1.10,36,0.080,0.080,0.080,0.000,0.000,0.000
1644362273788578048,2022-02-08-23:17:53,10.1.1.10,35,0.090,0.090,0.090,0.000,0.000,0.000
1644362273888907008,2022-02-08-23:17:53,10.1.1.10,34,0.100,0.100,0.100,0.000,0.000,0.000
1644362273988740864,2022-02-08-23:17:53,10.1.1.10,34,0.090,0.090,0.090,0.000,0.000,0.000
1644362274088844032,2022-02-08-23:17:54,10.1.1.10,33,0.080,0.080,0.080,0.000,0.000,0.000
1644362274188824064,2022-02-08-23:17:54,10.1.1.10,32,0.070,0.070,0.070,0.000,0.000,0.000
1644362274488812032,2022-02-08-23:17:54,10.1.1.10,30,0.040,0.040,0.040,0.000,0.000,0.000
1644362274688736000,2022-02-08-23:17:54,10.1.1.10,23,0.020,0.020,0.020,0.000,0.000,0.000
1644362274788961024,2022-02-08-23:17:54,10.1.1.10,23,0.010,0.010,0.010,0.000,0.000,0.000
1644362275310668032,2022-02-08-23:17:55,10.1.1.10,38,-0.040,-0.040,-0.040,0.000,0.000,0.000
1644362275409111040,2022-02-08-23:17:55,10.1.1.10,38,-0.050,-0.050,-0.050,0.000,0.000,0.000
1644362275511912192,2022-02-08-23:17:55,10.1.1.10,37,-0.060,-0.060,-0.060,0.000,0.000,0.000
1644362275609693952,2022-02-08-23:17:55,10.1.1.10,36,-0.070,-0.070,-0.070,0.000,0.000,0.000
1644362275710256128,2022-02-08-23:17:55,10.1.1.10,35,-0.080,-0.080,-0.080,0.000,0.000,0.000
1644362275808704000,2022-02-08-23:17:55,10.1.1.10,34,-0.090,-0.090,-0.090,0.000,0.000,0.000
1644362275909876992,2022-02-08-23:17:55,10.1.1.10,33,-0.100,-0.100,-0.100,0.000,0.000,0.000
1644362276009660928,2022-02-08-23:17:56,10.1.1.10,32,-0.090,-0.090,-0.090,0.000,0.000,0.000
1644362276408896000,2022-02-08-23:17:56,10.1.1.10,29,-0.050,-0.050,-0.050,0.000,0.000,0.000
1644362276509790976,2022-02-08-23:17:56,10.1.1.10,29,-0.040,-0.040,-0.040,0.000,0.000,0.000
1644362276608992000,2022-02-08-23:17:56,10.1.1.10,28,-0.030,-0.030,-0.030,0.000,0.000,0.000
1644362276708934912,2022-02-08-23:17:56,10.1.1.10,27,-0.020,-0.020,-0.020,0.000,0.000,0.000
1644362276808904960,2022-02-08-23:17:56,10.1.1.10,25,-0.010,-0.010,-0.010,0.000,0.000,0.000
1644362276908977152,2022-02-08-23:17:56,10.1.1.10,25,0.000,0.000,0.000,0.000,0.000,0.000
1644362277009534976,2022-02-08-23:17:57,10.1.1.10,24,0.010,0.010,0.010,0.000,0.000,0.000
1644362277110523904,2022-02-08-23:17:57,10.1.1.10,24,0.020,0.020,0.020,0.000,0.000,0.000
1644362277208638976,2022-02-08-23:17:57,10.1.1.10,23,0.030,0.030,0.030,0.000,0.000,0.000
1644362277308620032,2022-02-08-23:17:57,10.1.1.10,23,0.040,0.040,0.040,0.000,0.000,0.000
1644362277828683008,2022-02-08-23:17:57,10.1.1.10,39,0.090,0.090,0.090,0.000,0.000,0.000
1644362277929478912,2022-02-08-23:17:57,10.1.1.10,36,0.100,0.100,0.100,0.000,0.000,0.000
1644362278028583168,2022-02-08-23:17:58,10.1.1.10,36,0.090,0.090,0.090,0.000,0.000,0.000
1644362278129614080,2022-02-08-23:17:58,10.1.1.10,35,0.080,0.080,0.080,0.000,0.000,0.000
1644362278228684800,2022-02-08-23:17:58,10.1.1.10,35,0.070,0.070,0.070,0.000,0.000,0.000
1644362278328686080,2022-02-08-23:17:58,10.1.1.10,34,0.060,0.060,0.060,0.000,0.000,0.000
1644362278428980224,2022-02-08-23:17:58,10.1.1.10,33,0.050,0.050,0.050,0.000,0.000,0.000
1644362278529648128,2022-02-08-23:17:58,10.1.1.10,32,0.040,0.040,0.040,0.000,0.000,0.000
1644362278628961024,2022-02-08-23:17:58,10.1.1.10,32,0.030,0.030,0.030,0.000,0.000,0.000
1644362278928878080,2022-02-08-23:17:58,10.1.1.10,29,0.000,0.000,0.000,0.000,0.000,0.000
1644362279029458944,2022-02-08-23:17:59,10.1.1.10,28,-0.010,-0.010,-0.010,0.000,0.000,0.000
1644362279128918016,2022-02-08-23:17:59,10.1.1.10,27,-0.020,-0.020,-0.020,0.000,0.000,0.000
1644362279228905984,2022-02-08-23:17:59,10.1.1.10,26,-0.030,-0.030,-0.030,0.000,0.000,0.000
1644362279329654016,2022-02-08-23:17:59,10.1.1.10,25,-0.040,-0.040,-0.040,0.000,0.000,0.000
1644362279429101056,2022-02-08-23:17:59,10.1.1.10,24,-0.050,-0.050,-0.050,0.000,0.000,0.000
1644362279529437184,2022-02-08-23:17:59,10.1.1.10,24,-0.060,-0.060,-0.060,0.000,0.000,0.000
1644362279629153024,2022-02-08-23:17:59,10.1.1.10,24,-0.070,-0.070,-0.070,0.000,0.000,0.000
1644362279729165056,2022-02-08-23:17:59,10.1.1.10,23,-0.080,-0.080,-0.080,0.000,0.000,0.000
1644362280112246016,2022-02-08-23:18:00,10.1.1.10,0,-0.080,-0.080,-0.080,0.000,0.000,0.000
1644362280249478144,2022-02-08-23:18:00,10.1.1.10,39,-0.070,-0.070,-0.070,0.000,0.000,0.000
1644362280349484032,2022-02-08-23:18:00,10.1.1.10,37,-0.060,-0.060,-0.060,0.000,0.000,0.000
1644362280449282048,2022-02-08-23:18:00,10.1.1.10,36,-0.050,-0.050,-0.050,0.000,0.000,0.000
1644362280549303040,2022-02-08-23:18:00,10.1.1.10,35,-0.040,-0.040,-0.040,0.000,0.000,0.000
1644362280649570816,2022-02-08-23:18:00,10.1.1.10,35,-0.030,-0.030,-0.030,0.000,0.000,0.000
1644362280749417984,2022-02-08-23:18:00,10.1.1.10,34,-0.020,-0.020,-0.020,0.000,0.000,0.000
1644362280849378048,2022-02-08-23:18:00,10.1.1.10,33,-0.010,-0.010,-0.010,0.000,0.000,0.000
1644362280951384064,2022-02-08-23:18:00,10.1.1.10,32,0.000,0.000,0.000,0.000,0.000,0.000
1644362281048739840,2022-02-08-23:18:01,10.1.1.10,32,0.010,0.010,0.010,0.000,0.000,0.000
1644362281550033920,2022-02-08-23:18:01,10.1.1.10,29,0.060,0.060,0.060,0.000,0.000,0.000
1644362281651052032,2022-02-08-23:18:01,10.1.1.10,28,0.070,0.070,0.070,0.000,0.000,0.000
1644362281749522944,2022-02-08-23:18:01,10.1.1.10,27,0.080,0.080,0.080,0.000,0.000,0.000
1644362281852869888,2022-02-08-23:18:01,10.1.1.10,26,0.090,0.090,0.090,0.000,0.000,0.000
1644362281949389056,2022-02-08-23:18:01,10.1.1.10,25,0.100,0.100,0.100,0.000,0.000,0.000
1644362282089435136,2022-02-08-23:18:02,10.1.1.10,35,0.090,0.090,0.090,0.000,0.000,0.000
1644362282189363968,2022-02-08-23:18:02,10.1.1.10,34,0.080,0.080,0.080,0.000,0.000,0.000
1644362282292368896,2022-02-08-23:18:02,10.1.1.10,34,0.070,0.070,0.070,0.000,0.000,0.000
1644362282389293824,2022-02-08-23:18:02,10.1.1.10,33,0.060,0.060,0.060,0.000,0.000,0.000
1644362282489382912,2022-02-08-23:18:02,10.1.1.10,33,0.050,0.050,0.050,0.000,0.000,0.000
1644362282589158912,2022-02-08-23:18:02,10.1.1.10,33,0.040,0.040,0.040,0.000,0.000,0.000
1644362282689475072,2022-02-08-23:18:02,10.1.1.10,32,0.030,0.030,0.030,0.000,0.000,0.000
1644362282889405952,2022-02-08-23:18:02,10.1.1.10,29,0.010,0.010,0.010,0.000,0.000,0.000
1644362282990048000,2022-02-08-23:18:02,10.1.1.10,28,0.000,0.000,0.000,0.000,0.000,0.000
1644362283090097920,2022-02-08-23:18:03,10.1.1.10,27,-0.010,-0.010,-0.010,0.000,0.000,0.000
1644362283190354176,2022-02-08-23:18:03,10.1.1.10,25,-0.020,-0.020,-0.020,0.000,0.000,0.000
1644362283289434880,2022-02-08-23:18:03,10.1.1.10,25,-0.030,-0.030,-0.030,0.000,0.000,0.000
1644362283389750016,2022-02-08-23:18:03,10.1.1.10,24,-0.040,-0.040,-0.040,0.000,0.000,0.000
1644362283489580032,2022-02-08-23:18:03,10.1.1.10,23,-0.050,-0.050,-0.050,0.000,0.000,0.000
1644362283809499136,2022-02-08-23:18:03,10.1.1.10,40,-0.080,-0.080,-0.080,0.000,0.000,0.000
1644362283909454080,2022-02-08-23:18:03,10.1.1.10,38,-0.090,-0.090,-0.090,0.000,0.000,0.000
1644362284009111040,2022-02-08-23:18:04,10.1.1.10,37,-0.100,-0.100,-0.100,0.000,0.000,0.000
1644362284109396992,2022-02-08-23:18:04,10.1.1.10,36,-0.090,-0.090,-0.090,0.000,0.000,0.000
1644362284210375168,2022-02-08-23:18:04,10.1.1.10,35,-0.080,-0.080,-0.080,0.000,0.000,0.000
1644362284309811968,2022-02-08-23:18:04,10.1.1.10,34,-0.070,-0.070,-0.070,0.000,0.000,0.000
1644362284409487104,2022-02-08-23:18:04,10.1.1.10,33,-0.060,-0.060,-0.060,0.000,0.000,0.000
1644362284509459968,2022-02-08-23:18:04,10.1.1.10,33,-0.050,-0.050,-0.050,0.000,0.000,0.000
1644362284609029888,2022-02-08-23:18:04,10.1.1.10,32,-0.040,-0.040,-0.040,0.000,0.000,0.000
1644362284910140928,2022-02-08-23:18:04,10.1.1.10,27,-0.010,-0.010,-0.010,0.000,0.000,0.000
1644362285009701120,2022-02-08-23:18:05,10.1.1.10,27,0.000,0.000,0.000,0.000,0.000,0.000
1644362285109286144,2022-02-08-23:18:05,10.1.1.10,26,0.010,0.010,0.010,0.000,0.000,0.000
1644362285209686016,2022-02-08-23:18:05,10.1.1.10,25,0.020,0.020,0.020,0.000,0.000,0.000
1644362285308914944,2022-02-08-23:18:05,10.1.1.10,25,0.030,0.030,0.030,0.000,0.000,0.000
1644362285409508864,2022-02-08-23:18:05,10.1.1.10,23,0.040,0.040,0.040,0.000,0.000,0.000
1644362285549652992,2022-02-08-23:18:05,10.1.1.10,33,0.050,0.050,0.050,0.000,0.000,0.000
1644362285649969152,2022-02-08-23:18:05,10.1.1.10,32,0.060,0.060,0.060,0.000,0.000,0.000
1644362285949443072,2022-02-08-23:18:05,10.1.1.10,29,0.090,0.090,0.090,0.000,0.000,0.000
1644362286049820928,2022-02-08-23:18:06,10.1.1.10,29,0.100,0.100,0.100,0.000,0.000,0.000
1644362286149725952,2022-02-08-23:18:06,10.1.1.10,27,0.090,0.090,0.090,0.000,0.000,0.000
1644362286248944896,2022-02-08-23:18:06,10.1.1.10,26,0.080,0.080,0.080,0.000,0.000,0.000
