FedericoMungari/DigitalTwin_service/01_WiredScenario/Output/Output_script/script_rosapi_2_subcommandoutput_robots2_freq0_1.txt
timestamp,date,node,latency,joint_1,joint_2,joint_3,joint_4,joint_5,joint_6
1643876895781328896,2022-02-03-08:28:15,10.1.1.2,6,-0.049,-0.041,-0.068,0.000,0.000,0.000
1643876895992064000,2022-02-03-08:28:15,10.1.1.2,17,-0.102,-0.102,-0.102,0.000,0.000,0.000
1643876896193254912,2022-02-03-08:28:16,10.1.1.2,17,-0.150,-0.150,-0.150,0.000,0.000,0.000
1643876896394174976,2022-02-03-08:28:16,10.1.1.2,17,-0.200,-0.200,-0.150,0.000,0.000,0.000
1643876896592498944,2022-02-03-08:28:16,10.1.1.2,14,-0.249,-0.249,-0.150,0.000,0.000,0.000
1643876896784467968,2022-02-03-08:28:16,10.1.1.2,5,-0.296,-0.296,-0.150,0.000,0.000,0.000
1643876896993155840,2022-02-03-08:28:16,10.1.1.2,12,-0.350,-0.350,-0.150,0.000,0.000,0.000
1643876897183664128,2022-02-03-08:28:17,10.1.1.2,1,-0.395,-0.395,-0.150,0.000,0.000,0.000
1643876897394306048,2022-02-03-08:28:17,10.1.1.2,8,-0.450,-0.400,-0.150,0.000,0.000,0.000
1643876897592870912,2022-02-03-08:28:17,10.1.1.2,6,-0.500,-0.400,-0.150,0.000,0.000,0.000
1643876897794522112,2022-02-03-08:28:17,10.1.1.2,7,-0.550,-0.400,-0.150,0.000,0.000,0.000
1643876897992809984,2022-02-03-08:28:17,10.1.1.2,4,-0.599,-0.400,-0.150,0.000,0.000,0.000
1643876898195479040,2022-02-03-08:28:18,10.1.1.2,6,-0.644,-0.400,-0.150,0.000,0.000,0.000
1643876898395534080,2022-02-03-08:28:18,10.1.1.2,1,-0.699,-0.400,-0.150,0.000,0.000,0.000
1643876898623902208,2022-02-03-08:28:18,10.1.1.2,26,-0.750,-0.400,-0.150,0.000,0.000,0.000
1643876898815529984,2022-02-03-08:28:18,10.1.1.2,18,-0.800,-0.400,-0.150,0.000,0.000,0.000
1643876899015602944,2022-02-03-08:28:19,10.1.1.2,17,-0.850,-0.400,-0.150,0.000,0.000,0.000
1643876899216009984,2022-02-03-08:28:19,10.1.1.2,17,-0.902,-0.400,-0.150,0.000,0.000,0.000
1643876899415374080,2022-02-03-08:28:19,10.1.1.2,15,-0.950,-0.400,-0.150,0.000,0.000,0.000
1643876899618278912,2022-02-03-08:28:19,10.1.1.2,17,-1.000,-0.400,-0.150,0.000,0.000,0.000
1643876899815431168,2022-02-03-08:28:19,10.1.1.2,12,-1.050,-0.400,-0.150,0.000,0.000,0.000
1643876900026187008,2022-02-03-08:28:20,10.1.1.2,22,-1.100,-0.400,-0.150,0.000,0.000,0.000
1643876900211220992,2022-02-03-08:28:20,10.1.1.2,5,-1.142,-0.400,-0.150,0.000,0.000,0.000
1643876900420972032,2022-02-03-08:28:20,10.1.1.2,14,-1.200,-0.400,-0.150,0.000,0.000,0.000
1643876900619424000,2022-02-03-08:28:20,10.1.1.2,12,-1.250,-0.400,-0.150,0.000,0.000,0.000
1643876900819070208,2022-02-03-08:28:20,10.1.1.2,11,-1.300,-0.400,-0.150,0.000,0.000,0.000
1643876901020196864,2022-02-03-08:28:21,10.1.1.2,11,-1.350,-0.400,-0.150,0.000,0.000,0.000
1643876901217814016,2022-02-03-08:28:21,10.1.1.2,8,-1.400,-0.400,-0.150,0.000,0.000,0.000
1643876901418471168,2022-02-03-08:28:21,10.1.1.2,8,-1.450,-0.400,-0.150,0.000,0.000,0.000
1643876901617414912,2022-02-03-08:28:21,10.1.1.2,5,-1.499,-0.400,-0.150,0.000,0.000,0.000
1643876901818377984,2022-02-03-08:28:21,10.1.1.2,5,-1.550,-0.400,-0.150,0.000,0.000,0.000
1643876902032617216,2022-02-03-08:28:22,10.1.1.2,18,-1.600,-0.400,-0.150,0.000,0.000,0.000
1643876902219610880,2022-02-03-08:28:22,10.1.1.2,4,-1.639,-0.400,-0.150,0.000,0.000,0.000
1643876902418690816,2022-02-03-08:28:22,10.1.1.2,3,-1.699,-0.400,-0.150,0.000,0.000,0.000
1643876902619145984,2022-02-03-08:28:22,10.1.1.2,1,-1.749,-0.400,-0.150,0.000,0.000,0.000
1643876902823398144,2022-02-03-08:28:22,10.1.1.2,1,-1.750,-0.400,-0.150,0.000,0.000,0.000
1643876903038921216,2022-02-03-08:28:23,10.1.1.2,15,-1.700,-0.450,-0.200,0.000,0.000,0.000
1643876903239708928,2022-02-03-08:28:23,10.1.1.2,14,-1.650,-0.500,-0.250,0.000,0.000,0.000
1643876903429995008,2022-02-03-08:28:23,10.1.1.2,4,-1.601,-0.549,-0.299,0.000,0.000,0.000
1643876903644615936,2022-02-03-08:28:23,10.1.1.2,17,-1.550,-0.600,-0.350,0.000,0.000,0.000
1643876903840285952,2022-02-03-08:28:23,10.1.1.2,12,-1.500,-0.650,-0.400,0.000,0.000,0.000
1643876904035144960,2022-02-03-08:28:24,10.1.1.2,5,-1.452,-0.698,-0.448,0.000,0.000,0.000
1643876904241272064,2022-02-03-08:28:24,10.1.1.2,9,-1.400,-0.750,-0.500,0.000,0.000,0.000
1643876904436512000,2022-02-03-08:28:24,10.1.1.2,5,-1.351,-0.799,-0.549,0.000,0.000,0.000
1643876904637968128,2022-02-03-08:28:24,10.1.1.2,5,-1.302,-0.848,-0.598,0.000,0.000,0.000
1643876904836371968,2022-02-03-08:28:24,10.1.1.2,3,-1.252,-0.898,-0.648,0.000,0.000,0.000
1643876905036942080,2022-02-03-08:28:25,10.1.1.2,1,-1.202,-0.948,-0.650,0.000,0.000,0.000
1643876905258310144,2022-02-03-08:28:25,10.1.1.2,19,-1.150,-0.950,-0.650,0.000,0.000,0.000
1643876905455419136,2022-02-03-08:28:25,10.1.1.2,15,-1.100,-0.950,-0.650,0.000,0.000,0.000
1643876905658704896,2022-02-03-08:28:25,10.1.1.2,17,-1.050,-0.950,-0.650,0.000,0.000,0.000
1643876905858652160,2022-02-03-08:28:25,10.1.1.2,13,-1.000,-0.950,-0.650,0.000,0.000,0.000
1643876906059019008,2022-02-03-08:28:26,10.1.1.2,12,-0.950,-0.950,-0.650,0.000,0.000,0.000
1643876906258422016,2022-02-03-08:28:26,10.1.1.2,9,-0.900,-0.950,-0.650,0.000,0.000,0.000
1643876906458476032,2022-02-03-08:28:26,10.1.1.2,8,-0.850,-0.950,-0.650,0.000,0.000,0.000
1643876906656054016,2022-02-03-08:28:26,10.1.1.2,4,-0.803,-0.950,-0.650,0.000,0.000,0.000
1643876906855799808,2022-02-03-08:28:26,10.1.1.2,2,-0.800,-0.950,-0.650,0.000,0.000,0.000
1643876907075218944,2022-02-03-08:28:27,10.1.1.2,21,-0.800,-0.900,-0.600,0.000,0.000,0.000
1643876907279161088,2022-02-03-08:28:27,10.1.1.2,24,-0.800,-0.849,-0.550,0.000,0.000,0.000
1643876907474263808,2022-02-03-08:28:27,10.1.1.2,18,-0.800,-0.800,-0.550,0.000,0.000,0.000
1643876907673816832,2022-02-03-08:28:27,10.1.1.2,16,-0.800,-0.750,-0.550,0.000,0.000,0.000
1643876907874389760,2022-02-03-08:28:27,10.1.1.2,15,-0.800,-0.700,-0.550,0.000,0.000,0.000
1643876908075678208,2022-02-03-08:28:28,10.1.1.2,15,-0.800,-0.650,-0.550,0.000,0.000,0.000
1643876908273610240,2022-02-03-08:28:28,10.1.1.2,12,-0.800,-0.600,-0.550,0.000,0.000,0.000
1643876908473746176,2022-02-03-08:28:28,10.1.1.2,11,-0.800,-0.550,-0.550,0.000,0.000,0.000
1643876908668507136,2022-02-03-08:28:28,10.1.1.2,5,-0.800,-0.505,-0.550,0.000,0.000,0.000
1643876908873070848,2022-02-03-08:28:28,10.1.1.2,8,-0.800,-0.450,-0.550,0.000,0.000,0.000
1643876909073842176,2022-02-03-08:28:29,10.1.1.2,7,-0.800,-0.400,-0.550,0.000,0.000,0.000
1643876909273747968,2022-02-03-08:28:29,10.1.1.2,6,-0.800,-0.351,-0.550,0.000,0.000,0.000
1643876909475238912,2022-02-03-08:28:29,10.1.1.2,3,-0.800,-0.301,-0.550,0.000,0.000,0.000
1643876909676933888,2022-02-03-08:28:29,10.1.1.2,3,-0.800,-0.252,-0.550,0.000,0.000,0.000
1643876909897238016,2022-02-03-08:28:29,10.1.1.2,20,-0.800,-0.200,-0.550,0.000,0.000,0.000
1643876910095685888,2022-02-03-08:28:30,10.1.1.2,16,-0.800,-0.150,-0.550,0.000,0.000,0.000
1643876910297192192,2022-02-03-08:28:30,10.1.1.2,17,-0.800,-0.100,-0.550,0.000,0.000,0.000
1643876910494957824,2022-02-03-08:28:30,10.1.1.2,13,-0.800,-0.100,-0.550,0.000,0.000,0.000
1643876910689108992,2022-02-03-08:28:30,10.1.1.2,6,-0.846,-0.146,-0.504,0.000,0.000,0.000
1643876910890156032,2022-02-03-08:28:30,10.1.1.2,5,-0.894,-0.194,-0.456,0.000,0.000,0.000
1643876911095640832,2022-02-03-08:28:31,10.1.1.2,6,-0.949,-0.249,-0.401,0.000,0.000,0.000
1643876911309651968,2022-02-03-08:28:31,10.1.1.2,19,-1.000,-0.300,-0.350,0.000,0.000,0.000
1643876911499938048,2022-02-03-08:28:31,10.1.1.2,8,-1.050,-0.350,-0.300,0.000,0.000,0.000
1643876911699783936,2022-02-03-08:28:31,10.1.1.2,4,-1.100,-0.400,-0.250,0.000,0.000,0.000
1643876911902405120,2022-02-03-08:28:31,10.1.1.2,6,-1.146,-0.446,-0.204,0.000,0.000,0.000
1643876912101649152,2022-02-03-08:28:32,10.1.1.2,3,-1.198,-0.498,-0.152,0.000,0.000,0.000
1643876912316733952,2022-02-03-08:28:32,10.1.1.2,18,-1.250,-0.551,-0.099,0.000,0.000,0.000
1643876912517527040,2022-02-03-08:28:32,10.1.1.2,17,-1.250,-0.600,-0.050,0.000,0.000,0.000
1643876912717211136,2022-02-03-08:28:32,10.1.1.2,15,-1.250,-0.650,-0.000,0.000,0.000,0.000
1643876912917136896,2022-02-03-08:28:32,10.1.1.2,15,-1.250,-0.700,-0.000,0.000,0.000,0.000
1643876913117052928,2022-02-03-08:28:33,10.1.1.2,12,-1.250,-0.750,-0.000,0.000,0.000,0.000
1643876913316561920,2022-02-03-08:28:33,10.1.1.2,11,-1.250,-0.800,-0.000,0.000,0.000,0.000
1643876913515203072,2022-02-03-08:28:33,10.1.1.2,8,-1.250,-0.850,-0.000,0.000,0.000,0.000
1643876913715374080,2022-02-03-08:28:33,10.1.1.2,8,-1.250,-0.900,-0.000,0.000,0.000,0.000
1643876913910765824,2022-02-03-08:28:33,10.1.1.2,1,-1.250,-0.948,-0.000,0.000,0.000,0.000
1643876914130891008,2022-02-03-08:28:34,10.1.1.2,20,-1.250,-1.000,-0.000,0.000,0.000,0.000
1643876914331081984,2022-02-03-08:28:34,10.1.1.2,19,-1.250,-1.050,-0.000,0.000,0.000,0.000
1643876914518022144,2022-02-03-08:28:34,10.1.1.2,5,-1.250,-1.098,-0.000,0.000,0.000,0.000
1643876914719508992,2022-02-03-08:28:34,10.1.1.2,6,-1.250,-1.149,-0.000,0.000,0.000,0.000
1643876914932403200,2022-02-03-08:28:34,10.1.1.2,18,-1.250,-1.200,-0.000,0.000,0.000,0.000
1643876915131771136,2022-02-03-08:28:35,10.1.1.2,16,-1.250,-1.250,-0.000,0.000,0.000,0.000
1643876915332382976,2022-02-03-08:28:35,10.1.1.2,16,-1.250,-1.300,-0.000,0.000,0.000,0.000
1643876915533667072,2022-02-03-08:28:35,10.1.1.2,16,-1.250,-1.350,-0.000,0.000,0.000,0.000
1643876915733971200,2022-02-03-08:28:35,10.1.1.2,16,-1.250,-1.400,-0.000,0.000,0.000,0.000
1643876915932174848,2022-02-03-08:28:35,10.1.1.2,13,-1.250,-1.450,-0.000,0.000,0.000,0.000
1643876916131442944,2022-02-03-08:28:36,10.1.1.2,11,-1.250,-1.450,-0.000,0.000,0.000,0.000
1643876916332015104,2022-02-03-08:28:36,10.1.1.2,11,-1.200,-1.400,0.050,0.000,0.000,0.000
1643876916531559936,2022-02-03-08:28:36,10.1.1.2,9,-1.150,-1.350,0.100,0.000,0.000,0.000
1643876916734686976,2022-02-03-08:28:36,10.1.1.2,11,-1.100,-1.300,0.100,0.000,0.000,0.000
1643876916936795904,2022-02-03-08:28:36,10.1.1.2,12,-1.050,-1.250,0.100,0.000,0.000,0.000
1643876917136864000,2022-02-03-08:28:37,10.1.1.2,10,-1.000,-1.200,0.100,0.000,0.000,0.000
1643876917337779968,2022-02-03-08:28:37,10.1.1.2,9,-0.950,-1.150,0.100,0.000,0.000,0.000
1643876917542098944,2022-02-03-08:28:37,10.1.1.2,13,-0.900,-1.100,0.100,0.000,0.000,0.000
1643876917735568128,2022-02-03-08:28:37,10.1.1.2,6,-0.850,-1.050,0.100,0.000,0.000,0.000
1643876917935860992,2022-02-03-08:28:37,10.1.1.2,5,-0.800,-1.000,0.100,0.000,0.000,0.000
1643876918136489984,2022-02-03-08:28:38,10.1.1.2,5,-0.751,-0.951,0.100,0.000,0.000,0.000
1643876918336396032,2022-02-03-08:28:38,10.1.1.2,4,-0.701,-0.901,0.100,0.000,0.000,0.000
1643876918538763008,2022-02-03-08:28:38,10.1.1.2,6,-0.651,-0.851,0.100,0.000,0.000,0.000
1643876918739109120,2022-02-03-08:28:38,10.1.1.2,5,-0.600,-0.800,0.100,0.000,0.000,0.000
1643876918938595072,2022-02-03-08:28:38,10.1.1.2,3,-0.551,-0.751,0.100,0.000,0.000,0.000
1643876919140233984,2022-02-03-08:28:39,10.1.1.2,4,-0.502,-0.702,0.100,0.000,0.000,0.000
1643876919338614016,2022-02-03-08:28:39,10.1.1.2,2,-0.452,-0.652,0.100,0.000,0.000,0.000
1643876919539546112,2022-02-03-08:28:39,10.1.1.2,2,-0.402,-0.602,0.100,0.000,0.000,0.000
1643876919759866880,2022-02-03-08:28:39,10.1.1.2,16,-0.350,-0.550,0.100,0.000,0.000,0.000
1643876919957801216,2022-02-03-08:28:39,10.1.1.2,12,-0.300,-0.550,0.100,0.000,0.000,0.000
1643876920160843008,2022-02-03-08:28:40,10.1.1.2,13,-0.250,-0.550,0.100,0.000,0.000,0.000
1643876920358875136,2022-02-03-08:28:40,10.1.1.2,10,-0.250,-0.550,0.100,0.000,0.000,0.000
1643876920558407936,2022-02-03-08:28:40,10.1.1.2,9,-0.300,-0.500,0.050,0.000,0.000,0.000
1643876920759119872,2022-02-03-08:28:40,10.1.1.2,9,-0.350,-0.450,0.000,0.000,0.000,0.000
1643876920958149888,2022-02-03-08:28:40,10.1.1.2,7,-0.400,-0.450,-0.050,0.000,0.000,0.000
1643876921158091008,2022-02-03-08:28:41,10.1.1.2,6,-0.450,-0.450,-0.100,0.000,0.000,0.000
1643876921357742080,2022-02-03-08:28:41,10.1.1.2,5,-0.499,-0.450,-0.149,0.000,0.000,0.000
1643876921559240192,2022-02-03-08:28:41,10.1.1.2,3,-0.549,-0.450,-0.150,0.000,0.000,0.000
1643876921760020992,2022-02-03-08:28:41,10.1.1.2,2,-0.598,-0.450,-0.150,0.000,0.000,0.000
1643876921979078912,2022-02-03-08:28:41,10.1.1.2,19,-0.652,-0.450,-0.150,0.000,0.000,0.000
1643876922179369984,2022-02-03-08:28:42,10.1.1.2,19,-0.700,-0.450,-0.150,0.000,0.000,0.000
1643876922379631104,2022-02-03-08:28:42,10.1.1.2,18,-0.752,-0.450,-0.150,0.000,0.000,0.000
1643876922579420160,2022-02-03-08:28:42,10.1.1.2,17,-0.800,-0.450,-0.150,0.000,0.000,0.000
1643876922778882048,2022-02-03-08:28:42,10.1.1.2,15,-0.850,-0.450,-0.150,0.000,0.000,0.000
1643876922981283072,2022-02-03-08:28:42,10.1.1.2,16,-0.900,-0.450,-0.150,0.000,0.000,0.000
1643876923176470016,2022-02-03-08:28:43,10.1.1.2,6,-0.949,-0.450,-0.150,0.000,0.000,0.000
1643876923379722240,2022-02-03-08:28:43,10.1.1.2,8,-1.000,-0.450,-0.150,0.000,0.000,0.000
1643876923581374976,2022-02-03-08:28:43,10.1.1.2,8,-1.050,-0.450,-0.150,0.000,0.000,0.000
1643876923775768064,2022-02-03-08:28:43,10.1.1.2,2,-1.097,-0.450,-0.150,0.000,0.000,0.000
1643876923979776000,2022-02-03-08:28:43,10.1.1.2,5,-1.149,-0.450,-0.150,0.000,0.000,0.000
1643876924180808960,2022-02-03-08:28:44,10.1.1.2,4,-1.199,-0.450,-0.150,0.000,0.000,0.000
1643876924378817024,2022-02-03-08:28:44,10.1.1.2,2,-1.248,-0.450,-0.150,0.000,0.000,0.000
1643876924579078912,2022-02-03-08:28:44,10.1.1.2,0,-1.298,-0.450,-0.150,0.000,0.000,0.000
1643876924806864128,2022-02-03-08:28:44,10.1.1.2,27,-1.350,-0.450,-0.150,0.000,0.000,0.000
1643876924994062848,2022-02-03-08:28:44,10.1.1.2,13,-1.400,-0.450,-0.150,0.000,0.000,0.000
1643876925191670016,2022-02-03-08:28:45,10.1.1.2,9,-1.450,-0.450,-0.150,0.000,0.000,0.000
1643876925392505856,2022-02-03-08:28:45,10.1.1.2,9,-1.500,-0.450,-0.150,0.000,0.000,0.000
1643876925592397824,2022-02-03-08:28:45,10.1.1.2,8,-1.550,-0.450,-0.150,0.000,0.000,0.000
1643876925795144192,2022-02-03-08:28:45,10.1.1.2,3,-1.600,-0.450,-0.150,0.000,0.000,0.000
1643876925998125056,2022-02-03-08:28:45,10.1.1.2,3,-1.649,-0.450,-0.150,0.000,0.000,0.000
1643876926215858944,2022-02-03-08:28:46,10.1.1.2,19,-1.700,-0.450,-0.150,0.000,0.000,0.000
1643876926418188032,2022-02-03-08:28:46,10.1.1.2,20,-1.750,-0.450,-0.150,0.000,0.000,0.000
1643876926622061056,2022-02-03-08:28:46,10.1.1.2,14,-1.750,-0.450,-0.150,0.000,0.000,0.000
1643876926820784128,2022-02-03-08:28:46,10.1.1.2,12,-1.700,-0.500,-0.200,0.000,0.000,0.000
1643876927011683840,2022-02-03-08:28:47,10.1.1.2,2,-1.651,-0.549,-0.249,0.000,0.000,0.000
1643876927214529024,2022-02-03-08:28:47,10.1.1.2,2,-1.602,-0.598,-0.298,0.000,0.000,0.000
1643876927415287040,2022-02-03-08:28:47,10.1.1.2,2,-1.564,-0.636,-0.336,0.000,0.000,0.000
1643876927633558016,2022-02-03-08:28:47,10.1.1.2,18,-1.500,-0.700,-0.400,0.000,0.000,0.000
1643876927838159104,2022-02-03-08:28:47,10.1.1.2,20,-1.449,-0.751,-0.451,0.000,0.000,0.000
1643876928025676032,2022-02-03-08:28:48,10.1.1.2,2,-1.405,-0.795,-0.495,0.000,0.000,0.000
1643876928228765952,2022-02-03-08:28:48,10.1.1.2,3,-1.356,-0.844,-0.544,0.000,0.000,0.000
1643876928447772928,2022-02-03-08:28:48,10.1.1.2,21,-1.300,-0.900,-0.600,0.000,0.000,0.000
1643876928637876992,2022-02-03-08:28:48,10.1.1.2,9,-1.250,-0.950,-0.650,0.000,0.000,0.000
1643876928834938112,2022-02-03-08:28:48,10.1.1.2,4,-1.200,-0.950,-0.650,0.000,0.000,0.000
1643876929033609984,2022-02-03-08:28:49,10.1.1.2,1,-1.151,-0.950,-0.650,0.000,0.000,0.000
1643876929236399872,2022-02-03-08:28:49,10.1.1.2,2,-1.102,-0.950,-0.650,0.000,0.000,0.000
1643876929455421952,2022-02-03-08:28:49,10.1.1.2,20,-1.050,-0.950,-0.650,0.000,0.000,0.000
1643876929654503168,2022-02-03-08:28:49,10.1.1.2,18,-1.000,-0.950,-0.650,0.000,0.000,0.000
1643876929857694976,2022-02-03-08:28:49,10.1.1.2,20,-0.950,-0.950,-0.650,0.000,0.000,0.000
1643876930055075840,2022-02-03-08:28:50,10.1.1.2,17,-0.900,-0.950,-0.650,0.000,0.000,0.000
1643876930255436800,2022-02-03-08:28:50,10.1.1.2,16,-0.850,-0.950,-0.650,0.000,0.000,0.000
1643876930468254208,2022-02-03-08:28:50,10.1.1.2,28,-0.800,-0.950,-0.650,0.000,0.000,0.000
1643876930654184192,2022-02-03-08:28:50,10.1.1.2,12,-0.800,-0.950,-0.650,0.000,0.000,0.000
1643876930855035904,2022-02-03-08:28:50,10.1.1.2,12,-0.850,-0.900,-0.600,0.000,0.000,0.000
1643876931059080960,2022-02-03-08:28:51,10.1.1.2,15,-0.900,-0.850,-0.550,0.000,0.000,0.000
1643876931254829056,2022-02-03-08:28:51,10.1.1.2,10,-0.950,-0.800,-0.500,0.000,0.000,0.000
1643876931457483008,2022-02-03-08:28:51,10.1.1.2,12,-1.000,-0.750,-0.450,0.000,0.000,0.000
1643876931655781120,2022-02-03-08:28:51,10.1.1.2,9,-1.050,-0.700,-0.400,0.000,0.000,0.000
1643876931855968000,2022-02-03-08:28:51,10.1.1.2,6,-1.099,-0.651,-0.351,0.000,0.000,0.000
1643876932057911040,2022-02-03-08:28:52,10.1.1.2,6,-1.149,-0.601,-0.301,0.000,0.000,0.000
1643876932254921984,2022-02-03-08:28:52,10.1.1.2,2,-1.195,-0.555,-0.255,0.000,0.000,0.000
1643876932475343872,2022-02-03-08:28:52,10.1.1.2,20,-1.250,-0.500,-0.250,0.000,0.000,0.000
1643876932663064832,2022-02-03-08:28:52,10.1.1.2,8,-1.297,-0.453,-0.250,0.000,0.000,0.000
1643876932875778048,2022-02-03-08:28:52,10.1.1.2,19,-1.351,-0.450,-0.250,0.000,0.000,0.000
1643876933062330112,2022-02-03-08:28:53,10.1.1.2,5,-1.397,-0.450,-0.250,0.000,0.000,0.000
1643876933275111936,2022-02-03-08:28:53,10.1.1.2,17,-1.450,-0.450,-0.250,0.000,0.000,0.000
1643876933474777088,2022-02-03-08:28:53,10.1.1.2,16,-1.500,-0.450,-0.250,0.000,0.000,0.000
1643876933673789952,2022-02-03-08:28:53,10.1.1.2,13,-1.550,-0.450,-0.250,0.000,0.000,0.000
1643876933874577920,2022-02-03-08:28:53,10.1.1.2,14,-1.600,-0.450,-0.250,0.000,0.000,0.000
1643876934074310912,2022-02-03-08:28:54,10.1.1.2,12,-1.650,-0.450,-0.250,0.000,0.000,0.000
1643876934278253056,2022-02-03-08:28:54,10.1.1.2,15,-1.700,-0.450,-0.250,0.000,0.000,0.000
1643876934473336832,2022-02-03-08:28:54,10.1.1.2,10,-1.750,-0.450,-0.250,0.000,0.000,0.000
1643876934669339904,2022-02-03-08:28:54,10.1.1.2,4,-1.750,-0.450,-0.250,0.000,0.000,0.000
1643876934880876032,2022-02-03-08:28:54,10.1.1.2,14,-1.700,-0.400,-0.300,0.000,0.000,0.000
1643876935078957056,2022-02-03-08:28:55,10.1.1.2,11,-1.650,-0.350,-0.350,0.000,0.000,0.000
1643876935275810048,2022-02-03-08:28:55,10.1.1.2,7,-1.600,-0.300,-0.400,0.000,0.000,0.000
1643876935508222208,2022-02-03-08:28:55,10.1.1.2,38,-1.550,-0.250,-0.450,0.000,0.000,0.000
1643876935679249920,2022-02-03-08:28:55,10.1.1.2,8,-1.500,-0.250,-0.500,0.000,0.000,0.000
1643876935879164928,2022-02-03-08:28:55,10.1.1.2,5,-1.451,-0.250,-0.549,0.000,0.000,0.000
1643876936078897920,2022-02-03-08:28:56,10.1.1.2,3,-1.401,-0.250,-0.599,0.000,0.000,0.000
1643876936279002880,2022-02-03-08:28:56,10.1.1.2,2,-1.352,-0.250,-0.648,0.000,0.000,0.000
1643876936479668992,2022-02-03-08:28:56,10.1.1.2,2,-1.302,-0.250,-0.650,0.000,0.000,0.000
1643876936679830016,2022-02-03-08:28:56,10.1.1.2,0,-1.252,-0.250,-0.650,0.000,0.000,0.000
1643876936899277056,2022-02-03-08:28:56,10.1.1.2,19,-1.200,-0.250,-0.650,0.000,0.000,0.000
1643876937098939904,2022-02-03-08:28:57,10.1.1.2,19,-1.150,-0.250,-0.650,0.000,0.000,0.000
1643876937301093120,2022-02-03-08:28:57,10.1.1.2,18,-1.100,-0.250,-0.650,0.000,0.000,0.000
1643876937496084992,2022-02-03-08:28:57,10.1.1.2,12,-1.050,-0.250,-0.650,0.000,0.000,0.000
1643876937697200128,2022-02-03-08:28:57,10.1.1.2,12,-1.000,-0.250,-0.650,0.000,0.000,0.000
1643876937897486080,2022-02-03-08:28:57,10.1.1.2,11,-0.950,-0.250,-0.650,0.000,0.000,0.000
1643876938095659008,2022-02-03-08:28:58,10.1.1.2,8,-0.900,-0.250,-0.650,0.000,0.000,0.000
1643876938292332800,2022-02-03-08:28:58,10.1.1.2,3,-0.852,-0.250,-0.650,0.000,0.000,0.000
1643876938498432000,2022-02-03-08:28:58,10.1.1.2,8,-0.800,-0.250,-0.650,0.000,0.000,0.000
1643876938697895936,2022-02-03-08:28:58,10.1.1.2,7,-0.750,-0.250,-0.650,0.000,0.000,0.000
1643876938898437888,2022-02-03-08:28:58,10.1.1.2,7,-0.700,-0.250,-0.650,0.000,0.000,0.000
1643876939098046976,2022-02-03-08:28:59,10.1.1.2,2,-0.652,-0.250,-0.650,0.000,0.000,0.000
1643876939300738048,2022-02-03-08:28:59,10.1.1.2,1,-0.602,-0.250,-0.650,0.000,0.000,0.000
1643876939512370944,2022-02-03-08:28:59,10.1.1.2,12,-0.550,-0.250,-0.650,0.000,0.000,0.000
1643876939712804096,2022-02-03-08:28:59,10.1.1.2,12,-0.500,-0.250,-0.650,0.000,0.000,0.000
1643876939905252096,2022-02-03-08:28:59,10.1.1.2,3,-0.453,-0.250,-0.650,0.000,0.000,0.000
1643876940116736000,2022-02-03-08:29:00,10.1.1.2,13,-0.450,-0.250,-0.650,0.000,0.000,0.000
1643876940314567936,2022-02-03-08:29:00,10.1.1.2,10,-0.500,-0.300,-0.600,0.000,0.000,0.000
1643876940514333952,2022-02-03-08:29:00,10.1.1.2,9,-0.550,-0.350,-0.550,0.000,0.000,0.000
1643876940712297984,2022-02-03-08:29:00,10.1.1.2,6,-0.600,-0.400,-0.500,0.000,0.000,0.000
1643876940913928960,2022-02-03-08:29:00,10.1.1.2,4,-0.650,-0.450,-0.450,0.000,0.000,0.000
1643876941115366912,2022-02-03-08:29:01,10.1.1.2,4,-0.699,-0.499,-0.401,0.000,0.000,0.000
1643876941313383936,2022-02-03-08:29:01,10.1.1.2,1,-0.748,-0.548,-0.352,0.000,0.000,0.000
1643876941533710848,2022-02-03-08:29:01,10.1.1.2,20,-0.800,-0.600,-0.300,0.000,0.000,0.000
1643876941737346048,2022-02-03-08:29:01,10.1.1.2,21,-0.850,-0.650,-0.250,0.000,0.000,0.000
1643876941917790976,2022-02-03-08:29:01,10.1.1.2,1,-0.898,-0.698,-0.250,0.000,0.000,0.000
1643876942129682944,2022-02-03-08:29:02,10.1.1.2,7,-0.948,-0.700,-0.250,0.000,0.000,0.000
1643876942348110080,2022-02-03-08:29:02,10.1.1.2,24,-0.950,-0.700,-0.250,0.000,0.000,0.000
1643876942539196928,2022-02-03-08:29:02,10.1.1.2,13,-0.950,-0.700,-0.250,0.000,0.000,0.000
1643876942738313984,2022-02-03-08:29:02,10.1.1.2,10,-0.950,-0.700,-0.250,0.000,0.000,0.000
1643876942935830016,2022-02-03-08:29:02,10.1.1.2,4,-0.903,-0.653,-0.297,0.000,0.000,0.000
1643876943135407872,2022-02-03-08:29:03,10.1.1.2,2,-0.851,-0.601,-0.349,0.000,0.000,0.000
1643876943339404032,2022-02-03-08:29:03,10.1.1.2,5,-0.801,-0.551,-0.399,0.000,0.000,0.000
1643876943538717952,2022-02-03-08:29:03,10.1.1.2,1,-0.800,-0.502,-0.448,0.000,0.000,0.000
1643876943740355072,2022-02-03-08:29:03,10.1.1.2,1,-0.800,-0.452,-0.498,0.000,0.000,0.000
1643876943959451904,2022-02-03-08:29:03,10.1.1.2,18,-0.800,-0.400,-0.500,0.000,0.000,0.000
1643876944166654208,2022-02-03-08:29:04,10.1.1.2,24,-0.800,-0.350,-0.500,0.000,0.000,0.000
1643876944359673088,2022-02-03-08:29:04,10.1.1.2,17,-0.800,-0.300,-0.500,0.000,0.000,0.000
1643876944544627968,2022-02-03-08:29:04,10.1.1.2,1,-0.800,-0.253,-0.500,0.000,0.000,0.000
1643876944759216896,2022-02-03-08:29:04,10.1.1.2,13,-0.800,-0.200,-0.500,0.000,0.000,0.000
1643876944959278080,2022-02-03-08:29:04,10.1.1.2,12,-0.800,-0.150,-0.500,0.000,0.000,0.000
1643876945157958912,2022-02-03-08:29:05,10.1.1.2,4,-0.800,-0.150,-0.500,0.000,0.000,0.000
1643876945359396096,2022-02-03-08:29:05,10.1.1.2,5,-0.751,-0.101,-0.451,0.000,0.000,0.000
1643876945560153856,2022-02-03-08:29:05,10.1.1.2,4,-0.701,-0.051,-0.401,0.000,0.000,0.000
1643876945759321088,2022-02-03-08:29:05,10.1.1.2,1,-0.654,-0.004,-0.354,0.000,0.000,0.000
1643876945960365056,2022-02-03-08:29:05,10.1.1.2,1,-0.602,0.048,-0.302,0.000,0.000,0.000
1643876946178659840,2022-02-03-08:29:06,10.1.1.2,18,-0.550,0.100,-0.250,0.000,0.000,0.000
1643876946379399168,2022-02-03-08:29:06,10.1.1.2,17,-0.500,0.150,-0.250,0.000,0.000,0.000
1643876946579595008,2022-02-03-08:29:06,10.1.1.2,16,-0.450,0.200,-0.250,0.000,0.000,0.000
1643876946779308032,2022-02-03-08:29:06,10.1.1.2,15,-0.400,0.250,-0.250,0.000,0.000,0.000
1643876946983629824,2022-02-03-08:29:06,10.1.1.2,19,-0.350,0.250,-0.250,0.000,0.000,0.000
1643876947177277184,2022-02-03-08:29:07,10.1.1.2,11,-0.300,0.250,-0.250,0.000,0.000,0.000
1643876947378664960,2022-02-03-08:29:07,10.1.1.2,12,-0.250,0.250,-0.250,0.000,0.000,0.000
1643876947573705984,2022-02-03-08:29:07,10.1.1.2,6,-0.202,0.250,-0.250,0.000,0.000,0.000
1643876947771697152,2022-02-03-08:29:07,10.1.1.2,3,-0.153,0.250,-0.250,0.000,0.000,0.000
1643876947979968000,2022-02-03-08:29:07,10.1.1.2,5,-0.101,0.250,-0.250,0.000,0.000,0.000
1643876948192979200,2022-02-03-08:29:08,10.1.1.2,17,-0.050,0.250,-0.250,0.000,0.000,0.000
1643876948393606912,2022-02-03-08:29:08,10.1.1.2,17,0.002,0.250,-0.250,0.000,0.000,0.000
1643876948592529920,2022-02-03-08:29:08,10.1.1.2,15,0.050,0.250,-0.250,0.000,0.000,0.000
1643876948791435008,2022-02-03-08:29:08,10.1.1.2,12,0.100,0.250,-0.250,0.000,0.000,0.000
1643876948983294976,2022-02-03-08:29:08,10.1.1.2,2,0.146,0.250,-0.250,0.000,0.000,0.000
1643876949183489024,2022-02-03-08:29:09,10.1.1.2,0,0.195,0.250,-0.250,0.000,0.000,0.000
1643876949390897152,2022-02-03-08:29:09,10.1.1.2,7,0.250,0.250,-0.250,0.000,0.000,0.000
1643876949589537024,2022-02-03-08:29:09,10.1.1.2,4,0.299,0.250,-0.250,0.000,0.000,0.000
1643876949789896960,2022-02-03-08:29:09,10.1.1.2,4,0.350,0.250,-0.250,0.000,0.000,0.000
1643876949991836928,2022-02-03-08:29:09,10.1.1.2,4,0.399,0.250,-0.250,0.000,0.000,0.000
1643876950192931840,2022-02-03-08:29:10,10.1.1.2,4,0.449,0.250,-0.250,0.000,0.000,0.000
1643876950392419072,2022-02-03-08:29:10,10.1.1.2,2,0.498,0.250,-0.250,0.000,0.000,0.000
1643876950609977088,2022-02-03-08:29:10,10.1.1.2,15,0.550,0.250,-0.250,0.000,0.000,0.000
1643876950810882048,2022-02-03-08:29:10,10.1.1.2,14,0.600,0.250,-0.250,0.000,0.000,0.000
1643876951011388160,2022-02-03-08:29:11,10.1.1.2,12,0.650,0.250,-0.250,0.000,0.000,0.000
1643876951211198976,2022-02-03-08:29:11,10.1.1.2,11,0.700,0.250,-0.250,0.000,0.000,0.000
1643876951411063040,2022-02-03-08:29:11,10.1.1.2,10,0.750,0.250,-0.250,0.000,0.000,0.000
1643876951611091968,2022-02-03-08:29:11,10.1.1.2,9,0.800,0.250,-0.250,0.000,0.000,0.000
1643876951810953984,2022-02-03-08:29:11,10.1.1.2,7,0.850,0.250,-0.250,0.000,0.000,0.000
1643876952011578112,2022-02-03-08:29:12,10.1.1.2,7,0.900,0.250,-0.250,0.000,0.000,0.000
1643876952210510080,2022-02-03-08:29:12,10.1.1.2,5,0.949,0.250,-0.250,0.000,0.000,0.000
1643876952411171072,2022-02-03-08:29:12,10.1.1.2,4,0.999,0.250,-0.250,0.000,0.000,0.000
1643876952610558976,2022-02-03-08:29:12,10.1.1.2,3,1.050,0.250,-0.250,0.000,0.000,0.000
1643876952812279040,2022-02-03-08:29:12,10.1.1.2,1,1.099,0.250,-0.250,0.000,0.000,0.000
1643876953030075904,2022-02-03-08:29:13,10.1.1.2,14,1.150,0.250,-0.250,0.000,0.000,0.000
1643876953230297088,2022-02-03-08:29:13,10.1.1.2,14,1.200,0.250,-0.250,0.000,0.000,0.000
1643876953430536960,2022-02-03-08:29:13,10.1.1.2,10,1.250,0.250,-0.250,0.000,0.000,0.000
1643876953630820864,2022-02-03-08:29:13,10.1.1.2,8,1.250,0.250,-0.250,0.000,0.000,0.000
1643876953833875968,2022-02-03-08:29:13,10.1.1.2,11,1.200,0.300,-0.200,0.000,0.000,0.000
1643876954031343872,2022-02-03-08:29:14,10.1.1.2,7,1.150,0.350,-0.150,0.000,0.000,0.000
1643876954230988032,2022-02-03-08:29:14,10.1.1.2,6,1.101,0.399,-0.101,0.000,0.000,0.000
1643876954432146944,2022-02-03-08:29:14,10.1.1.2,6,1.051,0.449,-0.100,0.000,0.000,0.000
1643876954631490048,2022-02-03-08:29:14,10.1.1.2,5,1.001,0.450,-0.100,0.000,0.000,0.000
1643876954831216128,2022-02-03-08:29:14,10.1.1.2,3,0.951,0.450,-0.100,0.000,0.000,0.000
1643876955032048896,2022-02-03-08:29:15,10.1.1.2,3,0.901,0.450,-0.100,0.000,0.000,0.000
1643876955233722880,2022-02-03-08:29:15,10.1.1.2,4,0.852,0.450,-0.100,0.000,0.000,0.000
1643876955450685952,2022-02-03-08:29:15,10.1.1.2,18,0.800,0.450,-0.100,0.000,0.000,0.000
1643876955633730816,2022-02-03-08:29:15,10.1.1.2,0,0.752,0.450,-0.100,0.000,0.000,0.000
1643876955840295936,2022-02-03-08:29:15,10.1.1.2,3,0.703,0.450,-0.100,0.000,0.000,0.000
1643876956052119040,2022-02-03-08:29:16,10.1.1.2,14,0.650,0.450,-0.100,0.000,0.000,0.000
1643876956254255104,2022-02-03-08:29:16,10.1.1.2,14,0.600,0.450,-0.100,0.000,0.000,0.000
1643876956453860096,2022-02-03-08:29:16,10.1.1.2,12,0.550,0.450,-0.100,0.000,0.000,0.000
1643876956652268032,2022-02-03-08:29:16,10.1.1.2,10,0.500,0.450,-0.100,0.000,0.000,0.000
1643876956853638912,2022-02-03-08:29:16,10.1.1.2,8,0.450,0.450,-0.100,0.000,0.000,0.000
1643876957051595008,2022-02-03-08:29:17,10.1.1.2,5,0.401,0.450,-0.100,0.000,0.000,0.000
1643876957252760832,2022-02-03-08:29:17,10.1.1.2,3,0.351,0.450,-0.100,0.000,0.000,0.000
1643876957470184960,2022-02-03-08:29:17,10.1.1.2,18,0.300,0.450,-0.100,0.000,0.000,0.000
1643876957655719936,2022-02-03-08:29:17,10.1.1.2,2,0.252,0.450,-0.100,0.000,0.000,0.000
1643876957873178112,2022-02-03-08:29:17,10.1.1.2,17,0.200,0.450,-0.100,0.000,0.000,0.000
1643876958062482176,2022-02-03-08:29:18,10.1.1.2,5,0.200,0.450,-0.100,0.000,0.000,0.000
1643876958261989120,2022-02-03-08:29:18,10.1.1.2,1,0.153,0.403,-0.147,0.000,0.000,0.000
1643876958503004928,2022-02-03-08:29:18,10.1.1.2,38,0.100,0.400,-0.150,0.000,0.000,0.000
1643876958672392960,2022-02-03-08:29:18,10.1.1.2,6,0.061,0.400,-0.150,0.000,0.000,0.000
1643876958872690944,2022-02-03-08:29:18,10.1.1.2,5,0.001,0.400,-0.150,0.000,0.000,0.000
1643876959077795072,2022-02-03-08:29:19,10.1.1.2,9,-0.050,0.400,-0.150,0.000,0.000,0.000
1643876959278469120,2022-02-03-08:29:19,10.1.1.2,8,-0.100,0.400,-0.150,0.000,0.000,0.000
1643876959478001152,2022-02-03-08:29:19,10.1.1.2,6,-0.149,0.400,-0.150,0.000,0.000,0.000
1643876959674746112,2022-02-03-08:29:19,10.1.1.2,1,-0.196,0.400,-0.150,0.000,0.000,0.000
1643876959877243904,2022-02-03-08:29:19,10.1.1.2,2,-0.248,0.400,-0.150,0.000,0.000,0.000
1643876960089396992,2022-02-03-08:29:20,10.1.1.2,13,-0.300,0.400,-0.150,0.000,0.000,0.000
1643876960281984000,2022-02-03-08:29:20,10.1.1.2,5,-0.348,0.400,-0.150,0.000,0.000,0.000
1643876960495224064,2022-02-03-08:29:20,10.1.1.2,18,-0.400,0.400,-0.150,0.000,0.000,0.000
1643876960694438912,2022-02-03-08:29:20,10.1.1.2,15,-0.450,0.400,-0.150,0.000,0.000,0.000
1643876960896167936,2022-02-03-08:29:20,10.1.1.2,16,-0.500,0.400,-0.150,0.000,0.000,0.000
1643876961095334912,2022-02-03-08:29:21,10.1.1.2,13,-0.550,0.400,-0.150,0.000,0.000,0.000
1643876961297755904,2022-02-03-08:29:21,10.1.1.2,13,-0.600,0.400,-0.150,0.000,0.000,0.000
1643876961497601024,2022-02-03-08:29:21,10.1.1.2,11,-0.650,0.400,-0.150,0.000,0.000,0.000
1643876961694566912,2022-02-03-08:29:21,10.1.1.2,6,-0.700,0.400,-0.150,0.000,0.000,0.000
1643876961894799872,2022-02-03-08:29:21,10.1.1.2,5,-0.749,0.400,-0.150,0.000,0.000,0.000
1643876962095365888,2022-02-03-08:29:22,10.1.1.2,5,-0.800,0.400,-0.150,0.000,0.000,0.000
1643876962292948992,2022-02-03-08:29:22,10.1.1.2,2,-0.848,0.400,-0.150,0.000,0.000,0.000
1643876962497321984,2022-02-03-08:29:22,10.1.1.2,5,-0.899,0.400,-0.150,0.000,0.000,0.000
1643876962695444992,2022-02-03-08:29:22,10.1.1.2,2,-0.949,0.400,-0.150,0.000,0.000,0.000
1643876962899691008,2022-02-03-08:29:22,10.1.1.2,1,-0.995,0.400,-0.150,0.000,0.000,0.000
1643876963114717952,2022-02-03-08:29:23,10.1.1.2,12,-1.050,0.400,-0.150,0.000,0.000,0.000
1643876963314956032,2022-02-03-08:29:23,10.1.1.2,11,-1.100,0.400,-0.150,0.000,0.000,0.000
1643876963515403008,2022-02-03-08:29:23,10.1.1.2,10,-1.150,0.400,-0.150,0.000,0.000,0.000
1643876963715048960,2022-02-03-08:29:23,10.1.1.2,8,-1.200,0.400,-0.150,0.000,0.000,0.000
1643876963914486016,2022-02-03-08:29:23,10.1.1.2,7,-1.250,0.400,-0.150,0.000,0.000,0.000
1643876964132796928,2022-02-03-08:29:24,10.1.1.2,24,-1.300,0.400,-0.150,0.000,0.000,0.000
1643876964315578880,2022-02-03-08:29:24,10.1.1.2,5,-1.349,0.400,-0.150,0.000,0.000,0.000
1643876964518063104,2022-02-03-08:29:24,10.1.1.2,6,-1.399,0.400,-0.150,0.000,0.000,0.000
1643876964715552000,2022-02-03-08:29:24,10.1.1.2,3,-1.448,0.400,-0.150,0.000,0.000,0.000
1643876964914917120,2022-02-03-08:29:24,10.1.1.2,1,-1.498,0.400,-0.150,0.000,0.000,0.000
1643876965117483008,2022-02-03-08:29:25,10.1.1.2,1,-1.548,0.400,-0.150,0.000,0.000,0.000
1643876965337963008,2022-02-03-08:29:25,10.1.1.2,20,-1.600,0.400,-0.150,0.000,0.000,0.000
1643876965536979968,2022-02-03-08:29:25,10.1.1.2,18,-1.650,0.400,-0.150,0.000,0.000,0.000
1643876965731511040,2022-02-03-08:29:25,10.1.1.2,11,-1.700,0.400,-0.150,0.000,0.000,0.000
1643876965931713024,2022-02-03-08:29:25,10.1.1.2,10,-1.750,0.400,-0.150,0.000,0.000,0.000
1643876966130911232,2022-02-03-08:29:26,10.1.1.2,8,-1.750,0.400,-0.150,0.000,0.000,0.000
1643876966331222016,2022-02-03-08:29:26,10.1.1.2,7,-1.700,0.450,-0.100,0.000,0.000,0.000
1643876966530246912,2022-02-03-08:29:26,10.1.1.2,6,-1.650,0.450,-0.100,0.000,0.000,0.000
1643876966731527168,2022-02-03-08:29:26,10.1.1.2,5,-1.601,0.450,-0.100,0.000,0.000,0.000
1643876966931469056,2022-02-03-08:29:26,10.1.1.2,4,-1.551,0.450,-0.100,0.000,0.000,0.000
1643876967133193984,2022-02-03-08:29:27,10.1.1.2,5,-1.501,0.450,-0.100,0.000,0.000,0.000
1643876967332025088,2022-02-03-08:29:27,10.1.1.2,3,-1.452,0.450,-0.100,0.000,0.000,0.000
1643876967536333056,2022-02-03-08:29:27,10.1.1.2,4,-1.402,0.450,-0.100,0.000,0.000,0.000
1643876967755417088,2022-02-03-08:29:27,10.1.1.2,21,-1.350,0.450,-0.100,0.000,0.000,0.000
1643876967953579008,2022-02-03-08:29:27,10.1.1.2,18,-1.300,0.450,-0.100,0.000,0.000,0.000
1643876968153629952,2022-02-03-08:29:28,10.1.1.2,17,-1.250,0.450,-0.100,0.000,0.000,0.000
1643876968352880128,2022-02-03-08:29:28,10.1.1.2,14,-1.200,0.450,-0.100,0.000,0.000,0.000
1643876968554203904,2022-02-03-08:29:28,10.1.1.2,14,-1.150,0.450,-0.100,0.000,0.000,0.000
1643876968753315840,2022-02-03-08:29:28,10.1.1.2,12,-1.100,0.450,-0.100,0.000,0.000,0.000
1643876968953699072,2022-02-03-08:29:28,10.1.1.2,11,-1.050,0.450,-0.100,0.000,0.000,0.000
1643876969162364928,2022-02-03-08:29:29,10.1.1.2,18,-1.000,0.450,-0.100,0.000,0.000,0.000
1643876969352828928,2022-02-03-08:29:29,10.1.1.2,7,-0.950,0.450,-0.100,0.000,0.000,0.000
1643876969553422848,2022-02-03-08:29:29,10.1.1.2,7,-0.901,0.450,-0.100,0.000,0.000,0.000
1643876969755315968,2022-02-03-08:29:29,10.1.1.2,7,-0.851,0.450,-0.100,0.000,0.000,0.000
1643876969954031104,2022-02-03-08:29:29,10.1.1.2,5,-0.801,0.450,-0.100,0.000,0.000,0.000
1643876970154979840,2022-02-03-08:29:30,10.1.1.2,2,-0.751,0.450,-0.100,0.000,0.000,0.000
1643876970372675840,2022-02-03-08:29:30,10.1.1.2,18,-0.700,0.450,-0.100,0.000,0.000,0.000
1643876970573428992,2022-02-03-08:29:30,10.1.1.2,18,-0.650,0.450,-0.100,0.000,0.000,0.000
1643876970774455040,2022-02-03-08:29:30,10.1.1.2,17,-0.600,0.450,-0.100,0.000,0.000,0.000
1643876970963965952,2022-02-03-08:29:30,10.1.1.2,7,-0.553,0.450,-0.100,0.000,0.000,0.000
1643876971173417984,2022-02-03-08:29:31,10.1.1.2,16,-0.500,0.450,-0.100,0.000,0.000,0.000
1643876971361399808,2022-02-03-08:29:31,10.1.1.2,3,-0.451,0.450,-0.100,0.000,0.000,0.000
1643876971572926976,2022-02-03-08:29:31,10.1.1.2,14,-0.400,0.450,-0.100,0.000,0.000,0.000
1643876971775714048,2022-02-03-08:29:31,10.1.1.2,16,-0.350,0.450,-0.100,0.000,0.000,0.000
1643876971972207104,2022-02-03-08:29:31,10.1.1.2,11,-0.300,0.450,-0.100,0.000,0.000,0.000
1643876972170932992,2022-02-03-08:29:32,10.1.1.2,10,-0.250,0.450,-0.100,0.000,0.000,0.000
1643876972373502976,2022-02-03-08:29:32,10.1.1.2,6,-0.250,0.450,-0.100,0.000,0.000,0.000
1643876972573479936,2022-02-03-08:29:32,10.1.1.2,5,-0.299,0.401,-0.149,0.000,0.000,0.000
1643876972774064896,2022-02-03-08:29:32,10.1.1.2,4,-0.349,0.400,-0.150,0.000,0.000,0.000
1643876972975860992,2022-02-03-08:29:32,10.1.1.2,5,-0.400,0.400,-0.150,0.000,0.000,0.000
1643876973173522944,2022-02-03-08:29:33,10.1.1.2,2,-0.448,0.400,-0.150,0.000,0.000,0.000
1643876973391796992,2022-02-03-08:29:33,10.1.1.2,18,-0.500,0.400,-0.150,0.000,0.000,0.000
1643876973578074880,2022-02-03-08:29:33,10.1.1.2,4,-0.547,0.400,-0.150,0.000,0.000,0.000
1643876973795527936,2022-02-03-08:29:33,10.1.1.2,20,-0.600,0.400,-0.150,0.000,0.000,0.000
1643876973990902784,2022-02-03-08:29:33,10.1.1.2,14,-0.650,0.400,-0.150,0.000,0.000,0.000
1643876974191354880,2022-02-03-08:29:34,10.1.1.2,13,-0.700,0.400,-0.150,0.000,0.000,0.000
1643876974395344128,2022-02-03-08:29:34,10.1.1.2,16,-0.750,0.400,-0.150,0.000,0.000,0.000
1643876974594274048,2022-02-03-08:29:34,10.1.1.2,14,-0.800,0.400,-0.150,0.000,0.000,0.000
1643876974786418944,2022-02-03-08:29:34,10.1.1.2,6,-0.848,0.400,-0.150,0.000,0.000,0.000
1643876974995819008,2022-02-03-08:29:34,10.1.1.2,14,-0.900,0.400,-0.150,0.000,0.000,0.000
1643876975196366080,2022-02-03-08:29:35,10.1.1.2,14,-0.950,0.400,-0.150,0.000,0.000,0.000
1643876975393022976,2022-02-03-08:29:35,10.1.1.2,10,-1.000,0.400,-0.150,0.000,0.000,0.000
1643876975592755968,2022-02-03-08:29:35,10.1.1.2,9,-1.050,0.400,-0.150,0.000,0.000,0.000
1643876975793554944,2022-02-03-08:29:35,10.1.1.2,9,-1.100,0.400,-0.150,0.000,0.000,0.000
1643876975992347904,2022-02-03-08:29:35,10.1.1.2,6,-1.150,0.400,-0.150,0.000,0.000,0.000
1643876976194266112,2022-02-03-08:29:36,10.1.1.2,5,-1.200,0.400,-0.150,0.000,0.000,0.000
1643876976393879040,2022-02-03-08:29:36,10.1.1.2,5,-1.250,0.400,-0.150,0.000,0.000,0.000
1643876976591720960,2022-02-03-08:29:36,10.1.1.2,2,-1.296,0.400,-0.150,0.000,0.000,0.000
1643876976793037056,2022-02-03-08:29:36,10.1.1.2,2,-1.341,0.400,-0.150,0.000,0.000,0.000
1643876977011458048,2022-02-03-08:29:37,10.1.1.2,19,-1.400,0.400,-0.150,0.000,0.000,0.000
1643876977210663936,2022-02-03-08:29:37,10.1.1.2,16,-1.452,0.400,-0.150,0.000,0.000,0.000
1643876977411958016,2022-02-03-08:29:37,10.1.1.2,15,-1.500,0.400,-0.150,0.000,0.000,0.000
1643876977611831040,2022-02-03-08:29:37,10.1.1.2,14,-1.550,0.400,-0.150,0.000,0.000,0.000
1643876977812717056,2022-02-03-08:29:37,10.1.1.2,14,-1.600,0.400,-0.150,0.000,0.000,0.000
1643876978011977984,2022-02-03-08:29:38,10.1.1.2,12,-1.650,0.400,-0.150,0.000,0.000,0.000
1643876978210316800,2022-02-03-08:29:38,10.1.1.2,9,-1.700,0.400,-0.150,0.000,0.000,0.000
1643876978411252992,2022-02-03-08:29:38,10.1.1.2,9,-1.750,0.400,-0.150,0.000,0.000,0.000
1643876978610667008,2022-02-03-08:29:38,10.1.1.2,8,-1.750,0.400,-0.150,0.000,0.000,0.000
1643876978810749952,2022-02-03-08:29:38,10.1.1.2,7,-1.706,0.356,-0.150,0.000,0.000,0.000
1643876979010322176,2022-02-03-08:29:39,10.1.1.2,6,-1.651,0.301,-0.150,0.000,0.000,0.000
1643876979225682944,2022-02-03-08:29:39,10.1.1.2,20,-1.600,0.250,-0.150,0.000,0.000,0.000
1643876979421155072,2022-02-03-08:29:39,10.1.1.2,14,-1.550,0.200,-0.150,0.000,0.000,0.000
1643876979625158144,2022-02-03-08:29:39,10.1.1.2,17,-1.500,0.150,-0.150,0.000,0.000,0.000
1643876979821863936,2022-02-03-08:29:39,10.1.1.2,13,-1.450,0.100,-0.150,0.000,0.000,0.000
1643876980010471936,2022-02-03-08:29:40,10.1.1.2,1,-1.401,0.051,-0.150,0.000,0.000,0.000
1643876980211146240,2022-02-03-08:29:40,10.1.1.2,0,-1.352,0.002,-0.150,0.000,0.000,0.000
1643876980439888128,2022-02-03-08:29:40,10.1.1.2,25,-1.297,-0.053,-0.150,0.000,0.000,0.000
1643876980618576128,2022-02-03-08:29:40,10.1.1.2,3,-1.251,-0.099,-0.150,0.000,0.000,0.000
1643876980821827840,2022-02-03-08:29:40,10.1.1.2,5,-1.201,-0.149,-0.150,0.000,0.000,0.000
1643876981018855168,2022-02-03-08:29:41,10.1.1.2,2,-1.152,-0.198,-0.150,0.000,0.000,0.000
1643876981221345792,2022-02-03-08:29:41,10.1.1.2,3,-1.102,-0.248,-0.150,0.000,0.000,0.000
1643876981439996928,2022-02-03-08:29:41,10.1.1.2,19,-1.050,-0.300,-0.150,0.000,0.000,0.000
1643876981640628224,2022-02-03-08:29:41,10.1.1.2,18,-1.000,-0.350,-0.150,0.000,0.000,0.000
1643876981838782976,2022-02-03-08:29:41,10.1.1.2,14,-1.000,-0.400,-0.150,0.000,0.000,0.000
1643876982039079936,2022-02-03-08:29:42,10.1.1.2,13,-1.000,-0.450,-0.150,0.000,0.000,0.000
1643876982240109824,2022-02-03-08:29:42,10.1.1.2,12,-1.000,-0.500,-0.150,0.000,0.000,0.000
1643876982442873856,2022-02-03-08:29:42,10.1.1.2,14,-1.000,-0.550,-0.150,0.000,0.000,0.000
1643876982638791168,2022-02-03-08:29:42,10.1.1.2,5,-1.000,-0.600,-0.150,0.000,0.000,0.000
1643876982840431872,2022-02-03-08:29:42,10.1.1.2,4,-1.000,-0.649,-0.150,0.000,0.000,0.000
1643876983050606848,2022-02-03-08:29:43,10.1.1.2,9,-1.000,-0.700,-0.150,0.000,0.000,0.000
1643876983259380224,2022-02-03-08:29:43,10.1.1.2,15,-1.000,-0.700,-0.150,0.000,0.000,0.000
1643876983460953088,2022-02-03-08:29:43,10.1.1.2,15,-0.951,-0.749,-0.199,0.000,0.000,0.000
1643876983659877888,2022-02-03-08:29:43,10.1.1.2,13,-0.900,-0.800,-0.250,0.000,0.000,0.000
1643876983860443136,2022-02-03-08:29:43,10.1.1.2,10,-0.850,-0.850,-0.300,0.000,0.000,0.000
1643876984052072960,2022-02-03-08:29:44,10.1.1.2,1,-0.802,-0.898,-0.348,0.000,0.000,0.000
1643876984259169024,2022-02-03-08:29:44,10.1.1.2,7,-0.800,-0.950,-0.400,0.000,0.000,0.000
1643876984480089856,2022-02-03-08:29:44,10.1.1.2,27,-0.800,-0.950,-0.451,0.000,0.000,0.000
1643876984659650048,2022-02-03-08:29:44,10.1.1.2,4,-0.800,-0.950,-0.500,0.000,0.000,0.000
1643876984861650944,2022-02-03-08:29:44,10.1.1.2,2,-0.800,-0.950,-0.549,0.000,0.000,0.000
1643876985081723904,2022-02-03-08:29:45,10.1.1.2,20,-0.800,-0.950,-0.600,0.000,0.000,0.000
1643876985282066176,2022-02-03-08:29:45,10.1.1.2,20,-0.800,-0.950,-0.650,0.000,0.000,0.000
1643876985480078080,2022-02-03-08:29:45,10.1.1.2,16,-0.800,-0.950,-0.650,0.000,0.000,0.000
1643876985681303040,2022-02-03-08:29:45,10.1.1.2,17,-0.750,-0.950,-0.700,0.000,0.000,0.000
1643876985881714944,2022-02-03-08:29:45,10.1.1.2,16,-0.700,-0.950,-0.750,0.000,0.000,0.000
1643876986071118080,2022-02-03-08:29:46,10.1.1.2,4,-0.651,-0.950,-0.750,0.000,0.000,0.000
1643876986270749184,2022-02-03-08:29:46,10.1.1.2,2,-0.601,-0.950,-0.750,0.000,0.000,0.000
1643876986476370944,2022-02-03-08:29:46,10.1.1.2,7,-0.550,-0.950,-0.750,0.000,0.000,0.000
1643876986675606016,2022-02-03-08:29:46,10.1.1.2,5,-0.500,-0.950,-0.750,0.000,0.000,0.000
1643876986876133888,2022-02-03-08:29:46,10.1.1.2,4,-0.451,-0.950,-0.750,0.000,0.000,0.000
1643876987076386048,2022-02-03-08:29:47,10.1.1.2,3,-0.401,-0.950,-0.750,0.000,0.000,0.000
1643876987277671168,2022-02-03-08:29:47,10.1.1.2,2,-0.351,-0.950,-0.750,0.000,0.000,0.000
1643876987477447936,2022-02-03-08:29:47,10.1.1.2,1,-0.302,-0.950,-0.750,0.000,0.000,0.000
1643876987696737024,2022-02-03-08:29:47,10.1.1.2,19,-0.250,-0.950,-0.750,0.000,0.000,0.000
1643876987896259072,2022-02-03-08:29:47,10.1.1.2,18,-0.200,-0.950,-0.750,0.000,0.000,0.000
1643876988097021952,2022-02-03-08:29:48,10.1.1.2,18,-0.150,-0.950,-0.750,0.000,0.000,0.000
1643876988296210176,2022-02-03-08:29:48,10.1.1.2,16,-0.100,-0.950,-0.750,0.000,0.000,0.000
1643876988495737088,2022-02-03-08:29:48,10.1.1.2,15,-0.050,-0.950,-0.750,0.000,0.000,0.000
1643876988696589056,2022-02-03-08:29:48,10.1.1.2,15,-0.051,-0.949,-0.749,0.000,0.000,0.000
1643876988883909888,2022-02-03-08:29:48,10.1.1.2,1,-0.099,-0.901,-0.701,0.000,0.000,0.000
1643876989095379200,2022-02-03-08:29:49,10.1.1.2,11,-0.150,-0.850,-0.650,0.000,0.000,0.000
1643876989297600000,2022-02-03-08:29:49,10.1.1.2,13,-0.200,-0.800,-0.600,0.000,0.000,0.000
1643876989498071808,2022-02-03-08:29:49,10.1.1.2,12,-0.250,-0.750,-0.550,0.000,0.000,0.000
1643876989697680896,2022-02-03-08:29:49,10.1.1.2,10,-0.300,-0.700,-0.550,0.000,0.000,0.000
1643876989897921024,2022-02-03-08:29:49,10.1.1.2,9,-0.350,-0.650,-0.550,0.000,0.000,0.000
1643876990098071040,2022-02-03-08:29:50,10.1.1.2,9,-0.400,-0.600,-0.550,0.000,0.000,0.000
1643876990297388032,2022-02-03-08:29:50,10.1.1.2,6,-0.450,-0.550,-0.550,0.000,0.000,0.000
1643876990497710080,2022-02-03-08:29:50,10.1.1.2,6,-0.499,-0.501,-0.550,0.000,0.000,0.000
1643876990699438080,2022-02-03-08:29:50,10.1.1.2,7,-0.549,-0.451,-0.550,0.000,0.000,0.000
1643876990899557120,2022-02-03-08:29:50,10.1.1.2,6,-0.599,-0.401,-0.550,0.000,0.000,0.000
1643876991098885120,2022-02-03-08:29:51,10.1.1.2,4,-0.648,-0.352,-0.550,0.000,0.000,0.000
1643876991298940928,2022-02-03-08:29:51,10.1.1.2,2,-0.698,-0.302,-0.550,0.000,0.000,0.000
1643876991518565888,2022-02-03-08:29:51,10.1.1.2,20,-0.750,-0.250,-0.550,0.000,0.000,0.000
1643876991718193152,2022-02-03-08:29:51,10.1.1.2,19,-0.800,-0.200,-0.550,0.000,0.000,0.000
1643876991917799936,2022-02-03-08:29:51,10.1.1.2,17,-0.800,-0.150,-0.550,0.000,0.000,0.000
1643876992117628928,2022-02-03-08:29:52,10.1.1.2,16,-0.800,-0.150,-0.550,0.000,0.000,0.000
1643876992320367104,2022-02-03-08:29:52,10.1.1.2,18,-0.850,-0.200,-0.500,0.000,0.000,0.000
1643876992516557056,2022-02-03-08:29:52,10.1.1.2,14,-0.900,-0.250,-0.450,0.000,0.000,0.000
1643876992717319936,2022-02-03-08:29:52,10.1.1.2,14,-0.950,-0.300,-0.400,0.000,0.000,0.000
1643876992918276096,2022-02-03-08:29:52,10.1.1.2,14,-1.000,-0.350,-0.350,0.000,0.000,0.000
1643876993118684160,2022-02-03-08:29:53,10.1.1.2,13,-1.050,-0.400,-0.300,0.000,0.000,0.000
1643876993313030912,2022-02-03-08:29:53,10.1.1.2,7,-1.099,-0.400,-0.251,0.000,0.000,0.000
1643876993509783040,2022-02-03-08:29:53,10.1.1.2,2,-1.149,-0.400,-0.250,0.000,0.000,0.000
1643876993710045184,2022-02-03-08:29:53,10.1.1.2,1,-1.198,-0.400,-0.250,0.000,0.000,0.000
1643876993911389184,2022-02-03-08:29:53,10.1.1.2,1,-1.248,-0.400,-0.250,0.000,0.000,0.000
1643876994115896064,2022-02-03-08:29:54,10.1.1.2,4,-1.298,-0.400,-0.250,0.000,0.000,0.000
1643876994330661888,2022-02-03-08:29:54,10.1.1.2,17,-1.350,-0.400,-0.250,0.000,0.000,0.000
1643876994516825856,2022-02-03-08:29:54,10.1.1.2,1,-1.397,-0.400,-0.250,0.000,0.000,0.000
1643876994719059968,2022-02-03-08:29:54,10.1.1.2,2,-1.448,-0.400,-0.250,0.000,0.000,0.000
1643876994930537984,2022-02-03-08:29:54,10.1.1.2,12,-1.500,-0.400,-0.250,0.000,0.000,0.000
1643876995132389120,2022-02-03-08:29:55,10.1.1.2,12,-1.550,-0.400,-0.250,0.000,0.000,0.000
1643876995328919040,2022-02-03-08:29:55,10.1.1.2,8,-1.600,-0.400,-0.250,0.000,0.000,0.000
1643876995529992960,2022-02-03-08:29:55,10.1.1.2,8,-1.650,-0.400,-0.250,0.000,0.000,0.000
1643876995729961984,2022-02-03-08:29:55,10.1.1.2,7,-1.700,-0.400,-0.250,0.000,0.000,0.000
1643876995930164224,2022-02-03-08:29:55,10.1.1.2,6,-1.750,-0.400,-0.250,0.000,0.000,0.000
1643876996130953984,2022-02-03-08:29:56,10.1.1.2,6,-1.750,-0.400,-0.250,0.000,0.000,0.000
1643876996331300096,2022-02-03-08:29:56,10.1.1.2,4,-1.701,-0.449,-0.299,0.000,0.000,0.000
1643876996531610112,2022-02-03-08:29:56,10.1.1.2,2,-1.651,-0.499,-0.349,0.000,0.000,0.000
1643876996750449920,2022-02-03-08:29:56,10.1.1.2,19,-1.600,-0.550,-0.400,0.000,0.000,0.000
1643876996953672960,2022-02-03-08:29:56,10.1.1.2,20,-1.550,-0.600,-0.450,0.000,0.000,0.000
1643876997152164864,2022-02-03-08:29:57,10.1.1.2,18,-1.500,-0.650,-0.500,0.000,0.000,0.000
1643876997351144960,2022-02-03-08:29:57,10.1.1.2,15,-1.450,-0.700,-0.550,0.000,0.000,0.000
1643876997550966016,2022-02-03-08:29:57,10.1.1.2,16,-1.400,-0.750,-0.600,0.000,0.000,0.000
1643876997749633024,2022-02-03-08:29:57,10.1.1.2,13,-1.350,-0.800,-0.650,0.000,0.000,0.000
1643876997951219200,2022-02-03-08:29:57,10.1.1.2,14,-1.300,-0.850,-0.650,0.000,0.000,0.000
1643876998151108864,2022-02-03-08:29:58,10.1.1.2,13,-1.250,-0.900,-0.650,0.000,0.000,0.000
1643876998371746048,2022-02-03-08:29:58,10.1.1.2,30,-1.200,-0.950,-0.650,0.000,0.000,0.000
1643876998569541888,2022-02-03-08:29:58,10.1.1.2,27,-1.150,-0.950,-0.650,0.000,0.000,0.000
1643876998751261952,2022-02-03-08:29:58,10.1.1.2,5,-1.102,-0.950,-0.650,0.000,0.000,0.000
1643876998953862912,2022-02-03-08:29:58,10.1.1.2,7,-1.051,-0.950,-0.650,0.000,0.000,0.000
1643876999152008960,2022-02-03-08:29:59,10.1.1.2,4,-1.001,-0.950,-0.650,0.000,0.000,0.000
1643876999353414912,2022-02-03-08:29:59,10.1.1.2,4,-0.951,-0.950,-0.650,0.000,0.000,0.000
1643876999553772032,2022-02-03-08:29:59,10.1.1.2,3,-0.902,-0.950,-0.650,0.000,0.000,0.000
1643876999771985920,2022-02-03-08:29:59,10.1.1.2,18,-0.850,-0.950,-0.650,0.000,0.000,0.000
1643876999979033856,2022-02-03-08:29:59,10.1.1.2,24,-0.800,-0.950,-0.650,0.000,0.000,0.000
1643877000162537216,2022-02-03-08:30:00,10.1.1.2,6,-0.800,-0.950,-0.650,0.000,0.000,0.000
1643877000372733184,2022-02-03-08:30:00,10.1.1.2,15,-0.750,-0.900,-0.600,0.000,0.000,0.000
1643877000564327936,2022-02-03-08:30:00,10.1.1.2,5,-0.703,-0.853,-0.553,0.000,0.000,0.000
1643877000777515776,2022-02-03-08:30:00,10.1.1.2,18,-0.650,-0.800,-0.500,0.000,0.000,0.000
1643877000974454016,2022-02-03-08:30:00,10.1.1.2,14,-0.600,-0.750,-0.450,0.000,0.000,0.000
1643877001173346048,2022-02-03-08:30:01,10.1.1.2,10,-0.550,-0.700,-0.400,0.000,0.000,0.000
1643877001376645120,2022-02-03-08:30:01,10.1.1.2,14,-0.500,-0.650,-0.350,0.000,0.000,0.000
1643877001573097984,2022-02-03-08:30:01,10.1.1.2,8,-0.450,-0.600,-0.300,0.000,0.000,0.000
1643877001772825856,2022-02-03-08:30:01,10.1.1.2,7,-0.400,-0.550,-0.250,0.000,0.000,0.000
1643877001975884800,2022-02-03-08:30:01,10.1.1.2,6,-0.350,-0.550,-0.200,0.000,0.000,0.000
1643877002179165952,2022-02-03-08:30:02,10.1.1.2,4,-0.300,-0.550,-0.150,0.000,0.000,0.000
1643877002378513152,2022-02-03-08:30:02,10.1.1.2,2,-0.251,-0.550,-0.101,0.000,0.000,0.000
1643877002580271872,2022-02-03-08:30:02,10.1.1.2,1,-0.250,-0.550,-0.100,0.000,0.000,0.000
1643877002800190976,2022-02-03-08:30:02,10.1.1.2,20,-0.300,-0.500,-0.150,0.000,0.000,0.000
1643877002999220992,2022-02-03-08:30:02,10.1.1.2,17,-0.350,-0.450,-0.200,0.000,0.000,0.000
1643877003197388032,2022-02-03-08:30:03,10.1.1.2,12,-0.400,-0.400,-0.250,0.000,0.000,0.000
1643877003397836800,2022-02-03-08:30:03,10.1.1.2,11,-0.400,-0.350,-0.300,0.000,0.000,0.000
1643877003601955840,2022-02-03-08:30:03,10.1.1.2,15,-0.400,-0.300,-0.350,0.000,0.000,0.000
1643877003798168064,2022-02-03-08:30:03,10.1.1.2,10,-0.400,-0.250,-0.400,0.000,0.000,0.000
1643877003994200064,2022-02-03-08:30:03,10.1.1.2,5,-0.400,-0.250,-0.448,0.000,0.000,0.000
1643877004197251072,2022-02-03-08:30:04,10.1.1.2,7,-0.400,-0.250,-0.500,0.000,0.000,0.000
1643877004398832128,2022-02-03-08:30:04,10.1.1.2,8,-0.400,-0.250,-0.550,0.000,0.000,0.000
1643877004598263040,2022-02-03-08:30:04,10.1.1.2,5,-0.400,-0.250,-0.600,0.000,0.000,0.000
1643877004799774976,2022-02-03-08:30:04,10.1.1.2,5,-0.400,-0.250,-0.649,0.000,0.000,0.000
1643877005002284032,2022-02-03-08:30:05,10.1.1.2,7,-0.400,-0.250,-0.650,0.000,0.000,0.000
1643877005220116992,2022-02-03-08:30:05,10.1.1.2,23,-0.350,-0.300,-0.700,0.000,0.000,0.000
1643877005402262016,2022-02-03-08:30:05,10.1.1.2,5,-0.302,-0.348,-0.748,0.000,0.000,0.000
1643877005620420864,2022-02-03-08:30:05,10.1.1.2,19,-0.250,-0.400,-0.750,0.000,0.000,0.000
1643877005819344128,2022-02-03-08:30:05,10.1.1.2,17,-0.200,-0.450,-0.750,0.000,0.000,0.000
1643877006018961920,2022-02-03-08:30:06,10.1.1.2,16,-0.150,-0.500,-0.750,0.000,0.000,0.000
1643877006219944960,2022-02-03-08:30:06,10.1.1.2,15,-0.100,-0.550,-0.750,0.000,0.000,0.000
1643877006419145984,2022-02-03-08:30:06,10.1.1.2,13,-0.050,-0.600,-0.750,0.000,0.000,0.000
1643877006624102144,2022-02-03-08:30:06,10.1.1.2,17,-0.050,-0.650,-0.750,0.000,0.000,0.000
1643877006818966016,2022-02-03-08:30:06,10.1.1.2,11,-0.050,-0.700,-0.750,0.000,0.000,0.000
1643877007018662912,2022-02-03-08:30:07,10.1.1.2,10,-0.050,-0.750,-0.750,0.000,0.000,0.000
1643877007214696960,2022-02-03-08:30:07,10.1.1.2,5,-0.050,-0.798,-0.750,0.000,0.000,0.000
1643877007418340864,2022-02-03-08:30:07,10.1.1.2,7,-0.050,-0.850,-0.750,0.000,0.000,0.000
1643877007617847808,2022-02-03-08:30:07,10.1.1.2,5,-0.050,-0.899,-0.750,0.000,0.000,0.000
1643877007818973952,2022-02-03-08:30:07,10.1.1.2,3,-0.050,-0.949,-0.750,0.000,0.000,0.000
1643877008020464896,2022-02-03-08:30:08,10.1.1.2,2,-0.050,-0.950,-0.750,0.000,0.000,0.000
1643877008225627904,2022-02-03-08:30:08,10.1.1.2,5,-0.098,-0.902,-0.702,0.000,0.000,0.000
1643877008439223040,2022-02-03-08:30:08,10.1.1.2,17,-0.150,-0.850,-0.700,0.000,0.000,0.000
1643877008641755136,2022-02-03-08:30:08,10.1.1.2,19,-0.200,-0.800,-0.700,0.000,0.000,0.000
1643877008846835968,2022-02-03-08:30:08,10.1.1.2,24,-0.250,-0.750,-0.700,0.000,0.000,0.000
1643877009038934016,2022-02-03-08:30:09,10.1.1.2,14,-0.300,-0.700,-0.700,0.000,0.000,0.000
1643877009238831104,2022-02-03-08:30:09,10.1.1.2,12,-0.350,-0.650,-0.700,0.000,0.000,0.000
1643877009437948928,2022-02-03-08:30:09,10.1.1.2,8,-0.400,-0.600,-0.700,0.000,0.000,0.000
1643877009639069184,2022-02-03-08:30:09,10.1.1.2,6,-0.400,-0.550,-0.700,0.000,0.000,0.000
1643877009859100160,2022-02-03-08:30:09,10.1.1.2,24,-0.400,-0.499,-0.700,0.000,0.000,0.000
1643877010040751872,2022-02-03-08:30:10,10.1.1.2,4,-0.400,-0.451,-0.700,0.000,0.000,0.000
1643877010241208064,2022-02-03-08:30:10,10.1.1.2,1,-0.400,-0.402,-0.700,0.000,0.000,0.000
1643877010464329984,2022-02-03-08:30:10,10.1.1.2,23,-0.400,-0.350,-0.700,0.000,0.000,0.000
1643877010658371072,2022-02-03-08:30:10,10.1.1.2,16,-0.400,-0.300,-0.700,0.000,0.000,0.000
1643877010859149056,2022-02-03-08:30:10,10.1.1.2,16,-0.400,-0.250,-0.700,0.000,0.000,0.000
1643877011058996992,2022-02-03-08:30:11,10.1.1.2,14,-0.400,-0.250,-0.700,0.000,0.000,0.000
1643877011258967040,2022-02-03-08:30:11,10.1.1.2,14,-0.350,-0.300,-0.750,0.000,0.000,0.000
1643877011447230208,2022-02-03-08:30:11,10.1.1.2,1,-0.304,-0.346,-0.750,0.000,0.000,0.000
1643877011658720000,2022-02-03-08:30:11,10.1.1.2,11,-0.250,-0.400,-0.750,0.000,0.000,0.000
1643877011858375936,2022-02-03-08:30:11,10.1.1.2,10,-0.200,-0.450,-0.750,0.000,0.000,0.000
1643877012058508032,2022-02-03-08:30:12,10.1.1.2,8,-0.150,-0.500,-0.750,0.000,0.000,0.000
1643877012254725888,2022-02-03-08:30:12,10.1.1.2,4,-0.103,-0.547,-0.750,0.000,0.000,0.000
1643877012458478848,2022-02-03-08:30:12,10.1.1.2,6,-0.050,-0.600,-0.750,0.000,0.000,0.000
1643877012658641152,2022-02-03-08:30:12,10.1.1.2,4,-0.050,-0.649,-0.750,0.000,0.000,0.000
1643877012855531008,2022-02-03-08:30:12,10.1.1.2,1,-0.050,-0.694,-0.750,0.000,0.000,0.000
1643877013074038016,2022-02-03-08:30:13,10.1.1.2,18,-0.050,-0.750,-0.750,0.000,0.000,0.000
1643877013274971136,2022-02-03-08:30:13,10.1.1.2,18,-0.050,-0.800,-0.750,0.000,0.000,0.000
1643877013474919168,2022-02-03-08:30:13,10.1.1.2,17,-0.050,-0.850,-0.750,0.000,0.000,0.000
1643877013674639872,2022-02-03-08:30:13,10.1.1.2,14,-0.050,-0.900,-0.750,0.000,0.000,0.000
1643877013885432832,2022-02-03-08:30:13,10.1.1.2,23,-0.050,-0.950,-0.750,0.000,0.000,0.000
1643877014075094016,2022-02-03-08:30:14,10.1.1.2,11,-0.050,-0.950,-0.750,0.000,0.000,0.000
1643877014278210048,2022-02-03-08:30:14,10.1.1.2,13,-0.100,-0.900,-0.700,0.000,0.000,0.000
1643877014478033920,2022-02-03-08:30:14,10.1.1.2,12,-0.150,-0.850,-0.700,0.000,0.000,0.000
1643877014674708992,2022-02-03-08:30:14,10.1.1.2,7,-0.200,-0.800,-0.700,0.000,0.000,0.000
1643877014875153920,2022-02-03-08:30:14,10.1.1.2,5,-0.250,-0.750,-0.700,0.000,0.000,0.000
1643877015075081984,2022-02-03-08:30:15,10.1.1.2,3,-0.299,-0.701,-0.700,0.000,0.000,0.000
1643877015277785088,2022-02-03-08:30:15,10.1.1.2,5,-0.346,-0.654,-0.700,0.000,0.000,0.000
1643877015476460032,2022-02-03-08:30:15,10.1.1.2,2,-0.398,-0.602,-0.700,0.000,0.000,0.000
1643877015695311104,2022-02-03-08:30:15,10.1.1.2,19,-0.400,-0.550,-0.700,0.000,0.000,0.000
1643877015895500032,2022-02-03-08:30:15,10.1.1.2,18,-0.400,-0.500,-0.700,0.000,0.000,0.000
1643877016094893056,2022-02-03-08:30:16,10.1.1.2,15,-0.400,-0.450,-0.700,0.000,0.000,0.000
1643877016295394816,2022-02-03-08:30:16,10.1.1.2,15,-0.400,-0.400,-0.700,0.000,0.000,0.000
1643877016499526144,2022-02-03-08:30:16,10.1.1.2,18,-0.400,-0.349,-0.700,0.000,0.000,0.000
1643877016695219968,2022-02-03-08:30:16,10.1.1.2,12,-0.400,-0.300,-0.700,0.000,0.000,0.000
1643877016893646848,2022-02-03-08:30:16,10.1.1.2,9,-0.400,-0.250,-0.700,0.000,0.000,0.000
1643877017095268864,2022-02-03-08:30:17,10.1.1.2,9,-0.400,-0.250,-0.700,0.000,0.000,0.000
1643877017291837952,2022-02-03-08:30:17,10.1.1.2,5,-0.445,-0.295,-0.655,0.000,0.000,0.000
1643877017498689792,2022-02-03-08:30:17,10.1.1.2,11,-0.500,-0.350,-0.600,0.000,0.000,0.000
1643877017698827008,2022-02-03-08:30:17,10.1.1.2,10,-0.550,-0.400,-0.550,0.000,0.000,0.000
1643877017899923200,2022-02-03-08:30:17,10.1.1.2,9,-0.600,-0.450,-0.500,0.000,0.000,0.000
1643877018098816000,2022-02-03-08:30:18,10.1.1.2,6,-0.650,-0.500,-0.450,0.000,0.000,0.000
1643877018301019904,2022-02-03-08:30:18,10.1.1.2,8,-0.700,-0.550,-0.400,0.000,0.000,0.000
1643877018500067840,2022-02-03-08:30:18,10.1.1.2,6,-0.749,-0.599,-0.351,0.000,0.000,0.000
1643877018697984000,2022-02-03-08:30:18,10.1.1.2,3,-0.799,-0.649,-0.301,0.000,0.000,0.000
1643877018902284032,2022-02-03-08:30:18,10.1.1.2,4,-0.849,-0.699,-0.251,0.000,0.000,0.000
1643877019104669184,2022-02-03-08:30:19,10.1.1.2,5,-0.898,-0.700,-0.250,0.000,0.000,0.000
1643877019318438144,2022-02-03-08:30:19,10.1.1.2,18,-0.950,-0.700,-0.250,0.000,0.000,0.000
1643877019519215104,2022-02-03-08:30:19,10.1.1.2,17,-0.950,-0.700,-0.250,0.000,0.000,0.000
1643877019720530944,2022-02-03-08:30:19,10.1.1.2,17,-0.900,-0.650,-0.300,0.000,0.000,0.000
1643877019926356992,2022-02-03-08:30:19,10.1.1.2,21,-0.850,-0.600,-0.350,0.000,0.000,0.000
1643877020110675200,2022-02-03-08:30:20,10.1.1.2,5,-0.801,-0.551,-0.399,0.000,0.000,0.000
1643877020311248896,2022-02-03-08:30:20,10.1.1.2,5,-0.751,-0.501,-0.449,0.000,0.000,0.000
1643877020514498048,2022-02-03-08:30:20,10.1.1.2,7,-0.700,-0.450,-0.500,0.000,0.000,0.000
1643877020714919936,2022-02-03-08:30:20,10.1.1.2,6,-0.650,-0.400,-0.550,0.000,0.000,0.000
1643877020914536960,2022-02-03-08:30:20,10.1.1.2,5,-0.601,-0.351,-0.599,0.000,0.000,0.000
1643877021116844032,2022-02-03-08:30:21,10.1.1.2,6,-0.551,-0.301,-0.649,0.000,0.000,0.000
1643877021315638016,2022-02-03-08:30:21,10.1.1.2,4,-0.501,-0.251,-0.650,0.000,0.000,0.000
1643877021515172096,2022-02-03-08:30:21,10.1.1.2,3,-0.452,-0.250,-0.650,0.000,0.000,0.000
1643877021714953984,2022-02-03-08:30:21,10.1.1.2,0,-0.450,-0.250,-0.650,0.000,0.000,0.000
1643877021934102016,2022-02-03-08:30:21,10.1.1.2,17,-0.501,-0.301,-0.650,0.000,0.000,0.000
1643877022122528000,2022-02-03-08:30:22,10.1.1.2,4,-0.548,-0.348,-0.650,0.000,0.000,0.000
1643877022335854080,2022-02-03-08:30:22,10.1.1.2,17,-0.602,-0.402,-0.650,0.000,0.000,0.000
1643877022535101952,2022-02-03-08:30:22,10.1.1.2,16,-0.650,-0.450,-0.650,0.000,0.000,0.000
1643877022735446016,2022-02-03-08:30:22,10.1.1.2,15,-0.700,-0.500,-0.650,0.000,0.000,0.000
1643877022934866944,2022-02-03-08:30:22,10.1.1.2,12,-0.750,-0.550,-0.650,0.000,0.000,0.000
1643877023138654976,2022-02-03-08:30:23,10.1.1.2,15,-0.800,-0.600,-0.650,0.000,0.000,0.000
1643877023333321216,2022-02-03-08:30:23,10.1.1.2,9,-0.800,-0.650,-0.650,0.000,0.000,0.000
1643877023533353216,2022-02-03-08:30:23,10.1.1.2,6,-0.800,-0.700,-0.650,0.000,0.000,0.000
1643877023735656960,2022-02-03-08:30:23,10.1.1.2,7,-0.800,-0.749,-0.650,0.000,0.000,0.000
1643877023936359936,2022-02-03-08:30:23,10.1.1.2,6,-0.800,-0.800,-0.650,0.000,0.000,0.000
1643877024136861184,2022-02-03-08:30:24,10.1.1.2,5,-0.800,-0.850,-0.650,0.000,0.000,0.000
1643877024338498048,2022-02-03-08:30:24,10.1.1.2,5,-0.800,-0.899,-0.650,0.000,0.000,0.000
1643877024555369984,2022-02-03-08:30:24,10.1.1.2,18,-0.800,-0.950,-0.650,0.000,0.000,0.000
1643877024756275968,2022-02-03-08:30:24,10.1.1.2,17,-0.800,-0.950,-0.650,0.000,0.000,0.000
1643877024942573056,2022-02-03-08:30:24,10.1.1.2,1,-0.753,-0.997,-0.603,0.000,0.000,0.000
1643877025157093888,2022-02-03-08:30:25,10.1.1.2,14,-0.700,-1.050,-0.550,0.000,0.000,0.000
1643877025356046080,2022-02-03-08:30:25,10.1.1.2,12,-0.650,-1.100,-0.500,0.000,0.000,0.000
1643877025554080000,2022-02-03-08:30:25,10.1.1.2,9,-0.600,-1.150,-0.450,0.000,0.000,0.000
1643877025753743872,2022-02-03-08:30:25,10.1.1.2,8,-0.550,-1.150,-0.450,0.000,0.000,0.000
1643877025957502976,2022-02-03-08:30:25,10.1.1.2,5,-0.500,-1.150,-0.450,0.000,0.000,0.000
1643877026167265792,2022-02-03-08:30:26,10.1.1.2,7,-0.455,-1.150,-0.450,0.000,0.000,0.000
1643877026373895936,2022-02-03-08:30:26,10.1.1.2,12,-0.450,-1.150,-0.450,0.000,0.000,0.000
1643877026578480896,2022-02-03-08:30:26,10.1.1.2,13,-0.500,-1.100,-0.500,0.000,0.000,0.000
1643877026775665920,2022-02-03-08:30:26,10.1.1.2,9,-0.550,-1.050,-0.500,0.000,0.000,0.000
1643877026975298816,2022-02-03-08:30:26,10.1.1.2,8,-0.600,-1.000,-0.500,0.000,0.000,0.000
1643877027175163136,2022-02-03-08:30:27,10.1.1.2,6,-0.650,-0.950,-0.500,0.000,0.000,0.000
1643877027375650816,2022-02-03-08:30:27,10.1.1.2,6,-0.699,-0.901,-0.500,0.000,0.000,0.000
1643877027575546112,2022-02-03-08:30:27,10.1.1.2,5,-0.749,-0.851,-0.500,0.000,0.000,0.000
1643877027775347968,2022-02-03-08:30:27,10.1.1.2,4,-0.799,-0.801,-0.500,0.000,0.000,0.000
1643877027974433792,2022-02-03-08:30:27,10.1.1.2,1,-0.800,-0.751,-0.500,0.000,0.000,0.000
1643877028177332992,2022-02-03-08:30:28,10.1.1.2,3,-0.800,-0.702,-0.500,0.000,0.000,0.000
1643877028377509120,2022-02-03-08:30:28,10.1.1.2,2,-0.800,-0.652,-0.500,0.000,0.000,0.000
1643877028595858176,2022-02-03-08:30:28,10.1.1.2,19,-0.800,-0.600,-0.500,0.000,0.000,0.000
1643877028799990016,2022-02-03-08:30:28,10.1.1.2,22,-0.800,-0.550,-0.500,0.000,0.000,0.000
1643877028996103936,2022-02-03-08:30:28,10.1.1.2,17,-0.800,-0.500,-0.500,0.000,0.000,0.000
1643877029182294016,2022-02-03-08:30:29,10.1.1.2,3,-0.800,-0.453,-0.500,0.000,0.000,0.000
1643877029395309824,2022-02-03-08:30:29,10.1.1.2,13,-0.800,-0.400,-0.500,0.000,0.000,0.000
1643877029596463872,2022-02-03-08:30:29,10.1.1.2,13,-0.800,-0.350,-0.500,0.000,0.000,0.000
1643877029796436992,2022-02-03-08:30:29,10.1.1.2,10,-0.800,-0.300,-0.500,0.000,0.000,0.000
1643877029996578816,2022-02-03-08:30:29,10.1.1.2,10,-0.800,-0.250,-0.500,0.000,0.000,0.000
1643877030194721024,2022-02-03-08:30:30,10.1.1.2,7,-0.800,-0.200,-0.500,0.000,0.000,0.000
1643877030396285184,2022-02-03-08:30:30,10.1.1.2,6,-0.800,-0.150,-0.500,0.000,0.000,0.000
1643877030598467072,2022-02-03-08:30:30,10.1.1.2,8,-0.800,-0.150,-0.500,0.000,0.000,0.000
1643877030798080000,2022-02-03-08:30:30,10.1.1.2,6,-0.750,-0.100,-0.450,0.000,0.000,0.000
1643877030995136000,2022-02-03-08:30:30,10.1.1.2,2,-0.703,-0.053,-0.403,0.000,0.000,0.000
1643877031198615040,2022-02-03-08:30:31,10.1.1.2,3,-0.651,-0.001,-0.351,0.000,0.000,0.000
1643877031400197120,2022-02-03-08:30:31,10.1.1.2,4,-0.601,0.049,-0.301,0.000,0.000,0.000
1643877031598572032,2022-02-03-08:30:31,10.1.1.2,1,-0.552,0.098,-0.252,0.000,0.000,0.000
1643877031799346944,2022-02-03-08:30:31,10.1.1.2,-1,-0.502,0.148,-0.202,0.000,0.000,0.000
1643877032018006016,2022-02-03-08:30:32,10.1.1.2,17,-0.450,0.200,-0.150,0.000,0.000,0.000
1643877032217822976,2022-02-03-08:30:32,10.1.1.2,15,-0.400,0.250,-0.100,0.000,0.000,0.000
1643877032417794816,2022-02-03-08:30:32,10.1.1.2,14,-0.350,0.300,-0.100,0.000,0.000,0.000
1643877032619676160,2022-02-03-08:30:32,10.1.1.2,15,-0.300,0.350,-0.100,0.000,0.000,0.000
1643877032818427136,2022-02-03-08:30:32,10.1.1.2,12,-0.250,0.400,-0.100,0.000,0.000,0.000
1643877033019275008,2022-02-03-08:30:33,10.1.1.2,10,-0.250,0.450,-0.100,0.000,0.000,0.000
1643877033210917120,2022-02-03-08:30:33,10.1.1.2,1,-0.250,0.450,-0.100,0.000,0.000,0.000
1643877033413094144,2022-02-03-08:30:33,10.1.1.2,1,-0.297,0.403,-0.147,0.000,0.000,0.000
1643877033618437120,2022-02-03-08:30:33,10.1.1.2,5,-0.349,0.351,-0.199,0.000,0.000,0.000
1643877033818091008,2022-02-03-08:30:33,10.1.1.2,4,-0.399,0.301,-0.249,0.000,0.000,0.000
1643877034018019840,2022-02-03-08:30:34,10.1.1.2,3,-0.449,0.251,-0.299,0.000,0.000,0.000
1643877034219335168,2022-02-03-08:30:34,10.1.1.2,4,-0.499,0.201,-0.349,0.000,0.000,0.000
1643877034438435072,2022-02-03-08:30:34,10.1.1.2,21,-0.552,0.148,-0.402,0.000,0.000,0.000
1643877034620119040,2022-02-03-08:30:34,10.1.1.2,2,-0.598,0.102,-0.448,0.000,0.000,0.000
1643877034820471040,2022-02-03-08:30:34,10.1.1.2,1,-0.648,0.052,-0.498,0.000,0.000,0.000
1643877035037437952,2022-02-03-08:30:35,10.1.1.2,17,-0.700,0.000,-0.550,0.000,0.000,0.000
1643877035241185792,2022-02-03-08:30:35,10.1.1.2,20,-0.750,-0.050,-0.600,0.000,0.000,0.000
1643877035437242880,2022-02-03-08:30:35,10.1.1.2,15,-0.800,-0.100,-0.650,0.000,0.000,0.000
1643877035627116032,2022-02-03-08:30:35,10.1.1.2,4,-0.800,-0.147,-0.650,0.000,0.000,0.000
1643877035838458112,2022-02-03-08:30:35,10.1.1.2,15,-0.800,-0.200,-0.650,0.000,0.000,0.000
1643877036040038144,2022-02-03-08:30:36,10.1.1.2,15,-0.800,-0.250,-0.650,0.000,0.000,0.000
1643877036242012928,2022-02-03-08:30:36,10.1.1.2,17,-0.800,-0.300,-0.650,0.000,0.000,0.000
1643877036438697984,2022-02-03-08:30:36,10.1.1.2,12,-0.800,-0.350,-0.650,0.000,0.000,0.000
1643877036640139008,2022-02-03-08:30:36,10.1.1.2,12,-0.800,-0.400,-0.650,0.000,0.000,0.000
1643877036838614016,2022-02-03-08:30:36,10.1.1.2,10,-0.800,-0.450,-0.650,0.000,0.000,0.000
1643877037031099136,2022-02-03-08:30:37,10.1.1.2,1,-0.800,-0.498,-0.650,0.000,0.000,0.000
1643877037233210112,2022-02-03-08:30:37,10.1.1.2,2,-0.800,-0.548,-0.650,0.000,0.000,0.000
1643877037451527168,2022-02-03-08:30:37,10.1.1.2,19,-0.800,-0.600,-0.650,0.000,0.000,0.000
1643877037651341824,2022-02-03-08:30:37,10.1.1.2,18,-0.800,-0.650,-0.650,0.000,0.000,0.000
1643877037851265792,2022-02-03-08:30:37,10.1.1.2,17,-0.800,-0.700,-0.650,0.000,0.000,0.000
1643877038051017984,2022-02-03-08:30:38,10.1.1.2,16,-0.800,-0.750,-0.650,0.000,0.000,0.000
1643877038251118848,2022-02-03-08:30:38,10.1.1.2,15,-0.800,-0.800,-0.650,0.000,0.000,0.000
1643877038451922944,2022-02-03-08:30:38,10.1.1.2,14,-0.800,-0.850,-0.650,0.000,0.000,0.000
1643877038661044992,2022-02-03-08:30:38,10.1.1.2,22,-0.800,-0.900,-0.650,0.000,0.000,0.000
1643877038850541056,2022-02-03-08:30:38,10.1.1.2,10,-0.800,-0.950,-0.650,0.000,0.000,0.000
1643877039051287040,2022-02-03-08:30:39,10.1.1.2,10,-0.800,-0.950,-0.650,0.000,0.000,0.000
1643877039252308992,2022-02-03-08:30:39,10.1.1.2,10,-0.850,-0.900,-0.600,0.000,0.000,0.000
1643877039451845888,2022-02-03-08:30:39,10.1.1.2,9,-0.900,-0.850,-0.550,0.000,0.000,0.000
1643877039651022848,2022-02-03-08:30:39,10.1.1.2,6,-0.950,-0.800,-0.500,0.000,0.000,0.000
1643877039851492864,2022-02-03-08:30:39,10.1.1.2,5,-0.950,-0.751,-0.451,0.000,0.000,0.000
1643877040054449920,2022-02-03-08:30:40,10.1.1.2,6,-0.950,-0.700,-0.400,0.000,0.000,0.000
1643877040253016064,2022-02-03-08:30:40,10.1.1.2,4,-0.950,-0.700,-0.351,0.000,0.000,0.000
1643877040453772032,2022-02-03-08:30:40,10.1.1.2,4,-0.950,-0.700,-0.301,0.000,0.000,0.000
1643877040653094144,2022-02-03-08:30:40,10.1.1.2,3,-0.950,-0.700,-0.251,0.000,0.000,0.000
1643877040855337984,2022-02-03-08:30:40,10.1.1.2,1,-0.950,-0.700,-0.250,0.000,0.000,0.000
1643877041078059008,2022-02-03-08:30:41,10.1.1.2,23,-0.900,-0.650,-0.300,0.000,0.000,0.000
1643877041274550016,2022-02-03-08:30:41,10.1.1.2,19,-0.850,-0.600,-0.350,0.000,0.000,0.000
1643877041477778944,2022-02-03-08:30:41,10.1.1.2,21,-0.800,-0.550,-0.400,0.000,0.000,0.000
1643877041672353024,2022-02-03-08:30:41,10.1.1.2,14,-0.800,-0.498,-0.452,0.000,0.000,0.000
1643877041872782080,2022-02-03-08:30:41,10.1.1.2,14,-0.800,-0.450,-0.500,0.000,0.000,0.000
1643877042073671168,2022-02-03-08:30:42,10.1.1.2,14,-0.800,-0.400,-0.500,0.000,0.000,0.000
1643877042274316032,2022-02-03-08:30:42,10.1.1.2,13,-0.800,-0.350,-0.500,0.000,0.000,0.000
1643877042473010944,2022-02-03-08:30:42,10.1.1.2,11,-0.800,-0.300,-0.500,0.000,0.000,0.000
1643877042674132224,2022-02-03-08:30:42,10.1.1.2,8,-0.800,-0.250,-0.500,0.000,0.000,0.000
1643877042873157888,2022-02-03-08:30:42,10.1.1.2,6,-0.800,-0.200,-0.500,0.000,0.000,0.000
1643877043073498112,2022-02-03-08:30:43,10.1.1.2,5,-0.800,-0.151,-0.500,0.000,0.000,0.000
1643877043277859072,2022-02-03-08:30:43,10.1.1.2,8,-0.800,-0.150,-0.500,0.000,0.000,0.000
1643877043478759168,2022-02-03-08:30:43,10.1.1.2,6,-0.800,-0.200,-0.550,0.000,0.000,0.000
1643877043679263232,2022-02-03-08:30:43,10.1.1.2,5,-0.800,-0.250,-0.600,0.000,0.000,0.000
1643877043878660864,2022-02-03-08:30:43,10.1.1.2,3,-0.800,-0.299,-0.649,0.000,0.000,0.000
1643877044098066944,2022-02-03-08:30:44,10.1.1.2,19,-0.800,-0.351,-0.650,0.000,0.000,0.000
1643877044298715136,2022-02-03-08:30:44,10.1.1.2,19,-0.800,-0.400,-0.650,0.000,0.000,0.000
1643877044498307840,2022-02-03-08:30:44,10.1.1.2,17,-0.800,-0.450,-0.650,0.000,0.000,0.000
1643877044682725888,2022-02-03-08:30:44,10.1.1.2,-1,-0.800,-0.497,-0.650,0.000,0.000,0.000
1643877044898179072,2022-02-03-08:30:44,10.1.1.2,14,-0.800,-0.550,-0.650,0.000,0.000,0.000
1643877045098108160,2022-02-03-08:30:45,10.1.1.2,12,-0.800,-0.600,-0.650,0.000,0.000,0.000
1643877045297492992,2022-02-03-08:30:45,10.1.1.2,11,-0.800,-0.650,-0.650,0.000,0.000,0.000
1643877045492109056,2022-02-03-08:30:45,10.1.1.2,5,-0.800,-0.698,-0.650,0.000,0.000,0.000
1643877045698016000,2022-02-03-08:30:45,10.1.1.2,10,-0.800,-0.750,-0.650,0.000,0.000,0.000
1643877045896006144,2022-02-03-08:30:45,10.1.1.2,6,-0.800,-0.795,-0.650,0.000,0.000,0.000
1643877046098177792,2022-02-03-08:30:46,10.1.1.2,6,-0.800,-0.850,-0.650,0.000,0.000,0.000
1643877046299280896,2022-02-03-08:30:46,10.1.1.2,6,-0.800,-0.899,-0.650,0.000,0.000,0.000
1643877046498435072,2022-02-03-08:30:46,10.1.1.2,4,-0.800,-0.949,-0.650,0.000,0.000,0.000
1643877046699433984,2022-02-03-08:30:46,10.1.1.2,4,-0.800,-0.950,-0.650,0.000,0.000,0.000
1643877046913966848,2022-02-03-08:30:46,10.1.1.2,18,-0.749,-1.001,-0.599,0.000,0.000,0.000
1643877047114181120,2022-02-03-08:30:47,10.1.1.2,14,-0.700,-1.050,-0.550,0.000,0.000,0.000
1643877047313430016,2022-02-03-08:30:47,10.1.1.2,10,-0.650,-1.100,-0.500,0.000,0.000,0.000
1643877047514572032,2022-02-03-08:30:47,10.1.1.2,10,-0.600,-1.150,-0.450,0.000,0.000,0.000
1643877047713128960,2022-02-03-08:30:47,10.1.1.2,3,-0.550,-1.150,-0.450,0.000,0.000,0.000
1643877047916193024,2022-02-03-08:30:47,10.1.1.2,5,-0.501,-1.150,-0.450,0.000,0.000,0.000
1643877048114251008,2022-02-03-08:30:48,10.1.1.2,2,-0.452,-1.150,-0.450,0.000,0.000,0.000
1643877048314536192,2022-02-03-08:30:48,10.1.1.2,1,-0.450,-1.150,-0.450,0.000,0.000,0.000
1643877048535809024,2022-02-03-08:30:48,10.1.1.2,20,-0.500,-1.200,-0.400,0.000,0.000,0.000
1643877048733780992,2022-02-03-08:30:48,10.1.1.2,17,-0.550,-1.250,-0.350,0.000,0.000,0.000
1643877048923572992,2022-02-03-08:30:48,10.1.1.2,5,-0.597,-1.297,-0.303,0.000,0.000,0.000
1643877049132569088,2022-02-03-08:30:49,10.1.1.2,13,-0.650,-1.350,-0.250,0.000,0.000,0.000
1643877049333730048,2022-02-03-08:30:49,10.1.1.2,13,-0.700,-1.400,-0.200,0.000,0.000,0.000
1643877049532854016,2022-02-03-08:30:49,10.1.1.2,11,-0.750,-1.450,-0.150,0.000,0.000,0.000
1643877049734898944,2022-02-03-08:30:49,10.1.1.2,12,-0.800,-1.450,-0.100,0.000,0.000,0.000
1643877049933837056,2022-02-03-08:30:49,10.1.1.2,6,-0.850,-1.450,-0.050,0.000,0.000,0.000
1643877050135104768,2022-02-03-08:30:50,10.1.1.2,3,-0.900,-1.450,-0.000,0.000,0.000,0.000
1643877050335421952,2022-02-03-08:30:50,10.1.1.2,1,-0.948,-1.450,-0.000,0.000,0.000,0.000
1643877050537506048,2022-02-03-08:30:50,10.1.1.2,2,-0.999,-1.450,-0.000,0.000,0.000,0.000
1643877050741136128,2022-02-03-08:30:50,10.1.1.2,4,-1.049,-1.450,-0.000,0.000,0.000,0.000
1643877050954147072,2022-02-03-08:30:50,10.1.1.2,16,-1.100,-1.450,-0.000,0.000,0.000,0.000
1643877051155313920,2022-02-03-08:30:51,10.1.1.2,16,-1.150,-1.450,-0.000,0.000,0.000,0.000
1643877051354726144,2022-02-03-08:30:51,10.1.1.2,14,-1.200,-1.450,-0.000,0.000,0.000,0.000
1643877051569729024,2022-02-03-08:30:51,10.1.1.2,27,-1.250,-1.450,-0.000,0.000,0.000,0.000
1643877051745984000,2022-02-03-08:30:51,10.1.1.2,1,-1.250,-1.450,-0.000,0.000,0.000,0.000
1643877051950043904,2022-02-03-08:30:51,10.1.1.2,3,-1.250,-1.401,-0.049,0.000,0.000,0.000
1643877052159849984,2022-02-03-08:30:52,10.1.1.2,12,-1.250,-1.350,-0.100,0.000,0.000,0.000
1643877052353612800,2022-02-03-08:30:52,10.1.1.2,4,-1.250,-1.302,-0.148,0.000,0.000,0.000
1643877052560709120,2022-02-03-08:30:52,10.1.1.2,9,-1.250,-1.250,-0.150,0.000,0.000,0.000
1643877052755760896,2022-02-03-08:30:52,10.1.1.2,3,-1.250,-1.203,-0.150,0.000,0.000,0.000
1643877052961218048,2022-02-03-08:30:52,10.1.1.2,5,-1.250,-1.150,-0.150,0.000,0.000,0.000
1643877053160738048,2022-02-03-08:30:53,10.1.1.2,4,-1.250,-1.101,-0.150,0.000,0.000,0.000
1643877053372459008,2022-02-03-08:30:53,10.1.1.2,14,-1.250,-1.050,-0.150,0.000,0.000,0.000
1643877053572568064,2022-02-03-08:30:53,10.1.1.2,11,-1.250,-1.000,-0.150,0.000,0.000,0.000
1643877053774380032,2022-02-03-08:30:53,10.1.1.2,12,-1.250,-0.950,-0.150,0.000,0.000,0.000
1643877053970551040,2022-02-03-08:30:53,10.1.1.2,5,-1.250,-0.900,-0.150,0.000,0.000,0.000
1643877054177341952,2022-02-03-08:30:54,10.1.1.2,11,-1.250,-0.850,-0.150,0.000,0.000,0.000
1643877054376195840,2022-02-03-08:30:54,10.1.1.2,9,-1.250,-0.800,-0.150,0.000,0.000,0.000
1643877054576065024,2022-02-03-08:30:54,10.1.1.2,8,-1.250,-0.750,-0.150,0.000,0.000,0.000
1643877054775415040,2022-02-03-08:30:54,10.1.1.2,6,-1.250,-0.700,-0.150,0.000,0.000,0.000
1643877054981106944,2022-02-03-08:30:54,10.1.1.2,10,-1.250,-0.650,-0.150,0.000,0.000,0.000
1643877055175862016,2022-02-03-08:30:55,10.1.1.2,5,-1.250,-0.601,-0.150,0.000,0.000,0.000
1643877055375521024,2022-02-03-08:30:55,10.1.1.2,3,-1.250,-0.551,-0.150,0.000,0.000,0.000
1643877055577373952,2022-02-03-08:30:55,10.1.1.2,4,-1.250,-0.512,-0.150,0.000,0.000,0.000
1643877055782802944,2022-02-03-08:30:55,10.1.1.2,6,-1.250,-0.456,-0.150,0.000,0.000,0.000
1643877055992664064,2022-02-03-08:30:55,10.1.1.2,14,-1.250,-0.399,-0.150,0.000,0.000,0.000
1643877056194828032,2022-02-03-08:30:56,10.1.1.2,14,-1.250,-0.350,-0.150,0.000,0.000,0.000
1643877056393191936,2022-02-03-08:30:56,10.1.1.2,7,-1.250,-0.350,-0.150,0.000,0.000,0.000
1643877056593131008,2022-02-03-08:30:56,10.1.1.2,6,-1.299,-0.399,-0.150,0.000,0.000,0.000
1643877056793662976,2022-02-03-08:30:56,10.1.1.2,6,-1.350,-0.400,-0.150,0.000,0.000,0.000
1643877056992260864,2022-02-03-08:30:56,10.1.1.2,4,-1.399,-0.400,-0.150,0.000,0.000,0.000
1643877057193284096,2022-02-03-08:30:57,10.1.1.2,4,-1.449,-0.400,-0.150,0.000,0.000,0.000
1643877057392073984,2022-02-03-08:30:57,10.1.1.2,2,-1.499,-0.400,-0.150,0.000,0.000,0.000
1643877057591685888,2022-02-03-08:30:57,10.1.1.2,1,-1.548,-0.400,-0.150,0.000,0.000,0.000
1643877057792897024,2022-02-03-08:30:57,10.1.1.2,1,-1.598,-0.400,-0.150,0.000,0.000,0.000
1643877058012679168,2022-02-03-08:30:58,10.1.1.2,20,-1.650,-0.400,-0.150,0.000,0.000,0.000
1643877058197857024,2022-02-03-08:30:58,10.1.1.2,4,-1.690,-0.400,-0.150,0.000,0.000,0.000
1643877058401114112,2022-02-03-08:30:58,10.1.1.2,6,-1.749,-0.400,-0.150,0.000,0.000,0.000
1643877058601947136,2022-02-03-08:30:58,10.1.1.2,5,-1.750,-0.400,-0.150,0.000,0.000,0.000
1643877058798067200,2022-02-03-08:30:58,10.1.1.2,1,-1.703,-0.447,-0.197,0.000,0.000,0.000
1643877059013867008,2022-02-03-08:30:59,10.1.1.2,15,-1.650,-0.500,-0.250,0.000,0.000,0.000
1643877059214822144,2022-02-03-08:30:59,10.1.1.2,15,-1.600,-0.550,-0.300,0.000,0.000,0.000
1643877059412081920,2022-02-03-08:30:59,10.1.1.2,7,-1.550,-0.600,-0.350,0.000,0.000,0.000
1643877059610842112,2022-02-03-08:30:59,10.1.1.2,5,-1.501,-0.649,-0.399,0.000,0.000,0.000
1643877059812453888,2022-02-03-08:30:59,10.1.1.2,6,-1.451,-0.699,-0.449,0.000,0.000,0.000
1643877060011001088,2022-02-03-08:31:00,10.1.1.2,3,-1.401,-0.749,-0.499,0.000,0.000,0.000
1643877060212389120,2022-02-03-08:31:00,10.1.1.2,3,-1.352,-0.798,-0.548,0.000,0.000,0.000
1643877060433274880,2022-02-03-08:31:00,10.1.1.2,21,-1.300,-0.850,-0.600,0.000,0.000,0.000
1643877060634237952,2022-02-03-08:31:00,10.1.1.2,21,-1.250,-0.900,-0.650,0.000,0.000,0.000
1643877060830658048,2022-02-03-08:31:00,10.1.1.2,16,-1.200,-0.950,-0.700,0.000,0.000,0.000
1643877061031192064,2022-02-03-08:31:01,10.1.1.2,16,-1.150,-0.950,-0.750,0.000,0.000,0.000
1643877061231257088,2022-02-03-08:31:01,10.1.1.2,15,-1.100,-0.950,-0.750,0.000,0.000,0.000
1643877061429903872,2022-02-03-08:31:01,10.1.1.2,11,-1.050,-0.950,-0.750,0.000,0.000,0.000
1643877061630251776,2022-02-03-08:31:01,10.1.1.2,10,-1.000,-0.950,-0.750,0.000,0.000,0.000
1643877061833388032,2022-02-03-08:31:01,10.1.1.2,12,-0.950,-0.950,-0.750,0.000,0.000,0.000
1643877062028685056,2022-02-03-08:31:02,10.1.1.2,6,-0.903,-0.950,-0.750,0.000,0.000,0.000
1643877062230839040,2022-02-03-08:31:02,10.1.1.2,7,-0.850,-0.950,-0.750,0.000,0.000,0.000
1643877062432358144,2022-02-03-08:31:02,10.1.1.2,8,-0.800,-0.950,-0.750,0.000,0.000,0.000
1643877062674770944,2022-02-03-08:31:02,10.1.1.2,47,-0.750,-0.950,-0.750,0.000,0.000,0.000
1643877062831233024,2022-02-03-08:31:02,10.1.1.2,4,-0.703,-0.950,-0.750,0.000,0.000,0.000
1643877063034461952,2022-02-03-08:31:03,10.1.1.2,6,-0.663,-0.950,-0.750,0.000,0.000,0.000
1643877063235104000,2022-02-03-08:31:03,10.1.1.2,5,-0.601,-0.950,-0.750,0.000,0.000,0.000
1643877063433274880,2022-02-03-08:31:03,10.1.1.2,3,-0.551,-0.950,-0.750,0.000,0.000,0.000
1643877063632685056,2022-02-03-08:31:03,10.1.1.2,1,-0.502,-0.950,-0.750,0.000,0.000,0.000
1643877063836744960,2022-02-03-08:31:03,10.1.1.2,5,-0.454,-0.950,-0.750,0.000,0.000,0.000
1643877064034638848,2022-02-03-08:31:04,10.1.1.2,1,-0.402,-0.950,-0.750,0.000,0.000,0.000
1643877064236413952,2022-02-03-08:31:04,10.1.1.2,1,-0.351,-0.950,-0.750,0.000,0.000,0.000
1643877064437170944,2022-02-03-08:31:04,10.1.1.2,2,-0.302,-0.950,-0.750,0.000,0.000,0.000
1643877064638097920,2022-02-03-08:31:04,10.1.1.2,2,-0.252,-0.950,-0.750,0.000,0.000,0.000
1643877064838251008,2022-02-03-08:31:04,10.1.1.2,1,-0.202,-0.950,-0.750,0.000,0.000,0.000
1643877065059126016,2022-02-03-08:31:05,10.1.1.2,20,-0.149,-0.950,-0.750,0.000,0.000,0.000
1643877065257746944,2022-02-03-08:31:05,10.1.1.2,18,-0.100,-0.950,-0.750,0.000,0.000,0.000
1643877065457922048,2022-02-03-08:31:05,10.1.1.2,17,-0.050,-0.950,-0.750,0.000,0.000,0.000
1643877065656318976,2022-02-03-08:31:05,10.1.1.2,14,-0.050,-0.950,-0.750,0.000,0.000,0.000
1643877065860922112,2022-02-03-08:31:05,10.1.1.2,18,0.000,-0.900,-0.700,0.000,0.000,0.000
1643877066058374912,2022-02-03-08:31:06,10.1.1.2,14,0.050,-0.850,-0.650,0.000,0.000,0.000
1643877066258572032,2022-02-03-08:31:06,10.1.1.2,14,0.100,-0.800,-0.600,0.000,0.000,0.000
1643877066456738048,2022-02-03-08:31:06,10.1.1.2,11,0.150,-0.750,-0.550,0.000,0.000,0.000
1643877066650477056,2022-02-03-08:31:06,10.1.1.2,4,0.198,-0.702,-0.502,0.000,0.000,0.000
1643877066857147904,2022-02-03-08:31:06,10.1.1.2,10,0.250,-0.650,-0.450,0.000,0.000,0.000
1643877067053236992,2022-02-03-08:31:07,10.1.1.2,5,0.299,-0.601,-0.401,0.000,0.000,0.000
1643877067253879040,2022-02-03-08:31:07,10.1.1.2,3,0.347,-0.553,-0.353,0.000,0.000,0.000
1643877067458387968,2022-02-03-08:31:07,10.1.1.2,7,0.400,-0.500,-0.300,0.000,0.000,0.000
1643877067657015040,2022-02-03-08:31:07,10.1.1.2,5,0.449,-0.451,-0.251,0.000,0.000,0.000
1643877067857561088,2022-02-03-08:31:07,10.1.1.2,5,0.499,-0.401,-0.250,0.000,0.000,0.000
1643877068056754176,2022-02-03-08:31:08,10.1.1.2,3,0.549,-0.351,-0.250,0.000,0.000,0.000
1643877068258733056,2022-02-03-08:31:08,10.1.1.2,3,0.599,-0.350,-0.250,0.000,0.000,0.000
1643877068458437888,2022-02-03-08:31:08,10.1.1.2,1,0.648,-0.350,-0.250,0.000,0.000,0.000
1643877068662675968,2022-02-03-08:31:08,10.1.1.2,4,0.696,-0.350,-0.250,0.000,0.000,0.000
1643877068860260864,2022-02-03-08:31:08,10.1.1.2,1,0.747,-0.350,-0.250,0.000,0.000,0.000
1643877069077830144,2022-02-03-08:31:09,10.1.1.2,17,0.802,-0.350,-0.250,0.000,0.000,0.000
1643877069277543168,2022-02-03-08:31:09,10.1.1.2,16,0.850,-0.350,-0.250,0.000,0.000,0.000
1643877069468002048,2022-02-03-08:31:09,10.1.1.2,5,0.892,-0.350,-0.250,0.000,0.000,0.000
1643877069681648896,2022-02-03-08:31:09,10.1.1.2,18,0.950,-0.350,-0.250,0.000,0.000,0.000
1643877069876488960,2022-02-03-08:31:09,10.1.1.2,12,1.000,-0.350,-0.250,0.000,0.000,0.000
1643877070083920128,2022-02-03-08:31:10,10.1.1.2,18,1.050,-0.350,-0.250,0.000,0.000,0.000
1643877070277138944,2022-02-03-08:31:10,10.1.1.2,11,1.100,-0.350,-0.250,0.000,0.000,0.000
1643877070476579072,2022-02-03-08:31:10,10.1.1.2,9,1.150,-0.350,-0.250,0.000,0.000,0.000
1643877070676350208,2022-02-03-08:31:10,10.1.1.2,8,1.200,-0.350,-0.250,0.000,0.000,0.000
1643877070874618112,2022-02-03-08:31:10,10.1.1.2,5,1.245,-0.350,-0.250,0.000,0.000,0.000
1643877071076678912,2022-02-03-08:31:11,10.1.1.2,6,1.250,-0.350,-0.250,0.000,0.000,0.000
1643877071277110016,2022-02-03-08:31:11,10.1.1.2,5,1.201,-0.301,-0.299,0.000,0.000,0.000
1643877071479048960,2022-02-03-08:31:11,10.1.1.2,6,1.151,-0.251,-0.349,0.000,0.000,0.000
1643877071676721152,2022-02-03-08:31:11,10.1.1.2,3,1.101,-0.201,-0.399,0.000,0.000,0.000
1643877071875916032,2022-02-03-08:31:11,10.1.1.2,1,1.052,-0.152,-0.448,0.000,0.000,0.000
1643877072077522944,2022-02-03-08:31:12,10.1.1.2,2,1.002,-0.150,-0.498,0.000,0.000,0.000
1643877072277607936,2022-02-03-08:31:12,10.1.1.2,1,0.955,-0.150,-0.500,0.000,0.000,0.000
1643877072484251136,2022-02-03-08:31:12,10.1.1.2,7,0.902,-0.150,-0.500,0.000,0.000,0.000
1643877072695525888,2022-02-03-08:31:12,10.1.1.2,17,0.848,-0.150,-0.500,0.000,0.000,0.000
1643877072882137088,2022-02-03-08:31:12,10.1.1.2,3,0.802,-0.150,-0.500,0.000,0.000,0.000
1643877073097410048,2022-02-03-08:31:13,10.1.1.2,16,0.800,-0.150,-0.500,0.000,0.000,0.000
1643877073303719168,2022-02-03-08:31:13,10.1.1.2,22,0.750,-0.200,-0.450,0.000,0.000,0.000
1643877073491309824,2022-02-03-08:31:13,10.1.1.2,6,0.701,-0.249,-0.401,0.000,0.000,0.000
1643877073694722816,2022-02-03-08:31:13,10.1.1.2,7,0.650,-0.300,-0.350,0.000,0.000,0.000
1643877073895152128,2022-02-03-08:31:13,10.1.1.2,6,0.600,-0.350,-0.300,0.000,0.000,0.000
1643877074094691072,2022-02-03-08:31:14,10.1.1.2,5,0.551,-0.399,-0.251,0.000,0.000,0.000
1643877074297278976,2022-02-03-08:31:14,10.1.1.2,6,0.500,-0.450,-0.200,0.000,0.000,0.000
1643877074497327104,2022-02-03-08:31:14,10.1.1.2,5,0.451,-0.499,-0.151,0.000,0.000,0.000
1643877074716280832,2022-02-03-08:31:14,10.1.1.2,20,0.400,-0.550,-0.100,0.000,0.000,0.000
1643877074914115072,2022-02-03-08:31:14,10.1.1.2,17,0.350,-0.600,-0.050,0.000,0.000,0.000
1643877075115372032,2022-02-03-08:31:15,10.1.1.2,17,0.300,-0.650,-0.000,0.000,0.000,0.000
1643877075315126016,2022-02-03-08:31:15,10.1.1.2,15,0.250,-0.700,-0.000,0.000,0.000,0.000
1643877075516206080,2022-02-03-08:31:15,10.1.1.2,15,0.200,-0.750,-0.000,0.000,0.000,0.000
1643877075715161088,2022-02-03-08:31:15,10.1.1.2,11,0.150,-0.800,-0.000,0.000,0.000,0.000
1643877075915257088,2022-02-03-08:31:15,10.1.1.2,11,0.100,-0.850,-0.000,0.000,0.000,0.000
1643877076122255104,2022-02-03-08:31:16,10.1.1.2,16,0.050,-0.900,-0.000,0.000,0.000,0.000
1643877076315244800,2022-02-03-08:31:16,10.1.1.2,8,0.000,-0.950,-0.000,0.000,0.000,0.000
1643877076534409984,2022-02-03-08:31:16,10.1.1.2,25,-0.050,-1.000,-0.000,0.000,0.000,0.000
1643877076713212928,2022-02-03-08:31:16,10.1.1.2,4,-0.099,-1.049,-0.000,0.000,0.000,0.000
1643877076919945984,2022-02-03-08:31:16,10.1.1.2,9,-0.150,-1.100,-0.000,0.000,0.000,0.000
1643877077120443136,2022-02-03-08:31:17,10.1.1.2,9,-0.200,-1.150,-0.000,0.000,0.000,0.000
1643877077319039232,2022-02-03-08:31:17,10.1.1.2,6,-0.250,-1.200,-0.000,0.000,0.000,0.000
1643877077521195776,2022-02-03-08:31:17,10.1.1.2,7,-0.299,-1.249,-0.000,0.000,0.000,0.000
1643877077739236096,2022-02-03-08:31:17,10.1.1.2,23,-0.350,-1.300,-0.000,0.000,0.000,0.000
1643877077919734016,2022-02-03-08:31:17,10.1.1.2,2,-0.393,-1.343,-0.000,0.000,0.000,0.000
1643877078136847872,2022-02-03-08:31:18,10.1.1.2,19,-0.450,-1.400,-0.000,0.000,0.000,0.000
1643877078337245952,2022-02-03-08:31:18,10.1.1.2,18,-0.501,-1.450,-0.000,0.000,0.000,0.000
1643877078538796032,2022-02-03-08:31:18,10.1.1.2,19,-0.550,-1.450,-0.000,0.000,0.000,0.000
1643877078739419904,2022-02-03-08:31:18,10.1.1.2,19,-0.600,-1.450,-0.000,0.000,0.000,0.000
1643877078927566080,2022-02-03-08:31:18,10.1.1.2,6,-0.643,-1.450,-0.000,0.000,0.000,0.000
1643877079130947072,2022-02-03-08:31:19,10.1.1.2,9,-0.700,-1.450,-0.000,0.000,0.000,0.000
1643877079331547904,2022-02-03-08:31:19,10.1.1.2,8,-0.750,-1.450,-0.000,0.000,0.000,0.000
1643877079531824128,2022-02-03-08:31:19,10.1.1.2,7,-0.800,-1.450,-0.000,0.000,0.000,0.000
1643877079733294080,2022-02-03-08:31:19,10.1.1.2,7,-0.850,-1.450,-0.000,0.000,0.000,0.000
1643877079932101888,2022-02-03-08:31:19,10.1.1.2,3,-0.899,-1.450,-0.000,0.000,0.000,0.000
1643877080133019904,2022-02-03-08:31:20,10.1.1.2,2,-0.948,-1.450,-0.000,0.000,0.000,0.000
1643877080353199104,2022-02-03-08:31:20,10.1.1.2,21,-1.000,-1.450,-0.000,0.000,0.000,0.000
1643877080550228224,2022-02-03-08:31:20,10.1.1.2,18,-1.051,-1.450,-0.000,0.000,0.000,0.000
1643877080751208192,2022-02-03-08:31:20,10.1.1.2,18,-1.100,-1.450,-0.000,0.000,0.000,0.000
1643877080952281088,2022-02-03-08:31:20,10.1.1.2,18,-1.150,-1.450,-0.000,0.000,0.000,0.000
1643877081152008960,2022-02-03-08:31:21,10.1.1.2,17,-1.200,-1.450,-0.000,0.000,0.000,0.000
1643877081350612992,2022-02-03-08:31:21,10.1.1.2,14,-1.250,-1.450,-0.000,0.000,0.000,0.000
1643877081551008000,2022-02-03-08:31:21,10.1.1.2,13,-1.250,-1.450,-0.000,0.000,0.000,0.000
1643877081750750976,2022-02-03-08:31:21,10.1.1.2,12,-1.200,-1.400,0.050,0.000,0.000,0.000
1643877081955686144,2022-02-03-08:31:21,10.1.1.2,16,-1.150,-1.350,0.100,0.000,0.000,0.000
1643877082146260992,2022-02-03-08:31:22,10.1.1.2,4,-1.103,-1.303,0.100,0.000,0.000,0.000
1643877082351276032,2022-02-03-08:31:22,10.1.1.2,6,-1.050,-1.250,0.100,0.000,0.000,0.000
1643877082551787008,2022-02-03-08:31:22,10.1.1.2,5,-1.001,-1.201,0.100,0.000,0.000,0.000
1643877082754434048,2022-02-03-08:31:22,10.1.1.2,7,-0.951,-1.151,0.100,0.000,0.000,0.000
1643877082951826944,2022-02-03-08:31:22,10.1.1.2,4,-0.901,-1.101,0.100,0.000,0.000,0.000
1643877083153774080,2022-02-03-08:31:23,10.1.1.2,2,-0.851,-1.051,0.100,0.000,0.000,0.000
1643877083361068032,2022-02-03-08:31:23,10.1.1.2,8,-0.803,-1.003,0.100,0.000,0.000,0.000
1643877083558935040,2022-02-03-08:31:23,10.1.1.2,5,-0.754,-0.954,0.100,0.000,0.000,0.000
1643877083757560064,2022-02-03-08:31:23,10.1.1.2,1,-0.702,-0.902,0.100,0.000,0.000,0.000
1643877083977033984,2022-02-03-08:31:23,10.1.1.2,19,-0.650,-0.850,0.100,0.000,0.000,0.000
1643877084165193984,2022-02-03-08:31:24,10.1.1.2,6,-0.602,-0.802,0.100,0.000,0.000,0.000
1643877084379035904,2022-02-03-08:31:24,10.1.1.2,19,-0.550,-0.750,0.100,0.000,0.000,0.000
1643877084577004032,2022-02-03-08:31:24,10.1.1.2,16,-0.500,-0.700,0.100,0.000,0.000,0.000
1643877084778206208,2022-02-03-08:31:24,10.1.1.2,16,-0.450,-0.650,0.100,0.000,0.000,0.000
1643877084963454976,2022-02-03-08:31:24,10.1.1.2,0,-0.404,-0.604,0.100,0.000,0.000,0.000
1643877085176919040,2022-02-03-08:31:25,10.1.1.2,12,-0.350,-0.550,0.100,0.000,0.000,0.000
1643877085370668800,2022-02-03-08:31:25,10.1.1.2,5,-0.301,-0.550,0.100,0.000,0.000,0.000
1643877085570557952,2022-02-03-08:31:25,10.1.1.2,4,-0.251,-0.550,0.100,0.000,0.000,0.000
1643877085770356992,2022-02-03-08:31:25,10.1.1.2,2,-0.250,-0.550,0.100,0.000,0.000,0.000
1643877085971243008,2022-02-03-08:31:25,10.1.1.2,2,-0.300,-0.500,0.050,0.000,0.000,0.000
1643877086174510080,2022-02-03-08:31:26,10.1.1.2,4,-0.349,-0.451,0.001,0.000,0.000,0.000
1643877086375056128,2022-02-03-08:31:26,10.1.1.2,3,-0.399,-0.401,-0.049,0.000,0.000,0.000
1643877086574147072,2022-02-03-08:31:26,10.1.1.2,1,-0.400,-0.352,-0.098,0.000,0.000,0.000
1643877086795151872,2022-02-03-08:31:26,10.1.1.2,20,-0.400,-0.300,-0.150,0.000,0.000,0.000
1643877086994492928,2022-02-03-08:31:26,10.1.1.2,19,-0.400,-0.250,-0.200,0.000,0.000,0.000
1643877087193938944,2022-02-03-08:31:27,10.1.1.2,17,-0.400,-0.250,-0.251,0.000,0.000,0.000
1643877087394121984,2022-02-03-08:31:27,10.1.1.2,17,-0.400,-0.250,-0.300,0.000,0.000,0.000
1643877087583122944,2022-02-03-08:31:27,10.1.1.2,5,-0.400,-0.250,-0.340,0.000,0.000,0.000
1643877087798294016,2022-02-03-08:31:27,10.1.1.2,19,-0.400,-0.250,-0.400,0.000,0.000,0.000
1643877087999948032,2022-02-03-08:31:27,10.1.1.2,19,-0.400,-0.250,-0.450,0.000,0.000,0.000
1643877088191785216,2022-02-03-08:31:28,10.1.1.2,9,-0.400,-0.250,-0.500,0.000,0.000,0.000
1643877088389827840,2022-02-03-08:31:28,10.1.1.2,7,-0.400,-0.250,-0.550,0.000,0.000,0.000
1643877088611150080,2022-02-03-08:31:28,10.1.1.2,17,-0.400,-0.250,-0.601,0.000,0.000,0.000
1643877088797643776,2022-02-03-08:31:28,10.1.1.2,2,-0.400,-0.250,-0.649,0.000,0.000,0.000
1643877089019586048,2022-02-03-08:31:29,10.1.1.2,23,-0.401,-0.251,-0.649,0.000,0.000,0.000
1643877089219404032,2022-02-03-08:31:29,10.1.1.2,21,-0.450,-0.300,-0.600,0.000,0.000,0.000
1643877089418438912,2022-02-03-08:31:29,10.1.1.2,18,-0.500,-0.350,-0.550,0.000,0.000,0.000
1643877089604387072,2022-02-03-08:31:29,10.1.1.2,2,-0.550,-0.400,-0.500,0.000,0.000,0.000
1643877089812283136,2022-02-03-08:31:29,10.1.1.2,9,-0.600,-0.450,-0.450,0.000,0.000,0.000
1643877090013061888,2022-02-03-08:31:30,10.1.1.2,9,-0.650,-0.500,-0.400,0.000,0.000,0.000
1643877090212847104,2022-02-03-08:31:30,10.1.1.2,8,-0.700,-0.550,-0.350,0.000,0.000,0.000
1643877090414514944,2022-02-03-08:31:30,10.1.1.2,8,-0.750,-0.600,-0.300,0.000,0.000,0.000
1643877090611888896,2022-02-03-08:31:30,10.1.1.2,5,-0.799,-0.649,-0.251,0.000,0.000,0.000
1643877090813001984,2022-02-03-08:31:30,10.1.1.2,5,-0.849,-0.699,-0.201,0.000,0.000,0.000
1643877091015276032,2022-02-03-08:31:31,10.1.1.2,6,-0.899,-0.749,-0.151,0.000,0.000,0.000
1643877091214898944,2022-02-03-08:31:31,10.1.1.2,5,-0.949,-0.799,-0.101,0.000,0.000,0.000
1643877091412942848,2022-02-03-08:31:31,10.1.1.2,2,-0.998,-0.848,-0.052,0.000,0.000,0.000
1643877091613581056,2022-02-03-08:31:31,10.1.1.2,0,-1.048,-0.898,-0.002,0.000,0.000,0.000
1643877091829019904,2022-02-03-08:31:31,10.1.1.2,15,-1.100,-0.950,-0.000,0.000,0.000,0.000
1643877092030849024,2022-02-03-08:31:32,10.1.1.2,15,-1.150,-1.000,-0.000,0.000,0.000,0.000
1643877092230482176,2022-02-03-08:31:32,10.1.1.2,15,-1.200,-1.050,-0.000,0.000,0.000,0.000
1643877092429289984,2022-02-03-08:31:32,10.1.1.2,12,-1.250,-1.100,-0.000,0.000,0.000,0.000
1643877092630404096,2022-02-03-08:31:32,10.1.1.2,11,-1.250,-1.150,-0.000,0.000,0.000,0.000
1643877092829608960,2022-02-03-08:31:32,10.1.1.2,10,-1.250,-1.200,-0.000,0.000,0.000,0.000
1643877093030297088,2022-02-03-08:31:33,10.1.1.2,10,-1.250,-1.250,-0.000,0.000,0.000,0.000
1643877093233843200,2022-02-03-08:31:33,10.1.1.2,13,-1.250,-1.300,-0.000,0.000,0.000,0.000
1643877093430691840,2022-02-03-08:31:33,10.1.1.2,8,-1.250,-1.350,-0.000,0.000,0.000,0.000
1643877093629508864,2022-02-03-08:31:33,10.1.1.2,6,-1.250,-1.400,-0.000,0.000,0.000,0.000
1643877093829857024,2022-02-03-08:31:33,10.1.1.2,6,-1.250,-1.450,-0.000,0.000,0.000,0.000
1643877094030055936,2022-02-03-08:31:34,10.1.1.2,4,-1.250,-1.450,-0.000,0.000,0.000,0.000
1643877094232779008,2022-02-03-08:31:34,10.1.1.2,7,-1.201,-1.401,-0.049,0.000,0.000,0.000
1643877094436923904,2022-02-03-08:31:34,10.1.1.2,10,-1.150,-1.350,-0.100,0.000,0.000,0.000
1643877094637176064,2022-02-03-08:31:34,10.1.1.2,9,-1.100,-1.300,-0.150,0.000,0.000,0.000
1643877094836291072,2022-02-03-08:31:34,10.1.1.2,7,-1.050,-1.250,-0.200,0.000,0.000,0.000
1643877095036574976,2022-02-03-08:31:35,10.1.1.2,5,-1.000,-1.200,-0.250,0.000,0.000,0.000
1643877095238509056,2022-02-03-08:31:35,10.1.1.2,7,-0.950,-1.150,-0.300,0.000,0.000,0.000
1643877095437541888,2022-02-03-08:31:35,10.1.1.2,2,-0.901,-1.101,-0.349,0.000,0.000,0.000
1643877095637847040,2022-02-03-08:31:35,10.1.1.2,1,-0.852,-1.052,-0.398,0.000,0.000,0.000
1643877095855329024,2022-02-03-08:31:35,10.1.1.2,18,-0.800,-1.000,-0.450,0.000,0.000,0.000
1643877096053443072,2022-02-03-08:31:36,10.1.1.2,15,-0.800,-1.000,-0.500,0.000,0.000,0.000
1643877096257021952,2022-02-03-08:31:36,10.1.1.2,18,-0.800,-1.000,-0.550,0.000,0.000,0.000
1643877096445123840,2022-02-03-08:31:36,10.1.1.2,5,-0.800,-1.000,-0.598,0.000,0.000,0.000
1643877096659241984,2022-02-03-08:31:36,10.1.1.2,18,-0.800,-1.000,-0.650,0.000,0.000,0.000
1643877096865837056,2022-02-03-08:31:36,10.1.1.2,24,-0.800,-1.000,-0.650,0.000,0.000,0.000
1643877097051532032,2022-02-03-08:31:37,10.1.1.2,8,-0.750,-0.950,-0.600,0.000,0.000,0.000
1643877097259555072,2022-02-03-08:31:37,10.1.1.2,16,-0.700,-0.900,-0.550,0.000,0.000,0.000
1643877097458909952,2022-02-03-08:31:37,10.1.1.2,14,-0.650,-0.850,-0.500,0.000,0.000,0.000
1643877097659207936,2022-02-03-08:31:37,10.1.1.2,13,-0.600,-0.800,-0.450,0.000,0.000,0.000
1643877097858996992,2022-02-03-08:31:37,10.1.1.2,12,-0.550,-0.750,-0.400,0.000,0.000,0.000
1643877098059875072,2022-02-03-08:31:38,10.1.1.2,12,-0.500,-0.700,-0.350,0.000,0.000,0.000
1643877098260075008,2022-02-03-08:31:38,10.1.1.2,11,-0.450,-0.650,-0.300,0.000,0.000,0.000
1643877098459191040,2022-02-03-08:31:38,10.1.1.2,10,-0.400,-0.600,-0.250,0.000,0.000,0.000
1643877098659372032,2022-02-03-08:31:38,10.1.1.2,9,-0.350,-0.550,-0.250,0.000,0.000,0.000
1643877098859993856,2022-02-03-08:31:38,10.1.1.2,9,-0.300,-0.500,-0.250,0.000,0.000,0.000
1643877099058834176,2022-02-03-08:31:39,10.1.1.2,5,-0.250,-0.450,-0.250,0.000,0.000,0.000
1643877099259873024,2022-02-03-08:31:39,10.1.1.2,4,-0.201,-0.401,-0.250,0.000,0.000,0.000
1643877099457118976,2022-02-03-08:31:39,10.1.1.2,0,-0.154,-0.354,-0.250,0.000,0.000,0.000
1643877099659734016,2022-02-03-08:31:39,10.1.1.2,1,-0.102,-0.350,-0.250,0.000,0.000,0.000
1643877099865184000,2022-02-03-08:31:39,10.1.1.2,5,-0.052,-0.350,-0.250,0.000,0.000,0.000
1643877100073385984,2022-02-03-08:31:40,10.1.1.2,13,0.000,-0.350,-0.250,0.000,0.000,0.000
1643877100269134080,2022-02-03-08:31:40,10.1.1.2,6,0.046,-0.350,-0.250,0.000,0.000,0.000
1643877100471712000,2022-02-03-08:31:40,10.1.1.2,7,0.100,-0.350,-0.250,0.000,0.000,0.000
1643877100671279872,2022-02-03-08:31:40,10.1.1.2,6,0.150,-0.350,-0.250,0.000,0.000,0.000
1643877100871203840,2022-02-03-08:31:40,10.1.1.2,1,0.199,-0.350,-0.250,0.000,0.000,0.000
1643877101072422912,2022-02-03-08:31:41,10.1.1.2,2,0.248,-0.350,-0.250,0.000,0.000,0.000
1643877101273697024,2022-02-03-08:31:41,10.1.1.2,1,0.299,-0.350,-0.250,0.000,0.000,0.000
1643877101474654976,2022-02-03-08:31:41,10.1.1.2,1,0.348,-0.350,-0.250,0.000,0.000,0.000
1643877101691698176,2022-02-03-08:31:41,10.1.1.2,16,0.400,-0.350,-0.250,0.000,0.000,0.000
1643877101893330944,2022-02-03-08:31:41,10.1.1.2,17,0.450,-0.350,-0.250,0.000,0.000,0.000
1643877102093484032,2022-02-03-08:31:42,10.1.1.2,15,0.500,-0.350,-0.250,0.000,0.000,0.000
1643877102292992000,2022-02-03-08:31:42,10.1.1.2,14,0.550,-0.350,-0.250,0.000,0.000,0.000
1643877102492812032,2022-02-03-08:31:42,10.1.1.2,13,0.600,-0.350,-0.250,0.000,0.000,0.000
1643877102693878016,2022-02-03-08:31:42,10.1.1.2,13,0.650,-0.350,-0.250,0.000,0.000,0.000
1643877102892750080,2022-02-03-08:31:42,10.1.1.2,11,0.700,-0.350,-0.250,0.000,0.000,0.000
1643877103093313024,2022-02-03-08:31:43,10.1.1.2,10,0.750,-0.350,-0.250,0.000,0.000,0.000
1643877103293821952,2022-02-03-08:31:43,10.1.1.2,7,0.800,-0.350,-0.250,0.000,0.000,0.000
1643877103492530176,2022-02-03-08:31:43,10.1.1.2,4,0.849,-0.350,-0.250,0.000,0.000,0.000
1643877103693037056,2022-02-03-08:31:43,10.1.1.2,3,0.899,-0.350,-0.250,0.000,0.000,0.000
1643877103892792064,2022-02-03-08:31:43,10.1.1.2,2,0.948,-0.350,-0.250,0.000,0.000,0.000
1643877104093827072,2022-02-03-08:31:44,10.1.1.2,2,0.998,-0.350,-0.250,0.000,0.000,0.000
1643877104313709056,2022-02-03-08:31:44,10.1.1.2,19,1.050,-0.350,-0.250,0.000,0.000,0.000
1643877104512860928,2022-02-03-08:31:44,10.1.1.2,17,1.100,-0.350,-0.250,0.000,0.000,0.000
1643877104712166144,2022-02-03-08:31:44,10.1.1.2,16,1.150,-0.350,-0.250,0.000,0.000,0.000
1643877104912141056,2022-02-03-08:31:44,10.1.1.2,15,1.200,-0.350,-0.250,0.000,0.000,0.000
1643877105113760000,2022-02-03-08:31:45,10.1.1.2,15,1.250,-0.350,-0.250,0.000,0.000,0.000
1643877105312378880,2022-02-03-08:31:45,10.1.1.2,12,1.250,-0.350,-0.250,0.000,0.000,0.000
1643877105516518144,2022-02-03-08:31:45,10.1.1.2,16,1.200,-0.400,-0.200,0.000,0.000,0.000
1643877105715218176,2022-02-03-08:31:45,10.1.1.2,13,1.150,-0.450,-0.150,0.000,0.000,0.000
1643877105911892992,2022-02-03-08:31:45,10.1.1.2,9,1.100,-0.500,-0.100,0.000,0.000,0.000
1643877106127938048,2022-02-03-08:31:46,10.1.1.2,24,1.050,-0.550,-0.050,0.000,0.000,0.000
1643877106312390144,2022-02-03-08:31:46,10.1.1.2,8,1.000,-0.600,-0.000,0.000,0.000,0.000
1643877106511992064,2022-02-03-08:31:46,10.1.1.2,7,0.950,-0.650,0.050,0.000,0.000,0.000
1643877106711030016,2022-02-03-08:31:46,10.1.1.2,5,0.907,-0.693,0.093,0.000,0.000,0.000
1643877106913186048,2022-02-03-08:31:46,10.1.1.2,6,0.851,-0.749,0.149,0.000,0.000,0.000
1643877107112855040,2022-02-03-08:31:47,10.1.1.2,4,0.801,-0.799,0.199,0.000,0.000,0.000
1643877107312033024,2022-02-03-08:31:47,10.1.1.2,2,0.750,-0.850,0.250,0.000,0.000,0.000
1643877107512237056,2022-02-03-08:31:47,10.1.1.2,1,0.702,-0.898,0.298,0.000,0.000,0.000
1643877107733051136,2022-02-03-08:31:47,10.1.1.2,21,0.650,-0.950,0.350,0.000,0.000,0.000
1643877107918864128,2022-02-03-08:31:47,10.1.1.2,5,0.602,-0.998,0.398,0.000,0.000,0.000
1643877108131205120,2022-02-03-08:31:48,10.1.1.2,16,0.550,-1.050,0.400,0.000,0.000,0.000
1643877108331916032,2022-02-03-08:31:48,10.1.1.2,16,0.500,-1.100,0.400,0.000,0.000,0.000
1643877108531457024,2022-02-03-08:31:48,10.1.1.2,15,0.450,-1.150,0.400,0.000,0.000,0.000
1643877108723200000,2022-02-03-08:31:48,10.1.1.2,6,0.450,-1.150,0.400,0.000,0.000,0.000
1643877108933927168,2022-02-03-08:31:48,10.1.1.2,16,0.400,-1.100,0.350,0.000,0.000,0.000
1643877109133748992,2022-02-03-08:31:49,10.1.1.2,15,0.350,-1.050,0.300,0.000,0.000,0.000
1643877109336384000,2022-02-03-08:31:49,10.1.1.2,17,0.300,-1.000,0.250,0.000,0.000,0.000
1643877109535216128,2022-02-03-08:31:49,10.1.1.2,15,0.250,-0.950,0.200,0.000,0.000,0.000
1643877109735965952,2022-02-03-08:31:49,10.1.1.2,11,0.200,-0.900,0.150,0.000,0.000,0.000
1643877109935309056,2022-02-03-08:31:49,10.1.1.2,5,0.150,-0.850,0.100,0.000,0.000,0.000
1643877110133958144,2022-02-03-08:31:50,10.1.1.2,4,0.101,-0.801,0.051,0.000,0.000,0.000
1643877110335267072,2022-02-03-08:31:50,10.1.1.2,4,0.051,-0.751,0.001,0.000,0.000,0.000
1643877110536578048,2022-02-03-08:31:50,10.1.1.2,4,0.001,-0.701,-0.049,0.000,0.000,0.000
1643877110734739968,2022-02-03-08:31:50,10.1.1.2,1,-0.048,-0.652,-0.098,0.000,0.000,0.000
1643877110936599040,2022-02-03-08:31:50,10.1.1.2,1,-0.098,-0.602,-0.148,0.000,0.000,0.000
1643877111137280000,2022-02-03-08:31:51,10.1.1.2,1,-0.149,-0.551,-0.199,0.000,0.000,0.000
1643877111352045056,2022-02-03-08:31:51,10.1.1.2,15,-0.200,-0.500,-0.250,0.000,0.000,0.000
1643877111555372032,2022-02-03-08:31:51,10.1.1.2,16,-0.250,-0.450,-0.300,0.000,0.000,0.000
1643877111758980096,2022-02-03-08:31:51,10.1.1.2,19,-0.301,-0.399,-0.351,0.000,0.000,0.000
1643877111959865088,2022-02-03-08:31:51,10.1.1.2,18,-0.350,-0.350,-0.400,0.000,0.000,0.000
1643877112147796992,2022-02-03-08:31:52,10.1.1.2,5,-0.398,-0.302,-0.448,0.000,0.000,0.000
1643877112374526976,2022-02-03-08:31:52,10.1.1.2,31,-0.450,-0.250,-0.500,0.000,0.000,0.000
1643877112550622976,2022-02-03-08:31:52,10.1.1.2,4,-0.500,-0.200,-0.500,0.000,0.000,0.000
1643877112750983936,2022-02-03-08:31:52,10.1.1.2,4,-0.549,-0.151,-0.500,0.000,0.000,0.000
1643877112951906048,2022-02-03-08:31:52,10.1.1.2,1,-0.599,-0.150,-0.500,0.000,0.000,0.000
1643877113153654016,2022-02-03-08:31:53,10.1.1.2,3,-0.649,-0.150,-0.500,0.000,0.000,0.000
1643877113371165952,2022-02-03-08:31:53,10.1.1.2,19,-0.700,-0.150,-0.500,0.000,0.000,0.000
1643877113570885888,2022-02-03-08:31:53,10.1.1.2,17,-0.750,-0.150,-0.500,0.000,0.000,0.000
1643877113760102144,2022-02-03-08:31:53,10.1.1.2,4,-0.750,-0.150,-0.500,0.000,0.000,0.000
1643877113970258944,2022-02-03-08:31:53,10.1.1.2,9,-0.750,-0.150,-0.500,0.000,0.000,0.000
1643877114171027968,2022-02-03-08:31:54,10.1.1.2,8,-0.700,-0.200,-0.450,0.000,0.000,0.000
1643877114370713088,2022-02-03-08:31:54,10.1.1.2,7,-0.650,-0.250,-0.450,0.000,0.000,0.000
1643877114571261952,2022-02-03-08:31:54,10.1.1.2,6,-0.601,-0.299,-0.450,0.000,0.000,0.000
1643877114770543104,2022-02-03-08:31:54,10.1.1.2,5,-0.550,-0.350,-0.450,0.000,0.000,0.000
1643877114971514112,2022-02-03-08:31:54,10.1.1.2,5,-0.501,-0.399,-0.450,0.000,0.000,0.000
1643877115170772992,2022-02-03-08:31:55,10.1.1.2,3,-0.451,-0.449,-0.450,0.000,0.000,0.000
1643877115370232064,2022-02-03-08:31:55,10.1.1.2,2,-0.450,-0.498,-0.450,0.000,0.000,0.000
1643877115572779776,2022-02-03-08:31:55,10.1.1.2,3,-0.450,-0.548,-0.450,0.000,0.000,0.000
1643877115790960128,2022-02-03-08:31:55,10.1.1.2,18,-0.450,-0.600,-0.450,0.000,0.000,0.000
1643877115991213056,2022-02-03-08:31:55,10.1.1.2,16,-0.450,-0.650,-0.450,0.000,0.000,0.000
1643877116189491968,2022-02-03-08:31:56,10.1.1.2,14,-0.450,-0.700,-0.450,0.000,0.000,0.000
1643877116390459136,2022-02-03-08:31:56,10.1.1.2,14,-0.450,-0.750,-0.450,0.000,0.000,0.000
