FedericoMungari/DigitalTwin_service/01_WiredScenario/Output/Output_script/script_rosapi_2_output_robots8_freq0_6.txt
timestamp,date,node,latency,joint_1,joint_2,joint_3,joint_4,joint_5,joint_6
1644915518951625984,2022-02-15-08:58:38,10.1.1.7,6,-0.100,-0.100,-0.100,0.000,0.000,-0.000
1644915519031173888,2022-02-15-08:58:39,10.1.1.7,35,-0.090,-0.090,-0.090,0.000,0.000,0.000
1644915519071666944,2022-02-15-08:58:39,10.1.1.7,24,-0.080,-0.080,-0.080,0.000,0.000,0.000
1644915519132163072,2022-02-15-08:58:39,10.1.1.7,34,-0.070,-0.070,-0.070,0.000,0.000,0.000
1644915519171426048,2022-02-15-08:58:39,10.1.1.7,23,-0.060,-0.060,-0.060,0.000,0.000,0.000
1644915519230853120,2022-02-15-08:58:39,10.1.1.7,33,-0.050,-0.050,-0.050,0.000,0.000,0.000
1644915519431325952,2022-02-15-08:58:39,10.1.1.7,29,-0.010,-0.010,-0.010,0.000,0.000,0.000
1644915519491183104,2022-02-15-08:58:39,10.1.1.7,38,0.000,0.000,0.000,0.000,0.000,0.000
1644915519531507968,2022-02-15-08:58:39,10.1.1.7,27,0.010,0.010,0.010,0.000,0.000,0.000
1644915519590873088,2022-02-15-08:58:39,10.1.1.7,36,0.020,0.020,0.020,0.000,0.000,0.000
1644915519631552000,2022-02-15-08:58:39,10.1.1.7,26,0.030,0.030,0.030,0.000,0.000,0.000
1644915519692476928,2022-02-15-08:58:39,10.1.1.7,35,0.040,0.040,0.040,0.000,0.000,0.000
1644915519951073792,2022-02-15-08:58:39,10.1.1.7,38,0.090,0.090,0.090,0.000,0.000,0.000
1644915519991452928,2022-02-15-08:58:39,10.1.1.7,27,0.100,0.100,0.100,0.000,0.000,0.000
1644915520052353024,2022-02-15-08:58:40,10.1.1.7,36,0.090,0.090,0.090,0.000,0.000,0.000
1644915520091667968,2022-02-15-08:58:40,10.1.1.7,25,0.080,0.080,0.080,0.000,0.000,0.000
1644915520151633920,2022-02-15-08:58:40,10.1.1.7,35,0.070,0.070,0.070,0.000,0.000,0.000
1644915520192464128,2022-02-15-08:58:40,10.1.1.7,24,0.060,0.060,0.060,0.000,0.000,0.000
1644915520253318144,2022-02-15-08:58:40,10.1.1.7,34,0.050,0.050,0.050,0.000,0.000,0.000
1644915520292094976,2022-02-15-08:58:40,10.1.1.7,23,0.040,0.040,0.040,0.000,0.000,0.000
1644915520551035904,2022-02-15-08:58:40,10.1.1.7,28,-0.010,-0.010,-0.010,0.000,0.000,0.000
1644915520612536064,2022-02-15-08:58:40,10.1.1.7,37,-0.020,-0.020,-0.020,0.000,0.000,0.000
1644915520651499008,2022-02-15-08:58:40,10.1.1.7,27,-0.030,-0.030,-0.030,0.000,0.000,0.000
1644915520711545088,2022-02-15-08:58:40,10.1.1.7,36,-0.040,-0.040,-0.040,0.000,0.000,0.000
1644915520751225088,2022-02-15-08:58:40,10.1.1.7,26,-0.050,-0.050,-0.050,0.000,0.000,0.000
1644915520811245056,2022-02-15-08:58:40,10.1.1.7,33,-0.060,-0.060,-0.060,0.000,0.000,0.000
1644915520971738112,2022-02-15-08:58:40,10.1.1.7,39,-0.090,-0.090,-0.090,0.000,0.000,0.000
1644915521011537920,2022-02-15-08:58:41,10.1.1.7,28,-0.100,-0.100,-0.100,0.000,0.000,0.000
1644915521072073984,2022-02-15-08:58:41,10.1.1.7,38,-0.090,-0.090,-0.090,0.000,0.000,0.000
1644915521111571200,2022-02-15-08:58:41,10.1.1.7,28,-0.080,-0.080,-0.080,0.000,0.000,0.000
1644915521171662080,2022-02-15-08:58:41,10.1.1.7,37,-0.070,-0.070,-0.070,0.000,0.000,0.000
1644915521211298048,2022-02-15-08:58:41,10.1.1.7,26,-0.060,-0.060,-0.060,0.000,0.000,0.000
1644915521271523072,2022-02-15-08:58:41,10.1.1.7,36,-0.050,-0.050,-0.050,0.000,0.000,0.000
1644915521312164096,2022-02-15-08:58:41,10.1.1.7,25,-0.040,-0.040,-0.040,0.000,0.000,0.000
1644915521371582976,2022-02-15-08:58:41,10.1.1.7,34,-0.030,-0.030,-0.030,0.000,0.000,0.000
1644915521411379200,2022-02-15-08:58:41,10.1.1.7,23,-0.020,-0.020,-0.020,0.000,0.000,0.000
1644915521671586048,2022-02-15-08:58:41,10.1.1.7,29,0.030,0.030,0.030,0.000,0.000,0.000
1644915521730986240,2022-02-15-08:58:41,10.1.1.7,37,0.040,0.040,0.040,0.000,0.000,0.000
1644915521770955008,2022-02-15-08:58:41,10.1.1.7,27,0.050,0.050,0.050,0.000,0.000,0.000
1644915521830985984,2022-02-15-08:58:41,10.1.1.7,36,0.060,0.060,0.060,0.000,0.000,0.000
1644915521871602176,2022-02-15-08:58:41,10.1.1.7,26,0.070,0.070,0.070,0.000,0.000,0.000
1644915521931401984,2022-02-15-08:58:41,10.1.1.7,35,0.080,0.080,0.080,0.000,0.000,0.000
1644915521971173120,2022-02-15-08:58:41,10.1.1.7,24,0.090,0.090,0.090,0.000,0.000,0.000
1644915522053178112,2022-02-15-08:58:42,10.1.1.7,0,0.090,0.090,0.090,0.000,0.000,0.000
1644915522131565056,2022-02-15-08:58:42,10.1.1.7,28,0.080,0.080,0.080,0.000,0.000,0.000
1644915522191235072,2022-02-15-08:58:42,10.1.1.7,37,0.070,0.070,0.070,0.000,0.000,0.000
1644915522232199936,2022-02-15-08:58:42,10.1.1.7,27,0.060,0.060,0.060,0.000,0.000,0.000
1644915522291052032,2022-02-15-08:58:42,10.1.1.7,36,0.050,0.050,0.050,0.000,0.000,0.000
1644915522330703872,2022-02-15-08:58:42,10.1.1.7,26,0.040,0.040,0.040,0.000,0.000,0.000
1644915522391354112,2022-02-15-08:58:42,10.1.1.7,35,0.030,0.030,0.030,0.000,0.000,0.000
1644915522431443968,2022-02-15-08:58:42,10.1.1.7,25,0.020,0.020,0.020,0.000,0.000,0.000
1644915522513562880,2022-02-15-08:58:42,10.1.1.7,35,0.010,0.010,0.010,0.000,0.000,0.000
1644915522613033984,2022-02-15-08:58:42,10.1.1.7,28,-0.010,-0.010,-0.010,0.000,0.000,0.000
1644915522672334080,2022-02-15-08:58:42,10.1.1.7,38,-0.020,-0.020,-0.020,0.000,0.000,0.000
1644915522713790976,2022-02-15-08:58:42,10.1.1.7,27,-0.030,-0.030,-0.030,0.000,0.000,0.000
1644915522772325888,2022-02-15-08:58:42,10.1.1.7,37,-0.040,-0.040,-0.040,0.000,0.000,0.000
1644915522813071872,2022-02-15-08:58:42,10.1.1.7,27,-0.050,-0.050,-0.050,0.000,0.000,0.000
1644915522872549120,2022-02-15-08:58:42,10.1.1.7,36,-0.060,-0.060,-0.060,0.000,0.000,0.000
1644915522911901952,2022-02-15-08:58:42,10.1.1.7,25,-0.070,-0.070,-0.070,0.000,0.000,0.000
1644915522971823104,2022-02-15-08:58:42,10.1.1.7,35,-0.080,-0.080,-0.080,0.000,0.000,0.000
1644915523012749824,2022-02-15-08:58:43,10.1.1.7,24,-0.090,-0.090,-0.090,0.000,0.000,0.000
1644915523071490048,2022-02-15-08:58:43,10.1.1.7,34,-0.100,-0.100,-0.100,0.000,0.000,0.000
1644915523111601152,2022-02-15-08:58:43,10.1.1.7,24,-0.090,-0.090,-0.090,0.000,0.000,0.000
1644915523171510016,2022-02-15-08:58:43,10.1.1.7,33,-0.080,-0.080,-0.080,0.000,0.000,0.000
1644915523372617984,2022-02-15-08:58:43,10.1.1.7,28,-0.040,-0.040,-0.040,0.000,0.000,0.000
1644915523432441856,2022-02-15-08:58:43,10.1.1.7,37,-0.030,-0.030,-0.030,0.000,0.000,0.000
1644915523471489792,2022-02-15-08:58:43,10.1.1.7,26,-0.020,-0.020,-0.020,0.000,0.000,0.000
1644915523533538048,2022-02-15-08:58:43,10.1.1.7,36,-0.010,-0.010,-0.010,0.000,0.000,0.000
1644915523572211968,2022-02-15-08:58:43,10.1.1.7,26,0.000,0.000,0.000,0.000,0.000,0.000
1644915523633473024,2022-02-15-08:58:43,10.1.1.7,35,0.010,0.010,0.010,0.000,0.000,0.000
1644915523670636800,2022-02-15-08:58:43,10.1.1.7,24,0.020,0.020,0.020,0.000,0.000,0.000
1644915523731368960,2022-02-15-08:58:43,10.1.1.7,33,0.030,0.030,0.030,0.000,0.000,0.000
1644915523930844928,2022-02-15-08:58:43,10.1.1.7,29,0.070,0.070,0.070,0.000,0.000,0.000
1644915523991441920,2022-02-15-08:58:43,10.1.1.7,38,0.080,0.080,0.080,0.000,0.000,0.000
1644915524033178112,2022-02-15-08:58:44,10.1.1.7,28,0.090,0.090,0.090,0.000,0.000,0.000
1644915524092870912,2022-02-15-08:58:44,10.1.1.7,37,0.100,0.100,0.100,0.000,0.000,0.000
1644915524133382144,2022-02-15-08:58:44,10.1.1.7,27,0.090,0.090,0.090,0.000,0.000,0.000
1644915524194277888,2022-02-15-08:58:44,10.1.1.7,36,0.080,0.080,0.080,0.000,0.000,0.000
1644915524233001984,2022-02-15-08:58:44,10.1.1.7,25,0.070,0.070,0.070,0.000,0.000,0.000
1644915524292304896,2022-02-15-08:58:44,10.1.1.7,34,0.060,0.060,0.060,0.000,0.000,0.000
1644915524331022080,2022-02-15-08:58:44,10.1.1.7,23,0.050,0.050,0.050,0.000,0.000,0.000
1644915524592539136,2022-02-15-08:58:44,10.1.1.7,29,0.000,0.000,0.000,0.000,0.000,0.000
1644915524653515008,2022-02-15-08:58:44,10.1.1.7,39,-0.010,-0.010,-0.010,0.000,0.000,0.000
1644915524693198080,2022-02-15-08:58:44,10.1.1.7,28,-0.020,-0.020,-0.020,0.000,0.000,0.000
1644915524802735104,2022-02-15-08:58:44,10.1.1.7,27,-0.040,-0.040,-0.040,0.000,0.000,0.000
1644915524852896000,2022-02-15-08:58:44,10.1.1.7,36,-0.050,-0.050,-0.050,0.000,0.000,0.000
1644915524892872960,2022-02-15-08:58:44,10.1.1.7,25,-0.060,-0.060,-0.060,0.000,0.000,0.000
1644915524951685888,2022-02-15-08:58:44,10.1.1.7,35,-0.070,-0.070,-0.070,0.000,0.000,0.000
1644915524992785920,2022-02-15-08:58:44,10.1.1.7,25,-0.080,-0.080,-0.080,0.000,0.000,0.000
1644915525051134208,2022-02-15-08:58:45,10.1.1.7,34,-0.090,-0.090,-0.090,0.000,0.000,0.000
1644915525092315904,2022-02-15-08:58:45,10.1.1.7,24,-0.100,-0.100,-0.100,0.000,0.000,0.000
1644915525151670016,2022-02-15-08:58:45,10.1.1.7,33,-0.090,-0.090,-0.090,0.000,0.000,0.000
1644915525193677056,2022-02-15-08:58:45,10.1.1.7,24,-0.080,-0.080,-0.080,0.000,0.000,0.000
1644915525492402176,2022-02-15-08:58:45,10.1.1.7,20,-0.020,-0.020,-0.020,0.000,0.000,0.000
1644915525612976128,2022-02-15-08:58:45,10.1.1.7,38,0.000,0.000,0.000,0.000,0.000,0.000
1644915525651983872,2022-02-15-08:58:45,10.1.1.7,28,0.010,0.010,0.010,0.000,0.000,0.000
1644915525712732928,2022-02-15-08:58:45,10.1.1.7,38,0.020,0.020,0.020,0.000,0.000,0.000
1644915525752068096,2022-02-15-08:58:45,10.1.1.7,28,0.030,0.030,0.030,0.000,0.000,0.000
1644915525812123136,2022-02-15-08:58:45,10.1.1.7,37,0.040,0.040,0.040,0.000,0.000,0.000
1644915525852408832,2022-02-15-08:58:45,10.1.1.7,26,0.050,0.050,0.050,0.000,0.000,0.000
1644915525911702016,2022-02-15-08:58:45,10.1.1.7,35,0.060,0.060,0.060,0.000,0.000,0.000
1644915525951442944,2022-02-15-08:58:45,10.1.1.7,25,0.070,0.070,0.070,0.000,0.000,0.000
1644915526012614912,2022-02-15-08:58:46,10.1.1.7,34,0.080,0.080,0.080,0.000,0.000,0.000
1644915526191162112,2022-02-15-08:58:46,10.1.1.7,10,0.080,0.080,0.080,0.000,0.000,0.000
1644915526272547072,2022-02-15-08:58:46,10.1.1.7,39,0.070,0.070,0.070,0.000,0.000,0.000
1644915526312465920,2022-02-15-08:58:46,10.1.1.7,28,0.060,0.060,0.060,0.000,0.000,0.000
1644915526372108032,2022-02-15-08:58:46,10.1.1.7,38,0.050,0.050,0.050,0.000,0.000,0.000
1644915526411966208,2022-02-15-08:58:46,10.1.1.7,27,0.040,0.040,0.040,0.000,0.000,0.000
1644915526471631104,2022-02-15-08:58:46,10.1.1.7,37,0.030,0.030,0.030,0.000,0.000,0.000
1644915526511627008,2022-02-15-08:58:46,10.1.1.7,27,0.020,0.020,0.020,0.000,0.000,0.000
1644915526571436800,2022-02-15-08:58:46,10.1.1.7,37,0.010,0.010,0.010,0.000,0.000,0.000
1644915526614056960,2022-02-15-08:58:46,10.1.1.7,26,0.000,0.000,0.000,0.000,0.000,0.000
1644915526672743936,2022-02-15-08:58:46,10.1.1.7,36,-0.010,-0.010,-0.010,0.000,0.000,0.000
1644915526711898112,2022-02-15-08:58:46,10.1.1.7,25,-0.020,-0.020,-0.020,0.000,0.000,0.000
1644915526771320064,2022-02-15-08:58:46,10.1.1.7,35,-0.030,-0.030,-0.030,0.000,0.000,0.000
1644915526811206144,2022-02-15-08:58:46,10.1.1.7,25,-0.040,-0.040,-0.040,0.000,0.000,0.000
1644915526876058112,2022-02-15-08:58:46,10.1.1.7,34,-0.050,-0.050,-0.050,0.000,0.000,0.000
1644915527192082944,2022-02-15-08:58:47,10.1.1.7,29,-0.090,-0.090,-0.090,0.000,0.000,0.000
1644915527251565056,2022-02-15-08:58:47,10.1.1.7,38,-0.080,-0.080,-0.080,0.000,0.000,0.000
1644915527292246016,2022-02-15-08:58:47,10.1.1.7,27,-0.070,-0.070,-0.070,0.000,0.000,0.000
1644915527570918144,2022-02-15-08:58:47,10.1.1.7,38,-0.020,-0.020,-0.020,0.000,0.000,0.000
1644915527611147008,2022-02-15-08:58:47,10.1.1.7,28,-0.010,-0.010,-0.010,0.000,0.000,0.000
1644915527671750912,2022-02-15-08:58:47,10.1.1.7,37,0.000,0.000,0.000,0.000,0.000,0.000
1644915527712172032,2022-02-15-08:58:47,10.1.1.7,26,0.010,0.010,0.010,0.000,0.000,0.000
1644915527771004928,2022-02-15-08:58:47,10.1.1.7,35,0.020,0.020,0.020,0.000,0.000,0.000
1644915527931465984,2022-02-15-08:58:47,10.1.1.7,38,0.050,0.050,0.050,0.000,0.000,0.000
1644915527971610112,2022-02-15-08:58:47,10.1.1.7,27,0.060,0.060,0.060,0.000,0.000,0.000
1644915528031579136,2022-02-15-08:58:48,10.1.1.7,36,0.070,0.070,0.070,0.000,0.000,0.000
1644915528071141888,2022-02-15-08:58:48,10.1.1.7,25,0.080,0.080,0.080,0.000,0.000,0.000
1644915528131233024,2022-02-15-08:58:48,10.1.1.7,34,0.090,0.090,0.090,0.000,0.000,0.000
1644915528171312128,2022-02-15-08:58:48,10.1.1.7,24,0.100,0.100,0.100,0.000,0.000,0.000
1644915528433774080,2022-02-15-08:58:48,10.1.1.7,29,0.050,0.050,0.050,0.000,0.000,0.000
1644915528494643968,2022-02-15-08:58:48,10.1.1.7,38,0.040,0.040,0.040,0.000,0.000,0.000
1644915528532030976,2022-02-15-08:58:48,10.1.1.7,27,0.030,0.030,0.030,0.000,0.000,0.000
1644915528591856896,2022-02-15-08:58:48,10.1.1.7,37,0.020,0.020,0.020,0.000,0.000,0.000
1644915528633506048,2022-02-15-08:58:48,10.1.1.7,26,0.010,0.010,0.010,0.000,0.000,0.000
1644915528692090880,2022-02-15-08:58:48,10.1.1.7,36,0.000,0.000,0.000,0.000,0.000,0.000
1644915528731073024,2022-02-15-08:58:48,10.1.1.7,26,-0.010,-0.010,-0.010,0.000,0.000,0.000
1644915528792525056,2022-02-15-08:58:48,10.1.1.7,35,-0.020,-0.020,-0.020,0.000,0.000,0.000
1644915528831536128,2022-02-15-08:58:48,10.1.1.7,25,-0.030,-0.030,-0.030,0.000,0.000,0.000
1644915529092302080,2022-02-15-08:58:49,10.1.1.7,29,-0.080,-0.080,-0.080,0.000,0.000,0.000
1644915529152297984,2022-02-15-08:58:49,10.1.1.7,38,-0.090,-0.090,-0.090,0.000,0.000,0.000
1644915529191461120,2022-02-15-08:58:49,10.1.1.7,28,-0.100,-0.100,-0.100,0.000,0.000,0.000
1644915529254106112,2022-02-15-08:58:49,10.1.1.7,36,-0.090,-0.090,-0.090,0.000,0.000,0.000
1644915529294287872,2022-02-15-08:58:49,10.1.1.7,25,-0.080,-0.080,-0.080,0.000,0.000,0.000
1644915529351870976,2022-02-15-08:58:49,10.1.1.7,33,-0.070,-0.070,-0.070,0.000,0.000,0.000
1644915529471740928,2022-02-15-08:58:49,10.1.1.7,34,-0.050,-0.050,-0.050,0.000,0.000,0.000
1644915529511720960,2022-02-15-08:58:49,10.1.1.7,24,-0.040,-0.040,-0.040,0.000,0.000,0.000
1644915529771023872,2022-02-15-08:58:49,10.1.1.7,29,0.010,0.010,0.010,0.000,0.000,0.000
1644915529831479040,2022-02-15-08:58:49,10.1.1.7,38,0.020,0.020,0.020,0.000,0.000,0.000
1644915529871618048,2022-02-15-08:58:49,10.1.1.7,27,0.030,0.030,0.030,0.000,0.000,0.000
1644915529931426048,2022-02-15-08:58:49,10.1.1.7,37,0.040,0.040,0.040,0.000,0.000,0.000
1644915529971918080,2022-02-15-08:58:49,10.1.1.7,27,0.050,0.050,0.050,0.000,0.000,0.000
1644915530031846144,2022-02-15-08:58:50,10.1.1.7,36,0.060,0.060,0.060,0.000,0.000,0.000
1644915530073229056,2022-02-15-08:58:50,10.1.1.7,25,0.070,0.070,0.070,0.000,0.000,0.000
1644915530131230208,2022-02-15-08:58:50,10.1.1.7,34,0.080,0.080,0.080,0.000,0.000,0.000
1644915530173199872,2022-02-15-08:58:50,10.1.1.7,24,0.090,0.090,0.090,0.000,0.000,0.000
1644915530233935104,2022-02-15-08:58:50,10.1.1.7,33,0.100,0.100,0.100,0.000,0.000,0.000
1644915530391667968,2022-02-15-08:58:50,10.1.1.7,38,0.070,0.070,0.070,0.000,0.000,0.000
1644915530432795136,2022-02-15-08:58:50,10.1.1.7,27,0.060,0.060,0.060,0.000,0.000,0.000
1644915530491982848,2022-02-15-08:58:50,10.1.1.7,37,0.050,0.050,0.050,0.000,0.000,0.000
1644915530533966080,2022-02-15-08:58:50,10.1.1.7,25,0.040,0.040,0.040,0.000,0.000,0.000
1644915530591244032,2022-02-15-08:58:50,10.1.1.7,33,0.030,0.030,0.030,0.000,0.000,0.000
1644915530751126016,2022-02-15-08:58:50,10.1.1.7,39,0.000,0.000,0.000,0.000,0.000,0.000
1644915530792237056,2022-02-15-08:58:50,10.1.1.7,27,-0.010,-0.010,-0.010,0.000,0.000,0.000
1644915530854571008,2022-02-15-08:58:50,10.1.1.7,35,-0.020,-0.020,-0.020,0.000,0.000,0.000
1644915530890609152,2022-02-15-08:58:50,10.1.1.7,24,-0.030,-0.030,-0.030,0.000,0.000,0.000
1644915530951168000,2022-02-15-08:58:50,10.1.1.7,33,-0.040,-0.040,-0.040,0.000,0.000,0.000
1644915531151035904,2022-02-15-08:58:51,10.1.1.7,29,-0.080,-0.080,-0.080,0.000,0.000,0.000
1644915531210836992,2022-02-15-08:58:51,10.1.1.7,38,-0.090,-0.090,-0.090,0.000,0.000,0.000
1644915531251853824,2022-02-15-08:58:51,10.1.1.7,27,-0.100,-0.100,-0.100,0.000,0.000,0.000
1644915531311460864,2022-02-15-08:58:51,10.1.1.7,37,-0.090,-0.090,-0.090,0.000,0.000,0.000
1644915531351755008,2022-02-15-08:58:51,10.1.1.7,26,-0.080,-0.080,-0.080,0.000,0.000,0.000
1644915531411606016,2022-02-15-08:58:51,10.1.1.7,36,-0.070,-0.070,-0.070,0.000,0.000,0.000
1644915531452253952,2022-02-15-08:58:51,10.1.1.7,25,-0.060,-0.060,-0.060,0.000,0.000,0.000
1644915531511943168,2022-02-15-08:58:51,10.1.1.7,35,-0.050,-0.050,-0.050,0.000,0.000,0.000
1644915531552218880,2022-02-15-08:58:51,10.1.1.7,24,-0.040,-0.040,-0.040,0.000,0.000,0.000
1644915531613115136,2022-02-15-08:58:51,10.1.1.7,34,-0.030,-0.030,-0.030,0.000,0.000,0.000
1644915531811670016,2022-02-15-08:58:51,10.1.1.7,29,0.010,0.010,0.010,0.000,0.000,0.000
1644915531871314944,2022-02-15-08:58:51,10.1.1.7,38,0.020,0.020,0.020,0.000,0.000,0.000
1644915531911830784,2022-02-15-08:58:51,10.1.1.7,27,0.030,0.030,0.030,0.000,0.000,0.000
1644915531971514880,2022-02-15-08:58:51,10.1.1.7,36,0.040,0.040,0.040,0.000,0.000,0.000
1644915532012475136,2022-02-15-08:58:52,10.1.1.7,25,0.050,0.050,0.050,0.000,0.000,0.000
1644915532071548928,2022-02-15-08:58:52,10.1.1.7,34,0.060,0.060,0.060,0.000,0.000,0.000
1644915532111044864,2022-02-15-08:58:52,10.1.1.7,23,0.070,0.070,0.070,0.000,0.000,0.000
1644915532172602880,2022-02-15-08:58:52,10.1.1.7,33,0.080,0.080,0.080,0.000,0.000,0.000
1644915532331432192,2022-02-15-08:58:52,10.1.1.7,39,0.090,0.090,0.090,0.000,0.000,0.000
1644915532372133888,2022-02-15-08:58:52,10.1.1.7,28,0.080,0.080,0.080,0.000,0.000,0.000
1644915532431698176,2022-02-15-08:58:52,10.1.1.7,38,0.070,0.070,0.070,0.000,0.000,0.000
1644915532471120128,2022-02-15-08:58:52,10.1.1.7,27,0.060,0.060,0.060,0.000,0.000,0.000
1644915532531474176,2022-02-15-08:58:52,10.1.1.7,37,0.050,0.050,0.050,0.000,0.000,0.000
1644915532574126080,2022-02-15-08:58:52,10.1.1.7,26,0.040,0.040,0.040,0.000,0.000,0.000
1644915532632678144,2022-02-15-08:58:52,10.1.1.7,35,0.030,0.030,0.030,0.000,0.000,0.000
1644915532675859968,2022-02-15-08:58:52,10.1.1.7,24,0.020,0.020,0.020,0.000,0.000,0.000
1644915532733298176,2022-02-15-08:58:52,10.1.1.7,34,0.010,0.010,0.010,0.000,0.000,0.000
1644915532894176000,2022-02-15-08:58:52,10.1.1.7,38,-0.020,-0.020,-0.020,0.000,0.000,0.000
1644915532931983872,2022-02-15-08:58:52,10.1.1.7,28,-0.030,-0.030,-0.030,0.000,0.000,0.000
1644915532992051968,2022-02-15-08:58:52,10.1.1.7,35,-0.040,-0.040,-0.040,0.000,0.000,0.000
1644915533033090048,2022-02-15-08:58:53,10.1.1.7,25,-0.050,-0.050,-0.050,0.000,0.000,0.000
1644915533093166080,2022-02-15-08:58:53,10.1.1.7,34,-0.060,-0.060,-0.060,0.000,0.000,0.000
1644915533131032064,2022-02-15-08:58:53,10.1.1.7,24,-0.070,-0.070,-0.070,0.000,0.000,0.000
1644915533191518976,2022-02-15-08:58:53,10.1.1.7,33,-0.080,-0.080,-0.080,0.000,0.000,0.000
1644915533371778048,2022-02-15-08:58:53,10.1.1.7,11,-0.080,-0.080,-0.080,0.000,0.000,0.000
1644915533551387136,2022-02-15-08:58:53,10.1.1.7,39,-0.050,-0.050,-0.050,0.000,0.000,0.000
1644915533596668928,2022-02-15-08:58:53,10.1.1.7,29,-0.040,-0.040,-0.040,0.000,0.000,0.000
1644915533640887040,2022-02-15-08:58:53,10.1.1.7,-6,-0.040,-0.040,-0.040,0.000,0.000,0.000
1644915533804197120,2022-02-15-08:58:53,10.1.1.7,36,-0.010,-0.010,-0.010,0.000,0.000,0.000
1644915533852921088,2022-02-15-08:58:53,10.1.1.7,28,0.000,0.000,0.000,0.000,0.000,0.000
1644915534351348992,2022-02-15-08:58:54,10.1.1.7,39,0.090,0.090,0.090,0.000,0.000,0.000
1644915534391827968,2022-02-15-08:58:54,10.1.1.7,29,0.100,0.100,0.100,0.000,0.000,0.000
1644915534450855936,2022-02-15-08:58:54,10.1.1.7,38,0.090,0.090,0.090,0.000,0.000,0.000
1644915534491190784,2022-02-15-08:58:54,10.1.1.7,27,0.080,0.080,0.080,0.000,0.000,0.000
1644915534550785024,2022-02-15-08:58:54,10.1.1.7,35,0.070,0.070,0.070,0.000,0.000,0.000
1644915534591448064,2022-02-15-08:58:54,10.1.1.7,25,0.060,0.060,0.060,0.000,0.000,0.000
1644915534650885120,2022-02-15-08:58:54,10.1.1.7,33,0.050,0.050,0.050,0.000,0.000,0.000
1644915534853675008,2022-02-15-08:58:54,10.1.1.7,29,0.010,0.010,0.010,0.000,0.000,0.000
1644915534912476160,2022-02-15-08:58:54,10.1.1.7,37,0.000,0.000,0.000,0.000,0.000,0.000
1644915534951504896,2022-02-15-08:58:54,10.1.1.7,27,-0.010,-0.010,-0.010,0.000,0.000,0.000
1644915535010673920,2022-02-15-08:58:55,10.1.1.7,36,-0.020,-0.020,-0.020,0.000,0.000,0.000
1644915535050870784,2022-02-15-08:58:55,10.1.1.7,26,-0.030,-0.030,-0.030,0.000,0.000,0.000
1644915535111022080,2022-02-15-08:58:55,10.1.1.7,35,-0.040,-0.040,-0.040,0.000,0.000,0.000
1644915535151514112,2022-02-15-08:58:55,10.1.1.7,24,-0.050,-0.050,-0.050,0.000,0.000,0.000
1644915535370862848,2022-02-15-08:58:55,10.1.1.7,38,-0.090,-0.090,-0.090,0.000,0.000,0.000
1644915535411730176,2022-02-15-08:58:55,10.1.1.7,28,-0.100,-0.100,-0.100,0.000,0.000,0.000
1644915535470948096,2022-02-15-08:58:55,10.1.1.7,36,-0.090,-0.090,-0.090,0.000,0.000,0.000
1644915535511353856,2022-02-15-08:58:55,10.1.1.7,26,-0.080,-0.080,-0.080,0.000,0.000,0.000
1644915535571230976,2022-02-15-08:58:55,10.1.1.7,36,-0.070,-0.070,-0.070,0.000,0.000,0.000
1644915535611104000,2022-02-15-08:58:55,10.1.1.7,24,-0.060,-0.060,-0.060,0.000,0.000,0.000
1644915535671154944,2022-02-15-08:58:55,10.1.1.7,33,-0.050,-0.050,-0.050,0.000,0.000,0.000
1644915535931444992,2022-02-15-08:58:55,10.1.1.7,39,0.000,0.000,0.000,0.000,0.000,0.000
1644915535970588928,2022-02-15-08:58:55,10.1.1.7,28,0.010,0.010,0.010,0.000,0.000,0.000
1644915536031457024,2022-02-15-08:58:56,10.1.1.7,38,0.020,0.020,0.020,0.000,0.000,0.000
1644915536072019200,2022-02-15-08:58:56,10.1.1.7,28,0.030,0.030,0.030,0.000,0.000,0.000
1644915536131313152,2022-02-15-08:58:56,10.1.1.7,37,0.040,0.040,0.040,0.000,0.000,0.000
1644915536171305984,2022-02-15-08:58:56,10.1.1.7,27,0.050,0.050,0.050,0.000,0.000,0.000
1644915536231574016,2022-02-15-08:58:56,10.1.1.7,36,0.060,0.060,0.060,0.000,0.000,0.000
1644915536272188928,2022-02-15-08:58:56,10.1.1.7,26,0.070,0.070,0.070,0.000,0.000,0.000
1644915536331792128,2022-02-15-08:58:56,10.1.1.7,36,0.080,0.080,0.080,0.000,0.000,0.000
1644915536371504128,2022-02-15-08:58:56,10.1.1.7,25,0.090,0.090,0.090,0.000,0.000,0.000
1644915536432655104,2022-02-15-08:58:56,10.1.1.7,35,0.100,0.100,0.100,0.000,0.000,0.000
1644915536472109056,2022-02-15-08:58:56,10.1.1.7,24,0.090,0.090,0.090,0.000,0.000,0.000
1644915536530771968,2022-02-15-08:58:56,10.1.1.7,34,0.080,0.080,0.080,0.000,0.000,0.000
1644915536790668032,2022-02-15-08:58:56,10.1.1.7,39,0.030,0.030,0.030,0.000,0.000,0.000
1644915536831307008,2022-02-15-08:58:56,10.1.1.7,28,0.020,0.020,0.020,0.000,0.000,0.000
1644915536893017088,2022-02-15-08:58:56,10.1.1.7,37,0.010,0.010,0.010,0.000,0.000,0.000
1644915536931453952,2022-02-15-08:58:56,10.1.1.7,27,0.000,0.000,0.000,0.000,0.000,0.000
1644915536990611200,2022-02-15-08:58:56,10.1.1.7,36,-0.010,-0.010,-0.010,0.000,0.000,0.000
1644915537031049984,2022-02-15-08:58:57,10.1.1.7,25,-0.020,-0.020,-0.020,0.000,0.000,0.000
1644915537091249920,2022-02-15-08:58:57,10.1.1.7,35,-0.030,-0.030,-0.030,0.000,0.000,0.000
1644915537131371008,2022-02-15-08:58:57,10.1.1.7,25,-0.040,-0.040,-0.040,0.000,0.000,0.000
1644915537191528960,2022-02-15-08:58:57,10.1.1.7,34,-0.050,-0.050,-0.050,0.000,0.000,0.000
1644915537551875072,2022-02-15-08:58:57,10.1.1.7,39,-0.080,-0.080,-0.080,0.000,0.000,0.000
1644915537591540992,2022-02-15-08:58:57,10.1.1.7,28,-0.070,-0.070,-0.070,0.000,0.000,0.000
1644915537650798080,2022-02-15-08:58:57,10.1.1.7,38,-0.060,-0.060,-0.060,0.000,0.000,0.000
1644915537769435904,2022-02-15-08:58:57,10.1.1.7,27,-0.050,-0.050,-0.050,0.000,0.000,0.000
1644915538010927872,2022-02-15-08:58:58,10.1.1.7,39,0.000,0.000,0.000,0.000,0.000,0.000
1644915538051884032,2022-02-15-08:58:58,10.1.1.7,29,0.010,0.010,0.010,0.000,0.000,0.000
1644915538111526912,2022-02-15-08:58:58,10.1.1.7,38,0.020,0.020,0.020,0.000,0.000,0.000
1644915538151568896,2022-02-15-08:58:58,10.1.1.7,28,0.030,0.030,0.030,0.000,0.000,0.000
1644915538213068032,2022-02-15-08:58:58,10.1.1.7,37,0.040,0.040,0.040,0.000,0.000,0.000
1644915538251804160,2022-02-15-08:58:58,10.1.1.7,26,0.050,0.050,0.050,0.000,0.000,0.000
1644915538316904960,2022-02-15-08:58:58,10.1.1.7,36,0.060,0.060,0.060,0.000,0.000,0.000
1644915538495471872,2022-02-15-08:58:58,10.1.1.7,20,0.090,0.090,0.090,0.000,0.000,0.000
1644915538551755008,2022-02-15-08:58:58,10.1.1.7,29,0.100,0.100,0.100,0.000,0.000,0.000
1644915538613421056,2022-02-15-08:58:58,10.1.1.7,38,0.090,0.090,0.090,0.000,0.000,0.000
1644915538652879104,2022-02-15-08:58:58,10.1.1.7,28,0.080,0.080,0.080,0.000,0.000,0.000
1644915538712492032,2022-02-15-08:58:58,10.1.1.7,37,0.070,0.070,0.070,0.000,0.000,0.000
1644915538752307968,2022-02-15-08:58:58,10.1.1.7,27,0.060,0.060,0.060,0.000,0.000,0.000
1644915538812356864,2022-02-15-08:58:58,10.1.1.7,37,0.050,0.050,0.050,0.000,0.000,0.000
1644915538851489024,2022-02-15-08:58:58,10.1.1.7,26,0.040,0.040,0.040,0.000,0.000,0.000
1644915538911727872,2022-02-15-08:58:58,10.1.1.7,36,0.030,0.030,0.030,0.000,0.000,0.000
1644915538951981056,2022-02-15-08:58:58,10.1.1.7,25,0.020,0.020,0.020,0.000,0.000,0.000
1644915539013392896,2022-02-15-08:58:59,10.1.1.7,35,0.010,0.010,0.010,0.000,0.000,0.000
1644915539052366080,2022-02-15-08:58:59,10.1.1.7,24,0.000,0.000,0.000,0.000,0.000,0.000
1644915539111918080,2022-02-15-08:58:59,10.1.1.7,33,-0.010,-0.010,-0.010,0.000,0.000,0.000
1644915539373064960,2022-02-15-08:58:59,10.1.1.7,39,-0.060,-0.060,-0.060,0.000,0.000,0.000
1644915539411489024,2022-02-15-08:58:59,10.1.1.7,28,-0.070,-0.070,-0.070,0.000,0.000,0.000
1644915539472227072,2022-02-15-08:58:59,10.1.1.7,38,-0.080,-0.080,-0.080,0.000,0.000,0.000
1644915539512953088,2022-02-15-08:58:59,10.1.1.7,27,-0.090,-0.090,-0.090,0.000,0.000,0.000
1644915539572541952,2022-02-15-08:58:59,10.1.1.7,37,-0.100,-0.100,-0.100,0.000,0.000,0.000
1644915539614572032,2022-02-15-08:58:59,10.1.1.7,26,-0.090,-0.090,-0.090,0.000,0.000,0.000
1644915539672744960,2022-02-15-08:58:59,10.1.1.7,35,-0.080,-0.080,-0.080,0.000,0.000,0.000
1644915539713038848,2022-02-15-08:58:59,10.1.1.7,24,-0.070,-0.070,-0.070,0.000,0.000,0.000
1644915539772941056,2022-02-15-08:58:59,10.1.1.7,33,-0.060,-0.060,-0.060,0.000,0.000,0.000
1644915539812935168,2022-02-15-08:58:59,10.1.1.7,23,-0.050,-0.050,-0.050,0.000,0.000,0.000
1644915540072182784,2022-02-15-08:59:00,10.1.1.7,30,0.000,0.000,0.000,0.000,0.000,0.000
1644915540131639040,2022-02-15-08:59:00,10.1.1.7,39,0.010,0.010,0.010,0.000,0.000,0.000
1644915540171703040,2022-02-15-08:59:00,10.1.1.7,27,0.020,0.020,0.020,0.000,0.000,0.000
1644915540232130048,2022-02-15-08:59:00,10.1.1.7,37,0.030,0.030,0.030,0.000,0.000,0.000
1644915540272324096,2022-02-15-08:59:00,10.1.1.7,27,0.040,0.040,0.040,0.000,0.000,0.000
1644915540452806912,2022-02-15-08:59:00,10.1.1.7,36,0.070,0.070,0.070,0.000,0.000,0.000
1644915540492284928,2022-02-15-08:59:00,10.1.1.7,24,0.080,0.080,0.080,0.000,0.000,0.000
1644915540551778048,2022-02-15-08:59:00,10.1.1.7,33,0.090,0.090,0.090,0.000,0.000,0.000
1644915540632133120,2022-02-15-08:59:00,10.1.1.7,12,0.090,0.090,0.090,0.000,0.000,0.000
1644915540752377088,2022-02-15-08:59:00,10.1.1.7,27,0.070,0.070,0.070,0.000,0.000,0.000
1644915540811974912,2022-02-15-08:59:00,10.1.1.7,36,0.060,0.060,0.060,0.000,0.000,0.000
1644915540854473216,2022-02-15-08:59:00,10.1.1.7,26,0.050,0.050,0.050,0.000,0.000,0.000
1644915540913949952,2022-02-15-08:59:00,10.1.1.7,35,0.040,0.040,0.040,0.000,0.000,0.000
1644915540952802048,2022-02-15-08:59:00,10.1.1.7,25,0.030,0.030,0.030,0.000,0.000,0.000
1644915541013140992,2022-02-15-08:59:01,10.1.1.7,35,0.020,0.020,0.020,0.000,0.000,0.000
1644915541051352064,2022-02-15-08:59:01,10.1.1.7,24,0.010,0.010,0.010,0.000,0.000,0.000
1644915541112633088,2022-02-15-08:59:01,10.1.1.7,33,0.000,0.000,0.000,0.000,0.000,0.000
1644915541273221888,2022-02-15-08:59:01,10.1.1.7,39,-0.030,-0.030,-0.030,0.000,0.000,0.000
1644915541311961856,2022-02-15-08:59:01,10.1.1.7,29,-0.040,-0.040,-0.040,0.000,0.000,0.000
1644915541371212032,2022-02-15-08:59:01,10.1.1.7,39,-0.050,-0.050,-0.050,0.000,0.000,0.000
1644915541411580928,2022-02-15-08:59:01,10.1.1.7,28,-0.060,-0.060,-0.060,0.000,0.000,0.000
1644915541471787008,2022-02-15-08:59:01,10.1.1.7,37,-0.070,-0.070,-0.070,0.000,0.000,0.000
1644915541510870016,2022-02-15-08:59:01,10.1.1.7,26,-0.080,-0.080,-0.080,0.000,0.000,0.000
1644915541571757056,2022-02-15-08:59:01,10.1.1.7,36,-0.090,-0.090,-0.090,0.000,0.000,0.000
1644915541610644992,2022-02-15-08:59:01,10.1.1.7,25,-0.100,-0.100,-0.100,0.000,0.000,0.000
1644915541672038912,2022-02-15-08:59:01,10.1.1.7,35,-0.090,-0.090,-0.090,0.000,0.000,0.000
1644915541712030976,2022-02-15-08:59:01,10.1.1.7,25,-0.080,-0.080,-0.080,0.000,0.000,0.000
1644915541772258048,2022-02-15-08:59:01,10.1.1.7,34,-0.070,-0.070,-0.070,0.000,0.000,0.000
1644915541811745792,2022-02-15-08:59:01,10.1.1.7,23,-0.060,-0.060,-0.060,0.000,0.000,0.000
1644915542074734080,2022-02-15-08:59:02,10.1.1.7,27,-0.010,-0.010,-0.010,0.000,0.000,0.000
1644915542394404864,2022-02-15-08:59:02,10.1.1.7,29,0.050,0.050,0.050,0.000,0.000,0.000
1644915542451142144,2022-02-15-08:59:02,10.1.1.7,38,0.060,0.060,0.060,0.000,0.000,0.000
1644915542492120064,2022-02-15-08:59:02,10.1.1.7,28,0.070,0.070,0.070,0.000,0.000,0.000
1644915542552509952,2022-02-15-08:59:02,10.1.1.7,37,0.080,0.080,0.080,0.000,0.000,0.000
1644915542593686016,2022-02-15-08:59:02,10.1.1.7,27,0.090,0.090,0.090,0.000,0.000,0.000
1644915542652178944,2022-02-15-08:59:02,10.1.1.7,36,0.100,0.100,0.100,0.000,0.000,0.000
1644915542692989184,2022-02-15-08:59:02,10.1.1.7,25,0.090,0.090,0.090,0.000,0.000,0.000
1644915542752898048,2022-02-15-08:59:02,10.1.1.7,35,0.080,0.080,0.080,0.000,0.000,0.000
1644915542791683840,2022-02-15-08:59:02,10.1.1.7,25,0.070,0.070,0.070,0.000,0.000,0.000
1644915542853051904,2022-02-15-08:59:02,10.1.1.7,34,0.060,0.060,0.060,0.000,0.000,0.000
1644915542892218112,2022-02-15-08:59:02,10.1.1.7,24,0.050,0.050,0.050,0.000,0.000,0.000
1644915542952009984,2022-02-15-08:59:02,10.1.1.7,33,0.040,0.040,0.040,0.000,0.000,0.000
1644915543112375040,2022-02-15-08:59:03,10.1.1.7,39,0.010,0.010,0.010,0.000,0.000,0.000
1644915543152528896,2022-02-15-08:59:03,10.1.1.7,29,0.000,0.000,0.000,0.000,0.000,0.000
1644915543211941120,2022-02-15-08:59:03,10.1.1.7,38,-0.010,-0.010,-0.010,0.000,0.000,0.000
1644915543253699072,2022-02-15-08:59:03,10.1.1.7,27,-0.020,-0.020,-0.020,0.000,0.000,0.000
1644915543313155840,2022-02-15-08:59:03,10.1.1.7,37,-0.030,-0.030,-0.030,0.000,0.000,0.000
1644915543351717120,2022-02-15-08:59:03,10.1.1.7,26,-0.040,-0.040,-0.040,0.000,0.000,0.000
1644915543412482048,2022-02-15-08:59:03,10.1.1.7,35,-0.050,-0.050,-0.050,0.000,0.000,0.000
1644915543450882048,2022-02-15-08:59:03,10.1.1.7,25,-0.060,-0.060,-0.060,0.000,0.000,0.000
1644915543511360768,2022-02-15-08:59:03,10.1.1.7,35,-0.070,-0.070,-0.070,0.000,0.000,0.000
1644915543551841024,2022-02-15-08:59:03,10.1.1.7,24,-0.080,-0.080,-0.080,0.000,0.000,0.000
1644915543611782144,2022-02-15-08:59:03,10.1.1.7,34,-0.090,-0.090,-0.090,0.000,0.000,0.000
1644915543653065984,2022-02-15-08:59:03,10.1.1.7,24,-0.100,-0.100,-0.100,0.000,0.000,0.000
1644915543711993856,2022-02-15-08:59:03,10.1.1.7,33,-0.090,-0.090,-0.090,0.000,0.000,0.000
1644915543971934976,2022-02-15-08:59:03,10.1.1.7,33,-0.050,-0.050,-0.050,0.000,0.000,0.000
1644915544026246144,2022-02-15-08:59:04,10.1.1.7,23,-0.040,-0.040,-0.040,0.000,0.000,0.000
1644915544132167168,2022-02-15-08:59:04,10.1.1.7,38,-0.020,-0.020,-0.020,0.000,0.000,0.000
1644915544171747072,2022-02-15-08:59:04,10.1.1.7,27,-0.010,-0.010,-0.010,0.000,0.000,0.000
1644915544232854016,2022-02-15-08:59:04,10.1.1.7,37,0.000,0.000,0.000,0.000,0.000,0.000
1644915544271902208,2022-02-15-08:59:04,10.1.1.7,26,0.010,0.010,0.010,0.000,0.000,0.000
1644915544330652928,2022-02-15-08:59:04,10.1.1.7,36,0.020,0.020,0.020,0.000,0.000,0.000
1644915544370880000,2022-02-15-08:59:04,10.1.1.7,25,0.030,0.030,0.030,0.000,0.000,0.000
1644915544432452864,2022-02-15-08:59:04,10.1.1.7,35,0.040,0.040,0.040,0.000,0.000,0.000
1644915544470860032,2022-02-15-08:59:04,10.1.1.7,24,0.050,0.050,0.050,0.000,0.000,0.000
1644915544732322048,2022-02-15-08:59:04,10.1.1.7,29,0.100,0.100,0.100,0.000,0.000,0.000
1644915544793356032,2022-02-15-08:59:04,10.1.1.7,38,0.090,0.090,0.090,0.000,0.000,0.000
1644915544832907008,2022-02-15-08:59:04,10.1.1.7,28,0.080,0.080,0.080,0.000,0.000,0.000
1644915544932257792,2022-02-15-08:59:04,10.1.1.7,27,0.060,0.060,0.060,0.000,0.000,0.000
1644915544991631104,2022-02-15-08:59:04,10.1.1.7,36,0.050,0.050,0.050,0.000,0.000,0.000
1644915545032998144,2022-02-15-08:59:05,10.1.1.7,26,0.040,0.040,0.040,0.000,0.000,0.000
1644915545092244992,2022-02-15-08:59:05,10.1.1.7,35,0.030,0.030,0.030,0.000,0.000,0.000
1644915545131886080,2022-02-15-08:59:05,10.1.1.7,25,0.020,0.020,0.020,0.000,0.000,0.000
1644915545192758016,2022-02-15-08:59:05,10.1.1.7,35,0.010,0.010,0.010,0.000,0.000,0.000
1644915545232347136,2022-02-15-08:59:05,10.1.1.7,24,0.000,0.000,0.000,0.000,0.000,0.000
1644915545291878912,2022-02-15-08:59:05,10.1.1.7,34,-0.010,-0.010,-0.010,0.000,0.000,0.000
1644915545331660032,2022-02-15-08:59:05,10.1.1.7,23,-0.020,-0.020,-0.020,0.000,0.000,0.000
1644915545653263104,2022-02-15-08:59:05,10.1.1.7,39,-0.080,-0.080,-0.080,0.000,0.000,0.000
1644915545692783104,2022-02-15-08:59:05,10.1.1.7,29,-0.090,-0.090,-0.090,0.000,0.000,0.000
1644915545752262144,2022-02-15-08:59:05,10.1.1.7,38,-0.100,-0.100,-0.100,0.000,0.000,0.000
1644915545792112128,2022-02-15-08:59:05,10.1.1.7,27,-0.090,-0.090,-0.090,0.000,0.000,0.000
1644915545851095808,2022-02-15-08:59:05,10.1.1.7,37,-0.080,-0.080,-0.080,0.000,0.000,0.000
1644915545892260096,2022-02-15-08:59:05,10.1.1.7,26,-0.070,-0.070,-0.070,0.000,0.000,0.000
1644915545951456000,2022-02-15-08:59:05,10.1.1.7,35,-0.060,-0.060,-0.060,0.000,0.000,0.000
1644915545992151040,2022-02-15-08:59:05,10.1.1.7,25,-0.050,-0.050,-0.050,0.000,0.000,0.000
1644915546051269120,2022-02-15-08:59:06,10.1.1.7,34,-0.040,-0.040,-0.040,0.000,0.000,0.000
1644915546092637952,2022-02-15-08:59:06,10.1.1.7,24,-0.030,-0.030,-0.030,0.000,0.000,0.000
1644915546152198144,2022-02-15-08:59:06,10.1.1.7,34,-0.020,-0.020,-0.020,0.000,0.000,0.000
1644915546192460032,2022-02-15-08:59:06,10.1.1.7,23,-0.010,-0.010,-0.010,0.000,0.000,0.000
1644915546252159232,2022-02-15-08:59:06,10.1.1.7,29,0.000,0.000,0.000,0.000,0.000,0.000
1644915546313168128,2022-02-15-08:59:06,10.1.1.7,38,0.010,0.010,0.010,0.000,0.000,0.000
1644915546351795968,2022-02-15-08:59:06,10.1.1.7,27,0.020,0.020,0.020,0.000,0.000,0.000
1644915546413074944,2022-02-15-08:59:06,10.1.1.7,36,0.030,0.030,0.030,0.000,0.000,0.000
1644915546453691904,2022-02-15-08:59:06,10.1.1.7,26,0.040,0.040,0.040,0.000,0.000,0.000
1644915546511905024,2022-02-15-08:59:06,10.1.1.7,35,0.050,0.050,0.050,0.000,0.000,0.000
1644915546552334080,2022-02-15-08:59:06,10.1.1.7,25,0.060,0.060,0.060,0.000,0.000,0.000
1644915546611756032,2022-02-15-08:59:06,10.1.1.7,33,0.070,0.070,0.070,0.000,0.000,0.000
1644915546713447936,2022-02-15-08:59:06,10.1.1.7,29,0.090,0.090,0.090,0.000,0.000,0.000
1644915546772022016,2022-02-15-08:59:06,10.1.1.7,38,0.100,0.100,0.100,0.000,0.000,0.000
1644915546811866112,2022-02-15-08:59:06,10.1.1.7,28,0.090,0.090,0.090,0.000,0.000,0.000
1644915546872270080,2022-02-15-08:59:06,10.1.1.7,37,0.080,0.080,0.080,0.000,0.000,0.000
1644915546912591104,2022-02-15-08:59:06,10.1.1.7,26,0.070,0.070,0.070,0.000,0.000,0.000
1644915546972069120,2022-02-15-08:59:06,10.1.1.7,37,0.060,0.060,0.060,0.000,0.000,0.000
1644915547013880064,2022-02-15-08:59:07,10.1.1.7,26,0.050,0.050,0.050,0.000,0.000,0.000
1644915547273943040,2022-02-15-08:59:07,10.1.1.7,29,0.000,0.000,0.000,0.000,0.000,0.000
1644915547332123136,2022-02-15-08:59:07,10.1.1.7,38,-0.010,-0.010,-0.010,0.000,0.000,0.000
1644915547371907072,2022-02-15-08:59:07,10.1.1.7,28,-0.020,-0.020,-0.020,0.000,0.000,0.000
1644915547432542976,2022-02-15-08:59:07,10.1.1.7,37,-0.030,-0.030,-0.030,0.000,0.000,0.000
1644915547472198912,2022-02-15-08:59:07,10.1.1.7,27,-0.040,-0.040,-0.040,0.000,0.000,0.000
1644915547531710976,2022-02-15-08:59:07,10.1.1.7,36,-0.050,-0.050,-0.050,0.000,0.000,0.000
1644915547571595008,2022-02-15-08:59:07,10.1.1.7,25,-0.060,-0.060,-0.060,0.000,0.000,0.000
1644915547631835904,2022-02-15-08:59:07,10.1.1.7,35,-0.070,-0.070,-0.070,0.000,0.000,0.000
1644915547672094208,2022-02-15-08:59:07,10.1.1.7,24,-0.080,-0.080,-0.080,0.000,0.000,0.000
1644915547853812992,2022-02-15-08:59:07,10.1.1.7,1,-0.080,-0.080,-0.080,0.000,0.000,0.000
1644915548092667136,2022-02-15-08:59:08,10.1.1.7,38,-0.040,-0.040,-0.040,0.000,0.000,0.000
1644915548132931840,2022-02-15-08:59:08,10.1.1.7,27,-0.030,-0.030,-0.030,0.000,0.000,0.000
1644915548192052992,2022-02-15-08:59:08,10.1.1.7,36,-0.020,-0.020,-0.020,0.000,0.000,0.000
1644915548231748096,2022-02-15-08:59:08,10.1.1.7,26,-0.010,-0.010,-0.010,0.000,0.000,0.000
1644915548292529152,2022-02-15-08:59:08,10.1.1.7,35,0.000,0.000,0.000,0.000,0.000,0.000
1644915548391351040,2022-02-15-08:59:08,10.1.1.7,30,0.020,0.020,0.020,0.000,0.000,0.000
1644915548432489984,2022-02-15-08:59:08,10.1.1.7,19,0.030,0.030,0.030,0.000,0.000,0.000
1644915548492180992,2022-02-15-08:59:08,10.1.1.7,28,0.040,0.040,0.040,0.000,0.000,0.000
1644915548551727104,2022-02-15-08:59:08,10.1.1.7,39,0.050,0.050,0.050,0.000,0.000,0.000
1644915548592230144,2022-02-15-08:59:08,10.1.1.7,27,0.060,0.060,0.060,0.000,0.000,0.000
1644915548652084992,2022-02-15-08:59:08,10.1.1.7,37,0.070,0.070,0.070,0.000,0.000,0.000
1644915548692182016,2022-02-15-08:59:08,10.1.1.7,26,0.080,0.080,0.080,0.000,0.000,0.000
1644915548751004928,2022-02-15-08:59:08,10.1.1.7,34,0.090,0.090,0.090,0.000,0.000,0.000
1644915548832037888,2022-02-15-08:59:08,10.1.1.7,11,0.090,0.090,0.090,0.000,0.000,0.000
1644915548892393216,2022-02-15-08:59:08,10.1.1.7,19,0.080,0.080,0.080,0.000,0.000,0.000
1644915548952711168,2022-02-15-08:59:08,10.1.1.7,29,0.070,0.070,0.070,0.000,0.000,0.000
1644915549012290048,2022-02-15-08:59:09,10.1.1.7,37,0.060,0.060,0.060,0.000,0.000,0.000
1644915549051275008,2022-02-15-08:59:09,10.1.1.7,26,0.050,0.050,0.050,0.000,0.000,0.000
1644915549112112128,2022-02-15-08:59:09,10.1.1.7,34,0.040,0.040,0.040,0.000,0.000,0.000
1644915549271343104,2022-02-15-08:59:09,10.1.1.7,39,0.010,0.010,0.010,0.000,0.000,0.000
1644915549314222080,2022-02-15-08:59:09,10.1.1.7,27,0.000,0.000,0.000,0.000,0.000,0.000
1644915549373442816,2022-02-15-08:59:09,10.1.1.7,36,-0.010,-0.010,-0.010,0.000,0.000,0.000
1644915549672060928,2022-02-15-08:59:09,10.1.1.7,29,-0.070,-0.070,-0.070,0.000,0.000,0.000
1644915549731703040,2022-02-15-08:59:09,10.1.1.7,39,-0.080,-0.080,-0.080,0.000,0.000,0.000
1644915549771468032,2022-02-15-08:59:09,10.1.1.7,28,-0.090,-0.090,-0.090,0.000,0.000,0.000
1644915549830830080,2022-02-15-08:59:09,10.1.1.7,38,-0.100,-0.100,-0.100,0.000,0.000,0.000
1644915549871956992,2022-02-15-08:59:09,10.1.1.7,26,-0.090,-0.090,-0.090,0.000,0.000,0.000
1644915549931494912,2022-02-15-08:59:09,10.1.1.7,36,-0.080,-0.080,-0.080,0.000,0.000,0.000
1644915549971836160,2022-02-15-08:59:09,10.1.1.7,26,-0.070,-0.070,-0.070,0.000,0.000,0.000
1644915550032860160,2022-02-15-08:59:10,10.1.1.7,35,-0.060,-0.060,-0.060,0.000,0.000,0.000
1644915550073019136,2022-02-15-08:59:10,10.1.1.7,24,-0.050,-0.050,-0.050,0.000,0.000,0.000
1644915550132963840,2022-02-15-08:59:10,10.1.1.7,34,-0.040,-0.040,-0.040,0.000,0.000,0.000
1644915550490981120,2022-02-15-08:59:10,10.1.1.7,39,0.030,0.030,0.030,0.000,0.000,0.000
1644915550531513856,2022-02-15-08:59:10,10.1.1.7,29,0.040,0.040,0.040,0.000,0.000,0.000
1644915550591653120,2022-02-15-08:59:10,10.1.1.7,38,0.050,0.050,0.050,0.000,0.000,0.000
1644915550631806976,2022-02-15-08:59:10,10.1.1.7,28,0.060,0.060,0.060,0.000,0.000,0.000
1644915550692713984,2022-02-15-08:59:10,10.1.1.7,37,0.070,0.070,0.070,0.000,0.000,0.000
1644915550731905024,2022-02-15-08:59:10,10.1.1.7,28,0.080,0.080,0.080,0.000,0.000,0.000
1644915550791735040,2022-02-15-08:59:10,10.1.1.7,36,0.090,0.090,0.090,0.000,0.000,0.000
1644915550831300864,2022-02-15-08:59:10,10.1.1.7,26,0.100,0.100,0.100,0.000,0.000,0.000
1644915550890518016,2022-02-15-08:59:10,10.1.1.7,36,0.090,0.090,0.090,0.000,0.000,0.000
1644915550930807040,2022-02-15-08:59:10,10.1.1.7,25,0.080,0.080,0.080,0.000,0.000,0.000
1644915550991200000,2022-02-15-08:59:10,10.1.1.7,35,0.070,0.070,0.070,0.000,0.000,0.000
1644915551032006912,2022-02-15-08:59:11,10.1.1.7,26,0.060,0.060,0.060,0.000,0.000,0.000
1644915551092492032,2022-02-15-08:59:11,10.1.1.7,34,0.050,0.050,0.050,0.000,0.000,0.000
1644915551130736128,2022-02-15-08:59:11,10.1.1.7,23,0.040,0.040,0.040,0.000,0.000,0.000
1644915551390906112,2022-02-15-08:59:11,10.1.1.7,29,-0.010,-0.010,-0.010,0.000,0.000,0.000
1644915551451951872,2022-02-15-08:59:11,10.1.1.7,38,-0.020,-0.020,-0.020,0.000,0.000,0.000
1644915551491399168,2022-02-15-08:59:11,10.1.1.7,28,-0.030,-0.030,-0.030,0.000,0.000,0.000
1644915551553466112,2022-02-15-08:59:11,10.1.1.7,37,-0.040,-0.040,-0.040,0.000,0.000,0.000
1644915551630187008,2022-02-15-08:59:11,10.1.1.7,35,-0.050,-0.050,-0.050,0.000,0.000,0.000
1644915551670882816,2022-02-15-08:59:11,10.1.1.7,38,-0.060,-0.060,-0.060,0.000,0.000,0.000
1644915551710798080,2022-02-15-08:59:11,10.1.1.7,28,-0.070,-0.070,-0.070,0.000,0.000,0.000
1644915551772115968,2022-02-15-08:59:11,10.1.1.7,37,-0.080,-0.080,-0.080,0.000,0.000,0.000
1644915551811484928,2022-02-15-08:59:11,10.1.1.7,26,-0.090,-0.090,-0.090,0.000,0.000,0.000
1644915551871531008,2022-02-15-08:59:11,10.1.1.7,34,-0.100,-0.100,-0.100,0.000,0.000,0.000
1644915551912019968,2022-02-15-08:59:11,10.1.1.7,24,-0.090,-0.090,-0.090,0.000,0.000,0.000
1644915551971815936,2022-02-15-08:59:11,10.1.1.7,33,-0.080,-0.080,-0.080,0.000,0.000,0.000
1644915552235130112,2022-02-15-08:59:12,10.1.1.7,39,-0.030,-0.030,-0.030,0.000,0.000,0.000
1644915552273801216,2022-02-15-08:59:12,10.1.1.7,28,-0.020,-0.020,-0.020,0.000,0.000,0.000
1644915552332293888,2022-02-15-08:59:12,10.1.1.7,38,-0.010,-0.010,-0.010,0.000,0.000,0.000
1644915552372744960,2022-02-15-08:59:12,10.1.1.7,27,0.000,0.000,0.000,0.000,0.000,0.000
1644915552432882944,2022-02-15-08:59:12,10.1.1.7,36,0.010,0.010,0.010,0.000,0.000,0.000
1644915552473140992,2022-02-15-08:59:12,10.1.1.7,26,0.020,0.020,0.020,0.000,0.000,0.000
1644915552810796032,2022-02-15-08:59:12,10.1.1.7,39,0.080,0.080,0.080,0.000,0.000,0.000
1644915552851542016,2022-02-15-08:59:12,10.1.1.7,28,0.090,0.090,0.090,0.000,0.000,0.000
1644915552913858816,2022-02-15-08:59:12,10.1.1.7,37,0.100,0.100,0.100,0.000,0.000,0.000
1644915553084346112,2022-02-15-08:59:13,10.1.1.7,39,0.070,0.070,0.070,0.000,0.000,0.000
1644915553128968960,2022-02-15-08:59:13,10.1.1.7,26,0.060,0.060,0.060,0.000,0.000,0.000
1644915553171947008,2022-02-15-08:59:13,10.1.1.7,35,0.050,0.050,0.050,0.000,0.000,0.000
1644915553212062976,2022-02-15-08:59:13,10.1.1.7,23,0.040,0.040,0.040,0.000,0.000,0.000
1644915553371958016,2022-02-15-08:59:13,10.1.1.7,28,0.010,0.010,0.010,0.000,0.000,0.000
1644915553434441216,2022-02-15-08:59:13,10.1.1.7,37,0.000,0.000,0.000,0.000,0.000,0.000
1644915553472584960,2022-02-15-08:59:13,10.1.1.7,26,-0.010,-0.010,-0.010,0.000,0.000,0.000
1644915553534544896,2022-02-15-08:59:13,10.1.1.7,36,-0.020,-0.020,-0.020,0.000,0.000,0.000
1644915553572335872,2022-02-15-08:59:13,10.1.1.7,25,-0.030,-0.030,-0.030,0.000,0.000,0.000
1644915553634716160,2022-02-15-08:59:13,10.1.1.7,35,-0.040,-0.040,-0.040,0.000,0.000,0.000
1644915553673929984,2022-02-15-08:59:13,10.1.1.7,24,-0.050,-0.050,-0.050,0.000,0.000,0.000
1644915553892633088,2022-02-15-08:59:13,10.1.1.7,27,-0.080,-0.080,-0.080,0.000,0.000,0.000
1644915553952299008,2022-02-15-08:59:13,10.1.1.7,36,-0.090,-0.090,-0.090,0.000,0.000,0.000
1644915553992489216,2022-02-15-08:59:13,10.1.1.7,25,-0.100,-0.100,-0.100,0.000,0.000,0.000
1644915554091859968,2022-02-15-08:59:14,10.1.1.7,24,-0.080,-0.080,-0.080,0.000,0.000,0.000
1644915554152901888,2022-02-15-08:59:14,10.1.1.7,33,-0.070,-0.070,-0.070,0.000,0.000,0.000
1644915554453460992,2022-02-15-08:59:14,10.1.1.7,38,-0.020,-0.020,-0.020,0.000,0.000,0.000
1644915554497323008,2022-02-15-08:59:14,10.1.1.7,28,-0.010,-0.010,-0.010,0.000,0.000,0.000
1644915554554436864,2022-02-15-08:59:14,10.1.1.7,36,0.000,0.000,0.000,0.000,0.000,0.000
1644915554596740864,2022-02-15-08:59:14,10.1.1.7,24,0.010,0.010,0.010,0.000,0.000,0.000
1644915554652806144,2022-02-15-08:59:14,10.1.1.7,33,0.020,0.020,0.020,0.000,0.000,0.000
1644915554912313856,2022-02-15-08:59:14,10.1.1.7,39,0.070,0.070,0.070,0.000,0.000,0.000
1644915554952935936,2022-02-15-08:59:14,10.1.1.7,29,0.080,0.080,0.080,0.000,0.000,0.000
1644915555012748032,2022-02-15-08:59:15,10.1.1.7,39,0.090,0.090,0.090,0.000,0.000,0.000
1644915555053040128,2022-02-15-08:59:15,10.1.1.7,27,0.100,0.100,0.100,0.000,0.000,0.000
1644915555313272832,2022-02-15-08:59:15,10.1.1.7,19,0.050,0.050,0.050,0.000,0.000,0.000
1644915555371907840,2022-02-15-08:59:15,10.1.1.7,29,0.040,0.040,0.040,0.000,0.000,0.000
1644915555432584960,2022-02-15-08:59:15,10.1.1.7,39,0.030,0.030,0.030,0.000,0.000,0.000
1644915555471766016,2022-02-15-08:59:15,10.1.1.7,28,0.020,0.020,0.020,0.000,0.000,0.000
1644915555531858944,2022-02-15-08:59:15,10.1.1.7,38,0.010,0.010,0.010,0.000,0.000,0.000
1644915555570946048,2022-02-15-08:59:15,10.1.1.7,26,0.000,0.000,0.000,0.000,0.000,0.000
1644915555632194048,2022-02-15-08:59:15,10.1.1.7,35,-0.010,-0.010,-0.010,0.000,0.000,0.000
1644915555672087808,2022-02-15-08:59:15,10.1.1.7,25,-0.020,-0.020,-0.020,0.000,0.000,0.000
1644915555773646080,2022-02-15-08:59:15,10.1.1.7,25,-0.040,-0.040,-0.040,0.000,0.000,0.000
1644915555835522048,2022-02-15-08:59:15,10.1.1.7,28,-0.050,-0.050,-0.050,0.000,0.000,0.000
1644915555876305152,2022-02-15-08:59:15,10.1.1.7,18,-0.060,-0.060,-0.060,0.000,0.000,0.000
1644915555941881856,2022-02-15-08:59:15,10.1.1.7,26,-0.070,-0.070,-0.070,0.000,0.000,0.000
1644915556097223168,2022-02-15-08:59:16,10.1.1.7,35,-0.100,-0.100,-0.100,0.000,0.000,0.000
1644915556393646080,2022-02-15-08:59:16,10.1.1.7,24,-0.040,-0.040,-0.040,0.000,0.000,0.000
1644915556453380096,2022-02-15-08:59:16,10.1.1.7,33,-0.030,-0.030,-0.030,0.000,0.000,0.000
1644915556553161984,2022-02-15-08:59:16,10.1.1.7,30,-0.010,-0.010,-0.010,0.000,0.000,0.000
1644915556613382144,2022-02-15-08:59:16,10.1.1.7,40,0.000,0.000,0.000,0.000,0.000,0.000
1644915556651886080,2022-02-15-08:59:16,10.1.1.7,28,0.010,0.010,0.010,0.000,0.000,0.000
1644915556751492096,2022-02-15-08:59:16,10.1.1.7,24,0.030,0.030,0.030,0.000,0.000,0.000
1644915556823681024,2022-02-15-08:59:16,10.1.1.7,44,0.040,0.040,0.040,0.000,0.000,0.000
1644915557336908032,2022-02-15-08:59:17,10.1.1.7,28,0.060,0.060,0.060,0.000,0.000,0.000
1644915557393714944,2022-02-15-08:59:17,10.1.1.7,36,0.050,0.050,0.050,0.000,0.000,0.000
1644915557433639936,2022-02-15-08:59:17,10.1.1.7,26,0.040,0.040,0.040,0.000,0.000,0.000
1644915557495176960,2022-02-15-08:59:17,10.1.1.7,35,0.030,0.030,0.030,0.000,0.000,0.000
1644915557532269056,2022-02-15-08:59:17,10.1.1.7,24,0.020,0.020,0.020,0.000,0.000,0.000
1644915557592356864,2022-02-15-08:59:17,10.1.1.7,34,0.010,0.010,0.010,0.000,0.000,0.000
1644915557695617792,2022-02-15-08:59:17,10.1.1.7,30,-0.010,-0.010,-0.010,0.000,0.000,0.000
1644915557757122048,2022-02-15-08:59:17,10.1.1.7,38,-0.020,-0.020,-0.020,0.000,0.000,0.000
1644915557793888000,2022-02-15-08:59:17,10.1.1.7,27,-0.030,-0.030,-0.030,0.000,0.000,0.000
1644915558052162048,2022-02-15-08:59:18,10.1.1.7,28,-0.080,-0.080,-0.080,0.000,0.000,0.000
1644915558113668864,2022-02-15-08:59:18,10.1.1.7,37,-0.090,-0.090,-0.090,0.000,0.000,0.000
1644915558153208064,2022-02-15-08:59:18,10.1.1.7,25,-0.100,-0.100,-0.100,0.000,0.000,0.000
1644915558215572224,2022-02-15-08:59:18,10.1.1.7,33,-0.090,-0.090,-0.090,0.000,0.000,0.000
1644915558411566080,2022-02-15-08:59:18,10.1.1.7,26,-0.060,-0.060,-0.060,0.000,0.000,0.000
1644915558472107008,2022-02-15-08:59:18,10.1.1.7,34,-0.050,-0.050,-0.050,0.000,0.000,0.000
1644915558672879872,2022-02-15-08:59:18,10.1.1.7,28,-0.010,-0.010,-0.010,0.000,0.000,0.000
1644915558734985984,2022-02-15-08:59:18,10.1.1.7,37,0.000,0.000,0.000,0.000,0.000,0.000
1644915558772444928,2022-02-15-08:59:18,10.1.1.7,27,0.010,0.010,0.010,0.000,0.000,0.000
1644915558832998144,2022-02-15-08:59:18,10.1.1.7,36,0.020,0.020,0.020,0.000,0.000,0.000
1644915558872826112,2022-02-15-08:59:18,10.1.1.7,25,0.030,0.030,0.030,0.000,0.000,0.000
1644915558938534144,2022-02-15-08:59:18,10.1.1.7,35,0.040,0.040,0.040,0.000,0.000,0.000
1644915558971345920,2022-02-15-08:59:18,10.1.1.7,24,0.050,0.050,0.050,0.000,0.000,0.000
1644915559031781888,2022-02-15-08:59:19,10.1.1.7,33,0.060,0.060,0.060,0.000,0.000,0.000
1644915559292509952,2022-02-15-08:59:19,10.1.1.7,38,0.090,0.090,0.090,0.000,0.000,0.000
1644915559332201984,2022-02-15-08:59:19,10.1.1.7,28,0.080,0.080,0.080,0.000,0.000,0.000
1644915559393135104,2022-02-15-08:59:19,10.1.1.7,37,0.070,0.070,0.070,0.000,0.000,0.000
1644915559433410816,2022-02-15-08:59:19,10.1.1.7,23,0.060,0.060,0.060,0.000,0.000,0.000
1644915559551481088,2022-02-15-08:59:19,10.1.1.7,37,0.040,0.040,0.040,0.000,0.000,0.000
1644915559595289088,2022-02-15-08:59:19,10.1.1.7,26,0.030,0.030,0.030,0.000,0.000,0.000
1644915559653032192,2022-02-15-08:59:19,10.1.1.7,35,0.020,0.020,0.020,0.000,0.000,0.000
1644915559693564928,2022-02-15-08:59:19,10.1.1.7,24,0.010,0.010,0.010,0.000,0.000,0.000
1644915559974296064,2022-02-15-08:59:19,10.1.1.7,38,-0.040,-0.040,-0.040,0.000,0.000,0.000
1644915560014002176,2022-02-15-08:59:20,10.1.1.7,26,-0.050,-0.050,-0.050,0.000,0.000,0.000
1644915560074695936,2022-02-15-08:59:20,10.1.1.7,35,-0.060,-0.060,-0.060,0.000,0.000,0.000
1644915560114546176,2022-02-15-08:59:20,10.1.1.7,24,-0.070,-0.070,-0.070,0.000,0.000,0.000
1644915560173403136,2022-02-15-08:59:20,10.1.1.7,33,-0.080,-0.080,-0.080,0.000,0.000,0.000
1644915560333071872,2022-02-15-08:59:20,10.1.1.7,38,-0.090,-0.090,-0.090,0.000,0.000,0.000
1644915560372504832,2022-02-15-08:59:20,10.1.1.7,28,-0.080,-0.080,-0.080,0.000,0.000,0.000
1644915560432188160,2022-02-15-08:59:20,10.1.1.7,35,-0.070,-0.070,-0.070,0.000,0.000,0.000
1644915560471321088,2022-02-15-08:59:20,10.1.1.7,24,-0.060,-0.060,-0.060,0.000,0.000,0.000
1644915560532915968,2022-02-15-08:59:20,10.1.1.7,34,-0.050,-0.050,-0.050,0.000,0.000,0.000
1644915560732642816,2022-02-15-08:59:20,10.1.1.7,29,-0.010,-0.010,-0.010,0.000,0.000,0.000
1644915560792905984,2022-02-15-08:59:20,10.1.1.7,38,0.000,0.000,0.000,0.000,0.000,0.000
1644915560832435968,2022-02-15-08:59:20,10.1.1.7,28,0.010,0.010,0.010,0.000,0.000,0.000
1644915560894351104,2022-02-15-08:59:20,10.1.1.7,38,0.020,0.020,0.020,0.000,0.000,0.000
1644915560933284096,2022-02-15-08:59:20,10.1.1.7,27,0.030,0.030,0.030,0.000,0.000,0.000
1644915560991588096,2022-02-15-08:59:20,10.1.1.7,36,0.040,0.040,0.040,0.000,0.000,0.000
1644915561032152832,2022-02-15-08:59:21,10.1.1.7,26,0.050,0.050,0.050,0.000,0.000,0.000
1644915561092289024,2022-02-15-08:59:21,10.1.1.7,35,0.060,0.060,0.060,0.000,0.000,0.000
1644915561133042944,2022-02-15-08:59:21,10.1.1.7,25,0.070,0.070,0.070,0.000,0.000,0.000
1644915561191811072,2022-02-15-08:59:21,10.1.1.7,34,0.080,0.080,0.080,0.000,0.000,0.000
1644915561372851968,2022-02-15-08:59:21,10.1.1.7,9,0.080,0.080,0.080,0.000,0.000,0.000
1644915561454473984,2022-02-15-08:59:21,10.1.1.7,38,0.070,0.070,0.070,0.000,0.000,0.000
1644915561494247936,2022-02-15-08:59:21,10.1.1.7,28,0.060,0.060,0.060,0.000,0.000,0.000
1644915561551259136,2022-02-15-08:59:21,10.1.1.7,37,0.050,0.050,0.050,0.000,0.000,0.000
1644915561651380992,2022-02-15-08:59:21,10.1.1.7,25,0.030,0.030,0.030,0.000,0.000,0.000
1644915561873344000,2022-02-15-08:59:21,10.1.1.7,39,-0.010,-0.010,-0.010,0.000,0.000,0.000
1644915561912332032,2022-02-15-08:59:21,10.1.1.7,28,-0.020,-0.020,-0.020,0.000,0.000,0.000
1644915561972548096,2022-02-15-08:59:21,10.1.1.7,37,-0.030,-0.030,-0.030,0.000,0.000,0.000
1644915562012252928,2022-02-15-08:59:22,10.1.1.7,27,-0.040,-0.040,-0.040,0.000,0.000,0.000
1644915562071887104,2022-02-15-08:59:22,10.1.1.7,36,-0.050,-0.050,-0.050,0.000,0.000,0.000
1644915562112546816,2022-02-15-08:59:22,10.1.1.7,25,-0.060,-0.060,-0.060,0.000,0.000,0.000
1644915562171493120,2022-02-15-08:59:22,10.1.1.7,34,-0.070,-0.070,-0.070,0.000,0.000,0.000
1644915562332350976,2022-02-15-08:59:22,10.1.1.7,33,-0.100,-0.100,-0.100,0.000,0.000,0.000
1644915562470937856,2022-02-15-08:59:22,10.1.1.7,19,-0.070,-0.070,-0.070,0.000,0.000,0.000
1644915562532036096,2022-02-15-08:59:22,10.1.1.7,28,-0.060,-0.060,-0.060,0.000,0.000,0.000
1644915562592835840,2022-02-15-08:59:22,10.1.1.7,37,-0.050,-0.050,-0.050,0.000,0.000,0.000
1644915562632803072,2022-02-15-08:59:22,10.1.1.7,27,-0.040,-0.040,-0.040,0.000,0.000,0.000
1644915562693382144,2022-02-15-08:59:22,10.1.1.7,36,-0.030,-0.030,-0.030,0.000,0.000,0.000
1644915562732103168,2022-02-15-08:59:22,10.1.1.7,26,-0.020,-0.020,-0.020,0.000,0.000,0.000
1644915562794286080,2022-02-15-08:59:22,10.1.1.7,35,-0.010,-0.010,-0.010,0.000,0.000,0.000
1644915563032834048,2022-02-15-08:59:23,10.1.1.7,20,0.040,0.040,0.040,0.000,0.000,0.000
1644915563093307136,2022-02-15-08:59:23,10.1.1.7,29,0.050,0.050,0.050,0.000,0.000,0.000
1644915563312496896,2022-02-15-08:59:23,10.1.1.7,38,0.090,0.090,0.090,0.000,0.000,0.000
1644915563352691968,2022-02-15-08:59:23,10.1.1.7,28,0.100,0.100,0.100,0.000,0.000,0.000
1644915563412758016,2022-02-15-08:59:23,10.1.1.7,37,0.090,0.090,0.090,0.000,0.000,0.000
1644915563451368192,2022-02-15-08:59:23,10.1.1.7,27,0.080,0.080,0.080,0.000,0.000,0.000
1644915563512504064,2022-02-15-08:59:23,10.1.1.7,37,0.070,0.070,0.070,0.000,0.000,0.000
1644915563552350976,2022-02-15-08:59:23,10.1.1.7,26,0.060,0.060,0.060,0.000,0.000,0.000
1644915563610925056,2022-02-15-08:59:23,10.1.1.7,36,0.050,0.050,0.050,0.000,0.000,0.000
1644915563652312064,2022-02-15-08:59:23,10.1.1.7,26,0.040,0.040,0.040,0.000,0.000,0.000
1644915563872658944,2022-02-15-08:59:23,10.1.1.7,36,0.000,0.000,0.000,0.000,0.000,0.000
1644915563912695808,2022-02-15-08:59:23,10.1.1.7,25,-0.010,-0.010,-0.010,0.000,0.000,0.000
1644915564171531008,2022-02-15-08:59:24,10.1.1.7,29,-0.060,-0.060,-0.060,0.000,0.000,0.000
1644915564271630080,2022-02-15-08:59:24,10.1.1.7,28,-0.080,-0.080,-0.080,0.000,0.000,0.000
1644915564331742976,2022-02-15-08:59:24,10.1.1.7,37,-0.090,-0.090,-0.090,0.000,0.000,0.000
1644915564371280896,2022-02-15-08:59:24,10.1.1.7,26,-0.100,-0.100,-0.100,0.000,0.000,0.000
1644915564433520128,2022-02-15-08:59:24,10.1.1.7,38,-0.090,-0.090,-0.090,0.000,0.000,0.000
1644915564471955968,2022-02-15-08:59:24,10.1.1.7,25,-0.080,-0.080,-0.080,0.000,0.000,0.000
1644915564531929088,2022-02-15-08:59:24,10.1.1.7,34,-0.070,-0.070,-0.070,0.000,0.000,0.000
1644915564572246016,2022-02-15-08:59:24,10.1.1.7,24,-0.060,-0.060,-0.060,0.000,0.000,0.000
1644915564632521984,2022-02-15-08:59:24,10.1.1.7,28,-0.050,-0.050,-0.050,0.000,0.000,0.000
1644915564691026944,2022-02-15-08:59:24,10.1.1.7,37,-0.040,-0.040,-0.040,0.000,0.000,0.000
1644915564731511040,2022-02-15-08:59:24,10.1.1.7,27,-0.030,-0.030,-0.030,0.000,0.000,0.000
1644915564792082944,2022-02-15-08:59:24,10.1.1.7,36,-0.020,-0.020,-0.020,0.000,0.000,0.000
1644915564832155904,2022-02-15-08:59:24,10.1.1.7,25,-0.010,-0.010,-0.010,0.000,0.000,0.000
1644915564893070080,2022-02-15-08:59:24,10.1.1.7,35,0.000,0.000,0.000,0.000,0.000,0.000
1644915565031688960,2022-02-15-08:59:25,10.1.1.7,20,0.030,0.030,0.030,0.000,0.000,0.000
1644915565131561984,2022-02-15-08:59:25,10.1.1.7,19,0.050,0.050,0.050,0.000,0.000,0.000
1644915565191417856,2022-02-15-08:59:25,10.1.1.7,28,0.060,0.060,0.060,0.000,0.000,0.000
1644915565252819968,2022-02-15-08:59:25,10.1.1.7,38,0.070,0.070,0.070,0.000,0.000,0.000
1644915565291035904,2022-02-15-08:59:25,10.1.1.7,26,0.080,0.080,0.080,0.000,0.000,0.000
1644915565351874048,2022-02-15-08:59:25,10.1.1.7,36,0.090,0.090,0.090,0.000,0.000,0.000
1644915565392594176,2022-02-15-08:59:25,10.1.1.7,26,0.100,0.100,0.100,0.000,0.000,0.000
1644915565632185856,2022-02-15-08:59:25,10.1.1.7,18,0.060,0.060,0.060,0.000,0.000,0.000
1644915565973298944,2022-02-15-08:59:25,10.1.1.7,28,0.000,0.000,0.000,0.000,0.000,0.000
1644915566031568128,2022-02-15-08:59:26,10.1.1.7,38,-0.010,-0.010,-0.010,0.000,0.000,0.000
1644915566070877184,2022-02-15-08:59:26,10.1.1.7,26,-0.020,-0.020,-0.020,0.000,0.000,0.000
1644915566137972992,2022-02-15-08:59:26,10.1.1.7,36,-0.030,-0.030,-0.030,0.000,0.000,0.000
1644915566332599040,2022-02-15-08:59:26,10.1.1.7,34,-0.060,-0.060,-0.060,0.000,0.000,0.000
1644915566372942848,2022-02-15-08:59:26,10.1.1.7,23,-0.070,-0.070,-0.070,0.000,0.000,0.000
1644915566511892992,2022-02-15-08:59:26,10.1.1.7,38,-0.090,-0.090,-0.090,0.000,0.000,0.000
1644915566554075904,2022-02-15-08:59:26,10.1.1.7,28,-0.100,-0.100,-0.100,0.000,0.000,0.000
1644915566651692032,2022-02-15-08:59:26,10.1.1.7,24,-0.080,-0.080,-0.080,0.000,0.000,0.000
1644915566711868160,2022-02-15-08:59:26,10.1.1.7,34,-0.070,-0.070,-0.070,0.000,0.000,0.000
1644915566790235904,2022-02-15-08:59:26,10.1.1.7,23,-0.060,-0.060,-0.060,0.000,0.000,0.000
1644915566871036160,2022-02-15-08:59:26,10.1.1.7,28,-0.040,-0.040,-0.040,0.000,0.000,0.000
1644915566931128064,2022-02-15-08:59:26,10.1.1.7,38,-0.030,-0.030,-0.030,0.000,0.000,0.000
1644915566970593024,2022-02-15-08:59:26,10.1.1.7,28,-0.020,-0.020,-0.020,0.000,0.000,0.000
1644915567032297984,2022-02-15-08:59:27,10.1.1.7,37,-0.010,-0.010,-0.010,0.000,0.000,0.000
1644915567131478016,2022-02-15-08:59:27,10.1.1.7,36,0.010,0.010,0.010,0.000,0.000,0.000
1644915567171736064,2022-02-15-08:59:27,10.1.1.7,26,0.020,0.020,0.020,0.000,0.000,0.000
1644915567232541184,2022-02-15-08:59:27,10.1.1.7,35,0.030,0.030,0.030,0.000,0.000,0.000
1644915567271482880,2022-02-15-08:59:27,10.1.1.7,24,0.040,0.040,0.040,0.000,0.000,0.000
1644915567370865152,2022-02-15-08:59:27,10.1.1.7,23,0.060,0.060,0.060,0.000,0.000,0.000
1644915567631212032,2022-02-15-08:59:27,10.1.1.7,29,0.090,0.090,0.090,0.000,0.000,0.000
1644915567691035136,2022-02-15-08:59:27,10.1.1.7,38,0.080,0.080,0.080,0.000,0.000,0.000
1644915567731030016,2022-02-15-08:59:27,10.1.1.7,28,0.070,0.070,0.070,0.000,0.000,0.000
1644915567850656000,2022-02-15-08:59:27,10.1.1.7,38,0.050,0.050,0.050,0.000,0.000,0.000
1644915567894907904,2022-02-15-08:59:27,10.1.1.7,28,0.040,0.040,0.040,0.000,0.000,0.000
1644915567951357952,2022-02-15-08:59:27,10.1.1.7,38,0.030,0.030,0.030,0.000,0.000,0.000
1644915567991396864,2022-02-15-08:59:27,10.1.1.7,28,0.020,0.020,0.020,0.000,0.000,0.000
1644915568062427904,2022-02-15-08:59:28,10.1.1.7,37,0.010,0.010,0.010,0.000,0.000,0.000
1644915568210583808,2022-02-15-08:59:28,10.1.1.7,38,-0.020,-0.020,-0.020,0.000,0.000,0.000
1644915568251513856,2022-02-15-08:59:28,10.1.1.7,28,-0.030,-0.030,-0.030,0.000,0.000,0.000
1644915568311932928,2022-02-15-08:59:28,10.1.1.7,37,-0.040,-0.040,-0.040,0.000,0.000,0.000
1644915568352291072,2022-02-15-08:59:28,10.1.1.7,27,-0.050,-0.050,-0.050,0.000,0.000,0.000
1644915568413043968,2022-02-15-08:59:28,10.1.1.7,37,-0.060,-0.060,-0.060,0.000,0.000,0.000
1644915568455213056,2022-02-15-08:59:28,10.1.1.7,26,-0.070,-0.070,-0.070,0.000,0.000,0.000
1644915568513309952,2022-02-15-08:59:28,10.1.1.7,33,-0.080,-0.080,-0.080,0.000,0.000,0.000
1644915568613317888,2022-02-15-08:59:28,10.1.1.7,27,-0.100,-0.100,-0.100,0.000,0.000,0.000
1644915568670935040,2022-02-15-08:59:28,10.1.1.7,36,-0.090,-0.090,-0.090,0.000,0.000,0.000
1644915568711927040,2022-02-15-08:59:28,10.1.1.7,26,-0.080,-0.080,-0.080,0.000,0.000,0.000
1644915568771081984,2022-02-15-08:59:28,10.1.1.7,36,-0.070,-0.070,-0.070,0.000,0.000,0.000
1644915568812054016,2022-02-15-08:59:28,10.1.1.7,25,-0.060,-0.060,-0.060,0.000,0.000,0.000
1644915568872664832,2022-02-15-08:59:28,10.1.1.7,34,-0.050,-0.050,-0.050,0.000,0.000,0.000
1644915568911748864,2022-02-15-08:59:28,10.1.1.7,24,-0.040,-0.040,-0.040,0.000,0.000,0.000
1644915568971529984,2022-02-15-08:59:28,10.1.1.7,34,-0.030,-0.030,-0.030,0.000,0.000,0.000
1644915569271994112,2022-02-15-08:59:29,10.1.1.7,29,0.030,0.030,0.030,0.000,0.000,0.000
1644915569332482048,2022-02-15-08:59:29,10.1.1.7,38,0.040,0.040,0.040,0.000,0.000,0.000
1644915569372243968,2022-02-15-08:59:29,10.1.1.7,28,0.050,0.050,0.050,0.000,0.000,0.000
1644915569433726976,2022-02-15-08:59:29,10.1.1.7,38,0.060,0.060,0.060,0.000,0.000,0.000
1644915569473081088,2022-02-15-08:59:29,10.1.1.7,27,0.070,0.070,0.070,0.000,0.000,0.000
1644915569532125952,2022-02-15-08:59:29,10.1.1.7,36,0.080,0.080,0.080,0.000,0.000,0.000
1644915569574152960,2022-02-15-08:59:29,10.1.1.7,25,0.090,0.090,0.090,0.000,0.000,0.000
1644915569638219008,2022-02-15-08:59:29,10.1.1.7,33,0.100,0.100,0.100,0.000,0.000,0.000
1644915569832783104,2022-02-15-08:59:29,10.1.1.7,20,0.060,0.060,0.060,0.000,0.000,0.000
1644915569893355008,2022-02-15-08:59:29,10.1.1.7,28,0.050,0.050,0.050,0.000,0.000,0.000
1644915569953314048,2022-02-15-08:59:29,10.1.1.7,36,0.040,0.040,0.040,0.000,0.000,0.000
1644915569992983040,2022-02-15-08:59:29,10.1.1.7,25,0.030,0.030,0.030,0.000,0.000,0.000
1644915570053977088,2022-02-15-08:59:30,10.1.1.7,33,0.020,0.020,0.020,0.000,0.000,0.000
1644915570212486144,2022-02-15-08:59:30,10.1.1.7,38,-0.010,-0.010,-0.010,0.000,0.000,0.000
1644915570252780032,2022-02-15-08:59:30,10.1.1.7,27,-0.020,-0.020,-0.020,0.000,0.000,0.000
1644915570312431104,2022-02-15-08:59:30,10.1.1.7,37,-0.030,-0.030,-0.030,0.000,0.000,0.000
1644915570353497856,2022-02-15-08:59:30,10.1.1.7,26,-0.040,-0.040,-0.040,0.000,0.000,0.000
1644915570473664000,2022-02-15-08:59:30,10.1.1.7,37,-0.060,-0.060,-0.060,0.000,0.000,0.000
1644915570513547776,2022-02-15-08:59:30,10.1.1.7,27,-0.070,-0.070,-0.070,0.000,0.000,0.000
1644915570573025024,2022-02-15-08:59:30,10.1.1.7,36,-0.080,-0.080,-0.080,0.000,0.000,0.000
1644915570614487040,2022-02-15-08:59:30,10.1.1.7,25,-0.090,-0.090,-0.090,0.000,0.000,0.000
1644915570694243840,2022-02-15-08:59:30,10.1.1.7,0,-0.090,-0.090,-0.090,0.000,0.000,0.000
1644915570972054016,2022-02-15-08:59:30,10.1.1.7,20,-0.040,-0.040,-0.040,0.000,0.000,0.000
1644915571031223040,2022-02-15-08:59:31,10.1.1.7,30,-0.030,-0.030,-0.030,0.000,0.000,0.000
1644915571092720128,2022-02-15-08:59:31,10.1.1.7,39,-0.020,-0.020,-0.020,0.000,0.000,0.000
1644915571193083136,2022-02-15-08:59:31,10.1.1.7,37,0.000,0.000,0.000,0.000,0.000,0.000
1644915571235245056,2022-02-15-08:59:31,10.1.1.7,26,0.010,0.010,0.010,0.000,0.000,0.000
1644915571294944000,2022-02-15-08:59:31,10.1.1.7,34,0.020,0.020,0.020,0.000,0.000,0.000
1644915571431943936,2022-02-15-08:59:31,10.1.1.7,19,0.050,0.050,0.050,0.000,0.000,0.000
1644915571495141120,2022-02-15-08:59:31,10.1.1.7,30,0.060,0.060,0.060,0.000,0.000,0.000
1644915571553765120,2022-02-15-08:59:31,10.1.1.7,38,0.070,0.070,0.070,0.000,0.000,0.000
1644915571591387136,2022-02-15-08:59:31,10.1.1.7,27,0.080,0.080,0.080,0.000,0.000,0.000
1644915571651207936,2022-02-15-08:59:31,10.1.1.7,37,0.090,0.090,0.090,0.000,0.000,0.000
1644915571693295104,2022-02-15-08:59:31,10.1.1.7,26,0.100,0.100,0.100,0.000,0.000,0.000
1644915571752009984,2022-02-15-08:59:31,10.1.1.7,35,0.090,0.090,0.090,0.000,0.000,0.000
1644915571793505024,2022-02-15-08:59:31,10.1.1.7,25,0.080,0.080,0.080,0.000,0.000,0.000
1644915571951567872,2022-02-15-08:59:31,10.1.1.7,29,0.050,0.050,0.050,0.000,0.000,0.000
1644915572016045056,2022-02-15-08:59:32,10.1.1.7,39,0.040,0.040,0.040,0.000,0.000,0.000
1644915572054692864,2022-02-15-08:59:32,10.1.1.7,27,0.030,0.030,0.030,0.000,0.000,0.000
1644915572112060160,2022-02-15-08:59:32,10.1.1.7,36,0.020,0.020,0.020,0.000,0.000,0.000
1644915572153814016,2022-02-15-08:59:32,10.1.1.7,25,0.010,0.010,0.010,0.000,0.000,0.000
1644915572274028032,2022-02-15-08:59:32,10.1.1.7,39,-0.010,-0.010,-0.010,0.000,0.000,0.000
1644915572311019776,2022-02-15-08:59:32,10.1.1.7,28,-0.020,-0.020,-0.020,0.000,0.000,0.000
1644915572374737920,2022-02-15-08:59:32,10.1.1.7,37,-0.030,-0.030,-0.030,0.000,0.000,0.000
1644915572414597120,2022-02-15-08:59:32,10.1.1.7,25,-0.040,-0.040,-0.040,0.000,0.000,0.000
1644915572573651968,2022-02-15-08:59:32,10.1.1.7,27,-0.070,-0.070,-0.070,0.000,0.000,0.000
1644915572634166016,2022-02-15-08:59:32,10.1.1.7,36,-0.080,-0.080,-0.080,0.000,0.000,0.000
1644915572696532992,2022-02-15-08:59:32,10.1.1.7,25,-0.090,-0.090,-0.090,0.000,0.000,0.000
1644915572731494912,2022-02-15-08:59:32,10.1.1.7,34,-0.100,-0.100,-0.100,0.000,0.000,0.000
1644915572791276032,2022-02-15-08:59:32,10.1.1.7,36,-0.090,-0.090,-0.090,0.000,0.000,0.000
1644915573073638912,2022-02-15-08:59:33,10.1.1.7,30,-0.040,-0.040,-0.040,0.000,0.000,0.000
1644915573172745984,2022-02-15-08:59:33,10.1.1.7,28,-0.020,-0.020,-0.020,0.000,0.000,0.000
1644915573232218112,2022-02-15-08:59:33,10.1.1.7,37,-0.010,-0.010,-0.010,0.000,0.000,0.000
1644915573271511040,2022-02-15-08:59:33,10.1.1.7,27,0.000,0.000,0.000,0.000,0.000,0.000
1644915573331602944,2022-02-15-08:59:33,10.1.1.7,36,0.010,0.010,0.010,0.000,0.000,0.000
1644915573371966976,2022-02-15-08:59:33,10.1.1.7,26,0.020,0.020,0.020,0.000,0.000,0.000
1644915573432427008,2022-02-15-08:59:33,10.1.1.7,35,0.030,0.030,0.030,0.000,0.000,0.000
1644915573472717056,2022-02-15-08:59:33,10.1.1.7,25,0.040,0.040,0.040,0.000,0.000,0.000
1644915573532286976,2022-02-15-08:59:33,10.1.1.7,34,0.050,0.050,0.050,0.000,0.000,0.000
1644915573571644928,2022-02-15-08:59:33,10.1.1.7,24,0.060,0.060,0.060,0.000,0.000,0.000
1644915573931427072,2022-02-15-08:59:33,10.1.1.7,29,0.070,0.070,0.070,0.000,0.000,0.000
1644915573991503872,2022-02-15-08:59:33,10.1.1.7,38,0.060,0.060,0.060,0.000,0.000,0.000
1644915574032632064,2022-02-15-08:59:34,10.1.1.7,28,0.050,0.050,0.050,0.000,0.000,0.000
1644915574091492864,2022-02-15-08:59:34,10.1.1.7,38,0.040,0.040,0.040,0.000,0.000,0.000
1644915574133101824,2022-02-15-08:59:34,10.1.1.7,27,0.030,0.030,0.030,0.000,0.000,0.000
1644915574194255104,2022-02-15-08:59:34,10.1.1.7,36,0.020,0.020,0.020,0.000,0.000,0.000
1644915574231604992,2022-02-15-08:59:34,10.1.1.7,26,0.010,0.010,0.010,0.000,0.000,0.000
1644915574351433984,2022-02-15-08:59:34,10.1.1.7,39,-0.010,-0.010,-0.010,0.000,0.000,0.000
1644915574391303936,2022-02-15-08:59:34,10.1.1.7,28,-0.020,-0.020,-0.020,0.000,0.000,0.000
1644915574451611904,2022-02-15-08:59:34,10.1.1.7,37,-0.030,-0.030,-0.030,0.000,0.000,0.000
1644915574493094912,2022-02-15-08:59:34,10.1.1.7,26,-0.040,-0.040,-0.040,0.000,0.000,0.000
1644915574551188992,2022-02-15-08:59:34,10.1.1.7,34,-0.050,-0.050,-0.050,0.000,0.000,0.000
1644915574750968832,2022-02-15-08:59:34,10.1.1.7,27,-0.090,-0.090,-0.090,0.000,0.000,0.000
1644915574811636992,2022-02-15-08:59:34,10.1.1.7,35,-0.100,-0.100,-0.100,0.000,0.000,0.000
1644915574951443968,2022-02-15-08:59:34,10.1.1.7,20,-0.070,-0.070,-0.070,0.000,0.000,0.000
1644915575010848000,2022-02-15-08:59:35,10.1.1.7,28,-0.060,-0.060,-0.060,0.000,0.000,0.000
1644915575071333888,2022-02-15-08:59:35,10.1.1.7,37,-0.050,-0.050,-0.050,0.000,0.000,0.000
1644915575111244800,2022-02-15-08:59:35,10.1.1.7,26,-0.040,-0.040,-0.040,0.000,0.000,0.000
1644915575171838976,2022-02-15-08:59:35,10.1.1.7,35,-0.030,-0.030,-0.030,0.000,0.000,0.000
1644915575238454016,2022-02-15-08:59:35,10.1.1.7,24,-0.020,-0.020,-0.020,0.000,0.000,0.000
1644915575355034112,2022-02-15-08:59:35,10.1.1.7,38,0.000,0.000,0.000,0.000,0.000,0.000
1644915575391207936,2022-02-15-08:59:35,10.1.1.7,25,0.010,0.010,0.010,0.000,0.000,0.000
1644915575451837952,2022-02-15-08:59:35,10.1.1.7,35,0.020,0.020,0.020,0.000,0.000,0.000
1644915575492072192,2022-02-15-08:59:35,10.1.1.7,24,0.030,0.030,0.030,0.000,0.000,0.000
1644915575558413056,2022-02-15-08:59:35,10.1.1.7,34,0.040,0.040,0.040,0.000,0.000,0.000
1644915575712569088,2022-02-15-08:59:35,10.1.1.7,27,0.070,0.070,0.070,0.000,0.000,0.000
1644915575771215872,2022-02-15-08:59:35,10.1.1.7,36,0.080,0.080,0.080,0.000,0.000,0.000
1644915575811877120,2022-02-15-08:59:35,10.1.1.7,25,0.090,0.090,0.090,0.000,0.000,0.000
1644915575872216064,2022-02-15-08:59:35,10.1.1.7,34,0.100,0.100,0.100,0.000,0.000,0.000
1644915576031971072,2022-02-15-08:59:36,10.1.1.7,38,0.070,0.070,0.070,0.000,0.000,0.000
1644915576071368960,2022-02-15-08:59:36,10.1.1.7,28,0.060,0.060,0.060,0.000,0.000,0.000
1644915576132313088,2022-02-15-08:59:36,10.1.1.7,38,0.050,0.050,0.050,0.000,0.000,0.000
1644915576171196928,2022-02-15-08:59:36,10.1.1.7,27,0.040,0.040,0.040,0.000,0.000,0.000
1644915576231266048,2022-02-15-08:59:36,10.1.1.7,36,0.030,0.030,0.030,0.000,0.000,0.000
1644915576270904064,2022-02-15-08:59:36,10.1.1.7,26,0.020,0.020,0.020,0.000,0.000,0.000
1644915576493270016,2022-02-15-08:59:36,10.1.1.7,39,-0.020,-0.020,-0.020,0.000,0.000,0.000
1644915576530939136,2022-02-15-08:59:36,10.1.1.7,28,-0.030,-0.030,-0.030,0.000,0.000,0.000
1644915576591200000,2022-02-15-08:59:36,10.1.1.7,37,-0.040,-0.040,-0.040,0.000,0.000,0.000
1644915576632797952,2022-02-15-08:59:36,10.1.1.7,26,-0.050,-0.050,-0.050,0.000,0.000,0.000
1644915576691934208,2022-02-15-08:59:36,10.1.1.7,36,-0.060,-0.060,-0.060,0.000,0.000,0.000
1644915576731792896,2022-02-15-08:59:36,10.1.1.7,25,-0.070,-0.070,-0.070,0.000,0.000,0.000
1644915576791401984,2022-02-15-08:59:36,10.1.1.7,34,-0.080,-0.080,-0.080,0.000,0.000,0.000
1644915576832532992,2022-02-15-08:59:36,10.1.1.7,23,-0.090,-0.090,-0.090,0.000,0.000,0.000
1644915576914211072,2022-02-15-08:59:36,10.1.1.7,2,-0.090,-0.090,-0.090,0.000,0.000,0.000
1644915577092972032,2022-02-15-08:59:37,10.1.1.7,29,-0.060,-0.060,-0.060,0.000,0.000,0.000
1644915577151644928,2022-02-15-08:59:37,10.1.1.7,38,-0.050,-0.050,-0.050,0.000,0.000,0.000
1644915577191101952,2022-02-15-08:59:37,10.1.1.7,27,-0.040,-0.040,-0.040,0.000,0.000,0.000
1644915577292604928,2022-02-15-08:59:37,10.1.1.7,24,-0.020,-0.020,-0.020,0.000,0.000,0.000
1644915577352850944,2022-02-15-08:59:37,10.1.1.7,33,-0.010,-0.010,-0.010,0.000,0.000,0.000
1644915577551877120,2022-02-15-08:59:37,10.1.1.7,29,0.030,0.030,0.030,0.000,0.000,0.000
1644915577612310784,2022-02-15-08:59:37,10.1.1.7,38,0.040,0.040,0.040,0.000,0.000,0.000
1644915577651936000,2022-02-15-08:59:37,10.1.1.7,26,0.050,0.050,0.050,0.000,0.000,0.000
1644915577712292864,2022-02-15-08:59:37,10.1.1.7,34,0.060,0.060,0.060,0.000,0.000,0.000
1644915577915971072,2022-02-15-08:59:37,10.1.1.7,29,0.100,0.100,0.100,0.000,0.000,0.000
1644915578053591040,2022-02-15-08:59:38,10.1.1.7,24,0.080,0.080,0.080,0.000,0.000,0.000
1644915578113188864,2022-02-15-08:59:38,10.1.1.7,34,0.070,0.070,0.070,0.000,0.000,0.000
1644915578473406976,2022-02-15-08:59:38,10.1.1.7,39,0.000,0.000,0.000,0.000,0.000,0.000
1644915578513236992,2022-02-15-08:59:38,10.1.1.7,29,-0.010,-0.010,-0.010,0.000,0.000,0.000
1644915578573168128,2022-02-15-08:59:38,10.1.1.7,39,-0.020,-0.020,-0.020,0.000,0.000,0.000
1644915578614576128,2022-02-15-08:59:38,10.1.1.7,27,-0.030,-0.030,-0.030,0.000,0.000,0.000
1644915578712887040,2022-02-15-08:59:38,10.1.1.7,26,-0.050,-0.050,-0.050,0.000,0.000,0.000
1644915578773863168,2022-02-15-08:59:38,10.1.1.7,35,-0.060,-0.060,-0.060,0.000,0.000,0.000
1644915578829294080,2022-02-15-08:59:38,10.1.1.7,25,-0.070,-0.070,-0.070,0.000,0.000,0.000
1644915578873029120,2022-02-15-08:59:38,10.1.1.7,34,-0.080,-0.080,-0.080,0.000,0.000,0.000
1644915578912809984,2022-02-15-08:59:38,10.1.1.7,23,-0.090,-0.090,-0.090,0.000,0.000,0.000
1644915578993297152,2022-02-15-08:59:38,10.1.1.7,1,-0.090,-0.090,-0.090,0.000,0.000,0.000
1644915579291793152,2022-02-15-08:59:39,10.1.1.7,39,-0.040,-0.040,-0.040,0.000,0.000,0.000
1644915579331543040,2022-02-15-08:59:39,10.1.1.7,27,-0.030,-0.030,-0.030,0.000,0.000,0.000
1644915579392116992,2022-02-15-08:59:39,10.1.1.7,36,-0.020,-0.020,-0.020,0.000,0.000,0.000
1644915579432018944,2022-02-15-08:59:39,10.1.1.7,25,-0.010,-0.010,-0.010,0.000,0.000,0.000
1644915579492517120,2022-02-15-08:59:39,10.1.1.7,35,0.000,0.000,0.000,0.000,0.000,0.000
1644915579531625984,2022-02-15-08:59:39,10.1.1.7,24,0.010,0.010,0.010,0.000,0.000,0.000
1644915579591532032,2022-02-15-08:59:39,10.1.1.7,33,0.020,0.020,0.020,0.000,0.000,0.000
1644915579751643904,2022-02-15-08:59:39,10.1.1.7,37,0.050,0.050,0.050,0.000,0.000,0.000
1644915579793128960,2022-02-15-08:59:39,10.1.1.7,26,0.060,0.060,0.060,0.000,0.000,0.000
1644915579851248128,2022-02-15-08:59:39,10.1.1.7,34,0.070,0.070,0.070,0.000,0.000,0.000
1644915579892128000,2022-02-15-08:59:39,10.1.1.7,23,0.080,0.080,0.080,0.000,0.000,0.000
1644915580092622080,2022-02-15-08:59:40,10.1.1.7,18,0.080,0.080,0.080,0.000,0.000,0.000
1644915580152446976,2022-02-15-08:59:40,10.1.1.7,27,0.070,0.070,0.070,0.000,0.000,0.000
1644915580212452864,2022-02-15-08:59:40,10.1.1.7,35,0.060,0.060,0.060,0.000,0.000,0.000
1644915580251734016,2022-02-15-08:59:40,10.1.1.7,24,0.050,0.050,0.050,0.000,0.000,0.000
1644915580411383040,2022-02-15-08:59:40,10.1.1.7,29,0.020,0.020,0.020,0.000,0.000,0.000
1644915580472151040,2022-02-15-08:59:40,10.1.1.7,38,0.010,0.010,0.010,0.000,0.000,0.000
1644915580512049920,2022-02-15-08:59:40,10.1.1.7,27,0.000,0.000,0.000,0.000,0.000,0.000
1644915580573210112,2022-02-15-08:59:40,10.1.1.7,37,-0.010,-0.010,-0.010,0.000,0.000,0.000
1644915580614092032,2022-02-15-08:59:40,10.1.1.7,25,-0.020,-0.020,-0.020,0.000,0.000,0.000
1644915580672688128,2022-02-15-08:59:40,10.1.1.7,35,-0.030,-0.030,-0.030,0.000,0.000,0.000
1644915581018450944,2022-02-15-08:59:41,10.1.1.7,29,-0.090,-0.090,-0.090,0.000,0.000,0.000
1644915581071634944,2022-02-15-08:59:41,10.1.1.7,37,-0.100,-0.100,-0.100,0.000,0.000,0.000
1644915581111630080,2022-02-15-08:59:41,10.1.1.7,26,-0.090,-0.090,-0.090,0.000,0.000,0.000
1644915581173531136,2022-02-15-08:59:41,10.1.1.7,36,-0.080,-0.080,-0.080,0.000,0.000,0.000
1644915581212088064,2022-02-15-08:59:41,10.1.1.7,25,-0.070,-0.070,-0.070,0.000,0.000,0.000
1644915581271791872,2022-02-15-08:59:41,10.1.1.7,35,-0.060,-0.060,-0.060,0.000,0.000,0.000
1644915581312666880,2022-02-15-08:59:41,10.1.1.7,24,-0.050,-0.050,-0.050,0.000,0.000,0.000
1644915581372528128,2022-02-15-08:59:41,10.1.1.7,34,-0.040,-0.040,-0.040,0.000,0.000,0.000
1644915581473270784,2022-02-15-08:59:41,10.1.1.7,27,-0.020,-0.020,-0.020,0.000,0.000,0.000
1644915581533963008,2022-02-15-08:59:41,10.1.1.7,36,-0.010,-0.010,-0.010,0.000,0.000,0.000
1644915581573345792,2022-02-15-08:59:41,10.1.1.7,25,0.000,0.000,0.000,0.000,0.000,0.000
1644915581634300928,2022-02-15-08:59:41,10.1.1.7,35,0.010,0.010,0.010,0.000,0.000,0.000
1644915581691988992,2022-02-15-08:59:41,10.1.1.7,38,0.020,0.020,0.020,0.000,0.000,0.000
1644915581732428032,2022-02-15-08:59:41,10.1.1.7,27,0.030,0.030,0.030,0.000,0.000,0.000
1644915581792422912,2022-02-15-08:59:41,10.1.1.7,36,0.040,0.040,0.040,0.000,0.000,0.000
1644915581834862080,2022-02-15-08:59:41,10.1.1.7,25,0.050,0.050,0.050,0.000,0.000,0.000
1644915582054896128,2022-02-15-08:59:42,10.1.1.7,38,0.090,0.090,0.090,0.000,0.000,0.000
1644915582094149120,2022-02-15-08:59:42,10.1.1.7,24,0.100,0.100,0.100,0.000,0.000,0.000
1644915582253225984,2022-02-15-08:59:42,10.1.1.7,28,0.070,0.070,0.070,0.000,0.000,0.000
1644915582312109824,2022-02-15-08:59:42,10.1.1.7,37,0.060,0.060,0.060,0.000,0.000,0.000
1644915582633112832,2022-02-15-08:59:42,10.1.1.7,29,0.000,0.000,0.000,0.000,0.000,0.000
1644915582692719104,2022-02-15-08:59:42,10.1.1.7,38,-0.010,-0.010,-0.010,0.000,0.000,0.000
1644915582732166144,2022-02-15-08:59:42,10.1.1.7,28,-0.020,-0.020,-0.020,0.000,0.000,0.000
1644915582792627968,2022-02-15-08:59:42,10.1.1.7,35,-0.030,-0.030,-0.030,0.000,0.000,0.000
1644915582832145920,2022-02-15-08:59:42,10.1.1.7,24,-0.040,-0.040,-0.040,0.000,0.000,0.000
1644915583053280000,2022-02-15-08:59:43,10.1.1.7,38,-0.080,-0.080,-0.080,0.000,0.000,0.000
1644915583093903104,2022-02-15-08:59:43,10.1.1.7,26,-0.090,-0.090,-0.090,0.000,0.000,0.000
1644915583152369920,2022-02-15-08:59:43,10.1.1.7,35,-0.100,-0.100,-0.100,0.000,0.000,0.000
1644915583192406784,2022-02-15-08:59:43,10.1.1.7,24,-0.090,-0.090,-0.090,0.000,0.000,0.000
1644915583312526080,2022-02-15-08:59:43,10.1.1.7,37,-0.070,-0.070,-0.070,0.000,0.000,0.000
1644915583353594112,2022-02-15-08:59:43,10.1.1.7,25,-0.060,-0.060,-0.060,0.000,0.000,0.000
1644915583473938944,2022-02-15-08:59:43,10.1.1.7,36,-0.040,-0.040,-0.040,0.000,0.000,0.000
1644915583512912896,2022-02-15-08:59:43,10.1.1.7,25,-0.030,-0.030,-0.030,0.000,0.000,0.000
1644915583573946880,2022-02-15-08:59:43,10.1.1.7,34,-0.020,-0.020,-0.020,0.000,0.000,0.000
1644915583612161024,2022-02-15-08:59:43,10.1.1.7,23,-0.010,-0.010,-0.010,0.000,0.000,0.000
1644915583732925952,2022-02-15-08:59:43,10.1.1.7,39,0.010,0.010,0.010,0.000,0.000,0.000
1644915583773298944,2022-02-15-08:59:43,10.1.1.7,28,0.020,0.020,0.020,0.000,0.000,0.000
1644915583835017984,2022-02-15-08:59:43,10.1.1.7,37,0.030,0.030,0.030,0.000,0.000,0.000
1644915583903609088,2022-02-15-08:59:43,10.1.1.7,25,0.040,0.040,0.040,0.000,0.000,0.000
1644915584538265856,2022-02-15-08:59:44,10.1.1.7,-56,0.040,0.040,0.040,0.000,0.000,0.000
1644915584611280896,2022-02-15-08:59:44,10.1.1.7,33,0.030,0.030,0.030,0.000,0.000,0.000
1644915584813035008,2022-02-15-08:59:44,10.1.1.7,24,-0.010,-0.010,-0.010,0.000,0.000,0.000
1644915584875323136,2022-02-15-08:59:44,10.1.1.7,34,-0.020,-0.020,-0.020,0.000,0.000,0.000
1644915584912521984,2022-02-15-08:59:44,10.1.1.7,23,-0.030,-0.030,-0.030,0.000,0.000,0.000
1644915585272774912,2022-02-15-08:59:45,10.1.1.7,29,-0.100,-0.100,-0.100,0.000,0.000,0.000
1644915585334145024,2022-02-15-08:59:45,10.1.1.7,39,-0.090,-0.090,-0.090,0.000,0.000,0.000
1644915585371546880,2022-02-15-08:59:45,10.1.1.7,28,-0.080,-0.080,-0.080,0.000,0.000,0.000
1644915585433618944,2022-02-15-08:59:45,10.1.1.7,38,-0.070,-0.070,-0.070,0.000,0.000,0.000
1644915585472531200,2022-02-15-08:59:45,10.1.1.7,27,-0.060,-0.060,-0.060,0.000,0.000,0.000
1644915585532193024,2022-02-15-08:59:45,10.1.1.7,37,-0.050,-0.050,-0.050,0.000,0.000,0.000
1644915585573204992,2022-02-15-08:59:45,10.1.1.7,26,-0.040,-0.040,-0.040,0.000,0.000,0.000
1644915585692322048,2022-02-15-08:59:45,10.1.1.7,35,-0.020,-0.020,-0.020,0.000,0.000,0.000
1644915585731708160,2022-02-15-08:59:45,10.1.1.7,24,-0.010,-0.010,-0.010,0.000,0.000,0.000
1644915585790915072,2022-02-15-08:59:45,10.1.1.7,33,0.000,0.000,0.000,0.000,0.000,0.000
1644915586031740928,2022-02-15-08:59:46,10.1.1.7,19,0.050,0.050,0.050,0.000,0.000,0.000
1644915586091814144,2022-02-15-08:59:46,10.1.1.7,29,0.060,0.060,0.060,0.000,0.000,0.000
1644915586151952128,2022-02-15-08:59:46,10.1.1.7,38,0.070,0.070,0.070,0.000,0.000,0.000
1644915586192087808,2022-02-15-08:59:46,10.1.1.7,28,0.080,0.080,0.080,0.000,0.000,0.000
1644915586252638208,2022-02-15-08:59:46,10.1.1.7,37,0.090,0.090,0.090,0.000,0.000,0.000
1644915586293004032,2022-02-15-08:59:46,10.1.1.7,26,0.100,0.100,0.100,0.000,0.000,0.000
1644915586351995904,2022-02-15-08:59:46,10.1.1.7,35,0.090,0.090,0.090,0.000,0.000,0.000
1644915586390988032,2022-02-15-08:59:46,10.1.1.7,24,0.080,0.080,0.080,0.000,0.000,0.000
1644915586552604928,2022-02-15-08:59:46,10.1.1.7,30,0.050,0.050,0.050,0.000,0.000,0.000
1644915586614833152,2022-02-15-08:59:46,10.1.1.7,38,0.040,0.040,0.040,0.000,0.000,0.000
1644915586652553984,2022-02-15-08:59:46,10.1.1.7,26,0.030,0.030,0.030,0.000,0.000,0.000
1644915586712177152,2022-02-15-08:59:46,10.1.1.7,36,0.020,0.020,0.020,0.000,0.000,0.000
1644915586751324928,2022-02-15-08:59:46,10.1.1.7,25,0.010,0.010,0.010,0.000,0.000,0.000
1644915586812502016,2022-02-15-08:59:46,10.1.1.7,33,0.000,0.000,0.000,0.000,0.000,0.000
1644915587013559040,2022-02-15-08:59:47,10.1.1.7,29,-0.040,-0.040,-0.040,0.000,0.000,0.000
1644915587075851008,2022-02-15-08:59:47,10.1.1.7,38,-0.050,-0.050,-0.050,0.000,0.000,0.000
1644915587113949952,2022-02-15-08:59:47,10.1.1.7,27,-0.060,-0.060,-0.060,0.000,0.000,0.000
1644915587176163840,2022-02-15-08:59:47,10.1.1.7,36,-0.070,-0.070,-0.070,0.000,0.000,0.000
1644915587213062144,2022-02-15-08:59:47,10.1.1.7,25,-0.080,-0.080,-0.080,0.000,0.000,0.000
1644915587372397056,2022-02-15-08:59:47,10.1.1.7,28,-0.090,-0.090,-0.090,0.000,0.000,0.000
1644915587433003008,2022-02-15-08:59:47,10.1.1.7,37,-0.080,-0.080,-0.080,0.000,0.000,0.000
1644915587472556032,2022-02-15-08:59:47,10.1.1.7,26,-0.070,-0.070,-0.070,0.000,0.000,0.000
1644915587694377984,2022-02-15-08:59:47,10.1.1.7,38,-0.030,-0.030,-0.030,0.000,0.000,0.000
1644915587732402944,2022-02-15-08:59:47,10.1.1.7,24,-0.020,-0.020,-0.020,0.000,0.000,0.000
1644915587851958016,2022-02-15-08:59:47,10.1.1.7,38,0.000,0.000,0.000,0.000,0.000,0.000
1644915587895965184,2022-02-15-08:59:47,10.1.1.7,27,0.010,0.010,0.010,0.000,0.000,0.000
1644915587952997888,2022-02-15-08:59:47,10.1.1.7,36,0.020,0.020,0.020,0.000,0.000,0.000
1644915587993662976,2022-02-15-08:59:47,10.1.1.7,25,0.030,0.030,0.030,0.000,0.000,0.000
1644915588053467136,2022-02-15-08:59:48,10.1.1.7,27,0.040,0.040,0.040,0.000,0.000,0.000
1644915588112389120,2022-02-15-08:59:48,10.1.1.7,36,0.050,0.050,0.050,0.000,0.000,0.000
1644915588152399104,2022-02-15-08:59:48,10.1.1.7,25,0.060,0.060,0.060,0.000,0.000,0.000
1644915588212538880,2022-02-15-08:59:48,10.1.1.7,33,0.070,0.070,0.070,0.000,0.000,0.000
1644915588352432896,2022-02-15-08:59:48,10.1.1.7,19,0.100,0.100,0.100,0.000,0.000,0.000
1644915588413314048,2022-02-15-08:59:48,10.1.1.7,28,0.090,0.090,0.090,0.000,0.000,0.000
1644915588472466944,2022-02-15-08:59:48,10.1.1.7,37,0.080,0.080,0.080,0.000,0.000,0.000
1644915588515784960,2022-02-15-08:59:48,10.1.1.7,25,0.070,0.070,0.070,0.000,0.000,0.000
1644915588571759104,2022-02-15-08:59:48,10.1.1.7,35,0.060,0.060,0.060,0.000,0.000,0.000
1644915588614589952,2022-02-15-08:59:48,10.1.1.7,24,0.050,0.050,0.050,0.000,0.000,0.000
1644915588673332992,2022-02-15-08:59:48,10.1.1.7,33,0.040,0.040,0.040,0.000,0.000,0.000
1644915588733581056,2022-02-15-08:59:48,10.1.1.7,37,0.030,0.030,0.030,0.000,0.000,0.000
1644915588771662080,2022-02-15-08:59:48,10.1.1.7,26,0.020,0.020,0.020,0.000,0.000,0.000
1644915588992482048,2022-02-15-08:59:48,10.1.1.7,39,-0.020,-0.020,-0.020,0.000,0.000,0.000
1644915589033679104,2022-02-15-08:59:49,10.1.1.7,26,-0.030,-0.030,-0.030,0.000,0.000,0.000
1644915589092536832,2022-02-15-08:59:49,10.1.1.7,36,-0.040,-0.040,-0.040,0.000,0.000,0.000
1644915589133443072,2022-02-15-08:59:49,10.1.1.7,24,-0.050,-0.050,-0.050,0.000,0.000,0.000
1644915589253894144,2022-02-15-08:59:49,10.1.1.7,39,-0.070,-0.070,-0.070,0.000,0.000,0.000
1644915589311696128,2022-02-15-08:59:49,10.1.1.7,39,-0.080,-0.080,-0.080,0.000,0.000,0.000
1644915589352996096,2022-02-15-08:59:49,10.1.1.7,26,-0.090,-0.090,-0.090,0.000,0.000,0.000
1644915589415465984,2022-02-15-08:59:49,10.1.1.7,34,-0.100,-0.100,-0.100,0.000,0.000,0.000
1644915589571858944,2022-02-15-08:59:49,10.1.1.7,38,-0.070,-0.070,-0.070,0.000,0.000,0.000
1644915589612037888,2022-02-15-08:59:49,10.1.1.7,27,-0.060,-0.060,-0.060,0.000,0.000,0.000
1644915589672923136,2022-02-15-08:59:49,10.1.1.7,37,-0.050,-0.050,-0.050,0.000,0.000,0.000
1644915589712577024,2022-02-15-08:59:49,10.1.1.7,26,-0.040,-0.040,-0.040,0.000,0.000,0.000
1644915589771495936,2022-02-15-08:59:49,10.1.1.7,36,-0.030,-0.030,-0.030,0.000,0.000,0.000
1644915589813498880,2022-02-15-08:59:49,10.1.1.7,26,-0.020,-0.020,-0.020,0.000,0.000,0.000
1644915590072711936,2022-02-15-08:59:50,10.1.1.7,30,0.030,0.030,0.030,0.000,0.000,0.000
1644915590134699008,2022-02-15-08:59:50,10.1.1.7,38,0.040,0.040,0.040,0.000,0.000,0.000
1644915590313211904,2022-02-15-08:59:50,10.1.1.7,40,0.070,0.070,0.070,0.000,0.000,0.000
1644915590351851008,2022-02-15-08:59:50,10.1.1.7,28,0.080,0.080,0.080,0.000,0.000,0.000
1644915590411175936,2022-02-15-08:59:50,10.1.1.7,38,0.090,0.090,0.090,0.000,0.000,0.000
1644915590452116992,2022-02-15-08:59:50,10.1.1.7,27,0.100,0.100,0.100,0.000,0.000,0.000
1644915590512284160,2022-02-15-08:59:50,10.1.1.7,36,0.090,0.090,0.090,0.000,0.000,0.000
1644915590553500928,2022-02-15-08:59:50,10.1.1.7,25,0.080,0.080,0.080,0.000,0.000,0.000
1644915590614247168,2022-02-15-08:59:50,10.1.1.7,34,0.070,0.070,0.070,0.000,0.000,0.000
1644915590654514944,2022-02-15-08:59:50,10.1.1.7,23,0.060,0.060,0.060,0.000,0.000,0.000
1644915591013777920,2022-02-15-08:59:51,10.1.1.7,29,-0.010,-0.010,-0.010,0.000,0.000,0.000
1644915591073810944,2022-02-15-08:59:51,10.1.1.7,38,-0.020,-0.020,-0.020,0.000,0.000,0.000
1644915591113138944,2022-02-15-08:59:51,10.1.1.7,28,-0.030,-0.030,-0.030,0.000,0.000,0.000
1644915591175090176,2022-02-15-08:59:51,10.1.1.7,37,-0.040,-0.040,-0.040,0.000,0.000,0.000
1644915591212372992,2022-02-15-08:59:51,10.1.1.7,27,-0.050,-0.050,-0.050,0.000,0.000,0.000
1644915591271756800,2022-02-15-08:59:51,10.1.1.7,36,-0.060,-0.060,-0.060,0.000,0.000,0.000
1644915591312777984,2022-02-15-08:59:51,10.1.1.7,25,-0.070,-0.070,-0.070,0.000,0.000,0.000
1644915591375730944,2022-02-15-08:59:51,10.1.1.7,34,-0.080,-0.080,-0.080,0.000,0.000,0.000
1644915591432657920,2022-02-15-08:59:51,10.1.1.7,37,-0.090,-0.090,-0.090,0.000,0.000,0.000
1644915591474194944,2022-02-15-08:59:51,10.1.1.7,27,-0.100,-0.100,-0.100,0.000,0.000,0.000
1644915591534138880,2022-02-15-08:59:51,10.1.1.7,35,-0.090,-0.090,-0.090,0.000,0.000,0.000
1644915591574435072,2022-02-15-08:59:51,10.1.1.7,24,-0.080,-0.080,-0.080,0.000,0.000,0.000
1644915591693998080,2022-02-15-08:59:51,10.1.1.7,38,-0.060,-0.060,-0.060,0.000,0.000,0.000
1644915591734350848,2022-02-15-08:59:51,10.1.1.7,27,-0.050,-0.050,-0.050,0.000,0.000,0.000
1644915591793476096,2022-02-15-08:59:51,10.1.1.7,35,-0.040,-0.040,-0.040,0.000,0.000,0.000
1644915591835707904,2022-02-15-08:59:51,10.1.1.7,25,-0.030,-0.030,-0.030,0.000,0.000,0.000
1644915591892782080,2022-02-15-08:59:51,10.1.1.7,34,-0.020,-0.020,-0.020,0.000,0.000,0.000
1644915591993353984,2022-02-15-08:59:51,10.1.1.7,27,0.000,0.000,0.000,0.000,0.000,0.000
1644915592113511936,2022-02-15-08:59:52,10.1.1.7,37,0.020,0.020,0.020,0.000,0.000,0.000
1644915592150895104,2022-02-15-08:59:52,10.1.1.7,26,0.030,0.030,0.030,0.000,0.000,0.000
1644915592212248064,2022-02-15-08:59:52,10.1.1.7,35,0.040,0.040,0.040,0.000,0.000,0.000
1644915592252971008,2022-02-15-08:59:52,10.1.1.7,25,0.050,0.050,0.050,0.000,0.000,0.000
1644915592312370176,2022-02-15-08:59:52,10.1.1.7,30,0.060,0.060,0.060,0.000,0.000,0.000
1644915592375049984,2022-02-15-08:59:52,10.1.1.7,36,0.070,0.070,0.070,0.000,0.000,0.000
1644915592414009088,2022-02-15-08:59:52,10.1.1.7,24,0.080,0.080,0.080,0.000,0.000,0.000
1644915592533437952,2022-02-15-08:59:52,10.1.1.7,38,0.100,0.100,0.100,0.000,0.000,0.000
1644915592573491200,2022-02-15-08:59:52,10.1.1.7,27,0.090,0.090,0.090,0.000,0.000,0.000
1644915592633270016,2022-02-15-08:59:52,10.1.1.7,37,0.080,0.080,0.080,0.000,0.000,0.000
1644915592672790016,2022-02-15-08:59:52,10.1.1.7,26,0.070,0.070,0.070,0.000,0.000,0.000
1644915592732408064,2022-02-15-08:59:52,10.1.1.7,35,0.060,0.060,0.060,0.000,0.000,0.000
1644915592772459008,2022-02-15-08:59:52,10.1.1.7,24,0.050,0.050,0.050,0.000,0.000,0.000
1644915592832484864,2022-02-15-08:59:52,10.1.1.7,25,0.040,0.040,0.040,0.000,0.000,0.000
1644915592993868032,2022-02-15-08:59:52,10.1.1.7,26,0.010,0.010,0.010,0.000,0.000,0.000
1644915593053863168,2022-02-15-08:59:53,10.1.1.7,35,0.000,0.000,0.000,0.000,0.000,0.000
1644915593092752896,2022-02-15-08:59:53,10.1.1.7,24,-0.010,-0.010,-0.010,0.000,0.000,0.000
1644915593153049856,2022-02-15-08:59:53,10.1.1.7,26,-0.020,-0.020,-0.020,0.000,0.000,0.000
1644915593214308096,2022-02-15-08:59:53,10.1.1.7,35,-0.030,-0.030,-0.030,0.000,0.000,0.000
1644915593254040832,2022-02-15-08:59:53,10.1.1.7,24,-0.040,-0.040,-0.040,0.000,0.000,0.000
1644915593374160896,2022-02-15-08:59:53,10.1.1.7,38,-0.060,-0.060,-0.060,0.000,0.000,0.000
1644915593414646016,2022-02-15-08:59:53,10.1.1.7,27,-0.070,-0.070,-0.070,0.000,0.000,0.000
1644915593472531200,2022-02-15-08:59:53,10.1.1.7,33,-0.080,-0.080,-0.080,0.000,0.000,0.000
1644915593652911872,2022-02-15-08:59:53,10.1.1.7,9,-0.080,-0.080,-0.080,0.000,0.000,0.000
1644915593732932096,2022-02-15-08:59:53,10.1.1.7,38,-0.070,-0.070,-0.070,0.000,0.000,0.000
1644915593773969920,2022-02-15-08:59:53,10.1.1.7,24,-0.060,-0.060,-0.060,0.000,0.000,0.000
1644915593926866176,2022-02-15-08:59:53,10.1.1.7,37,-0.040,-0.040,-0.040,0.000,0.000,0.000
1644915594116748032,2022-02-15-08:59:54,10.1.1.7,28,0.000,0.000,0.000,0.000,0.000,0.000
1644915594172848896,2022-02-15-08:59:54,10.1.1.7,37,0.010,0.010,0.010,0.000,0.000,0.000
1644915594211795968,2022-02-15-08:59:54,10.1.1.7,26,0.020,0.020,0.020,0.000,0.000,0.000
1644915594283517952,2022-02-15-08:59:54,10.1.1.7,25,0.030,0.030,0.030,0.000,0.000,0.000
1644915594332161024,2022-02-15-08:59:54,10.1.1.7,34,0.040,0.040,0.040,0.000,0.000,0.000
1644915594372461056,2022-02-15-08:59:54,10.1.1.7,24,0.050,0.050,0.050,0.000,0.000,0.000
1644915594431830016,2022-02-15-08:59:54,10.1.1.7,33,0.060,0.060,0.060,0.000,0.000,0.000
1644915594591228928,2022-02-15-08:59:54,10.1.1.7,39,0.090,0.090,0.090,0.000,0.000,0.000
1644915594631943936,2022-02-15-08:59:54,10.1.1.7,28,0.100,0.100,0.100,0.000,0.000,0.000
1644915594693424896,2022-02-15-08:59:54,10.1.1.7,37,0.090,0.090,0.090,0.000,0.000,0.000
1644915594731981056,2022-02-15-08:59:54,10.1.1.7,27,0.080,0.080,0.080,0.000,0.000,0.000
1644915594816869120,2022-02-15-08:59:54,10.1.1.7,36,0.070,0.070,0.070,0.000,0.000,0.000
1644915594952248064,2022-02-15-08:59:54,10.1.1.7,38,0.050,0.050,0.050,0.000,0.000,0.000
1644915594993801984,2022-02-15-08:59:54,10.1.1.7,26,0.040,0.040,0.040,0.000,0.000,0.000
1644915595053360896,2022-02-15-08:59:55,10.1.1.7,35,0.030,0.030,0.030,0.000,0.000,0.000
1644915595152292864,2022-02-15-08:59:55,10.1.1.7,28,0.010,0.010,0.010,0.000,0.000,0.000
1644915595214445056,2022-02-15-08:59:55,10.1.1.7,37,0.000,0.000,0.000,0.000,0.000,0.000
1644915595252418048,2022-02-15-08:59:55,10.1.1.7,26,-0.010,-0.010,-0.010,0.000,0.000,0.000
1644915595310930944,2022-02-15-08:59:55,10.1.1.7,35,-0.020,-0.020,-0.020,0.000,0.000,0.000
1644915595352140800,2022-02-15-08:59:55,10.1.1.7,25,-0.030,-0.030,-0.030,0.000,0.000,0.000
1644915595583683072,2022-02-15-08:59:55,10.1.1.7,36,-0.070,-0.070,-0.070,0.000,0.000,0.000
1644915595631876096,2022-02-15-08:59:55,10.1.1.7,33,-0.080,-0.080,-0.080,0.000,0.000,0.000
1644915595811564800,2022-02-15-08:59:55,10.1.1.7,9,-0.080,-0.080,-0.080,0.000,0.000,0.000
1644915595892515072,2022-02-15-08:59:55,10.1.1.7,39,-0.070,-0.070,-0.070,0.000,0.000,0.000
1644915595932136960,2022-02-15-08:59:55,10.1.1.7,28,-0.060,-0.060,-0.060,0.000,0.000,0.000
1644915595992975104,2022-02-15-08:59:55,10.1.1.7,38,-0.050,-0.050,-0.050,0.000,0.000,0.000
1644915596031649024,2022-02-15-08:59:56,10.1.1.7,27,-0.040,-0.040,-0.040,0.000,0.000,0.000
1644915596091826944,2022-02-15-08:59:56,10.1.1.7,37,-0.030,-0.030,-0.030,0.000,0.000,0.000
1644915596133357056,2022-02-15-08:59:56,10.1.1.7,27,-0.020,-0.020,-0.020,0.000,0.000,0.000
1644915596193285888,2022-02-15-08:59:56,10.1.1.7,36,-0.010,-0.010,-0.010,0.000,0.000,0.000
1644915596232780032,2022-02-15-08:59:56,10.1.1.7,26,0.000,0.000,0.000,0.000,0.000,0.000
1644915596292377088,2022-02-15-08:59:56,10.1.1.7,35,0.010,0.010,0.010,0.000,0.000,0.000
1644915596332285952,2022-02-15-08:59:56,10.1.1.7,25,0.020,0.020,0.020,0.000,0.000,0.000
1644915596392510976,2022-02-15-08:59:56,10.1.1.7,34,0.030,0.030,0.030,0.000,0.000,0.000
1644915596811606784,2022-02-15-08:59:56,10.1.1.7,38,0.090,0.090,0.090,0.000,0.000,0.000
1644915596850946048,2022-02-15-08:59:56,10.1.1.7,28,0.080,0.080,0.080,0.000,0.000,0.000
1644915596911389184,2022-02-15-08:59:56,10.1.1.7,38,0.070,0.070,0.070,0.000,0.000,0.000
1644915596950650880,2022-02-15-08:59:56,10.1.1.7,27,0.060,0.060,0.060,0.000,0.000,0.000
1644915597011957760,2022-02-15-08:59:57,10.1.1.7,37,0.050,0.050,0.050,0.000,0.000,0.000
1644915597052773888,2022-02-15-08:59:57,10.1.1.7,26,0.040,0.040,0.040,0.000,0.000,0.000
1644915597110866944,2022-02-15-08:59:57,10.1.1.7,36,0.030,0.030,0.030,0.000,0.000,0.000
1644915597150747136,2022-02-15-08:59:57,10.1.1.7,25,0.020,0.020,0.020,0.000,0.000,0.000
1644915597214188032,2022-02-15-08:59:57,10.1.1.7,35,0.010,0.010,0.010,0.000,0.000,0.000
1644915597553337088,2022-02-15-08:59:57,10.1.1.7,20,-0.060,-0.060,-0.060,0.000,0.000,0.000
1644915597611023872,2022-02-15-08:59:57,10.1.1.7,25,-0.070,-0.070,-0.070,0.000,0.000,0.000
1644915597671081984,2022-02-15-08:59:57,10.1.1.7,33,-0.080,-0.080,-0.080,0.000,0.000,0.000
1644915597852222976,2022-02-15-08:59:57,10.1.1.7,9,-0.080,-0.080,-0.080,0.000,0.000,0.000
1644915597932125952,2022-02-15-08:59:57,10.1.1.7,39,-0.070,-0.070,-0.070,0.000,0.000,0.000
1644915597971950080,2022-02-15-08:59:57,10.1.1.7,25,-0.060,-0.060,-0.060,0.000,0.000,0.000
1644915598032270080,2022-02-15-08:59:58,10.1.1.7,35,-0.050,-0.050,-0.050,0.000,0.000,0.000
1644915598071443968,2022-02-15-08:59:58,10.1.1.7,24,-0.040,-0.040,-0.040,0.000,0.000,0.000
1644915598130956032,2022-02-15-08:59:58,10.1.1.7,33,-0.030,-0.030,-0.030,0.000,0.000,0.000
1644915598331264000,2022-02-15-08:59:58,10.1.1.7,28,0.010,0.010,0.010,0.000,0.000,0.000
1644915598390938112,2022-02-15-08:59:58,10.1.1.7,36,0.020,0.020,0.020,0.000,0.000,0.000
1644915598431394048,2022-02-15-08:59:58,10.1.1.7,25,0.030,0.030,0.030,0.000,0.000,0.000
1644915598492054016,2022-02-15-08:59:58,10.1.1.7,34,0.040,0.040,0.040,0.000,0.000,0.000
1644915598691371008,2022-02-15-08:59:58,10.1.1.7,28,0.080,0.080,0.080,0.000,0.000,0.000
1644915598751362048,2022-02-15-08:59:58,10.1.1.7,38,0.090,0.090,0.090,0.000,0.000,0.000
1644915598791228160,2022-02-15-08:59:58,10.1.1.7,27,0.100,0.100,0.100,0.000,0.000,0.000
1644915598851385088,2022-02-15-08:59:58,10.1.1.7,36,0.090,0.090,0.090,0.000,0.000,0.000
1644915598890801920,2022-02-15-08:59:58,10.1.1.7,26,0.080,0.080,0.080,0.000,0.000,0.000
1644915598951142144,2022-02-15-08:59:58,10.1.1.7,35,0.070,0.070,0.070,0.000,0.000,0.000
1644915598991518976,2022-02-15-08:59:58,10.1.1.7,25,0.060,0.060,0.060,0.000,0.000,0.000
1644915599051438080,2022-02-15-08:59:59,10.1.1.7,34,0.050,0.050,0.050,0.000,0.000,0.000
1644915599091595776,2022-02-15-08:59:59,10.1.1.7,24,0.040,0.040,0.040,0.000,0.000,0.000
1644915599411113984,2022-02-15-08:59:59,10.1.1.7,28,-0.020,-0.020,-0.020,0.000,0.000,0.000
1644915599470746112,2022-02-15-08:59:59,10.1.1.7,38,-0.030,-0.030,-0.030,0.000,0.000,0.000
1644915599511516160,2022-02-15-08:59:59,10.1.1.7,24,-0.040,-0.040,-0.040,0.000,0.000,0.000
1644915599570671104,2022-02-15-08:59:59,10.1.1.7,34,-0.050,-0.050,-0.050,0.000,0.000,0.000
1644915599770631168,2022-02-15-08:59:59,10.1.1.7,28,-0.090,-0.090,-0.090,0.000,0.000,0.000
1644915599831165184,2022-02-15-08:59:59,10.1.1.7,38,-0.100,-0.100,-0.100,0.000,0.000,0.000
1644915599872240896,2022-02-15-08:59:59,10.1.1.7,28,-0.090,-0.090,-0.090,0.000,0.000,0.000
1644915599932043008,2022-02-15-08:59:59,10.1.1.7,36,-0.080,-0.080,-0.080,0.000,0.000,0.000
1644915599991161088,2022-02-15-08:59:59,10.1.1.7,39,-0.070,-0.070,-0.070,0.000,0.000,0.000
1644915600031783936,2022-02-15-09:00:00,10.1.1.7,28,-0.060,-0.060,-0.060,0.000,0.000,0.000
1644915600090694912,2022-02-15-09:00:00,10.1.1.7,38,-0.050,-0.050,-0.050,0.000,0.000,0.000
1644915600131190016,2022-02-15-09:00:00,10.1.1.7,27,-0.040,-0.040,-0.040,0.000,0.000,0.000
1644915600191163904,2022-02-15-09:00:00,10.1.1.7,37,-0.030,-0.030,-0.030,0.000,0.000,0.000
1644915600231527936,2022-02-15-09:00:00,10.1.1.7,26,-0.020,-0.020,-0.020,0.000,0.000,0.000
1644915600291981056,2022-02-15-09:00:00,10.1.1.7,36,-0.010,-0.010,-0.010,0.000,0.000,0.000
1644915600330971904,2022-02-15-09:00:00,10.1.1.7,25,0.000,0.000,0.000,0.000,0.000,0.000
1644915600391149056,2022-02-15-09:00:00,10.1.1.7,33,0.010,0.010,0.010,0.000,0.000,0.000
1644915600550735104,2022-02-15-09:00:00,10.1.1.7,35,0.040,0.040,0.040,0.000,0.000,0.000
1644915600591191040,2022-02-15-09:00:00,10.1.1.7,24,0.050,0.050,0.050,0.000,0.000,0.000
1644915601011827968,2022-02-15-09:00:01,10.1.1.7,39,0.070,0.070,0.070,0.000,0.000,0.000
1644915601051585792,2022-02-15-09:00:01,10.1.1.7,29,0.060,0.060,0.060,0.000,0.000,0.000
1644915601110710016,2022-02-15-09:00:01,10.1.1.7,38,0.050,0.050,0.050,0.000,0.000,0.000
1644915601152314880,2022-02-15-09:00:01,10.1.1.7,27,0.040,0.040,0.040,0.000,0.000,0.000
1644915601215805952,2022-02-15-09:00:01,10.1.1.7,31,0.030,0.030,0.030,0.000,0.000,0.000
1644915601271360000,2022-02-15-09:00:01,10.1.1.7,39,0.020,0.020,0.020,0.000,0.000,0.000
1644915601312524032,2022-02-15-09:00:01,10.1.1.7,29,0.010,0.010,0.010,0.000,0.000,0.000
1644915601372039936,2022-02-15-09:00:01,10.1.1.7,39,0.000,0.000,0.000,0.000,0.000,0.000
1644915601412247040,2022-02-15-09:00:01,10.1.1.7,28,-0.010,-0.010,-0.010,0.000,0.000,0.000
1644915601510989056,2022-02-15-09:00:01,10.1.1.7,25,-0.030,-0.030,-0.030,0.000,0.000,0.000
1644915601576466944,2022-02-15-09:00:01,10.1.1.7,33,-0.040,-0.040,-0.040,0.000,0.000,0.000
1644915601671283968,2022-02-15-09:00:01,10.1.1.7,23,-0.060,-0.060,-0.060,0.000,0.000,0.000
1644915602031431936,2022-02-15-09:00:02,10.1.1.7,30,-0.070,-0.070,-0.070,0.000,0.000,0.000
1644915602091216128,2022-02-15-09:00:02,10.1.1.7,39,-0.060,-0.060,-0.060,0.000,0.000,0.000
1644915602131907840,2022-02-15-09:00:02,10.1.1.7,29,-0.050,-0.050,-0.050,0.000,0.000,0.000
1644915602191895040,2022-02-15-09:00:02,10.1.1.7,39,-0.040,-0.040,-0.040,0.000,0.000,0.000
1644915602231954176,2022-02-15-09:00:02,10.1.1.7,28,-0.030,-0.030,-0.030,0.000,0.000,0.000
1644915602292043008,2022-02-15-09:00:02,10.1.1.7,38,-0.020,-0.020,-0.020,0.000,0.000,0.000
1644915602332089856,2022-02-15-09:00:02,10.1.1.7,28,-0.010,-0.010,-0.010,0.000,0.000,0.000
1644915602393396992,2022-02-15-09:00:02,10.1.1.7,37,0.000,0.000,0.000,0.000,0.000,0.000
1644915602431225088,2022-02-15-09:00:02,10.1.1.7,27,0.010,0.010,0.010,0.000,0.000,0.000
1644915602491249152,2022-02-15-09:00:02,10.1.1.7,35,0.020,0.020,0.020,0.000,0.000,0.000
1644915602531856896,2022-02-15-09:00:02,10.1.1.7,24,0.030,0.030,0.030,0.000,0.000,0.000
1644915602592892928,2022-02-15-09:00:02,10.1.1.7,34,0.040,0.040,0.040,0.000,0.000,0.000
1644915602793620224,2022-02-15-09:00:02,10.1.1.7,29,0.080,0.080,0.080,0.000,0.000,0.000
1644915602852392960,2022-02-15-09:00:02,10.1.1.7,37,0.090,0.090,0.090,0.000,0.000,0.000
1644915602892616960,2022-02-15-09:00:02,10.1.1.7,26,0.100,0.100,0.100,0.000,0.000,0.000
1644915602952062976,2022-02-15-09:00:02,10.1.1.7,35,0.090,0.090,0.090,0.000,0.000,0.000
1644915602994126080,2022-02-15-09:00:02,10.1.1.7,24,0.080,0.080,0.080,0.000,0.000,0.000
1644915603251617792,2022-02-15-09:00:03,10.1.1.7,29,0.030,0.030,0.030,0.000,0.000,0.000
1644915603311623168,2022-02-15-09:00:03,10.1.1.7,37,0.020,0.020,0.020,0.000,0.000,0.000
1644915603351025152,2022-02-15-09:00:03,10.1.1.7,27,0.010,0.010,0.010,0.000,0.000,0.000
1644915603412139776,2022-02-15-09:00:03,10.1.1.7,36,0.000,0.000,0.000,0.000,0.000,0.000
1644915603451823872,2022-02-15-09:00:03,10.1.1.7,25,-0.010,-0.010,-0.010,0.000,0.000,0.000
1644915603512564992,2022-02-15-09:00:03,10.1.1.7,34,-0.020,-0.020,-0.020,0.000,0.000,0.000
1644915603555805952,2022-02-15-09:00:03,10.1.1.7,23,-0.030,-0.030,-0.030,0.000,0.000,0.000
1644915603832675072,2022-02-15-09:00:03,10.1.1.7,28,-0.080,-0.080,-0.080,0.000,0.000,0.000
1644915603891990784,2022-02-15-09:00:03,10.1.1.7,37,-0.090,-0.090,-0.090,0.000,0.000,0.000
1644915603930902016,2022-02-15-09:00:03,10.1.1.7,27,-0.100,-0.100,-0.100,0.000,0.000,0.000
1644915603993149952,2022-02-15-09:00:03,10.1.1.7,37,-0.090,-0.090,-0.090,0.000,0.000,0.000
1644915604033027840,2022-02-15-09:00:04,10.1.1.7,26,-0.080,-0.080,-0.080,0.000,0.000,0.000
1644915604091484928,2022-02-15-09:00:04,10.1.1.7,35,-0.070,-0.070,-0.070,0.000,0.000,0.000
1644915604131614976,2022-02-15-09:00:04,10.1.1.7,25,-0.060,-0.060,-0.060,0.000,0.000,0.000
1644915604193952000,2022-02-15-09:00:04,10.1.1.7,34,-0.050,-0.050,-0.050,0.000,0.000,0.000
1644915604232765952,2022-02-15-09:00:04,10.1.1.7,24,-0.040,-0.040,-0.040,0.000,0.000,0.000
1644915604292728064,2022-02-15-09:00:04,10.1.1.7,33,-0.030,-0.030,-0.030,0.000,0.000,0.000
1644915604592942080,2022-02-15-09:00:04,10.1.1.7,29,0.030,0.030,0.030,0.000,0.000,0.000
1644915604651917824,2022-02-15-09:00:04,10.1.1.7,39,0.040,0.040,0.040,0.000,0.000,0.000
1644915604691342080,2022-02-15-09:00:04,10.1.1.7,28,0.050,0.050,0.050,0.000,0.000,0.000
1644915604751533056,2022-02-15-09:00:04,10.1.1.7,37,0.060,0.060,0.060,0.000,0.000,0.000
1644915604791196160,2022-02-15-09:00:04,10.1.1.7,25,0.070,0.070,0.070,0.000,0.000,0.000
