FedericoMungari/DigitalTwin_service/01_WiredScenario/Output/Output_script/script_rosapi_2_output_robots8_freq0_1.txt
timestamp,date,node,latency,joint_1,joint_2,joint_3,joint_4,joint_5,joint_6
1644915519081856000,2022-02-15-08:58:39,10.1.1.2,1,-0.100,-0.100,-0.100,0.000,-0.000,-0.000
1644915519162650112,2022-02-15-08:58:39,10.1.1.2,29,-0.090,-0.090,-0.090,0.000,0.000,0.000
1644915519222341888,2022-02-15-08:58:39,10.1.1.2,39,-0.080,-0.080,-0.080,0.000,0.000,0.000
1644915519262034944,2022-02-15-08:58:39,10.1.1.2,28,-0.070,-0.070,-0.070,0.000,0.000,0.000
1644915519322269952,2022-02-15-08:58:39,10.1.1.2,37,-0.060,-0.060,-0.060,0.000,0.000,0.000
1644915519361555200,2022-02-15-08:58:39,10.1.1.2,27,-0.050,-0.050,-0.050,0.000,0.000,0.000
1644915519421463040,2022-02-15-08:58:39,10.1.1.2,37,-0.040,-0.040,-0.040,0.000,0.000,0.000
1644915519461107968,2022-02-15-08:58:39,10.1.1.2,26,-0.030,-0.030,-0.030,0.000,0.000,0.000
1644915519521626880,2022-02-15-08:58:39,10.1.1.2,34,-0.020,-0.020,-0.020,0.000,0.000,0.000
1644915519561726208,2022-02-15-08:58:39,10.1.1.2,24,-0.010,-0.010,-0.010,0.000,0.000,0.000
1644915519821840128,2022-02-15-08:58:39,10.1.1.2,29,0.040,0.040,0.040,0.000,0.000,0.000
1644915519881622016,2022-02-15-08:58:39,10.1.1.2,39,0.050,0.050,0.050,0.000,0.000,0.000
1644915519921846016,2022-02-15-08:58:39,10.1.1.2,28,0.060,0.060,0.060,0.000,0.000,0.000
1644915519981741824,2022-02-15-08:58:39,10.1.1.2,38,0.070,0.070,0.070,0.000,0.000,0.000
1644915520022257920,2022-02-15-08:58:40,10.1.1.2,27,0.080,0.080,0.080,0.000,0.000,0.000
1644915520081389824,2022-02-15-08:58:40,10.1.1.2,36,0.090,0.090,0.090,0.000,0.000,0.000
1644915520121350144,2022-02-15-08:58:40,10.1.1.2,25,0.100,0.100,0.100,0.000,0.000,0.000
1644915520181510912,2022-02-15-08:58:40,10.1.1.2,34,0.090,0.090,0.090,0.000,0.000,0.000
1644915520221549056,2022-02-15-08:58:40,10.1.1.2,23,0.080,0.080,0.080,0.000,0.000,0.000
1644915520382234112,2022-02-15-08:58:40,10.1.1.2,29,0.050,0.050,0.050,0.000,0.000,0.000
1644915520441174016,2022-02-15-08:58:40,10.1.1.2,38,0.040,0.040,0.040,0.000,0.000,0.000
1644915520481321984,2022-02-15-08:58:40,10.1.1.2,28,0.030,0.030,0.030,0.000,0.000,0.000
1644915520541667840,2022-02-15-08:58:40,10.1.1.2,37,0.020,0.020,0.020,0.000,0.000,0.000
1644915520581902080,2022-02-15-08:58:40,10.1.1.2,26,0.010,0.010,0.010,0.000,0.000,0.000
1644915520641155072,2022-02-15-08:58:40,10.1.1.2,35,0.000,0.000,0.000,0.000,0.000,0.000
1644915520681179904,2022-02-15-08:58:40,10.1.1.2,25,-0.010,-0.010,-0.010,0.000,0.000,0.000
1644915520741588224,2022-02-15-08:58:40,10.1.1.2,34,-0.020,-0.020,-0.020,0.000,0.000,0.000
1644915520781218048,2022-02-15-08:58:40,10.1.1.2,24,-0.030,-0.030,-0.030,0.000,0.000,0.000
1644915520841259008,2022-02-15-08:58:40,10.1.1.2,33,-0.040,-0.040,-0.040,0.000,0.000,0.000
1644915520881708032,2022-02-15-08:58:40,10.1.1.2,24,-0.050,-0.050,-0.050,0.000,0.000,0.000
1644915521041500160,2022-02-15-08:58:41,10.1.1.2,29,-0.080,-0.080,-0.080,0.000,0.000,0.000
1644915521101198848,2022-02-15-08:58:41,10.1.1.2,38,-0.090,-0.090,-0.090,0.000,0.000,0.000
1644915521141760000,2022-02-15-08:58:41,10.1.1.2,28,-0.100,-0.100,-0.100,0.000,0.000,0.000
1644915521201186048,2022-02-15-08:58:41,10.1.1.2,36,-0.090,-0.090,-0.090,0.000,0.000,0.000
1644915521241544960,2022-02-15-08:58:41,10.1.1.2,26,-0.080,-0.080,-0.080,0.000,0.000,0.000
1644915521301295872,2022-02-15-08:58:41,10.1.1.2,35,-0.070,-0.070,-0.070,0.000,0.000,0.000
1644915521341974016,2022-02-15-08:58:41,10.1.1.2,25,-0.060,-0.060,-0.060,0.000,0.000,0.000
1644915521401082112,2022-02-15-08:58:41,10.1.1.2,34,-0.050,-0.050,-0.050,0.000,0.000,0.000
1644915521441080064,2022-02-15-08:58:41,10.1.1.2,24,-0.040,-0.040,-0.040,0.000,0.000,0.000
1644915521701376000,2022-02-15-08:58:41,10.1.1.2,28,0.010,0.010,0.010,0.000,0.000,0.000
1644915521761166080,2022-02-15-08:58:41,10.1.1.2,38,0.020,0.020,0.020,0.000,0.000,0.000
1644915521801466112,2022-02-15-08:58:41,10.1.1.2,28,0.030,0.030,0.030,0.000,0.000,0.000
1644915521861612032,2022-02-15-08:58:41,10.1.1.2,37,0.040,0.040,0.040,0.000,0.000,0.000
1644915521901954816,2022-02-15-08:58:41,10.1.1.2,26,0.050,0.050,0.050,0.000,0.000,0.000
1644915521961637888,2022-02-15-08:58:41,10.1.1.2,35,0.060,0.060,0.060,0.000,0.000,0.000
1644915522001842944,2022-02-15-08:58:42,10.1.1.2,25,0.070,0.070,0.070,0.000,0.000,0.000
1644915522061652992,2022-02-15-08:58:42,10.1.1.2,34,0.080,0.080,0.080,0.000,0.000,0.000
1644915522101586176,2022-02-15-08:58:42,10.1.1.2,23,0.090,0.090,0.090,0.000,0.000,0.000
1644915522160982016,2022-02-15-08:58:42,10.1.1.2,33,0.100,0.100,0.100,0.000,0.000,0.000
1644915522321584896,2022-02-15-08:58:42,10.1.1.2,39,0.070,0.070,0.070,0.000,0.000,0.000
1644915522361462016,2022-02-15-08:58:42,10.1.1.2,29,0.060,0.060,0.060,0.000,0.000,0.000
1644915522421432064,2022-02-15-08:58:42,10.1.1.2,39,0.050,0.050,0.050,0.000,0.000,0.000
1644915522461210112,2022-02-15-08:58:42,10.1.1.2,28,0.040,0.040,0.040,0.000,0.000,0.000
1644915522526308096,2022-02-15-08:58:42,10.1.1.2,37,0.030,0.030,0.030,0.000,0.000,0.000
1644915522582489856,2022-02-15-08:58:42,10.1.1.2,38,0.020,0.020,0.020,0.000,0.000,0.000
1644915522621643008,2022-02-15-08:58:42,10.1.1.2,27,0.010,0.010,0.010,0.000,0.000,0.000
1644915522680867840,2022-02-15-08:58:42,10.1.1.2,37,0.000,0.000,0.000,0.000,0.000,0.000
1644915522721221888,2022-02-15-08:58:42,10.1.1.2,26,-0.010,-0.010,-0.010,0.000,0.000,0.000
1644915522781591808,2022-02-15-08:58:42,10.1.1.2,36,-0.020,-0.020,-0.020,0.000,0.000,0.000
1644915522822100992,2022-02-15-08:58:42,10.1.1.2,25,-0.030,-0.030,-0.030,0.000,0.000,0.000
1644915522881145088,2022-02-15-08:58:42,10.1.1.2,35,-0.040,-0.040,-0.040,0.000,0.000,0.000
1644915522921992960,2022-02-15-08:58:42,10.1.1.2,24,-0.050,-0.050,-0.050,0.000,0.000,0.000
1644915523080878848,2022-02-15-08:58:43,10.1.1.2,29,-0.080,-0.080,-0.080,0.000,0.000,0.000
1644915523141092096,2022-02-15-08:58:43,10.1.1.2,39,-0.090,-0.090,-0.090,0.000,0.000,0.000
1644915523181366016,2022-02-15-08:58:43,10.1.1.2,27,-0.100,-0.100,-0.100,0.000,0.000,0.000
1644915523242206976,2022-02-15-08:58:43,10.1.1.2,37,-0.090,-0.090,-0.090,0.000,0.000,0.000
1644915523281153792,2022-02-15-08:58:43,10.1.1.2,26,-0.080,-0.080,-0.080,0.000,0.000,0.000
1644915523341155072,2022-02-15-08:58:43,10.1.1.2,36,-0.070,-0.070,-0.070,0.000,0.000,0.000
1644915523381680128,2022-02-15-08:58:43,10.1.1.2,25,-0.060,-0.060,-0.060,0.000,0.000,0.000
1644915523441431040,2022-02-15-08:58:43,10.1.1.2,35,-0.050,-0.050,-0.050,0.000,0.000,0.000
1644915523481592064,2022-02-15-08:58:43,10.1.1.2,24,-0.040,-0.040,-0.040,0.000,0.000,0.000
1644915523701901056,2022-02-15-08:58:43,10.1.1.2,39,0.000,0.000,0.000,0.000,0.000,0.000
1644915523741532928,2022-02-15-08:58:43,10.1.1.2,28,0.010,0.010,0.010,0.000,0.000,0.000
1644915523801662976,2022-02-15-08:58:43,10.1.1.2,38,0.020,0.020,0.020,0.000,0.000,0.000
1644915523841337856,2022-02-15-08:58:43,10.1.1.2,27,0.030,0.030,0.030,0.000,0.000,0.000
1644915523901843968,2022-02-15-08:58:43,10.1.1.2,36,0.040,0.040,0.040,0.000,0.000,0.000
1644915523943569920,2022-02-15-08:58:43,10.1.1.2,25,0.050,0.050,0.050,0.000,0.000,0.000
1644915524001061888,2022-02-15-08:58:44,10.1.1.2,35,0.060,0.060,0.060,0.000,0.000,0.000
1644915524041769984,2022-02-15-08:58:44,10.1.1.2,23,0.070,0.070,0.070,0.000,0.000,0.000
1644915524203602176,2022-02-15-08:58:44,10.1.1.2,29,0.100,0.100,0.100,0.000,0.000,0.000
1644915524261495040,2022-02-15-08:58:44,10.1.1.2,38,0.090,0.090,0.090,0.000,0.000,0.000
1644915524301163008,2022-02-15-08:58:44,10.1.1.2,28,0.080,0.080,0.080,0.000,0.000,0.000
1644915524361730048,2022-02-15-08:58:44,10.1.1.2,36,0.070,0.070,0.070,0.000,0.000,0.000
1644915524401295872,2022-02-15-08:58:44,10.1.1.2,25,0.060,0.060,0.060,0.000,0.000,0.000
1644915524462109952,2022-02-15-08:58:44,10.1.1.2,34,0.050,0.050,0.050,0.000,0.000,0.000
1644915524722513920,2022-02-15-08:58:44,10.1.1.2,39,0.000,0.000,0.000,0.000,0.000,0.000
1644915524786448896,2022-02-15-08:58:44,10.1.1.2,28,-0.010,-0.010,-0.010,0.000,0.000,0.000
1644915524797441024,2022-02-15-08:58:44,10.1.1.2,-7,-0.010,-0.010,-0.010,0.000,0.000,0.000
1644915524881622016,2022-02-15-08:58:44,10.1.1.2,28,-0.030,-0.030,-0.030,0.000,0.000,0.000
1644915524941135872,2022-02-15-08:58:44,10.1.1.2,38,-0.040,-0.040,-0.040,0.000,0.000,0.000
1644915524981057792,2022-02-15-08:58:44,10.1.1.2,27,-0.050,-0.050,-0.050,0.000,0.000,0.000
1644915525041385984,2022-02-15-08:58:45,10.1.1.2,36,-0.060,-0.060,-0.060,0.000,0.000,0.000
1644915525081440000,2022-02-15-08:58:45,10.1.1.2,26,-0.070,-0.070,-0.070,0.000,0.000,0.000
1644915525141495040,2022-02-15-08:58:45,10.1.1.2,35,-0.080,-0.080,-0.080,0.000,0.000,0.000
1644915525181203968,2022-02-15-08:58:45,10.1.1.2,25,-0.090,-0.090,-0.090,0.000,0.000,0.000
1644915525240861952,2022-02-15-08:58:45,10.1.1.2,34,-0.100,-0.100,-0.100,0.000,0.000,0.000
1644915525281428992,2022-02-15-08:58:45,10.1.1.2,23,-0.090,-0.090,-0.090,0.000,0.000,0.000
1644915525441239040,2022-02-15-08:58:45,10.1.1.2,29,-0.060,-0.060,-0.060,0.000,0.000,0.000
1644915525501444096,2022-02-15-08:58:45,10.1.1.2,39,-0.050,-0.050,-0.050,0.000,0.000,0.000
1644915525541435904,2022-02-15-08:58:45,10.1.1.2,28,-0.040,-0.040,-0.040,0.000,0.000,0.000
1644915525601066240,2022-02-15-08:58:45,10.1.1.2,37,-0.030,-0.030,-0.030,0.000,0.000,0.000
1644915525641772032,2022-02-15-08:58:45,10.1.1.2,26,-0.020,-0.020,-0.020,0.000,0.000,0.000
1644915525701245952,2022-02-15-08:58:45,10.1.1.2,35,-0.010,-0.010,-0.010,0.000,0.000,0.000
1644915525741553152,2022-02-15-08:58:45,10.1.1.2,25,0.000,0.000,0.000,0.000,0.000,0.000
1644915525801913088,2022-02-15-08:58:45,10.1.1.2,34,0.010,0.010,0.010,0.000,0.000,0.000
1644915525841673984,2022-02-15-08:58:45,10.1.1.2,24,0.020,0.020,0.020,0.000,0.000,0.000
1644915525901264896,2022-02-15-08:58:45,10.1.1.2,33,0.030,0.030,0.030,0.000,0.000,0.000
1644915526160968960,2022-02-15-08:58:46,10.1.1.2,39,0.080,0.080,0.080,0.000,0.000,0.000
1644915526201596928,2022-02-15-08:58:46,10.1.1.2,28,0.090,0.090,0.090,0.000,0.000,0.000
1644915526261532928,2022-02-15-08:58:46,10.1.1.2,38,0.100,0.100,0.100,0.000,0.000,0.000
1644915526301632000,2022-02-15-08:58:46,10.1.1.2,27,0.090,0.090,0.090,0.000,0.000,0.000
1644915526361710080,2022-02-15-08:58:46,10.1.1.2,36,0.080,0.080,0.080,0.000,0.000,0.000
1644915526401487104,2022-02-15-08:58:46,10.1.1.2,25,0.070,0.070,0.070,0.000,0.000,0.000
1644915526461255936,2022-02-15-08:58:46,10.1.1.2,34,0.060,0.060,0.060,0.000,0.000,0.000
1644915526501959936,2022-02-15-08:58:46,10.1.1.2,23,0.050,0.050,0.050,0.000,0.000,0.000
1644915526821427968,2022-02-15-08:58:46,10.1.1.2,39,-0.010,-0.010,-0.010,0.000,0.000,0.000
1644915526861174016,2022-02-15-08:58:46,10.1.1.2,28,-0.020,-0.020,-0.020,0.000,0.000,0.000
1644915526923002112,2022-02-15-08:58:46,10.1.1.2,35,-0.030,-0.030,-0.030,0.000,0.000,0.000
1644915527062522880,2022-02-15-08:58:47,10.1.1.2,21,-0.060,-0.060,-0.060,0.000,0.000,0.000
1644915527121555200,2022-02-15-08:58:47,10.1.1.2,30,-0.070,-0.070,-0.070,0.000,0.000,0.000
1644915527181652992,2022-02-15-08:58:47,10.1.1.2,39,-0.080,-0.080,-0.080,0.000,0.000,0.000
1644915527221148928,2022-02-15-08:58:47,10.1.1.2,29,-0.090,-0.090,-0.090,0.000,0.000,0.000
1644915527282155008,2022-02-15-08:58:47,10.1.1.2,38,-0.100,-0.100,-0.100,0.000,0.000,0.000
1644915527321017088,2022-02-15-08:58:47,10.1.1.2,27,-0.090,-0.090,-0.090,0.000,0.000,0.000
1644915527541230080,2022-02-15-08:58:47,10.1.1.2,39,-0.050,-0.050,-0.050,0.000,0.000,0.000
1644915527581517056,2022-02-15-08:58:47,10.1.1.2,28,-0.040,-0.040,-0.040,0.000,0.000,0.000
1644915527641617152,2022-02-15-08:58:47,10.1.1.2,38,-0.030,-0.030,-0.030,0.000,0.000,0.000
1644915527681603072,2022-02-15-08:58:47,10.1.1.2,26,-0.020,-0.020,-0.020,0.000,0.000,0.000
1644915527742522880,2022-02-15-08:58:47,10.1.1.2,36,-0.010,-0.010,-0.010,0.000,0.000,0.000
1644915527781315072,2022-02-15-08:58:47,10.1.1.2,25,0.000,0.000,0.000,0.000,0.000,0.000
1644915527841264896,2022-02-15-08:58:47,10.1.1.2,34,0.010,0.010,0.010,0.000,0.000,0.000
1644915528201329920,2022-02-15-08:58:48,10.1.1.2,39,0.080,0.080,0.080,0.000,0.000,0.000
1644915528241410048,2022-02-15-08:58:48,10.1.1.2,28,0.090,0.090,0.090,0.000,0.000,0.000
1644915528301811968,2022-02-15-08:58:48,10.1.1.2,38,0.100,0.100,0.100,0.000,0.000,0.000
1644915528342232064,2022-02-15-08:58:48,10.1.1.2,27,0.090,0.090,0.090,0.000,0.000,0.000
1644915528401601024,2022-02-15-08:58:48,10.1.1.2,36,0.080,0.080,0.080,0.000,0.000,0.000
1644915528441170944,2022-02-15-08:58:48,10.1.1.2,26,0.070,0.070,0.070,0.000,0.000,0.000
1644915528501650176,2022-02-15-08:58:48,10.1.1.2,35,0.060,0.060,0.060,0.000,0.000,0.000
1644915528541534976,2022-02-15-08:58:48,10.1.1.2,23,0.050,0.050,0.050,0.000,0.000,0.000
1644915528741625088,2022-02-15-08:58:48,10.1.1.2,20,0.010,0.010,0.010,0.000,0.000,0.000
1644915528801683968,2022-02-15-08:58:48,10.1.1.2,28,0.000,0.000,0.000,0.000,0.000,0.000
1644915528861937920,2022-02-15-08:58:48,10.1.1.2,38,-0.010,-0.010,-0.010,0.000,0.000,0.000
1644915528902456064,2022-02-15-08:58:48,10.1.1.2,27,-0.020,-0.020,-0.020,0.000,0.000,0.000
1644915528961783040,2022-02-15-08:58:48,10.1.1.2,36,-0.030,-0.030,-0.030,0.000,0.000,0.000
1644915529001316096,2022-02-15-08:58:49,10.1.1.2,26,-0.040,-0.040,-0.040,0.000,0.000,0.000
1644915529061904896,2022-02-15-08:58:49,10.1.1.2,35,-0.050,-0.050,-0.050,0.000,0.000,0.000
1644915529101172992,2022-02-15-08:58:49,10.1.1.2,25,-0.060,-0.060,-0.060,0.000,0.000,0.000
1644915529161317120,2022-02-15-08:58:49,10.1.1.2,34,-0.070,-0.070,-0.070,0.000,0.000,0.000
1644915529201935104,2022-02-15-08:58:49,10.1.1.2,23,-0.080,-0.080,-0.080,0.000,0.000,0.000
1644915529406650112,2022-02-15-08:58:49,10.1.1.2,20,-0.080,-0.080,-0.080,0.000,0.000,0.000
1644915529461585920,2022-02-15-08:58:49,10.1.1.2,28,-0.070,-0.070,-0.070,0.000,0.000,0.000
1644915529521703936,2022-02-15-08:58:49,10.1.1.2,37,-0.060,-0.060,-0.060,0.000,0.000,0.000
1644915529561275904,2022-02-15-08:58:49,10.1.1.2,26,-0.050,-0.050,-0.050,0.000,0.000,0.000
1644915529621402112,2022-02-15-08:58:49,10.1.1.2,36,-0.040,-0.040,-0.040,0.000,0.000,0.000
1644915529661200128,2022-02-15-08:58:49,10.1.1.2,25,-0.030,-0.030,-0.030,0.000,0.000,0.000
1644915529721730048,2022-02-15-08:58:49,10.1.1.2,34,-0.020,-0.020,-0.020,0.000,0.000,0.000
1644915529761367040,2022-02-15-08:58:49,10.1.1.2,23,-0.010,-0.010,-0.010,0.000,0.000,0.000
1644915529981307136,2022-02-15-08:58:49,10.1.1.2,38,0.030,0.030,0.030,0.000,0.000,0.000
1644915530021369088,2022-02-15-08:58:50,10.1.1.2,27,0.040,0.040,0.040,0.000,0.000,0.000
1644915530081518848,2022-02-15-08:58:50,10.1.1.2,37,0.050,0.050,0.050,0.000,0.000,0.000
1644915530121794816,2022-02-15-08:58:50,10.1.1.2,27,0.060,0.060,0.060,0.000,0.000,0.000
1644915530182182912,2022-02-15-08:58:50,10.1.1.2,36,0.070,0.070,0.070,0.000,0.000,0.000
1644915530221460224,2022-02-15-08:58:50,10.1.1.2,25,0.080,0.080,0.080,0.000,0.000,0.000
1644915530282830080,2022-02-15-08:58:50,10.1.1.2,35,0.090,0.090,0.090,0.000,0.000,0.000
1644915530321856000,2022-02-15-08:58:50,10.1.1.2,23,0.100,0.100,0.100,0.000,0.000,0.000
1644915530742142976,2022-02-15-08:58:50,10.1.1.2,39,0.020,0.020,0.020,0.000,0.000,0.000
1644915530781195008,2022-02-15-08:58:50,10.1.1.2,28,0.010,0.010,0.010,0.000,0.000,0.000
1644915530841378816,2022-02-15-08:58:50,10.1.1.2,37,0.000,0.000,0.000,0.000,0.000,0.000
1644915530882308096,2022-02-15-08:58:50,10.1.1.2,27,-0.010,-0.010,-0.010,0.000,0.000,0.000
1644915530942712064,2022-02-15-08:58:50,10.1.1.2,36,-0.020,-0.020,-0.020,0.000,0.000,0.000
1644915530981339904,2022-02-15-08:58:50,10.1.1.2,26,-0.030,-0.030,-0.030,0.000,0.000,0.000
1644915531041632768,2022-02-15-08:58:51,10.1.1.2,35,-0.040,-0.040,-0.040,0.000,0.000,0.000
1644915531081063936,2022-02-15-08:58:51,10.1.1.2,25,-0.050,-0.050,-0.050,0.000,0.000,0.000
1644915531144033792,2022-02-15-08:58:51,10.1.1.2,35,-0.060,-0.060,-0.060,0.000,0.000,0.000
1644915531181544192,2022-02-15-08:58:51,10.1.1.2,24,-0.070,-0.070,-0.070,0.000,0.000,0.000
1644915531401863936,2022-02-15-08:58:51,10.1.1.2,40,-0.090,-0.090,-0.090,0.000,0.000,0.000
1644915531441211904,2022-02-15-08:58:51,10.1.1.2,28,-0.080,-0.080,-0.080,0.000,0.000,0.000
1644915531501297920,2022-02-15-08:58:51,10.1.1.2,37,-0.070,-0.070,-0.070,0.000,0.000,0.000
1644915531541218048,2022-02-15-08:58:51,10.1.1.2,26,-0.060,-0.060,-0.060,0.000,0.000,0.000
1644915531601645056,2022-02-15-08:58:51,10.1.1.2,36,-0.050,-0.050,-0.050,0.000,0.000,0.000
1644915531641315072,2022-02-15-08:58:51,10.1.1.2,25,-0.040,-0.040,-0.040,0.000,0.000,0.000
1644915531701338880,2022-02-15-08:58:51,10.1.1.2,35,-0.030,-0.030,-0.030,0.000,0.000,0.000
1644915531742918912,2022-02-15-08:58:51,10.1.1.2,25,-0.020,-0.020,-0.020,0.000,0.000,0.000
1644915531801927168,2022-02-15-08:58:51,10.1.1.2,34,-0.010,-0.010,-0.010,0.000,0.000,0.000
1644915531841069056,2022-02-15-08:58:51,10.1.1.2,24,0.000,0.000,0.000,0.000,0.000,0.000
1644915532162780160,2022-02-15-08:58:52,10.1.1.2,39,0.060,0.060,0.060,0.000,0.000,0.000
1644915532201009152,2022-02-15-08:58:52,10.1.1.2,28,0.070,0.070,0.070,0.000,0.000,0.000
1644915532261451008,2022-02-15-08:58:52,10.1.1.2,38,0.080,0.080,0.080,0.000,0.000,0.000
1644915532301078016,2022-02-15-08:58:52,10.1.1.2,27,0.090,0.090,0.090,0.000,0.000,0.000
1644915532361313024,2022-02-15-08:58:52,10.1.1.2,37,0.100,0.100,0.100,0.000,0.000,0.000
1644915532401787904,2022-02-15-08:58:52,10.1.1.2,26,0.090,0.090,0.090,0.000,0.000,0.000
1644915532462430976,2022-02-15-08:58:52,10.1.1.2,35,0.080,0.080,0.080,0.000,0.000,0.000
1644915532501017088,2022-02-15-08:58:52,10.1.1.2,24,0.070,0.070,0.070,0.000,0.000,0.000
1644915532561524992,2022-02-15-08:58:52,10.1.1.2,34,0.060,0.060,0.060,0.000,0.000,0.000
1644915532601507840,2022-02-15-08:58:52,10.1.1.2,24,0.050,0.050,0.050,0.000,0.000,0.000
1644915532661340928,2022-02-15-08:58:52,10.1.1.2,33,0.040,0.040,0.040,0.000,0.000,0.000
1644915533001883136,2022-02-15-08:58:53,10.1.1.2,19,-0.030,-0.030,-0.030,0.000,0.000,0.000
1644915533061392896,2022-02-15-08:58:53,10.1.1.2,28,-0.040,-0.040,-0.040,0.000,0.000,0.000
1644915533121669120,2022-02-15-08:58:53,10.1.1.2,38,-0.050,-0.050,-0.050,0.000,0.000,0.000
1644915533161016064,2022-02-15-08:58:53,10.1.1.2,27,-0.060,-0.060,-0.060,0.000,0.000,0.000
1644915533221259008,2022-02-15-08:58:53,10.1.1.2,36,-0.070,-0.070,-0.070,0.000,0.000,0.000
1644915533261091072,2022-02-15-08:58:53,10.1.1.2,25,-0.080,-0.080,-0.080,0.000,0.000,0.000
1644915533321477888,2022-02-15-08:58:53,10.1.1.2,35,-0.090,-0.090,-0.090,0.000,0.000,0.000
1644915533361422080,2022-02-15-08:58:53,10.1.1.2,24,-0.100,-0.100,-0.100,0.000,0.000,0.000
1644915533421587968,2022-02-15-08:58:53,10.1.1.2,34,-0.090,-0.090,-0.090,0.000,0.000,0.000
1644915533461047040,2022-02-15-08:58:53,10.1.1.2,23,-0.080,-0.080,-0.080,0.000,0.000,0.000
1644915533792038912,2022-02-15-08:58:53,10.1.1.2,29,-0.020,-0.020,-0.020,0.000,0.000,0.000
1644915533841782016,2022-02-15-08:58:53,10.1.1.2,24,-0.010,-0.010,-0.010,0.000,0.000,0.000
1644915534062661888,2022-02-15-08:58:54,10.1.1.2,38,0.030,0.030,0.030,0.000,0.000,0.000
1644915534101320960,2022-02-15-08:58:54,10.1.1.2,25,0.040,0.040,0.040,0.000,0.000,0.000
1644915534161410048,2022-02-15-08:58:54,10.1.1.2,35,0.050,0.050,0.050,0.000,0.000,0.000
1644915534501468928,2022-02-15-08:58:54,10.1.1.2,20,0.080,0.080,0.080,0.000,0.000,0.000
1644915534621342976,2022-02-15-08:58:54,10.1.1.2,39,0.060,0.060,0.060,0.000,0.000,0.000
1644915534661443072,2022-02-15-08:58:54,10.1.1.2,29,0.050,0.050,0.050,0.000,0.000,0.000
1644915534721453056,2022-02-15-08:58:54,10.1.1.2,38,0.040,0.040,0.040,0.000,0.000,0.000
1644915534761253120,2022-02-15-08:58:54,10.1.1.2,28,0.030,0.030,0.030,0.000,0.000,0.000
1644915534821273088,2022-02-15-08:58:54,10.1.1.2,37,0.020,0.020,0.020,0.000,0.000,0.000
1644915534861257984,2022-02-15-08:58:54,10.1.1.2,26,0.010,0.010,0.010,0.000,0.000,0.000
1644915534920983040,2022-02-15-08:58:54,10.1.1.2,35,0.000,0.000,0.000,0.000,0.000,0.000
1644915534961052928,2022-02-15-08:58:54,10.1.1.2,25,-0.010,-0.010,-0.010,0.000,0.000,0.000
1644915535021114112,2022-02-15-08:58:55,10.1.1.2,34,-0.020,-0.020,-0.020,0.000,0.000,0.000
1644915535061284096,2022-02-15-08:58:55,10.1.1.2,24,-0.030,-0.030,-0.030,0.000,0.000,0.000
1644915535121270784,2022-02-15-08:58:55,10.1.1.2,33,-0.040,-0.040,-0.040,0.000,0.000,0.000
1644915535421457152,2022-02-15-08:58:55,10.1.1.2,30,-0.100,-0.100,-0.100,0.000,0.000,0.000
1644915535481250048,2022-02-15-08:58:55,10.1.1.2,39,-0.090,-0.090,-0.090,0.000,0.000,0.000
1644915535521238016,2022-02-15-08:58:55,10.1.1.2,29,-0.080,-0.080,-0.080,0.000,0.000,0.000
1644915535581299968,2022-02-15-08:58:55,10.1.1.2,38,-0.070,-0.070,-0.070,0.000,0.000,0.000
1644915535621793024,2022-02-15-08:58:55,10.1.1.2,28,-0.060,-0.060,-0.060,0.000,0.000,0.000
1644915535681294080,2022-02-15-08:58:55,10.1.1.2,38,-0.050,-0.050,-0.050,0.000,0.000,0.000
1644915535721543936,2022-02-15-08:58:55,10.1.1.2,27,-0.040,-0.040,-0.040,0.000,0.000,0.000
1644915535781032192,2022-02-15-08:58:55,10.1.1.2,37,-0.030,-0.030,-0.030,0.000,0.000,0.000
1644915535821196032,2022-02-15-08:58:55,10.1.1.2,27,-0.020,-0.020,-0.020,0.000,0.000,0.000
1644915535881323008,2022-02-15-08:58:55,10.1.1.2,36,-0.010,-0.010,-0.010,0.000,0.000,0.000
1644915535921387008,2022-02-15-08:58:55,10.1.1.2,26,0.000,0.000,0.000,0.000,0.000,0.000
1644915535982585856,2022-02-15-08:58:55,10.1.1.2,35,0.010,0.010,0.010,0.000,0.000,0.000
1644915536021393152,2022-02-15-08:58:56,10.1.1.2,25,0.020,0.020,0.020,0.000,0.000,0.000
1644915536082035968,2022-02-15-08:58:56,10.1.1.2,35,0.030,0.030,0.030,0.000,0.000,0.000
1644915536123204096,2022-02-15-08:58:56,10.1.1.2,25,0.040,0.040,0.040,0.000,0.000,0.000
1644915536181936128,2022-02-15-08:58:56,10.1.1.2,34,0.050,0.050,0.050,0.000,0.000,0.000
1644915536221543168,2022-02-15-08:58:56,10.1.1.2,23,0.060,0.060,0.060,0.000,0.000,0.000
1644915536441167104,2022-02-15-08:58:56,10.1.1.2,39,0.100,0.100,0.100,0.000,0.000,0.000
1644915536481249024,2022-02-15-08:58:56,10.1.1.2,28,0.090,0.090,0.090,0.000,0.000,0.000
1644915536541814016,2022-02-15-08:58:56,10.1.1.2,38,0.080,0.080,0.080,0.000,0.000,0.000
1644915536581121024,2022-02-15-08:58:56,10.1.1.2,27,0.070,0.070,0.070,0.000,0.000,0.000
1644915536641102080,2022-02-15-08:58:56,10.1.1.2,37,0.060,0.060,0.060,0.000,0.000,0.000
1644915536681231104,2022-02-15-08:58:56,10.1.1.2,27,0.050,0.050,0.050,0.000,0.000,0.000
1644915536742557952,2022-02-15-08:58:56,10.1.1.2,36,0.040,0.040,0.040,0.000,0.000,0.000
1644915536782157824,2022-02-15-08:58:56,10.1.1.2,26,0.030,0.030,0.030,0.000,0.000,0.000
1644915536841357824,2022-02-15-08:58:56,10.1.1.2,35,0.020,0.020,0.020,0.000,0.000,0.000
1644915536881562112,2022-02-15-08:58:56,10.1.1.2,25,0.010,0.010,0.010,0.000,0.000,0.000
1644915536941726976,2022-02-15-08:58:56,10.1.1.2,34,0.000,0.000,0.000,0.000,0.000,0.000
1644915536982306048,2022-02-15-08:58:56,10.1.1.2,24,-0.010,-0.010,-0.010,0.000,0.000,0.000
1644915537041143808,2022-02-15-08:58:57,10.1.1.2,33,-0.020,-0.020,-0.020,0.000,0.000,0.000
1644915537381489152,2022-02-15-08:58:57,10.1.1.2,20,-0.090,-0.090,-0.090,0.000,0.000,0.000
1644915537441476096,2022-02-15-08:58:57,10.1.1.2,28,-0.100,-0.100,-0.100,0.000,0.000,0.000
1644915537501147136,2022-02-15-08:58:57,10.1.1.2,38,-0.090,-0.090,-0.090,0.000,0.000,0.000
1644915537541699840,2022-02-15-08:58:57,10.1.1.2,27,-0.080,-0.080,-0.080,0.000,0.000,0.000
1644915537602595072,2022-02-15-08:58:57,10.1.1.2,37,-0.070,-0.070,-0.070,0.000,0.000,0.000
1644915537641464064,2022-02-15-08:58:57,10.1.1.2,26,-0.060,-0.060,-0.060,0.000,0.000,0.000
1644915537702420992,2022-02-15-08:58:57,10.1.1.2,36,-0.050,-0.050,-0.050,0.000,0.000,0.000
1644915537745515008,2022-02-15-08:58:57,10.1.1.2,24,-0.040,-0.040,-0.040,0.000,0.000,0.000
1644915537801767168,2022-02-15-08:58:57,10.1.1.2,33,-0.030,-0.030,-0.030,0.000,0.000,0.000
1644915538101107968,2022-02-15-08:58:58,10.1.1.2,30,0.030,0.030,0.030,0.000,0.000,0.000
1644915538161739008,2022-02-15-08:58:58,10.1.1.2,39,0.040,0.040,0.040,0.000,0.000,0.000
1644915538201287936,2022-02-15-08:58:58,10.1.1.2,28,0.050,0.050,0.050,0.000,0.000,0.000
1644915538261303040,2022-02-15-08:58:58,10.1.1.2,38,0.060,0.060,0.060,0.000,0.000,0.000
1644915538301609984,2022-02-15-08:58:58,10.1.1.2,27,0.070,0.070,0.070,0.000,0.000,0.000
1644915538363041024,2022-02-15-08:58:58,10.1.1.2,34,0.080,0.080,0.080,0.000,0.000,0.000
1644915538541448192,2022-02-15-08:58:58,10.1.1.2,11,0.080,0.080,0.080,0.000,0.000,0.000
1644915538661138176,2022-02-15-08:58:58,10.1.1.2,29,0.060,0.060,0.060,0.000,0.000,0.000
1644915538721307136,2022-02-15-08:58:58,10.1.1.2,39,0.050,0.050,0.050,0.000,0.000,0.000
1644915538761688832,2022-02-15-08:58:58,10.1.1.2,28,0.040,0.040,0.040,0.000,0.000,0.000
1644915538821582080,2022-02-15-08:58:58,10.1.1.2,38,0.030,0.030,0.030,0.000,0.000,0.000
1644915538861263104,2022-02-15-08:58:58,10.1.1.2,28,0.020,0.020,0.020,0.000,0.000,0.000
1644915538921355008,2022-02-15-08:58:58,10.1.1.2,37,0.010,0.010,0.010,0.000,0.000,0.000
1644915538961400064,2022-02-15-08:58:58,10.1.1.2,26,0.000,0.000,0.000,0.000,0.000,0.000
1644915539021506048,2022-02-15-08:58:59,10.1.1.2,36,-0.010,-0.010,-0.010,0.000,0.000,0.000
1644915539061028096,2022-02-15-08:58:59,10.1.1.2,25,-0.020,-0.020,-0.020,0.000,0.000,0.000
1644915539121184000,2022-02-15-08:58:59,10.1.1.2,35,-0.030,-0.030,-0.030,0.000,0.000,0.000
1644915539161217024,2022-02-15-08:58:59,10.1.1.2,24,-0.040,-0.040,-0.040,0.000,0.000,0.000
1644915539221507072,2022-02-15-08:58:59,10.1.1.2,34,-0.050,-0.050,-0.050,0.000,0.000,0.000
1644915539261004800,2022-02-15-08:58:59,10.1.1.2,23,-0.060,-0.060,-0.060,0.000,0.000,0.000
1644915539321361920,2022-02-15-08:58:59,10.1.1.2,33,-0.070,-0.070,-0.070,0.000,0.000,0.000
1644915539601387008,2022-02-15-08:58:59,10.1.1.2,10,-0.070,-0.070,-0.070,0.000,0.000,0.000
1644915539681454848,2022-02-15-08:58:59,10.1.1.2,39,-0.060,-0.060,-0.060,0.000,0.000,0.000
1644915539721254144,2022-02-15-08:58:59,10.1.1.2,29,-0.050,-0.050,-0.050,0.000,0.000,0.000
1644915539781457920,2022-02-15-08:58:59,10.1.1.2,39,-0.040,-0.040,-0.040,0.000,0.000,0.000
1644915539821563904,2022-02-15-08:58:59,10.1.1.2,28,-0.030,-0.030,-0.030,0.000,0.000,0.000
1644915539881316864,2022-02-15-08:58:59,10.1.1.2,38,-0.020,-0.020,-0.020,0.000,0.000,0.000
1644915539922020864,2022-02-15-08:58:59,10.1.1.2,27,-0.010,-0.010,-0.010,0.000,0.000,0.000
1644915539981025024,2022-02-15-08:58:59,10.1.1.2,37,0.000,0.000,0.000,0.000,0.000,0.000
1644915540021751040,2022-02-15-08:59:00,10.1.1.2,26,0.010,0.010,0.010,0.000,0.000,0.000
1644915540081559808,2022-02-15-08:59:00,10.1.1.2,36,0.020,0.020,0.020,0.000,0.000,0.000
1644915540121434880,2022-02-15-08:59:00,10.1.1.2,25,0.030,0.030,0.030,0.000,0.000,0.000
1644915540181112064,2022-02-15-08:59:00,10.1.1.2,34,0.040,0.040,0.040,0.000,0.000,0.000
1644915540221654784,2022-02-15-08:59:00,10.1.1.2,24,0.050,0.050,0.050,0.000,0.000,0.000
1644915540281511936,2022-02-15-08:59:00,10.1.1.2,33,0.060,0.060,0.060,0.000,0.000,0.000
1644915540380989184,2022-02-15-08:59:00,10.1.1.2,27,0.080,0.080,0.080,0.000,0.000,0.000
1644915540440982016,2022-02-15-08:59:00,10.1.1.2,36,0.090,0.090,0.090,0.000,0.000,0.000
1644915540481018112,2022-02-15-08:59:00,10.1.1.2,26,0.100,0.100,0.100,0.000,0.000,0.000
1644915540541035776,2022-02-15-08:59:00,10.1.1.2,35,0.090,0.090,0.090,0.000,0.000,0.000
1644915540581639168,2022-02-15-08:59:00,10.1.1.2,25,0.080,0.080,0.080,0.000,0.000,0.000
1644915540641820928,2022-02-15-08:59:00,10.1.1.2,35,0.070,0.070,0.070,0.000,0.000,0.000
1644915540681302016,2022-02-15-08:59:00,10.1.1.2,24,0.060,0.060,0.060,0.000,0.000,0.000
1644915540742996992,2022-02-15-08:59:00,10.1.1.2,34,0.050,0.050,0.050,0.000,0.000,0.000
1644915540781486080,2022-02-15-08:59:00,10.1.1.2,23,0.040,0.040,0.040,0.000,0.000,0.000
1644915541201092096,2022-02-15-08:59:01,10.1.1.2,39,-0.040,-0.040,-0.040,0.000,0.000,0.000
1644915541241815040,2022-02-15-08:59:01,10.1.1.2,28,-0.050,-0.050,-0.050,0.000,0.000,0.000
1644915541301115136,2022-02-15-08:59:01,10.1.1.2,38,-0.060,-0.060,-0.060,0.000,0.000,0.000
1644915541341273088,2022-02-15-08:59:01,10.1.1.2,28,-0.070,-0.070,-0.070,0.000,0.000,0.000
1644915541401086208,2022-02-15-08:59:01,10.1.1.2,37,-0.080,-0.080,-0.080,0.000,0.000,0.000
1644915541441167104,2022-02-15-08:59:01,10.1.1.2,27,-0.090,-0.090,-0.090,0.000,0.000,0.000
1644915541501873920,2022-02-15-08:59:01,10.1.1.2,36,-0.100,-0.100,-0.100,0.000,0.000,0.000
1644915541541277952,2022-02-15-08:59:01,10.1.1.2,25,-0.090,-0.090,-0.090,0.000,0.000,0.000
1644915541601417984,2022-02-15-08:59:01,10.1.1.2,34,-0.080,-0.080,-0.080,0.000,0.000,0.000
1644915541640985088,2022-02-15-08:59:01,10.1.1.2,23,-0.070,-0.070,-0.070,0.000,0.000,0.000
1644915541901530880,2022-02-15-08:59:01,10.1.1.2,29,-0.020,-0.020,-0.020,0.000,0.000,0.000
1644915541961374976,2022-02-15-08:59:01,10.1.1.2,38,-0.010,-0.010,-0.010,0.000,0.000,0.000
1644915542001116928,2022-02-15-08:59:02,10.1.1.2,28,0.000,0.000,0.000,0.000,0.000,0.000
1644915542067013888,2022-02-15-08:59:02,10.1.1.2,37,0.010,0.010,0.010,0.000,0.000,0.000
1644915542123136000,2022-02-15-08:59:02,10.1.1.2,34,0.020,0.020,0.020,0.000,0.000,0.000
1644915542162167040,2022-02-15-08:59:02,10.1.1.2,23,0.030,0.030,0.030,0.000,0.000,0.000
1644915542221227776,2022-02-15-08:59:02,10.1.1.2,33,0.040,0.040,0.040,0.000,0.000,0.000
1644915542321273088,2022-02-15-08:59:02,10.1.1.2,29,0.060,0.060,0.060,0.000,0.000,0.000
1644915542394462208,2022-02-15-08:59:02,10.1.1.2,38,0.070,0.070,0.070,0.000,0.000,0.000
1644915542426656000,2022-02-15-08:59:02,10.1.1.2,27,0.080,0.080,0.080,0.000,0.000,0.000
1644915542482449152,2022-02-15-08:59:02,10.1.1.2,34,0.090,0.090,0.090,0.000,0.000,0.000
1644915542521553920,2022-02-15-08:59:02,10.1.1.2,23,0.100,0.100,0.100,0.000,0.000,0.000
1644915542582531840,2022-02-15-08:59:02,10.1.1.2,33,0.090,0.090,0.090,0.000,0.000,0.000
1644915542983240960,2022-02-15-08:59:02,10.1.1.2,28,0.010,0.010,0.010,0.000,0.000,0.000
1644915543041441792,2022-02-15-08:59:03,10.1.1.2,37,0.000,0.000,0.000,0.000,0.000,0.000
1644915543081490944,2022-02-15-08:59:03,10.1.1.2,26,-0.010,-0.010,-0.010,0.000,0.000,0.000
1644915543140944128,2022-02-15-08:59:03,10.1.1.2,35,-0.020,-0.020,-0.020,0.000,0.000,0.000
1644915543181705984,2022-02-15-08:59:03,10.1.1.2,25,-0.030,-0.030,-0.030,0.000,0.000,0.000
1644915543241293824,2022-02-15-08:59:03,10.1.1.2,35,-0.040,-0.040,-0.040,0.000,0.000,0.000
1644915543282681088,2022-02-15-08:59:03,10.1.1.2,24,-0.050,-0.050,-0.050,0.000,0.000,0.000
1644915543341769984,2022-02-15-08:59:03,10.1.1.2,33,-0.060,-0.060,-0.060,0.000,0.000,0.000
1644915543721165824,2022-02-15-08:59:03,10.1.1.2,9,-0.060,-0.060,-0.060,0.000,0.000,0.000
1644915543803891968,2022-02-15-08:59:03,10.1.1.2,39,-0.050,-0.050,-0.050,0.000,0.000,0.000
1644915543845103104,2022-02-15-08:59:03,10.1.1.2,27,-0.040,-0.040,-0.040,0.000,0.000,0.000
1644915543922068224,2022-02-15-08:59:03,10.1.1.2,37,-0.030,-0.030,-0.030,0.000,0.000,0.000
1644915543961201920,2022-02-15-08:59:03,10.1.1.2,27,-0.020,-0.020,-0.020,0.000,0.000,0.000
1644915544023806976,2022-02-15-08:59:04,10.1.1.2,36,-0.010,-0.010,-0.010,0.000,0.000,0.000
1644915544063952896,2022-02-15-08:59:04,10.1.1.2,24,0.000,0.000,0.000,0.000,0.000,0.000
1644915544123730944,2022-02-15-08:59:04,10.1.1.2,34,0.010,0.010,0.010,0.000,0.000,0.000
1644915544322863104,2022-02-15-08:59:04,10.1.1.2,29,0.050,0.050,0.050,0.000,0.000,0.000
1644915544381204992,2022-02-15-08:59:04,10.1.1.2,38,0.060,0.060,0.060,0.000,0.000,0.000
1644915544421814016,2022-02-15-08:59:04,10.1.1.2,27,0.070,0.070,0.070,0.000,0.000,0.000
1644915544482077952,2022-02-15-08:59:04,10.1.1.2,36,0.080,0.080,0.080,0.000,0.000,0.000
1644915544521231872,2022-02-15-08:59:04,10.1.1.2,26,0.090,0.090,0.090,0.000,0.000,0.000
1644915544582242048,2022-02-15-08:59:04,10.1.1.2,35,0.100,0.100,0.100,0.000,0.000,0.000
1644915544621934848,2022-02-15-08:59:04,10.1.1.2,25,0.090,0.090,0.090,0.000,0.000,0.000
1644915544681828864,2022-02-15-08:59:04,10.1.1.2,34,0.080,0.080,0.080,0.000,0.000,0.000
1644915544721310976,2022-02-15-08:59:04,10.1.1.2,23,0.070,0.070,0.070,0.000,0.000,0.000
1644915545081479936,2022-02-15-08:59:05,10.1.1.2,30,0.000,0.000,0.000,0.000,0.000,0.000
1644915545141159936,2022-02-15-08:59:05,10.1.1.2,39,-0.010,-0.010,-0.010,0.000,0.000,0.000
1644915545181544192,2022-02-15-08:59:05,10.1.1.2,29,-0.020,-0.020,-0.020,0.000,0.000,0.000
1644915545241873920,2022-02-15-08:59:05,10.1.1.2,39,-0.030,-0.030,-0.030,0.000,0.000,0.000
1644915545281421056,2022-02-15-08:59:05,10.1.1.2,28,-0.040,-0.040,-0.040,0.000,0.000,0.000
1644915545341032960,2022-02-15-08:59:05,10.1.1.2,38,-0.050,-0.050,-0.050,0.000,0.000,0.000
1644915545381211136,2022-02-15-08:59:05,10.1.1.2,27,-0.060,-0.060,-0.060,0.000,0.000,0.000
1644915545441356032,2022-02-15-08:59:05,10.1.1.2,37,-0.070,-0.070,-0.070,0.000,0.000,0.000
1644915545481101056,2022-02-15-08:59:05,10.1.1.2,26,-0.080,-0.080,-0.080,0.000,0.000,0.000
1644915545541132800,2022-02-15-08:59:05,10.1.1.2,36,-0.090,-0.090,-0.090,0.000,0.000,0.000
1644915545581684992,2022-02-15-08:59:05,10.1.1.2,26,-0.100,-0.100,-0.100,0.000,0.000,0.000
1644915545641343232,2022-02-15-08:59:05,10.1.1.2,35,-0.090,-0.090,-0.090,0.000,0.000,0.000
1644915545681939968,2022-02-15-08:59:05,10.1.1.2,24,-0.080,-0.080,-0.080,0.000,0.000,0.000
1644915545741588224,2022-02-15-08:59:05,10.1.1.2,33,-0.070,-0.070,-0.070,0.000,0.000,0.000
1644915545781719808,2022-02-15-08:59:05,10.1.1.2,23,-0.060,-0.060,-0.060,0.000,0.000,0.000
1644915546041389056,2022-02-15-08:59:06,10.1.1.2,28,-0.010,-0.010,-0.010,0.000,0.000,0.000
1644915546101701120,2022-02-15-08:59:06,10.1.1.2,37,0.000,0.000,0.000,0.000,0.000,0.000
1644915546141341952,2022-02-15-08:59:06,10.1.1.2,26,0.010,0.010,0.010,0.000,0.000,0.000
1644915546201564160,2022-02-15-08:59:06,10.1.1.2,35,0.020,0.020,0.020,0.000,0.000,0.000
1644915546401597952,2022-02-15-08:59:06,10.1.1.2,30,0.060,0.060,0.060,0.000,0.000,0.000
1644915546462070016,2022-02-15-08:59:06,10.1.1.2,39,0.070,0.070,0.070,0.000,0.000,0.000
1644915546500946944,2022-02-15-08:59:06,10.1.1.2,29,0.080,0.080,0.080,0.000,0.000,0.000
1644915546561379072,2022-02-15-08:59:06,10.1.1.2,38,0.090,0.090,0.090,0.000,0.000,0.000
1644915546601650944,2022-02-15-08:59:06,10.1.1.2,28,0.100,0.100,0.100,0.000,0.000,0.000
1644915546661259008,2022-02-15-08:59:06,10.1.1.2,37,0.090,0.090,0.090,0.000,0.000,0.000
1644915546701474816,2022-02-15-08:59:06,10.1.1.2,27,0.080,0.080,0.080,0.000,0.000,0.000
1644915546762765824,2022-02-15-08:59:06,10.1.1.2,37,0.070,0.070,0.070,0.000,0.000,0.000
1644915546801999104,2022-02-15-08:59:06,10.1.1.2,26,0.060,0.060,0.060,0.000,0.000,0.000
1644915546861403904,2022-02-15-08:59:06,10.1.1.2,35,0.050,0.050,0.050,0.000,0.000,0.000
1644915546901254912,2022-02-15-08:59:06,10.1.1.2,25,0.040,0.040,0.040,0.000,0.000,0.000
1644915546961329920,2022-02-15-08:59:06,10.1.1.2,34,0.030,0.030,0.030,0.000,0.000,0.000
1644915547002041088,2022-02-15-08:59:07,10.1.1.2,24,0.020,0.020,0.020,0.000,0.000,0.000
1644915547062352896,2022-02-15-08:59:07,10.1.1.2,33,0.010,0.010,0.010,0.000,0.000,0.000
1644915547401890048,2022-02-15-08:59:07,10.1.1.2,19,-0.060,-0.060,-0.060,0.000,0.000,0.000
1644915547461856000,2022-02-15-08:59:07,10.1.1.2,29,-0.070,-0.070,-0.070,0.000,0.000,0.000
1644915547521772032,2022-02-15-08:59:07,10.1.1.2,38,-0.080,-0.080,-0.080,0.000,0.000,0.000
1644915547561358080,2022-02-15-08:59:07,10.1.1.2,28,-0.090,-0.090,-0.090,0.000,0.000,0.000
1644915547621612032,2022-02-15-08:59:07,10.1.1.2,38,-0.100,-0.100,-0.100,0.000,0.000,0.000
1644915547661039104,2022-02-15-08:59:07,10.1.1.2,27,-0.090,-0.090,-0.090,0.000,0.000,0.000
1644915547722557952,2022-02-15-08:59:07,10.1.1.2,36,-0.080,-0.080,-0.080,0.000,0.000,0.000
1644915547761456896,2022-02-15-08:59:07,10.1.1.2,26,-0.070,-0.070,-0.070,0.000,0.000,0.000
1644915547821259008,2022-02-15-08:59:07,10.1.1.2,35,-0.060,-0.060,-0.060,0.000,0.000,0.000
1644915547861449984,2022-02-15-08:59:07,10.1.1.2,25,-0.050,-0.050,-0.050,0.000,0.000,0.000
1644915547921395968,2022-02-15-08:59:07,10.1.1.2,35,-0.040,-0.040,-0.040,0.000,0.000,0.000
1644915547961035008,2022-02-15-08:59:07,10.1.1.2,24,-0.030,-0.030,-0.030,0.000,0.000,0.000
1644915548061350144,2022-02-15-08:59:08,10.1.1.2,23,-0.010,-0.010,-0.010,0.000,0.000,0.000
1644915548421506816,2022-02-15-08:59:08,10.1.1.2,29,0.060,0.060,0.060,0.000,0.000,0.000
1644915548481372160,2022-02-15-08:59:08,10.1.1.2,39,0.070,0.070,0.070,0.000,0.000,0.000
1644915548521549056,2022-02-15-08:59:08,10.1.1.2,28,0.080,0.080,0.080,0.000,0.000,0.000
1644915548582163200,2022-02-15-08:59:08,10.1.1.2,38,0.090,0.090,0.090,0.000,0.000,0.000
1644915548621982208,2022-02-15-08:59:08,10.1.1.2,27,0.100,0.100,0.100,0.000,0.000,0.000
1644915548681516800,2022-02-15-08:59:08,10.1.1.2,37,0.090,0.090,0.090,0.000,0.000,0.000
1644915548721529856,2022-02-15-08:59:08,10.1.1.2,26,0.080,0.080,0.080,0.000,0.000,0.000
1644915548781233920,2022-02-15-08:59:08,10.1.1.2,36,0.070,0.070,0.070,0.000,0.000,0.000
1644915548822604800,2022-02-15-08:59:08,10.1.1.2,25,0.060,0.060,0.060,0.000,0.000,0.000
1644915548881611008,2022-02-15-08:59:08,10.1.1.2,35,0.050,0.050,0.050,0.000,0.000,0.000
1644915548922578176,2022-02-15-08:59:08,10.1.1.2,25,0.040,0.040,0.040,0.000,0.000,0.000
1644915548981942016,2022-02-15-08:59:08,10.1.1.2,34,0.030,0.030,0.030,0.000,0.000,0.000
1644915549022411008,2022-02-15-08:59:09,10.1.1.2,23,0.020,0.020,0.020,0.000,0.000,0.000
1644915549281167872,2022-02-15-08:59:09,10.1.1.2,29,-0.030,-0.030,-0.030,0.000,0.000,0.000
1644915549341579008,2022-02-15-08:59:09,10.1.1.2,39,-0.040,-0.040,-0.040,0.000,0.000,0.000
1644915549383898112,2022-02-15-08:59:09,10.1.1.2,28,-0.050,-0.050,-0.050,0.000,0.000,0.000
1644915549443181056,2022-02-15-08:59:09,10.1.1.2,37,-0.060,-0.060,-0.060,0.000,0.000,0.000
1644915549481298944,2022-02-15-08:59:09,10.1.1.2,24,-0.070,-0.070,-0.070,0.000,0.000,0.000
1644915549701054976,2022-02-15-08:59:09,10.1.1.2,39,-0.090,-0.090,-0.090,0.000,0.000,0.000
1644915549740955136,2022-02-15-08:59:09,10.1.1.2,28,-0.080,-0.080,-0.080,0.000,0.000,0.000
1644915549801824000,2022-02-15-08:59:09,10.1.1.2,38,-0.070,-0.070,-0.070,0.000,0.000,0.000
1644915549841553920,2022-02-15-08:59:09,10.1.1.2,28,-0.060,-0.060,-0.060,0.000,0.000,0.000
1644915549901117952,2022-02-15-08:59:09,10.1.1.2,37,-0.050,-0.050,-0.050,0.000,0.000,0.000
1644915549940910080,2022-02-15-08:59:09,10.1.1.2,27,-0.040,-0.040,-0.040,0.000,0.000,0.000
1644915550004777984,2022-02-15-08:59:10,10.1.1.2,36,-0.030,-0.030,-0.030,0.000,0.000,0.000
1644915550321122048,2022-02-15-08:59:10,10.1.1.2,39,0.030,0.030,0.030,0.000,0.000,0.000
1644915550361232896,2022-02-15-08:59:10,10.1.1.2,29,0.040,0.040,0.040,0.000,0.000,0.000
1644915550421440000,2022-02-15-08:59:10,10.1.1.2,38,0.050,0.050,0.050,0.000,0.000,0.000
1644915550461942784,2022-02-15-08:59:10,10.1.1.2,28,0.060,0.060,0.060,0.000,0.000,0.000
1644915550521634048,2022-02-15-08:59:10,10.1.1.2,37,0.070,0.070,0.070,0.000,0.000,0.000
1644915550561156864,2022-02-15-08:59:10,10.1.1.2,27,0.080,0.080,0.080,0.000,0.000,0.000
1644915550621690880,2022-02-15-08:59:10,10.1.1.2,36,0.090,0.090,0.090,0.000,0.000,0.000
1644915550660916992,2022-02-15-08:59:10,10.1.1.2,26,0.100,0.100,0.100,0.000,0.000,0.000
1644915550721468928,2022-02-15-08:59:10,10.1.1.2,35,0.090,0.090,0.090,0.000,0.000,0.000
1644915550761351936,2022-02-15-08:59:10,10.1.1.2,25,0.080,0.080,0.080,0.000,0.000,0.000
1644915550980904192,2022-02-15-08:59:10,10.1.1.2,38,0.040,0.040,0.040,0.000,0.000,0.000
1644915551021148928,2022-02-15-08:59:11,10.1.1.2,27,0.030,0.030,0.030,0.000,0.000,0.000
1644915551081566208,2022-02-15-08:59:11,10.1.1.2,36,0.020,0.020,0.020,0.000,0.000,0.000
1644915551121366016,2022-02-15-08:59:11,10.1.1.2,26,0.010,0.010,0.010,0.000,0.000,0.000
1644915551181175040,2022-02-15-08:59:11,10.1.1.2,35,-0.000,-0.000,-0.000,0.000,0.000,0.000
1644915551221491968,2022-02-15-08:59:11,10.1.1.2,24,-0.010,-0.010,-0.010,0.000,0.000,0.000
1644915551281101056,2022-02-15-08:59:11,10.1.1.2,34,-0.020,-0.020,-0.020,0.000,0.000,0.000
1644915551321333760,2022-02-15-08:59:11,10.1.1.2,23,-0.030,-0.030,-0.030,0.000,0.000,0.000
1644915551743400192,2022-02-15-08:59:11,10.1.1.2,29,-0.090,-0.090,-0.090,0.000,0.000,0.000
1644915551801501952,2022-02-15-08:59:11,10.1.1.2,39,-0.080,-0.080,-0.080,0.000,0.000,0.000
1644915551841933056,2022-02-15-08:59:11,10.1.1.2,28,-0.070,-0.070,-0.070,0.000,0.000,0.000
1644915551901804800,2022-02-15-08:59:11,10.1.1.2,38,-0.060,-0.060,-0.060,0.000,0.000,0.000
1644915551941752832,2022-02-15-08:59:11,10.1.1.2,27,-0.050,-0.050,-0.050,0.000,0.000,0.000
1644915552001465088,2022-02-15-08:59:12,10.1.1.2,36,-0.040,-0.040,-0.040,0.000,0.000,0.000
1644915552042296832,2022-02-15-08:59:12,10.1.1.2,26,-0.030,-0.030,-0.030,0.000,0.000,0.000
1644915552101641984,2022-02-15-08:59:12,10.1.1.2,35,-0.020,-0.020,-0.020,0.000,0.000,0.000
1644915552140843008,2022-02-15-08:59:12,10.1.1.2,24,-0.010,-0.010,-0.010,0.000,0.000,0.000
1644915552201561088,2022-02-15-08:59:12,10.1.1.2,34,0.000,0.000,0.000,0.000,0.000,0.000
1644915552565171968,2022-02-15-08:59:12,10.1.1.2,39,0.070,0.070,0.070,0.000,0.000,0.000
1644915552607540992,2022-02-15-08:59:12,10.1.1.2,27,0.080,0.080,0.080,0.000,0.000,0.000
1644915552661910016,2022-02-15-08:59:12,10.1.1.2,36,0.090,0.090,0.090,0.000,0.000,0.000
1644915552701498112,2022-02-15-08:59:12,10.1.1.2,25,0.100,0.100,0.100,0.000,0.000,0.000
1644915552761156096,2022-02-15-08:59:12,10.1.1.2,35,0.090,0.090,0.090,0.000,0.000,0.000
1644915552802494976,2022-02-15-08:59:12,10.1.1.2,24,0.080,0.080,0.080,0.000,0.000,0.000
1644915553041590016,2022-02-15-08:59:13,10.1.1.2,26,0.040,0.040,0.040,0.000,0.000,0.000
1644915553124107008,2022-02-15-08:59:13,10.1.1.2,35,0.030,0.030,0.030,0.000,0.000,0.000
1644915553161073920,2022-02-15-08:59:13,10.1.1.2,34,0.020,0.020,0.020,0.000,0.000,0.000
1644915553201595136,2022-02-15-08:59:13,10.1.1.2,23,0.010,0.010,0.010,0.000,0.000,0.000
1644915553261581056,2022-02-15-08:59:13,10.1.1.2,33,0.000,0.000,0.000,0.000,0.000,0.000
1644915553621287168,2022-02-15-08:59:13,10.1.1.2,39,-0.070,-0.070,-0.070,0.000,0.000,0.000
1644915553661216000,2022-02-15-08:59:13,10.1.1.2,29,-0.080,-0.080,-0.080,0.000,0.000,0.000
1644915553730707968,2022-02-15-08:59:13,10.1.1.2,38,-0.090,-0.090,-0.090,0.000,0.000,0.000
1644915553821840128,2022-02-15-08:59:13,10.1.1.2,6,-0.090,-0.090,-0.090,0.000,0.000,0.000
1644915553902255104,2022-02-15-08:59:13,10.1.1.2,35,-0.080,-0.080,-0.080,0.000,0.000,0.000
1644915553941138944,2022-02-15-08:59:13,10.1.1.2,25,-0.070,-0.070,-0.070,0.000,0.000,0.000
1644915554001198080,2022-02-15-08:59:14,10.1.1.2,34,-0.060,-0.060,-0.060,0.000,0.000,0.000
1644915554041545984,2022-02-15-08:59:14,10.1.1.2,24,-0.050,-0.050,-0.050,0.000,0.000,0.000
1644915554102010880,2022-02-15-08:59:14,10.1.1.2,34,-0.040,-0.040,-0.040,0.000,0.000,0.000
1644915554381287168,2022-02-15-08:59:14,10.1.1.2,29,0.010,0.010,0.010,0.000,0.000,0.000
1644915554441360896,2022-02-15-08:59:14,10.1.1.2,38,0.020,0.020,0.020,0.000,0.000,0.000
1644915554481158144,2022-02-15-08:59:14,10.1.1.2,28,0.030,0.030,0.030,0.000,0.000,0.000
1644915554544107008,2022-02-15-08:59:14,10.1.1.2,37,0.040,0.040,0.040,0.000,0.000,0.000
1644915554582409984,2022-02-15-08:59:14,10.1.1.2,27,0.050,0.050,0.050,0.000,0.000,0.000
1644915554641272064,2022-02-15-08:59:14,10.1.1.2,36,0.060,0.060,0.060,0.000,0.000,0.000
1644915554681485056,2022-02-15-08:59:14,10.1.1.2,25,0.070,0.070,0.070,0.000,0.000,0.000
1644915554741727232,2022-02-15-08:59:14,10.1.1.2,35,0.080,0.080,0.080,0.000,0.000,0.000
1644915554782135040,2022-02-15-08:59:14,10.1.1.2,25,0.090,0.090,0.090,0.000,0.000,0.000
1644915554841652992,2022-02-15-08:59:14,10.1.1.2,34,0.100,0.100,0.100,0.000,0.000,0.000
1644915554941467136,2022-02-15-08:59:14,10.1.1.2,34,0.080,0.080,0.080,0.000,0.000,0.000
1644915554981396992,2022-02-15-08:59:14,10.1.1.2,23,0.070,0.070,0.070,0.000,0.000,0.000
1644915555041251072,2022-02-15-08:59:15,10.1.1.2,33,0.060,0.060,0.060,0.000,0.000,0.000
1644915555201690880,2022-02-15-08:59:15,10.1.1.2,39,0.030,0.030,0.030,0.000,0.000,0.000
1644915555241550848,2022-02-15-08:59:15,10.1.1.2,28,0.020,0.020,0.020,0.000,0.000,0.000
1644915555301085952,2022-02-15-08:59:15,10.1.1.2,38,0.010,0.010,0.010,0.000,0.000,0.000
1644915555341207040,2022-02-15-08:59:15,10.1.1.2,27,0.000,0.000,0.000,0.000,0.000,0.000
1644915555401475840,2022-02-15-08:59:15,10.1.1.2,37,-0.010,-0.010,-0.010,0.000,0.000,0.000
1644915555440898816,2022-02-15-08:59:15,10.1.1.2,25,-0.020,-0.020,-0.020,0.000,0.000,0.000
1644915555501027072,2022-02-15-08:59:15,10.1.1.2,35,-0.030,-0.030,-0.030,0.000,0.000,0.000
1644915555540921088,2022-02-15-08:59:15,10.1.1.2,24,-0.040,-0.040,-0.040,0.000,0.000,0.000
1644915555601385216,2022-02-15-08:59:15,10.1.1.2,33,-0.050,-0.050,-0.050,0.000,0.000,0.000
1644915555804397056,2022-02-15-08:59:15,10.1.1.2,29,-0.090,-0.090,-0.090,0.000,0.000,0.000
1644915555866978816,2022-02-15-08:59:15,10.1.1.2,27,-0.100,-0.100,-0.100,0.000,0.000,0.000
1644915556122371840,2022-02-15-08:59:16,10.1.1.2,29,-0.050,-0.050,-0.050,0.000,0.000,0.000
1644915556222333952,2022-02-15-08:59:16,10.1.1.2,24,-0.030,-0.030,-0.030,0.000,0.000,0.000
1644915556383974912,2022-02-15-08:59:16,10.1.1.2,23,0.000,0.000,0.000,0.000,0.000,0.000
1644915556603542016,2022-02-15-08:59:16,10.1.1.2,39,0.040,0.040,0.040,0.000,0.000,0.000
1644915556643707904,2022-02-15-08:59:16,10.1.1.2,28,0.050,0.050,0.050,0.000,0.000,0.000
1644915556702981888,2022-02-15-08:59:16,10.1.1.2,37,0.060,0.060,0.060,0.000,0.000,0.000
1644915556804321024,2022-02-15-08:59:16,10.1.1.2,37,0.080,0.080,0.080,0.000,0.000,0.000
1644915556843920896,2022-02-15-08:59:16,10.1.1.2,25,0.090,0.090,0.090,0.000,0.000,0.000
1644915556922929920,2022-02-15-08:59:16,10.1.1.2,2,0.090,0.090,0.090,0.000,0.000,0.000
1644915557048996096,2022-02-15-08:59:17,10.1.1.2,19,0.070,0.070,0.070,0.000,0.000,0.000
1644915557162210816,2022-02-15-08:59:17,10.1.1.2,36,0.050,0.050,0.050,0.000,0.000,0.000
1644915557201422848,2022-02-15-08:59:17,10.1.1.2,25,0.040,0.040,0.040,0.000,0.000,0.000
1644915557262177024,2022-02-15-08:59:17,10.1.1.2,35,0.030,0.030,0.030,0.000,0.000,0.000
1644915557302583040,2022-02-15-08:59:17,10.1.1.2,24,0.020,0.020,0.020,0.000,0.000,0.000
1644915557501192960,2022-02-15-08:59:17,10.1.1.2,18,-0.020,-0.020,-0.020,0.000,0.000,0.000
1644915557621388032,2022-02-15-08:59:17,10.1.1.2,37,-0.040,-0.040,-0.040,0.000,0.000,0.000
1644915557722086912,2022-02-15-08:59:17,10.1.1.2,36,-0.060,-0.060,-0.060,0.000,0.000,0.000
1644915557825076992,2022-02-15-08:59:17,10.1.1.2,37,-0.080,-0.080,-0.080,0.000,0.000,0.000
1644915558001136128,2022-02-15-08:59:18,10.1.1.2,11,-0.080,-0.080,-0.080,0.000,0.000,0.000
1644915558061212160,2022-02-15-08:59:18,10.1.1.2,21,-0.070,-0.070,-0.070,0.000,0.000,0.000
1644915558181417984,2022-02-15-08:59:18,10.1.1.2,36,-0.050,-0.050,-0.050,0.000,0.000,0.000
1644915558221165824,2022-02-15-08:59:18,10.1.1.2,24,-0.040,-0.040,-0.040,0.000,0.000,0.000
1644915558344010240,2022-02-15-08:59:18,10.1.1.2,39,-0.020,-0.020,-0.020,0.000,0.000,0.000
1644915558481206784,2022-02-15-08:59:18,10.1.1.2,24,0.010,0.010,0.010,0.000,0.000,0.000
1644915558782507008,2022-02-15-08:59:18,10.1.1.2,20,0.070,0.070,0.070,0.000,0.000,0.000
1644915558843614976,2022-02-15-08:59:18,10.1.1.2,29,0.080,0.080,0.080,0.000,0.000,0.000
1644915558901266944,2022-02-15-08:59:18,10.1.1.2,38,0.090,0.090,0.090,0.000,0.000,0.000
1644915558946994176,2022-02-15-08:59:18,10.1.1.2,25,0.100,0.100,0.100,0.000,0.000,0.000
1644915559003746048,2022-02-15-08:59:19,10.1.1.2,34,0.090,0.090,0.090,0.000,0.000,0.000
1644915559101947136,2022-02-15-08:59:19,10.1.1.2,28,0.070,0.070,0.070,0.000,0.000,0.000
1644915559162641152,2022-02-15-08:59:19,10.1.1.2,37,0.060,0.060,0.060,0.000,0.000,0.000
1644915559204000000,2022-02-15-08:59:19,10.1.1.2,28,0.050,0.050,0.050,0.000,0.000,0.000
1644915559263740928,2022-02-15-08:59:19,10.1.1.2,36,0.040,0.040,0.040,0.000,0.000,0.000
1644915559365422080,2022-02-15-08:59:19,10.1.1.2,29,0.020,0.020,0.020,0.000,0.000,0.000
1644915559423748864,2022-02-15-08:59:19,10.1.1.2,38,0.010,0.010,0.010,0.000,0.000,0.000
1644915559466539008,2022-02-15-08:59:19,10.1.1.2,28,0.000,0.000,0.000,0.000,0.000,0.000
1644915559523406080,2022-02-15-08:59:19,10.1.1.2,37,-0.010,-0.010,-0.010,0.000,0.000,0.000
1644915559563484928,2022-02-15-08:59:19,10.1.1.2,26,-0.020,-0.020,-0.020,0.000,0.000,0.000
1644915559622441984,2022-02-15-08:59:19,10.1.1.2,35,-0.030,-0.030,-0.030,0.000,0.000,0.000
1644915559723478016,2022-02-15-08:59:19,10.1.1.2,28,-0.050,-0.050,-0.050,0.000,0.000,0.000
1644915559863040000,2022-02-15-08:59:19,10.1.1.2,38,-0.070,-0.070,-0.070,0.000,0.000,0.000
1644915559901675008,2022-02-15-08:59:19,10.1.1.2,27,-0.080,-0.080,-0.080,0.000,0.000,0.000
1644915559961536768,2022-02-15-08:59:19,10.1.1.2,37,-0.090,-0.090,-0.090,0.000,0.000,0.000
1644915560001739008,2022-02-15-08:59:20,10.1.1.2,27,-0.100,-0.100,-0.100,0.000,0.000,0.000
1644915560061714944,2022-02-15-08:59:20,10.1.1.2,36,-0.090,-0.090,-0.090,0.000,0.000,0.000
1644915560101402112,2022-02-15-08:59:20,10.1.1.2,25,-0.080,-0.080,-0.080,0.000,0.000,0.000
1644915560161211904,2022-02-15-08:59:20,10.1.1.2,35,-0.070,-0.070,-0.070,0.000,0.000,0.000
1644915560202120960,2022-02-15-08:59:20,10.1.1.2,24,-0.060,-0.060,-0.060,0.000,0.000,0.000
1644915560262813952,2022-02-15-08:59:20,10.1.1.2,34,-0.050,-0.050,-0.050,0.000,0.000,0.000
1644915560301459200,2022-02-15-08:59:20,10.1.1.2,24,-0.040,-0.040,-0.040,0.000,0.000,0.000
1644915560560996096,2022-02-15-08:59:20,10.1.1.2,30,0.010,0.010,0.010,0.000,0.000,0.000
1644915560621421056,2022-02-15-08:59:20,10.1.1.2,39,0.020,0.020,0.020,0.000,0.000,0.000
1644915560661252864,2022-02-15-08:59:20,10.1.1.2,28,0.030,0.030,0.030,0.000,0.000,0.000
1644915560721306112,2022-02-15-08:59:20,10.1.1.2,37,0.040,0.040,0.040,0.000,0.000,0.000
1644915560761250048,2022-02-15-08:59:20,10.1.1.2,26,0.050,0.050,0.050,0.000,0.000,0.000
1644915560821367040,2022-02-15-08:59:20,10.1.1.2,35,0.060,0.060,0.060,0.000,0.000,0.000
1644915560861097216,2022-02-15-08:59:20,10.1.1.2,25,0.070,0.070,0.070,0.000,0.000,0.000
1644915561081406976,2022-02-15-08:59:21,10.1.1.2,38,0.090,0.090,0.090,0.000,0.000,0.000
1644915561122924032,2022-02-15-08:59:21,10.1.1.2,27,0.080,0.080,0.080,0.000,0.000,0.000
1644915561183428096,2022-02-15-08:59:21,10.1.1.2,35,0.070,0.070,0.070,0.000,0.000,0.000
1644915561224022016,2022-02-15-08:59:21,10.1.1.2,25,0.060,0.060,0.060,0.000,0.000,0.000
1644915561282394880,2022-02-15-08:59:21,10.1.1.2,27,0.050,0.050,0.050,0.000,0.000,0.000
1644915561343482880,2022-02-15-08:59:21,10.1.1.2,35,0.040,0.040,0.040,0.000,0.000,0.000
1644915561941468928,2022-02-15-08:59:21,10.1.1.2,39,-0.070,-0.070,-0.070,0.000,0.000,0.000
1644915561982296832,2022-02-15-08:59:21,10.1.1.2,28,-0.080,-0.080,-0.080,0.000,0.000,0.000
1644915562041132032,2022-02-15-08:59:22,10.1.1.2,38,-0.090,-0.090,-0.090,0.000,0.000,0.000
1644915562081612032,2022-02-15-08:59:22,10.1.1.2,27,-0.100,-0.100,-0.100,0.000,0.000,0.000
1644915562141777920,2022-02-15-08:59:22,10.1.1.2,37,-0.090,-0.090,-0.090,0.000,0.000,0.000
1644915562181227008,2022-02-15-08:59:22,10.1.1.2,26,-0.080,-0.080,-0.080,0.000,0.000,0.000
1644915562242296832,2022-02-15-08:59:22,10.1.1.2,36,-0.070,-0.070,-0.070,0.000,0.000,0.000
1644915562281922048,2022-02-15-08:59:22,10.1.1.2,25,-0.060,-0.060,-0.060,0.000,0.000,0.000
1644915562342369024,2022-02-15-08:59:22,10.1.1.2,34,-0.050,-0.050,-0.050,0.000,0.000,0.000
1644915562381319936,2022-02-15-08:59:22,10.1.1.2,23,-0.040,-0.040,-0.040,0.000,0.000,0.000
1644915562441248768,2022-02-15-08:59:22,10.1.1.2,33,-0.030,-0.030,-0.030,0.000,0.000,0.000
1644915562681641984,2022-02-15-08:59:22,10.1.1.2,20,0.020,0.020,0.020,0.000,0.000,0.000
1644915562742053888,2022-02-15-08:59:22,10.1.1.2,29,0.030,0.030,0.030,0.000,0.000,0.000
1644915562801372160,2022-02-15-08:59:22,10.1.1.2,38,0.040,0.040,0.040,0.000,0.000,0.000
1644915562841573888,2022-02-15-08:59:22,10.1.1.2,28,0.050,0.050,0.050,0.000,0.000,0.000
1644915562901576960,2022-02-15-08:59:22,10.1.1.2,37,0.060,0.060,0.060,0.000,0.000,0.000
1644915562941686016,2022-02-15-08:59:22,10.1.1.2,25,0.070,0.070,0.070,0.000,0.000,0.000
1644915563163266048,2022-02-15-08:59:23,10.1.1.2,29,0.090,0.090,0.090,0.000,0.000,0.000
1644915563225508864,2022-02-15-08:59:23,10.1.1.2,39,0.080,0.080,0.080,0.000,0.000,0.000
1644915563268371200,2022-02-15-08:59:23,10.1.1.2,28,0.070,0.070,0.070,0.000,0.000,0.000
1644915563322536960,2022-02-15-08:59:23,10.1.1.2,37,0.060,0.060,0.060,0.000,0.000,0.000
1644915563364089856,2022-02-15-08:59:23,10.1.1.2,24,0.050,0.050,0.050,0.000,0.000,0.000
1644915563421391872,2022-02-15-08:59:23,10.1.1.2,34,0.040,0.040,0.040,0.000,0.000,0.000
1644915563844269056,2022-02-15-08:59:23,10.1.1.2,29,-0.040,-0.040,-0.040,0.000,0.000,0.000
1644915563901402880,2022-02-15-08:59:23,10.1.1.2,38,-0.050,-0.050,-0.050,0.000,0.000,0.000
1644915563941925888,2022-02-15-08:59:23,10.1.1.2,28,-0.060,-0.060,-0.060,0.000,0.000,0.000
1644915564001768960,2022-02-15-08:59:24,10.1.1.2,36,-0.070,-0.070,-0.070,0.000,0.000,0.000
1644915564042052096,2022-02-15-08:59:24,10.1.1.2,25,-0.080,-0.080,-0.080,0.000,0.000,0.000
1644915564101671936,2022-02-15-08:59:24,10.1.1.2,34,-0.090,-0.090,-0.090,0.000,0.000,0.000
1644915564181936128,2022-02-15-08:59:24,10.1.1.2,9,-0.090,-0.090,-0.090,0.000,0.000,0.000
1644915564261338880,2022-02-15-08:59:24,10.1.1.2,39,-0.080,-0.080,-0.080,0.000,0.000,0.000
1644915564301504000,2022-02-15-08:59:24,10.1.1.2,28,-0.070,-0.070,-0.070,0.000,0.000,0.000
1644915564361565952,2022-02-15-08:59:24,10.1.1.2,36,-0.060,-0.060,-0.060,0.000,0.000,0.000
1644915564401804800,2022-02-15-08:59:24,10.1.1.2,25,-0.050,-0.050,-0.050,0.000,0.000,0.000
1644915564461692160,2022-02-15-08:59:24,10.1.1.2,34,-0.040,-0.040,-0.040,0.000,0.000,0.000
1644915564662385920,2022-02-15-08:59:24,10.1.1.2,29,0.000,0.000,0.000,0.000,0.000,0.000
1644915564721321984,2022-02-15-08:59:24,10.1.1.2,38,0.010,0.010,0.010,0.000,0.000,0.000
1644915564762418944,2022-02-15-08:59:24,10.1.1.2,27,0.020,0.020,0.020,0.000,0.000,0.000
1644915564821368832,2022-02-15-08:59:24,10.1.1.2,37,0.030,0.030,0.030,0.000,0.000,0.000
1644915564863145984,2022-02-15-08:59:24,10.1.1.2,26,0.040,0.040,0.040,0.000,0.000,0.000
1644915564925291008,2022-02-15-08:59:24,10.1.1.2,35,0.050,0.050,0.050,0.000,0.000,0.000
1644915565321494016,2022-02-15-08:59:25,10.1.1.2,29,0.070,0.070,0.070,0.000,0.000,0.000
1644915565381701120,2022-02-15-08:59:25,10.1.1.2,38,0.060,0.060,0.060,0.000,0.000,0.000
1644915565444221952,2022-02-15-08:59:25,10.1.1.2,28,0.050,0.050,0.050,0.000,0.000,0.000
1644915565550259968,2022-02-15-08:59:25,10.1.1.2,25,0.030,0.030,0.030,0.000,0.000,0.000
1644915565601659136,2022-02-15-08:59:25,10.1.1.2,34,0.020,0.020,0.020,0.000,0.000,0.000
1644915565641478912,2022-02-15-08:59:25,10.1.1.2,24,0.010,0.010,0.010,0.000,0.000,0.000
1644915565782903040,2022-02-15-08:59:25,10.1.1.2,29,-0.010,-0.010,-0.010,0.000,0.000,0.000
1644915565841381120,2022-02-15-08:59:25,10.1.1.2,38,-0.020,-0.020,-0.020,0.000,0.000,0.000
1644915565887729920,2022-02-15-08:59:25,10.1.1.2,27,-0.030,-0.030,-0.030,0.000,0.000,0.000
1644915565948717056,2022-02-15-08:59:25,10.1.1.2,35,-0.040,-0.040,-0.040,0.000,0.000,0.000
1644915566144254976,2022-02-15-08:59:26,10.1.1.2,29,-0.080,-0.080,-0.080,0.000,0.000,0.000
1644915566342632960,2022-02-15-08:59:26,10.1.1.2,-19,-0.080,-0.080,-0.080,0.000,0.000,0.000
1644915566583437824,2022-02-15-08:59:26,10.1.1.2,38,-0.040,-0.040,-0.040,0.000,0.000,0.000
1644915566621195008,2022-02-15-08:59:26,10.1.1.2,28,-0.030,-0.030,-0.030,0.000,0.000,0.000
1644915566681287168,2022-02-15-08:59:26,10.1.1.2,37,-0.020,-0.020,-0.020,0.000,0.000,0.000
1644915566721151232,2022-02-15-08:59:26,10.1.1.2,26,-0.010,-0.010,-0.010,0.000,0.000,0.000
1644915566794920960,2022-02-15-08:59:26,10.1.1.2,28,0.000,0.000,0.000,0.000,0.000,0.000
1644915566902693888,2022-02-15-08:59:26,10.1.1.2,27,0.020,0.020,0.020,0.000,0.000,0.000
1644915566961639936,2022-02-15-08:59:26,10.1.1.2,37,0.030,0.030,0.030,0.000,0.000,0.000
1644915567001692928,2022-02-15-08:59:27,10.1.1.2,26,0.040,0.040,0.040,0.000,0.000,0.000
1644915567061885184,2022-02-15-08:59:27,10.1.1.2,36,0.050,0.050,0.050,0.000,0.000,0.000
1644915567102520832,2022-02-15-08:59:27,10.1.1.2,23,0.060,0.060,0.060,0.000,0.000,0.000
1644915567262398976,2022-02-15-08:59:27,10.1.1.2,28,0.090,0.090,0.090,0.000,0.000,0.000
1644915567322729216,2022-02-15-08:59:27,10.1.1.2,35,0.100,0.100,0.100,0.000,0.000,0.000
1644915567361662976,2022-02-15-08:59:27,10.1.1.2,23,0.090,0.090,0.090,0.000,0.000,0.000
1644915567521598976,2022-02-15-08:59:27,10.1.1.2,28,0.060,0.060,0.060,0.000,0.000,0.000
1644915567583909888,2022-02-15-08:59:27,10.1.1.2,38,0.050,0.050,0.050,0.000,0.000,0.000
1644915567622317056,2022-02-15-08:59:27,10.1.1.2,27,0.040,0.040,0.040,0.000,0.000,0.000
1644915567683834112,2022-02-15-08:59:27,10.1.1.2,36,0.030,0.030,0.030,0.000,0.000,0.000
1644915567722714880,2022-02-15-08:59:27,10.1.1.2,26,0.020,0.020,0.020,0.000,0.000,0.000
1644915568083369984,2022-02-15-08:59:28,10.1.1.2,23,-0.040,-0.040,-0.040,0.000,0.000,0.000
1644915568143480064,2022-02-15-08:59:28,10.1.1.2,25,-0.050,-0.050,-0.050,0.000,0.000,0.000
1644915568205516032,2022-02-15-08:59:28,10.1.1.2,34,-0.060,-0.060,-0.060,0.000,0.000,0.000
1644915568242315008,2022-02-15-08:59:28,10.1.1.2,23,-0.070,-0.070,-0.070,0.000,0.000,0.000
1644915568302705920,2022-02-15-08:59:28,10.1.1.2,28,-0.080,-0.080,-0.080,0.000,0.000,0.000
1644915568363534080,2022-02-15-08:59:28,10.1.1.2,37,-0.090,-0.090,-0.090,0.000,0.000,0.000
1644915568406029824,2022-02-15-08:59:28,10.1.1.2,25,-0.100,-0.100,-0.100,0.000,0.000,0.000
1644915568463582976,2022-02-15-08:59:28,10.1.1.2,34,-0.090,-0.090,-0.090,0.000,0.000,0.000
1644915568579821056,2022-02-15-08:59:28,10.1.1.2,29,-0.070,-0.070,-0.070,0.000,0.000,0.000
1644915568622108928,2022-02-15-08:59:28,10.1.1.2,38,-0.060,-0.060,-0.060,0.000,0.000,0.000
1644915568661603840,2022-02-15-08:59:28,10.1.1.2,28,-0.050,-0.050,-0.050,0.000,0.000,0.000
1644915568725895936,2022-02-15-08:59:28,10.1.1.2,34,-0.040,-0.040,-0.040,0.000,0.000,0.000
1644915568761456896,2022-02-15-08:59:28,10.1.1.2,23,-0.030,-0.030,-0.030,0.000,0.000,0.000
1644915568941792000,2022-02-15-08:59:28,10.1.1.2,38,0.000,0.000,0.000,0.000,0.000,0.000
1644915568982992896,2022-02-15-08:59:28,10.1.1.2,27,0.010,0.010,0.010,0.000,0.000,0.000
1644915569049877760,2022-02-15-08:59:29,10.1.1.2,35,0.020,0.020,0.020,0.000,0.000,0.000
1644915569305524992,2022-02-15-08:59:29,10.1.1.2,37,0.070,0.070,0.070,0.000,0.000,0.000
1644915569342081024,2022-02-15-08:59:29,10.1.1.2,26,0.080,0.080,0.080,0.000,0.000,0.000
1644915569401256192,2022-02-15-08:59:29,10.1.1.2,35,0.090,0.090,0.090,0.000,0.000,0.000
1644915569441500928,2022-02-15-08:59:29,10.1.1.2,25,0.100,0.100,0.100,0.000,0.000,0.000
1644915569505353984,2022-02-15-08:59:29,10.1.1.2,34,0.090,0.090,0.090,0.000,0.000,0.000
1644915569601288192,2022-02-15-08:59:29,10.1.1.2,26,0.070,0.070,0.070,0.000,0.000,0.000
1644915569662280192,2022-02-15-08:59:29,10.1.1.2,36,0.060,0.060,0.060,0.000,0.000,0.000
1644915569702886144,2022-02-15-08:59:29,10.1.1.2,25,0.050,0.050,0.050,0.000,0.000,0.000
1644915569881560064,2022-02-15-08:59:29,10.1.1.2,38,0.020,0.020,0.020,0.000,0.000,0.000
1644915569922540800,2022-02-15-08:59:29,10.1.1.2,26,0.010,0.010,0.010,0.000,0.000,0.000
1644915569986102016,2022-02-15-08:59:29,10.1.1.2,34,0.000,0.000,0.000,0.000,0.000,0.000
1644915570021570816,2022-02-15-08:59:30,10.1.1.2,23,-0.010,-0.010,-0.010,0.000,0.000,0.000
1644915570281305088,2022-02-15-08:59:30,10.1.1.2,27,-0.060,-0.060,-0.060,0.000,0.000,0.000
1644915570343480064,2022-02-15-08:59:30,10.1.1.2,36,-0.070,-0.070,-0.070,0.000,0.000,0.000
1644915570383929088,2022-02-15-08:59:30,10.1.1.2,25,-0.080,-0.080,-0.080,0.000,0.000,0.000
1644915570443620864,2022-02-15-08:59:30,10.1.1.2,34,-0.090,-0.090,-0.090,0.000,0.000,0.000
1644915570523520000,2022-02-15-08:59:30,10.1.1.2,12,-0.090,-0.090,-0.090,0.000,0.000,0.000
1644915570642923008,2022-02-15-08:59:30,10.1.1.2,27,-0.070,-0.070,-0.070,0.000,0.000,0.000
1644915570702731008,2022-02-15-08:59:30,10.1.1.2,36,-0.060,-0.060,-0.060,0.000,0.000,0.000
1644915570763469824,2022-02-15-08:59:30,10.1.1.2,35,-0.050,-0.050,-0.050,0.000,0.000,0.000
1644915570823085056,2022-02-15-08:59:30,10.1.1.2,39,-0.040,-0.040,-0.040,0.000,0.000,0.000
1644915570863940096,2022-02-15-08:59:30,10.1.1.2,28,-0.030,-0.030,-0.030,0.000,0.000,0.000
1644915570922523136,2022-02-15-08:59:30,10.1.1.2,34,-0.020,-0.020,-0.020,0.000,0.000,0.000
1644915571082480896,2022-02-15-08:59:31,10.1.1.2,39,0.010,0.010,0.010,0.000,0.000,0.000
1644915571124356096,2022-02-15-08:59:31,10.1.1.2,28,0.020,0.020,0.020,0.000,0.000,0.000
1644915571183276800,2022-02-15-08:59:31,10.1.1.2,37,0.030,0.030,0.030,0.000,0.000,0.000
1644915571226020096,2022-02-15-08:59:31,10.1.1.2,25,0.040,0.040,0.040,0.000,0.000,0.000
1644915571344798976,2022-02-15-08:59:31,10.1.1.2,38,0.060,0.060,0.060,0.000,0.000,0.000
1644915571383549952,2022-02-15-08:59:31,10.1.1.2,28,0.070,0.070,0.070,0.000,0.000,0.000
1644915571443532032,2022-02-15-08:59:31,10.1.1.2,34,0.080,0.080,0.080,0.000,0.000,0.000
1644915571622462976,2022-02-15-08:59:31,10.1.1.2,10,0.080,0.080,0.080,0.000,0.000,0.000
1644915571683088896,2022-02-15-08:59:31,10.1.1.2,20,0.070,0.070,0.070,0.000,0.000,0.000
1644915571742993152,2022-02-15-08:59:31,10.1.1.2,28,0.060,0.060,0.060,0.000,0.000,0.000
1644915571802395136,2022-02-15-08:59:31,10.1.1.2,38,0.050,0.050,0.050,0.000,0.000,0.000
1644915571841655040,2022-02-15-08:59:31,10.1.1.2,27,0.040,0.040,0.040,0.000,0.000,0.000
1644915571901283072,2022-02-15-08:59:31,10.1.1.2,36,0.030,0.030,0.030,0.000,0.000,0.000
1644915571941280000,2022-02-15-08:59:31,10.1.1.2,25,0.020,0.020,0.020,0.000,0.000,0.000
1644915572001987072,2022-02-15-08:59:32,10.1.1.2,34,0.010,0.010,0.010,0.000,0.000,0.000
1644915572040957952,2022-02-15-08:59:32,10.1.1.2,24,0.000,0.000,0.000,0.000,0.000,0.000
1644915572101617152,2022-02-15-08:59:32,10.1.1.2,33,-0.010,-0.010,-0.010,0.000,0.000,0.000
1644915572342905088,2022-02-15-08:59:32,10.1.1.2,19,-0.060,-0.060,-0.060,0.000,0.000,0.000
1644915572402632960,2022-02-15-08:59:32,10.1.1.2,29,-0.070,-0.070,-0.070,0.000,0.000,0.000
1644915572462482944,2022-02-15-08:59:32,10.1.1.2,39,-0.080,-0.080,-0.080,0.000,0.000,0.000
1644915572501688064,2022-02-15-08:59:32,10.1.1.2,28,-0.090,-0.090,-0.090,0.000,0.000,0.000
1644915572561470976,2022-02-15-08:59:32,10.1.1.2,38,-0.100,-0.100,-0.100,0.000,0.000,0.000
1644915572602699008,2022-02-15-08:59:32,10.1.1.2,27,-0.090,-0.090,-0.090,0.000,0.000,0.000
1644915572663192064,2022-02-15-08:59:32,10.1.1.2,36,-0.080,-0.080,-0.080,0.000,0.000,0.000
1644915572761792000,2022-02-15-08:59:32,10.1.1.2,28,-0.060,-0.060,-0.060,0.000,0.000,0.000
1644915572823227904,2022-02-15-08:59:32,10.1.1.2,38,-0.050,-0.050,-0.050,0.000,0.000,0.000
1644915572876392960,2022-02-15-08:59:32,10.1.1.2,25,-0.040,-0.040,-0.040,0.000,0.000,0.000
1644915573181363968,2022-02-15-08:59:33,10.1.1.2,39,0.020,0.020,0.020,0.000,0.000,0.000
1644915573222076928,2022-02-15-08:59:33,10.1.1.2,28,0.030,0.030,0.030,0.000,0.000,0.000
1644915573281687040,2022-02-15-08:59:33,10.1.1.2,38,0.040,0.040,0.040,0.000,0.000,0.000
1644915573322718976,2022-02-15-08:59:33,10.1.1.2,27,0.050,0.050,0.050,0.000,0.000,0.000
1644915573381468928,2022-02-15-08:59:33,10.1.1.2,37,0.060,0.060,0.060,0.000,0.000,0.000
1644915573421374208,2022-02-15-08:59:33,10.1.1.2,27,0.070,0.070,0.070,0.000,0.000,0.000
1644915573481748992,2022-02-15-08:59:33,10.1.1.2,36,0.080,0.080,0.080,0.000,0.000,0.000
1644915573521037056,2022-02-15-08:59:33,10.1.1.2,26,0.090,0.090,0.090,0.000,0.000,0.000
1644915573583525888,2022-02-15-08:59:33,10.1.1.2,34,0.100,0.100,0.100,0.000,0.000,0.000
1644915573621505024,2022-02-15-08:59:33,10.1.1.2,24,0.090,0.090,0.090,0.000,0.000,0.000
1644915573681772032,2022-02-15-08:59:33,10.1.1.2,33,0.080,0.080,0.080,0.000,0.000,0.000
1644915573781474048,2022-02-15-08:59:33,10.1.1.2,29,0.060,0.060,0.060,0.000,0.000,0.000
1644915573843332096,2022-02-15-08:59:33,10.1.1.2,38,0.050,0.050,0.050,0.000,0.000,0.000
1644915573882318848,2022-02-15-08:59:33,10.1.1.2,27,0.040,0.040,0.040,0.000,0.000,0.000
1644915573942524928,2022-02-15-08:59:33,10.1.1.2,37,0.030,0.030,0.030,0.000,0.000,0.000
1644915573982017024,2022-02-15-08:59:33,10.1.1.2,26,0.020,0.020,0.020,0.000,0.000,0.000
1644915574202078208,2022-02-15-08:59:34,10.1.1.2,39,-0.020,-0.020,-0.020,0.000,0.000,0.000
1644915574245758976,2022-02-15-08:59:34,10.1.1.2,28,-0.030,-0.030,-0.030,0.000,0.000,0.000
1644915574301785856,2022-02-15-08:59:34,10.1.1.2,37,-0.040,-0.040,-0.040,0.000,0.000,0.000
1644915574341288960,2022-02-15-08:59:34,10.1.1.2,27,-0.050,-0.050,-0.050,0.000,0.000,0.000
1644915574402148864,2022-02-15-08:59:34,10.1.1.2,35,-0.060,-0.060,-0.060,0.000,0.000,0.000
1644915574441797888,2022-02-15-08:59:34,10.1.1.2,25,-0.070,-0.070,-0.070,0.000,0.000,0.000
1644915574502424064,2022-02-15-08:59:34,10.1.1.2,34,-0.080,-0.080,-0.080,0.000,0.000,0.000
1644915574681304832,2022-02-15-08:59:34,10.1.1.2,8,-0.080,-0.080,-0.080,0.000,0.000,0.000
1644915574761082880,2022-02-15-08:59:34,10.1.1.2,37,-0.070,-0.070,-0.070,0.000,0.000,0.000
1644915574801732096,2022-02-15-08:59:34,10.1.1.2,26,-0.060,-0.060,-0.060,0.000,0.000,0.000
1644915574861952000,2022-02-15-08:59:34,10.1.1.2,35,-0.050,-0.050,-0.050,0.000,0.000,0.000
1644915575061556224,2022-02-15-08:59:35,10.1.1.2,29,-0.010,-0.010,-0.010,0.000,0.000,0.000
1644915575122466048,2022-02-15-08:59:35,10.1.1.2,39,0.000,0.000,0.000,0.000,0.000,0.000
1644915575161753856,2022-02-15-08:59:35,10.1.1.2,28,0.010,0.010,0.010,0.000,0.000,0.000
1644915575235536128,2022-02-15-08:59:35,10.1.1.2,35,0.020,0.020,0.020,0.000,0.000,0.000
1644915575385541888,2022-02-15-08:59:35,10.1.1.2,26,0.050,0.050,0.050,0.000,0.000,0.000
1644915575440964096,2022-02-15-08:59:35,10.1.1.2,35,0.060,0.060,0.060,0.000,0.000,0.000
1644915575481532928,2022-02-15-08:59:35,10.1.1.2,24,0.070,0.070,0.070,0.000,0.000,0.000
1644915575558288128,2022-02-15-08:59:35,10.1.1.2,34,0.080,0.080,0.080,0.000,0.000,0.000
1644915575603034112,2022-02-15-08:59:35,10.1.1.2,39,0.090,0.090,0.090,0.000,0.000,0.000
1644915575642096896,2022-02-15-08:59:35,10.1.1.2,28,0.100,0.100,0.100,0.000,0.000,0.000
1644915575703630080,2022-02-15-08:59:35,10.1.1.2,34,0.090,0.090,0.090,0.000,0.000,0.000
1644915575801760000,2022-02-15-08:59:35,10.1.1.2,29,0.070,0.070,0.070,0.000,0.000,0.000
1644915575862862080,2022-02-15-08:59:35,10.1.1.2,38,0.060,0.060,0.060,0.000,0.000,0.000
1644915575903076864,2022-02-15-08:59:35,10.1.1.2,27,0.050,0.050,0.050,0.000,0.000,0.000
1644915575962508032,2022-02-15-08:59:35,10.1.1.2,35,0.040,0.040,0.040,0.000,0.000,0.000
1644915576262770944,2022-02-15-08:59:36,10.1.1.2,29,-0.020,-0.020,-0.020,0.000,0.000,0.000
1644915576322109952,2022-02-15-08:59:36,10.1.1.2,38,-0.030,-0.030,-0.030,0.000,0.000,0.000
1644915576361433856,2022-02-15-08:59:36,10.1.1.2,28,-0.040,-0.040,-0.040,0.000,0.000,0.000
1644915576421792000,2022-02-15-08:59:36,10.1.1.2,35,-0.050,-0.050,-0.050,0.000,0.000,0.000
1644915576462141952,2022-02-15-08:59:36,10.1.1.2,24,-0.060,-0.060,-0.060,0.000,0.000,0.000
1644915576721550080,2022-02-15-08:59:36,10.1.1.2,29,-0.090,-0.090,-0.090,0.000,0.000,0.000
1644915576781661952,2022-02-15-08:59:36,10.1.1.2,37,-0.080,-0.080,-0.080,0.000,0.000,0.000
1644915576821923072,2022-02-15-08:59:36,10.1.1.2,26,-0.070,-0.070,-0.070,0.000,0.000,0.000
1644915576881280000,2022-02-15-08:59:36,10.1.1.2,36,-0.060,-0.060,-0.060,0.000,0.000,0.000
1644915576921266176,2022-02-15-08:59:36,10.1.1.2,24,-0.050,-0.050,-0.050,0.000,0.000,0.000
1644915577122962944,2022-02-15-08:59:37,10.1.1.2,20,-0.010,-0.010,-0.010,0.000,0.000,0.000
1644915577181509888,2022-02-15-08:59:37,10.1.1.2,29,0.000,0.000,0.000,0.000,0.000,0.000
1644915577241949184,2022-02-15-08:59:37,10.1.1.2,38,0.010,0.010,0.010,0.000,0.000,0.000
1644915577281368064,2022-02-15-08:59:37,10.1.1.2,27,0.020,0.020,0.020,0.000,0.000,0.000
1644915577342022912,2022-02-15-08:59:37,10.1.1.2,37,0.030,0.030,0.030,0.000,0.000,0.000
1644915577382777856,2022-02-15-08:59:37,10.1.1.2,26,0.040,0.040,0.040,0.000,0.000,0.000
1644915577442266880,2022-02-15-08:59:37,10.1.1.2,35,0.050,0.050,0.050,0.000,0.000,0.000
1644915577483465984,2022-02-15-08:59:37,10.1.1.2,23,0.060,0.060,0.060,0.000,0.000,0.000
1644915577744250112,2022-02-15-08:59:37,10.1.1.2,28,0.090,0.090,0.090,0.000,0.000,0.000
1644915577802712064,2022-02-15-08:59:37,10.1.1.2,38,0.080,0.080,0.080,0.000,0.000,0.000
1644915577843543040,2022-02-15-08:59:37,10.1.1.2,27,0.070,0.070,0.070,0.000,0.000,0.000
1644915577903225856,2022-02-15-08:59:37,10.1.1.2,36,0.060,0.060,0.060,0.000,0.000,0.000
1644915578021542912,2022-02-15-08:59:38,10.1.1.2,34,0.040,0.040,0.040,0.000,0.000,0.000
1644915578062042112,2022-02-15-08:59:38,10.1.1.2,23,0.030,0.030,0.030,0.000,0.000,0.000
1644915578281485056,2022-02-15-08:59:38,10.1.1.2,39,-0.010,-0.010,-0.010,0.000,0.000,0.000
1644915578322231040,2022-02-15-08:59:38,10.1.1.2,28,-0.020,-0.020,-0.020,0.000,0.000,0.000
1644915578382044160,2022-02-15-08:59:38,10.1.1.2,37,-0.030,-0.030,-0.030,0.000,0.000,0.000
1644915578422331136,2022-02-15-08:59:38,10.1.1.2,25,-0.040,-0.040,-0.040,0.000,0.000,0.000
1644915578481987840,2022-02-15-08:59:38,10.1.1.2,34,-0.050,-0.050,-0.050,0.000,0.000,0.000
1644915578622049024,2022-02-15-08:59:38,10.1.1.2,19,-0.080,-0.080,-0.080,0.000,0.000,0.000
1644915578684910080,2022-02-15-08:59:38,10.1.1.2,28,-0.090,-0.090,-0.090,0.000,0.000,0.000
1644915578742216960,2022-02-15-08:59:38,10.1.1.2,36,-0.100,-0.100,-0.100,0.000,0.000,0.000
1644915578841952000,2022-02-15-08:59:38,10.1.1.2,26,-0.080,-0.080,-0.080,0.000,0.000,0.000
1644915578902349824,2022-02-15-08:59:38,10.1.1.2,36,-0.070,-0.070,-0.070,0.000,0.000,0.000
1644915578942481152,2022-02-15-08:59:38,10.1.1.2,25,-0.060,-0.060,-0.060,0.000,0.000,0.000
1644915579302999040,2022-02-15-08:59:39,10.1.1.2,39,0.000,0.000,0.000,0.000,0.000,0.000
1644915579343105024,2022-02-15-08:59:39,10.1.1.2,28,0.010,0.010,0.010,0.000,0.000,0.000
1644915579402256128,2022-02-15-08:59:39,10.1.1.2,37,0.020,0.020,0.020,0.000,0.000,0.000
1644915579442926848,2022-02-15-08:59:39,10.1.1.2,26,0.030,0.030,0.030,0.000,0.000,0.000
1644915579502733056,2022-02-15-08:59:39,10.1.1.2,35,0.040,0.040,0.040,0.000,0.000,0.000
1644915579823174912,2022-02-15-08:59:39,10.1.1.2,38,0.100,0.100,0.100,0.000,0.000,0.000
1644915579862610944,2022-02-15-08:59:39,10.1.1.2,27,0.090,0.090,0.090,0.000,0.000,0.000
1644915579922333952,2022-02-15-08:59:39,10.1.1.2,35,0.080,0.080,0.080,0.000,0.000,0.000
1644915579961637888,2022-02-15-08:59:39,10.1.1.2,23,0.070,0.070,0.070,0.000,0.000,0.000
1644915580181412096,2022-02-15-08:59:40,10.1.1.2,39,0.030,0.030,0.030,0.000,0.000,0.000
1644915580222204928,2022-02-15-08:59:40,10.1.1.2,28,0.020,0.020,0.020,0.000,0.000,0.000
1644915580281931008,2022-02-15-08:59:40,10.1.1.2,37,0.010,0.010,0.010,0.000,0.000,0.000
1644915580322451200,2022-02-15-08:59:40,10.1.1.2,27,0.000,0.000,0.000,0.000,0.000,0.000
1644915580381373952,2022-02-15-08:59:40,10.1.1.2,35,-0.010,-0.010,-0.010,0.000,0.000,0.000
1644915580421938944,2022-02-15-08:59:40,10.1.1.2,24,-0.020,-0.020,-0.020,0.000,0.000,0.000
1644915580641315072,2022-02-15-08:59:40,10.1.1.2,39,-0.060,-0.060,-0.060,0.000,0.000,0.000
1644915580681179136,2022-02-15-08:59:40,10.1.1.2,29,-0.070,-0.070,-0.070,0.000,0.000,0.000
1644915580743145984,2022-02-15-08:59:40,10.1.1.2,38,-0.080,-0.080,-0.080,0.000,0.000,0.000
1644915580781455104,2022-02-15-08:59:40,10.1.1.2,27,-0.090,-0.090,-0.090,0.000,0.000,0.000
1644915580843361024,2022-02-15-08:59:40,10.1.1.2,36,-0.100,-0.100,-0.100,0.000,0.000,0.000
1644915580941538048,2022-02-15-08:59:40,10.1.1.2,34,-0.080,-0.080,-0.080,0.000,0.000,0.000
1644915580981515776,2022-02-15-08:59:40,10.1.1.2,24,-0.070,-0.070,-0.070,0.000,0.000,0.000
1644915581341440000,2022-02-15-08:59:41,10.1.1.2,29,0.000,0.000,0.000,0.000,0.000,0.000
1644915581401801984,2022-02-15-08:59:41,10.1.1.2,39,0.010,0.010,0.010,0.000,0.000,0.000
1644915581441225984,2022-02-15-08:59:41,10.1.1.2,28,0.020,0.020,0.020,0.000,0.000,0.000
1644915581501543936,2022-02-15-08:59:41,10.1.1.2,37,0.030,0.030,0.030,0.000,0.000,0.000
1644915581541389824,2022-02-15-08:59:41,10.1.1.2,27,0.040,0.040,0.040,0.000,0.000,0.000
1644915581601479168,2022-02-15-08:59:41,10.1.1.2,37,0.050,0.050,0.050,0.000,0.000,0.000
1644915581641103872,2022-02-15-08:59:41,10.1.1.2,26,0.060,0.060,0.060,0.000,0.000,0.000
1644915581701134080,2022-02-15-08:59:41,10.1.1.2,36,0.070,0.070,0.070,0.000,0.000,0.000
1644915581741748992,2022-02-15-08:59:41,10.1.1.2,26,0.080,0.080,0.080,0.000,0.000,0.000
1644915581801233920,2022-02-15-08:59:41,10.1.1.2,35,0.090,0.090,0.090,0.000,0.000,0.000
1644915581841292032,2022-02-15-08:59:41,10.1.1.2,25,0.100,0.100,0.100,0.000,0.000,0.000
1644915581901102080,2022-02-15-08:59:41,10.1.1.2,34,0.090,0.090,0.090,0.000,0.000,0.000
1644915581942011136,2022-02-15-08:59:41,10.1.1.2,24,0.080,0.080,0.080,0.000,0.000,0.000
1644915582261942016,2022-02-15-08:59:42,10.1.1.2,39,0.020,0.020,0.020,0.000,0.000,0.000
1644915582301132800,2022-02-15-08:59:42,10.1.1.2,29,0.010,0.010,0.010,0.000,0.000,0.000
1644915582361805824,2022-02-15-08:59:42,10.1.1.2,34,0.000,0.000,0.000,0.000,0.000,0.000
1644915582401353984,2022-02-15-08:59:42,10.1.1.2,24,-0.010,-0.010,-0.010,0.000,0.000,0.000
1644915582541500928,2022-02-15-08:59:42,10.1.1.2,37,-0.030,-0.030,-0.030,0.000,0.000,0.000
1644915582581601024,2022-02-15-08:59:42,10.1.1.2,26,-0.040,-0.040,-0.040,0.000,0.000,0.000
1644915582641124096,2022-02-15-08:59:42,10.1.1.2,35,-0.050,-0.050,-0.050,0.000,0.000,0.000
1644915582681351936,2022-02-15-08:59:42,10.1.1.2,24,-0.060,-0.060,-0.060,0.000,0.000,0.000
1644915582741756928,2022-02-15-08:59:42,10.1.1.2,34,-0.070,-0.070,-0.070,0.000,0.000,0.000
1644915582801595904,2022-02-15-08:59:42,10.1.1.2,39,-0.080,-0.080,-0.080,0.000,0.000,0.000
1644915582841172992,2022-02-15-08:59:42,10.1.1.2,29,-0.090,-0.090,-0.090,0.000,0.000,0.000
1644915582901577984,2022-02-15-08:59:42,10.1.1.2,39,-0.100,-0.100,-0.100,0.000,0.000,0.000
1644915582941412864,2022-02-15-08:59:42,10.1.1.2,28,-0.090,-0.090,-0.090,0.000,0.000,0.000
1644915583001380864,2022-02-15-08:59:43,10.1.1.2,38,-0.080,-0.080,-0.080,0.000,0.000,0.000
1644915583041363968,2022-02-15-08:59:43,10.1.1.2,27,-0.070,-0.070,-0.070,0.000,0.000,0.000
1644915583101293056,2022-02-15-08:59:43,10.1.1.2,36,-0.060,-0.060,-0.060,0.000,0.000,0.000
1644915583141329152,2022-02-15-08:59:43,10.1.1.2,26,-0.050,-0.050,-0.050,0.000,0.000,0.000
1644915583201965056,2022-02-15-08:59:43,10.1.1.2,35,-0.040,-0.040,-0.040,0.000,0.000,0.000
1644915583241393152,2022-02-15-08:59:43,10.1.1.2,25,-0.030,-0.030,-0.030,0.000,0.000,0.000
1644915583441099776,2022-02-15-08:59:43,10.1.1.2,20,0.010,0.010,0.010,0.000,0.000,0.000
1644915583501553920,2022-02-15-08:59:43,10.1.1.2,29,0.020,0.020,0.020,0.000,0.000,0.000
1644915583560952064,2022-02-15-08:59:43,10.1.1.2,37,0.030,0.030,0.030,0.000,0.000,0.000
1644915583601017856,2022-02-15-08:59:43,10.1.1.2,27,0.040,0.040,0.040,0.000,0.000,0.000
1644915583660751104,2022-02-15-08:59:43,10.1.1.2,36,0.050,0.050,0.050,0.000,0.000,0.000
1644915583701071872,2022-02-15-08:59:43,10.1.1.2,25,0.060,0.060,0.060,0.000,0.000,0.000
1644915583761042944,2022-02-15-08:59:43,10.1.1.2,33,0.070,0.070,0.070,0.000,0.000,0.000
1644915584063728128,2022-02-15-08:59:44,10.1.1.2,8,0.070,0.070,0.070,0.000,0.000,0.000
1644915584181526784,2022-02-15-08:59:44,10.1.1.2,26,0.050,0.050,0.050,0.000,0.000,0.000
1644915584240769024,2022-02-15-08:59:44,10.1.1.2,36,0.040,0.040,0.040,0.000,0.000,0.000
1644915584281857024,2022-02-15-08:59:44,10.1.1.2,26,0.030,0.030,0.030,0.000,0.000,0.000
1644915584343194112,2022-02-15-08:59:44,10.1.1.2,35,0.020,0.020,0.020,0.000,0.000,0.000
1644915584381344000,2022-02-15-08:59:44,10.1.1.2,25,0.010,0.010,0.010,0.000,0.000,0.000
1644915584441512192,2022-02-15-08:59:44,10.1.1.2,34,0.000,0.000,0.000,0.000,0.000,0.000
1644915584803401984,2022-02-15-08:59:44,10.1.1.2,28,-0.070,-0.070,-0.070,0.000,0.000,0.000
1644915584861517056,2022-02-15-08:59:44,10.1.1.2,37,-0.080,-0.080,-0.080,0.000,0.000,0.000
1644915584901134848,2022-02-15-08:59:44,10.1.1.2,27,-0.090,-0.090,-0.090,0.000,0.000,0.000
1644915584961515776,2022-02-15-08:59:44,10.1.1.2,37,-0.100,-0.100,-0.100,0.000,0.000,0.000
1644915585001760000,2022-02-15-08:59:45,10.1.1.2,26,-0.090,-0.090,-0.090,0.000,0.000,0.000
1644915585062096128,2022-02-15-08:59:45,10.1.1.2,36,-0.080,-0.080,-0.080,0.000,0.000,0.000
1644915585101605888,2022-02-15-08:59:45,10.1.1.2,25,-0.070,-0.070,-0.070,0.000,0.000,0.000
1644915585162215936,2022-02-15-08:59:45,10.1.1.2,35,-0.060,-0.060,-0.060,0.000,0.000,0.000
1644915585202245120,2022-02-15-08:59:45,10.1.1.2,23,-0.050,-0.050,-0.050,0.000,0.000,0.000
1644915585523154944,2022-02-15-08:59:45,10.1.1.2,38,0.010,0.010,0.010,0.000,0.000,0.000
1644915585564099072,2022-02-15-08:59:45,10.1.1.2,27,0.020,0.020,0.020,0.000,0.000,0.000
1644915585682297088,2022-02-15-08:59:45,10.1.1.2,35,0.040,0.040,0.040,0.000,0.000,0.000
1644915585721143040,2022-02-15-08:59:45,10.1.1.2,24,0.050,0.050,0.050,0.000,0.000,0.000
1644915586181985024,2022-02-15-08:59:46,10.1.1.2,27,0.060,0.060,0.060,0.000,0.000,0.000
1644915586241880832,2022-02-15-08:59:46,10.1.1.2,36,0.050,0.050,0.050,0.000,0.000,0.000
1644915586281570816,2022-02-15-08:59:46,10.1.1.2,24,0.040,0.040,0.040,0.000,0.000,0.000
1644915586502330112,2022-02-15-08:59:46,10.1.1.2,39,0.000,0.000,0.000,0.000,0.000,0.000
1644915586541903872,2022-02-15-08:59:46,10.1.1.2,29,-0.010,-0.010,-0.010,0.000,0.000,0.000
1644915586602489856,2022-02-15-08:59:46,10.1.1.2,38,-0.020,-0.020,-0.020,0.000,0.000,0.000
1644915586641349120,2022-02-15-08:59:46,10.1.1.2,27,-0.030,-0.030,-0.030,0.000,0.000,0.000
1644915586701328896,2022-02-15-08:59:46,10.1.1.2,37,-0.040,-0.040,-0.040,0.000,0.000,0.000
1644915586744301056,2022-02-15-08:59:46,10.1.1.2,26,-0.050,-0.050,-0.050,0.000,0.000,0.000
1644915586803324928,2022-02-15-08:59:46,10.1.1.2,34,-0.060,-0.060,-0.060,0.000,0.000,0.000
1644915587063796992,2022-02-15-08:59:47,10.1.1.2,39,-0.090,-0.090,-0.090,0.000,0.000,0.000
1644915587102070016,2022-02-15-08:59:47,10.1.1.2,28,-0.080,-0.080,-0.080,0.000,0.000,0.000
1644915587162020864,2022-02-15-08:59:47,10.1.1.2,38,-0.070,-0.070,-0.070,0.000,0.000,0.000
1644915587204754176,2022-02-15-08:59:47,10.1.1.2,27,-0.060,-0.060,-0.060,0.000,0.000,0.000
1644915587263124992,2022-02-15-08:59:47,10.1.1.2,36,-0.050,-0.050,-0.050,0.000,0.000,0.000
1644915587303034112,2022-02-15-08:59:47,10.1.1.2,25,-0.040,-0.040,-0.040,0.000,0.000,0.000
1644915587422804224,2022-02-15-08:59:47,10.1.1.2,38,-0.020,-0.020,-0.020,0.000,0.000,0.000
1644915587463788032,2022-02-15-08:59:47,10.1.1.2,28,-0.010,-0.010,-0.010,0.000,0.000,0.000
1644915587523015936,2022-02-15-08:59:47,10.1.1.2,35,0.000,0.000,0.000,0.000,0.000,0.000
1644915587722394112,2022-02-15-08:59:47,10.1.1.2,28,0.040,0.040,0.040,0.000,0.000,0.000
1644915587783621120,2022-02-15-08:59:47,10.1.1.2,38,0.050,0.050,0.050,0.000,0.000,0.000
1644915587823848960,2022-02-15-08:59:47,10.1.1.2,27,0.060,0.060,0.060,0.000,0.000,0.000
1644915587882353920,2022-02-15-08:59:47,10.1.1.2,36,0.070,0.070,0.070,0.000,0.000,0.000
1644915588142228992,2022-02-15-08:59:48,10.1.1.2,38,0.080,0.080,0.080,0.000,0.000,0.000
1644915588182068992,2022-02-15-08:59:48,10.1.1.2,27,0.070,0.070,0.070,0.000,0.000,0.000
1644915588241734144,2022-02-15-08:59:48,10.1.1.2,36,0.060,0.060,0.060,0.000,0.000,0.000
1644915588286087936,2022-02-15-08:59:48,10.1.1.2,26,0.050,0.050,0.050,0.000,0.000,0.000
1644915588341993216,2022-02-15-08:59:48,10.1.1.2,35,0.040,0.040,0.040,0.000,0.000,0.000
1644915588382400000,2022-02-15-08:59:48,10.1.1.2,24,0.030,0.030,0.030,0.000,0.000,0.000
1644915588604030976,2022-02-15-08:59:48,10.1.1.2,38,-0.010,-0.010,-0.010,0.000,0.000,0.000
1644915588641434880,2022-02-15-08:59:48,10.1.1.2,27,-0.020,-0.020,-0.020,0.000,0.000,0.000
1644915588701241856,2022-02-15-08:59:48,10.1.1.2,36,-0.030,-0.030,-0.030,0.000,0.000,0.000
1644915588743676928,2022-02-15-08:59:48,10.1.1.2,26,-0.040,-0.040,-0.040,0.000,0.000,0.000
1644915588902451968,2022-02-15-08:59:48,10.1.1.2,28,-0.070,-0.070,-0.070,0.000,0.000,0.000
1644915588962050048,2022-02-15-08:59:48,10.1.1.2,35,-0.080,-0.080,-0.080,0.000,0.000,0.000
1644915589001884928,2022-02-15-08:59:49,10.1.1.2,23,-0.090,-0.090,-0.090,0.000,0.000,0.000
1644915589082596096,2022-02-15-08:59:49,10.1.1.2,1,-0.090,-0.090,-0.090,0.000,0.000,0.000
1644915589162132992,2022-02-15-08:59:49,10.1.1.2,29,-0.080,-0.080,-0.080,0.000,0.000,0.000
1644915589281636096,2022-02-15-08:59:49,10.1.1.2,38,-0.060,-0.060,-0.060,0.000,0.000,0.000
1644915589321520128,2022-02-15-08:59:49,10.1.1.2,27,-0.050,-0.050,-0.050,0.000,0.000,0.000
1644915589383100928,2022-02-15-08:59:49,10.1.1.2,35,-0.040,-0.040,-0.040,0.000,0.000,0.000
1644915589423764992,2022-02-15-08:59:49,10.1.1.2,23,-0.030,-0.030,-0.030,0.000,0.000,0.000
1644915589541282816,2022-02-15-08:59:49,10.1.1.2,28,-0.010,-0.010,-0.010,0.000,0.000,0.000
1644915589602211840,2022-02-15-08:59:49,10.1.1.2,37,0.000,0.000,0.000,0.000,0.000,0.000
1644915589641160960,2022-02-15-08:59:49,10.1.1.2,26,0.010,0.010,0.010,0.000,0.000,0.000
1644915589701917952,2022-02-15-08:59:49,10.1.1.2,34,0.020,0.020,0.020,0.000,0.000,0.000
1644915589741995008,2022-02-15-08:59:49,10.1.1.2,24,0.030,0.030,0.030,0.000,0.000,0.000
1644915589801744896,2022-02-15-08:59:49,10.1.1.2,33,0.040,0.040,0.040,0.000,0.000,0.000
1644915589961168896,2022-02-15-08:59:49,10.1.1.2,35,0.070,0.070,0.070,0.000,0.000,0.000
1644915590243598080,2022-02-15-08:59:50,10.1.1.2,35,0.080,0.080,0.080,0.000,0.000,0.000
1644915590281587968,2022-02-15-08:59:50,10.1.1.2,28,0.070,0.070,0.070,0.000,0.000,0.000
1644915590341713920,2022-02-15-08:59:50,10.1.1.2,37,0.060,0.060,0.060,0.000,0.000,0.000
1644915590381321984,2022-02-15-08:59:50,10.1.1.2,26,0.050,0.050,0.050,0.000,0.000,0.000
1644915590442611968,2022-02-15-08:59:50,10.1.1.2,36,0.040,0.040,0.040,0.000,0.000,0.000
1644915590482224896,2022-02-15-08:59:50,10.1.1.2,25,0.030,0.030,0.030,0.000,0.000,0.000
1644915590542556928,2022-02-15-08:59:50,10.1.1.2,34,0.020,0.020,0.020,0.000,0.000,0.000
1644915590581833984,2022-02-15-08:59:50,10.1.1.2,23,0.010,0.010,0.010,0.000,0.000,0.000
1644915590743056128,2022-02-15-08:59:50,10.1.1.2,29,-0.020,-0.020,-0.020,0.000,0.000,0.000
1644915590801606912,2022-02-15-08:59:50,10.1.1.2,37,-0.030,-0.030,-0.030,0.000,0.000,0.000
1644915590842752000,2022-02-15-08:59:50,10.1.1.2,26,-0.040,-0.040,-0.040,0.000,0.000,0.000
1644915590902443008,2022-02-15-08:59:50,10.1.1.2,34,-0.050,-0.050,-0.050,0.000,0.000,0.000
1644915590941708032,2022-02-15-08:59:50,10.1.1.2,23,-0.060,-0.060,-0.060,0.000,0.000,0.000
1644915591003435008,2022-02-15-08:59:51,10.1.1.2,27,-0.070,-0.070,-0.070,0.000,0.000,0.000
1644915591061410048,2022-02-15-08:59:51,10.1.1.2,26,-0.080,-0.080,-0.080,0.000,0.000,0.000
1644915591122590976,2022-02-15-08:59:51,10.1.1.2,35,-0.090,-0.090,-0.090,0.000,0.000,0.000
1644915591162590976,2022-02-15-08:59:51,10.1.1.2,25,-0.100,-0.100,-0.100,0.000,0.000,0.000
1644915591281698048,2022-02-15-08:59:51,10.1.1.2,38,-0.080,-0.080,-0.080,0.000,0.000,0.000
1644915591323941120,2022-02-15-08:59:51,10.1.1.2,25,-0.070,-0.070,-0.070,0.000,0.000,0.000
1644915591381582080,2022-02-15-08:59:51,10.1.1.2,34,-0.060,-0.060,-0.060,0.000,0.000,0.000
1644915591422791936,2022-02-15-08:59:51,10.1.1.2,23,-0.050,-0.050,-0.050,0.000,0.000,0.000
1644915591541917184,2022-02-15-08:59:51,10.1.1.2,38,-0.030,-0.030,-0.030,0.000,0.000,0.000
1644915591581214976,2022-02-15-08:59:51,10.1.1.2,27,-0.020,-0.020,-0.020,0.000,0.000,0.000
1644915591641860864,2022-02-15-08:59:51,10.1.1.2,36,-0.010,-0.010,-0.010,0.000,0.000,0.000
1644915591681776896,2022-02-15-08:59:51,10.1.1.2,26,0.000,0.000,0.000,0.000,0.000,0.000
1644915591743057920,2022-02-15-08:59:51,10.1.1.2,35,0.010,0.010,0.010,0.000,0.000,0.000
1644915591781908992,2022-02-15-08:59:51,10.1.1.2,24,0.020,0.020,0.020,0.000,0.000,0.000
1644915592042681088,2022-02-15-08:59:52,10.1.1.2,28,0.070,0.070,0.070,0.000,0.000,0.000
1644915592101253888,2022-02-15-08:59:52,10.1.1.2,35,0.080,0.080,0.080,0.000,0.000,0.000
1644915592143601920,2022-02-15-08:59:52,10.1.1.2,25,0.090,0.090,0.090,0.000,0.000,0.000
1644915592201551872,2022-02-15-08:59:52,10.1.1.2,29,0.100,0.100,0.100,0.000,0.000,0.000
1644915592262270976,2022-02-15-08:59:52,10.1.1.2,38,0.090,0.090,0.090,0.000,0.000,0.000
1644915592363496192,2022-02-15-08:59:52,10.1.1.2,28,0.070,0.070,0.070,0.000,0.000,0.000
1644915592422240000,2022-02-15-08:59:52,10.1.1.2,38,0.060,0.060,0.060,0.000,0.000,0.000
1644915592461975040,2022-02-15-08:59:52,10.1.1.2,27,0.050,0.050,0.050,0.000,0.000,0.000
1644915592682701056,2022-02-15-08:59:52,10.1.1.2,39,0.010,0.010,0.010,0.000,0.000,0.000
1644915592722619904,2022-02-15-08:59:52,10.1.1.2,28,0.000,0.000,0.000,0.000,0.000,0.000
1644915592782639872,2022-02-15-08:59:52,10.1.1.2,38,-0.010,-0.010,-0.010,0.000,0.000,0.000
1644915592842874880,2022-02-15-08:59:52,10.1.1.2,37,-0.020,-0.020,-0.020,0.000,0.000,0.000
1644915592882226944,2022-02-15-08:59:52,10.1.1.2,23,-0.030,-0.030,-0.030,0.000,0.000,0.000
1644915592944899072,2022-02-15-08:59:52,10.1.1.2,28,-0.040,-0.040,-0.040,0.000,0.000,0.000
1644915593002337024,2022-02-15-08:59:53,10.1.1.2,38,-0.050,-0.050,-0.050,0.000,0.000,0.000
1644915593042241024,2022-02-15-08:59:53,10.1.1.2,27,-0.060,-0.060,-0.060,0.000,0.000,0.000
1644915593102641152,2022-02-15-08:59:53,10.1.1.2,36,-0.070,-0.070,-0.070,0.000,0.000,0.000
1644915593142618880,2022-02-15-08:59:53,10.1.1.2,25,-0.080,-0.080,-0.080,0.000,0.000,0.000
1644915593201641984,2022-02-15-08:59:53,10.1.1.2,34,-0.090,-0.090,-0.090,0.000,0.000,0.000
1644915593282756096,2022-02-15-08:59:53,10.1.1.2,12,-0.090,-0.090,-0.090,0.000,0.000,0.000
1644915593403203840,2022-02-15-08:59:53,10.1.1.2,29,-0.070,-0.070,-0.070,0.000,0.000,0.000
1644915593464306944,2022-02-15-08:59:53,10.1.1.2,38,-0.060,-0.060,-0.060,0.000,0.000,0.000
1644915593561500928,2022-02-15-08:59:53,10.1.1.2,27,-0.040,-0.040,-0.040,0.000,0.000,0.000
1644915593622854912,2022-02-15-08:59:53,10.1.1.2,36,-0.030,-0.030,-0.030,0.000,0.000,0.000
1644915593661370880,2022-02-15-08:59:53,10.1.1.2,24,-0.020,-0.020,-0.020,0.000,0.000,0.000
1644915593823683072,2022-02-15-08:59:53,10.1.1.2,28,0.010,0.010,0.010,0.000,0.000,0.000
1644915593887609088,2022-02-15-08:59:53,10.1.1.2,37,0.020,0.020,0.020,0.000,0.000,0.000
1644915594001886976,2022-02-15-08:59:54,10.1.1.2,34,0.040,0.040,0.040,0.000,0.000,0.000
1644915594041425920,2022-02-15-08:59:54,10.1.1.2,23,0.050,0.050,0.050,0.000,0.000,0.000
1644915594201618944,2022-02-15-08:59:54,10.1.1.2,28,0.080,0.080,0.080,0.000,0.000,0.000
1644915594341960960,2022-02-15-08:59:54,10.1.1.2,16,0.090,0.090,0.090,0.000,0.000,0.000
1644915594401640960,2022-02-15-08:59:54,10.1.1.2,24,0.080,0.080,0.080,0.000,0.000,0.000
1644915594563718912,2022-02-15-08:59:54,10.1.1.2,28,0.050,0.050,0.050,0.000,0.000,0.000
1644915594625491968,2022-02-15-08:59:54,10.1.1.2,37,0.040,0.040,0.040,0.000,0.000,0.000
1644915594806637056,2022-02-15-08:59:54,10.1.1.2,39,0.010,0.010,0.010,0.000,0.000,0.000
1644915595001665024,2022-02-15-08:59:55,10.1.1.2,39,-0.030,-0.030,-0.030,0.000,0.000,0.000
1644915595042387968,2022-02-15-08:59:55,10.1.1.2,28,-0.040,-0.040,-0.040,0.000,0.000,0.000
1644915595101303040,2022-02-15-08:59:55,10.1.1.2,38,-0.050,-0.050,-0.050,0.000,0.000,0.000
1644915595141597952,2022-02-15-08:59:55,10.1.1.2,27,-0.060,-0.060,-0.060,0.000,0.000,0.000
1644915595201730048,2022-02-15-08:59:55,10.1.1.2,37,-0.070,-0.070,-0.070,0.000,0.000,0.000
1644915595241942784,2022-02-15-08:59:55,10.1.1.2,26,-0.080,-0.080,-0.080,0.000,0.000,0.000
1644915595301274112,2022-02-15-08:59:55,10.1.1.2,36,-0.090,-0.090,-0.090,0.000,0.000,0.000
1644915595342108928,2022-02-15-08:59:55,10.1.1.2,26,-0.100,-0.100,-0.100,0.000,0.000,0.000
1644915595402002944,2022-02-15-08:59:55,10.1.1.2,35,-0.090,-0.090,-0.090,0.000,0.000,0.000
1644915595441634048,2022-02-15-08:59:55,10.1.1.2,25,-0.080,-0.080,-0.080,0.000,0.000,0.000
1644915595501372928,2022-02-15-08:59:55,10.1.1.2,34,-0.070,-0.070,-0.070,0.000,0.000,0.000
1644915595661463040,2022-02-15-08:59:55,10.1.1.2,39,-0.040,-0.040,-0.040,0.000,0.000,0.000
1644915595710621184,2022-02-15-08:59:55,10.1.1.2,28,-0.030,-0.030,-0.030,0.000,0.000,0.000
1644915595763660032,2022-02-15-08:59:55,10.1.1.2,37,-0.020,-0.020,-0.020,0.000,0.000,0.000
1644915595801920768,2022-02-15-08:59:55,10.1.1.2,26,-0.010,-0.010,-0.010,0.000,0.000,0.000
1644915595861517824,2022-02-15-08:59:55,10.1.1.2,36,0.000,0.000,0.000,0.000,0.000,0.000
1644915595901888000,2022-02-15-08:59:55,10.1.1.2,23,0.010,0.010,0.010,0.000,0.000,0.000
1644915595961029120,2022-02-15-08:59:55,10.1.1.2,33,0.020,0.020,0.020,0.000,0.000,0.000
1644915596362155008,2022-02-15-08:59:56,10.1.1.2,29,0.100,0.100,0.100,0.000,0.000,0.000
1644915596431049984,2022-02-15-08:59:56,10.1.1.2,38,0.090,0.090,0.090,0.000,0.000,0.000
1644915596641206016,2022-02-15-08:59:56,10.1.1.2,39,0.050,0.050,0.050,0.000,0.000,0.000
1644915596681723136,2022-02-15-08:59:56,10.1.1.2,28,0.040,0.040,0.040,0.000,0.000,0.000
1644915596741967872,2022-02-15-08:59:56,10.1.1.2,38,0.030,0.030,0.030,0.000,0.000,0.000
1644915596781696000,2022-02-15-08:59:56,10.1.1.2,27,0.020,0.020,0.020,0.000,0.000,0.000
1644915596841809152,2022-02-15-08:59:56,10.1.1.2,37,0.010,0.010,0.010,0.000,0.000,0.000
1644915596881617920,2022-02-15-08:59:56,10.1.1.2,25,0.000,0.000,0.000,0.000,0.000,0.000
1644915596942384128,2022-02-15-08:59:56,10.1.1.2,34,-0.010,-0.010,-0.010,0.000,0.000,0.000
1644915596981605888,2022-02-15-08:59:56,10.1.1.2,24,-0.020,-0.020,-0.020,0.000,0.000,0.000
1644915597361679104,2022-02-15-08:59:57,10.1.1.2,28,-0.090,-0.090,-0.090,0.000,0.000,0.000
1644915597422672896,2022-02-15-08:59:57,10.1.1.2,37,-0.100,-0.100,-0.100,0.000,0.000,0.000
1644915597463527936,2022-02-15-08:59:57,10.1.1.2,27,-0.090,-0.090,-0.090,0.000,0.000,0.000
1644915597621840128,2022-02-15-08:59:57,10.1.1.2,27,-0.060,-0.060,-0.060,0.000,0.000,0.000
1644915597681585920,2022-02-15-08:59:57,10.1.1.2,37,-0.050,-0.050,-0.050,0.000,0.000,0.000
1644915597721242880,2022-02-15-08:59:57,10.1.1.2,25,-0.040,-0.040,-0.040,0.000,0.000,0.000
1644915597782560000,2022-02-15-08:59:57,10.1.1.2,35,-0.030,-0.030,-0.030,0.000,0.000,0.000
1644915597822646016,2022-02-15-08:59:57,10.1.1.2,25,-0.020,-0.020,-0.020,0.000,0.000,0.000
1644915597881520896,2022-02-15-08:59:57,10.1.1.2,34,-0.010,-0.010,-0.010,0.000,0.000,0.000
1644915597921547776,2022-02-15-08:59:57,10.1.1.2,23,0.000,0.000,0.000,0.000,0.000,0.000
1644915598242711040,2022-02-15-08:59:58,10.1.1.2,39,0.060,0.060,0.060,0.000,0.000,0.000
1644915598282441984,2022-02-15-08:59:58,10.1.1.2,29,0.070,0.070,0.070,0.000,0.000,0.000
1644915598342927104,2022-02-15-08:59:58,10.1.1.2,38,0.080,0.080,0.080,0.000,0.000,0.000
1644915598382843136,2022-02-15-08:59:58,10.1.1.2,26,0.090,0.090,0.090,0.000,0.000,0.000
1644915598443116800,2022-02-15-08:59:58,10.1.1.2,34,0.100,0.100,0.100,0.000,0.000,0.000
1644915598742779904,2022-02-15-08:59:58,10.1.1.2,29,0.040,0.040,0.040,0.000,0.000,0.000
1644915598802603008,2022-02-15-08:59:58,10.1.1.2,38,0.030,0.030,0.030,0.000,0.000,0.000
1644915598843136000,2022-02-15-08:59:58,10.1.1.2,28,0.020,0.020,0.020,0.000,0.000,0.000
1644915598902970112,2022-02-15-08:59:58,10.1.1.2,37,0.010,0.010,0.010,0.000,0.000,0.000
1644915598943418880,2022-02-15-08:59:58,10.1.1.2,26,0.000,0.000,0.000,0.000,0.000,0.000
1644915599003390976,2022-02-15-08:59:59,10.1.1.2,36,-0.010,-0.010,-0.010,0.000,0.000,0.000
1644915599042562048,2022-02-15-08:59:59,10.1.1.2,25,-0.020,-0.020,-0.020,0.000,0.000,0.000
1644915599103833088,2022-02-15-08:59:59,10.1.1.2,34,-0.030,-0.030,-0.030,0.000,0.000,0.000
1644915599403019008,2022-02-15-08:59:59,10.1.1.2,27,-0.090,-0.090,-0.090,0.000,0.000,0.000
1644915599462692096,2022-02-15-08:59:59,10.1.1.2,35,-0.100,-0.100,-0.100,0.000,0.000,0.000
1644915599623544064,2022-02-15-08:59:59,10.1.1.2,36,-0.070,-0.070,-0.070,0.000,0.000,0.000
1644915599683321856,2022-02-15-08:59:59,10.1.1.2,39,-0.060,-0.060,-0.060,0.000,0.000,0.000
1644915599723355904,2022-02-15-08:59:59,10.1.1.2,26,-0.050,-0.050,-0.050,0.000,0.000,0.000
1644915599783945984,2022-02-15-08:59:59,10.1.1.2,34,-0.040,-0.040,-0.040,0.000,0.000,0.000
1644915599824570880,2022-02-15-08:59:59,10.1.1.2,23,-0.030,-0.030,-0.030,0.000,0.000,0.000
1644915599882904064,2022-02-15-08:59:59,10.1.1.2,26,-0.020,-0.020,-0.020,0.000,0.000,0.000
1644915600162141952,2022-02-15-09:00:00,10.1.1.2,39,0.030,0.030,0.030,0.000,0.000,0.000
1644915600201352960,2022-02-15-09:00:00,10.1.1.2,28,0.040,0.040,0.040,0.000,0.000,0.000
1644915600261828864,2022-02-15-09:00:00,10.1.1.2,38,0.050,0.050,0.050,0.000,0.000,0.000
1644915600301835008,2022-02-15-09:00:00,10.1.1.2,28,0.060,0.060,0.060,0.000,0.000,0.000
1644915600363156992,2022-02-15-09:00:00,10.1.1.2,36,0.070,0.070,0.070,0.000,0.000,0.000
1644915600402368000,2022-02-15-09:00:00,10.1.1.2,25,0.080,0.080,0.080,0.000,0.000,0.000
1644915600583575040,2022-02-15-09:00:00,10.1.1.2,2,0.080,0.080,0.080,0.000,0.000,0.000
1644915600821330944,2022-02-15-09:00:00,10.1.1.2,39,0.040,0.040,0.040,0.000,0.000,0.000
1644915600862576896,2022-02-15-09:00:00,10.1.1.2,29,0.030,0.030,0.030,0.000,0.000,0.000
1644915600921860096,2022-02-15-09:00:00,10.1.1.2,39,0.020,0.020,0.020,0.000,0.000,0.000
1644915600962182144,2022-02-15-09:00:00,10.1.1.2,28,0.010,0.010,0.010,0.000,0.000,0.000
1644915601021837056,2022-02-15-09:00:01,10.1.1.2,37,0.000,0.000,0.000,0.000,0.000,0.000
1644915601061736960,2022-02-15-09:00:01,10.1.1.2,27,-0.010,-0.010,-0.010,0.000,0.000,0.000
1644915601122031872,2022-02-15-09:00:01,10.1.1.2,35,-0.020,-0.020,-0.020,0.000,0.000,0.000
1644915601302620928,2022-02-15-09:00:01,10.1.1.2,37,-0.050,-0.050,-0.050,0.000,0.000,0.000
1644915601342799872,2022-02-15-09:00:01,10.1.1.2,26,-0.060,-0.060,-0.060,0.000,0.000,0.000
1644915601402707968,2022-02-15-09:00:01,10.1.1.2,36,-0.070,-0.070,-0.070,0.000,0.000,0.000
1644915601501932032,2022-02-15-09:00:01,10.1.1.2,25,-0.090,-0.090,-0.090,0.000,0.000,0.000
1644915601561175040,2022-02-15-09:00:01,10.1.1.2,33,-0.100,-0.100,-0.100,0.000,0.000,0.000
1644915601681613824,2022-02-15-09:00:01,10.1.1.2,35,-0.080,-0.080,-0.080,0.000,0.000,0.000
1644915601721949184,2022-02-15-09:00:01,10.1.1.2,25,-0.070,-0.070,-0.070,0.000,0.000,0.000
1644915601781728000,2022-02-15-09:00:01,10.1.1.2,35,-0.060,-0.060,-0.060,0.000,0.000,0.000
1644915601822088960,2022-02-15-09:00:01,10.1.1.2,24,-0.050,-0.050,-0.050,0.000,0.000,0.000
1644915602242106880,2022-02-15-09:00:02,10.1.1.2,39,0.030,0.030,0.030,0.000,0.000,0.000
1644915602281476864,2022-02-15-09:00:02,10.1.1.2,29,0.040,0.040,0.040,0.000,0.000,0.000
1644915602342048000,2022-02-15-09:00:02,10.1.1.2,39,0.050,0.050,0.050,0.000,0.000,0.000
1644915602382049024,2022-02-15-09:00:02,10.1.1.2,28,0.060,0.060,0.060,0.000,0.000,0.000
1644915602442831104,2022-02-15-09:00:02,10.1.1.2,37,0.070,0.070,0.070,0.000,0.000,0.000
1644915602482466816,2022-02-15-09:00:02,10.1.1.2,25,0.080,0.080,0.080,0.000,0.000,0.000
1644915602541851136,2022-02-15-09:00:02,10.1.1.2,34,0.090,0.090,0.090,0.000,0.000,0.000
1644915602581702912,2022-02-15-09:00:02,10.1.1.2,23,0.100,0.100,0.100,0.000,0.000,0.000
1644915602841540096,2022-02-15-09:00:02,10.1.1.2,29,0.050,0.050,0.050,0.000,0.000,0.000
1644915602902076928,2022-02-15-09:00:02,10.1.1.2,37,0.040,0.040,0.040,0.000,0.000,0.000
1644915602942283008,2022-02-15-09:00:02,10.1.1.2,26,0.030,0.030,0.030,0.000,0.000,0.000
1644915603002182912,2022-02-15-09:00:03,10.1.1.2,35,0.020,0.020,0.020,0.000,0.000,0.000
1644915603042279936,2022-02-15-09:00:03,10.1.1.2,24,0.010,0.010,0.010,0.000,0.000,0.000
1644915603302996992,2022-02-15-09:00:03,10.1.1.2,28,-0.040,-0.040,-0.040,0.000,0.000,0.000
1644915603362787840,2022-02-15-09:00:03,10.1.1.2,37,-0.050,-0.050,-0.050,0.000,0.000,0.000
1644915603403286016,2022-02-15-09:00:03,10.1.1.2,27,-0.060,-0.060,-0.060,0.000,0.000,0.000
1644915603461906944,2022-02-15-09:00:03,10.1.1.2,36,-0.070,-0.070,-0.070,0.000,0.000,0.000
1644915603502265088,2022-02-15-09:00:03,10.1.1.2,25,-0.080,-0.080,-0.080,0.000,0.000,0.000
1644915603563736832,2022-02-15-09:00:03,10.1.1.2,34,-0.090,-0.090,-0.090,0.000,0.000,0.000
1644915603661633024,2022-02-15-09:00:03,10.1.1.2,11,-0.090,-0.090,-0.090,0.000,0.000,0.000
1644915603841232896,2022-02-15-09:00:03,10.1.1.2,39,-0.060,-0.060,-0.060,0.000,0.000,0.000
1644915603882339840,2022-02-15-09:00:03,10.1.1.2,29,-0.050,-0.050,-0.050,0.000,0.000,0.000
1644915603941814784,2022-02-15-09:00:03,10.1.1.2,38,-0.040,-0.040,-0.040,0.000,0.000,0.000
1644915603981817088,2022-02-15-09:00:03,10.1.1.2,27,-0.030,-0.030,-0.030,0.000,0.000,0.000
1644915604041799936,2022-02-15-09:00:04,10.1.1.2,36,-0.020,-0.020,-0.020,0.000,0.000,0.000
1644915604081249024,2022-02-15-09:00:04,10.1.1.2,26,-0.010,-0.010,-0.010,0.000,0.000,0.000
1644915604141551104,2022-02-15-09:00:04,10.1.1.2,35,0.000,0.000,0.000,0.000,0.000,0.000
1644915604182149888,2022-02-15-09:00:04,10.1.1.2,25,0.010,0.010,0.010,0.000,0.000,0.000
1644915604241644032,2022-02-15-09:00:04,10.1.1.2,34,0.020,0.020,0.020,0.000,0.000,0.000
1644915604281570048,2022-02-15-09:00:04,10.1.1.2,24,0.030,0.030,0.030,0.000,0.000,0.000
1644915604342242048,2022-02-15-09:00:04,10.1.1.2,33,0.040,0.040,0.040,0.000,0.000,0.000
1644915604481496064,2022-02-15-09:00:04,10.1.1.2,19,0.070,0.070,0.070,0.000,0.000,0.000
1644915604541718016,2022-02-15-09:00:04,10.1.1.2,29,0.080,0.080,0.080,0.000,0.000,0.000
1644915604602305792,2022-02-15-09:00:04,10.1.1.2,38,0.090,0.090,0.090,0.000,0.000,0.000
1644915604641541120,2022-02-15-09:00:04,10.1.1.2,28,0.100,0.100,0.100,0.000,0.000,0.000
1644915604701235968,2022-02-15-09:00:04,10.1.1.2,38,0.090,0.090,0.090,0.000,0.000,0.000
1644915604742475008,2022-02-15-09:00:04,10.1.1.2,27,0.080,0.080,0.080,0.000,0.000,0.000
1644915604801492992,2022-02-15-09:00:04,10.1.1.2,35,0.070,0.070,0.070,0.000,0.000,0.000
1644915604843288832,2022-02-15-09:00:04,10.1.1.2,24,0.060,0.060,0.060,0.000,0.000,0.000
1644915604901509888,2022-02-15-09:00:04,10.1.1.2,34,0.050,0.050,0.050,0.000,0.000,0.000
1644915604943912960,2022-02-15-09:00:04,10.1.1.2,23,0.040,0.040,0.040,0.000,0.000,0.000
1644915605243246080,2022-02-15-09:00:05,10.1.1.2,20,-0.020,-0.020,-0.020,0.000,0.000,0.000
1644915605661840896,2022-02-15-09:00:05,10.1.1.2,27,-0.100,-0.100,-0.100,0.000,0.000,0.000
1644915605723041024,2022-02-15-09:00:05,10.1.1.2,35,-0.090,-0.090,-0.090,0.000,0.000,0.000
1644915605961579008,2022-02-15-09:00:05,10.1.1.2,38,-0.050,-0.050,-0.050,0.000,0.000,0.000
1644915606001501184,2022-02-15-09:00:06,10.1.1.2,27,-0.040,-0.040,-0.040,0.000,0.000,0.000
1644915606061197056,2022-02-15-09:00:06,10.1.1.2,36,-0.030,-0.030,-0.030,0.000,0.000,0.000
1644915606102826240,2022-02-15-09:00:06,10.1.1.2,24,-0.020,-0.020,-0.020,0.000,0.000,0.000
1644915606261257984,2022-02-15-09:00:06,10.1.1.2,28,0.010,0.010,0.010,0.000,0.000,0.000
1644915606321271808,2022-02-15-09:00:06,10.1.1.2,37,0.020,0.020,0.020,0.000,0.000,0.000
1644915606361466880,2022-02-15-09:00:06,10.1.1.2,25,0.030,0.030,0.030,0.000,0.000,0.000
1644915606640997888,2022-02-15-09:00:06,10.1.1.2,29,0.080,0.080,0.080,0.000,0.000,0.000
1644915606701325824,2022-02-15-09:00:06,10.1.1.2,38,0.090,0.090,0.090,0.000,0.000,0.000
1644915606740819968,2022-02-15-09:00:06,10.1.1.2,28,0.100,0.100,0.100,0.000,0.000,0.000
1644915606801556992,2022-02-15-09:00:06,10.1.1.2,37,0.090,0.090,0.090,0.000,0.000,0.000
1644915606841750016,2022-02-15-09:00:06,10.1.1.2,26,0.080,0.080,0.080,0.000,0.000,0.000
