FedericoMungari/DigitalTwin_service/01_WiredScenario/Output/Output_script/script_rosapi_2_output_robots8_freq0_5.txt
timestamp,date,node,latency,joint_1,joint_2,joint_3,joint_4,joint_5,joint_6
1644350894638038016,2022-02-08-20:08:14,10.1.1.6,-9,-0.100,-0.100,-0.100,0.000,-0.000,-0.000
1644350894776878080,2022-02-08-20:08:14,10.1.1.6,31,-0.090,-0.090,-0.090,0.000,0.000,0.000
1644350894877655040,2022-02-08-20:08:14,10.1.1.6,30,-0.080,-0.080,-0.080,0.000,0.000,0.000
1644350894977260032,2022-02-08-20:08:14,10.1.1.6,29,-0.070,-0.070,-0.070,0.000,0.000,0.000
1644350895077705984,2022-02-08-20:08:15,10.1.1.6,28,-0.060,-0.060,-0.060,0.000,0.000,0.000
1644350895176996096,2022-02-08-20:08:15,10.1.1.6,28,-0.050,-0.050,-0.050,0.000,0.000,0.000
1644350895276694016,2022-02-08-20:08:15,10.1.1.6,27,-0.040,-0.040,-0.040,0.000,0.000,0.000
1644350895377285888,2022-02-08-20:08:15,10.1.1.6,27,-0.030,-0.030,-0.030,0.000,0.000,0.000
1644350895477029120,2022-02-08-20:08:15,10.1.1.6,25,-0.020,-0.020,-0.020,0.000,0.000,0.000
1644350895577585920,2022-02-08-20:08:15,10.1.1.6,24,-0.010,-0.010,-0.010,0.000,0.000,0.000
1644350895676955904,2022-02-08-20:08:15,10.1.1.6,22,0.000,0.000,0.000,0.000,0.000,0.000
1644350895776269056,2022-02-08-20:08:15,10.1.1.6,22,0.010,0.010,0.010,0.000,0.000,0.000
1644350895876958976,2022-02-08-20:08:15,10.1.1.6,19,0.019,0.019,0.019,0.000,0.000,0.000
1644350895976728064,2022-02-08-20:08:15,10.1.1.6,18,0.029,0.029,0.029,0.000,0.000,0.000
1644350896097496064,2022-02-08-20:08:16,10.1.1.6,38,0.040,0.040,0.040,0.000,0.000,0.000
1644350896197895168,2022-02-08-20:08:16,10.1.1.6,38,0.050,0.050,0.050,0.000,0.000,0.000
1644350896296992000,2022-02-08-20:08:16,10.1.1.6,37,0.060,0.060,0.060,0.000,0.000,0.000
1644350896398540032,2022-02-08-20:08:16,10.1.1.6,36,0.070,0.070,0.070,0.000,0.000,0.000
1644350896498810112,2022-02-08-20:08:16,10.1.1.6,34,0.080,0.080,0.080,0.000,0.000,0.000
1644350896597008896,2022-02-08-20:08:16,10.1.1.6,34,0.090,0.090,0.090,0.000,0.000,0.000
1644350896699043072,2022-02-08-20:08:16,10.1.1.6,32,0.100,0.100,0.100,0.000,0.000,0.000
1644350896797990912,2022-02-08-20:08:16,10.1.1.6,32,0.090,0.090,0.090,0.000,0.000,0.000
1644350896897387008,2022-02-08-20:08:16,10.1.1.6,31,0.080,0.080,0.080,0.000,0.000,0.000
1644350896996495104,2022-02-08-20:08:16,10.1.1.6,29,0.070,0.070,0.070,0.000,0.000,0.000
1644350897097569024,2022-02-08-20:08:17,10.1.1.6,29,0.060,0.060,0.060,0.000,0.000,0.000
1644350897197387008,2022-02-08-20:08:17,10.1.1.6,27,0.050,0.050,0.050,0.000,0.000,0.000
1644350897298578944,2022-02-08-20:08:17,10.1.1.6,27,0.040,0.040,0.040,0.000,0.000,0.000
1644350897397361152,2022-02-08-20:08:17,10.1.1.6,26,0.030,0.030,0.030,0.000,0.000,0.000
1644350897497325824,2022-02-08-20:08:17,10.1.1.6,26,0.020,0.020,0.020,0.000,0.000,0.000
1644350897597891072,2022-02-08-20:08:17,10.1.1.6,24,0.010,0.010,0.010,0.000,0.000,0.000
1644350897696924928,2022-02-08-20:08:17,10.1.1.6,24,0.000,0.000,0.000,0.000,0.000,0.000
1644350897797890048,2022-02-08-20:08:17,10.1.1.6,23,-0.010,-0.010,-0.010,0.000,0.000,0.000
1644350897918211840,2022-02-08-20:08:17,10.1.1.6,38,-0.020,-0.020,-0.020,0.000,0.000,0.000
1644350898017102080,2022-02-08-20:08:18,10.1.1.6,36,-0.030,-0.030,-0.030,0.000,0.000,0.000
1644350898117278208,2022-02-08-20:08:18,10.1.1.6,35,-0.040,-0.040,-0.040,0.000,0.000,0.000
1644350898217444864,2022-02-08-20:08:18,10.1.1.6,34,-0.050,-0.050,-0.050,0.000,0.000,0.000
1644350898317712896,2022-02-08-20:08:18,10.1.1.6,32,-0.060,-0.060,-0.060,0.000,0.000,0.000
1644350898417486080,2022-02-08-20:08:18,10.1.1.6,32,-0.070,-0.070,-0.070,0.000,0.000,0.000
1644350898517582848,2022-02-08-20:08:18,10.1.1.6,31,-0.080,-0.080,-0.080,0.000,0.000,0.000
1644350898616795904,2022-02-08-20:08:18,10.1.1.6,30,-0.090,-0.090,-0.090,0.000,0.000,0.000
1644350898717564160,2022-02-08-20:08:18,10.1.1.6,29,-0.100,-0.100,-0.100,0.000,0.000,0.000
1644350898818192128,2022-02-08-20:08:18,10.1.1.6,27,-0.090,-0.090,-0.090,0.000,0.000,0.000
1644350898917666816,2022-02-08-20:08:18,10.1.1.6,27,-0.080,-0.080,-0.080,0.000,0.000,0.000
1644350899017580032,2022-02-08-20:08:19,10.1.1.6,26,-0.070,-0.070,-0.070,0.000,0.000,0.000
1644350899117521920,2022-02-08-20:08:19,10.1.1.6,24,-0.060,-0.060,-0.060,0.000,0.000,0.000
1644350899217102080,2022-02-08-20:08:19,10.1.1.6,23,-0.050,-0.050,-0.050,0.000,0.000,0.000
1644350899317208064,2022-02-08-20:08:19,10.1.1.6,23,-0.040,-0.040,-0.040,0.000,0.000,0.000
1644350899417741056,2022-02-08-20:08:19,10.1.1.6,22,-0.030,-0.030,-0.030,0.000,0.000,0.000
1644350899518584064,2022-02-08-20:08:19,10.1.1.6,21,-0.020,-0.020,-0.020,0.000,0.000,0.000
1644350899617319168,2022-02-08-20:08:19,10.1.1.6,21,-0.010,-0.010,-0.010,0.000,0.000,0.000
1644350899717304832,2022-02-08-20:08:19,10.1.1.6,20,0.000,0.000,0.000,0.000,0.000,0.000
1644350899838070016,2022-02-08-20:08:19,10.1.1.6,39,0.010,0.010,0.010,0.000,0.000,0.000
1644350899938007040,2022-02-08-20:08:19,10.1.1.6,37,0.020,0.020,0.020,0.000,0.000,0.000
1644350900037678080,2022-02-08-20:08:20,10.1.1.6,31,0.030,0.030,0.030,0.000,0.000,0.000
1644350900138354944,2022-02-08-20:08:20,10.1.1.6,30,0.040,0.040,0.040,0.000,0.000,0.000
1644350900237412096,2022-02-08-20:08:20,10.1.1.6,28,0.050,0.050,0.050,0.000,0.000,0.000
1644350900338020096,2022-02-08-20:08:20,10.1.1.6,27,0.060,0.060,0.060,0.000,0.000,0.000
1644350900437902848,2022-02-08-20:08:20,10.1.1.6,24,0.070,0.070,0.070,0.000,0.000,0.000
1644350900537519872,2022-02-08-20:08:20,10.1.1.6,24,0.080,0.080,0.080,0.000,0.000,0.000
1644350900637168896,2022-02-08-20:08:20,10.1.1.6,24,0.090,0.090,0.090,0.000,0.000,0.000
1644350900738151936,2022-02-08-20:08:20,10.1.1.6,23,0.100,0.100,0.100,0.000,0.000,0.000
1644350900836653824,2022-02-08-20:08:20,10.1.1.6,21,0.090,0.090,0.090,0.000,0.000,0.000
1644350900937905920,2022-02-08-20:08:20,10.1.1.6,21,0.080,0.080,0.080,0.000,0.000,0.000
1644350901036699904,2022-02-08-20:08:21,10.1.1.6,20,0.070,0.070,0.070,0.000,0.000,0.000
1644350901157629952,2022-02-08-20:08:21,10.1.1.6,38,0.060,0.060,0.060,0.000,0.000,0.000
1644350901257508096,2022-02-08-20:08:21,10.1.1.6,37,0.050,0.050,0.050,0.000,0.000,0.000
1644350901358524928,2022-02-08-20:08:21,10.1.1.6,35,0.040,0.040,0.040,0.000,0.000,0.000
1644350901457562880,2022-02-08-20:08:21,10.1.1.6,33,0.030,0.030,0.030,0.000,0.000,0.000
1644350901558233088,2022-02-08-20:08:21,10.1.1.6,32,0.020,0.020,0.020,0.000,0.000,0.000
1644350901656816128,2022-02-08-20:08:21,10.1.1.6,31,0.010,0.010,0.010,0.000,0.000,0.000
1644350901773266176,2022-02-08-20:08:21,10.1.1.6,27,0.000,0.000,0.000,0.000,0.000,0.000
1644350901856311040,2022-02-08-20:08:21,10.1.1.6,26,-0.010,-0.010,-0.010,0.000,0.000,0.000
1644350901977596928,2022-02-08-20:08:21,10.1.1.6,30,-0.020,-0.020,-0.020,0.000,0.000,0.000
1644350902083252992,2022-02-08-20:08:22,10.1.1.6,29,-0.030,-0.030,-0.030,0.000,0.000,0.000
1644350902194128128,2022-02-08-20:08:22,10.1.1.6,28,-0.040,-0.040,-0.040,0.000,0.000,0.000
1644350902397607168,2022-02-08-20:08:22,10.1.1.6,35,-0.060,-0.060,-0.060,0.000,0.000,0.000
1644350902498609152,2022-02-08-20:08:22,10.1.1.6,35,-0.070,-0.070,-0.070,0.000,0.000,0.000
1644350902596997888,2022-02-08-20:08:22,10.1.1.6,33,-0.080,-0.080,-0.080,0.000,0.000,0.000
1644350902696965888,2022-02-08-20:08:22,10.1.1.6,32,-0.090,-0.090,-0.090,0.000,0.000,0.000
1644350902797441024,2022-02-08-20:08:22,10.1.1.6,31,-0.100,-0.100,-0.100,0.000,0.000,0.000
1644350902896910080,2022-02-08-20:08:22,10.1.1.6,31,-0.090,-0.090,-0.090,0.000,0.000,0.000
1644350902996860928,2022-02-08-20:08:22,10.1.1.6,29,-0.080,-0.080,-0.080,0.000,0.000,0.000
1644350903097153792,2022-02-08-20:08:23,10.1.1.6,29,-0.070,-0.070,-0.070,0.000,0.000,0.000
1644350903197367808,2022-02-08-20:08:23,10.1.1.6,25,-0.060,-0.060,-0.060,0.000,0.000,0.000
1644350903297543168,2022-02-08-20:08:23,10.1.1.6,24,-0.050,-0.050,-0.050,0.000,0.000,0.000
1644350903396876032,2022-02-08-20:08:23,10.1.1.6,23,-0.040,-0.040,-0.040,0.000,0.000,0.000
1644350903497208064,2022-02-08-20:08:23,10.1.1.6,22,-0.030,-0.030,-0.030,0.000,0.000,0.000
1644350903597157888,2022-02-08-20:08:23,10.1.1.6,22,-0.020,-0.020,-0.020,0.000,0.000,0.000
1644350903696625920,2022-02-08-20:08:23,10.1.1.6,21,-0.010,-0.010,-0.010,0.000,0.000,0.000
1644350903797456896,2022-02-08-20:08:23,10.1.1.6,21,0.000,0.000,0.000,0.000,0.000,0.000
1644350903896585984,2022-02-08-20:08:23,10.1.1.6,20,0.010,0.010,0.010,0.000,0.000,0.000
1644350903996777984,2022-02-08-20:08:23,10.1.1.6,19,0.020,0.020,0.020,0.000,0.000,0.000
1644350904117230848,2022-02-08-20:08:24,10.1.1.6,39,0.030,0.030,0.030,0.000,0.000,0.000
1644350904217206016,2022-02-08-20:08:24,10.1.1.6,38,0.040,0.040,0.040,0.000,0.000,0.000
1644350904316876032,2022-02-08-20:08:24,10.1.1.6,36,0.050,0.050,0.050,0.000,0.000,0.000
1644350904416659968,2022-02-08-20:08:24,10.1.1.6,36,0.060,0.060,0.060,0.000,0.000,0.000
1644350904517483008,2022-02-08-20:08:24,10.1.1.6,36,0.070,0.070,0.070,0.000,0.000,0.000
1644350904616851968,2022-02-08-20:08:24,10.1.1.6,35,0.080,0.080,0.080,0.000,0.000,0.000
1644350904717263872,2022-02-08-20:08:24,10.1.1.6,34,0.090,0.090,0.090,0.000,0.000,0.000
1644350904817265152,2022-02-08-20:08:24,10.1.1.6,33,0.100,0.100,0.100,0.000,0.000,0.000
1644350904916868864,2022-02-08-20:08:24,10.1.1.6,32,0.090,0.090,0.090,0.000,0.000,0.000
1644350905016769792,2022-02-08-20:08:25,10.1.1.6,32,0.080,0.080,0.080,0.000,0.000,0.000
1644350905119875072,2022-02-08-20:08:25,10.1.1.6,30,0.070,0.070,0.070,0.000,0.000,0.000
1644350905217006848,2022-02-08-20:08:25,10.1.1.6,29,0.060,0.060,0.060,0.000,0.000,0.000
1644350905317254144,2022-02-08-20:08:25,10.1.1.6,29,0.050,0.050,0.050,0.000,0.000,0.000
1644350905417049856,2022-02-08-20:08:25,10.1.1.6,28,0.040,0.040,0.040,0.000,0.000,0.000
1644350905516852992,2022-02-08-20:08:25,10.1.1.6,28,0.030,0.030,0.030,0.000,0.000,0.000
1644350905617538048,2022-02-08-20:08:25,10.1.1.6,27,0.020,0.020,0.020,0.000,0.000,0.000
1644350905722596864,2022-02-08-20:08:25,10.1.1.6,26,0.010,0.010,0.010,0.000,0.000,0.000
1644350905817594880,2022-02-08-20:08:25,10.1.1.6,25,0.000,0.000,0.000,0.000,0.000,0.000
1644350905917260800,2022-02-08-20:08:25,10.1.1.6,25,-0.010,-0.010,-0.010,0.000,0.000,0.000
1644350906017092864,2022-02-08-20:08:26,10.1.1.6,24,-0.020,-0.020,-0.020,0.000,0.000,0.000
1644350906116993024,2022-02-08-20:08:26,10.1.1.6,24,-0.030,-0.030,-0.030,0.000,0.000,0.000
1644350906216727040,2022-02-08-20:08:26,10.1.1.6,23,-0.040,-0.040,-0.040,0.000,0.000,0.000
1644350906317039104,2022-02-08-20:08:26,10.1.1.6,22,-0.050,-0.050,-0.050,0.000,0.000,0.000
1644350906417179136,2022-02-08-20:08:26,10.1.1.6,21,-0.060,-0.060,-0.060,0.000,0.000,0.000
1644350906517328896,2022-02-08-20:08:26,10.1.1.6,20,-0.070,-0.070,-0.070,0.000,0.000,0.000
1644350906618014976,2022-02-08-20:08:26,10.1.1.6,20,-0.080,-0.080,-0.080,0.000,0.000,0.000
1644350906717379072,2022-02-08-20:08:26,10.1.1.6,19,-0.090,-0.090,-0.090,0.000,0.000,0.000
1644350906837785856,2022-02-08-20:08:26,10.1.1.6,38,-0.100,-0.100,-0.100,0.000,0.000,0.000
1644350906937110016,2022-02-08-20:08:26,10.1.1.6,37,-0.090,-0.090,-0.090,0.000,0.000,0.000
1644350907037213184,2022-02-08-20:08:27,10.1.1.6,36,-0.080,-0.080,-0.080,0.000,0.000,0.000
1644350907137980928,2022-02-08-20:08:27,10.1.1.6,35,-0.070,-0.070,-0.070,0.000,0.000,0.000
1644350907237537024,2022-02-08-20:08:27,10.1.1.6,34,-0.060,-0.060,-0.060,0.000,0.000,0.000
1644350907336780032,2022-02-08-20:08:27,10.1.1.6,33,-0.050,-0.050,-0.050,0.000,0.000,0.000
1644350907437558784,2022-02-08-20:08:27,10.1.1.6,32,-0.040,-0.040,-0.040,0.000,0.000,0.000
1644350907538392064,2022-02-08-20:08:27,10.1.1.6,32,-0.030,-0.030,-0.030,0.000,0.000,0.000
1644350907637017856,2022-02-08-20:08:27,10.1.1.6,31,-0.020,-0.020,-0.020,0.000,0.000,0.000
1644350907736979968,2022-02-08-20:08:27,10.1.1.6,30,-0.010,-0.010,-0.010,0.000,0.000,0.000
1644350907836610048,2022-02-08-20:08:27,10.1.1.6,30,0.000,0.000,0.000,0.000,0.000,0.000
1644350907937534208,2022-02-08-20:08:27,10.1.1.6,30,0.010,0.010,0.010,0.000,0.000,0.000
1644350908036766976,2022-02-08-20:08:28,10.1.1.6,29,0.020,0.020,0.020,0.000,0.000,0.000
1644350908137455872,2022-02-08-20:08:28,10.1.1.6,28,0.030,0.030,0.030,0.000,0.000,0.000
1644350908237070080,2022-02-08-20:08:28,10.1.1.6,28,0.040,0.040,0.040,0.000,0.000,0.000
1644350908336792832,2022-02-08-20:08:28,10.1.1.6,27,0.050,0.050,0.050,0.000,0.000,0.000
1644350908437097984,2022-02-08-20:08:28,10.1.1.6,27,0.060,0.060,0.060,0.000,0.000,0.000
1644350908537192960,2022-02-08-20:08:28,10.1.1.6,25,0.070,0.070,0.070,0.000,0.000,0.000
1644350908636861952,2022-02-08-20:08:28,10.1.1.6,24,0.080,0.080,0.080,0.000,0.000,0.000
1644350908737241856,2022-02-08-20:08:28,10.1.1.6,24,0.090,0.090,0.090,0.000,0.000,0.000
1644350908836484864,2022-02-08-20:08:28,10.1.1.6,23,0.100,0.100,0.100,0.000,0.000,0.000
1644350908937100032,2022-02-08-20:08:28,10.1.1.6,23,0.090,0.090,0.090,0.000,0.000,0.000
1644350909037563136,2022-02-08-20:08:29,10.1.1.6,22,0.080,0.080,0.080,0.000,0.000,0.000
1644350909137574912,2022-02-08-20:08:29,10.1.1.6,22,0.070,0.070,0.070,0.000,0.000,0.000
1644350909237257984,2022-02-08-20:08:29,10.1.1.6,21,0.060,0.060,0.060,0.000,0.000,0.000
1644350909336945920,2022-02-08-20:08:29,10.1.1.6,21,0.050,0.050,0.050,0.000,0.000,0.000
1644350909437482240,2022-02-08-20:08:29,10.1.1.6,20,0.040,0.040,0.040,0.000,0.000,0.000
1644350909538199040,2022-02-08-20:08:29,10.1.1.6,19,0.030,0.030,0.030,0.000,0.000,0.000
1644350909637634048,2022-02-08-20:08:29,10.1.1.6,19,0.021,0.021,0.021,0.000,0.000,0.000
1644350909757136128,2022-02-08-20:08:29,10.1.1.6,39,0.010,0.010,0.010,0.000,0.000,0.000
1644350909856598016,2022-02-08-20:08:29,10.1.1.6,38,0.000,0.000,0.000,0.000,0.000,0.000
1644350909957145856,2022-02-08-20:08:29,10.1.1.6,37,-0.010,-0.010,-0.010,0.000,0.000,0.000
1644350910057406976,2022-02-08-20:08:30,10.1.1.6,37,-0.020,-0.020,-0.020,0.000,0.000,0.000
1644350910157911040,2022-02-08-20:08:30,10.1.1.6,36,-0.030,-0.030,-0.030,0.000,0.000,0.000
1644350910258196224,2022-02-08-20:08:30,10.1.1.6,36,-0.040,-0.040,-0.040,0.000,0.000,0.000
1644350910357497088,2022-02-08-20:08:30,10.1.1.6,35,-0.050,-0.050,-0.050,0.000,0.000,0.000
1644350910457204224,2022-02-08-20:08:30,10.1.1.6,35,-0.060,-0.060,-0.060,0.000,0.000,0.000
1644350910557743104,2022-02-08-20:08:30,10.1.1.6,34,-0.070,-0.070,-0.070,0.000,0.000,0.000
1644350910657597952,2022-02-08-20:08:30,10.1.1.6,34,-0.080,-0.080,-0.080,0.000,0.000,0.000
1644350910756840960,2022-02-08-20:08:30,10.1.1.6,33,-0.090,-0.090,-0.090,0.000,0.000,0.000
1644350910856716032,2022-02-08-20:08:30,10.1.1.6,32,-0.100,-0.100,-0.100,0.000,0.000,0.000
1644350910957330944,2022-02-08-20:08:30,10.1.1.6,32,-0.090,-0.090,-0.090,0.000,0.000,0.000
1644350911057068032,2022-02-08-20:08:31,10.1.1.6,31,-0.080,-0.080,-0.080,0.000,0.000,0.000
1644350911156918016,2022-02-08-20:08:31,10.1.1.6,30,-0.070,-0.070,-0.070,0.000,0.000,0.000
1644350911257468928,2022-02-08-20:08:31,10.1.1.6,29,-0.060,-0.060,-0.060,0.000,0.000,0.000
1644350911356722944,2022-02-08-20:08:31,10.1.1.6,29,-0.050,-0.050,-0.050,0.000,0.000,0.000
1644350911456943104,2022-02-08-20:08:31,10.1.1.6,28,-0.040,-0.040,-0.040,0.000,0.000,0.000
1644350911557612032,2022-02-08-20:08:31,10.1.1.6,27,-0.030,-0.030,-0.030,0.000,0.000,0.000
1644350911659046912,2022-02-08-20:08:31,10.1.1.6,27,-0.020,-0.020,-0.020,0.000,0.000,0.000
1644350911757008128,2022-02-08-20:08:31,10.1.1.6,27,-0.010,-0.010,-0.010,0.000,0.000,0.000
1644350911857094912,2022-02-08-20:08:31,10.1.1.6,26,0.000,0.000,0.000,0.000,0.000,0.000
1644350911956634112,2022-02-08-20:08:31,10.1.1.6,25,0.010,0.010,0.010,0.000,0.000,0.000
1644350912056998912,2022-02-08-20:08:32,10.1.1.6,23,0.020,0.020,0.020,0.000,0.000,0.000
1644350912156910848,2022-02-08-20:08:32,10.1.1.6,23,0.030,0.030,0.030,0.000,0.000,0.000
1644350912256594944,2022-02-08-20:08:32,10.1.1.6,22,0.040,0.040,0.040,0.000,0.000,0.000
1644350912357984000,2022-02-08-20:08:32,10.1.1.6,22,0.050,0.050,0.050,0.000,0.000,0.000
1644350912456627968,2022-02-08-20:08:32,10.1.1.6,21,0.060,0.060,0.060,0.000,0.000,0.000
1644350912556866048,2022-02-08-20:08:32,10.1.1.6,21,0.070,0.070,0.070,0.000,0.000,0.000
1644350912656899840,2022-02-08-20:08:32,10.1.1.6,20,0.080,0.080,0.080,0.000,0.000,0.000
1644350912778251776,2022-02-08-20:08:32,10.1.1.6,34,0.090,0.090,0.090,0.000,0.000,0.000
1644350912876951040,2022-02-08-20:08:32,10.1.1.6,31,0.100,0.100,0.100,0.000,0.000,0.000
1644350912977374976,2022-02-08-20:08:32,10.1.1.6,30,0.090,0.090,0.090,0.000,0.000,0.000
1644350913079020032,2022-02-08-20:08:33,10.1.1.6,29,0.080,0.080,0.080,0.000,0.000,0.000
1644350913180833024,2022-02-08-20:08:33,10.1.1.6,29,0.070,0.070,0.070,0.000,0.000,0.000
1644350913277048064,2022-02-08-20:08:33,10.1.1.6,28,0.060,0.060,0.060,0.000,0.000,0.000
1644350913377321984,2022-02-08-20:08:33,10.1.1.6,28,0.050,0.050,0.050,0.000,0.000,0.000
1644350913476745984,2022-02-08-20:08:33,10.1.1.6,28,0.040,0.040,0.040,0.000,0.000,0.000
1644350913576699904,2022-02-08-20:08:33,10.1.1.6,27,0.030,0.030,0.030,0.000,0.000,0.000
1644350913677004032,2022-02-08-20:08:33,10.1.1.6,26,0.020,0.020,0.020,0.000,0.000,0.000
1644350913776637952,2022-02-08-20:08:33,10.1.1.6,26,0.010,0.010,0.010,0.000,0.000,0.000
1644350913877518848,2022-02-08-20:08:33,10.1.1.6,25,0.000,0.000,0.000,0.000,0.000,0.000
1644350913976744960,2022-02-08-20:08:33,10.1.1.6,25,-0.010,-0.010,-0.010,0.000,0.000,0.000
1644350914078460928,2022-02-08-20:08:34,10.1.1.6,23,-0.020,-0.020,-0.020,0.000,0.000,0.000
1644350914178592000,2022-02-08-20:08:34,10.1.1.6,21,-0.030,-0.030,-0.030,0.000,0.000,0.000
1644350914277174016,2022-02-08-20:08:34,10.1.1.6,20,-0.040,-0.040,-0.040,0.000,0.000,0.000
1644350914376807936,2022-02-08-20:08:34,10.1.1.6,20,-0.050,-0.050,-0.050,0.000,0.000,0.000
1644350914477491968,2022-02-08-20:08:34,10.1.1.6,19,-0.059,-0.059,-0.059,0.000,0.000,0.000
1644350914597635072,2022-02-08-20:08:34,10.1.1.6,38,-0.070,-0.070,-0.070,0.000,0.000,0.000
1644350914696873984,2022-02-08-20:08:34,10.1.1.6,38,-0.080,-0.080,-0.080,0.000,0.000,0.000
1644350914797444096,2022-02-08-20:08:34,10.1.1.6,37,-0.090,-0.090,-0.090,0.000,0.000,0.000
1644350914897069056,2022-02-08-20:08:34,10.1.1.6,37,-0.100,-0.100,-0.100,0.000,0.000,0.000
1644350915006403840,2022-02-08-20:08:35,10.1.1.6,45,-0.090,-0.090,-0.090,0.000,0.000,0.000
1644350915097318912,2022-02-08-20:08:35,10.1.1.6,36,-0.080,-0.080,-0.080,0.000,0.000,0.000
1644350915196936960,2022-02-08-20:08:35,10.1.1.6,35,-0.070,-0.070,-0.070,0.000,0.000,0.000
1644350915296948992,2022-02-08-20:08:35,10.1.1.6,35,-0.060,-0.060,-0.060,0.000,0.000,0.000
1644350915396823808,2022-02-08-20:08:35,10.1.1.6,34,-0.050,-0.050,-0.050,0.000,0.000,0.000
1644350915497236992,2022-02-08-20:08:35,10.1.1.6,34,-0.040,-0.040,-0.040,0.000,0.000,0.000
1644350915598304000,2022-02-08-20:08:35,10.1.1.6,33,-0.030,-0.030,-0.030,0.000,0.000,0.000
1644350915697026048,2022-02-08-20:08:35,10.1.1.6,33,-0.020,-0.020,-0.020,0.000,0.000,0.000
1644350915797678848,2022-02-08-20:08:35,10.1.1.6,32,-0.010,-0.010,-0.010,0.000,0.000,0.000
1644350915897413120,2022-02-08-20:08:35,10.1.1.6,31,0.000,0.000,0.000,0.000,0.000,0.000
1644350915996926976,2022-02-08-20:08:35,10.1.1.6,30,0.010,0.010,0.010,0.000,0.000,0.000
1644350916096688896,2022-02-08-20:08:36,10.1.1.6,29,0.020,0.020,0.020,0.000,0.000,0.000
1644350916196712960,2022-02-08-20:08:36,10.1.1.6,29,0.030,0.030,0.030,0.000,0.000,0.000
1644350916297334784,2022-02-08-20:08:36,10.1.1.6,29,0.040,0.040,0.040,0.000,0.000,0.000
1644350916397285888,2022-02-08-20:08:36,10.1.1.6,27,0.050,0.050,0.050,0.000,0.000,0.000
1644350916497263872,2022-02-08-20:08:36,10.1.1.6,27,0.060,0.060,0.060,0.000,0.000,0.000
1644350916636976128,2022-02-08-20:08:36,10.1.1.6,28,0.070,0.070,0.070,0.000,0.000,0.000
1644350916737271040,2022-02-08-20:08:36,10.1.1.6,28,0.080,0.080,0.080,0.000,0.000,0.000
1644350916837245952,2022-02-08-20:08:36,10.1.1.6,27,0.090,0.090,0.090,0.000,0.000,0.000
1644350916937118976,2022-02-08-20:08:36,10.1.1.6,27,0.100,0.100,0.100,0.000,0.000,0.000
1644350917037383936,2022-02-08-20:08:37,10.1.1.6,26,0.090,0.090,0.090,0.000,0.000,0.000
1644350917157644032,2022-02-08-20:08:37,10.1.1.6,45,0.080,0.080,0.080,0.000,0.000,0.000
1644350917237622016,2022-02-08-20:08:37,10.1.1.6,25,0.070,0.070,0.070,0.000,0.000,0.000
1644350917337629952,2022-02-08-20:08:37,10.1.1.6,24,0.060,0.060,0.060,0.000,0.000,0.000
1644350917437261056,2022-02-08-20:08:37,10.1.1.6,23,0.050,0.050,0.050,0.000,0.000,0.000
1644350917536840960,2022-02-08-20:08:37,10.1.1.6,23,0.040,0.040,0.040,0.000,0.000,0.000
1644350917637651968,2022-02-08-20:08:37,10.1.1.6,23,0.030,0.030,0.030,0.000,0.000,0.000
1644350917737543168,2022-02-08-20:08:37,10.1.1.6,22,0.020,0.020,0.020,0.000,0.000,0.000
1644350917837313024,2022-02-08-20:08:37,10.1.1.6,22,0.010,0.010,0.010,0.000,0.000,0.000
1644350917937329920,2022-02-08-20:08:37,10.1.1.6,21,0.000,0.000,0.000,0.000,0.000,0.000
1644350918036786176,2022-02-08-20:08:38,10.1.1.6,21,-0.010,-0.010,-0.010,0.000,0.000,0.000
1644350918136948224,2022-02-08-20:08:38,10.1.1.6,21,-0.020,-0.020,-0.020,0.000,0.000,0.000
1644350918237731840,2022-02-08-20:08:38,10.1.1.6,20,-0.030,-0.030,-0.030,0.000,0.000,0.000
1644350918337460992,2022-02-08-20:08:38,10.1.1.6,19,-0.040,-0.040,-0.040,0.000,0.000,0.000
1644350918437069824,2022-02-08-20:08:38,10.1.1.6,19,-0.049,-0.049,-0.049,0.000,0.000,0.000
1644350918557348864,2022-02-08-20:08:38,10.1.1.6,38,-0.060,-0.060,-0.060,0.000,0.000,0.000
1644350918658107136,2022-02-08-20:08:38,10.1.1.6,37,-0.070,-0.070,-0.070,0.000,0.000,0.000
1644350918757177088,2022-02-08-20:08:38,10.1.1.6,36,-0.080,-0.080,-0.080,0.000,0.000,0.000
1644350918857233152,2022-02-08-20:08:38,10.1.1.6,36,-0.090,-0.090,-0.090,0.000,0.000,0.000
1644350918957357056,2022-02-08-20:08:38,10.1.1.6,36,-0.100,-0.100,-0.100,0.000,0.000,0.000
1644350919057050112,2022-02-08-20:08:39,10.1.1.6,35,-0.090,-0.090,-0.090,0.000,0.000,0.000
1644350919157102080,2022-02-08-20:08:39,10.1.1.6,35,-0.080,-0.080,-0.080,0.000,0.000,0.000
1644350919256516096,2022-02-08-20:08:39,10.1.1.6,34,-0.070,-0.070,-0.070,0.000,0.000,0.000
1644350919357526016,2022-02-08-20:08:39,10.1.1.6,34,-0.060,-0.060,-0.060,0.000,0.000,0.000
1644350919456705024,2022-02-08-20:08:39,10.1.1.6,33,-0.050,-0.050,-0.050,0.000,0.000,0.000
1644350919562572032,2022-02-08-20:08:39,10.1.1.6,32,-0.040,-0.040,-0.040,0.000,0.000,0.000
1644350919656858880,2022-02-08-20:08:39,10.1.1.6,32,-0.030,-0.030,-0.030,0.000,0.000,0.000
1644350919757383168,2022-02-08-20:08:39,10.1.1.6,32,-0.020,-0.020,-0.020,0.000,0.000,0.000
1644350919857088000,2022-02-08-20:08:39,10.1.1.6,31,-0.010,-0.010,-0.010,0.000,0.000,0.000
1644350919956686080,2022-02-08-20:08:39,10.1.1.6,30,0.000,0.000,0.000,0.000,0.000,0.000
1644350920057111040,2022-02-08-20:08:40,10.1.1.6,30,0.010,0.010,0.010,0.000,0.000,0.000
1644350920156955904,2022-02-08-20:08:40,10.1.1.6,30,0.020,0.020,0.020,0.000,0.000,0.000
1644350920257108992,2022-02-08-20:08:40,10.1.1.6,29,0.030,0.030,0.030,0.000,0.000,0.000
1644350920357120000,2022-02-08-20:08:40,10.1.1.6,28,0.040,0.040,0.040,0.000,0.000,0.000
1644350920457230080,2022-02-08-20:08:40,10.1.1.6,28,0.050,0.050,0.050,0.000,0.000,0.000
1644350920558106880,2022-02-08-20:08:40,10.1.1.6,28,0.060,0.060,0.060,0.000,0.000,0.000
1644350920656941824,2022-02-08-20:08:40,10.1.1.6,27,0.070,0.070,0.070,0.000,0.000,0.000
1644350920757059072,2022-02-08-20:08:40,10.1.1.6,27,0.080,0.080,0.080,0.000,0.000,0.000
1644350920857137920,2022-02-08-20:08:40,10.1.1.6,27,0.090,0.090,0.090,0.000,0.000,0.000
1644350920957544192,2022-02-08-20:08:40,10.1.1.6,26,0.100,0.100,0.100,0.000,0.000,0.000
1644350921056865024,2022-02-08-20:08:41,10.1.1.6,25,0.090,0.090,0.090,0.000,0.000,0.000
1644350921157177856,2022-02-08-20:08:41,10.1.1.6,25,0.080,0.080,0.080,0.000,0.000,0.000
1644350921257071104,2022-02-08-20:08:41,10.1.1.6,24,0.070,0.070,0.070,0.000,0.000,0.000
1644350921357465856,2022-02-08-20:08:41,10.1.1.6,24,0.060,0.060,0.060,0.000,0.000,0.000
1644350921457027840,2022-02-08-20:08:41,10.1.1.6,24,0.050,0.050,0.050,0.000,0.000,0.000
1644350921556768000,2022-02-08-20:08:41,10.1.1.6,23,0.040,0.040,0.040,0.000,0.000,0.000
1644350921656892160,2022-02-08-20:08:41,10.1.1.6,22,0.030,0.030,0.030,0.000,0.000,0.000
1644350921757415168,2022-02-08-20:08:41,10.1.1.6,22,0.020,0.020,0.020,0.000,0.000,0.000
1644350921857490944,2022-02-08-20:08:41,10.1.1.6,22,0.010,0.010,0.010,0.000,0.000,0.000
1644350921957516800,2022-02-08-20:08:41,10.1.1.6,21,0.000,0.000,0.000,0.000,0.000,0.000
1644350922057280000,2022-02-08-20:08:42,10.1.1.6,20,-0.010,-0.010,-0.010,0.000,0.000,0.000
1644350922157005056,2022-02-08-20:08:42,10.1.1.6,19,-0.020,-0.020,-0.020,0.000,0.000,0.000
1644350922256571904,2022-02-08-20:08:42,10.1.1.6,19,-0.030,-0.030,-0.030,0.000,0.000,0.000
1644350922357346048,2022-02-08-20:08:42,10.1.1.6,19,-0.039,-0.039,-0.039,0.000,0.000,0.000
1644350922457912064,2022-02-08-20:08:42,10.1.1.6,19,-0.049,-0.049,-0.049,0.000,0.000,0.000
1644350922577281024,2022-02-08-20:08:42,10.1.1.6,38,-0.060,-0.060,-0.060,0.000,0.000,0.000
1644350922677428992,2022-02-08-20:08:42,10.1.1.6,37,-0.070,-0.070,-0.070,0.000,0.000,0.000
1644350922799994112,2022-02-08-20:08:42,10.1.1.6,37,-0.080,-0.080,-0.080,0.000,0.000,0.000
1644350922876931072,2022-02-08-20:08:42,10.1.1.6,35,-0.090,-0.090,-0.090,0.000,0.000,0.000
1644350922977899008,2022-02-08-20:08:42,10.1.1.6,35,-0.100,-0.100,-0.100,0.000,0.000,0.000
1644350923077630976,2022-02-08-20:08:43,10.1.1.6,34,-0.090,-0.090,-0.090,0.000,0.000,0.000
1644350923176801024,2022-02-08-20:08:43,10.1.1.6,33,-0.080,-0.080,-0.080,0.000,0.000,0.000
1644350923277005824,2022-02-08-20:08:43,10.1.1.6,33,-0.070,-0.070,-0.070,0.000,0.000,0.000
1644350923377346048,2022-02-08-20:08:43,10.1.1.6,32,-0.060,-0.060,-0.060,0.000,0.000,0.000
1644350923477555968,2022-02-08-20:08:43,10.1.1.6,32,-0.050,-0.050,-0.050,0.000,0.000,0.000
1644350923576956928,2022-02-08-20:08:43,10.1.1.6,31,-0.040,-0.040,-0.040,0.000,0.000,0.000
1644350923677028864,2022-02-08-20:08:43,10.1.1.6,30,-0.030,-0.030,-0.030,0.000,0.000,0.000
1644350923777283840,2022-02-08-20:08:43,10.1.1.6,29,-0.020,-0.020,-0.020,0.000,0.000,0.000
1644350923877219072,2022-02-08-20:08:43,10.1.1.6,29,-0.010,-0.010,-0.010,0.000,0.000,0.000
1644350923977075968,2022-02-08-20:08:43,10.1.1.6,29,0.000,0.000,0.000,0.000,0.000,0.000
1644350924077122816,2022-02-08-20:08:44,10.1.1.6,28,0.010,0.010,0.010,0.000,0.000,0.000
1644350924177246976,2022-02-08-20:08:44,10.1.1.6,27,0.020,0.020,0.020,0.000,0.000,0.000
1644350924279934976,2022-02-08-20:08:44,10.1.1.6,27,0.030,0.030,0.030,0.000,0.000,0.000
1644350924382516992,2022-02-08-20:08:44,10.1.1.6,27,0.040,0.040,0.040,0.000,0.000,0.000
1644350924476985856,2022-02-08-20:08:44,10.1.1.6,26,0.050,0.050,0.050,0.000,0.000,0.000
1644350924577480960,2022-02-08-20:08:44,10.1.1.6,25,0.060,0.060,0.060,0.000,0.000,0.000
1644350924677308928,2022-02-08-20:08:44,10.1.1.6,25,0.070,0.070,0.070,0.000,0.000,0.000
1644350924778284032,2022-02-08-20:08:44,10.1.1.6,25,0.080,0.080,0.080,0.000,0.000,0.000
1644350924876615168,2022-02-08-20:08:44,10.1.1.6,23,0.090,0.090,0.090,0.000,0.000,0.000
1644350924977571072,2022-02-08-20:08:44,10.1.1.6,22,0.100,0.100,0.100,0.000,0.000,0.000
1644350925077533952,2022-02-08-20:08:45,10.1.1.6,21,0.090,0.090,0.090,0.000,0.000,0.000
1644350925197385984,2022-02-08-20:08:45,10.1.1.6,20,0.080,0.080,0.080,0.000,0.000,0.000
1644350925277349888,2022-02-08-20:08:45,10.1.1.6,19,0.071,0.071,0.071,0.000,0.000,0.000
1644350925397216000,2022-02-08-20:08:45,10.1.1.6,38,0.060,0.060,0.060,0.000,0.000,0.000
1644350925497270016,2022-02-08-20:08:45,10.1.1.6,37,0.050,0.050,0.050,0.000,0.000,0.000
1644350925597625856,2022-02-08-20:08:45,10.1.1.6,36,0.040,0.040,0.040,0.000,0.000,0.000
1644350925697957888,2022-02-08-20:08:45,10.1.1.6,35,0.030,0.030,0.030,0.000,0.000,0.000
1644350925796905984,2022-02-08-20:08:45,10.1.1.6,35,0.020,0.020,0.020,0.000,0.000,0.000
1644350925906336000,2022-02-08-20:08:45,10.1.1.6,33,0.010,0.010,0.010,0.000,0.000,0.000
1644350925996860928,2022-02-08-20:08:45,10.1.1.6,32,0.000,0.000,0.000,0.000,0.000,0.000
1644350926097131008,2022-02-08-20:08:46,10.1.1.6,32,-0.010,-0.010,-0.010,0.000,0.000,0.000
1644350926197264896,2022-02-08-20:08:46,10.1.1.6,31,-0.020,-0.020,-0.020,0.000,0.000,0.000
1644350926297276928,2022-02-08-20:08:46,10.1.1.6,30,-0.030,-0.030,-0.030,0.000,0.000,0.000
1644350926397815040,2022-02-08-20:08:46,10.1.1.6,29,-0.040,-0.040,-0.040,0.000,0.000,0.000
1644350926496783104,2022-02-08-20:08:46,10.1.1.6,29,-0.050,-0.050,-0.050,0.000,0.000,0.000
1644350926596996096,2022-02-08-20:08:46,10.1.1.6,29,-0.060,-0.060,-0.060,0.000,0.000,0.000
1644350926697504000,2022-02-08-20:08:46,10.1.1.6,28,-0.070,-0.070,-0.070,0.000,0.000,0.000
1644350926797676032,2022-02-08-20:08:46,10.1.1.6,28,-0.080,-0.080,-0.080,0.000,0.000,0.000
1644350926896639232,2022-02-08-20:08:46,10.1.1.6,27,-0.090,-0.090,-0.090,0.000,0.000,0.000
1644350926997073920,2022-02-08-20:08:46,10.1.1.6,26,-0.100,-0.100,-0.100,0.000,0.000,0.000
1644350927097580800,2022-02-08-20:08:47,10.1.1.6,26,-0.090,-0.090,-0.090,0.000,0.000,0.000
1644350927196864000,2022-02-08-20:08:47,10.1.1.6,24,-0.080,-0.080,-0.080,0.000,0.000,0.000
1644350927297231872,2022-02-08-20:08:47,10.1.1.6,23,-0.070,-0.070,-0.070,0.000,0.000,0.000
1644350927396775936,2022-02-08-20:08:47,10.1.1.6,22,-0.060,-0.060,-0.060,0.000,0.000,0.000
1644350927497394176,2022-02-08-20:08:47,10.1.1.6,22,-0.050,-0.050,-0.050,0.000,0.000,0.000
1644350927596924928,2022-02-08-20:08:47,10.1.1.6,21,-0.040,-0.040,-0.040,0.000,0.000,0.000
1644350927696897024,2022-02-08-20:08:47,10.1.1.6,20,-0.030,-0.030,-0.030,0.000,0.000,0.000
1644350927797046016,2022-02-08-20:08:47,10.1.1.6,20,-0.020,-0.020,-0.020,0.000,0.000,0.000
1644350927896766976,2022-02-08-20:08:47,10.1.1.6,19,-0.010,-0.010,-0.010,0.000,0.000,0.000
1644350927996737024,2022-02-08-20:08:47,10.1.1.6,19,-0.001,-0.001,-0.001,0.000,0.000,0.000
1644350928097127936,2022-02-08-20:08:48,10.1.1.6,19,0.009,0.009,0.009,0.000,0.000,0.000
1644350928217572864,2022-02-08-20:08:48,10.1.1.6,38,0.020,0.020,0.020,0.000,0.000,0.000
1644350928320189952,2022-02-08-20:08:48,10.1.1.6,38,0.030,0.030,0.030,0.000,0.000,0.000
1644350928417270784,2022-02-08-20:08:48,10.1.1.6,35,0.040,0.040,0.040,0.000,0.000,0.000
1644350928517169920,2022-02-08-20:08:48,10.1.1.6,33,0.050,0.050,0.050,0.000,0.000,0.000
1644350928617676032,2022-02-08-20:08:48,10.1.1.6,33,0.060,0.060,0.060,0.000,0.000,0.000
1644350928717539072,2022-02-08-20:08:48,10.1.1.6,32,0.070,0.070,0.070,0.000,0.000,0.000
1644350928817430016,2022-02-08-20:08:48,10.1.1.6,31,0.080,0.080,0.080,0.000,0.000,0.000
1644350928917440768,2022-02-08-20:08:48,10.1.1.6,31,0.090,0.090,0.090,0.000,0.000,0.000
1644350929017574144,2022-02-08-20:08:49,10.1.1.6,30,0.100,0.100,0.100,0.000,0.000,0.000
1644350929117464064,2022-02-08-20:08:49,10.1.1.6,30,0.090,0.090,0.090,0.000,0.000,0.000
1644350929216804864,2022-02-08-20:08:49,10.1.1.6,29,0.080,0.080,0.080,0.000,0.000,0.000
1644350929317419008,2022-02-08-20:08:49,10.1.1.6,28,0.070,0.070,0.070,0.000,0.000,0.000
1644350929417628160,2022-02-08-20:08:49,10.1.1.6,28,0.060,0.060,0.060,0.000,0.000,0.000
1644350929518099968,2022-02-08-20:08:49,10.1.1.6,27,0.050,0.050,0.050,0.000,0.000,0.000
1644350929617038080,2022-02-08-20:08:49,10.1.1.6,27,0.040,0.040,0.040,0.000,0.000,0.000
1644350929716948992,2022-02-08-20:08:49,10.1.1.6,27,0.030,0.030,0.030,0.000,0.000,0.000
1644350929817245952,2022-02-08-20:08:49,10.1.1.6,25,0.020,0.020,0.020,0.000,0.000,0.000
1644350929916933120,2022-02-08-20:08:49,10.1.1.6,25,0.010,0.010,0.010,0.000,0.000,0.000
1644350930018615040,2022-02-08-20:08:50,10.1.1.6,24,0.000,0.000,0.000,0.000,0.000,0.000
1644350930116698112,2022-02-08-20:08:50,10.1.1.6,23,-0.010,-0.010,-0.010,0.000,0.000,0.000
1644350930216686848,2022-02-08-20:08:50,10.1.1.6,22,-0.020,-0.020,-0.020,0.000,0.000,0.000
1644350930316924928,2022-02-08-20:08:50,10.1.1.6,22,-0.030,-0.030,-0.030,0.000,0.000,0.000
1644350930417177856,2022-02-08-20:08:50,10.1.1.6,21,-0.040,-0.040,-0.040,0.000,0.000,0.000
1644350930542497024,2022-02-08-20:08:50,10.1.1.6,20,-0.050,-0.050,-0.050,0.000,0.000,0.000
1644350930636962816,2022-02-08-20:08:50,10.1.1.6,38,-0.060,-0.060,-0.060,0.000,0.000,0.000
1644350930737102080,2022-02-08-20:08:50,10.1.1.6,37,-0.070,-0.070,-0.070,0.000,0.000,0.000
1644350930836548096,2022-02-08-20:08:50,10.1.1.6,37,-0.080,-0.080,-0.080,0.000,0.000,0.000
1644350930936829184,2022-02-08-20:08:50,10.1.1.6,36,-0.090,-0.090,-0.090,0.000,0.000,0.000
1644350931037807104,2022-02-08-20:08:51,10.1.1.6,35,-0.100,-0.100,-0.100,0.000,0.000,0.000
1644350931137312000,2022-02-08-20:08:51,10.1.1.6,35,-0.090,-0.090,-0.090,0.000,0.000,0.000
1644350931232712960,2022-02-08-20:08:51,10.1.1.6,27,-0.080,-0.080,-0.080,0.000,0.000,0.000
1644350931328901888,2022-02-08-20:08:51,10.1.1.6,25,-0.070,-0.070,-0.070,0.000,0.000,0.000
1644350931437482240,2022-02-08-20:08:51,10.1.1.6,33,-0.060,-0.060,-0.060,0.000,0.000,0.000
1644350931539793920,2022-02-08-20:08:51,10.1.1.6,34,-0.050,-0.050,-0.050,0.000,0.000,0.000
1644350931637430784,2022-02-08-20:08:51,10.1.1.6,32,-0.040,-0.040,-0.040,0.000,0.000,0.000
1644350931743309056,2022-02-08-20:08:51,10.1.1.6,36,-0.030,-0.030,-0.030,0.000,0.000,0.000
1644350931839399936,2022-02-08-20:08:51,10.1.1.6,32,-0.020,-0.020,-0.020,0.000,0.000,0.000
1644350931941441024,2022-02-08-20:08:51,10.1.1.6,33,-0.011,-0.011,-0.011,0.000,0.000,0.000
1644350932069509120,2022-02-08-20:08:52,10.1.1.6,57,0.000,0.000,0.000,0.000,0.000,0.000
1644350932137309952,2022-02-08-20:08:52,10.1.1.6,27,0.010,0.010,0.010,0.000,0.000,0.000
1644350932236958976,2022-02-08-20:08:52,10.1.1.6,26,0.020,0.020,0.020,0.000,0.000,0.000
1644350932338087168,2022-02-08-20:08:52,10.1.1.6,25,0.030,0.030,0.030,0.000,0.000,0.000
1644350932438541824,2022-02-08-20:08:52,10.1.1.6,24,0.040,0.040,0.040,0.000,0.000,0.000
1644350932559535104,2022-02-08-20:08:52,10.1.1.6,43,0.050,0.050,0.050,0.000,0.000,0.000
1644350932637357056,2022-02-08-20:08:52,10.1.1.6,23,0.060,0.060,0.060,0.000,0.000,0.000
1644350932738370048,2022-02-08-20:08:52,10.1.1.6,22,0.070,0.070,0.070,0.000,0.000,0.000
1644350932837346048,2022-02-08-20:08:52,10.1.1.6,21,0.080,0.080,0.080,0.000,0.000,0.000
1644350932937293056,2022-02-08-20:08:52,10.1.1.6,21,0.090,0.090,0.090,0.000,0.000,0.000
1644350933037046784,2022-02-08-20:08:53,10.1.1.6,21,0.100,0.100,0.100,0.000,0.000,0.000
1644350933137219072,2022-02-08-20:08:53,10.1.1.6,21,0.090,0.090,0.090,0.000,0.000,0.000
1644350933237320960,2022-02-08-20:08:53,10.1.1.6,20,0.080,0.080,0.080,0.000,0.000,0.000
1644350933337566976,2022-02-08-20:08:53,10.1.1.6,19,0.070,0.070,0.070,0.000,0.000,0.000
1644350933457804032,2022-02-08-20:08:53,10.1.1.6,38,0.060,0.060,0.060,0.000,0.000,0.000
1644350933557678848,2022-02-08-20:08:53,10.1.1.6,38,0.050,0.050,0.050,0.000,0.000,0.000
1644350933658691840,2022-02-08-20:08:53,10.1.1.6,37,0.040,0.040,0.040,0.000,0.000,0.000
1644350933757704960,2022-02-08-20:08:53,10.1.1.6,37,0.030,0.030,0.030,0.000,0.000,0.000
1644350933856983808,2022-02-08-20:08:53,10.1.1.6,36,0.020,0.020,0.020,0.000,0.000,0.000
1644350933957442048,2022-02-08-20:08:53,10.1.1.6,36,0.010,0.010,0.010,0.000,0.000,0.000
1644350934057414912,2022-02-08-20:08:54,10.1.1.6,35,0.000,0.000,0.000,0.000,0.000,0.000
1644350934157236992,2022-02-08-20:08:54,10.1.1.6,34,-0.010,-0.010,-0.010,0.000,0.000,0.000
1644350934256813056,2022-02-08-20:08:54,10.1.1.6,34,-0.020,-0.020,-0.020,0.000,0.000,0.000
1644350934356688128,2022-02-08-20:08:54,10.1.1.6,33,-0.030,-0.030,-0.030,0.000,0.000,0.000
1644350934457060096,2022-02-08-20:08:54,10.1.1.6,32,-0.040,-0.040,-0.040,0.000,0.000,0.000
1644350934565356032,2022-02-08-20:08:54,10.1.1.6,32,-0.050,-0.050,-0.050,0.000,0.000,0.000
1644350934658061056,2022-02-08-20:08:54,10.1.1.6,31,-0.060,-0.060,-0.060,0.000,0.000,0.000
1644350934758286848,2022-02-08-20:08:54,10.1.1.6,31,-0.070,-0.070,-0.070,0.000,0.000,0.000
1644350934857732096,2022-02-08-20:08:54,10.1.1.6,30,-0.080,-0.080,-0.080,0.000,0.000,0.000
1644350934957261056,2022-02-08-20:08:54,10.1.1.6,30,-0.090,-0.090,-0.090,0.000,0.000,0.000
1644350935057334016,2022-02-08-20:08:55,10.1.1.6,29,-0.100,-0.100,-0.100,0.000,0.000,0.000
1644350935157293056,2022-02-08-20:08:55,10.1.1.6,29,-0.090,-0.090,-0.090,0.000,0.000,0.000
1644350935277374976,2022-02-08-20:08:55,10.1.1.6,48,-0.080,-0.080,-0.080,0.000,0.000,0.000
1644350935376818944,2022-02-08-20:08:55,10.1.1.6,45,-0.070,-0.070,-0.070,0.000,0.000,0.000
1644350935457107968,2022-02-08-20:08:55,10.1.1.6,25,-0.060,-0.060,-0.060,0.000,0.000,0.000
1644350935557414144,2022-02-08-20:08:55,10.1.1.6,24,-0.050,-0.050,-0.050,0.000,0.000,0.000
1644350935657320960,2022-02-08-20:08:55,10.1.1.6,24,-0.040,-0.040,-0.040,0.000,0.000,0.000
1644350935757561088,2022-02-08-20:08:55,10.1.1.6,24,-0.030,-0.030,-0.030,0.000,0.000,0.000
1644350935857096960,2022-02-08-20:08:55,10.1.1.6,23,-0.020,-0.020,-0.020,0.000,0.000,0.000
1644350935958148096,2022-02-08-20:08:55,10.1.1.6,23,-0.010,-0.010,-0.010,0.000,0.000,0.000
1644350936057662976,2022-02-08-20:08:56,10.1.1.6,23,0.000,0.000,0.000,0.000,0.000,0.000
1644350936176855040,2022-02-08-20:08:56,10.1.1.6,42,0.010,0.010,0.010,0.000,0.000,0.000
1644350936257241856,2022-02-08-20:08:56,10.1.1.6,22,0.020,0.020,0.020,0.000,0.000,0.000
1644350936357646848,2022-02-08-20:08:56,10.1.1.6,21,0.030,0.030,0.030,0.000,0.000,0.000
1644350936456902144,2022-02-08-20:08:56,10.1.1.6,21,0.040,0.040,0.040,0.000,0.000,0.000
1644350936557835008,2022-02-08-20:08:56,10.1.1.6,21,0.050,0.050,0.050,0.000,0.000,0.000
1644350936657399808,2022-02-08-20:08:56,10.1.1.6,20,0.060,0.060,0.060,0.000,0.000,0.000
1644350936757181952,2022-02-08-20:08:56,10.1.1.6,20,0.070,0.070,0.070,0.000,0.000,0.000
1644350936877048064,2022-02-08-20:08:56,10.1.1.6,39,0.080,0.080,0.080,0.000,0.000,0.000
1644350936977137152,2022-02-08-20:08:56,10.1.1.6,38,0.090,0.090,0.090,0.000,0.000,0.000
1644350937077122048,2022-02-08-20:08:57,10.1.1.6,38,0.100,0.100,0.100,0.000,0.000,0.000
1644350937177469952,2022-02-08-20:08:57,10.1.1.6,37,0.090,0.090,0.090,0.000,0.000,0.000
1644350937276730112,2022-02-08-20:08:57,10.1.1.6,37,0.080,0.080,0.080,0.000,0.000,0.000
1644350937477298944,2022-02-08-20:08:57,10.1.1.6,20,0.060,0.060,0.060,0.000,0.000,0.000
1644350937577456896,2022-02-08-20:08:57,10.1.1.6,20,0.050,0.050,0.050,0.000,0.000,0.000
1644350937677360896,2022-02-08-20:08:57,10.1.1.6,19,0.041,0.041,0.041,0.000,0.000,0.000
1644350937798326016,2022-02-08-20:08:57,10.1.1.6,38,0.030,0.030,0.030,0.000,0.000,0.000
1644350937897520896,2022-02-08-20:08:57,10.1.1.6,38,0.020,0.020,0.020,0.000,0.000,0.000
1644350937996919040,2022-02-08-20:08:57,10.1.1.6,37,0.010,0.010,0.010,0.000,0.000,0.000
1644350938097116928,2022-02-08-20:08:58,10.1.1.6,37,0.000,0.000,0.000,0.000,0.000,0.000
1644350938197037056,2022-02-08-20:08:58,10.1.1.6,36,-0.010,-0.010,-0.010,0.000,0.000,0.000
1644350938297419008,2022-02-08-20:08:58,10.1.1.6,35,-0.020,-0.020,-0.020,0.000,0.000,0.000
1644350938396864768,2022-02-08-20:08:58,10.1.1.6,34,-0.030,-0.030,-0.030,0.000,0.000,0.000
1644350938497462016,2022-02-08-20:08:58,10.1.1.6,33,-0.040,-0.040,-0.040,0.000,0.000,0.000
1644350938597506048,2022-02-08-20:08:58,10.1.1.6,33,-0.050,-0.050,-0.050,0.000,0.000,0.000
1644350938697506048,2022-02-08-20:08:58,10.1.1.6,32,-0.060,-0.060,-0.060,0.000,0.000,0.000
1644350938800975104,2022-02-08-20:08:58,10.1.1.6,31,-0.070,-0.070,-0.070,0.000,0.000,0.000
1644350938898816000,2022-02-08-20:08:58,10.1.1.6,30,-0.080,-0.080,-0.080,0.000,0.000,0.000
1644350938998630144,2022-02-08-20:08:58,10.1.1.6,29,-0.090,-0.090,-0.090,0.000,0.000,0.000
1644350939097052928,2022-02-08-20:08:59,10.1.1.6,27,-0.100,-0.100,-0.100,0.000,0.000,0.000
1644350939203015168,2022-02-08-20:08:59,10.1.1.6,27,-0.090,-0.090,-0.090,0.000,0.000,0.000
1644350939296942080,2022-02-08-20:08:59,10.1.1.6,26,-0.080,-0.080,-0.080,0.000,0.000,0.000
1644350939417924864,2022-02-08-20:08:59,10.1.1.6,26,-0.070,-0.070,-0.070,0.000,0.000,0.000
1644350939517806080,2022-02-08-20:08:59,10.1.1.6,25,-0.060,-0.060,-0.060,0.000,0.000,0.000
1644350939617362944,2022-02-08-20:08:59,10.1.1.6,24,-0.050,-0.050,-0.050,0.000,0.000,0.000
1644350939718420992,2022-02-08-20:08:59,10.1.1.6,24,-0.040,-0.040,-0.040,0.000,0.000,0.000
1644350939821049856,2022-02-08-20:08:59,10.1.1.6,23,-0.030,-0.030,-0.030,0.000,0.000,0.000
1644350939917171968,2022-02-08-20:08:59,10.1.1.6,23,-0.020,-0.020,-0.020,0.000,0.000,0.000
1644350940037957888,2022-02-08-20:09:00,10.1.1.6,31,-0.010,-0.010,-0.010,0.000,0.000,0.000
1644350940137462016,2022-02-08-20:09:00,10.1.1.6,29,0.000,0.000,0.000,0.000,0.000,0.000
1644350940237129984,2022-02-08-20:09:00,10.1.1.6,28,0.010,0.010,0.010,0.000,0.000,0.000
1644350940357156096,2022-02-08-20:09:00,10.1.1.6,36,0.020,0.020,0.020,0.000,0.000,0.000
1644350940457583872,2022-02-08-20:09:00,10.1.1.6,35,0.030,0.030,0.030,0.000,0.000,0.000
1644350940557297920,2022-02-08-20:09:00,10.1.1.6,34,0.040,0.040,0.040,0.000,0.000,0.000
1644350940657289984,2022-02-08-20:09:00,10.1.1.6,33,0.050,0.050,0.050,0.000,0.000,0.000
1644350940757617920,2022-02-08-20:09:00,10.1.1.6,32,0.060,0.060,0.060,0.000,0.000,0.000
1644350940857233152,2022-02-08-20:09:00,10.1.1.6,32,0.070,0.070,0.070,0.000,0.000,0.000
1644350940957166080,2022-02-08-20:09:00,10.1.1.6,31,0.080,0.080,0.080,0.000,0.000,0.000
1644350941057317888,2022-02-08-20:09:01,10.1.1.6,30,0.090,0.090,0.090,0.000,0.000,0.000
1644350941157270784,2022-02-08-20:09:01,10.1.1.6,29,0.100,0.100,0.100,0.000,0.000,0.000
1644350941257366784,2022-02-08-20:09:01,10.1.1.6,28,0.090,0.090,0.090,0.000,0.000,0.000
1644350941359795200,2022-02-08-20:09:01,10.1.1.6,27,0.080,0.080,0.080,0.000,0.000,0.000
1644350941457459968,2022-02-08-20:09:01,10.1.1.6,27,0.070,0.070,0.070,0.000,0.000,0.000
1644350941558008832,2022-02-08-20:09:01,10.1.1.6,25,0.060,0.060,0.060,0.000,0.000,0.000
1644350941657344000,2022-02-08-20:09:01,10.1.1.6,24,0.050,0.050,0.050,0.000,0.000,0.000
1644350941756797184,2022-02-08-20:09:01,10.1.1.6,23,0.040,0.040,0.040,0.000,0.000,0.000
1644350941863532032,2022-02-08-20:09:01,10.1.1.6,21,0.030,0.030,0.030,0.000,0.000,0.000
1644350941977399040,2022-02-08-20:09:01,10.1.1.6,38,0.020,0.020,0.020,0.000,0.000,0.000
1644350942077202176,2022-02-08-20:09:02,10.1.1.6,38,0.010,0.010,0.010,0.000,0.000,0.000
1644350942177462016,2022-02-08-20:09:02,10.1.1.6,37,0.000,0.000,0.000,0.000,0.000,0.000
1644350942277612800,2022-02-08-20:09:02,10.1.1.6,35,-0.010,-0.010,-0.010,0.000,0.000,0.000
1644350942377736960,2022-02-08-20:09:02,10.1.1.6,35,-0.020,-0.020,-0.020,0.000,0.000,0.000
1644350942480033024,2022-02-08-20:09:02,10.1.1.6,34,-0.030,-0.030,-0.030,0.000,0.000,0.000
1644350942577524992,2022-02-08-20:09:02,10.1.1.6,30,-0.040,-0.040,-0.040,0.000,0.000,0.000
1644350942677150976,2022-02-08-20:09:02,10.1.1.6,22,-0.050,-0.050,-0.050,0.000,0.000,0.000
1644350943700346880,2022-02-08-20:09:02,10.1.1.6,21,-0.060,-0.060,-0.060,0.000,0.000,0.000
1644350943736905984,2022-02-08-20:09:03,10.1.1.6,26,-0.070,-0.070,-0.070,0.000,0.000,0.000
1644350943837102848,2022-02-08-20:09:03,10.1.1.6,24,-0.080,-0.080,-0.080,0.000,0.000,0.000
1644350943937038848,2022-02-08-20:09:03,10.1.1.6,24,-0.090,-0.090,-0.090,0.000,0.000,0.000
1644350944037251072,2022-02-08-20:09:04,10.1.1.6,23,-0.100,-0.100,-0.100,0.000,0.000,0.000
1644350944137448192,2022-02-08-20:09:04,10.1.1.6,22,-0.090,-0.090,-0.090,0.000,0.000,0.000
1644350944237509888,2022-02-08-20:09:04,10.1.1.6,21,-0.080,-0.080,-0.080,0.000,0.000,0.000
1644350944337233152,2022-02-08-20:09:04,10.1.1.6,21,-0.070,-0.070,-0.070,0.000,0.000,0.000
1644350944437777152,2022-02-08-20:09:04,10.1.1.6,20,-0.060,-0.060,-0.060,0.000,0.000,0.000
1644350944537337088,2022-02-08-20:09:04,10.1.1.6,19,-0.050,-0.050,-0.050,0.000,0.000,0.000
1644350944659661056,2022-02-08-20:09:04,10.1.1.6,38,-0.040,-0.040,-0.040,0.000,0.000,0.000
1644350944758699776,2022-02-08-20:09:04,10.1.1.6,38,-0.030,-0.030,-0.030,0.000,0.000,0.000
1644350944857553920,2022-02-08-20:09:04,10.1.1.6,37,-0.020,-0.020,-0.020,0.000,0.000,0.000
1644350944957756160,2022-02-08-20:09:04,10.1.1.6,36,-0.010,-0.010,-0.010,0.000,0.000,0.000
1644350945057516032,2022-02-08-20:09:05,10.1.1.6,36,0.000,0.000,0.000,0.000,0.000,0.000
1644350945159025920,2022-02-08-20:09:05,10.1.1.6,34,0.010,0.010,0.010,0.000,0.000,0.000
1644350945258631936,2022-02-08-20:09:05,10.1.1.6,30,0.020,0.020,0.020,0.000,0.000,0.000
1644350945358057984,2022-02-08-20:09:05,10.1.1.6,27,0.030,0.030,0.030,0.000,0.000,0.000
1644350945457143040,2022-02-08-20:09:05,10.1.1.6,26,0.040,0.040,0.040,0.000,0.000,0.000
1644350945557153024,2022-02-08-20:09:05,10.1.1.6,23,0.050,0.050,0.050,0.000,0.000,0.000
1644350945657099008,2022-02-08-20:09:05,10.1.1.6,22,0.060,0.060,0.060,0.000,0.000,0.000
1644350945758542080,2022-02-08-20:09:05,10.1.1.6,21,0.070,0.070,0.070,0.000,0.000,0.000
1644350945857448960,2022-02-08-20:09:05,10.1.1.6,21,0.080,0.080,0.080,0.000,0.000,0.000
1644350945978934016,2022-02-08-20:09:05,10.1.1.6,33,0.090,0.090,0.090,0.000,0.000,0.000
1644350946078578944,2022-02-08-20:09:06,10.1.1.6,33,0.100,0.100,0.100,0.000,0.000,0.000
1644350946179539968,2022-02-08-20:09:06,10.1.1.6,30,0.090,0.090,0.090,0.000,0.000,0.000
1644350946278054912,2022-02-08-20:09:06,10.1.1.6,29,0.080,0.080,0.080,0.000,0.000,0.000
1644350946377527040,2022-02-08-20:09:06,10.1.1.6,28,0.070,0.070,0.070,0.000,0.000,0.000
1644350946477304064,2022-02-08-20:09:06,10.1.1.6,28,0.060,0.060,0.060,0.000,0.000,0.000
1644350946577598976,2022-02-08-20:09:06,10.1.1.6,28,0.050,0.050,0.050,0.000,0.000,0.000
1644350946676827904,2022-02-08-20:09:06,10.1.1.6,27,0.040,0.040,0.040,0.000,0.000,0.000
1644350946777357056,2022-02-08-20:09:06,10.1.1.6,27,0.030,0.030,0.030,0.000,0.000,0.000
1644350946877110016,2022-02-08-20:09:06,10.1.1.6,26,0.020,0.020,0.020,0.000,0.000,0.000
1644350946976808960,2022-02-08-20:09:06,10.1.1.6,23,0.010,0.010,0.010,0.000,0.000,0.000
1644350947077174784,2022-02-08-20:09:07,10.1.1.6,23,0.000,0.000,0.000,0.000,0.000,0.000
1644350947185085952,2022-02-08-20:09:07,10.1.1.6,22,-0.010,-0.010,-0.010,0.000,0.000,0.000
1644350947277071104,2022-02-08-20:09:07,10.1.1.6,22,-0.020,-0.020,-0.020,0.000,0.000,0.000
1644350947377142784,2022-02-08-20:09:07,10.1.1.6,21,-0.030,-0.030,-0.030,0.000,0.000,0.000
1644350947477801984,2022-02-08-20:09:07,10.1.1.6,21,-0.040,-0.040,-0.040,0.000,0.000,0.000
1644350947577219840,2022-02-08-20:09:07,10.1.1.6,21,-0.050,-0.050,-0.050,0.000,0.000,0.000
1644350947678067968,2022-02-08-20:09:07,10.1.1.6,20,-0.060,-0.060,-0.060,0.000,0.000,0.000
1644350947777477888,2022-02-08-20:09:07,10.1.1.6,19,-0.069,-0.069,-0.069,0.000,0.000,0.000
1644350947897330944,2022-02-08-20:09:07,10.1.1.6,38,-0.080,-0.080,-0.080,0.000,0.000,0.000
1644350947997700864,2022-02-08-20:09:07,10.1.1.6,38,-0.090,-0.090,-0.090,0.000,0.000,0.000
1644350948097459200,2022-02-08-20:09:08,10.1.1.6,37,-0.100,-0.100,-0.100,0.000,0.000,0.000
1644350948197114112,2022-02-08-20:09:08,10.1.1.6,37,-0.090,-0.090,-0.090,0.000,0.000,0.000
1644350948297384960,2022-02-08-20:09:08,10.1.1.6,36,-0.080,-0.080,-0.080,0.000,0.000,0.000
1644350948397116928,2022-02-08-20:09:08,10.1.1.6,36,-0.070,-0.070,-0.070,0.000,0.000,0.000
1644350948498194944,2022-02-08-20:09:08,10.1.1.6,35,-0.060,-0.060,-0.060,0.000,0.000,0.000
1644350948607881984,2022-02-08-20:09:08,10.1.1.6,35,-0.050,-0.050,-0.050,0.000,0.000,0.000
1644350948819772928,2022-02-08-20:09:08,10.1.1.6,33,-0.030,-0.030,-0.030,0.000,0.000,0.000
1644350948897673984,2022-02-08-20:09:08,10.1.1.6,32,-0.020,-0.020,-0.020,0.000,0.000,0.000
1644350949004544000,2022-02-08-20:09:09,10.1.1.6,31,-0.010,-0.010,-0.010,0.000,0.000,0.000
1644350949097349888,2022-02-08-20:09:09,10.1.1.6,31,-0.000,-0.000,-0.000,0.000,0.000,0.000
1644350949197870848,2022-02-08-20:09:09,10.1.1.6,30,0.010,0.010,0.010,0.000,0.000,0.000
1644350949297602048,2022-02-08-20:09:09,10.1.1.6,29,0.020,0.020,0.020,0.000,0.000,0.000
1644350949397607936,2022-02-08-20:09:09,10.1.1.6,29,0.030,0.030,0.030,0.000,0.000,0.000
1644350949497410048,2022-02-08-20:09:09,10.1.1.6,28,0.040,0.040,0.040,0.000,0.000,0.000
1644350949598299136,2022-02-08-20:09:09,10.1.1.6,28,0.050,0.050,0.050,0.000,0.000,0.000
1644350949699825920,2022-02-08-20:09:09,10.1.1.6,27,0.060,0.060,0.060,0.000,0.000,0.000
1644350949797320960,2022-02-08-20:09:09,10.1.1.6,23,0.070,0.070,0.070,0.000,0.000,0.000
1644350949897284096,2022-02-08-20:09:09,10.1.1.6,22,0.080,0.080,0.080,0.000,0.000,0.000
1644350949997576960,2022-02-08-20:09:09,10.1.1.6,22,0.090,0.090,0.090,0.000,0.000,0.000
1644350950097735936,2022-02-08-20:09:10,10.1.1.6,21,0.100,0.100,0.100,0.000,0.000,0.000
1644350950197801984,2022-02-08-20:09:10,10.1.1.6,21,0.090,0.090,0.090,0.000,0.000,0.000
1644350950297477888,2022-02-08-20:09:10,10.1.1.6,20,0.080,0.080,0.080,0.000,0.000,0.000
1644350950397729024,2022-02-08-20:09:10,10.1.1.6,19,0.070,0.070,0.070,0.000,0.000,0.000
1644350950497335808,2022-02-08-20:09:10,10.1.1.6,19,0.061,0.061,0.061,0.000,0.000,0.000
1644350950617580032,2022-02-08-20:09:10,10.1.1.6,38,0.050,0.050,0.050,0.000,0.000,0.000
1644350950718580992,2022-02-08-20:09:10,10.1.1.6,38,0.040,0.040,0.040,0.000,0.000,0.000
1644350950817390080,2022-02-08-20:09:10,10.1.1.6,38,0.030,0.030,0.030,0.000,0.000,0.000
1644350950918360064,2022-02-08-20:09:10,10.1.1.6,37,0.020,0.020,0.020,0.000,0.000,0.000
1644350951017601024,2022-02-08-20:09:11,10.1.1.6,35,0.010,0.010,0.010,0.000,0.000,0.000
1644350951117381120,2022-02-08-20:09:11,10.1.1.6,35,0.000,0.000,0.000,0.000,0.000,0.000
1644350951217403904,2022-02-08-20:09:11,10.1.1.6,32,-0.010,-0.010,-0.010,0.000,0.000,0.000
1644350951338610944,2022-02-08-20:09:11,10.1.1.6,29,-0.020,-0.020,-0.020,0.000,0.000,0.000
1644350951437352960,2022-02-08-20:09:11,10.1.1.6,27,-0.030,-0.030,-0.030,0.000,0.000,0.000
1644350951538206208,2022-02-08-20:09:11,10.1.1.6,27,-0.040,-0.040,-0.040,0.000,0.000,0.000
1644350951637757952,2022-02-08-20:09:11,10.1.1.6,26,-0.050,-0.050,-0.050,0.000,0.000,0.000
1644350951738550784,2022-02-08-20:09:11,10.1.1.6,26,-0.060,-0.060,-0.060,0.000,0.000,0.000
1644350951837136128,2022-02-08-20:09:11,10.1.1.6,24,-0.070,-0.070,-0.070,0.000,0.000,0.000
1644350951937110016,2022-02-08-20:09:11,10.1.1.6,24,-0.080,-0.080,-0.080,0.000,0.000,0.000
1644350952037268992,2022-02-08-20:09:12,10.1.1.6,23,-0.090,-0.090,-0.090,0.000,0.000,0.000
1644350952138294016,2022-02-08-20:09:12,10.1.1.6,23,-0.100,-0.100,-0.100,0.000,0.000,0.000
1644350952237446912,2022-02-08-20:09:12,10.1.1.6,22,-0.090,-0.090,-0.090,0.000,0.000,0.000
1644350952337549824,2022-02-08-20:09:12,10.1.1.6,21,-0.080,-0.080,-0.080,0.000,0.000,0.000
1644350952439107840,2022-02-08-20:09:12,10.1.1.6,21,-0.070,-0.070,-0.070,0.000,0.000,0.000
1644350952537772800,2022-02-08-20:09:12,10.1.1.6,20,-0.060,-0.060,-0.060,0.000,0.000,0.000
1644350952677579008,2022-02-08-20:09:12,10.1.1.6,19,-0.050,-0.050,-0.050,0.000,0.000,0.000
1644350952757523968,2022-02-08-20:09:12,10.1.1.6,36,-0.040,-0.040,-0.040,0.000,0.000,0.000
1644350952857812992,2022-02-08-20:09:12,10.1.1.6,35,-0.030,-0.030,-0.030,0.000,0.000,0.000
1644350952960623872,2022-02-08-20:09:12,10.1.1.6,34,-0.020,-0.020,-0.020,0.000,0.000,0.000
1644350953058412032,2022-02-08-20:09:13,10.1.1.6,34,-0.010,-0.010,-0.010,0.000,0.000,0.000
1644350953157454080,2022-02-08-20:09:13,10.1.1.6,32,0.000,0.000,0.000,0.000,0.000,0.000
1644350953257814016,2022-02-08-20:09:13,10.1.1.6,31,0.010,0.010,0.010,0.000,0.000,0.000
1644350953357904896,2022-02-08-20:09:13,10.1.1.6,31,0.020,0.020,0.020,0.000,0.000,0.000
1644350953458355968,2022-02-08-20:09:13,10.1.1.6,29,0.030,0.030,0.030,0.000,0.000,0.000
1644350953558057984,2022-02-08-20:09:13,10.1.1.6,29,0.040,0.040,0.040,0.000,0.000,0.000
1644350953657800960,2022-02-08-20:09:13,10.1.1.6,28,0.050,0.050,0.050,0.000,0.000,0.000
1644350953759289088,2022-02-08-20:09:13,10.1.1.6,27,0.060,0.060,0.060,0.000,0.000,0.000
1644350953857068032,2022-02-08-20:09:13,10.1.1.6,25,0.070,0.070,0.070,0.000,0.000,0.000
1644350953957593856,2022-02-08-20:09:13,10.1.1.6,23,0.080,0.080,0.080,0.000,0.000,0.000
1644350954057836032,2022-02-08-20:09:14,10.1.1.6,22,0.090,0.090,0.090,0.000,0.000,0.000
1644350954157818112,2022-02-08-20:09:14,10.1.1.6,22,0.100,0.100,0.100,0.000,0.000,0.000
1644350954257810944,2022-02-08-20:09:14,10.1.1.6,21,0.090,0.090,0.090,0.000,0.000,0.000
1644350954357891072,2022-02-08-20:09:14,10.1.1.6,20,0.080,0.080,0.080,0.000,0.000,0.000
1644350954478482944,2022-02-08-20:09:14,10.1.1.6,39,0.070,0.070,0.070,0.000,0.000,0.000
1644350954578792192,2022-02-08-20:09:14,10.1.1.6,38,0.060,0.060,0.060,0.000,0.000,0.000
1644350954697838080,2022-02-08-20:09:14,10.1.1.6,28,0.050,0.050,0.050,0.000,0.000,0.000
1644350954797570816,2022-02-08-20:09:14,10.1.1.6,27,0.040,0.040,0.040,0.000,0.000,0.000
1644350954897044992,2022-02-08-20:09:14,10.1.1.6,27,0.030,0.030,0.030,0.000,0.000,0.000
1644350954997200896,2022-02-08-20:09:14,10.1.1.6,26,0.020,0.020,0.020,0.000,0.000,0.000
1644350955097570816,2022-02-08-20:09:15,10.1.1.6,26,0.010,0.010,0.010,0.000,0.000,0.000
1644350955197620992,2022-02-08-20:09:15,10.1.1.6,26,0.000,0.000,0.000,0.000,0.000,0.000
1644350955297492992,2022-02-08-20:09:15,10.1.1.6,25,-0.010,-0.010,-0.010,0.000,0.000,0.000
1644350955397448960,2022-02-08-20:09:15,10.1.1.6,25,-0.020,-0.020,-0.020,0.000,0.000,0.000
1644350955497615104,2022-02-08-20:09:15,10.1.1.6,25,-0.030,-0.030,-0.030,0.000,0.000,0.000
1644350955604216064,2022-02-08-20:09:15,10.1.1.6,24,-0.040,-0.040,-0.040,0.000,0.000,0.000
1644350955698152960,2022-02-08-20:09:15,10.1.1.6,22,-0.050,-0.050,-0.050,0.000,0.000,0.000
1644350955798077952,2022-02-08-20:09:15,10.1.1.6,21,-0.060,-0.060,-0.060,0.000,0.000,0.000
1644350955898227968,2022-02-08-20:09:15,10.1.1.6,21,-0.070,-0.070,-0.070,0.000,0.000,0.000
1644350955999032064,2022-02-08-20:09:15,10.1.1.6,21,-0.080,-0.080,-0.080,0.000,0.000,0.000
1644350956098238976,2022-02-08-20:09:16,10.1.1.6,19,-0.090,-0.090,-0.090,0.000,0.000,0.000
1644350956198415104,2022-02-08-20:09:16,10.1.1.6,19,-0.099,-0.099,-0.099,0.000,0.000,0.000
1644350956317961984,2022-02-08-20:09:16,10.1.1.6,38,-0.090,-0.090,-0.090,0.000,0.000,0.000
1644350956417721088,2022-02-08-20:09:16,10.1.1.6,38,-0.080,-0.080,-0.080,0.000,0.000,0.000
1644350956518171904,2022-02-08-20:09:16,10.1.1.6,37,-0.070,-0.070,-0.070,0.000,0.000,0.000
1644350956618392064,2022-02-08-20:09:16,10.1.1.6,37,-0.060,-0.060,-0.060,0.000,0.000,0.000
1644350956717717760,2022-02-08-20:09:16,10.1.1.6,36,-0.050,-0.050,-0.050,0.000,0.000,0.000
1644350956818042112,2022-02-08-20:09:16,10.1.1.6,35,-0.040,-0.040,-0.040,0.000,0.000,0.000
1644350956917857024,2022-02-08-20:09:16,10.1.1.6,34,-0.030,-0.030,-0.030,0.000,0.000,0.000
1644350957017931008,2022-02-08-20:09:17,10.1.1.6,30,-0.020,-0.020,-0.020,0.000,0.000,0.000
1644350957117198848,2022-02-08-20:09:17,10.1.1.6,29,-0.010,-0.010,-0.010,0.000,0.000,0.000
1644350957296849920,2022-02-08-20:09:17,10.1.1.6,19,-0.000,-0.000,-0.000,0.000,0.000,0.000
1644350957517678080,2022-02-08-20:09:17,10.1.1.6,35,0.020,0.020,0.020,0.000,0.000,0.000
1644350957609041920,2022-02-08-20:09:17,10.1.1.6,24,0.030,0.030,0.030,0.000,0.000,0.000
1644350957718703104,2022-02-08-20:09:17,10.1.1.6,30,0.040,0.040,0.040,0.000,0.000,0.000
1644350957817811968,2022-02-08-20:09:17,10.1.1.6,28,0.050,0.050,0.050,0.000,0.000,0.000
1644350957918200064,2022-02-08-20:09:17,10.1.1.6,28,0.060,0.060,0.060,0.000,0.000,0.000
1644350958055539968,2022-02-08-20:09:18,10.1.1.6,22,0.070,0.070,0.070,0.000,0.000,0.000
1644350958117913088,2022-02-08-20:09:18,10.1.1.6,21,0.080,0.080,0.080,0.000,0.000,0.000
1644350958225085952,2022-02-08-20:09:18,10.1.1.6,20,0.090,0.090,0.090,0.000,0.000,0.000
1644350958317787904,2022-02-08-20:09:18,10.1.1.6,20,0.100,0.100,0.100,0.000,0.000,0.000
1644350958417911040,2022-02-08-20:09:18,10.1.1.6,19,0.091,0.091,0.091,0.000,0.000,0.000
1644350958539966976,2022-02-08-20:09:18,10.1.1.6,38,0.080,0.080,0.080,0.000,0.000,0.000
1644350958638115840,2022-02-08-20:09:18,10.1.1.6,37,0.070,0.070,0.070,0.000,0.000,0.000
1644350958738455040,2022-02-08-20:09:18,10.1.1.6,36,0.060,0.060,0.060,0.000,0.000,0.000
1644350958838944000,2022-02-08-20:09:18,10.1.1.6,33,0.050,0.050,0.050,0.000,0.000,0.000
1644350958937492992,2022-02-08-20:09:18,10.1.1.6,30,0.040,0.040,0.040,0.000,0.000,0.000
1644350959038530048,2022-02-08-20:09:19,10.1.1.6,29,0.030,0.030,0.030,0.000,0.000,0.000
1644350959139224064,2022-02-08-20:09:19,10.1.1.6,29,0.020,0.020,0.020,0.000,0.000,0.000
1644350959238205952,2022-02-08-20:09:19,10.1.1.6,28,0.010,0.010,0.010,0.000,0.000,0.000
1644350959345693952,2022-02-08-20:09:19,10.1.1.6,27,0.000,0.000,0.000,0.000,0.000,0.000
1644350959438426880,2022-02-08-20:09:19,10.1.1.6,26,-0.010,-0.010,-0.010,0.000,0.000,0.000
1644350959539247104,2022-02-08-20:09:19,10.1.1.6,25,-0.020,-0.020,-0.020,0.000,0.000,0.000
1644350959638310912,2022-02-08-20:09:19,10.1.1.6,22,-0.030,-0.030,-0.030,0.000,0.000,0.000
1644350959738905856,2022-02-08-20:09:19,10.1.1.6,21,-0.040,-0.040,-0.040,0.000,0.000,0.000
1644350959859427072,2022-02-08-20:09:19,10.1.1.6,38,-0.050,-0.050,-0.050,0.000,0.000,0.000
1644350959958816000,2022-02-08-20:09:19,10.1.1.6,36,-0.060,-0.060,-0.060,0.000,0.000,0.000
1644350960060178944,2022-02-08-20:09:20,10.1.1.6,34,-0.070,-0.070,-0.070,0.000,0.000,0.000
1644350960159683072,2022-02-08-20:09:20,10.1.1.6,32,-0.080,-0.080,-0.080,0.000,0.000,0.000
1644350960258754048,2022-02-08-20:09:20,10.1.1.6,29,-0.090,-0.090,-0.090,0.000,0.000,0.000
1644350960358014208,2022-02-08-20:09:20,10.1.1.6,27,-0.100,-0.100,-0.100,0.000,0.000,0.000
1644350960459480064,2022-02-08-20:09:20,10.1.1.6,27,-0.090,-0.090,-0.090,0.000,0.000,0.000
1644350960558120960,2022-02-08-20:09:20,10.1.1.6,26,-0.080,-0.080,-0.080,0.000,0.000,0.000
1644350960657481984,2022-02-08-20:09:20,10.1.1.6,23,-0.070,-0.070,-0.070,0.000,0.000,0.000
1644350960758213120,2022-02-08-20:09:20,10.1.1.6,22,-0.060,-0.060,-0.060,0.000,0.000,0.000
1644350960857167104,2022-02-08-20:09:20,10.1.1.6,22,-0.050,-0.050,-0.050,0.000,0.000,0.000
1644350960957815808,2022-02-08-20:09:20,10.1.1.6,21,-0.040,-0.040,-0.040,0.000,0.000,0.000
1644350961059137024,2022-02-08-20:09:21,10.1.1.6,20,-0.030,-0.030,-0.030,0.000,0.000,0.000
1644350961177633024,2022-02-08-20:09:21,10.1.1.6,38,-0.020,-0.020,-0.020,0.000,0.000,0.000
1644350961278629120,2022-02-08-20:09:21,10.1.1.6,37,-0.010,-0.010,-0.010,0.000,0.000,0.000
1644350961380086016,2022-02-08-20:09:21,10.1.1.6,37,0.000,0.000,0.000,0.000,0.000,0.000
1644350961477915136,2022-02-08-20:09:21,10.1.1.6,36,0.010,0.010,0.010,0.000,0.000,0.000
1644350961578136064,2022-02-08-20:09:21,10.1.1.6,35,0.020,0.020,0.020,0.000,0.000,0.000
1644350961678343936,2022-02-08-20:09:21,10.1.1.6,34,0.030,0.030,0.030,0.000,0.000,0.000
1644350961778070016,2022-02-08-20:09:21,10.1.1.6,34,0.040,0.040,0.040,0.000,0.000,0.000
1644350961877309952,2022-02-08-20:09:21,10.1.1.6,33,0.050,0.050,0.050,0.000,0.000,0.000
1644350961977660928,2022-02-08-20:09:21,10.1.1.6,32,0.060,0.060,0.060,0.000,0.000,0.000
1644350962077713920,2022-02-08-20:09:22,10.1.1.6,29,0.070,0.070,0.070,0.000,0.000,0.000
1644350962177511936,2022-02-08-20:09:22,10.1.1.6,29,0.080,0.080,0.080,0.000,0.000,0.000
1644350962278546944,2022-02-08-20:09:22,10.1.1.6,28,0.090,0.090,0.090,0.000,0.000,0.000
1644350962377989888,2022-02-08-20:09:22,10.1.1.6,28,0.100,0.100,0.100,0.000,0.000,0.000
1644350962477457152,2022-02-08-20:09:22,10.1.1.6,27,0.090,0.090,0.090,0.000,0.000,0.000
1644350962577745920,2022-02-08-20:09:22,10.1.1.6,27,0.080,0.080,0.080,0.000,0.000,0.000
1644350962678513152,2022-02-08-20:09:22,10.1.1.6,26,0.070,0.070,0.070,0.000,0.000,0.000
1644350962777308928,2022-02-08-20:09:22,10.1.1.6,26,0.060,0.060,0.060,0.000,0.000,0.000
1644350962877641984,2022-02-08-20:09:22,10.1.1.6,25,0.050,0.050,0.050,0.000,0.000,0.000
1644350962978353920,2022-02-08-20:09:22,10.1.1.6,25,0.040,0.040,0.040,0.000,0.000,0.000
1644350963077754880,2022-02-08-20:09:23,10.1.1.6,22,0.030,0.030,0.030,0.000,0.000,0.000
1644350963317469952,2022-02-08-20:09:23,10.1.1.6,38,0.010,0.010,0.010,0.000,0.000,0.000
1644350963417948928,2022-02-08-20:09:23,10.1.1.6,37,0.000,0.000,0.000,0.000,0.000,0.000
1644350963517481984,2022-02-08-20:09:23,10.1.1.6,37,-0.010,-0.010,-0.010,0.000,0.000,0.000
1644350963677617920,2022-02-08-20:09:23,10.1.1.6,27,-0.020,-0.020,-0.020,0.000,0.000,0.000
1644350963777725952,2022-02-08-20:09:23,10.1.1.6,27,-0.030,-0.030,-0.030,0.000,0.000,0.000
1644350963877453056,2022-02-08-20:09:23,10.1.1.6,26,-0.040,-0.040,-0.040,0.000,0.000,0.000
1644350963977590016,2022-02-08-20:09:23,10.1.1.6,25,-0.050,-0.050,-0.050,0.000,0.000,0.000
1644350964077698048,2022-02-08-20:09:24,10.1.1.6,24,-0.060,-0.060,-0.060,0.000,0.000,0.000
1644350964177571072,2022-02-08-20:09:24,10.1.1.6,24,-0.070,-0.070,-0.070,0.000,0.000,0.000
1644350964277376000,2022-02-08-20:09:24,10.1.1.6,23,-0.080,-0.080,-0.080,0.000,0.000,0.000
1644350964377468160,2022-02-08-20:09:24,10.1.1.6,22,-0.090,-0.090,-0.090,0.000,0.000,0.000
1644350964477643008,2022-02-08-20:09:24,10.1.1.6,22,-0.100,-0.100,-0.100,0.000,0.000,0.000
1644350964578243072,2022-02-08-20:09:24,10.1.1.6,22,-0.090,-0.090,-0.090,0.000,0.000,0.000
1644350964677711104,2022-02-08-20:09:24,10.1.1.6,21,-0.080,-0.080,-0.080,0.000,0.000,0.000
1644350964777806080,2022-02-08-20:09:24,10.1.1.6,20,-0.070,-0.070,-0.070,0.000,0.000,0.000
1644350964897775872,2022-02-08-20:09:24,10.1.1.6,38,-0.060,-0.060,-0.060,0.000,0.000,0.000
1644350964998311936,2022-02-08-20:09:24,10.1.1.6,37,-0.050,-0.050,-0.050,0.000,0.000,0.000
1644350965097176064,2022-02-08-20:09:25,10.1.1.6,36,-0.040,-0.040,-0.040,0.000,0.000,0.000
1644350965197660928,2022-02-08-20:09:25,10.1.1.6,35,-0.030,-0.030,-0.030,0.000,0.000,0.000
1644350965297799168,2022-02-08-20:09:25,10.1.1.6,34,-0.020,-0.020,-0.020,0.000,0.000,0.000
1644350965397519104,2022-02-08-20:09:25,10.1.1.6,33,-0.010,-0.010,-0.010,0.000,0.000,0.000
1644350965497679872,2022-02-08-20:09:25,10.1.1.6,32,0.000,0.000,0.000,0.000,0.000,0.000
1644350965597487872,2022-02-08-20:09:25,10.1.1.6,31,0.010,0.010,0.010,0.000,0.000,0.000
1644350965697211904,2022-02-08-20:09:25,10.1.1.6,30,0.020,0.020,0.020,0.000,0.000,0.000
1644350965797353984,2022-02-08-20:09:25,10.1.1.6,29,0.030,0.030,0.030,0.000,0.000,0.000
1644350965897528832,2022-02-08-20:09:25,10.1.1.6,28,0.040,0.040,0.040,0.000,0.000,0.000
1644350965997561088,2022-02-08-20:09:25,10.1.1.6,28,0.050,0.050,0.050,0.000,0.000,0.000
1644350966097410048,2022-02-08-20:09:26,10.1.1.6,28,0.060,0.060,0.060,0.000,0.000,0.000
1644350966198099968,2022-02-08-20:09:26,10.1.1.6,27,0.070,0.070,0.070,0.000,0.000,0.000
1644350966297346048,2022-02-08-20:09:26,10.1.1.6,26,0.080,0.080,0.080,0.000,0.000,0.000
1644350966397468928,2022-02-08-20:09:26,10.1.1.6,26,0.090,0.090,0.090,0.000,0.000,0.000
1644350966497526016,2022-02-08-20:09:26,10.1.1.6,24,0.100,0.100,0.100,0.000,0.000,0.000
1644350966597851904,2022-02-08-20:09:26,10.1.1.6,24,0.090,0.090,0.090,0.000,0.000,0.000
1644350966697374976,2022-02-08-20:09:26,10.1.1.6,23,0.080,0.080,0.080,0.000,0.000,0.000
1644350966798321920,2022-02-08-20:09:26,10.1.1.6,23,0.070,0.070,0.070,0.000,0.000,0.000
1644350966897804032,2022-02-08-20:09:26,10.1.1.6,22,0.060,0.060,0.060,0.000,0.000,0.000
1644350966997311232,2022-02-08-20:09:26,10.1.1.6,22,0.050,0.050,0.050,0.000,0.000,0.000
1644350967097330944,2022-02-08-20:09:27,10.1.1.6,21,0.040,0.040,0.040,0.000,0.000,0.000
1644350967197534208,2022-02-08-20:09:27,10.1.1.6,20,0.030,0.030,0.030,0.000,0.000,0.000
1644350967297143040,2022-02-08-20:09:27,10.1.1.6,19,0.020,0.020,0.020,0.000,0.000,0.000
1644350967417332992,2022-02-08-20:09:27,10.1.1.6,38,0.010,0.010,0.010,0.000,0.000,0.000
1644350967517710848,2022-02-08-20:09:27,10.1.1.6,38,0.000,0.000,0.000,0.000,0.000,0.000
1644350967617608960,2022-02-08-20:09:27,10.1.1.6,37,-0.010,-0.010,-0.010,0.000,0.000,0.000
1644350967717381888,2022-02-08-20:09:27,10.1.1.6,37,-0.020,-0.020,-0.020,0.000,0.000,0.000
1644350967817865984,2022-02-08-20:09:27,10.1.1.6,36,-0.030,-0.030,-0.030,0.000,0.000,0.000
1644350967918430976,2022-02-08-20:09:27,10.1.1.6,34,-0.040,-0.040,-0.040,0.000,0.000,0.000
1644350968018022144,2022-02-08-20:09:28,10.1.1.6,34,-0.050,-0.050,-0.050,0.000,0.000,0.000
1644350968117104896,2022-02-08-20:09:28,10.1.1.6,33,-0.060,-0.060,-0.060,0.000,0.000,0.000
1644350968217582848,2022-02-08-20:09:28,10.1.1.6,32,-0.070,-0.070,-0.070,0.000,0.000,0.000
1644350968317862912,2022-02-08-20:09:28,10.1.1.6,31,-0.080,-0.080,-0.080,0.000,0.000,0.000
1644350968418786048,2022-02-08-20:09:28,10.1.1.6,30,-0.090,-0.090,-0.090,0.000,0.000,0.000
1644350968518030848,2022-02-08-20:09:28,10.1.1.6,30,-0.100,-0.100,-0.100,0.000,0.000,0.000
1644350968578799872,2022-02-08-20:09:28,10.1.1.6,-11,-0.100,-0.100,-0.100,0.000,0.000,0.000
1644350968717175040,2022-02-08-20:09:28,10.1.1.6,28,-0.080,-0.080,-0.080,0.000,0.000,0.000
1644350968817689856,2022-02-08-20:09:28,10.1.1.6,28,-0.070,-0.070,-0.070,0.000,0.000,0.000
1644350968917582080,2022-02-08-20:09:28,10.1.1.6,27,-0.060,-0.060,-0.060,0.000,0.000,0.000
1644350969018246912,2022-02-08-20:09:29,10.1.1.6,27,-0.050,-0.050,-0.050,0.000,0.000,0.000
1644350969117587968,2022-02-08-20:09:29,10.1.1.6,26,-0.040,-0.040,-0.040,0.000,0.000,0.000
1644350969217380096,2022-02-08-20:09:29,10.1.1.6,24,-0.030,-0.030,-0.030,0.000,0.000,0.000
1644350969317216000,2022-02-08-20:09:29,10.1.1.6,23,-0.020,-0.020,-0.020,0.000,0.000,0.000
1644350969417538048,2022-02-08-20:09:29,10.1.1.6,22,-0.010,-0.010,-0.010,0.000,0.000,0.000
1644350969517456128,2022-02-08-20:09:29,10.1.1.6,22,0.000,0.000,0.000,0.000,0.000,0.000
1644350969618291968,2022-02-08-20:09:29,10.1.1.6,22,0.010,0.010,0.010,0.000,0.000,0.000
1644350969717778944,2022-02-08-20:09:29,10.1.1.6,21,0.020,0.020,0.020,0.000,0.000,0.000
1644350969817584896,2022-02-08-20:09:29,10.1.1.6,20,0.030,0.030,0.030,0.000,0.000,0.000
1644350969918565120,2022-02-08-20:09:29,10.1.1.6,19,0.039,0.039,0.039,0.000,0.000,0.000
1644350970038043904,2022-02-08-20:09:30,10.1.1.6,38,0.050,0.050,0.050,0.000,0.000,0.000
1644350970137468160,2022-02-08-20:09:30,10.1.1.6,37,0.060,0.060,0.060,0.000,0.000,0.000
1644350970237755904,2022-02-08-20:09:30,10.1.1.6,37,0.070,0.070,0.070,0.000,0.000,0.000
1644350970338223872,2022-02-08-20:09:30,10.1.1.6,36,0.080,0.080,0.080,0.000,0.000,0.000
1644350970438194944,2022-02-08-20:09:30,10.1.1.6,36,0.090,0.090,0.090,0.000,0.000,0.000
1644350970537277952,2022-02-08-20:09:30,10.1.1.6,35,0.100,0.100,0.100,0.000,0.000,0.000
1644350970637486080,2022-02-08-20:09:30,10.1.1.6,34,0.090,0.090,0.090,0.000,0.000,0.000
1644350970737875968,2022-02-08-20:09:30,10.1.1.6,33,0.080,0.080,0.080,0.000,0.000,0.000
1644350970837762048,2022-02-08-20:09:30,10.1.1.6,32,0.070,0.070,0.070,0.000,0.000,0.000
1644350970937701888,2022-02-08-20:09:30,10.1.1.6,31,0.060,0.060,0.060,0.000,0.000,0.000
1644350971037923072,2022-02-08-20:09:31,10.1.1.6,31,0.050,0.050,0.050,0.000,0.000,0.000
1644350971137540096,2022-02-08-20:09:31,10.1.1.6,30,0.040,0.040,0.040,0.000,0.000,0.000
1644350971237720064,2022-02-08-20:09:31,10.1.1.6,30,0.030,0.030,0.030,0.000,0.000,0.000
1644350971337675008,2022-02-08-20:09:31,10.1.1.6,29,0.020,0.020,0.020,0.000,0.000,0.000
1644350971437607168,2022-02-08-20:09:31,10.1.1.6,28,0.010,0.010,0.010,0.000,0.000,0.000
1644350971538345216,2022-02-08-20:09:31,10.1.1.6,28,0.000,0.000,0.000,0.000,0.000,0.000
1644350971638503168,2022-02-08-20:09:31,10.1.1.6,27,-0.010,-0.010,-0.010,0.000,0.000,0.000
1644350971758923008,2022-02-08-20:09:31,10.1.1.6,47,-0.020,-0.020,-0.020,0.000,0.000,0.000
1644350971837506048,2022-02-08-20:09:31,10.1.1.6,26,-0.030,-0.030,-0.030,0.000,0.000,0.000
1644350971937506048,2022-02-08-20:09:31,10.1.1.6,26,-0.040,-0.040,-0.040,0.000,0.000,0.000
1644350972038281984,2022-02-08-20:09:32,10.1.1.6,25,-0.050,-0.050,-0.050,0.000,0.000,0.000
1644350972137475840,2022-02-08-20:09:32,10.1.1.6,24,-0.060,-0.060,-0.060,0.000,0.000,0.000
1644350972238049024,2022-02-08-20:09:32,10.1.1.6,22,-0.070,-0.070,-0.070,0.000,0.000,0.000
1644350972337598976,2022-02-08-20:09:32,10.1.1.6,22,-0.080,-0.080,-0.080,0.000,0.000,0.000
1644350972438344960,2022-02-08-20:09:32,10.1.1.6,21,-0.090,-0.090,-0.090,0.000,0.000,0.000
1644350972537720832,2022-02-08-20:09:32,10.1.1.6,20,-0.100,-0.100,-0.100,0.000,0.000,0.000
1644350972637618944,2022-02-08-20:09:32,10.1.1.6,19,-0.090,-0.090,-0.090,0.000,0.000,0.000
1644350972758946048,2022-02-08-20:09:32,10.1.1.6,38,-0.080,-0.080,-0.080,0.000,0.000,0.000
1644350972858174976,2022-02-08-20:09:32,10.1.1.6,37,-0.070,-0.070,-0.070,0.000,0.000,0.000
1644350972958484992,2022-02-08-20:09:32,10.1.1.6,36,-0.060,-0.060,-0.060,0.000,0.000,0.000
1644350973058461952,2022-02-08-20:09:33,10.1.1.6,35,-0.050,-0.050,-0.050,0.000,0.000,0.000
1644350973159414016,2022-02-08-20:09:33,10.1.1.6,34,-0.040,-0.040,-0.040,0.000,0.000,0.000
1644350973257648896,2022-02-08-20:09:33,10.1.1.6,33,-0.030,-0.030,-0.030,0.000,0.000,0.000
1644350973358130944,2022-02-08-20:09:33,10.1.1.6,32,-0.020,-0.020,-0.020,0.000,0.000,0.000
1644350973457468160,2022-02-08-20:09:33,10.1.1.6,31,-0.010,-0.010,-0.010,0.000,0.000,0.000
1644350973557895936,2022-02-08-20:09:33,10.1.1.6,31,0.000,0.000,0.000,0.000,0.000,0.000
1644350973658195968,2022-02-08-20:09:33,10.1.1.6,30,0.010,0.010,0.010,0.000,0.000,0.000
1644350973757797120,2022-02-08-20:09:33,10.1.1.6,29,0.020,0.020,0.020,0.000,0.000,0.000
1644350973857840896,2022-02-08-20:09:33,10.1.1.6,28,0.030,0.030,0.030,0.000,0.000,0.000
1644350973957881088,2022-02-08-20:09:33,10.1.1.6,27,0.040,0.040,0.040,0.000,0.000,0.000
1644350974077652992,2022-02-08-20:09:34,10.1.1.6,46,0.050,0.050,0.050,0.000,0.000,0.000
1644350974157596160,2022-02-08-20:09:34,10.1.1.6,25,0.060,0.060,0.060,0.000,0.000,0.000
1644350974257688064,2022-02-08-20:09:34,10.1.1.6,24,0.070,0.070,0.070,0.000,0.000,0.000
1644350974357714944,2022-02-08-20:09:34,10.1.1.6,24,0.080,0.080,0.080,0.000,0.000,0.000
1644350974457524992,2022-02-08-20:09:34,10.1.1.6,23,0.090,0.090,0.090,0.000,0.000,0.000
1644350974558924032,2022-02-08-20:09:34,10.1.1.6,22,0.100,0.100,0.100,0.000,0.000,0.000
1644350974657488128,2022-02-08-20:09:34,10.1.1.6,22,0.090,0.090,0.090,0.000,0.000,0.000
1644350974758189824,2022-02-08-20:09:34,10.1.1.6,21,0.080,0.080,0.080,0.000,0.000,0.000
1644350974857513984,2022-02-08-20:09:34,10.1.1.6,21,0.070,0.070,0.070,0.000,0.000,0.000
1644350974957623040,2022-02-08-20:09:34,10.1.1.6,20,0.060,0.060,0.060,0.000,0.000,0.000
1644350975057926912,2022-02-08-20:09:35,10.1.1.6,20,0.050,0.050,0.050,0.000,0.000,0.000
1644350975157319936,2022-02-08-20:09:35,10.1.1.6,19,0.040,0.040,0.040,0.000,0.000,0.000
1644350975277910016,2022-02-08-20:09:35,10.1.1.6,38,0.030,0.030,0.030,0.000,0.000,0.000
1644350975400065792,2022-02-08-20:09:35,10.1.1.6,37,0.020,0.020,0.020,0.000,0.000,0.000
1644350975478208000,2022-02-08-20:09:35,10.1.1.6,35,0.010,0.010,0.010,0.000,0.000,0.000
1644350975578262016,2022-02-08-20:09:35,10.1.1.6,34,0.000,0.000,0.000,0.000,0.000,0.000
1644350975678678016,2022-02-08-20:09:35,10.1.1.6,34,-0.010,-0.010,-0.010,0.000,0.000,0.000
1644350975777694976,2022-02-08-20:09:35,10.1.1.6,33,-0.020,-0.020,-0.020,0.000,0.000,0.000
1644350975878449920,2022-02-08-20:09:35,10.1.1.6,32,-0.030,-0.030,-0.030,0.000,0.000,0.000
1644350975977619968,2022-02-08-20:09:35,10.1.1.6,30,-0.040,-0.040,-0.040,0.000,0.000,0.000
1644350976077584128,2022-02-08-20:09:36,10.1.1.6,28,-0.050,-0.050,-0.050,0.000,0.000,0.000
1644350976183981824,2022-02-08-20:09:36,10.1.1.6,28,-0.060,-0.060,-0.060,0.000,0.000,0.000
1644350976277915904,2022-02-08-20:09:36,10.1.1.6,26,-0.070,-0.070,-0.070,0.000,0.000,0.000
1644350976378200064,2022-02-08-20:09:36,10.1.1.6,25,-0.080,-0.080,-0.080,0.000,0.000,0.000
1644350976478539008,2022-02-08-20:09:36,10.1.1.6,23,-0.090,-0.090,-0.090,0.000,0.000,0.000
1644350976578264832,2022-02-08-20:09:36,10.1.1.6,22,-0.100,-0.100,-0.100,0.000,0.000,0.000
1644350976678499072,2022-02-08-20:09:36,10.1.1.6,21,-0.090,-0.090,-0.090,0.000,0.000,0.000
1644350976778374912,2022-02-08-20:09:36,10.1.1.6,21,-0.080,-0.080,-0.080,0.000,0.000,0.000
1644350976878291968,2022-02-08-20:09:36,10.1.1.6,20,-0.070,-0.070,-0.070,0.000,0.000,0.000
1644350976978002176,2022-02-08-20:09:36,10.1.1.6,19,-0.061,-0.061,-0.061,0.000,0.000,0.000
1644350977097537024,2022-02-08-20:09:37,10.1.1.6,38,-0.050,-0.050,-0.050,0.000,0.000,0.000
1644350977198447104,2022-02-08-20:09:37,10.1.1.6,28,-0.040,-0.040,-0.040,0.000,0.000,0.000
1644350977297730816,2022-02-08-20:09:37,10.1.1.6,27,-0.030,-0.030,-0.030,0.000,0.000,0.000
1644350977399194112,2022-02-08-20:09:37,10.1.1.6,28,-0.020,-0.020,-0.020,0.000,0.000,0.000
1644350977497658112,2022-02-08-20:09:37,10.1.1.6,27,-0.010,-0.010,-0.010,0.000,0.000,0.000
1644350977597925888,2022-02-08-20:09:37,10.1.1.6,26,0.000,0.000,0.000,0.000,0.000,0.000
1644350977698034944,2022-02-08-20:09:37,10.1.1.6,26,0.010,0.010,0.010,0.000,0.000,0.000
1644350977798206976,2022-02-08-20:09:37,10.1.1.6,24,0.020,0.020,0.020,0.000,0.000,0.000
1644350977899358976,2022-02-08-20:09:37,10.1.1.6,20,0.030,0.030,0.030,0.000,0.000,0.000
1644350977997318144,2022-02-08-20:09:37,10.1.1.6,19,0.039,0.039,0.039,0.000,0.000,0.000
1644350978117854976,2022-02-08-20:09:38,10.1.1.6,38,0.050,0.050,0.050,0.000,0.000,0.000
1644350978217624064,2022-02-08-20:09:38,10.1.1.6,37,0.060,0.060,0.060,0.000,0.000,0.000
1644350978318035968,2022-02-08-20:09:38,10.1.1.6,37,0.070,0.070,0.070,0.000,0.000,0.000
1644350978418123008,2022-02-08-20:09:38,10.1.1.6,36,0.080,0.080,0.080,0.000,0.000,0.000
1644350978517741056,2022-02-08-20:09:38,10.1.1.6,35,0.090,0.090,0.090,0.000,0.000,0.000
1644350978617836032,2022-02-08-20:09:38,10.1.1.6,34,0.100,0.100,0.100,0.000,0.000,0.000
1644350978717844992,2022-02-08-20:09:38,10.1.1.6,34,0.090,0.090,0.090,0.000,0.000,0.000
1644350978817186048,2022-02-08-20:09:38,10.1.1.6,31,0.080,0.080,0.080,0.000,0.000,0.000
1644350978918398976,2022-02-08-20:09:38,10.1.1.6,31,0.070,0.070,0.070,0.000,0.000,0.000
1644350979017502976,2022-02-08-20:09:39,10.1.1.6,30,0.060,0.060,0.060,0.000,0.000,0.000
1644350979117996032,2022-02-08-20:09:39,10.1.1.6,29,0.050,0.050,0.050,0.000,0.000,0.000
1644350979219101952,2022-02-08-20:09:39,10.1.1.6,29,0.040,0.040,0.040,0.000,0.000,0.000
1644350979317684992,2022-02-08-20:09:39,10.1.1.6,28,0.030,0.030,0.030,0.000,0.000,0.000
1644350979417166848,2022-02-08-20:09:39,10.1.1.6,27,0.020,0.020,0.020,0.000,0.000,0.000
1644350979517121024,2022-02-08-20:09:39,10.1.1.6,26,0.010,0.010,0.010,0.000,0.000,0.000
1644350979617968128,2022-02-08-20:09:39,10.1.1.6,26,0.000,0.000,0.000,0.000,0.000,0.000
1644350979743438080,2022-02-08-20:09:39,10.1.1.6,22,-0.010,-0.010,-0.010,0.000,0.000,0.000
1644350979819480064,2022-02-08-20:09:39,10.1.1.6,21,-0.020,-0.020,-0.020,0.000,0.000,0.000
1644350979919537920,2022-02-08-20:09:39,10.1.1.6,20,-0.030,-0.030,-0.030,0.000,0.000,0.000
1644350980019148032,2022-02-08-20:09:40,10.1.1.6,19,-0.039,-0.039,-0.039,0.000,0.000,0.000
1644350980138232064,2022-02-08-20:09:40,10.1.1.6,38,-0.050,-0.050,-0.050,0.000,0.000,0.000
1644350980237870080,2022-02-08-20:09:40,10.1.1.6,37,-0.060,-0.060,-0.060,0.000,0.000,0.000
1644350980338094848,2022-02-08-20:09:40,10.1.1.6,36,-0.070,-0.070,-0.070,0.000,0.000,0.000
1644350980439794944,2022-02-08-20:09:40,10.1.1.6,35,-0.080,-0.080,-0.080,0.000,0.000,0.000
1644350980538355968,2022-02-08-20:09:40,10.1.1.6,33,-0.090,-0.090,-0.090,0.000,0.000,0.000
1644350980637468928,2022-02-08-20:09:40,10.1.1.6,32,-0.100,-0.100,-0.100,0.000,0.000,0.000
1644350980738720000,2022-02-08-20:09:40,10.1.1.6,31,-0.090,-0.090,-0.090,0.000,0.000,0.000
1644350980838323200,2022-02-08-20:09:40,10.1.1.6,30,-0.080,-0.080,-0.080,0.000,0.000,0.000
1644350980937769984,2022-02-08-20:09:40,10.1.1.6,30,-0.070,-0.070,-0.070,0.000,0.000,0.000
1644350981037832960,2022-02-08-20:09:41,10.1.1.6,29,-0.060,-0.060,-0.060,0.000,0.000,0.000
1644350981140596992,2022-02-08-20:09:41,10.1.1.6,28,-0.050,-0.050,-0.050,0.000,0.000,0.000
1644350981245363968,2022-02-08-20:09:41,10.1.1.6,25,-0.040,-0.040,-0.040,0.000,0.000,0.000
1644350981337639168,2022-02-08-20:09:41,10.1.1.6,24,-0.030,-0.030,-0.030,0.000,0.000,0.000
1644350981437369088,2022-02-08-20:09:41,10.1.1.6,23,-0.020,-0.020,-0.020,0.000,0.000,0.000
1644350981537736960,2022-02-08-20:09:41,10.1.1.6,22,-0.010,-0.010,-0.010,0.000,0.000,0.000
1644350981638041088,2022-02-08-20:09:41,10.1.1.6,22,0.000,0.000,0.000,0.000,0.000,0.000
1644350981737473024,2022-02-08-20:09:41,10.1.1.6,20,0.010,0.010,0.010,0.000,0.000,0.000
1644350981837606912,2022-02-08-20:09:41,10.1.1.6,19,0.019,0.019,0.019,0.000,0.000,0.000
1644350981957494016,2022-02-08-20:09:41,10.1.1.6,38,0.030,0.030,0.030,0.000,0.000,0.000
1644350982058149120,2022-02-08-20:09:42,10.1.1.6,37,0.040,0.040,0.040,0.000,0.000,0.000
1644350982157139968,2022-02-08-20:09:42,10.1.1.6,36,0.050,0.050,0.050,0.000,0.000,0.000
1644350982257424128,2022-02-08-20:09:42,10.1.1.6,35,0.060,0.060,0.060,0.000,0.000,0.000
1644350982357947136,2022-02-08-20:09:42,10.1.1.6,35,0.070,0.070,0.070,0.000,0.000,0.000
1644350982457905920,2022-02-08-20:09:42,10.1.1.6,33,0.080,0.080,0.080,0.000,0.000,0.000
1644350982557602816,2022-02-08-20:09:42,10.1.1.6,32,0.090,0.090,0.090,0.000,0.000,0.000
1644350982657479168,2022-02-08-20:09:42,10.1.1.6,31,0.100,0.100,0.100,0.000,0.000,0.000
1644350982757831936,2022-02-08-20:09:42,10.1.1.6,31,0.090,0.090,0.090,0.000,0.000,0.000
1644350982857148928,2022-02-08-20:09:42,10.1.1.6,30,0.080,0.080,0.080,0.000,0.000,0.000
1644350982958235904,2022-02-08-20:09:42,10.1.1.6,29,0.070,0.070,0.070,0.000,0.000,0.000
1644350983057477888,2022-02-08-20:09:43,10.1.1.6,27,0.060,0.060,0.060,0.000,0.000,0.000
1644350983158268928,2022-02-08-20:09:43,10.1.1.6,26,0.050,0.050,0.050,0.000,0.000,0.000
1644350983258865152,2022-02-08-20:09:43,10.1.1.6,26,0.040,0.040,0.040,0.000,0.000,0.000
1644350983357352960,2022-02-08-20:09:43,10.1.1.6,25,0.030,0.030,0.030,0.000,0.000,0.000
1644350983457960960,2022-02-08-20:09:43,10.1.1.6,24,0.020,0.020,0.020,0.000,0.000,0.000
1644350983558064896,2022-02-08-20:09:43,10.1.1.6,23,0.010,0.010,0.010,0.000,0.000,0.000
1644350983657686016,2022-02-08-20:09:43,10.1.1.6,22,0.000,0.000,0.000,0.000,0.000,0.000
1644350983757317120,2022-02-08-20:09:43,10.1.1.6,22,-0.010,-0.010,-0.010,0.000,0.000,0.000
1644350983858021120,2022-02-08-20:09:43,10.1.1.6,20,-0.020,-0.020,-0.020,0.000,0.000,0.000
1644350983957079808,2022-02-08-20:09:43,10.1.1.6,20,-0.030,-0.030,-0.030,0.000,0.000,0.000
1644350984077955072,2022-02-08-20:09:44,10.1.1.6,39,-0.040,-0.040,-0.040,0.000,0.000,0.000
1644350984177694976,2022-02-08-20:09:44,10.1.1.6,38,-0.050,-0.050,-0.050,0.000,0.000,0.000
1644350984277766912,2022-02-08-20:09:44,10.1.1.6,37,-0.060,-0.060,-0.060,0.000,0.000,0.000
1644350984378128128,2022-02-08-20:09:44,10.1.1.6,36,-0.070,-0.070,-0.070,0.000,0.000,0.000
1644350984477415168,2022-02-08-20:09:44,10.1.1.6,36,-0.080,-0.080,-0.080,0.000,0.000,0.000
1644350984578701056,2022-02-08-20:09:44,10.1.1.6,35,-0.090,-0.090,-0.090,0.000,0.000,0.000
1644350984678036992,2022-02-08-20:09:44,10.1.1.6,34,-0.100,-0.100,-0.100,0.000,0.000,0.000
1644350984777977088,2022-02-08-20:09:44,10.1.1.6,33,-0.090,-0.090,-0.090,0.000,0.000,0.000
1644350984877264896,2022-02-08-20:09:44,10.1.1.6,32,-0.080,-0.080,-0.080,0.000,0.000,0.000
1644350984977826048,2022-02-08-20:09:44,10.1.1.6,31,-0.070,-0.070,-0.070,0.000,0.000,0.000
1644350985078123008,2022-02-08-20:09:45,10.1.1.6,31,-0.060,-0.060,-0.060,0.000,0.000,0.000
1644350985177944832,2022-02-08-20:09:45,10.1.1.6,30,-0.050,-0.050,-0.050,0.000,0.000,0.000
1644350985277810176,2022-02-08-20:09:45,10.1.1.6,29,-0.040,-0.040,-0.040,0.000,0.000,0.000
1644350985378545920,2022-02-08-20:09:45,10.1.1.6,28,-0.030,-0.030,-0.030,0.000,0.000,0.000
1644350985477778944,2022-02-08-20:09:45,10.1.1.6,27,-0.020,-0.020,-0.020,0.000,0.000,0.000
1644350985578684928,2022-02-08-20:09:45,10.1.1.6,27,-0.010,-0.010,-0.010,0.000,0.000,0.000
1644350985677822976,2022-02-08-20:09:45,10.1.1.6,26,0.000,0.000,0.000,0.000,0.000,0.000
1644350985777479936,2022-02-08-20:09:45,10.1.1.6,24,0.010,0.010,0.010,0.000,0.000,0.000
1644350985877639936,2022-02-08-20:09:45,10.1.1.6,24,0.020,0.020,0.020,0.000,0.000,0.000
1644350985978460160,2022-02-08-20:09:45,10.1.1.6,23,0.030,0.030,0.030,0.000,0.000,0.000
1644350986078465024,2022-02-08-20:09:46,10.1.1.6,23,0.040,0.040,0.040,0.000,0.000,0.000
1644350986177520896,2022-02-08-20:09:46,10.1.1.6,22,0.050,0.050,0.050,0.000,0.000,0.000
1644350986277764096,2022-02-08-20:09:46,10.1.1.6,21,0.060,0.060,0.060,0.000,0.000,0.000
1644350986392190976,2022-02-08-20:09:46,10.1.1.6,20,0.070,0.070,0.070,0.000,0.000,0.000
1644350986478132992,2022-02-08-20:09:46,10.1.1.6,19,0.080,0.080,0.080,0.000,0.000,0.000
1644350986577358848,2022-02-08-20:09:46,10.1.1.6,18,0.089,0.089,0.089,0.000,0.000,0.000
1644350986697274880,2022-02-08-20:09:46,10.1.1.6,38,0.100,0.100,0.100,0.000,0.000,0.000
1644350986797771008,2022-02-08-20:09:46,10.1.1.6,37,0.090,0.090,0.090,0.000,0.000,0.000
1644350986897284096,2022-02-08-20:09:46,10.1.1.6,37,0.080,0.080,0.080,0.000,0.000,0.000
1644350986997352960,2022-02-08-20:09:46,10.1.1.6,36,0.070,0.070,0.070,0.000,0.000,0.000
1644350987097661952,2022-02-08-20:09:47,10.1.1.6,35,0.060,0.060,0.060,0.000,0.000,0.000
1644350987198272000,2022-02-08-20:09:47,10.1.1.6,34,0.050,0.050,0.050,0.000,0.000,0.000
1644350987297766912,2022-02-08-20:09:47,10.1.1.6,33,0.040,0.040,0.040,0.000,0.000,0.000
1644350987397792000,2022-02-08-20:09:47,10.1.1.6,33,0.030,0.030,0.030,0.000,0.000,0.000
1644350987497925888,2022-02-08-20:09:47,10.1.1.6,31,0.020,0.020,0.020,0.000,0.000,0.000
1644350987597254912,2022-02-08-20:09:47,10.1.1.6,30,0.010,0.010,0.010,0.000,0.000,0.000
1644350987699403008,2022-02-08-20:09:47,10.1.1.6,29,0.000,0.000,0.000,0.000,0.000,0.000
1644350987797385984,2022-02-08-20:09:47,10.1.1.6,28,-0.010,-0.010,-0.010,0.000,0.000,0.000
1644350987897479936,2022-02-08-20:09:47,10.1.1.6,27,-0.020,-0.020,-0.020,0.000,0.000,0.000
1644350987997673984,2022-02-08-20:09:47,10.1.1.6,27,-0.030,-0.030,-0.030,0.000,0.000,0.000
1644350988097275904,2022-02-08-20:09:48,10.1.1.6,27,-0.040,-0.040,-0.040,0.000,0.000,0.000
1644350988197140992,2022-02-08-20:09:48,10.1.1.6,25,-0.050,-0.050,-0.050,0.000,0.000,0.000
1644350988297681152,2022-02-08-20:09:48,10.1.1.6,24,-0.060,-0.060,-0.060,0.000,0.000,0.000
1644350988397017856,2022-02-08-20:09:48,10.1.1.6,22,-0.070,-0.070,-0.070,0.000,0.000,0.000
1644350988497491968,2022-02-08-20:09:48,10.1.1.6,22,-0.080,-0.080,-0.080,0.000,0.000,0.000
1644350988597891072,2022-02-08-20:09:48,10.1.1.6,21,-0.090,-0.090,-0.090,0.000,0.000,0.000
1644350988697107968,2022-02-08-20:09:48,10.1.1.6,21,-0.100,-0.100,-0.100,0.000,0.000,0.000
1644350988797185792,2022-02-08-20:09:48,10.1.1.6,20,-0.090,-0.090,-0.090,0.000,0.000,0.000
1644350988898019072,2022-02-08-20:09:48,10.1.1.6,20,-0.080,-0.080,-0.080,0.000,0.000,0.000
1644350989017347072,2022-02-08-20:09:49,10.1.1.6,38,-0.070,-0.070,-0.070,0.000,0.000,0.000
1644350989117795840,2022-02-08-20:09:49,10.1.1.6,38,-0.060,-0.060,-0.060,0.000,0.000,0.000
1644350989217575936,2022-02-08-20:09:49,10.1.1.6,37,-0.050,-0.050,-0.050,0.000,0.000,0.000
1644350989317431040,2022-02-08-20:09:49,10.1.1.6,36,-0.040,-0.040,-0.040,0.000,0.000,0.000
1644350989408473856,2022-02-08-20:09:49,10.1.1.6,27,-0.030,-0.030,-0.030,0.000,0.000,0.000
1644350989517731840,2022-02-08-20:09:49,10.1.1.6,35,-0.020,-0.020,-0.020,0.000,0.000,0.000
1644350989617542912,2022-02-08-20:09:49,10.1.1.6,35,-0.010,-0.010,-0.010,0.000,0.000,0.000
1644350989717703168,2022-02-08-20:09:49,10.1.1.6,34,0.000,0.000,0.000,0.000,0.000,0.000
1644350989817831936,2022-02-08-20:09:49,10.1.1.6,33,0.010,0.010,0.010,0.000,0.000,0.000
1644350989917673216,2022-02-08-20:09:49,10.1.1.6,32,0.020,0.020,0.020,0.000,0.000,0.000
1644350990017796096,2022-02-08-20:09:50,10.1.1.6,32,0.030,0.030,0.030,0.000,0.000,0.000
1644350990118084864,2022-02-08-20:09:50,10.1.1.6,31,0.040,0.040,0.040,0.000,0.000,0.000
1644350990217652992,2022-02-08-20:09:50,10.1.1.6,30,0.050,0.050,0.050,0.000,0.000,0.000
1644350990319424000,2022-02-08-20:09:50,10.1.1.6,29,0.060,0.060,0.060,0.000,0.000,0.000
1644350990418590976,2022-02-08-20:09:50,10.1.1.6,27,0.070,0.070,0.070,0.000,0.000,0.000
1644350990517827072,2022-02-08-20:09:50,10.1.1.6,27,0.080,0.080,0.080,0.000,0.000,0.000
1644350990617716992,2022-02-08-20:09:50,10.1.1.6,26,0.090,0.090,0.090,0.000,0.000,0.000
1644350990717573888,2022-02-08-20:09:50,10.1.1.6,26,0.100,0.100,0.100,0.000,0.000,0.000
1644350990818646016,2022-02-08-20:09:50,10.1.1.6,27,0.090,0.090,0.090,0.000,0.000,0.000
1644350990917332992,2022-02-08-20:09:50,10.1.1.6,24,0.080,0.080,0.080,0.000,0.000,0.000
1644350991017419008,2022-02-08-20:09:51,10.1.1.6,23,0.070,0.070,0.070,0.000,0.000,0.000
1644350991117801984,2022-02-08-20:09:51,10.1.1.6,23,0.060,0.060,0.060,0.000,0.000,0.000
1644350991217440000,2022-02-08-20:09:51,10.1.1.6,22,0.050,0.050,0.050,0.000,0.000,0.000
1644350991317508864,2022-02-08-20:09:51,10.1.1.6,22,0.040,0.040,0.040,0.000,0.000,0.000
1644350991417107968,2022-02-08-20:09:51,10.1.1.6,21,0.030,0.030,0.030,0.000,0.000,0.000
1644350991517404928,2022-02-08-20:09:51,10.1.1.6,21,0.020,0.020,0.020,0.000,0.000,0.000
1644350991617662976,2022-02-08-20:09:51,10.1.1.6,21,0.010,0.010,0.010,0.000,0.000,0.000
1644350991762639872,2022-02-08-20:09:51,10.1.1.6,37,0.000,0.000,0.000,0.000,0.000,0.000
1644350991838934016,2022-02-08-20:09:51,10.1.1.6,37,-0.010,-0.010,-0.010,0.000,0.000,0.000
1644350991939260928,2022-02-08-20:09:51,10.1.1.6,37,-0.020,-0.020,-0.020,0.000,0.000,0.000
1644350992037090048,2022-02-08-20:09:52,10.1.1.6,35,-0.030,-0.030,-0.030,0.000,0.000,0.000
1644350992137259008,2022-02-08-20:09:52,10.1.1.6,35,-0.040,-0.040,-0.040,0.000,0.000,0.000
1644350992252707072,2022-02-08-20:09:52,10.1.1.6,34,-0.050,-0.050,-0.050,0.000,0.000,0.000
1644350992357381120,2022-02-08-20:09:52,10.1.1.6,27,-0.060,-0.060,-0.060,0.000,0.000,0.000
1644350992457613824,2022-02-08-20:09:52,10.1.1.6,26,-0.070,-0.070,-0.070,0.000,0.000,0.000
1644350992559218944,2022-02-08-20:09:52,10.1.1.6,26,-0.080,-0.080,-0.080,0.000,0.000,0.000
1644350992658237952,2022-02-08-20:09:52,10.1.1.6,25,-0.090,-0.090,-0.090,0.000,0.000,0.000
1644350992758439168,2022-02-08-20:09:52,10.1.1.6,25,-0.100,-0.100,-0.100,0.000,0.000,0.000
1644350992858962176,2022-02-08-20:09:52,10.1.1.6,24,-0.090,-0.090,-0.090,0.000,0.000,0.000
1644350993118622976,2022-02-08-20:09:53,10.1.1.6,36,-0.070,-0.070,-0.070,0.000,0.000,0.000
1644350993218370048,2022-02-08-20:09:53,10.1.1.6,35,-0.060,-0.060,-0.060,0.000,0.000,0.000
1644350993320307968,2022-02-08-20:09:53,10.1.1.6,34,-0.050,-0.050,-0.050,0.000,0.000,0.000
1644350993417720064,2022-02-08-20:09:53,10.1.1.6,27,-0.040,-0.040,-0.040,0.000,0.000,0.000
1644350993518050048,2022-02-08-20:09:53,10.1.1.6,27,-0.030,-0.030,-0.030,0.000,0.000,0.000
1644350993617127936,2022-02-08-20:09:53,10.1.1.6,26,-0.020,-0.020,-0.020,0.000,0.000,0.000
1644350993718265088,2022-02-08-20:09:53,10.1.1.6,26,-0.010,-0.010,-0.010,0.000,0.000,0.000
1644350993817966848,2022-02-08-20:09:53,10.1.1.6,25,0.000,0.000,0.000,0.000,0.000,0.000
1644350993917978112,2022-02-08-20:09:53,10.1.1.6,25,0.010,0.010,0.010,0.000,0.000,0.000
1644350994017765120,2022-02-08-20:09:54,10.1.1.6,23,0.020,0.020,0.020,0.000,0.000,0.000
1644350994117568000,2022-02-08-20:09:54,10.1.1.6,23,0.030,0.030,0.030,0.000,0.000,0.000
1644350994217382912,2022-02-08-20:09:54,10.1.1.6,22,0.040,0.040,0.040,0.000,0.000,0.000
1644350994317501952,2022-02-08-20:09:54,10.1.1.6,22,0.050,0.050,0.050,0.000,0.000,0.000
1644350994417541120,2022-02-08-20:09:54,10.1.1.6,21,0.060,0.060,0.060,0.000,0.000,0.000
1644350994518024960,2022-02-08-20:09:54,10.1.1.6,21,0.070,0.070,0.070,0.000,0.000,0.000
1644350994617775872,2022-02-08-20:09:54,10.1.1.6,20,0.080,0.080,0.080,0.000,0.000,0.000
1644350994717709056,2022-02-08-20:09:54,10.1.1.6,19,0.089,0.089,0.089,0.000,0.000,0.000
1644350994838347008,2022-02-08-20:09:54,10.1.1.6,38,0.100,0.100,0.100,0.000,0.000,0.000
1644350994937700096,2022-02-08-20:09:54,10.1.1.6,38,0.090,0.090,0.090,0.000,0.000,0.000
1644350995037818880,2022-02-08-20:09:55,10.1.1.6,38,0.080,0.080,0.080,0.000,0.000,0.000
1644350995137548032,2022-02-08-20:09:55,10.1.1.6,37,0.070,0.070,0.070,0.000,0.000,0.000
1644350995237832192,2022-02-08-20:09:55,10.1.1.6,36,0.060,0.060,0.060,0.000,0.000,0.000
1644350995338404864,2022-02-08-20:09:55,10.1.1.6,36,0.050,0.050,0.050,0.000,0.000,0.000
1644350995438120960,2022-02-08-20:09:55,10.1.1.6,36,0.040,0.040,0.040,0.000,0.000,0.000
1644350995541419008,2022-02-08-20:09:55,10.1.1.6,38,0.030,0.030,0.030,0.000,0.000,0.000
1644350995637466880,2022-02-08-20:09:55,10.1.1.6,35,0.020,0.020,0.020,0.000,0.000,0.000
1644350995737559040,2022-02-08-20:09:55,10.1.1.6,34,0.010,0.010,0.010,0.000,0.000,0.000
1644350995837483776,2022-02-08-20:09:55,10.1.1.6,34,0.000,0.000,0.000,0.000,0.000,0.000
1644350995938749184,2022-02-08-20:09:55,10.1.1.6,33,-0.010,-0.010,-0.010,0.000,0.000,0.000
1644350996038167040,2022-02-08-20:09:56,10.1.1.6,33,-0.020,-0.020,-0.020,0.000,0.000,0.000
1644350996138355968,2022-02-08-20:09:56,10.1.1.6,32,-0.030,-0.030,-0.030,0.000,0.000,0.000
1644350996237929216,2022-02-08-20:09:56,10.1.1.6,31,-0.040,-0.040,-0.040,0.000,0.000,0.000
1644350996337726208,2022-02-08-20:09:56,10.1.1.6,31,-0.050,-0.050,-0.050,0.000,0.000,0.000
1644350996437796096,2022-02-08-20:09:56,10.1.1.6,31,-0.060,-0.060,-0.060,0.000,0.000,0.000
1644350996537708032,2022-02-08-20:09:56,10.1.1.6,30,-0.070,-0.070,-0.070,0.000,0.000,0.000
1644350996638376960,2022-02-08-20:09:56,10.1.1.6,30,-0.080,-0.080,-0.080,0.000,0.000,0.000
1644350996738132992,2022-02-08-20:09:56,10.1.1.6,30,-0.090,-0.090,-0.090,0.000,0.000,0.000
1644350996837577216,2022-02-08-20:09:56,10.1.1.6,29,-0.100,-0.100,-0.100,0.000,0.000,0.000
1644350996938183168,2022-02-08-20:09:56,10.1.1.6,29,-0.090,-0.090,-0.090,0.000,0.000,0.000
1644350997037430016,2022-02-08-20:09:57,10.1.1.6,28,-0.080,-0.080,-0.080,0.000,0.000,0.000
1644350997137347072,2022-02-08-20:09:57,10.1.1.6,28,-0.070,-0.070,-0.070,0.000,0.000,0.000
1644350997239535104,2022-02-08-20:09:57,10.1.1.6,27,-0.060,-0.060,-0.060,0.000,0.000,0.000
1644350997338318080,2022-02-08-20:09:57,10.1.1.6,26,-0.050,-0.050,-0.050,0.000,0.000,0.000
1644350997438411008,2022-02-08-20:09:57,10.1.1.6,25,-0.040,-0.040,-0.040,0.000,0.000,0.000
1644350997540168960,2022-02-08-20:09:57,10.1.1.6,24,-0.030,-0.030,-0.030,0.000,0.000,0.000
1644350997638457088,2022-02-08-20:09:57,10.1.1.6,21,-0.020,-0.020,-0.020,0.000,0.000,0.000
1644350997739644160,2022-02-08-20:09:57,10.1.1.6,19,-0.010,-0.010,-0.010,0.000,0.000,0.000
1644350997858814976,2022-02-08-20:09:57,10.1.1.6,38,0.000,0.000,0.000,0.000,0.000,0.000
1644350997958612992,2022-02-08-20:09:57,10.1.1.6,37,0.010,0.010,0.010,0.000,0.000,0.000
1644350998059667200,2022-02-08-20:09:58,10.1.1.6,36,0.020,0.020,0.020,0.000,0.000,0.000
1644350998159614208,2022-02-08-20:09:58,10.1.1.6,34,0.030,0.030,0.030,0.000,0.000,0.000
1644350998260790016,2022-02-08-20:09:58,10.1.1.6,35,0.040,0.040,0.040,0.000,0.000,0.000
1644350998357711104,2022-02-08-20:09:58,10.1.1.6,32,0.050,0.050,0.050,0.000,0.000,0.000
1644350998459237120,2022-02-08-20:09:58,10.1.1.6,31,0.060,0.060,0.060,0.000,0.000,0.000
1644350998558464000,2022-02-08-20:09:58,10.1.1.6,30,0.070,0.070,0.070,0.000,0.000,0.000
1644350998659610112,2022-02-08-20:09:58,10.1.1.6,30,0.080,0.080,0.080,0.000,0.000,0.000
1644350998758059008,2022-02-08-20:09:58,10.1.1.6,29,0.090,0.090,0.090,0.000,0.000,0.000
1644350998871813888,2022-02-08-20:09:58,10.1.1.6,27,0.100,0.100,0.100,0.000,0.000,0.000
1644350998957927936,2022-02-08-20:09:58,10.1.1.6,27,0.090,0.090,0.090,0.000,0.000,0.000
1644350999058088960,2022-02-08-20:09:59,10.1.1.6,26,0.080,0.080,0.080,0.000,0.000,0.000
1644350999158757888,2022-02-08-20:09:59,10.1.1.6,26,0.070,0.070,0.070,0.000,0.000,0.000
1644350999258337024,2022-02-08-20:09:59,10.1.1.6,25,0.060,0.060,0.060,0.000,0.000,0.000
1644350999357692928,2022-02-08-20:09:59,10.1.1.6,25,0.050,0.050,0.050,0.000,0.000,0.000
1644350999457528064,2022-02-08-20:09:59,10.1.1.6,24,0.040,0.040,0.040,0.000,0.000,0.000
1644350999557822976,2022-02-08-20:09:59,10.1.1.6,23,0.030,0.030,0.030,0.000,0.000,0.000
1644350999657874176,2022-02-08-20:09:59,10.1.1.6,23,0.020,0.020,0.020,0.000,0.000,0.000
1644350999757566976,2022-02-08-20:09:59,10.1.1.6,22,0.010,0.010,0.010,0.000,0.000,0.000
1644350999857306112,2022-02-08-20:09:59,10.1.1.6,21,0.000,0.000,0.000,0.000,0.000,0.000
1644350999957603840,2022-02-08-20:09:59,10.1.1.6,21,-0.010,-0.010,-0.010,0.000,0.000,0.000
1644351000057522176,2022-02-08-20:10:00,10.1.1.6,21,-0.020,-0.020,-0.020,0.000,0.000,0.000
1644351000157908992,2022-02-08-20:10:00,10.1.1.6,20,-0.030,-0.030,-0.030,0.000,0.000,0.000
1644351000257587968,2022-02-08-20:10:00,10.1.1.6,19,-0.040,-0.040,-0.040,0.000,0.000,0.000
1644351000378428928,2022-02-08-20:10:00,10.1.1.6,38,-0.050,-0.050,-0.050,0.000,0.000,0.000
1644351000478048000,2022-02-08-20:10:00,10.1.1.6,37,-0.060,-0.060,-0.060,0.000,0.000,0.000
1644351000578205184,2022-02-08-20:10:00,10.1.1.6,37,-0.070,-0.070,-0.070,0.000,0.000,0.000
1644351000678949120,2022-02-08-20:10:00,10.1.1.6,36,-0.080,-0.080,-0.080,0.000,0.000,0.000
1644351000777484032,2022-02-08-20:10:00,10.1.1.6,36,-0.090,-0.090,-0.090,0.000,0.000,0.000
1644351000878016000,2022-02-08-20:10:00,10.1.1.6,36,-0.100,-0.100,-0.100,0.000,0.000,0.000
1644351000978121984,2022-02-08-20:10:00,10.1.1.6,34,-0.090,-0.090,-0.090,0.000,0.000,0.000
1644351001077852928,2022-02-08-20:10:01,10.1.1.6,34,-0.080,-0.080,-0.080,0.000,0.000,0.000
1644351001178138112,2022-02-08-20:10:01,10.1.1.6,33,-0.070,-0.070,-0.070,0.000,0.000,0.000
1644351001278021120,2022-02-08-20:10:01,10.1.1.6,33,-0.060,-0.060,-0.060,0.000,0.000,0.000
1644351001378309120,2022-02-08-20:10:01,10.1.1.6,32,-0.050,-0.050,-0.050,0.000,0.000,0.000
1644351001477529088,2022-02-08-20:10:01,10.1.1.6,31,-0.040,-0.040,-0.040,0.000,0.000,0.000
1644351001578263040,2022-02-08-20:10:01,10.1.1.6,31,-0.030,-0.030,-0.030,0.000,0.000,0.000
1644351001677809920,2022-02-08-20:10:01,10.1.1.6,31,-0.020,-0.020,-0.020,0.000,0.000,0.000
1644351001777745920,2022-02-08-20:10:01,10.1.1.6,30,-0.010,-0.010,-0.010,0.000,0.000,0.000
1644351001878062848,2022-02-08-20:10:01,10.1.1.6,29,0.000,0.000,0.000,0.000,0.000,0.000
1644351001977861888,2022-02-08-20:10:01,10.1.1.6,29,0.010,0.010,0.010,0.000,0.000,0.000
1644351002079504128,2022-02-08-20:10:02,10.1.1.6,28,0.020,0.020,0.020,0.000,0.000,0.000
1644351002178877184,2022-02-08-20:10:02,10.1.1.6,27,0.030,0.030,0.030,0.000,0.000,0.000
1644351002277782016,2022-02-08-20:10:02,10.1.1.6,26,0.040,0.040,0.040,0.000,0.000,0.000
1644351002377764864,2022-02-08-20:10:02,10.1.1.6,26,0.050,0.050,0.050,0.000,0.000,0.000
1644351002478471936,2022-02-08-20:10:02,10.1.1.6,20,0.060,0.060,0.060,0.000,0.000,0.000
1644351002577684992,2022-02-08-20:10:02,10.1.1.6,20,0.070,0.070,0.070,0.000,0.000,0.000
1644351002698164992,2022-02-08-20:10:02,10.1.1.6,38,0.080,0.080,0.080,0.000,0.000,0.000
1644351002797733120,2022-02-08-20:10:02,10.1.1.6,38,0.090,0.090,0.090,0.000,0.000,0.000
1644351002897761024,2022-02-08-20:10:02,10.1.1.6,37,0.100,0.100,0.100,0.000,0.000,0.000
1644351002997708032,2022-02-08-20:10:02,10.1.1.6,36,0.090,0.090,0.090,0.000,0.000,0.000
1644351003097506048,2022-02-08-20:10:03,10.1.1.6,35,0.080,0.080,0.080,0.000,0.000,0.000
1644351003197772032,2022-02-08-20:10:03,10.1.1.6,35,0.070,0.070,0.070,0.000,0.000,0.000
1644351003297745920,2022-02-08-20:10:03,10.1.1.6,34,0.060,0.060,0.060,0.000,0.000,0.000
1644351003397217024,2022-02-08-20:10:03,10.1.1.6,33,0.050,0.050,0.050,0.000,0.000,0.000
1644351003497580032,2022-02-08-20:10:03,10.1.1.6,33,0.040,0.040,0.040,0.000,0.000,0.000
1644351003604716032,2022-02-08-20:10:03,10.1.1.6,30,0.030,0.030,0.030,0.000,0.000,0.000
1644351003697544960,2022-02-08-20:10:03,10.1.1.6,29,0.020,0.020,0.020,0.000,0.000,0.000
1644351003797636864,2022-02-08-20:10:03,10.1.1.6,28,0.010,0.010,0.010,0.000,0.000,0.000
1644351003897955840,2022-02-08-20:10:03,10.1.1.6,27,0.000,0.000,0.000,0.000,0.000,0.000
1644351003997680896,2022-02-08-20:10:03,10.1.1.6,27,-0.010,-0.010,-0.010,0.000,0.000,0.000
1644351004097168896,2022-02-08-20:10:04,10.1.1.6,27,-0.020,-0.020,-0.020,0.000,0.000,0.000
1644351004197453056,2022-02-08-20:10:04,10.1.1.6,26,-0.030,-0.030,-0.030,0.000,0.000,0.000
1644351004299199232,2022-02-08-20:10:04,10.1.1.6,26,-0.040,-0.040,-0.040,0.000,0.000,0.000
1644351004397833216,2022-02-08-20:10:04,10.1.1.6,25,-0.050,-0.050,-0.050,0.000,0.000,0.000
1644351004497762816,2022-02-08-20:10:04,10.1.1.6,24,-0.060,-0.060,-0.060,0.000,0.000,0.000
1644351004597763072,2022-02-08-20:10:04,10.1.1.6,23,-0.070,-0.070,-0.070,0.000,0.000,0.000
1644351004697600000,2022-02-08-20:10:04,10.1.1.6,23,-0.080,-0.080,-0.080,0.000,0.000,0.000
1644351004797529856,2022-02-08-20:10:04,10.1.1.6,22,-0.090,-0.090,-0.090,0.000,0.000,0.000
1644351004898020864,2022-02-08-20:10:04,10.1.1.6,22,-0.100,-0.100,-0.100,0.000,0.000,0.000
1644351004997238016,2022-02-08-20:10:04,10.1.1.6,21,-0.090,-0.090,-0.090,0.000,0.000,0.000
1644351005097613056,2022-02-08-20:10:05,10.1.1.6,21,-0.080,-0.080,-0.080,0.000,0.000,0.000
1644351005199003904,2022-02-08-20:10:05,10.1.1.6,20,-0.070,-0.070,-0.070,0.000,0.000,0.000
1644351005297293056,2022-02-08-20:10:05,10.1.1.6,19,-0.060,-0.060,-0.060,0.000,0.000,0.000
1644351005397961984,2022-02-08-20:10:05,10.1.1.6,19,-0.051,-0.051,-0.051,0.000,0.000,0.000
1644351005517984000,2022-02-08-20:10:05,10.1.1.6,38,-0.040,-0.040,-0.040,0.000,0.000,0.000
1644351005618127104,2022-02-08-20:10:05,10.1.1.6,37,-0.030,-0.030,-0.030,0.000,0.000,0.000
1644351005717816064,2022-02-08-20:10:05,10.1.1.6,37,-0.020,-0.020,-0.020,0.000,0.000,0.000
1644351005818257152,2022-02-08-20:10:05,10.1.1.6,36,-0.010,-0.010,-0.010,0.000,0.000,0.000
1644351005917556992,2022-02-08-20:10:05,10.1.1.6,35,0.000,0.000,0.000,0.000,0.000,0.000
1644351006018263040,2022-02-08-20:10:06,10.1.1.6,35,0.010,0.010,0.010,0.000,0.000,0.000
1644351006119668992,2022-02-08-20:10:06,10.1.1.6,34,0.020,0.020,0.020,0.000,0.000,0.000
1644351006218554112,2022-02-08-20:10:06,10.1.1.6,34,0.030,0.030,0.030,0.000,0.000,0.000
1644351006310713088,2022-02-08-20:10:06,10.1.1.6,23,0.040,0.040,0.040,0.000,0.000,0.000
1644351006418392064,2022-02-08-20:10:06,10.1.1.6,31,0.050,0.050,0.050,0.000,0.000,0.000
1644351006519608064,2022-02-08-20:10:06,10.1.1.6,30,0.060,0.060,0.060,0.000,0.000,0.000
1644351006617821952,2022-02-08-20:10:06,10.1.1.6,30,0.070,0.070,0.070,0.000,0.000,0.000
1644351006719144960,2022-02-08-20:10:06,10.1.1.6,29,0.080,0.080,0.080,0.000,0.000,0.000
1644351006818566144,2022-02-08-20:10:06,10.1.1.6,28,0.090,0.090,0.090,0.000,0.000,0.000
1644351006919329792,2022-02-08-20:10:06,10.1.1.6,27,0.100,0.100,0.100,0.000,0.000,0.000
1644351007117755904,2022-02-08-20:10:07,10.1.1.6,25,0.080,0.080,0.080,0.000,0.000,0.000
1644351007218262016,2022-02-08-20:10:07,10.1.1.6,24,0.070,0.070,0.070,0.000,0.000,0.000
1644351007318468096,2022-02-08-20:10:07,10.1.1.6,24,0.060,0.060,0.060,0.000,0.000,0.000
1644351007418374912,2022-02-08-20:10:07,10.1.1.6,23,0.050,0.050,0.050,0.000,0.000,0.000
1644351007517533952,2022-02-08-20:10:07,10.1.1.6,23,0.040,0.040,0.040,0.000,0.000,0.000
1644351007617573888,2022-02-08-20:10:07,10.1.1.6,22,0.030,0.030,0.030,0.000,0.000,0.000
1644351007717568000,2022-02-08-20:10:07,10.1.1.6,22,0.020,0.020,0.020,0.000,0.000,0.000
1644351007839611136,2022-02-08-20:10:07,10.1.1.6,34,0.010,0.010,0.010,0.000,0.000,0.000
1644351007938405888,2022-02-08-20:10:07,10.1.1.6,27,0.000,0.000,0.000,0.000,0.000,0.000
1644351008040566016,2022-02-08-20:10:08,10.1.1.6,27,-0.010,-0.010,-0.010,0.000,0.000,0.000
