FedericoMungari/DigitalTwin_service/01_WiredScenario/Output/Output_script/script_ROSAPI_output_robots12_freq0_3.txt.csv
timestamp,node,latency,joint_1,joint_2,joint_3,joint_4,joint_5,joint_6
1640078290759241984,"2021-12-21,09:18:03",10.1.1.4,41754,0.000,0.000,0.000,0.000,0.000,0.000
1640078295216809984,"2021-12-21,09:18:13",10.1.1.4,3044,-0.010,-0.010,-0.010,0.000,0.000,0.000
1640078295263452160,"2021-12-21,09:18:15",10.1.1.4,4.419897079467773,-0.010,-0.010,-0.010,0.000,0.000,0.000
1640078295584232960,"2021-12-21,09:18:15",10.1.1.4,312,-0.020,-0.020,-0.020,0.000,0.000,0.000
1640078295628854016,"2021-12-21,09:18:15",10.1.1.4,0.35686397552490234,-0.020,-0.020,-0.020,0.000,0.000,0.000
1640078302064647936,"2021-12-21,09:18:16",10.1.1.4,314,-0.030,-0.030,-0.030,0.000,0.000,0.000
1640078305008924928,"2021-12-21,09:18:22",10.1.1.4,6.614150047302246,-0.030,-0.030,-0.030,0.000,0.000,0.000
1640078309330094080,"2021-12-21,09:18:29",10.1.1.4,2837,-0.040,-0.040,-0.040,0.000,0.000,0.000
1640078309969125888,"2021-12-21,09:18:29",10.1.1.4,3.477166175842285,-0.040,-0.040,-0.040,0.000,0.000,0.000
1640078309976237056,"2021-12-21,09:18:29",10.1.1.4,-1,-0.050,-0.050,-0.050,0.000,0.000,0.000
1640078310303821056,"2021-12-21,09:18:30",10.1.1.4,0.32768797874450684,-0.050,-0.050,-0.050,0.000,0.000,0.000
1640078310624419072,"2021-12-21,09:18:30",10.1.1.4,319,-0.060,-0.060,-0.060,0.000,0.000,0.000
1640078310650168832,"2021-12-21,09:18:30",10.1.1.4,0.3451380729675293,-0.060,-0.060,-0.060,0.000,0.000,0.000
1640078310983000064,"2021-12-21,09:18:30",10.1.1.4,329,-0.070,-0.070,-0.070,0.000,0.000,0.000
1640078310998017024,"2021-12-21,09:18:30",10.1.1.4,0.3466620445251465,-0.070,-0.070,-0.070,0.000,0.000,0.000
1640078316951531776,"2021-12-21,09:18:31",10.1.1.4,323,-0.080,-0.080,-0.080,0.000,0.000,0.000
1640078317017566976,"2021-12-21,09:18:37",10.1.1.4,6.015559196472168,-0.080,-0.080,-0.080,0.000,0.000,0.000
1640078318283729152,"2021-12-21,09:18:38",10.1.1.4,1257,-0.090,-0.090,-0.090,0.000,0.000,0.000
1640078318359718144,"2021-12-21,09:18:38",10.1.1.4,1.3336989879608154,-0.090,-0.090,-0.090,0.000,0.000,0.000
1640078318672431872,"2021-12-21,09:18:38",10.1.1.4,310,-0.100,-0.100,-0.100,0.000,0.000,0.000
1640078318699773184,"2021-12-21,09:18:38",10.1.1.4,0.338176965713501,-0.100,-0.100,-0.100,0.000,0.000,0.000
1640078319021433088,"2021-12-21,09:18:39",10.1.1.4,317,-0.110,-0.110,-0.110,0.000,0.000,0.000
1640078319039820800,"2021-12-21,09:18:39",10.1.1.4,0.33558106422424316,-0.110,-0.110,-0.110,0.000,0.000,0.000
1640078319361656064,"2021-12-21,09:18:39",10.1.1.4,319,-0.120,-0.120,-0.120,0.000,0.000,0.000
1640078319408494848,"2021-12-21,09:18:39",10.1.1.4,0.36630892753601074,-0.120,-0.120,-0.120,0.000,0.000,0.000
1640078328036777984,"2021-12-21,09:18:39",10.1.1.4,0.33110904693603516,-0.130,-0.130,-0.130,0.000,0.000,0.000
1640078333016760064,"2021-12-21,09:18:48",10.1.1.4,9256,-0.130,-0.130,-0.130,0.000,0.000,0.000
1640078345943051008,"2021-12-21,09:19:01",10.1.1.4,7.6563498973846436,-0.140,-0.140,-0.140,0.000,0.000,0.000
1640078348607888896,"2021-12-21,09:19:06",10.1.1.4,570,-0.150,-0.150,-0.150,0.000,0.000,0.000
1640078355684967936,"2021-12-21,09:19:08",10.1.1.4,2.6021571159362793,-0.150,-0.150,-0.150,0.000,0.000,0.000
1640078366732045056,"2021-12-21,09:19:26",10.1.1.4,10806,-0.160,-0.160,-0.160,0.000,0.000,0.000
1640078366758057216,"2021-12-21,09:19:26",10.1.1.4,10.832942008972168,-0.160,-0.160,-0.160,0.000,0.000,0.000
1640078367167911168,"2021-12-21,09:19:27",10.1.1.4,405,-0.170,-0.170,-0.170,0.000,0.000,0.000
1640078367190072064,"2021-12-21,09:19:27",10.1.1.4,0.4256749153137207,-0.170,-0.170,-0.170,0.000,0.000,0.000
1640078367521900032,"2021-12-21,09:19:27",10.1.1.4,312,-0.180,-0.180,-0.180,0.000,0.000,0.000
1640078367553204992,"2021-12-21,09:19:27",10.1.1.4,0.34346699714660645,-0.180,-0.180,-0.180,0.000,0.000,0.000
1640078367905595904,"2021-12-21,09:19:27",10.1.1.4,349,-0.190,-0.190,-0.190,0.000,0.000,0.000
1640078367926381056,"2021-12-21,09:19:27",10.1.1.4,0.36981201171875,-0.190,-0.190,-0.190,0.000,0.000,0.000
1640078368320979968,"2021-12-21,09:19:28",10.1.1.4,366,-0.200,-0.200,-0.200,0.000,0.000,0.000
1640078368358629888,"2021-12-21,09:19:28",10.1.1.4,0.40393614768981934,-0.200,-0.200,-0.200,0.000,0.000,0.000
1640078369336577792,"2021-12-21,09:19:29",10.1.1.4,393,-0.210,-0.210,-0.210,0.000,0.000,0.000
1640078369392098048,"2021-12-21,09:19:29",10.1.1.4,0.4485599994659424,-0.210,-0.210,-0.210,0.000,0.000,0.000
1640078369836967936,"2021-12-21,09:19:29",10.1.1.4,430,-0.220,-0.220,-0.220,0.000,0.000,0.000
1640078369850238208,"2021-12-21,09:19:29",10.1.1.4,0.44368791580200195,-0.220,-0.220,-0.220,0.000,0.000,0.000
1640078370386578176,"2021-12-21,09:19:30",10.1.1.4,0.5332579612731934,-0.230,-0.230,-0.230,0.000,0.000,0.000
1640078371205483008,"2021-12-21,09:19:30",10.1.1.4,0.5701720714569092,-0.240,-0.240,-0.240,0.000,0.000,0.000
1640078371730458112,"2021-12-21,09:19:31",10.1.1.4,521,-0.250,-0.250,-0.250,0.000,0.000,0.000
1640078371751774976,"2021-12-21,09:19:31",10.1.1.4,0.5433011054992676,-0.250,-0.250,-0.250,0.000,0.000,0.000
1640078372128071936,"2021-12-21,09:19:32",10.1.1.4,374,-0.260,-0.260,-0.260,0.000,0.000,0.000
1640078372172750848,"2021-12-21,09:19:32",10.1.1.4,0.4099571704864502,-0.260,-0.260,-0.260,0.000,0.000,0.000
1640078372601890048,"2021-12-21,09:19:32",10.1.1.4,420,-0.270,-0.270,-0.270,0.000,0.000,0.000
1640078372649776896,"2021-12-21,09:19:32",10.1.1.4,0.4681730270385742,-0.270,-0.270,-0.270,0.000,0.000,0.000
1640078373492084992,"2021-12-21,09:19:33",10.1.1.4,840,-0.280,-0.280,-0.280,0.000,0.000,0.000
1640078373540830976,"2021-12-21,09:19:33",10.1.1.4,0.8870718479156494,-0.280,-0.280,-0.280,0.000,0.000,0.000
1640078373545155072,"2021-12-21,09:19:33",10.1.1.4,-5,-0.290,-0.290,-0.290,0.000,0.000,0.000
1640078374348454912,"2021-12-21,09:19:34",10.1.1.4,0.8059360980987549,-0.290,-0.290,-0.290,0.000,0.000,0.000
1640078377877985024,"2021-12-21,09:19:36",10.1.1.4,1.9368438720703125,-0.300,-0.300,-0.300,0.000,0.000,0.000
1640078379738179840,"2021-12-21,09:19:39",10.1.1.4,1.826197862625122,-0.310,-0.310,-0.310,0.000,0.000,0.000
1640078380268965888,"2021-12-21,09:19:40",10.1.1.4,424,-0.320,-0.320,-0.320,0.000,0.000,0.000
1640078380338729984,"2021-12-21,09:19:40",10.1.1.4,0.4939248561859131,-0.320,-0.320,-0.320,0.000,0.000,0.000
1640078380699481856,"2021-12-21,09:19:40",10.1.1.4,358,-0.330,-0.330,-0.330,0.000,0.000,0.000
1640078380714187008,"2021-12-21,09:19:40",10.1.1.4,0.37297582626342773,-0.330,-0.330,-0.330,0.000,0.000,0.000
1640078381607745024,"2021-12-21,09:19:41",10.1.1.4,0.8879818916320801,-0.340,-0.340,-0.340,0.000,0.000,0.000
1640078382903787008,"2021-12-21,09:19:42",10.1.1.4,1.2716779708862305,-0.350,-0.350,-0.350,0.000,0.000,0.000
1640078383442723072,"2021-12-21,09:19:43",10.1.1.4,530,-0.360,-0.360,-0.360,0.000,0.000,0.000
1640078383517478912,"2021-12-21,09:19:43",10.1.1.4,0.605698823928833,-0.360,-0.360,-0.360,0.000,0.000,0.000
1640078384143441920,"2021-12-21,09:19:44",10.1.1.4,596,-0.370,-0.370,-0.370,0.000,0.000,0.000
1640078384225549824,"2021-12-21,09:19:44",10.1.1.4,0.6528220176696777,-0.370,-0.370,-0.370,0.000,0.000,0.000
1640078385206993152,"2021-12-21,09:19:45",10.1.1.4,975,-0.380,-0.380,-0.380,0.000,0.000,0.000
1640078385237849856,"2021-12-21,09:19:45",10.1.1.4,1.006993055343628,-0.380,-0.380,-0.380,0.000,0.000,0.000
1640078385883862016,"2021-12-21,09:19:45",10.1.1.4,640,-0.390,-0.390,-0.390,0.000,0.000,0.000
1640078385939570944,"2021-12-21,09:19:45",10.1.1.4,0.6994149684906006,-0.390,-0.390,-0.390,0.000,0.000,0.000
1640078386401853952,"2021-12-21,09:19:46",10.1.1.4,0.45143795013427734,-0.400,-0.400,-0.400,0.000,0.000,0.000
1640078386875965184,"2021-12-21,09:19:46",10.1.1.4,466,-0.410,-0.410,-0.410,0.000,0.000,0.000
1640078386917052928,"2021-12-21,09:19:46",10.1.1.4,0.507800817489624,-0.410,-0.410,-0.410,0.000,0.000,0.000
1640078387401627136,"2021-12-21,09:19:47",10.1.1.4,0.47886013984680176,-0.420,-0.420,-0.420,0.000,0.000,0.000
1640078387939631104,"2021-12-21,09:19:47",10.1.1.4,516,-0.430,-0.430,-0.430,0.000,0.000,0.000
1640078387983298048,"2021-12-21,09:19:47",10.1.1.4,0.560431957244873,-0.430,-0.430,-0.430,0.000,0.000,0.000
1640078388481671936,"2021-12-21,09:19:48",10.1.1.4,490,-0.440,-0.440,-0.440,0.000,0.000,0.000
1640078388661972992,"2021-12-21,09:19:48",10.1.1.4,0.6728920936584473,-0.440,-0.440,-0.440,0.000,0.000,0.000
1640078389512484096,"2021-12-21,09:19:49",10.1.1.4,830,-0.450,-0.450,-0.450,0.000,0.000,0.000
1640078389569287936,"2021-12-21,09:19:49",10.1.1.4,0.887566089630127,-0.450,-0.450,-0.450,0.000,0.000,0.000
1640078390003009024,"2021-12-21,09:19:50",10.1.1.4,426,-0.460,-0.460,-0.460,0.000,0.000,0.000
1640078390085483008,"2021-12-21,09:19:50",10.1.1.4,0.5094618797302246,-0.460,-0.460,-0.460,0.000,0.000,0.000
1640078390743410944,"2021-12-21,09:19:50",10.1.1.4,656,-0.470,-0.470,-0.470,0.000,0.000,0.000
1640078390809596160,"2021-12-21,09:19:50",10.1.1.4,0.7226769924163818,-0.470,-0.470,-0.470,0.000,0.000,0.000
1640078390816113920,"2021-12-21,09:19:50",10.1.1.4,-5,-0.480,-0.480,-0.480,0.000,0.000,0.000
1640078391228523008,"2021-12-21,09:19:51",10.1.1.4,0.413571834564209,-0.480,-0.480,-0.480,0.000,0.000,0.000
1640078391601078016,"2021-12-21,09:19:51",10.1.1.4,369,-0.490,-0.490,-0.490,0.000,0.000,0.000
1640078391643744000,"2021-12-21,09:19:51",10.1.1.4,0.41158509254455566,-0.490,-0.490,-0.490,0.000,0.000,0.000
1640078391991388928,"2021-12-21,09:19:51",10.1.1.4,345,-0.480,-0.480,-0.480,0.000,0.000,0.000
1640078392019409920,"2021-12-21,09:19:52",10.1.1.4,0.3735029697418213,-0.480,-0.480,-0.480,0.000,0.000,0.000
1640078392383896064,"2021-12-21,09:19:52",10.1.1.4,361,-0.470,-0.470,-0.470,0.000,0.000,0.000
1640078392417649920,"2021-12-21,09:19:52",10.1.1.4,0.3952369689941406,-0.470,-0.470,-0.470,0.000,0.000,0.000
1640078392799774976,"2021-12-21,09:19:52",10.1.1.4,379,-0.460,-0.460,-0.460,0.000,0.000,0.000
1640078392842525952,"2021-12-21,09:19:52",10.1.1.4,0.42220091819763184,-0.460,-0.460,-0.460,0.000,0.000,0.000
1640078393206379776,"2021-12-21,09:19:53",10.1.1.4,361,-0.450,-0.450,-0.450,0.000,0.000,0.000
1640078393224450048,"2021-12-21,09:19:53",10.1.1.4,0.37994909286499023,-0.450,-0.450,-0.450,0.000,0.000,0.000
1640078393569869056,"2021-12-21,09:19:53",10.1.1.4,339,-0.440,-0.440,-0.440,0.000,0.000,0.000
1640078393632619008,"2021-12-21,09:19:53",10.1.1.4,0.40293192863464355,-0.440,-0.440,-0.440,0.000,0.000,0.000
1640078394000369152,"2021-12-21,09:19:54",10.1.1.4,366,-0.430,-0.430,-0.430,0.000,0.000,0.000
1640078394014727168,"2021-12-21,09:19:54",10.1.1.4,0.38039588928222656,-0.430,-0.430,-0.430,0.000,0.000,0.000
1640078394369786880,"2021-12-21,09:19:54",10.1.1.4,349,-0.420,-0.420,-0.420,0.000,0.000,0.000
1640078394383579136,"2021-12-21,09:19:54",10.1.1.4,0.3627030849456787,-0.420,-0.420,-0.420,0.000,0.000,0.000
1640078394750299904,"2021-12-21,09:19:54",10.1.1.4,360,-0.410,-0.410,-0.410,0.000,0.000,0.000
1640078394827358976,"2021-12-21,09:19:54",10.1.1.4,0.4373631477355957,-0.410,-0.410,-0.410,0.000,0.000,0.000
1640078395189138944,"2021-12-21,09:19:55",10.1.1.4,359,-0.400,-0.400,-0.400,0.000,0.000,0.000
1640078395239901952,"2021-12-21,09:19:55",10.1.1.4,0.41052794456481934,-0.400,-0.400,-0.400,0.000,0.000,0.000
1640078395681969920,"2021-12-21,09:19:55",10.1.1.4,437,-0.390,-0.390,-0.390,0.000,0.000,0.000
1640078395704960000,"2021-12-21,09:19:55",10.1.1.4,0.4605410099029541,-0.390,-0.390,-0.390,0.000,0.000,0.000
1640078396128890880,"2021-12-21,09:19:56",10.1.1.4,410,-0.380,-0.380,-0.380,0.000,0.000,0.000
1640078396165432064,"2021-12-21,09:19:56",10.1.1.4,0.4471931457519531,-0.380,-0.380,-0.380,0.000,0.000,0.000
1640078396527568128,"2021-12-21,09:19:56",10.1.1.4,360,-0.370,-0.370,-0.370,0.000,0.000,0.000
1640078396660499200,"2021-12-21,09:19:56",10.1.1.4,0.4868621826171875,-0.370,-0.370,-0.370,0.000,0.000,0.000
1640078396996012032,"2021-12-21,09:19:56",10.1.1.4,333,-0.360,-0.360,-0.360,0.000,0.000,0.000
1640078397059051008,"2021-12-21,09:19:57",10.1.1.4,0.3968770503997803,-0.360,-0.360,-0.360,0.000,0.000,0.000
1640078397513602048,"2021-12-21,09:19:57",10.1.1.4,452,-0.350,-0.350,-0.350,0.000,0.000,0.000
1640078397555831808,"2021-12-21,09:19:57",10.1.1.4,0.4955630302429199,-0.350,-0.350,-0.350,0.000,0.000,0.000
1640078397923650048,"2021-12-21,09:19:57",10.1.1.4,364,-0.340,-0.340,-0.340,0.000,0.000,0.000
1640078397964243968,"2021-12-21,09:19:57",10.1.1.4,0.40512800216674805,-0.340,-0.340,-0.340,0.000,0.000,0.000
1640078398323533056,"2021-12-21,09:19:58",10.1.1.4,354,-0.330,-0.330,-0.330,0.000,0.000,0.000
1640078398379540992,"2021-12-21,09:19:58",10.1.1.4,0.4102921485900879,-0.330,-0.330,-0.330,0.000,0.000,0.000
1640078399602801152,"2021-12-21,09:19:59",10.1.1.4,1206,-0.320,-0.320,-0.320,0.000,0.000,0.000
1640078399623770112,"2021-12-21,09:19:59",10.1.1.4,1.22735595703125,-0.320,-0.320,-0.320,0.000,0.000,0.000
1640078401247942912,"2021-12-21,09:20:00",10.1.1.4,0.5766990184783936,-0.310,-0.310,-0.310,0.000,0.000,0.000
1640078401844734976,"2021-12-21,09:20:01",10.1.1.4,576,-0.300,-0.300,-0.300,0.000,0.000,0.000
1640078401860642048,"2021-12-21,09:20:01",10.1.1.4,0.5922939777374268,-0.300,-0.300,-0.300,0.000,0.000,0.000
1640078402265716992,"2021-12-21,09:20:02",10.1.1.4,403,-0.290,-0.290,-0.290,0.000,0.000,0.000
1640078402307934976,"2021-12-21,09:20:02",10.1.1.4,0.445803165435791,-0.290,-0.290,-0.290,0.000,0.000,0.000
1640078402691809024,"2021-12-21,09:20:02",10.1.1.4,376,-0.280,-0.280,-0.280,0.000,0.000,0.000
1640078402695569920,"2021-12-21,09:20:02",10.1.1.4,0.3864328861236572,-0.280,-0.280,-0.280,0.000,0.000,0.000
1640078403024977920,"2021-12-21,09:20:03",10.1.1.4,328,-0.270,-0.270,-0.270,0.000,0.000,0.000
1640078403082614784,"2021-12-21,09:20:03",10.1.1.4,0.38571786880493164,-0.270,-0.270,-0.270,0.000,0.000,0.000
1640078403526316800,"2021-12-21,09:20:03",10.1.1.4,439,-0.260,-0.260,-0.260,0.000,0.000,0.000
1640078403568346880,"2021-12-21,09:20:03",10.1.1.4,0.48250389099121094,-0.260,-0.260,-0.260,0.000,0.000,0.000
1640078404285890048,"2021-12-21,09:20:04",10.1.1.4,712,-0.250,-0.250,-0.250,0.000,0.000,0.000
1640078404350398976,"2021-12-21,09:20:04",10.1.1.4,0.7773981094360352,-0.250,-0.250,-0.250,0.000,0.000,0.000
1640078404793683968,"2021-12-21,09:20:04",10.1.1.4,440,-0.240,-0.240,-0.240,0.000,0.000,0.000
1640078404814199808,"2021-12-21,09:20:04",10.1.1.4,0.460690975189209,-0.240,-0.240,-0.240,0.000,0.000,0.000
1640078405397819904,"2021-12-21,09:20:05",10.1.1.4,557,-0.230,-0.230,-0.230,0.000,0.000,0.000
1640078405439169024,"2021-12-21,09:20:05",10.1.1.4,0.5984621047973633,-0.230,-0.230,-0.230,0.000,0.000,0.000
1640078405798329088,"2021-12-21,09:20:05",10.1.1.4,357,-0.220,-0.220,-0.220,0.000,0.000,0.000
1640078405861506816,"2021-12-21,09:20:05",10.1.1.4,0.4206240177154541,-0.220,-0.220,-0.220,0.000,0.000,0.000
1640078406228018944,"2021-12-21,09:20:06",10.1.1.4,365,-0.210,-0.210,-0.210,0.000,0.000,0.000
1640078406290159872,"2021-12-21,09:20:06",10.1.1.4,0.427278995513916,-0.210,-0.210,-0.210,0.000,0.000,0.000
1640078406617501952,"2021-12-21,09:20:06",10.1.1.4,325,-0.200,-0.200,-0.200,0.000,0.000,0.000
1640078406657670144,"2021-12-21,09:20:06",10.1.1.4,0.36536192893981934,-0.200,-0.200,-0.200,0.000,0.000,0.000
1640078407019726080,"2021-12-21,09:20:07",10.1.1.4,358,-0.190,-0.190,-0.190,0.000,0.000,0.000
1640078407049931008,"2021-12-21,09:20:07",10.1.1.4,0.39001011848449707,-0.190,-0.190,-0.190,0.000,0.000,0.000
1640078407401270016,"2021-12-21,09:20:07",10.1.1.4,348,-0.180,-0.180,-0.180,0.000,0.000,0.000
1640078407458802944,"2021-12-21,09:20:07",10.1.1.4,0.40585994720458984,-0.180,-0.180,-0.180,0.000,0.000,0.000
1640078407898430208,"2021-12-21,09:20:07",10.1.1.4,437,-0.170,-0.170,-0.170,0.000,0.000,0.000
1640078407925556992,"2021-12-21,09:20:07",10.1.1.4,0.4649529457092285,-0.170,-0.170,-0.170,0.000,0.000,0.000
1640078407965168896,"2021-12-21,09:20:07",10.1.1.4,-3,-0.160,-0.160,-0.160,0.000,0.000,0.000
1640078408340455936,"2021-12-21,09:20:08",10.1.1.4,0.41141486167907715,-0.160,-0.160,-0.160,0.000,0.000,0.000
1640078408811665152,"2021-12-21,09:20:08",10.1.1.4,466,-0.150,-0.150,-0.150,0.000,0.000,0.000
1640078408835702016,"2021-12-21,09:20:08",10.1.1.4,0.4903409481048584,-0.150,-0.150,-0.150,0.000,0.000,0.000
1640078409318092032,"2021-12-21,09:20:09",10.1.1.4,476,-0.140,-0.140,-0.140,0.000,0.000,0.000
1640078409350272768,"2021-12-21,09:20:09",10.1.1.4,0.5089669227600098,-0.140,-0.140,-0.140,0.000,0.000,0.000
1640078409856879872,"2021-12-21,09:20:09",10.1.1.4,497,-0.130,-0.130,-0.130,0.000,0.000,0.000
1640078409907241984,"2021-12-21,09:20:09",10.1.1.4,0.5432970523834229,-0.130,-0.130,-0.130,0.000,0.000,0.000
1640078410407344128,"2021-12-21,09:20:10",10.1.1.4,497,-0.120,-0.120,-0.120,0.000,0.000,0.000
1640078410462254080,"2021-12-21,09:20:10",10.1.1.4,0.5516989231109619,-0.120,-0.120,-0.120,0.000,0.000,0.000
1640078410856236032,"2021-12-21,09:20:10",10.1.1.4,392,-0.110,-0.110,-0.110,0.000,0.000,0.000
1640078410904406016,"2021-12-21,09:20:10",10.1.1.4,0.4403829574584961,-0.110,-0.110,-0.110,0.000,0.000,0.000
1640078411327465984,"2021-12-21,09:20:11",10.1.1.4,415,-0.100,-0.100,-0.100,0.000,0.000,0.000
1640078411372785920,"2021-12-21,09:20:11",10.1.1.4,0.461198091506958,-0.100,-0.100,-0.100,0.000,0.000,0.000
1640078411842257920,"2021-12-21,09:20:11",10.1.1.4,446,-0.090,-0.090,-0.090,0.000,0.000,0.000
1640078411930200064,"2021-12-21,09:20:11",10.1.1.4,0.5560109615325928,-0.090,-0.090,-0.090,0.000,0.000,0.000
1640078412436167936,"2021-12-21,09:20:12",10.1.1.4,435,-0.080,-0.080,-0.080,0.000,0.000,0.000
1640078412472071936,"2021-12-21,09:20:12",10.1.1.4,0.47103309631347656,-0.080,-0.080,-0.080,0.000,0.000,0.000
1640078412887096832,"2021-12-21,09:20:12",10.1.1.4,408,-0.070,-0.070,-0.070,0.000,0.000,0.000
1640078412928212992,"2021-12-21,09:20:12",10.1.1.4,0.45002007484436035,-0.070,-0.070,-0.070,0.000,0.000,0.000
1640078413306219008,"2021-12-21,09:20:13",10.1.1.4,376,-0.060,-0.060,-0.060,0.000,0.000,0.000
1640078413351603968,"2021-12-21,09:20:13",10.1.1.4,0.4218330383300781,-0.060,-0.060,-0.060,0.000,0.000,0.000
1640078413765336064,"2021-12-21,09:20:13",10.1.1.4,411,-0.050,-0.050,-0.050,0.000,0.000,0.000
1640078413801762048,"2021-12-21,09:20:13",10.1.1.4,0.4484279155731201,-0.050,-0.050,-0.050,0.000,0.000,0.000
1640078414140898816,"2021-12-21,09:20:14",10.1.1.4,337,-0.040,-0.040,-0.040,0.000,0.000,0.000
1640078414201943040,"2021-12-21,09:20:14",10.1.1.4,0.3988840579986572,-0.040,-0.040,-0.040,0.000,0.000,0.000
1640078414617732096,"2021-12-21,09:20:14",10.1.1.4,413,-0.030,-0.030,-0.030,0.000,0.000,0.000
1640078414650383104,"2021-12-21,09:20:14",10.1.1.4,0.4466369152069092,-0.030,-0.030,-0.030,0.000,0.000,0.000
1640078415033293056,"2021-12-21,09:20:15",10.1.1.4,377,-0.020,-0.020,-0.020,0.000,0.000,0.000
1640078415091072000,"2021-12-21,09:20:15",10.1.1.4,0.4349830150604248,-0.020,-0.020,-0.020,0.000,0.000,0.000
1640078415496137984,"2021-12-21,09:20:15",10.1.1.4,403,-0.010,-0.010,-0.010,0.000,0.000,0.000
1640078415545586176,"2021-12-21,09:20:15",10.1.1.4,0.45282793045043945,-0.010,-0.010,-0.010,0.000,0.000,0.000
1640078415987951104,"2021-12-21,09:20:15",10.1.1.4,436,0.000,0.000,0.000,0.000,0.000,0.000
1640078416068470016,"2021-12-21,09:20:16",10.1.1.4,0.5170319080352783,0.000,0.000,0.000,0.000,0.000,0.000
1640078416499521024,"2021-12-21,09:20:16",10.1.1.4,416,-0.010,-0.010,-0.010,0.000,0.000,0.000
1640078416580150016,"2021-12-21,09:20:16",10.1.1.4,0.49721693992614746,-0.010,-0.010,-0.010,0.000,0.000,0.000
1640078417107537152,"2021-12-21,09:20:17",10.1.1.4,525,-0.020,-0.020,-0.020,0.000,0.000,0.000
1640078417192729088,"2021-12-21,09:20:17",10.1.1.4,0.5911190509796143,-0.020,-0.020,-0.020,0.000,0.000,0.000
1640078417604399872,"2021-12-21,09:20:17",10.1.1.4,401,-0.030,-0.030,-0.030,0.000,0.000,0.000
1640078417631602176,"2021-12-21,09:20:17",10.1.1.4,0.4286680221557617,-0.030,-0.030,-0.030,0.000,0.000,0.000
1640078417994929152,"2021-12-21,09:20:17",10.1.1.4,359,-0.040,-0.040,-0.040,0.000,0.000,0.000
1640078418027009024,"2021-12-21,09:20:18",10.1.1.4,0.3920009136199951,-0.040,-0.040,-0.040,0.000,0.000,0.000
1640078418413384960,"2021-12-21,09:20:18",10.1.1.4,384,-0.050,-0.050,-0.050,0.000,0.000,0.000
1640078418508773120,"2021-12-21,09:20:18",10.1.1.4,0.4798588752746582,-0.050,-0.050,-0.050,0.000,0.000,0.000
1640078419132945152,"2021-12-21,09:20:19",10.1.1.4,536,-0.060,-0.060,-0.060,0.000,0.000,0.000
1640078419191500032,"2021-12-21,09:20:19",10.1.1.4,0.5953481197357178,-0.060,-0.060,-0.060,0.000,0.000,0.000
1640078419612792064,"2021-12-21,09:20:19",10.1.1.4,417,-0.070,-0.070,-0.070,0.000,0.000,0.000
1640078419680003840,"2021-12-21,09:20:19",10.1.1.4,0.4851570129394531,-0.070,-0.070,-0.070,0.000,0.000,0.000
1640078420132745984,"2021-12-21,09:20:20",10.1.1.4,450,-0.080,-0.080,-0.080,0.000,0.000,0.000
1640078420156403968,"2021-12-21,09:20:20",10.1.1.4,0.47452783584594727,-0.080,-0.080,-0.080,0.000,0.000,0.000
1640078420570372096,"2021-12-21,09:20:20",10.1.1.4,404,-0.090,-0.090,-0.090,0.000,0.000,0.000
1640078420617074944,"2021-12-21,09:20:20",10.1.1.4,0.45127201080322266,-0.090,-0.090,-0.090,0.000,0.000,0.000
1640078421105915136,"2021-12-21,09:20:21",10.1.1.4,0.4819450378417969,-0.100,-0.100,-0.100,0.000,0.000,0.000
1640078426647095040,"2021-12-21,09:20:21",10.1.1.4,0.5797789096832275,-0.110,-0.110,-0.110,0.000,0.000,0.000
1640078433000560896,"2021-12-21,09:20:26",10.1.1.4,5800,-0.110,-0.110,-0.110,0.000,0.000,0.000
1640078433784779008,"2021-12-21,09:20:33",10.1.1.4,508,-0.120,-0.120,-0.120,0.000,0.000,0.000
1640078433822983936,"2021-12-21,09:20:33",10.1.1.4,0.5465750694274902,-0.120,-0.120,-0.120,0.000,0.000,0.000
1640078434146356992,"2021-12-21,09:20:34",10.1.1.4,322,-0.130,-0.130,-0.130,0.000,0.000,0.000
1640078434164988928,"2021-12-21,09:20:34",10.1.1.4,0.3407120704650879,-0.130,-0.130,-0.130,0.000,0.000,0.000
1640078434494519040,"2021-12-21,09:20:34",10.1.1.4,327,-0.140,-0.140,-0.140,0.000,0.000,0.000
1640078434520523008,"2021-12-21,09:20:34",10.1.1.4,0.35382890701293945,-0.140,-0.140,-0.140,0.000,0.000,0.000
1640078435744934144,"2021-12-21,09:20:35",10.1.1.4,1223,-0.150,-0.150,-0.150,0.000,0.000,0.000
1640078435795942912,"2021-12-21,09:20:35",10.1.1.4,1.274245023727417,-0.150,-0.150,-0.150,0.000,0.000,0.000
1640078437330770944,"2021-12-21,09:20:37",10.1.1.4,1531,-0.160,-0.160,-0.160,0.000,0.000,0.000
1640078437337465088,"2021-12-21,09:20:37",10.1.1.4,1.5384972095489502,-0.160,-0.160,-0.160,0.000,0.000,0.000
1640078438423964928,"2021-12-21,09:20:38",10.1.1.4,1076,-0.170,-0.170,-0.170,0.000,0.000,0.000
1640078438429382912,"2021-12-21,09:20:38",10.1.1.4,1.0863220691680908,-0.170,-0.170,-0.170,0.000,0.000,0.000
1640078443001349888,"2021-12-21,09:20:43",10.1.1.4,4570,-0.180,-0.180,-0.180,0.000,0.000,0.000
1640078443038886144,"2021-12-21,09:20:43",10.1.1.4,4.608283042907715,-0.180,-0.180,-0.180,0.000,0.000,0.000
1640078443729524992,"2021-12-21,09:20:43",10.1.1.4,684,-0.190,-0.190,-0.190,0.000,0.000,0.000
1640078443743988992,"2021-12-21,09:20:43",10.1.1.4,0.6987268924713135,-0.190,-0.190,-0.190,0.000,0.000,0.000
1640078444758210816,"2021-12-21,09:20:44",10.1.1.4,393,-0.200,-0.200,-0.200,0.000,0.000,0.000
1640078444782547968,"2021-12-21,09:20:44",10.1.1.4,1.0367741584777832,-0.200,-0.200,-0.200,0.000,0.000,0.000
1640078445408126208,"2021-12-21,09:20:45",10.1.1.4,616,-0.210,-0.210,-0.210,0.000,0.000,0.000
1640078445433198848,"2021-12-21,09:20:45",10.1.1.4,0.6483008861541748,-0.210,-0.210,-0.210,0.000,0.000,0.000
1640078445848579840,"2021-12-21,09:20:45",10.1.1.4,408,-0.220,-0.220,-0.220,0.000,0.000,0.000
1640078445872932864,"2021-12-21,09:20:45",10.1.1.4,0.43300795555114746,-0.220,-0.220,-0.220,0.000,0.000,0.000
1640078446655915008,"2021-12-21,09:20:46",10.1.1.4,781,-0.230,-0.230,-0.230,0.000,0.000,0.000
1640078446703755008,"2021-12-21,09:20:46",10.1.1.4,0.8290419578552246,-0.230,-0.230,-0.230,0.000,0.000,0.000
1640078447766652160,"2021-12-21,09:20:47",10.1.1.4,1057,-0.240,-0.240,-0.240,0.000,0.000,0.000
1640078447820359936,"2021-12-21,09:20:47",10.1.1.4,1.1114590167999268,-0.240,-0.240,-0.240,0.000,0.000,0.000
1640078448244626944,"2021-12-21,09:20:48",10.1.1.4,422,-0.250,-0.250,-0.250,0.000,0.000,0.000
1640078448289839104,"2021-12-21,09:20:48",10.1.1.4,0.46805787086486816,-0.250,-0.250,-0.250,0.000,0.000,0.000
1640078448853779200,"2021-12-21,09:20:48",10.1.1.4,560,-0.260,-0.260,-0.260,0.000,0.000,0.000
1640078448873050880,"2021-12-21,09:20:48",10.1.1.4,0.5801641941070557,-0.260,-0.260,-0.260,0.000,0.000,0.000
1640078449292557056,"2021-12-21,09:20:49",10.1.1.4,417,-0.270,-0.270,-0.270,0.000,0.000,0.000
1640078449336694016,"2021-12-21,09:20:49",10.1.1.4,0.46144604682922363,-0.270,-0.270,-0.270,0.000,0.000,0.000
1640078449825753088,"2021-12-21,09:20:49",10.1.1.4,487,-0.280,-0.280,-0.280,0.000,0.000,0.000
1640078449833971968,"2021-12-21,09:20:49",10.1.1.4,0.49585700035095215,-0.280,-0.280,-0.280,0.000,0.000,0.000
1640078450277425152,"2021-12-21,09:20:50",10.1.1.4,439,-0.290,-0.290,-0.290,0.000,0.000,0.000
1640078450303255040,"2021-12-21,09:20:50",10.1.1.4,0.4643120765686035,-0.290,-0.290,-0.290,0.000,0.000,0.000
1640078450715470080,"2021-12-21,09:20:50",10.1.1.4,408,-0.300,-0.300,-0.300,0.000,0.000,0.000
1640078450785149184,"2021-12-21,09:20:50",10.1.1.4,0.47782206535339355,-0.300,-0.300,-0.300,0.000,0.000,0.000
1640078451165061120,"2021-12-21,09:20:51",10.1.1.4,378,-0.310,-0.310,-0.310,0.000,0.000,0.000
1640078451212070912,"2021-12-21,09:20:51",10.1.1.4,0.42555880546569824,-0.310,-0.310,-0.310,0.000,0.000,0.000
1640078451588188928,"2021-12-21,09:20:51",10.1.1.4,374,-0.320,-0.320,-0.320,0.000,0.000,0.000
1640078451631800832,"2021-12-21,09:20:51",10.1.1.4,0.41777491569519043,-0.320,-0.320,-0.320,0.000,0.000,0.000
1640078452175364096,"2021-12-21,09:20:52",10.1.1.4,508,-0.330,-0.330,-0.330,0.000,0.000,0.000
1640078452204550912,"2021-12-21,09:20:52",10.1.1.4,0.5642068386077881,-0.330,-0.330,-0.330,0.000,0.000,0.000
1640078452549154048,"2021-12-21,09:20:52",10.1.1.4,342,-0.340,-0.340,-0.340,0.000,0.000,0.000
1640078452620317952,"2021-12-21,09:20:52",10.1.1.4,0.4145379066467285,-0.340,-0.340,-0.340,0.000,0.000,0.000
1640078453215398912,"2021-12-21,09:20:53",10.1.1.4,592,-0.350,-0.350,-0.350,0.000,0.000,0.000
1640078453253784832,"2021-12-21,09:20:53",10.1.1.4,0.6306309700012207,-0.350,-0.350,-0.350,0.000,0.000,0.000
1640078453646795008,"2021-12-21,09:20:53",10.1.1.4,388,-0.360,-0.360,-0.360,0.000,0.000,0.000
1640078453715246848,"2021-12-21,09:20:53",10.1.1.4,0.45662784576416016,-0.360,-0.360,-0.360,0.000,0.000,0.000
1640078454200360960,"2021-12-21,09:20:54",10.1.1.4,478,-0.370,-0.370,-0.370,0.000,0.000,0.000
1640078454278307840,"2021-12-21,09:20:54",10.1.1.4,0.5568239688873291,-0.370,-0.370,-0.370,0.000,0.000,0.000
1640078454813904896,"2021-12-21,09:20:54",10.1.1.4,533,-0.380,-0.380,-0.380,0.000,0.000,0.000
1640078454847183872,"2021-12-21,09:20:54",10.1.1.4,0.5658738613128662,-0.380,-0.380,-0.380,0.000,0.000,0.000
1640078455551196160,"2021-12-21,09:20:55",10.1.1.4,702,-0.390,-0.390,-0.390,0.000,0.000,0.000
1640078455602715904,"2021-12-21,09:20:55",10.1.1.4,0.7537479400634766,-0.390,-0.390,-0.390,0.000,0.000,0.000
1640078457138873088,"2021-12-21,09:20:57",10.1.1.4,1534,-0.400,-0.400,-0.400,0.000,0.000,0.000
1640078457183428096,"2021-12-21,09:20:57",10.1.1.4,1.5789449214935303,-0.400,-0.400,-0.400,0.000,0.000,0.000
1640078457867068160,"2021-12-21,09:20:57",10.1.1.4,682,-0.410,-0.410,-0.410,0.000,0.000,0.000
1640078457954969856,"2021-12-21,09:20:57",10.1.1.4,0.7699308395385742,-0.410,-0.410,-0.410,0.000,0.000,0.000
1640078458466754816,"2021-12-21,09:20:58",10.1.1.4,503,-0.420,-0.420,-0.420,0.000,0.000,0.000
1640078458526871808,"2021-12-21,09:20:58",10.1.1.4,0.563256025314331,-0.420,-0.420,-0.420,0.000,0.000,0.000
1640078458972840960,"2021-12-21,09:20:58",10.1.1.4,443,-0.430,-0.430,-0.430,0.000,0.000,0.000
1640078459038223872,"2021-12-21,09:20:59",10.1.1.4,0.5090398788452148,-0.430,-0.430,-0.430,0.000,0.000,0.000
1640078459575294976,"2021-12-21,09:20:59",10.1.1.4,533,-0.440,-0.440,-0.440,0.000,0.000,0.000
1640078459623691008,"2021-12-21,09:20:59",10.1.1.4,0.5815041065216064,-0.440,-0.440,-0.440,0.000,0.000,0.000
1640078460176808960,"2021-12-21,09:21:00",10.1.1.4,550,-0.450,-0.450,-0.450,0.000,0.000,0.000
1640078460189854976,"2021-12-21,09:21:00",10.1.1.4,0.5641539096832275,-0.450,-0.450,-0.450,0.000,0.000,0.000
1640078460712950016,"2021-12-21,09:21:00",10.1.1.4,521,-0.460,-0.460,-0.460,0.000,0.000,0.000
1640078460748858880,"2021-12-21,09:21:00",10.1.1.4,0.5571668148040771,-0.460,-0.460,-0.460,0.000,0.000,0.000
1640078461144759808,"2021-12-21,09:21:01",10.1.1.4,391,-0.470,-0.470,-0.470,0.000,0.000,0.000
1640078461177651968,"2021-12-21,09:21:01",10.1.1.4,0.4233379364013672,-0.470,-0.470,-0.470,0.000,0.000,0.000
1640078462591102976,"2021-12-21,09:21:02",10.1.1.4,1407,-0.480,-0.480,-0.480,0.000,0.000,0.000
1640078462632828928,"2021-12-21,09:21:02",10.1.1.4,1.449204921722412,-0.480,-0.480,-0.480,0.000,0.000,0.000
1640078463145935104,"2021-12-21,09:21:03",10.1.1.4,508,-0.490,-0.490,-0.490,0.000,0.000,0.000
1640078463155666944,"2021-12-21,09:21:03",10.1.1.4,0.5182299613952637,-0.490,-0.490,-0.490,0.000,0.000,0.000
1640078463578298112,"2021-12-21,09:21:03",10.1.1.4,419,-0.480,-0.480,-0.480,0.000,0.000,0.000
1640078463613080064,"2021-12-21,09:21:03",10.1.1.4,0.4541630744934082,-0.480,-0.480,-0.480,0.000,0.000,0.000
1640078464141664000,"2021-12-21,09:21:04",10.1.1.4,526,-0.470,-0.470,-0.470,0.000,0.000,0.000
1640078464392110080,"2021-12-21,09:21:04",10.1.1.4,0.7766830921173096,-0.470,-0.470,-0.470,0.000,0.000,0.000
1640078464913240832,"2021-12-21,09:21:04",10.1.1.4,495,-0.460,-0.460,-0.460,0.000,0.000,0.000
1640078465010292992,"2021-12-21,09:21:05",10.1.1.4,0.5920639038085938,-0.460,-0.460,-0.460,0.000,0.000,0.000
1640078465585357056,"2021-12-21,09:21:05",10.1.1.4,572,-0.450,-0.450,-0.450,0.000,0.000,0.000
1640078465640024064,"2021-12-21,09:21:05",10.1.1.4,0.6268901824951172,-0.450,-0.450,-0.450,0.000,0.000,0.000
1640078466010615040,"2021-12-21,09:21:06",10.1.1.4,368,-0.440,-0.440,-0.440,0.000,0.000,0.000
1640078466072439808,"2021-12-21,09:21:06",10.1.1.4,0.4307701587677002,-0.440,-0.440,-0.440,0.000,0.000,0.000
1640078466921936128,"2021-12-21,09:21:06",10.1.1.4,847,-0.430,-0.430,-0.430,0.000,0.000,0.000
1640078466942374912,"2021-12-21,09:21:06",10.1.1.4,0.8659248352050781,-0.430,-0.430,-0.430,0.000,0.000,0.000
1640078467874497792,"2021-12-21,09:21:07",10.1.1.4,927,-0.420,-0.420,-0.420,0.000,0.000,0.000
1640078467900128000,"2021-12-21,09:21:07",10.1.1.4,0.9525609016418457,-0.420,-0.420,-0.420,0.000,0.000,0.000
1640078468668370944,"2021-12-21,09:21:08",10.1.1.4,766,-0.410,-0.410,-0.410,0.000,0.000,0.000
1640078468710382080,"2021-12-21,09:21:08",10.1.1.4,0.8089048862457275,-0.410,-0.410,-0.410,0.000,0.000,0.000
1640078469202253056,"2021-12-21,09:21:09",10.1.1.4,0.4862980842590332,-0.400,-0.400,-0.400,0.000,0.000,0.000
1640078469654107136,"2021-12-21,09:21:09",10.1.1.4,447,-0.390,-0.390,-0.390,0.000,0.000,0.000
1640078469819066112,"2021-12-21,09:21:09",10.1.1.4,0.603485107421875,-0.390,-0.390,-0.390,0.000,0.000,0.000
1640078470425106944,"2021-12-21,09:21:10",10.1.1.4,596,-0.380,-0.380,-0.380,0.000,0.000,0.000
1640078470482081024,"2021-12-21,09:21:10",10.1.1.4,0.6536080837249756,-0.380,-0.380,-0.380,0.000,0.000,0.000
1640078470871934976,"2021-12-21,09:21:10",10.1.1.4,375,-0.370,-0.370,-0.370,0.000,0.000,0.000
1640078470950352896,"2021-12-21,09:21:10",10.1.1.4,0.453646183013916,-0.370,-0.370,-0.370,0.000,0.000,0.000
1640078471762789888,"2021-12-21,09:21:11",10.1.1.4,810,-0.360,-0.360,-0.360,0.000,0.000,0.000
1640078471784313088,"2021-12-21,09:21:11",10.1.1.4,0.8322811126708984,-0.360,-0.360,-0.360,0.000,0.000,0.000
1640078472681453056,"2021-12-21,09:21:12",10.1.1.4,891,-0.350,-0.350,-0.350,0.000,0.000,0.000
1640078472733710080,"2021-12-21,09:21:12",10.1.1.4,0.947192907333374,-0.350,-0.350,-0.350,0.000,0.000,0.000
1640078473735728896,"2021-12-21,09:21:13",10.1.1.4,997,-0.340,-0.340,-0.340,0.000,0.000,0.000
1640078473770279936,"2021-12-21,09:21:13",10.1.1.4,1.0332748889923096,-0.340,-0.340,-0.340,0.000,0.000,0.000
1640078474179943936,"2021-12-21,09:21:14",10.1.1.4,407,-0.330,-0.330,-0.330,0.000,0.000,0.000
1640078474220491776,"2021-12-21,09:21:14",10.1.1.4,0.4480588436126709,-0.330,-0.330,-0.330,0.000,0.000,0.000
1640078474725707008,"2021-12-21,09:21:14",10.1.1.4,0.5029969215393066,-0.320,-0.320,-0.320,0.000,0.000,0.000
1640078474726278912,"2021-12-21,09:21:14",10.1.1.4,503,-0.320,-0.320,-0.320,0.000,0.000,0.000
1640078475337985024,"2021-12-21,09:21:15",10.1.1.4,610,-0.310,-0.310,-0.310,0.000,0.000,0.000
1640078475393559808,"2021-12-21,09:21:15",10.1.1.4,0.6663260459899902,-0.310,-0.310,-0.310,0.000,0.000,0.000
1640078476689822976,"2021-12-21,09:21:16",10.1.1.4,1294,-0.300,-0.300,-0.300,0.000,0.000,0.000
1640078476724803072,"2021-12-21,09:21:16",10.1.1.4,1.32961106300354,-0.300,-0.300,-0.300,0.000,0.000,0.000
1640078477124537088,"2021-12-21,09:21:17",10.1.1.4,397,-0.290,-0.290,-0.290,0.000,0.000,0.000
1640078477156132096,"2021-12-21,09:21:17",10.1.1.4,0.42948317527770996,-0.290,-0.290,-0.290,0.000,0.000,0.000
1640078477530350080,"2021-12-21,09:21:17",10.1.1.4,372,-0.280,-0.280,-0.280,0.000,0.000,0.000
1640078477593511168,"2021-12-21,09:21:17",10.1.1.4,0.4359760284423828,-0.280,-0.280,-0.280,0.000,0.000,0.000
1640078478279393792,"2021-12-21,09:21:18",10.1.1.4,684,-0.270,-0.270,-0.270,0.000,0.000,0.000
1640078478338434048,"2021-12-21,09:21:18",10.1.1.4,0.7437241077423096,-0.270,-0.270,-0.270,0.000,0.000,0.000
1640078478752372992,"2021-12-21,09:21:18",10.1.1.4,409,-0.260,-0.260,-0.260,0.000,0.000,0.000
1640078478818834176,"2021-12-21,09:21:18",10.1.1.4,0.4760420322418213,-0.260,-0.260,-0.260,0.000,0.000,0.000
1640078479417068032,"2021-12-21,09:21:19",10.1.1.4,0.5965759754180908,-0.250,-0.250,-0.250,0.000,0.000,0.000
1640078479398336000,"2021-12-21,09:21:19",10.1.1.4,577,-0.250,-0.250,-0.250,0.000,0.000,0.000
1640078479873068032,"2021-12-21,09:21:19",10.1.1.4,453,-0.240,-0.240,-0.240,0.000,0.000,0.000
1640078480053620224,"2021-12-21,09:21:20",10.1.1.4,0.634005069732666,-0.240,-0.240,-0.240,0.000,0.000,0.000
1640078480535170048,"2021-12-21,09:21:20",10.1.1.4,462,-0.230,-0.230,-0.230,0.000,0.000,0.000
1640078480566930944,"2021-12-21,09:21:20",10.1.1.4,0.49479103088378906,-0.230,-0.230,-0.230,0.000,0.000,0.000
1640078481027484928,"2021-12-21,09:21:21",10.1.1.4,450,-0.220,-0.220,-0.220,0.000,0.000,0.000
1640078481077622016,"2021-12-21,09:21:21",10.1.1.4,0.5010650157928467,-0.220,-0.220,-0.220,0.000,0.000,0.000
1640078481549662208,"2021-12-21,09:21:21",10.1.1.4,0.47060394287109375,-0.210,-0.210,-0.210,0.000,0.000,0.000
1640078481550610176,"2021-12-21,09:21:21",10.1.1.4,471,-0.210,-0.210,-0.210,0.000,0.000,0.000
1640078481977688064,"2021-12-21,09:21:21",10.1.1.4,426,-0.200,-0.200,-0.200,0.000,0.000,0.000
1640078482027376896,"2021-12-21,09:21:22",10.1.1.4,0.47615504264831543,-0.200,-0.200,-0.200,0.000,0.000,0.000
1640078482684481024,"2021-12-21,09:21:22",10.1.1.4,654,-0.190,-0.190,-0.190,0.000,0.000,0.000
1640078482783854848,"2021-12-21,09:21:22",10.1.1.4,0.7544100284576416,-0.190,-0.190,-0.190,0.000,0.000,0.000
1640078483376198912,"2021-12-21,09:21:23",10.1.1.4,588,-0.180,-0.180,-0.180,0.000,0.000,0.000
1640078483521795072,"2021-12-21,09:21:23",10.1.1.4,0.7339270114898682,-0.180,-0.180,-0.180,0.000,0.000,0.000
1640078484078244864,"2021-12-21,09:21:24",10.1.1.4,511,-0.170,-0.170,-0.170,0.000,0.000,0.000
1640078484132944128,"2021-12-21,09:21:24",10.1.1.4,0.5610651969909668,-0.170,-0.170,-0.170,0.000,0.000,0.000
1640078484686695936,"2021-12-21,09:21:24",10.1.1.4,546,-0.160,-0.160,-0.160,0.000,0.000,0.000
1640078484732112896,"2021-12-21,09:21:24",10.1.1.4,0.5920660495758057,-0.160,-0.160,-0.160,0.000,0.000,0.000
1640078485094748928,"2021-12-21,09:21:25",10.1.1.4,360,-0.150,-0.150,-0.150,0.000,0.000,0.000
1640078485193873920,"2021-12-21,09:21:25",10.1.1.4,0.45969080924987793,-0.150,-0.150,-0.150,0.000,0.000,0.000
1640078485596421888,"2021-12-21,09:21:25",10.1.1.4,394,-0.140,-0.140,-0.140,0.000,0.000,0.000
1640078485672380928,"2021-12-21,09:21:25",10.1.1.4,0.4701650142669678,-0.140,-0.140,-0.140,0.000,0.000,0.000
1640078486075501056,"2021-12-21,09:21:26",10.1.1.4,401,-0.130,-0.130,-0.130,0.000,0.000,0.000
1640078486148968960,"2021-12-21,09:21:26",10.1.1.4,0.47510600090026855,-0.130,-0.130,-0.130,0.000,0.000,0.000
1640078486465739008,"2021-12-21,09:21:26",10.1.1.4,315,-0.120,-0.120,-0.120,0.000,0.000,0.000
1640078486519377920,"2021-12-21,09:21:26",10.1.1.4,0.3691580295562744,-0.120,-0.120,-0.120,0.000,0.000,0.000
1640078486938806016,"2021-12-21,09:21:26",10.1.1.4,417,-0.110,-0.110,-0.110,0.000,0.000,0.000
1640078487002023936,"2021-12-21,09:21:26",10.1.1.4,0.47808003425598145,-0.110,-0.110,-0.110,0.000,0.000,0.000
1640078487509413120,"2021-12-21,09:21:27",10.1.1.4,500,-0.100,-0.100,-0.100,0.000,0.000,0.000
1640078487549779968,"2021-12-21,09:21:27",10.1.1.4,0.5399589538574219,-0.100,-0.100,-0.100,0.000,0.000,0.000
1640078487920062976,"2021-12-21,09:21:27",10.1.1.4,368,-0.090,-0.090,-0.090,0.000,0.000,0.000
1640078487950323968,"2021-12-21,09:21:27",10.1.1.4,0.39867687225341797,-0.090,-0.090,-0.090,0.000,0.000,0.000
1640078488308020992,"2021-12-21,09:21:28",10.1.1.4,354,-0.080,-0.080,-0.080,0.000,0.000,0.000
1640078488366964224,"2021-12-21,09:21:28",10.1.1.4,0.41336894035339355,-0.080,-0.080,-0.080,0.000,0.000,0.000
1640078488725249024,"2021-12-21,09:21:28",10.1.1.4,356,-0.070,-0.070,-0.070,0.000,0.000,0.000
1640078488802046976,"2021-12-21,09:21:28",10.1.1.4,0.41642117500305176,-0.070,-0.070,-0.070,0.000,0.000,0.000
1640078489196169984,"2021-12-21,09:21:29",10.1.1.4,374,-0.060,-0.060,-0.060,0.000,0.000,0.000
1640078489233352960,"2021-12-21,09:21:29",10.1.1.4,0.4121668338775635,-0.060,-0.060,-0.060,0.000,0.000,0.000
1640078489622159872,"2021-12-21,09:21:29",10.1.1.4,381,-0.050,-0.050,-0.050,0.000,0.000,0.000
1640078489683092224,"2021-12-21,09:21:29",10.1.1.4,0.4425499439239502,-0.050,-0.050,-0.050,0.000,0.000,0.000
1640078490115691008,"2021-12-21,09:21:30",10.1.1.4,429,-0.040,-0.040,-0.040,0.000,0.000,0.000
1640078490310621952,"2021-12-21,09:21:30",10.1.1.4,0.6244041919708252,-0.040,-0.040,-0.040,0.000,0.000,0.000
1640078502397309952,"2021-12-21,09:21:39",10.1.1.4,9.210583925247192,-0.030,-0.030,-0.030,0.000,0.000,0.000
1640078505392733184,"2021-12-21,09:21:45",10.1.1.4,2979,-0.020,-0.020,-0.020,0.000,0.000,0.000
1640078505455481088,"2021-12-21,09:21:45",10.1.1.4,3.0425260066986084,-0.020,-0.020,-0.020,0.000,0.000,0.000
1640078505752388096,"2021-12-21,09:21:45",10.1.1.4,295,-0.010,-0.010,-0.010,0.000,0.000,0.000
1640078505793266944,"2021-12-21,09:21:45",10.1.1.4,0.33614611625671387,-0.010,-0.010,-0.010,0.000,0.000,0.000
1640078506121454848,"2021-12-21,09:21:46",10.1.1.4,326,0.000,0.000,0.000,0.000,0.000,0.000
1640078506164915200,"2021-12-21,09:21:46",10.1.1.4,0.3701751232147217,0.000,0.000,0.000,0.000,0.000,0.000
1640078506481380096,"2021-12-21,09:21:46",10.1.1.4,314,-0.010,-0.010,-0.010,0.000,0.000,0.000
1640078506588392960,"2021-12-21,09:21:46",10.1.1.4,0.4215409755706787,-0.010,-0.010,-0.010,0.000,0.000,0.000
1640078506900669184,"2021-12-21,09:21:46",10.1.1.4,310,-0.020,-0.020,-0.020,0.000,0.000,0.000
1640078506921915904,"2021-12-21,09:21:46",10.1.1.4,0.3318181037902832,-0.020,-0.020,-0.020,0.000,0.000,0.000
1640078507229996800,"2021-12-21,09:21:47",10.1.1.4,305,-0.030,-0.030,-0.030,0.000,0.000,0.000
1640078507277316096,"2021-12-21,09:21:47",10.1.1.4,0.35308313369750977,-0.030,-0.030,-0.030,0.000,0.000,0.000
1640078507612409088,"2021-12-21,09:21:47",10.1.1.4,329,-0.040,-0.040,-0.040,0.000,0.000,0.000
1640078507680495872,"2021-12-21,09:21:47",10.1.1.4,0.39718103408813477,-0.040,-0.040,-0.040,0.000,0.000,0.000
1640078508000027904,"2021-12-21,09:21:47",10.1.1.4,316,-0.050,-0.050,-0.050,0.000,0.000,0.000
1640078508025904896,"2021-12-21,09:21:48",10.1.1.4,0.34205102920532227,-0.050,-0.050,-0.050,0.000,0.000,0.000
1640078508360823040,"2021-12-21,09:21:48",10.1.1.4,327,-0.060,-0.060,-0.060,0.000,0.000,0.000
1640078508399473920,"2021-12-21,09:21:48",10.1.1.4,0.3672950267791748,-0.060,-0.060,-0.060,0.000,0.000,0.000
1640078508738437888,"2021-12-21,09:21:48",10.1.1.4,337,-0.070,-0.070,-0.070,0.000,0.000,0.000
1640078508811140096,"2021-12-21,09:21:48",10.1.1.4,0.40990591049194336,-0.070,-0.070,-0.070,0.000,0.000,0.000
1640078509149714944,"2021-12-21,09:21:49",10.1.1.4,335,-0.080,-0.080,-0.080,0.000,0.000,0.000
1640078509201647104,"2021-12-21,09:21:49",10.1.1.4,0.38747310638427734,-0.080,-0.080,-0.080,0.000,0.000,0.000
1640078509529396992,"2021-12-21,09:21:49",10.1.1.4,325,-0.090,-0.090,-0.090,0.000,0.000,0.000
1640078509591411968,"2021-12-21,09:21:49",10.1.1.4,0.3883180618286133,-0.090,-0.090,-0.090,0.000,0.000,0.000
1640078510576092928,"2021-12-21,09:21:50",10.1.1.4,311,-0.100,-0.100,-0.100,0.000,0.000,0.000
1640078510627906048,"2021-12-21,09:21:50",10.1.1.4,0.36304306983947754,-0.100,-0.100,-0.100,0.000,0.000,0.000
1640078510948073984,"2021-12-21,09:21:50",10.1.1.4,318,-0.110,-0.110,-0.110,0.000,0.000,0.000
1640078511008326912,"2021-12-21,09:21:51",10.1.1.4,0.3791511058807373,-0.110,-0.110,-0.110,0.000,0.000,0.000
1640078516135569152,"2021-12-21,09:21:51",10.1.1.4,324,-0.120,-0.120,-0.120,0.000,0.000,0.000
1640078516212184832,"2021-12-21,09:21:56",10.1.1.4,5.20255708694458,-0.120,-0.120,-0.120,0.000,0.000,0.000
1640078516568610816,"2021-12-21,09:21:56",10.1.1.4,355,-0.130,-0.130,-0.130,0.000,0.000,0.000
1640078516575952896,"2021-12-21,09:21:56",10.1.1.4,0.3624739646911621,-0.130,-0.130,-0.130,0.000,0.000,0.000
1640078516879964160,"2021-12-21,09:21:56",10.1.1.4,302,-0.140,-0.140,-0.140,0.000,0.000,0.000
1640078516961925888,"2021-12-21,09:21:56",10.1.1.4,0.38455986976623535,-0.140,-0.140,-0.140,0.000,0.000,0.000
1640078524516324096,"2021-12-21,09:21:57",10.1.1.4,324,-0.150,-0.150,-0.150,0.000,0.000,0.000
1640078524560036864,"2021-12-21,09:22:04",10.1.1.4,7.596883058547974,-0.150,-0.150,-0.150,0.000,0.000,0.000
1640078526181874944,"2021-12-21,09:22:06",10.1.1.4,1606,-0.160,-0.160,-0.160,0.000,0.000,0.000
1640078526227225088,"2021-12-21,09:22:06",10.1.1.4,1.6518800258636475,-0.160,-0.160,-0.160,0.000,0.000,0.000
1640078526232690176,"2021-12-21,09:22:06",10.1.1.4,-1,-0.170,-0.170,-0.170,0.000,0.000,0.000
1640078526593425152,"2021-12-21,09:22:06",10.1.1.4,0.36488986015319824,-0.170,-0.170,-0.170,0.000,0.000,0.000
1640078526984671232,"2021-12-21,09:22:06",10.1.1.4,0.3863680362701416,-0.180,-0.180,-0.180,0.000,0.000,0.000
1640078527360820992,"2021-12-21,09:22:07",10.1.1.4,370,-0.190,-0.190,-0.190,0.000,0.000,0.000
1640078527421703936,"2021-12-21,09:22:07",10.1.1.4,0.42911195755004883,-0.190,-0.190,-0.190,0.000,0.000,0.000
1640078551409264128,"2021-12-21,09:22:25",10.1.1.4,17646,-0.200,-0.200,-0.200,0.000,0.000,0.000
1640078551848946944,"2021-12-21,09:22:31",10.1.1.4,24.42496109008789,-0.200,-0.200,-0.200,0.000,0.000,0.000
1640078554507972864,"2021-12-21,09:22:34",10.1.1.4,2641,-0.210,-0.210,-0.210,0.000,0.000,0.000
1640078554563262976,"2021-12-21,09:22:34",10.1.1.4,2.6919500827789307,-0.210,-0.210,-0.210,0.000,0.000,0.000
1640078554986520064,"2021-12-21,09:22:34",10.1.1.4,421,-0.220,-0.220,-0.220,0.000,0.000,0.000
1640078555005313024,"2021-12-21,09:22:35",10.1.1.4,0.44026708602905273,-0.220,-0.220,-0.220,0.000,0.000,0.000
1640078555397515008,"2021-12-21,09:22:35",10.1.1.4,350,-0.230,-0.230,-0.230,0.000,0.000,0.000
1640078555406842880,"2021-12-21,09:22:35",10.1.1.4,0.36022400856018066,-0.230,-0.230,-0.230,0.000,0.000,0.000
1640078555793116160,"2021-12-21,09:22:35",10.1.1.4,383,-0.240,-0.240,-0.240,0.000,0.000,0.000
1640078555862091008,"2021-12-21,09:22:35",10.1.1.4,0.45226192474365234,-0.240,-0.240,-0.240,0.000,0.000,0.000
1640078556225075968,"2021-12-21,09:22:36",10.1.1.4,357,-0.250,-0.250,-0.250,0.000,0.000,0.000
1640078556272079872,"2021-12-21,09:22:36",10.1.1.4,0.4041562080383301,-0.250,-0.250,-0.250,0.000,0.000,0.000
1640078556630908928,"2021-12-21,09:22:36",10.1.1.4,357,-0.260,-0.260,-0.260,0.000,0.000,0.000
1640078556688792064,"2021-12-21,09:22:36",10.1.1.4,0.41535282135009766,-0.260,-0.260,-0.260,0.000,0.000,0.000
1640078557052675840,"2021-12-21,09:22:37",10.1.1.4,357,-0.270,-0.270,-0.270,0.000,0.000,0.000
1640078557068193024,"2021-12-21,09:22:37",10.1.1.4,0.3728668689727783,-0.270,-0.270,-0.270,0.000,0.000,0.000
1640079111216551936,"2021-12-21,09:31:51",10.1.1.4,554.1466970443726,-0.280,-0.280,-0.280,0.000,0.000,0.000
1640079111058871040,"2021-12-21,09:31:46",10.1.1.4,548978,-0.280,-0.280,-0.280,0.000,0.000,0.000
1640079118347179008,"2021-12-21,09:31:55",10.1.1.4,3279,-0.290,-0.290,-0.290,0.000,0.000,0.000
1640079119940293120,"2021-12-21,09:31:59",10.1.1.4,7.8169941902160645,-0.290,-0.290,-0.290,0.000,0.000,0.000
1640079120399614208,"2021-12-21,09:32:00",10.1.1.4,0.4564948081970215,-0.300,-0.300,-0.300,0.000,0.000,0.000
1640079120413821952,"2021-12-21,09:32:00",10.1.1.4,465,-0.300,-0.300,-0.300,0.000,0.000,0.000
1640079121598396160,"2021-12-21,09:32:01",10.1.1.4,692,-0.310,-0.310,-0.310,0.000,0.000,0.000
1640079121649625088,"2021-12-21,09:32:01",10.1.1.4,0.7433698177337646,-0.310,-0.310,-0.310,0.000,0.000,0.000
1640079122159767040,"2021-12-21,09:32:02",10.1.1.4,501,-0.320,-0.320,-0.320,0.000,0.000,0.000
1640079122238444032,"2021-12-21,09:32:02",10.1.1.4,0.5807790756225586,-0.320,-0.320,-0.320,0.000,0.000,0.000
1640079122813113088,"2021-12-21,09:32:02",10.1.1.4,560,-0.330,-0.330,-0.330,0.000,0.000,0.000
1640079123011173888,"2021-12-21,09:32:03",10.1.1.4,0.7585189342498779,-0.330,-0.330,-0.330,0.000,0.000,0.000
1640079123436932096,"2021-12-21,09:32:03",10.1.1.4,421,-0.340,-0.340,-0.340,0.000,0.000,0.000
1640079123569720064,"2021-12-21,09:32:03",10.1.1.4,0.5543849468231201,-0.340,-0.340,-0.340,0.000,0.000,0.000
1640079124102912000,"2021-12-21,09:32:04",10.1.1.4,519,-0.350,-0.350,-0.350,0.000,0.000,0.000
1640079124146436864,"2021-12-21,09:32:04",10.1.1.4,0.5635049343109131,-0.350,-0.350,-0.350,0.000,0.000,0.000
1640079124884992000,"2021-12-21,09:32:04",10.1.1.4,735,-0.360,-0.360,-0.360,0.000,0.000,0.000
1640079125015790848,"2021-12-21,09:32:04",10.1.1.4,0.8391849994659424,-0.360,-0.360,-0.360,0.000,0.000,0.000
1640079126084678912,"2021-12-21,09:32:05",10.1.1.4,400,-0.370,-0.370,-0.370,0.000,0.000,0.000
1640079126186117888,"2021-12-21,09:32:06",10.1.1.4,1.157757043838501,-0.370,-0.370,-0.370,0.000,0.000,0.000
1640079126565716992,"2021-12-21,09:32:06",10.1.1.4,377,-0.380,-0.380,-0.380,0.000,0.000,0.000
1640079126668339968,"2021-12-21,09:32:06",10.1.1.4,0.479978084564209,-0.380,-0.380,-0.380,0.000,0.000,0.000
1640079127147846912,"2021-12-21,09:32:07",10.1.1.4,474,-0.390,-0.390,-0.390,0.000,0.000,0.000
1640079127206896896,"2021-12-21,09:32:07",10.1.1.4,0.5369548797607422,-0.390,-0.390,-0.390,0.000,0.000,0.000
1640079127697614080,"2021-12-21,09:32:07",10.1.1.4,484,-0.400,-0.400,-0.400,0.000,0.000,0.000
1640079127761992960,"2021-12-21,09:32:07",10.1.1.4,0.5489208698272705,-0.400,-0.400,-0.400,0.000,0.000,0.000
1640079128271173120,"2021-12-21,09:32:08",10.1.1.4,506,-0.410,-0.410,-0.410,0.000,0.000,0.000
1640079128406249984,"2021-12-21,09:32:08",10.1.1.4,0.6414599418640137,-0.410,-0.410,-0.410,0.000,0.000,0.000
1640079128889810176,"2021-12-21,09:32:08",10.1.1.4,469,-0.420,-0.420,-0.420,0.000,0.000,0.000
1640079129071919872,"2021-12-21,09:32:09",10.1.1.4,0.6514160633087158,-0.420,-0.420,-0.420,0.000,0.000,0.000
1640079130448719104,"2021-12-21,09:32:10",10.1.1.4,1366,-0.430,-0.430,-0.430,0.000,0.000,0.000
1640079130774561792,"2021-12-21,09:32:10",10.1.1.4,1.6921892166137695,-0.430,-0.430,-0.430,0.000,0.000,0.000
1640079131292962048,"2021-12-21,09:32:11",10.1.1.4,515,-0.440,-0.440,-0.440,0.000,0.000,0.000
1640079131465559040,"2021-12-21,09:32:11",10.1.1.4,0.6848561763763428,-0.440,-0.440,-0.440,0.000,0.000,0.000
1640079131954931968,"2021-12-21,09:32:11",10.1.1.4,487,-0.450,-0.450,-0.450,0.000,0.000,0.000
1640079132050380032,"2021-12-21,09:32:12",10.1.1.4,0.5833358764648438,-0.450,-0.450,-0.450,0.000,0.000,0.000
1640079132418145024,"2021-12-21,09:32:12",10.1.1.4,362,-0.460,-0.460,-0.460,0.000,0.000,0.000
1640079132513261056,"2021-12-21,09:32:12",10.1.1.4,0.4587709903717041,-0.460,-0.460,-0.460,0.000,0.000,0.000
1640079132988472832,"2021-12-21,09:32:12",10.1.1.4,471,-0.470,-0.470,-0.470,0.000,0.000,0.000
1640079133053172992,"2021-12-21,09:32:13",10.1.1.4,0.5360381603240967,-0.470,-0.470,-0.470,0.000,0.000,0.000
1640079133495832064,"2021-12-21,09:32:13",10.1.1.4,425,-0.480,-0.480,-0.480,0.000,0.000,0.000
1640079133590683904,"2021-12-21,09:32:13",10.1.1.4,0.5203568935394287,-0.480,-0.480,-0.480,0.000,0.000,0.000
1640079134053391104,"2021-12-21,09:32:14",10.1.1.4,459,-0.490,-0.490,-0.490,0.000,0.000,0.000
1640079134206839040,"2021-12-21,09:32:14",10.1.1.4,0.6131339073181152,-0.490,-0.490,-0.490,0.000,0.000,0.000
1640079134607845120,"2021-12-21,09:32:14",10.1.1.4,399,-0.480,-0.480,-0.480,0.000,0.000,0.000
1640079134668225024,"2021-12-21,09:32:14",10.1.1.4,0.4596419334411621,-0.480,-0.480,-0.480,0.000,0.000,0.000
1640079135602996992,"2021-12-21,09:32:15",10.1.1.4,480,-0.470,-0.470,-0.470,0.000,0.000,0.000
1640079135732105984,"2021-12-21,09:32:15",10.1.1.4,0.6091930866241455,-0.470,-0.470,-0.470,0.000,0.000,0.000
1640079136164755968,"2021-12-21,09:32:16",10.1.1.4,429,-0.460,-0.460,-0.460,0.000,0.000,0.000
1640079136277416960,"2021-12-21,09:32:16",10.1.1.4,0.5425360202789307,-0.460,-0.460,-0.460,0.000,0.000,0.000
1640079136941534976,"2021-12-21,09:32:16",10.1.1.4,646,-0.450,-0.450,-0.450,0.000,0.000,0.000
1640079136985137920,"2021-12-21,09:32:16",10.1.1.4,0.690194845199585,-0.450,-0.450,-0.450,0.000,0.000,0.000
1640079137567891968,"2021-12-21,09:32:17",10.1.1.4,575,-0.440,-0.440,-0.440,0.000,0.000,0.000
1640079137587124224,"2021-12-21,09:32:17",10.1.1.4,0.5943779945373535,-0.440,-0.440,-0.440,0.000,0.000,0.000
1640079137643644928,"2021-12-21,09:32:17",10.1.1.4,-21,-0.430,-0.430,-0.430,0.000,0.000,0.000
1640079138368768000,"2021-12-21,09:32:18",10.1.1.4,0.7796390056610107,-0.430,-0.430,-0.430,0.000,0.000,0.000
1640079138906480128,"2021-12-21,09:32:18",10.1.1.4,523,-0.420,-0.420,-0.420,0.000,0.000,0.000
1640079139000169984,"2021-12-21,09:32:19",10.1.1.4,0.617581844329834,-0.420,-0.420,-0.420,0.000,0.000,0.000
1640079139590007040,"2021-12-21,09:32:19",10.1.1.4,588,-0.410,-0.410,-0.410,0.000,0.000,0.000
1640079139701540096,"2021-12-21,09:32:19",10.1.1.4,0.6998190879821777,-0.410,-0.410,-0.410,0.000,0.000,0.000
1640079140130763008,"2021-12-21,09:32:20",10.1.1.4,425,-0.400,-0.400,-0.400,0.000,0.000,0.000
1640079140178647040,"2021-12-21,09:32:20",10.1.1.4,0.47471094131469727,-0.400,-0.400,-0.400,0.000,0.000,0.000
1640079140649554944,"2021-12-21,09:32:20",10.1.1.4,461,-0.390,-0.390,-0.390,0.000,0.000,0.000
1640079140850328832,"2021-12-21,09:32:20",10.1.1.4,0.6668620109558105,-0.390,-0.390,-0.390,0.000,0.000,0.000
1640079141406487040,"2021-12-21,09:32:21",10.1.1.4,553,-0.380,-0.380,-0.380,0.000,0.000,0.000
1640079141474829824,"2021-12-21,09:32:21",10.1.1.4,0.6216681003570557,-0.380,-0.380,-0.380,0.000,0.000,0.000
1640079142032731904,"2021-12-21,09:32:22",10.1.1.4,554,-0.370,-0.370,-0.370,0.000,0.000,0.000
1640079142053672192,"2021-12-21,09:32:22",10.1.1.4,0.575423002243042,-0.370,-0.370,-0.370,0.000,0.000,0.000
1640079142768644096,"2021-12-21,09:32:22",10.1.1.4,707,-0.360,-0.360,-0.360,0.000,0.000,0.000
1640079142862149120,"2021-12-21,09:32:22",10.1.1.4,0.8012740612030029,-0.360,-0.360,-0.360,0.000,0.000,0.000
1640079143378958848,"2021-12-21,09:32:23",10.1.1.4,486,-0.350,-0.350,-0.350,0.000,0.000,0.000
1640079143517158144,"2021-12-21,09:32:23",10.1.1.4,0.619783878326416,-0.350,-0.350,-0.350,0.000,0.000,0.000
1640079143990984960,"2021-12-21,09:32:23",10.1.1.4,472,-0.340,-0.340,-0.340,0.000,0.000,0.000
1640079144014414080,"2021-12-21,09:32:24",10.1.1.4,0.49564385414123535,-0.340,-0.340,-0.340,0.000,0.000,0.000
1640079144456582144,"2021-12-21,09:32:24",10.1.1.4,433,-0.330,-0.330,-0.330,0.000,0.000,0.000
1640079144569459968,"2021-12-21,09:32:24",10.1.1.4,0.5478370189666748,-0.330,-0.330,-0.330,0.000,0.000,0.000
1640079145021192192,"2021-12-21,09:32:25",10.1.1.4,448,-0.320,-0.320,-0.320,0.000,0.000,0.000
1640079145136019968,"2021-12-21,09:32:25",10.1.1.4,0.5638232231140137,-0.320,-0.320,-0.320,0.000,0.000,0.000
1640079145677639936,"2021-12-21,09:32:25",10.1.1.4,526,-0.310,-0.310,-0.310,0.000,0.000,0.000
1640079145740460032,"2021-12-21,09:32:25",10.1.1.4,0.5893259048461914,-0.310,-0.310,-0.310,0.000,0.000,0.000
1640079146247917056,"2021-12-21,09:32:26",10.1.1.4,505,-0.300,-0.300,-0.300,0.000,0.000,0.000
1640079146340743168,"2021-12-21,09:32:26",10.1.1.4,0.5988779067993164,-0.300,-0.300,-0.300,0.000,0.000,0.000
1640079147049221888,"2021-12-21,09:32:27",10.1.1.4,0.6937260627746582,-0.290,-0.290,-0.290,0.000,0.000,0.000
1640079148588848128,"2021-12-21,09:32:28",10.1.1.4,1534,-0.280,-0.280,-0.280,0.000,0.000,0.000
1640079148751523072,"2021-12-21,09:32:28",10.1.1.4,1.6974589824676514,-0.280,-0.280,-0.280,0.000,0.000,0.000
1640079149251900928,"2021-12-21,09:32:29",10.1.1.4,498,-0.270,-0.270,-0.270,0.000,0.000,0.000
1640079149265019904,"2021-12-21,09:32:29",10.1.1.4,0.512059211730957,-0.270,-0.270,-0.270,0.000,0.000,0.000
1640079149829137920,"2021-12-21,09:32:29",10.1.1.4,557,-0.260,-0.260,-0.260,0.000,0.000,0.000
1640079149854855936,"2021-12-21,09:32:29",10.1.1.4,0.5836179256439209,-0.260,-0.260,-0.260,0.000,0.000,0.000
1640079150435148032,"2021-12-21,09:32:30",10.1.1.4,570,-0.250,-0.250,-0.250,0.000,0.000,0.000
1640079150634288128,"2021-12-21,09:32:30",10.1.1.4,0.7771058082580566,-0.250,-0.250,-0.250,0.000,0.000,0.000
1640079151131634944,"2021-12-21,09:32:31",10.1.1.4,495,-0.240,-0.240,-0.240,0.000,0.000,0.000
1640079151205014016,"2021-12-21,09:32:31",10.1.1.4,0.5694000720977783,-0.240,-0.240,-0.240,0.000,0.000,0.000
1640079151697032960,"2021-12-21,09:32:31",10.1.1.4,470,-0.230,-0.230,-0.230,0.000,0.000,0.000
1640079151843975936,"2021-12-21,09:32:31",10.1.1.4,0.6320710182189941,-0.230,-0.230,-0.230,0.000,0.000,0.000
1640079152322252032,"2021-12-21,09:32:32",10.1.1.4,456,-0.220,-0.220,-0.220,0.000,0.000,0.000
1640079152448692992,"2021-12-21,09:32:32",10.1.1.4,0.5804359912872314,-0.220,-0.220,-0.220,0.000,0.000,0.000
1640079153144062976,"2021-12-21,09:32:33",10.1.1.4,693,-0.210,-0.210,-0.210,0.000,0.000,0.000
1640079153190609920,"2021-12-21,09:32:33",10.1.1.4,0.7401399612426758,-0.210,-0.210,-0.210,0.000,0.000,0.000
1640079153762400000,"2021-12-21,09:32:33",10.1.1.4,570,-0.200,-0.200,-0.200,0.000,0.000,0.000
1640079153839406848,"2021-12-21,09:32:33",10.1.1.4,0.6474931240081787,-0.200,-0.200,-0.200,0.000,0.000,0.000
1640079154314187008,"2021-12-21,09:32:34",10.1.1.4,473,-0.190,-0.190,-0.190,0.000,0.000,0.000
1640079154366789120,"2021-12-21,09:32:34",10.1.1.4,0.525907039642334,-0.190,-0.190,-0.190,0.000,0.000,0.000
1640079154808756992,"2021-12-21,09:32:34",10.1.1.4,431,-0.180,-0.180,-0.180,0.000,0.000,0.000
1640079154905204992,"2021-12-21,09:32:34",10.1.1.4,0.5369699001312256,-0.180,-0.180,-0.180,0.000,0.000,0.000
1640079155391831040,"2021-12-21,09:32:35",10.1.1.4,484,-0.170,-0.170,-0.170,0.000,0.000,0.000
1640079155550892032,"2021-12-21,09:32:35",10.1.1.4,0.643359899520874,-0.170,-0.170,-0.170,0.000,0.000,0.000
1640079156104064000,"2021-12-21,09:32:36",10.1.1.4,550,-0.160,-0.160,-0.160,0.000,0.000,0.000
1640079156276377856,"2021-12-21,09:32:36",10.1.1.4,0.7182390689849854,-0.160,-0.160,-0.160,0.000,0.000,0.000
1640079156962590976,"2021-12-21,09:32:36",10.1.1.4,683,-0.150,-0.150,-0.150,0.000,0.000,0.000
1640079157043385088,"2021-12-21,09:32:37",10.1.1.4,0.7642700672149658,-0.150,-0.150,-0.150,0.000,0.000,0.000
1640079157564128000,"2021-12-21,09:32:37",10.1.1.4,510,-0.140,-0.140,-0.140,0.000,0.000,0.000
1640079157664550912,"2021-12-21,09:32:37",10.1.1.4,0.6148300170898438,-0.140,-0.140,-0.140,0.000,0.000,0.000
1640079158232712960,"2021-12-21,09:32:38",10.1.1.4,554,-0.130,-0.130,-0.130,0.000,0.000,0.000
1640079158308357888,"2021-12-21,09:32:38",10.1.1.4,0.6284501552581787,-0.130,-0.130,-0.130,0.000,0.000,0.000
1640079158797131008,"2021-12-21,09:32:38",10.1.1.4,478,-0.120,-0.120,-0.120,0.000,0.000,0.000
1640079158856704000,"2021-12-21,09:32:38",10.1.1.4,0.5388078689575195,-0.120,-0.120,-0.120,0.000,0.000,0.000
1640079159323108864,"2021-12-21,09:32:39",10.1.1.4,462,-0.110,-0.110,-0.110,0.000,0.000,0.000
1640079159374452224,"2021-12-21,09:32:39",10.1.1.4,0.513969898223877,-0.110,-0.110,-0.110,0.000,0.000,0.000
1640079159862295040,"2021-12-21,09:32:39",10.1.1.4,486,-0.100,-0.100,-0.100,0.000,0.000,0.000
1640079159984514048,"2021-12-21,09:32:39",10.1.1.4,0.6084938049316406,-0.100,-0.100,-0.100,0.000,0.000,0.000
1640079160687310848,"2021-12-21,09:32:40",10.1.1.4,679,-0.090,-0.090,-0.090,0.000,0.000,0.000
1640079160743604992,"2021-12-21,09:32:40",10.1.1.4,0.7451131343841553,-0.090,-0.090,-0.090,0.000,0.000,0.000
1640079161171917824,"2021-12-21,09:32:41",10.1.1.4,419,-0.080,-0.080,-0.080,0.000,0.000,0.000
1640079161202840064,"2021-12-21,09:32:41",10.1.1.4,0.4508481025695801,-0.080,-0.080,-0.080,0.000,0.000,0.000
1640079161755948032,"2021-12-21,09:32:41",10.1.1.4,550,-0.070,-0.070,-0.070,0.000,0.000,0.000
1640079161791490048,"2021-12-21,09:32:41",10.1.1.4,0.5860559940338135,-0.070,-0.070,-0.070,0.000,0.000,0.000
1640079162421926144,"2021-12-21,09:32:42",10.1.1.4,0.6229932308197021,-0.060,-0.060,-0.060,0.000,0.000,0.000
1640079162899404032,"2021-12-21,09:32:42",10.1.1.4,468,-0.050,-0.050,-0.050,0.000,0.000,0.000
1640079163023802880,"2021-12-21,09:32:43",10.1.1.4,0.5925750732421875,-0.050,-0.050,-0.050,0.000,0.000,0.000
1640079163514796032,"2021-12-21,09:32:43",10.1.1.4,487,-0.040,-0.040,-0.040,0.000,0.000,0.000
1640079163577608192,"2021-12-21,09:32:43",10.1.1.4,0.5503759384155273,-0.040,-0.040,-0.040,0.000,0.000,0.000
1640079163985933056,"2021-12-21,09:32:43",10.1.1.4,406,-0.030,-0.030,-0.030,0.000,0.000,0.000
1640079164043874048,"2021-12-21,09:32:44",10.1.1.4,0.4642918109893799,-0.030,-0.030,-0.030,0.000,0.000,0.000
1640079164631395072,"2021-12-21,09:32:44",10.1.1.4,582,-0.020,-0.020,-0.020,0.000,0.000,0.000
1640079164662576896,"2021-12-21,09:32:44",10.1.1.4,0.6167099475860596,-0.020,-0.020,-0.020,0.000,0.000,0.000
1640079165085242112,"2021-12-21,09:32:45",10.1.1.4,420,-0.010,-0.010,-0.010,0.000,0.000,0.000
1640079165157080832,"2021-12-21,09:32:45",10.1.1.4,0.4928429126739502,-0.010,-0.010,-0.010,0.000,0.000,0.000
1640079165561254912,"2021-12-21,09:32:45",10.1.1.4,394,0.000,0.000,0.000,0.000,0.000,0.000
1640079165609903104,"2021-12-21,09:32:45",10.1.1.4,0.44359302520751953,0.000,0.000,0.000,0.000,0.000,0.000
1640079166299705088,"2021-12-21,09:32:46",10.1.1.4,490,-0.010,-0.010,-0.010,0.000,0.000,0.000
1640079166376596992,"2021-12-21,09:32:46",10.1.1.4,0.569890022277832,-0.010,-0.010,-0.010,0.000,0.000,0.000
1640079166822402048,"2021-12-21,09:32:46",10.1.1.4,444,-0.020,-0.020,-0.020,0.000,0.000,0.000
1640079166943894016,"2021-12-21,09:32:46",10.1.1.4,0.5654380321502686,-0.020,-0.020,-0.020,0.000,0.000,0.000
1640079167328067072,"2021-12-21,09:32:47",10.1.1.4,382,-0.030,-0.030,-0.030,0.000,0.000,0.000
1640079167417256960,"2021-12-21,09:32:47",10.1.1.4,0.46442604064941406,-0.030,-0.030,-0.030,0.000,0.000,0.000
1640079167786780160,"2021-12-21,09:32:47",10.1.1.4,366,-0.040,-0.040,-0.040,0.000,0.000,0.000
1640079167838413056,"2021-12-21,09:32:47",10.1.1.4,0.4185791015625,-0.040,-0.040,-0.040,0.000,0.000,0.000
1640079168333800192,"2021-12-21,09:32:48",10.1.1.4,483,-0.050,-0.050,-0.050,0.000,0.000,0.000
1640079168409831936,"2021-12-21,09:32:48",10.1.1.4,0.5600850582122803,-0.050,-0.050,-0.050,0.000,0.000,0.000
1640079168947254784,"2021-12-21,09:32:48",10.1.1.4,533,-0.060,-0.060,-0.060,0.000,0.000,0.000
1640079169006448896,"2021-12-21,09:32:49",10.1.1.4,0.5953140258789062,-0.060,-0.060,-0.060,0.000,0.000,0.000
1640079169388118016,"2021-12-21,09:32:49",10.1.1.4,377,-0.070,-0.070,-0.070,0.000,0.000,0.000
1640079169480262912,"2021-12-21,09:32:49",10.1.1.4,0.469480037689209,-0.070,-0.070,-0.070,0.000,0.000,0.000
1640079169892317184,"2021-12-21,09:32:49",10.1.1.4,408,-0.080,-0.080,-0.080,0.000,0.000,0.000
1640079169983449856,"2021-12-21,09:32:49",10.1.1.4,0.5001380443572998,-0.080,-0.080,-0.080,0.000,0.000,0.000
1640079170363666176,"2021-12-21,09:32:50",10.1.1.4,377,-0.090,-0.090,-0.090,0.000,0.000,0.000
1640079170406928896,"2021-12-21,09:32:50",10.1.1.4,0.42049598693847656,-0.090,-0.090,-0.090,0.000,0.000,0.000
1640079170763395072,"2021-12-21,09:32:50",10.1.1.4,354,-0.100,-0.100,-0.100,0.000,0.000,0.000
1640079170830835200,"2021-12-21,09:32:50",10.1.1.4,0.42204999923706055,-0.100,-0.100,-0.100,0.000,0.000,0.000
1640079171385795072,"2021-12-21,09:32:51",10.1.1.4,552,-0.110,-0.110,-0.110,0.000,0.000,0.000
1640079171577052160,"2021-12-21,09:32:51",10.1.1.4,0.7441608905792236,-0.110,-0.110,-0.110,0.000,0.000,0.000
1640079172053313024,"2021-12-21,09:32:52",10.1.1.4,474,-0.120,-0.120,-0.120,0.000,0.000,0.000
1640079172153359872,"2021-12-21,09:32:52",10.1.1.4,0.568958044052124,-0.120,-0.120,-0.120,0.000,0.000,0.000
1640079172623117824,"2021-12-21,09:32:52",10.1.1.4,457,-0.130,-0.130,-0.130,0.000,0.000,0.000
1640079172770409984,"2021-12-21,09:32:52",10.1.1.4,0.604438066482544,-0.130,-0.130,-0.130,0.000,0.000,0.000
1640079173147939072,"2021-12-21,09:32:53",10.1.1.4,374,-0.140,-0.140,-0.140,0.000,0.000,0.000
1640079173325079808,"2021-12-21,09:32:53",10.1.1.4,0.5520799160003662,-0.140,-0.140,-0.140,0.000,0.000,0.000
1640079173863851008,"2021-12-21,09:32:53",10.1.1.4,530,-0.150,-0.150,-0.150,0.000,0.000,0.000
1640079173969489152,"2021-12-21,09:32:53",10.1.1.4,0.6067278385162354,-0.150,-0.150,-0.150,0.000,0.000,0.000
1640079174453564928,"2021-12-21,09:32:54",10.1.1.4,471,-0.160,-0.160,-0.160,0.000,0.000,0.000
1640079174579495936,"2021-12-21,09:32:54",10.1.1.4,0.5992679595947266,-0.160,-0.160,-0.160,0.000,0.000,0.000
1640079175069583872,"2021-12-21,09:32:55",10.1.1.4,480,-0.170,-0.170,-0.170,0.000,0.000,0.000
1640079175174267136,"2021-12-21,09:32:55",10.1.1.4,0.5851330757141113,-0.170,-0.170,-0.170,0.000,0.000,0.000
1640079175672538112,"2021-12-21,09:32:55",10.1.1.4,484,-0.180,-0.180,-0.180,0.000,0.000,0.000
1640079175922985984,"2021-12-21,09:32:55",10.1.1.4,0.7353560924530029,-0.180,-0.180,-0.180,0.000,0.000,0.000
1640079176453350144,"2021-12-21,09:32:56",10.1.1.4,526,-0.190,-0.190,-0.190,0.000,0.000,0.000
1640079176540976896,"2021-12-21,09:32:56",10.1.1.4,0.6145870685577393,-0.190,-0.190,-0.190,0.000,0.000,0.000
1640079177360086016,"2021-12-21,09:32:57",10.1.1.4,592,-0.200,-0.200,-0.200,0.000,0.000,0.000
1640079177470653952,"2021-12-21,09:32:57",10.1.1.4,0.9223229885101318,-0.200,-0.200,-0.200,0.000,0.000,0.000
1640079177964171776,"2021-12-21,09:32:57",10.1.1.4,470,-0.210,-0.210,-0.210,0.000,0.000,0.000
1640079178028466944,"2021-12-21,09:32:58",10.1.1.4,0.5363531112670898,-0.210,-0.210,-0.210,0.000,0.000,0.000
1640079179778791936,"2021-12-21,09:32:59",10.1.1.4,1748,-0.220,-0.220,-0.220,0.000,0.000,0.000
1640079180062544128,"2021-12-21,09:33:00",10.1.1.4,2.031991958618164,-0.220,-0.220,-0.220,0.000,0.000,0.000
1640079180544979200,"2021-12-21,09:33:00",10.1.1.4,478,-0.230,-0.230,-0.230,0.000,0.000,0.000
1640079180652996096,"2021-12-21,09:33:00",10.1.1.4,0.5890681743621826,-0.230,-0.230,-0.230,0.000,0.000,0.000
1640079181425787904,"2021-12-21,09:33:01",10.1.1.4,597,-0.240,-0.240,-0.240,0.000,0.000,0.000
1640079181516549120,"2021-12-21,09:33:01",10.1.1.4,0.8524229526519775,-0.240,-0.240,-0.240,0.000,0.000,0.000
1640079182117214976,"2021-12-21,09:33:02",10.1.1.4,580,-0.250,-0.250,-0.250,0.000,0.000,0.000
1640079182187244032,"2021-12-21,09:33:02",10.1.1.4,0.6501169204711914,-0.250,-0.250,-0.250,0.000,0.000,0.000
1640079182699507968,"2021-12-21,09:33:02",10.1.1.4,493,-0.260,-0.260,-0.260,0.000,0.000,0.000
1640079182791603200,"2021-12-21,09:33:02",10.1.1.4,0.5861179828643799,-0.260,-0.260,-0.260,0.000,0.000,0.000
1640079183489157888,"2021-12-21,09:33:03",10.1.1.4,681,-0.270,-0.270,-0.270,0.000,0.000,0.000
1640079183644977152,"2021-12-21,09:33:03",10.1.1.4,0.8375098705291748,-0.270,-0.270,-0.270,0.000,0.000,0.000
1640079183698208000,"2021-12-21,09:33:03",10.1.1.4,-1,-0.280,-0.280,-0.280,0.000,0.000,0.000
1640079184528059904,"2021-12-21,09:33:04",10.1.1.4,0.8673038482666016,-0.280,-0.280,-0.280,0.000,0.000,0.000
1640079185187917056,"2021-12-21,09:33:05",10.1.1.4,0.6487128734588623,-0.290,-0.290,-0.290,0.000,0.000,0.000
1640079185188112128,"2021-12-21,09:33:05",10.1.1.4,635,-0.290,-0.290,-0.290,0.000,0.000,0.000
1640079185737520896,"2021-12-21,09:33:05",10.1.1.4,533,-0.300,-0.300,-0.300,0.000,0.000,0.000
1640079185813772032,"2021-12-21,09:33:05",10.1.1.4,0.6092100143432617,-0.300,-0.300,-0.300,0.000,0.000,0.000
1640079186567708928,"2021-12-21,09:33:06",10.1.1.4,696,-0.310,-0.310,-0.310,0.000,0.000,0.000
1640079186834455040,"2021-12-21,09:33:06",10.1.1.4,0.9661169052124023,-0.310,-0.310,-0.310,0.000,0.000,0.000
1640079187563913984,"2021-12-21,09:33:07",10.1.1.4,711,-0.320,-0.320,-0.320,0.000,0.000,0.000
1640079187735536128,"2021-12-21,09:33:07",10.1.1.4,0.8832619190216064,-0.320,-0.320,-0.320,0.000,0.000,0.000
1640079188528727040,"2021-12-21,09:33:08",10.1.1.4,652,-0.330,-0.330,-0.330,0.000,0.000,0.000
1640079188529623040,"2021-12-21,09:33:08",10.1.1.4,0.7745921611785889,-0.330,-0.330,-0.330,0.000,0.000,0.000
1640079189218302976,"2021-12-21,09:33:09",10.1.1.4,578,-0.340,-0.340,-0.340,0.000,0.000,0.000
1640079189468108032,"2021-12-21,09:33:09",10.1.1.4,0.8285081386566162,-0.340,-0.340,-0.340,0.000,0.000,0.000
1640079189905085184,"2021-12-21,09:33:09",10.1.1.4,406,-0.350,-0.350,-0.350,0.000,0.000,0.000
1640079190246736128,"2021-12-21,09:33:10",10.1.1.4,0.7477350234985352,-0.350,-0.350,-0.350,0.000,0.000,0.000
1640079190840491008,"2021-12-21,09:33:10",10.1.1.4,588,-0.360,-0.360,-0.360,0.000,0.000,0.000
1640079191068945920,"2021-12-21,09:33:11",10.1.1.4,0.8169651031494141,-0.360,-0.360,-0.360,0.000,0.000,0.000
1640079191539147008,"2021-12-21,09:33:11",10.1.1.4,465,-0.370,-0.370,-0.370,0.000,0.000,0.000
1640079191777118976,"2021-12-21,09:33:11",10.1.1.4,0.7034330368041992,-0.370,-0.370,-0.370,0.000,0.000,0.000
1640079192529639936,"2021-12-21,09:33:12",10.1.1.4,748,-0.380,-0.380,-0.380,0.000,0.000,0.000
1640079192681176832,"2021-12-21,09:33:12",10.1.1.4,0.8995771408081055,-0.380,-0.380,-0.380,0.000,0.000,0.000
1640079193156019968,"2021-12-21,09:33:13",10.1.1.4,465,-0.390,-0.390,-0.390,0.000,0.000,0.000
1640079193360637952,"2021-12-21,09:33:13",10.1.1.4,0.6705608367919922,-0.390,-0.390,-0.390,0.000,0.000,0.000
1640079194003098880,"2021-12-21,09:33:14",10.1.1.4,640,-0.400,-0.400,-0.400,0.000,0.000,0.000
1640079194136526080,"2021-12-21,09:33:14",10.1.1.4,0.7744381427764893,-0.400,-0.400,-0.400,0.000,0.000,0.000
1640079194702324992,"2021-12-21,09:33:14",10.1.1.4,564,-0.410,-0.410,-0.410,0.000,0.000,0.000
1640079194862690816,"2021-12-21,09:33:14",10.1.1.4,0.7245259284973145,-0.410,-0.410,-0.410,0.000,0.000,0.000
1640079195679176960,"2021-12-21,09:33:15",10.1.1.4,812,-0.420,-0.420,-0.420,0.000,0.000,0.000
1640079195762437120,"2021-12-21,09:33:15",10.1.1.4,0.8958029747009277,-0.420,-0.420,-0.420,0.000,0.000,0.000
1640079196295528960,"2021-12-21,09:33:16",10.1.1.4,522,-0.430,-0.430,-0.430,0.000,0.000,0.000
1640079196486195200,"2021-12-21,09:33:16",10.1.1.4,0.7133300304412842,-0.430,-0.430,-0.430,0.000,0.000,0.000
1640079197053220096,"2021-12-21,09:33:17",10.1.1.4,552,-0.440,-0.440,-0.440,0.000,0.000,0.000
1640079197200846080,"2021-12-21,09:33:17",10.1.1.4,0.6997711658477783,-0.440,-0.440,-0.440,0.000,0.000,0.000
1640079197783696896,"2021-12-21,09:33:17",10.1.1.4,575,-0.450,-0.450,-0.450,0.000,0.000,0.000
1640079197914022912,"2021-12-21,09:33:17",10.1.1.4,0.7117888927459717,-0.450,-0.450,-0.450,0.000,0.000,0.000
1640079198497487104,"2021-12-21,09:33:18",10.1.1.4,553,-0.460,-0.460,-0.460,0.000,0.000,0.000
1640079198676739840,"2021-12-21,09:33:18",10.1.1.4,0.7325921058654785,-0.460,-0.460,-0.460,0.000,0.000,0.000
1640079199333633792,"2021-12-21,09:33:19",10.1.1.4,649,-0.470,-0.470,-0.470,0.000,0.000,0.000
1640079199445411840,"2021-12-21,09:33:19",10.1.1.4,0.7613818645477295,-0.470,-0.470,-0.470,0.000,0.000,0.000
1640079200168718080,"2021-12-21,09:33:20",10.1.1.4,718,-0.480,-0.480,-0.480,0.000,0.000,0.000
1640079200309233920,"2021-12-21,09:33:20",10.1.1.4,0.8591170310974121,-0.480,-0.480,-0.480,0.000,0.000,0.000
1640079201117952000,"2021-12-21,09:33:21",10.1.1.4,772,-0.490,-0.490,-0.490,0.000,0.000,0.000
1640079201219715072,"2021-12-21,09:33:21",10.1.1.4,0.8746800422668457,-0.490,-0.490,-0.490,0.000,0.000,0.000
1640079201737411072,"2021-12-21,09:33:21",10.1.1.4,487,-0.480,-0.480,-0.480,0.000,0.000,0.000
1640079201863657984,"2021-12-21,09:33:21",10.1.1.4,0.6305098533630371,-0.480,-0.480,-0.480,0.000,0.000,0.000
1640079202581394944,"2021-12-21,09:33:22",10.1.1.4,704,-0.470,-0.470,-0.470,0.000,0.000,0.000
1640079202680988160,"2021-12-21,09:33:22",10.1.1.4,0.8039588928222656,-0.470,-0.470,-0.470,0.000,0.000,0.000
1640079203286392064,"2021-12-21,09:33:23",10.1.1.4,600,-0.460,-0.460,-0.460,0.000,0.000,0.000
1640079203401731840,"2021-12-21,09:33:23",10.1.1.4,0.7157289981842041,-0.460,-0.460,-0.460,0.000,0.000,0.000
1640079204063916800,"2021-12-21,09:33:24",10.1.1.4,643,-0.450,-0.450,-0.450,0.000,0.000,0.000
1640079204120165120,"2021-12-21,09:33:24",10.1.1.4,0.6994409561157227,-0.450,-0.450,-0.450,0.000,0.000,0.000
1640079204812595968,"2021-12-21,09:33:24",10.1.1.4,634,-0.440,-0.440,-0.440,0.000,0.000,0.000
1640079204953728000,"2021-12-21,09:33:24",10.1.1.4,0.7750430107116699,-0.440,-0.440,-0.440,0.000,0.000,0.000
1640079205757776128,"2021-12-21,09:33:25",10.1.1.4,764,-0.430,-0.430,-0.430,0.000,0.000,0.000
1640079205872345088,"2021-12-21,09:33:25",10.1.1.4,0.8791871070861816,-0.430,-0.430,-0.430,0.000,0.000,0.000
1640079206319672064,"2021-12-21,09:33:26",10.1.1.4,445,-0.420,-0.420,-0.420,0.000,0.000,0.000
1640079206444108032,"2021-12-21,09:33:26",10.1.1.4,0.5701830387115479,-0.420,-0.420,-0.420,0.000,0.000,0.000
1640079206935952896,"2021-12-21,09:33:26",10.1.1.4,482,-0.410,-0.410,-0.410,0.000,0.000,0.000
1640079207148817920,"2021-12-21,09:33:27",10.1.1.4,0.7021551132202148,-0.410,-0.410,-0.410,0.000,0.000,0.000
1640079207874775040,"2021-12-21,09:33:27",10.1.1.4,717,-0.400,-0.400,-0.400,0.000,0.000,0.000
1640079208060188160,"2021-12-21,09:33:28",10.1.1.4,0.9030568599700928,-0.400,-0.400,-0.400,0.000,0.000,0.000
1640079208677735936,"2021-12-21,09:33:28",10.1.1.4,614,-0.390,-0.390,-0.390,0.000,0.000,0.000
1640079209008884992,"2021-12-21,09:33:29",10.1.1.4,0.945120096206665,-0.390,-0.390,-0.390,0.000,0.000,0.000
1640079209742489088,"2021-12-21,09:33:29",10.1.1.4,695,-0.380,-0.380,-0.380,0.000,0.000,0.000
1640079210054543104,"2021-12-21,09:33:30",10.1.1.4,1.0077598094940186,-0.380,-0.380,-0.380,0.000,0.000,0.000
1640079210586574080,"2021-12-21,09:33:30",10.1.1.4,526,-0.370,-0.370,-0.370,0.000,0.000,0.000
1640079210785927936,"2021-12-21,09:33:30",10.1.1.4,0.725383996963501,-0.370,-0.370,-0.370,0.000,0.000,0.000
1640079210870914048,"2021-12-21,09:33:30",10.1.1.4,-1,-0.360,-0.360,-0.360,0.000,0.000,0.000
1640079211541505024,"2021-12-21,09:33:31",10.1.1.4,0.7469840049743652,-0.360,-0.360,-0.360,0.000,0.000,0.000
1640079212194876928,"2021-12-21,09:33:32",10.1.1.4,0.6448140144348145,-0.350,-0.350,-0.350,0.000,0.000,0.000
1640079212195149056,"2021-12-21,09:33:32",10.1.1.4,593,-0.350,-0.350,-0.350,0.000,0.000,0.000
1640079212785341952,"2021-12-21,09:33:32",10.1.1.4,568,-0.340,-0.340,-0.340,0.000,0.000,0.000
1640079212903518976,"2021-12-21,09:33:32",10.1.1.4,0.6885499954223633,-0.340,-0.340,-0.340,0.000,0.000,0.000
1640079213486257920,"2021-12-21,09:33:33",10.1.1.4,577,-0.330,-0.330,-0.330,0.000,0.000,0.000
1640079213570373888,"2021-12-21,09:33:33",10.1.1.4,0.6615240573883057,-0.330,-0.330,-0.330,0.000,0.000,0.000
1640079214130650880,"2021-12-21,09:33:34",10.1.1.4,522,-0.320,-0.320,-0.320,0.000,0.000,0.000
1640079214376295168,"2021-12-21,09:33:34",10.1.1.4,0.768347978591919,-0.320,-0.320,-0.320,0.000,0.000,0.000
1640079215121227008,"2021-12-21,09:33:35",10.1.1.4,716,-0.310,-0.310,-0.310,0.000,0.000,0.000
1640079215263386880,"2021-12-21,09:33:35",10.1.1.4,0.8591761589050293,-0.310,-0.310,-0.310,0.000,0.000,0.000
1640079215786115840,"2021-12-21,09:33:35",10.1.1.4,509,-0.300,-0.300,-0.300,0.000,0.000,0.000
1640079216130670080,"2021-12-21,09:33:36",10.1.1.4,0.8546860218048096,-0.300,-0.300,-0.300,0.000,0.000,0.000
1640079216192621056,"2021-12-21,09:33:36",10.1.1.4,-1,-0.290,-0.290,-0.290,0.000,0.000,0.000
1640079216978939904,"2021-12-21,09:33:36",10.1.1.4,0.8125479221343994,-0.290,-0.290,-0.290,0.000,0.000,0.000
1640079217842000128,"2021-12-21,09:33:37",10.1.1.4,840,-0.280,-0.280,-0.280,0.000,0.000,0.000
1640079217978425088,"2021-12-21,09:33:37",10.1.1.4,0.9768121242523193,-0.280,-0.280,-0.280,0.000,0.000,0.000
1640079218589103104,"2021-12-21,09:33:38",10.1.1.4,557,-0.270,-0.270,-0.270,0.000,0.000,0.000
1640079218853161984,"2021-12-21,09:33:38",10.1.1.4,0.8217999935150146,-0.270,-0.270,-0.270,0.000,0.000,0.000
1640079219927742976,"2021-12-21,09:33:39",10.1.1.4,1059,-0.260,-0.260,-0.260,0.000,0.000,0.000
1640079220035942144,"2021-12-21,09:33:40",10.1.1.4,1.167201042175293,-0.260,-0.260,-0.260,0.000,0.000,0.000
1640079220656038144,"2021-12-21,09:33:40",10.1.1.4,597,-0.250,-0.250,-0.250,0.000,0.000,0.000
1640079220899126016,"2021-12-21,09:33:40",10.1.1.4,0.8411431312561035,-0.250,-0.250,-0.250,0.000,0.000,0.000
1640079221475267840,"2021-12-21,09:33:41",10.1.1.4,573,-0.240,-0.240,-0.240,0.000,0.000,0.000
1640079221754209024,"2021-12-21,09:33:41",10.1.1.4,0.8522241115570068,-0.240,-0.240,-0.240,0.000,0.000,0.000
1640079222276283904,"2021-12-21,09:33:42",10.1.1.4,519,-0.230,-0.230,-0.230,0.000,0.000,0.000
1640079222528173824,"2021-12-21,09:33:42",10.1.1.4,0.7718720436096191,-0.230,-0.230,-0.230,0.000,0.000,0.000
1640079223192979968,"2021-12-21,09:33:43",10.1.1.4,649,-0.220,-0.220,-0.220,0.000,0.000,0.000
1640079223508304128,"2021-12-21,09:33:43",10.1.1.4,0.9639949798583984,-0.220,-0.220,-0.220,0.000,0.000,0.000
1640079224008827904,"2021-12-21,09:33:44",10.1.1.4,477,-0.210,-0.210,-0.210,0.000,0.000,0.000
1640079224501754112,"2021-12-21,09:33:44",10.1.1.4,0.9682409763336182,-0.210,-0.210,-0.210,0.000,0.000,0.000
1640079225034115072,"2021-12-21,09:33:45",10.1.1.4,481,-0.200,-0.200,-0.200,0.000,0.000,0.000
1640079225341017088,"2021-12-21,09:33:45",10.1.1.4,0.7949528694152832,-0.200,-0.200,-0.200,0.000,0.000,0.000
1640079226184205056,"2021-12-21,09:33:46",10.1.1.4,818,-0.190,-0.190,-0.190,0.000,0.000,0.000
1640079226261933056,"2021-12-21,09:33:46",10.1.1.4,0.9111189842224121,-0.190,-0.190,-0.190,0.000,0.000,0.000
1640079227246184960,"2021-12-21,09:33:47",10.1.1.4,882,-0.180,-0.180,-0.180,0.000,0.000,0.000
1640079227418469888,"2021-12-21,09:33:47",10.1.1.4,1.0516588687896729,-0.180,-0.180,-0.180,0.000,0.000,0.000
1640079228053385984,"2021-12-21,09:33:48",10.1.1.4,613,-0.170,-0.170,-0.170,0.000,0.000,0.000
1640079228361583104,"2021-12-21,09:33:48",10.1.1.4,0.9212419986724854,-0.170,-0.170,-0.170,0.000,0.000,0.000
1640079228864382976,"2021-12-21,09:33:48",10.1.1.4,478,-0.160,-0.160,-0.160,0.000,0.000,0.000
1640079229060978944,"2021-12-21,09:33:49",10.1.1.4,0.6750171184539795,-0.160,-0.160,-0.160,0.000,0.000,0.000
1640079229608863232,"2021-12-21,09:33:49",10.1.1.4,537,-0.150,-0.150,-0.150,0.000,0.000,0.000
1640079229785042944,"2021-12-21,09:33:49",10.1.1.4,0.7140741348266602,-0.150,-0.150,-0.150,0.000,0.000,0.000
1640079230336612096,"2021-12-21,09:33:50",10.1.1.4,541,-0.140,-0.140,-0.140,0.000,0.000,0.000
1640079230405569024,"2021-12-21,09:33:50",10.1.1.4,0.6102070808410645,-0.140,-0.140,-0.140,0.000,0.000,0.000
1640079230954046976,"2021-12-21,09:33:50",10.1.1.4,546,-0.130,-0.130,-0.130,0.000,0.000,0.000
1640079231010561024,"2021-12-21,09:33:51",10.1.1.4,0.6027181148529053,-0.130,-0.130,-0.130,0.000,0.000,0.000
1640079231764422912,"2021-12-21,09:33:51",10.1.1.4,747,-0.120,-0.120,-0.120,0.000,0.000,0.000
1640079231867654144,"2021-12-21,09:33:51",10.1.1.4,0.850836992263794,-0.120,-0.120,-0.120,0.000,0.000,0.000
1640079232628648960,"2021-12-21,09:33:52",10.1.1.4,728,-0.110,-0.110,-0.110,0.000,0.000,0.000
1640079232865638912,"2021-12-21,09:33:52",10.1.1.4,0.9653949737548828,-0.110,-0.110,-0.110,0.000,0.000,0.000
1640079233675857920,"2021-12-21,09:33:53",10.1.1.4,800,-0.100,-0.100,-0.100,0.000,0.000,0.000
1640079233781747200,"2021-12-21,09:33:53",10.1.1.4,0.9103429317474365,-0.100,-0.100,-0.100,0.000,0.000,0.000
1640079234386327040,"2021-12-21,09:33:54",10.1.1.4,599,-0.090,-0.090,-0.090,0.000,0.000,0.000
1640079234443079936,"2021-12-21,09:33:54",10.1.1.4,0.6561291217803955,-0.090,-0.090,-0.090,0.000,0.000,0.000
1640079235059217920,"2021-12-21,09:33:55",10.1.1.4,610,-0.080,-0.080,-0.080,0.000,0.000,0.000
1640079235129345024,"2021-12-21,09:33:55",10.1.1.4,0.6804900169372559,-0.080,-0.080,-0.080,0.000,0.000,0.000
1640079235753678080,"2021-12-21,09:33:55",10.1.1.4,622,-0.070,-0.070,-0.070,0.000,0.000,0.000
1640079235864172032,"2021-12-21,09:33:55",10.1.1.4,0.7331900596618652,-0.070,-0.070,-0.070,0.000,0.000,0.000
1640079236492476928,"2021-12-21,09:33:56",10.1.1.4,626,-0.060,-0.060,-0.060,0.000,0.000,0.000
1640079236684561920,"2021-12-21,09:33:56",10.1.1.4,0.8188800811767578,-0.060,-0.060,-0.060,0.000,0.000,0.000
1640079237385632000,"2021-12-21,09:33:57",10.1.1.4,683,-0.050,-0.050,-0.050,0.000,0.000,0.000
1640079237549088000,"2021-12-21,09:33:57",10.1.1.4,0.8583831787109375,-0.050,-0.050,-0.050,0.000,0.000,0.000
1640079238319730944,"2021-12-21,09:33:58",10.1.1.4,748,-0.040,-0.040,-0.040,0.000,0.000,0.000
1640079238421261056,"2021-12-21,09:33:58",10.1.1.4,0.8496999740600586,-0.040,-0.040,-0.040,0.000,0.000,0.000
1640079238961570048,"2021-12-21,09:33:58",10.1.1.4,519,-0.030,-0.030,-0.030,0.000,0.000,0.000
1640079239260705024,"2021-12-21,09:33:59",10.1.1.4,0.8186569213867188,-0.030,-0.030,-0.030,0.000,0.000,0.000
1640079239888919040,"2021-12-21,09:33:59",10.1.1.4,624,-0.020,-0.020,-0.020,0.000,0.000,0.000
1640079240112802048,"2021-12-21,09:34:00",10.1.1.4,0.8483579158782959,-0.020,-0.020,-0.020,0.000,0.000,0.000
1640079240866107904,"2021-12-21,09:34:00",10.1.1.4,729,-0.010,-0.010,-0.010,0.000,0.000,0.000
1640079240959693056,"2021-12-21,09:34:00",10.1.1.4,0.8234338760375977,-0.010,-0.010,-0.010,0.000,0.000,0.000
1640079241549766144,"2021-12-21,09:34:01",10.1.1.4,588,0.000,0.000,0.000,0.000,0.000,0.000
1640079241700308992,"2021-12-21,09:34:01",10.1.1.4,0.7390031814575195,0.000,0.000,0.000,0.000,0.000,0.000
1640079242221470208,"2021-12-21,09:34:02",10.1.1.4,514,-0.010,-0.010,-0.010,0.000,0.000,0.000
1640079242518984192,"2021-12-21,09:34:02",10.1.1.4,0.8115839958190918,-0.010,-0.010,-0.010,0.000,0.000,0.000
1640079243243134976,"2021-12-21,09:34:03",10.1.1.4,711,-0.020,-0.020,-0.020,0.000,0.000,0.000
1640079243350641920,"2021-12-21,09:34:03",10.1.1.4,0.8193740844726562,-0.020,-0.020,-0.020,0.000,0.000,0.000
1640079244145948928,"2021-12-21,09:34:04",10.1.1.4,758,-0.030,-0.030,-0.030,0.000,0.000,0.000
1640079244256061184,"2021-12-21,09:34:04",10.1.1.4,0.8688099384307861,-0.030,-0.030,-0.030,0.000,0.000,0.000
1640079245034161152,"2021-12-21,09:34:05",10.1.1.4,765,-0.040,-0.040,-0.040,0.000,0.000,0.000
1640079245101020160,"2021-12-21,09:34:05",10.1.1.4,0.8326280117034912,-0.040,-0.040,-0.040,0.000,0.000,0.000
1640079245671910144,"2021-12-21,09:34:05",10.1.1.4,554,-0.050,-0.050,-0.050,0.000,0.000,0.000
1640079246203600896,"2021-12-21,09:34:06",10.1.1.4,1.0863690376281738,-0.050,-0.050,-0.050,0.000,0.000,0.000
1640079246730285056,"2021-12-21,09:34:06",10.1.1.4,489,-0.060,-0.060,-0.060,0.000,0.000,0.000
1640079247081111808,"2021-12-21,09:34:07",10.1.1.4,0.8484048843383789,-0.060,-0.060,-0.060,0.000,0.000,0.000
1640079247098846976,"2021-12-21,09:34:07",10.1.1.4,-8,-0.070,-0.070,-0.070,0.000,0.000,0.000
1640079247797522176,"2021-12-21,09:34:07",10.1.1.4,0.7097740173339844,-0.070,-0.070,-0.070,0.000,0.000,0.000
1640079248308726016,"2021-12-21,09:34:08",10.1.1.4,499,-0.080,-0.080,-0.080,0.000,0.000,0.000
1640079248415676160,"2021-12-21,09:34:08",10.1.1.4,0.6053140163421631,-0.080,-0.080,-0.080,0.000,0.000,0.000
1640079249111890176,"2021-12-21,09:34:09",10.1.1.4,665,-0.090,-0.090,-0.090,0.000,0.000,0.000
1640079249278359808,"2021-12-21,09:34:09",10.1.1.4,0.83160400390625,-0.090,-0.090,-0.090,0.000,0.000,0.000
1640079249735471104,"2021-12-21,09:34:09",10.1.1.4,448,-0.100,-0.100,-0.100,0.000,0.000,0.000
1640079249933792000,"2021-12-21,09:34:09",10.1.1.4,0.6472649574279785,-0.100,-0.100,-0.100,0.000,0.000,0.000
1640079250703821824,"2021-12-21,09:34:10",10.1.1.4,719,-0.110,-0.110,-0.110,0.000,0.000,0.000
1640079250726046976,"2021-12-21,09:34:10",10.1.1.4,0.7709980010986328,-0.110,-0.110,-0.110,0.000,0.000,0.000
1640079250792099840,"2021-12-21,09:34:10",10.1.1.4,-37,-0.120,-0.120,-0.120,0.000,0.000,0.000
1640079251597275136,"2021-12-21,09:34:11",10.1.1.4,0.8336400985717773,-0.120,-0.120,-0.120,0.000,0.000,0.000
1640079252115889920,"2021-12-21,09:34:12",10.1.1.4,502,-0.130,-0.130,-0.130,0.000,0.000,0.000
1640079252232012032,"2021-12-21,09:34:12",10.1.1.4,0.6187589168548584,-0.130,-0.130,-0.130,0.000,0.000,0.000
1640079252737600000,"2021-12-21,09:34:12",10.1.1.4,485,-0.140,-0.140,-0.140,0.000,0.000,0.000
1640079252996257024,"2021-12-21,09:34:12",10.1.1.4,0.7589690685272217,-0.140,-0.140,-0.140,0.000,0.000,0.000
1640079253654868992,"2021-12-21,09:34:13",10.1.1.4,639,-0.150,-0.150,-0.150,0.000,0.000,0.000
1640079253779571968,"2021-12-21,09:34:13",10.1.1.4,0.7643609046936035,-0.150,-0.150,-0.150,0.000,0.000,0.000
1640079254280709120,"2021-12-21,09:34:14",10.1.1.4,483,-0.160,-0.160,-0.160,0.000,0.000,0.000
1640079254596039168,"2021-12-21,09:34:14",10.1.1.4,0.798516035079956,-0.160,-0.160,-0.160,0.000,0.000,0.000
1640079255400260864,"2021-12-21,09:34:15",10.1.1.4,770,-0.170,-0.170,-0.170,0.000,0.000,0.000
1640079255656445952,"2021-12-21,09:34:15",10.1.1.4,1.02646803855896,-0.170,-0.170,-0.170,0.000,0.000,0.000
1640079256124585984,"2021-12-21,09:34:16",10.1.1.4,466,-0.180,-0.180,-0.180,0.000,0.000,0.000
1640079256337112064,"2021-12-21,09:34:16",10.1.1.4,0.6792688369750977,-0.180,-0.180,-0.180,0.000,0.000,0.000
1640079256810240000,"2021-12-21,09:34:16",10.1.1.4,470,-0.190,-0.190,-0.190,0.000,0.000,0.000
1640079256916878848,"2021-12-21,09:34:16",10.1.1.4,0.575779914855957,-0.190,-0.190,-0.190,0.000,0.000,0.000
1640079257665484032,"2021-12-21,09:34:17",10.1.1.4,711,-0.200,-0.200,-0.200,0.000,0.000,0.000
1640079257960939008,"2021-12-21,09:34:17",10.1.1.4,1.0068750381469727,-0.200,-0.200,-0.200,0.000,0.000,0.000
1640079258609005056,"2021-12-21,09:34:18",10.1.1.4,607,-0.210,-0.210,-0.210,0.000,0.000,0.000
1640079258804596992,"2021-12-21,09:34:18",10.1.1.4,0.796666145324707,-0.210,-0.210,-0.210,0.000,0.000,0.000
1640079259364334080,"2021-12-21,09:34:19",10.1.1.4,554,-0.220,-0.220,-0.220,0.000,0.000,0.000
1640079259564000000,"2021-12-21,09:34:19",10.1.1.4,0.7540311813354492,-0.220,-0.220,-0.220,0.000,0.000,0.000
1640079260095473152,"2021-12-21,09:34:20",10.1.1.4,518,-0.230,-0.230,-0.230,0.000,0.000,0.000
1640079260356090112,"2021-12-21,09:34:20",10.1.1.4,0.7844808101654053,-0.230,-0.230,-0.230,0.000,0.000,0.000
1640079261069758976,"2021-12-21,09:34:21",10.1.1.4,703,-0.240,-0.240,-0.240,0.000,0.000,0.000
1640079261320514048,"2021-12-21,09:34:21",10.1.1.4,0.9628901481628418,-0.240,-0.240,-0.240,0.000,0.000,0.000
1640079262159694080,"2021-12-21,09:34:22",10.1.1.4,820,-0.250,-0.250,-0.250,0.000,0.000,0.000
1640079262294331904,"2021-12-21,09:34:22",10.1.1.4,0.962899923324585,-0.250,-0.250,-0.250,0.000,0.000,0.000
1640079263152219904,"2021-12-21,09:34:23",10.1.1.4,855,-0.260,-0.260,-0.260,0.000,0.000,0.000
1640079263352147200,"2021-12-21,09:34:23",10.1.1.4,1.0552141666412354,-0.260,-0.260,-0.260,0.000,0.000,0.000
1640079264142054144,"2021-12-21,09:34:24",10.1.1.4,786,-0.270,-0.270,-0.270,0.000,0.000,0.000
1640079264560070144,"2021-12-21,09:34:24",10.1.1.4,1.2046458721160889,-0.270,-0.270,-0.270,0.000,0.000,0.000
1640079265054033920,"2021-12-21,09:34:25",10.1.1.4,490,-0.280,-0.280,-0.280,0.000,0.000,0.000
1640079265377979904,"2021-12-21,09:34:25",10.1.1.4,0.8143949508666992,-0.280,-0.280,-0.280,0.000,0.000,0.000
1640079266128349952,"2021-12-21,09:34:26",10.1.1.4,726,-0.290,-0.290,-0.290,0.000,0.000,0.000
1640079266348200192,"2021-12-21,09:34:26",10.1.1.4,0.9461188316345215,-0.290,-0.290,-0.290,0.000,0.000,0.000
1640079267054392064,"2021-12-21,09:34:27",10.1.1.4,703,-0.300,-0.300,-0.300,0.000,0.000,0.000
1640079267214364928,"2021-12-21,09:34:27",10.1.1.4,0.863692045211792,-0.300,-0.300,-0.300,0.000,0.000,0.000
1640079267919187968,"2021-12-21,09:34:27",10.1.1.4,679,-0.310,-0.310,-0.310,0.000,0.000,0.000
1640079268175580928,"2021-12-21,09:34:28",10.1.1.4,0.9355149269104004,-0.310,-0.310,-0.310,0.000,0.000,0.000
1640079268859076864,"2021-12-21,09:34:28",10.1.1.4,674,-0.320,-0.320,-0.320,0.000,0.000,0.000
1640079268979182080,"2021-12-21,09:34:28",10.1.1.4,0.7942409515380859,-0.320,-0.320,-0.320,0.000,0.000,0.000
1640079269574117888,"2021-12-21,09:34:29",10.1.1.4,575,-0.330,-0.330,-0.330,0.000,0.000,0.000
1640079269796920064,"2021-12-21,09:34:29",10.1.1.4,0.7986948490142822,-0.330,-0.330,-0.330,0.000,0.000,0.000
1640079270305125120,"2021-12-21,09:34:30",10.1.1.4,483,-0.340,-0.340,-0.340,0.000,0.000,0.000
1640079270478385920,"2021-12-21,09:34:30",10.1.1.4,0.663032054901123,-0.340,-0.340,-0.340,0.000,0.000,0.000
1640079271094070016,"2021-12-21,09:34:31",10.1.1.4,592,-0.350,-0.350,-0.350,0.000,0.000,0.000
1640079271372260096,"2021-12-21,09:34:31",10.1.1.4,0.8709750175476074,-0.350,-0.350,-0.350,0.000,0.000,0.000
1640079271942812928,"2021-12-21,09:34:31",10.1.1.4,568,-0.360,-0.360,-0.360,0.000,0.000,0.000
1640079272313865984,"2021-12-21,09:34:32",10.1.1.4,0.9396309852600098,-0.360,-0.360,-0.360,0.000,0.000,0.000
1640079273071724032,"2021-12-21,09:34:33",10.1.1.4,753,-0.370,-0.370,-0.370,0.000,0.000,0.000
1640079273293596928,"2021-12-21,09:34:33",10.1.1.4,0.9587810039520264,-0.370,-0.370,-0.370,0.000,0.000,0.000
1640079273884690944,"2021-12-21,09:34:33",10.1.1.4,579,-0.380,-0.380,-0.380,0.000,0.000,0.000
1640079274142697216,"2021-12-21,09:34:34",10.1.1.4,0.8462650775909424,-0.380,-0.380,-0.380,0.000,0.000,0.000
1640079274707390976,"2021-12-21,09:34:34",10.1.1.4,561,-0.390,-0.390,-0.390,0.000,0.000,0.000
1640079274748359936,"2021-12-21,09:34:34",10.1.1.4,0.6028659343719482,-0.390,-0.390,-0.390,0.000,0.000,0.000
1640079275405312000,"2021-12-21,09:34:35",10.1.1.4,646,-0.400,-0.400,-0.400,0.000,0.000,0.000
1640079275985575936,"2021-12-21,09:34:35",10.1.1.4,1.227226972579956,-0.400,-0.400,-0.400,0.000,0.000,0.000
1640079276685894912,"2021-12-21,09:34:36",10.1.1.4,696,-0.410,-0.410,-0.410,0.000,0.000,0.000
1640079276901457152,"2021-12-21,09:34:36",10.1.1.4,0.912804126739502,-0.410,-0.410,-0.410,0.000,0.000,0.000
1640079277559441152,"2021-12-21,09:34:37",10.1.1.4,595,-0.420,-0.420,-0.420,0.000,0.000,0.000
1640079277698096896,"2021-12-21,09:34:37",10.1.1.4,0.7361869812011719,-0.420,-0.420,-0.420,0.000,0.000,0.000
1640079278326437888,"2021-12-21,09:34:38",10.1.1.4,568,-0.430,-0.430,-0.430,0.000,0.000,0.000
1640079278469647872,"2021-12-21,09:34:38",10.1.1.4,0.7112889289855957,-0.430,-0.430,-0.430,0.000,0.000,0.000
1640079279243688192,"2021-12-21,09:34:39",10.1.1.4,636,-0.440,-0.440,-0.440,0.000,0.000,0.000
1640079279289773824,"2021-12-21,09:34:39",10.1.1.4,0.8043920993804932,-0.440,-0.440,-0.440,0.000,0.000,0.000
1640079279979080960,"2021-12-21,09:34:39",10.1.1.4,610,-0.450,-0.450,-0.450,0.000,0.000,0.000
1640079280423890944,"2021-12-21,09:34:40",10.1.1.4,1.0945611000061035,-0.450,-0.450,-0.450,0.000,0.000,0.000
1640079281453196032,"2021-12-21,09:34:41",10.1.1.4,1027,-0.460,-0.460,-0.460,0.000,0.000,0.000
1640079281663095040,"2021-12-21,09:34:41",10.1.1.4,1.2375249862670898,-0.460,-0.460,-0.460,0.000,0.000,0.000
1640079282575052032,"2021-12-21,09:34:42",10.1.1.4,811,-0.470,-0.470,-0.470,0.000,0.000,0.000
1640079282705904128,"2021-12-21,09:34:42",10.1.1.4,0.9426229000091553,-0.470,-0.470,-0.470,0.000,0.000,0.000
1640079283292740096,"2021-12-21,09:34:43",10.1.1.4,584,-0.480,-0.480,-0.480,0.000,0.000,0.000
1640079283610032128,"2021-12-21,09:34:43",10.1.1.4,0.9026758670806885,-0.480,-0.480,-0.480,0.000,0.000,0.000
1640079284125348096,"2021-12-21,09:34:44",10.1.1.4,513,-0.490,-0.490,-0.490,0.000,0.000,0.000
1640079284409634048,"2021-12-21,09:34:44",10.1.1.4,0.7981381416320801,-0.490,-0.490,-0.490,0.000,0.000,0.000
1640079285227544064,"2021-12-21,09:34:45",10.1.1.4,786,-0.480,-0.480,-0.480,0.000,0.000,0.000
1640079285617160960,"2021-12-21,09:34:45",10.1.1.4,1.18662691116333,-0.480,-0.480,-0.480,0.000,0.000,0.000
1640079285734305024,"2021-12-21,09:34:45",10.1.1.4,-95,-0.470,-0.470,-0.470,0.000,0.000,0.000
1640079287210288128,"2021-12-21,09:34:46",10.1.1.4,1.0860261917114258,-0.470,-0.470,-0.470,0.000,0.000,0.000
1640079287817006080,"2021-12-21,09:34:47",10.1.1.4,593,-0.460,-0.460,-0.460,0.000,0.000,0.000
1640079290785396992,"2021-12-21,09:34:48",10.1.1.4,1.0219519138336182,-0.460,-0.460,-0.460,0.000,0.000,0.000
1640079295052114944,"2021-12-21,09:34:54",10.1.1.4,3420,-0.450,-0.450,-0.450,0.000,0.000,0.000
1640079295079111936,"2021-12-21,09:34:55",10.1.1.4,3.9937100410461426,-0.450,-0.450,-0.450,0.000,0.000,0.000
1640079295555661056,"2021-12-21,09:34:55",10.1.1.4,474,-0.440,-0.440,-0.440,0.000,0.000,0.000
1640079296403696896,"2021-12-21,09:34:56",10.1.1.4,1.3226628303527832,-0.440,-0.440,-0.440,0.000,0.000,0.000
1640079297068197120,"2021-12-21,09:34:57",10.1.1.4,576,-0.430,-0.430,-0.430,0.000,0.000,0.000
1640079297195565824,"2021-12-21,09:34:57",10.1.1.4,0.744208812713623,-0.430,-0.430,-0.430,0.000,0.000,0.000
1640079298388232960,"2021-12-21,09:34:58",10.1.1.4,1149,-0.420,-0.420,-0.420,0.000,0.000,0.000
1640079298635004928,"2021-12-21,09:34:58",10.1.1.4,1.432082176208496,-0.420,-0.420,-0.420,0.000,0.000,0.000
1640079299288583936,"2021-12-21,09:34:59",10.1.1.4,651,-0.410,-0.410,-0.410,0.000,0.000,0.000
1640079299613671936,"2021-12-21,09:34:59",10.1.1.4,0.9766108989715576,-0.410,-0.410,-0.410,0.000,0.000,0.000
1640079300572481024,"2021-12-21,09:35:00",10.1.1.4,589,-0.400,-0.400,-0.400,0.000,0.000,0.000
1640079300686327040,"2021-12-21,09:35:00",10.1.1.4,1.0622501373291016,-0.400,-0.400,-0.400,0.000,0.000,0.000
1640079301464838144,"2021-12-21,09:35:01",10.1.1.4,765,-0.390,-0.390,-0.390,0.000,0.000,0.000
1640079302310637824,"2021-12-21,09:35:02",10.1.1.4,1.5966131687164307,-0.390,-0.390,-0.390,0.000,0.000,0.000
1640079305724656128,"2021-12-21,09:35:03",10.1.1.4,1619,-0.380,-0.380,-0.380,0.000,0.000,0.000
1640079306110023936,"2021-12-21,09:35:06",10.1.1.4,3.7804689407348633,-0.380,-0.380,-0.380,0.000,0.000,0.000
1640079307180494080,"2021-12-21,09:35:07",10.1.1.4,1068,-0.370,-0.370,-0.370,0.000,0.000,0.000
1640079307641293056,"2021-12-21,09:35:07",10.1.1.4,1.5296192169189453,-0.370,-0.370,-0.370,0.000,0.000,0.000
1640079308152049152,"2021-12-21,09:35:08",10.1.1.4,500,-0.360,-0.360,-0.360,0.000,0.000,0.000
1640079308401818112,"2021-12-21,09:35:08",10.1.1.4,0.7504510879516602,-0.360,-0.360,-0.360,0.000,0.000,0.000
1640079309079787008,"2021-12-21,09:35:09",10.1.1.4,653,-0.350,-0.350,-0.350,0.000,0.000,0.000
1640079309123236864,"2021-12-21,09:35:09",10.1.1.4,0.6971919536590576,-0.350,-0.350,-0.350,0.000,0.000,0.000
1640079310074255104,"2021-12-21,09:35:10",10.1.1.4,928,-0.340,-0.340,-0.340,0.000,0.000,0.000
1640079310416000000,"2021-12-21,09:35:10",10.1.1.4,1.2700600624084473,-0.340,-0.340,-0.340,0.000,0.000,0.000
1640079311288801024,"2021-12-21,09:35:11",10.1.1.4,870,-0.330,-0.330,-0.330,0.000,0.000,0.000
1640079311969302016,"2021-12-21,09:35:11",10.1.1.4,1.3336880207061768,-0.330,-0.330,-0.330,0.000,0.000,0.000
1640079312882117888,"2021-12-21,09:35:12",10.1.1.4,909,-0.320,-0.320,-0.320,0.000,0.000,0.000
1640079313419244032,"2021-12-21,09:35:13",10.1.1.4,1.4470410346984863,-0.320,-0.320,-0.320,0.000,0.000,0.000
1640079314672077056,"2021-12-21,09:35:14",10.1.1.4,1239,-0.310,-0.310,-0.310,0.000,0.000,0.000
1640079314921181952,"2021-12-21,09:35:14",10.1.1.4,1.489259958267212,-0.310,-0.310,-0.310,0.000,0.000,0.000
1640079315650127872,"2021-12-21,09:35:15",10.1.1.4,687,-0.300,-0.300,-0.300,0.000,0.000,0.000
1640079315899471104,"2021-12-21,09:35:15",10.1.1.4,0.9365360736846924,-0.300,-0.300,-0.300,0.000,0.000,0.000
1640079316816105984,"2021-12-21,09:35:16",10.1.1.4,609,-0.290,-0.290,-0.290,0.000,0.000,0.000
1640079317047889920,"2021-12-21,09:35:17",10.1.1.4,1.136847972869873,-0.290,-0.290,-0.290,0.000,0.000,0.000
1640079317670403840,"2021-12-21,09:35:17",10.1.1.4,621,-0.280,-0.280,-0.280,0.000,0.000,0.000
1640079318417447168,"2021-12-21,09:35:18",10.1.1.4,1.0752828121185303,-0.280,-0.280,-0.280,0.000,0.000,0.000
1640079319152764160,"2021-12-21,09:35:19",10.1.1.4,730,-0.270,-0.270,-0.270,0.000,0.000,0.000
1640079319369411840,"2021-12-21,09:35:19",10.1.1.4,0.9469020366668701,-0.270,-0.270,-0.270,0.000,0.000,0.000
1640079319981987840,"2021-12-21,09:35:19",10.1.1.4,610,-0.260,-0.260,-0.260,0.000,0.000,0.000
1640079320325336832,"2021-12-21,09:35:20",10.1.1.4,0.9539330005645752,-0.260,-0.260,-0.260,0.000,0.000,0.000
1640079320765052928,"2021-12-21,09:35:20",10.1.1.4,412,-0.250,-0.250,-0.250,0.000,0.000,0.000
1640079321089972992,"2021-12-21,09:35:21",10.1.1.4,0.7370669841766357,-0.250,-0.250,-0.250,0.000,0.000,0.000
1640079323876651008,"2021-12-21,09:35:23",10.1.1.4,2730,-0.240,-0.240,-0.240,0.000,0.000,0.000
1640079324543308032,"2021-12-21,09:35:24",10.1.1.4,3.429252862930298,-0.240,-0.240,-0.240,0.000,0.000,0.000
1640079325972017920,"2021-12-21,09:35:25",10.1.1.4,974,-0.230,-0.230,-0.230,0.000,0.000,0.000
1640079326028147968,"2021-12-21,09:35:26",10.1.1.4,1.3845601081848145,-0.230,-0.230,-0.230,0.000,0.000,0.000
1640079327257967872,"2021-12-21,09:35:27",10.1.1.4,984,-0.220,-0.220,-0.220,0.000,0.000,0.000
1640079327741679872,"2021-12-21,09:35:27",10.1.1.4,1.5577740669250488,-0.220,-0.220,-0.220,0.000,0.000,0.000
1640079328610904064,"2021-12-21,09:35:28",10.1.1.4,844,-0.210,-0.210,-0.210,0.000,0.000,0.000
1640079329535619072,"2021-12-21,09:35:29",10.1.1.4,1.3033580780029297,-0.210,-0.210,-0.210,0.000,0.000,0.000
1640079330817181184,"2021-12-21,09:35:30",10.1.1.4,1216,-0.200,-0.200,-0.200,0.000,0.000,0.000
1640079331207289088,"2021-12-21,09:35:31",10.1.1.4,1.606503963470459,-0.200,-0.200,-0.200,0.000,0.000,0.000
1640079332374848000,"2021-12-21,09:35:32",10.1.1.4,951,-0.190,-0.190,-0.190,0.000,0.000,0.000
1640079332411113984,"2021-12-21,09:35:32",10.1.1.4,1.2017650604248047,-0.190,-0.190,-0.190,0.000,0.000,0.000
1640079333410285056,"2021-12-21,09:35:33",10.1.1.4,824,-0.180,-0.180,-0.180,0.000,0.000,0.000
1640079333605030912,"2021-12-21,09:35:33",10.1.1.4,1.1778640747070312,-0.180,-0.180,-0.180,0.000,0.000,0.000
1640079336121431040,"2021-12-21,09:35:36",10.1.1.4,2334,-0.170,-0.170,-0.170,0.000,0.000,0.000
1640079336363609088,"2021-12-21,09:35:36",10.1.1.4,2.576914072036743,-0.170,-0.170,-0.170,0.000,0.000,0.000
1640079336780829952,"2021-12-21,09:35:36",10.1.1.4,415,-0.160,-0.160,-0.160,0.000,0.000,0.000
1640079337042126848,"2021-12-21,09:35:37",10.1.1.4,0.6770620346069336,-0.160,-0.160,-0.160,0.000,0.000,0.000
1640079337545316096,"2021-12-21,09:35:37",10.1.1.4,489,-0.150,-0.150,-0.150,0.000,0.000,0.000
1640079337815873024,"2021-12-21,09:35:37",10.1.1.4,0.7602348327636719,-0.150,-0.150,-0.150,0.000,0.000,0.000
1640079339793565952,"2021-12-21,09:35:38",10.1.1.4,659,-0.140,-0.140,-0.140,0.000,0.000,0.000
1640079340240545024,"2021-12-21,09:35:40",10.1.1.4,2.421036958694458,-0.140,-0.140,-0.140,0.000,0.000,0.000
1640079341353235968,"2021-12-21,09:35:41",10.1.1.4,1040,-0.130,-0.130,-0.130,0.000,0.000,0.000
1640079342795108096,"2021-12-21,09:35:42",10.1.1.4,1.7565770149230957,-0.130,-0.130,-0.130,0.000,0.000,0.000
1640079342940758016,"2021-12-21,09:35:42",10.1.1.4,-729,-0.120,-0.120,-0.120,0.000,0.000,0.000
1640079344191696896,"2021-12-21,09:35:43",10.1.1.4,1.128357172012329,-0.120,-0.120,-0.120,0.000,0.000,0.000
1640079345024254976,"2021-12-21,09:35:45",10.1.1.4,777,-0.110,-0.110,-0.110,0.000,0.000,0.000
1640079345318368000,"2021-12-21,09:35:45",10.1.1.4,1.0897300243377686,-0.110,-0.110,-0.110,0.000,0.000,0.000
1640079346611888896,"2021-12-21,09:35:46",10.1.1.4,733,-0.100,-0.100,-0.100,0.000,0.000,0.000
1640079347343956992,"2021-12-21,09:35:47",10.1.1.4,2.020982027053833,-0.100,-0.100,-0.100,0.000,0.000,0.000
1640079348444192000,"2021-12-21,09:35:48",10.1.1.4,1049,-0.090,-0.090,-0.090,0.000,0.000,0.000
1640079348660692992,"2021-12-21,09:35:48",10.1.1.4,1.3138151168823242,-0.090,-0.090,-0.090,0.000,0.000,0.000
1640079351131444992,"2021-12-21,09:35:49",10.1.1.4,711,-0.080,-0.080,-0.080,0.000,0.000,0.000
1640079351904228096,"2021-12-21,09:35:51",10.1.1.4,2.599285125732422,-0.080,-0.080,-0.080,0.000,0.000,0.000
1640079353178451968,"2021-12-21,09:35:53",10.1.1.4,1044,-0.070,-0.070,-0.070,0.000,0.000,0.000
1640079354164199168,"2021-12-21,09:35:53",10.1.1.4,1.619948148727417,-0.070,-0.070,-0.070,0.000,0.000,0.000
1640079354344619008,"2021-12-21,09:35:54",10.1.1.4,-19,-0.060,-0.060,-0.060,0.000,0.000,0.000
1640079355635372032,"2021-12-21,09:35:55",10.1.1.4,1.3345658779144287,-0.060,-0.060,-0.060,0.000,0.000,0.000
1640079356283653888,"2021-12-21,09:35:56",10.1.1.4,573,-0.050,-0.050,-0.050,0.000,0.000,0.000
1640079356860121088,"2021-12-21,09:35:56",10.1.1.4,1.2228178977966309,-0.050,-0.050,-0.050,0.000,0.000,0.000
1640079358251437824,"2021-12-21,09:35:57",10.1.1.4,756,-0.040,-0.040,-0.040,0.000,0.000,0.000
1640079358582349056,"2021-12-21,09:35:58",10.1.1.4,1.3166911602020264,-0.040,-0.040,-0.040,0.000,0.000,0.000
1640079359708143872,"2021-12-21,09:35:59",10.1.1.4,1038,-0.030,-0.030,-0.030,0.000,0.000,0.000
1640079359876132096,"2021-12-21,09:35:59",10.1.1.4,1.2784199714660645,-0.030,-0.030,-0.030,0.000,0.000,0.000
1640079359898865920,"2021-12-21,09:35:59",10.1.1.4,-19,-0.020,-0.020,-0.020,0.000,0.000,0.000
1640079362804044032,"2021-12-21,09:36:02",10.1.1.4,2.16099214553833,-0.020,-0.020,-0.020,0.000,0.000,0.000
1640079367137089024,"2021-12-21,09:36:04",10.1.1.4,1419,-0.010,-0.010,-0.010,0.000,0.000,0.000
1640079370879638016,"2021-12-21,09:36:07",10.1.1.4,4.945238828659058,-0.010,-0.010,-0.010,0.000,0.000,0.000
1640079372619527168,"2021-12-21,09:36:12",10.1.1.4,1546,0.000,0.000,0.000,0.000,0.000,0.000
1640079372968715008,"2021-12-21,09:36:12",10.1.1.4,1.895827054977417,0.000,0.000,0.000,0.000,0.000,0.000
1640079373816595968,"2021-12-21,09:36:13",10.1.1.4,786,-0.010,-0.010,-0.010,0.000,0.000,0.000
1640079374076688128,"2021-12-21,09:36:14",10.1.1.4,1.0461070537567139,-0.010,-0.010,-0.010,0.000,0.000,0.000
1640079375039464960,"2021-12-21,09:36:14",10.1.1.4,862,-0.020,-0.020,-0.020,0.000,0.000,0.000
1640079377395064064,"2021-12-21,09:36:15",10.1.1.4,1.1952669620513916,-0.020,-0.020,-0.020,0.000,0.000,0.000
1640079383194981120,"2021-12-21,09:36:21",10.1.1.4,3110,-0.030,-0.030,-0.030,0.000,0.000,0.000
1640079388308777216,"2021-12-21,09:36:25",10.1.1.4,6.864459037780762,-0.030,-0.030,-0.030,0.000,0.000,0.000
1640079395611334144,"2021-12-21,09:36:35",10.1.1.4,5630,-0.040,-0.040,-0.040,0.000,0.000,0.000
1640079395651410176,"2021-12-21,09:36:35",10.1.1.4,5.803963899612427,-0.040,-0.040,-0.040,0.000,0.000,0.000
1640079396144762112,"2021-12-21,09:36:36",10.1.1.4,490,-0.050,-0.050,-0.050,0.000,0.000,0.000
