FedericoMungari/DigitalTwin_service/01_WiredScenario/Output/Output_script/script_rosapi_2_output_robots2_freq0_1.txt
timestamp,date,node,latency,joint_1,joint_2,joint_3,joint_4,joint_5,joint_6
1644887316868472064,2022-02-15-01:08:36,10.1.1.2,16,-0.100,-0.100,-0.100,-0.000,-0.000,0.000
1644887316928622080,2022-02-15-01:08:36,10.1.1.2,26,-0.090,-0.090,-0.090,0.000,0.000,0.000
1644887316988559872,2022-02-15-01:08:36,10.1.1.2,35,-0.080,-0.080,-0.080,0.000,0.000,0.000
1644887317028372992,2022-02-15-01:08:37,10.1.1.2,24,-0.070,-0.070,-0.070,0.000,0.000,0.000
1644887317088381952,2022-02-15-01:08:37,10.1.1.2,34,-0.060,-0.060,-0.060,0.000,0.000,0.000
1644887317128897024,2022-02-15-01:08:37,10.1.1.2,23,-0.050,-0.050,-0.050,0.000,0.000,0.000
1644887317189213952,2022-02-15-01:08:37,10.1.1.2,31,-0.040,-0.040,-0.040,0.000,0.000,0.000
1644887317288162048,2022-02-15-01:08:37,10.1.1.2,26,-0.020,-0.020,-0.020,0.000,0.000,0.000
1644887317350971904,2022-02-15-01:08:37,10.1.1.2,36,-0.010,-0.010,-0.010,0.000,0.000,0.000
1644887317388643072,2022-02-15-01:08:37,10.1.1.2,23,0.000,0.000,0.000,0.000,0.000,0.000
1644887317450599936,2022-02-15-01:08:37,10.1.1.2,32,0.010,0.010,0.010,0.000,0.000,0.000
1644887317489454080,2022-02-15-01:08:37,10.1.1.2,22,0.020,0.020,0.020,0.000,0.000,0.000
1644887317553828096,2022-02-15-01:08:37,10.1.1.2,31,0.030,0.030,0.030,0.000,0.000,0.000
1644887317647895040,2022-02-15-01:08:37,10.1.1.2,30,0.050,0.050,0.050,0.000,0.000,0.000
1644887317748537088,2022-02-15-01:08:37,10.1.1.2,29,0.070,0.070,0.070,0.000,0.000,0.000
1644887317809245184,2022-02-15-01:08:37,10.1.1.2,37,0.080,0.080,0.080,0.000,0.000,0.000
1644887317849022976,2022-02-15-01:08:37,10.1.1.2,26,0.090,0.090,0.090,0.000,0.000,0.000
1644887317909981952,2022-02-15-01:08:37,10.1.1.2,35,0.100,0.100,0.100,0.000,0.000,0.000
1644887317951328000,2022-02-15-01:08:37,10.1.1.2,25,0.090,0.090,0.090,0.000,0.000,0.000
1644887318008673792,2022-02-15-01:08:38,10.1.1.2,34,0.080,0.080,0.080,0.000,0.000,0.000
1644887318070451968,2022-02-15-01:08:38,10.1.1.2,38,0.070,0.070,0.070,0.000,0.000,0.000
1644887318108856064,2022-02-15-01:08:38,10.1.1.2,24,0.060,0.060,0.060,0.000,0.000,0.000
1644887318172420864,2022-02-15-01:08:38,10.1.1.2,28,0.050,0.050,0.050,0.000,0.000,0.000
1644887318230624000,2022-02-15-01:08:38,10.1.1.2,35,0.040,0.040,0.040,0.000,0.000,0.000
1644887318271659008,2022-02-15-01:08:38,10.1.1.2,25,0.030,0.030,0.030,0.000,0.000,0.000
1644887318334862080,2022-02-15-01:08:38,10.1.1.2,39,0.020,0.020,0.020,0.000,0.000,0.000
1644887318368880128,2022-02-15-01:08:38,10.1.1.2,22,0.010,0.010,0.010,0.000,0.000,0.000
1644887318429326080,2022-02-15-01:08:38,10.1.1.2,32,0.000,0.000,0.000,0.000,0.000,0.000
1644887318476908032,2022-02-15-01:08:38,10.1.1.2,28,-0.010,-0.010,-0.010,0.000,0.000,0.000
1644887318528774144,2022-02-15-01:08:38,10.1.1.2,30,-0.020,-0.020,-0.020,0.000,0.000,0.000
1644887318589241856,2022-02-15-01:08:38,10.1.1.2,39,-0.030,-0.030,-0.030,0.000,0.000,0.000
1644887318628751104,2022-02-15-01:08:38,10.1.1.2,28,-0.040,-0.040,-0.040,0.000,0.000,0.000
1644887318690084864,2022-02-15-01:08:38,10.1.1.2,38,-0.050,-0.050,-0.050,0.000,0.000,0.000
1644887318729221120,2022-02-15-01:08:38,10.1.1.2,27,-0.060,-0.060,-0.060,0.000,0.000,0.000
1644887318790803968,2022-02-15-01:08:38,10.1.1.2,37,-0.070,-0.070,-0.070,0.000,0.000,0.000
1644887318890860032,2022-02-15-01:08:38,10.1.1.2,36,-0.090,-0.090,-0.090,0.000,0.000,0.000
1644887318929209088,2022-02-15-01:08:38,10.1.1.2,22,-0.100,-0.100,-0.100,0.000,0.000,0.000
1644887318988217088,2022-02-15-01:08:38,10.1.1.2,32,-0.090,-0.090,-0.090,0.000,0.000,0.000
1644887319028901120,2022-02-15-01:08:39,10.1.1.2,20,-0.080,-0.080,-0.080,0.000,0.000,0.000
1644887319088287232,2022-02-15-01:08:39,10.1.1.2,29,-0.070,-0.070,-0.070,0.000,0.000,0.000
1644887319148459008,2022-02-15-01:08:39,10.1.1.2,38,-0.060,-0.060,-0.060,0.000,0.000,0.000
1644887319190205184,2022-02-15-01:08:39,10.1.1.2,29,-0.050,-0.050,-0.050,0.000,0.000,0.000
1644887319248155136,2022-02-15-01:08:39,10.1.1.2,36,-0.040,-0.040,-0.040,0.000,0.000,0.000
1644887319289025024,2022-02-15-01:08:39,10.1.1.2,24,-0.030,-0.030,-0.030,0.000,0.000,0.000
1644887319349154048,2022-02-15-01:08:39,10.1.1.2,34,-0.020,-0.020,-0.020,0.000,0.000,0.000
1644887319409095168,2022-02-15-01:08:39,10.1.1.2,43,-0.010,-0.010,-0.010,0.000,0.000,0.000
1644887319449705984,2022-02-15-01:08:39,10.1.1.2,32,0.000,0.000,0.000,0.000,0.000,0.000
1644887319510020864,2022-02-15-01:08:39,10.1.1.2,41,0.010,0.010,0.010,0.000,0.000,0.000
1644887319549372928,2022-02-15-01:08:39,10.1.1.2,30,0.020,0.020,0.020,0.000,0.000,0.000
1644887319651900928,2022-02-15-01:08:39,10.1.1.2,30,0.040,0.040,0.040,0.000,0.000,0.000
1644887319709094912,2022-02-15-01:08:39,10.1.1.2,37,0.050,0.050,0.050,0.000,0.000,0.000
1644887319749545984,2022-02-15-01:08:39,10.1.1.2,27,0.060,0.060,0.060,0.000,0.000,0.000
1644887319810041856,2022-02-15-01:08:39,10.1.1.2,35,0.070,0.070,0.070,0.000,0.000,0.000
1644887319848871936,2022-02-15-01:08:39,10.1.1.2,21,0.080,0.080,0.080,0.000,0.000,0.000
1644887319968751872,2022-02-15-01:08:39,10.1.1.2,39,0.100,0.100,0.100,0.000,0.000,0.000
1644887320009454848,2022-02-15-01:08:40,10.1.1.2,28,0.090,0.090,0.090,0.000,0.000,0.000
1644887320069021952,2022-02-15-01:08:40,10.1.1.2,37,0.080,0.080,0.080,0.000,0.000,0.000
1644887320109160960,2022-02-15-01:08:40,10.1.1.2,26,0.070,0.070,0.070,0.000,0.000,0.000
1644887320208491008,2022-02-15-01:08:40,10.1.1.2,22,0.050,0.050,0.050,0.000,0.000,0.000
1644887320329376000,2022-02-15-01:08:40,10.1.1.2,40,0.030,0.030,0.030,0.000,0.000,0.000
1644887320369227008,2022-02-15-01:08:40,10.1.1.2,28,0.020,0.020,0.020,0.000,0.000,0.000
1644887320428848128,2022-02-15-01:08:40,10.1.1.2,34,0.010,0.010,0.010,0.000,0.000,0.000
1644887320468794112,2022-02-15-01:08:40,10.1.1.2,23,0.000,0.000,0.000,0.000,0.000,0.000
1644887320530011904,2022-02-15-01:08:40,10.1.1.2,33,-0.010,-0.010,-0.010,0.000,0.000,0.000
1644887320569143040,2022-02-15-01:08:40,10.1.1.2,21,-0.020,-0.020,-0.020,0.000,0.000,0.000
1644887320629043200,2022-02-15-01:08:40,10.1.1.2,28,-0.030,-0.030,-0.030,0.000,0.000,0.000
1644887320692455168,2022-02-15-01:08:40,10.1.1.2,39,-0.040,-0.040,-0.040,0.000,0.000,0.000
1644887320729643008,2022-02-15-01:08:40,10.1.1.2,23,-0.050,-0.050,-0.050,0.000,0.000,0.000
1644887320788903936,2022-02-15-01:08:40,10.1.1.2,32,-0.060,-0.060,-0.060,0.000,0.000,0.000
1644887320849030912,2022-02-15-01:08:40,10.1.1.2,36,-0.070,-0.070,-0.070,0.000,0.000,0.000
1644887320888541952,2022-02-15-01:08:40,10.1.1.2,25,-0.080,-0.080,-0.080,0.000,0.000,0.000
1644887320949099008,2022-02-15-01:08:40,10.1.1.2,34,-0.090,-0.090,-0.090,0.000,0.000,0.000
1644887320989229824,2022-02-15-01:08:40,10.1.1.2,24,-0.100,-0.100,-0.100,0.000,0.000,0.000
1644887321049166080,2022-02-15-01:08:41,10.1.1.2,32,-0.090,-0.090,-0.090,0.000,0.000,0.000
1644887321088342016,2022-02-15-01:08:41,10.1.1.2,21,-0.080,-0.080,-0.080,0.000,0.000,0.000
1644887321150848000,2022-02-15-01:08:41,10.1.1.2,30,-0.070,-0.070,-0.070,0.000,0.000,0.000
1644887321209227008,2022-02-15-01:08:41,10.1.1.2,39,-0.060,-0.060,-0.060,0.000,0.000,0.000
1644887321249955840,2022-02-15-01:08:41,10.1.1.2,28,-0.050,-0.050,-0.050,0.000,0.000,0.000
1644887321309420032,2022-02-15-01:08:41,10.1.1.2,36,-0.040,-0.040,-0.040,0.000,0.000,0.000
1644887321349227008,2022-02-15-01:08:41,10.1.1.2,25,-0.030,-0.030,-0.030,0.000,0.000,0.000
1644887321408992000,2022-02-15-01:08:41,10.1.1.2,34,-0.020,-0.020,-0.020,0.000,0.000,0.000
1644887321448962048,2022-02-15-01:08:41,10.1.1.2,23,-0.010,-0.010,-0.010,0.000,0.000,0.000
1644887321513523200,2022-02-15-01:08:41,10.1.1.2,33,0.000,0.000,0.000,0.000,0.000,0.000
1644887321548753920,2022-02-15-01:08:41,10.1.1.2,22,0.010,0.010,0.010,0.000,0.000,0.000
1644887321609062912,2022-02-15-01:08:41,10.1.1.2,31,0.020,0.020,0.020,0.000,0.000,0.000
1644887321650881024,2022-02-15-01:08:41,10.1.1.2,20,0.030,0.030,0.030,0.000,0.000,0.000
1644887321769145856,2022-02-15-01:08:41,10.1.1.2,39,0.050,0.050,0.050,0.000,0.000,0.000
1644887321811769856,2022-02-15-01:08:41,10.1.1.2,30,0.060,0.060,0.060,0.000,0.000,0.000
1644887321869491968,2022-02-15-01:08:41,10.1.1.2,34,0.070,0.070,0.070,0.000,0.000,0.000
1644887321909233920,2022-02-15-01:08:41,10.1.1.2,23,0.080,0.080,0.080,0.000,0.000,0.000
1644887321969584896,2022-02-15-01:08:41,10.1.1.2,33,0.090,0.090,0.090,0.000,0.000,0.000
1644887322028997888,2022-02-15-01:08:42,10.1.1.2,38,0.100,0.100,0.100,0.000,0.000,0.000
1644887322068867072,2022-02-15-01:08:42,10.1.1.2,27,0.090,0.090,0.090,0.000,0.000,0.000
1644887322128776192,2022-02-15-01:08:42,10.1.1.2,36,0.080,0.080,0.080,0.000,0.000,0.000
1644887322169995008,2022-02-15-01:08:42,10.1.1.2,24,0.070,0.070,0.070,0.000,0.000,0.000
1644887322229847040,2022-02-15-01:08:42,10.1.1.2,31,0.060,0.060,0.060,0.000,0.000,0.000
1644887322270633984,2022-02-15-01:08:42,10.1.1.2,20,0.050,0.050,0.050,0.000,0.000,0.000
1644887322348773120,2022-02-15-01:08:42,10.1.1.2,46,0.040,0.040,0.040,0.000,0.000,0.000
1644887322389082880,2022-02-15-01:08:42,10.1.1.2,36,0.030,0.030,0.030,0.000,0.000,0.000
1644887322428762880,2022-02-15-01:08:42,10.1.1.2,22,0.020,0.020,0.020,0.000,0.000,0.000
1644887322489146112,2022-02-15-01:08:42,10.1.1.2,29,0.010,0.010,0.010,0.000,0.000,0.000
1644887322550035968,2022-02-15-01:08:42,10.1.1.2,37,0.000,0.000,0.000,0.000,0.000,0.000
1644887322589672192,2022-02-15-01:08:42,10.1.1.2,23,-0.010,-0.010,-0.010,0.000,0.000,0.000
1644887322651595008,2022-02-15-01:08:42,10.1.1.2,31,-0.020,-0.020,-0.020,0.000,0.000,0.000
1644887322691224064,2022-02-15-01:08:42,10.1.1.2,21,-0.030,-0.030,-0.030,0.000,0.000,0.000
1644887322749608960,2022-02-15-01:08:42,10.1.1.2,28,-0.040,-0.040,-0.040,0.000,0.000,0.000
1644887322809403904,2022-02-15-01:08:42,10.1.1.2,37,-0.050,-0.050,-0.050,0.000,0.000,0.000
1644887322848720128,2022-02-15-01:08:42,10.1.1.2,24,-0.060,-0.060,-0.060,0.000,0.000,0.000
1644887322908807936,2022-02-15-01:08:42,10.1.1.2,33,-0.070,-0.070,-0.070,0.000,0.000,0.000
1644887322948813056,2022-02-15-01:08:42,10.1.1.2,22,-0.080,-0.080,-0.080,0.000,0.000,0.000
1644887323012530176,2022-02-15-01:08:43,10.1.1.2,35,-0.090,-0.090,-0.090,0.000,0.000,0.000
1644887323048846080,2022-02-15-01:08:43,10.1.1.2,21,-0.100,-0.100,-0.100,0.000,0.000,0.000
1644887323108674048,2022-02-15-01:08:43,10.1.1.2,30,-0.090,-0.090,-0.090,0.000,0.000,0.000
1644887323168824832,2022-02-15-01:08:43,10.1.1.2,35,-0.080,-0.080,-0.080,0.000,0.000,0.000
1644887323208781056,2022-02-15-01:08:43,10.1.1.2,24,-0.070,-0.070,-0.070,0.000,0.000,0.000
1644887323278913024,2022-02-15-01:08:43,10.1.1.2,33,-0.060,-0.060,-0.060,0.000,0.000,0.000
1644887323309082112,2022-02-15-01:08:43,10.1.1.2,23,-0.050,-0.050,-0.050,0.000,0.000,0.000
1644887323370295040,2022-02-15-01:08:43,10.1.1.2,32,-0.040,-0.040,-0.040,0.000,0.000,0.000
1644887323568969984,2022-02-15-01:08:43,10.1.1.2,28,0.000,0.000,0.000,0.000,0.000,0.000
1644887323629735936,2022-02-15-01:08:43,10.1.1.2,37,0.010,0.010,0.010,0.000,0.000,0.000
1644887323668598784,2022-02-15-01:08:43,10.1.1.2,26,0.020,0.020,0.020,0.000,0.000,0.000
1644887323729014016,2022-02-15-01:08:43,10.1.1.2,35,0.030,0.030,0.030,0.000,0.000,0.000
1644887323769267200,2022-02-15-01:08:43,10.1.1.2,25,0.040,0.040,0.040,0.000,0.000,0.000
1644887323828742912,2022-02-15-01:08:43,10.1.1.2,34,0.050,0.050,0.050,0.000,0.000,0.000
1644887323874900992,2022-02-15-01:08:43,10.1.1.2,28,0.060,0.060,0.060,0.000,0.000,0.000
1644887323931130880,2022-02-15-01:08:43,10.1.1.2,32,0.070,0.070,0.070,0.000,0.000,0.000
1644887323969890048,2022-02-15-01:08:43,10.1.1.2,21,0.080,0.080,0.080,0.000,0.000,0.000
1644887324028989184,2022-02-15-01:08:44,10.1.1.2,30,0.090,0.090,0.090,0.000,0.000,0.000
1644887324091190016,2022-02-15-01:08:44,10.1.1.2,41,0.100,0.100,0.100,0.000,0.000,0.000
1644887324130870016,2022-02-15-01:08:44,10.1.1.2,29,0.090,0.090,0.090,0.000,0.000,0.000
1644887324189676032,2022-02-15-01:08:44,10.1.1.2,34,0.080,0.080,0.080,0.000,0.000,0.000
1644887324229150976,2022-02-15-01:08:44,10.1.1.2,24,0.070,0.070,0.070,0.000,0.000,0.000
1644887324291120128,2022-02-15-01:08:44,10.1.1.2,33,0.060,0.060,0.060,0.000,0.000,0.000
1644887324338691072,2022-02-15-01:08:44,10.1.1.2,26,0.050,0.050,0.050,0.000,0.000,0.000
1644887324389611008,2022-02-15-01:08:44,10.1.1.2,31,0.040,0.040,0.040,0.000,0.000,0.000
1644887324489049856,2022-02-15-01:08:44,10.1.1.2,29,0.020,0.020,0.020,0.000,0.000,0.000
1644887324552535040,2022-02-15-01:08:44,10.1.1.2,42,0.010,0.010,0.010,0.000,0.000,0.000
1644887324592504064,2022-02-15-01:08:44,10.1.1.2,27,0.000,0.000,0.000,0.000,0.000,0.000
1644887324655493120,2022-02-15-01:08:44,10.1.1.2,41,-0.010,-0.010,-0.010,0.000,0.000,0.000
1644887324691162112,2022-02-15-01:08:44,10.1.1.2,26,-0.020,-0.020,-0.020,0.000,0.000,0.000
1644887324748951808,2022-02-15-01:08:44,10.1.1.2,35,-0.030,-0.030,-0.030,0.000,0.000,0.000
1644887324790540032,2022-02-15-01:08:44,10.1.1.2,24,-0.040,-0.040,-0.040,0.000,0.000,0.000
1644887324848780032,2022-02-15-01:08:44,10.1.1.2,33,-0.050,-0.050,-0.050,0.000,0.000,0.000
1644887324889894912,2022-02-15-01:08:44,10.1.1.2,22,-0.060,-0.060,-0.060,0.000,0.000,0.000
1644887324949990144,2022-02-15-01:08:44,10.1.1.2,30,-0.070,-0.070,-0.070,0.000,0.000,0.000
1644887325049432064,2022-02-15-01:08:45,10.1.1.2,29,-0.090,-0.090,-0.090,0.000,0.000,0.000
1644887325109425152,2022-02-15-01:08:45,10.1.1.2,38,-0.100,-0.100,-0.100,0.000,0.000,0.000
1644887325149992960,2022-02-15-01:08:45,10.1.1.2,27,-0.090,-0.090,-0.090,0.000,0.000,0.000
1644887325208849920,2022-02-15-01:08:45,10.1.1.2,35,-0.080,-0.080,-0.080,0.000,0.000,0.000
1644887325248709888,2022-02-15-01:08:45,10.1.1.2,22,-0.070,-0.070,-0.070,0.000,0.000,0.000
1644887325308646912,2022-02-15-01:08:45,10.1.1.2,32,-0.060,-0.060,-0.060,0.000,0.000,0.000
1644887325349934080,2022-02-15-01:08:45,10.1.1.2,22,-0.050,-0.050,-0.050,0.000,0.000,0.000
1644887325408646144,2022-02-15-01:08:45,10.1.1.2,30,-0.040,-0.040,-0.040,0.000,0.000,0.000
1644887325449666048,2022-02-15-01:08:45,10.1.1.2,20,-0.030,-0.030,-0.030,0.000,0.000,0.000
1644887325509105920,2022-02-15-01:08:45,10.1.1.2,26,-0.020,-0.020,-0.020,0.000,0.000,0.000
1644887325568936192,2022-02-15-01:08:45,10.1.1.2,35,-0.010,-0.010,-0.010,0.000,0.000,0.000
1644887325610224128,2022-02-15-01:08:45,10.1.1.2,24,0.000,0.000,0.000,0.000,0.000,0.000
1644887325668730880,2022-02-15-01:08:45,10.1.1.2,32,0.010,0.010,0.010,0.000,0.000,0.000
1644887325769049856,2022-02-15-01:08:45,10.1.1.2,27,0.030,0.030,0.030,0.000,0.000,0.000
1644887325829009920,2022-02-15-01:08:45,10.1.1.2,31,0.040,0.040,0.040,0.000,0.000,0.000
1644887325931032832,2022-02-15-01:08:45,10.1.1.2,29,0.060,0.060,0.060,0.000,0.000,0.000
1644887325989253888,2022-02-15-01:08:45,10.1.1.2,37,0.070,0.070,0.070,0.000,0.000,0.000
1644887326029541888,2022-02-15-01:08:46,10.1.1.2,26,0.080,0.080,0.080,0.000,0.000,0.000
1644887326089683968,2022-02-15-01:08:46,10.1.1.2,35,0.090,0.090,0.090,0.000,0.000,0.000
1644887326131045120,2022-02-15-01:08:46,10.1.1.2,24,0.100,0.100,0.100,0.000,0.000,0.000
1644887326191318016,2022-02-15-01:08:46,10.1.1.2,33,0.090,0.090,0.090,0.000,0.000,0.000
1644887326231313920,2022-02-15-01:08:46,10.1.1.2,22,0.080,0.080,0.080,0.000,0.000,0.000
1644887326288760064,2022-02-15-01:08:46,10.1.1.2,32,0.070,0.070,0.070,0.000,0.000,0.000
1644887326388918016,2022-02-15-01:08:46,10.1.1.2,29,0.050,0.050,0.050,0.000,0.000,0.000
1644887326449105152,2022-02-15-01:08:46,10.1.1.2,38,0.040,0.040,0.040,0.000,0.000,0.000
1644887326489180928,2022-02-15-01:08:46,10.1.1.2,26,0.030,0.030,0.030,0.000,0.000,0.000
1644887326550064128,2022-02-15-01:08:46,10.1.1.2,34,0.020,0.020,0.020,0.000,0.000,0.000
1644887326588762880,2022-02-15-01:08:46,10.1.1.2,23,0.010,0.010,0.010,0.000,0.000,0.000
1644887326650553088,2022-02-15-01:08:46,10.1.1.2,33,0.000,0.000,0.000,0.000,0.000,0.000
1644887326689966080,2022-02-15-01:08:46,10.1.1.2,22,-0.010,-0.010,-0.010,0.000,0.000,0.000
1644887326749663232,2022-02-15-01:08:46,10.1.1.2,31,-0.020,-0.020,-0.020,0.000,0.000,0.000
1644887326788894976,2022-02-15-01:08:46,10.1.1.2,20,-0.030,-0.030,-0.030,0.000,0.000,0.000
1644887326849428992,2022-02-15-01:08:46,10.1.1.2,29,-0.040,-0.040,-0.040,0.000,0.000,0.000
1644887327008755968,2022-02-15-01:08:47,10.1.1.2,36,-0.070,-0.070,-0.070,0.000,0.000,0.000
1644887327049618944,2022-02-15-01:08:47,10.1.1.2,25,-0.080,-0.080,-0.080,0.000,0.000,0.000
1644887327109541888,2022-02-15-01:08:47,10.1.1.2,30,-0.090,-0.090,-0.090,0.000,0.000,0.000
1644887327168709120,2022-02-15-01:08:47,10.1.1.2,39,-0.100,-0.100,-0.100,0.000,0.000,0.000
1644887327209378048,2022-02-15-01:08:47,10.1.1.2,28,-0.090,-0.090,-0.090,0.000,0.000,0.000
1644887327268914944,2022-02-15-01:08:47,10.1.1.2,35,-0.080,-0.080,-0.080,0.000,0.000,0.000
1644887327308811008,2022-02-15-01:08:47,10.1.1.2,24,-0.070,-0.070,-0.070,0.000,0.000,0.000
1644887327372039168,2022-02-15-01:08:47,10.1.1.2,35,-0.060,-0.060,-0.060,0.000,0.000,0.000
1644887327411081984,2022-02-15-01:08:47,10.1.1.2,21,-0.050,-0.050,-0.050,0.000,0.000,0.000
1644887327468604160,2022-02-15-01:08:47,10.1.1.2,29,-0.040,-0.040,-0.040,0.000,0.000,0.000
1644887327528642816,2022-02-15-01:08:47,10.1.1.2,36,-0.030,-0.030,-0.030,0.000,0.000,0.000
1644887327569506048,2022-02-15-01:08:47,10.1.1.2,23,-0.020,-0.020,-0.020,0.000,0.000,0.000
1644887327635705088,2022-02-15-01:08:47,10.1.1.2,28,-0.010,-0.010,-0.010,0.000,0.000,0.000
1644887327674978048,2022-02-15-01:08:47,10.1.1.2,27,0.000,0.000,0.000,0.000,0.000,0.000
1644887327730010112,2022-02-15-01:08:47,10.1.1.2,30,0.010,0.010,0.010,0.000,0.000,0.000
1644887327789272064,2022-02-15-01:08:47,10.1.1.2,39,0.020,0.020,0.020,0.000,0.000,0.000
1644887327828579840,2022-02-15-01:08:47,10.1.1.2,27,0.030,0.030,0.030,0.000,0.000,0.000
1644887327888956160,2022-02-15-01:08:47,10.1.1.2,36,0.040,0.040,0.040,0.000,0.000,0.000
1644887327928967936,2022-02-15-01:08:47,10.1.1.2,25,0.050,0.050,0.050,0.000,0.000,0.000
1644887327989043968,2022-02-15-01:08:47,10.1.1.2,34,0.060,0.060,0.060,0.000,0.000,0.000
1644887328029586944,2022-02-15-01:08:48,10.1.1.2,23,0.070,0.070,0.070,0.000,0.000,0.000
1644887328089037056,2022-02-15-01:08:48,10.1.1.2,33,0.080,0.080,0.080,0.000,0.000,0.000
1644887328149324032,2022-02-15-01:08:48,10.1.1.2,38,0.090,0.090,0.090,0.000,0.000,0.000
1644887328190339072,2022-02-15-01:08:48,10.1.1.2,27,0.100,0.100,0.100,0.000,0.000,0.000
1644887328254566912,2022-02-15-01:08:48,10.1.1.2,41,0.090,0.090,0.090,0.000,0.000,0.000
1644887328289905152,2022-02-15-01:08:48,10.1.1.2,26,0.080,0.080,0.080,0.000,0.000,0.000
1644887328349005824,2022-02-15-01:08:48,10.1.1.2,34,0.070,0.070,0.070,0.000,0.000,0.000
1644887328389028096,2022-02-15-01:08:48,10.1.1.2,22,0.060,0.060,0.060,0.000,0.000,0.000
1644887328448889088,2022-02-15-01:08:48,10.1.1.2,31,0.050,0.050,0.050,0.000,0.000,0.000
1644887328549315072,2022-02-15-01:08:48,10.1.1.2,27,0.030,0.030,0.030,0.000,0.000,0.000
1644887328608584960,2022-02-15-01:08:48,10.1.1.2,36,0.020,0.020,0.020,0.000,0.000,0.000
1644887328649379072,2022-02-15-01:08:48,10.1.1.2,25,0.010,0.010,0.010,0.000,0.000,0.000
1644887328710427904,2022-02-15-01:08:48,10.1.1.2,32,0.000,0.000,0.000,0.000,0.000,0.000
1644887328749409024,2022-02-15-01:08:48,10.1.1.2,21,-0.010,-0.010,-0.010,0.000,0.000,0.000
1644887328871272960,2022-02-15-01:08:48,10.1.1.2,40,-0.030,-0.030,-0.030,0.000,0.000,0.000
1644887328969027072,2022-02-15-01:08:48,10.1.1.2,36,-0.050,-0.050,-0.050,0.000,0.000,0.000
1644887329069253888,2022-02-15-01:08:49,10.1.1.2,34,-0.070,-0.070,-0.070,0.000,0.000,0.000
1644887329124952064,2022-02-15-01:08:49,10.1.1.2,39,-0.080,-0.080,-0.080,0.000,0.000,0.000
1644887329169400832,2022-02-15-01:08:49,10.1.1.2,32,-0.090,-0.090,-0.090,0.000,0.000,0.000
1644887329209229056,2022-02-15-01:08:49,10.1.1.2,21,-0.100,-0.100,-0.100,0.000,0.000,0.000
1644887329329021952,2022-02-15-01:08:49,10.1.1.2,39,-0.080,-0.080,-0.080,0.000,0.000,0.000
1644887329370639104,2022-02-15-01:08:49,10.1.1.2,28,-0.070,-0.070,-0.070,0.000,0.000,0.000
1644887329462734080,2022-02-15-01:08:49,10.1.1.2,17,-0.050,-0.050,-0.050,0.000,0.000,0.000
1644887329582505984,2022-02-15-01:08:49,10.1.1.2,36,-0.030,-0.030,-0.030,0.000,0.000,0.000
1644887329622977024,2022-02-15-01:08:49,10.1.1.2,25,-0.020,-0.020,-0.020,0.000,0.000,0.000
1644887329684261120,2022-02-15-01:08:49,10.1.1.2,34,-0.010,-0.010,-0.010,0.000,0.000,0.000
1644887329736172032,2022-02-15-01:08:49,10.1.1.2,36,0.000,0.000,0.000,0.000,0.000,0.000
1644887329782008832,2022-02-15-01:08:49,10.1.1.2,32,0.010,0.010,0.010,0.000,0.000,0.000
1644887329822108928,2022-02-15-01:08:49,10.1.1.2,21,0.020,0.020,0.020,0.000,0.000,0.000
1644887329882865920,2022-02-15-01:08:49,10.1.1.2,31,0.030,0.030,0.030,0.000,0.000,0.000
1644887329982433024,2022-02-15-01:08:49,10.1.1.2,29,0.050,0.050,0.050,0.000,0.000,0.000
1644887330042226176,2022-02-15-01:08:50,10.1.1.2,36,0.060,0.060,0.060,0.000,0.000,0.000
1644887330082868224,2022-02-15-01:08:50,10.1.1.2,25,0.070,0.070,0.070,0.000,0.000,0.000
1644887330142400000,2022-02-15-01:08:50,10.1.1.2,33,0.080,0.080,0.080,0.000,0.000,0.000
1644887330202286080,2022-02-15-01:08:50,10.1.1.2,39,0.090,0.090,0.090,0.000,0.000,0.000
1644887330242669056,2022-02-15-01:08:50,10.1.1.2,29,0.100,0.100,0.100,0.000,0.000,0.000
1644887330281765888,2022-02-15-01:08:50,10.1.1.2,16,0.090,0.090,0.090,0.000,0.000,0.000
1644887330342155008,2022-02-15-01:08:50,10.1.1.2,25,0.080,0.080,0.080,0.000,0.000,0.000
1644887330401840896,2022-02-15-01:08:50,10.1.1.2,34,0.070,0.070,0.070,0.000,0.000,0.000
1644887330502859008,2022-02-15-01:08:50,10.1.1.2,26,0.050,0.050,0.050,0.000,0.000,0.000
1644887330562510848,2022-02-15-01:08:50,10.1.1.2,36,0.040,0.040,0.040,0.000,0.000,0.000
1644887330602264832,2022-02-15-01:08:50,10.1.1.2,24,0.030,0.030,0.030,0.000,0.000,0.000
1644887330662102016,2022-02-15-01:08:50,10.1.1.2,31,0.020,0.020,0.020,0.000,0.000,0.000
1644887330702586880,2022-02-15-01:08:50,10.1.1.2,20,0.010,0.010,0.010,0.000,0.000,0.000
1644887330763169024,2022-02-15-01:08:50,10.1.1.2,29,0.000,0.000,0.000,0.000,0.000,0.000
1644887330822823936,2022-02-15-01:08:50,10.1.1.2,38,-0.010,-0.010,-0.010,0.000,0.000,0.000
1644887330863020032,2022-02-15-01:08:50,10.1.1.2,27,-0.020,-0.020,-0.020,0.000,0.000,0.000
1644887330922061824,2022-02-15-01:08:50,10.1.1.2,35,-0.030,-0.030,-0.030,0.000,0.000,0.000
1644887330962256896,2022-02-15-01:08:50,10.1.1.2,25,-0.040,-0.040,-0.040,0.000,0.000,0.000
1644887331022391040,2022-02-15-01:08:51,10.1.1.2,33,-0.050,-0.050,-0.050,0.000,0.000,0.000
1644887331062582016,2022-02-15-01:08:51,10.1.1.2,23,-0.060,-0.060,-0.060,0.000,0.000,0.000
1644887331122989824,2022-02-15-01:08:51,10.1.1.2,32,-0.070,-0.070,-0.070,0.000,0.000,0.000
1644887331162540032,2022-02-15-01:08:51,10.1.1.2,21,-0.080,-0.080,-0.080,0.000,0.000,0.000
1644887331222388992,2022-02-15-01:08:51,10.1.1.2,29,-0.090,-0.090,-0.090,0.000,0.000,0.000
1644887331302711040,2022-02-15-01:08:51,10.1.1.2,7,-0.090,-0.090,-0.090,0.000,0.000,0.000
1644887331382349056,2022-02-15-01:08:51,10.1.1.2,32,-0.080,-0.080,-0.080,0.000,0.000,0.000
1644887331421936896,2022-02-15-01:08:51,10.1.1.2,20,-0.070,-0.070,-0.070,0.000,0.000,0.000
1644887331481586944,2022-02-15-01:08:51,10.1.1.2,29,-0.060,-0.060,-0.060,0.000,0.000,0.000
1644887331542373888,2022-02-15-01:08:51,10.1.1.2,38,-0.050,-0.050,-0.050,0.000,0.000,0.000
1644887331582446080,2022-02-15-01:08:51,10.1.1.2,27,-0.040,-0.040,-0.040,0.000,0.000,0.000
1644887331642784000,2022-02-15-01:08:51,10.1.1.2,35,-0.030,-0.030,-0.030,0.000,0.000,0.000
1644887331683186944,2022-02-15-01:08:51,10.1.1.2,24,-0.020,-0.020,-0.020,0.000,0.000,0.000
1644887331743891968,2022-02-15-01:08:51,10.1.1.2,31,-0.010,-0.010,-0.010,0.000,0.000,0.000
1644887331782323968,2022-02-15-01:08:51,10.1.1.2,20,0.000,0.000,0.000,0.000,0.000,0.000
1644887331841389824,2022-02-15-01:08:51,10.1.1.2,29,0.010,0.010,0.010,0.000,0.000,0.000
1644887331901974016,2022-02-15-01:08:51,10.1.1.2,39,0.020,0.020,0.020,0.000,0.000,0.000
1644887331942073088,2022-02-15-01:08:51,10.1.1.2,27,0.030,0.030,0.030,0.000,0.000,0.000
1644887331992500992,2022-02-15-01:08:51,10.1.1.2,25,0.040,0.040,0.040,0.000,0.000,0.000
1644887332042619904,2022-02-15-01:08:52,10.1.1.2,24,0.050,0.050,0.050,0.000,0.000,0.000
1644887332102560000,2022-02-15-01:08:52,10.1.1.2,33,0.060,0.060,0.060,0.000,0.000,0.000
1644887332142016768,2022-02-15-01:08:52,10.1.1.2,20,0.070,0.070,0.070,0.000,0.000,0.000
1644887332302433024,2022-02-15-01:08:52,10.1.1.2,26,0.100,0.100,0.100,0.000,0.000,0.000
1644887332342724096,2022-02-15-01:08:52,10.1.1.2,15,0.090,0.090,0.090,0.000,0.000,0.000
1644887332402408960,2022-02-15-01:08:52,10.1.1.2,24,0.080,0.080,0.080,0.000,0.000,0.000
1644887332468508928,2022-02-15-01:08:52,10.1.1.2,39,0.070,0.070,0.070,0.000,0.000,0.000
1644887332505100032,2022-02-15-01:08:52,10.1.1.2,23,0.060,0.060,0.060,0.000,0.000,0.000
1644887332562931968,2022-02-15-01:08:52,10.1.1.2,30,0.050,0.050,0.050,0.000,0.000,0.000
1644887332622540032,2022-02-15-01:08:52,10.1.1.2,38,0.040,0.040,0.040,0.000,0.000,0.000
1644887332663013888,2022-02-15-01:08:52,10.1.1.2,27,0.030,0.030,0.030,0.000,0.000,0.000
1644887332722124032,2022-02-15-01:08:52,10.1.1.2,35,0.020,0.020,0.020,0.000,0.000,0.000
1644887332761799168,2022-02-15-01:08:52,10.1.1.2,24,0.010,0.010,0.010,0.000,0.000,0.000
1644887332822635776,2022-02-15-01:08:52,10.1.1.2,33,0.000,0.000,0.000,0.000,0.000,0.000
1644887332862644992,2022-02-15-01:08:52,10.1.1.2,21,-0.010,-0.010,-0.010,0.000,0.000,0.000
1644887332983058944,2022-02-15-01:08:52,10.1.1.2,38,-0.030,-0.030,-0.030,0.000,0.000,0.000
1644887333021959936,2022-02-15-01:08:53,10.1.1.2,25,-0.040,-0.040,-0.040,0.000,0.000,0.000
1644887333126699008,2022-02-15-01:08:53,10.1.1.2,25,-0.060,-0.060,-0.060,0.000,0.000,0.000
1644887333181922048,2022-02-15-01:08:53,10.1.1.2,29,-0.070,-0.070,-0.070,0.000,0.000,0.000
1644887333242892032,2022-02-15-01:08:53,10.1.1.2,36,-0.080,-0.080,-0.080,0.000,0.000,0.000
1644887333284446976,2022-02-15-01:08:53,10.1.1.2,25,-0.090,-0.090,-0.090,0.000,0.000,0.000
1644887333343156992,2022-02-15-01:08:53,10.1.1.2,34,-0.100,-0.100,-0.100,0.000,0.000,0.000
1644887333382263040,2022-02-15-01:08:53,10.1.1.2,22,-0.090,-0.090,-0.090,0.000,0.000,0.000
1644887333442016000,2022-02-15-01:08:53,10.1.1.2,31,-0.080,-0.080,-0.080,0.000,0.000,0.000
1644887333483717888,2022-02-15-01:08:53,10.1.1.2,20,-0.070,-0.070,-0.070,0.000,0.000,0.000
1644887333541940992,2022-02-15-01:08:53,10.1.1.2,29,-0.060,-0.060,-0.060,0.000,0.000,0.000
1644887333602979072,2022-02-15-01:08:53,10.1.1.2,38,-0.050,-0.050,-0.050,0.000,0.000,0.000
1644887333643079168,2022-02-15-01:08:53,10.1.1.2,26,-0.040,-0.040,-0.040,0.000,0.000,0.000
1644887333702450944,2022-02-15-01:08:53,10.1.1.2,34,-0.030,-0.030,-0.030,0.000,0.000,0.000
1644887333743936000,2022-02-15-01:08:53,10.1.1.2,23,-0.020,-0.020,-0.020,0.000,0.000,0.000
1644887333843374848,2022-02-15-01:08:53,10.1.1.2,16,0.000,0.000,0.000,0.000,0.000,0.000
1644887333902443776,2022-02-15-01:08:53,10.1.1.2,24,0.010,0.010,0.010,0.000,0.000,0.000
1644887333962353920,2022-02-15-01:08:53,10.1.1.2,32,0.020,0.020,0.020,0.000,0.000,0.000
1644887334002237952,2022-02-15-01:08:54,10.1.1.2,21,0.030,0.030,0.030,0.000,0.000,0.000
1644887334062928896,2022-02-15-01:08:54,10.1.1.2,29,0.040,0.040,0.040,0.000,0.000,0.000
1644887334162056960,2022-02-15-01:08:54,10.1.1.2,27,0.060,0.060,0.060,0.000,0.000,0.000
1644887334222361088,2022-02-15-01:08:54,10.1.1.2,36,0.070,0.070,0.070,0.000,0.000,0.000
1644887334263684864,2022-02-15-01:08:54,10.1.1.2,25,0.080,0.080,0.080,0.000,0.000,0.000
1644887334322667008,2022-02-15-01:08:54,10.1.1.2,34,0.090,0.090,0.090,0.000,0.000,0.000
1644887334362757888,2022-02-15-01:08:54,10.1.1.2,24,0.100,0.100,0.100,0.000,0.000,0.000
1644887334422693120,2022-02-15-01:08:54,10.1.1.2,31,0.090,0.090,0.090,0.000,0.000,0.000
1644887334461800960,2022-02-15-01:08:54,10.1.1.2,20,0.080,0.080,0.080,0.000,0.000,0.000
1644887334582505984,2022-02-15-01:08:54,10.1.1.2,39,0.060,0.060,0.060,0.000,0.000,0.000
1644887334622518016,2022-02-15-01:08:54,10.1.1.2,27,0.050,0.050,0.050,0.000,0.000,0.000
1644887334681880832,2022-02-15-01:08:54,10.1.1.2,36,0.040,0.040,0.040,0.000,0.000,0.000
1644887334722516992,2022-02-15-01:08:54,10.1.1.2,25,0.030,0.030,0.030,0.000,0.000,0.000
1644887334782525184,2022-02-15-01:08:54,10.1.1.2,34,0.020,0.020,0.020,0.000,0.000,0.000
1644887334823166976,2022-02-15-01:08:54,10.1.1.2,21,0.010,0.010,0.010,0.000,0.000,0.000
1644887334882577920,2022-02-15-01:08:54,10.1.1.2,29,-0.000,-0.000,-0.000,0.000,0.000,0.000
1644887334942682112,2022-02-15-01:08:54,10.1.1.2,38,-0.010,-0.010,-0.010,0.000,0.000,0.000
1644887334982678016,2022-02-15-01:08:54,10.1.1.2,28,-0.020,-0.020,-0.020,0.000,0.000,0.000
1644887335043009024,2022-02-15-01:08:55,10.1.1.2,36,-0.030,-0.030,-0.030,0.000,0.000,0.000
1644887335082583808,2022-02-15-01:08:55,10.1.1.2,25,-0.040,-0.040,-0.040,0.000,0.000,0.000
1644887335142057984,2022-02-15-01:08:55,10.1.1.2,34,-0.050,-0.050,-0.050,0.000,0.000,0.000
1644887335182252032,2022-02-15-01:08:55,10.1.1.2,23,-0.060,-0.060,-0.060,0.000,0.000,0.000
1644887335242531072,2022-02-15-01:08:55,10.1.1.2,33,-0.070,-0.070,-0.070,0.000,0.000,0.000
1644887335282000896,2022-02-15-01:08:55,10.1.1.2,20,-0.080,-0.080,-0.080,0.000,0.000,0.000
1644887335342358016,2022-02-15-01:08:55,10.1.1.2,29,-0.090,-0.090,-0.090,0.000,0.000,0.000
1644887335402460928,2022-02-15-01:08:55,10.1.1.2,39,-0.100,-0.100,-0.100,0.000,0.000,0.000
1644887335442882048,2022-02-15-01:08:55,10.1.1.2,24,-0.090,-0.090,-0.090,0.000,0.000,0.000
1644887335502103040,2022-02-15-01:08:55,10.1.1.2,32,-0.080,-0.080,-0.080,0.000,0.000,0.000
1644887335542354944,2022-02-15-01:08:55,10.1.1.2,21,-0.070,-0.070,-0.070,0.000,0.000,0.000
1644887335602978048,2022-02-15-01:08:55,10.1.1.2,27,-0.060,-0.060,-0.060,0.000,0.000,0.000
1644887335662925056,2022-02-15-01:08:55,10.1.1.2,36,-0.050,-0.050,-0.050,0.000,0.000,0.000
1644887335702494976,2022-02-15-01:08:55,10.1.1.2,23,-0.040,-0.040,-0.040,0.000,0.000,0.000
1644887335762866944,2022-02-15-01:08:55,10.1.1.2,30,-0.030,-0.030,-0.030,0.000,0.000,0.000
1644887335822253824,2022-02-15-01:08:55,10.1.1.2,39,-0.020,-0.020,-0.020,0.000,0.000,0.000
1644887335862508032,2022-02-15-01:08:55,10.1.1.2,28,-0.010,-0.010,-0.010,0.000,0.000,0.000
1644887335925472000,2022-02-15-01:08:55,10.1.1.2,38,0.000,0.000,0.000,0.000,0.000,0.000
1644887335962779904,2022-02-15-01:08:55,10.1.1.2,25,0.010,0.010,0.010,0.000,0.000,0.000
1644887336026468096,2022-02-15-01:08:56,10.1.1.2,37,0.020,0.020,0.020,0.000,0.000,0.000
1644887336063555840,2022-02-15-01:08:56,10.1.1.2,23,0.030,0.030,0.030,0.000,0.000,0.000
1644887336184269056,2022-02-15-01:08:56,10.1.1.2,40,0.050,0.050,0.050,0.000,0.000,0.000
1644887336228705792,2022-02-15-01:08:56,10.1.1.2,34,0.060,0.060,0.060,0.000,0.000,0.000
1644887336282487040,2022-02-15-01:08:56,10.1.1.2,35,0.070,0.070,0.070,0.000,0.000,0.000
1644887336322925056,2022-02-15-01:08:56,10.1.1.2,26,0.080,0.080,0.080,0.000,0.000,0.000
1644887336383805952,2022-02-15-01:08:56,10.1.1.2,35,0.090,0.090,0.090,0.000,0.000,0.000
1644887336437025024,2022-02-15-01:08:56,10.1.1.2,37,0.100,0.100,0.100,0.000,0.000,0.000
1644887336482450944,2022-02-15-01:08:56,10.1.1.2,32,0.090,0.090,0.090,0.000,0.000,0.000
1644887336587718912,2022-02-15-01:08:56,10.1.1.2,35,0.070,0.070,0.070,0.000,0.000,0.000
1644887336647737856,2022-02-15-01:08:56,10.1.1.2,42,0.060,0.060,0.060,0.000,0.000,0.000
1644887336688613888,2022-02-15-01:08:56,10.1.1.2,31,0.050,0.050,0.050,0.000,0.000,0.000
1644887336748061952,2022-02-15-01:08:56,10.1.1.2,37,0.040,0.040,0.040,0.000,0.000,0.000
1644887336788363008,2022-02-15-01:08:56,10.1.1.2,27,0.030,0.030,0.030,0.000,0.000,0.000
1644887336848145920,2022-02-15-01:08:56,10.1.1.2,35,0.020,0.020,0.020,0.000,0.000,0.000
1644887336888467200,2022-02-15-01:08:56,10.1.1.2,25,0.010,0.010,0.010,0.000,0.000,0.000
1644887336947736064,2022-02-15-01:08:56,10.1.1.2,34,0.000,0.000,0.000,0.000,0.000,0.000
1644887336989491968,2022-02-15-01:08:56,10.1.1.2,22,-0.010,-0.010,-0.010,0.000,0.000,0.000
1644887337048787968,2022-02-15-01:08:57,10.1.1.2,30,-0.020,-0.020,-0.020,0.000,0.000,0.000
1644887337148271104,2022-02-15-01:08:57,10.1.1.2,26,-0.040,-0.040,-0.040,0.000,0.000,0.000
1644887337208606976,2022-02-15-01:08:57,10.1.1.2,35,-0.050,-0.050,-0.050,0.000,0.000,0.000
1644887337249995008,2022-02-15-01:08:57,10.1.1.2,25,-0.060,-0.060,-0.060,0.000,0.000,0.000
1644887337308788992,2022-02-15-01:08:57,10.1.1.2,33,-0.070,-0.070,-0.070,0.000,0.000,0.000
1644887337349786880,2022-02-15-01:08:57,10.1.1.2,22,-0.080,-0.080,-0.080,0.000,0.000,0.000
1644887337409244928,2022-02-15-01:08:57,10.1.1.2,31,-0.090,-0.090,-0.090,0.000,0.000,0.000
1644887337468174848,2022-02-15-01:08:57,10.1.1.2,38,-0.100,-0.100,-0.100,0.000,0.000,0.000
1644887337508269056,2022-02-15-01:08:57,10.1.1.2,26,-0.090,-0.090,-0.090,0.000,0.000,0.000
1644887337567635968,2022-02-15-01:08:57,10.1.1.2,36,-0.080,-0.080,-0.080,0.000,0.000,0.000
1644887337608457984,2022-02-15-01:08:57,10.1.1.2,25,-0.070,-0.070,-0.070,0.000,0.000,0.000
1644887337667962112,2022-02-15-01:08:57,10.1.1.2,34,-0.060,-0.060,-0.060,0.000,0.000,0.000
1644887337707940096,2022-02-15-01:08:57,10.1.1.2,22,-0.050,-0.050,-0.050,0.000,0.000,0.000
1644887337767643904,2022-02-15-01:08:57,10.1.1.2,29,-0.040,-0.040,-0.040,0.000,0.000,0.000
1644887337828780800,2022-02-15-01:08:57,10.1.1.2,36,-0.030,-0.030,-0.030,0.000,0.000,0.000
1644887337928594944,2022-02-15-01:08:57,10.1.1.2,27,-0.010,-0.010,-0.010,0.000,0.000,0.000
1644887337989124096,2022-02-15-01:08:57,10.1.1.2,36,-0.000,-0.000,-0.000,0.000,0.000,0.000
1644887338028711168,2022-02-15-01:08:58,10.1.1.2,25,0.010,0.010,0.010,0.000,0.000,0.000
1644887338089089024,2022-02-15-01:08:58,10.1.1.2,35,0.020,0.020,0.020,0.000,0.000,0.000
1644887338128047872,2022-02-15-01:08:58,10.1.1.2,22,0.030,0.030,0.030,0.000,0.000,0.000
1644887338187782144,2022-02-15-01:08:58,10.1.1.2,31,0.040,0.040,0.040,0.000,0.000,0.000
1644887338228274176,2022-02-15-01:08:58,10.1.1.2,20,0.050,0.050,0.050,0.000,0.000,0.000
1644887338288019968,2022-02-15-01:08:58,10.1.1.2,24,0.060,0.060,0.060,0.000,0.000,0.000
1644887338348575232,2022-02-15-01:08:58,10.1.1.2,33,0.070,0.070,0.070,0.000,0.000,0.000
1644887338388776960,2022-02-15-01:08:58,10.1.1.2,22,0.080,0.080,0.080,0.000,0.000,0.000
1644887338448180992,2022-02-15-01:08:58,10.1.1.2,31,0.090,0.090,0.090,0.000,0.000,0.000
1644887338537161984,2022-02-15-01:08:58,10.1.1.2,14,0.090,0.090,0.090,0.000,0.000,0.000
1644887338609102080,2022-02-15-01:08:58,10.1.1.2,39,0.080,0.080,0.080,0.000,0.000,0.000
1644887338707557888,2022-02-15-01:08:58,10.1.1.2,37,0.060,0.060,0.060,0.000,0.000,0.000
1644887338748125184,2022-02-15-01:08:58,10.1.1.2,27,0.050,0.050,0.050,0.000,0.000,0.000
1644887338808367872,2022-02-15-01:08:58,10.1.1.2,36,0.040,0.040,0.040,0.000,0.000,0.000
1644887338848030208,2022-02-15-01:08:58,10.1.1.2,25,0.030,0.030,0.030,0.000,0.000,0.000
1644887338908071168,2022-02-15-01:08:58,10.1.1.2,34,0.020,0.020,0.020,0.000,0.000,0.000
1644887338949310976,2022-02-15-01:08:58,10.1.1.2,26,0.010,0.010,0.010,0.000,0.000,0.000
1644887339047569920,2022-02-15-01:08:59,10.1.1.2,22,-0.010,-0.010,-0.010,0.000,0.000,0.000
1644887339107755008,2022-02-15-01:08:59,10.1.1.2,31,-0.020,-0.020,-0.020,0.000,0.000,0.000
1644887339268430848,2022-02-15-01:08:59,10.1.1.2,37,-0.050,-0.050,-0.050,0.000,0.000,0.000
1644887339307851008,2022-02-15-01:08:59,10.1.1.2,26,-0.060,-0.060,-0.060,0.000,0.000,0.000
1644887339367619072,2022-02-15-01:08:59,10.1.1.2,35,-0.070,-0.070,-0.070,0.000,0.000,0.000
1644887339408273920,2022-02-15-01:08:59,10.1.1.2,24,-0.080,-0.080,-0.080,0.000,0.000,0.000
1644887339474785024,2022-02-15-01:08:59,10.1.1.2,36,-0.090,-0.090,-0.090,0.000,0.000,0.000
1644887339509232128,2022-02-15-01:08:59,10.1.1.2,22,-0.100,-0.100,-0.100,0.000,0.000,0.000
1644887339569655808,2022-02-15-01:08:59,10.1.1.2,33,-0.090,-0.090,-0.090,0.000,0.000,0.000
1644887339609488128,2022-02-15-01:08:59,10.1.1.2,21,-0.080,-0.080,-0.080,0.000,0.000,0.000
1644887339668875008,2022-02-15-01:08:59,10.1.1.2,30,-0.070,-0.070,-0.070,0.000,0.000,0.000
1644887339728013056,2022-02-15-01:08:59,10.1.1.2,37,-0.060,-0.060,-0.060,0.000,0.000,0.000
1644887339767614976,2022-02-15-01:08:59,10.1.1.2,26,-0.050,-0.050,-0.050,0.000,0.000,0.000
1644887339828162048,2022-02-15-01:08:59,10.1.1.2,35,-0.040,-0.040,-0.040,0.000,0.000,0.000
1644887339868324096,2022-02-15-01:08:59,10.1.1.2,21,-0.030,-0.030,-0.030,0.000,0.000,0.000
1644887339928914176,2022-02-15-01:08:59,10.1.1.2,31,-0.020,-0.020,-0.020,0.000,0.000,0.000
1644887340090404096,2022-02-15-01:09:00,10.1.1.2,39,0.010,0.010,0.010,0.000,0.000,0.000
1644887340127764992,2022-02-15-01:09:00,10.1.1.2,28,0.020,0.020,0.020,0.000,0.000,0.000
1644887340188734976,2022-02-15-01:09:00,10.1.1.2,36,0.030,0.030,0.030,0.000,0.000,0.000
1644887340228611072,2022-02-15-01:09:00,10.1.1.2,25,0.040,0.040,0.040,0.000,0.000,0.000
1644887340290277888,2022-02-15-01:09:00,10.1.1.2,34,0.050,0.050,0.050,0.000,0.000,0.000
1644887340328696064,2022-02-15-01:09:00,10.1.1.2,23,0.060,0.060,0.060,0.000,0.000,0.000
1644887340389585920,2022-02-15-01:09:00,10.1.1.2,32,0.070,0.070,0.070,0.000,0.000,0.000
1644887340427618048,2022-02-15-01:09:00,10.1.1.2,21,0.080,0.080,0.080,0.000,0.000,0.000
1644887340489038848,2022-02-15-01:09:00,10.1.1.2,30,0.090,0.090,0.090,0.000,0.000,0.000
1644887340548249088,2022-02-15-01:09:00,10.1.1.2,37,0.100,0.100,0.100,0.000,0.000,0.000
1644887340596811008,2022-02-15-01:09:00,10.1.1.2,34,0.090,0.090,0.090,0.000,0.000,0.000
1644887340689220864,2022-02-15-01:09:00,10.1.1.2,23,0.070,0.070,0.070,0.000,0.000,0.000
1644887340748029952,2022-02-15-01:09:00,10.1.1.2,32,0.060,0.060,0.060,0.000,0.000,0.000
1644887340801590016,2022-02-15-01:09:00,10.1.1.2,35,0.050,0.050,0.050,0.000,0.000,0.000
1644887340853697024,2022-02-15-01:09:00,10.1.1.2,31,0.040,0.040,0.040,0.000,0.000,0.000
1644887340909020928,2022-02-15-01:09:00,10.1.1.2,36,0.030,0.030,0.030,0.000,0.000,0.000
1644887340969705216,2022-02-15-01:09:00,10.1.1.2,41,0.020,0.020,0.020,0.000,0.000,0.000
1644887341007474944,2022-02-15-01:09:01,10.1.1.2,30,0.010,0.010,0.010,0.000,0.000,0.000
1644887341068509952,2022-02-15-01:09:01,10.1.1.2,39,0.000,0.000,0.000,0.000,0.000,0.000
1644887341108787968,2022-02-15-01:09:01,10.1.1.2,28,-0.010,-0.010,-0.010,0.000,0.000,0.000
1644887341170900224,2022-02-15-01:09:01,10.1.1.2,39,-0.020,-0.020,-0.020,0.000,0.000,0.000
1644887341268166144,2022-02-15-01:09:01,10.1.1.2,33,-0.040,-0.040,-0.040,0.000,0.000,0.000
1644887341327853824,2022-02-15-01:09:01,10.1.1.2,40,-0.050,-0.050,-0.050,0.000,0.000,0.000
1644887341469376000,2022-02-15-01:09:01,10.1.1.2,25,-0.080,-0.080,-0.080,0.000,0.000,0.000
1644887341527875072,2022-02-15-01:09:01,10.1.1.2,32,-0.090,-0.090,-0.090,0.000,0.000,0.000
1644887341569134848,2022-02-15-01:09:01,10.1.1.2,20,-0.100,-0.100,-0.100,0.000,0.000,0.000
1644887341688806912,2022-02-15-01:09:01,10.1.1.2,38,-0.080,-0.080,-0.080,0.000,0.000,0.000
1644887341728146176,2022-02-15-01:09:01,10.1.1.2,25,-0.070,-0.070,-0.070,0.000,0.000,0.000
1644887341788775936,2022-02-15-01:09:01,10.1.1.2,32,-0.060,-0.060,-0.060,0.000,0.000,0.000
1644887341827740928,2022-02-15-01:09:01,10.1.1.2,21,-0.050,-0.050,-0.050,0.000,0.000,0.000
1644887341888539904,2022-02-15-01:09:01,10.1.1.2,31,-0.040,-0.040,-0.040,0.000,0.000,0.000
1644887341948893952,2022-02-15-01:09:01,10.1.1.2,39,-0.030,-0.030,-0.030,0.000,0.000,0.000
1644887341988498944,2022-02-15-01:09:01,10.1.1.2,28,-0.020,-0.020,-0.020,0.000,0.000,0.000
1644887342048270848,2022-02-15-01:09:02,10.1.1.2,36,-0.010,-0.010,-0.010,0.000,0.000,0.000
1644887342088496896,2022-02-15-01:09:02,10.1.1.2,25,0.000,0.000,0.000,0.000,0.000,0.000
1644887342148590080,2022-02-15-01:09:02,10.1.1.2,34,0.010,0.010,0.010,0.000,0.000,0.000
1644887342188880896,2022-02-15-01:09:02,10.1.1.2,23,0.020,0.020,0.020,0.000,0.000,0.000
1644887342248151040,2022-02-15-01:09:02,10.1.1.2,31,0.030,0.030,0.030,0.000,0.000,0.000
1644887342289036032,2022-02-15-01:09:02,10.1.1.2,20,0.040,0.040,0.040,0.000,0.000,0.000
1644887342408660992,2022-02-15-01:09:02,10.1.1.2,37,0.060,0.060,0.060,0.000,0.000,0.000
1644887342449665024,2022-02-15-01:09:02,10.1.1.2,22,0.070,0.070,0.070,0.000,0.000,0.000
1644887342511739904,2022-02-15-01:09:02,10.1.1.2,33,0.080,0.080,0.080,0.000,0.000,0.000
1644887342568242944,2022-02-15-01:09:02,10.1.1.2,38,0.090,0.090,0.090,0.000,0.000,0.000
1644887342612175104,2022-02-15-01:09:02,10.1.1.2,27,0.100,0.100,0.100,0.000,0.000,0.000
1644887342667412992,2022-02-15-01:09:02,10.1.1.2,33,0.090,0.090,0.090,0.000,0.000,0.000
1644887342708875776,2022-02-15-01:09:02,10.1.1.2,23,0.080,0.080,0.080,0.000,0.000,0.000
1644887342768220928,2022-02-15-01:09:02,10.1.1.2,32,0.070,0.070,0.070,0.000,0.000,0.000
1644887342808160000,2022-02-15-01:09:02,10.1.1.2,21,0.060,0.060,0.060,0.000,0.000,0.000
1644887342928105216,2022-02-15-01:09:02,10.1.1.2,39,0.040,0.040,0.040,0.000,0.000,0.000
1644887342968442880,2022-02-15-01:09:02,10.1.1.2,27,0.030,0.030,0.030,0.000,0.000,0.000
1644887343028381184,2022-02-15-01:09:03,10.1.1.2,36,0.020,0.020,0.020,0.000,0.000,0.000
1644887343131692800,2022-02-15-01:09:03,10.1.1.2,37,0.000,0.000,0.000,0.000,0.000,0.000
1644887343167682816,2022-02-15-01:09:03,10.1.1.2,23,-0.010,-0.010,-0.010,0.000,0.000,0.000
1644887343228260096,2022-02-15-01:09:03,10.1.1.2,33,-0.020,-0.020,-0.020,0.000,0.000,0.000
1644887343268547072,2022-02-15-01:09:03,10.1.1.2,22,-0.030,-0.030,-0.030,0.000,0.000,0.000
1644887343328473088,2022-02-15-01:09:03,10.1.1.2,31,-0.040,-0.040,-0.040,0.000,0.000,0.000
1644887343368012800,2022-02-15-01:09:03,10.1.1.2,20,-0.050,-0.050,-0.050,0.000,0.000,0.000
1644887343488403968,2022-02-15-01:09:03,10.1.1.2,39,-0.070,-0.070,-0.070,0.000,0.000,0.000
1644887343528565760,2022-02-15-01:09:03,10.1.1.2,28,-0.080,-0.080,-0.080,0.000,0.000,0.000
1644887343595716096,2022-02-15-01:09:03,10.1.1.2,41,-0.090,-0.090,-0.090,0.000,0.000,0.000
1644887343634754048,2022-02-15-01:09:03,10.1.1.2,31,-0.100,-0.100,-0.100,0.000,0.000,0.000
1644887343688726784,2022-02-15-01:09:03,10.1.1.2,33,-0.090,-0.090,-0.090,0.000,0.000,0.000
1644887343789405184,2022-02-15-01:09:03,10.1.1.2,28,-0.070,-0.070,-0.070,0.000,0.000,0.000
1644887343848207872,2022-02-15-01:09:03,10.1.1.2,37,-0.060,-0.060,-0.060,0.000,0.000,0.000
1644887343895068928,2022-02-15-01:09:03,10.1.1.2,31,-0.050,-0.050,-0.050,0.000,0.000,0.000
1644887344045100032,2022-02-15-01:09:04,10.1.1.2,27,-0.020,-0.020,-0.020,0.000,0.000,0.000
1644887344104962048,2022-02-15-01:09:04,10.1.1.2,36,-0.010,-0.010,-0.010,0.000,0.000,0.000
1644887344146064896,2022-02-15-01:09:04,10.1.1.2,26,0.000,0.000,0.000,0.000,0.000,0.000
1644887344205050880,2022-02-15-01:09:04,10.1.1.2,34,0.010,0.010,0.010,0.000,0.000,0.000
1644887344245213952,2022-02-15-01:09:04,10.1.1.2,23,0.020,0.020,0.020,0.000,0.000,0.000
1644887344304898048,2022-02-15-01:09:04,10.1.1.2,32,0.030,0.030,0.030,0.000,0.000,0.000
1644887344345980928,2022-02-15-01:09:04,10.1.1.2,21,0.040,0.040,0.040,0.000,0.000,0.000
1644887344405252096,2022-02-15-01:09:04,10.1.1.2,29,0.050,0.050,0.050,0.000,0.000,0.000
1644887344464992000,2022-02-15-01:09:04,10.1.1.2,38,0.060,0.060,0.060,0.000,0.000,0.000
1644887344505316096,2022-02-15-01:09:04,10.1.1.2,27,0.070,0.070,0.070,0.000,0.000,0.000
1644887344565413120,2022-02-15-01:09:04,10.1.1.2,36,0.080,0.080,0.080,0.000,0.000,0.000
1644887344604931072,2022-02-15-01:09:04,10.1.1.2,24,0.090,0.090,0.090,0.000,0.000,0.000
1644887344665035008,2022-02-15-01:09:04,10.1.1.2,33,0.100,0.100,0.100,0.000,0.000,0.000
1644887344705583104,2022-02-15-01:09:04,10.1.1.2,22,0.090,0.090,0.090,0.000,0.000,0.000
1644887344764637952,2022-02-15-01:09:04,10.1.1.2,32,0.080,0.080,0.080,0.000,0.000,0.000
1644887344824763904,2022-02-15-01:09:04,10.1.1.2,38,0.070,0.070,0.070,0.000,0.000,0.000
1644887344864804096,2022-02-15-01:09:04,10.1.1.2,27,0.060,0.060,0.060,0.000,0.000,0.000
1644887344925478912,2022-02-15-01:09:04,10.1.1.2,36,0.050,0.050,0.050,0.000,0.000,0.000
1644887344964709888,2022-02-15-01:09:04,10.1.1.2,24,0.040,0.040,0.040,0.000,0.000,0.000
1644887345025330176,2022-02-15-01:09:05,10.1.1.2,33,0.030,0.030,0.030,0.000,0.000,0.000
1644887345064868096,2022-02-15-01:09:05,10.1.1.2,22,0.020,0.020,0.020,0.000,0.000,0.000
1644887345125338112,2022-02-15-01:09:05,10.1.1.2,31,0.010,0.010,0.010,0.000,0.000,0.000
1644887345224986112,2022-02-15-01:09:05,10.1.1.2,27,-0.010,-0.010,-0.010,0.000,0.000,0.000
1644887345285870080,2022-02-15-01:09:05,10.1.1.2,35,-0.020,-0.020,-0.020,0.000,0.000,0.000
1644887345324580864,2022-02-15-01:09:05,10.1.1.2,24,-0.030,-0.030,-0.030,0.000,0.000,0.000
1644887345389932032,2022-02-15-01:09:05,10.1.1.2,35,-0.040,-0.040,-0.040,0.000,0.000,0.000
1644887345427687936,2022-02-15-01:09:05,10.1.1.2,23,-0.050,-0.050,-0.050,0.000,0.000,0.000
1644887345485251840,2022-02-15-01:09:05,10.1.1.2,28,-0.060,-0.060,-0.060,0.000,0.000,0.000
1644887345545160960,2022-02-15-01:09:05,10.1.1.2,37,-0.070,-0.070,-0.070,0.000,0.000,0.000
1644887345585051904,2022-02-15-01:09:05,10.1.1.2,25,-0.080,-0.080,-0.080,0.000,0.000,0.000
1644887345644776192,2022-02-15-01:09:05,10.1.1.2,34,-0.090,-0.090,-0.090,0.000,0.000,0.000
1644887345687905024,2022-02-15-01:09:05,10.1.1.2,26,-0.100,-0.100,-0.100,0.000,0.000,0.000
1644887345804913920,2022-02-15-01:09:05,10.1.1.2,39,-0.080,-0.080,-0.080,0.000,0.000,0.000
1644887345845552896,2022-02-15-01:09:05,10.1.1.2,28,-0.070,-0.070,-0.070,0.000,0.000,0.000
1644887345904897024,2022-02-15-01:09:05,10.1.1.2,37,-0.060,-0.060,-0.060,0.000,0.000,0.000
1644887345945199104,2022-02-15-01:09:05,10.1.1.2,25,-0.050,-0.050,-0.050,0.000,0.000,0.000
1644887346004913152,2022-02-15-01:09:06,10.1.1.2,34,-0.040,-0.040,-0.040,0.000,0.000,0.000
1644887346045515008,2022-02-15-01:09:06,10.1.1.2,23,-0.030,-0.030,-0.030,0.000,0.000,0.000
1644887346105114880,2022-02-15-01:09:06,10.1.1.2,32,-0.020,-0.020,-0.020,0.000,0.000,0.000
1644887346205251072,2022-02-15-01:09:06,10.1.1.2,29,0.000,0.000,0.000,0.000,0.000,0.000
1644887346265213952,2022-02-15-01:09:06,10.1.1.2,37,0.010,0.010,0.010,0.000,0.000,0.000
1644887346306668032,2022-02-15-01:09:06,10.1.1.2,26,0.020,0.020,0.020,0.000,0.000,0.000
1644887346365506816,2022-02-15-01:09:06,10.1.1.2,34,0.030,0.030,0.030,0.000,0.000,0.000
1644887346404592128,2022-02-15-01:09:06,10.1.1.2,22,0.040,0.040,0.040,0.000,0.000,0.000
1644887346464987136,2022-02-15-01:09:06,10.1.1.2,32,0.050,0.050,0.050,0.000,0.000,0.000
1644887346505177856,2022-02-15-01:09:06,10.1.1.2,21,0.060,0.060,0.060,0.000,0.000,0.000
1644887346565451008,2022-02-15-01:09:06,10.1.1.2,30,0.070,0.070,0.070,0.000,0.000,0.000
1644887346604734976,2022-02-15-01:09:06,10.1.1.2,19,0.079,0.079,0.079,0.000,0.000,0.000
1644887346665259008,2022-02-15-01:09:06,10.1.1.2,29,0.090,0.090,0.090,0.000,0.000,0.000
1644887346725037056,2022-02-15-01:09:06,10.1.1.2,38,0.100,0.100,0.100,0.000,0.000,0.000
1644887346765067008,2022-02-15-01:09:06,10.1.1.2,27,0.090,0.090,0.090,0.000,0.000,0.000
1644887346825131776,2022-02-15-01:09:06,10.1.1.2,35,0.080,0.080,0.080,0.000,0.000,0.000
1644887346865025024,2022-02-15-01:09:06,10.1.1.2,24,0.070,0.070,0.070,0.000,0.000,0.000
1644887346926158848,2022-02-15-01:09:06,10.1.1.2,33,0.060,0.060,0.060,0.000,0.000,0.000
1644887347025070848,2022-02-15-01:09:07,10.1.1.2,32,0.040,0.040,0.040,0.000,0.000,0.000
1644887347065231104,2022-02-15-01:09:07,10.1.1.2,21,0.030,0.030,0.030,0.000,0.000,0.000
1644887347186307840,2022-02-15-01:09:07,10.1.1.2,39,0.010,0.010,0.010,0.000,0.000,0.000
1644887347224540928,2022-02-15-01:09:07,10.1.1.2,28,0.000,0.000,0.000,0.000,0.000,0.000
1644887347284153856,2022-02-15-01:09:07,10.1.1.2,37,-0.010,-0.010,-0.010,0.000,0.000,0.000
1644887347325254912,2022-02-15-01:09:07,10.1.1.2,27,-0.020,-0.020,-0.020,0.000,0.000,0.000
1644887347384941056,2022-02-15-01:09:07,10.1.1.2,36,-0.030,-0.030,-0.030,0.000,0.000,0.000
1644887347425666048,2022-02-15-01:09:07,10.1.1.2,25,-0.040,-0.040,-0.040,0.000,0.000,0.000
1644887347485236992,2022-02-15-01:09:07,10.1.1.2,34,-0.050,-0.050,-0.050,0.000,0.000,0.000
1644887347525101056,2022-02-15-01:09:07,10.1.1.2,23,-0.060,-0.060,-0.060,0.000,0.000,0.000
1644887347584675072,2022-02-15-01:09:07,10.1.1.2,33,-0.070,-0.070,-0.070,0.000,0.000,0.000
1644887347625168128,2022-02-15-01:09:07,10.1.1.2,21,-0.080,-0.080,-0.080,0.000,0.000,0.000
1644887347684967936,2022-02-15-01:09:07,10.1.1.2,30,-0.090,-0.090,-0.090,0.000,0.000,0.000
1644887347745028096,2022-02-15-01:09:07,10.1.1.2,39,-0.100,-0.100,-0.100,0.000,0.000,0.000
1644887347785022976,2022-02-15-01:09:07,10.1.1.2,28,-0.090,-0.090,-0.090,0.000,0.000,0.000
1644887347845093120,2022-02-15-01:09:07,10.1.1.2,37,-0.080,-0.080,-0.080,0.000,0.000,0.000
1644887347885071872,2022-02-15-01:09:07,10.1.1.2,26,-0.070,-0.070,-0.070,0.000,0.000,0.000
1644887347945537024,2022-02-15-01:09:07,10.1.1.2,35,-0.060,-0.060,-0.060,0.000,0.000,0.000
1644887347985264128,2022-02-15-01:09:07,10.1.1.2,24,-0.050,-0.050,-0.050,0.000,0.000,0.000
1644887348051578880,2022-02-15-01:09:08,10.1.1.2,40,-0.040,-0.040,-0.040,0.000,0.000,0.000
1644887348084994048,2022-02-15-01:09:08,10.1.1.2,23,-0.030,-0.030,-0.030,0.000,0.000,0.000
1644887348145596928,2022-02-15-01:09:08,10.1.1.2,32,-0.020,-0.020,-0.020,0.000,0.000,0.000
1644887348184983040,2022-02-15-01:09:08,10.1.1.2,21,-0.010,-0.010,-0.010,0.000,0.000,0.000
1644887348244836096,2022-02-15-01:09:08,10.1.1.2,30,-0.000,-0.000,-0.000,0.000,0.000,0.000
1644887348306315776,2022-02-15-01:09:08,10.1.1.2,39,0.010,0.010,0.010,0.000,0.000,0.000
1644887348345165056,2022-02-15-01:09:08,10.1.1.2,28,0.020,0.020,0.020,0.000,0.000,0.000
1644887348405170944,2022-02-15-01:09:08,10.1.1.2,38,0.030,0.030,0.030,0.000,0.000,0.000
1644887348445178112,2022-02-15-01:09:08,10.1.1.2,26,0.040,0.040,0.040,0.000,0.000,0.000
1644887348505031168,2022-02-15-01:09:08,10.1.1.2,35,0.050,0.050,0.050,0.000,0.000,0.000
1644887348545089024,2022-02-15-01:09:08,10.1.1.2,24,0.060,0.060,0.060,0.000,0.000,0.000
1644887348605249792,2022-02-15-01:09:08,10.1.1.2,33,0.070,0.070,0.070,0.000,0.000,0.000
1644887348644617984,2022-02-15-01:09:08,10.1.1.2,21,0.080,0.080,0.080,0.000,0.000,0.000
1644887348705167104,2022-02-15-01:09:08,10.1.1.2,29,0.090,0.090,0.090,0.000,0.000,0.000
1644887348744633856,2022-02-15-01:09:08,10.1.1.2,18,0.100,0.100,0.100,0.000,0.000,0.000
1644887348805213952,2022-02-15-01:09:08,10.1.1.2,28,0.090,0.090,0.090,0.000,0.000,0.000
1644887348865457152,2022-02-15-01:09:08,10.1.1.2,36,0.080,0.080,0.080,0.000,0.000,0.000
1644887348905040896,2022-02-15-01:09:08,10.1.1.2,25,0.070,0.070,0.070,0.000,0.000,0.000
1644887348965318912,2022-02-15-01:09:08,10.1.1.2,34,0.060,0.060,0.060,0.000,0.000,0.000
1644887349005507072,2022-02-15-01:09:09,10.1.1.2,22,0.050,0.050,0.050,0.000,0.000,0.000
1644887349065357056,2022-02-15-01:09:09,10.1.1.2,28,0.040,0.040,0.040,0.000,0.000,0.000
1644887349128566016,2022-02-15-01:09:09,10.1.1.2,39,0.030,0.030,0.030,0.000,0.000,0.000
1644887349165363200,2022-02-15-01:09:09,10.1.1.2,26,0.020,0.020,0.020,0.000,0.000,0.000
1644887349225543936,2022-02-15-01:09:09,10.1.1.2,34,0.010,0.010,0.010,0.000,0.000,0.000
1644887349264862976,2022-02-15-01:09:09,10.1.1.2,24,0.000,0.000,0.000,0.000,0.000,0.000
1644887349324935936,2022-02-15-01:09:09,10.1.1.2,32,-0.010,-0.010,-0.010,0.000,0.000,0.000
1644887349365307136,2022-02-15-01:09:09,10.1.1.2,21,-0.020,-0.020,-0.020,0.000,0.000,0.000
1644887349435358976,2022-02-15-01:09:09,10.1.1.2,29,-0.030,-0.030,-0.030,0.000,0.000,0.000
1644887349485385984,2022-02-15-01:09:09,10.1.1.2,38,-0.040,-0.040,-0.040,0.000,0.000,0.000
1644887349524892928,2022-02-15-01:09:09,10.1.1.2,27,-0.050,-0.050,-0.050,0.000,0.000,0.000
1644887349584762112,2022-02-15-01:09:09,10.1.1.2,37,-0.060,-0.060,-0.060,0.000,0.000,0.000
1644887349626041856,2022-02-15-01:09:09,10.1.1.2,26,-0.070,-0.070,-0.070,0.000,0.000,0.000
1644887349684899072,2022-02-15-01:09:09,10.1.1.2,35,-0.080,-0.080,-0.080,0.000,0.000,0.000
1644887349725305088,2022-02-15-01:09:09,10.1.1.2,24,-0.090,-0.090,-0.090,0.000,0.000,0.000
1644887349784866048,2022-02-15-01:09:09,10.1.1.2,33,-0.100,-0.100,-0.100,0.000,0.000,0.000
1644887349825176832,2022-02-15-01:09:09,10.1.1.2,22,-0.090,-0.090,-0.090,0.000,0.000,0.000
1644887349884792064,2022-02-15-01:09:09,10.1.1.2,31,-0.080,-0.080,-0.080,0.000,0.000,0.000
1644887349985145088,2022-02-15-01:09:09,10.1.1.2,29,-0.060,-0.060,-0.060,0.000,0.000,0.000
1644887350045048832,2022-02-15-01:09:10,10.1.1.2,38,-0.050,-0.050,-0.050,0.000,0.000,0.000
1644887350090948096,2022-02-15-01:09:10,10.1.1.2,32,-0.040,-0.040,-0.040,0.000,0.000,0.000
1644887350125160960,2022-02-15-01:09:10,10.1.1.2,16,-0.030,-0.030,-0.030,0.000,0.000,0.000
1644887350184859136,2022-02-15-01:09:10,10.1.1.2,25,-0.020,-0.020,-0.020,0.000,0.000,0.000
1644887350245981952,2022-02-15-01:09:10,10.1.1.2,35,-0.010,-0.010,-0.010,0.000,0.000,0.000
1644887350290280960,2022-02-15-01:09:10,10.1.1.2,28,0.000,0.000,0.000,0.000,0.000,0.000
1644887350347232000,2022-02-15-01:09:10,10.1.1.2,34,0.010,0.010,0.010,0.000,0.000,0.000
1644887350385016832,2022-02-15-01:09:10,10.1.1.2,22,0.020,0.020,0.020,0.000,0.000,0.000
1644887350444696064,2022-02-15-01:09:10,10.1.1.2,31,0.030,0.030,0.030,0.000,0.000,0.000
1644887350545607168,2022-02-15-01:09:10,10.1.1.2,29,0.050,0.050,0.050,0.000,0.000,0.000
1644887350604845056,2022-02-15-01:09:10,10.1.1.2,38,0.060,0.060,0.060,0.000,0.000,0.000
1644887350645149952,2022-02-15-01:09:10,10.1.1.2,26,0.070,0.070,0.070,0.000,0.000,0.000
1644887350705088000,2022-02-15-01:09:10,10.1.1.2,35,0.080,0.080,0.080,0.000,0.000,0.000
1644887350744823808,2022-02-15-01:09:10,10.1.1.2,24,0.090,0.090,0.090,0.000,0.000,0.000
1644887350805468160,2022-02-15-01:09:10,10.1.1.2,33,0.100,0.100,0.100,0.000,0.000,0.000
1644887350850646016,2022-02-15-01:09:10,10.1.1.2,26,0.090,0.090,0.090,0.000,0.000,0.000
1644887350905605120,2022-02-15-01:09:10,10.1.1.2,32,0.080,0.080,0.080,0.000,0.000,0.000
1644887350944706816,2022-02-15-01:09:10,10.1.1.2,21,0.070,0.070,0.070,0.000,0.000,0.000
1644887351065349120,2022-02-15-01:09:11,10.1.1.2,38,0.050,0.050,0.050,0.000,0.000,0.000
1644887351105200896,2022-02-15-01:09:11,10.1.1.2,27,0.040,0.040,0.040,0.000,0.000,0.000
1644887351165051904,2022-02-15-01:09:11,10.1.1.2,36,0.030,0.030,0.030,0.000,0.000,0.000
1644887351205455104,2022-02-15-01:09:11,10.1.1.2,25,0.020,0.020,0.020,0.000,0.000,0.000
1644887351265392128,2022-02-15-01:09:11,10.1.1.2,31,0.010,0.010,0.010,0.000,0.000,0.000
1644887351314625024,2022-02-15-01:09:11,10.1.1.2,20,0.000,0.000,0.000,0.000,0.000,0.000
1644887351365061120,2022-02-15-01:09:11,10.1.1.2,29,-0.010,-0.010,-0.010,0.000,0.000,0.000
1644887351425585920,2022-02-15-01:09:11,10.1.1.2,38,-0.020,-0.020,-0.020,0.000,0.000,0.000
1644887351465577984,2022-02-15-01:09:11,10.1.1.2,26,-0.030,-0.030,-0.030,0.000,0.000,0.000
1644887351525207040,2022-02-15-01:09:11,10.1.1.2,36,-0.040,-0.040,-0.040,0.000,0.000,0.000
1644887351565314048,2022-02-15-01:09:11,10.1.1.2,25,-0.050,-0.050,-0.050,0.000,0.000,0.000
1644887351625497088,2022-02-15-01:09:11,10.1.1.2,34,-0.060,-0.060,-0.060,0.000,0.000,0.000
1644887351664786944,2022-02-15-01:09:11,10.1.1.2,22,-0.070,-0.070,-0.070,0.000,0.000,0.000
1644887351725900032,2022-02-15-01:09:11,10.1.1.2,31,-0.080,-0.080,-0.080,0.000,0.000,0.000
1644887351765643008,2022-02-15-01:09:11,10.1.1.2,21,-0.090,-0.090,-0.090,0.000,0.000,0.000
1644887351825452032,2022-02-15-01:09:11,10.1.1.2,30,-0.100,-0.100,-0.100,0.000,0.000,0.000
1644887351885596928,2022-02-15-01:09:11,10.1.1.2,37,-0.090,-0.090,-0.090,0.000,0.000,0.000
1644887351925133056,2022-02-15-01:09:11,10.1.1.2,26,-0.080,-0.080,-0.080,0.000,0.000,0.000
1644887351985064960,2022-02-15-01:09:11,10.1.1.2,35,-0.070,-0.070,-0.070,0.000,0.000,0.000
1644887352025374976,2022-02-15-01:09:12,10.1.1.2,24,-0.060,-0.060,-0.060,0.000,0.000,0.000
1644887352085102080,2022-02-15-01:09:12,10.1.1.2,33,-0.050,-0.050,-0.050,0.000,0.000,0.000
1644887352134989056,2022-02-15-01:09:12,10.1.1.2,28,-0.040,-0.040,-0.040,0.000,0.000,0.000
1644887352184908032,2022-02-15-01:09:12,10.1.1.2,32,-0.030,-0.030,-0.030,0.000,0.000,0.000
1644887352225227008,2022-02-15-01:09:12,10.1.1.2,21,-0.020,-0.020,-0.020,0.000,0.000,0.000
1644887352344818176,2022-02-15-01:09:12,10.1.1.2,39,0.000,0.000,0.000,0.000,0.000,0.000
1644887352385021952,2022-02-15-01:09:12,10.1.1.2,28,0.010,0.010,0.010,0.000,0.000,0.000
1644887352450459904,2022-02-15-01:09:12,10.1.1.2,42,0.020,0.020,0.020,0.000,0.000,0.000
1644887352485024000,2022-02-15-01:09:12,10.1.1.2,27,0.030,0.030,0.030,0.000,0.000,0.000
1644887352545164032,2022-02-15-01:09:12,10.1.1.2,36,0.040,0.040,0.040,0.000,0.000,0.000
1644887352645460992,2022-02-15-01:09:12,10.1.1.2,33,0.060,0.060,0.060,0.000,0.000,0.000
1644887352684951040,2022-02-15-01:09:12,10.1.1.2,22,0.070,0.070,0.070,0.000,0.000,0.000
1644887352744820992,2022-02-15-01:09:12,10.1.1.2,31,0.080,0.080,0.080,0.000,0.000,0.000
1644887352784558080,2022-02-15-01:09:12,10.1.1.2,21,0.090,0.090,0.090,0.000,0.000,0.000
1644887352844994048,2022-02-15-01:09:12,10.1.1.2,30,0.100,0.100,0.100,0.000,0.000,0.000
1644887352884735232,2022-02-15-01:09:12,10.1.1.2,20,0.090,0.090,0.090,0.000,0.000,0.000
1644887352945027072,2022-02-15-01:09:12,10.1.1.2,28,0.080,0.080,0.080,0.000,0.000,0.000
1644887353005340160,2022-02-15-01:09:13,10.1.1.2,38,0.070,0.070,0.070,0.000,0.000,0.000
1644887353044634112,2022-02-15-01:09:13,10.1.1.2,26,0.060,0.060,0.060,0.000,0.000,0.000
1644887353105284096,2022-02-15-01:09:13,10.1.1.2,36,0.050,0.050,0.050,0.000,0.000,0.000
1644887353144792064,2022-02-15-01:09:13,10.1.1.2,25,0.040,0.040,0.040,0.000,0.000,0.000
1644887353205265152,2022-02-15-01:09:13,10.1.1.2,34,0.030,0.030,0.030,0.000,0.000,0.000
1644887353245714944,2022-02-15-01:09:13,10.1.1.2,23,0.020,0.020,0.020,0.000,0.000,0.000
1644887353305191936,2022-02-15-01:09:13,10.1.1.2,32,0.010,0.010,0.010,0.000,0.000,0.000
1644887353345687040,2022-02-15-01:09:13,10.1.1.2,21,0.000,0.000,0.000,0.000,0.000,0.000
1644887353405174016,2022-02-15-01:09:13,10.1.1.2,31,-0.010,-0.010,-0.010,0.000,0.000,0.000
1644887353465118976,2022-02-15-01:09:13,10.1.1.2,39,-0.020,-0.020,-0.020,0.000,0.000,0.000
1644887353506266112,2022-02-15-01:09:13,10.1.1.2,28,-0.030,-0.030,-0.030,0.000,0.000,0.000
1644887353565145856,2022-02-15-01:09:13,10.1.1.2,37,-0.040,-0.040,-0.040,0.000,0.000,0.000
1644887353606288896,2022-02-15-01:09:13,10.1.1.2,26,-0.050,-0.050,-0.050,0.000,0.000,0.000
1644887353665297920,2022-02-15-01:09:13,10.1.1.2,35,-0.060,-0.060,-0.060,0.000,0.000,0.000
1644887353704977920,2022-02-15-01:09:13,10.1.1.2,24,-0.070,-0.070,-0.070,0.000,0.000,0.000
1644887353764957952,2022-02-15-01:09:13,10.1.1.2,33,-0.080,-0.080,-0.080,0.000,0.000,0.000
1644887353805393920,2022-02-15-01:09:13,10.1.1.2,22,-0.090,-0.090,-0.090,0.000,0.000,0.000
1644887353865068032,2022-02-15-01:09:13,10.1.1.2,32,-0.100,-0.100,-0.100,0.000,0.000,0.000
1644887353905491968,2022-02-15-01:09:13,10.1.1.2,21,-0.090,-0.090,-0.090,0.000,0.000,0.000
1644887354024844032,2022-02-15-01:09:14,10.1.1.2,39,-0.070,-0.070,-0.070,0.000,0.000,0.000
1644887354064801024,2022-02-15-01:09:14,10.1.1.2,28,-0.060,-0.060,-0.060,0.000,0.000,0.000
1644887354124852992,2022-02-15-01:09:14,10.1.1.2,36,-0.050,-0.050,-0.050,0.000,0.000,0.000
1644887354165090048,2022-02-15-01:09:14,10.1.1.2,25,-0.040,-0.040,-0.040,0.000,0.000,0.000
1644887354225126144,2022-02-15-01:09:14,10.1.1.2,35,-0.030,-0.030,-0.030,0.000,0.000,0.000
1644887354284937984,2022-02-15-01:09:14,10.1.1.2,44,-0.020,-0.020,-0.020,0.000,0.000,0.000
1644887354324845056,2022-02-15-01:09:14,10.1.1.2,33,-0.010,-0.010,-0.010,0.000,0.000,0.000
1644887354366342912,2022-02-15-01:09:14,10.1.1.2,22,0.000,0.000,0.000,0.000,0.000,0.000
1644887354425585920,2022-02-15-01:09:14,10.1.1.2,31,0.010,0.010,0.010,0.000,0.000,0.000
1644887354465143040,2022-02-15-01:09:14,10.1.1.2,20,0.020,0.020,0.020,0.000,0.000,0.000
1644887354525108992,2022-02-15-01:09:14,10.1.1.2,27,0.030,0.030,0.030,0.000,0.000,0.000
1644887354585037824,2022-02-15-01:09:14,10.1.1.2,36,0.040,0.040,0.040,0.000,0.000,0.000
1644887354625516800,2022-02-15-01:09:14,10.1.1.2,25,0.050,0.050,0.050,0.000,0.000,0.000
1644887354685766912,2022-02-15-01:09:14,10.1.1.2,31,0.060,0.060,0.060,0.000,0.000,0.000
1644887354784773120,2022-02-15-01:09:14,10.1.1.2,28,0.080,0.080,0.080,0.000,0.000,0.000
1644887354845096960,2022-02-15-01:09:14,10.1.1.2,35,0.090,0.090,0.090,0.000,0.000,0.000
1644887354885835776,2022-02-15-01:09:14,10.1.1.2,24,0.100,0.100,0.100,0.000,0.000,0.000
1644887354944807168,2022-02-15-01:09:14,10.1.1.2,33,0.090,0.090,0.090,0.000,0.000,0.000
1644887354985266944,2022-02-15-01:09:14,10.1.1.2,22,0.080,0.080,0.080,0.000,0.000,0.000
1644887355044969984,2022-02-15-01:09:15,10.1.1.2,31,0.070,0.070,0.070,0.000,0.000,0.000
1644887355148307968,2022-02-15-01:09:15,10.1.1.2,31,0.050,0.050,0.050,0.000,0.000,0.000
1644887355205547008,2022-02-15-01:09:15,10.1.1.2,34,0.040,0.040,0.040,0.000,0.000,0.000
1644887355245486848,2022-02-15-01:09:15,10.1.1.2,23,0.030,0.030,0.030,0.000,0.000,0.000
1644887355306569216,2022-02-15-01:09:15,10.1.1.2,32,0.020,0.020,0.020,0.000,0.000,0.000
1644887355365320960,2022-02-15-01:09:15,10.1.1.2,38,0.010,0.010,0.010,0.000,0.000,0.000
1644887355404880896,2022-02-15-01:09:15,10.1.1.2,26,0.000,0.000,0.000,0.000,0.000,0.000
1644887355453572096,2022-02-15-01:09:15,10.1.1.2,17,-0.010,-0.010,-0.010,0.000,0.000,0.000
1644887355505822976,2022-02-15-01:09:15,10.1.1.2,25,-0.020,-0.020,-0.020,0.000,0.000,0.000
1644887355565583872,2022-02-15-01:09:15,10.1.1.2,32,-0.030,-0.030,-0.030,0.000,0.000,0.000
1644887355605648128,2022-02-15-01:09:15,10.1.1.2,21,-0.040,-0.040,-0.040,0.000,0.000,0.000
1644887355665633024,2022-02-15-01:09:15,10.1.1.2,29,-0.050,-0.050,-0.050,0.000,0.000,0.000
1644887355725960960,2022-02-15-01:09:15,10.1.1.2,37,-0.060,-0.060,-0.060,0.000,0.000,0.000
1644887355765542912,2022-02-15-01:09:15,10.1.1.2,25,-0.070,-0.070,-0.070,0.000,0.000,0.000
1644887355825367040,2022-02-15-01:09:15,10.1.1.2,34,-0.080,-0.080,-0.080,0.000,0.000,0.000
1644887355865433088,2022-02-15-01:09:15,10.1.1.2,24,-0.090,-0.090,-0.090,0.000,0.000,0.000
1644887355933154048,2022-02-15-01:09:15,10.1.1.2,34,-0.100,-0.100,-0.100,0.000,0.000,0.000
1644887355965347072,2022-02-15-01:09:15,10.1.1.2,22,-0.090,-0.090,-0.090,0.000,0.000,0.000
1644887356024813824,2022-02-15-01:09:16,10.1.1.2,31,-0.080,-0.080,-0.080,0.000,0.000,0.000
1644887356125165824,2022-02-15-01:09:16,10.1.1.2,29,-0.060,-0.060,-0.060,0.000,0.000,0.000
1644887356187709184,2022-02-15-01:09:16,10.1.1.2,39,-0.050,-0.050,-0.050,0.000,0.000,0.000
1644887356225518080,2022-02-15-01:09:16,10.1.1.2,27,-0.040,-0.040,-0.040,0.000,0.000,0.000
1644887356285582080,2022-02-15-01:09:16,10.1.1.2,36,-0.030,-0.030,-0.030,0.000,0.000,0.000
1644887356325635072,2022-02-15-01:09:16,10.1.1.2,25,-0.020,-0.020,-0.020,0.000,0.000,0.000
1644887356385638912,2022-02-15-01:09:16,10.1.1.2,34,-0.010,-0.010,-0.010,0.000,0.000,0.000
1644887356425355008,2022-02-15-01:09:16,10.1.1.2,23,0.000,0.000,0.000,0.000,0.000,0.000
1644887356485588992,2022-02-15-01:09:16,10.1.1.2,32,0.010,0.010,0.010,0.000,0.000,0.000
1644887356529689088,2022-02-15-01:09:16,10.1.1.2,21,0.020,0.020,0.020,0.000,0.000,0.000
1644887356593126144,2022-02-15-01:09:16,10.1.1.2,35,0.030,0.030,0.030,0.000,0.000,0.000
1644887356684835072,2022-02-15-01:09:16,10.1.1.2,29,0.050,0.050,0.050,0.000,0.000,0.000
1644887356745363968,2022-02-15-01:09:16,10.1.1.2,38,0.060,0.060,0.060,0.000,0.000,0.000
1644887356785423104,2022-02-15-01:09:16,10.1.1.2,27,0.070,0.070,0.070,0.000,0.000,0.000
1644887356845440000,2022-02-15-01:09:16,10.1.1.2,36,0.080,0.080,0.080,0.000,0.000,0.000
1644887356888854016,2022-02-15-01:09:16,10.1.1.2,25,0.090,0.090,0.090,0.000,0.000,0.000
1644887356944967936,2022-02-15-01:09:16,10.1.1.2,33,0.100,0.100,0.100,0.000,0.000,0.000
1644887357045099008,2022-02-15-01:09:17,10.1.1.2,32,0.080,0.080,0.080,0.000,0.000,0.000
1644887357086075904,2022-02-15-01:09:17,10.1.1.2,22,0.070,0.070,0.070,0.000,0.000,0.000
1644887357145201920,2022-02-15-01:09:17,10.1.1.2,31,0.060,0.060,0.060,0.000,0.000,0.000
1644887357246401024,2022-02-15-01:09:17,10.1.1.2,28,0.040,0.040,0.040,0.000,0.000,0.000
1644887357344992000,2022-02-15-01:09:17,10.1.1.2,26,0.020,0.020,0.020,0.000,0.000,0.000
1644887357386650112,2022-02-15-01:09:17,10.1.1.2,16,0.011,0.011,0.011,0.000,0.000,0.000
1644887357444709120,2022-02-15-01:09:17,10.1.1.2,23,0.000,0.000,0.000,0.000,0.000,0.000
1644887357514759168,2022-02-15-01:09:17,10.1.1.2,41,-0.010,-0.010,-0.010,0.000,0.000,0.000
1644887357550966016,2022-02-15-01:09:17,10.1.1.2,27,-0.020,-0.020,-0.020,0.000,0.000,0.000
1644887357605079808,2022-02-15-01:09:17,10.1.1.2,31,-0.030,-0.030,-0.030,0.000,0.000,0.000
1644887357665571840,2022-02-15-01:09:17,10.1.1.2,38,-0.040,-0.040,-0.040,0.000,0.000,0.000
1644887357705790976,2022-02-15-01:09:17,10.1.1.2,26,-0.050,-0.050,-0.050,0.000,0.000,0.000
1644887357765007872,2022-02-15-01:09:17,10.1.1.2,35,-0.060,-0.060,-0.060,0.000,0.000,0.000
1644887357806347008,2022-02-15-01:09:17,10.1.1.2,24,-0.070,-0.070,-0.070,0.000,0.000,0.000
1644887357865390080,2022-02-15-01:09:17,10.1.1.2,32,-0.080,-0.080,-0.080,0.000,0.000,0.000
1644887357905330944,2022-02-15-01:09:17,10.1.1.2,21,-0.090,-0.090,-0.090,0.000,0.000,0.000
1644887357964945152,2022-02-15-01:09:17,10.1.1.2,30,-0.100,-0.100,-0.100,0.000,0.000,0.000
1644887358026020096,2022-02-15-01:09:18,10.1.1.2,37,-0.090,-0.090,-0.090,0.000,0.000,0.000
1644887358075727104,2022-02-15-01:09:18,10.1.1.2,25,-0.080,-0.080,-0.080,0.000,0.000,0.000
1644887358125449984,2022-02-15-01:09:18,10.1.1.2,33,-0.070,-0.070,-0.070,0.000,0.000,0.000
1644887358165330944,2022-02-15-01:09:18,10.1.1.2,22,-0.060,-0.060,-0.060,0.000,0.000,0.000
1644887358225265152,2022-02-15-01:09:18,10.1.1.2,32,-0.050,-0.050,-0.050,0.000,0.000,0.000
1644887358264887040,2022-02-15-01:09:18,10.1.1.2,21,-0.040,-0.040,-0.040,0.000,0.000,0.000
1644887358384673024,2022-02-15-01:09:18,10.1.1.2,39,-0.020,-0.020,-0.020,0.000,0.000,0.000
1644887358425321216,2022-02-15-01:09:18,10.1.1.2,28,-0.010,-0.010,-0.010,0.000,0.000,0.000
1644887358525661952,2022-02-15-01:09:18,10.1.1.2,26,0.010,0.010,0.010,0.000,0.000,0.000
1644887358565042944,2022-02-15-01:09:18,10.1.1.2,15,0.020,0.020,0.020,0.000,0.000,0.000
1644887358625391872,2022-02-15-01:09:18,10.1.1.2,25,0.030,0.030,0.030,0.000,0.000,0.000
1644887358685033984,2022-02-15-01:09:18,10.1.1.2,34,0.040,0.040,0.040,0.000,0.000,0.000
1644887358724747776,2022-02-15-01:09:18,10.1.1.2,23,0.050,0.050,0.050,0.000,0.000,0.000
1644887358784899072,2022-02-15-01:09:18,10.1.1.2,32,0.060,0.060,0.060,0.000,0.000,0.000
1644887358825352960,2022-02-15-01:09:18,10.1.1.2,21,0.070,0.070,0.070,0.000,0.000,0.000
1644887358885367040,2022-02-15-01:09:18,10.1.1.2,30,0.080,0.080,0.080,0.000,0.000,0.000
1644887358985552128,2022-02-15-01:09:18,10.1.1.2,28,0.100,0.100,0.100,0.000,0.000,0.000
1644887359045420032,2022-02-15-01:09:19,10.1.1.2,37,0.090,0.090,0.090,0.000,0.000,0.000
1644887359084947968,2022-02-15-01:09:19,10.1.1.2,25,0.080,0.080,0.080,0.000,0.000,0.000
1644887359145204992,2022-02-15-01:09:19,10.1.1.2,35,0.070,0.070,0.070,0.000,0.000,0.000
1644887359184890112,2022-02-15-01:09:19,10.1.1.2,22,0.060,0.060,0.060,0.000,0.000,0.000
1644887359245049856,2022-02-15-01:09:19,10.1.1.2,31,0.050,0.050,0.050,0.000,0.000,0.000
1644887359344804096,2022-02-15-01:09:19,10.1.1.2,29,0.030,0.030,0.030,0.000,0.000,0.000
1644887359405129984,2022-02-15-01:09:19,10.1.1.2,38,0.020,0.020,0.020,0.000,0.000,0.000
1644887359445293056,2022-02-15-01:09:19,10.1.1.2,26,0.010,0.010,0.010,0.000,0.000,0.000
1644887359505063936,2022-02-15-01:09:19,10.1.1.2,36,0.000,0.000,0.000,0.000,0.000,0.000
1644887359545093120,2022-02-15-01:09:19,10.1.1.2,25,-0.010,-0.010,-0.010,0.000,0.000,0.000
1644887359605161984,2022-02-15-01:09:19,10.1.1.2,34,-0.020,-0.020,-0.020,0.000,0.000,0.000
1644887359644912896,2022-02-15-01:09:19,10.1.1.2,23,-0.030,-0.030,-0.030,0.000,0.000,0.000
1644887359705075968,2022-02-15-01:09:19,10.1.1.2,32,-0.040,-0.040,-0.040,0.000,0.000,0.000
1644887359745021952,2022-02-15-01:09:19,10.1.1.2,21,-0.050,-0.050,-0.050,0.000,0.000,0.000
1644887359804549888,2022-02-15-01:09:19,10.1.1.2,30,-0.060,-0.060,-0.060,0.000,0.000,0.000
1644887359864766976,2022-02-15-01:09:19,10.1.1.2,39,-0.070,-0.070,-0.070,0.000,0.000,0.000
1644887359905275136,2022-02-15-01:09:19,10.1.1.2,27,-0.080,-0.080,-0.080,0.000,0.000,0.000
1644887359964900864,2022-02-15-01:09:19,10.1.1.2,34,-0.090,-0.090,-0.090,0.000,0.000,0.000
1644887360004868864,2022-02-15-01:09:20,10.1.1.2,23,-0.100,-0.100,-0.100,0.000,0.000,0.000
1644887360064999168,2022-02-15-01:09:20,10.1.1.2,32,-0.090,-0.090,-0.090,0.000,0.000,0.000
1644887360105266176,2022-02-15-01:09:20,10.1.1.2,21,-0.080,-0.080,-0.080,0.000,0.000,0.000
1644887360165519872,2022-02-15-01:09:20,10.1.1.2,30,-0.070,-0.070,-0.070,0.000,0.000,0.000
1644887360225478912,2022-02-15-01:09:20,10.1.1.2,39,-0.060,-0.060,-0.060,0.000,0.000,0.000
1644887360264852992,2022-02-15-01:09:20,10.1.1.2,26,-0.050,-0.050,-0.050,0.000,0.000,0.000
1644887360330573056,2022-02-15-01:09:20,10.1.1.2,38,-0.040,-0.040,-0.040,0.000,0.000,0.000
1644887360365032960,2022-02-15-01:09:20,10.1.1.2,24,-0.030,-0.030,-0.030,0.000,0.000,0.000
1644887360425523968,2022-02-15-01:09:20,10.1.1.2,33,-0.020,-0.020,-0.020,0.000,0.000,0.000
1644887360465071872,2022-02-15-01:09:20,10.1.1.2,23,-0.010,-0.010,-0.010,0.000,0.000,0.000
1644887360525207040,2022-02-15-01:09:20,10.1.1.2,32,0.000,0.000,0.000,0.000,0.000,0.000
1644887360564929024,2022-02-15-01:09:20,10.1.1.2,21,0.010,0.010,0.010,0.000,0.000,0.000
1644887360625634816,2022-02-15-01:09:20,10.1.1.2,30,0.020,0.020,0.020,0.000,0.000,0.000
1644887360685008896,2022-02-15-01:09:20,10.1.1.2,39,0.030,0.030,0.030,0.000,0.000,0.000
1644887360725608960,2022-02-15-01:09:20,10.1.1.2,29,0.040,0.040,0.040,0.000,0.000,0.000
1644887360785017088,2022-02-15-01:09:20,10.1.1.2,37,0.050,0.050,0.050,0.000,0.000,0.000
1644887360825679104,2022-02-15-01:09:20,10.1.1.2,26,0.060,0.060,0.060,0.000,0.000,0.000
1644887360885929216,2022-02-15-01:09:20,10.1.1.2,35,0.070,0.070,0.070,0.000,0.000,0.000
1644887360924937984,2022-02-15-01:09:20,10.1.1.2,24,0.080,0.080,0.080,0.000,0.000,0.000
1644887360985486080,2022-02-15-01:09:20,10.1.1.2,33,0.090,0.090,0.090,0.000,0.000,0.000
1644887361025747968,2022-02-15-01:09:21,10.1.1.2,23,0.100,0.100,0.100,0.000,0.000,0.000
1644887361085036032,2022-02-15-01:09:21,10.1.1.2,32,0.090,0.090,0.090,0.000,0.000,0.000
1644887361125555968,2022-02-15-01:09:21,10.1.1.2,21,0.080,0.080,0.080,0.000,0.000,0.000
1644887361185118976,2022-02-15-01:09:21,10.1.1.2,30,0.070,0.070,0.070,0.000,0.000,0.000
1644887361245711104,2022-02-15-01:09:21,10.1.1.2,39,0.060,0.060,0.060,0.000,0.000,0.000
1644887361285123072,2022-02-15-01:09:21,10.1.1.2,28,0.050,0.050,0.050,0.000,0.000,0.000
1644887361344832000,2022-02-15-01:09:21,10.1.1.2,38,0.040,0.040,0.040,0.000,0.000,0.000
1644887361384871936,2022-02-15-01:09:21,10.1.1.2,27,0.030,0.030,0.030,0.000,0.000,0.000
1644887361445265152,2022-02-15-01:09:21,10.1.1.2,36,0.020,0.020,0.020,0.000,0.000,0.000
1644887361484844800,2022-02-15-01:09:21,10.1.1.2,25,0.010,0.010,0.010,0.000,0.000,0.000
1644887361544568064,2022-02-15-01:09:21,10.1.1.2,34,0.000,0.000,0.000,0.000,0.000,0.000
1644887361584690176,2022-02-15-01:09:21,10.1.1.2,23,-0.010,-0.010,-0.010,0.000,0.000,0.000
1644887361644450048,2022-02-15-01:09:21,10.1.1.2,32,-0.020,-0.020,-0.020,0.000,0.000,0.000
1644887361685216000,2022-02-15-01:09:21,10.1.1.2,21,-0.030,-0.030,-0.030,0.000,0.000,0.000
1644887361805156096,2022-02-15-01:09:21,10.1.1.2,39,-0.050,-0.050,-0.050,0.000,0.000,0.000
1644887361845096192,2022-02-15-01:09:21,10.1.1.2,29,-0.060,-0.060,-0.060,0.000,0.000,0.000
1644887361904598016,2022-02-15-01:09:21,10.1.1.2,38,-0.070,-0.070,-0.070,0.000,0.000,0.000
1644887361945161216,2022-02-15-01:09:21,10.1.1.2,27,-0.080,-0.080,-0.080,0.000,0.000,0.000
1644887362005667840,2022-02-15-01:09:22,10.1.1.2,36,-0.090,-0.090,-0.090,0.000,0.000,0.000
1644887362045057024,2022-02-15-01:09:22,10.1.1.2,25,-0.100,-0.100,-0.100,0.000,0.000,0.000
1644887362105936128,2022-02-15-01:09:22,10.1.1.2,34,-0.090,-0.090,-0.090,0.000,0.000,0.000
1644887362144969984,2022-02-15-01:09:22,10.1.1.2,23,-0.080,-0.080,-0.080,0.000,0.000,0.000
1644887362204988928,2022-02-15-01:09:22,10.1.1.2,31,-0.070,-0.070,-0.070,0.000,0.000,0.000
1644887362245837056,2022-02-15-01:09:22,10.1.1.2,21,-0.060,-0.060,-0.060,0.000,0.000,0.000
1644887362366444032,2022-02-15-01:09:22,10.1.1.2,37,-0.040,-0.040,-0.040,0.000,0.000,0.000
1644887362407536896,2022-02-15-01:09:22,10.1.1.2,27,-0.030,-0.030,-0.030,0.000,0.000,0.000
1644887362466226176,2022-02-15-01:09:22,10.1.1.2,34,-0.020,-0.020,-0.020,0.000,0.000,0.000
1644887362505711104,2022-02-15-01:09:22,10.1.1.2,22,-0.010,-0.010,-0.010,0.000,0.000,0.000
1644887362564819968,2022-02-15-01:09:22,10.1.1.2,30,-0.000,-0.000,-0.000,0.000,0.000,0.000
1644887362625691904,2022-02-15-01:09:22,10.1.1.2,39,0.010,0.010,0.010,0.000,0.000,0.000
1644887362664772864,2022-02-15-01:09:22,10.1.1.2,27,0.020,0.020,0.020,0.000,0.000,0.000
1644887362725378048,2022-02-15-01:09:22,10.1.1.2,35,0.030,0.030,0.030,0.000,0.000,0.000
1644887362766382848,2022-02-15-01:09:22,10.1.1.2,24,0.040,0.040,0.040,0.000,0.000,0.000
1644887362825135104,2022-02-15-01:09:22,10.1.1.2,32,0.050,0.050,0.050,0.000,0.000,0.000
1644887362865127168,2022-02-15-01:09:22,10.1.1.2,21,0.060,0.060,0.060,0.000,0.000,0.000
1644887362985539840,2022-02-15-01:09:22,10.1.1.2,37,0.080,0.080,0.080,0.000,0.000,0.000
1644887363026551040,2022-02-15-01:09:23,10.1.1.2,26,0.090,0.090,0.090,0.000,0.000,0.000
1644887363086318080,2022-02-15-01:09:23,10.1.1.2,34,0.100,0.100,0.100,0.000,0.000,0.000
1644887363128417024,2022-02-15-01:09:23,10.1.1.2,24,0.090,0.090,0.090,0.000,0.000,0.000
1644887363188968960,2022-02-15-01:09:23,10.1.1.2,34,0.080,0.080,0.080,0.000,0.000,0.000
1644887363286429952,2022-02-15-01:09:23,10.1.1.2,29,0.060,0.060,0.060,0.000,0.000,0.000
1644887363345370880,2022-02-15-01:09:23,10.1.1.2,38,0.050,0.050,0.050,0.000,0.000,0.000
1644887363385137920,2022-02-15-01:09:23,10.1.1.2,27,0.040,0.040,0.040,0.000,0.000,0.000
1644887363448896000,2022-02-15-01:09:23,10.1.1.2,39,0.030,0.030,0.030,0.000,0.000,0.000
1644887363485357056,2022-02-15-01:09:23,10.1.1.2,24,0.020,0.020,0.020,0.000,0.000,0.000
1644887363545010944,2022-02-15-01:09:23,10.1.1.2,33,0.010,0.010,0.010,0.000,0.000,0.000
1644887363585211904,2022-02-15-01:09:23,10.1.1.2,22,0.000,0.000,0.000,0.000,0.000,0.000
1644887363644866048,2022-02-15-01:09:23,10.1.1.2,32,-0.010,-0.010,-0.010,0.000,0.000,0.000
1644887363705521152,2022-02-15-01:09:23,10.1.1.2,39,-0.020,-0.020,-0.020,0.000,0.000,0.000
1644887363745344000,2022-02-15-01:09:23,10.1.1.2,26,-0.030,-0.030,-0.030,0.000,0.000,0.000
1644887363845568768,2022-02-15-01:09:23,10.1.1.2,24,-0.050,-0.050,-0.050,0.000,0.000,0.000
1644887363904902912,2022-02-15-01:09:23,10.1.1.2,34,-0.060,-0.060,-0.060,0.000,0.000,0.000
1644887363945184000,2022-02-15-01:09:23,10.1.1.2,22,-0.070,-0.070,-0.070,0.000,0.000,0.000
1644887364087460096,2022-02-15-01:09:24,10.1.1.2,33,-0.090,-0.090,-0.090,0.000,0.000,0.000
1644887364167731968,2022-02-15-01:09:24,10.1.1.2,9,-0.090,-0.090,-0.090,0.000,0.000,0.000
1644887364246130944,2022-02-15-01:09:24,10.1.1.2,37,-0.080,-0.080,-0.080,0.000,0.000,0.000
1644887364285126912,2022-02-15-01:09:24,10.1.1.2,26,-0.070,-0.070,-0.070,0.000,0.000,0.000
1644887364445331200,2022-02-15-01:09:24,10.1.1.2,34,-0.040,-0.040,-0.040,0.000,0.000,0.000
1644887364544701952,2022-02-15-01:09:24,10.1.1.2,32,-0.020,-0.020,-0.020,0.000,0.000,0.000
1644887364594793984,2022-02-15-01:09:24,10.1.1.2,31,-0.010,-0.010,-0.010,0.000,0.000,0.000
1644887364645716992,2022-02-15-01:09:24,10.1.1.2,30,0.000,0.000,0.000,0.000,0.000,0.000
1644887364685697024,2022-02-15-01:09:24,10.1.1.2,19,0.010,0.010,0.010,0.000,0.000,0.000
1644887364744285184,2022-02-15-01:09:24,10.1.1.2,28,0.020,0.020,0.020,0.000,0.000,0.000
1644887364845496832,2022-02-15-01:09:24,10.1.1.2,24,0.040,0.040,0.040,0.000,0.000,0.000
1644887364903721216,2022-02-15-01:09:24,10.1.1.2,32,0.050,0.050,0.050,0.000,0.000,0.000
1644887365021562112,2022-02-15-01:09:25,10.1.1.2,30,0.070,0.070,0.070,0.000,0.000,0.000
1644887365064347904,2022-02-15-01:09:25,10.1.1.2,37,0.080,0.080,0.080,0.000,0.000,0.000
1644887365104711168,2022-02-15-01:09:25,10.1.1.2,20,0.090,0.090,0.090,0.000,0.000,0.000
1644887365164634880,2022-02-15-01:09:25,10.1.1.2,29,0.100,0.100,0.100,0.000,0.000,0.000
1644887365225824000,2022-02-15-01:09:25,10.1.1.2,39,0.090,0.090,0.090,0.000,0.000,0.000
1644887365325620992,2022-02-15-01:09:25,10.1.1.2,37,0.070,0.070,0.070,0.000,0.000,0.000
1644887365365798912,2022-02-15-01:09:25,10.1.1.2,26,0.060,0.060,0.060,0.000,0.000,0.000
1644887365425053952,2022-02-15-01:09:25,10.1.1.2,35,0.050,0.050,0.050,0.000,0.000,0.000
1644887365467040000,2022-02-15-01:09:25,10.1.1.2,24,0.040,0.040,0.040,0.000,0.000,0.000
1644887365524493824,2022-02-15-01:09:25,10.1.1.2,32,0.030,0.030,0.030,0.000,0.000,0.000
1644887365565417984,2022-02-15-01:09:25,10.1.1.2,22,0.020,0.020,0.020,0.000,0.000,0.000
1644887365664776192,2022-02-15-01:09:25,10.1.1.2,21,0.000,0.000,0.000,0.000,0.000,0.000
1644887365726344192,2022-02-15-01:09:25,10.1.1.2,30,-0.010,-0.010,-0.010,0.000,0.000,0.000
1644887365764688128,2022-02-15-01:09:25,10.1.1.2,20,-0.020,-0.020,-0.020,0.000,0.000,0.000
1644887365824592128,2022-02-15-01:09:25,10.1.1.2,28,-0.030,-0.030,-0.030,0.000,0.000,0.000
1644887365883940864,2022-02-15-01:09:25,10.1.1.2,37,-0.040,-0.040,-0.040,0.000,0.000,0.000
1644887365924768000,2022-02-15-01:09:25,10.1.1.2,26,-0.050,-0.050,-0.050,0.000,0.000,0.000
1644887365984417792,2022-02-15-01:09:25,10.1.1.2,36,-0.060,-0.060,-0.060,0.000,0.000,0.000
1644887366024420864,2022-02-15-01:09:26,10.1.1.2,25,-0.070,-0.070,-0.070,0.000,0.000,0.000
1644887366084551936,2022-02-15-01:09:26,10.1.1.2,35,-0.080,-0.080,-0.080,0.000,0.000,0.000
1644887366124532992,2022-02-15-01:09:26,10.1.1.2,24,-0.090,-0.090,-0.090,0.000,0.000,0.000
1644887366184363008,2022-02-15-01:09:26,10.1.1.2,33,-0.100,-0.100,-0.100,0.000,0.000,0.000
1644887366224754944,2022-02-15-01:09:26,10.1.1.2,22,-0.090,-0.090,-0.090,0.000,0.000,0.000
1644887366285121792,2022-02-15-01:09:26,10.1.1.2,31,-0.080,-0.080,-0.080,0.000,0.000,0.000
1644887366385374976,2022-02-15-01:09:26,10.1.1.2,29,-0.060,-0.060,-0.060,0.000,0.000,0.000
1644887366545084928,2022-02-15-01:09:26,10.1.1.2,35,-0.030,-0.030,-0.030,0.000,0.000,0.000
1644887366591793920,2022-02-15-01:09:26,10.1.1.2,30,-0.020,-0.020,-0.020,0.000,0.000,0.000
1644887366645991168,2022-02-15-01:09:26,10.1.1.2,34,-0.010,-0.010,-0.010,0.000,0.000,0.000
1644887366691325952,2022-02-15-01:09:26,10.1.1.2,28,0.000,0.000,0.000,0.000,0.000,0.000
1644887366804555776,2022-02-15-01:09:26,10.1.1.2,37,0.020,0.020,0.020,0.000,0.000,0.000
1644887366845048064,2022-02-15-01:09:26,10.1.1.2,26,0.030,0.030,0.030,0.000,0.000,0.000
1644887366905022976,2022-02-15-01:09:26,10.1.1.2,35,0.040,0.040,0.040,0.000,0.000,0.000
1644887366944758784,2022-02-15-01:09:26,10.1.1.2,24,0.050,0.050,0.050,0.000,0.000,0.000
1644887367005134080,2022-02-15-01:09:27,10.1.1.2,33,0.060,0.060,0.060,0.000,0.000,0.000
1644887367065628160,2022-02-15-01:09:27,10.1.1.2,38,0.070,0.070,0.070,0.000,0.000,0.000
1644887367104955904,2022-02-15-01:09:27,10.1.1.2,27,0.080,0.080,0.080,0.000,0.000,0.000
1644887367164929024,2022-02-15-01:09:27,10.1.1.2,36,0.090,0.090,0.090,0.000,0.000,0.000
1644887367204897024,2022-02-15-01:09:27,10.1.1.2,25,0.100,0.100,0.100,0.000,0.000,0.000
1644887367265209856,2022-02-15-01:09:27,10.1.1.2,34,0.090,0.090,0.090,0.000,0.000,0.000
1644887367304548096,2022-02-15-01:09:27,10.1.1.2,23,0.080,0.080,0.080,0.000,0.000,0.000
1644887367365381120,2022-02-15-01:09:27,10.1.1.2,32,0.070,0.070,0.070,0.000,0.000,0.000
1644887367404512768,2022-02-15-01:09:27,10.1.1.2,21,0.060,0.060,0.060,0.000,0.000,0.000
1644887367464739072,2022-02-15-01:09:27,10.1.1.2,31,0.050,0.050,0.050,0.000,0.000,0.000
1644887367524513024,2022-02-15-01:09:27,10.1.1.2,37,0.040,0.040,0.040,0.000,0.000,0.000
1644887367564374016,2022-02-15-01:09:27,10.1.1.2,26,0.030,0.030,0.030,0.000,0.000,0.000
1644887367624433152,2022-02-15-01:09:27,10.1.1.2,35,0.020,0.020,0.020,0.000,0.000,0.000
1644887367664378880,2022-02-15-01:09:27,10.1.1.2,24,0.010,0.010,0.010,0.000,0.000,0.000
1644887367725084928,2022-02-15-01:09:27,10.1.1.2,33,0.000,0.000,0.000,0.000,0.000,0.000
1644887367765615872,2022-02-15-01:09:27,10.1.1.2,22,-0.010,-0.010,-0.010,0.000,0.000,0.000
1644887367825321984,2022-02-15-01:09:27,10.1.1.2,27,-0.020,-0.020,-0.020,0.000,0.000,0.000
1644887367884294912,2022-02-15-01:09:27,10.1.1.2,36,-0.030,-0.030,-0.030,0.000,0.000,0.000
1644887367933842944,2022-02-15-01:09:27,10.1.1.2,27,-0.040,-0.040,-0.040,0.000,0.000,0.000
1644887367985110016,2022-02-15-01:09:27,10.1.1.2,34,-0.050,-0.050,-0.050,0.000,0.000,0.000
1644887368024865024,2022-02-15-01:09:28,10.1.1.2,23,-0.060,-0.060,-0.060,0.000,0.000,0.000
1644887368084882944,2022-02-15-01:09:28,10.1.1.2,27,-0.070,-0.070,-0.070,0.000,0.000,0.000
1644887368144573952,2022-02-15-01:09:28,10.1.1.2,36,-0.080,-0.080,-0.080,0.000,0.000,0.000
1644887368184427008,2022-02-15-01:09:28,10.1.1.2,26,-0.090,-0.090,-0.090,0.000,0.000,0.000
1644887368249820928,2022-02-15-01:09:28,10.1.1.2,37,-0.100,-0.100,-0.100,0.000,0.000,0.000
1644887368285480960,2022-02-15-01:09:28,10.1.1.2,21,-0.090,-0.090,-0.090,0.000,0.000,0.000
1644887368344783104,2022-02-15-01:09:28,10.1.1.2,28,-0.080,-0.080,-0.080,0.000,0.000,0.000
1644887368404863232,2022-02-15-01:09:28,10.1.1.2,37,-0.070,-0.070,-0.070,0.000,0.000,0.000
1644887368444829952,2022-02-15-01:09:28,10.1.1.2,27,-0.060,-0.060,-0.060,0.000,0.000,0.000
1644887368504827904,2022-02-15-01:09:28,10.1.1.2,36,-0.050,-0.050,-0.050,0.000,0.000,0.000
1644887368544946944,2022-02-15-01:09:28,10.1.1.2,25,-0.040,-0.040,-0.040,0.000,0.000,0.000
1644887368644507904,2022-02-15-01:09:28,10.1.1.2,22,-0.020,-0.020,-0.020,0.000,0.000,0.000
1644887368705327104,2022-02-15-01:09:28,10.1.1.2,32,-0.010,-0.010,-0.010,0.000,0.000,0.000
1644887368766071040,2022-02-15-01:09:28,10.1.1.2,37,0.000,0.000,0.000,0.000,0.000,0.000
1644887368805336064,2022-02-15-01:09:28,10.1.1.2,26,0.010,0.010,0.010,0.000,0.000,0.000
1644887368866853120,2022-02-15-01:09:28,10.1.1.2,36,0.020,0.020,0.020,0.000,0.000,0.000
1644887368904195072,2022-02-15-01:09:28,10.1.1.2,24,0.030,0.030,0.030,0.000,0.000,0.000
1644887368964664064,2022-02-15-01:09:28,10.1.1.2,33,0.040,0.040,0.040,0.000,0.000,0.000
1644887369004570112,2022-02-15-01:09:29,10.1.1.2,23,0.050,0.050,0.050,0.000,0.000,0.000
1644887369064441088,2022-02-15-01:09:29,10.1.1.2,32,0.060,0.060,0.060,0.000,0.000,0.000
1644887369104841984,2022-02-15-01:09:29,10.1.1.2,21,0.070,0.070,0.070,0.000,0.000,0.000
1644887369164748800,2022-02-15-01:09:29,10.1.1.2,30,0.080,0.080,0.080,0.000,0.000,0.000
1644887369225012992,2022-02-15-01:09:29,10.1.1.2,38,0.090,0.090,0.090,0.000,0.000,0.000
1644887369265047040,2022-02-15-01:09:29,10.1.1.2,26,0.100,0.100,0.100,0.000,0.000,0.000
1644887369325121024,2022-02-15-01:09:29,10.1.1.2,35,0.090,0.090,0.090,0.000,0.000,0.000
1644887369366394112,2022-02-15-01:09:29,10.1.1.2,25,0.080,0.080,0.080,0.000,0.000,0.000
1644887369425219072,2022-02-15-01:09:29,10.1.1.2,34,0.070,0.070,0.070,0.000,0.000,0.000
1644887369464591104,2022-02-15-01:09:29,10.1.1.2,22,0.060,0.060,0.060,0.000,0.000,0.000
1644887369524662016,2022-02-15-01:09:29,10.1.1.2,28,0.050,0.050,0.050,0.000,0.000,0.000
1644887369584431872,2022-02-15-01:09:29,10.1.1.2,37,0.040,0.040,0.040,0.000,0.000,0.000
1644887369624496896,2022-02-15-01:09:29,10.1.1.2,26,0.030,0.030,0.030,0.000,0.000,0.000
1644887369685998080,2022-02-15-01:09:29,10.1.1.2,36,0.020,0.020,0.020,0.000,0.000,0.000
1644887369734428928,2022-02-15-01:09:29,10.1.1.2,25,0.010,0.010,0.010,0.000,0.000,0.000
1644887369784925952,2022-02-15-01:09:29,10.1.1.2,34,0.000,0.000,0.000,0.000,0.000,0.000
1644887369826392832,2022-02-15-01:09:29,10.1.1.2,23,-0.010,-0.010,-0.010,0.000,0.000,0.000
1644887369895062016,2022-02-15-01:09:29,10.1.1.2,42,-0.020,-0.020,-0.020,0.000,0.000,0.000
1644887369925235968,2022-02-15-01:09:29,10.1.1.2,20,-0.030,-0.030,-0.030,0.000,0.000,0.000
1644887369984563968,2022-02-15-01:09:29,10.1.1.2,29,-0.040,-0.040,-0.040,0.000,0.000,0.000
1644887370045184000,2022-02-15-01:09:30,10.1.1.2,39,-0.050,-0.050,-0.050,0.000,0.000,0.000
1644887370086564096,2022-02-15-01:09:30,10.1.1.2,28,-0.060,-0.060,-0.060,0.000,0.000,0.000
1644887370144655872,2022-02-15-01:09:30,10.1.1.2,37,-0.070,-0.070,-0.070,0.000,0.000,0.000
1644887370184567040,2022-02-15-01:09:30,10.1.1.2,25,-0.080,-0.080,-0.080,0.000,0.000,0.000
1644887370245761024,2022-02-15-01:09:30,10.1.1.2,35,-0.090,-0.090,-0.090,0.000,0.000,0.000
1644887370285101056,2022-02-15-01:09:30,10.1.1.2,23,-0.100,-0.100,-0.100,0.000,0.000,0.000
1644887370345134080,2022-02-15-01:09:30,10.1.1.2,33,-0.090,-0.090,-0.090,0.000,0.000,0.000
1644887370384589824,2022-02-15-01:09:30,10.1.1.2,21,-0.080,-0.080,-0.080,0.000,0.000,0.000
1644887370444843008,2022-02-15-01:09:30,10.1.1.2,31,-0.070,-0.070,-0.070,0.000,0.000,0.000
1644887370485249024,2022-02-15-01:09:30,10.1.1.2,21,-0.060,-0.060,-0.060,0.000,0.000,0.000
1644887370605284096,2022-02-15-01:09:30,10.1.1.2,39,-0.040,-0.040,-0.040,0.000,0.000,0.000
1644887370644766208,2022-02-15-01:09:30,10.1.1.2,28,-0.030,-0.030,-0.030,0.000,0.000,0.000
1644887370705293056,2022-02-15-01:09:30,10.1.1.2,37,-0.020,-0.020,-0.020,0.000,0.000,0.000
1644887370744876032,2022-02-15-01:09:30,10.1.1.2,26,-0.010,-0.010,-0.010,0.000,0.000,0.000
1644887370804608000,2022-02-15-01:09:30,10.1.1.2,35,0.000,0.000,0.000,0.000,0.000,0.000
1644887370845273088,2022-02-15-01:09:30,10.1.1.2,24,0.010,0.010,0.010,0.000,0.000,0.000
1644887370905517056,2022-02-15-01:09:30,10.1.1.2,33,0.020,0.020,0.020,0.000,0.000,0.000
1644887370945713920,2022-02-15-01:09:30,10.1.1.2,22,0.030,0.030,0.030,0.000,0.000,0.000
1644887371005762048,2022-02-15-01:09:31,10.1.1.2,30,0.040,0.040,0.040,0.000,0.000,0.000
1644887371105372928,2022-02-15-01:09:31,10.1.1.2,29,0.060,0.060,0.060,0.000,0.000,0.000
1644887371165935872,2022-02-15-01:09:31,10.1.1.2,37,0.070,0.070,0.070,0.000,0.000,0.000
1644887371205081856,2022-02-15-01:09:31,10.1.1.2,26,0.080,0.080,0.080,0.000,0.000,0.000
1644887371265882112,2022-02-15-01:09:31,10.1.1.2,36,0.090,0.090,0.090,0.000,0.000,0.000
1644887371305625856,2022-02-15-01:09:31,10.1.1.2,25,0.100,0.100,0.100,0.000,0.000,0.000
1644887371365323008,2022-02-15-01:09:31,10.1.1.2,33,0.090,0.090,0.090,0.000,0.000,0.000
1644887371405193216,2022-02-15-01:09:31,10.1.1.2,22,0.080,0.080,0.080,0.000,0.000,0.000
1644887371465135104,2022-02-15-01:09:31,10.1.1.2,31,0.070,0.070,0.070,0.000,0.000,0.000
1644887371565260032,2022-02-15-01:09:31,10.1.1.2,28,0.050,0.050,0.050,0.000,0.000,0.000
1644887371625297920,2022-02-15-01:09:31,10.1.1.2,37,0.040,0.040,0.040,0.000,0.000,0.000
1644887371665097984,2022-02-15-01:09:31,10.1.1.2,24,0.030,0.030,0.030,0.000,0.000,0.000
1644887371725563136,2022-02-15-01:09:31,10.1.1.2,34,0.020,0.020,0.020,0.000,0.000,0.000
1644887371765264896,2022-02-15-01:09:31,10.1.1.2,23,0.010,0.010,0.010,0.000,0.000,0.000
1644887371824777984,2022-02-15-01:09:31,10.1.1.2,32,0.000,0.000,0.000,0.000,0.000,0.000
1644887371885341952,2022-02-15-01:09:31,10.1.1.2,39,-0.010,-0.010,-0.010,0.000,0.000,0.000
1644887371924932096,2022-02-15-01:09:31,10.1.1.2,29,-0.020,-0.020,-0.020,0.000,0.000,0.000
1644887371985323008,2022-02-15-01:09:31,10.1.1.2,37,-0.030,-0.030,-0.030,0.000,0.000,0.000
1644887372024492032,2022-02-15-01:09:32,10.1.1.2,25,-0.040,-0.040,-0.040,0.000,0.000,0.000
1644887372085534208,2022-02-15-01:09:32,10.1.1.2,35,-0.050,-0.050,-0.050,0.000,0.000,0.000
1644887372124741120,2022-02-15-01:09:32,10.1.1.2,24,-0.060,-0.060,-0.060,0.000,0.000,0.000
1644887372190161920,2022-02-15-01:09:32,10.1.1.2,38,-0.070,-0.070,-0.070,0.000,0.000,0.000
1644887372230385152,2022-02-15-01:09:32,10.1.1.2,24,-0.080,-0.080,-0.080,0.000,0.000,0.000
1644887372285010176,2022-02-15-01:09:32,10.1.1.2,30,-0.090,-0.090,-0.090,0.000,0.000,0.000
1644887372344773888,2022-02-15-01:09:32,10.1.1.2,39,-0.100,-0.100,-0.100,0.000,0.000,0.000
1644887372385307904,2022-02-15-01:09:32,10.1.1.2,28,-0.090,-0.090,-0.090,0.000,0.000,0.000
1644887372444614912,2022-02-15-01:09:32,10.1.1.2,37,-0.080,-0.080,-0.080,0.000,0.000,0.000
1644887372484231936,2022-02-15-01:09:32,10.1.1.2,26,-0.070,-0.070,-0.070,0.000,0.000,0.000
1644887372544823040,2022-02-15-01:09:32,10.1.1.2,36,-0.060,-0.060,-0.060,0.000,0.000,0.000
1644887372584595968,2022-02-15-01:09:32,10.1.1.2,25,-0.050,-0.050,-0.050,0.000,0.000,0.000
1644887372645401856,2022-02-15-01:09:32,10.1.1.2,35,-0.040,-0.040,-0.040,0.000,0.000,0.000
1644887372684787968,2022-02-15-01:09:32,10.1.1.2,24,-0.030,-0.030,-0.030,0.000,0.000,0.000
1644887372744215040,2022-02-15-01:09:32,10.1.1.2,34,-0.020,-0.020,-0.020,0.000,0.000,0.000
1644887372784722176,2022-02-15-01:09:32,10.1.1.2,23,-0.010,-0.010,-0.010,0.000,0.000,0.000
1644887372844335104,2022-02-15-01:09:32,10.1.1.2,33,0.000,0.000,0.000,0.000,0.000,0.000
1644887372886872064,2022-02-15-01:09:32,10.1.1.2,25,0.010,0.010,0.010,0.000,0.000,0.000
1644887372947043840,2022-02-15-01:09:32,10.1.1.2,34,0.020,0.020,0.020,0.000,0.000,0.000
1644887372987680000,2022-02-15-01:09:32,10.1.1.2,23,0.030,0.030,0.030,0.000,0.000,0.000
1644887373046936064,2022-02-15-01:09:33,10.1.1.2,31,0.040,0.040,0.040,0.000,0.000,0.000
1644887373085374208,2022-02-15-01:09:33,10.1.1.2,19,0.050,0.050,0.050,0.000,0.000,0.000
1644887373164690944,2022-02-15-01:09:33,10.1.1.2,46,0.060,0.060,0.060,0.000,0.000,0.000
1644887373204102144,2022-02-15-01:09:33,10.1.1.2,35,0.070,0.070,0.070,0.000,0.000,0.000
1644887373244558080,2022-02-15-01:09:33,10.1.1.2,25,0.080,0.080,0.080,0.000,0.000,0.000
1644887373304637952,2022-02-15-01:09:33,10.1.1.2,34,0.090,0.090,0.090,0.000,0.000,0.000
1644887373364929792,2022-02-15-01:09:33,10.1.1.2,43,0.100,0.100,0.100,0.000,0.000,0.000
1644887373404384000,2022-02-15-01:09:33,10.1.1.2,31,0.090,0.090,0.090,0.000,0.000,0.000
1644887373444803840,2022-02-15-01:09:33,10.1.1.2,20,0.080,0.080,0.080,0.000,0.000,0.000
1644887373564770816,2022-02-15-01:09:33,10.1.1.2,39,0.060,0.060,0.060,0.000,0.000,0.000
1644887373604749824,2022-02-15-01:09:33,10.1.1.2,26,0.050,0.050,0.050,0.000,0.000,0.000
1644887373664800000,2022-02-15-01:09:33,10.1.1.2,36,0.040,0.040,0.040,0.000,0.000,0.000
1644887373704838912,2022-02-15-01:09:33,10.1.1.2,25,0.030,0.030,0.030,0.000,0.000,0.000
1644887373765094144,2022-02-15-01:09:33,10.1.1.2,34,0.020,0.020,0.020,0.000,0.000,0.000
1644887373805264896,2022-02-15-01:09:33,10.1.1.2,23,0.010,0.010,0.010,0.000,0.000,0.000
1644887373864759808,2022-02-15-01:09:33,10.1.1.2,31,0.000,0.000,0.000,0.000,0.000,0.000
1644887373904113920,2022-02-15-01:09:33,10.1.1.2,21,-0.010,-0.010,-0.010,0.000,0.000,0.000
1644887374024987904,2022-02-15-01:09:34,10.1.1.2,39,-0.030,-0.030,-0.030,0.000,0.000,0.000
1644887374065090048,2022-02-15-01:09:34,10.1.1.2,28,-0.040,-0.040,-0.040,0.000,0.000,0.000
1644887374106631168,2022-02-15-01:09:34,10.1.1.2,18,-0.050,-0.050,-0.050,0.000,0.000,0.000
1644887374165116160,2022-02-15-01:09:34,10.1.1.2,26,-0.060,-0.060,-0.060,0.000,0.000,0.000
1644887374225574912,2022-02-15-01:09:34,10.1.1.2,34,-0.070,-0.070,-0.070,0.000,0.000,0.000
1644887374264875008,2022-02-15-01:09:34,10.1.1.2,23,-0.080,-0.080,-0.080,0.000,0.000,0.000
1644887374324246016,2022-02-15-01:09:34,10.1.1.2,33,-0.090,-0.090,-0.090,0.000,0.000,0.000
1644887374404812032,2022-02-15-01:09:34,10.1.1.2,10,-0.090,-0.090,-0.090,0.000,0.000,0.000
1644887374485920000,2022-02-15-01:09:34,10.1.1.2,38,-0.080,-0.080,-0.080,0.000,0.000,0.000
1644887374525150976,2022-02-15-01:09:34,10.1.1.2,26,-0.070,-0.070,-0.070,0.000,0.000,0.000
1644887374584975104,2022-02-15-01:09:34,10.1.1.2,35,-0.060,-0.060,-0.060,0.000,0.000,0.000
1644887374633358848,2022-02-15-01:09:34,10.1.1.2,31,-0.050,-0.050,-0.050,0.000,0.000,0.000
1644887374685390848,2022-02-15-01:09:34,10.1.1.2,33,-0.040,-0.040,-0.040,0.000,0.000,0.000
1644887374724928000,2022-02-15-01:09:34,10.1.1.2,22,-0.030,-0.030,-0.030,0.000,0.000,0.000
1644887374785476096,2022-02-15-01:09:34,10.1.1.2,32,-0.020,-0.020,-0.020,0.000,0.000,0.000
1644887374825146880,2022-02-15-01:09:34,10.1.1.2,21,-0.010,-0.010,-0.010,0.000,0.000,0.000
1644887374884632064,2022-02-15-01:09:34,10.1.1.2,30,0.000,0.000,0.000,0.000,0.000,0.000
1644887374945197056,2022-02-15-01:09:34,10.1.1.2,39,0.010,0.010,0.010,0.000,0.000,0.000
1644887374984951040,2022-02-15-01:09:34,10.1.1.2,28,0.020,0.020,0.020,0.000,0.000,0.000
1644887375045435904,2022-02-15-01:09:35,10.1.1.2,36,0.030,0.030,0.030,0.000,0.000,0.000
1644887375085058048,2022-02-15-01:09:35,10.1.1.2,25,0.040,0.040,0.040,0.000,0.000,0.000
1644887375153243904,2022-02-15-01:09:35,10.1.1.2,34,0.050,0.050,0.050,0.000,0.000,0.000
1644887375187480064,2022-02-15-01:09:35,10.1.1.2,25,0.060,0.060,0.060,0.000,0.000,0.000
1644887375257155840,2022-02-15-01:09:35,10.1.1.2,36,0.070,0.070,0.070,0.000,0.000,0.000
1644887375286114816,2022-02-15-01:09:35,10.1.1.2,21,0.080,0.080,0.080,0.000,0.000,0.000
1644887375345145856,2022-02-15-01:09:35,10.1.1.2,30,0.090,0.090,0.090,0.000,0.000,0.000
1644887375405046016,2022-02-15-01:09:35,10.1.1.2,38,0.100,0.100,0.100,0.000,0.000,0.000
1644887375448602880,2022-02-15-01:09:35,10.1.1.2,30,0.090,0.090,0.090,0.000,0.000,0.000
1644887375505136896,2022-02-15-01:09:35,10.1.1.2,36,0.080,0.080,0.080,0.000,0.000,0.000
1644887375545996800,2022-02-15-01:09:35,10.1.1.2,25,0.070,0.070,0.070,0.000,0.000,0.000
1644887375605017856,2022-02-15-01:09:35,10.1.1.2,34,0.060,0.060,0.060,0.000,0.000,0.000
1644887375645396992,2022-02-15-01:09:35,10.1.1.2,23,0.050,0.050,0.050,0.000,0.000,0.000
1644887375705279232,2022-02-15-01:09:35,10.1.1.2,33,0.040,0.040,0.040,0.000,0.000,0.000
1644887375745459968,2022-02-15-01:09:35,10.1.1.2,22,0.030,0.030,0.030,0.000,0.000,0.000
1644887375804791040,2022-02-15-01:09:35,10.1.1.2,31,0.020,0.020,0.020,0.000,0.000,0.000
1644887375854536960,2022-02-15-01:09:35,10.1.1.2,24,0.010,0.010,0.010,0.000,0.000,0.000
1644887375965720064,2022-02-15-01:09:35,10.1.1.2,39,-0.010,-0.010,-0.010,0.000,0.000,0.000
1644887376004986112,2022-02-15-01:09:36,10.1.1.2,28,-0.020,-0.020,-0.020,0.000,0.000,0.000
1644887376065654016,2022-02-15-01:09:36,10.1.1.2,37,-0.030,-0.030,-0.030,0.000,0.000,0.000
1644887376105611008,2022-02-15-01:09:36,10.1.1.2,26,-0.040,-0.040,-0.040,0.000,0.000,0.000
1644887376165648896,2022-02-15-01:09:36,10.1.1.2,35,-0.050,-0.050,-0.050,0.000,0.000,0.000
1644887376204855808,2022-02-15-01:09:36,10.1.1.2,23,-0.060,-0.060,-0.060,0.000,0.000,0.000
1644887376265026048,2022-02-15-01:09:36,10.1.1.2,32,-0.070,-0.070,-0.070,0.000,0.000,0.000
1644887376305532928,2022-02-15-01:09:36,10.1.1.2,21,-0.080,-0.080,-0.080,0.000,0.000,0.000
1644887376365256192,2022-02-15-01:09:36,10.1.1.2,30,-0.090,-0.090,-0.090,0.000,0.000,0.000
1644887376425424128,2022-02-15-01:09:36,10.1.1.2,39,-0.100,-0.100,-0.100,0.000,0.000,0.000
1644887376466445824,2022-02-15-01:09:36,10.1.1.2,27,-0.090,-0.090,-0.090,0.000,0.000,0.000
1644887376585056000,2022-02-15-01:09:36,10.1.1.2,44,-0.070,-0.070,-0.070,0.000,0.000,0.000
1644887376625606912,2022-02-15-01:09:36,10.1.1.2,33,-0.060,-0.060,-0.060,0.000,0.000,0.000
1644887376665005824,2022-02-15-01:09:36,10.1.1.2,22,-0.050,-0.050,-0.050,0.000,0.000,0.000
1644887376729246976,2022-02-15-01:09:36,10.1.1.2,35,-0.040,-0.040,-0.040,0.000,0.000,0.000
1644887376784801024,2022-02-15-01:09:36,10.1.1.2,41,-0.030,-0.030,-0.030,0.000,0.000,0.000
1644887376824640000,2022-02-15-01:09:36,10.1.1.2,30,-0.020,-0.020,-0.020,0.000,0.000,0.000
1644887376886807808,2022-02-15-01:09:36,10.1.1.2,39,-0.010,-0.010,-0.010,0.000,0.000,0.000
1644887376929476864,2022-02-15-01:09:36,10.1.1.2,30,0.000,0.000,0.000,0.000,0.000,0.000
1644887376985074944,2022-02-15-01:09:36,10.1.1.2,35,0.010,0.010,0.010,0.000,0.000,0.000
1644887377026168064,2022-02-15-01:09:37,10.1.1.2,24,0.020,0.020,0.020,0.000,0.000,0.000
1644887377085519104,2022-02-15-01:09:37,10.1.1.2,32,0.030,0.030,0.030,0.000,0.000,0.000
1644887377125459968,2022-02-15-01:09:37,10.1.1.2,21,0.040,0.040,0.040,0.000,0.000,0.000
1644887377191028992,2022-02-15-01:09:37,10.1.1.2,32,0.050,0.050,0.050,0.000,0.000,0.000
1644887377244709888,2022-02-15-01:09:37,10.1.1.2,38,0.060,0.060,0.060,0.000,0.000,0.000
1644887377284656128,2022-02-15-01:09:37,10.1.1.2,27,0.070,0.070,0.070,0.000,0.000,0.000
1644887377345101056,2022-02-15-01:09:37,10.1.1.2,35,0.080,0.080,0.080,0.000,0.000,0.000
1644887377388645888,2022-02-15-01:09:37,10.1.1.2,26,0.090,0.090,0.090,0.000,0.000,0.000
1644887377444535040,2022-02-15-01:09:37,10.1.1.2,33,0.100,0.100,0.100,0.000,0.000,0.000
1644887377486615808,2022-02-15-01:09:37,10.1.1.2,24,0.090,0.090,0.090,0.000,0.000,0.000
1644887377544354048,2022-02-15-01:09:37,10.1.1.2,31,0.080,0.080,0.080,0.000,0.000,0.000
1644887377584478976,2022-02-15-01:09:37,10.1.1.2,21,0.070,0.070,0.070,0.000,0.000,0.000
1644887377644803072,2022-02-15-01:09:37,10.1.1.2,30,0.060,0.060,0.060,0.000,0.000,0.000
1644887377744519936,2022-02-15-01:09:37,10.1.1.2,27,0.040,0.040,0.040,0.000,0.000,0.000
1644887377804932096,2022-02-15-01:09:37,10.1.1.2,36,0.030,0.030,0.030,0.000,0.000,0.000
1644887377846467072,2022-02-15-01:09:37,10.1.1.2,24,0.020,0.020,0.020,0.000,0.000,0.000
1644887377904966144,2022-02-15-01:09:37,10.1.1.2,34,0.010,0.010,0.010,0.000,0.000,0.000
1644887377964291072,2022-02-15-01:09:37,10.1.1.2,43,0.000,0.000,0.000,0.000,0.000,0.000
1644887378004986880,2022-02-15-01:09:38,10.1.1.2,33,-0.010,-0.010,-0.010,0.000,0.000,0.000
1644887378045079040,2022-02-15-01:09:38,10.1.1.2,22,-0.020,-0.020,-0.020,0.000,0.000,0.000
1644887378105428992,2022-02-15-01:09:38,10.1.1.2,32,-0.030,-0.030,-0.030,0.000,0.000,0.000
1644887378145477120,2022-02-15-01:09:38,10.1.1.2,21,-0.040,-0.040,-0.040,0.000,0.000,0.000
1644887378205088000,2022-02-15-01:09:38,10.1.1.2,30,-0.050,-0.050,-0.050,0.000,0.000,0.000
1644887378304466944,2022-02-15-01:09:38,10.1.1.2,28,-0.070,-0.070,-0.070,0.000,0.000,0.000
1644887378364451840,2022-02-15-01:09:38,10.1.1.2,38,-0.080,-0.080,-0.080,0.000,0.000,0.000
1644887378404043008,2022-02-15-01:09:38,10.1.1.2,26,-0.090,-0.090,-0.090,0.000,0.000,0.000
1644887378464273920,2022-02-15-01:09:38,10.1.1.2,35,-0.100,-0.100,-0.100,0.000,0.000,0.000
1644887378504975104,2022-02-15-01:09:38,10.1.1.2,25,-0.090,-0.090,-0.090,0.000,0.000,0.000
1644887378565440000,2022-02-15-01:09:38,10.1.1.2,30,-0.080,-0.080,-0.080,0.000,0.000,0.000
1644887378665164032,2022-02-15-01:09:38,10.1.1.2,29,-0.060,-0.060,-0.060,0.000,0.000,0.000
1644887378725160960,2022-02-15-01:09:38,10.1.1.2,38,-0.050,-0.050,-0.050,0.000,0.000,0.000
1644887378764830208,2022-02-15-01:09:38,10.1.1.2,26,-0.040,-0.040,-0.040,0.000,0.000,0.000
1644887378825208832,2022-02-15-01:09:38,10.1.1.2,35,-0.030,-0.030,-0.030,0.000,0.000,0.000
1644887378865030144,2022-02-15-01:09:38,10.1.1.2,24,-0.020,-0.020,-0.020,0.000,0.000,0.000
1644887378924858112,2022-02-15-01:09:38,10.1.1.2,33,-0.010,-0.010,-0.010,0.000,0.000,0.000
1644887378964300032,2022-02-15-01:09:38,10.1.1.2,22,0.000,0.000,0.000,0.000,0.000,0.000
1644887379024823040,2022-02-15-01:09:39,10.1.1.2,32,0.010,0.010,0.010,0.000,0.000,0.000
1644887379064768000,2022-02-15-01:09:39,10.1.1.2,21,0.020,0.020,0.020,0.000,0.000,0.000
1644887379124011008,2022-02-15-01:09:39,10.1.1.2,31,0.030,0.030,0.030,0.000,0.000,0.000
1644887379184230144,2022-02-15-01:09:39,10.1.1.2,38,0.040,0.040,0.040,0.000,0.000,0.000
