FedericoMungari/DigitalTwin_service/01_WiredScenario/Output/Output_script/script_rosapi_2_output_robots12_freq0_3.txt
timestamp,date,node,latency,joint_1,joint_2,joint_3,joint_4,joint_5,joint_6
1641234781241270016,2022-01-03-18:33:01,10.1.1.4,170,-0.010,-0.010,-0.010,0.000,0.000,0.000
1641234781441085952,2022-01-03-18:33:01,10.1.1.4,169,-0.020,-0.020,-0.020,0.000,0.000,0.000
1641234781656385792,2022-01-03-18:33:01,10.1.1.4,181,-0.030,-0.030,-0.030,0.000,0.000,0.000
1641234781846054912,2022-01-03-18:33:01,10.1.1.4,168,-0.040,-0.040,-0.040,0.000,0.000,0.000
1641234782040216832,2022-01-03-18:33:02,10.1.1.4,163,-0.050,-0.050,-0.050,0.000,0.000,0.000
1641234782240976128,2022-01-03-18:33:02,10.1.1.4,163,-0.060,-0.060,-0.060,0.000,0.000,0.000
1641234782460050944,2022-01-03-18:33:02,10.1.1.4,181,-0.070,-0.070,-0.070,0.000,0.000,0.000
1641234782658985984,2022-01-03-18:33:02,10.1.1.4,180,-0.080,-0.080,-0.080,0.000,0.000,0.000
1641234782859674880,2022-01-03-18:33:02,10.1.1.4,180,-0.090,-0.090,-0.090,0.000,0.000,0.000
1641234783058882048,2022-01-03-18:33:03,10.1.1.4,177,-0.100,-0.100,-0.100,0.000,0.000,0.000
1641234783259138048,2022-01-03-18:33:03,10.1.1.4,176,-0.110,-0.110,-0.110,0.000,0.000,0.000
1641234783458014976,2022-01-03-18:33:03,10.1.1.4,175,-0.120,-0.120,-0.120,0.000,0.000,0.000
1641234783659294976,2022-01-03-18:33:03,10.1.1.4,176,-0.130,-0.130,-0.130,0.000,0.000,0.000
1641234783857861120,2022-01-03-18:33:03,10.1.1.4,173,-0.140,-0.140,-0.140,0.000,0.000,0.000
1641234784056780032,2022-01-03-18:33:04,10.1.1.4,171,-0.150,-0.150,-0.150,0.000,0.000,0.000
1641234784256156928,2022-01-03-18:33:04,10.1.1.4,170,-0.160,-0.160,-0.160,0.000,0.000,0.000
1641234784455676928,2022-01-03-18:33:04,10.1.1.4,168,-0.170,-0.170,-0.170,0.000,0.000,0.000
1641234784655649024,2022-01-03-18:33:04,10.1.1.4,164,-0.180,-0.180,-0.180,0.000,0.000,0.000
1641234784857050880,2022-01-03-18:33:04,10.1.1.4,165,-0.190,-0.190,-0.190,0.000,0.000,0.000
1641234785056579072,2022-01-03-18:33:05,10.1.1.4,163,-0.200,-0.200,-0.200,0.000,0.000,0.000
1641234785254754048,2022-01-03-18:33:05,10.1.1.4,161,-0.210,-0.210,-0.210,0.000,0.000,0.000
1641234785454948864,2022-01-03-18:33:05,10.1.1.4,158,-0.220,-0.220,-0.220,0.000,0.000,0.000
1641234785654486016,2022-01-03-18:33:05,10.1.1.4,157,-0.230,-0.230,-0.230,0.000,0.000,0.000
1641234785874228992,2022-01-03-18:33:05,10.1.1.4,176,-0.240,-0.240,-0.240,0.000,0.000,0.000
1641234786073719040,2022-01-03-18:33:06,10.1.1.4,174,-0.250,-0.250,-0.250,0.000,0.000,0.000
1641234786274601984,2022-01-03-18:33:06,10.1.1.4,174,-0.260,-0.260,-0.260,0.000,0.000,0.000
1641234786473246976,2022-01-03-18:33:06,10.1.1.4,172,-0.270,-0.270,-0.270,0.000,0.000,0.000
1641234786672292864,2022-01-03-18:33:06,10.1.1.4,170,-0.280,-0.280,-0.280,0.000,0.000,0.000
1641234786873742080,2022-01-03-18:33:06,10.1.1.4,171,-0.290,-0.290,-0.290,0.000,0.000,0.000
1641234787073659904,2022-01-03-18:33:07,10.1.1.4,168,-0.300,-0.300,-0.300,0.000,0.000,0.000
1641234787271334912,2022-01-03-18:33:07,10.1.1.4,165,-0.310,-0.310,-0.310,0.000,0.000,0.000
1641234787471175936,2022-01-03-18:33:07,10.1.1.4,164,-0.320,-0.320,-0.320,0.000,0.000,0.000
1641234787671490048,2022-01-03-18:33:07,10.1.1.4,164,-0.330,-0.330,-0.330,0.000,0.000,0.000
1641234787871666944,2022-01-03-18:33:07,10.1.1.4,157,-0.340,-0.340,-0.340,0.000,0.000,0.000
1641234788073422848,2022-01-03-18:33:08,10.1.1.4,158,-0.350,-0.350,-0.350,0.000,0.000,0.000
1641234788273771008,2022-01-03-18:33:08,10.1.1.4,157,-0.360,-0.360,-0.360,0.000,0.000,0.000
1641234788474348032,2022-01-03-18:33:08,10.1.1.4,157,-0.370,-0.370,-0.370,0.000,0.000,0.000
1641234788676826112,2022-01-03-18:33:08,10.1.1.4,157,-0.380,-0.380,-0.380,0.000,0.000,0.000
1641234788897670912,2022-01-03-18:33:08,10.1.1.4,179,-0.390,-0.390,-0.390,0.000,0.000,0.000
1641234789098669056,2022-01-03-18:33:09,10.1.1.4,179,-0.400,-0.400,-0.400,0.000,0.000,0.000
1641234789300194048,2022-01-03-18:33:09,10.1.1.4,180,-0.410,-0.410,-0.410,0.000,0.000,0.000
1641234789501177088,2022-01-03-18:33:09,10.1.1.4,180,-0.420,-0.420,-0.420,0.000,0.000,0.000
1641234789703345920,2022-01-03-18:33:09,10.1.1.4,181,-0.430,-0.430,-0.430,0.000,0.000,0.000
1641234789903745792,2022-01-03-18:33:09,10.1.1.4,181,-0.440,-0.440,-0.440,0.000,0.000,0.000
1641234790105467136,2022-01-03-18:33:10,10.1.1.4,181,-0.450,-0.450,-0.450,0.000,0.000,0.000
1641234790305721088,2022-01-03-18:33:10,10.1.1.4,181,-0.460,-0.460,-0.460,0.000,0.000,0.000
1641234790507286016,2022-01-03-18:33:10,10.1.1.4,181,-0.470,-0.470,-0.470,0.000,0.000,0.000
1641234790707717888,2022-01-03-18:33:10,10.1.1.4,180,-0.480,-0.480,-0.480,0.000,0.000,0.000
1641234790909580032,2022-01-03-18:33:10,10.1.1.4,180,-0.490,-0.490,-0.490,0.000,0.000,0.000
1641234791110836992,2022-01-03-18:33:11,10.1.1.4,181,-0.480,-0.480,-0.480,0.000,0.000,0.000
1641234791310978816,2022-01-03-18:33:11,10.1.1.4,181,-0.470,-0.470,-0.470,0.000,0.000,0.000
1641234791514247936,2022-01-03-18:33:11,10.1.1.4,182,-0.460,-0.460,-0.460,0.000,0.000,0.000
1641234791714070016,2022-01-03-18:33:11,10.1.1.4,181,-0.450,-0.450,-0.450,0.000,0.000,0.000
1641234791914729216,2022-01-03-18:33:11,10.1.1.4,180,-0.440,-0.440,-0.440,0.000,0.000,0.000
1641234792114626048,2022-01-03-18:33:12,10.1.1.4,179,-0.430,-0.430,-0.430,0.000,0.000,0.000
1641234792315047936,2022-01-03-18:33:12,10.1.1.4,178,-0.420,-0.420,-0.420,0.000,0.000,0.000
1641234792515958016,2022-01-03-18:33:12,10.1.1.4,178,-0.410,-0.410,-0.410,0.000,0.000,0.000
1641234792938321152,2022-01-03-18:33:12,10.1.1.4,199,-0.390,-0.390,-0.390,0.000,0.000,0.000
1641234793137521152,2022-01-03-18:33:13,10.1.1.4,194,-0.380,-0.380,-0.380,0.000,0.000,0.000
1641234793339545088,2022-01-03-18:33:13,10.1.1.4,195,-0.370,-0.370,-0.370,0.000,0.000,0.000
1641234793538945024,2022-01-03-18:33:13,10.1.1.4,194,-0.360,-0.360,-0.360,0.000,0.000,0.000
1641234793738611968,2022-01-03-18:33:13,10.1.1.4,193,-0.350,-0.350,-0.350,0.000,0.000,0.000
1641234793940416000,2022-01-03-18:33:13,10.1.1.4,194,-0.340,-0.340,-0.340,0.000,0.000,0.000
1641234794140003840,2022-01-03-18:33:14,10.1.1.4,192,-0.330,-0.330,-0.330,0.000,0.000,0.000
1641234794343406848,2022-01-03-18:33:14,10.1.1.4,195,-0.320,-0.320,-0.320,0.000,0.000,0.000
1641234794542120960,2022-01-03-18:33:14,10.1.1.4,193,-0.310,-0.310,-0.310,0.000,0.000,0.000
1641234794742414080,2022-01-03-18:33:14,10.1.1.4,192,-0.300,-0.300,-0.300,0.000,0.000,0.000
1641234794942974208,2022-01-03-18:33:14,10.1.1.4,192,-0.290,-0.290,-0.290,0.000,0.000,0.000
1641234795143342848,2022-01-03-18:33:15,10.1.1.4,192,-0.280,-0.280,-0.280,0.000,0.000,0.000
1641234795343130112,2022-01-03-18:33:15,10.1.1.4,191,-0.270,-0.270,-0.270,0.000,0.000,0.000
1641234795543930880,2022-01-03-18:33:15,10.1.1.4,191,-0.260,-0.260,-0.260,0.000,0.000,0.000
1641234796767680000,2022-01-03-18:33:16,10.1.1.4,200,-0.200,-0.200,-0.200,0.000,0.000,0.000
1641234796966601984,2022-01-03-18:33:16,10.1.1.4,198,-0.190,-0.190,-0.190,0.000,0.000,0.000
1641234797366174976,2022-01-03-18:33:17,10.1.1.4,189,-0.170,-0.170,-0.170,0.000,0.000,0.000
1641234797786032896,2022-01-03-18:33:17,10.1.1.4,206,-0.150,-0.150,-0.150,0.000,0.000,0.000
1641234797986771200,2022-01-03-18:33:17,10.1.1.4,199,-0.140,-0.140,-0.140,0.000,0.000,0.000
1641234798189067008,2022-01-03-18:33:18,10.1.1.4,199,-0.130,-0.130,-0.130,0.000,0.000,0.000
1641234798390011136,2022-01-03-18:33:18,10.1.1.4,192,-0.120,-0.120,-0.120,0.000,0.000,0.000
1641234798592407040,2022-01-03-18:33:18,10.1.1.4,196,-0.110,-0.110,-0.110,0.000,0.000,0.000
1641234798788038912,2022-01-03-18:33:18,10.1.1.4,191,-0.100,-0.100,-0.100,0.000,0.000,0.000
1641234798988073984,2022-01-03-18:33:18,10.1.1.4,191,-0.090,-0.090,-0.090,0.000,0.000,0.000
1641234801210531072,2022-01-03-18:33:21,10.1.1.4,201,-0.020,-0.020,-0.020,0.000,0.000,0.000
1641234801409154048,2022-01-03-18:33:21,10.1.1.4,198,-0.030,-0.030,-0.030,0.000,0.000,0.000
1641234801610869760,2022-01-03-18:33:21,10.1.1.4,199,-0.040,-0.040,-0.040,0.000,0.000,0.000
1641234801809428992,2022-01-03-18:33:21,10.1.1.4,194,-0.050,-0.050,-0.050,0.000,0.000,0.000
1641234802012582144,2022-01-03-18:33:22,10.1.1.4,193,-0.060,-0.060,-0.060,0.000,0.000,0.000
1641234802208182016,2022-01-03-18:33:22,10.1.1.4,190,-0.070,-0.070,-0.070,0.000,0.000,0.000
1641234803427174144,2022-01-03-18:33:23,10.1.1.4,198,-0.130,-0.130,-0.130,0.000,0.000,0.000
1641234803627429888,2022-01-03-18:33:23,10.1.1.4,197,-0.140,-0.140,-0.140,0.000,0.000,0.000
1641234803827048960,2022-01-03-18:33:23,10.1.1.4,195,-0.150,-0.150,-0.150,0.000,0.000,0.000
1641234804030818816,2022-01-03-18:33:24,10.1.1.4,198,-0.160,-0.160,-0.160,0.000,0.000,0.000
1641234805248241920,2022-01-03-18:33:25,10.1.1.4,190,-0.220,-0.220,-0.220,0.000,0.000,0.000
1641234805885541888,2022-01-03-18:33:25,10.1.1.4,200,-0.250,-0.250,-0.250,0.000,0.000,0.000
1641234806090603008,2022-01-03-18:33:26,10.1.1.4,200,-0.260,-0.260,-0.260,0.000,0.000,0.000
1641234806286688000,2022-01-03-18:33:26,10.1.1.4,199,-0.270,-0.270,-0.270,0.000,0.000,0.000
1641234807104096000,2022-01-03-18:33:27,10.1.1.4,200,-0.310,-0.310,-0.310,0.000,0.000,0.000
1641234807504739072,2022-01-03-18:33:27,10.1.1.4,198,-0.330,-0.330,-0.330,0.000,0.000,0.000
1641234807705221888,2022-01-03-18:33:27,10.1.1.4,198,-0.340,-0.340,-0.340,0.000,0.000,0.000
1641234807903902976,2022-01-03-18:33:27,10.1.1.4,193,-0.350,-0.350,-0.350,0.000,0.000,0.000
1641234808103538944,2022-01-03-18:33:28,10.1.1.4,192,-0.360,-0.360,-0.360,0.000,0.000,0.000
1641234808304427008,2022-01-03-18:33:28,10.1.1.4,190,-0.370,-0.370,-0.370,0.000,0.000,0.000
1641234808508657920,2022-01-03-18:33:28,10.1.1.4,195,-0.380,-0.380,-0.380,0.000,0.000,0.000
1641234808703521024,2022-01-03-18:33:28,10.1.1.4,188,-0.390,-0.390,-0.390,0.000,0.000,0.000
1641234808903173888,2022-01-03-18:33:28,10.1.1.4,187,-0.400,-0.400,-0.400,0.000,0.000,0.000
1641234809105010944,2022-01-03-18:33:29,10.1.1.4,188,-0.410,-0.410,-0.410,0.000,0.000,0.000
1641234809302562048,2022-01-03-18:33:29,10.1.1.4,185,-0.420,-0.420,-0.420,0.000,0.000,0.000
1641234809502620928,2022-01-03-18:33:29,10.1.1.4,185,-0.430,-0.430,-0.430,0.000,0.000,0.000
1641234809702323968,2022-01-03-18:33:29,10.1.1.4,184,-0.440,-0.440,-0.440,0.000,0.000,0.000
1641234810721640960,2022-01-03-18:33:30,10.1.1.4,198,-0.490,-0.490,-0.490,0.000,0.000,0.000
1641234810921145088,2022-01-03-18:33:30,10.1.1.4,198,-0.480,-0.480,-0.480,0.000,0.000,0.000
1641234811116523008,2022-01-03-18:33:31,10.1.1.4,192,-0.470,-0.470,-0.470,0.000,0.000,0.000
1641234811320965120,2022-01-03-18:33:31,10.1.1.4,196,-0.460,-0.460,-0.460,0.000,0.000,0.000
1641234811520555008,2022-01-03-18:33:31,10.1.1.4,195,-0.450,-0.450,-0.450,0.000,0.000,0.000
1641234811721381888,2022-01-03-18:33:31,10.1.1.4,195,-0.440,-0.440,-0.440,0.000,0.000,0.000
1641234811918991104,2022-01-03-18:33:31,10.1.1.4,192,-0.430,-0.430,-0.430,0.000,0.000,0.000
1641234812119479808,2022-01-03-18:33:32,10.1.1.4,192,-0.420,-0.420,-0.420,0.000,0.000,0.000
1641234812320229888,2022-01-03-18:33:32,10.1.1.4,192,-0.410,-0.410,-0.410,0.000,0.000,0.000
1641234812519269888,2022-01-03-18:33:32,10.1.1.4,190,-0.400,-0.400,-0.400,0.000,0.000,0.000
1641234812722042112,2022-01-03-18:33:32,10.1.1.4,189,-0.390,-0.390,-0.390,0.000,0.000,0.000
1641234812920865024,2022-01-03-18:33:32,10.1.1.4,187,-0.380,-0.380,-0.380,0.000,0.000,0.000
1641234813538560000,2022-01-03-18:33:33,10.1.1.4,195,-0.350,-0.350,-0.350,0.000,0.000,0.000
1641234813740356096,2022-01-03-18:33:33,10.1.1.4,186,-0.340,-0.340,-0.340,0.000,0.000,0.000
1641234813944803840,2022-01-03-18:33:33,10.1.1.4,191,-0.330,-0.330,-0.330,0.000,0.000,0.000
1641234814138066944,2022-01-03-18:33:34,10.1.1.4,184,-0.320,-0.320,-0.320,0.000,0.000,0.000
1641234814336622848,2022-01-03-18:33:34,10.1.1.4,179,-0.310,-0.310,-0.310,0.000,0.000,0.000
1641234814554852864,2022-01-03-18:33:34,10.1.1.4,195,-0.300,-0.300,-0.300,0.000,0.000,0.000
1641234814754688000,2022-01-03-18:33:34,10.1.1.4,194,-0.290,-0.290,-0.290,0.000,0.000,0.000
1641234814954454016,2022-01-03-18:33:34,10.1.1.4,194,-0.280,-0.280,-0.280,0.000,0.000,0.000
1641234815156604928,2022-01-03-18:33:35,10.1.1.4,195,-0.270,-0.270,-0.270,0.000,0.000,0.000
1641234815353952000,2022-01-03-18:33:35,10.1.1.4,190,-0.260,-0.260,-0.260,0.000,0.000,0.000
1641234815554040064,2022-01-03-18:33:35,10.1.1.4,190,-0.250,-0.250,-0.250,0.000,0.000,0.000
1641234815753555968,2022-01-03-18:33:35,10.1.1.4,188,-0.240,-0.240,-0.240,0.000,0.000,0.000
1641234815953319168,2022-01-03-18:33:35,10.1.1.4,188,-0.230,-0.230,-0.230,0.000,0.000,0.000
1641234816152615168,2022-01-03-18:33:36,10.1.1.4,186,-0.220,-0.220,-0.220,0.000,0.000,0.000
1641234816353432064,2022-01-03-18:33:36,10.1.1.4,186,-0.210,-0.210,-0.210,0.000,0.000,0.000
1641234816553311232,2022-01-03-18:33:36,10.1.1.4,186,-0.200,-0.200,-0.200,0.000,0.000,0.000
1641234816751846912,2022-01-03-18:33:36,10.1.1.4,184,-0.190,-0.190,-0.190,0.000,0.000,0.000
1641234816951824896,2022-01-03-18:33:36,10.1.1.4,183,-0.180,-0.180,-0.180,0.000,0.000,0.000
1641234817151296000,2022-01-03-18:33:37,10.1.1.4,182,-0.170,-0.170,-0.170,0.000,0.000,0.000
1641234817350963968,2022-01-03-18:33:37,10.1.1.4,181,-0.160,-0.160,-0.160,0.000,0.000,0.000
1641234817551603200,2022-01-03-18:33:37,10.1.1.4,181,-0.150,-0.150,-0.150,0.000,0.000,0.000
1641234817750338048,2022-01-03-18:33:37,10.1.1.4,179,-0.140,-0.140,-0.140,0.000,0.000,0.000
1641234817950042112,2022-01-03-18:33:37,10.1.1.4,176,-0.130,-0.130,-0.130,0.000,0.000,0.000
1641234818149826048,2022-01-03-18:33:38,10.1.1.4,175,-0.120,-0.120,-0.120,0.000,0.000,0.000
1641234818350172160,2022-01-03-18:33:38,10.1.1.4,175,-0.110,-0.110,-0.110,0.000,0.000,0.000
1641234818549094912,2022-01-03-18:33:38,10.1.1.4,173,-0.100,-0.100,-0.100,0.000,0.000,0.000
1641234818751080960,2022-01-03-18:33:38,10.1.1.4,175,-0.090,-0.090,-0.090,0.000,0.000,0.000
1641234818949188864,2022-01-03-18:33:38,10.1.1.4,172,-0.080,-0.080,-0.080,0.000,0.000,0.000
1641234819148720128,2022-01-03-18:33:39,10.1.1.4,171,-0.070,-0.070,-0.070,0.000,0.000,0.000
1641234819349239040,2022-01-03-18:33:39,10.1.1.4,171,-0.060,-0.060,-0.060,0.000,0.000,0.000
1641234819568445952,2022-01-03-18:33:39,10.1.1.4,190,-0.050,-0.050,-0.050,0.000,0.000,0.000
1641234819768569088,2022-01-03-18:33:39,10.1.1.4,190,-0.040,-0.040,-0.040,0.000,0.000,0.000
1641234819970630912,2022-01-03-18:33:39,10.1.1.4,189,-0.030,-0.030,-0.030,0.000,0.000,0.000
1641234820167885056,2022-01-03-18:33:40,10.1.1.4,185,-0.020,-0.020,-0.020,0.000,0.000,0.000
1641234820371588096,2022-01-03-18:33:40,10.1.1.4,188,-0.010,-0.010,-0.010,0.000,0.000,0.000
1641234820569411072,2022-01-03-18:33:40,10.1.1.4,186,0.000,0.000,0.000,0.000,0.000,0.000
1641234820793453824,2022-01-03-18:33:40,10.1.1.4,190,-0.010,-0.010,-0.010,0.000,0.000,0.000
1641234820977693952,2022-01-03-18:33:40,10.1.1.4,184,-0.020,-0.020,-0.020,0.000,0.000,0.000
1641234821187963136,2022-01-03-18:33:41,10.1.1.4,184,-0.030,-0.030,-0.030,0.000,0.000,0.000
1641234821391058944,2022-01-03-18:33:41,10.1.1.4,182,-0.040,-0.040,-0.040,0.000,0.000,0.000
1641234821588216064,2022-01-03-18:33:41,10.1.1.4,178,-0.050,-0.050,-0.050,0.000,0.000,0.000
1641234821788628992,2022-01-03-18:33:41,10.1.1.4,176,-0.060,-0.060,-0.060,0.000,0.000,0.000
1641234821989176064,2022-01-03-18:33:41,10.1.1.4,176,-0.070,-0.070,-0.070,0.000,0.000,0.000
1641234822191117056,2022-01-03-18:33:42,10.1.1.4,177,-0.080,-0.080,-0.080,0.000,0.000,0.000
1641234822389425920,2022-01-03-18:33:42,10.1.1.4,174,-0.090,-0.090,-0.090,0.000,0.000,0.000
1641234822590230016,2022-01-03-18:33:42,10.1.1.4,173,-0.100,-0.100,-0.100,0.000,0.000,0.000
1641234822810313984,2022-01-03-18:33:42,10.1.1.4,192,-0.110,-0.110,-0.110,0.000,0.000,0.000
1641234823010696960,2022-01-03-18:33:43,10.1.1.4,192,-0.120,-0.120,-0.120,0.000,0.000,0.000
1641234823210576896,2022-01-03-18:33:43,10.1.1.4,191,-0.130,-0.130,-0.130,0.000,0.000,0.000
1641234823410525184,2022-01-03-18:33:43,10.1.1.4,189,-0.140,-0.140,-0.140,0.000,0.000,0.000
1641234823609129984,2022-01-03-18:33:43,10.1.1.4,186,-0.150,-0.150,-0.150,0.000,0.000,0.000
1641234824033154048,2022-01-03-18:33:44,10.1.1.4,181,-0.170,-0.170,-0.170,0.000,0.000,0.000
1641234824249280000,2022-01-03-18:33:44,10.1.1.4,187,-0.180,-0.180,-0.180,0.000,0.000,0.000
1641234824450628096,2022-01-03-18:33:44,10.1.1.4,188,-0.190,-0.190,-0.190,0.000,0.000,0.000
1641234824649454080,2022-01-03-18:33:44,10.1.1.4,185,-0.200,-0.200,-0.200,0.000,0.000,0.000
1641234824849677056,2022-01-03-18:33:44,10.1.1.4,185,-0.210,-0.210,-0.210,0.000,0.000,0.000
1641234825049464832,2022-01-03-18:33:45,10.1.1.4,184,-0.220,-0.220,-0.220,0.000,0.000,0.000
1641234825249225984,2022-01-03-18:33:45,10.1.1.4,183,-0.230,-0.230,-0.230,0.000,0.000,0.000
1641234825450962944,2022-01-03-18:33:45,10.1.1.4,185,-0.240,-0.240,-0.240,0.000,0.000,0.000
1641234825643495936,2022-01-03-18:33:45,10.1.1.4,177,-0.250,-0.250,-0.250,0.000,0.000,0.000
1641234825844299008,2022-01-03-18:33:45,10.1.1.4,176,-0.260,-0.260,-0.260,0.000,0.000,0.000
1641234826044428032,2022-01-03-18:33:46,10.1.1.4,175,-0.270,-0.270,-0.270,0.000,0.000,0.000
1641234826243812096,2022-01-03-18:33:46,10.1.1.4,173,-0.280,-0.280,-0.280,0.000,0.000,0.000
1641234826446934016,2022-01-03-18:33:46,10.1.1.4,175,-0.290,-0.290,-0.290,0.000,0.000,0.000
1641234826643575808,2022-01-03-18:33:46,10.1.1.4,172,-0.300,-0.300,-0.300,0.000,0.000,0.000
1641234826863246848,2022-01-03-18:33:46,10.1.1.4,191,-0.310,-0.310,-0.310,0.000,0.000,0.000
1641234827063867136,2022-01-03-18:33:47,10.1.1.4,190,-0.320,-0.320,-0.320,0.000,0.000,0.000
1641234827265338880,2022-01-03-18:33:47,10.1.1.4,191,-0.330,-0.330,-0.330,0.000,0.000,0.000
1641234827467119104,2022-01-03-18:33:47,10.1.1.4,191,-0.340,-0.340,-0.340,0.000,0.000,0.000
1641234827663549952,2022-01-03-18:33:47,10.1.1.4,187,-0.350,-0.350,-0.350,0.000,0.000,0.000
1641234827867191040,2022-01-03-18:33:47,10.1.1.4,189,-0.360,-0.360,-0.360,0.000,0.000,0.000
1641234828063546880,2022-01-03-18:33:48,10.1.1.4,185,-0.370,-0.370,-0.370,0.000,0.000,0.000
1641234828264800000,2022-01-03-18:33:48,10.1.1.4,186,-0.380,-0.380,-0.380,0.000,0.000,0.000
1641234828464976128,2022-01-03-18:33:48,10.1.1.4,185,-0.390,-0.390,-0.390,0.000,0.000,0.000
1641234828663804928,2022-01-03-18:33:48,10.1.1.4,183,-0.400,-0.400,-0.400,0.000,0.000,0.000
1641234828863543040,2022-01-03-18:33:48,10.1.1.4,182,-0.410,-0.410,-0.410,0.000,0.000,0.000
1641234829063940096,2022-01-03-18:33:49,10.1.1.4,182,-0.420,-0.420,-0.420,0.000,0.000,0.000
1641234829263919104,2022-01-03-18:33:49,10.1.1.4,181,-0.430,-0.430,-0.430,0.000,0.000,0.000
1641234829463768064,2022-01-03-18:33:49,10.1.1.4,180,-0.440,-0.440,-0.440,0.000,0.000,0.000
1641234829677007872,2022-01-03-18:33:49,10.1.1.4,187,-0.450,-0.450,-0.450,0.000,0.000,0.000
1641234829863796992,2022-01-03-18:33:49,10.1.1.4,178,-0.460,-0.460,-0.460,0.000,0.000,0.000
1641234830063425024,2022-01-03-18:33:50,10.1.1.4,176,-0.470,-0.470,-0.470,0.000,0.000,0.000
1641234830263386880,2022-01-03-18:33:50,10.1.1.4,174,-0.480,-0.480,-0.480,0.000,0.000,0.000
1641234830463458048,2022-01-03-18:33:50,10.1.1.4,173,-0.490,-0.490,-0.490,0.000,0.000,0.000
1641234830691086080,2022-01-03-18:33:50,10.1.1.4,200,-0.480,-0.480,-0.480,0.000,0.000,0.000
1641234830896840192,2022-01-03-18:33:50,10.1.1.4,204,-0.470,-0.470,-0.470,0.000,0.000,0.000
1641234831104137984,2022-01-03-18:33:51,10.1.1.4,187,-0.460,-0.460,-0.460,0.000,0.000,0.000
1641234831303601152,2022-01-03-18:33:51,10.1.1.4,185,-0.450,-0.450,-0.450,0.000,0.000,0.000
1641234831503106048,2022-01-03-18:33:51,10.1.1.4,184,-0.440,-0.440,-0.440,0.000,0.000,0.000
1641234831702743040,2022-01-03-18:33:51,10.1.1.4,183,-0.430,-0.430,-0.430,0.000,0.000,0.000
1641234831904236032,2022-01-03-18:33:51,10.1.1.4,182,-0.420,-0.420,-0.420,0.000,0.000,0.000
1641234832106624000,2022-01-03-18:33:52,10.1.1.4,183,-0.410,-0.410,-0.410,0.000,0.000,0.000
1641234832301999104,2022-01-03-18:33:52,10.1.1.4,177,-0.400,-0.400,-0.400,0.000,0.000,0.000
1641234832505649920,2022-01-03-18:33:52,10.1.1.4,179,-0.390,-0.390,-0.390,0.000,0.000,0.000
1641234832701456128,2022-01-03-18:33:52,10.1.1.4,173,-0.380,-0.380,-0.380,0.000,0.000,0.000
1641234832901249024,2022-01-03-18:33:52,10.1.1.4,173,-0.370,-0.370,-0.370,0.000,0.000,0.000
1641234833101457152,2022-01-03-18:33:53,10.1.1.4,172,-0.360,-0.360,-0.360,0.000,0.000,0.000
1641234833301721088,2022-01-03-18:33:53,10.1.1.4,171,-0.350,-0.350,-0.350,0.000,0.000,0.000
1641234833530270976,2022-01-03-18:33:53,10.1.1.4,187,-0.340,-0.340,-0.340,0.000,0.000,0.000
1641234833722078208,2022-01-03-18:33:53,10.1.1.4,177,-0.330,-0.330,-0.330,0.000,0.000,0.000
1641234833921816064,2022-01-03-18:33:53,10.1.1.4,176,-0.320,-0.320,-0.320,0.000,0.000,0.000
1641234834122107904,2022-01-03-18:33:54,10.1.1.4,175,-0.310,-0.310,-0.310,0.000,0.000,0.000
1641234834321393920,2022-01-03-18:33:54,10.1.1.4,173,-0.300,-0.300,-0.300,0.000,0.000,0.000
1641234834522638080,2022-01-03-18:33:54,10.1.1.4,174,-0.290,-0.290,-0.290,0.000,0.000,0.000
1641234834721507072,2022-01-03-18:33:54,10.1.1.4,171,-0.280,-0.280,-0.280,0.000,0.000,0.000
1641234834921524992,2022-01-03-18:33:54,10.1.1.4,170,-0.270,-0.270,-0.270,0.000,0.000,0.000
1641234835149036800,2022-01-03-18:33:55,10.1.1.4,188,-0.260,-0.260,-0.260,0.000,0.000,0.000
1641234835340401920,2022-01-03-18:33:55,10.1.1.4,176,-0.250,-0.250,-0.250,0.000,0.000,0.000
1641234835541434880,2022-01-03-18:33:55,10.1.1.4,177,-0.240,-0.240,-0.240,0.000,0.000,0.000
1641234835739928064,2022-01-03-18:33:55,10.1.1.4,174,-0.230,-0.230,-0.230,0.000,0.000,0.000
1641234835944160000,2022-01-03-18:33:55,10.1.1.4,177,-0.220,-0.220,-0.220,0.000,0.000,0.000
1641234836139971072,2022-01-03-18:33:56,10.1.1.4,168,-0.210,-0.210,-0.210,0.000,0.000,0.000
1641234836359239168,2022-01-03-18:33:56,10.1.1.4,187,-0.200,-0.200,-0.200,0.000,0.000,0.000
1641234836559703040,2022-01-03-18:33:56,10.1.1.4,186,-0.190,-0.190,-0.190,0.000,0.000,0.000
1641234836759619072,2022-01-03-18:33:56,10.1.1.4,185,-0.180,-0.180,-0.180,0.000,0.000,0.000
1641234836958533120,2022-01-03-18:33:56,10.1.1.4,183,-0.170,-0.170,-0.170,0.000,0.000,0.000
1641234837158471168,2022-01-03-18:33:57,10.1.1.4,182,-0.160,-0.160,-0.160,0.000,0.000,0.000
1641234837358807040,2022-01-03-18:33:57,10.1.1.4,181,-0.150,-0.150,-0.150,0.000,0.000,0.000
1641234837558310912,2022-01-03-18:33:57,10.1.1.4,180,-0.140,-0.140,-0.140,0.000,0.000,0.000
1641234837762810112,2022-01-03-18:33:57,10.1.1.4,184,-0.130,-0.130,-0.130,0.000,0.000,0.000
1641234837957828096,2022-01-03-18:33:57,10.1.1.4,166,-0.120,-0.120,-0.120,0.000,0.000,0.000
1641234838177803008,2022-01-03-18:33:58,10.1.1.4,184,-0.110,-0.110,-0.110,0.000,0.000,0.000
1641234838377859072,2022-01-03-18:33:58,10.1.1.4,184,-0.100,-0.100,-0.100,0.000,0.000,0.000
1641234838577492992,2022-01-03-18:33:58,10.1.1.4,183,-0.090,-0.090,-0.090,0.000,0.000,0.000
1641234838788147968,2022-01-03-18:33:58,10.1.1.4,192,-0.080,-0.080,-0.080,0.000,0.000,0.000
1641234838979145984,2022-01-03-18:33:58,10.1.1.4,182,-0.070,-0.070,-0.070,0.000,0.000,0.000
1641234839177058816,2022-01-03-18:33:59,10.1.1.4,179,-0.060,-0.060,-0.060,0.000,0.000,0.000
1641234839376987904,2022-01-03-18:33:59,10.1.1.4,178,-0.050,-0.050,-0.050,0.000,0.000,0.000
1641234839577501184,2022-01-03-18:33:59,10.1.1.4,178,-0.040,-0.040,-0.040,0.000,0.000,0.000
1641234839777704960,2022-01-03-18:33:59,10.1.1.4,177,-0.030,-0.030,-0.030,0.000,0.000,0.000
1641234839976614912,2022-01-03-18:33:59,10.1.1.4,176,-0.020,-0.020,-0.020,0.000,0.000,0.000
1641234840180288000,2022-01-03-18:34:00,10.1.1.4,178,-0.010,-0.010,-0.010,0.000,0.000,0.000
1641234840377837056,2022-01-03-18:34:00,10.1.1.4,173,0.000,0.000,0.000,0.000,0.000,0.000
1641234840577579008,2022-01-03-18:34:00,10.1.1.4,170,-0.010,-0.010,-0.010,0.000,0.000,0.000
1641234840788218880,2022-01-03-18:34:00,10.1.1.4,181,-0.020,-0.020,-0.020,0.000,0.000,0.000
1641234840992775936,2022-01-03-18:34:00,10.1.1.4,182,-0.030,-0.030,-0.030,0.000,0.000,0.000
1641234841394996992,2022-01-03-18:34:01,10.1.1.4,170,-0.050,-0.050,-0.050,0.000,0.000,0.000
1641234841595230208,2022-01-03-18:34:01,10.1.1.4,169,-0.060,-0.060,-0.060,0.000,0.000,0.000
1641234841794235904,2022-01-03-18:34:01,10.1.1.4,168,-0.070,-0.070,-0.070,0.000,0.000,0.000
1641234841995803136,2022-01-03-18:34:01,10.1.1.4,169,-0.080,-0.080,-0.080,0.000,0.000,0.000
1641234842196795904,2022-01-03-18:34:02,10.1.1.4,168,-0.090,-0.090,-0.090,0.000,0.000,0.000
1641234842394370048,2022-01-03-18:34:02,10.1.1.4,166,-0.100,-0.100,-0.100,0.000,0.000,0.000
1641234842617628160,2022-01-03-18:34:02,10.1.1.4,188,-0.110,-0.110,-0.110,0.000,0.000,0.000
1641234842820148992,2022-01-03-18:34:02,10.1.1.4,185,-0.120,-0.120,-0.120,0.000,0.000,0.000
1641234843015301888,2022-01-03-18:34:03,10.1.1.4,179,-0.130,-0.130,-0.130,0.000,0.000,0.000
1641234843214302976,2022-01-03-18:34:03,10.1.1.4,177,-0.140,-0.140,-0.140,0.000,0.000,0.000
1641234843413815040,2022-01-03-18:34:03,10.1.1.4,177,-0.150,-0.150,-0.150,0.000,0.000,0.000
1641234843612227072,2022-01-03-18:34:03,10.1.1.4,173,-0.160,-0.160,-0.160,0.000,0.000,0.000
1641234843812155904,2022-01-03-18:34:03,10.1.1.4,171,-0.170,-0.170,-0.170,0.000,0.000,0.000
1641234844034288896,2022-01-03-18:34:04,10.1.1.4,174,-0.180,-0.180,-0.180,0.000,0.000,0.000
1641234844245079040,2022-01-03-18:34:04,10.1.1.4,184,-0.190,-0.190,-0.190,0.000,0.000,0.000
1641234844432599040,2022-01-03-18:34:04,10.1.1.4,171,-0.200,-0.200,-0.200,0.000,0.000,0.000
1641234844839198208,2022-01-03-18:34:04,10.1.1.4,176,-0.220,-0.220,-0.220,0.000,0.000,0.000
1641234845030690816,2022-01-03-18:34:05,10.1.1.4,166,-0.230,-0.230,-0.230,0.000,0.000,0.000
1641234845231565056,2022-01-03-18:34:05,10.1.1.4,165,-0.240,-0.240,-0.240,0.000,0.000,0.000
1641234845430591232,2022-01-03-18:34:05,10.1.1.4,163,-0.250,-0.250,-0.250,0.000,0.000,0.000
1641234845629689856,2022-01-03-18:34:05,10.1.1.4,161,-0.260,-0.260,-0.260,0.000,0.000,0.000
1641234845830311168,2022-01-03-18:34:05,10.1.1.4,161,-0.270,-0.270,-0.270,0.000,0.000,0.000
1641234846035207936,2022-01-03-18:34:06,10.1.1.4,165,-0.280,-0.280,-0.280,0.000,0.000,0.000
1641234846228815104,2022-01-03-18:34:06,10.1.1.4,158,-0.290,-0.290,-0.290,0.000,0.000,0.000
1641234846429703936,2022-01-03-18:34:06,10.1.1.4,158,-0.300,-0.300,-0.300,0.000,0.000,0.000
1641234846651383040,2022-01-03-18:34:06,10.1.1.4,177,-0.310,-0.310,-0.310,0.000,0.000,0.000
1641234846848356864,2022-01-03-18:34:06,10.1.1.4,172,-0.320,-0.320,-0.320,0.000,0.000,0.000
1641234847073185024,2022-01-03-18:34:07,10.1.1.4,184,-0.330,-0.330,-0.330,0.000,0.000,0.000
1641234847247806976,2022-01-03-18:34:07,10.1.1.4,169,-0.340,-0.340,-0.340,0.000,0.000,0.000
1641234847448182016,2022-01-03-18:34:07,10.1.1.4,169,-0.350,-0.350,-0.350,0.000,0.000,0.000
1641234847661216000,2022-01-03-18:34:07,10.1.1.4,181,-0.360,-0.360,-0.360,0.000,0.000,0.000
1641234847847474944,2022-01-03-18:34:07,10.1.1.4,166,-0.370,-0.370,-0.370,0.000,0.000,0.000
1641234848046392064,2022-01-03-18:34:08,10.1.1.4,163,-0.380,-0.380,-0.380,0.000,0.000,0.000
1641234848247522048,2022-01-03-18:34:08,10.1.1.4,163,-0.390,-0.390,-0.390,0.000,0.000,0.000
1641234848446841088,2022-01-03-18:34:08,10.1.1.4,159,-0.400,-0.400,-0.400,0.000,0.000,0.000
1641234848649245952,2022-01-03-18:34:08,10.1.1.4,161,-0.410,-0.410,-0.410,0.000,0.000,0.000
1641234848845953024,2022-01-03-18:34:08,10.1.1.4,158,-0.420,-0.420,-0.420,0.000,0.000,0.000
1641234849065438976,2022-01-03-18:34:09,10.1.1.4,169,-0.430,-0.430,-0.430,0.000,0.000,0.000
1641234849265118976,2022-01-03-18:34:09,10.1.1.4,160,-0.440,-0.440,-0.440,0.000,0.000,0.000
1641234849464733952,2022-01-03-18:34:09,10.1.1.4,154,-0.450,-0.450,-0.450,0.000,0.000,0.000
1641234849685338880,2022-01-03-18:34:09,10.1.1.4,165,-0.460,-0.460,-0.460,0.000,0.000,0.000
1641234849885381888,2022-01-03-18:34:09,10.1.1.4,165,-0.470,-0.470,-0.470,0.000,0.000,0.000
1641234850084929024,2022-01-03-18:34:10,10.1.1.4,163,-0.480,-0.480,-0.480,0.000,0.000,0.000
1641234850285455872,2022-01-03-18:34:10,10.1.1.4,164,-0.490,-0.490,-0.490,0.000,0.000,0.000
1641234850682966016,2022-01-03-18:34:10,10.1.1.4,159,-0.470,-0.470,-0.470,0.000,0.000,0.000
1641234850883416832,2022-01-03-18:34:10,10.1.1.4,158,-0.460,-0.460,-0.460,0.000,0.000,0.000
1641234851104160000,2022-01-03-18:34:11,10.1.1.4,178,-0.450,-0.450,-0.450,0.000,0.000,0.000
1641234851282658048,2022-01-03-18:34:11,10.1.1.4,152,-0.440,-0.440,-0.440,0.000,0.000,0.000
1641234851482637824,2022-01-03-18:34:11,10.1.1.4,151,-0.430,-0.430,-0.430,0.000,0.000,0.000
1641234851702415104,2022-01-03-18:34:11,10.1.1.4,170,-0.420,-0.420,-0.420,0.000,0.000,0.000
1641234851901660928,2022-01-03-18:34:11,10.1.1.4,168,-0.410,-0.410,-0.410,0.000,0.000,0.000
1641234852101250816,2022-01-03-18:34:12,10.1.1.4,162,-0.400,-0.400,-0.400,0.000,0.000,0.000
1641234852300992000,2022-01-03-18:34:12,10.1.1.4,161,-0.390,-0.390,-0.390,0.000,0.000,0.000
1641234852501974016,2022-01-03-18:34:12,10.1.1.4,161,-0.380,-0.380,-0.380,0.000,0.000,0.000
1641234852700941056,2022-01-03-18:34:12,10.1.1.4,160,-0.370,-0.370,-0.370,0.000,0.000,0.000
1641234852911785984,2022-01-03-18:34:12,10.1.1.4,170,-0.360,-0.360,-0.360,0.000,0.000,0.000
1641234853099983872,2022-01-03-18:34:13,10.1.1.4,157,-0.350,-0.350,-0.350,0.000,0.000,0.000
1641234853300399104,2022-01-03-18:34:13,10.1.1.4,156,-0.340,-0.340,-0.340,0.000,0.000,0.000
1641234853499227136,2022-01-03-18:34:13,10.1.1.4,155,-0.330,-0.330,-0.330,0.000,0.000,0.000
1641234853699538944,2022-01-03-18:34:13,10.1.1.4,154,-0.320,-0.320,-0.320,0.000,0.000,0.000
1641234853898824960,2022-01-03-18:34:13,10.1.1.4,151,-0.310,-0.310,-0.310,0.000,0.000,0.000
1641234854118700032,2022-01-03-18:34:14,10.1.1.4,150,-0.300,-0.300,-0.300,0.000,0.000,0.000
1641234854317878016,2022-01-03-18:34:14,10.1.1.4,149,-0.290,-0.290,-0.290,0.000,0.000,0.000
1641234854517980160,2022-01-03-18:34:14,10.1.1.4,148,-0.280,-0.280,-0.280,0.000,0.000,0.000
1641234854738359808,2022-01-03-18:34:14,10.1.1.4,161,-0.270,-0.270,-0.270,0.000,0.000,0.000
1641234854938839040,2022-01-03-18:34:14,10.1.1.4,160,-0.260,-0.260,-0.260,0.000,0.000,0.000
1641234855153223936,2022-01-03-18:34:15,10.1.1.4,174,-0.250,-0.250,-0.250,0.000,0.000,0.000
1641234855336189952,2022-01-03-18:34:15,10.1.1.4,157,-0.240,-0.240,-0.240,0.000,0.000,0.000
1641234855536732928,2022-01-03-18:34:15,10.1.1.4,157,-0.230,-0.230,-0.230,0.000,0.000,0.000
1641234855742824960,2022-01-03-18:34:15,10.1.1.4,162,-0.220,-0.220,-0.220,0.000,0.000,0.000
1641234855939055872,2022-01-03-18:34:15,10.1.1.4,158,-0.210,-0.210,-0.210,0.000,0.000,0.000
1641234856135941120,2022-01-03-18:34:16,10.1.1.4,153,-0.200,-0.200,-0.200,0.000,0.000,0.000
1641234856379719936,2022-01-03-18:34:16,10.1.1.4,192,-0.190,-0.190,-0.190,0.000,0.000,0.000
1641234856559816960,2022-01-03-18:34:16,10.1.1.4,161,-0.180,-0.180,-0.180,0.000,0.000,0.000
1641234856755718912,2022-01-03-18:34:16,10.1.1.4,156,-0.170,-0.170,-0.170,0.000,0.000,0.000
1641234856961432832,2022-01-03-18:34:16,10.1.1.4,161,-0.160,-0.160,-0.160,0.000,0.000,0.000
1641234857154462208,2022-01-03-18:34:17,10.1.1.4,153,-0.150,-0.150,-0.150,0.000,0.000,0.000
1641234857359725056,2022-01-03-18:34:17,10.1.1.4,157,-0.140,-0.140,-0.140,0.000,0.000,0.000
1641234857554147072,2022-01-03-18:34:17,10.1.1.4,142,-0.130,-0.130,-0.130,0.000,0.000,0.000
1641234857773718016,2022-01-03-18:34:17,10.1.1.4,161,-0.120,-0.120,-0.120,0.000,0.000,0.000
1641234857972573952,2022-01-03-18:34:17,10.1.1.4,159,-0.110,-0.110,-0.110,0.000,0.000,0.000
1641234858195703040,2022-01-03-18:34:18,10.1.1.4,179,-0.100,-0.100,-0.100,0.000,0.000,0.000
1641234858373502976,2022-01-03-18:34:18,10.1.1.4,153,-0.090,-0.090,-0.090,0.000,0.000,0.000
1641234858588368896,2022-01-03-18:34:18,10.1.1.4,158,-0.080,-0.080,-0.080,0.000,0.000,0.000
1641234858772892928,2022-01-03-18:34:18,10.1.1.4,141,-0.070,-0.070,-0.070,0.000,0.000,0.000
1641234858992662016,2022-01-03-18:34:18,10.1.1.4,159,-0.060,-0.060,-0.060,0.000,0.000,0.000
1641234859192118016,2022-01-03-18:34:19,10.1.1.4,159,-0.050,-0.050,-0.050,0.000,0.000,0.000
1641234859390969088,2022-01-03-18:34:19,10.1.1.4,157,-0.040,-0.040,-0.040,0.000,0.000,0.000
1641234859625391872,2022-01-03-18:34:19,10.1.1.4,177,-0.030,-0.030,-0.030,0.000,0.000,0.000
1641234859791791872,2022-01-03-18:34:19,10.1.1.4,149,-0.020,-0.020,-0.020,0.000,0.000,0.000
1641234859990130944,2022-01-03-18:34:19,10.1.1.4,147,-0.010,-0.010,-0.010,0.000,0.000,0.000
1641234860189965056,2022-01-03-18:34:20,10.1.1.4,146,0.000,0.000,0.000,0.000,0.000,0.000
1641234860405234176,2022-01-03-18:34:20,10.1.1.4,159,-0.010,-0.010,-0.010,0.000,0.000,0.000
1641234860590310144,2022-01-03-18:34:20,10.1.1.4,141,-0.020,-0.020,-0.020,0.000,0.000,0.000
1641234860833619200,2022-01-03-18:34:20,10.1.1.4,141,-0.030,-0.030,-0.030,0.000,0.000,0.000
1641234860989623040,2022-01-03-18:34:20,10.1.1.4,139,-0.040,-0.040,-0.040,0.000,0.000,0.000
1641234861196825088,2022-01-03-18:34:21,10.1.1.4,145,-0.050,-0.050,-0.050,0.000,0.000,0.000
1641234861388737024,2022-01-03-18:34:21,10.1.1.4,137,-0.060,-0.060,-0.060,0.000,0.000,0.000
1641234861607122944,2022-01-03-18:34:21,10.1.1.4,155,-0.070,-0.070,-0.070,0.000,0.000,0.000
1641234861806860032,2022-01-03-18:34:21,10.1.1.4,153,-0.080,-0.080,-0.080,0.000,0.000,0.000
1641234862006882816,2022-01-03-18:34:22,10.1.1.4,149,-0.090,-0.090,-0.090,0.000,0.000,0.000
1641234862206394880,2022-01-03-18:34:22,10.1.1.4,148,-0.100,-0.100,-0.100,0.000,0.000,0.000
1641234862407536896,2022-01-03-18:34:22,10.1.1.4,149,-0.110,-0.110,-0.110,0.000,0.000,0.000
1641234862605982976,2022-01-03-18:34:22,10.1.1.4,146,-0.120,-0.120,-0.120,0.000,0.000,0.000
1641234862805766144,2022-01-03-18:34:22,10.1.1.4,145,-0.130,-0.130,-0.130,0.000,0.000,0.000
1641234863013207808,2022-01-03-18:34:23,10.1.1.4,146,-0.140,-0.140,-0.140,0.000,0.000,0.000
1641234863205306880,2022-01-03-18:34:23,10.1.1.4,141,-0.150,-0.150,-0.150,0.000,0.000,0.000
1641234863405035008,2022-01-03-18:34:23,10.1.1.4,140,-0.160,-0.160,-0.160,0.000,0.000,0.000
1641234863604224000,2022-01-03-18:34:23,10.1.1.4,138,-0.170,-0.170,-0.170,0.000,0.000,0.000
1641234863804231936,2022-01-03-18:34:23,10.1.1.4,138,-0.180,-0.180,-0.180,0.000,0.000,0.000
1641234864003885056,2022-01-03-18:34:24,10.1.1.4,137,-0.190,-0.190,-0.190,0.000,0.000,0.000
1641234864231347968,2022-01-03-18:34:24,10.1.1.4,164,-0.200,-0.200,-0.200,0.000,0.000,0.000
1641234864402455040,2022-01-03-18:34:24,10.1.1.4,133,-0.210,-0.210,-0.210,0.000,0.000,0.000
1641234864602050048,2022-01-03-18:34:24,10.1.1.4,132,-0.220,-0.220,-0.220,0.000,0.000,0.000
1641234864822737920,2022-01-03-18:34:24,10.1.1.4,152,-0.230,-0.230,-0.230,0.000,0.000,0.000
1641234865011049984,2022-01-03-18:34:25,10.1.1.4,138,-0.240,-0.240,-0.240,0.000,0.000,0.000
1641234865222349824,2022-01-03-18:34:25,10.1.1.4,149,-0.250,-0.250,-0.250,0.000,0.000,0.000
1641234865421499904,2022-01-03-18:34:25,10.1.1.4,147,-0.260,-0.260,-0.260,0.000,0.000,0.000
1641234865622205952,2022-01-03-18:34:25,10.1.1.4,146,-0.270,-0.270,-0.270,0.000,0.000,0.000
1641234865828567040,2022-01-03-18:34:25,10.1.1.4,151,-0.280,-0.280,-0.280,0.000,0.000,0.000
1641234866020872192,2022-01-03-18:34:26,10.1.1.4,143,-0.290,-0.290,-0.290,0.000,0.000,0.000
1641234866221075968,2022-01-03-18:34:26,10.1.1.4,143,-0.300,-0.300,-0.300,0.000,0.000,0.000
1641234866471462912,2022-01-03-18:34:26,10.1.1.4,192,-0.310,-0.310,-0.310,0.000,0.000,0.000
1641234866660177920,2022-01-03-18:34:26,10.1.1.4,129,-0.320,-0.320,-0.320,0.000,0.000,0.000
1641234866858989056,2022-01-03-18:34:26,10.1.1.4,127,-0.330,-0.330,-0.330,0.000,0.000,0.000
1641234867087955968,2022-01-03-18:34:27,10.1.1.4,155,-0.340,-0.340,-0.340,0.000,0.000,0.000
1641234867280608000,2022-01-03-18:34:27,10.1.1.4,147,-0.350,-0.350,-0.350,0.000,0.000,0.000
1641234867478063104,2022-01-03-18:34:27,10.1.1.4,144,-0.360,-0.360,-0.360,0.000,0.000,0.000
1641234867680583936,2022-01-03-18:34:27,10.1.1.4,146,-0.370,-0.370,-0.370,0.000,0.000,0.000
1641234867878316032,2022-01-03-18:34:27,10.1.1.4,142,-0.380,-0.380,-0.380,0.000,0.000,0.000
1641234868078821888,2022-01-03-18:34:28,10.1.1.4,142,-0.390,-0.390,-0.390,0.000,0.000,0.000
1641234868276842240,2022-01-03-18:34:28,10.1.1.4,140,-0.400,-0.400,-0.400,0.000,0.000,0.000
1641234868476332800,2022-01-03-18:34:28,10.1.1.4,138,-0.410,-0.410,-0.410,0.000,0.000,0.000
1641234868698096896,2022-01-03-18:34:28,10.1.1.4,160,-0.420,-0.420,-0.420,0.000,0.000,0.000
1641234868878219008,2022-01-03-18:34:28,10.1.1.4,139,-0.430,-0.430,-0.430,0.000,0.000,0.000
1641234869076136960,2022-01-03-18:34:29,10.1.1.4,136,-0.440,-0.440,-0.440,0.000,0.000,0.000
1641234869282091008,2022-01-03-18:34:29,10.1.1.4,142,-0.450,-0.450,-0.450,0.000,0.000,0.000
1641234869506642176,2022-01-03-18:34:29,10.1.1.4,165,-0.460,-0.460,-0.460,0.000,0.000,0.000
1641234869674930944,2022-01-03-18:34:29,10.1.1.4,133,-0.470,-0.470,-0.470,0.000,0.000,0.000
1641234869911723008,2022-01-03-18:34:29,10.1.1.4,153,-0.480,-0.480,-0.480,0.000,0.000,0.000
1641234870074083072,2022-01-03-18:34:30,10.1.1.4,130,-0.490,-0.490,-0.490,0.000,0.000,0.000
1641234870275036928,2022-01-03-18:34:30,10.1.1.4,130,-0.480,-0.480,-0.480,0.000,0.000,0.000
1641234870473460992,2022-01-03-18:34:30,10.1.1.4,128,-0.470,-0.470,-0.470,0.000,0.000,0.000
1641234870679092992,2022-01-03-18:34:30,10.1.1.4,130,-0.460,-0.460,-0.460,0.000,0.000,0.000
1641234870873357056,2022-01-03-18:34:30,10.1.1.4,123,-0.450,-0.450,-0.450,0.000,0.000,0.000
1641234871115592960,2022-01-03-18:34:31,10.1.1.4,140,-0.440,-0.440,-0.440,0.000,0.000,0.000
1641234871313404928,2022-01-03-18:34:31,10.1.1.4,137,-0.430,-0.430,-0.430,0.000,0.000,0.000
1641234871515072000,2022-01-03-18:34:31,10.1.1.4,136,-0.420,-0.420,-0.420,0.000,0.000,0.000
1641234871713660928,2022-01-03-18:34:31,10.1.1.4,134,-0.410,-0.410,-0.410,0.000,0.000,0.000
1641234871951597824,2022-01-03-18:34:31,10.1.1.4,132,-0.400,-0.400,-0.400,0.000,0.000,0.000
1641234872210823936,2022-01-03-18:34:32,10.1.1.4,129,-0.390,-0.390,-0.390,0.000,0.000,0.000
1641234872411559168,2022-01-03-18:34:32,10.1.1.4,128,-0.380,-0.380,-0.380,0.000,0.000,0.000
1641234872610874880,2022-01-03-18:34:32,10.1.1.4,126,-0.370,-0.370,-0.370,0.000,0.000,0.000
1641234872809464832,2022-01-03-18:34:32,10.1.1.4,123,-0.360,-0.360,-0.360,0.000,0.000,0.000
1641234873009313024,2022-01-03-18:34:33,10.1.1.4,122,-0.350,-0.350,-0.350,0.000,0.000,0.000
1641234873429136128,2022-01-03-18:34:33,10.1.1.4,131,-0.330,-0.330,-0.330,0.000,0.000,0.000
1641234873629654016,2022-01-03-18:34:33,10.1.1.4,123,-0.320,-0.320,-0.320,0.000,0.000,0.000
1641234873828048896,2022-01-03-18:34:33,10.1.1.4,119,-0.310,-0.310,-0.310,0.000,0.000,0.000
1641234874089228032,2022-01-03-18:34:34,10.1.1.4,135,-0.300,-0.300,-0.300,0.000,0.000,0.000
1641234874273512960,2022-01-03-18:34:34,10.1.1.4,125,-0.290,-0.290,-0.290,0.000,0.000,0.000
1641234874542126848,2022-01-03-18:34:34,10.1.1.4,188,-0.280,-0.280,-0.280,0.000,0.000,0.000
1641234874686589952,2022-01-03-18:34:34,10.1.1.4,132,-0.270,-0.270,-0.270,0.000,0.000,0.000
1641234874886668800,2022-01-03-18:34:34,10.1.1.4,129,-0.260,-0.260,-0.260,0.000,0.000,0.000
1641234875086388992,2022-01-03-18:34:35,10.1.1.4,128,-0.250,-0.250,-0.250,0.000,0.000,0.000
1641234875286236928,2022-01-03-18:34:35,10.1.1.4,128,-0.240,-0.240,-0.240,0.000,0.000,0.000
1641234875525431040,2022-01-03-18:34:35,10.1.1.4,164,-0.230,-0.230,-0.230,0.000,0.000,0.000
1641234875685626112,2022-01-03-18:34:35,10.1.1.4,116,-0.220,-0.220,-0.220,0.000,0.000,0.000
1641234875925575936,2022-01-03-18:34:35,10.1.1.4,131,-0.210,-0.210,-0.210,0.000,0.000,0.000
1641234876126509824,2022-01-03-18:34:36,10.1.1.4,130,-0.200,-0.200,-0.200,0.000,0.000,0.000
1641234876334748928,2022-01-03-18:34:36,10.1.1.4,135,-0.190,-0.190,-0.190,0.000,0.000,0.000
1641234876524090880,2022-01-03-18:34:36,10.1.1.4,124,-0.180,-0.180,-0.180,0.000,0.000,0.000
1641234876724143104,2022-01-03-18:34:36,10.1.1.4,122,-0.170,-0.170,-0.170,0.000,0.000,0.000
1641234876922630144,2022-01-03-18:34:36,10.1.1.4,120,-0.160,-0.160,-0.160,0.000,0.000,0.000
1641234877121757952,2022-01-03-18:34:37,10.1.1.4,119,-0.150,-0.150,-0.150,0.000,0.000,0.000
1641234877323027968,2022-01-03-18:34:37,10.1.1.4,119,-0.140,-0.140,-0.140,0.000,0.000,0.000
1641234877521198080,2022-01-03-18:34:37,10.1.1.4,117,-0.130,-0.130,-0.130,0.000,0.000,0.000
1641234877724189952,2022-01-03-18:34:37,10.1.1.4,119,-0.120,-0.120,-0.120,0.000,0.000,0.000
1641234877941149952,2022-01-03-18:34:37,10.1.1.4,128,-0.110,-0.110,-0.110,0.000,0.000,0.000
1641234878140726016,2022-01-03-18:34:38,10.1.1.4,126,-0.100,-0.100,-0.100,0.000,0.000,0.000
1641234878340312832,2022-01-03-18:34:38,10.1.1.4,125,-0.090,-0.090,-0.090,0.000,0.000,0.000
1641234878541049856,2022-01-03-18:34:38,10.1.1.4,119,-0.080,-0.080,-0.080,0.000,0.000,0.000
1641234878739244032,2022-01-03-18:34:38,10.1.1.4,116,-0.070,-0.070,-0.070,0.000,0.000,0.000
1641234878942104064,2022-01-03-18:34:38,10.1.1.4,118,-0.060,-0.060,-0.060,0.000,0.000,0.000
1641234879178898944,2022-01-03-18:34:39,10.1.1.4,125,-0.050,-0.050,-0.050,0.000,0.000,0.000
1641234879378683136,2022-01-03-18:34:39,10.1.1.4,119,-0.040,-0.040,-0.040,0.000,0.000,0.000
1641234879578039040,2022-01-03-18:34:39,10.1.1.4,118,-0.030,-0.030,-0.030,0.000,0.000,0.000
1641234879777828864,2022-01-03-18:34:39,10.1.1.4,117,-0.020,-0.020,-0.020,0.000,0.000,0.000
1641234879977762816,2022-01-03-18:34:39,10.1.1.4,116,-0.010,-0.010,-0.010,0.000,0.000,0.000
1641234880176857088,2022-01-03-18:34:40,10.1.1.4,113,0.000,0.000,0.000,0.000,0.000,0.000
1641234880390029824,2022-01-03-18:34:40,10.1.1.4,125,-0.010,-0.010,-0.010,0.000,0.000,0.000
1641234880578014976,2022-01-03-18:34:40,10.1.1.4,112,-0.020,-0.020,-0.020,0.000,0.000,0.000
1641234880776664064,2022-01-03-18:34:40,10.1.1.4,108,-0.030,-0.030,-0.030,0.000,0.000,0.000
1641234880995987968,2022-01-03-18:34:40,10.1.1.4,124,-0.040,-0.040,-0.040,0.000,0.000,0.000
1641234881254075136,2022-01-03-18:34:41,10.1.1.4,171,-0.050,-0.050,-0.050,0.000,0.000,0.000
1641234881401040128,2022-01-03-18:34:41,10.1.1.4,117,-0.060,-0.060,-0.060,0.000,0.000,0.000
1641234881596585984,2022-01-03-18:34:41,10.1.1.4,113,-0.070,-0.070,-0.070,0.000,0.000,0.000
1641234881795998976,2022-01-03-18:34:41,10.1.1.4,111,-0.080,-0.080,-0.080,0.000,0.000,0.000
1641234881993815040,2022-01-03-18:34:41,10.1.1.4,109,-0.090,-0.090,-0.090,0.000,0.000,0.000
1641234882193945856,2022-01-03-18:34:42,10.1.1.4,108,-0.100,-0.100,-0.100,0.000,0.000,0.000
1641234882441664000,2022-01-03-18:34:42,10.1.1.4,149,-0.110,-0.110,-0.110,0.000,0.000,0.000
1641234882615364096,2022-01-03-18:34:42,10.1.1.4,119,-0.120,-0.120,-0.120,0.000,0.000,0.000
1641234882813064192,2022-01-03-18:34:42,10.1.1.4,117,-0.130,-0.130,-0.130,0.000,0.000,0.000
1641234883014195968,2022-01-03-18:34:43,10.1.1.4,113,-0.140,-0.140,-0.140,0.000,0.000,0.000
1641234883213458176,2022-01-03-18:34:43,10.1.1.4,111,-0.150,-0.150,-0.150,0.000,0.000,0.000
1641234883419395072,2022-01-03-18:34:43,10.1.1.4,117,-0.160,-0.160,-0.160,0.000,0.000,0.000
1641234883612569088,2022-01-03-18:34:43,10.1.1.4,108,-0.170,-0.170,-0.170,0.000,0.000,0.000
1641234883810765056,2022-01-03-18:34:43,10.1.1.4,106,-0.180,-0.180,-0.180,0.000,0.000,0.000
1641234884010720000,2022-01-03-18:34:44,10.1.1.4,105,-0.190,-0.190,-0.190,0.000,0.000,0.000
1641234884211566848,2022-01-03-18:34:44,10.1.1.4,105,-0.200,-0.200,-0.200,0.000,0.000,0.000
1641234884412205056,2022-01-03-18:34:44,10.1.1.4,106,-0.210,-0.210,-0.210,0.000,0.000,0.000
1641234884614837760,2022-01-03-18:34:44,10.1.1.4,107,-0.220,-0.220,-0.220,0.000,0.000,0.000
1641234884814563072,2022-01-03-18:34:44,10.1.1.4,107,-0.230,-0.230,-0.230,0.000,0.000,0.000
1641234885015638016,2022-01-03-18:34:45,10.1.1.4,107,-0.240,-0.240,-0.240,0.000,0.000,0.000
1641234885223286016,2022-01-03-18:34:45,10.1.1.4,114,-0.250,-0.250,-0.250,0.000,0.000,0.000
1641234885419555840,2022-01-03-18:34:45,10.1.1.4,110,-0.260,-0.260,-0.260,0.000,0.000,0.000
1641234885619926016,2022-01-03-18:34:45,10.1.1.4,109,-0.270,-0.270,-0.270,0.000,0.000,0.000
1641234885839700992,2022-01-03-18:34:45,10.1.1.4,122,-0.280,-0.280,-0.280,0.000,0.000,0.000
1641234886041093120,2022-01-03-18:34:46,10.1.1.4,123,-0.290,-0.290,-0.290,0.000,0.000,0.000
1641234886241854976,2022-01-03-18:34:46,10.1.1.4,123,-0.300,-0.300,-0.300,0.000,0.000,0.000
1641234886442511104,2022-01-03-18:34:46,10.1.1.4,123,-0.310,-0.310,-0.310,0.000,0.000,0.000
1641234886643309056,2022-01-03-18:34:46,10.1.1.4,123,-0.320,-0.320,-0.320,0.000,0.000,0.000
1641234887066699008,2022-01-03-18:34:47,10.1.1.4,134,-0.340,-0.340,-0.340,0.000,0.000,0.000
1641234887268225792,2022-01-03-18:34:47,10.1.1.4,135,-0.350,-0.350,-0.350,0.000,0.000,0.000
1641234887467792128,2022-01-03-18:34:47,10.1.1.4,134,-0.360,-0.360,-0.360,0.000,0.000,0.000
1641234887689905920,2022-01-03-18:34:47,10.1.1.4,149,-0.370,-0.370,-0.370,0.000,0.000,0.000
1641234887868733952,2022-01-03-18:34:47,10.1.1.4,128,-0.380,-0.380,-0.380,0.000,0.000,0.000
1641234888069419008,2022-01-03-18:34:48,10.1.1.4,127,-0.390,-0.390,-0.390,0.000,0.000,0.000
1641234888270657024,2022-01-03-18:34:48,10.1.1.4,123,-0.400,-0.400,-0.400,0.000,0.000,0.000
1641234888493020160,2022-01-03-18:34:48,10.1.1.4,139,-0.410,-0.410,-0.410,0.000,0.000,0.000
1641234888699209984,2022-01-03-18:34:48,10.1.1.4,141,-0.420,-0.420,-0.420,0.000,0.000,0.000
1641234888893148928,2022-01-03-18:34:48,10.1.1.4,133,-0.430,-0.430,-0.430,0.000,0.000,0.000
1641234889125669120,2022-01-03-18:34:49,10.1.1.4,164,-0.440,-0.440,-0.440,0.000,0.000,0.000
1641234889293524992,2022-01-03-18:34:49,10.1.1.4,126,-0.450,-0.450,-0.450,0.000,0.000,0.000
1641234889495227136,2022-01-03-18:34:49,10.1.1.4,127,-0.460,-0.460,-0.460,0.000,0.000,0.000
1641234889710228992,2022-01-03-18:34:49,10.1.1.4,141,-0.470,-0.470,-0.470,0.000,0.000,0.000
1641234889903335936,2022-01-03-18:34:49,10.1.1.4,133,-0.480,-0.480,-0.480,0.000,0.000,0.000
1641234890096333056,2022-01-03-18:34:50,10.1.1.4,125,-0.490,-0.490,-0.490,0.000,0.000,0.000
1641234890317515008,2022-01-03-18:34:50,10.1.1.4,143,-0.480,-0.480,-0.480,0.000,0.000,0.000
1641234890518227968,2022-01-03-18:34:50,10.1.1.4,139,-0.470,-0.470,-0.470,0.000,0.000,0.000
1641234890720526080,2022-01-03-18:34:50,10.1.1.4,140,-0.460,-0.460,-0.460,0.000,0.000,0.000
1641234890919190784,2022-01-03-18:34:50,10.1.1.4,136,-0.450,-0.450,-0.450,0.000,0.000,0.000
1641234891121049856,2022-01-03-18:34:51,10.1.1.4,131,-0.440,-0.440,-0.440,0.000,0.000,0.000
1641234891343878144,2022-01-03-18:34:51,10.1.1.4,151,-0.430,-0.430,-0.430,0.000,0.000,0.000
1641234891540770048,2022-01-03-18:34:51,10.1.1.4,145,-0.420,-0.420,-0.420,0.000,0.000,0.000
1641234891740692992,2022-01-03-18:34:51,10.1.1.4,144,-0.410,-0.410,-0.410,0.000,0.000,0.000
1641234891950145024,2022-01-03-18:34:51,10.1.1.4,153,-0.400,-0.400,-0.400,0.000,0.000,0.000
1641234892155004928,2022-01-03-18:34:52,10.1.1.4,154,-0.390,-0.390,-0.390,0.000,0.000,0.000
1641234892362358016,2022-01-03-18:34:52,10.1.1.4,148,-0.380,-0.380,-0.380,0.000,0.000,0.000
1641234892567568896,2022-01-03-18:34:52,10.1.1.4,152,-0.370,-0.370,-0.370,0.000,0.000,0.000
1641234892763511808,2022-01-03-18:34:52,10.1.1.4,147,-0.360,-0.360,-0.360,0.000,0.000,0.000
1641234892964378112,2022-01-03-18:34:52,10.1.1.4,147,-0.350,-0.350,-0.350,0.000,0.000,0.000
1641234893164896000,2022-01-03-18:34:53,10.1.1.4,146,-0.340,-0.340,-0.340,0.000,0.000,0.000
1641234893365880064,2022-01-03-18:34:53,10.1.1.4,146,-0.330,-0.330,-0.330,0.000,0.000,0.000
1641234893566305024,2022-01-03-18:34:53,10.1.1.4,145,-0.320,-0.320,-0.320,0.000,0.000,0.000
1641234893765729024,2022-01-03-18:34:53,10.1.1.4,140,-0.310,-0.310,-0.310,0.000,0.000,0.000
1641234893966750976,2022-01-03-18:34:53,10.1.1.4,140,-0.300,-0.300,-0.300,0.000,0.000,0.000
1641234894170039040,2022-01-03-18:34:54,10.1.1.4,142,-0.290,-0.290,-0.290,0.000,0.000,0.000
1641234894368172800,2022-01-03-18:34:54,10.1.1.4,137,-0.280,-0.280,-0.280,0.000,0.000,0.000
1641234894568242176,2022-01-03-18:34:54,10.1.1.4,137,-0.270,-0.270,-0.270,0.000,0.000,0.000
1641234894788097024,2022-01-03-18:34:54,10.1.1.4,152,-0.260,-0.260,-0.260,0.000,0.000,0.000
1641234894988907008,2022-01-03-18:34:54,10.1.1.4,148,-0.250,-0.250,-0.250,0.000,0.000,0.000
1641234895193178880,2022-01-03-18:34:55,10.1.1.4,151,-0.240,-0.240,-0.240,0.000,0.000,0.000
1641234895389230848,2022-01-03-18:34:55,10.1.1.4,146,-0.230,-0.230,-0.230,0.000,0.000,0.000
1641234895590560000,2022-01-03-18:34:55,10.1.1.4,143,-0.220,-0.220,-0.220,0.000,0.000,0.000
1641234895789570048,2022-01-03-18:34:55,10.1.1.4,140,-0.210,-0.210,-0.210,0.000,0.000,0.000
1641234895991493888,2022-01-03-18:34:55,10.1.1.4,140,-0.200,-0.200,-0.200,0.000,0.000,0.000
1641234896211017984,2022-01-03-18:34:56,10.1.1.4,158,-0.190,-0.190,-0.190,0.000,0.000,0.000
1641234896412347136,2022-01-03-18:34:56,10.1.1.4,158,-0.180,-0.180,-0.180,0.000,0.000,0.000
1641234896635422976,2022-01-03-18:34:56,10.1.1.4,180,-0.170,-0.170,-0.170,0.000,0.000,0.000
1641234896819092992,2022-01-03-18:34:56,10.1.1.4,159,-0.160,-0.160,-0.160,0.000,0.000,0.000
1641234897252571136,2022-01-03-18:34:57,10.1.1.4,153,-0.140,-0.140,-0.140,0.000,0.000,0.000
1641234897452409088,2022-01-03-18:34:57,10.1.1.4,151,-0.130,-0.130,-0.130,0.000,0.000,0.000
1641234897655211008,2022-01-03-18:34:57,10.1.1.4,149,-0.120,-0.120,-0.120,0.000,0.000,0.000
1641234897852992000,2022-01-03-18:34:57,10.1.1.4,145,-0.110,-0.110,-0.110,0.000,0.000,0.000
1641234898053366784,2022-01-03-18:34:58,10.1.1.4,145,-0.100,-0.100,-0.100,0.000,0.000,0.000
1641234898269438976,2022-01-03-18:34:58,10.1.1.4,160,-0.090,-0.090,-0.090,0.000,0.000,0.000
1641234898473700096,2022-01-03-18:34:58,10.1.1.4,160,-0.080,-0.080,-0.080,0.000,0.000,0.000
1641234898674343936,2022-01-03-18:34:58,10.1.1.4,156,-0.070,-0.070,-0.070,0.000,0.000,0.000
1641234898875053056,2022-01-03-18:34:58,10.1.1.4,157,-0.060,-0.060,-0.060,0.000,0.000,0.000
1641234899075620864,2022-01-03-18:34:59,10.1.1.4,156,-0.050,-0.050,-0.050,0.000,0.000,0.000
1641234899274349824,2022-01-03-18:34:59,10.1.1.4,151,-0.040,-0.040,-0.040,0.000,0.000,0.000
1641234899476407040,2022-01-03-18:34:59,10.1.1.4,150,-0.030,-0.030,-0.030,0.000,0.000,0.000
1641234899674676992,2022-01-03-18:34:59,10.1.1.4,148,-0.020,-0.020,-0.020,0.000,0.000,0.000
1641234899874787072,2022-01-03-18:34:59,10.1.1.4,146,-0.010,-0.010,-0.010,0.000,0.000,0.000
1641234900076282112,2022-01-03-18:35:00,10.1.1.4,147,0.000,0.000,0.000,0.000,0.000,0.000
1641234900276035072,2022-01-03-18:35:00,10.1.1.4,146,-0.010,-0.010,-0.010,0.000,0.000,0.000
1641234900478970880,2022-01-03-18:35:00,10.1.1.4,148,-0.020,-0.020,-0.020,0.000,0.000,0.000
1641234900676242944,2022-01-03-18:35:00,10.1.1.4,144,-0.030,-0.030,-0.030,0.000,0.000,0.000
1641234900896631040,2022-01-03-18:35:00,10.1.1.4,164,-0.040,-0.040,-0.040,0.000,0.000,0.000
1641234901095606016,2022-01-03-18:35:01,10.1.1.4,162,-0.050,-0.050,-0.050,0.000,0.000,0.000
1641234901298185216,2022-01-03-18:35:01,10.1.1.4,162,-0.060,-0.060,-0.060,0.000,0.000,0.000
1641234901495480064,2022-01-03-18:35:01,10.1.1.4,159,-0.070,-0.070,-0.070,0.000,0.000,0.000
1641234901696989952,2022-01-03-18:35:01,10.1.1.4,159,-0.080,-0.080,-0.080,0.000,0.000,0.000
1641234901896424960,2022-01-03-18:35:01,10.1.1.4,157,-0.090,-0.090,-0.090,0.000,0.000,0.000
1641234902096256000,2022-01-03-18:35:02,10.1.1.4,154,-0.100,-0.100,-0.100,0.000,0.000,0.000
1641234902297277952,2022-01-03-18:35:02,10.1.1.4,154,-0.110,-0.110,-0.110,0.000,0.000,0.000
1641234902496920064,2022-01-03-18:35:02,10.1.1.4,148,-0.120,-0.120,-0.120,0.000,0.000,0.000
1641234902696049920,2022-01-03-18:35:02,10.1.1.4,146,-0.130,-0.130,-0.130,0.000,0.000,0.000
1641234902924292096,2022-01-03-18:35:02,10.1.1.4,173,-0.140,-0.140,-0.140,0.000,0.000,0.000
1641234903097528064,2022-01-03-18:35:03,10.1.1.4,146,-0.150,-0.150,-0.150,0.000,0.000,0.000
1641234903317643776,2022-01-03-18:35:03,10.1.1.4,161,-0.160,-0.160,-0.160,0.000,0.000,0.000
1641234903571538944,2022-01-03-18:35:03,10.1.1.4,195,-0.170,-0.170,-0.170,0.000,0.000,0.000
1641234903739810816,2022-01-03-18:35:03,10.1.1.4,166,-0.180,-0.180,-0.180,0.000,0.000,0.000
1641234904157788928,2022-01-03-18:35:04,10.1.1.4,158,-0.200,-0.200,-0.200,0.000,0.000,0.000
1641234904358350080,2022-01-03-18:35:04,10.1.1.4,157,-0.210,-0.210,-0.210,0.000,0.000,0.000
1641234904557957888,2022-01-03-18:35:04,10.1.1.4,155,-0.220,-0.220,-0.220,0.000,0.000,0.000
1641234904757467136,2022-01-03-18:35:04,10.1.1.4,153,-0.230,-0.230,-0.230,0.000,0.000,0.000
1641234904958580992,2022-01-03-18:35:04,10.1.1.4,152,-0.240,-0.240,-0.240,0.000,0.000,0.000
1641234905177509120,2022-01-03-18:35:05,10.1.1.4,170,-0.250,-0.250,-0.250,0.000,0.000,0.000
1641234905377433088,2022-01-03-18:35:05,10.1.1.4,165,-0.260,-0.260,-0.260,0.000,0.000,0.000
1641234905576997888,2022-01-03-18:35:05,10.1.1.4,163,-0.270,-0.270,-0.270,0.000,0.000,0.000
1641234905777182208,2022-01-03-18:35:05,10.1.1.4,163,-0.280,-0.280,-0.280,0.000,0.000,0.000
1641234905981805056,2022-01-03-18:35:05,10.1.1.4,164,-0.290,-0.290,-0.290,0.000,0.000,0.000
1641234906183994112,2022-01-03-18:35:06,10.1.1.4,163,-0.300,-0.300,-0.300,0.000,0.000,0.000
1641234906377441792,2022-01-03-18:35:06,10.1.1.4,155,-0.310,-0.310,-0.310,0.000,0.000,0.000
1641234906577612032,2022-01-03-18:35:06,10.1.1.4,153,-0.320,-0.320,-0.320,0.000,0.000,0.000
1641234906777069056,2022-01-03-18:35:06,10.1.1.4,152,-0.330,-0.330,-0.330,0.000,0.000,0.000
1641234906977530112,2022-01-03-18:35:06,10.1.1.4,151,-0.340,-0.340,-0.340,0.000,0.000,0.000
1641234907177500928,2022-01-03-18:35:07,10.1.1.4,150,-0.350,-0.350,-0.350,0.000,0.000,0.000
1641234907403968000,2022-01-03-18:35:07,10.1.1.4,175,-0.360,-0.360,-0.360,0.000,0.000,0.000
1641234907597776896,2022-01-03-18:35:07,10.1.1.4,166,-0.370,-0.370,-0.370,0.000,0.000,0.000
1641234907798199040,2022-01-03-18:35:07,10.1.1.4,165,-0.380,-0.380,-0.380,0.000,0.000,0.000
1641234907998706176,2022-01-03-18:35:07,10.1.1.4,164,-0.390,-0.390,-0.390,0.000,0.000,0.000
1641234908218681088,2022-01-03-18:35:08,10.1.1.4,184,-0.400,-0.400,-0.400,0.000,0.000,0.000
1641234908396861184,2022-01-03-18:35:08,10.1.1.4,157,-0.410,-0.410,-0.410,0.000,0.000,0.000
1641234908617240832,2022-01-03-18:35:08,10.1.1.4,177,-0.420,-0.420,-0.420,0.000,0.000,0.000
1641234908816610048,2022-01-03-18:35:08,10.1.1.4,156,-0.430,-0.430,-0.430,0.000,0.000,0.000
1641234909016305920,2022-01-03-18:35:09,10.1.1.4,147,-0.440,-0.440,-0.440,0.000,0.000,0.000
1641234909218028032,2022-01-03-18:35:09,10.1.1.4,147,-0.450,-0.450,-0.450,0.000,0.000,0.000
1641234909416486912,2022-01-03-18:35:09,10.1.1.4,145,-0.460,-0.460,-0.460,0.000,0.000,0.000
1641234909636115968,2022-01-03-18:35:09,10.1.1.4,164,-0.470,-0.470,-0.470,0.000,0.000,0.000
1641234909836400896,2022-01-03-18:35:09,10.1.1.4,163,-0.480,-0.480,-0.480,0.000,0.000,0.000
1641234910035917056,2022-01-03-18:35:10,10.1.1.4,162,-0.490,-0.490,-0.490,0.000,0.000,0.000
1641234910236439040,2022-01-03-18:35:10,10.1.1.4,161,-0.480,-0.480,-0.480,0.000,0.000,0.000
1641234910438177024,2022-01-03-18:35:10,10.1.1.4,162,-0.470,-0.470,-0.470,0.000,0.000,0.000
1641234910636399872,2022-01-03-18:35:10,10.1.1.4,158,-0.460,-0.460,-0.460,0.000,0.000,0.000
1641234910851344128,2022-01-03-18:35:10,10.1.1.4,172,-0.450,-0.450,-0.450,0.000,0.000,0.000
1641234911037264128,2022-01-03-18:35:11,10.1.1.4,149,-0.440,-0.440,-0.440,0.000,0.000,0.000
1641234911275494144,2022-01-03-18:35:11,10.1.1.4,155,-0.430,-0.430,-0.430,0.000,0.000,0.000
1641234911475975936,2022-01-03-18:35:11,10.1.1.4,154,-0.420,-0.420,-0.420,0.000,0.000,0.000
1641234911676390912,2022-01-03-18:35:11,10.1.1.4,154,-0.410,-0.410,-0.410,0.000,0.000,0.000
1641234911876002048,2022-01-03-18:35:11,10.1.1.4,153,-0.400,-0.400,-0.400,0.000,0.000,0.000
1641234912075393792,2022-01-03-18:35:12,10.1.1.4,151,-0.390,-0.390,-0.390,0.000,0.000,0.000
1641234912275887104,2022-01-03-18:35:12,10.1.1.4,150,-0.380,-0.380,-0.380,0.000,0.000,0.000
1641234912475950848,2022-01-03-18:35:12,10.1.1.4,149,-0.370,-0.370,-0.370,0.000,0.000,0.000
1641234912675260928,2022-01-03-18:35:12,10.1.1.4,148,-0.360,-0.360,-0.360,0.000,0.000,0.000
1641234912874950912,2022-01-03-18:35:12,10.1.1.4,146,-0.350,-0.350,-0.350,0.000,0.000,0.000
1641234913074786816,2022-01-03-18:35:13,10.1.1.4,145,-0.340,-0.340,-0.340,0.000,0.000,0.000
1641234913277390080,2022-01-03-18:35:13,10.1.1.4,146,-0.330,-0.330,-0.330,0.000,0.000,0.000
1641234913495224832,2022-01-03-18:35:13,10.1.1.4,162,-0.320,-0.320,-0.320,0.000,0.000,0.000
1641234913694839040,2022-01-03-18:35:13,10.1.1.4,160,-0.310,-0.310,-0.310,0.000,0.000,0.000
1641234913894722816,2022-01-03-18:35:13,10.1.1.4,159,-0.300,-0.300,-0.300,0.000,0.000,0.000
1641234914095747840,2022-01-03-18:35:14,10.1.1.4,160,-0.290,-0.290,-0.290,0.000,0.000,0.000
1641234914302768896,2022-01-03-18:35:14,10.1.1.4,160,-0.280,-0.280,-0.280,0.000,0.000,0.000
1641234914504652032,2022-01-03-18:35:14,10.1.1.4,166,-0.270,-0.270,-0.270,0.000,0.000,0.000
1641234914694129920,2022-01-03-18:35:14,10.1.1.4,154,-0.260,-0.260,-0.260,0.000,0.000,0.000
1641234914894006016,2022-01-03-18:35:14,10.1.1.4,152,-0.250,-0.250,-0.250,0.000,0.000,0.000
1641234915093786112,2022-01-03-18:35:15,10.1.1.4,151,-0.240,-0.240,-0.240,0.000,0.000,0.000
1641234915294275072,2022-01-03-18:35:15,10.1.1.4,149,-0.230,-0.230,-0.230,0.000,0.000,0.000
1641234915493498112,2022-01-03-18:35:15,10.1.1.4,145,-0.220,-0.220,-0.220,0.000,0.000,0.000
1641234915692866048,2022-01-03-18:35:15,10.1.1.4,143,-0.210,-0.210,-0.210,0.000,0.000,0.000
1641234915892646912,2022-01-03-18:35:15,10.1.1.4,142,-0.200,-0.200,-0.200,0.000,0.000,0.000
1641234916092790016,2022-01-03-18:35:16,10.1.1.4,142,-0.190,-0.190,-0.190,0.000,0.000,0.000
1641234916292514048,2022-01-03-18:35:16,10.1.1.4,141,-0.180,-0.180,-0.180,0.000,0.000,0.000
1641234916539017984,2022-01-03-18:35:16,10.1.1.4,187,-0.170,-0.170,-0.170,0.000,0.000,0.000
1641234916712960000,2022-01-03-18:35:16,10.1.1.4,160,-0.160,-0.160,-0.160,0.000,0.000,0.000
1641234916913403904,2022-01-03-18:35:16,10.1.1.4,146,-0.150,-0.150,-0.150,0.000,0.000,0.000
1641234917112570112,2022-01-03-18:35:17,10.1.1.4,144,-0.140,-0.140,-0.140,0.000,0.000,0.000
1641234917332210176,2022-01-03-18:35:17,10.1.1.4,141,-0.130,-0.130,-0.130,0.000,0.000,0.000
1641234917533304832,2022-01-03-18:35:17,10.1.1.4,141,-0.120,-0.120,-0.120,0.000,0.000,0.000
1641234917752521984,2022-01-03-18:35:17,10.1.1.4,159,-0.110,-0.110,-0.110,0.000,0.000,0.000
1641234917951267072,2022-01-03-18:35:17,10.1.1.4,158,-0.100,-0.100,-0.100,0.000,0.000,0.000
1641234918151148032,2022-01-03-18:35:18,10.1.1.4,157,-0.090,-0.090,-0.090,0.000,0.000,0.000
1641234918351625984,2022-01-03-18:35:18,10.1.1.4,155,-0.080,-0.080,-0.080,0.000,0.000,0.000
1641234918551412992,2022-01-03-18:35:18,10.1.1.4,155,-0.070,-0.070,-0.070,0.000,0.000,0.000
1641234918950423040,2022-01-03-18:35:18,10.1.1.4,152,-0.050,-0.050,-0.050,0.000,0.000,0.000
1641234919169850112,2022-01-03-18:35:19,10.1.1.4,157,-0.040,-0.040,-0.040,0.000,0.000,0.000
1641234919369571072,2022-01-03-18:35:19,10.1.1.4,156,-0.030,-0.030,-0.030,0.000,0.000,0.000
1641234919569969920,2022-01-03-18:35:19,10.1.1.4,156,-0.020,-0.020,-0.020,0.000,0.000,0.000
1641234919770086144,2022-01-03-18:35:19,10.1.1.4,147,-0.010,-0.010,-0.010,0.000,0.000,0.000
1641234919970712832,2022-01-03-18:35:19,10.1.1.4,146,0.000,0.000,0.000,0.000,0.000,0.000
1641234920189368064,2022-01-03-18:35:20,10.1.1.4,163,-0.010,-0.010,-0.010,0.000,0.000,0.000
1641234920392679936,2022-01-03-18:35:20,10.1.1.4,155,-0.020,-0.020,-0.020,0.000,0.000,0.000
1641234920588519936,2022-01-03-18:35:20,10.1.1.4,150,-0.030,-0.030,-0.030,0.000,0.000,0.000
1641234920788221952,2022-01-03-18:35:20,10.1.1.4,149,-0.040,-0.040,-0.040,0.000,0.000,0.000
1641234920988612864,2022-01-03-18:35:20,10.1.1.4,149,-0.050,-0.050,-0.050,0.000,0.000,0.000
1641234921200089088,2022-01-03-18:35:21,10.1.1.4,159,-0.060,-0.060,-0.060,0.000,0.000,0.000
1641234921388427008,2022-01-03-18:35:21,10.1.1.4,146,-0.070,-0.070,-0.070,0.000,0.000,0.000
1641234921587371008,2022-01-03-18:35:21,10.1.1.4,145,-0.080,-0.080,-0.080,0.000,0.000,0.000
1641234921788377088,2022-01-03-18:35:21,10.1.1.4,145,-0.090,-0.090,-0.090,0.000,0.000,0.000
1641234921990897920,2022-01-03-18:35:21,10.1.1.4,147,-0.100,-0.100,-0.100,0.000,0.000,0.000
1641234922187985920,2022-01-03-18:35:22,10.1.1.4,142,-0.110,-0.110,-0.110,0.000,0.000,0.000
1641234922389466880,2022-01-03-18:35:22,10.1.1.4,142,-0.120,-0.120,-0.120,0.000,0.000,0.000
1641234922586848000,2022-01-03-18:35:22,10.1.1.4,139,-0.130,-0.130,-0.130,0.000,0.000,0.000
1641234922785972224,2022-01-03-18:35:22,10.1.1.4,138,-0.140,-0.140,-0.140,0.000,0.000,0.000
1641234922985865984,2022-01-03-18:35:22,10.1.1.4,137,-0.150,-0.150,-0.150,0.000,0.000,0.000
1641234923186654976,2022-01-03-18:35:23,10.1.1.4,137,-0.160,-0.160,-0.160,0.000,0.000,0.000
1641234923386009088,2022-01-03-18:35:23,10.1.1.4,136,-0.170,-0.170,-0.170,0.000,0.000,0.000
1641234923459047936,2022-01-03-18:35:23,10.1.1.4,-1,-0.170,-0.170,-0.170,0.000,0.000,0.000
1641234923805012992,2022-01-03-18:35:23,10.1.1.4,149,-0.190,-0.190,-0.190,0.000,0.000,0.000
1641234924004934912,2022-01-03-18:35:24,10.1.1.4,149,-0.200,-0.200,-0.200,0.000,0.000,0.000
1641234924204827904,2022-01-03-18:35:24,10.1.1.4,147,-0.210,-0.210,-0.210,0.000,0.000,0.000
1641234924405366784,2022-01-03-18:35:24,10.1.1.4,145,-0.220,-0.220,-0.220,0.000,0.000,0.000
1641234924642106112,2022-01-03-18:35:24,10.1.1.4,180,-0.230,-0.230,-0.230,0.000,0.000,0.000
1641234924804312064,2022-01-03-18:35:24,10.1.1.4,140,-0.240,-0.240,-0.240,0.000,0.000,0.000
1641234925004126976,2022-01-03-18:35:25,10.1.1.4,139,-0.250,-0.250,-0.250,0.000,0.000,0.000
1641234925203522048,2022-01-03-18:35:25,10.1.1.4,137,-0.260,-0.260,-0.260,0.000,0.000,0.000
1641234925403412224,2022-01-03-18:35:25,10.1.1.4,135,-0.270,-0.270,-0.270,0.000,0.000,0.000
1641234925603276032,2022-01-03-18:35:25,10.1.1.4,134,-0.280,-0.280,-0.280,0.000,0.000,0.000
1641234926022459136,2022-01-03-18:35:26,10.1.1.4,143,-0.300,-0.300,-0.300,0.000,0.000,0.000
1641234926222508032,2022-01-03-18:35:26,10.1.1.4,142,-0.310,-0.310,-0.310,0.000,0.000,0.000
1641234926424804096,2022-01-03-18:35:26,10.1.1.4,144,-0.320,-0.320,-0.320,0.000,0.000,0.000
1641234926661905920,2022-01-03-18:35:26,10.1.1.4,166,-0.330,-0.330,-0.330,0.000,0.000,0.000
1641234926841394944,2022-01-03-18:35:26,10.1.1.4,145,-0.340,-0.340,-0.340,0.000,0.000,0.000
1641234927093182976,2022-01-03-18:35:27,10.1.1.4,188,-0.350,-0.350,-0.350,0.000,0.000,0.000
1641234927281850112,2022-01-03-18:35:27,10.1.1.4,145,-0.360,-0.360,-0.360,0.000,0.000,0.000
1641234927480734976,2022-01-03-18:35:27,10.1.1.4,143,-0.370,-0.370,-0.370,0.000,0.000,0.000
1641234927680594944,2022-01-03-18:35:27,10.1.1.4,142,-0.380,-0.380,-0.380,0.000,0.000,0.000
1641234927880878080,2022-01-03-18:35:27,10.1.1.4,142,-0.390,-0.390,-0.390,0.000,0.000,0.000
1641234928079407872,2022-01-03-18:35:28,10.1.1.4,140,-0.400,-0.400,-0.400,0.000,0.000,0.000
1641234928279827968,2022-01-03-18:35:28,10.1.1.4,138,-0.410,-0.410,-0.410,0.000,0.000,0.000
1641234928479436032,2022-01-03-18:35:28,10.1.1.4,129,-0.420,-0.420,-0.420,0.000,0.000,0.000
1641234928678977024,2022-01-03-18:35:28,10.1.1.4,128,-0.430,-0.430,-0.430,0.000,0.000,0.000
1641234928880314112,2022-01-03-18:35:28,10.1.1.4,129,-0.440,-0.440,-0.440,0.000,0.000,0.000
1641234929098514944,2022-01-03-18:35:29,10.1.1.4,132,-0.450,-0.450,-0.450,0.000,0.000,0.000
1641234929298882048,2022-01-03-18:35:29,10.1.1.4,132,-0.460,-0.460,-0.460,0.000,0.000,0.000
1641234929497992960,2022-01-03-18:35:29,10.1.1.4,130,-0.470,-0.470,-0.470,0.000,0.000,0.000
1641234929698267904,2022-01-03-18:35:29,10.1.1.4,129,-0.480,-0.480,-0.480,0.000,0.000,0.000
1641234929897216000,2022-01-03-18:35:29,10.1.1.4,128,-0.490,-0.490,-0.490,0.000,0.000,0.000
1641234930108601088,2022-01-03-18:35:30,10.1.1.4,138,-0.480,-0.480,-0.480,0.000,0.000,0.000
1641234930297678080,2022-01-03-18:35:30,10.1.1.4,126,-0.470,-0.470,-0.470,0.000,0.000,0.000
1641234930536694016,2022-01-03-18:35:30,10.1.1.4,139,-0.460,-0.460,-0.460,0.000,0.000,0.000
1641234930738537984,2022-01-03-18:35:30,10.1.1.4,140,-0.450,-0.450,-0.450,0.000,0.000,0.000
1641234930936180224,2022-01-03-18:35:30,10.1.1.4,137,-0.440,-0.440,-0.440,0.000,0.000,0.000
1641234931157329152,2022-01-03-18:35:31,10.1.1.4,140,-0.430,-0.430,-0.430,0.000,0.000,0.000
1641234931359234048,2022-01-03-18:35:31,10.1.1.4,141,-0.420,-0.420,-0.420,0.000,0.000,0.000
1641234931567012096,2022-01-03-18:35:31,10.1.1.4,144,-0.410,-0.410,-0.410,0.000,0.000,0.000
1641234931755075840,2022-01-03-18:35:31,10.1.1.4,134,-0.400,-0.400,-0.400,0.000,0.000,0.000
1641234931955593216,2022-01-03-18:35:31,10.1.1.4,132,-0.390,-0.390,-0.390,0.000,0.000,0.000
1641234932153837056,2022-01-03-18:35:32,10.1.1.4,128,-0.380,-0.380,-0.380,0.000,0.000,0.000
1641234932354105088,2022-01-03-18:35:32,10.1.1.4,127,-0.370,-0.370,-0.370,0.000,0.000,0.000
1641234932554262016,2022-01-03-18:35:32,10.1.1.4,126,-0.360,-0.360,-0.360,0.000,0.000,0.000
1641234932773737984,2022-01-03-18:35:32,10.1.1.4,141,-0.350,-0.350,-0.350,0.000,0.000,0.000
1641234932972975104,2022-01-03-18:35:32,10.1.1.4,140,-0.340,-0.340,-0.340,0.000,0.000,0.000
1641234933172811008,2022-01-03-18:35:33,10.1.1.4,139,-0.330,-0.330,-0.330,0.000,0.000,0.000
1641234933376732160,2022-01-03-18:35:33,10.1.1.4,142,-0.320,-0.320,-0.320,0.000,0.000,0.000
1641234933571738112,2022-01-03-18:35:33,10.1.1.4,137,-0.310,-0.310,-0.310,0.000,0.000,0.000
1641234933771784960,2022-01-03-18:35:33,10.1.1.4,125,-0.300,-0.300,-0.300,0.000,0.000,0.000
1641234933971729152,2022-01-03-18:35:33,10.1.1.4,124,-0.290,-0.290,-0.290,0.000,0.000,0.000
1641234934171014912,2022-01-03-18:35:34,10.1.1.4,122,-0.280,-0.280,-0.280,0.000,0.000,0.000
1641234934370946816,2022-01-03-18:35:34,10.1.1.4,121,-0.270,-0.270,-0.270,0.000,0.000,0.000
1641234934570842880,2022-01-03-18:35:34,10.1.1.4,120,-0.260,-0.260,-0.260,0.000,0.000,0.000
1641234934790503936,2022-01-03-18:35:34,10.1.1.4,138,-0.250,-0.250,-0.250,0.000,0.000,0.000
1641234934998070016,2022-01-03-18:35:34,10.1.1.4,144,-0.240,-0.240,-0.240,0.000,0.000,0.000
1641234935189707008,2022-01-03-18:35:35,10.1.1.4,135,-0.230,-0.230,-0.230,0.000,0.000,0.000
1641234935390104064,2022-01-03-18:35:35,10.1.1.4,133,-0.220,-0.220,-0.220,0.000,0.000,0.000
1641234935626394880,2022-01-03-18:35:35,10.1.1.4,168,-0.210,-0.210,-0.210,0.000,0.000,0.000
1641234935797238016,2022-01-03-18:35:35,10.1.1.4,138,-0.200,-0.200,-0.200,0.000,0.000,0.000
1641234935988538880,2022-01-03-18:35:35,10.1.1.4,128,-0.190,-0.190,-0.190,0.000,0.000,0.000
1641234936189584896,2022-01-03-18:35:36,10.1.1.4,126,-0.180,-0.180,-0.180,0.000,0.000,0.000
1641234936388711936,2022-01-03-18:35:36,10.1.1.4,125,-0.170,-0.170,-0.170,0.000,0.000,0.000
1641234936588368896,2022-01-03-18:35:36,10.1.1.4,123,-0.160,-0.160,-0.160,0.000,0.000,0.000
1641234936793221120,2022-01-03-18:35:36,10.1.1.4,128,-0.150,-0.150,-0.150,0.000,0.000,0.000
1641234936987230976,2022-01-03-18:35:36,10.1.1.4,121,-0.140,-0.140,-0.140,0.000,0.000,0.000
1641234937190992128,2022-01-03-18:35:37,10.1.1.4,124,-0.130,-0.130,-0.130,0.000,0.000,0.000
1641234937418173184,2022-01-03-18:35:37,10.1.1.4,144,-0.120,-0.120,-0.120,0.000,0.000,0.000
1641234937626960896,2022-01-03-18:35:37,10.1.1.4,125,-0.110,-0.110,-0.110,0.000,0.000,0.000
1641234937825838080,2022-01-03-18:35:37,10.1.1.4,123,-0.100,-0.100,-0.100,0.000,0.000,0.000
1641234938041143808,2022-01-03-18:35:38,10.1.1.4,137,-0.090,-0.090,-0.090,0.000,0.000,0.000
1641234938226063104,2022-01-03-18:35:38,10.1.1.4,119,-0.080,-0.080,-0.080,0.000,0.000,0.000
1641234938469222912,2022-01-03-18:35:38,10.1.1.4,152,-0.070,-0.070,-0.070,0.000,0.000,0.000
1641234938645832960,2022-01-03-18:35:38,10.1.1.4,128,-0.060,-0.060,-0.060,0.000,0.000,0.000
1641234938844710144,2022-01-03-18:35:38,10.1.1.4,125,-0.050,-0.050,-0.050,0.000,0.000,0.000
1641234939045380096,2022-01-03-18:35:39,10.1.1.4,126,-0.040,-0.040,-0.040,0.000,0.000,0.000
1641234939243987200,2022-01-03-18:35:39,10.1.1.4,123,-0.030,-0.030,-0.030,0.000,0.000,0.000
1641234939446888960,2022-01-03-18:35:39,10.1.1.4,125,-0.020,-0.020,-0.020,0.000,0.000,0.000
1641234939643280896,2022-01-03-18:35:39,10.1.1.4,117,-0.010,-0.010,-0.010,0.000,0.000,0.000
1641234939844978944,2022-01-03-18:35:39,10.1.1.4,117,0.000,0.000,0.000,0.000,0.000,0.000
1641234940042228992,2022-01-03-18:35:40,10.1.1.4,114,-0.010,-0.010,-0.010,0.000,0.000,0.000
1641234940263654912,2022-01-03-18:35:40,10.1.1.4,134,-0.020,-0.020,-0.020,0.000,0.000,0.000
1641234940462126080,2022-01-03-18:35:40,10.1.1.4,130,-0.030,-0.030,-0.030,0.000,0.000,0.000
1641234940662450944,2022-01-03-18:35:40,10.1.1.4,129,-0.040,-0.040,-0.040,0.000,0.000,0.000
1641234940862502144,2022-01-03-18:35:40,10.1.1.4,128,-0.050,-0.050,-0.050,0.000,0.000,0.000
1641234941060691200,2022-01-03-18:35:41,10.1.1.4,125,-0.060,-0.060,-0.060,0.000,0.000,0.000
1641234941273948928,2022-01-03-18:35:41,10.1.1.4,137,-0.070,-0.070,-0.070,0.000,0.000,0.000
1641234941460666880,2022-01-03-18:35:41,10.1.1.4,123,-0.080,-0.080,-0.080,0.000,0.000,0.000
1641234941662190080,2022-01-03-18:35:41,10.1.1.4,124,-0.090,-0.090,-0.090,0.000,0.000,0.000
1641234941881481984,2022-01-03-18:35:41,10.1.1.4,126,-0.100,-0.100,-0.100,0.000,0.000,0.000
1641234942079286016,2022-01-03-18:35:42,10.1.1.4,123,-0.110,-0.110,-0.110,0.000,0.000,0.000
1641234942279164160,2022-01-03-18:35:42,10.1.1.4,122,-0.120,-0.120,-0.120,0.000,0.000,0.000
1641234942479119104,2022-01-03-18:35:42,10.1.1.4,121,-0.130,-0.130,-0.130,0.000,0.000,0.000
1641234942679586816,2022-01-03-18:35:42,10.1.1.4,120,-0.140,-0.140,-0.140,0.000,0.000,0.000
1641234942911528192,2022-01-03-18:35:42,10.1.1.4,151,-0.150,-0.150,-0.150,0.000,0.000,0.000
1641234943078011904,2022-01-03-18:35:43,10.1.1.4,116,-0.160,-0.160,-0.160,0.000,0.000,0.000
1641234943278285056,2022-01-03-18:35:43,10.1.1.4,115,-0.170,-0.170,-0.170,0.000,0.000,0.000
1641234943477464064,2022-01-03-18:35:43,10.1.1.4,113,-0.180,-0.180,-0.180,0.000,0.000,0.000
1641234943677805824,2022-01-03-18:35:43,10.1.1.4,112,-0.190,-0.190,-0.190,0.000,0.000,0.000
1641234943876833792,2022-01-03-18:35:43,10.1.1.4,110,-0.200,-0.200,-0.200,0.000,0.000,0.000
1641234944142329856,2022-01-03-18:35:44,10.1.1.4,160,-0.210,-0.210,-0.210,0.000,0.000,0.000
1641234944296451072,2022-01-03-18:35:44,10.1.1.4,120,-0.220,-0.220,-0.220,0.000,0.000,0.000
1641234944495842048,2022-01-03-18:35:44,10.1.1.4,119,-0.230,-0.230,-0.230,0.000,0.000,0.000
1641234944695403008,2022-01-03-18:35:44,10.1.1.4,117,-0.240,-0.240,-0.240,0.000,0.000,0.000
1641234944898430976,2022-01-03-18:35:44,10.1.1.4,119,-0.250,-0.250,-0.250,0.000,0.000,0.000
1641234945094758144,2022-01-03-18:35:45,10.1.1.4,111,-0.260,-0.260,-0.260,0.000,0.000,0.000
1641234945376445952,2022-01-03-18:35:45,10.1.1.4,122,-0.270,-0.270,-0.270,0.000,0.000,0.000
1641234945573744896,2022-01-03-18:35:45,10.1.1.4,118,-0.280,-0.280,-0.280,0.000,0.000,0.000
1641234945772898816,2022-01-03-18:35:45,10.1.1.4,117,-0.290,-0.290,-0.290,0.000,0.000,0.000
1641234945972832000,2022-01-03-18:35:45,10.1.1.4,115,-0.300,-0.300,-0.300,0.000,0.000,0.000
1641234946173006080,2022-01-03-18:35:46,10.1.1.4,114,-0.310,-0.310,-0.310,0.000,0.000,0.000
1641234946376236800,2022-01-03-18:35:46,10.1.1.4,114,-0.320,-0.320,-0.320,0.000,0.000,0.000
1641234946643044864,2022-01-03-18:35:46,10.1.1.4,178,-0.330,-0.330,-0.330,0.000,0.000,0.000
1641234946792438016,2022-01-03-18:35:46,10.1.1.4,124,-0.340,-0.340,-0.340,0.000,0.000,0.000
1641234946988476160,2022-01-03-18:35:46,10.1.1.4,104,-0.350,-0.350,-0.350,0.000,0.000,0.000
1641234947245687040,2022-01-03-18:35:47,10.1.1.4,134,-0.360,-0.360,-0.360,0.000,0.000,0.000
1641234947391297024,2022-01-03-18:35:47,10.1.1.4,102,-0.370,-0.370,-0.370,0.000,0.000,0.000
1641234947591202048,2022-01-03-18:35:47,10.1.1.4,102,-0.380,-0.380,-0.380,0.000,0.000,0.000
1641234947813012992,2022-01-03-18:35:47,10.1.1.4,118,-0.390,-0.390,-0.390,0.000,0.000,0.000
1641234948010829056,2022-01-03-18:35:48,10.1.1.4,115,-0.400,-0.400,-0.400,0.000,0.000,0.000
1641234948212433152,2022-01-03-18:35:48,10.1.1.4,116,-0.410,-0.410,-0.410,0.000,0.000,0.000
1641234948412441088,2022-01-03-18:35:48,10.1.1.4,114,-0.420,-0.420,-0.420,0.000,0.000,0.000
1641234948613575936,2022-01-03-18:35:48,10.1.1.4,114,-0.430,-0.430,-0.430,0.000,0.000,0.000
1641234948826711040,2022-01-03-18:35:48,10.1.1.4,126,-0.440,-0.440,-0.440,0.000,0.000,0.000
1641234948926939136,2022-01-03-18:35:48,10.1.1.4,-1,-0.440,-0.440,-0.440,0.000,0.000,0.000
1641234949257217792,2022-01-03-18:35:49,10.1.1.4,107,-0.460,-0.460,-0.460,0.000,0.000,0.000
1641234949461054976,2022-01-03-18:35:49,10.1.1.4,110,-0.470,-0.470,-0.470,0.000,0.000,0.000
1641234949679075840,2022-01-03-18:35:49,10.1.1.4,122,-0.480,-0.480,-0.480,0.000,0.000,0.000
1641234949880073984,2022-01-03-18:35:49,10.1.1.4,123,-0.490,-0.490,-0.490,0.000,0.000,0.000
1641234950097462784,2022-01-03-18:35:50,10.1.1.4,139,-0.480,-0.480,-0.480,0.000,0.000,0.000
1641234950281948160,2022-01-03-18:35:50,10.1.1.4,122,-0.470,-0.470,-0.470,0.000,0.000,0.000
1641234950490789888,2022-01-03-18:35:50,10.1.1.4,128,-0.460,-0.460,-0.460,0.000,0.000,0.000
1641234950683036160,2022-01-03-18:35:50,10.1.1.4,121,-0.450,-0.450,-0.450,0.000,0.000,0.000
1641234950884287232,2022-01-03-18:35:50,10.1.1.4,121,-0.440,-0.440,-0.440,0.000,0.000,0.000
1641234951092848896,2022-01-03-18:35:51,10.1.1.4,129,-0.430,-0.430,-0.430,0.000,0.000,0.000
1641234951305778944,2022-01-03-18:35:51,10.1.1.4,122,-0.420,-0.420,-0.420,0.000,0.000,0.000
1641234951507188992,2022-01-03-18:35:51,10.1.1.4,123,-0.410,-0.410,-0.410,0.000,0.000,0.000
1641234951710302208,2022-01-03-18:35:51,10.1.1.4,125,-0.400,-0.400,-0.400,0.000,0.000,0.000
1641234951916256000,2022-01-03-18:35:51,10.1.1.4,130,-0.390,-0.390,-0.390,0.000,0.000,0.000
1641234952112216064,2022-01-03-18:35:52,10.1.1.4,126,-0.380,-0.380,-0.380,0.000,0.000,0.000
1641234952310265088,2022-01-03-18:35:52,10.1.1.4,122,-0.370,-0.370,-0.370,0.000,0.000,0.000
1641234952530638848,2022-01-03-18:35:52,10.1.1.4,129,-0.360,-0.360,-0.360,0.000,0.000,0.000
1641234952731740928,2022-01-03-18:35:52,10.1.1.4,129,-0.350,-0.350,-0.350,0.000,0.000,0.000
1641234952932274944,2022-01-03-18:35:52,10.1.1.4,128,-0.340,-0.340,-0.340,0.000,0.000,0.000
1641234953132616960,2022-01-03-18:35:53,10.1.1.4,128,-0.330,-0.330,-0.330,0.000,0.000,0.000
1641234953333481984,2022-01-03-18:35:53,10.1.1.4,128,-0.320,-0.320,-0.320,0.000,0.000,0.000
1641234953538153984,2022-01-03-18:35:53,10.1.1.4,127,-0.310,-0.310,-0.310,0.000,0.000,0.000
1641234953755207168,2022-01-03-18:35:53,10.1.1.4,143,-0.300,-0.300,-0.300,0.000,0.000,0.000
1641234953955582976,2022-01-03-18:35:53,10.1.1.4,143,-0.290,-0.290,-0.290,0.000,0.000,0.000
1641234954158967040,2022-01-03-18:35:54,10.1.1.4,145,-0.280,-0.280,-0.280,0.000,0.000,0.000
1641234954357204992,2022-01-03-18:35:54,10.1.1.4,140,-0.270,-0.270,-0.270,0.000,0.000,0.000
1641234954562103040,2022-01-03-18:35:54,10.1.1.4,142,-0.260,-0.260,-0.260,0.000,0.000,0.000
1641234954757904128,2022-01-03-18:35:54,10.1.1.4,137,-0.250,-0.250,-0.250,0.000,0.000,0.000
1641234954958377984,2022-01-03-18:35:54,10.1.1.4,137,-0.240,-0.240,-0.240,0.000,0.000,0.000
1641234955159107072,2022-01-03-18:35:55,10.1.1.4,136,-0.230,-0.230,-0.230,0.000,0.000,0.000
1641234955360133888,2022-01-03-18:35:55,10.1.1.4,136,-0.220,-0.220,-0.220,0.000,0.000,0.000
1641234955560483840,2022-01-03-18:35:55,10.1.1.4,136,-0.210,-0.210,-0.210,0.000,0.000,0.000
1641234955789482240,2022-01-03-18:35:55,10.1.1.4,164,-0.200,-0.200,-0.200,0.000,0.000,0.000
1641234955982220032,2022-01-03-18:35:55,10.1.1.4,141,-0.190,-0.190,-0.190,0.000,0.000,0.000
1641234956181817088,2022-01-03-18:35:56,10.1.1.4,141,-0.180,-0.180,-0.180,0.000,0.000,0.000
1641234956390620928,2022-01-03-18:35:56,10.1.1.4,149,-0.170,-0.170,-0.170,0.000,0.000,0.000
1641234956583077888,2022-01-03-18:35:56,10.1.1.4,140,-0.160,-0.160,-0.160,0.000,0.000,0.000
1641234956783565056,2022-01-03-18:35:56,10.1.1.4,139,-0.150,-0.150,-0.150,0.000,0.000,0.000
1641234957004414208,2022-01-03-18:35:57,10.1.1.4,145,-0.140,-0.140,-0.140,0.000,0.000,0.000
1641234957205032192,2022-01-03-18:35:57,10.1.1.4,145,-0.130,-0.130,-0.130,0.000,0.000,0.000
1641234957405244160,2022-01-03-18:35:57,10.1.1.4,145,-0.120,-0.120,-0.120,0.000,0.000,0.000
1641234957605582080,2022-01-03-18:35:57,10.1.1.4,144,-0.110,-0.110,-0.110,0.000,0.000,0.000
1641234957806313984,2022-01-03-18:35:57,10.1.1.4,145,-0.100,-0.100,-0.100,0.000,0.000,0.000
1641234958207667200,2022-01-03-18:35:58,10.1.1.4,136,-0.080,-0.080,-0.080,0.000,0.000,0.000
1641234958427494144,2022-01-03-18:35:58,10.1.1.4,155,-0.070,-0.070,-0.070,0.000,0.000,0.000
1641234958628488960,2022-01-03-18:35:58,10.1.1.4,155,-0.060,-0.060,-0.060,0.000,0.000,0.000
1641234958849612032,2022-01-03-18:35:58,10.1.1.4,174,-0.050,-0.050,-0.050,0.000,0.000,0.000
1641234959030544896,2022-01-03-18:35:59,10.1.1.4,154,-0.040,-0.040,-0.040,0.000,0.000,0.000
1641234959228939008,2022-01-03-18:35:59,10.1.1.4,152,-0.030,-0.030,-0.030,0.000,0.000,0.000
1641234959429480960,2022-01-03-18:35:59,10.1.1.4,152,-0.020,-0.020,-0.020,0.000,0.000,0.000
1641234959629421824,2022-01-03-18:35:59,10.1.1.4,151,-0.010,-0.010,-0.010,0.000,0.000,0.000
1641234959833286912,2022-01-03-18:35:59,10.1.1.4,154,0.000,0.000,0.000,0.000,0.000,0.000
1641234960030405888,2022-01-03-18:36:00,10.1.1.4,150,-0.010,-0.010,-0.010,0.000,0.000,0.000
1641234960236176896,2022-01-03-18:36:00,10.1.1.4,151,-0.020,-0.020,-0.020,0.000,0.000,0.000
1641234960430636032,2022-01-03-18:36:00,10.1.1.4,146,-0.030,-0.030,-0.030,0.000,0.000,0.000
1641234960632108032,2022-01-03-18:36:00,10.1.1.4,146,-0.040,-0.040,-0.040,0.000,0.000,0.000
1641234960832207872,2022-01-03-18:36:00,10.1.1.4,145,-0.050,-0.050,-0.050,0.000,0.000,0.000
1641234961036876032,2022-01-03-18:36:01,10.1.1.4,148,-0.060,-0.060,-0.060,0.000,0.000,0.000
1641234961232656128,2022-01-03-18:36:01,10.1.1.4,142,-0.070,-0.070,-0.070,0.000,0.000,0.000
1641234961445518848,2022-01-03-18:36:01,10.1.1.4,142,-0.080,-0.080,-0.080,0.000,0.000,0.000
1641234961652657920,2022-01-03-18:36:01,10.1.1.4,159,-0.090,-0.090,-0.090,0.000,0.000,0.000
1641234961856386816,2022-01-03-18:36:01,10.1.1.4,162,-0.100,-0.100,-0.100,0.000,0.000,0.000
1641234962053138944,2022-01-03-18:36:02,10.1.1.4,159,-0.110,-0.110,-0.110,0.000,0.000,0.000
1641234962253617920,2022-01-03-18:36:02,10.1.1.4,159,-0.120,-0.120,-0.120,0.000,0.000,0.000
1641234962454277120,2022-01-03-18:36:02,10.1.1.4,159,-0.130,-0.130,-0.130,0.000,0.000,0.000
1641234962655286016,2022-01-03-18:36:02,10.1.1.4,156,-0.140,-0.140,-0.140,0.000,0.000,0.000
1641234962854501888,2022-01-03-18:36:02,10.1.1.4,153,-0.150,-0.150,-0.150,0.000,0.000,0.000
1641234963054256896,2022-01-03-18:36:03,10.1.1.4,152,-0.160,-0.160,-0.160,0.000,0.000,0.000
1641234963254242048,2022-01-03-18:36:03,10.1.1.4,151,-0.170,-0.170,-0.170,0.000,0.000,0.000
1641234963454992896,2022-01-03-18:36:03,10.1.1.4,148,-0.180,-0.180,-0.180,0.000,0.000,0.000
1641234963658153984,2022-01-03-18:36:03,10.1.1.4,148,-0.190,-0.190,-0.190,0.000,0.000,0.000
1641234963855238912,2022-01-03-18:36:03,10.1.1.4,145,-0.200,-0.200,-0.200,0.000,0.000,0.000
1641234964056438016,2022-01-03-18:36:04,10.1.1.4,145,-0.210,-0.210,-0.210,0.000,0.000,0.000
1641234964276008960,2022-01-03-18:36:04,10.1.1.4,163,-0.220,-0.220,-0.220,0.000,0.000,0.000
1641234964476306944,2022-01-03-18:36:04,10.1.1.4,163,-0.230,-0.230,-0.230,0.000,0.000,0.000
1641234964677218048,2022-01-03-18:36:04,10.1.1.4,162,-0.240,-0.240,-0.240,0.000,0.000,0.000
1641234965097476864,2022-01-03-18:36:05,10.1.1.4,156,-0.260,-0.260,-0.260,0.000,0.000,0.000
1641234965296967936,2022-01-03-18:36:05,10.1.1.4,154,-0.270,-0.270,-0.270,0.000,0.000,0.000
1641234965497724160,2022-01-03-18:36:05,10.1.1.4,154,-0.280,-0.280,-0.280,0.000,0.000,0.000
1641234965721118976,2022-01-03-18:36:05,10.1.1.4,175,-0.290,-0.290,-0.290,0.000,0.000,0.000
1641234965897402112,2022-01-03-18:36:05,10.1.1.4,149,-0.300,-0.300,-0.300,0.000,0.000,0.000
1641234966096587008,2022-01-03-18:36:06,10.1.1.4,147,-0.310,-0.310,-0.310,0.000,0.000,0.000
1641234966297008128,2022-01-03-18:36:06,10.1.1.4,146,-0.320,-0.320,-0.320,0.000,0.000,0.000
1641234966517090048,2022-01-03-18:36:06,10.1.1.4,161,-0.330,-0.330,-0.330,0.000,0.000,0.000
1641234966717238784,2022-01-03-18:36:06,10.1.1.4,159,-0.340,-0.340,-0.340,0.000,0.000,0.000
1641234966917051904,2022-01-03-18:36:06,10.1.1.4,158,-0.350,-0.350,-0.350,0.000,0.000,0.000
1641234967134706944,2022-01-03-18:36:07,10.1.1.4,175,-0.360,-0.360,-0.360,0.000,0.000,0.000
1641234967357458176,2022-01-03-18:36:07,10.1.1.4,164,-0.370,-0.370,-0.370,0.000,0.000,0.000
1641234967557892096,2022-01-03-18:36:07,10.1.1.4,163,-0.380,-0.380,-0.380,0.000,0.000,0.000
1641234967773939968,2022-01-03-18:36:07,10.1.1.4,178,-0.390,-0.390,-0.390,0.000,0.000,0.000
1641234967971111936,2022-01-03-18:36:07,10.1.1.4,162,-0.400,-0.400,-0.400,0.000,0.000,0.000
1641234968184411136,2022-01-03-18:36:08,10.1.1.4,168,-0.410,-0.410,-0.410,0.000,0.000,0.000
1641234968377607936,2022-01-03-18:36:08,10.1.1.4,158,-0.420,-0.420,-0.420,0.000,0.000,0.000
1641234968578550016,2022-01-03-18:36:08,10.1.1.4,159,-0.430,-0.430,-0.430,0.000,0.000,0.000
1641234968777726976,2022-01-03-18:36:08,10.1.1.4,156,-0.440,-0.440,-0.440,0.000,0.000,0.000
1641234968979017984,2022-01-03-18:36:08,10.1.1.4,157,-0.450,-0.450,-0.450,0.000,0.000,0.000
1641234969178117888,2022-01-03-18:36:09,10.1.1.4,154,-0.460,-0.460,-0.460,0.000,0.000,0.000
1641234969411407104,2022-01-03-18:36:09,10.1.1.4,179,-0.470,-0.470,-0.470,0.000,0.000,0.000
1641234969578344960,2022-01-03-18:36:09,10.1.1.4,148,-0.480,-0.480,-0.480,0.000,0.000,0.000
1641234969838018048,2022-01-03-18:36:09,10.1.1.4,165,-0.490,-0.490,-0.490,0.000,0.000,0.000
1641234970045927936,2022-01-03-18:36:10,10.1.1.4,172,-0.480,-0.480,-0.480,0.000,0.000,0.000
1641234970274214912,2022-01-03-18:36:10,10.1.1.4,199,-0.470,-0.470,-0.470,0.000,0.000,0.000
1641234970438787072,2022-01-03-18:36:10,10.1.1.4,162,-0.460,-0.460,-0.460,0.000,0.000,0.000
1641234970642054144,2022-01-03-18:36:10,10.1.1.4,164,-0.450,-0.450,-0.450,0.000,0.000,0.000
1641234970838987008,2022-01-03-18:36:10,10.1.1.4,160,-0.440,-0.440,-0.440,0.000,0.000,0.000
1641234971038820096,2022-01-03-18:36:11,10.1.1.4,157,-0.430,-0.430,-0.430,0.000,0.000,0.000
1641234971257883904,2022-01-03-18:36:11,10.1.1.4,163,-0.420,-0.420,-0.420,0.000,0.000,0.000
1641234971458053120,2022-01-03-18:36:11,10.1.1.4,163,-0.410,-0.410,-0.410,0.000,0.000,0.000
1641234971662603008,2022-01-03-18:36:11,10.1.1.4,166,-0.400,-0.400,-0.400,0.000,0.000,0.000
1641234971857956864,2022-01-03-18:36:11,10.1.1.4,159,-0.390,-0.390,-0.390,0.000,0.000,0.000
1641234972057879808,2022-01-03-18:36:12,10.1.1.4,159,-0.380,-0.380,-0.380,0.000,0.000,0.000
1641234972259128064,2022-01-03-18:36:12,10.1.1.4,159,-0.370,-0.370,-0.370,0.000,0.000,0.000
1641234972458781952,2022-01-03-18:36:12,10.1.1.4,156,-0.360,-0.360,-0.360,0.000,0.000,0.000
1641234972658312192,2022-01-03-18:36:12,10.1.1.4,155,-0.350,-0.350,-0.350,0.000,0.000,0.000
1641234972857603072,2022-01-03-18:36:12,10.1.1.4,153,-0.340,-0.340,-0.340,0.000,0.000,0.000
1641234973058156032,2022-01-03-18:36:13,10.1.1.4,152,-0.330,-0.330,-0.330,0.000,0.000,0.000
1641234973257890816,2022-01-03-18:36:13,10.1.1.4,151,-0.320,-0.320,-0.320,0.000,0.000,0.000
1641234973457359104,2022-01-03-18:36:13,10.1.1.4,149,-0.310,-0.310,-0.310,0.000,0.000,0.000
1641234973658173952,2022-01-03-18:36:13,10.1.1.4,148,-0.300,-0.300,-0.300,0.000,0.000,0.000
1641234973890876928,2022-01-03-18:36:13,10.1.1.4,180,-0.290,-0.290,-0.290,0.000,0.000,0.000
1641234974057811968,2022-01-03-18:36:14,10.1.1.4,146,-0.280,-0.280,-0.280,0.000,0.000,0.000
1641234974278439168,2022-01-03-18:36:14,10.1.1.4,165,-0.270,-0.270,-0.270,0.000,0.000,0.000
1641234974477033984,2022-01-03-18:36:14,10.1.1.4,164,-0.260,-0.260,-0.260,0.000,0.000,0.000
1641234974677069824,2022-01-03-18:36:14,10.1.1.4,161,-0.250,-0.250,-0.250,0.000,0.000,0.000
1641234974882721024,2022-01-03-18:36:14,10.1.1.4,165,-0.240,-0.240,-0.240,0.000,0.000,0.000
1641234975077949952,2022-01-03-18:36:15,10.1.1.4,159,-0.230,-0.230,-0.230,0.000,0.000,0.000
1641234975276911104,2022-01-03-18:36:15,10.1.1.4,158,-0.220,-0.220,-0.220,0.000,0.000,0.000
1641234975476957184,2022-01-03-18:36:15,10.1.1.4,157,-0.210,-0.210,-0.210,0.000,0.000,0.000
1641234975676312832,2022-01-03-18:36:15,10.1.1.4,155,-0.200,-0.200,-0.200,0.000,0.000,0.000
1641234975876709888,2022-01-03-18:36:15,10.1.1.4,155,-0.190,-0.190,-0.190,0.000,0.000,0.000
1641234976086657024,2022-01-03-18:36:16,10.1.1.4,164,-0.180,-0.180,-0.180,0.000,0.000,0.000
1641234976276925184,2022-01-03-18:36:16,10.1.1.4,153,-0.170,-0.170,-0.170,0.000,0.000,0.000
1641234976497500928,2022-01-03-18:36:16,10.1.1.4,149,-0.160,-0.160,-0.160,0.000,0.000,0.000
1641234976696455936,2022-01-03-18:36:16,10.1.1.4,146,-0.150,-0.150,-0.150,0.000,0.000,0.000
1641234976906480128,2022-01-03-18:36:16,10.1.1.4,155,-0.140,-0.140,-0.140,0.000,0.000,0.000
1641234977115192832,2022-01-03-18:36:17,10.1.1.4,162,-0.130,-0.130,-0.130,0.000,0.000,0.000
1641234977323301120,2022-01-03-18:36:17,10.1.1.4,169,-0.120,-0.120,-0.120,0.000,0.000,0.000
1641234977515304960,2022-01-03-18:36:17,10.1.1.4,156,-0.110,-0.110,-0.110,0.000,0.000,0.000
1641234977715718144,2022-01-03-18:36:17,10.1.1.4,155,-0.100,-0.100,-0.100,0.000,0.000,0.000
1641234977915042048,2022-01-03-18:36:17,10.1.1.4,153,-0.090,-0.090,-0.090,0.000,0.000,0.000
1641234978115603968,2022-01-03-18:36:18,10.1.1.4,153,-0.080,-0.080,-0.080,0.000,0.000,0.000
1641234978316299008,2022-01-03-18:36:18,10.1.1.4,151,-0.070,-0.070,-0.070,0.000,0.000,0.000
1641234978556148992,2022-01-03-18:36:18,10.1.1.4,164,-0.060,-0.060,-0.060,0.000,0.000,0.000
1641234978774619136,2022-01-03-18:36:18,10.1.1.4,144,-0.050,-0.050,-0.050,0.000,0.000,0.000
1641234978974545920,2022-01-03-18:36:18,10.1.1.4,143,-0.040,-0.040,-0.040,0.000,0.000,0.000
1641234979194152192,2022-01-03-18:36:19,10.1.1.4,157,-0.030,-0.030,-0.030,0.000,0.000,0.000
1641234979393860096,2022-01-03-18:36:19,10.1.1.4,145,-0.020,-0.020,-0.020,0.000,0.000,0.000
1641234979632456960,2022-01-03-18:36:19,10.1.1.4,171,-0.010,-0.010,-0.010,0.000,0.000,0.000
1641234979813804032,2022-01-03-18:36:19,10.1.1.4,151,0.000,0.000,0.000,0.000,0.000,0.000
1641234980013325056,2022-01-03-18:36:20,10.1.1.4,148,-0.010,-0.010,-0.010,0.000,0.000,0.000
1641234980213681920,2022-01-03-18:36:20,10.1.1.4,147,-0.020,-0.020,-0.020,0.000,0.000,0.000
1641234980413458176,2022-01-03-18:36:20,10.1.1.4,146,-0.030,-0.030,-0.030,0.000,0.000,0.000
1641234980635149056,2022-01-03-18:36:20,10.1.1.4,160,-0.040,-0.040,-0.040,0.000,0.000,0.000
1641234980832845824,2022-01-03-18:36:20,10.1.1.4,153,-0.050,-0.050,-0.050,0.000,0.000,0.000
1641234981036792064,2022-01-03-18:36:21,10.1.1.4,156,-0.060,-0.060,-0.060,0.000,0.000,0.000
1641234981232506112,2022-01-03-18:36:21,10.1.1.4,151,-0.070,-0.070,-0.070,0.000,0.000,0.000
1641234981433787136,2022-01-03-18:36:21,10.1.1.4,151,-0.080,-0.080,-0.080,0.000,0.000,0.000
1641234981632518912,2022-01-03-18:36:21,10.1.1.4,145,-0.090,-0.090,-0.090,0.000,0.000,0.000
1641234981876792832,2022-01-03-18:36:21,10.1.1.4,163,-0.100,-0.100,-0.100,0.000,0.000,0.000
1641234982056619008,2022-01-03-18:36:22,10.1.1.4,156,-0.110,-0.110,-0.110,0.000,0.000,0.000
1641234982251741952,2022-01-03-18:36:22,10.1.1.4,141,-0.120,-0.120,-0.120,0.000,0.000,0.000
1641234982451678976,2022-01-03-18:36:22,10.1.1.4,140,-0.130,-0.130,-0.130,0.000,0.000,0.000
1641234982651292160,2022-01-03-18:36:22,10.1.1.4,140,-0.140,-0.140,-0.140,0.000,0.000,0.000
1641234982871104000,2022-01-03-18:36:22,10.1.1.4,158,-0.150,-0.150,-0.150,0.000,0.000,0.000
1641234983071409920,2022-01-03-18:36:23,10.1.1.4,156,-0.160,-0.160,-0.160,0.000,0.000,0.000
1641234983270415104,2022-01-03-18:36:23,10.1.1.4,154,-0.170,-0.170,-0.170,0.000,0.000,0.000
1641234983469986816,2022-01-03-18:36:23,10.1.1.4,152,-0.180,-0.180,-0.180,0.000,0.000,0.000
1641234983670841088,2022-01-03-18:36:23,10.1.1.4,151,-0.190,-0.190,-0.190,0.000,0.000,0.000
1641234983872435968,2022-01-03-18:36:23,10.1.1.4,151,-0.200,-0.200,-0.200,0.000,0.000,0.000
1641234984070931968,2022-01-03-18:36:24,10.1.1.4,145,-0.210,-0.210,-0.210,0.000,0.000,0.000
1641234984269480960,2022-01-03-18:36:24,10.1.1.4,140,-0.220,-0.220,-0.220,0.000,0.000,0.000
1641234984489548032,2022-01-03-18:36:24,10.1.1.4,155,-0.230,-0.230,-0.230,0.000,0.000,0.000
1641234984689775104,2022-01-03-18:36:24,10.1.1.4,154,-0.240,-0.240,-0.240,0.000,0.000,0.000
1641234984890137856,2022-01-03-18:36:24,10.1.1.4,154,-0.250,-0.250,-0.250,0.000,0.000,0.000
1641234985088934912,2022-01-03-18:36:25,10.1.1.4,152,-0.260,-0.260,-0.260,0.000,0.000,0.000
1641234985290184960,2022-01-03-18:36:25,10.1.1.4,143,-0.270,-0.270,-0.270,0.000,0.000,0.000
1641234985489213952,2022-01-03-18:36:25,10.1.1.4,139,-0.280,-0.280,-0.280,0.000,0.000,0.000
1641234985688435968,2022-01-03-18:36:25,10.1.1.4,137,-0.290,-0.290,-0.290,0.000,0.000,0.000
1641234985888308992,2022-01-03-18:36:25,10.1.1.4,136,-0.300,-0.300,-0.300,0.000,0.000,0.000
1641234986108325120,2022-01-03-18:36:26,10.1.1.4,147,-0.310,-0.310,-0.310,0.000,0.000,0.000
1641234986322770176,2022-01-03-18:36:26,10.1.1.4,155,-0.320,-0.320,-0.320,0.000,0.000,0.000
1641234986527432960,2022-01-03-18:36:26,10.1.1.4,140,-0.330,-0.330,-0.330,0.000,0.000,0.000
1641234986747447040,2022-01-03-18:36:26,10.1.1.4,135,-0.340,-0.340,-0.340,0.000,0.000,0.000
1641234986966862848,2022-01-03-18:36:26,10.1.1.4,153,-0.350,-0.350,-0.350,0.000,0.000,0.000
1641234987166593024,2022-01-03-18:36:27,10.1.1.4,151,-0.360,-0.360,-0.360,0.000,0.000,0.000
1641234987366743040,2022-01-03-18:36:27,10.1.1.4,148,-0.370,-0.370,-0.370,0.000,0.000,0.000
1641234987590529792,2022-01-03-18:36:27,10.1.1.4,170,-0.380,-0.380,-0.380,0.000,0.000,0.000
1641234987765875200,2022-01-03-18:36:27,10.1.1.4,141,-0.390,-0.390,-0.390,0.000,0.000,0.000
1641234987965475072,2022-01-03-18:36:27,10.1.1.4,136,-0.400,-0.400,-0.400,0.000,0.000,0.000
1641234988165776896,2022-01-03-18:36:28,10.1.1.4,136,-0.410,-0.410,-0.410,0.000,0.000,0.000
1641234988365497088,2022-01-03-18:36:28,10.1.1.4,134,-0.420,-0.420,-0.420,0.000,0.000,0.000
1641234988564926976,2022-01-03-18:36:28,10.1.1.4,133,-0.430,-0.430,-0.430,0.000,0.000,0.000
1641234988826121216,2022-01-03-18:36:28,10.1.1.4,135,-0.440,-0.440,-0.440,0.000,0.000,0.000
1641234989044521216,2022-01-03-18:36:29,10.1.1.4,146,-0.450,-0.450,-0.450,0.000,0.000,0.000
1641234989243959808,2022-01-03-18:36:29,10.1.1.4,145,-0.460,-0.460,-0.460,0.000,0.000,0.000
1641234989443654144,2022-01-03-18:36:29,10.1.1.4,143,-0.470,-0.470,-0.470,0.000,0.000,0.000
1641234989643933952,2022-01-03-18:36:29,10.1.1.4,143,-0.480,-0.480,-0.480,0.000,0.000,0.000
1641234989874851840,2022-01-03-18:36:29,10.1.1.4,151,-0.490,-0.490,-0.490,0.000,0.000,0.000
1641234990044672000,2022-01-03-18:36:30,10.1.1.4,134,-0.480,-0.480,-0.480,0.000,0.000,0.000
1641234990244754944,2022-01-03-18:36:30,10.1.1.4,132,-0.470,-0.470,-0.470,0.000,0.000,0.000
1641234990462795008,2022-01-03-18:36:30,10.1.1.4,151,-0.460,-0.460,-0.460,0.000,0.000,0.000
1641234990662813952,2022-01-03-18:36:30,10.1.1.4,146,-0.450,-0.450,-0.450,0.000,0.000,0.000
1641234990868761088,2022-01-03-18:36:30,10.1.1.4,152,-0.440,-0.440,-0.440,0.000,0.000,0.000
1641234991062304000,2022-01-03-18:36:31,10.1.1.4,140,-0.430,-0.430,-0.430,0.000,0.000,0.000
1641234991262411008,2022-01-03-18:36:31,10.1.1.4,139,-0.420,-0.420,-0.420,0.000,0.000,0.000
1641234991462914048,2022-01-03-18:36:31,10.1.1.4,139,-0.410,-0.410,-0.410,0.000,0.000,0.000
1641234991669513984,2022-01-03-18:36:31,10.1.1.4,144,-0.400,-0.400,-0.400,0.000,0.000,0.000
1641234991860744960,2022-01-03-18:36:31,10.1.1.4,136,-0.390,-0.390,-0.390,0.000,0.000,0.000
1641234992082294016,2022-01-03-18:36:32,10.1.1.4,154,-0.380,-0.380,-0.380,0.000,0.000,0.000
1641234992280734976,2022-01-03-18:36:32,10.1.1.4,148,-0.370,-0.370,-0.370,0.000,0.000,0.000
1641234992480144896,2022-01-03-18:36:32,10.1.1.4,144,-0.360,-0.360,-0.360,0.000,0.000,0.000
1641234992680148992,2022-01-03-18:36:32,10.1.1.4,143,-0.350,-0.350,-0.350,0.000,0.000,0.000
1641234992880119040,2022-01-03-18:36:32,10.1.1.4,132,-0.340,-0.340,-0.340,0.000,0.000,0.000
1641234993099348992,2022-01-03-18:36:33,10.1.1.4,139,-0.330,-0.330,-0.330,0.000,0.000,0.000
1641234993304445952,2022-01-03-18:36:33,10.1.1.4,143,-0.320,-0.320,-0.320,0.000,0.000,0.000
1641234993498958080,2022-01-03-18:36:33,10.1.1.4,137,-0.310,-0.310,-0.310,0.000,0.000,0.000
1641234993698550016,2022-01-03-18:36:33,10.1.1.4,136,-0.300,-0.300,-0.300,0.000,0.000,0.000
1641234993898219008,2022-01-03-18:36:33,10.1.1.4,135,-0.290,-0.290,-0.290,0.000,0.000,0.000
1641234994098340096,2022-01-03-18:36:34,10.1.1.4,134,-0.280,-0.280,-0.280,0.000,0.000,0.000
1641234994497499904,2022-01-03-18:36:34,10.1.1.4,131,-0.260,-0.260,-0.260,0.000,0.000,0.000
1641234994697390080,2022-01-03-18:36:34,10.1.1.4,129,-0.250,-0.250,-0.250,0.000,0.000,0.000
1641234994921345024,2022-01-03-18:36:34,10.1.1.4,152,-0.240,-0.240,-0.240,0.000,0.000,0.000
1641234995096834048,2022-01-03-18:36:35,10.1.1.4,127,-0.230,-0.230,-0.230,0.000,0.000,0.000
1641234995296265984,2022-01-03-18:36:35,10.1.1.4,125,-0.220,-0.220,-0.220,0.000,0.000,0.000
1641234995542854912,2022-01-03-18:36:35,10.1.1.4,146,-0.210,-0.210,-0.210,0.000,0.000,0.000
1641234995742376960,2022-01-03-18:36:35,10.1.1.4,141,-0.200,-0.200,-0.200,0.000,0.000,0.000
1641234995935736832,2022-01-03-18:36:35,10.1.1.4,137,-0.190,-0.190,-0.190,0.000,0.000,0.000
1641234996143635968,2022-01-03-18:36:36,10.1.1.4,142,-0.180,-0.180,-0.180,0.000,0.000,0.000
1641234996335730944,2022-01-03-18:36:36,10.1.1.4,135,-0.170,-0.170,-0.170,0.000,0.000,0.000
1641234996535303168,2022-01-03-18:36:36,10.1.1.4,134,-0.160,-0.160,-0.160,0.000,0.000,0.000
1641234996734649856,2022-01-03-18:36:36,10.1.1.4,125,-0.150,-0.150,-0.150,0.000,0.000,0.000
1641234996953944064,2022-01-03-18:36:36,10.1.1.4,124,-0.140,-0.140,-0.140,0.000,0.000,0.000
1641234997161549056,2022-01-03-18:36:37,10.1.1.4,131,-0.130,-0.130,-0.130,0.000,0.000,0.000
1641234997362601984,2022-01-03-18:36:37,10.1.1.4,132,-0.120,-0.120,-0.120,0.000,0.000,0.000
1641234997553458944,2022-01-03-18:36:37,10.1.1.4,122,-0.110,-0.110,-0.110,0.000,0.000,0.000
1641234997772874240,2022-01-03-18:36:37,10.1.1.4,140,-0.100,-0.100,-0.100,0.000,0.000,0.000
1641234997972872960,2022-01-03-18:36:37,10.1.1.4,138,-0.090,-0.090,-0.090,0.000,0.000,0.000
1641234998175038976,2022-01-03-18:36:38,10.1.1.4,140,-0.080,-0.080,-0.080,0.000,0.000,0.000
1641234998373341952,2022-01-03-18:36:38,10.1.1.4,138,-0.070,-0.070,-0.070,0.000,0.000,0.000
1641234998593892096,2022-01-03-18:36:38,10.1.1.4,157,-0.060,-0.060,-0.060,0.000,0.000,0.000
1641234998643085056,2022-01-03-18:36:38,10.1.1.4,-10,-0.060,-0.060,-0.060,0.000,0.000,0.000
1641234998971885824,2022-01-03-18:36:38,10.1.1.4,123,-0.040,-0.040,-0.040,0.000,0.000,0.000
1641234999205569024,2022-01-03-18:36:39,10.1.1.4,144,-0.030,-0.030,-0.030,0.000,0.000,0.000
1641234999391187968,2022-01-03-18:36:39,10.1.1.4,129,-0.020,-0.020,-0.020,0.000,0.000,0.000
1641234999596596992,2022-01-03-18:36:39,10.1.1.4,133,-0.010,-0.010,-0.010,0.000,0.000,0.000
1641234999792481792,2022-01-03-18:36:39,10.1.1.4,128,0.000,0.000,0.000,0.000,0.000,0.000
1641235000030919936,2022-01-03-18:36:40,10.1.1.4,132,-0.010,-0.010,-0.010,0.000,0.000,0.000
1641235000229332992,2022-01-03-18:36:40,10.1.1.4,129,-0.020,-0.020,-0.020,0.000,0.000,0.000
1641235000429188864,2022-01-03-18:36:40,10.1.1.4,128,-0.030,-0.030,-0.030,0.000,0.000,0.000
1641235000628609792,2022-01-03-18:36:40,10.1.1.4,127,-0.040,-0.040,-0.040,0.000,0.000,0.000
1641235000828663040,2022-01-03-18:36:40,10.1.1.4,126,-0.050,-0.050,-0.050,0.000,0.000,0.000
1641235001046417920,2022-01-03-18:36:41,10.1.1.4,132,-0.060,-0.060,-0.060,0.000,0.000,0.000
1641235001228201984,2022-01-03-18:36:41,10.1.1.4,120,-0.070,-0.070,-0.070,0.000,0.000,0.000
1641235001427932928,2022-01-03-18:36:41,10.1.1.4,118,-0.080,-0.080,-0.080,0.000,0.000,0.000
1641235001630162944,2022-01-03-18:36:41,10.1.1.4,115,-0.090,-0.090,-0.090,0.000,0.000,0.000
1641235001853831168,2022-01-03-18:36:41,10.1.1.4,141,-0.100,-0.100,-0.100,0.000,0.000,0.000
1641235002046892800,2022-01-03-18:36:42,10.1.1.4,133,-0.110,-0.110,-0.110,0.000,0.000,0.000
1641235002246406144,2022-01-03-18:36:42,10.1.1.4,128,-0.120,-0.120,-0.120,0.000,0.000,0.000
1641235002447256064,2022-01-03-18:36:42,10.1.1.4,124,-0.130,-0.130,-0.130,0.000,0.000,0.000
1641235002646492928,2022-01-03-18:36:42,10.1.1.4,122,-0.140,-0.140,-0.140,0.000,0.000,0.000
1641235002846137088,2022-01-03-18:36:42,10.1.1.4,116,-0.150,-0.150,-0.150,0.000,0.000,0.000
1641235003046076160,2022-01-03-18:36:43,10.1.1.4,115,-0.160,-0.160,-0.160,0.000,0.000,0.000
1641235003297560832,2022-01-03-18:36:43,10.1.1.4,165,-0.170,-0.170,-0.170,0.000,0.000,0.000
1641235003464793088,2022-01-03-18:36:43,10.1.1.4,129,-0.180,-0.180,-0.180,0.000,0.000,0.000
1641235003664359168,2022-01-03-18:36:43,10.1.1.4,121,-0.190,-0.190,-0.190,0.000,0.000,0.000
1641235003864235008,2022-01-03-18:36:43,10.1.1.4,117,-0.200,-0.200,-0.200,0.000,0.000,0.000
1641235004097817856,2022-01-03-18:36:44,10.1.1.4,144,-0.210,-0.210,-0.210,0.000,0.000,0.000
1641235004292634880,2022-01-03-18:36:44,10.1.1.4,133,-0.220,-0.220,-0.220,0.000,0.000,0.000
1641235004495130112,2022-01-03-18:36:44,10.1.1.4,138,-0.230,-0.230,-0.230,0.000,0.000,0.000
1641235004682530048,2022-01-03-18:36:44,10.1.1.4,125,-0.240,-0.240,-0.240,0.000,0.000,0.000
1641235004882662912,2022-01-03-18:36:44,10.1.1.4,124,-0.250,-0.250,-0.250,0.000,0.000,0.000
1641235005083465984,2022-01-03-18:36:45,10.1.1.4,124,-0.260,-0.260,-0.260,0.000,0.000,0.000
1641235005282249984,2022-01-03-18:36:45,10.1.1.4,120,-0.270,-0.270,-0.270,0.000,0.000,0.000
1641235005481378048,2022-01-03-18:36:45,10.1.1.4,118,-0.280,-0.280,-0.280,0.000,0.000,0.000
1641235005701404160,2022-01-03-18:36:45,10.1.1.4,137,-0.290,-0.290,-0.290,0.000,0.000,0.000
1641235005885042944,2022-01-03-18:36:45,10.1.1.4,120,-0.300,-0.300,-0.300,0.000,0.000,0.000
1641235006080503040,2022-01-03-18:36:46,10.1.1.4,114,-0.310,-0.310,-0.310,0.000,0.000,0.000
1641235006280278016,2022-01-03-18:36:46,10.1.1.4,113,-0.320,-0.320,-0.320,0.000,0.000,0.000
1641235006479924992,2022-01-03-18:36:46,10.1.1.4,111,-0.330,-0.330,-0.330,0.000,0.000,0.000
1641235006680358912,2022-01-03-18:36:46,10.1.1.4,110,-0.340,-0.340,-0.340,0.000,0.000,0.000
1641235006879101952,2022-01-03-18:36:46,10.1.1.4,109,-0.350,-0.350,-0.350,0.000,0.000,0.000
1641235007078810880,2022-01-03-18:36:47,10.1.1.4,108,-0.360,-0.360,-0.360,0.000,0.000,0.000
1641235007298413056,2022-01-03-18:36:47,10.1.1.4,126,-0.370,-0.370,-0.370,0.000,0.000,0.000
1641235007498513920,2022-01-03-18:36:47,10.1.1.4,124,-0.380,-0.380,-0.380,0.000,0.000,0.000
1641235007698407936,2022-01-03-18:36:47,10.1.1.4,124,-0.390,-0.390,-0.390,0.000,0.000,0.000
1641235007897555200,2022-01-03-18:36:47,10.1.1.4,122,-0.400,-0.400,-0.400,0.000,0.000,0.000
1641235008097342976,2022-01-03-18:36:48,10.1.1.4,117,-0.410,-0.410,-0.410,0.000,0.000,0.000
1641235008297068032,2022-01-03-18:36:48,10.1.1.4,113,-0.420,-0.420,-0.420,0.000,0.000,0.000
1641235008496664064,2022-01-03-18:36:48,10.1.1.4,112,-0.430,-0.430,-0.430,0.000,0.000,0.000
1641235008697572864,2022-01-03-18:36:48,10.1.1.4,112,-0.440,-0.440,-0.440,0.000,0.000,0.000
1641235008900630016,2022-01-03-18:36:48,10.1.1.4,111,-0.450,-0.450,-0.450,0.000,0.000,0.000
1641235009115746048,2022-01-03-18:36:49,10.1.1.4,122,-0.460,-0.460,-0.460,0.000,0.000,0.000
1641235009315143168,2022-01-03-18:36:49,10.1.1.4,112,-0.470,-0.470,-0.470,0.000,0.000,0.000
1641235009517425920,2022-01-03-18:36:49,10.1.1.4,113,-0.480,-0.480,-0.480,0.000,0.000,0.000
1641235009714566912,2022-01-03-18:36:49,10.1.1.4,109,-0.490,-0.490,-0.490,0.000,0.000,0.000
