FedericoMungari/DigitalTwin_service/01_WiredScenario/Output/Output_script/script_rosapi_2_subcommandoutput_robots2_freq0_2.txt
timestamp,date,node,latency,joint_1,joint_2,joint_3,joint_4,joint_5,joint_6
1643876895839066880,2022-02-03-08:28:15,10.1.1.3,199,0.000,-0.012,-0.123,0.000,0.000,0.000
1643876895859065088,2022-02-03-08:28:15,10.1.1.3,17,0.000,-0.050,-0.050,0.000,0.000,0.000
1643876896054294016,2022-02-03-08:28:16,10.1.1.3,11,0.000,-0.100,-0.100,0.000,0.000,0.000
1643876896252957184,2022-02-03-08:28:16,10.1.1.3,7,0.000,-0.150,-0.150,0.000,0.000,0.000
1643876896454468864,2022-02-03-08:28:16,10.1.1.3,8,0.000,-0.200,-0.200,0.000,0.000,0.000
1643876896654041088,2022-02-03-08:28:16,10.1.1.3,6,0.000,-0.245,-0.245,0.000,0.000,0.000
1643876896854348032,2022-02-03-08:28:16,10.1.1.3,4,0.000,-0.299,-0.299,0.000,0.000,0.000
1643876897053588992,2022-02-03-08:28:17,10.1.1.3,2,0.000,-0.348,-0.348,0.000,0.000,0.000
1643876897255027968,2022-02-03-08:28:17,10.1.1.3,1,0.000,-0.398,-0.398,0.000,0.000,0.000
1643876897472491008,2022-02-03-08:28:17,10.1.1.3,18,0.000,-0.450,-0.450,0.000,0.000,0.000
1643876897673799936,2022-02-03-08:28:17,10.1.1.3,19,0.000,-0.500,-0.500,0.000,0.000,0.000
1643876897871478016,2022-02-03-08:28:17,10.1.1.3,16,0.000,-0.550,-0.550,0.000,0.000,0.000
1643876898061317888,2022-02-03-08:28:18,10.1.1.3,4,0.000,-0.598,-0.598,0.000,0.000,0.000
1643876898274635008,2022-02-03-08:28:18,10.1.1.3,13,0.000,-0.650,-0.650,0.000,0.000,0.000
1643876898473950976,2022-02-03-08:28:18,10.1.1.3,11,0.000,-0.700,-0.700,0.000,0.000,0.000
1643876898674563840,2022-02-03-08:28:18,10.1.1.3,11,0.000,-0.750,-0.750,0.000,0.000,0.000
1643876898891890176,2022-02-03-08:28:18,10.1.1.3,27,0.000,-0.800,-0.750,0.000,0.000,0.000
1643876899074240000,2022-02-03-08:28:19,10.1.1.3,8,0.000,-0.850,-0.750,0.000,0.000,0.000
1643876899274082048,2022-02-03-08:28:19,10.1.1.3,7,0.000,-0.900,-0.750,0.000,0.000,0.000
1643876899473858048,2022-02-03-08:28:19,10.1.1.3,6,0.000,-0.950,-0.750,0.000,0.000,0.000
1643876899674915072,2022-02-03-08:28:19,10.1.1.3,6,0.000,-0.950,-0.750,0.000,0.000,0.000
1643876899876219904,2022-02-03-08:28:19,10.1.1.3,2,-0.049,-0.901,-0.701,0.000,0.000,0.000
1643876900141025024,2022-02-03-08:28:20,10.1.1.3,63,-0.100,-0.850,-0.650,0.000,0.000,0.000
1643876900318834944,2022-02-03-08:28:20,10.1.1.3,39,-0.150,-0.800,-0.600,0.000,0.000,0.000
1643876900482353920,2022-02-03-08:28:20,10.1.1.3,-3,-0.197,-0.753,-0.553,0.000,0.000,0.000
1643876900699582976,2022-02-03-08:28:20,10.1.1.3,17,-0.250,-0.700,-0.500,0.000,0.000,0.000
1643876900899699968,2022-02-03-08:28:20,10.1.1.3,16,-0.300,-0.700,-0.450,0.000,0.000,0.000
1643876901088172800,2022-02-03-08:28:21,10.1.1.3,4,-0.347,-0.700,-0.403,0.000,0.000,0.000
1643876901298082048,2022-02-03-08:28:21,10.1.1.3,9,-0.400,-0.700,-0.350,0.000,0.000,0.000
1643876901498380800,2022-02-03-08:28:21,10.1.1.3,8,-0.450,-0.700,-0.300,0.000,0.000,0.000
1643876901699532032,2022-02-03-08:28:21,10.1.1.3,9,-0.500,-0.700,-0.250,0.000,0.000,0.000
1643876901893768192,2022-02-03-08:28:21,10.1.1.3,2,-0.542,-0.700,-0.250,0.000,0.000,0.000
1643876902114147072,2022-02-03-08:28:22,10.1.1.3,19,-0.600,-0.700,-0.250,0.000,0.000,0.000
1643876902301740800,2022-02-03-08:28:22,10.1.1.3,6,-0.649,-0.700,-0.250,0.000,0.000,0.000
1643876902499346944,2022-02-03-08:28:22,10.1.1.3,2,-0.699,-0.700,-0.250,0.000,0.000,0.000
1643876902720397824,2022-02-03-08:28:22,10.1.1.3,22,-0.751,-0.700,-0.250,0.000,0.000,0.000
1643876902900100864,2022-02-03-08:28:22,10.1.1.3,1,-0.798,-0.700,-0.250,0.000,0.000,0.000
1643876903100989184,2022-02-03-08:28:23,10.1.1.3,1,-0.848,-0.700,-0.250,0.000,0.000,0.000
1643876903320292864,2022-02-03-08:28:23,10.1.1.3,19,-0.900,-0.700,-0.250,0.000,0.000,0.000
1643876903519351040,2022-02-03-08:28:23,10.1.1.3,18,-0.950,-0.700,-0.250,0.000,0.000,0.000
1643876903720134144,2022-02-03-08:28:23,10.1.1.3,17,-0.950,-0.700,-0.250,0.000,0.000,0.000
1643876903918409216,2022-02-03-08:28:23,10.1.1.3,14,-0.950,-0.700,-0.250,0.000,0.000,0.000
1643876904119091968,2022-02-03-08:28:24,10.1.1.3,13,-0.950,-0.700,-0.250,0.000,0.000,0.000
1643876904319606016,2022-02-03-08:28:24,10.1.1.3,12,-0.950,-0.700,-0.250,0.000,0.000,0.000
1643876904516075008,2022-02-03-08:28:24,10.1.1.3,8,-0.900,-0.650,-0.300,0.000,0.000,0.000
1643876904715662848,2022-02-03-08:28:24,10.1.1.3,3,-0.850,-0.600,-0.350,0.000,0.000,0.000
1643876904917320960,2022-02-03-08:28:24,10.1.1.3,2,-0.802,-0.552,-0.398,0.000,0.000,0.000
1643876905117650944,2022-02-03-08:28:25,10.1.1.3,0,-0.752,-0.502,-0.448,0.000,0.000,0.000
1643876905335452928,2022-02-03-08:28:25,10.1.1.3,18,-0.700,-0.450,-0.500,0.000,0.000,0.000
1643876905534793984,2022-02-03-08:28:25,10.1.1.3,16,-0.650,-0.400,-0.550,0.000,0.000,0.000
1643876905739602944,2022-02-03-08:28:25,10.1.1.3,20,-0.600,-0.350,-0.600,0.000,0.000,0.000
1643876905939277056,2022-02-03-08:28:25,10.1.1.3,17,-0.549,-0.299,-0.650,0.000,0.000,0.000
1643876906138159104,2022-02-03-08:28:26,10.1.1.3,15,-0.500,-0.250,-0.650,0.000,0.000,0.000
1643876906339255040,2022-02-03-08:28:26,10.1.1.3,15,-0.450,-0.250,-0.650,0.000,0.000,0.000
1643876906540334080,2022-02-03-08:28:26,10.1.1.3,14,-0.450,-0.250,-0.650,0.000,0.000,0.000
1643876906734497024,2022-02-03-08:28:26,10.1.1.3,7,-0.491,-0.291,-0.609,0.000,0.000,0.000
1643876906934871808,2022-02-03-08:28:26,10.1.1.3,6,-0.543,-0.343,-0.557,0.000,0.000,0.000
1643876907133396992,2022-02-03-08:28:27,10.1.1.3,4,-0.599,-0.399,-0.501,0.000,0.000,0.000
1643876907333959936,2022-02-03-08:28:27,10.1.1.3,3,-0.649,-0.400,-0.451,0.000,0.000,0.000
1643876907535717120,2022-02-03-08:28:27,10.1.1.3,4,-0.698,-0.400,-0.402,0.000,0.000,0.000
1643876907735174912,2022-02-03-08:28:27,10.1.1.3,3,-0.748,-0.400,-0.352,0.000,0.000,0.000
1643876907953208832,2022-02-03-08:28:27,10.1.1.3,16,-0.800,-0.400,-0.300,0.000,0.000,0.000
1643876908143089152,2022-02-03-08:28:28,10.1.1.3,4,-0.844,-0.400,-0.256,0.000,0.000,0.000
1643876908365630976,2022-02-03-08:28:28,10.1.1.3,26,-0.900,-0.400,-0.250,0.000,0.000,0.000
1643876908558121984,2022-02-03-08:28:28,10.1.1.3,17,-0.950,-0.400,-0.250,0.000,0.000,0.000
1643876908747760896,2022-02-03-08:28:28,10.1.1.3,5,-0.995,-0.400,-0.250,0.000,0.000,0.000
1643876908953250048,2022-02-03-08:28:28,10.1.1.3,10,-1.050,-0.400,-0.250,0.000,0.000,0.000
1643876909154156032,2022-02-03-08:28:29,10.1.1.3,9,-1.100,-0.400,-0.250,0.000,0.000,0.000
1643876909353956864,2022-02-03-08:28:29,10.1.1.3,8,-1.150,-0.400,-0.250,0.000,0.000,0.000
1643876909558274048,2022-02-03-08:28:29,10.1.1.3,12,-1.200,-0.400,-0.250,0.000,0.000,0.000
1643876909757911040,2022-02-03-08:28:29,10.1.1.3,10,-1.250,-0.400,-0.250,0.000,0.000,0.000
1643876909955909888,2022-02-03-08:28:29,10.1.1.3,7,-1.300,-0.400,-0.250,0.000,0.000,0.000
1643876910153882112,2022-02-03-08:28:30,10.1.1.3,4,-1.347,-0.400,-0.250,0.000,0.000,0.000
1643876910355479040,2022-02-03-08:28:30,10.1.1.3,5,-1.399,-0.400,-0.250,0.000,0.000,0.000
1643876910556036096,2022-02-03-08:28:30,10.1.1.3,4,-1.449,-0.400,-0.250,0.000,0.000,0.000
1643876910756495872,2022-02-03-08:28:30,10.1.1.3,3,-1.499,-0.400,-0.250,0.000,0.000,0.000
1643876910970469120,2022-02-03-08:28:30,10.1.1.3,16,-1.551,-0.400,-0.250,0.000,0.000,0.000
1643876911169882112,2022-02-03-08:28:31,10.1.1.3,15,-1.600,-0.400,-0.250,0.000,0.000,0.000
1643876911361565952,2022-02-03-08:28:31,10.1.1.3,6,-1.649,-0.400,-0.250,0.000,0.000,0.000
1643876911577985024,2022-02-03-08:28:31,10.1.1.3,21,-1.700,-0.400,-0.250,0.000,0.000,0.000
1643876911771990016,2022-02-03-08:28:31,10.1.1.3,14,-1.750,-0.400,-0.250,0.000,0.000,0.000
1643876911965672960,2022-02-03-08:28:31,10.1.1.3,6,-1.750,-0.400,-0.250,0.000,0.000,0.000
1643876912216367872,2022-02-03-08:28:32,10.1.1.3,55,-1.700,-0.350,-0.300,0.000,0.000,0.000
1643876912374848000,2022-02-03-08:28:32,10.1.1.3,12,-1.650,-0.300,-0.350,0.000,0.000,0.000
1643876912575644928,2022-02-03-08:28:32,10.1.1.3,7,-1.600,-0.250,-0.400,0.000,0.000,0.000
1643876912775788032,2022-02-03-08:28:32,10.1.1.3,6,-1.550,-0.250,-0.450,0.000,0.000,0.000
1643876912982362112,2022-02-03-08:28:32,10.1.1.3,12,-1.501,-0.250,-0.499,0.000,0.000,0.000
1643876913175426048,2022-02-03-08:28:33,10.1.1.3,3,-1.451,-0.250,-0.549,0.000,0.000,0.000
1643876913377017856,2022-02-03-08:28:33,10.1.1.3,4,-1.401,-0.250,-0.599,0.000,0.000,0.000
1643876913576421120,2022-02-03-08:28:33,10.1.1.3,1,-1.352,-0.250,-0.648,0.000,0.000,0.000
1643876913794462976,2022-02-03-08:28:33,10.1.1.3,17,-1.300,-0.250,-0.650,0.000,0.000,0.000
1643876913981310976,2022-02-03-08:28:33,10.1.1.3,2,-1.252,-0.250,-0.650,0.000,0.000,0.000
1643876914183072000,2022-02-03-08:28:34,10.1.1.3,-2,-1.202,-0.250,-0.650,0.000,0.000,0.000
1643876914400816896,2022-02-03-08:28:34,10.1.1.3,17,-1.150,-0.250,-0.650,0.000,0.000,0.000
1643876914593532160,2022-02-03-08:28:34,10.1.1.3,9,-1.100,-0.250,-0.650,0.000,0.000,0.000
1643876914791492864,2022-02-03-08:28:34,10.1.1.3,5,-1.057,-0.250,-0.650,0.000,0.000,0.000
1643876914991533056,2022-02-03-08:28:34,10.1.1.3,3,-1.001,-0.250,-0.650,0.000,0.000,0.000
1643876915192001024,2022-02-03-08:28:35,10.1.1.3,3,-0.952,-0.250,-0.650,0.000,0.000,0.000
1643876915394285824,2022-02-03-08:28:35,10.1.1.3,3,-0.902,-0.250,-0.650,0.000,0.000,0.000
1643876915595350016,2022-02-03-08:28:35,10.1.1.3,4,-0.852,-0.250,-0.650,0.000,0.000,0.000
1643876915812798976,2022-02-03-08:28:35,10.1.1.3,21,-0.800,-0.250,-0.650,0.000,0.000,0.000
1643876916011558912,2022-02-03-08:28:36,10.1.1.3,19,-0.750,-0.250,-0.650,0.000,0.000,0.000
1643876916211821056,2022-02-03-08:28:36,10.1.1.3,18,-0.700,-0.250,-0.650,0.000,0.000,0.000
1643876916415961856,2022-02-03-08:28:36,10.1.1.3,19,-0.650,-0.250,-0.650,0.000,0.000,0.000
1643876916600397056,2022-02-03-08:28:36,10.1.1.3,4,-0.603,-0.250,-0.650,0.000,0.000,0.000
1643876916797801984,2022-02-03-08:28:36,10.1.1.3,1,-0.553,-0.250,-0.650,0.000,0.000,0.000
1643876917017737984,2022-02-03-08:28:37,10.1.1.3,20,-0.500,-0.250,-0.650,0.000,0.000,0.000
1643876917203960832,2022-02-03-08:28:37,10.1.1.3,6,-0.452,-0.250,-0.650,0.000,0.000,0.000
1643876917406568960,2022-02-03-08:28:37,10.1.1.3,5,-0.450,-0.250,-0.650,0.000,0.000,0.000
1643876917617047040,2022-02-03-08:28:37,10.1.1.3,12,-0.400,-0.200,-0.600,0.000,0.000,0.000
1643876917815572992,2022-02-03-08:28:37,10.1.1.3,9,-0.350,-0.150,-0.550,0.000,0.000,0.000
1643876918020222976,2022-02-03-08:28:38,10.1.1.3,12,-0.300,-0.100,-0.500,0.000,0.000,0.000
1643876918215730944,2022-02-03-08:28:38,10.1.1.3,7,-0.250,-0.050,-0.450,0.000,0.000,0.000
1643876918416898048,2022-02-03-08:28:38,10.1.1.3,6,-0.250,-0.001,-0.401,0.000,0.000,0.000
1643876918621361920,2022-02-03-08:28:38,10.1.1.3,7,-0.250,0.050,-0.350,0.000,0.000,0.000
1643876918819516928,2022-02-03-08:28:38,10.1.1.3,4,-0.250,0.099,-0.301,0.000,0.000,0.000
1643876919019740160,2022-02-03-08:28:39,10.1.1.3,3,-0.250,0.149,-0.251,0.000,0.000,0.000
1643876919219838976,2022-02-03-08:28:39,10.1.1.3,3,-0.250,0.198,-0.202,0.000,0.000,0.000
1643876919438816000,2022-02-03-08:28:39,10.1.1.3,19,-0.250,0.250,-0.150,0.000,0.000,0.000
1643876919638128128,2022-02-03-08:28:39,10.1.1.3,17,-0.250,0.300,-0.100,0.000,0.000,0.000
1643876919838643968,2022-02-03-08:28:39,10.1.1.3,13,-0.250,0.350,-0.100,0.000,0.000,0.000
1643876920038234112,2022-02-03-08:28:40,10.1.1.3,11,-0.250,0.400,-0.100,0.000,0.000,0.000
1643876920238739968,2022-02-03-08:28:40,10.1.1.3,11,-0.250,0.450,-0.100,0.000,0.000,0.000
1643876920438396928,2022-02-03-08:28:40,10.1.1.3,10,-0.250,0.500,-0.100,0.000,0.000,0.000
1643876920638076928,2022-02-03-08:28:40,10.1.1.3,8,-0.250,0.500,-0.100,0.000,0.000,0.000
1643876920839454976,2022-02-03-08:28:40,10.1.1.3,4,-0.200,0.450,-0.150,0.000,0.000,0.000
1643876921037947904,2022-02-03-08:28:41,10.1.1.3,2,-0.151,0.401,-0.199,0.000,0.000,0.000
1643876921239602176,2022-02-03-08:28:41,10.1.1.3,2,-0.102,0.352,-0.248,0.000,0.000,0.000
1643876921440915968,2022-02-03-08:28:41,10.1.1.3,1,-0.052,0.302,-0.298,0.000,0.000,0.000
1643876921658665984,2022-02-03-08:28:41,10.1.1.3,18,-0.050,0.248,-0.352,0.000,0.000,0.000
1643876921852850944,2022-02-03-08:28:41,10.1.1.3,10,-0.050,0.200,-0.400,0.000,0.000,0.000
1643876922059928832,2022-02-03-08:28:42,10.1.1.3,17,-0.050,0.150,-0.450,0.000,0.000,0.000
1643876922250791936,2022-02-03-08:28:42,10.1.1.3,7,-0.050,0.105,-0.495,0.000,0.000,0.000
1643876922459397120,2022-02-03-08:28:42,10.1.1.3,15,-0.050,0.050,-0.550,0.000,0.000,0.000
1643876922660374016,2022-02-03-08:28:42,10.1.1.3,14,-0.050,0.000,-0.600,0.000,0.000,0.000
1643876922850404096,2022-02-03-08:28:42,10.1.1.3,3,-0.050,-0.049,-0.649,0.000,0.000,0.000
1643876923060535040,2022-02-03-08:28:43,10.1.1.3,12,-0.050,-0.100,-0.700,0.000,0.000,0.000
1643876923254955008,2022-02-03-08:28:43,10.1.1.3,6,-0.050,-0.150,-0.750,0.000,0.000,0.000
1643876923460494080,2022-02-03-08:28:43,10.1.1.3,11,-0.050,-0.200,-0.750,0.000,0.000,0.000
1643876923660027904,2022-02-03-08:28:43,10.1.1.3,6,-0.050,-0.250,-0.750,0.000,0.000,0.000
1643876923860243968,2022-02-03-08:28:43,10.1.1.3,2,-0.050,-0.299,-0.750,0.000,0.000,0.000
1643876924060908032,2022-02-03-08:28:44,10.1.1.3,0,-0.050,-0.348,-0.750,0.000,0.000,0.000
1643876924286331904,2022-02-03-08:28:44,10.1.1.3,24,-0.050,-0.400,-0.750,0.000,0.000,0.000
1643876924486876928,2022-02-03-08:28:44,10.1.1.3,23,-0.050,-0.450,-0.750,0.000,0.000,0.000
1643876924679266048,2022-02-03-08:28:44,10.1.1.3,15,-0.050,-0.500,-0.750,0.000,0.000,0.000
1643876924871159040,2022-02-03-08:28:44,10.1.1.3,6,-0.050,-0.545,-0.750,0.000,0.000,0.000
1643876925070918912,2022-02-03-08:28:45,10.1.1.3,5,-0.050,-0.599,-0.750,0.000,0.000,0.000
1643876925272867072,2022-02-03-08:28:45,10.1.1.3,5,-0.050,-0.649,-0.750,0.000,0.000,0.000
1643876925480734976,2022-02-03-08:28:45,10.1.1.3,12,-0.050,-0.700,-0.750,0.000,0.000,0.000
1643876925675084032,2022-02-03-08:28:45,10.1.1.3,5,-0.050,-0.740,-0.750,0.000,0.000,0.000
1643876925874510080,2022-02-03-08:28:45,10.1.1.3,4,-0.050,-0.799,-0.750,0.000,0.000,0.000
1643876926077502976,2022-02-03-08:28:46,10.1.1.3,6,-0.050,-0.849,-0.750,0.000,0.000,0.000
1643876926277789952,2022-02-03-08:28:46,10.1.1.3,4,-0.050,-0.896,-0.750,0.000,0.000,0.000
1643876926479809024,2022-02-03-08:28:46,10.1.1.3,5,-0.050,-0.947,-0.750,0.000,0.000,0.000
1643876926680562944,2022-02-03-08:28:46,10.1.1.3,4,-0.050,-0.950,-0.750,0.000,0.000,0.000
1643876926899343104,2022-02-03-08:28:46,10.1.1.3,22,-0.050,-0.950,-0.750,0.000,0.000,0.000
1643876927079075072,2022-02-03-08:28:47,10.1.1.3,1,-0.098,-0.902,-0.702,0.000,0.000,0.000
1643876927280147968,2022-02-03-08:28:47,10.1.1.3,1,-0.148,-0.852,-0.652,0.000,0.000,0.000
1643876927499846912,2022-02-03-08:28:47,10.1.1.3,18,-0.200,-0.800,-0.600,0.000,0.000,0.000
1643876927693795840,2022-02-03-08:28:47,10.1.1.3,8,-0.250,-0.750,-0.550,0.000,0.000,0.000
1643876927894553856,2022-02-03-08:28:47,10.1.1.3,8,-0.300,-0.700,-0.550,0.000,0.000,0.000
1643876928094023936,2022-02-03-08:28:48,10.1.1.3,6,-0.350,-0.650,-0.550,0.000,0.000,0.000
1643876928299535872,2022-02-03-08:28:48,10.1.1.3,11,-0.400,-0.600,-0.550,0.000,0.000,0.000
1643876928498330112,2022-02-03-08:28:48,10.1.1.3,6,-0.440,-0.560,-0.550,0.000,0.000,0.000
1643876928698590976,2022-02-03-08:28:48,10.1.1.3,3,-0.499,-0.501,-0.550,0.000,0.000,0.000
1643876928915919104,2022-02-03-08:28:48,10.1.1.3,16,-0.550,-0.450,-0.550,0.000,0.000,0.000
1643876929115804928,2022-02-03-08:28:49,10.1.1.3,15,-0.600,-0.400,-0.550,0.000,0.000,0.000
1643876929315373056,2022-02-03-08:28:49,10.1.1.3,14,-0.650,-0.350,-0.550,0.000,0.000,0.000
1643876929515481088,2022-02-03-08:28:49,10.1.1.3,12,-0.700,-0.300,-0.550,0.000,0.000,0.000
1643876929715461120,2022-02-03-08:28:49,10.1.1.3,12,-0.750,-0.250,-0.550,0.000,0.000,0.000
1643876929915147008,2022-02-03-08:28:49,10.1.1.3,11,-0.800,-0.200,-0.550,0.000,0.000,0.000
1643876930115598080,2022-02-03-08:28:50,10.1.1.3,9,-0.800,-0.150,-0.550,0.000,0.000,0.000
1643876930316579072,2022-02-03-08:28:50,10.1.1.3,10,-0.800,-0.100,-0.550,0.000,0.000,0.000
1643876930514676992,2022-02-03-08:28:50,10.1.1.3,6,-0.800,-0.100,-0.550,0.000,0.000,0.000
1643876930735322112,2022-02-03-08:28:50,10.1.1.3,20,-0.851,-0.151,-0.499,0.000,0.000,0.000
1643876930935624960,2022-02-03-08:28:50,10.1.1.3,19,-0.900,-0.200,-0.450,0.000,0.000,0.000
1643876931136809216,2022-02-03-08:28:51,10.1.1.3,19,-0.950,-0.250,-0.400,0.000,0.000,0.000
1643876931334341888,2022-02-03-08:28:51,10.1.1.3,16,-1.001,-0.301,-0.349,0.000,0.000,0.000
1643876931534555904,2022-02-03-08:28:51,10.1.1.3,15,-1.050,-0.350,-0.300,0.000,0.000,0.000
1643876931753768960,2022-02-03-08:28:51,10.1.1.3,33,-1.100,-0.400,-0.250,0.000,0.000,0.000
1643876931933614848,2022-02-03-08:28:51,10.1.1.3,11,-1.150,-0.450,-0.200,0.000,0.000,0.000
1643876932134757120,2022-02-03-08:28:52,10.1.1.3,11,-1.200,-0.500,-0.150,0.000,0.000,0.000
1643876932331756032,2022-02-03-08:28:52,10.1.1.3,7,-1.245,-0.545,-0.105,0.000,0.000,0.000
1643876932534637056,2022-02-03-08:28:52,10.1.1.3,8,-1.250,-0.600,-0.050,0.000,0.000,0.000
1643876932736898816,2022-02-03-08:28:52,10.1.1.3,9,-1.250,-0.650,-0.000,0.000,0.000,0.000
1643876932934393856,2022-02-03-08:28:52,10.1.1.3,5,-1.250,-0.699,-0.000,0.000,0.000,0.000
1643876933135333888,2022-02-03-08:28:53,10.1.1.3,4,-1.250,-0.749,-0.000,0.000,0.000,0.000
1643876933335927040,2022-02-03-08:28:53,10.1.1.3,3,-1.250,-0.799,-0.000,0.000,0.000,0.000
1643876933553266944,2022-02-03-08:28:53,10.1.1.3,18,-1.250,-0.850,-0.000,0.000,0.000,0.000
1643876933752140032,2022-02-03-08:28:53,10.1.1.3,16,-1.250,-0.900,-0.000,0.000,0.000,0.000
1643876933954462976,2022-02-03-08:28:53,10.1.1.3,18,-1.250,-0.950,-0.000,0.000,0.000,0.000
1643876934143696128,2022-02-03-08:28:54,10.1.1.3,5,-1.250,-0.998,-0.000,0.000,0.000,0.000
1643876934355305984,2022-02-03-08:28:54,10.1.1.3,15,-1.250,-1.050,-0.000,0.000,0.000,0.000
1643876934553905920,2022-02-03-08:28:54,10.1.1.3,13,-1.250,-1.100,-0.000,0.000,0.000,0.000
1643876934761315072,2022-02-03-08:28:54,10.1.1.3,19,-1.250,-1.150,-0.000,0.000,0.000,0.000
1643876934959540992,2022-02-03-08:28:54,10.1.1.3,16,-1.250,-1.200,-0.000,0.000,0.000,0.000
1643876935162887168,2022-02-03-08:28:55,10.1.1.3,18,-1.250,-1.250,-0.000,0.000,0.000,0.000
1643876935352046848,2022-02-03-08:28:55,10.1.1.3,6,-1.250,-1.294,-0.000,0.000,0.000,0.000
1643876935553051904,2022-02-03-08:28:55,10.1.1.3,5,-1.250,-1.345,-0.000,0.000,0.000,0.000
1643876935758092032,2022-02-03-08:28:55,10.1.1.3,9,-1.250,-1.400,-0.000,0.000,0.000,0.000
1643876935968445952,2022-02-03-08:28:55,10.1.1.3,18,-1.250,-1.450,-0.000,0.000,0.000,0.000
1643876936158489856,2022-02-03-08:28:56,10.1.1.3,7,-1.250,-1.450,-0.000,0.000,0.000,0.000
1643876936358936064,2022-02-03-08:28:56,10.1.1.3,6,-1.201,-1.401,-0.049,0.000,0.000,0.000
1643876936558617088,2022-02-03-08:28:56,10.1.1.3,5,-1.151,-1.351,-0.099,0.000,0.000,0.000
1643876936760139008,2022-02-03-08:28:56,10.1.1.3,5,-1.101,-1.301,-0.149,0.000,0.000,0.000
1643876936979155968,2022-02-03-08:28:56,10.1.1.3,21,-1.049,-1.249,-0.201,0.000,0.000,0.000
1643876937160114944,2022-02-03-08:28:57,10.1.1.3,1,-1.002,-1.202,-0.248,0.000,0.000,0.000
1643876937366019840,2022-02-03-08:28:57,10.1.1.3,6,-0.958,-1.158,-0.292,0.000,0.000,0.000
1643876937575169024,2022-02-03-08:28:57,10.1.1.3,14,-0.900,-1.100,-0.350,0.000,0.000,0.000
1643876937774273024,2022-02-03-08:28:57,10.1.1.3,12,-0.850,-1.050,-0.400,0.000,0.000,0.000
1643876937976262144,2022-02-03-08:28:57,10.1.1.3,14,-0.800,-1.000,-0.450,0.000,0.000,0.000
1643876938168440064,2022-02-03-08:28:58,10.1.1.3,5,-0.757,-1.000,-0.493,0.000,0.000,0.000
1643876938379141120,2022-02-03-08:28:58,10.1.1.3,15,-0.700,-1.000,-0.550,0.000,0.000,0.000
1643876938577596928,2022-02-03-08:28:58,10.1.1.3,12,-0.650,-1.000,-0.600,0.000,0.000,0.000
1643876938777982976,2022-02-03-08:28:58,10.1.1.3,12,-0.600,-1.000,-0.650,0.000,0.000,0.000
1643876938977777920,2022-02-03-08:28:58,10.1.1.3,11,-0.550,-1.000,-0.700,0.000,0.000,0.000
1643876939179089920,2022-02-03-08:28:59,10.1.1.3,11,-0.500,-1.000,-0.750,0.000,0.000,0.000
1643876939374398976,2022-02-03-08:28:59,10.1.1.3,5,-0.455,-1.000,-0.750,0.000,0.000,0.000
1643876939577501184,2022-02-03-08:28:59,10.1.1.3,7,-0.400,-1.000,-0.750,0.000,0.000,0.000
1643876939778489088,2022-02-03-08:28:59,10.1.1.3,7,-0.350,-1.000,-0.750,0.000,0.000,0.000
1643876939977463040,2022-02-03-08:28:59,10.1.1.3,5,-0.301,-1.000,-0.750,0.000,0.000,0.000
1643876940178406912,2022-02-03-08:29:00,10.1.1.3,5,-0.251,-1.000,-0.750,0.000,0.000,0.000
1643876940378461952,2022-02-03-08:29:00,10.1.1.3,4,-0.200,-1.000,-0.750,0.000,0.000,0.000
1643876940577531136,2022-02-03-08:29:00,10.1.1.3,2,-0.152,-1.000,-0.750,0.000,0.000,0.000
1643876940796849920,2022-02-03-08:29:00,10.1.1.3,18,-0.100,-1.000,-0.750,0.000,0.000,0.000
1643876940986839040,2022-02-03-08:29:00,10.1.1.3,4,-0.053,-1.000,-0.750,0.000,0.000,0.000
1643876941197783040,2022-02-03-08:29:01,10.1.1.3,14,-0.050,-1.000,-0.750,0.000,0.000,0.000
1643876941396948224,2022-02-03-08:29:01,10.1.1.3,12,-0.100,-1.050,-0.700,0.000,0.000,0.000
1643876941598881024,2022-02-03-08:29:01,10.1.1.3,13,-0.150,-1.100,-0.650,0.000,0.000,0.000
1643876941796581888,2022-02-03-08:29:01,10.1.1.3,10,-0.200,-1.150,-0.600,0.000,0.000,0.000
1643876941996726016,2022-02-03-08:29:01,10.1.1.3,10,-0.250,-1.200,-0.550,0.000,0.000,0.000
1643876942196517888,2022-02-03-08:29:02,10.1.1.3,9,-0.300,-1.250,-0.500,0.000,0.000,0.000
1643876942392640000,2022-02-03-08:29:02,10.1.1.3,4,-0.347,-1.297,-0.453,0.000,0.000,0.000
1643876942597436928,2022-02-03-08:29:02,10.1.1.3,8,-0.399,-1.349,-0.401,0.000,0.000,0.000
1643876942795085056,2022-02-03-08:29:02,10.1.1.3,5,-0.450,-1.400,-0.350,0.000,0.000,0.000
1643876942996813056,2022-02-03-08:29:02,10.1.1.3,5,-0.496,-1.446,-0.304,0.000,0.000,0.000
1643876943196269056,2022-02-03-08:29:03,10.1.1.3,3,-0.549,-1.450,-0.251,0.000,0.000,0.000
1643876943396612864,2022-02-03-08:29:03,10.1.1.3,2,-0.598,-1.450,-0.202,0.000,0.000,0.000
1643876943621167872,2022-02-03-08:29:03,10.1.1.3,23,-0.650,-1.450,-0.150,0.000,0.000,0.000
1643876943804812032,2022-02-03-08:29:03,10.1.1.3,5,-0.696,-1.450,-0.104,0.000,0.000,0.000
1643876944001697024,2022-02-03-08:29:04,10.1.1.3,1,-0.747,-1.450,-0.053,0.000,0.000,0.000
1643876944204468992,2022-02-03-08:29:04,10.1.1.3,1,-0.797,-1.450,-0.003,0.000,0.000,0.000
1643876944419648768,2022-02-03-08:29:04,10.1.1.3,13,-0.850,-1.450,-0.000,0.000,0.000,0.000
1643876944618477056,2022-02-03-08:29:04,10.1.1.3,12,-0.900,-1.450,-0.000,0.000,0.000,0.000
1643876944820347136,2022-02-03-08:29:04,10.1.1.3,6,-0.950,-1.450,-0.000,0.000,0.000,0.000
1643876945019685888,2022-02-03-08:29:05,10.1.1.3,4,-0.999,-1.450,-0.000,0.000,0.000,0.000
1643876945219752960,2022-02-03-08:29:05,10.1.1.3,3,-1.048,-1.450,-0.000,0.000,0.000,0.000
1643876945421174016,2022-02-03-08:29:05,10.1.1.3,3,-1.098,-1.450,-0.000,0.000,0.000,0.000
1643876945639944960,2022-02-03-08:29:05,10.1.1.3,17,-1.150,-1.450,-0.000,0.000,0.000,0.000
1643876945838962944,2022-02-03-08:29:05,10.1.1.3,16,-1.200,-1.450,-0.000,0.000,0.000,0.000
1643876946038369024,2022-02-03-08:29:06,10.1.1.3,14,-1.250,-1.450,-0.000,0.000,0.000,0.000
1643876946239161856,2022-02-03-08:29:06,10.1.1.3,13,-1.250,-1.450,-0.000,0.000,0.000,0.000
1643876946438929152,2022-02-03-08:29:06,10.1.1.3,12,-1.200,-1.400,-0.050,0.000,0.000,0.000
1643876946639107840,2022-02-03-08:29:06,10.1.1.3,11,-1.150,-1.350,-0.100,0.000,0.000,0.000
1643876946840442880,2022-02-03-08:29:06,10.1.1.3,10,-1.100,-1.300,-0.150,0.000,0.000,0.000
1643876947040754176,2022-02-03-08:29:07,10.1.1.3,10,-1.050,-1.250,-0.200,0.000,0.000,0.000
1643876947239005952,2022-02-03-08:29:07,10.1.1.3,7,-1.001,-1.201,-0.249,0.000,0.000,0.000
1643876947438182144,2022-02-03-08:29:07,10.1.1.3,5,-0.951,-1.151,-0.299,0.000,0.000,0.000
1643876947637783040,2022-02-03-08:29:07,10.1.1.3,3,-0.901,-1.101,-0.349,0.000,0.000,0.000
1643876947858267904,2022-02-03-08:29:07,10.1.1.3,20,-0.850,-1.050,-0.400,0.000,0.000,0.000
1643876948062499072,2022-02-03-08:29:08,10.1.1.3,22,-0.800,-1.000,-0.450,0.000,0.000,0.000
1643876948254624000,2022-02-03-08:29:08,10.1.1.3,13,-0.800,-1.000,-0.500,0.000,0.000,0.000
1643876948454451200,2022-02-03-08:29:08,10.1.1.3,1,-0.800,-1.000,-0.547,0.000,0.000,0.000
1643876948673379840,2022-02-03-08:29:08,10.1.1.3,18,-0.800,-1.000,-0.600,0.000,0.000,0.000
1643876948872118016,2022-02-03-08:29:08,10.1.1.3,15,-0.800,-1.000,-0.650,0.000,0.000,0.000
1643876949070020864,2022-02-03-08:29:09,10.1.1.3,8,-0.800,-1.000,-0.650,0.000,0.000,0.000
1643876949277913088,2022-02-03-08:29:09,10.1.1.3,14,-0.850,-0.950,-0.600,0.000,0.000,0.000
1643876949473400064,2022-02-03-08:29:09,10.1.1.3,9,-0.900,-0.900,-0.550,0.000,0.000,0.000
1643876949669922048,2022-02-03-08:29:09,10.1.1.3,3,-0.949,-0.851,-0.501,0.000,0.000,0.000
1643876949871706880,2022-02-03-08:29:09,10.1.1.3,4,-0.999,-0.801,-0.451,0.000,0.000,0.000
1643876950074836992,2022-02-03-08:29:10,10.1.1.3,7,-1.049,-0.751,-0.401,0.000,0.000,0.000
1643876950272784896,2022-02-03-08:29:10,10.1.1.3,3,-1.098,-0.702,-0.352,0.000,0.000,0.000
1643876950470745088,2022-02-03-08:29:10,10.1.1.3,0,-1.148,-0.652,-0.302,0.000,0.000,0.000
1643876950673174016,2022-02-03-08:29:10,10.1.1.3,2,-1.198,-0.602,-0.252,0.000,0.000,0.000
1643876950890317824,2022-02-03-08:29:10,10.1.1.3,17,-1.250,-0.550,-0.250,0.000,0.000,0.000
1643876951091640832,2022-02-03-08:29:11,10.1.1.3,17,-1.300,-0.500,-0.250,0.000,0.000,0.000
1643876951291207168,2022-02-03-08:29:11,10.1.1.3,16,-1.352,-0.450,-0.250,0.000,0.000,0.000
1643876951490489088,2022-02-03-08:29:11,10.1.1.3,14,-1.400,-0.450,-0.250,0.000,0.000,0.000
1643876951691535872,2022-02-03-08:29:11,10.1.1.3,14,-1.450,-0.450,-0.250,0.000,0.000,0.000
1643876951889609984,2022-02-03-08:29:11,10.1.1.3,12,-1.500,-0.450,-0.250,0.000,0.000,0.000
1643876952096594176,2022-02-03-08:29:12,10.1.1.3,17,-1.550,-0.450,-0.250,0.000,0.000,0.000
1643876952294487040,2022-02-03-08:29:12,10.1.1.3,14,-1.600,-0.450,-0.250,0.000,0.000,0.000
1643876952491579904,2022-02-03-08:29:12,10.1.1.3,10,-1.650,-0.450,-0.250,0.000,0.000,0.000
1643876952693001984,2022-02-03-08:29:12,10.1.1.3,8,-1.700,-0.450,-0.250,0.000,0.000,0.000
1643876952890010112,2022-02-03-08:29:12,10.1.1.3,6,-1.750,-0.450,-0.250,0.000,0.000,0.000
1643876953090370048,2022-02-03-08:29:13,10.1.1.3,4,-1.750,-0.450,-0.250,0.000,0.000,0.000
1643876953290138880,2022-02-03-08:29:13,10.1.1.3,3,-1.701,-0.401,-0.250,0.000,0.000,0.000
1643876953490923008,2022-02-03-08:29:13,10.1.1.3,1,-1.651,-0.351,-0.250,0.000,0.000,0.000
1643876953710326784,2022-02-03-08:29:13,10.1.1.3,19,-1.600,-0.350,-0.250,0.000,0.000,0.000
1643876953911313920,2022-02-03-08:29:13,10.1.1.3,19,-1.550,-0.350,-0.250,0.000,0.000,0.000
1643876954109762816,2022-02-03-08:29:14,10.1.1.3,17,-1.500,-0.350,-0.250,0.000,0.000,0.000
1643876954311078144,2022-02-03-08:29:14,10.1.1.3,17,-1.450,-0.350,-0.250,0.000,0.000,0.000
1643876954495697920,2022-02-03-08:29:14,10.1.1.3,1,-1.403,-0.350,-0.250,0.000,0.000,0.000
1643876954711074048,2022-02-03-08:29:14,10.1.1.3,15,-1.350,-0.350,-0.250,0.000,0.000,0.000
1643876954917943040,2022-02-03-08:29:14,10.1.1.3,20,-1.300,-0.350,-0.250,0.000,0.000,0.000
1643876955111782144,2022-02-03-08:29:15,10.1.1.3,12,-1.300,-0.350,-0.250,0.000,0.000,0.000
1643876955317131008,2022-02-03-08:29:15,10.1.1.3,17,-1.300,-0.350,-0.250,0.000,0.000,0.000
1643876955512326912,2022-02-03-08:29:15,10.1.1.3,9,-1.250,-0.300,-0.300,0.000,0.000,0.000
1643876955715224064,2022-02-03-08:29:15,10.1.1.3,12,-1.200,-0.250,-0.350,0.000,0.000,0.000
1643876955923866880,2022-02-03-08:29:15,10.1.1.3,20,-1.150,-0.250,-0.400,0.000,0.000,0.000
1643876956112461056,2022-02-03-08:29:16,10.1.1.3,7,-1.100,-0.250,-0.450,0.000,0.000,0.000
1643876956315293952,2022-02-03-08:29:16,10.1.1.3,2,-1.050,-0.250,-0.500,0.000,0.000,0.000
1643876956533814016,2022-02-03-08:29:16,10.1.1.3,19,-1.000,-0.250,-0.550,0.000,0.000,0.000
1643876956733406976,2022-02-03-08:29:16,10.1.1.3,18,-0.950,-0.250,-0.600,0.000,0.000,0.000
1643876956933082112,2022-02-03-08:29:16,10.1.1.3,17,-0.900,-0.250,-0.650,0.000,0.000,0.000
1643876957132539904,2022-02-03-08:29:17,10.1.1.3,14,-0.850,-0.250,-0.650,0.000,0.000,0.000
1643876957332845056,2022-02-03-08:29:17,10.1.1.3,12,-0.800,-0.250,-0.650,0.000,0.000,0.000
1643876957532929024,2022-02-03-08:29:17,10.1.1.3,11,-0.750,-0.250,-0.650,0.000,0.000,0.000
1643876957734384128,2022-02-03-08:29:17,10.1.1.3,12,-0.700,-0.250,-0.650,0.000,0.000,0.000
1643876957933219072,2022-02-03-08:29:17,10.1.1.3,8,-0.650,-0.250,-0.650,0.000,0.000,0.000
1643876958134000896,2022-02-03-08:29:18,10.1.1.3,8,-0.600,-0.250,-0.650,0.000,0.000,0.000
1643876958332676864,2022-02-03-08:29:18,10.1.1.3,5,-0.550,-0.250,-0.650,0.000,0.000,0.000
1643876958533168128,2022-02-03-08:29:18,10.1.1.3,5,-0.501,-0.250,-0.650,0.000,0.000,0.000
1643876958740461056,2022-02-03-08:29:18,10.1.1.3,11,-0.450,-0.250,-0.650,0.000,0.000,0.000
1643876958938267904,2022-02-03-08:29:18,10.1.1.3,8,-0.450,-0.250,-0.650,0.000,0.000,0.000
1643876959138747904,2022-02-03-08:29:19,10.1.1.3,8,-0.400,-0.200,-0.600,0.000,0.000,0.000
1643876959337708032,2022-02-03-08:29:19,10.1.1.3,6,-0.351,-0.151,-0.551,0.000,0.000,0.000
1643876959538428160,2022-02-03-08:29:19,10.1.1.3,5,-0.301,-0.101,-0.501,0.000,0.000,0.000
1643876959738509056,2022-02-03-08:29:19,10.1.1.3,5,-0.251,-0.051,-0.451,0.000,0.000,0.000
1643876959938065152,2022-02-03-08:29:19,10.1.1.3,2,-0.250,-0.001,-0.401,0.000,0.000,0.000
1643876960155319808,2022-02-03-08:29:20,10.1.1.3,18,-0.250,0.050,-0.350,0.000,0.000,0.000
1643876960355281152,2022-02-03-08:29:20,10.1.1.3,17,-0.250,0.100,-0.300,0.000,0.000,0.000
1643876960553652992,2022-02-03-08:29:20,10.1.1.3,14,-0.250,0.150,-0.250,0.000,0.000,0.000
1643876960757400064,2022-02-03-08:29:20,10.1.1.3,17,-0.250,0.200,-0.200,0.000,0.000,0.000
1643876960955683840,2022-02-03-08:29:20,10.1.1.3,15,-0.250,0.250,-0.150,0.000,0.000,0.000
1643876961154787072,2022-02-03-08:29:21,10.1.1.3,8,-0.250,0.300,-0.100,0.000,0.000,0.000
1643876961353774080,2022-02-03-08:29:21,10.1.1.3,6,-0.250,0.350,-0.100,0.000,0.000,0.000
1643876961554061824,2022-02-03-08:29:21,10.1.1.3,4,-0.250,0.399,-0.100,0.000,0.000,0.000
1643876961754914048,2022-02-03-08:29:21,10.1.1.3,4,-0.250,0.449,-0.100,0.000,0.000,0.000
1643876961958146048,2022-02-03-08:29:21,10.1.1.3,3,-0.250,0.450,-0.100,0.000,0.000,0.000
1643876962163307008,2022-02-03-08:29:22,10.1.1.3,5,-0.295,0.405,-0.145,0.000,0.000,0.000
1643876962375092992,2022-02-03-08:29:22,10.1.1.3,15,-0.350,0.350,-0.150,0.000,0.000,0.000
1643876962573307136,2022-02-03-08:29:22,10.1.1.3,13,-0.400,0.300,-0.150,0.000,0.000,0.000
1643876962774878976,2022-02-03-08:29:22,10.1.1.3,13,-0.450,0.250,-0.150,0.000,0.000,0.000
1643876962975405824,2022-02-03-08:29:22,10.1.1.3,12,-0.500,0.200,-0.150,0.000,0.000,0.000
1643876963176187904,2022-02-03-08:29:23,10.1.1.3,12,-0.550,0.150,-0.150,0.000,0.000,0.000
1643876963376211968,2022-02-03-08:29:23,10.1.1.3,9,-0.600,0.100,-0.150,0.000,0.000,0.000
1643876963574578944,2022-02-03-08:29:23,10.1.1.3,6,-0.650,0.050,-0.150,0.000,0.000,0.000
1643876963774422784,2022-02-03-08:29:23,10.1.1.3,5,-0.699,0.001,-0.150,0.000,0.000,0.000
1643876963974850816,2022-02-03-08:29:23,10.1.1.3,4,-0.749,-0.049,-0.150,0.000,0.000,0.000
1643876964174470912,2022-02-03-08:29:24,10.1.1.3,3,-0.799,-0.099,-0.150,0.000,0.000,0.000
1643876964374952192,2022-02-03-08:29:24,10.1.1.3,2,-0.848,-0.148,-0.150,0.000,0.000,0.000
1643876964575602944,2022-02-03-08:29:24,10.1.1.3,2,-0.898,-0.198,-0.150,0.000,0.000,0.000
1643876964776493056,2022-02-03-08:29:24,10.1.1.3,1,-0.948,-0.248,-0.150,0.000,0.000,0.000
1643876964980066048,2022-02-03-08:29:24,10.1.1.3,3,-0.950,-0.298,-0.150,0.000,0.000,0.000
1643876965194864128,2022-02-03-08:29:25,10.1.1.3,17,-0.950,-0.350,-0.150,0.000,0.000,0.000
1643876965395142144,2022-02-03-08:29:25,10.1.1.3,17,-0.950,-0.400,-0.150,0.000,0.000,0.000
1643876965593905920,2022-02-03-08:29:25,10.1.1.3,14,-0.950,-0.450,-0.150,0.000,0.000,0.000
1643876965793412096,2022-02-03-08:29:25,10.1.1.3,13,-0.950,-0.500,-0.150,0.000,0.000,0.000
1643876965991284992,2022-02-03-08:29:25,10.1.1.3,10,-0.950,-0.550,-0.150,0.000,0.000,0.000
1643876966191416064,2022-02-03-08:29:26,10.1.1.3,5,-0.950,-0.600,-0.150,0.000,0.000,0.000
1643876966391746048,2022-02-03-08:29:26,10.1.1.3,5,-0.950,-0.649,-0.150,0.000,0.000,0.000
1643876966591773952,2022-02-03-08:29:26,10.1.1.3,3,-0.950,-0.699,-0.150,0.000,0.000,0.000
1643876966791179008,2022-02-03-08:29:26,10.1.1.3,1,-0.950,-0.700,-0.150,0.000,0.000,0.000
1643876966991493888,2022-02-03-08:29:26,10.1.1.3,1,-0.902,-0.652,-0.198,0.000,0.000,0.000
1643876967211991040,2022-02-03-08:29:27,10.1.1.3,21,-0.850,-0.600,-0.250,0.000,0.000,0.000
1643876967416691968,2022-02-03-08:29:27,10.1.1.3,24,-0.799,-0.549,-0.301,0.000,0.000,0.000
1643876967624195072,2022-02-03-08:29:27,10.1.1.3,31,-0.750,-0.500,-0.350,0.000,0.000,0.000
1643876967818371072,2022-02-03-08:29:27,10.1.1.3,24,-0.699,-0.449,-0.401,0.000,0.000,0.000
1643876967996301824,2022-02-03-08:29:27,10.1.1.3,1,-0.652,-0.402,-0.448,0.000,0.000,0.000
1643876968213018880,2022-02-03-08:29:28,10.1.1.3,16,-0.600,-0.350,-0.500,0.000,0.000,0.000
1643876968414294016,2022-02-03-08:29:28,10.1.1.3,14,-0.550,-0.300,-0.550,0.000,0.000,0.000
1643876968614403840,2022-02-03-08:29:28,10.1.1.3,11,-0.500,-0.250,-0.600,0.000,0.000,0.000
1643876968812951040,2022-02-03-08:29:28,10.1.1.3,7,-0.450,-0.250,-0.650,0.000,0.000,0.000
1643876969013540096,2022-02-03-08:29:29,10.1.1.3,6,-0.450,-0.250,-0.650,0.000,0.000,0.000
1643876969213854976,2022-02-03-08:29:29,10.1.1.3,4,-0.499,-0.299,-0.601,0.000,0.000,0.000
1643876969412097024,2022-02-03-08:29:29,10.1.1.3,2,-0.548,-0.348,-0.552,0.000,0.000,0.000
1643876969614862080,2022-02-03-08:29:29,10.1.1.3,3,-0.598,-0.398,-0.502,0.000,0.000,0.000
1643876969814113024,2022-02-03-08:29:29,10.1.1.3,0,-0.648,-0.400,-0.452,0.000,0.000,0.000
1643876970018935808,2022-02-03-08:29:30,10.1.1.3,4,-0.697,-0.400,-0.403,0.000,0.000,0.000
1643876970233874176,2022-02-03-08:29:30,10.1.1.3,18,-0.751,-0.400,-0.349,0.000,0.000,0.000
1643876970432368896,2022-02-03-08:29:30,10.1.1.3,14,-0.800,-0.400,-0.300,0.000,0.000,0.000
1643876970634104064,2022-02-03-08:29:30,10.1.1.3,14,-0.850,-0.400,-0.250,0.000,0.000,0.000
1643876970833257984,2022-02-03-08:29:30,10.1.1.3,12,-0.900,-0.400,-0.250,0.000,0.000,0.000
1643876971032624896,2022-02-03-08:29:31,10.1.1.3,9,-0.950,-0.400,-0.250,0.000,0.000,0.000
1643876971240047104,2022-02-03-08:29:31,10.1.1.3,15,-1.000,-0.400,-0.250,0.000,0.000,0.000
1643876971431875072,2022-02-03-08:29:31,10.1.1.3,6,-1.050,-0.400,-0.250,0.000,0.000,0.000
1643876971632674048,2022-02-03-08:29:31,10.1.1.3,6,-1.099,-0.400,-0.250,0.000,0.000,0.000
1643876971833638912,2022-02-03-08:29:31,10.1.1.3,5,-1.149,-0.400,-0.250,0.000,0.000,0.000
1643876972031974912,2022-02-03-08:29:32,10.1.1.3,1,-1.199,-0.400,-0.250,0.000,0.000,0.000
1643876972251411968,2022-02-03-08:29:32,10.1.1.3,17,-1.250,-0.400,-0.250,0.000,0.000,0.000
1643876972451684864,2022-02-03-08:29:32,10.1.1.3,16,-1.300,-0.400,-0.250,0.000,0.000,0.000
1643876972651300864,2022-02-03-08:29:32,10.1.1.3,14,-1.350,-0.400,-0.250,0.000,0.000,0.000
1643876972853859840,2022-02-03-08:29:32,10.1.1.3,16,-1.400,-0.400,-0.250,0.000,0.000,0.000
1643876973053283072,2022-02-03-08:29:33,10.1.1.3,14,-1.450,-0.400,-0.250,0.000,0.000,0.000
1643876973252218880,2022-02-03-08:29:33,10.1.1.3,12,-1.500,-0.400,-0.250,0.000,0.000,0.000
1643876973454416896,2022-02-03-08:29:33,10.1.1.3,11,-1.550,-0.400,-0.250,0.000,0.000,0.000
1643876973652528896,2022-02-03-08:29:33,10.1.1.3,7,-1.600,-0.400,-0.250,0.000,0.000,0.000
1643876973851826944,2022-02-03-08:29:33,10.1.1.3,6,-1.650,-0.400,-0.250,0.000,0.000,0.000
1643876974051284992,2022-02-03-08:29:34,10.1.1.3,4,-1.699,-0.400,-0.250,0.000,0.000,0.000
1643876974252242176,2022-02-03-08:29:34,10.1.1.3,4,-1.749,-0.400,-0.250,0.000,0.000,0.000
1643876974453043968,2022-02-03-08:29:34,10.1.1.3,3,-1.750,-0.400,-0.250,0.000,0.000,0.000
1643876974653434880,2022-02-03-08:29:34,10.1.1.3,1,-1.750,-0.400,-0.250,0.000,0.000,0.000
1643876974873027072,2022-02-03-08:29:34,10.1.1.3,16,-1.700,-0.450,-0.300,0.000,0.000,0.000
1643876975072259840,2022-02-03-08:29:35,10.1.1.3,16,-1.649,-0.501,-0.351,0.000,0.000,0.000
1643876975271776000,2022-02-03-08:29:35,10.1.1.3,14,-1.600,-0.550,-0.400,0.000,0.000,0.000
1643876975472891136,2022-02-03-08:29:35,10.1.1.3,13,-1.550,-0.600,-0.450,0.000,0.000,0.000
1643876975674059008,2022-02-03-08:29:35,10.1.1.3,13,-1.500,-0.650,-0.500,0.000,0.000,0.000
1643876975875222016,2022-02-03-08:29:35,10.1.1.3,13,-1.450,-0.700,-0.550,0.000,0.000,0.000
1643876976072886016,2022-02-03-08:29:36,10.1.1.3,9,-1.400,-0.750,-0.600,0.000,0.000,0.000
1643876976272133120,2022-02-03-08:29:36,10.1.1.3,6,-1.350,-0.800,-0.650,0.000,0.000,0.000
1643876976474516992,2022-02-03-08:29:36,10.1.1.3,4,-1.300,-0.850,-0.700,0.000,0.000,0.000
1643876976673840896,2022-02-03-08:29:36,10.1.1.3,2,-1.252,-0.898,-0.748,0.000,0.000,0.000
1643876976898951168,2022-02-03-08:29:36,10.1.1.3,23,-1.200,-0.950,-0.750,0.000,0.000,0.000
1643876977094299136,2022-02-03-08:29:37,10.1.1.3,14,-1.150,-0.950,-0.750,0.000,0.000,0.000
1643876977291568128,2022-02-03-08:29:37,10.1.1.3,10,-1.100,-0.950,-0.750,0.000,0.000,0.000
1643876977491378944,2022-02-03-08:29:37,10.1.1.3,9,-1.050,-0.950,-0.750,0.000,0.000,0.000
1643876977691270144,2022-02-03-08:29:37,10.1.1.3,8,-1.000,-0.950,-0.750,0.000,0.000,0.000
1643876977891088128,2022-02-03-08:29:37,10.1.1.3,6,-0.950,-0.950,-0.750,0.000,0.000,0.000
1643876978093888000,2022-02-03-08:29:38,10.1.1.3,2,-0.901,-0.950,-0.750,0.000,0.000,0.000
1643876978310978816,2022-02-03-08:29:38,10.1.1.3,18,-0.850,-0.950,-0.750,0.000,0.000,0.000
1643876978516024064,2022-02-03-08:29:38,10.1.1.3,22,-0.800,-0.950,-0.750,0.000,0.000,0.000
1643876978699961856,2022-02-03-08:29:38,10.1.1.3,5,-0.757,-0.950,-0.750,0.000,0.000,0.000
1643876978900103936,2022-02-03-08:29:38,10.1.1.3,4,-0.701,-0.950,-0.750,0.000,0.000,0.000
1643876979100672000,2022-02-03-08:29:39,10.1.1.3,3,-0.651,-0.950,-0.750,0.000,0.000,0.000
1643876979300890880,2022-02-03-08:29:39,10.1.1.3,2,-0.602,-0.950,-0.750,0.000,0.000,0.000
1643876979521591808,2022-02-03-08:29:39,10.1.1.3,20,-0.550,-0.950,-0.750,0.000,0.000,0.000
1643876979714076160,2022-02-03-08:29:39,10.1.1.3,12,-0.500,-0.950,-0.750,0.000,0.000,0.000
1643876979920177920,2022-02-03-08:29:39,10.1.1.3,17,-0.450,-0.950,-0.750,0.000,0.000,0.000
1643876980120399104,2022-02-03-08:29:40,10.1.1.3,16,-0.400,-0.950,-0.750,0.000,0.000,0.000
1643876980321920000,2022-02-03-08:29:40,10.1.1.3,17,-0.350,-0.950,-0.750,0.000,0.000,0.000
1643876980522150144,2022-02-03-08:29:40,10.1.1.3,16,-0.300,-0.950,-0.750,0.000,0.000,0.000
1643876980722002944,2022-02-03-08:29:40,10.1.1.3,15,-0.250,-0.950,-0.750,0.000,0.000,0.000
1643876980921929984,2022-02-03-08:29:40,10.1.1.3,14,-0.200,-0.950,-0.750,0.000,0.000,0.000
1643876981120733952,2022-02-03-08:29:41,10.1.1.3,12,-0.150,-0.950,-0.750,0.000,0.000,0.000
1643876981330066944,2022-02-03-08:29:41,10.1.1.3,20,-0.100,-0.950,-0.750,0.000,0.000,0.000
1643876981520040960,2022-02-03-08:29:41,10.1.1.3,9,-0.050,-0.950,-0.750,0.000,0.000,0.000
1643876981723341824,2022-02-03-08:29:41,10.1.1.3,9,-0.050,-0.950,-0.750,0.000,0.000,0.000
1643876981921106176,2022-02-03-08:29:41,10.1.1.3,8,-0.100,-0.900,-0.700,0.000,0.000,0.000
1643876982120115968,2022-02-03-08:29:42,10.1.1.3,6,-0.150,-0.850,-0.650,0.000,0.000,0.000
1643876982319603968,2022-02-03-08:29:42,10.1.1.3,5,-0.199,-0.801,-0.601,0.000,0.000,0.000
1643876982522386176,2022-02-03-08:29:42,10.1.1.3,6,-0.249,-0.751,-0.551,0.000,0.000,0.000
1643876982721975040,2022-02-03-08:29:42,10.1.1.3,5,-0.299,-0.701,-0.501,0.000,0.000,0.000
1643876982940591104,2022-02-03-08:29:42,10.1.1.3,20,-0.350,-0.650,-0.450,0.000,0.000,0.000
1643876983139083008,2022-02-03-08:29:43,10.1.1.3,14,-0.400,-0.600,-0.400,0.000,0.000,0.000
1643876983342382848,2022-02-03-08:29:43,10.1.1.3,16,-0.450,-0.550,-0.350,0.000,0.000,0.000
1643876983540016896,2022-02-03-08:29:43,10.1.1.3,13,-0.500,-0.500,-0.300,0.000,0.000,0.000
1643876983739526144,2022-02-03-08:29:43,10.1.1.3,11,-0.550,-0.450,-0.250,0.000,0.000,0.000
1643876983933553920,2022-02-03-08:29:43,10.1.1.3,5,-0.598,-0.450,-0.250,0.000,0.000,0.000
1643876984145690880,2022-02-03-08:29:44,10.1.1.3,15,-0.650,-0.450,-0.250,0.000,0.000,0.000
1643876984343817984,2022-02-03-08:29:44,10.1.1.3,13,-0.700,-0.450,-0.250,0.000,0.000,0.000
1643876984539470848,2022-02-03-08:29:44,10.1.1.3,7,-0.750,-0.450,-0.250,0.000,0.000,0.000
1643876984741139968,2022-02-03-08:29:44,10.1.1.3,7,-0.800,-0.450,-0.250,0.000,0.000,0.000
1643876984939127040,2022-02-03-08:29:44,10.1.1.3,4,-0.849,-0.450,-0.250,0.000,0.000,0.000
1643876985140232192,2022-02-03-08:29:45,10.1.1.3,4,-0.899,-0.450,-0.250,0.000,0.000,0.000
1643876985339891968,2022-02-03-08:29:45,10.1.1.3,3,-0.949,-0.450,-0.250,0.000,0.000,0.000
1643876985539296000,2022-02-03-08:29:45,10.1.1.3,2,-0.999,-0.450,-0.250,0.000,0.000,0.000
1643876985739685120,2022-02-03-08:29:45,10.1.1.3,1,-1.048,-0.450,-0.250,0.000,0.000,0.000
1643876985951026944,2022-02-03-08:29:45,10.1.1.3,11,-1.100,-0.450,-0.250,0.000,0.000,0.000
1643876986151109888,2022-02-03-08:29:46,10.1.1.3,7,-1.150,-0.450,-0.250,0.000,0.000,0.000
1643876986352893952,2022-02-03-08:29:46,10.1.1.3,8,-1.200,-0.450,-0.250,0.000,0.000,0.000
1643876986551728128,2022-02-03-08:29:46,10.1.1.3,5,-1.248,-0.450,-0.250,0.000,0.000,0.000
1643876986757725952,2022-02-03-08:29:46,10.1.1.3,4,-1.300,-0.450,-0.250,0.000,0.000,0.000
1643876986974348032,2022-02-03-08:29:46,10.1.1.3,17,-1.350,-0.450,-0.250,0.000,0.000,0.000
1643876987176897024,2022-02-03-08:29:47,10.1.1.3,17,-1.400,-0.450,-0.250,0.000,0.000,0.000
1643876987378097920,2022-02-03-08:29:47,10.1.1.3,17,-1.450,-0.450,-0.250,0.000,0.000,0.000
1643876987577891072,2022-02-03-08:29:47,10.1.1.3,13,-1.500,-0.450,-0.250,0.000,0.000,0.000
1643876987775384064,2022-02-03-08:29:47,10.1.1.3,9,-1.550,-0.450,-0.250,0.000,0.000,0.000
1643876987975681024,2022-02-03-08:29:47,10.1.1.3,8,-1.600,-0.450,-0.250,0.000,0.000,0.000
1643876988174941184,2022-02-03-08:29:48,10.1.1.3,3,-1.650,-0.450,-0.250,0.000,0.000,0.000
1643876988375691008,2022-02-03-08:29:48,10.1.1.3,3,-1.698,-0.450,-0.250,0.000,0.000,0.000
1643876988574820096,2022-02-03-08:29:48,10.1.1.3,1,-1.749,-0.450,-0.250,0.000,0.000,0.000
1643876988778074880,2022-02-03-08:29:48,10.1.1.3,2,-1.750,-0.450,-0.250,0.000,0.000,0.000
1643876988995719936,2022-02-03-08:29:48,10.1.1.3,18,-1.700,-0.500,-0.200,0.000,0.000,0.000
1643876989198846208,2022-02-03-08:29:49,10.1.1.3,19,-1.650,-0.550,-0.150,0.000,0.000,0.000
1643876989398637056,2022-02-03-08:29:49,10.1.1.3,18,-1.600,-0.600,-0.100,0.000,0.000,0.000
1643876989598237952,2022-02-03-08:29:49,10.1.1.3,16,-1.550,-0.650,-0.050,0.000,0.000,0.000
1643876989798553088,2022-02-03-08:29:49,10.1.1.3,16,-1.500,-0.700,-0.000,0.000,0.000,0.000
1643876989997373952,2022-02-03-08:29:49,10.1.1.3,12,-1.450,-0.750,-0.000,0.000,0.000,0.000
1643876990197218048,2022-02-03-08:29:50,10.1.1.3,11,-1.400,-0.800,-0.000,0.000,0.000,0.000
1643876990401889024,2022-02-03-08:29:50,10.1.1.3,14,-1.350,-0.850,-0.000,0.000,0.000,0.000
1643876990606637056,2022-02-03-08:29:50,10.1.1.3,18,-1.300,-0.900,-0.000,0.000,0.000,0.000
1643876990797820160,2022-02-03-08:29:50,10.1.1.3,8,-1.300,-0.950,-0.000,0.000,0.000,0.000
1643876990997728000,2022-02-03-08:29:50,10.1.1.3,4,-1.300,-1.000,-0.000,0.000,0.000,0.000
1643876991197957120,2022-02-03-08:29:51,10.1.1.3,4,-1.300,-1.049,-0.000,0.000,0.000,0.000
1643876991398653952,2022-02-03-08:29:51,10.1.1.3,4,-1.300,-1.099,-0.000,0.000,0.000,0.000
1643876991598546944,2022-02-03-08:29:51,10.1.1.3,3,-1.300,-1.148,-0.000,0.000,0.000,0.000
1643876991798827008,2022-02-03-08:29:51,10.1.1.3,1,-1.300,-1.198,-0.000,0.000,0.000,0.000
1643876992017232896,2022-02-03-08:29:52,10.1.1.3,18,-1.300,-1.250,-0.000,0.000,0.000,0.000
1643876992227183104,2022-02-03-08:29:52,10.1.1.3,27,-1.300,-1.300,-0.000,0.000,0.000,0.000
1643876992406281984,2022-02-03-08:29:52,10.1.1.3,5,-1.300,-1.347,-0.000,0.000,0.000,0.000
1643876992617228032,2022-02-03-08:29:52,10.1.1.3,14,-1.300,-1.400,-0.000,0.000,0.000,0.000
1643876992816169984,2022-02-03-08:29:52,10.1.1.3,12,-1.300,-1.450,-0.000,0.000,0.000,0.000
1643876993024310016,2022-02-03-08:29:53,10.1.1.3,18,-1.300,-1.450,-0.000,0.000,0.000,0.000
1643876993218297088,2022-02-03-08:29:53,10.1.1.3,11,-1.250,-1.400,-0.050,0.000,0.000,0.000
1643876993421214208,2022-02-03-08:29:53,10.1.1.3,13,-1.200,-1.350,-0.100,0.000,0.000,0.000
1643876993618796032,2022-02-03-08:29:53,10.1.1.3,8,-1.150,-1.300,-0.150,0.000,0.000,0.000
1643876993819650816,2022-02-03-08:29:53,10.1.1.3,7,-1.100,-1.250,-0.200,0.000,0.000,0.000
1643876994019350016,2022-02-03-08:29:54,10.1.1.3,5,-1.050,-1.200,-0.250,0.000,0.000,0.000
1643876994241466880,2022-02-03-08:29:54,10.1.1.3,23,-1.000,-1.150,-0.300,0.000,0.000,0.000
1643876994422217984,2022-02-03-08:29:54,10.1.1.3,3,-0.952,-1.102,-0.348,0.000,0.000,0.000
1643876994621539072,2022-02-03-08:29:54,10.1.1.3,0,-0.902,-1.052,-0.398,0.000,0.000,0.000
1643876994840139008,2022-02-03-08:29:54,10.1.1.3,17,-0.850,-1.000,-0.450,0.000,0.000,0.000
1643876995044218112,2022-02-03-08:29:55,10.1.1.3,18,-0.800,-1.000,-0.500,0.000,0.000,0.000
1643876995227625984,2022-02-03-08:29:55,10.1.1.3,0,-0.752,-1.000,-0.548,0.000,0.000,0.000
1643876995430849024,2022-02-03-08:29:55,10.1.1.3,3,-0.701,-1.000,-0.599,0.000,0.000,0.000
1643876995632907008,2022-02-03-08:29:55,10.1.1.3,4,-0.652,-1.000,-0.648,0.000,0.000,0.000
1643876995860020992,2022-02-03-08:29:55,10.1.1.3,29,-0.597,-1.000,-0.703,0.000,0.000,0.000
1643876996037185024,2022-02-03-08:29:56,10.1.1.3,5,-0.553,-1.000,-0.747,0.000,0.000,0.000
1643876996241060864,2022-02-03-08:29:56,10.1.1.3,8,-0.500,-1.000,-0.750,0.000,0.000,0.000
1643876996451428864,2022-02-03-08:29:56,10.1.1.3,17,-0.450,-1.000,-0.750,0.000,0.000,0.000
1643876996639517952,2022-02-03-08:29:56,10.1.1.3,4,-0.401,-1.000,-0.750,0.000,0.000,0.000
1643876996841750016,2022-02-03-08:29:56,10.1.1.3,5,-0.351,-1.000,-0.750,0.000,0.000,0.000
1643876997050329856,2022-02-03-08:29:57,10.1.1.3,13,-0.300,-1.000,-0.750,0.000,0.000,0.000
1643876997260553984,2022-02-03-08:29:57,10.1.1.3,22,-0.250,-1.000,-0.750,0.000,0.000,0.000
1643876997440496896,2022-02-03-08:29:57,10.1.1.3,1,-0.202,-1.000,-0.750,0.000,0.000,0.000
1643876997660850944,2022-02-03-08:29:57,10.1.1.3,19,-0.150,-1.000,-0.750,0.000,0.000,0.000
1643876997852088832,2022-02-03-08:29:57,10.1.1.3,10,-0.100,-1.000,-0.750,0.000,0.000,0.000
1643876998050905088,2022-02-03-08:29:58,10.1.1.3,8,-0.050,-1.000,-0.750,0.000,0.000,0.000
1643876998259296768,2022-02-03-08:29:58,10.1.1.3,15,-0.050,-1.000,-0.750,0.000,0.000,0.000
1643876998453286912,2022-02-03-08:29:58,10.1.1.3,4,-0.100,-0.950,-0.700,0.000,0.000,0.000
1643876998654840832,2022-02-03-08:29:58,10.1.1.3,5,-0.149,-0.901,-0.651,0.000,0.000,0.000
1643876998853174016,2022-02-03-08:29:58,10.1.1.3,2,-0.198,-0.852,-0.602,0.000,0.000,0.000
1643876999053208064,2022-02-03-08:29:59,10.1.1.3,1,-0.248,-0.802,-0.552,0.000,0.000,0.000
1643876999274266880,2022-02-03-08:29:59,10.1.1.3,20,-0.300,-0.750,-0.500,0.000,0.000,0.000
1643876999472999168,2022-02-03-08:29:59,10.1.1.3,18,-0.350,-0.700,-0.450,0.000,0.000,0.000
1643876999673350144,2022-02-03-08:29:59,10.1.1.3,17,-0.400,-0.700,-0.400,0.000,0.000,0.000
1643876999873006080,2022-02-03-08:29:59,10.1.1.3,15,-0.450,-0.700,-0.350,0.000,0.000,0.000
1643877000072882944,2022-02-03-08:30:00,10.1.1.3,11,-0.500,-0.700,-0.300,0.000,0.000,0.000
1643877000273492992,2022-02-03-08:30:00,10.1.1.3,11,-0.550,-0.700,-0.250,0.000,0.000,0.000
1643877000473454080,2022-02-03-08:30:00,10.1.1.3,4,-0.600,-0.700,-0.250,0.000,0.000,0.000
1643877000674835968,2022-02-03-08:30:00,10.1.1.3,4,-0.650,-0.700,-0.250,0.000,0.000,0.000
1643877000873351168,2022-02-03-08:30:00,10.1.1.3,1,-0.698,-0.700,-0.250,0.000,0.000,0.000
1643877001074039040,2022-02-03-08:30:01,10.1.1.3,0,-0.749,-0.700,-0.250,0.000,0.000,0.000
1643877001293092864,2022-02-03-08:30:01,10.1.1.3,18,-0.800,-0.700,-0.250,0.000,0.000,0.000
1643877001493498112,2022-02-03-08:30:01,10.1.1.3,17,-0.850,-0.700,-0.250,0.000,0.000,0.000
1643877001692968960,2022-02-03-08:30:01,10.1.1.3,15,-0.900,-0.700,-0.250,0.000,0.000,0.000
1643877001893012992,2022-02-03-08:30:01,10.1.1.3,15,-0.950,-0.700,-0.250,0.000,0.000,0.000
1643877002080656896,2022-02-03-08:30:02,10.1.1.3,1,-0.950,-0.700,-0.250,0.000,0.000,0.000
1643877002298223104,2022-02-03-08:30:02,10.1.1.3,17,-0.900,-0.650,-0.300,0.000,0.000,0.000
1643877002498406912,2022-02-03-08:30:02,10.1.1.3,16,-0.850,-0.600,-0.350,0.000,0.000,0.000
1643877002699712000,2022-02-03-08:30:02,10.1.1.3,16,-0.800,-0.550,-0.400,0.000,0.000,0.000
1643877002899208192,2022-02-03-08:30:02,10.1.1.3,13,-0.750,-0.500,-0.450,0.000,0.000,0.000
1643877003098212096,2022-02-03-08:30:03,10.1.1.3,12,-0.700,-0.450,-0.500,0.000,0.000,0.000
1643877003297874944,2022-02-03-08:30:03,10.1.1.3,10,-0.650,-0.400,-0.550,0.000,0.000,0.000
1643877003499501056,2022-02-03-08:30:03,10.1.1.3,7,-0.600,-0.350,-0.600,0.000,0.000,0.000
1643877003698394112,2022-02-03-08:30:03,10.1.1.3,3,-0.551,-0.301,-0.649,0.000,0.000,0.000
1643877003901544192,2022-02-03-08:30:03,10.1.1.3,4,-0.501,-0.251,-0.650,0.000,0.000,0.000
1643877004119493120,2022-02-03-08:30:04,10.1.1.3,19,-0.450,-0.250,-0.650,0.000,0.000,0.000
1643877004318192128,2022-02-03-08:30:04,10.1.1.3,12,-0.450,-0.250,-0.650,0.000,0.000,0.000
1643877004511185920,2022-02-03-08:30:04,10.1.1.3,5,-0.498,-0.298,-0.650,0.000,0.000,0.000
1643877004718599936,2022-02-03-08:30:04,10.1.1.3,11,-0.550,-0.350,-0.650,0.000,0.000,0.000
1643877004920442112,2022-02-03-08:30:04,10.1.1.3,10,-0.600,-0.400,-0.650,0.000,0.000,0.000
1643877005118546944,2022-02-03-08:30:05,10.1.1.3,7,-0.650,-0.450,-0.650,0.000,0.000,0.000
1643877005319734016,2022-02-03-08:30:05,10.1.1.3,6,-0.699,-0.499,-0.650,0.000,0.000,0.000
1643877005519129088,2022-02-03-08:30:05,10.1.1.3,4,-0.749,-0.549,-0.650,0.000,0.000,0.000
1643877005719624960,2022-02-03-08:30:05,10.1.1.3,3,-0.799,-0.599,-0.650,0.000,0.000,0.000
1643877005939475968,2022-02-03-08:30:05,10.1.1.3,19,-0.800,-0.650,-0.650,0.000,0.000,0.000
1643877006126807808,2022-02-03-08:30:06,10.1.1.3,6,-0.800,-0.697,-0.650,0.000,0.000,0.000
1643877006340312832,2022-02-03-08:30:06,10.1.1.3,18,-0.800,-0.750,-0.650,0.000,0.000,0.000
1643877006539442176,2022-02-03-08:30:06,10.1.1.3,16,-0.800,-0.800,-0.650,0.000,0.000,0.000
1643877006733666816,2022-02-03-08:30:06,10.1.1.3,4,-0.800,-0.849,-0.650,0.000,0.000,0.000
1643877006938009856,2022-02-03-08:30:06,10.1.1.3,8,-0.800,-0.900,-0.650,0.000,0.000,0.000
1643877007138636032,2022-02-03-08:30:07,10.1.1.3,7,-0.800,-0.950,-0.650,0.000,0.000,0.000
1643877007339413760,2022-02-03-08:30:07,10.1.1.3,7,-0.800,-0.950,-0.650,0.000,0.000,0.000
1643877007538359040,2022-02-03-08:30:07,10.1.1.3,5,-0.849,-0.901,-0.601,0.000,0.000,0.000
1643877007739890944,2022-02-03-08:30:07,10.1.1.3,5,-0.899,-0.851,-0.551,0.000,0.000,0.000
1643877007939043072,2022-02-03-08:30:07,10.1.1.3,2,-0.949,-0.801,-0.501,0.000,0.000,0.000
1643877008157788160,2022-02-03-08:30:08,10.1.1.3,19,-1.000,-0.750,-0.450,0.000,0.000,0.000
1643877008346123008,2022-02-03-08:30:08,10.1.1.3,6,-1.048,-0.702,-0.402,0.000,0.000,0.000
1643877008566402816,2022-02-03-08:30:08,10.1.1.3,26,-1.101,-0.649,-0.349,0.000,0.000,0.000
1643877008757635072,2022-02-03-08:30:08,10.1.1.3,15,-1.150,-0.600,-0.300,0.000,0.000,0.000
1643877008958703104,2022-02-03-08:30:08,10.1.1.3,16,-1.200,-0.550,-0.250,0.000,0.000,0.000
1643877009159472896,2022-02-03-08:30:09,10.1.1.3,15,-1.250,-0.500,-0.250,0.000,0.000,0.000
1643877009358866944,2022-02-03-08:30:09,10.1.1.3,14,-1.300,-0.450,-0.250,0.000,0.000,0.000
1643877009558702848,2022-02-03-08:30:09,10.1.1.3,10,-1.350,-0.450,-0.250,0.000,0.000,0.000
1643877009759041024,2022-02-03-08:30:09,10.1.1.3,9,-1.400,-0.450,-0.250,0.000,0.000,0.000
1643877009959497984,2022-02-03-08:30:09,10.1.1.3,8,-1.450,-0.450,-0.250,0.000,0.000,0.000
1643877010158189056,2022-02-03-08:30:10,10.1.1.3,6,-1.500,-0.450,-0.250,0.000,0.000,0.000
1643877010358715904,2022-02-03-08:30:10,10.1.1.3,6,-1.549,-0.450,-0.250,0.000,0.000,0.000
1643877010558728960,2022-02-03-08:30:10,10.1.1.3,5,-1.599,-0.450,-0.250,0.000,0.000,0.000
1643877010759316992,2022-02-03-08:30:10,10.1.1.3,4,-1.649,-0.450,-0.250,0.000,0.000,0.000
1643877010958533120,2022-02-03-08:30:10,10.1.1.3,3,-1.699,-0.450,-0.250,0.000,0.000,0.000
1643877011159603200,2022-02-03-08:30:11,10.1.1.3,3,-1.748,-0.450,-0.250,0.000,0.000,0.000
1643877011360961024,2022-02-03-08:30:11,10.1.1.3,1,-1.750,-0.450,-0.250,0.000,0.000,0.000
1643877011564099072,2022-02-03-08:30:11,10.1.1.3,1,-1.703,-0.403,-0.203,0.000,0.000,0.000
1643877011783704064,2022-02-03-08:30:11,10.1.1.3,19,-1.650,-0.350,-0.150,0.000,0.000,0.000
1643877011991956992,2022-02-03-08:30:11,10.1.1.3,27,-1.600,-0.300,-0.100,0.000,0.000,0.000
1643877012178554112,2022-02-03-08:30:12,10.1.1.3,12,-1.550,-0.250,-0.100,0.000,0.000,0.000
1643877012379942912,2022-02-03-08:30:12,10.1.1.3,12,-1.500,-0.200,-0.100,0.000,0.000,0.000
1643877012573056000,2022-02-03-08:30:12,10.1.1.3,5,-1.452,-0.152,-0.100,0.000,0.000,0.000
1643877012778283008,2022-02-03-08:30:12,10.1.1.3,9,-1.400,-0.100,-0.100,0.000,0.000,0.000
1643877012974651136,2022-02-03-08:30:12,10.1.1.3,4,-1.351,-0.051,-0.100,0.000,0.000,0.000
1643877013174760192,2022-02-03-08:30:13,10.1.1.3,3,-1.301,-0.001,-0.100,0.000,0.000,0.000
1643877013373935104,2022-02-03-08:30:13,10.1.1.3,1,-1.252,0.048,-0.100,0.000,0.000,0.000
1643877013578068992,2022-02-03-08:30:13,10.1.1.3,4,-1.205,0.095,-0.100,0.000,0.000,0.000
1643877013796932864,2022-02-03-08:30:13,10.1.1.3,22,-1.150,0.150,-0.100,0.000,0.000,0.000
1643877013994080000,2022-02-03-08:30:13,10.1.1.3,18,-1.100,0.200,-0.100,0.000,0.000,0.000
1643877014201852928,2022-02-03-08:30:14,10.1.1.3,24,-1.049,0.251,-0.100,0.000,0.000,0.000
1643877014396462848,2022-02-03-08:30:14,10.1.1.3,18,-1.000,0.300,-0.100,0.000,0.000,0.000
1643877014595525120,2022-02-03-08:30:14,10.1.1.3,17,-0.949,0.351,-0.100,0.000,0.000,0.000
1643877014795051008,2022-02-03-08:30:14,10.1.1.3,13,-0.900,0.400,-0.100,0.000,0.000,0.000
1643877014995577088,2022-02-03-08:30:14,10.1.1.3,14,-0.850,0.450,-0.100,0.000,0.000,0.000
1643877015195183104,2022-02-03-08:30:15,10.1.1.3,13,-0.800,0.450,-0.100,0.000,0.000,0.000
1643877015387454976,2022-02-03-08:30:15,10.1.1.3,2,-0.752,0.450,-0.100,0.000,0.000,0.000
1643877015594851072,2022-02-03-08:30:15,10.1.1.3,8,-0.700,0.450,-0.100,0.000,0.000,0.000
1643877015804963072,2022-02-03-08:30:15,10.1.1.3,17,-0.650,0.450,-0.100,0.000,0.000,0.000
1643877015998778112,2022-02-03-08:30:15,10.1.1.3,10,-0.600,0.450,-0.100,0.000,0.000,0.000
1643877016195667968,2022-02-03-08:30:16,10.1.1.3,6,-0.550,0.450,-0.100,0.000,0.000,0.000
1643877016394330112,2022-02-03-08:30:16,10.1.1.3,4,-0.501,0.450,-0.100,0.000,0.000,0.000
1643877016596646912,2022-02-03-08:30:16,10.1.1.3,6,-0.451,0.450,-0.100,0.000,0.000,0.000
1643877016795922944,2022-02-03-08:30:16,10.1.1.3,5,-0.401,0.450,-0.100,0.000,0.000,0.000
1643877016996566016,2022-02-03-08:30:16,10.1.1.3,4,-0.351,0.450,-0.100,0.000,0.000,0.000
1643877017198450944,2022-02-03-08:30:17,10.1.1.3,5,-0.302,0.450,-0.100,0.000,0.000,0.000
1643877017400265984,2022-02-03-08:30:17,10.1.1.3,5,-0.257,0.450,-0.100,0.000,0.000,0.000
1643877017625939968,2022-02-03-08:30:17,10.1.1.3,30,-0.254,0.446,-0.104,0.000,0.000,0.000
1643877017801064960,2022-02-03-08:30:17,10.1.1.3,4,-0.299,0.401,-0.149,0.000,0.000,0.000
1643877018000052992,2022-02-03-08:30:17,10.1.1.3,2,-0.349,0.351,-0.199,0.000,0.000,0.000
1643877018218885888,2022-02-03-08:30:18,10.1.1.3,19,-0.400,0.300,-0.250,0.000,0.000,0.000
1643877018415677952,2022-02-03-08:30:18,10.1.1.3,15,-0.450,0.250,-0.300,0.000,0.000,0.000
1643877018609502976,2022-02-03-08:30:18,10.1.1.3,8,-0.500,0.200,-0.350,0.000,0.000,0.000
1643877018817233920,2022-02-03-08:30:18,10.1.1.3,15,-0.550,0.150,-0.400,0.000,0.000,0.000
1643877019010660864,2022-02-03-08:30:19,10.1.1.3,7,-0.600,0.100,-0.450,0.000,0.000,0.000
1643877019221584128,2022-02-03-08:30:19,10.1.1.3,17,-0.650,0.050,-0.500,0.000,0.000,0.000
1643877019420264960,2022-02-03-08:30:19,10.1.1.3,15,-0.701,-0.001,-0.551,0.000,0.000,0.000
1643877019619326976,2022-02-03-08:30:19,10.1.1.3,13,-0.750,-0.050,-0.600,0.000,0.000,0.000
1643877019813824768,2022-02-03-08:30:19,10.1.1.3,5,-0.799,-0.099,-0.649,0.000,0.000,0.000
1643877020021167104,2022-02-03-08:30:20,10.1.1.3,11,-0.800,-0.150,-0.650,0.000,0.000,0.000
1643877020216183808,2022-02-03-08:30:20,10.1.1.3,4,-0.800,-0.199,-0.650,0.000,0.000,0.000
1643877020414226176,2022-02-03-08:30:20,10.1.1.3,1,-0.800,-0.248,-0.650,0.000,0.000,0.000
1643877020616854016,2022-02-03-08:30:20,10.1.1.3,2,-0.800,-0.298,-0.650,0.000,0.000,0.000
1643877020838582016,2022-02-03-08:30:20,10.1.1.3,23,-0.800,-0.350,-0.650,0.000,0.000,0.000
1643877021034215936,2022-02-03-08:30:21,10.1.1.3,17,-0.800,-0.400,-0.650,0.000,0.000,0.000
1643877021234544896,2022-02-03-08:30:21,10.1.1.3,17,-0.800,-0.450,-0.650,0.000,0.000,0.000
1643877021437912832,2022-02-03-08:30:21,10.1.1.3,17,-0.800,-0.500,-0.650,0.000,0.000,0.000
1643877021634361856,2022-02-03-08:30:21,10.1.1.3,12,-0.800,-0.550,-0.650,0.000,0.000,0.000
1643877021836278016,2022-02-03-08:30:21,10.1.1.3,12,-0.800,-0.600,-0.650,0.000,0.000,0.000
1643877022035023872,2022-02-03-08:30:22,10.1.1.3,11,-0.800,-0.650,-0.650,0.000,0.000,0.000
1643877022235667968,2022-02-03-08:30:22,10.1.1.3,10,-0.800,-0.700,-0.650,0.000,0.000,0.000
1643877022436641024,2022-02-03-08:30:22,10.1.1.3,10,-0.800,-0.750,-0.650,0.000,0.000,0.000
1643877022634646016,2022-02-03-08:30:22,10.1.1.3,7,-0.800,-0.800,-0.650,0.000,0.000,0.000
1643877022835340032,2022-02-03-08:30:22,10.1.1.3,7,-0.800,-0.850,-0.650,0.000,0.000,0.000
1643877023038364928,2022-02-03-08:30:23,10.1.1.3,8,-0.800,-0.900,-0.650,0.000,0.000,0.000
1643877023235393024,2022-02-03-08:30:23,10.1.1.3,5,-0.800,-0.949,-0.650,0.000,0.000,0.000
1643877023434695936,2022-02-03-08:30:23,10.1.1.3,3,-0.800,-0.950,-0.650,0.000,0.000,0.000
1643877023636017920,2022-02-03-08:30:23,10.1.1.3,2,-0.751,-0.901,-0.601,0.000,0.000,0.000
1643877023835987200,2022-02-03-08:30:23,10.1.1.3,1,-0.702,-0.852,-0.552,0.000,0.000,0.000
1643877024062267904,2022-02-03-08:30:24,10.1.1.3,23,-0.650,-0.800,-0.500,0.000,0.000,0.000
1643877024257266944,2022-02-03-08:30:24,10.1.1.3,17,-0.600,-0.750,-0.450,0.000,0.000,0.000
1643877024457519104,2022-02-03-08:30:24,10.1.1.3,16,-0.550,-0.700,-0.400,0.000,0.000,0.000
1643877024655180032,2022-02-03-08:30:24,10.1.1.3,13,-0.500,-0.650,-0.350,0.000,0.000,0.000
1643877024876422912,2022-02-03-08:30:24,10.1.1.3,34,-0.450,-0.600,-0.300,0.000,0.000,0.000
1643877025054914048,2022-02-03-08:30:25,10.1.1.3,11,-0.400,-0.550,-0.250,0.000,0.000,0.000
1643877025256485888,2022-02-03-08:30:25,10.1.1.3,12,-0.349,-0.499,-0.250,0.000,0.000,0.000
1643877025458098944,2022-02-03-08:30:25,10.1.1.3,13,-0.300,-0.450,-0.250,0.000,0.000,0.000
1643877025655361792,2022-02-03-08:30:25,10.1.1.3,8,-0.250,-0.400,-0.250,0.000,0.000,0.000
1643877025854356992,2022-02-03-08:30:25,10.1.1.3,6,-0.201,-0.351,-0.250,0.000,0.000,0.000
1643877026055329024,2022-02-03-08:30:26,10.1.1.3,6,-0.151,-0.350,-0.250,0.000,0.000,0.000
1643877026257222912,2022-02-03-08:30:26,10.1.1.3,7,-0.101,-0.350,-0.250,0.000,0.000,0.000
1643877026456307968,2022-02-03-08:30:26,10.1.1.3,5,-0.051,-0.350,-0.250,0.000,0.000,0.000
1643877026655940096,2022-02-03-08:30:26,10.1.1.3,4,-0.000,-0.350,-0.250,0.000,0.000,0.000
1643877026877116928,2022-02-03-08:30:26,10.1.1.3,24,0.051,-0.350,-0.250,0.000,0.000,0.000
1643877027056283904,2022-02-03-08:30:27,10.1.1.3,1,0.098,-0.350,-0.250,0.000,0.000,0.000
1643877027275422208,2022-02-03-08:30:27,10.1.1.3,19,0.150,-0.350,-0.250,0.000,0.000,0.000
1643877027464016896,2022-02-03-08:30:27,10.1.1.3,4,0.198,-0.350,-0.250,0.000,0.000,0.000
1643877027676282880,2022-02-03-08:30:27,10.1.1.3,14,0.250,-0.350,-0.250,0.000,0.000,0.000
1643877027875554048,2022-02-03-08:30:27,10.1.1.3,11,0.300,-0.350,-0.250,0.000,0.000,0.000
1643877028076751872,2022-02-03-08:30:28,10.1.1.3,10,0.350,-0.350,-0.250,0.000,0.000,0.000
1643877028272763136,2022-02-03-08:30:28,10.1.1.3,5,0.398,-0.350,-0.250,0.000,0.000,0.000
1643877028474745088,2022-02-03-08:30:28,10.1.1.3,6,0.448,-0.350,-0.250,0.000,0.000,0.000
1643877028675555072,2022-02-03-08:30:28,10.1.1.3,7,0.500,-0.350,-0.250,0.000,0.000,0.000
1643877028875998976,2022-02-03-08:30:28,10.1.1.3,5,0.550,-0.350,-0.250,0.000,0.000,0.000
1643877029076302080,2022-02-03-08:30:29,10.1.1.3,4,0.599,-0.350,-0.250,0.000,0.000,0.000
1643877029277745920,2022-02-03-08:30:29,10.1.1.3,5,0.650,-0.350,-0.250,0.000,0.000,0.000
1643877029477252864,2022-02-03-08:30:29,10.1.1.3,3,0.699,-0.350,-0.250,0.000,0.000,0.000
1643877029675757056,2022-02-03-08:30:29,10.1.1.3,1,0.748,-0.350,-0.250,0.000,0.000,0.000
1643877029876857088,2022-02-03-08:30:29,10.1.1.3,1,0.798,-0.350,-0.250,0.000,0.000,0.000
1643877030096417792,2022-02-03-08:30:30,10.1.1.3,19,0.850,-0.350,-0.250,0.000,0.000,0.000
1643877030296494848,2022-02-03-08:30:30,10.1.1.3,18,0.901,-0.350,-0.250,0.000,0.000,0.000
1643877030479887872,2022-02-03-08:30:30,10.1.1.3,-1,0.948,-0.350,-0.250,0.000,0.000,0.000
1643877030697091072,2022-02-03-08:30:30,10.1.1.3,17,1.000,-0.350,-0.250,0.000,0.000,0.000
1643877030897861888,2022-02-03-08:30:30,10.1.1.3,16,1.050,-0.350,-0.250,0.000,0.000,0.000
1643877031098889984,2022-02-03-08:30:31,10.1.1.3,17,1.100,-0.350,-0.250,0.000,0.000,0.000
1643877031297248000,2022-02-03-08:30:31,10.1.1.3,14,1.150,-0.350,-0.250,0.000,0.000,0.000
1643877031499116800,2022-02-03-08:30:31,10.1.1.3,15,1.200,-0.350,-0.250,0.000,0.000,0.000
1643877031697865984,2022-02-03-08:30:31,10.1.1.3,12,1.250,-0.350,-0.250,0.000,0.000,0.000
1643877031898428928,2022-02-03-08:30:31,10.1.1.3,11,1.250,-0.350,-0.250,0.000,0.000,0.000
1643877032095983872,2022-02-03-08:30:32,10.1.1.3,9,1.250,-0.400,-0.200,0.000,0.000,0.000
1643877032297547008,2022-02-03-08:30:32,10.1.1.3,8,1.250,-0.450,-0.150,0.000,0.000,0.000
1643877032498380032,2022-02-03-08:30:32,10.1.1.3,4,1.250,-0.498,-0.102,0.000,0.000,0.000
1643877032726330880,2022-02-03-08:30:32,10.1.1.3,27,1.250,-0.551,-0.049,0.000,0.000,0.000
1643877032906498816,2022-02-03-08:30:32,10.1.1.3,4,1.250,-0.596,-0.004,0.000,0.000,0.000
1643877033119476992,2022-02-03-08:30:33,10.1.1.3,16,1.250,-0.652,-0.000,0.000,0.000,0.000
1643877033319254016,2022-02-03-08:30:33,10.1.1.3,14,1.250,-0.700,-0.000,0.000,0.000,0.000
1643877033516802048,2022-02-03-08:30:33,10.1.1.3,11,1.250,-0.750,-0.000,0.000,0.000,0.000
1643877033718467072,2022-02-03-08:30:33,10.1.1.3,12,1.250,-0.800,-0.000,0.000,0.000,0.000
1643877033917576192,2022-02-03-08:30:33,10.1.1.3,8,1.250,-0.850,-0.000,0.000,0.000,0.000
1643877034118429952,2022-02-03-08:30:34,10.1.1.3,8,1.250,-0.900,-0.000,0.000,0.000,0.000
1643877034318337024,2022-02-03-08:30:34,10.1.1.3,6,1.250,-0.950,-0.000,0.000,0.000,0.000
1643877034519532800,2022-02-03-08:30:34,10.1.1.3,2,1.250,-0.999,-0.000,0.000,0.000,0.000
1643877034737615104,2022-02-03-08:30:34,10.1.1.3,18,1.250,-1.050,-0.000,0.000,0.000,0.000
1643877034937659136,2022-02-03-08:30:34,10.1.1.3,17,1.250,-1.100,-0.000,0.000,0.000,0.000
1643877035140124928,2022-02-03-08:30:35,10.1.1.3,17,1.250,-1.150,-0.000,0.000,0.000,0.000
1643877035338766080,2022-02-03-08:30:35,10.1.1.3,13,1.250,-1.200,-0.000,0.000,0.000,0.000
1643877035538448128,2022-02-03-08:30:35,10.1.1.3,13,1.250,-1.250,-0.000,0.000,0.000,0.000
1643877035738979072,2022-02-03-08:30:35,10.1.1.3,12,1.250,-1.300,-0.000,0.000,0.000,0.000
1643877035940923904,2022-02-03-08:30:35,10.1.1.3,13,1.250,-1.350,-0.000,0.000,0.000,0.000
1643877036139156992,2022-02-03-08:30:36,10.1.1.3,10,1.250,-1.400,-0.000,0.000,0.000,0.000
1643877036338252032,2022-02-03-08:30:36,10.1.1.3,8,1.250,-1.450,-0.000,0.000,0.000,0.000
1643877036536982016,2022-02-03-08:30:36,10.1.1.3,5,1.250,-1.450,-0.000,0.000,0.000,0.000
1643877036738274048,2022-02-03-08:30:36,10.1.1.3,4,1.201,-1.401,0.049,0.000,0.000,0.000
1643877036939585024,2022-02-03-08:30:36,10.1.1.3,2,1.151,-1.351,0.099,0.000,0.000,0.000
1643877037149501184,2022-02-03-08:30:37,10.1.1.3,11,1.100,-1.300,0.150,0.000,0.000,0.000
1643877037359340032,2022-02-03-08:30:37,10.1.1.3,19,1.050,-1.250,0.200,0.000,0.000,0.000
1643877037552280832,2022-02-03-08:30:37,10.1.1.3,11,1.000,-1.200,0.250,0.000,0.000,0.000
1643877037752332032,2022-02-03-08:30:37,10.1.1.3,10,0.950,-1.200,0.300,0.000,0.000,0.000
1643877037954676992,2022-02-03-08:30:37,10.1.1.3,11,0.900,-1.200,0.350,0.000,0.000,0.000
1643877038150713856,2022-02-03-08:30:38,10.1.1.3,6,0.851,-1.200,0.399,0.000,0.000,0.000
1643877038351313152,2022-02-03-08:30:38,10.1.1.3,4,0.800,-1.200,0.400,0.000,0.000,0.000
1643877038554227968,2022-02-03-08:30:38,10.1.1.3,6,0.751,-1.200,0.400,0.000,0.000,0.000
1643877038752321024,2022-02-03-08:30:38,10.1.1.3,2,0.702,-1.200,0.400,0.000,0.000,0.000
1643877038954240000,2022-02-03-08:30:38,10.1.1.3,2,0.652,-1.200,0.400,0.000,0.000,0.000
1643877039170269952,2022-02-03-08:30:39,10.1.1.3,17,0.600,-1.200,0.400,0.000,0.000,0.000
1643877039370141952,2022-02-03-08:30:39,10.1.1.3,15,0.550,-1.200,0.400,0.000,0.000,0.000
1643877039571075840,2022-02-03-08:30:39,10.1.1.3,15,0.500,-1.200,0.400,0.000,0.000,0.000
1643877039759664896,2022-02-03-08:30:39,10.1.1.3,2,0.451,-1.200,0.400,0.000,0.000,0.000
1643877039972966912,2022-02-03-08:30:39,10.1.1.3,14,0.450,-1.200,0.400,0.000,0.000,0.000
1643877040175302912,2022-02-03-08:30:40,10.1.1.3,16,0.400,-1.150,0.350,0.000,0.000,0.000
1643877040373494016,2022-02-03-08:30:40,10.1.1.3,13,0.350,-1.100,0.300,0.000,0.000,0.000
1643877040573452032,2022-02-03-08:30:40,10.1.1.3,12,0.300,-1.050,0.250,0.000,0.000,0.000
1643877040773172992,2022-02-03-08:30:40,10.1.1.3,8,0.250,-1.000,0.250,0.000,0.000,0.000
1643877040976882944,2022-02-03-08:30:40,10.1.1.3,10,0.200,-0.950,0.250,0.000,0.000,0.000
1643877041173982976,2022-02-03-08:30:41,10.1.1.3,6,0.150,-0.900,0.250,0.000,0.000,0.000
1643877041375888128,2022-02-03-08:30:41,10.1.1.3,1,0.101,-0.851,0.250,0.000,0.000,0.000
1643877041602642176,2022-02-03-08:30:41,10.1.1.3,26,0.050,-0.800,0.250,0.000,0.000,0.000
1643877041780178176,2022-02-03-08:30:41,10.1.1.3,3,0.002,-0.752,0.250,0.000,0.000,0.000
1643877041994141184,2022-02-03-08:30:41,10.1.1.3,15,-0.050,-0.700,0.250,0.000,0.000,0.000
1643877042193531904,2022-02-03-08:30:42,10.1.1.3,14,-0.100,-0.650,0.250,0.000,0.000,0.000
1643877042393178880,2022-02-03-08:30:42,10.1.1.3,12,-0.150,-0.600,0.250,0.000,0.000,0.000
1643877042593942016,2022-02-03-08:30:42,10.1.1.3,9,-0.200,-0.550,0.250,0.000,0.000,0.000
1643877042792423936,2022-02-03-08:30:42,10.1.1.3,6,-0.250,-0.500,0.250,0.000,0.000,0.000
1643877042992342016,2022-02-03-08:30:42,10.1.1.3,6,-0.300,-0.450,0.250,0.000,0.000,0.000
1643877043194333952,2022-02-03-08:30:43,10.1.1.3,6,-0.350,-0.450,0.250,0.000,0.000,0.000
1643877043407404800,2022-02-03-08:30:43,10.1.1.3,18,-0.400,-0.450,0.250,0.000,0.000,0.000
1643877043597614080,2022-02-03-08:30:43,10.1.1.3,5,-0.450,-0.450,0.250,0.000,0.000,0.000
1643877043801486848,2022-02-03-08:30:43,10.1.1.3,7,-0.500,-0.450,0.250,0.000,0.000,0.000
1643877044001595904,2022-02-03-08:30:44,10.1.1.3,6,-0.549,-0.450,0.250,0.000,0.000,0.000
1643877044199222016,2022-02-03-08:30:44,10.1.1.3,1,-0.598,-0.450,0.250,0.000,0.000,0.000
1643877044419700992,2022-02-03-08:30:44,10.1.1.3,20,-0.650,-0.450,0.250,0.000,0.000,0.000
1643877044618426112,2022-02-03-08:30:44,10.1.1.3,18,-0.701,-0.450,0.250,0.000,0.000,0.000
1643877044817958144,2022-02-03-08:30:44,10.1.1.3,16,-0.751,-0.450,0.250,0.000,0.000,0.000
1643877045018728960,2022-02-03-08:30:45,10.1.1.3,15,-0.800,-0.450,0.250,0.000,0.000,0.000
1643877045221771008,2022-02-03-08:30:45,10.1.1.3,18,-0.850,-0.450,0.250,0.000,0.000,0.000
1643877045417534976,2022-02-03-08:30:45,10.1.1.3,13,-0.900,-0.450,0.250,0.000,0.000,0.000
1643877045617879040,2022-02-03-08:30:45,10.1.1.3,11,-0.950,-0.450,0.250,0.000,0.000,0.000
1643877045818761984,2022-02-03-08:30:45,10.1.1.3,11,-1.000,-0.450,0.250,0.000,0.000,0.000
1643877046017965056,2022-02-03-08:30:46,10.1.1.3,7,-1.050,-0.450,0.250,0.000,0.000,0.000
1643877046218045952,2022-02-03-08:30:46,10.1.1.3,2,-1.100,-0.450,0.250,0.000,0.000,0.000
1643877046422736896,2022-02-03-08:30:46,10.1.1.3,6,-1.148,-0.450,0.250,0.000,0.000,0.000
1643877046624008960,2022-02-03-08:30:46,10.1.1.3,6,-1.198,-0.450,0.250,0.000,0.000,0.000
1643877046833679872,2022-02-03-08:30:46,10.1.1.3,14,-1.250,-0.450,0.250,0.000,0.000,0.000
1643877047034998016,2022-02-03-08:30:47,10.1.1.3,14,-1.300,-0.450,0.250,0.000,0.000,0.000
1643877047231862016,2022-02-03-08:30:47,10.1.1.3,10,-1.350,-0.450,0.250,0.000,0.000,0.000
1643877047433545984,2022-02-03-08:30:47,10.1.1.3,11,-1.400,-0.450,0.250,0.000,0.000,0.000
1643877047632260096,2022-02-03-08:30:47,10.1.1.3,8,-1.450,-0.450,0.250,0.000,0.000,0.000
1643877047833467904,2022-02-03-08:30:47,10.1.1.3,8,-1.500,-0.450,0.250,0.000,0.000,0.000
1643877048033441024,2022-02-03-08:30:48,10.1.1.3,7,-1.550,-0.450,0.250,0.000,0.000,0.000
1643877048234594048,2022-02-03-08:30:48,10.1.1.3,5,-1.599,-0.450,0.250,0.000,0.000,0.000
1643877048434643968,2022-02-03-08:30:48,10.1.1.3,2,-1.649,-0.450,0.250,0.000,0.000,0.000
1643877048635849984,2022-02-03-08:30:48,10.1.1.3,3,-1.698,-0.450,0.250,0.000,0.000,0.000
1643877048853619968,2022-02-03-08:30:48,10.1.1.3,18,-1.750,-0.450,0.250,0.000,0.000,0.000
1643877049053443840,2022-02-03-08:30:49,10.1.1.3,16,-1.750,-0.450,0.250,0.000,0.000,0.000
1643877049254551808,2022-02-03-08:30:49,10.1.1.3,16,-1.700,-0.400,0.200,0.000,0.000,0.000
1643877049454843904,2022-02-03-08:30:49,10.1.1.3,16,-1.650,-0.350,0.150,0.000,0.000,0.000
1643877049654763008,2022-02-03-08:30:49,10.1.1.3,12,-1.600,-0.300,0.100,0.000,0.000,0.000
1643877049853019904,2022-02-03-08:30:49,10.1.1.3,9,-1.550,-0.250,0.050,0.000,0.000,0.000
1643877050053741056,2022-02-03-08:30:50,10.1.1.3,9,-1.500,-0.200,0.000,0.000,0.000,0.000
1643877050252882944,2022-02-03-08:30:50,10.1.1.3,6,-1.450,-0.150,-0.050,0.000,0.000,0.000
1643877050453216000,2022-02-03-08:30:50,10.1.1.3,5,-1.401,-0.150,-0.099,0.000,0.000,0.000
1643877050652350976,2022-02-03-08:30:50,10.1.1.3,4,-1.351,-0.150,-0.149,0.000,0.000,0.000
1643877050854557952,2022-02-03-08:30:50,10.1.1.3,5,-1.301,-0.150,-0.199,0.000,0.000,0.000
1643877051057964032,2022-02-03-08:30:51,10.1.1.3,7,-1.251,-0.150,-0.249,0.000,0.000,0.000
1643877051253840896,2022-02-03-08:30:51,10.1.1.3,1,-1.202,-0.150,-0.298,0.000,0.000,0.000
1643877051455872000,2022-02-03-08:30:51,10.1.1.3,2,-1.152,-0.150,-0.348,0.000,0.000,0.000
1643877051673199872,2022-02-03-08:30:51,10.1.1.3,18,-1.100,-0.150,-0.400,0.000,0.000,0.000
1643877051870632960,2022-02-03-08:30:51,10.1.1.3,14,-1.050,-0.150,-0.450,0.000,0.000,0.000
1643877052061645056,2022-02-03-08:30:52,10.1.1.3,5,-1.001,-0.150,-0.499,0.000,0.000,0.000
1643877052280828928,2022-02-03-08:30:52,10.1.1.3,23,-0.950,-0.150,-0.500,0.000,0.000,0.000
1643877052470235136,2022-02-03-08:30:52,10.1.1.3,12,-0.900,-0.150,-0.500,0.000,0.000,0.000
1643877052679809024,2022-02-03-08:30:52,10.1.1.3,21,-0.850,-0.150,-0.500,0.000,0.000,0.000
1643877052869796096,2022-02-03-08:30:52,10.1.1.3,10,-0.800,-0.150,-0.500,0.000,0.000,0.000
1643877053071046144,2022-02-03-08:30:53,10.1.1.3,9,-0.800,-0.150,-0.500,0.000,0.000,0.000
1643877053270903040,2022-02-03-08:30:53,10.1.1.3,9,-0.750,-0.200,-0.550,0.000,0.000,0.000
1643877053470871040,2022-02-03-08:30:53,10.1.1.3,7,-0.700,-0.250,-0.600,0.000,0.000,0.000
1643877053672055040,2022-02-03-08:30:53,10.1.1.3,7,-0.650,-0.300,-0.650,0.000,0.000,0.000
1643877053871915008,2022-02-03-08:30:53,10.1.1.3,6,-0.601,-0.349,-0.699,0.000,0.000,0.000
1643877054072086016,2022-02-03-08:30:54,10.1.1.3,5,-0.553,-0.397,-0.747,0.000,0.000,0.000
1643877054275796992,2022-02-03-08:30:54,10.1.1.3,8,-0.500,-0.450,-0.750,0.000,0.000,0.000
1643877054475543040,2022-02-03-08:30:54,10.1.1.3,7,-0.450,-0.500,-0.750,0.000,0.000,0.000
1643877054674309888,2022-02-03-08:30:54,10.1.1.3,4,-0.411,-0.539,-0.750,0.000,0.000,0.000
1643877054875813120,2022-02-03-08:30:54,10.1.1.3,5,-0.356,-0.594,-0.750,0.000,0.000,0.000
1643877055075970816,2022-02-03-08:30:55,10.1.1.3,4,-0.301,-0.649,-0.750,0.000,0.000,0.000
1643877055277414144,2022-02-03-08:30:55,10.1.1.3,4,-0.251,-0.699,-0.750,0.000,0.000,0.000
1643877055477952000,2022-02-03-08:30:55,10.1.1.3,4,-0.206,-0.744,-0.750,0.000,0.000,0.000
1643877055677537792,2022-02-03-08:30:55,10.1.1.3,2,-0.152,-0.798,-0.750,0.000,0.000,0.000
1643877055892741888,2022-02-03-08:30:55,10.1.1.3,16,-0.098,-0.852,-0.750,0.000,0.000,0.000
1643877056091396096,2022-02-03-08:30:56,10.1.1.3,13,-0.050,-0.900,-0.750,0.000,0.000,0.000
1643877056291805952,2022-02-03-08:30:56,10.1.1.3,13,-0.050,-0.950,-0.750,0.000,0.000,0.000
1643877056492902912,2022-02-03-08:30:56,10.1.1.3,12,-0.050,-0.950,-0.750,0.000,0.000,0.000
1643877056692549888,2022-02-03-08:30:56,10.1.1.3,9,-0.100,-0.900,-0.700,0.000,0.000,0.000
1643877056894721024,2022-02-03-08:30:56,10.1.1.3,10,-0.150,-0.850,-0.650,0.000,0.000,0.000
1643877057099802112,2022-02-03-08:30:57,10.1.1.3,14,-0.199,-0.801,-0.601,0.000,0.000,0.000
1643877057292752896,2022-02-03-08:30:57,10.1.1.3,6,-0.249,-0.751,-0.551,0.000,0.000,0.000
1643877057491673856,2022-02-03-08:30:57,10.1.1.3,4,-0.299,-0.701,-0.501,0.000,0.000,0.000
1643877057695004928,2022-02-03-08:30:57,10.1.1.3,6,-0.349,-0.700,-0.451,0.000,0.000,0.000
1643877057892726784,2022-02-03-08:30:57,10.1.1.3,3,-0.399,-0.700,-0.401,0.000,0.000,0.000
1643877058093348096,2022-02-03-08:30:58,10.1.1.3,3,-0.448,-0.700,-0.352,0.000,0.000,0.000
1643877058298381056,2022-02-03-08:30:58,10.1.1.3,5,-0.499,-0.700,-0.301,0.000,0.000,0.000
1643877058499033856,2022-02-03-08:30:58,10.1.1.3,5,-0.546,-0.700,-0.254,0.000,0.000,0.000
1643877058702934016,2022-02-03-08:30:58,10.1.1.3,8,-0.587,-0.700,-0.250,0.000,0.000,0.000
1643877058911778048,2022-02-03-08:30:58,10.1.1.3,16,-0.650,-0.700,-0.250,0.000,0.000,0.000
1643877059112783872,2022-02-03-08:30:59,10.1.1.3,16,-0.700,-0.700,-0.250,0.000,0.000,0.000
1643877059311068160,2022-02-03-08:30:59,10.1.1.3,13,-0.750,-0.700,-0.250,0.000,0.000,0.000
1643877059512193792,2022-02-03-08:30:59,10.1.1.3,13,-0.800,-0.700,-0.250,0.000,0.000,0.000
1643877059710681088,2022-02-03-08:30:59,10.1.1.3,9,-0.850,-0.700,-0.250,0.000,0.000,0.000
1643877059912264960,2022-02-03-08:30:59,10.1.1.3,10,-0.900,-0.700,-0.250,0.000,0.000,0.000
1643877060111305984,2022-02-03-08:31:00,10.1.1.3,6,-0.950,-0.700,-0.250,0.000,0.000,0.000
1643877060314625024,2022-02-03-08:31:00,10.1.1.3,5,-0.950,-0.700,-0.250,0.000,0.000,0.000
1643877060531023872,2022-02-03-08:31:00,10.1.1.3,18,-0.900,-0.650,-0.200,0.000,0.000,0.000
1643877060731041024,2022-02-03-08:31:00,10.1.1.3,17,-0.849,-0.599,-0.149,0.000,0.000,0.000
1643877060931272960,2022-02-03-08:31:00,10.1.1.3,16,-0.800,-0.550,-0.100,0.000,0.000,0.000
1643877061131261184,2022-02-03-08:31:01,10.1.1.3,15,-0.750,-0.550,-0.100,0.000,0.000,0.000
1643877061331800064,2022-02-03-08:31:01,10.1.1.3,14,-0.700,-0.550,-0.100,0.000,0.000,0.000
1643877061531555840,2022-02-03-08:31:01,10.1.1.3,13,-0.650,-0.550,-0.100,0.000,0.000,0.000
1643877061732350208,2022-02-03-08:31:01,10.1.1.3,12,-0.600,-0.550,-0.100,0.000,0.000,0.000
1643877061922769920,2022-02-03-08:31:01,10.1.1.3,1,-0.550,-0.550,-0.100,0.000,0.000,0.000
1643877062130012160,2022-02-03-08:31:02,10.1.1.3,7,-0.500,-0.550,-0.100,0.000,0.000,0.000
1643877062334706176,2022-02-03-08:31:02,10.1.1.3,11,-0.450,-0.550,-0.100,0.000,0.000,0.000
1643877062531249152,2022-02-03-08:31:02,10.1.1.3,7,-0.400,-0.550,-0.100,0.000,0.000,0.000
1643877062731081984,2022-02-03-08:31:02,10.1.1.3,5,-0.350,-0.550,-0.100,0.000,0.000,0.000
1643877062926592000,2022-02-03-08:31:02,10.1.1.3,0,-0.305,-0.550,-0.100,0.000,0.000,0.000
1643877063133593088,2022-02-03-08:31:03,10.1.1.3,7,-0.250,-0.550,-0.100,0.000,0.000,0.000
1643877063335212032,2022-02-03-08:31:03,10.1.1.3,6,-0.250,-0.550,-0.100,0.000,0.000,0.000
1643877063534899968,2022-02-03-08:31:03,10.1.1.3,5,-0.299,-0.501,-0.149,0.000,0.000,0.000
1643877063735089920,2022-02-03-08:31:03,10.1.1.3,5,-0.349,-0.451,-0.199,0.000,0.000,0.000
1643877063935284992,2022-02-03-08:31:03,10.1.1.3,4,-0.399,-0.401,-0.249,0.000,0.000,0.000
1643877064135524864,2022-02-03-08:31:04,10.1.1.3,3,-0.400,-0.353,-0.297,0.000,0.000,0.000
1643877064336955904,2022-02-03-08:31:04,10.1.1.3,4,-0.400,-0.301,-0.349,0.000,0.000,0.000
1643877064537777920,2022-02-03-08:31:04,10.1.1.3,4,-0.400,-0.251,-0.399,0.000,0.000,0.000
1643877064738925056,2022-02-03-08:31:04,10.1.1.3,1,-0.400,-0.250,-0.449,0.000,0.000,0.000
1643877064938714880,2022-02-03-08:31:04,10.1.1.3,0,-0.400,-0.250,-0.498,0.000,0.000,0.000
1643877065165920000,2022-02-03-08:31:05,10.1.1.3,25,-0.400,-0.250,-0.550,0.000,0.000,0.000
1643877065358167040,2022-02-03-08:31:05,10.1.1.3,16,-0.400,-0.250,-0.600,0.000,0.000,0.000
1643877065558098176,2022-02-03-08:31:05,10.1.1.3,15,-0.400,-0.250,-0.650,0.000,0.000,0.000
1643877065766546944,2022-02-03-08:31:05,10.1.1.3,21,-0.400,-0.250,-0.650,0.000,0.000,0.000
1643877065958457088,2022-02-03-08:31:05,10.1.1.3,12,-0.450,-0.300,-0.600,0.000,0.000,0.000
1643877066157152000,2022-02-03-08:31:06,10.1.1.3,8,-0.500,-0.350,-0.550,0.000,0.000,0.000
1643877066357242112,2022-02-03-08:31:06,10.1.1.3,7,-0.550,-0.400,-0.500,0.000,0.000,0.000
1643877066558414080,2022-02-03-08:31:06,10.1.1.3,7,-0.600,-0.450,-0.450,0.000,0.000,0.000
1643877066757006848,2022-02-03-08:31:06,10.1.1.3,5,-0.649,-0.499,-0.401,0.000,0.000,0.000
1643877066981616896,2022-02-03-08:31:06,10.1.1.3,28,-0.702,-0.552,-0.348,0.000,0.000,0.000
1643877067159133952,2022-02-03-08:31:07,10.1.1.3,5,-0.749,-0.599,-0.301,0.000,0.000,0.000
1643877067359343104,2022-02-03-08:31:07,10.1.1.3,4,-0.799,-0.649,-0.251,0.000,0.000,0.000
1643877067557709056,2022-02-03-08:31:07,10.1.1.3,1,-0.843,-0.693,-0.207,0.000,0.000,0.000
1643877067777756928,2022-02-03-08:31:07,10.1.1.3,19,-0.900,-0.750,-0.150,0.000,0.000,0.000
1643877067977790208,2022-02-03-08:31:07,10.1.1.3,18,-0.950,-0.800,-0.100,0.000,0.000,0.000
1643877068160398848,2022-02-03-08:31:08,10.1.1.3,0,-0.997,-0.847,-0.053,0.000,0.000,0.000
1643877068376823808,2022-02-03-08:31:08,10.1.1.3,14,-1.050,-0.900,-0.000,0.000,0.000,0.000
1643877068581716992,2022-02-03-08:31:08,10.1.1.3,18,-1.100,-0.950,-0.000,0.000,0.000,0.000
1643877068778664960,2022-02-03-08:31:08,10.1.1.3,14,-1.150,-1.000,-0.000,0.000,0.000,0.000
1643877068977925120,2022-02-03-08:31:08,10.1.1.3,13,-1.200,-1.050,-0.000,0.000,0.000,0.000
1643877069178108928,2022-02-03-08:31:09,10.1.1.3,12,-1.250,-1.100,-0.000,0.000,0.000,0.000
1643877069378803968,2022-02-03-08:31:09,10.1.1.3,10,-1.250,-1.150,-0.000,0.000,0.000,0.000
1643877069576205056,2022-02-03-08:31:09,10.1.1.3,7,-1.250,-1.200,-0.000,0.000,0.000,0.000
1643877069776431104,2022-02-03-08:31:09,10.1.1.3,6,-1.250,-1.250,-0.000,0.000,0.000,0.000
1643877069976318976,2022-02-03-08:31:09,10.1.1.3,5,-1.250,-1.299,-0.000,0.000,0.000,0.000
1643877070176624128,2022-02-03-08:31:10,10.1.1.3,4,-1.250,-1.349,-0.000,0.000,0.000,0.000
1643877070376753152,2022-02-03-08:31:10,10.1.1.3,3,-1.250,-1.399,-0.000,0.000,0.000,0.000
1643877070576109824,2022-02-03-08:31:10,10.1.1.3,1,-1.250,-1.448,-0.000,0.000,0.000,0.000
1643877070777403136,2022-02-03-08:31:10,10.1.1.3,1,-1.250,-1.450,-0.000,0.000,0.000,0.000
1643877070996085760,2022-02-03-08:31:10,10.1.1.3,18,-1.200,-1.400,0.050,0.000,0.000,0.000
1643877071191737856,2022-02-03-08:31:11,10.1.1.3,13,-1.150,-1.350,0.100,0.000,0.000,0.000
1643877071397323008,2022-02-03-08:31:11,10.1.1.3,18,-1.100,-1.300,0.100,0.000,0.000,0.000
1643877071597147904,2022-02-03-08:31:11,10.1.1.3,17,-1.050,-1.250,0.100,0.000,0.000,0.000
1643877071798738944,2022-02-03-08:31:11,10.1.1.3,17,-1.000,-1.200,0.100,0.000,0.000,0.000
1643877071996183040,2022-02-03-08:31:11,10.1.1.3,13,-0.950,-1.150,0.100,0.000,0.000,0.000
1643877072195980032,2022-02-03-08:31:12,10.1.1.3,12,-0.900,-1.100,0.100,0.000,0.000,0.000
1643877072395788032,2022-02-03-08:31:12,10.1.1.3,6,-0.850,-1.050,0.100,0.000,0.000,0.000
1643877072597511936,2022-02-03-08:31:12,10.1.1.3,7,-0.802,-1.002,0.100,0.000,0.000,0.000
1643877072798109952,2022-02-03-08:31:12,10.1.1.3,6,-0.751,-0.951,0.100,0.000,0.000,0.000
1643877073001265152,2022-02-03-08:31:13,10.1.1.3,6,-0.700,-0.900,0.100,0.000,0.000,0.000
1643877073198551808,2022-02-03-08:31:13,10.1.1.3,2,-0.652,-0.852,0.100,0.000,0.000,0.000
1643877073417475840,2022-02-03-08:31:13,10.1.1.3,19,-0.600,-0.800,0.100,0.000,0.000,0.000
1643877073614814976,2022-02-03-08:31:13,10.1.1.3,16,-0.550,-0.750,0.100,0.000,0.000,0.000
1643877073815895040,2022-02-03-08:31:13,10.1.1.3,16,-0.500,-0.700,0.100,0.000,0.000,0.000
1643877074015079936,2022-02-03-08:31:14,10.1.1.3,14,-0.450,-0.650,0.100,0.000,0.000,0.000
1643877074214492160,2022-02-03-08:31:14,10.1.1.3,9,-0.400,-0.600,0.100,0.000,0.000,0.000
1643877074415440128,2022-02-03-08:31:14,10.1.1.3,8,-0.350,-0.550,0.100,0.000,0.000,0.000
1643877074615011072,2022-02-03-08:31:14,10.1.1.3,6,-0.300,-0.550,0.100,0.000,0.000,0.000
1643877074815507968,2022-02-03-08:31:14,10.1.1.3,4,-0.251,-0.550,0.100,0.000,0.000,0.000
1643877075015599104,2022-02-03-08:31:15,10.1.1.3,1,-0.250,-0.550,0.100,0.000,0.000,0.000
1643877075217762048,2022-02-03-08:31:15,10.1.1.3,1,-0.202,-0.502,0.052,0.000,0.000,0.000
1643877075436322048,2022-02-03-08:31:15,10.1.1.3,18,-0.150,-0.450,-0.000,0.000,0.000,0.000
1643877075634349056,2022-02-03-08:31:15,10.1.1.3,15,-0.100,-0.400,-0.050,0.000,0.000,0.000
1643877075836160000,2022-02-03-08:31:15,10.1.1.3,16,-0.050,-0.350,-0.100,0.000,0.000,0.000
1643877076035538944,2022-02-03-08:31:16,10.1.1.3,14,0.000,-0.350,-0.150,0.000,0.000,0.000
1643877076239026944,2022-02-03-08:31:16,10.1.1.3,15,0.050,-0.350,-0.150,0.000,0.000,0.000
1643877076435705856,2022-02-03-08:31:16,10.1.1.3,10,0.100,-0.350,-0.150,0.000,0.000,0.000
1643877076634118144,2022-02-03-08:31:16,10.1.1.3,7,0.150,-0.350,-0.150,0.000,0.000,0.000
1643877076833566976,2022-02-03-08:31:16,10.1.1.3,6,0.199,-0.350,-0.150,0.000,0.000,0.000
1643877077042087936,2022-02-03-08:31:17,10.1.1.3,13,0.250,-0.350,-0.150,0.000,0.000,0.000
1643877077239382016,2022-02-03-08:31:17,10.1.1.3,7,0.300,-0.350,-0.150,0.000,0.000,0.000
1643877077439254016,2022-02-03-08:31:17,10.1.1.3,5,0.349,-0.350,-0.150,0.000,0.000,0.000
1643877077639496192,2022-02-03-08:31:17,10.1.1.3,2,0.399,-0.350,-0.150,0.000,0.000,0.000
1643877077859399936,2022-02-03-08:31:17,10.1.1.3,19,0.450,-0.350,-0.150,0.000,0.000,0.000
1643877078042018816,2022-02-03-08:31:18,10.1.1.3,0,0.495,-0.350,-0.150,0.000,0.000,0.000
1643877078258810112,2022-02-03-08:31:18,10.1.1.3,15,0.550,-0.350,-0.150,0.000,0.000,0.000
1643877078458621952,2022-02-03-08:31:18,10.1.1.3,13,0.600,-0.350,-0.150,0.000,0.000,0.000
1643877078658257920,2022-02-03-08:31:18,10.1.1.3,13,0.650,-0.350,-0.150,0.000,0.000,0.000
1643877078850731008,2022-02-03-08:31:18,10.1.1.3,5,0.698,-0.350,-0.150,0.000,0.000,0.000
1643877079050693120,2022-02-03-08:31:19,10.1.1.3,4,0.749,-0.350,-0.150,0.000,0.000,0.000
1643877079253648128,2022-02-03-08:31:19,10.1.1.3,5,0.799,-0.350,-0.150,0.000,0.000,0.000
1643877079451576064,2022-02-03-08:31:19,10.1.1.3,2,0.849,-0.350,-0.150,0.000,0.000,0.000
1643877079652710912,2022-02-03-08:31:19,10.1.1.3,2,0.898,-0.350,-0.150,0.000,0.000,0.000
1643877079876534016,2022-02-03-08:31:19,10.1.1.3,23,0.950,-0.350,-0.150,0.000,0.000,0.000
1643877080072598016,2022-02-03-08:31:20,10.1.1.3,18,1.000,-0.350,-0.150,0.000,0.000,0.000
1643877080270308864,2022-02-03-08:31:20,10.1.1.3,15,1.050,-0.350,-0.150,0.000,0.000,0.000
1643877080473568000,2022-02-03-08:31:20,10.1.1.3,16,1.100,-0.350,-0.150,0.000,0.000,0.000
1643877080671514880,2022-02-03-08:31:20,10.1.1.3,12,1.150,-0.350,-0.150,0.000,0.000,0.000
1643877080872494080,2022-02-03-08:31:20,10.1.1.3,13,1.200,-0.350,-0.150,0.000,0.000,0.000
1643877081075428864,2022-02-03-08:31:21,10.1.1.3,15,1.250,-0.350,-0.150,0.000,0.000,0.000
1643877081275266048,2022-02-03-08:31:21,10.1.1.3,13,1.250,-0.350,-0.150,0.000,0.000,0.000
1643877081471416064,2022-02-03-08:31:21,10.1.1.3,7,1.200,-0.400,-0.150,0.000,0.000,0.000
1643877081671505920,2022-02-03-08:31:21,10.1.1.3,7,1.150,-0.450,-0.150,0.000,0.000,0.000
1643877081869788928,2022-02-03-08:31:21,10.1.1.3,4,1.101,-0.499,-0.150,0.000,0.000,0.000
1643877082071945984,2022-02-03-08:31:22,10.1.1.3,5,1.051,-0.549,-0.150,0.000,0.000,0.000
1643877082275046144,2022-02-03-08:31:22,10.1.1.3,4,1.001,-0.599,-0.150,0.000,0.000,0.000
1643877082473996032,2022-02-03-08:31:22,10.1.1.3,-1,1.000,-0.648,-0.150,0.000,0.000,0.000
1643877082693293056,2022-02-03-08:31:22,10.1.1.3,18,1.000,-0.700,-0.150,0.000,0.000,0.000
1643877082892473088,2022-02-03-08:31:22,10.1.1.3,16,1.000,-0.700,-0.150,0.000,0.000,0.000
1643877083090882048,2022-02-03-08:31:23,10.1.1.3,13,0.950,-0.750,-0.200,0.000,0.000,0.000
1643877083286664960,2022-02-03-08:31:23,10.1.1.3,6,0.904,-0.796,-0.246,0.000,0.000,0.000
1643877083497911040,2022-02-03-08:31:23,10.1.1.3,17,0.850,-0.850,-0.300,0.000,0.000,0.000
1643877083697803008,2022-02-03-08:31:23,10.1.1.3,12,0.800,-0.900,-0.350,0.000,0.000,0.000
1643877083897982976,2022-02-03-08:31:23,10.1.1.3,10,0.800,-0.950,-0.400,0.000,0.000,0.000
1643877084094372864,2022-02-03-08:31:24,10.1.1.3,5,0.800,-0.950,-0.450,0.000,0.000,0.000
1643877084296067840,2022-02-03-08:31:24,10.1.1.3,5,0.800,-0.950,-0.499,0.000,0.000,0.000
1643877084498342912,2022-02-03-08:31:24,10.1.1.3,1,0.800,-0.950,-0.549,0.000,0.000,0.000
1643877084716847872,2022-02-03-08:31:24,10.1.1.3,18,0.800,-0.950,-0.600,0.000,0.000,0.000
1643877084917794048,2022-02-03-08:31:24,10.1.1.3,17,0.800,-0.950,-0.650,0.000,0.000,0.000
1643877085117160960,2022-02-03-08:31:25,10.1.1.3,14,0.800,-0.950,-0.650,0.000,0.000,0.000
1643877085310870784,2022-02-03-08:31:25,10.1.1.3,4,0.757,-0.907,-0.607,0.000,0.000,0.000
1643877085512695040,2022-02-03-08:31:25,10.1.1.3,6,0.701,-0.851,-0.551,0.000,0.000,0.000
1643877085712711168,2022-02-03-08:31:25,10.1.1.3,5,0.651,-0.801,-0.501,0.000,0.000,0.000
1643877085911269888,2022-02-03-08:31:25,10.1.1.3,1,0.602,-0.752,-0.452,0.000,0.000,0.000
1643877086115058944,2022-02-03-08:31:26,10.1.1.3,2,0.552,-0.702,-0.402,0.000,0.000,0.000
1643877086334077952,2022-02-03-08:31:26,10.1.1.3,17,0.500,-0.700,-0.350,0.000,0.000,0.000
1643877086533848064,2022-02-03-08:31:26,10.1.1.3,16,0.450,-0.700,-0.300,0.000,0.000,0.000
1643877086736813056,2022-02-03-08:31:26,10.1.1.3,18,0.400,-0.700,-0.250,0.000,0.000,0.000
1643877086935921920,2022-02-03-08:31:26,10.1.1.3,17,0.350,-0.700,-0.250,0.000,0.000,0.000
1643877087134094848,2022-02-03-08:31:27,10.1.1.3,13,0.300,-0.700,-0.250,0.000,0.000,0.000
1643877087321798912,2022-02-03-08:31:27,10.1.1.3,1,0.255,-0.700,-0.250,0.000,0.000,0.000
1643877087539956992,2022-02-03-08:31:27,10.1.1.3,18,0.200,-0.700,-0.250,0.000,0.000,0.000
1643877087738915840,2022-02-03-08:31:27,10.1.1.3,16,0.150,-0.700,-0.250,0.000,0.000,0.000
1643877087925239040,2022-02-03-08:31:27,10.1.1.3,1,0.104,-0.700,-0.250,0.000,0.000,0.000
1643877088141230080,2022-02-03-08:31:28,10.1.1.3,16,0.050,-0.700,-0.250,0.000,0.000,0.000
1643877088329960960,2022-02-03-08:31:28,10.1.1.3,4,0.001,-0.700,-0.250,0.000,0.000,0.000
1643877088531276032,2022-02-03-08:31:28,10.1.1.3,5,-0.049,-0.700,-0.250,0.000,0.000,0.000
1643877088732958976,2022-02-03-08:31:28,10.1.1.3,5,-0.099,-0.700,-0.250,0.000,0.000,0.000
1643877088939676160,2022-02-03-08:31:28,10.1.1.3,11,-0.150,-0.700,-0.250,0.000,0.000,0.000
1643877089139024128,2022-02-03-08:31:29,10.1.1.3,6,-0.200,-0.700,-0.250,0.000,0.000,0.000
1643877089339752960,2022-02-03-08:31:29,10.1.1.3,6,-0.249,-0.700,-0.250,0.000,0.000,0.000
1643877089541210880,2022-02-03-08:31:29,10.1.1.3,6,-0.299,-0.700,-0.250,0.000,0.000,0.000
1643877089758276096,2022-02-03-08:31:29,10.1.1.3,21,-0.351,-0.700,-0.250,0.000,0.000,0.000
1643877089954624768,2022-02-03-08:31:29,10.1.1.3,17,-0.400,-0.700,-0.250,0.000,0.000,0.000
1643877090153656064,2022-02-03-08:31:30,10.1.1.3,15,-0.450,-0.700,-0.250,0.000,0.000,0.000
1643877090353730816,2022-02-03-08:31:30,10.1.1.3,14,-0.500,-0.700,-0.250,0.000,0.000,0.000
1643877090553665024,2022-02-03-08:31:30,10.1.1.3,13,-0.550,-0.700,-0.250,0.000,0.000,0.000
1643877090753148928,2022-02-03-08:31:30,10.1.1.3,10,-0.600,-0.700,-0.250,0.000,0.000,0.000
1643877090960136960,2022-02-03-08:31:30,10.1.1.3,16,-0.650,-0.700,-0.250,0.000,0.000,0.000
1643877091152616960,2022-02-03-08:31:31,10.1.1.3,8,-0.700,-0.700,-0.250,0.000,0.000,0.000
1643877091353123840,2022-02-03-08:31:31,10.1.1.3,7,-0.750,-0.700,-0.250,0.000,0.000,0.000
1643877091551716096,2022-02-03-08:31:31,10.1.1.3,5,-0.794,-0.700,-0.250,0.000,0.000,0.000
1643877091752404992,2022-02-03-08:31:31,10.1.1.3,5,-0.849,-0.700,-0.250,0.000,0.000,0.000
1643877091950288896,2022-02-03-08:31:31,10.1.1.3,2,-0.899,-0.700,-0.250,0.000,0.000,0.000
1643877092152519936,2022-02-03-08:31:32,10.1.1.3,3,-0.948,-0.700,-0.250,0.000,0.000,0.000
1643877092351130112,2022-02-03-08:31:32,10.1.1.3,0,-0.950,-0.700,-0.250,0.000,0.000,0.000
1643877092570115072,2022-02-03-08:31:32,10.1.1.3,17,-1.000,-0.750,-0.200,0.000,0.000,0.000
1643877092771372032,2022-02-03-08:31:32,10.1.1.3,18,-1.050,-0.800,-0.150,0.000,0.000,0.000
1643877092957620992,2022-02-03-08:31:32,10.1.1.3,4,-1.097,-0.847,-0.103,0.000,0.000,0.000
1643877093178215936,2022-02-03-08:31:33,10.1.1.3,23,-1.150,-0.900,-0.050,0.000,0.000,0.000
1643877093369436928,2022-02-03-08:31:33,10.1.1.3,14,-1.201,-0.951,-0.000,0.000,0.000,0.000
1643877093569819904,2022-02-03-08:31:33,10.1.1.3,14,-1.250,-1.000,-0.000,0.000,0.000,0.000
1643877093760162048,2022-02-03-08:31:33,10.1.1.3,4,-1.250,-1.047,-0.000,0.000,0.000,0.000
1643877093969204992,2022-02-03-08:31:33,10.1.1.3,12,-1.250,-1.100,-0.000,0.000,0.000,0.000
1643877094176829952,2022-02-03-08:31:34,10.1.1.3,19,-1.250,-1.150,-0.000,0.000,0.000,0.000
1643877094377106944,2022-02-03-08:31:34,10.1.1.3,19,-1.250,-1.200,-0.000,0.000,0.000,0.000
1643877094576539136,2022-02-03-08:31:34,10.1.1.3,17,-1.250,-1.250,-0.000,0.000,0.000,0.000
1643877094776835840,2022-02-03-08:31:34,10.1.1.3,17,-1.250,-1.300,-0.000,0.000,0.000,0.000
1643877094976692992,2022-02-03-08:31:34,10.1.1.3,16,-1.250,-1.350,-0.000,0.000,0.000,0.000
1643877095167143168,2022-02-03-08:31:35,10.1.1.3,5,-1.250,-1.397,-0.000,0.000,0.000,0.000
1643877095377286912,2022-02-03-08:31:35,10.1.1.3,10,-1.250,-1.450,-0.000,0.000,0.000,0.000
1643877095577160960,2022-02-03-08:31:35,10.1.1.3,8,-1.250,-1.450,-0.000,0.000,0.000,0.000
1643877095772068864,2022-02-03-08:31:35,10.1.1.3,2,-1.202,-1.402,-0.048,0.000,0.000,0.000
1643877095992124160,2022-02-03-08:31:35,10.1.1.3,19,-1.150,-1.350,-0.100,0.000,0.000,0.000
1643877096178020096,2022-02-03-08:31:36,10.1.1.3,5,-1.104,-1.304,-0.146,0.000,0.000,0.000
1643877096377543936,2022-02-03-08:31:36,10.1.1.3,4,-1.053,-1.253,-0.150,0.000,0.000,0.000
1643877096579379200,2022-02-03-08:31:36,10.1.1.3,5,-1.001,-1.201,-0.150,0.000,0.000,0.000
1643877096779998976,2022-02-03-08:31:36,10.1.1.3,2,-1.000,-1.151,-0.150,0.000,0.000,0.000
1643877096999404800,2022-02-03-08:31:36,10.1.1.3,19,-1.000,-1.100,-0.150,0.000,0.000,0.000
1643877097193490944,2022-02-03-08:31:37,10.1.1.3,12,-1.000,-1.050,-0.150,0.000,0.000,0.000
1643877097398739200,2022-02-03-08:31:37,10.1.1.3,16,-1.000,-0.999,-0.150,0.000,0.000,0.000
1643877097598878976,2022-02-03-08:31:37,10.1.1.3,16,-1.000,-0.950,-0.150,0.000,0.000,0.000
1643877097802153984,2022-02-03-08:31:37,10.1.1.3,18,-1.000,-0.900,-0.150,0.000,0.000,0.000
1643877098001894912,2022-02-03-08:31:38,10.1.1.3,17,-1.000,-0.850,-0.150,0.000,0.000,0.000
1643877098198971904,2022-02-03-08:31:38,10.1.1.3,10,-1.000,-0.800,-0.150,0.000,0.000,0.000
1643877098391659008,2022-02-03-08:31:38,10.1.1.3,2,-1.000,-0.752,-0.150,0.000,0.000,0.000
1643877098601627136,2022-02-03-08:31:38,10.1.1.3,10,-1.000,-0.700,-0.150,0.000,0.000,0.000
1643877098813970176,2022-02-03-08:31:38,10.1.1.3,20,-1.000,-0.700,-0.150,0.000,0.000,0.000
1643877099000664064,2022-02-03-08:31:39,10.1.1.3,3,-0.951,-0.651,-0.199,0.000,0.000,0.000
1643877099202392064,2022-02-03-08:31:39,10.1.1.3,4,-0.902,-0.602,-0.248,0.000,0.000,0.000
1643877099420061184,2022-02-03-08:31:39,10.1.1.3,21,-0.850,-0.550,-0.300,0.000,0.000,0.000
1643877099621504000,2022-02-03-08:31:39,10.1.1.3,21,-0.800,-0.500,-0.350,0.000,0.000,0.000
1643877099821238016,2022-02-03-08:31:39,10.1.1.3,19,-0.750,-0.450,-0.400,0.000,0.000,0.000
1643877100011148032,2022-02-03-08:31:40,10.1.1.3,5,-0.700,-0.400,-0.450,0.000,0.000,0.000
1643877100215482112,2022-02-03-08:31:40,10.1.1.3,9,-0.651,-0.351,-0.499,0.000,0.000,0.000
1643877100412302848,2022-02-03-08:31:40,10.1.1.3,4,-0.601,-0.301,-0.549,0.000,0.000,0.000
1643877100611857920,2022-02-03-08:31:40,10.1.1.3,3,-0.551,-0.251,-0.599,0.000,0.000,0.000
1643877100812653056,2022-02-03-08:31:40,10.1.1.3,3,-0.502,-0.250,-0.648,0.000,0.000,0.000
1643877101014020864,2022-02-03-08:31:41,10.1.1.3,4,-0.452,-0.250,-0.650,0.000,0.000,0.000
1643877101215439104,2022-02-03-08:31:41,10.1.1.3,3,-0.450,-0.250,-0.650,0.000,0.000,0.000
1643877101432935936,2022-02-03-08:31:41,10.1.1.3,19,-0.500,-0.300,-0.600,0.000,0.000,0.000
1643877101633923072,2022-02-03-08:31:41,10.1.1.3,19,-0.550,-0.350,-0.550,0.000,0.000,0.000
1643877101833102848,2022-02-03-08:31:41,10.1.1.3,17,-0.600,-0.400,-0.500,0.000,0.000,0.000
1643877102032832000,2022-02-03-08:31:42,10.1.1.3,16,-0.650,-0.450,-0.450,0.000,0.000,0.000
1643877102233783040,2022-02-03-08:31:42,10.1.1.3,16,-0.700,-0.500,-0.400,0.000,0.000,0.000
1643877102431224064,2022-02-03-08:31:42,10.1.1.3,12,-0.750,-0.550,-0.350,0.000,0.000,0.000
1643877102633914880,2022-02-03-08:31:42,10.1.1.3,14,-0.800,-0.600,-0.300,0.000,0.000,0.000
1643877102831916032,2022-02-03-08:31:42,10.1.1.3,11,-0.850,-0.650,-0.250,0.000,0.000,0.000
1643877103031649024,2022-02-03-08:31:43,10.1.1.3,10,-0.900,-0.700,-0.250,0.000,0.000,0.000
1643877103233800960,2022-02-03-08:31:43,10.1.1.3,11,-0.950,-0.700,-0.250,0.000,0.000,0.000
1643877103443348992,2022-02-03-08:31:43,10.1.1.3,20,-0.950,-0.700,-0.250,0.000,0.000,0.000
1643877103633862912,2022-02-03-08:31:43,10.1.1.3,9,-0.900,-0.650,-0.200,0.000,0.000,0.000
1643877103833236992,2022-02-03-08:31:43,10.1.1.3,8,-0.850,-0.600,-0.150,0.000,0.000,0.000
1643877104032155136,2022-02-03-08:31:44,10.1.1.3,5,-0.801,-0.551,-0.101,0.000,0.000,0.000
1643877104231805184,2022-02-03-08:31:44,10.1.1.3,4,-0.751,-0.550,-0.100,0.000,0.000,0.000
1643877104434066944,2022-02-03-08:31:44,10.1.1.3,6,-0.701,-0.550,-0.100,0.000,0.000,0.000
1643877104633488896,2022-02-03-08:31:44,10.1.1.3,4,-0.651,-0.550,-0.100,0.000,0.000,0.000
1643877104833230848,2022-02-03-08:31:44,10.1.1.3,2,-0.602,-0.550,-0.100,0.000,0.000,0.000
1643877105033479936,2022-02-03-08:31:45,10.1.1.3,-1,-0.551,-0.550,-0.100,0.000,0.000,0.000
1643877105238411008,2022-02-03-08:31:45,10.1.1.3,4,-0.503,-0.550,-0.100,0.000,0.000,0.000
1643877105443262208,2022-02-03-08:31:45,10.1.1.3,5,-0.453,-0.550,-0.100,0.000,0.000,0.000
1643877105675759104,2022-02-03-08:31:45,10.1.1.3,36,-0.400,-0.550,-0.100,0.000,0.000,0.000
1643877105855122176,2022-02-03-08:31:45,10.1.1.3,14,-0.350,-0.550,-0.100,0.000,0.000,0.000
1643877106060151040,2022-02-03-08:31:46,10.1.1.3,18,-0.300,-0.550,-0.100,0.000,0.000,0.000
1643877106272073984,2022-02-03-08:31:46,10.1.1.3,30,-0.250,-0.550,-0.100,0.000,0.000,0.000
1643877106453883904,2022-02-03-08:31:46,10.1.1.3,10,-0.250,-0.550,-0.100,0.000,0.000,0.000
1643877106677438976,2022-02-03-08:31:46,10.1.1.3,33,-0.300,-0.500,-0.150,0.000,0.000,0.000
1643877106852636160,2022-02-03-08:31:46,10.1.1.3,6,-0.350,-0.450,-0.200,0.000,0.000,0.000
1643877107053179904,2022-02-03-08:31:47,10.1.1.3,5,-0.399,-0.401,-0.249,0.000,0.000,0.000
1643877107259494144,2022-02-03-08:31:47,10.1.1.3,12,-0.450,-0.350,-0.300,0.000,0.000,0.000
1643877107459799040,2022-02-03-08:31:47,10.1.1.3,11,-0.500,-0.300,-0.350,0.000,0.000,0.000
1643877107659192064,2022-02-03-08:31:47,10.1.1.3,8,-0.550,-0.250,-0.400,0.000,0.000,0.000
1643877107859529984,2022-02-03-08:31:47,10.1.1.3,7,-0.600,-0.200,-0.450,0.000,0.000,0.000
1643877108059858176,2022-02-03-08:31:48,10.1.1.3,7,-0.650,-0.150,-0.500,0.000,0.000,0.000
1643877108255321088,2022-02-03-08:31:48,10.1.1.3,2,-0.697,-0.150,-0.500,0.000,0.000,0.000
1643877108459104000,2022-02-03-08:31:48,10.1.1.3,4,-0.749,-0.150,-0.500,0.000,0.000,0.000
1643877108676443136,2022-02-03-08:31:48,10.1.1.3,19,-0.800,-0.150,-0.500,0.000,0.000,0.000
1643877108875576064,2022-02-03-08:31:48,10.1.1.3,17,-0.800,-0.150,-0.500,0.000,0.000,0.000
1643877109073837056,2022-02-03-08:31:49,10.1.1.3,14,-0.850,-0.200,-0.450,0.000,0.000,0.000
1643877109295686912,2022-02-03-08:31:49,10.1.1.3,35,-0.900,-0.250,-0.400,0.000,0.000,0.000
1643877109479179008,2022-02-03-08:31:49,10.1.1.3,18,-0.950,-0.300,-0.350,0.000,0.000,0.000
1643877109675779072,2022-02-03-08:31:49,10.1.1.3,13,-1.000,-0.350,-0.300,0.000,0.000,0.000
1643877109873801984,2022-02-03-08:31:49,10.1.1.3,10,-1.050,-0.400,-0.250,0.000,0.000,0.000
1643877110080108032,2022-02-03-08:31:50,10.1.1.3,16,-1.100,-0.400,-0.250,0.000,0.000,0.000
1643877110274786048,2022-02-03-08:31:50,10.1.1.3,10,-1.150,-0.400,-0.250,0.000,0.000,0.000
1643877110474992896,2022-02-03-08:31:50,10.1.1.3,8,-1.200,-0.400,-0.250,0.000,0.000,0.000
1643877110675560960,2022-02-03-08:31:50,10.1.1.3,8,-1.250,-0.400,-0.250,0.000,0.000,0.000
1643877110874341888,2022-02-03-08:31:50,10.1.1.3,6,-1.300,-0.400,-0.250,0.000,0.000,0.000
1643877111074147072,2022-02-03-08:31:51,10.1.1.3,5,-1.350,-0.400,-0.250,0.000,0.000,0.000
1643877111276101120,2022-02-03-08:31:51,10.1.1.3,6,-1.399,-0.400,-0.250,0.000,0.000,0.000
1643877111477281024,2022-02-03-08:31:51,10.1.1.3,7,-1.449,-0.400,-0.250,0.000,0.000,0.000
1643877111676995072,2022-02-03-08:31:51,10.1.1.3,6,-1.499,-0.400,-0.250,0.000,0.000,0.000
1643877111878608896,2022-02-03-08:31:51,10.1.1.3,6,-1.550,-0.400,-0.250,0.000,0.000,0.000
1643877112077263104,2022-02-03-08:31:52,10.1.1.3,1,-1.599,-0.400,-0.250,0.000,0.000,0.000
1643877112293143040,2022-02-03-08:31:52,10.1.1.3,16,-1.650,-0.400,-0.250,0.000,0.000,0.000
1643877112482137088,2022-02-03-08:31:52,10.1.1.3,4,-1.698,-0.400,-0.250,0.000,0.000,0.000
1643877112699436800,2022-02-03-08:31:52,10.1.1.3,20,-1.750,-0.400,-0.250,0.000,0.000,0.000
1643877112899013120,2022-02-03-08:31:52,10.1.1.3,18,-1.749,-0.401,-0.250,0.000,0.000,0.000
1643877113111151872,2022-02-03-08:31:53,10.1.1.3,29,-1.700,-0.450,-0.250,0.000,0.000,0.000
1643877113291079168,2022-02-03-08:31:53,10.1.1.3,8,-1.650,-0.500,-0.250,0.000,0.000,0.000
1643877113505934848,2022-02-03-08:31:53,10.1.1.3,19,-1.600,-0.550,-0.250,0.000,0.000,0.000
1643877113690144000,2022-02-03-08:31:53,10.1.1.3,2,-1.562,-0.588,-0.250,0.000,0.000,0.000
1643877113891448064,2022-02-03-08:31:53,10.1.1.3,1,-1.501,-0.649,-0.250,0.000,0.000,0.000
1643877114093913088,2022-02-03-08:31:54,10.1.1.3,1,-1.452,-0.698,-0.250,0.000,0.000,0.000
1643877114315339008,2022-02-03-08:31:54,10.1.1.3,22,-1.400,-0.700,-0.250,0.000,0.000,0.000
1643877114510485760,2022-02-03-08:31:54,10.1.1.3,16,-1.350,-0.700,-0.250,0.000,0.000,0.000
1643877114713047040,2022-02-03-08:31:54,10.1.1.3,18,-1.300,-0.700,-0.250,0.000,0.000,0.000
1643877114911781120,2022-02-03-08:31:54,10.1.1.3,15,-1.250,-0.700,-0.250,0.000,0.000,0.000
1643877115111465984,2022-02-03-08:31:55,10.1.1.3,14,-1.200,-0.700,-0.250,0.000,0.000,0.000
1643877115311335936,2022-02-03-08:31:55,10.1.1.3,13,-1.150,-0.700,-0.250,0.000,0.000,0.000
1643877115511131136,2022-02-03-08:31:55,10.1.1.3,12,-1.100,-0.700,-0.250,0.000,0.000,0.000
1643877115710400000,2022-02-03-08:31:55,10.1.1.3,10,-1.050,-0.700,-0.250,0.000,0.000,0.000
1643877115913009920,2022-02-03-08:31:55,10.1.1.3,12,-1.000,-0.700,-0.250,0.000,0.000,0.000
1643877116110589952,2022-02-03-08:31:56,10.1.1.3,8,-1.000,-0.700,-0.250,0.000,0.000,0.000
