FedericoMungari/DigitalTwin_service/01_WiredScenario/Output/Output_script/script_rosapi_2_output_robots10_freq0_6.txt
timestamp,date,node,latency,joint_1,joint_2,joint_3,joint_4,joint_5,joint_6
1644362088777264128,2022-02-08-23:14:48,10.1.1.7,4,-0.100,-0.100,-0.100,0.000,-0.000,-0.000
1644362089717082880,2022-02-08-23:14:49,10.1.1.7,29,-0.010,-0.010,-0.010,0.000,0.000,0.000
1644362089816603904,2022-02-08-23:14:49,10.1.1.7,29,0.000,0.000,0.000,0.000,0.000,0.000
1644362089916868864,2022-02-08-23:14:49,10.1.1.7,28,0.010,0.010,0.010,0.000,0.000,0.000
1644362090015984896,2022-02-08-23:14:50,10.1.1.7,27,0.020,0.020,0.020,0.000,0.000,0.000
1644362090116118016,2022-02-08-23:14:50,10.1.1.7,27,0.030,0.030,0.030,0.000,0.000,0.000
1644362090216336896,2022-02-08-23:14:50,10.1.1.7,26,0.040,0.040,0.040,0.000,0.000,0.000
1644362090316143104,2022-02-08-23:14:50,10.1.1.7,26,0.050,0.050,0.050,0.000,0.000,0.000
1644362090416099072,2022-02-08-23:14:50,10.1.1.7,25,0.060,0.060,0.060,0.000,0.000,0.000
1644362090516897024,2022-02-08-23:14:50,10.1.1.7,24,0.070,0.070,0.070,0.000,0.000,0.000
1644362091100049920,2022-02-08-23:14:51,10.1.1.7,1,0.070,0.070,0.070,0.000,0.000,0.000
1644362091436817920,2022-02-08-23:14:51,10.1.1.7,39,0.040,0.040,0.040,0.000,0.000,0.000
1644362091536025088,2022-02-08-23:14:51,10.1.1.7,39,0.030,0.030,0.030,0.000,0.000,0.000
1644362091636188928,2022-02-08-23:14:51,10.1.1.7,38,0.020,0.020,0.020,0.000,0.000,0.000
1644362091736513024,2022-02-08-23:14:51,10.1.1.7,38,0.010,0.010,0.010,0.000,0.000,0.000
1644362091835942144,2022-02-08-23:14:51,10.1.1.7,37,0.000,0.000,0.000,0.000,0.000,0.000
1644362091936078080,2022-02-08-23:14:51,10.1.1.7,36,-0.010,-0.010,-0.010,0.000,0.000,0.000
1644362092036616960,2022-02-08-23:14:52,10.1.1.7,35,-0.020,-0.020,-0.020,0.000,0.000,0.000
1644362092136149760,2022-02-08-23:14:52,10.1.1.7,35,-0.030,-0.030,-0.030,0.000,0.000,0.000
1644362092536463104,2022-02-08-23:14:52,10.1.1.7,33,-0.070,-0.070,-0.070,0.000,0.000,0.000
1644362093037107968,2022-02-08-23:14:53,10.1.1.7,29,-0.080,-0.080,-0.080,0.000,0.000,0.000
1644362093136156160,2022-02-08-23:14:53,10.1.1.7,27,-0.070,-0.070,-0.070,0.000,0.000,0.000
1644362093236784896,2022-02-08-23:14:53,10.1.1.7,27,-0.060,-0.060,-0.060,0.000,0.000,0.000
1644362093337150976,2022-02-08-23:14:53,10.1.1.7,27,-0.050,-0.050,-0.050,0.000,0.000,0.000
1644362093436003072,2022-02-08-23:14:53,10.1.1.7,26,-0.040,-0.040,-0.040,0.000,0.000,0.000
1644362093536902912,2022-02-08-23:14:53,10.1.1.7,26,-0.030,-0.030,-0.030,0.000,0.000,0.000
1644362093636625920,2022-02-08-23:14:53,10.1.1.7,25,-0.020,-0.020,-0.020,0.000,0.000,0.000
1644362094256691968,2022-02-08-23:14:54,10.1.1.7,39,0.040,0.040,0.040,0.000,0.000,0.000
1644362094356973824,2022-02-08-23:14:54,10.1.1.7,39,0.050,0.050,0.050,0.000,0.000,0.000
1644362094456206080,2022-02-08-23:14:54,10.1.1.7,37,0.060,0.060,0.060,0.000,0.000,0.000
1644362094556713216,2022-02-08-23:14:54,10.1.1.7,37,0.070,0.070,0.070,0.000,0.000,0.000
1644362094656201984,2022-02-08-23:14:54,10.1.1.7,36,0.080,0.080,0.080,0.000,0.000,0.000
1644362094756005120,2022-02-08-23:14:54,10.1.1.7,36,0.090,0.090,0.090,0.000,0.000,0.000
1644362094856493824,2022-02-08-23:14:54,10.1.1.7,35,0.100,0.100,0.100,0.000,0.000,0.000
1644362094956420864,2022-02-08-23:14:54,10.1.1.7,35,0.090,0.090,0.090,0.000,0.000,0.000
1644362095057009920,2022-02-08-23:14:55,10.1.1.7,35,0.080,0.080,0.080,0.000,0.000,0.000
1644362095856519936,2022-02-08-23:14:55,10.1.1.7,29,0.000,0.000,0.000,0.000,0.000,0.000
1644362095956408064,2022-02-08-23:14:55,10.1.1.7,29,-0.010,-0.010,-0.010,0.000,0.000,0.000
1644362096056261120,2022-02-08-23:14:56,10.1.1.7,28,-0.020,-0.020,-0.020,0.000,0.000,0.000
1644362096156791040,2022-02-08-23:14:56,10.1.1.7,27,-0.030,-0.030,-0.030,0.000,0.000,0.000
1644362096256037120,2022-02-08-23:14:56,10.1.1.7,26,-0.040,-0.040,-0.040,0.000,0.000,0.000
1644362096356209920,2022-02-08-23:14:56,10.1.1.7,26,-0.050,-0.050,-0.050,0.000,0.000,0.000
1644362096456669952,2022-02-08-23:14:56,10.1.1.7,25,-0.060,-0.060,-0.060,0.000,0.000,0.000
1644362096976166912,2022-02-08-23:14:56,10.1.1.7,39,-0.090,-0.090,-0.090,0.000,0.000,0.000
1644362097076390912,2022-02-08-23:14:57,10.1.1.7,38,-0.080,-0.080,-0.080,0.000,0.000,0.000
1644362097176177920,2022-02-08-23:14:57,10.1.1.7,37,-0.070,-0.070,-0.070,0.000,0.000,0.000
1644362097276273920,2022-02-08-23:14:57,10.1.1.7,37,-0.060,-0.060,-0.060,0.000,0.000,0.000
1644362097376210944,2022-02-08-23:14:57,10.1.1.7,36,-0.050,-0.050,-0.050,0.000,0.000,0.000
1644362097476304128,2022-02-08-23:14:57,10.1.1.7,35,-0.040,-0.040,-0.040,0.000,0.000,0.000
1644362097576335872,2022-02-08-23:14:57,10.1.1.7,35,-0.030,-0.030,-0.030,0.000,0.000,0.000
1644362098596651008,2022-02-08-23:14:58,10.1.1.7,27,0.070,0.070,0.070,0.000,0.000,0.000
1644362098696082176,2022-02-08-23:14:58,10.1.1.7,26,0.080,0.080,0.080,0.000,0.000,0.000
1644362098795974912,2022-02-08-23:14:58,10.1.1.7,26,0.090,0.090,0.090,0.000,0.000,0.000
1644362098895757056,2022-02-08-23:14:58,10.1.1.7,25,0.100,0.100,0.100,0.000,0.000,0.000
1644362099316390144,2022-02-08-23:14:59,10.1.1.7,39,0.060,0.060,0.060,0.000,0.000,0.000
1644362099415812096,2022-02-08-23:14:59,10.1.1.7,38,0.050,0.050,0.050,0.000,0.000,0.000
1644362099515710208,2022-02-08-23:14:59,10.1.1.7,37,0.040,0.040,0.040,0.000,0.000,0.000
1644362099616020992,2022-02-08-23:14:59,10.1.1.7,37,0.030,0.030,0.030,0.000,0.000,0.000
1644362099715977984,2022-02-08-23:14:59,10.1.1.7,36,0.020,0.020,0.020,0.000,0.000,0.000
1644362099816348160,2022-02-08-23:14:59,10.1.1.7,36,0.010,0.010,0.010,0.000,0.000,0.000
1644362099916136960,2022-02-08-23:14:59,10.1.1.7,35,0.000,0.000,0.000,0.000,0.000,0.000
1644362100017057024,2022-02-08-23:15:00,10.1.1.7,35,-0.010,-0.010,-0.010,0.000,0.000,0.000
1644362100616154880,2022-02-08-23:15:00,10.1.1.7,29,-0.070,-0.070,-0.070,0.000,0.000,0.000
1644362100715878912,2022-02-08-23:15:00,10.1.1.7,28,-0.080,-0.080,-0.080,0.000,0.000,0.000
1644362100815819008,2022-02-08-23:15:00,10.1.1.7,28,-0.090,-0.090,-0.090,0.000,0.000,0.000
1644362100922736896,2022-02-08-23:15:00,10.1.1.7,32,-0.100,-0.100,-0.100,0.000,0.000,0.000
1644362101220752128,2022-02-08-23:15:01,10.1.1.7,26,-0.070,-0.070,-0.070,0.000,0.000,0.000
1644362101317758976,2022-02-08-23:15:01,10.1.1.7,22,-0.060,-0.060,-0.060,0.000,0.000,0.000
1644362101842514944,2022-02-08-23:15:01,10.1.1.7,36,-0.010,-0.010,-0.010,0.000,0.000,0.000
1644362102197756928,2022-02-08-23:15:02,10.1.1.7,39,0.020,0.020,0.020,0.000,0.000,0.000
1644362102277255168,2022-02-08-23:15:02,10.1.1.7,17,0.030,0.030,0.030,0.000,0.000,0.000
1644362102397504000,2022-02-08-23:15:02,10.1.1.7,37,0.040,0.040,0.040,0.000,0.000,0.000
1644362102497790208,2022-02-08-23:15:02,10.1.1.7,36,0.050,0.050,0.050,0.000,0.000,0.000
1644362102704902912,2022-02-08-23:15:02,10.1.1.7,28,0.070,0.070,0.070,0.000,0.000,0.000
1644362102796582912,2022-02-08-23:15:02,10.1.1.7,27,0.080,0.080,0.080,0.000,0.000,0.000
1644362102896528128,2022-02-08-23:15:02,10.1.1.7,26,0.090,0.090,0.090,0.000,0.000,0.000
1644362102996932096,2022-02-08-23:15:02,10.1.1.7,25,0.100,0.100,0.100,0.000,0.000,0.000
1644362103096844032,2022-02-08-23:15:03,10.1.1.7,25,0.090,0.090,0.090,0.000,0.000,0.000
1644362103636518912,2022-02-08-23:15:03,10.1.1.7,37,0.040,0.040,0.040,0.000,0.000,0.000
1644362103736318208,2022-02-08-23:15:03,10.1.1.7,37,0.030,0.030,0.030,0.000,0.000,0.000
1644362103837387008,2022-02-08-23:15:03,10.1.1.7,37,0.020,0.020,0.020,0.000,0.000,0.000
1644362103936378880,2022-02-08-23:15:03,10.1.1.7,36,0.010,0.010,0.010,0.000,0.000,0.000
1644362104036227840,2022-02-08-23:15:04,10.1.1.7,35,0.000,0.000,0.000,0.000,0.000,0.000
1644362104736777984,2022-02-08-23:15:04,10.1.1.7,28,-0.070,-0.070,-0.070,0.000,0.000,0.000
1644362104836848128,2022-02-08-23:15:04,10.1.1.7,28,-0.080,-0.080,-0.080,0.000,0.000,0.000
1644362104936984064,2022-02-08-23:15:04,10.1.1.7,25,-0.090,-0.090,-0.090,0.000,0.000,0.000
1644362105036862976,2022-02-08-23:15:05,10.1.1.7,25,-0.100,-0.100,-0.100,0.000,0.000,0.000
1644362105136962048,2022-02-08-23:15:05,10.1.1.7,24,-0.090,-0.090,-0.090,0.000,0.000,0.000
1644362105656326144,2022-02-08-23:15:05,10.1.1.7,38,-0.040,-0.040,-0.040,0.000,0.000,0.000
1644362105756216064,2022-02-08-23:15:05,10.1.1.7,37,-0.030,-0.030,-0.030,0.000,0.000,0.000
1644362105856834816,2022-02-08-23:15:05,10.1.1.7,37,-0.020,-0.020,-0.020,0.000,0.000,0.000
1644362105956432128,2022-02-08-23:15:05,10.1.1.7,36,-0.010,-0.010,-0.010,0.000,0.000,0.000
1644362106456721152,2022-02-08-23:15:06,10.1.1.7,29,0.040,0.040,0.040,0.000,0.000,0.000
1644362106556889088,2022-02-08-23:15:06,10.1.1.7,27,0.050,0.050,0.050,0.000,0.000,0.000
1644362106656677888,2022-02-08-23:15:06,10.1.1.7,27,0.060,0.060,0.060,0.000,0.000,0.000
1644362106756467200,2022-02-08-23:15:06,10.1.1.7,26,0.070,0.070,0.070,0.000,0.000,0.000
1644362106856344832,2022-02-08-23:15:06,10.1.1.7,25,0.080,0.080,0.080,0.000,0.000,0.000
1644362106956669184,2022-02-08-23:15:06,10.1.1.7,25,0.090,0.090,0.090,0.000,0.000,0.000
1644362107140939008,2022-02-08-23:15:07,10.1.1.7,2,0.090,0.090,0.090,0.000,0.000,0.000
1644362107257047040,2022-02-08-23:15:07,10.1.1.7,19,0.080,0.080,0.080,0.000,0.000,0.000
1644362107377135104,2022-02-08-23:15:07,10.1.1.7,37,0.070,0.070,0.070,0.000,0.000,0.000
1644362107476582144,2022-02-08-23:15:07,10.1.1.7,34,0.060,0.060,0.060,0.000,0.000,0.000
1644362107676841984,2022-02-08-23:15:07,10.1.1.7,29,0.040,0.040,0.040,0.000,0.000,0.000
1644362108096798976,2022-02-08-23:15:08,10.1.1.7,38,0.000,0.000,0.000,0.000,0.000,0.000
1644362108196162816,2022-02-08-23:15:08,10.1.1.7,38,-0.010,-0.010,-0.010,0.000,0.000,0.000
1644362108296957952,2022-02-08-23:15:08,10.1.1.7,37,-0.020,-0.020,-0.020,0.000,0.000,0.000
1644362108396578048,2022-02-08-23:15:08,10.1.1.7,36,-0.030,-0.030,-0.030,0.000,0.000,0.000
1644362108596811008,2022-02-08-23:15:08,10.1.1.7,27,-0.050,-0.050,-0.050,0.000,0.000,0.000
1644362108696094976,2022-02-08-23:15:08,10.1.1.7,26,-0.060,-0.060,-0.060,0.000,0.000,0.000
1644362108796510976,2022-02-08-23:15:08,10.1.1.7,25,-0.070,-0.070,-0.070,0.000,0.000,0.000
1644362108896035840,2022-02-08-23:15:08,10.1.1.7,25,-0.080,-0.080,-0.080,0.000,0.000,0.000
1644362109296961024,2022-02-08-23:15:09,10.1.1.7,20,-0.080,-0.080,-0.080,0.000,0.000,0.000
1644362109416424960,2022-02-08-23:15:09,10.1.1.7,39,-0.070,-0.070,-0.070,0.000,0.000,0.000
1644362109517085184,2022-02-08-23:15:09,10.1.1.7,38,-0.060,-0.060,-0.060,0.000,0.000,0.000
1644362109616673024,2022-02-08-23:15:09,10.1.1.7,36,-0.050,-0.050,-0.050,0.000,0.000,0.000
1644362109717153024,2022-02-08-23:15:09,10.1.1.7,35,-0.040,-0.040,-0.040,0.000,0.000,0.000
1644362109816679936,2022-02-08-23:15:09,10.1.1.7,35,-0.030,-0.030,-0.030,0.000,0.000,0.000
1644362110236655104,2022-02-08-23:15:10,10.1.1.7,39,0.010,0.010,0.010,0.000,0.000,0.000
1644362110336658944,2022-02-08-23:15:10,10.1.1.7,38,0.020,0.020,0.020,0.000,0.000,0.000
1644362110440019968,2022-02-08-23:15:10,10.1.1.7,37,0.030,0.030,0.030,0.000,0.000,0.000
1644362110538000128,2022-02-08-23:15:10,10.1.1.7,35,0.040,0.040,0.040,0.000,0.000,0.000
1644362110636153088,2022-02-08-23:15:10,10.1.1.7,35,0.050,0.050,0.050,0.000,0.000,0.000
1644362110735995136,2022-02-08-23:15:10,10.1.1.7,34,0.060,0.060,0.060,0.000,0.000,0.000
1644362111236593920,2022-02-08-23:15:11,10.1.1.7,28,0.090,0.090,0.090,0.000,0.000,0.000
1644362111337018112,2022-02-08-23:15:11,10.1.1.7,28,0.080,0.080,0.080,0.000,0.000,0.000
1644362111436697088,2022-02-08-23:15:11,10.1.1.7,27,0.070,0.070,0.070,0.000,0.000,0.000
1644362111536290816,2022-02-08-23:15:11,10.1.1.7,27,0.060,0.060,0.060,0.000,0.000,0.000
1644362111636410880,2022-02-08-23:15:11,10.1.1.7,25,0.050,0.050,0.050,0.000,0.000,0.000
1644362111956935936,2022-02-08-23:15:11,10.1.1.7,30,0.020,0.020,0.020,0.000,0.000,0.000
1644362112056248064,2022-02-08-23:15:12,10.1.1.7,29,0.010,0.010,0.010,0.000,0.000,0.000
1644362112157201920,2022-02-08-23:15:12,10.1.1.7,28,0.000,0.000,0.000,0.000,0.000,0.000
1644362112256566016,2022-02-08-23:15:12,10.1.1.7,27,-0.010,-0.010,-0.010,0.000,0.000,0.000
1644362112356570880,2022-02-08-23:15:12,10.1.1.7,27,-0.020,-0.020,-0.020,0.000,0.000,0.000
1644362112799879168,2022-02-08-23:15:12,10.1.1.7,28,-0.060,-0.060,-0.060,0.000,0.000,0.000
1644362112896553984,2022-02-08-23:15:12,10.1.1.7,27,-0.070,-0.070,-0.070,0.000,0.000,0.000
1644362112996811008,2022-02-08-23:15:12,10.1.1.7,27,-0.080,-0.080,-0.080,0.000,0.000,0.000
1644362113096414208,2022-02-08-23:15:13,10.1.1.7,26,-0.090,-0.090,-0.090,0.000,0.000,0.000
1644362113196866048,2022-02-08-23:15:13,10.1.1.7,24,-0.100,-0.100,-0.100,0.000,0.000,0.000
1644362113616064000,2022-02-08-23:15:13,10.1.1.7,39,-0.060,-0.060,-0.060,0.000,0.000,0.000
1644362113716078080,2022-02-08-23:15:13,10.1.1.7,38,-0.050,-0.050,-0.050,0.000,0.000,0.000
1644362113816354048,2022-02-08-23:15:13,10.1.1.7,38,-0.040,-0.040,-0.040,0.000,0.000,0.000
1644362113916060928,2022-02-08-23:15:13,10.1.1.7,37,-0.030,-0.030,-0.030,0.000,0.000,0.000
1644362114015878912,2022-02-08-23:15:14,10.1.1.7,36,-0.020,-0.020,-0.020,0.000,0.000,0.000
1644362114116741888,2022-02-08-23:15:14,10.1.1.7,35,-0.010,-0.010,-0.010,0.000,0.000,0.000
1644362114216182016,2022-02-08-23:15:14,10.1.1.7,35,0.000,0.000,0.000,0.000,0.000,0.000
1644362114316560128,2022-02-08-23:15:14,10.1.1.7,34,0.010,0.010,0.010,0.000,0.000,0.000
1644362114816530944,2022-02-08-23:15:14,10.1.1.7,28,0.060,0.060,0.060,0.000,0.000,0.000
1644362114916281088,2022-02-08-23:15:14,10.1.1.7,28,0.070,0.070,0.070,0.000,0.000,0.000
1644362115016859136,2022-02-08-23:15:15,10.1.1.7,26,0.080,0.080,0.080,0.000,0.000,0.000
1644362115116249088,2022-02-08-23:15:15,10.1.1.7,25,0.090,0.090,0.090,0.000,0.000,0.000
1644362115296737024,2022-02-08-23:15:15,10.1.1.7,3,0.090,0.090,0.090,0.000,0.000,0.000
1644362115636652032,2022-02-08-23:15:15,10.1.1.7,39,0.060,0.060,0.060,0.000,0.000,0.000
1644362115736450816,2022-02-08-23:15:15,10.1.1.7,38,0.050,0.050,0.050,0.000,0.000,0.000
1644362115836677120,2022-02-08-23:15:15,10.1.1.7,37,0.040,0.040,0.040,0.000,0.000,0.000
1644362115936428032,2022-02-08-23:15:15,10.1.1.7,29,0.030,0.030,0.030,0.000,0.000,0.000
1644362116037168128,2022-02-08-23:15:16,10.1.1.7,28,0.020,0.020,0.020,0.000,0.000,0.000
1644362116136594176,2022-02-08-23:15:16,10.1.1.7,26,0.010,0.010,0.010,0.000,0.000,0.000
1644362116236136960,2022-02-08-23:15:16,10.1.1.7,25,-0.000,-0.000,-0.000,0.000,0.000,0.000
1644362116856087808,2022-02-08-23:15:16,10.1.1.7,27,-0.060,-0.060,-0.060,0.000,0.000,0.000
1644362116956058112,2022-02-08-23:15:16,10.1.1.7,26,-0.070,-0.070,-0.070,0.000,0.000,0.000
1644362117056641024,2022-02-08-23:15:17,10.1.1.7,25,-0.080,-0.080,-0.080,0.000,0.000,0.000
1644362117276709120,2022-02-08-23:15:17,10.1.1.7,39,-0.100,-0.100,-0.100,0.000,0.000,0.000
1644362117376702976,2022-02-08-23:15:17,10.1.1.7,36,-0.090,-0.090,-0.090,0.000,0.000,0.000
1644362117476486912,2022-02-08-23:15:17,10.1.1.7,36,-0.080,-0.080,-0.080,0.000,0.000,0.000
1644362117576876032,2022-02-08-23:15:17,10.1.1.7,35,-0.070,-0.070,-0.070,0.000,0.000,0.000
1644362118081111808,2022-02-08-23:15:18,10.1.1.7,29,-0.020,-0.020,-0.020,0.000,0.000,0.000
1644362118176676096,2022-02-08-23:15:18,10.1.1.7,28,-0.010,-0.010,-0.010,0.000,0.000,0.000
1644362118276478976,2022-02-08-23:15:18,10.1.1.7,27,0.000,0.000,0.000,0.000,0.000,0.000
1644362118377096960,2022-02-08-23:15:18,10.1.1.7,27,0.010,0.010,0.010,0.000,0.000,0.000
1644362118476079104,2022-02-08-23:15:18,10.1.1.7,25,0.020,0.020,0.020,0.000,0.000,0.000
1644362118576322048,2022-02-08-23:15:18,10.1.1.7,24,0.030,0.030,0.030,0.000,0.000,0.000
1644362119196114944,2022-02-08-23:15:19,10.1.1.7,38,0.090,0.090,0.090,0.000,0.000,0.000
1644362119296237824,2022-02-08-23:15:19,10.1.1.7,38,0.100,0.100,0.100,0.000,0.000,0.000
1644362119395987968,2022-02-08-23:15:19,10.1.1.7,37,0.090,0.090,0.090,0.000,0.000,0.000
1644362119496550144,2022-02-08-23:15:19,10.1.1.7,36,0.080,0.080,0.080,0.000,0.000,0.000
1644362119596668928,2022-02-08-23:15:19,10.1.1.7,34,0.070,0.070,0.070,0.000,0.000,0.000
1644362120197042944,2022-02-08-23:15:20,10.1.1.7,29,0.010,0.010,0.010,0.000,0.000,0.000
1644362120296860928,2022-02-08-23:15:20,10.1.1.7,27,0.000,0.000,0.000,0.000,0.000,0.000
1644362120396413184,2022-02-08-23:15:20,10.1.1.7,26,-0.010,-0.010,-0.010,0.000,0.000,0.000
1644362120915708928,2022-02-08-23:15:20,10.1.1.7,38,-0.060,-0.060,-0.060,0.000,0.000,0.000
1644362121016664064,2022-02-08-23:15:21,10.1.1.7,37,-0.070,-0.070,-0.070,0.000,0.000,0.000
1644362121115811072,2022-02-08-23:15:21,10.1.1.7,36,-0.080,-0.080,-0.080,0.000,0.000,0.000
1644362121216419072,2022-02-08-23:15:21,10.1.1.7,35,-0.090,-0.090,-0.090,0.000,0.000,0.000
1644362121396297984,2022-02-08-23:15:21,10.1.1.7,13,-0.090,-0.090,-0.090,0.000,0.000,0.000
1644362121625255936,2022-02-08-23:15:21,10.1.1.7,28,-0.070,-0.070,-0.070,0.000,0.000,0.000
1644362121716166144,2022-02-08-23:15:21,10.1.1.7,26,-0.060,-0.060,-0.060,0.000,0.000,0.000
1644362122055900160,2022-02-08-23:15:22,10.1.1.7,27,-0.030,-0.030,-0.030,0.000,0.000,0.000
1644362122156657920,2022-02-08-23:15:22,10.1.1.7,27,-0.020,-0.020,-0.020,0.000,0.000,0.000
1644362122256704000,2022-02-08-23:15:22,10.1.1.7,25,-0.010,-0.010,-0.010,0.000,0.000,0.000
1644362123175753984,2022-02-08-23:15:23,10.1.1.7,39,0.080,0.080,0.080,0.000,0.000,0.000
1644362123276765184,2022-02-08-23:15:23,10.1.1.7,39,0.090,0.090,0.090,0.000,0.000,0.000
1644362123376071936,2022-02-08-23:15:23,10.1.1.7,38,0.100,0.100,0.100,0.000,0.000,0.000
1644362123476780800,2022-02-08-23:15:23,10.1.1.7,38,0.090,0.090,0.090,0.000,0.000,0.000
1644362123577043968,2022-02-08-23:15:23,10.1.1.7,37,0.080,0.080,0.080,0.000,0.000,0.000
1644362123676990976,2022-02-08-23:15:23,10.1.1.7,37,0.070,0.070,0.070,0.000,0.000,0.000
1644362123776611072,2022-02-08-23:15:23,10.1.1.7,36,0.060,0.060,0.060,0.000,0.000,0.000
1644362123876414976,2022-02-08-23:15:23,10.1.1.7,36,0.050,0.050,0.050,0.000,0.000,0.000
1644362123976624128,2022-02-08-23:15:23,10.1.1.7,35,0.040,0.040,0.040,0.000,0.000,0.000
1644362124876141056,2022-02-08-23:15:24,10.1.1.7,29,-0.050,-0.050,-0.050,0.000,0.000,0.000
1644362124976422144,2022-02-08-23:15:24,10.1.1.7,28,-0.060,-0.060,-0.060,0.000,0.000,0.000
1644362125076000000,2022-02-08-23:15:25,10.1.1.7,27,-0.070,-0.070,-0.070,0.000,0.000,0.000
1644362125176496128,2022-02-08-23:15:25,10.1.1.7,27,-0.080,-0.080,-0.080,0.000,0.000,0.000
1644362125276146944,2022-02-08-23:15:25,10.1.1.7,27,-0.090,-0.090,-0.090,0.000,0.000,0.000
1644362125376941056,2022-02-08-23:15:25,10.1.1.7,26,-0.100,-0.100,-0.100,0.000,0.000,0.000
1644362125476256000,2022-02-08-23:15:25,10.1.1.7,26,-0.090,-0.090,-0.090,0.000,0.000,0.000
1644362125576105216,2022-02-08-23:15:25,10.1.1.7,25,-0.080,-0.080,-0.080,0.000,0.000,0.000
1644362125676701184,2022-02-08-23:15:25,10.1.1.7,25,-0.070,-0.070,-0.070,0.000,0.000,0.000
1644362125776108032,2022-02-08-23:15:25,10.1.1.7,25,-0.060,-0.060,-0.060,0.000,0.000,0.000
1644362125876189952,2022-02-08-23:15:25,10.1.1.7,24,-0.050,-0.050,-0.050,0.000,0.000,0.000
1644362126496809984,2022-02-08-23:15:26,10.1.1.7,39,0.010,0.010,0.010,0.000,0.000,0.000
1644362126597018112,2022-02-08-23:15:26,10.1.1.7,38,0.020,0.020,0.020,0.000,0.000,0.000
1644362126696548864,2022-02-08-23:15:26,10.1.1.7,38,0.030,0.030,0.030,0.000,0.000,0.000
1644362126796860928,2022-02-08-23:15:26,10.1.1.7,37,0.040,0.040,0.040,0.000,0.000,0.000
1644362126896677888,2022-02-08-23:15:26,10.1.1.7,37,0.050,0.050,0.050,0.000,0.000,0.000
1644362126996088064,2022-02-08-23:15:26,10.1.1.7,36,0.060,0.060,0.060,0.000,0.000,0.000
1644362127096844032,2022-02-08-23:15:27,10.1.1.7,35,0.070,0.070,0.070,0.000,0.000,0.000
1644362127676165120,2022-02-08-23:15:27,10.1.1.7,12,0.070,0.070,0.070,0.000,0.000,0.000
1644362128196444928,2022-02-08-23:15:28,10.1.1.7,29,0.020,0.020,0.020,0.000,0.000,0.000
1644362128296711936,2022-02-08-23:15:28,10.1.1.7,28,0.010,0.010,0.010,0.000,0.000,0.000
1644362128395955200,2022-02-08-23:15:28,10.1.1.7,27,0.000,0.000,0.000,0.000,0.000,0.000
1644362128496676096,2022-02-08-23:15:28,10.1.1.7,27,-0.010,-0.010,-0.010,0.000,0.000,0.000
1644362128596852992,2022-02-08-23:15:28,10.1.1.7,27,-0.020,-0.020,-0.020,0.000,0.000,0.000
1644362128696254976,2022-02-08-23:15:28,10.1.1.7,26,-0.030,-0.030,-0.030,0.000,0.000,0.000
1644362128797185024,2022-02-08-23:15:28,10.1.1.7,25,-0.040,-0.040,-0.040,0.000,0.000,0.000
1644362128897166080,2022-02-08-23:15:28,10.1.1.7,25,-0.050,-0.050,-0.050,0.000,0.000,0.000
1644362129896444928,2022-02-08-23:15:29,10.1.1.7,20,-0.050,-0.050,-0.050,0.000,0.000,0.000
1644362130016004096,2022-02-08-23:15:30,10.1.1.7,39,-0.040,-0.040,-0.040,0.000,0.000,0.000
1644362130116389120,2022-02-08-23:15:30,10.1.1.7,38,-0.030,-0.030,-0.030,0.000,0.000,0.000
1644362130216609024,2022-02-08-23:15:30,10.1.1.7,38,-0.020,-0.020,-0.020,0.000,0.000,0.000
1644362130316702976,2022-02-08-23:15:30,10.1.1.7,37,-0.010,-0.010,-0.010,0.000,0.000,0.000
1644362130416733952,2022-02-08-23:15:30,10.1.1.7,35,0.000,0.000,0.000,0.000,0.000,0.000
1644362130616743936,2022-02-08-23:15:30,10.1.1.7,33,0.020,0.020,0.020,0.000,0.000,0.000
1644362131116128000,2022-02-08-23:15:31,10.1.1.7,29,0.070,0.070,0.070,0.000,0.000,0.000
1644362131216530176,2022-02-08-23:15:31,10.1.1.7,28,0.080,0.080,0.080,0.000,0.000,0.000
1644362131316370944,2022-02-08-23:15:31,10.1.1.7,27,0.090,0.090,0.090,0.000,0.000,0.000
1644362131516782080,2022-02-08-23:15:31,10.1.1.7,10,0.090,0.090,0.090,0.000,0.000,0.000
1644362131838107136,2022-02-08-23:15:31,10.1.1.7,25,0.060,0.060,0.060,0.000,0.000,0.000
1644362132737131008,2022-02-08-23:15:32,10.1.1.7,20,-0.030,-0.030,-0.030,0.000,0.000,0.000
1644362132856503040,2022-02-08-23:15:32,10.1.1.7,39,-0.040,-0.040,-0.040,0.000,0.000,0.000
1644362132956947968,2022-02-08-23:15:32,10.1.1.7,38,-0.050,-0.050,-0.050,0.000,0.000,0.000
1644362133056244992,2022-02-08-23:15:33,10.1.1.7,37,-0.060,-0.060,-0.060,0.000,0.000,0.000
1644362133156996096,2022-02-08-23:15:33,10.1.1.7,37,-0.070,-0.070,-0.070,0.000,0.000,0.000
1644362133256473088,2022-02-08-23:15:33,10.1.1.7,37,-0.080,-0.080,-0.080,0.000,0.000,0.000
1644362133356955904,2022-02-08-23:15:33,10.1.1.7,37,-0.090,-0.090,-0.090,0.000,0.000,0.000
1644362133456492032,2022-02-08-23:15:33,10.1.1.7,35,-0.100,-0.100,-0.100,0.000,0.000,0.000
1644362133556524032,2022-02-08-23:15:33,10.1.1.7,35,-0.090,-0.090,-0.090,0.000,0.000,0.000
1644362133656354048,2022-02-08-23:15:33,10.1.1.7,35,-0.080,-0.080,-0.080,0.000,0.000,0.000
1644362134156477952,2022-02-08-23:15:34,10.1.1.7,29,-0.030,-0.030,-0.030,0.000,0.000,0.000
1644362134257078016,2022-02-08-23:15:34,10.1.1.7,28,-0.020,-0.020,-0.020,0.000,0.000,0.000
1644362134356450048,2022-02-08-23:15:34,10.1.1.7,28,-0.010,-0.010,-0.010,0.000,0.000,0.000
1644362134456716032,2022-02-08-23:15:34,10.1.1.7,27,0.000,0.000,0.000,0.000,0.000,0.000
1644362134557184000,2022-02-08-23:15:34,10.1.1.7,27,0.010,0.010,0.010,0.000,0.000,0.000
1644362134657132032,2022-02-08-23:15:34,10.1.1.7,26,0.020,0.020,0.020,0.000,0.000,0.000
1644362134756998144,2022-02-08-23:15:34,10.1.1.7,25,0.030,0.030,0.030,0.000,0.000,0.000
1644362134856740864,2022-02-08-23:15:34,10.1.1.7,25,0.040,0.040,0.040,0.000,0.000,0.000
1644362134956675072,2022-02-08-23:15:34,10.1.1.7,24,0.050,0.050,0.050,0.000,0.000,0.000
1644362135776583936,2022-02-08-23:15:35,10.1.1.7,39,0.070,0.070,0.070,0.000,0.000,0.000
1644362135876741888,2022-02-08-23:15:35,10.1.1.7,39,0.060,0.060,0.060,0.000,0.000,0.000
1644362135976468992,2022-02-08-23:15:35,10.1.1.7,38,0.050,0.050,0.050,0.000,0.000,0.000
1644362136076073984,2022-02-08-23:15:36,10.1.1.7,37,0.040,0.040,0.040,0.000,0.000,0.000
1644362136177083136,2022-02-08-23:15:36,10.1.1.7,35,0.030,0.030,0.030,0.000,0.000,0.000
1644362136778307072,2022-02-08-23:15:36,10.1.1.7,27,-0.030,-0.030,-0.030,0.000,0.000,0.000
1644362136876710912,2022-02-08-23:15:36,10.1.1.7,27,-0.040,-0.040,-0.040,0.000,0.000,0.000
1644362136976676864,2022-02-08-23:15:36,10.1.1.7,26,-0.050,-0.050,-0.050,0.000,0.000,0.000
1644362137076402944,2022-02-08-23:15:37,10.1.1.7,26,-0.060,-0.060,-0.060,0.000,0.000,0.000
1644362137496901888,2022-02-08-23:15:37,10.1.1.7,37,-0.100,-0.100,-0.100,0.000,0.000,0.000
1644362137596702208,2022-02-08-23:15:37,10.1.1.7,36,-0.090,-0.090,-0.090,0.000,0.000,0.000
1644362137697193984,2022-02-08-23:15:37,10.1.1.7,35,-0.080,-0.080,-0.080,0.000,0.000,0.000
1644362138598056960,2022-02-08-23:15:38,10.1.1.7,29,0.010,0.010,0.010,0.000,0.000,0.000
1644362138698764032,2022-02-08-23:15:38,10.1.1.7,29,0.020,0.020,0.020,0.000,0.000,0.000
1644362138800036864,2022-02-08-23:15:38,10.1.1.7,28,0.030,0.030,0.030,0.000,0.000,0.000
1644362138896483072,2022-02-08-23:15:38,10.1.1.7,27,0.040,0.040,0.040,0.000,0.000,0.000
1644362139217089024,2022-02-08-23:15:39,10.1.1.7,36,0.070,0.070,0.070,0.000,0.000,0.000
1644362139316371968,2022-02-08-23:15:39,10.1.1.7,36,0.080,0.080,0.080,0.000,0.000,0.000
1644362139416474112,2022-02-08-23:15:39,10.1.1.7,35,0.090,0.090,0.090,0.000,0.000,0.000
1644362139516033792,2022-02-08-23:15:39,10.1.1.7,35,0.100,0.100,0.100,0.000,0.000,0.000
1644362140648692992,2022-02-08-23:15:40,10.1.1.7,28,-0.010,-0.010,-0.010,0.000,0.000,0.000
1644362140716818176,2022-02-08-23:15:40,10.1.1.7,27,-0.020,-0.020,-0.020,0.000,0.000,0.000
1644362140816349952,2022-02-08-23:15:40,10.1.1.7,26,-0.030,-0.030,-0.030,0.000,0.000,0.000
1644362140916246016,2022-02-08-23:15:40,10.1.1.7,26,-0.040,-0.040,-0.040,0.000,0.000,0.000
1644362141016288000,2022-02-08-23:15:41,10.1.1.7,25,-0.050,-0.050,-0.050,0.000,0.000,0.000
1644362141116306176,2022-02-08-23:15:41,10.1.1.7,25,-0.060,-0.060,-0.060,0.000,0.000,0.000
1644362141836131072,2022-02-08-23:15:41,10.1.1.7,39,-0.070,-0.070,-0.070,0.000,0.000,0.000
1644362141936177920,2022-02-08-23:15:41,10.1.1.7,39,-0.060,-0.060,-0.060,0.000,0.000,0.000
1644362142037080064,2022-02-08-23:15:42,10.1.1.7,38,-0.050,-0.050,-0.050,0.000,0.000,0.000
1644362142137406208,2022-02-08-23:15:42,10.1.1.7,37,-0.040,-0.040,-0.040,0.000,0.000,0.000
1644362142236920064,2022-02-08-23:15:42,10.1.1.7,37,-0.030,-0.030,-0.030,0.000,0.000,0.000
1644362142336050944,2022-02-08-23:15:42,10.1.1.7,37,-0.020,-0.020,-0.020,0.000,0.000,0.000
1644362142436381952,2022-02-08-23:15:42,10.1.1.7,36,-0.010,-0.010,-0.010,0.000,0.000,0.000
1644362142536282112,2022-02-08-23:15:42,10.1.1.7,36,0.000,0.000,0.000,0.000,0.000,0.000
1644362142636115968,2022-02-08-23:15:42,10.1.1.7,35,0.010,0.010,0.010,0.000,0.000,0.000
1644362142735958016,2022-02-08-23:15:42,10.1.1.7,35,0.020,0.020,0.020,0.000,0.000,0.000
1644362143660072960,2022-02-08-23:15:43,10.1.1.7,29,0.090,0.090,0.090,0.000,0.000,0.000
1644362143736207104,2022-02-08-23:15:43,10.1.1.7,27,0.080,0.080,0.080,0.000,0.000,0.000
1644362143836247808,2022-02-08-23:15:43,10.1.1.7,27,0.070,0.070,0.070,0.000,0.000,0.000
1644362143936734976,2022-02-08-23:15:43,10.1.1.7,26,0.060,0.060,0.060,0.000,0.000,0.000
1644362144036679936,2022-02-08-23:15:44,10.1.1.7,25,0.050,0.050,0.050,0.000,0.000,0.000
1644362144136526080,2022-02-08-23:15:44,10.1.1.7,25,0.040,0.040,0.040,0.000,0.000,0.000
1644362144656579072,2022-02-08-23:15:44,10.1.1.7,39,-0.010,-0.010,-0.010,0.000,0.000,0.000
1644362144756614912,2022-02-08-23:15:44,10.1.1.7,37,-0.020,-0.020,-0.020,0.000,0.000,0.000
1644362144857688832,2022-02-08-23:15:44,10.1.1.7,37,-0.030,-0.030,-0.030,0.000,0.000,0.000
1644362144955980032,2022-02-08-23:15:44,10.1.1.7,35,-0.040,-0.040,-0.040,0.000,0.000,0.000
1644362145956759808,2022-02-08-23:15:45,10.1.1.7,29,-0.060,-0.060,-0.060,0.000,0.000,0.000
1644362146056737024,2022-02-08-23:15:46,10.1.1.7,29,-0.050,-0.050,-0.050,0.000,0.000,0.000
1644362146156347904,2022-02-08-23:15:46,10.1.1.7,28,-0.040,-0.040,-0.040,0.000,0.000,0.000
1644362146256679936,2022-02-08-23:15:46,10.1.1.7,28,-0.030,-0.030,-0.030,0.000,0.000,0.000
1644362146357475072,2022-02-08-23:15:46,10.1.1.7,25,-0.020,-0.020,-0.020,0.000,0.000,0.000
1644362146469186048,2022-02-08-23:15:46,10.1.1.7,24,-0.010,-0.010,-0.010,0.000,0.000,0.000
1644362147176381184,2022-02-08-23:15:47,10.1.1.7,37,0.060,0.060,0.060,0.000,0.000,0.000
1644362147993432064,2022-02-08-23:15:47,10.1.1.7,21,0.060,0.060,0.060,0.000,0.000,0.000
1644362148295190016,2022-02-08-23:15:48,10.1.1.7,17,0.030,0.030,0.030,0.000,0.000,0.000
1644362148496052992,2022-02-08-23:15:48,10.1.1.7,27,0.010,0.010,0.010,0.000,0.000,0.000
1644362148607732992,2022-02-08-23:15:48,10.1.1.7,26,0.000,0.000,0.000,0.000,0.000,0.000
1644362148699352064,2022-02-08-23:15:48,10.1.1.7,25,-0.010,-0.010,-0.010,0.000,0.000,0.000
1644362148799257088,2022-02-08-23:15:48,10.1.1.7,25,-0.020,-0.020,-0.020,0.000,0.000,0.000
1644362148896573952,2022-02-08-23:15:48,10.1.1.7,24,-0.030,-0.030,-0.030,0.000,0.000,0.000
1644362149316907776,2022-02-08-23:15:49,10.1.1.7,37,-0.070,-0.070,-0.070,0.000,0.000,0.000
1644362149900385024,2022-02-08-23:15:49,10.1.1.7,0,-0.070,-0.070,-0.070,0.000,0.000,0.000
1644362150036569088,2022-02-08-23:15:50,10.1.1.7,36,-0.060,-0.060,-0.060,0.000,0.000,0.000
1644362150136382976,2022-02-08-23:15:50,10.1.1.7,35,-0.050,-0.050,-0.050,0.000,0.000,0.000
1644362150236686080,2022-02-08-23:15:50,10.1.1.7,35,-0.040,-0.040,-0.040,0.000,0.000,0.000
1644362150336510976,2022-02-08-23:15:50,10.1.1.7,34,-0.030,-0.030,-0.030,0.000,0.000,0.000
1644362150636229888,2022-02-08-23:15:50,10.1.1.7,29,0.000,0.000,0.000,0.000,0.000,0.000
1644362150737255168,2022-02-08-23:15:50,10.1.1.7,27,0.010,0.010,0.010,0.000,0.000,0.000
1644362150836429056,2022-02-08-23:15:50,10.1.1.7,26,0.020,0.020,0.020,0.000,0.000,0.000
1644362150936465152,2022-02-08-23:15:50,10.1.1.7,25,0.030,0.030,0.030,0.000,0.000,0.000
1644362151656194816,2022-02-08-23:15:51,10.1.1.7,38,0.100,0.100,0.100,0.000,0.000,0.000
1644362151755717888,2022-02-08-23:15:51,10.1.1.7,37,0.090,0.090,0.090,0.000,0.000,0.000
1644362151856478976,2022-02-08-23:15:51,10.1.1.7,36,0.080,0.080,0.080,0.000,0.000,0.000
1644362151956391168,2022-02-08-23:15:51,10.1.1.7,36,0.070,0.070,0.070,0.000,0.000,0.000
1644362152056585984,2022-02-08-23:15:52,10.1.1.7,35,0.060,0.060,0.060,0.000,0.000,0.000
1644362152165029120,2022-02-08-23:15:52,10.1.1.7,35,0.050,0.050,0.050,0.000,0.000,0.000
1644362152555803136,2022-02-08-23:15:52,10.1.1.7,30,0.010,0.010,0.010,0.000,0.000,0.000
1644362152655694080,2022-02-08-23:15:52,10.1.1.7,29,0.000,0.000,0.000,0.000,0.000,0.000
1644362152755994112,2022-02-08-23:15:52,10.1.1.7,28,-0.010,-0.010,-0.010,0.000,0.000,0.000
1644362152856122112,2022-02-08-23:15:52,10.1.1.7,28,-0.020,-0.020,-0.020,0.000,0.000,0.000
1644362152957703168,2022-02-08-23:15:52,10.1.1.7,29,-0.030,-0.030,-0.030,0.000,0.000,0.000
1644362153275897088,2022-02-08-23:15:53,10.1.1.7,39,-0.060,-0.060,-0.060,0.000,0.000,0.000
1644362153376167936,2022-02-08-23:15:53,10.1.1.7,36,-0.070,-0.070,-0.070,0.000,0.000,0.000
1644362153476113920,2022-02-08-23:15:53,10.1.1.7,35,-0.080,-0.080,-0.080,0.000,0.000,0.000
1644362153576215040,2022-02-08-23:15:53,10.1.1.7,35,-0.090,-0.090,-0.090,0.000,0.000,0.000
1644362153756967168,2022-02-08-23:15:53,10.1.1.7,2,-0.090,-0.090,-0.090,0.000,0.000,0.000
1644362154196982016,2022-02-08-23:15:54,10.1.1.7,38,-0.050,-0.050,-0.050,0.000,0.000,0.000
1644362154297554944,2022-02-08-23:15:54,10.1.1.7,38,-0.040,-0.040,-0.040,0.000,0.000,0.000
1644362154400449024,2022-02-08-23:15:54,10.1.1.7,37,-0.030,-0.030,-0.030,0.000,0.000,0.000
1644362154498577152,2022-02-08-23:15:54,10.1.1.7,36,-0.020,-0.020,-0.020,0.000,0.000,0.000
1644362154596977920,2022-02-08-23:15:54,10.1.1.7,35,-0.010,-0.010,-0.010,0.000,0.000,0.000
1644362154697264896,2022-02-08-23:15:54,10.1.1.7,35,0.000,0.000,0.000,0.000,0.000,0.000
1644362155696569088,2022-02-08-23:15:55,10.1.1.7,29,0.100,0.100,0.100,0.000,0.000,0.000
1644362155796686848,2022-02-08-23:15:55,10.1.1.7,28,0.090,0.090,0.090,0.000,0.000,0.000
1644362155896404992,2022-02-08-23:15:55,10.1.1.7,28,0.080,0.080,0.080,0.000,0.000,0.000
1644362155996331008,2022-02-08-23:15:55,10.1.1.7,27,0.070,0.070,0.070,0.000,0.000,0.000
1644362156096893952,2022-02-08-23:15:56,10.1.1.7,28,0.060,0.060,0.060,0.000,0.000,0.000
1644362156196856064,2022-02-08-23:15:56,10.1.1.7,27,0.050,0.050,0.050,0.000,0.000,0.000
1644362156296591872,2022-02-08-23:15:56,10.1.1.7,26,0.040,0.040,0.040,0.000,0.000,0.000
1644362156396208896,2022-02-08-23:15:56,10.1.1.7,26,0.030,0.030,0.030,0.000,0.000,0.000
1644362156496889088,2022-02-08-23:15:56,10.1.1.7,25,0.020,0.020,0.020,0.000,0.000,0.000
1644362156597106944,2022-02-08-23:15:56,10.1.1.7,25,0.010,0.010,0.010,0.000,0.000,0.000
1644362156696610048,2022-02-08-23:15:56,10.1.1.7,25,0.000,0.000,0.000,0.000,0.000,0.000
1644362157316643840,2022-02-08-23:15:57,10.1.1.7,38,-0.060,-0.060,-0.060,0.000,0.000,0.000
1644362157416520960,2022-02-08-23:15:57,10.1.1.7,38,-0.070,-0.070,-0.070,0.000,0.000,0.000
1644362157516855040,2022-02-08-23:15:57,10.1.1.7,37,-0.080,-0.080,-0.080,0.000,0.000,0.000
1644362157617324032,2022-02-08-23:15:57,10.1.1.7,35,-0.090,-0.090,-0.090,0.000,0.000,0.000
1644362157796532992,2022-02-08-23:15:57,10.1.1.7,13,-0.090,-0.090,-0.090,0.000,0.000,0.000
1644362158216037120,2022-02-08-23:15:58,10.1.1.7,29,-0.050,-0.050,-0.050,0.000,0.000,0.000
1644362158316406016,2022-02-08-23:15:58,10.1.1.7,28,-0.040,-0.040,-0.040,0.000,0.000,0.000
1644362158416524800,2022-02-08-23:15:58,10.1.1.7,28,-0.030,-0.030,-0.030,0.000,0.000,0.000
1644362158516443136,2022-02-08-23:15:58,10.1.1.7,27,-0.020,-0.020,-0.020,0.000,0.000,0.000
1644362158616772864,2022-02-08-23:15:58,10.1.1.7,27,-0.010,-0.010,-0.010,0.000,0.000,0.000
1644362158716284160,2022-02-08-23:15:58,10.1.1.7,27,0.000,0.000,0.000,0.000,0.000,0.000
1644362158816157184,2022-02-08-23:15:58,10.1.1.7,26,0.010,0.010,0.010,0.000,0.000,0.000
1644362158916788224,2022-02-08-23:15:58,10.1.1.7,25,0.020,0.020,0.020,0.000,0.000,0.000
1644362159016124928,2022-02-08-23:15:59,10.1.1.7,25,0.030,0.030,0.030,0.000,0.000,0.000
1644362160236123136,2022-02-08-23:16:00,10.1.1.7,39,0.050,0.050,0.050,0.000,0.000,0.000
1644362160335852032,2022-02-08-23:16:00,10.1.1.7,38,0.040,0.040,0.040,0.000,0.000,0.000
1644362160436520960,2022-02-08-23:16:00,10.1.1.7,37,0.030,0.030,0.030,0.000,0.000,0.000
1644362160536460032,2022-02-08-23:16:00,10.1.1.7,36,0.020,0.020,0.020,0.000,0.000,0.000
1644362160636809216,2022-02-08-23:16:00,10.1.1.7,36,0.010,0.010,0.010,0.000,0.000,0.000
1644362160736077056,2022-02-08-23:16:00,10.1.1.7,36,0.000,0.000,0.000,0.000,0.000,0.000
1644362160836209920,2022-02-08-23:16:00,10.1.1.7,35,-0.010,-0.010,-0.010,0.000,0.000,0.000
1644362160936964864,2022-02-08-23:16:00,10.1.1.7,34,-0.020,-0.020,-0.020,0.000,0.000,0.000
1644362161536333056,2022-02-08-23:16:01,10.1.1.7,29,-0.080,-0.080,-0.080,0.000,0.000,0.000
1644362161636302848,2022-02-08-23:16:01,10.1.1.7,29,-0.090,-0.090,-0.090,0.000,0.000,0.000
1644362161736012032,2022-02-08-23:16:01,10.1.1.7,28,-0.100,-0.100,-0.100,0.000,0.000,0.000
1644362161835926016,2022-02-08-23:16:01,10.1.1.7,27,-0.090,-0.090,-0.090,0.000,0.000,0.000
1644362161936338944,2022-02-08-23:16:01,10.1.1.7,27,-0.080,-0.080,-0.080,0.000,0.000,0.000
1644362162036211968,2022-02-08-23:16:02,10.1.1.7,27,-0.070,-0.070,-0.070,0.000,0.000,0.000
1644362162136751872,2022-02-08-23:16:02,10.1.1.7,27,-0.060,-0.060,-0.060,0.000,0.000,0.000
1644362162237276928,2022-02-08-23:16:02,10.1.1.7,25,-0.050,-0.050,-0.050,0.000,0.000,0.000
1644362163056459776,2022-02-08-23:16:03,10.1.1.7,39,0.030,0.030,0.030,0.000,0.000,0.000
1644362163156299008,2022-02-08-23:16:03,10.1.1.7,38,0.040,0.040,0.040,0.000,0.000,0.000
1644362163256201984,2022-02-08-23:16:03,10.1.1.7,37,0.050,0.050,0.050,0.000,0.000,0.000
1644362163357018112,2022-02-08-23:16:03,10.1.1.7,36,0.060,0.060,0.060,0.000,0.000,0.000
1644362163456742144,2022-02-08-23:16:03,10.1.1.7,36,0.070,0.070,0.070,0.000,0.000,0.000
1644362163555949824,2022-02-08-23:16:03,10.1.1.7,35,0.080,0.080,0.080,0.000,0.000,0.000
1644362163656178944,2022-02-08-23:16:03,10.1.1.7,35,0.090,0.090,0.090,0.000,0.000,0.000
1644362163836690944,2022-02-08-23:16:03,10.1.1.7,14,0.090,0.090,0.090,0.000,0.000,0.000
1644362164456773120,2022-02-08-23:16:04,10.1.1.7,29,0.030,0.030,0.030,0.000,0.000,0.000
1644362164556729088,2022-02-08-23:16:04,10.1.1.7,28,0.020,0.020,0.020,0.000,0.000,0.000
1644362164656580864,2022-02-08-23:16:04,10.1.1.7,27,0.010,0.010,0.010,0.000,0.000,0.000
1644362164756294912,2022-02-08-23:16:04,10.1.1.7,27,0.000,0.000,0.000,0.000,0.000,0.000
1644362164856050944,2022-02-08-23:16:04,10.1.1.7,26,-0.010,-0.010,-0.010,0.000,0.000,0.000
1644362164957297152,2022-02-08-23:16:04,10.1.1.7,26,-0.020,-0.020,-0.020,0.000,0.000,0.000
1644362165056732928,2022-02-08-23:16:05,10.1.1.7,25,-0.030,-0.030,-0.030,0.000,0.000,0.000
1644362165156898048,2022-02-08-23:16:05,10.1.1.7,25,-0.040,-0.040,-0.040,0.000,0.000,0.000
1644362165776429056,2022-02-08-23:16:05,10.1.1.7,39,-0.100,-0.100,-0.100,0.000,0.000,0.000
1644362165876830976,2022-02-08-23:16:05,10.1.1.7,39,-0.090,-0.090,-0.090,0.000,0.000,0.000
1644362165976928000,2022-02-08-23:16:05,10.1.1.7,38,-0.080,-0.080,-0.080,0.000,0.000,0.000
1644362166076018176,2022-02-08-23:16:06,10.1.1.7,38,-0.070,-0.070,-0.070,0.000,0.000,0.000
1644362166176408064,2022-02-08-23:16:06,10.1.1.7,37,-0.060,-0.060,-0.060,0.000,0.000,0.000
1644362166277102080,2022-02-08-23:16:06,10.1.1.7,36,-0.050,-0.050,-0.050,0.000,0.000,0.000
1644362166377765888,2022-02-08-23:16:06,10.1.1.7,35,-0.040,-0.040,-0.040,0.000,0.000,0.000
1644362166476051968,2022-02-08-23:16:06,10.1.1.7,35,-0.030,-0.030,-0.030,0.000,0.000,0.000
1644362166876229120,2022-02-08-23:16:06,10.1.1.7,29,0.010,0.010,0.010,0.000,0.000,0.000
1644362166976020992,2022-02-08-23:16:06,10.1.1.7,28,0.020,0.020,0.020,0.000,0.000,0.000
1644362167076721920,2022-02-08-23:16:07,10.1.1.7,27,0.030,0.030,0.030,0.000,0.000,0.000
1644362167176513792,2022-02-08-23:16:07,10.1.1.7,27,0.040,0.040,0.040,0.000,0.000,0.000
1644362167276683008,2022-02-08-23:16:07,10.1.1.7,26,0.050,0.050,0.050,0.000,0.000,0.000
1644362167376666112,2022-02-08-23:16:07,10.1.1.7,25,0.060,0.060,0.060,0.000,0.000,0.000
1644362167696769024,2022-02-08-23:16:07,10.1.1.7,39,0.090,0.090,0.090,0.000,0.000,0.000
1644362167796345088,2022-02-08-23:16:07,10.1.1.7,38,0.100,0.100,0.100,0.000,0.000,0.000
1644362167896823040,2022-02-08-23:16:07,10.1.1.7,38,0.090,0.090,0.090,0.000,0.000,0.000
1644362168043692032,2022-02-08-23:16:08,10.1.1.7,37,0.080,0.080,0.080,0.000,0.000,0.000
1644362168097275904,2022-02-08-23:16:08,10.1.1.7,37,0.070,0.070,0.070,0.000,0.000,0.000
1644362168196487936,2022-02-08-23:16:08,10.1.1.7,36,0.060,0.060,0.060,0.000,0.000,0.000
1644362168296658944,2022-02-08-23:16:08,10.1.1.7,36,0.050,0.050,0.050,0.000,0.000,0.000
1644362168396604928,2022-02-08-23:16:08,10.1.1.7,36,0.040,0.040,0.040,0.000,0.000,0.000
1644362168496707072,2022-02-08-23:16:08,10.1.1.7,35,0.030,0.030,0.030,0.000,0.000,0.000
1644362168597016064,2022-02-08-23:16:08,10.1.1.7,35,0.020,0.020,0.020,0.000,0.000,0.000
1644362169496395008,2022-02-08-23:16:09,10.1.1.7,28,-0.070,-0.070,-0.070,0.000,0.000,0.000
1644362169596993024,2022-02-08-23:16:09,10.1.1.7,27,-0.080,-0.080,-0.080,0.000,0.000,0.000
1644362169698065152,2022-02-08-23:16:09,10.1.1.7,27,-0.090,-0.090,-0.090,0.000,0.000,0.000
1644362169799824896,2022-02-08-23:16:09,10.1.1.7,26,-0.100,-0.100,-0.100,0.000,0.000,0.000
1644362169896851968,2022-02-08-23:16:09,10.1.1.7,25,-0.090,-0.090,-0.090,0.000,0.000,0.000
1644362169996422144,2022-02-08-23:16:09,10.1.1.7,25,-0.080,-0.080,-0.080,0.000,0.000,0.000
1644362170097121024,2022-02-08-23:16:10,10.1.1.7,24,-0.070,-0.070,-0.070,0.000,0.000,0.000
1644362170716371968,2022-02-08-23:16:10,10.1.1.7,38,-0.010,-0.010,-0.010,0.000,0.000,0.000
1644362170816626944,2022-02-08-23:16:10,10.1.1.7,37,0.000,0.000,0.000,0.000,0.000,0.000
1644362170916677120,2022-02-08-23:16:10,10.1.1.7,37,0.010,0.010,0.010,0.000,0.000,0.000
1644362171016334080,2022-02-08-23:16:11,10.1.1.7,36,0.020,0.020,0.020,0.000,0.000,0.000
1644362171116126976,2022-02-08-23:16:11,10.1.1.7,35,0.030,0.030,0.030,0.000,0.000,0.000
1644362171216456960,2022-02-08-23:16:11,10.1.1.7,34,0.040,0.040,0.040,0.000,0.000,0.000
1644362171816461056,2022-02-08-23:16:11,10.1.1.7,29,0.100,0.100,0.100,0.000,0.000,0.000
1644362171916659968,2022-02-08-23:16:11,10.1.1.7,28,0.090,0.090,0.090,0.000,0.000,0.000
1644362172017580032,2022-02-08-23:16:12,10.1.1.7,27,0.080,0.080,0.080,0.000,0.000,0.000
1644362172217699072,2022-02-08-23:16:12,10.1.1.7,26,0.060,0.060,0.060,0.000,0.000,0.000
1644362172316644864,2022-02-08-23:16:12,10.1.1.7,25,0.050,0.050,0.050,0.000,0.000,0.000
1644362172416601856,2022-02-08-23:16:12,10.1.1.7,25,0.040,0.040,0.040,0.000,0.000,0.000
1644362173339681024,2022-02-08-23:16:13,10.1.1.7,38,-0.050,-0.050,-0.050,0.000,0.000,0.000
1644362173436749056,2022-02-08-23:16:13,10.1.1.7,37,-0.060,-0.060,-0.060,0.000,0.000,0.000
1644362173536873216,2022-02-08-23:16:13,10.1.1.7,36,-0.070,-0.070,-0.070,0.000,0.000,0.000
1644362173641164032,2022-02-08-23:16:13,10.1.1.7,36,-0.080,-0.080,-0.080,0.000,0.000,0.000
1644362173736197120,2022-02-08-23:16:13,10.1.1.7,35,-0.090,-0.090,-0.090,0.000,0.000,0.000
1644362173836409088,2022-02-08-23:16:13,10.1.1.7,35,-0.100,-0.100,-0.100,0.000,0.000,0.000
1644362174536081152,2022-02-08-23:16:14,10.1.1.7,29,-0.030,-0.030,-0.030,0.000,0.000,0.000
1644362174636136960,2022-02-08-23:16:14,10.1.1.7,28,-0.020,-0.020,-0.020,0.000,0.000,0.000
1644362174735937024,2022-02-08-23:16:14,10.1.1.7,28,-0.010,-0.010,-0.010,0.000,0.000,0.000
1644362174835958016,2022-02-08-23:16:14,10.1.1.7,27,0.000,0.000,0.000,0.000,0.000,0.000
1644362174937433088,2022-02-08-23:16:14,10.1.1.7,26,0.010,0.010,0.010,0.000,0.000,0.000
1644362175036713984,2022-02-08-23:16:15,10.1.1.7,26,0.020,0.020,0.020,0.000,0.000,0.000
1644362175137211136,2022-02-08-23:16:15,10.1.1.7,25,0.030,0.030,0.030,0.000,0.000,0.000
1644362175236628992,2022-02-08-23:16:15,10.1.1.7,24,0.040,0.040,0.040,0.000,0.000,0.000
1644362175956762112,2022-02-08-23:16:15,10.1.1.7,39,0.090,0.090,0.090,0.000,0.000,0.000
1644362176055913984,2022-02-08-23:16:16,10.1.1.7,39,0.080,0.080,0.080,0.000,0.000,0.000
1644362176156647936,2022-02-08-23:16:16,10.1.1.7,38,0.070,0.070,0.070,0.000,0.000,0.000
1644362176256500992,2022-02-08-23:16:16,10.1.1.7,37,0.060,0.060,0.060,0.000,0.000,0.000
1644362176358639872,2022-02-08-23:16:16,10.1.1.7,37,0.050,0.050,0.050,0.000,0.000,0.000
1644362176456271872,2022-02-08-23:16:16,10.1.1.7,36,0.040,0.040,0.040,0.000,0.000,0.000
1644362177256616192,2022-02-08-23:16:17,10.1.1.7,29,-0.040,-0.040,-0.040,0.000,0.000,0.000
1644362177356379136,2022-02-08-23:16:17,10.1.1.7,28,-0.050,-0.050,-0.050,0.000,0.000,0.000
1644362177456713984,2022-02-08-23:16:17,10.1.1.7,27,-0.060,-0.060,-0.060,0.000,0.000,0.000
1644362177556997888,2022-02-08-23:16:17,10.1.1.7,27,-0.070,-0.070,-0.070,0.000,0.000,0.000
1644362177656208896,2022-02-08-23:16:17,10.1.1.7,26,-0.080,-0.080,-0.080,0.000,0.000,0.000
1644362177756556032,2022-02-08-23:16:17,10.1.1.7,25,-0.090,-0.090,-0.090,0.000,0.000,0.000
1644362177856391936,2022-02-08-23:16:17,10.1.1.7,25,-0.100,-0.100,-0.100,0.000,0.000,0.000
1644362178576806144,2022-02-08-23:16:18,10.1.1.7,39,-0.030,-0.030,-0.030,0.000,0.000,0.000
1644362178677171968,2022-02-08-23:16:18,10.1.1.7,38,-0.020,-0.020,-0.020,0.000,0.000,0.000
1644362178776971008,2022-02-08-23:16:18,10.1.1.7,36,-0.010,-0.010,-0.010,0.000,0.000,0.000
1644362178877618176,2022-02-08-23:16:18,10.1.1.7,35,-0.000,-0.000,-0.000,0.000,0.000,0.000
1644362179377908992,2022-02-08-23:16:19,10.1.1.7,29,0.050,0.050,0.050,0.000,0.000,0.000
1644362179478009856,2022-02-08-23:16:19,10.1.1.7,28,0.060,0.060,0.060,0.000,0.000,0.000
1644362179576504064,2022-02-08-23:16:19,10.1.1.7,28,0.070,0.070,0.070,0.000,0.000,0.000
1644362179678301184,2022-02-08-23:16:19,10.1.1.7,27,0.080,0.080,0.080,0.000,0.000,0.000
1644362179776983040,2022-02-08-23:16:19,10.1.1.7,26,0.090,0.090,0.090,0.000,0.000,0.000
1644362179956971008,2022-02-08-23:16:19,10.1.1.7,3,0.090,0.090,0.090,0.000,0.000,0.000
1644362180397007104,2022-02-08-23:16:20,10.1.1.7,39,0.050,0.050,0.050,0.000,0.000,0.000
1644362180497004032,2022-02-08-23:16:20,10.1.1.7,38,0.040,0.040,0.040,0.000,0.000,0.000
1644362180597212160,2022-02-08-23:16:20,10.1.1.7,37,0.030,0.030,0.030,0.000,0.000,0.000
1644362180696881920,2022-02-08-23:16:20,10.1.1.7,37,0.020,0.020,0.020,0.000,0.000,0.000
1644362180797432064,2022-02-08-23:16:20,10.1.1.7,36,0.010,0.010,0.010,0.000,0.000,0.000
1644362180896222976,2022-02-08-23:16:20,10.1.1.7,35,0.000,0.000,0.000,0.000,0.000,0.000
1644362181498240000,2022-02-08-23:16:21,10.1.1.7,28,-0.060,-0.060,-0.060,0.000,0.000,0.000
1644362181596518144,2022-02-08-23:16:21,10.1.1.7,27,-0.070,-0.070,-0.070,0.000,0.000,0.000
1644362181697252864,2022-02-08-23:16:21,10.1.1.7,27,-0.080,-0.080,-0.080,0.000,0.000,0.000
1644362181796816128,2022-02-08-23:16:21,10.1.1.7,26,-0.090,-0.090,-0.090,0.000,0.000,0.000
1644362181896274176,2022-02-08-23:16:21,10.1.1.7,25,-0.100,-0.100,-0.100,0.000,0.000,0.000
1644362181996627200,2022-02-08-23:16:21,10.1.1.7,24,-0.090,-0.090,-0.090,0.000,0.000,0.000
1644362182496144128,2022-02-08-23:16:22,10.1.1.7,19,-0.040,-0.040,-0.040,0.000,0.000,0.000
1644362182616462848,2022-02-08-23:16:22,10.1.1.7,39,-0.030,-0.030,-0.030,0.000,0.000,0.000
1644362182716486912,2022-02-08-23:16:22,10.1.1.7,38,-0.020,-0.020,-0.020,0.000,0.000,0.000
1644362182816206848,2022-02-08-23:16:22,10.1.1.7,37,-0.010,-0.010,-0.010,0.000,0.000,0.000
1644362182916503040,2022-02-08-23:16:22,10.1.1.7,36,0.000,0.000,0.000,0.000,0.000,0.000
1644362183017469952,2022-02-08-23:16:23,10.1.1.7,35,0.010,0.010,0.010,0.000,0.000,0.000
1644362183116779008,2022-02-08-23:16:23,10.1.1.7,35,0.020,0.020,0.020,0.000,0.000,0.000
1644362183716457984,2022-02-08-23:16:23,10.1.1.7,27,0.080,0.080,0.080,0.000,0.000,0.000
1644362183816953856,2022-02-08-23:16:23,10.1.1.7,25,0.090,0.090,0.090,0.000,0.000,0.000
1644362183996557056,2022-02-08-23:16:23,10.1.1.7,3,0.090,0.090,0.090,0.000,0.000,0.000
1644362184336304896,2022-02-08-23:16:24,10.1.1.7,39,0.060,0.060,0.060,0.000,0.000,0.000
1644362184436700160,2022-02-08-23:16:24,10.1.1.7,38,0.050,0.050,0.050,0.000,0.000,0.000
1644362184536649984,2022-02-08-23:16:24,10.1.1.7,38,0.040,0.040,0.040,0.000,0.000,0.000
1644362184636302848,2022-02-08-23:16:24,10.1.1.7,37,0.030,0.030,0.030,0.000,0.000,0.000
1644362184736424960,2022-02-08-23:16:24,10.1.1.7,37,0.020,0.020,0.020,0.000,0.000,0.000
1644362184836483072,2022-02-08-23:16:24,10.1.1.7,37,0.010,0.010,0.010,0.000,0.000,0.000
1644362184936089088,2022-02-08-23:16:24,10.1.1.7,36,0.000,0.000,0.000,0.000,0.000,0.000
1644362185037140992,2022-02-08-23:16:25,10.1.1.7,36,-0.010,-0.010,-0.010,0.000,0.000,0.000
1644362185136631040,2022-02-08-23:16:25,10.1.1.7,35,-0.020,-0.020,-0.020,0.000,0.000,0.000
1644362186036576000,2022-02-08-23:16:26,10.1.1.7,29,-0.090,-0.090,-0.090,0.000,0.000,0.000
1644362186136566016,2022-02-08-23:16:26,10.1.1.7,29,-0.080,-0.080,-0.080,0.000,0.000,0.000
1644362186236452096,2022-02-08-23:16:26,10.1.1.7,28,-0.070,-0.070,-0.070,0.000,0.000,0.000
1644362186336162048,2022-02-08-23:16:26,10.1.1.7,27,-0.060,-0.060,-0.060,0.000,0.000,0.000
1644362186436531968,2022-02-08-23:16:26,10.1.1.7,27,-0.050,-0.050,-0.050,0.000,0.000,0.000
1644362186536614912,2022-02-08-23:16:26,10.1.1.7,27,-0.040,-0.040,-0.040,0.000,0.000,0.000
1644362186636030976,2022-02-08-23:16:26,10.1.1.7,26,-0.030,-0.030,-0.030,0.000,0.000,0.000
1644362186736339200,2022-02-08-23:16:26,10.1.1.7,25,-0.020,-0.020,-0.020,0.000,0.000,0.000
1644362187755817984,2022-02-08-23:16:27,10.1.1.7,29,0.080,0.080,0.080,0.000,0.000,0.000
1644362187856225024,2022-02-08-23:16:27,10.1.1.7,29,0.090,0.090,0.090,0.000,0.000,0.000
1644362187956624128,2022-02-08-23:16:27,10.1.1.7,28,0.100,0.100,0.100,0.000,0.000,0.000
1644362188056145920,2022-02-08-23:16:28,10.1.1.7,28,0.090,0.090,0.090,0.000,0.000,0.000
1644362188156702976,2022-02-08-23:16:28,10.1.1.7,27,0.080,0.080,0.080,0.000,0.000,0.000
1644362188256328192,2022-02-08-23:16:28,10.1.1.7,27,0.070,0.070,0.070,0.000,0.000,0.000
1644362188356542208,2022-02-08-23:16:28,10.1.1.7,27,0.060,0.060,0.060,0.000,0.000,0.000
1644362188456815104,2022-02-08-23:16:28,10.1.1.7,26,0.050,0.050,0.050,0.000,0.000,0.000
1644362188556356864,2022-02-08-23:16:28,10.1.1.7,25,0.040,0.040,0.040,0.000,0.000,0.000
1644362188656593920,2022-02-08-23:16:28,10.1.1.7,25,0.030,0.030,0.030,0.000,0.000,0.000
1644362189576505856,2022-02-08-23:16:29,10.1.1.7,39,-0.060,-0.060,-0.060,0.000,0.000,0.000
1644362189676527872,2022-02-08-23:16:29,10.1.1.7,39,-0.070,-0.070,-0.070,0.000,0.000,0.000
1644362189776272128,2022-02-08-23:16:29,10.1.1.7,38,-0.080,-0.080,-0.080,0.000,0.000,0.000
1644362189875976192,2022-02-08-23:16:29,10.1.1.7,37,-0.090,-0.090,-0.090,0.000,0.000,0.000
1644362189976336896,2022-02-08-23:16:29,10.1.1.7,37,-0.100,-0.100,-0.100,0.000,0.000,0.000
1644362190076376832,2022-02-08-23:16:30,10.1.1.7,36,-0.090,-0.090,-0.090,0.000,0.000,0.000
1644362190176399872,2022-02-08-23:16:30,10.1.1.7,36,-0.080,-0.080,-0.080,0.000,0.000,0.000
1644362190275954944,2022-02-08-23:16:30,10.1.1.7,36,-0.070,-0.070,-0.070,0.000,0.000,0.000
1644362190376868864,2022-02-08-23:16:30,10.1.1.7,35,-0.060,-0.060,-0.060,0.000,0.000,0.000
1644362190476414976,2022-02-08-23:16:30,10.1.1.7,35,-0.050,-0.050,-0.050,0.000,0.000,0.000
1644362190576199936,2022-02-08-23:16:30,10.1.1.7,34,-0.040,-0.040,-0.040,0.000,0.000,0.000
1644362191476126976,2022-02-08-23:16:31,10.1.1.7,29,0.050,0.050,0.050,0.000,0.000,0.000
1644362191576019968,2022-02-08-23:16:31,10.1.1.7,28,0.060,0.060,0.060,0.000,0.000,0.000
1644362191921509888,2022-02-08-23:16:31,10.1.1.7,27,0.090,0.090,0.090,0.000,0.000,0.000
1644362191996344064,2022-02-08-23:16:31,10.1.1.7,26,0.100,0.100,0.100,0.000,0.000,0.000
1644362192096818944,2022-02-08-23:16:32,10.1.1.7,26,0.090,0.090,0.090,0.000,0.000,0.000
1644362192196759040,2022-02-08-23:16:32,10.1.1.7,25,0.080,0.080,0.080,0.000,0.000,0.000
1644362192303420928,2022-02-08-23:16:32,10.1.1.7,25,0.070,0.070,0.070,0.000,0.000,0.000
1644362193116453888,2022-02-08-23:16:33,10.1.1.7,39,-0.010,-0.010,-0.010,0.000,0.000,0.000
1644362193216933120,2022-02-08-23:16:33,10.1.1.7,38,-0.020,-0.020,-0.020,0.000,0.000,0.000
1644362193316171008,2022-02-08-23:16:33,10.1.1.7,38,-0.030,-0.030,-0.030,0.000,0.000,0.000
1644362193416531968,2022-02-08-23:16:33,10.1.1.7,37,-0.040,-0.040,-0.040,0.000,0.000,0.000
1644362193516652032,2022-02-08-23:16:33,10.1.1.7,37,-0.050,-0.050,-0.050,0.000,0.000,0.000
1644362193616545024,2022-02-08-23:16:33,10.1.1.7,36,-0.060,-0.060,-0.060,0.000,0.000,0.000
1644362193716406016,2022-02-08-23:16:33,10.1.1.7,35,-0.070,-0.070,-0.070,0.000,0.000,0.000
1644362193816258048,2022-02-08-23:16:33,10.1.1.7,34,-0.080,-0.080,-0.080,0.000,0.000,0.000
1644362194196765952,2022-02-08-23:16:34,10.1.1.7,11,-0.080,-0.080,-0.080,0.000,0.000,0.000
1644362194517268992,2022-02-08-23:16:34,10.1.1.7,29,-0.050,-0.050,-0.050,0.000,0.000,0.000
1644362194621522944,2022-02-08-23:16:34,10.1.1.7,29,-0.040,-0.040,-0.040,0.000,0.000,0.000
1644362194721001984,2022-02-08-23:16:34,10.1.1.7,27,-0.030,-0.030,-0.030,0.000,0.000,0.000
1644362194816665856,2022-02-08-23:16:34,10.1.1.7,27,-0.020,-0.020,-0.020,0.000,0.000,0.000
1644362194916784896,2022-02-08-23:16:34,10.1.1.7,26,-0.010,-0.010,-0.010,0.000,0.000,0.000
1644362195017584128,2022-02-08-23:16:35,10.1.1.7,26,0.000,0.000,0.000,0.000,0.000,0.000
1644362195118935040,2022-02-08-23:16:35,10.1.1.7,25,0.010,0.010,0.010,0.000,0.000,0.000
1644362195216517888,2022-02-08-23:16:35,10.1.1.7,24,0.020,0.020,0.020,0.000,0.000,0.000
1644362195836553216,2022-02-08-23:16:35,10.1.1.7,39,0.080,0.080,0.080,0.000,0.000,0.000
1644362195937374976,2022-02-08-23:16:35,10.1.1.7,38,0.090,0.090,0.090,0.000,0.000,0.000
1644362196036101120,2022-02-08-23:16:36,10.1.1.7,37,0.100,0.100,0.100,0.000,0.000,0.000
1644362196136354048,2022-02-08-23:16:36,10.1.1.7,37,0.090,0.090,0.090,0.000,0.000,0.000
1644362196236783104,2022-02-08-23:16:36,10.1.1.7,36,0.080,0.080,0.080,0.000,0.000,0.000
1644362196336813056,2022-02-08-23:16:36,10.1.1.7,35,0.070,0.070,0.070,0.000,0.000,0.000
1644362196436937984,2022-02-08-23:16:36,10.1.1.7,35,0.060,0.060,0.060,0.000,0.000,0.000
1644362196536081152,2022-02-08-23:16:36,10.1.1.7,34,0.050,0.050,0.050,0.000,0.000,0.000
1644362197136303872,2022-02-08-23:16:37,10.1.1.7,30,-0.010,-0.010,-0.010,0.000,0.000,0.000
1644362197236686080,2022-02-08-23:16:37,10.1.1.7,29,-0.020,-0.020,-0.020,0.000,0.000,0.000
1644362197337410048,2022-02-08-23:16:37,10.1.1.7,28,-0.030,-0.030,-0.030,0.000,0.000,0.000
1644362197441047808,2022-02-08-23:16:37,10.1.1.7,28,-0.040,-0.040,-0.040,0.000,0.000,0.000
1644362197536539136,2022-02-08-23:16:37,10.1.1.7,27,-0.050,-0.050,-0.050,0.000,0.000,0.000
1644362197636286976,2022-02-08-23:16:37,10.1.1.7,26,-0.060,-0.060,-0.060,0.000,0.000,0.000
1644362197736924928,2022-02-08-23:16:37,10.1.1.7,26,-0.070,-0.070,-0.070,0.000,0.000,0.000
1644362197836712960,2022-02-08-23:16:37,10.1.1.7,25,-0.080,-0.080,-0.080,0.000,0.000,0.000
1644362198216915968,2022-02-08-23:16:38,10.1.1.7,2,-0.080,-0.080,-0.080,0.000,0.000,0.000
1644362198556819968,2022-02-08-23:16:38,10.1.1.7,39,-0.050,-0.050,-0.050,0.000,0.000,0.000
1644362198656722176,2022-02-08-23:16:38,10.1.1.7,39,-0.040,-0.040,-0.040,0.000,0.000,0.000
1644362198756261120,2022-02-08-23:16:38,10.1.1.7,38,-0.030,-0.030,-0.030,0.000,0.000,0.000
1644362198857181952,2022-02-08-23:16:38,10.1.1.7,37,-0.020,-0.020,-0.020,0.000,0.000,0.000
1644362198956368896,2022-02-08-23:16:38,10.1.1.7,36,-0.010,-0.010,-0.010,0.000,0.000,0.000
1644362199856945152,2022-02-08-23:16:39,10.1.1.7,29,0.080,0.080,0.080,0.000,0.000,0.000
1644362199957964800,2022-02-08-23:16:39,10.1.1.7,28,0.090,0.090,0.090,0.000,0.000,0.000
1644362200056814848,2022-02-08-23:16:40,10.1.1.7,27,0.100,0.100,0.100,0.000,0.000,0.000
1644362200156012032,2022-02-08-23:16:40,10.1.1.7,27,0.090,0.090,0.090,0.000,0.000,0.000
1644362200257609984,2022-02-08-23:16:40,10.1.1.7,26,0.080,0.080,0.080,0.000,0.000,0.000
1644362200357074944,2022-02-08-23:16:40,10.1.1.7,25,0.070,0.070,0.070,0.000,0.000,0.000
1644362200456763904,2022-02-08-23:16:40,10.1.1.7,25,0.060,0.060,0.060,0.000,0.000,0.000
1644362201176635136,2022-02-08-23:16:41,10.1.1.7,39,-0.010,-0.010,-0.010,0.000,0.000,0.000
1644362201276286976,2022-02-08-23:16:41,10.1.1.7,38,-0.020,-0.020,-0.020,0.000,0.000,0.000
1644362201376391936,2022-02-08-23:16:41,10.1.1.7,37,-0.030,-0.030,-0.030,0.000,0.000,0.000
1644362201476370176,2022-02-08-23:16:41,10.1.1.7,37,-0.040,-0.040,-0.040,0.000,0.000,0.000
1644362201576976896,2022-02-08-23:16:41,10.1.1.7,36,-0.050,-0.050,-0.050,0.000,0.000,0.000
1644362201676997888,2022-02-08-23:16:41,10.1.1.7,35,-0.060,-0.060,-0.060,0.000,0.000,0.000
1644362201776026112,2022-02-08-23:16:41,10.1.1.7,35,-0.070,-0.070,-0.070,0.000,0.000,0.000
1644362202360066816,2022-02-08-23:16:42,10.1.1.7,10,-0.070,-0.070,-0.070,0.000,0.000,0.000
1644362202476329984,2022-02-08-23:16:42,10.1.1.7,28,-0.060,-0.060,-0.060,0.000,0.000,0.000
1644362202576563968,2022-02-08-23:16:42,10.1.1.7,27,-0.050,-0.050,-0.050,0.000,0.000,0.000
1644362202676632832,2022-02-08-23:16:42,10.1.1.7,27,-0.040,-0.040,-0.040,0.000,0.000,0.000
1644362202776506880,2022-02-08-23:16:42,10.1.1.7,26,-0.030,-0.030,-0.030,0.000,0.000,0.000
1644362202877028864,2022-02-08-23:16:42,10.1.1.7,25,-0.020,-0.020,-0.020,0.000,0.000,0.000
1644362202976022016,2022-02-08-23:16:42,10.1.1.7,24,-0.010,-0.010,-0.010,0.000,0.000,0.000
1644362203497297152,2022-02-08-23:16:43,10.1.1.7,39,0.040,0.040,0.040,0.000,0.000,0.000
1644362203596318976,2022-02-08-23:16:43,10.1.1.7,38,0.050,0.050,0.050,0.000,0.000,0.000
1644362203697750016,2022-02-08-23:16:43,10.1.1.7,38,0.060,0.060,0.060,0.000,0.000,0.000
1644362203796680960,2022-02-08-23:16:43,10.1.1.7,37,0.070,0.070,0.070,0.000,0.000,0.000
1644362203898374912,2022-02-08-23:16:43,10.1.1.7,36,0.080,0.080,0.080,0.000,0.000,0.000
1644362203996950016,2022-02-08-23:16:43,10.1.1.7,36,0.090,0.090,0.090,0.000,0.000,0.000
1644362204097214976,2022-02-08-23:16:44,10.1.1.7,35,0.100,0.100,0.100,0.000,0.000,0.000
1644362204896729088,2022-02-08-23:16:44,10.1.1.7,29,0.020,0.020,0.020,0.000,0.000,0.000
1644362204996854016,2022-02-08-23:16:44,10.1.1.7,28,0.010,0.010,0.010,0.000,0.000,0.000
1644362205096525824,2022-02-08-23:16:45,10.1.1.7,28,0.000,0.000,0.000,0.000,0.000,0.000
1644362205196681984,2022-02-08-23:16:45,10.1.1.7,26,-0.010,-0.010,-0.010,0.000,0.000,0.000
1644362205296644096,2022-02-08-23:16:45,10.1.1.7,25,-0.020,-0.020,-0.020,0.000,0.000,0.000
1644362205395937792,2022-02-08-23:16:45,10.1.1.7,25,-0.030,-0.030,-0.030,0.000,0.000,0.000
1644362205916461824,2022-02-08-23:16:45,10.1.1.7,40,-0.080,-0.080,-0.080,0.000,0.000,0.000
1644362206015963136,2022-02-08-23:16:46,10.1.1.7,39,-0.090,-0.090,-0.090,0.000,0.000,0.000
1644362206116313088,2022-02-08-23:16:46,10.1.1.7,38,-0.100,-0.100,-0.100,0.000,0.000,0.000
1644362206216905216,2022-02-08-23:16:46,10.1.1.7,37,-0.090,-0.090,-0.090,0.000,0.000,0.000
1644362206316713216,2022-02-08-23:16:46,10.1.1.7,36,-0.080,-0.080,-0.080,0.000,0.000,0.000
1644362206416958208,2022-02-08-23:16:46,10.1.1.7,35,-0.070,-0.070,-0.070,0.000,0.000,0.000
1644362207216854016,2022-02-08-23:16:47,10.1.1.7,29,0.010,0.010,0.010,0.000,0.000,0.000
1644362207316709888,2022-02-08-23:16:47,10.1.1.7,28,0.020,0.020,0.020,0.000,0.000,0.000
1644362207417308160,2022-02-08-23:16:47,10.1.1.7,27,0.030,0.030,0.030,0.000,0.000,0.000
1644362207516839936,2022-02-08-23:16:47,10.1.1.7,26,0.040,0.040,0.040,0.000,0.000,0.000
1644362207615961088,2022-02-08-23:16:47,10.1.1.7,24,0.050,0.050,0.050,0.000,0.000,0.000
1644362208337282816,2022-02-08-23:16:48,10.1.1.7,39,0.080,0.080,0.080,0.000,0.000,0.000
1644362208436760064,2022-02-08-23:16:48,10.1.1.7,38,0.070,0.070,0.070,0.000,0.000,0.000
1644362208536796160,2022-02-08-23:16:48,10.1.1.7,37,0.060,0.060,0.060,0.000,0.000,0.000
1644362208636024832,2022-02-08-23:16:48,10.1.1.7,36,0.050,0.050,0.050,0.000,0.000,0.000
1644362208736624896,2022-02-08-23:16:48,10.1.1.7,35,0.040,0.040,0.040,0.000,0.000,0.000
1644362209236527872,2022-02-08-23:16:49,10.1.1.7,29,-0.010,-0.010,-0.010,0.000,0.000,0.000
1644362209337299200,2022-02-08-23:16:49,10.1.1.7,29,-0.020,-0.020,-0.020,0.000,0.000,0.000
1644362209436741120,2022-02-08-23:16:49,10.1.1.7,28,-0.030,-0.030,-0.030,0.000,0.000,0.000
1644362209537900032,2022-02-08-23:16:49,10.1.1.7,27,-0.040,-0.040,-0.040,0.000,0.000,0.000
1644362209636395008,2022-02-08-23:16:49,10.1.1.7,27,-0.050,-0.050,-0.050,0.000,0.000,0.000
1644362209736267008,2022-02-08-23:16:49,10.1.1.7,26,-0.060,-0.060,-0.060,0.000,0.000,0.000
1644362209842789888,2022-02-08-23:16:49,10.1.1.7,26,-0.070,-0.070,-0.070,0.000,0.000,0.000
1644362210436352000,2022-02-08-23:16:50,10.1.1.7,17,-0.070,-0.070,-0.070,0.000,0.000,0.000
1644362210556396032,2022-02-08-23:16:50,10.1.1.7,36,-0.060,-0.060,-0.060,0.000,0.000,0.000
1644362210656194048,2022-02-08-23:16:50,10.1.1.7,36,-0.050,-0.050,-0.050,0.000,0.000,0.000
1644362210755923968,2022-02-08-23:16:50,10.1.1.7,35,-0.040,-0.040,-0.040,0.000,0.000,0.000
1644362211556584960,2022-02-08-23:16:51,10.1.1.7,29,0.040,0.040,0.040,0.000,0.000,0.000
1644362211656423936,2022-02-08-23:16:51,10.1.1.7,29,0.050,0.050,0.050,0.000,0.000,0.000
1644362211756805888,2022-02-08-23:16:51,10.1.1.7,28,0.060,0.060,0.060,0.000,0.000,0.000
1644362211856379136,2022-02-08-23:16:51,10.1.1.7,27,0.070,0.070,0.070,0.000,0.000,0.000
1644362211956273920,2022-02-08-23:16:51,10.1.1.7,26,0.080,0.080,0.080,0.000,0.000,0.000
1644362212056047872,2022-02-08-23:16:52,10.1.1.7,25,0.090,0.090,0.090,0.000,0.000,0.000
1644362212236655872,2022-02-08-23:16:52,10.1.1.7,2,0.090,0.090,0.090,0.000,0.000,0.000
1644362212576644864,2022-02-08-23:16:52,10.1.1.7,39,0.060,0.060,0.060,0.000,0.000,0.000
1644362212676317952,2022-02-08-23:16:52,10.1.1.7,38,0.050,0.050,0.050,0.000,0.000,0.000
1644362212776577024,2022-02-08-23:16:52,10.1.1.7,38,0.040,0.040,0.040,0.000,0.000,0.000
1644362212876986880,2022-02-08-23:16:52,10.1.1.7,37,0.030,0.030,0.030,0.000,0.000,0.000
1644362212976877056,2022-02-08-23:16:52,10.1.1.7,36,0.020,0.020,0.020,0.000,0.000,0.000
1644362213076304896,2022-02-08-23:16:53,10.1.1.7,36,0.010,0.010,0.010,0.000,0.000,0.000
1644362213176457984,2022-02-08-23:16:53,10.1.1.7,35,0.000,0.000,0.000,0.000,0.000,0.000
1644362213276529152,2022-02-08-23:16:53,10.1.1.7,35,-0.010,-0.010,-0.010,0.000,0.000,0.000
1644362213996296960,2022-02-08-23:16:53,10.1.1.7,39,-0.080,-0.080,-0.080,0.000,0.000,0.000
1644362214196461824,2022-02-08-23:16:54,10.1.1.7,39,-0.100,-0.100,-0.100,0.000,0.000,0.000
1644362214296695040,2022-02-08-23:16:54,10.1.1.7,38,-0.090,-0.090,-0.090,0.000,0.000,0.000
1644362214396338944,2022-02-08-23:16:54,10.1.1.7,38,-0.080,-0.080,-0.080,0.000,0.000,0.000
1644362214496663040,2022-02-08-23:16:54,10.1.1.7,37,-0.070,-0.070,-0.070,0.000,0.000,0.000
1644362214596905984,2022-02-08-23:16:54,10.1.1.7,35,-0.060,-0.060,-0.060,0.000,0.000,0.000
1644362214697211136,2022-02-08-23:16:54,10.1.1.7,35,-0.050,-0.050,-0.050,0.000,0.000,0.000
1644362214795974912,2022-02-08-23:16:54,10.1.1.7,34,-0.040,-0.040,-0.040,0.000,0.000,0.000
1644362215096599040,2022-02-08-23:16:55,10.1.1.7,33,-0.010,-0.010,-0.010,0.000,0.000,0.000
1644362215595894016,2022-02-08-23:16:55,10.1.1.7,29,0.040,0.040,0.040,0.000,0.000,0.000
1644362215696211968,2022-02-08-23:16:55,10.1.1.7,28,0.050,0.050,0.050,0.000,0.000,0.000
1644362215796439808,2022-02-08-23:16:55,10.1.1.7,27,0.060,0.060,0.060,0.000,0.000,0.000
1644362215896226048,2022-02-08-23:16:55,10.1.1.7,26,0.070,0.070,0.070,0.000,0.000,0.000
1644362215995965952,2022-02-08-23:16:55,10.1.1.7,26,0.080,0.080,0.080,0.000,0.000,0.000
1644362216095916032,2022-02-08-23:16:56,10.1.1.7,26,0.090,0.090,0.090,0.000,0.000,0.000
1644362216197133056,2022-02-08-23:16:56,10.1.1.7,25,0.100,0.100,0.100,0.000,0.000,0.000
1644362216916143872,2022-02-08-23:16:56,10.1.1.7,39,0.030,0.030,0.030,0.000,0.000,0.000
1644362217016465920,2022-02-08-23:16:57,10.1.1.7,37,0.020,0.020,0.020,0.000,0.000,0.000
1644362217116549120,2022-02-08-23:16:57,10.1.1.7,37,0.010,0.010,0.010,0.000,0.000,0.000
1644362217216583936,2022-02-08-23:16:57,10.1.1.7,36,0.000,0.000,0.000,0.000,0.000,0.000
1644362217316678144,2022-02-08-23:16:57,10.1.1.7,36,-0.010,-0.010,-0.010,0.000,0.000,0.000
1644362217416593152,2022-02-08-23:16:57,10.1.1.7,35,-0.020,-0.020,-0.020,0.000,0.000,0.000
1644362217516992000,2022-02-08-23:16:57,10.1.1.7,34,-0.030,-0.030,-0.030,0.000,0.000,0.000
1644362218216232960,2022-02-08-23:16:58,10.1.1.7,29,-0.100,-0.100,-0.100,0.000,0.000,0.000
1644362218316189952,2022-02-08-23:16:58,10.1.1.7,28,-0.090,-0.090,-0.090,0.000,0.000,0.000
1644362218416578048,2022-02-08-23:16:58,10.1.1.7,27,-0.080,-0.080,-0.080,0.000,0.000,0.000
1644362218516273920,2022-02-08-23:16:58,10.1.1.7,27,-0.070,-0.070,-0.070,0.000,0.000,0.000
1644362218616956928,2022-02-08-23:16:58,10.1.1.7,26,-0.060,-0.060,-0.060,0.000,0.000,0.000
1644362218716995840,2022-02-08-23:16:58,10.1.1.7,26,-0.050,-0.050,-0.050,0.000,0.000,0.000
1644362218816590080,2022-02-08-23:16:58,10.1.1.7,25,-0.040,-0.040,-0.040,0.000,0.000,0.000
1644362219736651776,2022-02-08-23:16:59,10.1.1.7,39,0.050,0.050,0.050,0.000,0.000,0.000
1644362219836755968,2022-02-08-23:16:59,10.1.1.7,39,0.060,0.060,0.060,0.000,0.000,0.000
1644362219936125952,2022-02-08-23:16:59,10.1.1.7,38,0.070,0.070,0.070,0.000,0.000,0.000
1644362220036667136,2022-02-08-23:17:00,10.1.1.7,38,0.080,0.080,0.080,0.000,0.000,0.000
1644362220136184832,2022-02-08-23:17:00,10.1.1.7,37,0.090,0.090,0.090,0.000,0.000,0.000
1644362220236574976,2022-02-08-23:17:00,10.1.1.7,37,0.100,0.100,0.100,0.000,0.000,0.000
1644362220336546048,2022-02-08-23:17:00,10.1.1.7,36,0.090,0.090,0.090,0.000,0.000,0.000
1644362220436315136,2022-02-08-23:17:00,10.1.1.7,36,0.080,0.080,0.080,0.000,0.000,0.000
1644362220536391936,2022-02-08-23:17:00,10.1.1.7,35,0.070,0.070,0.070,0.000,0.000,0.000
1644362220636507136,2022-02-08-23:17:00,10.1.1.7,34,0.060,0.060,0.060,0.000,0.000,0.000
1644362221736558848,2022-02-08-23:17:01,10.1.1.7,28,-0.050,-0.050,-0.050,0.000,0.000,0.000
1644362221836257024,2022-02-08-23:17:01,10.1.1.7,28,-0.060,-0.060,-0.060,0.000,0.000,0.000
1644362221936424960,2022-02-08-23:17:01,10.1.1.7,27,-0.070,-0.070,-0.070,0.000,0.000,0.000
1644362222036628992,2022-02-08-23:17:02,10.1.1.7,27,-0.080,-0.080,-0.080,0.000,0.000,0.000
1644362222136420864,2022-02-08-23:17:02,10.1.1.7,26,-0.090,-0.090,-0.090,0.000,0.000,0.000
1644362222236352000,2022-02-08-23:17:02,10.1.1.7,26,-0.100,-0.100,-0.100,0.000,0.000,0.000
1644362222337207040,2022-02-08-23:17:02,10.1.1.7,26,-0.090,-0.090,-0.090,0.000,0.000,0.000
1644362222437115904,2022-02-08-23:17:02,10.1.1.7,25,-0.080,-0.080,-0.080,0.000,0.000,0.000
1644362222536814080,2022-02-08-23:17:02,10.1.1.7,25,-0.070,-0.070,-0.070,0.000,0.000,0.000
1644362222636600064,2022-02-08-23:17:02,10.1.1.7,24,-0.060,-0.060,-0.060,0.000,0.000,0.000
1644362223556669952,2022-02-08-23:17:03,10.1.1.7,39,0.030,0.030,0.030,0.000,0.000,0.000
1644362223657654016,2022-02-08-23:17:03,10.1.1.7,39,0.040,0.040,0.040,0.000,0.000,0.000
1644362223757287936,2022-02-08-23:17:03,10.1.1.7,38,0.050,0.050,0.050,0.000,0.000,0.000
1644362223856352000,2022-02-08-23:17:03,10.1.1.7,37,0.060,0.060,0.060,0.000,0.000,0.000
1644362223956374016,2022-02-08-23:17:03,10.1.1.7,37,0.070,0.070,0.070,0.000,0.000,0.000
1644362224056770048,2022-02-08-23:17:04,10.1.1.7,37,0.080,0.080,0.080,0.000,0.000,0.000
1644362224156722944,2022-02-08-23:17:04,10.1.1.7,36,0.090,0.090,0.090,0.000,0.000,0.000
1644362224256491776,2022-02-08-23:17:04,10.1.1.7,36,0.100,0.100,0.100,0.000,0.000,0.000
1644362224356379136,2022-02-08-23:17:04,10.1.1.7,35,0.090,0.090,0.090,0.000,0.000,0.000
1644362224456855040,2022-02-08-23:17:04,10.1.1.7,34,0.080,0.080,0.080,0.000,0.000,0.000
1644362225456686080,2022-02-08-23:17:05,10.1.1.7,29,-0.020,-0.020,-0.020,0.000,0.000,0.000
1644362225556269824,2022-02-08-23:17:05,10.1.1.7,28,-0.030,-0.030,-0.030,0.000,0.000,0.000
1644362225676628992,2022-02-08-23:17:05,10.1.1.7,24,-0.040,-0.040,-0.040,0.000,0.000,0.000
1644362226596640000,2022-02-08-23:17:06,10.1.1.7,40,-0.070,-0.070,-0.070,0.000,0.000,0.000
1644362226696640000,2022-02-08-23:17:06,10.1.1.7,38,-0.060,-0.060,-0.060,0.000,0.000,0.000
1644362226796623104,2022-02-08-23:17:06,10.1.1.7,37,-0.050,-0.050,-0.050,0.000,0.000,0.000
1644362227696952064,2022-02-08-23:17:07,10.1.1.7,29,0.040,0.040,0.040,0.000,0.000,0.000
1644362227796536832,2022-02-08-23:17:07,10.1.1.7,28,0.050,0.050,0.050,0.000,0.000,0.000
1644362227896614912,2022-02-08-23:17:07,10.1.1.7,27,0.060,0.060,0.060,0.000,0.000,0.000
1644362227997779968,2022-02-08-23:17:07,10.1.1.7,26,0.070,0.070,0.070,0.000,0.000,0.000
1644362228096395008,2022-02-08-23:17:08,10.1.1.7,26,0.080,0.080,0.080,0.000,0.000,0.000
1644362228197084928,2022-02-08-23:17:08,10.1.1.7,24,0.090,0.090,0.090,0.000,0.000,0.000
1644362228377408000,2022-02-08-23:17:08,10.1.1.7,3,0.090,0.090,0.090,0.000,0.000,0.000
1644362229196594944,2022-02-08-23:17:09,10.1.1.7,20,0.010,0.010,0.010,0.000,0.000,0.000
1644362229316580096,2022-02-08-23:17:09,10.1.1.7,39,0.000,0.000,0.000,0.000,0.000,0.000
1644362229417067008,2022-02-08-23:17:09,10.1.1.7,39,-0.010,-0.010,-0.010,0.000,0.000,0.000
1644362229517816064,2022-02-08-23:17:09,10.1.1.7,39,-0.020,-0.020,-0.020,0.000,0.000,0.000
1644362229616653824,2022-02-08-23:17:09,10.1.1.7,38,-0.030,-0.030,-0.030,0.000,0.000,0.000
1644362229716506112,2022-02-08-23:17:09,10.1.1.7,37,-0.040,-0.040,-0.040,0.000,0.000,0.000
1644362229816932864,2022-02-08-23:17:09,10.1.1.7,37,-0.050,-0.050,-0.050,0.000,0.000,0.000
1644362229917126912,2022-02-08-23:17:09,10.1.1.7,37,-0.060,-0.060,-0.060,0.000,0.000,0.000
1644362230016884992,2022-02-08-23:17:10,10.1.1.7,36,-0.070,-0.070,-0.070,0.000,0.000,0.000
1644362230116649984,2022-02-08-23:17:10,10.1.1.7,35,-0.080,-0.080,-0.080,0.000,0.000,0.000
1644362230216582144,2022-02-08-23:17:10,10.1.1.7,35,-0.090,-0.090,-0.090,0.000,0.000,0.000
1644362230316453888,2022-02-08-23:17:10,10.1.1.7,34,-0.100,-0.100,-0.100,0.000,0.000,0.000
1644362230816975104,2022-02-08-23:17:10,10.1.1.7,30,-0.050,-0.050,-0.050,0.000,0.000,0.000
1644362230917156096,2022-02-08-23:17:10,10.1.1.7,29,-0.040,-0.040,-0.040,0.000,0.000,0.000
1644362231016985856,2022-02-08-23:17:11,10.1.1.7,28,-0.030,-0.030,-0.030,0.000,0.000,0.000
1644362231116920064,2022-02-08-23:17:11,10.1.1.7,27,-0.020,-0.020,-0.020,0.000,0.000,0.000
1644362231217216000,2022-02-08-23:17:11,10.1.1.7,27,-0.010,-0.010,-0.010,0.000,0.000,0.000
1644362231316706048,2022-02-08-23:17:11,10.1.1.7,26,0.000,0.000,0.000,0.000,0.000,0.000
1644362231416989952,2022-02-08-23:17:11,10.1.1.7,26,0.010,0.010,0.010,0.000,0.000,0.000
1644362231516761088,2022-02-08-23:17:11,10.1.1.7,25,0.020,0.020,0.020,0.000,0.000,0.000
1644362231616587008,2022-02-08-23:17:11,10.1.1.7,25,0.030,0.030,0.030,0.000,0.000,0.000
1644362232636704000,2022-02-08-23:17:12,10.1.1.7,39,0.070,0.070,0.070,0.000,0.000,0.000
1644362232737217024,2022-02-08-23:17:12,10.1.1.7,39,0.060,0.060,0.060,0.000,0.000,0.000
1644362232836442880,2022-02-08-23:17:12,10.1.1.7,38,0.050,0.050,0.050,0.000,0.000,0.000
1644362232936860928,2022-02-08-23:17:12,10.1.1.7,38,0.040,0.040,0.040,0.000,0.000,0.000
1644362233037287936,2022-02-08-23:17:13,10.1.1.7,37,0.030,0.030,0.030,0.000,0.000,0.000
1644362233137157888,2022-02-08-23:17:13,10.1.1.7,36,0.020,0.020,0.020,0.000,0.000,0.000
1644362233236880896,2022-02-08-23:17:13,10.1.1.7,36,0.010,0.010,0.010,0.000,0.000,0.000
1644362233337815040,2022-02-08-23:17:13,10.1.1.7,34,0.000,0.000,0.000,0.000,0.000,0.000
1644362233436801792,2022-02-08-23:17:13,10.1.1.7,34,-0.010,-0.010,-0.010,0.000,0.000,0.000
1644362234072705024,2022-02-08-23:17:14,10.1.1.7,26,-0.070,-0.070,-0.070,0.000,0.000,0.000
1644362234137193984,2022-02-08-23:17:14,10.1.1.7,25,-0.080,-0.080,-0.080,0.000,0.000,0.000
1644362234236984064,2022-02-08-23:17:14,10.1.1.7,25,-0.090,-0.090,-0.090,0.000,0.000,0.000
1644362234336931072,2022-02-08-23:17:14,10.1.1.7,24,-0.100,-0.100,-0.100,0.000,0.000,0.000
1644362234436984064,2022-02-08-23:17:14,10.1.1.7,24,-0.090,-0.090,-0.090,0.000,0.000,0.000
1644362235336824064,2022-02-08-23:17:15,10.1.1.7,19,0.000,0.000,0.000,0.000,0.000,0.000
1644362235456952064,2022-02-08-23:17:15,10.1.1.7,38,0.010,0.010,0.010,0.000,0.000,0.000
1644362235556921088,2022-02-08-23:17:15,10.1.1.7,38,0.020,0.020,0.020,0.000,0.000,0.000
1644362235656791040,2022-02-08-23:17:15,10.1.1.7,37,0.030,0.030,0.030,0.000,0.000,0.000
1644362235756663040,2022-02-08-23:17:15,10.1.1.7,37,0.040,0.040,0.040,0.000,0.000,0.000
1644362235856766976,2022-02-08-23:17:15,10.1.1.7,36,0.050,0.050,0.050,0.000,0.000,0.000
1644362235956942080,2022-02-08-23:17:15,10.1.1.7,36,0.060,0.060,0.060,0.000,0.000,0.000
1644362236057142016,2022-02-08-23:17:16,10.1.1.7,36,0.070,0.070,0.070,0.000,0.000,0.000
1644362236157735936,2022-02-08-23:17:16,10.1.1.7,35,0.080,0.080,0.080,0.000,0.000,0.000
1644362236257189120,2022-02-08-23:17:16,10.1.1.7,35,0.090,0.090,0.090,0.000,0.000,0.000
1644362236356687104,2022-02-08-23:17:16,10.1.1.7,34,0.100,0.100,0.100,0.000,0.000,0.000
1644362236756696832,2022-02-08-23:17:16,10.1.1.7,30,0.060,0.060,0.060,0.000,0.000,0.000
1644362236957036032,2022-02-08-23:17:16,10.1.1.7,29,0.040,0.040,0.040,0.000,0.000,0.000
1644362237056986112,2022-02-08-23:17:17,10.1.1.7,28,0.030,0.030,0.030,0.000,0.000,0.000
1644362237156934144,2022-02-08-23:17:17,10.1.1.7,27,0.020,0.020,0.020,0.000,0.000,0.000
1644362237257358080,2022-02-08-23:17:17,10.1.1.7,26,0.010,0.010,0.010,0.000,0.000,0.000
1644362237357059072,2022-02-08-23:17:17,10.1.1.7,26,0.000,0.000,0.000,0.000,0.000,0.000
1644362237457479936,2022-02-08-23:17:17,10.1.1.7,25,-0.010,-0.010,-0.010,0.000,0.000,0.000
1644362237557221888,2022-02-08-23:17:17,10.1.1.7,25,-0.020,-0.020,-0.020,0.000,0.000,0.000
1644362237657099008,2022-02-08-23:17:17,10.1.1.7,24,-0.030,-0.030,-0.030,0.000,0.000,0.000
1644362238377602048,2022-02-08-23:17:18,10.1.1.7,39,-0.100,-0.100,-0.100,0.000,0.000,0.000
1644362238477464832,2022-02-08-23:17:18,10.1.1.7,39,-0.090,-0.090,-0.090,0.000,0.000,0.000
1644362238576630016,2022-02-08-23:17:18,10.1.1.7,38,-0.080,-0.080,-0.080,0.000,0.000,0.000
1644362238677521920,2022-02-08-23:17:18,10.1.1.7,38,-0.070,-0.070,-0.070,0.000,0.000,0.000
1644362238777479936,2022-02-08-23:17:18,10.1.1.7,37,-0.060,-0.060,-0.060,0.000,0.000,0.000
1644362238878482176,2022-02-08-23:17:18,10.1.1.7,37,-0.050,-0.050,-0.050,0.000,0.000,0.000
1644362238977613056,2022-02-08-23:17:18,10.1.1.7,36,-0.040,-0.040,-0.040,0.000,0.000,0.000
1644362239077697024,2022-02-08-23:17:19,10.1.1.7,36,-0.030,-0.030,-0.030,0.000,0.000,0.000
1644362239176944896,2022-02-08-23:17:19,10.1.1.7,35,-0.020,-0.020,-0.020,0.000,0.000,0.000
1644362239277230080,2022-02-08-23:17:19,10.1.1.7,34,-0.010,-0.010,-0.010,0.000,0.000,0.000
1644362239376865024,2022-02-08-23:17:19,10.1.1.7,34,0.000,0.000,0.000,0.000,0.000,0.000
1644362239877353984,2022-02-08-23:17:19,10.1.1.7,29,0.050,0.050,0.050,0.000,0.000,0.000
1644362239978356992,2022-02-08-23:17:19,10.1.1.7,30,0.060,0.060,0.060,0.000,0.000,0.000
1644362240077426944,2022-02-08-23:17:20,10.1.1.7,29,0.070,0.070,0.070,0.000,0.000,0.000
1644362240176794880,2022-02-08-23:17:20,10.1.1.7,28,0.080,0.080,0.080,0.000,0.000,0.000
1644362240277113088,2022-02-08-23:17:20,10.1.1.7,27,0.090,0.090,0.090,0.000,0.000,0.000
1644362240376983808,2022-02-08-23:17:20,10.1.1.7,27,0.100,0.100,0.100,0.000,0.000,0.000
1644362240476934912,2022-02-08-23:17:20,10.1.1.7,27,0.090,0.090,0.090,0.000,0.000,0.000
1644362240577764096,2022-02-08-23:17:20,10.1.1.7,26,0.080,0.080,0.080,0.000,0.000,0.000
1644362240677142016,2022-02-08-23:17:20,10.1.1.7,26,0.070,0.070,0.070,0.000,0.000,0.000
1644362240777398016,2022-02-08-23:17:20,10.1.1.7,25,0.060,0.060,0.060,0.000,0.000,0.000
1644362240877837056,2022-02-08-23:17:20,10.1.1.7,25,0.050,0.050,0.050,0.000,0.000,0.000
1644362240977134848,2022-02-08-23:17:20,10.1.1.7,24,0.040,0.040,0.040,0.000,0.000,0.000
1644362241077513984,2022-02-08-23:17:21,10.1.1.7,24,0.030,0.030,0.030,0.000,0.000,0.000
1644362241177337856,2022-02-08-23:17:21,10.1.1.7,23,0.020,0.020,0.020,0.000,0.000,0.000
1644362241796956160,2022-02-08-23:17:21,10.1.1.7,38,-0.040,-0.040,-0.040,0.000,0.000,0.000
1644362241897500160,2022-02-08-23:17:21,10.1.1.7,37,-0.050,-0.050,-0.050,0.000,0.000,0.000
1644362241998009856,2022-02-08-23:17:21,10.1.1.7,37,-0.060,-0.060,-0.060,0.000,0.000,0.000
1644362242098099968,2022-02-08-23:17:22,10.1.1.7,36,-0.070,-0.070,-0.070,0.000,0.000,0.000
1644362242197993984,2022-02-08-23:17:22,10.1.1.7,36,-0.080,-0.080,-0.080,0.000,0.000,0.000
1644362242297530880,2022-02-08-23:17:22,10.1.1.7,35,-0.090,-0.090,-0.090,0.000,0.000,0.000
1644362242397187072,2022-02-08-23:17:22,10.1.1.7,35,-0.100,-0.100,-0.100,0.000,0.000,0.000
1644362242497586944,2022-02-08-23:17:22,10.1.1.7,35,-0.090,-0.090,-0.090,0.000,0.000,0.000
1644362242597297920,2022-02-08-23:17:22,10.1.1.7,34,-0.080,-0.080,-0.080,0.000,0.000,0.000
1644362242697065216,2022-02-08-23:17:22,10.1.1.7,34,-0.070,-0.070,-0.070,0.000,0.000,0.000
1644362242797422848,2022-02-08-23:17:22,10.1.1.7,33,-0.060,-0.060,-0.060,0.000,0.000,0.000
1644362243697814016,2022-02-08-23:17:23,10.1.1.7,29,0.030,0.030,0.030,0.000,0.000,0.000
1644362243797298944,2022-02-08-23:17:23,10.1.1.7,28,0.040,0.040,0.040,0.000,0.000,0.000
1644362244217420032,2022-02-08-23:17:24,10.1.1.7,39,0.080,0.080,0.080,0.000,0.000,0.000
1644362244317160960,2022-02-08-23:17:24,10.1.1.7,37,0.090,0.090,0.090,0.000,0.000,0.000
1644362244419006976,2022-02-08-23:17:24,10.1.1.7,26,0.100,0.100,0.100,0.000,0.000,0.000
1644362244517029120,2022-02-08-23:17:24,10.1.1.7,25,0.090,0.090,0.090,0.000,0.000,0.000
1644362244617692928,2022-02-08-23:17:24,10.1.1.7,24,0.080,0.080,0.080,0.000,0.000,0.000
1644362245344027136,2022-02-08-23:17:25,10.1.1.7,20,0.010,0.010,0.010,0.000,0.000,0.000
1644362245437650944,2022-02-08-23:17:25,10.1.1.7,39,0.000,0.000,0.000,0.000,0.000,0.000
1644362245537323008,2022-02-08-23:17:25,10.1.1.7,38,-0.010,-0.010,-0.010,0.000,0.000,0.000
1644362245637852928,2022-02-08-23:17:25,10.1.1.7,38,-0.020,-0.020,-0.020,0.000,0.000,0.000
1644362245738408960,2022-02-08-23:17:25,10.1.1.7,37,-0.030,-0.030,-0.030,0.000,0.000,0.000
1644362245838040064,2022-02-08-23:17:25,10.1.1.7,37,-0.040,-0.040,-0.040,0.000,0.000,0.000
1644362245938297088,2022-02-08-23:17:25,10.1.1.7,36,-0.050,-0.050,-0.050,0.000,0.000,0.000
1644362246037828864,2022-02-08-23:17:26,10.1.1.7,36,-0.060,-0.060,-0.060,0.000,0.000,0.000
1644362246137630976,2022-02-08-23:17:26,10.1.1.7,35,-0.070,-0.070,-0.070,0.000,0.000,0.000
1644362246237227008,2022-02-08-23:17:26,10.1.1.7,35,-0.080,-0.080,-0.080,0.000,0.000,0.000
1644362246338145024,2022-02-08-23:17:26,10.1.1.7,34,-0.090,-0.090,-0.090,0.000,0.000,0.000
1644362246437596928,2022-02-08-23:17:26,10.1.1.7,33,-0.100,-0.100,-0.100,0.000,0.000,0.000
1644362246537637120,2022-02-08-23:17:26,10.1.1.7,33,-0.090,-0.090,-0.090,0.000,0.000,0.000
1644362247237792000,2022-02-08-23:17:27,10.1.1.7,29,-0.020,-0.020,-0.020,0.000,0.000,0.000
1644362247338288896,2022-02-08-23:17:27,10.1.1.7,28,-0.010,-0.010,-0.010,0.000,0.000,0.000
1644362247437336832,2022-02-08-23:17:27,10.1.1.7,27,0.000,0.000,0.000,0.000,0.000,0.000
1644362247537926912,2022-02-08-23:17:27,10.1.1.7,27,0.010,0.010,0.010,0.000,0.000,0.000
1644362247637510912,2022-02-08-23:17:27,10.1.1.7,26,0.020,0.020,0.020,0.000,0.000,0.000
1644362247737355008,2022-02-08-23:17:27,10.1.1.7,26,0.030,0.030,0.030,0.000,0.000,0.000
1644362247837337856,2022-02-08-23:17:27,10.1.1.7,25,0.040,0.040,0.040,0.000,0.000,0.000
1644362247938345984,2022-02-08-23:17:27,10.1.1.7,25,0.050,0.050,0.050,0.000,0.000,0.000
1644362248037779200,2022-02-08-23:17:28,10.1.1.7,24,0.060,0.060,0.060,0.000,0.000,0.000
1644362248136851968,2022-02-08-23:17:28,10.1.1.7,23,0.070,0.070,0.070,0.000,0.000,0.000
1644362248737499904,2022-02-08-23:17:28,10.1.1.7,20,0.070,0.070,0.070,0.000,0.000,0.000
1644362248837378048,2022-02-08-23:17:28,10.1.1.7,19,0.060,0.060,0.060,0.000,0.000,0.000
1644362248957634048,2022-02-08-23:17:28,10.1.1.7,39,0.050,0.050,0.050,0.000,0.000,0.000
1644362249057806080,2022-02-08-23:17:29,10.1.1.7,38,0.040,0.040,0.040,0.000,0.000,0.000
1644362249158654976,2022-02-08-23:17:29,10.1.1.7,38,0.030,0.030,0.030,0.000,0.000,0.000
1644362249257318144,2022-02-08-23:17:29,10.1.1.7,37,0.020,0.020,0.020,0.000,0.000,0.000
1644362249357516032,2022-02-08-23:17:29,10.1.1.7,37,0.010,0.010,0.010,0.000,0.000,0.000
1644362249457655040,2022-02-08-23:17:29,10.1.1.7,36,0.000,0.000,0.000,0.000,0.000,0.000
1644362249557225984,2022-02-08-23:17:29,10.1.1.7,35,-0.010,-0.010,-0.010,0.000,0.000,0.000
1644362249658011904,2022-02-08-23:17:29,10.1.1.7,35,-0.020,-0.020,-0.020,0.000,0.000,0.000
1644362249757654016,2022-02-08-23:17:29,10.1.1.7,34,-0.030,-0.030,-0.030,0.000,0.000,0.000
1644362249858159104,2022-02-08-23:17:29,10.1.1.7,34,-0.040,-0.040,-0.040,0.000,0.000,0.000
1644362249957240064,2022-02-08-23:17:29,10.1.1.7,34,-0.050,-0.050,-0.050,0.000,0.000,0.000
1644362250758734080,2022-02-08-23:17:30,10.1.1.7,29,-0.070,-0.070,-0.070,0.000,0.000,0.000
1644362250857500928,2022-02-08-23:17:30,10.1.1.7,28,-0.060,-0.060,-0.060,0.000,0.000,0.000
1644362250957839872,2022-02-08-23:17:30,10.1.1.7,28,-0.050,-0.050,-0.050,0.000,0.000,0.000
1644362251057585920,2022-02-08-23:17:31,10.1.1.7,27,-0.040,-0.040,-0.040,0.000,0.000,0.000
1644362251157923840,2022-02-08-23:17:31,10.1.1.7,26,-0.030,-0.030,-0.030,0.000,0.000,0.000
1644362251358290944,2022-02-08-23:17:31,10.1.1.7,24,-0.010,-0.010,-0.010,0.000,0.000,0.000
1644362251457660928,2022-02-08-23:17:31,10.1.1.7,23,0.000,0.000,0.000,0.000,0.000,0.000
1644362251977688064,2022-02-08-23:17:31,10.1.1.7,39,0.050,0.050,0.050,0.000,0.000,0.000
1644362252078944000,2022-02-08-23:17:32,10.1.1.7,38,0.060,0.060,0.060,0.000,0.000,0.000
1644362252178652160,2022-02-08-23:17:32,10.1.1.7,38,0.070,0.070,0.070,0.000,0.000,0.000
1644362252280566016,2022-02-08-23:17:32,10.1.1.7,37,0.080,0.080,0.080,0.000,0.000,0.000
1644362252378683136,2022-02-08-23:17:32,10.1.1.7,37,0.090,0.090,0.090,0.000,0.000,0.000
1644362252477818112,2022-02-08-23:17:32,10.1.1.7,36,0.100,0.100,0.100,0.000,0.000,0.000
1644362252777921024,2022-02-08-23:17:32,10.1.1.7,29,0.070,0.070,0.070,0.000,0.000,0.000
1644362252880305920,2022-02-08-23:17:32,10.1.1.7,28,0.060,0.060,0.060,0.000,0.000,0.000
1644362252977670912,2022-02-08-23:17:32,10.1.1.7,28,0.050,0.050,0.050,0.000,0.000,0.000
1644362253078072064,2022-02-08-23:17:33,10.1.1.7,27,0.040,0.040,0.040,0.000,0.000,0.000
1644362253177817088,2022-02-08-23:17:33,10.1.1.7,27,0.030,0.030,0.030,0.000,0.000,0.000
1644362253279123968,2022-02-08-23:17:33,10.1.1.7,26,0.020,0.020,0.020,0.000,0.000,0.000
1644362253378772992,2022-02-08-23:17:33,10.1.1.7,26,0.010,0.010,0.010,0.000,0.000,0.000
1644362253477967104,2022-02-08-23:17:33,10.1.1.7,25,0.000,0.000,0.000,0.000,0.000,0.000
1644362253577882112,2022-02-08-23:17:33,10.1.1.7,24,-0.010,-0.010,-0.010,0.000,0.000,0.000
1644362253679209984,2022-02-08-23:17:33,10.1.1.7,23,-0.020,-0.020,-0.020,0.000,0.000,0.000
1644362254397597184,2022-02-08-23:17:34,10.1.1.7,35,-0.090,-0.090,-0.090,0.000,0.000,0.000
1644362254498316032,2022-02-08-23:17:34,10.1.1.7,34,-0.100,-0.100,-0.100,0.000,0.000,0.000
1644362254597498880,2022-02-08-23:17:34,10.1.1.7,34,-0.090,-0.090,-0.090,0.000,0.000,0.000
1644362254698242048,2022-02-08-23:17:34,10.1.1.7,33,-0.080,-0.080,-0.080,0.000,0.000,0.000
1644362254798019840,2022-02-08-23:17:34,10.1.1.7,33,-0.070,-0.070,-0.070,0.000,0.000,0.000
1644362254897878016,2022-02-08-23:17:34,10.1.1.7,33,-0.060,-0.060,-0.060,0.000,0.000,0.000
1644362255298412032,2022-02-08-23:17:35,10.1.1.7,28,-0.020,-0.020,-0.020,0.000,0.000,0.000
1644362255398272000,2022-02-08-23:17:35,10.1.1.7,27,-0.010,-0.010,-0.010,0.000,0.000,0.000
1644362255498248960,2022-02-08-23:17:35,10.1.1.7,26,0.000,0.000,0.000,0.000,0.000,0.000
1644362255598684160,2022-02-08-23:17:35,10.1.1.7,26,0.010,0.010,0.010,0.000,0.000,0.000
1644362255698276096,2022-02-08-23:17:35,10.1.1.7,25,0.020,0.020,0.020,0.000,0.000,0.000
1644362255800430080,2022-02-08-23:17:35,10.1.1.7,24,0.030,0.030,0.030,0.000,0.000,0.000
1644362255897989888,2022-02-08-23:17:35,10.1.1.7,23,0.040,0.040,0.040,0.000,0.000,0.000
1644362256517992960,2022-02-08-23:17:36,10.1.1.7,39,0.100,0.100,0.100,0.000,0.000,0.000
1644362256618675968,2022-02-08-23:17:36,10.1.1.7,39,0.090,0.090,0.090,0.000,0.000,0.000
1644362256718312960,2022-02-08-23:17:36,10.1.1.7,39,0.080,0.080,0.080,0.000,0.000,0.000
1644362256818278912,2022-02-08-23:17:36,10.1.1.7,38,0.070,0.070,0.070,0.000,0.000,0.000
1644362256918093056,2022-02-08-23:17:36,10.1.1.7,38,0.060,0.060,0.060,0.000,0.000,0.000
1644362257018873088,2022-02-08-23:17:37,10.1.1.7,37,0.050,0.050,0.050,0.000,0.000,0.000
1644362257120062208,2022-02-08-23:17:37,10.1.1.7,37,0.040,0.040,0.040,0.000,0.000,0.000
1644362257218857984,2022-02-08-23:17:37,10.1.1.7,36,0.030,0.030,0.030,0.000,0.000,0.000
1644362257420730112,2022-02-08-23:17:37,10.1.1.7,35,0.010,0.010,0.010,0.000,0.000,0.000
1644362257518532096,2022-02-08-23:17:37,10.1.1.7,34,0.000,0.000,0.000,0.000,0.000,0.000
1644362257620776960,2022-02-08-23:17:37,10.1.1.7,34,-0.010,-0.010,-0.010,0.000,0.000,0.000
1644362257918384128,2022-02-08-23:17:37,10.1.1.7,30,-0.040,-0.040,-0.040,0.000,0.000,0.000
1644362258018092032,2022-02-08-23:17:38,10.1.1.7,29,-0.050,-0.050,-0.050,0.000,0.000,0.000
1644362258118025984,2022-02-08-23:17:38,10.1.1.7,27,-0.060,-0.060,-0.060,0.000,0.000,0.000
1644362258217999104,2022-02-08-23:17:38,10.1.1.7,27,-0.070,-0.070,-0.070,0.000,0.000,0.000
1644362258317893888,2022-02-08-23:17:38,10.1.1.7,26,-0.080,-0.080,-0.080,0.000,0.000,0.000
1644362258418226944,2022-02-08-23:17:38,10.1.1.7,25,-0.090,-0.090,-0.090,0.000,0.000,0.000
1644362258518491904,2022-02-08-23:17:38,10.1.1.7,25,-0.100,-0.100,-0.100,0.000,0.000,0.000
1644362258618235136,2022-02-08-23:17:38,10.1.1.7,24,-0.090,-0.090,-0.090,0.000,0.000,0.000
1644362258718281984,2022-02-08-23:17:38,10.1.1.7,24,-0.080,-0.080,-0.080,0.000,0.000,0.000
1644362259237476096,2022-02-08-23:17:39,10.1.1.7,39,-0.030,-0.030,-0.030,0.000,0.000,0.000
1644362259338176000,2022-02-08-23:17:39,10.1.1.7,38,-0.020,-0.020,-0.020,0.000,0.000,0.000
1644362259438877952,2022-02-08-23:17:39,10.1.1.7,37,-0.010,-0.010,-0.010,0.000,0.000,0.000
1644362259538911232,2022-02-08-23:17:39,10.1.1.7,37,0.000,0.000,0.000,0.000,0.000,0.000
1644362259638075136,2022-02-08-23:17:39,10.1.1.7,37,0.010,0.010,0.010,0.000,0.000,0.000
1644362259738588928,2022-02-08-23:17:39,10.1.1.7,35,0.020,0.020,0.020,0.000,0.000,0.000
1644362259838088960,2022-02-08-23:17:39,10.1.1.7,35,0.030,0.030,0.030,0.000,0.000,0.000
1644362259938576896,2022-02-08-23:17:39,10.1.1.7,34,0.040,0.040,0.040,0.000,0.000,0.000
1644362260039393792,2022-02-08-23:17:40,10.1.1.7,34,0.050,0.050,0.050,0.000,0.000,0.000
1644362260139087872,2022-02-08-23:17:40,10.1.1.7,33,0.060,0.060,0.060,0.000,0.000,0.000
1644362260238651904,2022-02-08-23:17:40,10.1.1.7,33,0.070,0.070,0.070,0.000,0.000,0.000
1644362260538923008,2022-02-08-23:17:40,10.1.1.7,28,0.100,0.100,0.100,0.000,0.000,0.000
1644362260639424000,2022-02-08-23:17:40,10.1.1.7,26,0.090,0.090,0.090,0.000,0.000,0.000
1644362260738146048,2022-02-08-23:17:40,10.1.1.7,26,0.080,0.080,0.080,0.000,0.000,0.000
1644362260889210112,2022-02-08-23:17:40,10.1.1.7,25,0.070,0.070,0.070,0.000,0.000,0.000
1644362260938363136,2022-02-08-23:17:40,10.1.1.7,24,0.060,0.060,0.060,0.000,0.000,0.000
1644362261038629888,2022-02-08-23:17:41,10.1.1.7,23,0.050,0.050,0.050,0.000,0.000,0.000
1644362261137986816,2022-02-08-23:17:41,10.1.1.7,23,0.040,0.040,0.040,0.000,0.000,0.000
1644362261238342912,2022-02-08-23:17:41,10.1.1.7,22,0.030,0.030,0.030,0.000,0.000,0.000
1644362261958183168,2022-02-08-23:17:41,10.1.1.7,39,-0.040,-0.040,-0.040,0.000,0.000,0.000
1644362262058754816,2022-02-08-23:17:42,10.1.1.7,39,-0.050,-0.050,-0.050,0.000,0.000,0.000
1644362262157767936,2022-02-08-23:17:42,10.1.1.7,38,-0.060,-0.060,-0.060,0.000,0.000,0.000
1644362262258470912,2022-02-08-23:17:42,10.1.1.7,38,-0.070,-0.070,-0.070,0.000,0.000,0.000
1644362262359024128,2022-02-08-23:17:42,10.1.1.7,37,-0.080,-0.080,-0.080,0.000,0.000,0.000
1644362262457948928,2022-02-08-23:17:42,10.1.1.7,36,-0.090,-0.090,-0.090,0.000,0.000,0.000
1644362262558251008,2022-02-08-23:17:42,10.1.1.7,36,-0.100,-0.100,-0.100,0.000,0.000,0.000
1644362262658220032,2022-02-08-23:17:42,10.1.1.7,35,-0.090,-0.090,-0.090,0.000,0.000,0.000
1644362262758419968,2022-02-08-23:17:42,10.1.1.7,35,-0.080,-0.080,-0.080,0.000,0.000,0.000
1644362262858270976,2022-02-08-23:17:42,10.1.1.7,35,-0.070,-0.070,-0.070,0.000,0.000,0.000
1644362262958264064,2022-02-08-23:17:42,10.1.1.7,34,-0.060,-0.060,-0.060,0.000,0.000,0.000
1644362263058199808,2022-02-08-23:17:43,10.1.1.7,34,-0.050,-0.050,-0.050,0.000,0.000,0.000
1644362263159055104,2022-02-08-23:17:43,10.1.1.7,33,-0.040,-0.040,-0.040,0.000,0.000,0.000
1644362263258284032,2022-02-08-23:17:43,10.1.1.7,33,-0.030,-0.030,-0.030,0.000,0.000,0.000
1644362263958002944,2022-02-08-23:17:43,10.1.1.7,28,0.040,0.040,0.040,0.000,0.000,0.000
1644362264058258176,2022-02-08-23:17:44,10.1.1.7,27,0.050,0.050,0.050,0.000,0.000,0.000
1644362264158617856,2022-02-08-23:17:44,10.1.1.7,27,0.060,0.060,0.060,0.000,0.000,0.000
1644362264258393088,2022-02-08-23:17:44,10.1.1.7,26,0.070,0.070,0.070,0.000,0.000,0.000
1644362264360361984,2022-02-08-23:17:44,10.1.1.7,25,0.080,0.080,0.080,0.000,0.000,0.000
1644362264459108096,2022-02-08-23:17:44,10.1.1.7,25,0.090,0.090,0.090,0.000,0.000,0.000
1644362264557908992,2022-02-08-23:17:44,10.1.1.7,24,0.100,0.100,0.100,0.000,0.000,0.000
1644362264658242048,2022-02-08-23:17:44,10.1.1.7,24,0.090,0.090,0.090,0.000,0.000,0.000
1644362264757826048,2022-02-08-23:17:44,10.1.1.7,24,0.080,0.080,0.080,0.000,0.000,0.000
1644362264858694912,2022-02-08-23:17:44,10.1.1.7,23,0.070,0.070,0.070,0.000,0.000,0.000
1644362264957966080,2022-02-08-23:17:44,10.1.1.7,23,0.060,0.060,0.060,0.000,0.000,0.000
1644362265378718976,2022-02-08-23:17:45,10.1.1.7,39,0.020,0.020,0.020,0.000,0.000,0.000
1644362265478328832,2022-02-08-23:17:45,10.1.1.7,39,0.010,0.010,0.010,0.000,0.000,0.000
1644362265578095872,2022-02-08-23:17:45,10.1.1.7,38,0.000,0.000,0.000,0.000,0.000,0.000
1644362265678373120,2022-02-08-23:17:45,10.1.1.7,38,-0.010,-0.010,-0.010,0.000,0.000,0.000
1644362265778534912,2022-02-08-23:17:45,10.1.1.7,37,-0.020,-0.020,-0.020,0.000,0.000,0.000
1644362265877747968,2022-02-08-23:17:45,10.1.1.7,36,-0.030,-0.030,-0.030,0.000,0.000,0.000
1644362265978472960,2022-02-08-23:17:45,10.1.1.7,36,-0.040,-0.040,-0.040,0.000,0.000,0.000
1644362266078104064,2022-02-08-23:17:46,10.1.1.7,36,-0.050,-0.050,-0.050,0.000,0.000,0.000
1644362266178530816,2022-02-08-23:17:46,10.1.1.7,35,-0.060,-0.060,-0.060,0.000,0.000,0.000
1644362266278358016,2022-02-08-23:17:46,10.1.1.7,35,-0.070,-0.070,-0.070,0.000,0.000,0.000
1644362266377859072,2022-02-08-23:17:46,10.1.1.7,34,-0.080,-0.080,-0.080,0.000,0.000,0.000
1644362266478162176,2022-02-08-23:17:46,10.1.1.7,34,-0.090,-0.090,-0.090,0.000,0.000,0.000
1644362266578188032,2022-02-08-23:17:46,10.1.1.7,33,-0.100,-0.100,-0.100,0.000,0.000,0.000
1644362266678430976,2022-02-08-23:17:46,10.1.1.7,33,-0.090,-0.090,-0.090,0.000,0.000,0.000
1644362266778493952,2022-02-08-23:17:46,10.1.1.7,33,-0.080,-0.080,-0.080,0.000,0.000,0.000
1644362267378371072,2022-02-08-23:17:47,10.1.1.7,30,-0.020,-0.020,-0.020,0.000,0.000,0.000
1644362267478998016,2022-02-08-23:17:47,10.1.1.7,29,-0.010,-0.010,-0.010,0.000,0.000,0.000
1644362267578556928,2022-02-08-23:17:47,10.1.1.7,28,0.000,0.000,0.000,0.000,0.000,0.000
1644362267678520832,2022-02-08-23:17:47,10.1.1.7,27,0.010,0.010,0.010,0.000,0.000,0.000
1644362267778402048,2022-02-08-23:17:47,10.1.1.7,26,0.020,0.020,0.020,0.000,0.000,0.000
1644362267878618880,2022-02-08-23:17:47,10.1.1.7,26,0.030,0.030,0.030,0.000,0.000,0.000
1644362267978203904,2022-02-08-23:17:47,10.1.1.7,25,0.040,0.040,0.040,0.000,0.000,0.000
1644362268078772992,2022-02-08-23:17:48,10.1.1.7,25,0.050,0.050,0.050,0.000,0.000,0.000
1644362268178509824,2022-02-08-23:17:48,10.1.1.7,25,0.060,0.060,0.060,0.000,0.000,0.000
1644362268278949120,2022-02-08-23:17:48,10.1.1.7,25,0.070,0.070,0.070,0.000,0.000,0.000
1644362268378237952,2022-02-08-23:17:48,10.1.1.7,24,0.080,0.080,0.080,0.000,0.000,0.000
1644362268478557952,2022-02-08-23:17:48,10.1.1.7,23,0.090,0.090,0.090,0.000,0.000,0.000
1644362268578172928,2022-02-08-23:17:48,10.1.1.7,23,0.100,0.100,0.100,0.000,0.000,0.000
1644362268678405888,2022-02-08-23:17:48,10.1.1.7,22,0.090,0.090,0.090,0.000,0.000,0.000
1644362268978656000,2022-02-08-23:17:48,10.1.1.7,20,0.060,0.060,0.060,0.000,0.000,0.000
1644362269098993920,2022-02-08-23:17:49,10.1.1.7,39,0.050,0.050,0.050,0.000,0.000,0.000
1644362269198193152,2022-02-08-23:17:49,10.1.1.7,39,0.040,0.040,0.040,0.000,0.000,0.000
1644362269298025984,2022-02-08-23:17:49,10.1.1.7,38,0.030,0.030,0.030,0.000,0.000,0.000
1644362269398241024,2022-02-08-23:17:49,10.1.1.7,37,0.020,0.020,0.020,0.000,0.000,0.000
1644362269498671104,2022-02-08-23:17:49,10.1.1.7,37,0.010,0.010,0.010,0.000,0.000,0.000
1644362269598258944,2022-02-08-23:17:49,10.1.1.7,36,0.000,0.000,0.000,0.000,0.000,0.000
1644362269698617856,2022-02-08-23:17:49,10.1.1.7,36,-0.010,-0.010,-0.010,0.000,0.000,0.000
1644362269798213120,2022-02-08-23:17:49,10.1.1.7,35,-0.020,-0.020,-0.020,0.000,0.000,0.000
1644362269898716928,2022-02-08-23:17:49,10.1.1.7,35,-0.030,-0.030,-0.030,0.000,0.000,0.000
1644362269998606080,2022-02-08-23:17:49,10.1.1.7,34,-0.040,-0.040,-0.040,0.000,0.000,0.000
1644362270099368960,2022-02-08-23:17:50,10.1.1.7,34,-0.050,-0.050,-0.050,0.000,0.000,0.000
1644362270198299904,2022-02-08-23:17:50,10.1.1.7,33,-0.060,-0.060,-0.060,0.000,0.000,0.000
1644362270298272000,2022-02-08-23:17:50,10.1.1.7,33,-0.070,-0.070,-0.070,0.000,0.000,0.000
1644362270398447104,2022-02-08-23:17:50,10.1.1.7,33,-0.080,-0.080,-0.080,0.000,0.000,0.000
1644362270498337024,2022-02-08-23:17:50,10.1.1.7,32,-0.090,-0.090,-0.090,0.000,0.000,0.000
1644362270622247936,2022-02-08-23:17:50,10.1.1.7,27,-0.100,-0.100,-0.100,0.000,0.000,0.000
1644362270698285056,2022-02-08-23:17:50,10.1.1.7,25,-0.090,-0.090,-0.090,0.000,0.000,0.000
1644362270799195904,2022-02-08-23:17:50,10.1.1.7,25,-0.080,-0.080,-0.080,0.000,0.000,0.000
1644362270898289920,2022-02-08-23:17:50,10.1.1.7,24,-0.070,-0.070,-0.070,0.000,0.000,0.000
1644362270998486016,2022-02-08-23:17:50,10.1.1.7,24,-0.060,-0.060,-0.060,0.000,0.000,0.000
1644362271098468096,2022-02-08-23:17:51,10.1.1.7,24,-0.050,-0.050,-0.050,0.000,0.000,0.000
1644362271198424064,2022-02-08-23:17:51,10.1.1.7,23,-0.040,-0.040,-0.040,0.000,0.000,0.000
1644362271798209024,2022-02-08-23:17:51,10.1.1.7,20,0.020,0.020,0.020,0.000,0.000,0.000
1644362271918312192,2022-02-08-23:17:51,10.1.1.7,39,0.030,0.030,0.030,0.000,0.000,0.000
1644362272018382080,2022-02-08-23:17:52,10.1.1.7,39,0.040,0.040,0.040,0.000,0.000,0.000
1644362272118420992,2022-02-08-23:17:52,10.1.1.7,38,0.050,0.050,0.050,0.000,0.000,0.000
1644362272218400000,2022-02-08-23:17:52,10.1.1.7,38,0.060,0.060,0.060,0.000,0.000,0.000
1644362272318433024,2022-02-08-23:17:52,10.1.1.7,37,0.070,0.070,0.070,0.000,0.000,0.000
1644362272418759936,2022-02-08-23:17:52,10.1.1.7,37,0.080,0.080,0.080,0.000,0.000,0.000
1644362272519262976,2022-02-08-23:17:52,10.1.1.7,36,0.090,0.090,0.090,0.000,0.000,0.000
1644362272618648064,2022-02-08-23:17:52,10.1.1.7,35,0.100,0.100,0.100,0.000,0.000,0.000
1644362272718627840,2022-02-08-23:17:52,10.1.1.7,35,0.090,0.090,0.090,0.000,0.000,0.000
1644362272818577920,2022-02-08-23:17:52,10.1.1.7,35,0.080,0.080,0.080,0.000,0.000,0.000
1644362272918430976,2022-02-08-23:17:52,10.1.1.7,34,0.070,0.070,0.070,0.000,0.000,0.000
1644362273018115072,2022-02-08-23:17:53,10.1.1.7,34,0.060,0.060,0.060,0.000,0.000,0.000
1644362273118233088,2022-02-08-23:17:53,10.1.1.7,33,0.050,0.050,0.050,0.000,0.000,0.000
1644362273218363136,2022-02-08-23:17:53,10.1.1.7,32,0.040,0.040,0.040,0.000,0.000,0.000
1644362273818460928,2022-02-08-23:17:53,10.1.1.7,29,-0.020,-0.020,-0.020,0.000,0.000,0.000
1644362273919003904,2022-02-08-23:17:53,10.1.1.7,29,-0.030,-0.030,-0.030,0.000,0.000,0.000
1644362274018717952,2022-02-08-23:17:54,10.1.1.7,28,-0.040,-0.040,-0.040,0.000,0.000,0.000
1644362274118531840,2022-02-08-23:17:54,10.1.1.7,27,-0.050,-0.050,-0.050,0.000,0.000,0.000
1644362274218451968,2022-02-08-23:17:54,10.1.1.7,27,-0.060,-0.060,-0.060,0.000,0.000,0.000
1644362274318892032,2022-02-08-23:17:54,10.1.1.7,26,-0.070,-0.070,-0.070,0.000,0.000,0.000
1644362274418533120,2022-02-08-23:17:54,10.1.1.7,26,-0.080,-0.080,-0.080,0.000,0.000,0.000
1644362274518668800,2022-02-08-23:17:54,10.1.1.7,25,-0.090,-0.090,-0.090,0.000,0.000,0.000
1644362274619549952,2022-02-08-23:17:54,10.1.1.7,25,-0.100,-0.100,-0.100,0.000,0.000,0.000
1644362274718734080,2022-02-08-23:17:54,10.1.1.7,24,-0.090,-0.090,-0.090,0.000,0.000,0.000
1644362274818820864,2022-02-08-23:17:54,10.1.1.7,24,-0.080,-0.080,-0.080,0.000,0.000,0.000
1644362274919933184,2022-02-08-23:17:54,10.1.1.7,24,-0.070,-0.070,-0.070,0.000,0.000,0.000
1644362275019151872,2022-02-08-23:17:55,10.1.1.7,23,-0.060,-0.060,-0.060,0.000,0.000,0.000
1644362275118635776,2022-02-08-23:17:55,10.1.1.7,22,-0.050,-0.050,-0.050,0.000,0.000,0.000
1644362275218254080,2022-02-08-23:17:55,10.1.1.7,22,-0.040,-0.040,-0.040,0.000,0.000,0.000
1644362275538430976,2022-02-08-23:17:55,10.1.1.7,39,-0.010,-0.010,-0.010,0.000,0.000,0.000
1644362275638654976,2022-02-08-23:17:55,10.1.1.7,39,0.000,0.000,0.000,0.000,0.000,0.000
1644362275738595840,2022-02-08-23:17:55,10.1.1.7,38,0.010,0.010,0.010,0.000,0.000,0.000
1644362275838670848,2022-02-08-23:17:55,10.1.1.7,37,0.020,0.020,0.020,0.000,0.000,0.000
1644362275938770944,2022-02-08-23:17:55,10.1.1.7,37,0.030,0.030,0.030,0.000,0.000,0.000
1644362276039119872,2022-02-08-23:17:56,10.1.1.7,37,0.040,0.040,0.040,0.000,0.000,0.000
1644362276138798080,2022-02-08-23:17:56,10.1.1.7,36,0.050,0.050,0.050,0.000,0.000,0.000
1644362276238531072,2022-02-08-23:17:56,10.1.1.7,35,0.060,0.060,0.060,0.000,0.000,0.000
1644362276338473984,2022-02-08-23:17:56,10.1.1.7,35,0.070,0.070,0.070,0.000,0.000,0.000
1644362276439363840,2022-02-08-23:17:56,10.1.1.7,34,0.080,0.080,0.080,0.000,0.000,0.000
1644362276538712064,2022-02-08-23:17:56,10.1.1.7,33,0.090,0.090,0.090,0.000,0.000,0.000
1644362276638683136,2022-02-08-23:17:56,10.1.1.7,33,0.100,0.100,0.100,0.000,0.000,0.000
1644362276738411776,2022-02-08-23:17:56,10.1.1.7,32,0.090,0.090,0.090,0.000,0.000,0.000
1644362277338484992,2022-02-08-23:17:57,10.1.1.7,29,0.030,0.030,0.030,0.000,0.000,0.000
1644362277438620928,2022-02-08-23:17:57,10.1.1.7,28,0.020,0.020,0.020,0.000,0.000,0.000
1644362277538918912,2022-02-08-23:17:57,10.1.1.7,27,0.010,0.010,0.010,0.000,0.000,0.000
1644362277638648064,2022-02-08-23:17:57,10.1.1.7,26,0.000,0.000,0.000,0.000,0.000,0.000
1644362277738654976,2022-02-08-23:17:57,10.1.1.7,26,-0.010,-0.010,-0.010,0.000,0.000,0.000
1644362277838579968,2022-02-08-23:17:57,10.1.1.7,25,-0.020,-0.020,-0.020,0.000,0.000,0.000
1644362277938491136,2022-02-08-23:17:57,10.1.1.7,25,-0.030,-0.030,-0.030,0.000,0.000,0.000
1644362278038683904,2022-02-08-23:17:58,10.1.1.7,24,-0.040,-0.040,-0.040,0.000,0.000,0.000
1644362278139102976,2022-02-08-23:17:58,10.1.1.7,23,-0.050,-0.050,-0.050,0.000,0.000,0.000
1644362278238606848,2022-02-08-23:17:58,10.1.1.7,23,-0.060,-0.060,-0.060,0.000,0.000,0.000
1644362278338775040,2022-02-08-23:17:58,10.1.1.7,23,-0.070,-0.070,-0.070,0.000,0.000,0.000
1644362278442820096,2022-02-08-23:17:58,10.1.1.7,22,-0.080,-0.080,-0.080,0.000,0.000,0.000
1644362278818969088,2022-02-08-23:17:58,10.1.1.7,0,-0.080,-0.080,-0.080,0.000,0.000,0.000
1644362278958587904,2022-02-08-23:17:58,10.1.1.7,39,-0.070,-0.070,-0.070,0.000,0.000,0.000
1644362279058938112,2022-02-08-23:17:59,10.1.1.7,39,-0.060,-0.060,-0.060,0.000,0.000,0.000
1644362279159302912,2022-02-08-23:17:59,10.1.1.7,39,-0.050,-0.050,-0.050,0.000,0.000,0.000
1644362279258491136,2022-02-08-23:17:59,10.1.1.7,38,-0.040,-0.040,-0.040,0.000,0.000,0.000
1644362279358715904,2022-02-08-23:17:59,10.1.1.7,37,-0.030,-0.030,-0.030,0.000,0.000,0.000
1644362279458315008,2022-02-08-23:17:59,10.1.1.7,36,-0.020,-0.020,-0.020,0.000,0.000,0.000
1644362279558865152,2022-02-08-23:17:59,10.1.1.7,36,-0.010,-0.010,-0.010,0.000,0.000,0.000
1644362279658556928,2022-02-08-23:17:59,10.1.1.7,35,0.000,0.000,0.000,0.000,0.000,0.000
1644362279758908160,2022-02-08-23:17:59,10.1.1.7,35,0.010,0.010,0.010,0.000,0.000,0.000
1644362279858660864,2022-02-08-23:17:59,10.1.1.7,34,0.020,0.020,0.020,0.000,0.000,0.000
1644362279958877184,2022-02-08-23:17:59,10.1.1.7,34,0.030,0.030,0.030,0.000,0.000,0.000
1644362280058471936,2022-02-08-23:18:00,10.1.1.7,34,0.040,0.040,0.040,0.000,0.000,0.000
1644362280158656000,2022-02-08-23:18:00,10.1.1.7,33,0.050,0.050,0.050,0.000,0.000,0.000
1644362280258554880,2022-02-08-23:18:00,10.1.1.7,33,0.060,0.060,0.060,0.000,0.000,0.000
1644362280358993152,2022-02-08-23:18:00,10.1.1.7,33,0.070,0.070,0.070,0.000,0.000,0.000
1644362280458936064,2022-02-08-23:18:00,10.1.1.7,33,0.080,0.080,0.080,0.000,0.000,0.000
1644362280558609920,2022-02-08-23:18:00,10.1.1.7,32,0.090,0.090,0.090,0.000,0.000,0.000
1644362280738472960,2022-02-08-23:18:00,10.1.1.7,11,0.090,0.090,0.090,0.000,0.000,0.000
1644362281058942976,2022-02-08-23:18:01,10.1.1.7,29,0.060,0.060,0.060,0.000,0.000,0.000
1644362281159073024,2022-02-08-23:18:01,10.1.1.7,29,0.050,0.050,0.050,0.000,0.000,0.000
1644362281258543104,2022-02-08-23:18:01,10.1.1.7,28,0.040,0.040,0.040,0.000,0.000,0.000
1644362281358576896,2022-02-08-23:18:01,10.1.1.7,28,0.030,0.030,0.030,0.000,0.000,0.000
