FedericoMungari/DigitalTwin_service/01_WiredScenario/Output/Output_script/script_rosapi_2_output_robots2_freq0_2.txt
timestamp,date,node,latency,joint_1,joint_2,joint_3,joint_4,joint_5,joint_6
1643253836629474048,2022-01-27-03:23:56,10.1.1.3,18,-0.010,-0.010,-0.010,0.000,0.000,0.000
1643253836830020864,2022-01-27-03:23:56,10.1.1.3,16,-0.020,-0.020,-0.020,0.000,0.000,0.000
1643253837028740864,2022-01-27-03:23:57,10.1.1.3,13,-0.030,-0.030,-0.030,0.000,0.000,0.000
1643253837248584960,2022-01-27-03:23:57,10.1.1.3,33,-0.041,-0.041,-0.041,0.000,0.000,0.000
1643253837448889856,2022-01-27-03:23:57,10.1.1.3,32,-0.051,-0.051,-0.051,0.000,0.000,0.000
1643253837649598976,2022-01-27-03:23:57,10.1.1.3,31,-0.061,-0.061,-0.061,0.000,0.000,0.000
1643253837849229056,2022-01-27-03:23:57,10.1.1.3,30,-0.071,-0.071,-0.071,0.000,0.000,0.000
1643253838049534976,2022-01-27-03:23:58,10.1.1.3,29,-0.081,-0.081,-0.081,0.000,0.000,0.000
1643253838249275904,2022-01-27-03:23:58,10.1.1.3,28,-0.091,-0.091,-0.091,0.000,0.000,0.000
1643253838449254912,2022-01-27-03:23:58,10.1.1.3,27,-0.101,-0.101,-0.101,0.000,0.000,0.000
1643253838649029888,2022-01-27-03:23:58,10.1.1.3,25,-0.111,-0.111,-0.111,0.000,0.000,0.000
1643253838849210112,2022-01-27-03:23:58,10.1.1.3,24,-0.121,-0.121,-0.121,0.000,0.000,0.000
1643253839049917952,2022-01-27-03:23:59,10.1.1.3,22,-0.130,-0.130,-0.130,0.000,0.000,0.000
1643253839248868096,2022-01-27-03:23:59,10.1.1.3,18,-0.140,-0.140,-0.140,0.000,0.000,0.000
1643253839449445120,2022-01-27-03:23:59,10.1.1.3,18,-0.150,-0.150,-0.150,0.000,0.000,0.000
1643253839664143104,2022-01-27-03:23:59,10.1.1.3,31,-0.160,-0.160,-0.160,0.000,0.000,0.000
1643253839869208064,2022-01-27-03:23:59,10.1.1.3,36,-0.171,-0.171,-0.171,0.000,0.000,0.000
1643253840048830976,2022-01-27-03:24:00,10.1.1.3,15,-0.180,-0.180,-0.180,0.000,0.000,0.000
1643253840260965120,2022-01-27-03:24:00,10.1.1.3,25,-0.190,-0.190,-0.190,0.000,0.000,0.000
1643253840469239040,2022-01-27-03:24:00,10.1.1.3,32,-0.201,-0.201,-0.201,0.000,0.000,0.000
1643253840669549824,2022-01-27-03:24:00,10.1.1.3,31,-0.211,-0.211,-0.211,0.000,0.000,0.000
1643253840870356992,2022-01-27-03:24:00,10.1.1.3,30,-0.220,-0.220,-0.220,0.000,0.000,0.000
1643253841069191936,2022-01-27-03:24:01,10.1.1.3,28,-0.231,-0.231,-0.231,0.000,0.000,0.000
1643253841276573952,2022-01-27-03:24:01,10.1.1.3,34,-0.241,-0.241,-0.241,0.000,0.000,0.000
1643253841469121024,2022-01-27-03:24:01,10.1.1.3,26,-0.251,-0.251,-0.251,0.000,0.000,0.000
1643253841669437952,2022-01-27-03:24:01,10.1.1.3,25,-0.260,-0.260,-0.260,0.000,0.000,0.000
1643253841906653952,2022-01-27-03:24:01,10.1.1.3,59,-0.270,-0.270,-0.270,0.000,0.000,0.000
1643253842091365120,2022-01-27-03:24:02,10.1.1.3,43,-0.281,-0.281,-0.281,0.000,0.000,0.000
1643253842291857920,2022-01-27-03:24:02,10.1.1.3,43,-0.291,-0.291,-0.291,0.000,0.000,0.000
1643253842490524160,2022-01-27-03:24:02,10.1.1.3,41,-0.301,-0.301,-0.301,0.000,0.000,0.000
1643253842670371072,2022-01-27-03:24:02,10.1.1.3,17,-0.310,-0.310,-0.310,0.000,0.000,0.000
1643253842870338048,2022-01-27-03:24:02,10.1.1.3,16,-0.320,-0.320,-0.320,0.000,0.000,0.000
1643253843070638848,2022-01-27-03:24:03,10.1.1.3,16,-0.330,-0.330,-0.330,0.000,0.000,0.000
1643253843290080000,2022-01-27-03:24:03,10.1.1.3,33,-0.341,-0.341,-0.341,0.000,0.000,0.000
1643253843489968128,2022-01-27-03:24:03,10.1.1.3,32,-0.351,-0.351,-0.351,0.000,0.000,0.000
1643253843689959168,2022-01-27-03:24:03,10.1.1.3,31,-0.361,-0.361,-0.361,0.000,0.000,0.000
1643253843890208000,2022-01-27-03:24:03,10.1.1.3,31,-0.371,-0.371,-0.371,0.000,0.000,0.000
1643253844089641216,2022-01-27-03:24:04,10.1.1.3,29,-0.381,-0.381,-0.381,0.000,0.000,0.000
1643253844290118912,2022-01-27-03:24:04,10.1.1.3,28,-0.391,-0.391,-0.391,0.000,0.000,0.000
1643253844490690048,2022-01-27-03:24:04,10.1.1.3,29,-0.401,-0.401,-0.401,0.000,0.000,0.000
1643253844691351808,2022-01-27-03:24:04,10.1.1.3,24,-0.410,-0.410,-0.410,0.000,0.000,0.000
1643253844890700032,2022-01-27-03:24:04,10.1.1.3,23,-0.420,-0.420,-0.420,0.000,0.000,0.000
1643253845090706944,2022-01-27-03:24:05,10.1.1.3,22,-0.430,-0.430,-0.430,0.000,0.000,0.000
1643253845290384896,2022-01-27-03:24:05,10.1.1.3,20,-0.440,-0.440,-0.440,0.000,0.000,0.000
1643253845490001920,2022-01-27-03:24:05,10.1.1.3,19,-0.450,-0.450,-0.450,0.000,0.000,0.000
1643253845710889216,2022-01-27-03:24:05,10.1.1.3,39,-0.461,-0.461,-0.461,0.000,0.000,0.000
1643253845889368064,2022-01-27-03:24:05,10.1.1.3,16,-0.470,-0.470,-0.470,0.000,0.000,0.000
1643253846110987008,2022-01-27-03:24:06,10.1.1.3,38,-0.481,-0.481,-0.481,0.000,0.000,0.000
1643253846291691008,2022-01-27-03:24:06,10.1.1.3,17,-0.490,-0.490,-0.490,0.000,0.000,0.000
1643253846490191872,2022-01-27-03:24:06,10.1.1.3,15,-0.480,-0.480,-0.480,0.000,0.000,0.000
1643253846711666176,2022-01-27-03:24:06,10.1.1.3,35,-0.469,-0.469,-0.469,0.000,0.000,0.000
1643253846919558912,2022-01-27-03:24:06,10.1.1.3,40,-0.459,-0.459,-0.459,0.000,0.000,0.000
1643253847109507072,2022-01-27-03:24:07,10.1.1.3,30,-0.449,-0.449,-0.449,0.000,0.000,0.000
1643253847310124032,2022-01-27-03:24:07,10.1.1.3,29,-0.439,-0.439,-0.439,0.000,0.000,0.000
1643253847509785856,2022-01-27-03:24:07,10.1.1.3,28,-0.429,-0.429,-0.429,0.000,0.000,0.000
1643253847710045952,2022-01-27-03:24:07,10.1.1.3,27,-0.419,-0.419,-0.419,0.000,0.000,0.000
1643253847910636800,2022-01-27-03:24:07,10.1.1.3,27,-0.409,-0.409,-0.409,0.000,0.000,0.000
1643253848109807872,2022-01-27-03:24:08,10.1.1.3,23,-0.400,-0.400,-0.400,0.000,0.000,0.000
1643253848330763008,2022-01-27-03:24:08,10.1.1.3,40,-0.389,-0.389,-0.389,0.000,0.000,0.000
1643253848510215936,2022-01-27-03:24:08,10.1.1.3,18,-0.380,-0.380,-0.380,0.000,0.000,0.000
1643253848709763072,2022-01-27-03:24:08,10.1.1.3,17,-0.370,-0.370,-0.370,0.000,0.000,0.000
1643253848910281984,2022-01-27-03:24:08,10.1.1.3,17,-0.360,-0.360,-0.360,0.000,0.000,0.000
1643253849129803776,2022-01-27-03:24:09,10.1.1.3,35,-0.350,-0.350,-0.350,0.000,0.000,0.000
1643253849329543168,2022-01-27-03:24:09,10.1.1.3,34,-0.339,-0.339,-0.339,0.000,0.000,0.000
1643253849530534912,2022-01-27-03:24:09,10.1.1.3,34,-0.329,-0.329,-0.329,0.000,0.000,0.000
1643253849730221056,2022-01-27-03:24:09,10.1.1.3,32,-0.319,-0.319,-0.319,0.000,0.000,0.000
1643253849930532096,2022-01-27-03:24:09,10.1.1.3,31,-0.309,-0.309,-0.309,0.000,0.000,0.000
1643253850130193920,2022-01-27-03:24:10,10.1.1.3,30,-0.299,-0.299,-0.299,0.000,0.000,0.000
1643253850331113216,2022-01-27-03:24:10,10.1.1.3,29,-0.289,-0.289,-0.289,0.000,0.000,0.000
1643253850529817088,2022-01-27-03:24:10,10.1.1.3,28,-0.279,-0.279,-0.279,0.000,0.000,0.000
1643253850730525952,2022-01-27-03:24:10,10.1.1.3,27,-0.269,-0.269,-0.269,0.000,0.000,0.000
1643253850930402048,2022-01-27-03:24:10,10.1.1.3,26,-0.260,-0.260,-0.260,0.000,0.000,0.000
1643253851130270976,2022-01-27-03:24:11,10.1.1.3,25,-0.249,-0.249,-0.249,0.000,0.000,0.000
1643253851329998080,2022-01-27-03:24:11,10.1.1.3,23,-0.240,-0.240,-0.240,0.000,0.000,0.000
1643253851550419200,2022-01-27-03:24:11,10.1.1.3,43,-0.229,-0.229,-0.229,0.000,0.000,0.000
1643253851750486016,2022-01-27-03:24:11,10.1.1.3,41,-0.219,-0.219,-0.219,0.000,0.000,0.000
1643253851930396160,2022-01-27-03:24:11,10.1.1.3,20,-0.210,-0.210,-0.210,0.000,0.000,0.000
1643253852151652096,2022-01-27-03:24:12,10.1.1.3,40,-0.199,-0.199,-0.199,0.000,0.000,0.000
1643253852351557888,2022-01-27-03:24:12,10.1.1.3,39,-0.189,-0.189,-0.189,0.000,0.000,0.000
1643253852550782976,2022-01-27-03:24:12,10.1.1.3,37,-0.179,-0.179,-0.179,0.000,0.000,0.000
1643253852730529024,2022-01-27-03:24:12,10.1.1.3,16,-0.170,-0.170,-0.170,0.000,0.000,0.000
1643253852950028800,2022-01-27-03:24:12,10.1.1.3,33,-0.159,-0.159,-0.159,0.000,0.000,0.000
1643253853150482944,2022-01-27-03:24:13,10.1.1.3,33,-0.149,-0.149,-0.149,0.000,0.000,0.000
1643253853349479936,2022-01-27-03:24:13,10.1.1.3,31,-0.139,-0.139,-0.139,0.000,0.000,0.000
1643253853550868992,2022-01-27-03:24:13,10.1.1.3,30,-0.129,-0.129,-0.129,0.000,0.000,0.000
1643253853750526976,2022-01-27-03:24:13,10.1.1.3,29,-0.120,-0.120,-0.120,0.000,0.000,0.000
1643253853950473984,2022-01-27-03:24:13,10.1.1.3,27,-0.109,-0.109,-0.109,0.000,0.000,0.000
1643253854165646080,2022-01-27-03:24:14,10.1.1.3,41,-0.100,-0.100,-0.100,0.000,0.000,0.000
1643253854354438144,2022-01-27-03:24:14,10.1.1.3,28,-0.090,-0.090,-0.090,0.000,0.000,0.000
1643253854549815040,2022-01-27-03:24:14,10.1.1.3,22,-0.080,-0.080,-0.080,0.000,0.000,0.000
1643253854748909056,2022-01-27-03:24:14,10.1.1.3,21,-0.070,-0.070,-0.070,0.000,0.000,0.000
1643253854949736960,2022-01-27-03:24:14,10.1.1.3,20,-0.060,-0.060,-0.060,0.000,0.000,0.000
1643253855146972928,2022-01-27-03:24:15,10.1.1.3,17,-0.050,-0.050,-0.050,0.000,0.000,0.000
1643253855356694016,2022-01-27-03:24:15,10.1.1.3,25,-0.040,-0.040,-0.040,0.000,0.000,0.000
1643253855579032832,2022-01-27-03:24:15,10.1.1.3,46,-0.029,-0.029,-0.029,0.000,0.000,0.000
1643253855734957056,2022-01-27-03:24:15,10.1.1.3,-1,-0.021,-0.021,-0.021,0.000,0.000,0.000
1643253855952691200,2022-01-27-03:24:15,10.1.1.3,18,-0.010,-0.010,-0.010,0.000,0.000,0.000
1643253856172861952,2022-01-27-03:24:16,10.1.1.3,37,-0.001,-0.001,-0.001,0.000,0.000,0.000
1643253856354998016,2022-01-27-03:24:16,10.1.1.3,19,-0.010,-0.010,-0.010,0.000,0.000,0.000
1643253856575937024,2022-01-27-03:24:16,10.1.1.3,39,-0.021,-0.021,-0.021,0.000,0.000,0.000
1643253856775332096,2022-01-27-03:24:16,10.1.1.3,37,-0.031,-0.031,-0.031,0.000,0.000,0.000
1643253856976116992,2022-01-27-03:24:16,10.1.1.3,37,-0.041,-0.041,-0.041,0.000,0.000,0.000
1643253857175332096,2022-01-27-03:24:17,10.1.1.3,34,-0.051,-0.051,-0.051,0.000,0.000,0.000
1643253857375272960,2022-01-27-03:24:17,10.1.1.3,33,-0.061,-0.061,-0.061,0.000,0.000,0.000
1643253857576481024,2022-01-27-03:24:17,10.1.1.3,33,-0.071,-0.071,-0.071,0.000,0.000,0.000
1643253857775718912,2022-01-27-03:24:17,10.1.1.3,32,-0.081,-0.081,-0.081,0.000,0.000,0.000
1643253857975513088,2022-01-27-03:24:17,10.1.1.3,30,-0.091,-0.091,-0.091,0.000,0.000,0.000
1643253858176539904,2022-01-27-03:24:18,10.1.1.3,30,-0.101,-0.101,-0.101,0.000,0.000,0.000
1643253858379284992,2022-01-27-03:24:18,10.1.1.3,30,-0.111,-0.111,-0.111,0.000,0.000,0.000
1643253858579240192,2022-01-27-03:24:18,10.1.1.3,28,-0.121,-0.121,-0.121,0.000,0.000,0.000
1643253858778248192,2022-01-27-03:24:18,10.1.1.3,26,-0.131,-0.131,-0.131,0.000,0.000,0.000
1643253858977200128,2022-01-27-03:24:18,10.1.1.3,24,-0.141,-0.141,-0.141,0.000,0.000,0.000
1643253859178724096,2022-01-27-03:24:19,10.1.1.3,25,-0.151,-0.151,-0.151,0.000,0.000,0.000
1643253859398354176,2022-01-27-03:24:19,10.1.1.3,43,-0.161,-0.161,-0.161,0.000,0.000,0.000
1643253859578857984,2022-01-27-03:24:19,10.1.1.3,23,-0.170,-0.170,-0.170,0.000,0.000,0.000
1643253859783052800,2022-01-27-03:24:19,10.1.1.3,26,-0.180,-0.180,-0.180,0.000,0.000,0.000
1643253859979772160,2022-01-27-03:24:19,10.1.1.3,21,-0.190,-0.190,-0.190,0.000,0.000,0.000
1643253860198594048,2022-01-27-03:24:20,10.1.1.3,38,-0.201,-0.201,-0.201,0.000,0.000,0.000
1643253860399132928,2022-01-27-03:24:20,10.1.1.3,35,-0.210,-0.210,-0.210,0.000,0.000,0.000
1643253860599576832,2022-01-27-03:24:20,10.1.1.3,33,-0.221,-0.221,-0.221,0.000,0.000,0.000
1643253860798906112,2022-01-27-03:24:20,10.1.1.3,31,-0.231,-0.231,-0.231,0.000,0.000,0.000
1643253861019470848,2022-01-27-03:24:21,10.1.1.3,50,-0.241,-0.241,-0.241,0.000,0.000,0.000
1643253861198390016,2022-01-27-03:24:21,10.1.1.3,29,-0.251,-0.251,-0.251,0.000,0.000,0.000
1643253861398458880,2022-01-27-03:24:21,10.1.1.3,28,-0.260,-0.260,-0.260,0.000,0.000,0.000
1643253861598670080,2022-01-27-03:24:21,10.1.1.3,27,-0.271,-0.271,-0.271,0.000,0.000,0.000
1643253861817987072,2022-01-27-03:24:21,10.1.1.3,45,-0.281,-0.281,-0.281,0.000,0.000,0.000
1643253861998727168,2022-01-27-03:24:21,10.1.1.3,26,-0.290,-0.290,-0.290,0.000,0.000,0.000
1643253862218262784,2022-01-27-03:24:22,10.1.1.3,43,-0.301,-0.301,-0.301,0.000,0.000,0.000
1643253862398007040,2022-01-27-03:24:22,10.1.1.3,22,-0.310,-0.310,-0.310,0.000,0.000,0.000
1643253862606915072,2022-01-27-03:24:22,10.1.1.3,31,-0.320,-0.320,-0.320,0.000,0.000,0.000
1643253862797820928,2022-01-27-03:24:22,10.1.1.3,21,-0.330,-0.330,-0.330,0.000,0.000,0.000
1643253862997758976,2022-01-27-03:24:22,10.1.1.3,18,-0.340,-0.340,-0.340,0.000,0.000,0.000
1643253863216847872,2022-01-27-03:24:23,10.1.1.3,36,-0.351,-0.351,-0.351,0.000,0.000,0.000
1643253863418683136,2022-01-27-03:24:23,10.1.1.3,37,-0.361,-0.361,-0.361,0.000,0.000,0.000
1643253863617319168,2022-01-27-03:24:23,10.1.1.3,35,-0.371,-0.371,-0.371,0.000,0.000,0.000
1643253863798643968,2022-01-27-03:24:23,10.1.1.3,16,-0.380,-0.380,-0.380,0.000,0.000,0.000
1643253863997586944,2022-01-27-03:24:23,10.1.1.3,14,-0.390,-0.390,-0.390,0.000,0.000,0.000
1643253864217950208,2022-01-27-03:24:24,10.1.1.3,32,-0.400,-0.400,-0.400,0.000,0.000,0.000
1643253864418694144,2022-01-27-03:24:24,10.1.1.3,32,-0.411,-0.411,-0.411,0.000,0.000,0.000
1643253864629498112,2022-01-27-03:24:24,10.1.1.3,42,-0.421,-0.421,-0.421,0.000,0.000,0.000
1643253864818497792,2022-01-27-03:24:24,10.1.1.3,29,-0.431,-0.431,-0.431,0.000,0.000,0.000
1643253865017211904,2022-01-27-03:24:25,10.1.1.3,26,-0.441,-0.441,-0.441,0.000,0.000,0.000
1643253865227401984,2022-01-27-03:24:25,10.1.1.3,35,-0.451,-0.451,-0.451,0.000,0.000,0.000
1643253865418803968,2022-01-27-03:24:25,10.1.1.3,25,-0.460,-0.460,-0.460,0.000,0.000,0.000
1643253865628665856,2022-01-27-03:24:25,10.1.1.3,33,-0.471,-0.471,-0.471,0.000,0.000,0.000
1643253865837729024,2022-01-27-03:24:25,10.1.1.3,38,-0.481,-0.481,-0.481,0.000,0.000,0.000
1643253866017704960,2022-01-27-03:24:26,10.1.1.3,16,-0.490,-0.490,-0.490,0.000,0.000,0.000
1643253866232197120,2022-01-27-03:24:26,10.1.1.3,30,-0.479,-0.479,-0.479,0.000,0.000,0.000
1643253866431535872,2022-01-27-03:24:26,10.1.1.3,28,-0.469,-0.469,-0.469,0.000,0.000,0.000
1643253866631352064,2022-01-27-03:24:26,10.1.1.3,26,-0.459,-0.459,-0.459,0.000,0.000,0.000
1643253866832196864,2022-01-27-03:24:26,10.1.1.3,25,-0.449,-0.449,-0.449,0.000,0.000,0.000
1643253867033562880,2022-01-27-03:24:27,10.1.1.3,25,-0.440,-0.440,-0.440,0.000,0.000,0.000
1643253867251815936,2022-01-27-03:24:27,10.1.1.3,41,-0.429,-0.429,-0.429,0.000,0.000,0.000
1643253867412460032,2022-01-27-03:24:27,10.1.1.3,-1,-0.421,-0.421,-0.421,0.000,0.000,0.000
1643253867651779840,2022-01-27-03:24:27,10.1.1.3,38,-0.409,-0.409,-0.409,0.000,0.000,0.000
1643253867831801856,2022-01-27-03:24:27,10.1.1.3,18,-0.400,-0.400,-0.400,0.000,0.000,0.000
1643253868059804928,2022-01-27-03:24:28,10.1.1.3,41,-0.389,-0.389,-0.389,0.000,0.000,0.000
1643253868251398144,2022-01-27-03:24:28,10.1.1.3,31,-0.379,-0.379,-0.379,0.000,0.000,0.000
1643253868452482048,2022-01-27-03:24:28,10.1.1.3,30,-0.369,-0.369,-0.369,0.000,0.000,0.000
1643253868671195904,2022-01-27-03:24:28,10.1.1.3,44,-0.360,-0.360,-0.360,0.000,0.000,0.000
1643253868852483072,2022-01-27-03:24:28,10.1.1.3,25,-0.350,-0.350,-0.350,0.000,0.000,0.000
1643253869051521024,2022-01-27-03:24:29,10.1.1.3,23,-0.340,-0.340,-0.340,0.000,0.000,0.000
1643253869232883968,2022-01-27-03:24:29,10.1.1.3,-1,-0.331,-0.331,-0.331,0.000,0.000,0.000
1643253869451472128,2022-01-27-03:24:29,10.1.1.3,18,-0.320,-0.320,-0.320,0.000,0.000,0.000
1643253869652002048,2022-01-27-03:24:29,10.1.1.3,17,-0.310,-0.310,-0.310,0.000,0.000,0.000
1643253869852292096,2022-01-27-03:24:29,10.1.1.3,16,-0.300,-0.300,-0.300,0.000,0.000,0.000
1643253870050950144,2022-01-27-03:24:30,10.1.1.3,14,-0.290,-0.290,-0.290,0.000,0.000,0.000
1643253870271878912,2022-01-27-03:24:30,10.1.1.3,34,-0.279,-0.279,-0.279,0.000,0.000,0.000
1643253870471143936,2022-01-27-03:24:30,10.1.1.3,32,-0.269,-0.269,-0.269,0.000,0.000,0.000
1643253870671955968,2022-01-27-03:24:30,10.1.1.3,32,-0.259,-0.259,-0.259,0.000,0.000,0.000
1643253870880579840,2022-01-27-03:24:30,10.1.1.3,40,-0.250,-0.250,-0.250,0.000,0.000,0.000
1643253871071186944,2022-01-27-03:24:31,10.1.1.3,29,-0.239,-0.239,-0.239,0.000,0.000,0.000
1643253871271804928,2022-01-27-03:24:31,10.1.1.3,29,-0.229,-0.229,-0.229,0.000,0.000,0.000
1643253871471292928,2022-01-27-03:24:31,10.1.1.3,27,-0.219,-0.219,-0.219,0.000,0.000,0.000
1643253871671689984,2022-01-27-03:24:31,10.1.1.3,27,-0.209,-0.209,-0.209,0.000,0.000,0.000
1643253871872153088,2022-01-27-03:24:31,10.1.1.3,27,-0.199,-0.199,-0.199,0.000,0.000,0.000
1643253872072175104,2022-01-27-03:24:32,10.1.1.3,25,-0.189,-0.189,-0.189,0.000,0.000,0.000
1643253872273569024,2022-01-27-03:24:32,10.1.1.3,25,-0.179,-0.179,-0.179,0.000,0.000,0.000
1643253872472919040,2022-01-27-03:24:32,10.1.1.3,23,-0.170,-0.170,-0.170,0.000,0.000,0.000
1643253872692058112,2022-01-27-03:24:32,10.1.1.3,41,-0.159,-0.159,-0.159,0.000,0.000,0.000
1643253872871843072,2022-01-27-03:24:32,10.1.1.3,20,-0.150,-0.150,-0.150,0.000,0.000,0.000
1643253873092308992,2022-01-27-03:24:33,10.1.1.3,38,-0.139,-0.139,-0.139,0.000,0.000,0.000
1643253873271470080,2022-01-27-03:24:33,10.1.1.3,17,-0.130,-0.130,-0.130,0.000,0.000,0.000
1643253873472288000,2022-01-27-03:24:33,10.1.1.3,17,-0.120,-0.120,-0.120,0.000,0.000,0.000
1643253873672429056,2022-01-27-03:24:33,10.1.1.3,16,-0.110,-0.110,-0.110,0.000,0.000,0.000
1643253873873367040,2022-01-27-03:24:33,10.1.1.3,16,-0.100,-0.100,-0.100,0.000,0.000,0.000
1643253874089287168,2022-01-27-03:24:34,10.1.1.3,31,-0.089,-0.089,-0.089,0.000,0.000,0.000
1643253874288271872,2022-01-27-03:24:34,10.1.1.3,29,-0.079,-0.079,-0.079,0.000,0.000,0.000
1643253874488744960,2022-01-27-03:24:34,10.1.1.3,29,-0.069,-0.069,-0.069,0.000,0.000,0.000
1643253874689760000,2022-01-27-03:24:34,10.1.1.3,29,-0.059,-0.059,-0.059,0.000,0.000,0.000
1643253874888838912,2022-01-27-03:24:34,10.1.1.3,27,-0.049,-0.049,-0.049,0.000,0.000,0.000
1643253875089186816,2022-01-27-03:24:35,10.1.1.3,26,-0.039,-0.039,-0.039,0.000,0.000,0.000
1643253875289006848,2022-01-27-03:24:35,10.1.1.3,24,-0.030,-0.030,-0.030,0.000,0.000,0.000
1643253875508295936,2022-01-27-03:24:35,10.1.1.3,42,-0.019,-0.019,-0.019,0.000,0.000,0.000
1643253875708497152,2022-01-27-03:24:35,10.1.1.3,42,-0.009,-0.009,-0.009,0.000,0.000,0.000
1643253875870249984,2022-01-27-03:24:35,10.1.1.3,2,-0.001,-0.001,-0.001,0.000,0.000,0.000
1643253876115830784,2022-01-27-03:24:36,10.1.1.3,46,-0.011,-0.011,-0.011,0.000,0.000,0.000
1643253876288728064,2022-01-27-03:24:36,10.1.1.3,18,-0.020,-0.020,-0.020,0.000,0.000,0.000
1643253876489227008,2022-01-27-03:24:36,10.1.1.3,17,-0.030,-0.030,-0.030,0.000,0.000,0.000
1643253876688442112,2022-01-27-03:24:36,10.1.1.3,15,-0.040,-0.040,-0.040,0.000,0.000,0.000
1643253876921981184,2022-01-27-03:24:36,10.1.1.3,47,-0.050,-0.050,-0.050,0.000,0.000,0.000
1643253877091130880,2022-01-27-03:24:37,10.1.1.3,15,-0.060,-0.060,-0.060,0.000,0.000,0.000
1643253877290829824,2022-01-27-03:24:37,10.1.1.3,14,-0.070,-0.070,-0.070,0.000,0.000,0.000
1643253877493082880,2022-01-27-03:24:37,10.1.1.3,15,-0.080,-0.080,-0.080,0.000,0.000,0.000
1643253877713062144,2022-01-27-03:24:37,10.1.1.3,33,-0.091,-0.091,-0.091,0.000,0.000,0.000
1643253877888104960,2022-01-27-03:24:37,10.1.1.3,5,-0.100,-0.100,-0.100,0.000,0.000,0.000
1643253878110445056,2022-01-27-03:24:38,10.1.1.3,26,-0.110,-0.110,-0.110,0.000,0.000,0.000
1643253878309586176,2022-01-27-03:24:38,10.1.1.3,21,-0.120,-0.120,-0.120,0.000,0.000,0.000
1643253878508986880,2022-01-27-03:24:38,10.1.1.3,19,-0.130,-0.130,-0.130,0.000,0.000,0.000
1643253878709615872,2022-01-27-03:24:38,10.1.1.3,16,-0.140,-0.140,-0.140,0.000,0.000,0.000
1643253878933789952,2022-01-27-03:24:38,10.1.1.3,36,-0.151,-0.151,-0.151,0.000,0.000,0.000
1643253879134159104,2022-01-27-03:24:39,10.1.1.3,35,-0.160,-0.160,-0.160,0.000,0.000,0.000
1643253879353270016,2022-01-27-03:24:39,10.1.1.3,54,-0.172,-0.172,-0.172,0.000,0.000,0.000
1643253879532905984,2022-01-27-03:24:39,10.1.1.3,32,-0.181,-0.181,-0.181,0.000,0.000,0.000
1643253879733568000,2022-01-27-03:24:39,10.1.1.3,32,-0.191,-0.191,-0.191,0.000,0.000,0.000
1643253879932236032,2022-01-27-03:24:39,10.1.1.3,30,-0.201,-0.201,-0.201,0.000,0.000,0.000
1643253880132926976,2022-01-27-03:24:40,10.1.1.3,29,-0.211,-0.211,-0.211,0.000,0.000,0.000
1643253880339021056,2022-01-27-03:24:40,10.1.1.3,33,-0.221,-0.221,-0.221,0.000,0.000,0.000
1643253880537204992,2022-01-27-03:24:40,10.1.1.3,32,-0.231,-0.231,-0.231,0.000,0.000,0.000
1643253880733829120,2022-01-27-03:24:40,10.1.1.3,27,-0.240,-0.240,-0.240,0.000,0.000,0.000
1643253880928355840,2022-01-27-03:24:40,10.1.1.3,20,-0.250,-0.250,-0.250,0.000,0.000,0.000
1643253881137394944,2022-01-27-03:24:41,10.1.1.3,29,-0.260,-0.260,-0.260,0.000,0.000,0.000
1643253881338042880,2022-01-27-03:24:41,10.1.1.3,27,-0.271,-0.271,-0.271,0.000,0.000,0.000
1643253881537522176,2022-01-27-03:24:41,10.1.1.3,25,-0.281,-0.281,-0.281,0.000,0.000,0.000
1643253881760332032,2022-01-27-03:24:41,10.1.1.3,47,-0.291,-0.291,-0.291,0.000,0.000,0.000
1643253881957384960,2022-01-27-03:24:41,10.1.1.3,43,-0.301,-0.301,-0.301,0.000,0.000,0.000
1643253882139358976,2022-01-27-03:24:42,10.1.1.3,24,-0.310,-0.310,-0.310,0.000,0.000,0.000
1643253882341993984,2022-01-27-03:24:42,10.1.1.3,23,-0.320,-0.320,-0.320,0.000,0.000,0.000
1643253882558537984,2022-01-27-03:24:42,10.1.1.3,39,-0.331,-0.331,-0.331,0.000,0.000,0.000
1643253882737739008,2022-01-27-03:24:42,10.1.1.3,16,-0.340,-0.340,-0.340,0.000,0.000,0.000
1643253882958936832,2022-01-27-03:24:42,10.1.1.3,36,-0.351,-0.351,-0.351,0.000,0.000,0.000
1643253883157772032,2022-01-27-03:24:43,10.1.1.3,34,-0.361,-0.361,-0.361,0.000,0.000,0.000
1643253883357613056,2022-01-27-03:24:43,10.1.1.3,33,-0.371,-0.371,-0.371,0.000,0.000,0.000
1643253883556567808,2022-01-27-03:24:43,10.1.1.3,31,-0.381,-0.381,-0.381,0.000,0.000,0.000
1643253883758432000,2022-01-27-03:24:43,10.1.1.3,32,-0.391,-0.391,-0.391,0.000,0.000,0.000
1643253883958565120,2022-01-27-03:24:43,10.1.1.3,31,-0.401,-0.401,-0.401,0.000,0.000,0.000
1643253884157720064,2022-01-27-03:24:44,10.1.1.3,29,-0.411,-0.411,-0.411,0.000,0.000,0.000
1643253884358861056,2022-01-27-03:24:44,10.1.1.3,29,-0.421,-0.421,-0.421,0.000,0.000,0.000
1643253884577615104,2022-01-27-03:24:44,10.1.1.3,43,-0.431,-0.431,-0.431,0.000,0.000,0.000
1643253884757585152,2022-01-27-03:24:44,10.1.1.3,18,-0.440,-0.440,-0.440,0.000,0.000,0.000
1643253884957082112,2022-01-27-03:24:44,10.1.1.3,16,-0.450,-0.450,-0.450,0.000,0.000,0.000
1643253885174160128,2022-01-27-03:24:45,10.1.1.3,32,-0.461,-0.461,-0.461,0.000,0.000,0.000
1643253885357544960,2022-01-27-03:24:45,10.1.1.3,14,-0.470,-0.470,-0.470,0.000,0.000,0.000
1643253885578160128,2022-01-27-03:24:45,10.1.1.3,34,-0.481,-0.481,-0.481,0.000,0.000,0.000
1643253885757709056,2022-01-27-03:24:45,10.1.1.3,12,-0.490,-0.490,-0.490,0.000,0.000,0.000
1643253885977637888,2022-01-27-03:24:45,10.1.1.3,31,-0.479,-0.479,-0.479,0.000,0.000,0.000
1643253886177392896,2022-01-27-03:24:46,10.1.1.3,30,-0.469,-0.469,-0.469,0.000,0.000,0.000
1643253886379065088,2022-01-27-03:24:46,10.1.1.3,30,-0.459,-0.459,-0.459,0.000,0.000,0.000
1643253886578663168,2022-01-27-03:24:46,10.1.1.3,27,-0.449,-0.449,-0.449,0.000,0.000,0.000
1643253886793512960,2022-01-27-03:24:46,10.1.1.3,41,-0.440,-0.440,-0.440,0.000,0.000,0.000
1643253886991249920,2022-01-27-03:24:46,10.1.1.3,37,-0.430,-0.430,-0.430,0.000,0.000,0.000
1643253887190905088,2022-01-27-03:24:47,10.1.1.3,32,-0.420,-0.420,-0.420,0.000,0.000,0.000
1643253887391154944,2022-01-27-03:24:47,10.1.1.3,31,-0.409,-0.409,-0.409,0.000,0.000,0.000
1643253887591144960,2022-01-27-03:24:47,10.1.1.3,31,-0.399,-0.399,-0.399,0.000,0.000,0.000
1643253887790944000,2022-01-27-03:24:47,10.1.1.3,29,-0.389,-0.389,-0.389,0.000,0.000,0.000
1643253887991051008,2022-01-27-03:24:47,10.1.1.3,28,-0.379,-0.379,-0.379,0.000,0.000,0.000
1643253888190795008,2022-01-27-03:24:48,10.1.1.3,26,-0.369,-0.369,-0.369,0.000,0.000,0.000
1643253888393073152,2022-01-27-03:24:48,10.1.1.3,27,-0.360,-0.360,-0.360,0.000,0.000,0.000
1643253888596317952,2022-01-27-03:24:48,10.1.1.3,27,-0.349,-0.349,-0.349,0.000,0.000,0.000
1643253888815751168,2022-01-27-03:24:48,10.1.1.3,47,-0.339,-0.339,-0.339,0.000,0.000,0.000
1643253888995729920,2022-01-27-03:24:48,10.1.1.3,26,-0.329,-0.329,-0.329,0.000,0.000,0.000
1643253889195094016,2022-01-27-03:24:49,10.1.1.3,24,-0.320,-0.320,-0.320,0.000,0.000,0.000
1643253889436619008,2022-01-27-03:24:49,10.1.1.3,64,-0.309,-0.309,-0.309,0.000,0.000,0.000
1643253889597480960,2022-01-27-03:24:49,10.1.1.3,25,-0.299,-0.299,-0.299,0.000,0.000,0.000
1643253889796235008,2022-01-27-03:24:49,10.1.1.3,22,-0.290,-0.290,-0.290,0.000,0.000,0.000
1643253890018342912,2022-01-27-03:24:50,10.1.1.3,37,-0.279,-0.279,-0.279,0.000,0.000,0.000
1643253890226903040,2022-01-27-03:24:50,10.1.1.3,44,-0.270,-0.270,-0.270,0.000,0.000,0.000
1643253890417367040,2022-01-27-03:24:50,10.1.1.3,35,-0.260,-0.260,-0.260,0.000,0.000,0.000
1643253890616697088,2022-01-27-03:24:50,10.1.1.3,17,-0.250,-0.250,-0.250,0.000,0.000,0.000
1643253890841202944,2022-01-27-03:24:50,10.1.1.3,39,-0.240,-0.240,-0.240,0.000,0.000,0.000
1643253891038157824,2022-01-27-03:24:51,10.1.1.3,34,-0.230,-0.230,-0.230,0.000,0.000,0.000
1643253891256910080,2022-01-27-03:24:51,10.1.1.3,50,-0.219,-0.219,-0.219,0.000,0.000,0.000
1643253891436822784,2022-01-27-03:24:51,10.1.1.3,29,-0.209,-0.209,-0.209,0.000,0.000,0.000
1643253891636856064,2022-01-27-03:24:51,10.1.1.3,28,-0.199,-0.199,-0.199,0.000,0.000,0.000
1643253891857702144,2022-01-27-03:24:51,10.1.1.3,43,-0.189,-0.189,-0.189,0.000,0.000,0.000
1643253892036352000,2022-01-27-03:24:52,10.1.1.3,19,-0.180,-0.180,-0.180,0.000,0.000,0.000
1643253892257850880,2022-01-27-03:24:52,10.1.1.3,39,-0.169,-0.169,-0.169,0.000,0.000,0.000
1643253892457540864,2022-01-27-03:24:52,10.1.1.3,38,-0.159,-0.159,-0.159,0.000,0.000,0.000
1643253892638428928,2022-01-27-03:24:52,10.1.1.3,18,-0.150,-0.150,-0.150,0.000,0.000,0.000
1643253892849467136,2022-01-27-03:24:52,10.1.1.3,28,-0.139,-0.139,-0.139,0.000,0.000,0.000
1643253893048509952,2022-01-27-03:24:53,10.1.1.3,26,-0.129,-0.129,-0.129,0.000,0.000,0.000
1643253893248006144,2022-01-27-03:24:53,10.1.1.3,24,-0.119,-0.119,-0.119,0.000,0.000,0.000
1643253893448291072,2022-01-27-03:24:53,10.1.1.3,23,-0.110,-0.110,-0.110,0.000,0.000,0.000
1643253893656537088,2022-01-27-03:24:53,10.1.1.3,28,-0.100,-0.100,-0.100,0.000,0.000,0.000
1643253893855941120,2022-01-27-03:24:53,10.1.1.3,27,-0.089,-0.089,-0.089,0.000,0.000,0.000
1643253894057583104,2022-01-27-03:24:54,10.1.1.3,27,-0.080,-0.080,-0.080,0.000,0.000,0.000
1643253894271418112,2022-01-27-03:24:54,10.1.1.3,40,-0.069,-0.069,-0.069,0.000,0.000,0.000
1643253894471268864,2022-01-27-03:24:54,10.1.1.3,33,-0.059,-0.059,-0.059,0.000,0.000,0.000
1643253894671335936,2022-01-27-03:24:54,10.1.1.3,32,-0.049,-0.049,-0.049,0.000,0.000,0.000
1643253894870366976,2022-01-27-03:24:54,10.1.1.3,29,-0.039,-0.039,-0.039,0.000,0.000,0.000
1643253895070934016,2022-01-27-03:24:55,10.1.1.3,28,-0.029,-0.029,-0.029,0.000,0.000,0.000
1643253895271388160,2022-01-27-03:24:55,10.1.1.3,27,-0.019,-0.019,-0.019,0.000,0.000,0.000
1643253895470772992,2022-01-27-03:24:55,10.1.1.3,26,-0.009,-0.009,-0.009,0.000,0.000,0.000
1643253895651155968,2022-01-27-03:24:55,10.1.1.3,5,-0.000,-0.000,-0.000,0.000,0.000,0.000
1643253895882056960,2022-01-27-03:24:55,10.1.1.3,36,-0.011,-0.011,-0.011,0.000,0.000,0.000
1643253896135806208,2022-01-27-03:24:56,10.1.1.3,89,-0.021,-0.021,-0.021,0.000,0.000,0.000
1643253896284174080,2022-01-27-03:24:56,10.1.1.3,36,-0.030,-0.030,-0.030,0.000,0.000,0.000
1643253896495970048,2022-01-27-03:24:56,10.1.1.3,44,-0.041,-0.041,-0.041,0.000,0.000,0.000
1643253896679496960,2022-01-27-03:24:56,10.1.1.3,26,-0.050,-0.050,-0.050,0.000,0.000,0.000
1643253896874696960,2022-01-27-03:24:56,10.1.1.3,20,-0.060,-0.060,-0.060,0.000,0.000,0.000
1643253897076297984,2022-01-27-03:24:57,10.1.1.3,18,-0.070,-0.070,-0.070,0.000,0.000,0.000
1643253897281508096,2022-01-27-03:24:57,10.1.1.3,22,-0.080,-0.080,-0.080,0.000,0.000,0.000
1643253897477925888,2022-01-27-03:24:57,10.1.1.3,18,-0.090,-0.090,-0.090,0.000,0.000,0.000
1643253897694070016,2022-01-27-03:24:57,10.1.1.3,33,-0.101,-0.101,-0.101,0.000,0.000,0.000
1643253897894022912,2022-01-27-03:24:57,10.1.1.3,32,-0.111,-0.111,-0.111,0.000,0.000,0.000
1643253898093206784,2022-01-27-03:24:58,10.1.1.3,26,-0.121,-0.121,-0.121,0.000,0.000,0.000
1643253898312485888,2022-01-27-03:24:58,10.1.1.3,42,-0.131,-0.131,-0.131,0.000,0.000,0.000
1643253898493844992,2022-01-27-03:24:58,10.1.1.3,22,-0.140,-0.140,-0.140,0.000,0.000,0.000
1643253898713987072,2022-01-27-03:24:58,10.1.1.3,39,-0.151,-0.151,-0.151,0.000,0.000,0.000
1643253898892836096,2022-01-27-03:24:58,10.1.1.3,17,-0.160,-0.160,-0.160,0.000,0.000,0.000
1643253899115382016,2022-01-27-03:24:59,10.1.1.3,38,-0.171,-0.171,-0.171,0.000,0.000,0.000
1643253899313317120,2022-01-27-03:24:59,10.1.1.3,34,-0.181,-0.181,-0.181,0.000,0.000,0.000
1643253899492718848,2022-01-27-03:24:59,10.1.1.3,12,-0.190,-0.190,-0.190,0.000,0.000,0.000
1643253899714029056,2022-01-27-03:24:59,10.1.1.3,33,-0.201,-0.201,-0.201,0.000,0.000,0.000
1643253899912708096,2022-01-27-03:24:59,10.1.1.3,31,-0.211,-0.211,-0.211,0.000,0.000,0.000
1643253900112651008,2022-01-27-03:25:00,10.1.1.3,30,-0.221,-0.221,-0.221,0.000,0.000,0.000
1643253900312745984,2022-01-27-03:25:00,10.1.1.3,27,-0.231,-0.231,-0.231,0.000,0.000,0.000
1643253900513171968,2022-01-27-03:25:00,10.1.1.3,27,-0.241,-0.241,-0.241,0.000,0.000,0.000
1643253900713544960,2022-01-27-03:25:00,10.1.1.3,26,-0.251,-0.251,-0.251,0.000,0.000,0.000
1643253900932203008,2022-01-27-03:25:00,10.1.1.3,39,-0.261,-0.261,-0.261,0.000,0.000,0.000
1643253901133018112,2022-01-27-03:25:01,10.1.1.3,39,-0.271,-0.271,-0.271,0.000,0.000,0.000
1643253901333244928,2022-01-27-03:25:01,10.1.1.3,36,-0.281,-0.281,-0.281,0.000,0.000,0.000
1643253901514429184,2022-01-27-03:25:01,10.1.1.3,16,-0.290,-0.290,-0.290,0.000,0.000,0.000
1643253901732909056,2022-01-27-03:25:01,10.1.1.3,33,-0.301,-0.301,-0.301,0.000,0.000,0.000
1643253901933549824,2022-01-27-03:25:01,10.1.1.3,33,-0.311,-0.311,-0.311,0.000,0.000,0.000
1643253902134315008,2022-01-27-03:25:02,10.1.1.3,33,-0.321,-0.321,-0.321,0.000,0.000,0.000
1643253902333353984,2022-01-27-03:25:02,10.1.1.3,30,-0.331,-0.331,-0.331,0.000,0.000,0.000
1643253902534321920,2022-01-27-03:25:02,10.1.1.3,30,-0.341,-0.341,-0.341,0.000,0.000,0.000
1643253902733159936,2022-01-27-03:25:02,10.1.1.3,28,-0.350,-0.350,-0.350,0.000,0.000,0.000
1643253902932749056,2022-01-27-03:25:02,10.1.1.3,26,-0.361,-0.361,-0.361,0.000,0.000,0.000
1643253903133568000,2022-01-27-03:25:03,10.1.1.3,25,-0.370,-0.370,-0.370,0.000,0.000,0.000
1643253903332796928,2022-01-27-03:25:03,10.1.1.3,23,-0.380,-0.380,-0.380,0.000,0.000,0.000
1643253903553220864,2022-01-27-03:25:03,10.1.1.3,42,-0.391,-0.391,-0.391,0.000,0.000,0.000
1643253903733721856,2022-01-27-03:25:03,10.1.1.3,19,-0.400,-0.400,-0.400,0.000,0.000,0.000
1643253903952227072,2022-01-27-03:25:03,10.1.1.3,31,-0.411,-0.411,-0.411,0.000,0.000,0.000
1643253904152653056,2022-01-27-03:25:04,10.1.1.3,30,-0.421,-0.421,-0.421,0.000,0.000,0.000
1643253904353447936,2022-01-27-03:25:04,10.1.1.3,30,-0.431,-0.431,-0.431,0.000,0.000,0.000
1643253904572364032,2022-01-27-03:25:04,10.1.1.3,47,-0.441,-0.441,-0.441,0.000,0.000,0.000
1643253904754117120,2022-01-27-03:25:04,10.1.1.3,28,-0.451,-0.451,-0.451,0.000,0.000,0.000
1643253904953785856,2022-01-27-03:25:04,10.1.1.3,26,-0.460,-0.460,-0.460,0.000,0.000,0.000
1643253905153664000,2022-01-27-03:25:05,10.1.1.3,25,-0.471,-0.471,-0.471,0.000,0.000,0.000
1643253905356216064,2022-01-27-03:25:05,10.1.1.3,24,-0.480,-0.480,-0.480,0.000,0.000,0.000
1643253905538060032,2022-01-27-03:25:05,10.1.1.3,4,-0.489,-0.489,-0.489,0.000,0.000,0.000
1643253905753548032,2022-01-27-03:25:05,10.1.1.3,18,-0.480,-0.480,-0.480,0.000,0.000,0.000
1643253905975117824,2022-01-27-03:25:05,10.1.1.3,37,-0.469,-0.469,-0.469,0.000,0.000,0.000
1643253906154344960,2022-01-27-03:25:06,10.1.1.3,17,-0.460,-0.460,-0.460,0.000,0.000,0.000
1643253906354054912,2022-01-27-03:25:06,10.1.1.3,15,-0.450,-0.450,-0.450,0.000,0.000,0.000
1643253906553905920,2022-01-27-03:25:06,10.1.1.3,14,-0.440,-0.440,-0.440,0.000,0.000,0.000
1643253906774651136,2022-01-27-03:25:06,10.1.1.3,33,-0.429,-0.429,-0.429,0.000,0.000,0.000
1643253906975198976,2022-01-27-03:25:06,10.1.1.3,33,-0.419,-0.419,-0.419,0.000,0.000,0.000
1643253907178539008,2022-01-27-03:25:07,10.1.1.3,29,-0.410,-0.410,-0.410,0.000,0.000,0.000
1643253907373656064,2022-01-27-03:25:07,10.1.1.3,23,-0.400,-0.400,-0.400,0.000,0.000,0.000
1643253907593357056,2022-01-27-03:25:07,10.1.1.3,42,-0.389,-0.389,-0.389,0.000,0.000,0.000
1643253907774547200,2022-01-27-03:25:07,10.1.1.3,22,-0.380,-0.380,-0.380,0.000,0.000,0.000
1643253907975096832,2022-01-27-03:25:07,10.1.1.3,20,-0.370,-0.370,-0.370,0.000,0.000,0.000
1643253908194076160,2022-01-27-03:25:08,10.1.1.3,37,-0.359,-0.359,-0.359,0.000,0.000,0.000
1643253908373832960,2022-01-27-03:25:08,10.1.1.3,16,-0.350,-0.350,-0.350,0.000,0.000,0.000
1643253908594384896,2022-01-27-03:25:08,10.1.1.3,35,-0.339,-0.339,-0.339,0.000,0.000,0.000
1643253908794521088,2022-01-27-03:25:08,10.1.1.3,34,-0.329,-0.329,-0.329,0.000,0.000,0.000
1643253908994251008,2022-01-27-03:25:08,10.1.1.3,32,-0.319,-0.319,-0.319,0.000,0.000,0.000
1643253909193069056,2022-01-27-03:25:09,10.1.1.3,25,-0.309,-0.309,-0.309,0.000,0.000,0.000
1643253909415452928,2022-01-27-03:25:09,10.1.1.3,44,-0.299,-0.299,-0.299,0.000,0.000,0.000
1643253909613565952,2022-01-27-03:25:09,10.1.1.3,39,-0.289,-0.289,-0.289,0.000,0.000,0.000
1643253909795723008,2022-01-27-03:25:09,10.1.1.3,20,-0.280,-0.280,-0.280,0.000,0.000,0.000
1643253910013091072,2022-01-27-03:25:10,10.1.1.3,36,-0.269,-0.269,-0.269,0.000,0.000,0.000
1643253910193942016,2022-01-27-03:25:10,10.1.1.3,16,-0.260,-0.260,-0.260,0.000,0.000,0.000
1643253910394468096,2022-01-27-03:25:10,10.1.1.3,16,-0.250,-0.250,-0.250,0.000,0.000,0.000
1643253910613133824,2022-01-27-03:25:10,10.1.1.3,33,-0.239,-0.239,-0.239,0.000,0.000,0.000
1643253910814418176,2022-01-27-03:25:10,10.1.1.3,32,-0.229,-0.229,-0.229,0.000,0.000,0.000
1643253911013914112,2022-01-27-03:25:11,10.1.1.3,30,-0.219,-0.219,-0.219,0.000,0.000,0.000
1643253911213344000,2022-01-27-03:25:11,10.1.1.3,28,-0.209,-0.209,-0.209,0.000,0.000,0.000
1643253911413176064,2022-01-27-03:25:11,10.1.1.3,28,-0.199,-0.199,-0.199,0.000,0.000,0.000
1643253911613873920,2022-01-27-03:25:11,10.1.1.3,27,-0.189,-0.189,-0.189,0.000,0.000,0.000
1643253911814373888,2022-01-27-03:25:11,10.1.1.3,26,-0.179,-0.179,-0.179,0.000,0.000,0.000
1643253912011596800,2022-01-27-03:25:12,10.1.1.3,22,-0.170,-0.170,-0.170,0.000,0.000,0.000
1643253912214767872,2022-01-27-03:25:12,10.1.1.3,25,-0.160,-0.160,-0.160,0.000,0.000,0.000
1643253912414515968,2022-01-27-03:25:12,10.1.1.3,24,-0.150,-0.150,-0.150,0.000,0.000,0.000
1643253912615091968,2022-01-27-03:25:12,10.1.1.3,22,-0.140,-0.140,-0.140,0.000,0.000,0.000
1643253912814621952,2022-01-27-03:25:12,10.1.1.3,19,-0.130,-0.130,-0.130,0.000,0.000,0.000
1643253913012389888,2022-01-27-03:25:13,10.1.1.3,16,-0.120,-0.120,-0.120,0.000,0.000,0.000
1643253913213712896,2022-01-27-03:25:13,10.1.1.3,16,-0.110,-0.110,-0.110,0.000,0.000,0.000
1643253913414144000,2022-01-27-03:25:13,10.1.1.3,15,-0.100,-0.100,-0.100,0.000,0.000,0.000
1643253913614014976,2022-01-27-03:25:13,10.1.1.3,14,-0.090,-0.090,-0.090,0.000,0.000,0.000
1643253913835441152,2022-01-27-03:25:13,10.1.1.3,35,-0.079,-0.079,-0.079,0.000,0.000,0.000
1643253914057305088,2022-01-27-03:25:14,10.1.1.3,52,-0.068,-0.068,-0.068,0.000,0.000,0.000
1643253914235974912,2022-01-27-03:25:14,10.1.1.3,28,-0.059,-0.059,-0.059,0.000,0.000,0.000
1643253914453729024,2022-01-27-03:25:14,10.1.1.3,43,-0.049,-0.049,-0.049,0.000,0.000,0.000
1643253914652869888,2022-01-27-03:25:14,10.1.1.3,39,-0.039,-0.039,-0.039,0.000,0.000,0.000
1643253914836702208,2022-01-27-03:25:14,10.1.1.3,22,-0.030,-0.030,-0.030,0.000,0.000,0.000
1643253915034828032,2022-01-27-03:25:15,10.1.1.3,19,-0.020,-0.020,-0.020,0.000,0.000,0.000
1643253915253990912,2022-01-27-03:25:15,10.1.1.3,38,-0.009,-0.009,-0.009,0.000,0.000,0.000
1643253915453164032,2022-01-27-03:25:15,10.1.1.3,35,-0.001,-0.001,-0.001,0.000,0.000,0.000
1643253915659857152,2022-01-27-03:25:15,10.1.1.3,41,-0.011,-0.011,-0.011,0.000,0.000,0.000
1643253915853648896,2022-01-27-03:25:15,10.1.1.3,33,-0.021,-0.021,-0.021,0.000,0.000,0.000
1643253916053422848,2022-01-27-03:25:16,10.1.1.3,31,-0.031,-0.031,-0.031,0.000,0.000,0.000
1643253916253518080,2022-01-27-03:25:16,10.1.1.3,31,-0.041,-0.041,-0.041,0.000,0.000,0.000
1643253916453553920,2022-01-27-03:25:16,10.1.1.3,29,-0.051,-0.051,-0.051,0.000,0.000,0.000
1643253916654434816,2022-01-27-03:25:16,10.1.1.3,29,-0.061,-0.061,-0.061,0.000,0.000,0.000
1643253916853225984,2022-01-27-03:25:16,10.1.1.3,26,-0.071,-0.071,-0.071,0.000,0.000,0.000
1643253917054064128,2022-01-27-03:25:17,10.1.1.3,25,-0.081,-0.081,-0.081,0.000,0.000,0.000
1643253917255049984,2022-01-27-03:25:17,10.1.1.3,25,-0.090,-0.090,-0.090,0.000,0.000,0.000
1643253917453020160,2022-01-27-03:25:17,10.1.1.3,21,-0.100,-0.100,-0.100,0.000,0.000,0.000
1643253917653492992,2022-01-27-03:25:17,10.1.1.3,20,-0.110,-0.110,-0.110,0.000,0.000,0.000
1643253917854372096,2022-01-27-03:25:17,10.1.1.3,19,-0.120,-0.120,-0.120,0.000,0.000,0.000
1643253918073472000,2022-01-27-03:25:18,10.1.1.3,37,-0.131,-0.131,-0.131,0.000,0.000,0.000
1643253918254955008,2022-01-27-03:25:18,10.1.1.3,16,-0.140,-0.140,-0.140,0.000,0.000,0.000
1643253918474417920,2022-01-27-03:25:18,10.1.1.3,35,-0.151,-0.151,-0.151,0.000,0.000,0.000
1643253918675482112,2022-01-27-03:25:18,10.1.1.3,36,-0.161,-0.161,-0.161,0.000,0.000,0.000
1643253918875177984,2022-01-27-03:25:18,10.1.1.3,34,-0.171,-0.171,-0.171,0.000,0.000,0.000
1643253919075035136,2022-01-27-03:25:19,10.1.1.3,33,-0.180,-0.180,-0.180,0.000,0.000,0.000
1643253919280542976,2022-01-27-03:25:19,10.1.1.3,37,-0.190,-0.190,-0.190,0.000,0.000,0.000
1643253919483202048,2022-01-27-03:25:19,10.1.1.3,37,-0.201,-0.201,-0.201,0.000,0.000,0.000
1643253919674403072,2022-01-27-03:25:19,10.1.1.3,27,-0.211,-0.211,-0.211,0.000,0.000,0.000
1643253919873603072,2022-01-27-03:25:19,10.1.1.3,26,-0.221,-0.221,-0.221,0.000,0.000,0.000
1643253920073368064,2022-01-27-03:25:20,10.1.1.3,23,-0.230,-0.230,-0.230,0.000,0.000,0.000
1643253920293238016,2022-01-27-03:25:20,10.1.1.3,41,-0.241,-0.241,-0.241,0.000,0.000,0.000
1643253920473489152,2022-01-27-03:25:20,10.1.1.3,21,-0.250,-0.250,-0.250,0.000,0.000,0.000
1643253920674264832,2022-01-27-03:25:20,10.1.1.3,20,-0.260,-0.260,-0.260,0.000,0.000,0.000
1643253920872978944,2022-01-27-03:25:20,10.1.1.3,18,-0.270,-0.270,-0.270,0.000,0.000,0.000
1643253921074970112,2022-01-27-03:25:21,10.1.1.3,18,-0.280,-0.280,-0.280,0.000,0.000,0.000
1643253921293425152,2022-01-27-03:25:21,10.1.1.3,36,-0.291,-0.291,-0.291,0.000,0.000,0.000
1643253921473829120,2022-01-27-03:25:21,10.1.1.3,16,-0.300,-0.300,-0.300,0.000,0.000,0.000
1643253921673724928,2022-01-27-03:25:21,10.1.1.3,15,-0.310,-0.310,-0.310,0.000,0.000,0.000
1643253921874108160,2022-01-27-03:25:21,10.1.1.3,14,-0.320,-0.320,-0.320,0.000,0.000,0.000
1643253922094404864,2022-01-27-03:25:22,10.1.1.3,32,-0.331,-0.331,-0.331,0.000,0.000,0.000
1643253922295095040,2022-01-27-03:25:22,10.1.1.3,31,-0.340,-0.340,-0.340,0.000,0.000,0.000
1643253922495076864,2022-01-27-03:25:22,10.1.1.3,31,-0.351,-0.351,-0.351,0.000,0.000,0.000
1643253922694144000,2022-01-27-03:25:22,10.1.1.3,26,-0.361,-0.361,-0.361,0.000,0.000,0.000
1643253922912929024,2022-01-27-03:25:22,10.1.1.3,43,-0.370,-0.370,-0.370,0.000,0.000,0.000
1643253923095719168,2022-01-27-03:25:23,10.1.1.3,25,-0.381,-0.381,-0.381,0.000,0.000,0.000
1643253923295922944,2022-01-27-03:25:23,10.1.1.3,25,-0.391,-0.391,-0.391,0.000,0.000,0.000
1643253923495464192,2022-01-27-03:25:23,10.1.1.3,23,-0.400,-0.400,-0.400,0.000,0.000,0.000
1643253923695453952,2022-01-27-03:25:23,10.1.1.3,22,-0.410,-0.410,-0.410,0.000,0.000,0.000
1643253923900850944,2022-01-27-03:25:23,10.1.1.3,27,-0.420,-0.420,-0.420,0.000,0.000,0.000
1643253924115500032,2022-01-27-03:25:24,10.1.1.3,39,-0.431,-0.431,-0.431,0.000,0.000,0.000
1643253924315570944,2022-01-27-03:25:24,10.1.1.3,38,-0.441,-0.441,-0.441,0.000,0.000,0.000
1643253924496083968,2022-01-27-03:25:24,10.1.1.3,18,-0.450,-0.450,-0.450,0.000,0.000,0.000
1643253924696044032,2022-01-27-03:25:24,10.1.1.3,17,-0.460,-0.460,-0.460,0.000,0.000,0.000
1643253924895075072,2022-01-27-03:25:24,10.1.1.3,15,-0.470,-0.470,-0.470,0.000,0.000,0.000
1643253925116150016,2022-01-27-03:25:25,10.1.1.3,34,-0.481,-0.481,-0.481,0.000,0.000,0.000
1643253925295908096,2022-01-27-03:25:25,10.1.1.3,13,-0.490,-0.490,-0.490,0.000,0.000,0.000
1643253925534311168,2022-01-27-03:25:25,10.1.1.3,50,-0.479,-0.479,-0.479,0.000,0.000,0.000
1643253925707725056,2022-01-27-03:25:25,10.1.1.3,22,-0.470,-0.470,-0.470,0.000,0.000,0.000
1643253925929709824,2022-01-27-03:25:25,10.1.1.3,42,-0.459,-0.459,-0.459,0.000,0.000,0.000
1643253926134294016,2022-01-27-03:25:26,10.1.1.3,47,-0.449,-0.449,-0.449,0.000,0.000,0.000
1643253926329494016,2022-01-27-03:25:26,10.1.1.3,38,-0.439,-0.439,-0.439,0.000,0.000,0.000
1643253926509624064,2022-01-27-03:25:26,10.1.1.3,17,-0.430,-0.430,-0.430,0.000,0.000,0.000
1643253926729896960,2022-01-27-03:25:26,10.1.1.3,37,-0.419,-0.419,-0.419,0.000,0.000,0.000
1643253926930375936,2022-01-27-03:25:26,10.1.1.3,35,-0.409,-0.409,-0.409,0.000,0.000,0.000
1643253927130208000,2022-01-27-03:25:27,10.1.1.3,34,-0.399,-0.399,-0.399,0.000,0.000,0.000
1643253927330712064,2022-01-27-03:25:27,10.1.1.3,34,-0.389,-0.389,-0.389,0.000,0.000,0.000
1643253927539720960,2022-01-27-03:25:27,10.1.1.3,41,-0.380,-0.380,-0.380,0.000,0.000,0.000
1643253927767687936,2022-01-27-03:25:27,10.1.1.3,66,-0.370,-0.370,-0.370,0.000,0.000,0.000
1643253927937555200,2022-01-27-03:25:27,10.1.1.3,35,-0.359,-0.359,-0.359,0.000,0.000,0.000
1643253928118866944,2022-01-27-03:25:28,10.1.1.3,15,-0.350,-0.350,-0.350,0.000,0.000,0.000
1643253928343419136,2022-01-27-03:25:28,10.1.1.3,38,-0.339,-0.339,-0.339,0.000,0.000,0.000
1643253928542074880,2022-01-27-03:25:28,10.1.1.3,36,-0.329,-0.329,-0.329,0.000,0.000,0.000
1643253928738016000,2022-01-27-03:25:28,10.1.1.3,31,-0.319,-0.319,-0.319,0.000,0.000,0.000
1643253928937202944,2022-01-27-03:25:28,10.1.1.3,29,-0.309,-0.309,-0.309,0.000,0.000,0.000
1643253929137640960,2022-01-27-03:25:29,10.1.1.3,29,-0.299,-0.299,-0.299,0.000,0.000,0.000
1643253929337534976,2022-01-27-03:25:29,10.1.1.3,28,-0.289,-0.289,-0.289,0.000,0.000,0.000
1643253929537746944,2022-01-27-03:25:29,10.1.1.3,28,-0.279,-0.279,-0.279,0.000,0.000,0.000
1643253929730468864,2022-01-27-03:25:29,10.1.1.3,20,-0.270,-0.270,-0.270,0.000,0.000,0.000
1643253929974237952,2022-01-27-03:25:29,10.1.1.3,58,-0.259,-0.259,-0.259,0.000,0.000,0.000
1643253930135634944,2022-01-27-03:25:30,10.1.1.3,18,-0.250,-0.250,-0.250,0.000,0.000,0.000
1643253930334516992,2022-01-27-03:25:30,10.1.1.3,16,-0.240,-0.240,-0.240,0.000,0.000,0.000
1643253930535489024,2022-01-27-03:25:30,10.1.1.3,15,-0.230,-0.230,-0.230,0.000,0.000,0.000
1643253930755728128,2022-01-27-03:25:30,10.1.1.3,35,-0.219,-0.219,-0.219,0.000,0.000,0.000
1643253930953527808,2022-01-27-03:25:30,10.1.1.3,32,-0.209,-0.209,-0.209,0.000,0.000,0.000
1643253931154304000,2022-01-27-03:25:31,10.1.1.3,32,-0.199,-0.199,-0.199,0.000,0.000,0.000
1643253931352864000,2022-01-27-03:25:31,10.1.1.3,29,-0.189,-0.189,-0.189,0.000,0.000,0.000
1643253931554260992,2022-01-27-03:25:31,10.1.1.3,30,-0.180,-0.180,-0.180,0.000,0.000,0.000
1643253931754792960,2022-01-27-03:25:31,10.1.1.3,27,-0.169,-0.169,-0.169,0.000,0.000,0.000
1643253931954690048,2022-01-27-03:25:31,10.1.1.3,26,-0.159,-0.159,-0.159,0.000,0.000,0.000
1643253932154123008,2022-01-27-03:25:32,10.1.1.3,24,-0.150,-0.150,-0.150,0.000,0.000,0.000
1643253932353624064,2022-01-27-03:25:32,10.1.1.3,22,-0.140,-0.140,-0.140,0.000,0.000,0.000
1643253932554880000,2022-01-27-03:25:32,10.1.1.3,23,-0.130,-0.130,-0.130,0.000,0.000,0.000
1643253932754224896,2022-01-27-03:25:32,10.1.1.3,20,-0.120,-0.120,-0.120,0.000,0.000,0.000
1643253932954580992,2022-01-27-03:25:32,10.1.1.3,18,-0.110,-0.110,-0.110,0.000,0.000,0.000
1643253933155326976,2022-01-27-03:25:33,10.1.1.3,18,-0.100,-0.100,-0.100,0.000,0.000,0.000
1643253933355021056,2022-01-27-03:25:33,10.1.1.3,15,-0.090,-0.090,-0.090,0.000,0.000,0.000
1643253933554403072,2022-01-27-03:25:33,10.1.1.3,14,-0.080,-0.080,-0.080,0.000,0.000,0.000
1643253933774892032,2022-01-27-03:25:33,10.1.1.3,31,-0.069,-0.069,-0.069,0.000,0.000,0.000
1643253933994563072,2022-01-27-03:25:33,10.1.1.3,47,-0.059,-0.059,-0.059,0.000,0.000,0.000
1643253934175424000,2022-01-27-03:25:34,10.1.1.3,25,-0.049,-0.049,-0.049,0.000,0.000,0.000
1643253934381252096,2022-01-27-03:25:34,10.1.1.3,30,-0.040,-0.040,-0.040,0.000,0.000,0.000
1643253934575074048,2022-01-27-03:25:34,10.1.1.3,22,-0.030,-0.030,-0.030,0.000,0.000,0.000
1643253934774791936,2022-01-27-03:25:34,10.1.1.3,20,-0.020,-0.020,-0.020,0.000,0.000,0.000
1643253934994338048,2022-01-27-03:25:34,10.1.1.3,38,-0.009,-0.009,-0.009,0.000,0.000,0.000
1643253935174711040,2022-01-27-03:25:35,10.1.1.3,16,-0.000,-0.000,-0.000,0.000,0.000,0.000
1643253935375441920,2022-01-27-03:25:35,10.1.1.3,16,-0.010,-0.010,-0.010,0.000,0.000,0.000
1643253935595310080,2022-01-27-03:25:35,10.1.1.3,34,-0.021,-0.021,-0.021,0.000,0.000,0.000
1643253935794992896,2022-01-27-03:25:35,10.1.1.3,31,-0.031,-0.031,-0.031,0.000,0.000,0.000
1643253935995362048,2022-01-27-03:25:35,10.1.1.3,30,-0.041,-0.041,-0.041,0.000,0.000,0.000
1643253936194307072,2022-01-27-03:25:36,10.1.1.3,27,-0.051,-0.051,-0.051,0.000,0.000,0.000
1643253936414141952,2022-01-27-03:25:36,10.1.1.3,43,-0.061,-0.061,-0.061,0.000,0.000,0.000
1643253936617195008,2022-01-27-03:25:36,10.1.1.3,43,-0.071,-0.071,-0.071,0.000,0.000,0.000
1643253936795251968,2022-01-27-03:25:36,10.1.1.3,19,-0.080,-0.080,-0.080,0.000,0.000,0.000
1643253936996264960,2022-01-27-03:25:36,10.1.1.3,16,-0.090,-0.090,-0.090,0.000,0.000,0.000
1643253937200926976,2022-01-27-03:25:37,10.1.1.3,19,-0.100,-0.100,-0.100,0.000,0.000,0.000
1643253937414776064,2022-01-27-03:25:37,10.1.1.3,31,-0.111,-0.111,-0.111,0.000,0.000,0.000
1643253937616168960,2022-01-27-03:25:37,10.1.1.3,30,-0.121,-0.121,-0.121,0.000,0.000,0.000
1643253937815992064,2022-01-27-03:25:37,10.1.1.3,31,-0.131,-0.131,-0.131,0.000,0.000,0.000
1643253938015196160,2022-01-27-03:25:38,10.1.1.3,28,-0.141,-0.141,-0.141,0.000,0.000,0.000
1643253938215271936,2022-01-27-03:25:38,10.1.1.3,27,-0.151,-0.151,-0.151,0.000,0.000,0.000
1643253938416068096,2022-01-27-03:25:38,10.1.1.3,25,-0.160,-0.160,-0.160,0.000,0.000,0.000
1643253938628253952,2022-01-27-03:25:38,10.1.1.3,36,-0.171,-0.171,-0.171,0.000,0.000,0.000
1643253938829096192,2022-01-27-03:25:38,10.1.1.3,29,-0.181,-0.181,-0.181,0.000,0.000,0.000
1643253939029828096,2022-01-27-03:25:39,10.1.1.3,29,-0.191,-0.191,-0.191,0.000,0.000,0.000
1643253939228724992,2022-01-27-03:25:39,10.1.1.3,25,-0.200,-0.200,-0.200,0.000,0.000,0.000
1643253939428601856,2022-01-27-03:25:39,10.1.1.3,24,-0.210,-0.210,-0.210,0.000,0.000,0.000
1643253939628583936,2022-01-27-03:25:39,10.1.1.3,23,-0.220,-0.220,-0.220,0.000,0.000,0.000
1643253939848711936,2022-01-27-03:25:39,10.1.1.3,42,-0.231,-0.231,-0.231,0.000,0.000,0.000
1643253940029003008,2022-01-27-03:25:40,10.1.1.3,20,-0.240,-0.240,-0.240,0.000,0.000,0.000
1643253940248141056,2022-01-27-03:25:40,10.1.1.3,38,-0.251,-0.251,-0.251,0.000,0.000,0.000
1643253940428749056,2022-01-27-03:25:40,10.1.1.3,18,-0.260,-0.260,-0.260,0.000,0.000,0.000
1643253940628381952,2022-01-27-03:25:40,10.1.1.3,17,-0.270,-0.270,-0.270,0.000,0.000,0.000
1643253940848439040,2022-01-27-03:25:40,10.1.1.3,36,-0.280,-0.280,-0.280,0.000,0.000,0.000
1643253941048367104,2022-01-27-03:25:41,10.1.1.3,35,-0.291,-0.291,-0.291,0.000,0.000,0.000
1643253941256143104,2022-01-27-03:25:41,10.1.1.3,42,-0.301,-0.301,-0.301,0.000,0.000,0.000
1643253941448174080,2022-01-27-03:25:41,10.1.1.3,33,-0.311,-0.311,-0.311,0.000,0.000,0.000
1643253941649864960,2022-01-27-03:25:41,10.1.1.3,33,-0.320,-0.320,-0.320,0.000,0.000,0.000
1643253941848189952,2022-01-27-03:25:41,10.1.1.3,30,-0.331,-0.331,-0.331,0.000,0.000,0.000
1643253942048086784,2022-01-27-03:25:42,10.1.1.3,29,-0.340,-0.340,-0.340,0.000,0.000,0.000
1643253942249357824,2022-01-27-03:25:42,10.1.1.3,29,-0.351,-0.351,-0.351,0.000,0.000,0.000
1643253942448355072,2022-01-27-03:25:42,10.1.1.3,27,-0.361,-0.361,-0.361,0.000,0.000,0.000
1643253942648227840,2022-01-27-03:25:42,10.1.1.3,26,-0.371,-0.371,-0.371,0.000,0.000,0.000
1643253942849136128,2022-01-27-03:25:42,10.1.1.3,26,-0.381,-0.381,-0.381,0.000,0.000,0.000
1643253943047930112,2022-01-27-03:25:43,10.1.1.3,24,-0.390,-0.390,-0.390,0.000,0.000,0.000
1643253943248466944,2022-01-27-03:25:43,10.1.1.3,22,-0.400,-0.400,-0.400,0.000,0.000,0.000
1643253943468499968,2022-01-27-03:25:43,10.1.1.3,41,-0.411,-0.411,-0.411,0.000,0.000,0.000
1643253943668560896,2022-01-27-03:25:43,10.1.1.3,39,-0.421,-0.421,-0.421,0.000,0.000,0.000
1643253943868868096,2022-01-27-03:25:43,10.1.1.3,38,-0.431,-0.431,-0.431,0.000,0.000,0.000
1643253944048474112,2022-01-27-03:25:44,10.1.1.3,17,-0.440,-0.440,-0.440,0.000,0.000,0.000
1643253944248632064,2022-01-27-03:25:44,10.1.1.3,16,-0.450,-0.450,-0.450,0.000,0.000,0.000
1643253944448209920,2022-01-27-03:25:44,10.1.1.3,15,-0.460,-0.460,-0.460,0.000,0.000,0.000
1643253944668567808,2022-01-27-03:25:44,10.1.1.3,34,-0.471,-0.471,-0.471,0.000,0.000,0.000
1643253944849486080,2022-01-27-03:25:44,10.1.1.3,15,-0.480,-0.480,-0.480,0.000,0.000,0.000
1643253945068360192,2022-01-27-03:25:45,10.1.1.3,33,-0.489,-0.489,-0.489,0.000,0.000,0.000
1643253945269186048,2022-01-27-03:25:45,10.1.1.3,32,-0.479,-0.479,-0.479,0.000,0.000,0.000
1643253945468664832,2022-01-27-03:25:45,10.1.1.3,31,-0.469,-0.469,-0.469,0.000,0.000,0.000
1643253945668701952,2022-01-27-03:25:45,10.1.1.3,29,-0.459,-0.459,-0.459,0.000,0.000,0.000
1643253945870053888,2022-01-27-03:25:45,10.1.1.3,29,-0.449,-0.449,-0.449,0.000,0.000,0.000
1643253946068582144,2022-01-27-03:25:46,10.1.1.3,26,-0.440,-0.440,-0.440,0.000,0.000,0.000
1643253946268594944,2022-01-27-03:25:46,10.1.1.3,24,-0.429,-0.429,-0.429,0.000,0.000,0.000
1643253946469137920,2022-01-27-03:25:46,10.1.1.3,23,-0.420,-0.420,-0.420,0.000,0.000,0.000
1643253946688036864,2022-01-27-03:25:46,10.1.1.3,42,-0.409,-0.409,-0.409,0.000,0.000,0.000
1643253946888384000,2022-01-27-03:25:46,10.1.1.3,40,-0.399,-0.399,-0.399,0.000,0.000,0.000
1643253947071312896,2022-01-27-03:25:47,10.1.1.3,21,-0.390,-0.390,-0.390,0.000,0.000,0.000
1643253947291706112,2022-01-27-03:25:47,10.1.1.3,40,-0.379,-0.379,-0.379,0.000,0.000,0.000
1643253947470639104,2022-01-27-03:25:47,10.1.1.3,17,-0.370,-0.370,-0.370,0.000,0.000,0.000
1643253947671022848,2022-01-27-03:25:47,10.1.1.3,16,-0.360,-0.360,-0.360,0.000,0.000,0.000
1643253947870202112,2022-01-27-03:25:47,10.1.1.3,14,-0.350,-0.350,-0.350,0.000,0.000,0.000
1643253948074132992,2022-01-27-03:25:48,10.1.1.3,17,-0.340,-0.340,-0.340,0.000,0.000,0.000
1643253948290510848,2022-01-27-03:25:48,10.1.1.3,32,-0.329,-0.329,-0.329,0.000,0.000,0.000
1643253948490479104,2022-01-27-03:25:48,10.1.1.3,32,-0.319,-0.319,-0.319,0.000,0.000,0.000
1643253948690018048,2022-01-27-03:25:48,10.1.1.3,31,-0.309,-0.309,-0.309,0.000,0.000,0.000
1643253948890491904,2022-01-27-03:25:48,10.1.1.3,28,-0.299,-0.299,-0.299,0.000,0.000,0.000
1643253949092343040,2022-01-27-03:25:49,10.1.1.3,29,-0.289,-0.289,-0.289,0.000,0.000,0.000
1643253949296825856,2022-01-27-03:25:49,10.1.1.3,32,-0.279,-0.279,-0.279,0.000,0.000,0.000
1643253949493916160,2022-01-27-03:25:49,10.1.1.3,29,-0.270,-0.270,-0.270,0.000,0.000,0.000
1643253949695971072,2022-01-27-03:25:49,10.1.1.3,30,-0.259,-0.259,-0.259,0.000,0.000,0.000
1643253949896305152,2022-01-27-03:25:49,10.1.1.3,29,-0.250,-0.250,-0.250,0.000,0.000,0.000
1643253950096369152,2022-01-27-03:25:50,10.1.1.3,28,-0.239,-0.239,-0.239,0.000,0.000,0.000
1643253950298520064,2022-01-27-03:25:50,10.1.1.3,29,-0.230,-0.230,-0.230,0.000,0.000,0.000
1643253950499064064,2022-01-27-03:25:50,10.1.1.3,29,-0.219,-0.219,-0.219,0.000,0.000,0.000
1643253950699744000,2022-01-27-03:25:50,10.1.1.3,29,-0.210,-0.210,-0.210,0.000,0.000,0.000
1643253950897673984,2022-01-27-03:25:50,10.1.1.3,25,-0.200,-0.200,-0.200,0.000,0.000,0.000
1643253951097970944,2022-01-27-03:25:51,10.1.1.3,25,-0.190,-0.190,-0.190,0.000,0.000,0.000
1643253951316889088,2022-01-27-03:25:51,10.1.1.3,43,-0.179,-0.179,-0.179,0.000,0.000,0.000
1643253951517949184,2022-01-27-03:25:51,10.1.1.3,43,-0.169,-0.169,-0.169,0.000,0.000,0.000
1643253951707899136,2022-01-27-03:25:51,10.1.1.3,32,-0.160,-0.160,-0.160,0.000,0.000,0.000
1643253951904931072,2022-01-27-03:25:51,10.1.1.3,27,-0.150,-0.150,-0.150,0.000,0.000,0.000
1643253952119802112,2022-01-27-03:25:52,10.1.1.3,41,-0.139,-0.139,-0.139,0.000,0.000,0.000
1643253952298924032,2022-01-27-03:25:52,10.1.1.3,20,-0.130,-0.130,-0.130,0.000,0.000,0.000
1643253952515915008,2022-01-27-03:25:52,10.1.1.3,36,-0.119,-0.119,-0.119,0.000,0.000,0.000
1643253952698782976,2022-01-27-03:25:52,10.1.1.3,18,-0.110,-0.110,-0.110,0.000,0.000,0.000
1643253952904992000,2022-01-27-03:25:52,10.1.1.3,22,-0.100,-0.100,-0.100,0.000,0.000,0.000
1643253953118593024,2022-01-27-03:25:53,10.1.1.3,34,-0.089,-0.089,-0.089,0.000,0.000,0.000
1643253953317785088,2022-01-27-03:25:53,10.1.1.3,33,-0.079,-0.079,-0.079,0.000,0.000,0.000
1643253953514803968,2022-01-27-03:25:53,10.1.1.3,29,-0.069,-0.069,-0.069,0.000,0.000,0.000
1643253953714603776,2022-01-27-03:25:53,10.1.1.3,23,-0.060,-0.060,-0.060,0.000,0.000,0.000
1643253953912923136,2022-01-27-03:25:53,10.1.1.3,21,-0.050,-0.050,-0.050,0.000,0.000,0.000
1643253954141076992,2022-01-27-03:25:54,10.1.1.3,48,-0.038,-0.038,-0.038,0.000,0.000,0.000
1643253954317110016,2022-01-27-03:25:54,10.1.1.3,23,-0.030,-0.030,-0.030,0.000,0.000,0.000
1643253954538178048,2022-01-27-03:25:54,10.1.1.3,43,-0.019,-0.019,-0.019,0.000,0.000,0.000
1643253954712076800,2022-01-27-03:25:54,10.1.1.3,15,-0.010,-0.010,-0.010,0.000,0.000,0.000
1643253954912811008,2022-01-27-03:25:54,10.1.1.3,15,-0.000,-0.000,-0.000,0.000,0.000,0.000
1643253955132894976,2022-01-27-03:25:55,10.1.1.3,34,-0.010,-0.010,-0.010,0.000,0.000,0.000
1643253955333313024,2022-01-27-03:25:55,10.1.1.3,32,-0.020,-0.020,-0.020,0.000,0.000,0.000
1643253955532022016,2022-01-27-03:25:55,10.1.1.3,30,-0.031,-0.031,-0.031,0.000,0.000,0.000
1643253955740920064,2022-01-27-03:25:55,10.1.1.3,38,-0.041,-0.041,-0.041,0.000,0.000,0.000
1643253955941255168,2022-01-27-03:25:55,10.1.1.3,37,-0.051,-0.051,-0.051,0.000,0.000,0.000
1643253956132504832,2022-01-27-03:25:56,10.1.1.3,27,-0.061,-0.061,-0.061,0.000,0.000,0.000
1643253956332779008,2022-01-27-03:25:56,10.1.1.3,27,-0.071,-0.071,-0.071,0.000,0.000,0.000
1643253956533606912,2022-01-27-03:25:56,10.1.1.3,26,-0.081,-0.081,-0.081,0.000,0.000,0.000
1643253956759607040,2022-01-27-03:25:56,10.1.1.3,52,-0.090,-0.090,-0.090,0.000,0.000,0.000
1643253956928965120,2022-01-27-03:25:56,10.1.1.3,19,-0.100,-0.100,-0.100,0.000,0.000,0.000
1643253957157649152,2022-01-27-03:25:57,10.1.1.3,46,-0.110,-0.110,-0.110,0.000,0.000,0.000
1643253957337624064,2022-01-27-03:25:57,10.1.1.3,25,-0.121,-0.121,-0.121,0.000,0.000,0.000
1643253957538211072,2022-01-27-03:25:57,10.1.1.3,25,-0.130,-0.130,-0.130,0.000,0.000,0.000
1643253957737186048,2022-01-27-03:25:57,10.1.1.3,23,-0.140,-0.140,-0.140,0.000,0.000,0.000
1643253957957835008,2022-01-27-03:25:57,10.1.1.3,42,-0.151,-0.151,-0.151,0.000,0.000,0.000
1643253958137118976,2022-01-27-03:25:58,10.1.1.3,21,-0.160,-0.160,-0.160,0.000,0.000,0.000
1643253958338166016,2022-01-27-03:25:58,10.1.1.3,20,-0.170,-0.170,-0.170,0.000,0.000,0.000
1643253958558587136,2022-01-27-03:25:58,10.1.1.3,39,-0.181,-0.181,-0.181,0.000,0.000,0.000
1643253958757149952,2022-01-27-03:25:58,10.1.1.3,37,-0.191,-0.191,-0.191,0.000,0.000,0.000
1643253958958148864,2022-01-27-03:25:58,10.1.1.3,37,-0.201,-0.201,-0.201,0.000,0.000,0.000
1643253959140485120,2022-01-27-03:25:59,10.1.1.3,18,-0.210,-0.210,-0.210,0.000,0.000,0.000
1643253959357467904,2022-01-27-03:25:59,10.1.1.3,32,-0.221,-0.221,-0.221,0.000,0.000,0.000
1643253959556976128,2022-01-27-03:25:59,10.1.1.3,31,-0.231,-0.231,-0.231,0.000,0.000,0.000
1643253959758548992,2022-01-27-03:25:59,10.1.1.3,31,-0.241,-0.241,-0.241,0.000,0.000,0.000
1643253959957644032,2022-01-27-03:25:59,10.1.1.3,29,-0.251,-0.251,-0.251,0.000,0.000,0.000
1643253960181005056,2022-01-27-03:26:00,10.1.1.3,47,-0.261,-0.261,-0.261,0.000,0.000,0.000
1643253960357948928,2022-01-27-03:26:00,10.1.1.3,22,-0.270,-0.270,-0.270,0.000,0.000,0.000
1643253960569302016,2022-01-27-03:26:00,10.1.1.3,32,-0.281,-0.281,-0.281,0.000,0.000,0.000
1643253960759546112,2022-01-27-03:26:00,10.1.1.3,19,-0.290,-0.290,-0.290,0.000,0.000,0.000
1643253960978729984,2022-01-27-03:26:00,10.1.1.3,37,-0.301,-0.301,-0.301,0.000,0.000,0.000
1643253961180903936,2022-01-27-03:26:01,10.1.1.3,39,-0.311,-0.311,-0.311,0.000,0.000,0.000
1643253961378909184,2022-01-27-03:26:01,10.1.1.3,36,-0.321,-0.321,-0.321,0.000,0.000,0.000
1643253961577049856,2022-01-27-03:26:01,10.1.1.3,33,-0.331,-0.331,-0.331,0.000,0.000,0.000
1643253961777526016,2022-01-27-03:26:01,10.1.1.3,32,-0.341,-0.341,-0.341,0.000,0.000,0.000
1643253961977794816,2022-01-27-03:26:01,10.1.1.3,32,-0.351,-0.351,-0.351,0.000,0.000,0.000
1643253962178860032,2022-01-27-03:26:02,10.1.1.3,31,-0.361,-0.361,-0.361,0.000,0.000,0.000
1643253962377358080,2022-01-27-03:26:02,10.1.1.3,30,-0.371,-0.371,-0.371,0.000,0.000,0.000
1643253962577697024,2022-01-27-03:26:02,10.1.1.3,24,-0.381,-0.381,-0.381,0.000,0.000,0.000
1643253962778102016,2022-01-27-03:26:02,10.1.1.3,21,-0.390,-0.390,-0.390,0.000,0.000,0.000
1643253962998577152,2022-01-27-03:26:02,10.1.1.3,41,-0.401,-0.401,-0.401,0.000,0.000,0.000
1643253963178864896,2022-01-27-03:26:03,10.1.1.3,20,-0.410,-0.410,-0.410,0.000,0.000,0.000
1643253963376965120,2022-01-27-03:26:03,10.1.1.3,17,-0.420,-0.420,-0.420,0.000,0.000,0.000
1643253963577832960,2022-01-27-03:26:03,10.1.1.3,17,-0.430,-0.430,-0.430,0.000,0.000,0.000
1643253963797459968,2022-01-27-03:26:03,10.1.1.3,35,-0.441,-0.441,-0.441,0.000,0.000,0.000
1643253963990583808,2022-01-27-03:26:03,10.1.1.3,23,-0.450,-0.450,-0.450,0.000,0.000,0.000
1643253964198477056,2022-01-27-03:26:04,10.1.1.3,28,-0.461,-0.461,-0.461,0.000,0.000,0.000
1643253964421622016,2022-01-27-03:26:04,10.1.1.3,50,-0.471,-0.471,-0.471,0.000,0.000,0.000
1643253964597841152,2022-01-27-03:26:04,10.1.1.3,25,-0.480,-0.480,-0.480,0.000,0.000,0.000
1643253964829356800,2022-01-27-03:26:04,10.1.1.3,55,-0.489,-0.489,-0.489,0.000,0.000,0.000
1643253965009833216,2022-01-27-03:26:05,10.1.1.3,35,-0.479,-0.479,-0.479,0.000,0.000,0.000
1643253965208844032,2022-01-27-03:26:05,10.1.1.3,32,-0.469,-0.469,-0.469,0.000,0.000,0.000
1643253965440680960,2022-01-27-03:26:05,10.1.1.3,59,-0.458,-0.458,-0.458,0.000,0.000,0.000
1643253965610480128,2022-01-27-03:26:05,10.1.1.3,27,-0.450,-0.450,-0.450,0.000,0.000,0.000
1643253965819112960,2022-01-27-03:26:05,10.1.1.3,34,-0.439,-0.439,-0.439,0.000,0.000,0.000
1643253966009524224,2022-01-27-03:26:06,10.1.1.3,24,-0.429,-0.429,-0.429,0.000,0.000,0.000
1643253966209764096,2022-01-27-03:26:06,10.1.1.3,23,-0.420,-0.420,-0.420,0.000,0.000,0.000
1643253966429125120,2022-01-27-03:26:06,10.1.1.3,42,-0.409,-0.409,-0.409,0.000,0.000,0.000
1643253966630403072,2022-01-27-03:26:06,10.1.1.3,42,-0.399,-0.399,-0.399,0.000,0.000,0.000
1643253966829929984,2022-01-27-03:26:06,10.1.1.3,40,-0.389,-0.389,-0.389,0.000,0.000,0.000
1643253967030249984,2022-01-27-03:26:07,10.1.1.3,40,-0.379,-0.379,-0.379,0.000,0.000,0.000
1643253967230277120,2022-01-27-03:26:07,10.1.1.3,38,-0.369,-0.369,-0.369,0.000,0.000,0.000
1643253967410492928,2022-01-27-03:26:07,10.1.1.3,16,-0.360,-0.360,-0.360,0.000,0.000,0.000
1643253967640852992,2022-01-27-03:26:07,10.1.1.3,46,-0.349,-0.349,-0.349,0.000,0.000,0.000
1643253967842358016,2022-01-27-03:26:07,10.1.1.3,46,-0.339,-0.339,-0.339,0.000,0.000,0.000
1643253968032457216,2022-01-27-03:26:08,10.1.1.3,35,-0.329,-0.329,-0.329,0.000,0.000,0.000
1643253968232928000,2022-01-27-03:26:08,10.1.1.3,34,-0.319,-0.319,-0.319,0.000,0.000,0.000
1643253968435817984,2022-01-27-03:26:08,10.1.1.3,37,-0.309,-0.309,-0.309,0.000,0.000,0.000
1643253968636148992,2022-01-27-03:26:08,10.1.1.3,34,-0.299,-0.299,-0.299,0.000,0.000,0.000
1643253968832178944,2022-01-27-03:26:08,10.1.1.3,29,-0.290,-0.290,-0.290,0.000,0.000,0.000
1643253969033392896,2022-01-27-03:26:09,10.1.1.3,29,-0.279,-0.279,-0.279,0.000,0.000,0.000
1643253969232192000,2022-01-27-03:26:09,10.1.1.3,27,-0.269,-0.269,-0.269,0.000,0.000,0.000
1643253969432983040,2022-01-27-03:26:09,10.1.1.3,26,-0.259,-0.259,-0.259,0.000,0.000,0.000
1643253969632019968,2022-01-27-03:26:09,10.1.1.3,22,-0.250,-0.250,-0.250,0.000,0.000,0.000
1643253969832417024,2022-01-27-03:26:09,10.1.1.3,20,-0.240,-0.240,-0.240,0.000,0.000,0.000
1643253970051621888,2022-01-27-03:26:10,10.1.1.3,38,-0.229,-0.229,-0.229,0.000,0.000,0.000
1643253970258727936,2022-01-27-03:26:10,10.1.1.3,44,-0.219,-0.219,-0.219,0.000,0.000,0.000
1643253970431912960,2022-01-27-03:26:10,10.1.1.3,16,-0.210,-0.210,-0.210,0.000,0.000,0.000
1643253970652836096,2022-01-27-03:26:10,10.1.1.3,34,-0.199,-0.199,-0.199,0.000,0.000,0.000
1643253970851680000,2022-01-27-03:26:10,10.1.1.3,32,-0.189,-0.189,-0.189,0.000,0.000,0.000
1643253971060393984,2022-01-27-03:26:11,10.1.1.3,39,-0.179,-0.179,-0.179,0.000,0.000,0.000
1643253971252321024,2022-01-27-03:26:11,10.1.1.3,30,-0.170,-0.170,-0.170,0.000,0.000,0.000
1643253971451389184,2022-01-27-03:26:11,10.1.1.3,24,-0.159,-0.159,-0.159,0.000,0.000,0.000
1643253971672121088,2022-01-27-03:26:11,10.1.1.3,42,-0.149,-0.149,-0.149,0.000,0.000,0.000
1643253971871869184,2022-01-27-03:26:11,10.1.1.3,41,-0.139,-0.139,-0.139,0.000,0.000,0.000
1643253972052398848,2022-01-27-03:26:12,10.1.1.3,19,-0.130,-0.130,-0.130,0.000,0.000,0.000
1643253972252784128,2022-01-27-03:26:12,10.1.1.3,18,-0.120,-0.120,-0.120,0.000,0.000,0.000
1643253972451972096,2022-01-27-03:26:12,10.1.1.3,16,-0.110,-0.110,-0.110,0.000,0.000,0.000
1643253972653304064,2022-01-27-03:26:12,10.1.1.3,16,-0.100,-0.100,-0.100,0.000,0.000,0.000
1643253972852519936,2022-01-27-03:26:12,10.1.1.3,14,-0.090,-0.090,-0.090,0.000,0.000,0.000
1643253973052086016,2022-01-27-03:26:13,10.1.1.3,13,-0.080,-0.080,-0.080,0.000,0.000,0.000
1643253973273099008,2022-01-27-03:26:13,10.1.1.3,30,-0.069,-0.069,-0.069,0.000,0.000,0.000
1643253973475378944,2022-01-27-03:26:13,10.1.1.3,31,-0.059,-0.059,-0.059,0.000,0.000,0.000
1643253973676419072,2022-01-27-03:26:13,10.1.1.3,31,-0.049,-0.049,-0.049,0.000,0.000,0.000
1643253973872200960,2022-01-27-03:26:13,10.1.1.3,25,-0.039,-0.039,-0.039,0.000,0.000,0.000
1643253974071912960,2022-01-27-03:26:14,10.1.1.3,24,-0.029,-0.029,-0.029,0.000,0.000,0.000
1643253974272363008,2022-01-27-03:26:14,10.1.1.3,23,-0.020,-0.020,-0.020,0.000,0.000,0.000
1643253974492069120,2022-01-27-03:26:14,10.1.1.3,40,-0.009,-0.009,-0.009,0.000,0.000,0.000
1643253974671755008,2022-01-27-03:26:14,10.1.1.3,19,-0.000,-0.000,-0.000,0.000,0.000,0.000
1643253974872481024,2022-01-27-03:26:14,10.1.1.3,18,-0.010,-0.010,-0.010,0.000,0.000,0.000
1643253975073570048,2022-01-27-03:26:15,10.1.1.3,19,-0.020,-0.020,-0.020,0.000,0.000,0.000
1643253975291744000,2022-01-27-03:26:15,10.1.1.3,36,-0.031,-0.031,-0.031,0.000,0.000,0.000
1643253975474740992,2022-01-27-03:26:15,10.1.1.3,18,-0.040,-0.040,-0.040,0.000,0.000,0.000
1643253975674138112,2022-01-27-03:26:15,10.1.1.3,15,-0.050,-0.050,-0.050,0.000,0.000,0.000
1643253975902221824,2022-01-27-03:26:15,10.1.1.3,42,-0.061,-0.061,-0.061,0.000,0.000,0.000
1643253976094145024,2022-01-27-03:26:16,10.1.1.3,33,-0.071,-0.071,-0.071,0.000,0.000,0.000
1643253976306437888,2022-01-27-03:26:16,10.1.1.3,44,-0.081,-0.081,-0.081,0.000,0.000,0.000
1643253976499512064,2022-01-27-03:26:16,10.1.1.3,36,-0.091,-0.091,-0.091,0.000,0.000,0.000
1643253976697304064,2022-01-27-03:26:16,10.1.1.3,32,-0.101,-0.101,-0.101,0.000,0.000,0.000
1643253976899682048,2022-01-27-03:26:16,10.1.1.3,34,-0.111,-0.111,-0.111,0.000,0.000,0.000
1643253977098809088,2022-01-27-03:26:17,10.1.1.3,32,-0.121,-0.121,-0.121,0.000,0.000,0.000
1643253977306242048,2022-01-27-03:26:17,10.1.1.3,38,-0.131,-0.131,-0.131,0.000,0.000,0.000
1643253977494616064,2022-01-27-03:26:17,10.1.1.3,26,-0.141,-0.141,-0.141,0.000,0.000,0.000
1643253977693720064,2022-01-27-03:26:17,10.1.1.3,24,-0.151,-0.151,-0.151,0.000,0.000,0.000
1643253977915916032,2022-01-27-03:26:17,10.1.1.3,45,-0.161,-0.161,-0.161,0.000,0.000,0.000
1643253978095657216,2022-01-27-03:26:18,10.1.1.3,24,-0.170,-0.170,-0.170,0.000,0.000,0.000
1643253978297992960,2022-01-27-03:26:18,10.1.1.3,25,-0.181,-0.181,-0.181,0.000,0.000,0.000
1643253978498176000,2022-01-27-03:26:18,10.1.1.3,25,-0.190,-0.190,-0.190,0.000,0.000,0.000
1643253978698924032,2022-01-27-03:26:18,10.1.1.3,25,-0.200,-0.200,-0.200,0.000,0.000,0.000
1643253978898771968,2022-01-27-03:26:18,10.1.1.3,23,-0.210,-0.210,-0.210,0.000,0.000,0.000
1643253979118491904,2022-01-27-03:26:19,10.1.1.3,41,-0.221,-0.221,-0.221,0.000,0.000,0.000
1643253979318236160,2022-01-27-03:26:19,10.1.1.3,39,-0.231,-0.231,-0.231,0.000,0.000,0.000
1643253979517022976,2022-01-27-03:26:19,10.1.1.3,37,-0.241,-0.241,-0.241,0.000,0.000,0.000
1643253979717441024,2022-01-27-03:26:19,10.1.1.3,36,-0.251,-0.251,-0.251,0.000,0.000,0.000
1643253979918994944,2022-01-27-03:26:19,10.1.1.3,37,-0.261,-0.261,-0.261,0.000,0.000,0.000
1643253980120343040,2022-01-27-03:26:20,10.1.1.3,37,-0.271,-0.271,-0.271,0.000,0.000,0.000
1643253980318191104,2022-01-27-03:26:20,10.1.1.3,25,-0.281,-0.281,-0.281,0.000,0.000,0.000
1643253980516743936,2022-01-27-03:26:20,10.1.1.3,22,-0.290,-0.290,-0.290,0.000,0.000,0.000
1643253980738640128,2022-01-27-03:26:20,10.1.1.3,40,-0.301,-0.301,-0.301,0.000,0.000,0.000
1643253980918586880,2022-01-27-03:26:20,10.1.1.3,19,-0.310,-0.310,-0.310,0.000,0.000,0.000
1643253981117490176,2022-01-27-03:26:21,10.1.1.3,17,-0.320,-0.320,-0.320,0.000,0.000,0.000
1643253981337219072,2022-01-27-03:26:21,10.1.1.3,36,-0.331,-0.331,-0.331,0.000,0.000,0.000
1643253981518618112,2022-01-27-03:26:21,10.1.1.3,15,-0.340,-0.340,-0.340,0.000,0.000,0.000
1643253981738009856,2022-01-27-03:26:21,10.1.1.3,31,-0.351,-0.351,-0.351,0.000,0.000,0.000
1643253981937737984,2022-01-27-03:26:21,10.1.1.3,29,-0.361,-0.361,-0.361,0.000,0.000,0.000
1643253982139465216,2022-01-27-03:26:22,10.1.1.3,26,-0.371,-0.371,-0.371,0.000,0.000,0.000
1643253982358496000,2022-01-27-03:26:22,10.1.1.3,44,-0.381,-0.381,-0.381,0.000,0.000,0.000
1643253982537575936,2022-01-27-03:26:22,10.1.1.3,22,-0.390,-0.390,-0.390,0.000,0.000,0.000
1643253982759260928,2022-01-27-03:26:22,10.1.1.3,41,-0.401,-0.401,-0.401,0.000,0.000,0.000
1643253982952833024,2022-01-27-03:26:22,10.1.1.3,33,-0.411,-0.411,-0.411,0.000,0.000,0.000
1643253983159670016,2022-01-27-03:26:23,10.1.1.3,39,-0.421,-0.421,-0.421,0.000,0.000,0.000
1643253983349307136,2022-01-27-03:26:23,10.1.1.3,27,-0.430,-0.430,-0.430,0.000,0.000,0.000
1643253983557441024,2022-01-27-03:26:23,10.1.1.3,33,-0.441,-0.441,-0.441,0.000,0.000,0.000
1643253983758272768,2022-01-27-03:26:23,10.1.1.3,33,-0.451,-0.451,-0.451,0.000,0.000,0.000
1643253983957431040,2022-01-27-03:26:23,10.1.1.3,31,-0.461,-0.461,-0.461,0.000,0.000,0.000
1643253984157268992,2022-01-27-03:26:24,10.1.1.3,30,-0.471,-0.471,-0.471,0.000,0.000,0.000
1643253984373178112,2022-01-27-03:26:24,10.1.1.3,45,-0.481,-0.481,-0.481,0.000,0.000,0.000
1643253984537406976,2022-01-27-03:26:24,10.1.1.3,8,-0.490,-0.490,-0.490,0.000,0.000,0.000
1643253984758904064,2022-01-27-03:26:24,10.1.1.3,29,-0.479,-0.479,-0.479,0.000,0.000,0.000
1643253984957280000,2022-01-27-03:26:24,10.1.1.3,26,-0.469,-0.469,-0.469,0.000,0.000,0.000
1643253985160862976,2022-01-27-03:26:25,10.1.1.3,28,-0.460,-0.460,-0.460,0.000,0.000,0.000
1643253985358839040,2022-01-27-03:26:25,10.1.1.3,25,-0.450,-0.450,-0.450,0.000,0.000,0.000
1643253985557265152,2022-01-27-03:26:25,10.1.1.3,22,-0.440,-0.440,-0.440,0.000,0.000,0.000
1643253985758113024,2022-01-27-03:26:25,10.1.1.3,23,-0.430,-0.430,-0.430,0.000,0.000,0.000
1643253985957370112,2022-01-27-03:26:25,10.1.1.3,21,-0.420,-0.420,-0.420,0.000,0.000,0.000
1643253986177558784,2022-01-27-03:26:26,10.1.1.3,39,-0.409,-0.409,-0.409,0.000,0.000,0.000
1643253986358290944,2022-01-27-03:26:26,10.1.1.3,19,-0.400,-0.400,-0.400,0.000,0.000,0.000
1643253986558191104,2022-01-27-03:26:26,10.1.1.3,17,-0.390,-0.390,-0.390,0.000,0.000,0.000
1643253986768848896,2022-01-27-03:26:26,10.1.1.3,28,-0.379,-0.379,-0.379,0.000,0.000,0.000
1643253986981630208,2022-01-27-03:26:26,10.1.1.3,41,-0.370,-0.370,-0.370,0.000,0.000,0.000
1643253987170063872,2022-01-27-03:26:27,10.1.1.3,26,-0.360,-0.360,-0.360,0.000,0.000,0.000
1643253987369488128,2022-01-27-03:26:27,10.1.1.3,24,-0.349,-0.349,-0.349,0.000,0.000,0.000
1643253987569608960,2022-01-27-03:26:27,10.1.1.3,23,-0.340,-0.340,-0.340,0.000,0.000,0.000
1643253987769376000,2022-01-27-03:26:27,10.1.1.3,22,-0.330,-0.330,-0.330,0.000,0.000,0.000
1643253987972770048,2022-01-27-03:26:27,10.1.1.3,25,-0.320,-0.320,-0.320,0.000,0.000,0.000
1643253988169394944,2022-01-27-03:26:28,10.1.1.3,20,-0.310,-0.310,-0.310,0.000,0.000,0.000
1643253988368745984,2022-01-27-03:26:28,10.1.1.3,18,-0.300,-0.300,-0.300,0.000,0.000,0.000
1643253988589807872,2022-01-27-03:26:28,10.1.1.3,38,-0.289,-0.289,-0.289,0.000,0.000,0.000
1643253988769392128,2022-01-27-03:26:28,10.1.1.3,17,-0.280,-0.280,-0.280,0.000,0.000,0.000
1643253988968967936,2022-01-27-03:26:28,10.1.1.3,16,-0.270,-0.270,-0.270,0.000,0.000,0.000
1643253989169795072,2022-01-27-03:26:29,10.1.1.3,16,-0.260,-0.260,-0.260,0.000,0.000,0.000
1643253989369559040,2022-01-27-03:26:29,10.1.1.3,15,-0.250,-0.250,-0.250,0.000,0.000,0.000
1643253989589678080,2022-01-27-03:26:29,10.1.1.3,34,-0.239,-0.239,-0.239,0.000,0.000,0.000
1643253989789620992,2022-01-27-03:26:29,10.1.1.3,32,-0.229,-0.229,-0.229,0.000,0.000,0.000
1643253989989900032,2022-01-27-03:26:29,10.1.1.3,32,-0.219,-0.219,-0.219,0.000,0.000,0.000
1643253990189074944,2022-01-27-03:26:30,10.1.1.3,29,-0.210,-0.210,-0.210,0.000,0.000,0.000
1643253990389518080,2022-01-27-03:26:30,10.1.1.3,27,-0.200,-0.200,-0.200,0.000,0.000,0.000
1643253990589826048,2022-01-27-03:26:30,10.1.1.3,27,-0.189,-0.189,-0.189,0.000,0.000,0.000
1643253990788847872,2022-01-27-03:26:30,10.1.1.3,25,-0.179,-0.179,-0.179,0.000,0.000,0.000
1643253990989229824,2022-01-27-03:26:30,10.1.1.3,24,-0.169,-0.169,-0.169,0.000,0.000,0.000
1643253991189235968,2022-01-27-03:26:31,10.1.1.3,23,-0.160,-0.160,-0.160,0.000,0.000,0.000
1643253991410217984,2022-01-27-03:26:31,10.1.1.3,43,-0.149,-0.149,-0.149,0.000,0.000,0.000
1643253991588594944,2022-01-27-03:26:31,10.1.1.3,21,-0.140,-0.140,-0.140,0.000,0.000,0.000
1643253991789936128,2022-01-27-03:26:31,10.1.1.3,21,-0.130,-0.130,-0.130,0.000,0.000,0.000
1643253991988941056,2022-01-27-03:26:31,10.1.1.3,19,-0.120,-0.120,-0.120,0.000,0.000,0.000
1643253992209553920,2022-01-27-03:26:32,10.1.1.3,38,-0.109,-0.109,-0.109,0.000,0.000,0.000
1643253992389338112,2022-01-27-03:26:32,10.1.1.3,18,-0.100,-0.100,-0.100,0.000,0.000,0.000
1643253992598215168,2022-01-27-03:26:32,10.1.1.3,25,-0.090,-0.090,-0.090,0.000,0.000,0.000
1643253992791166976,2022-01-27-03:26:32,10.1.1.3,17,-0.080,-0.080,-0.080,0.000,0.000,0.000
1643253993010257920,2022-01-27-03:26:33,10.1.1.3,35,-0.069,-0.069,-0.069,0.000,0.000,0.000
1643253993191181056,2022-01-27-03:26:33,10.1.1.3,15,-0.060,-0.060,-0.060,0.000,0.000,0.000
1643253993410650880,2022-01-27-03:26:33,10.1.1.3,34,-0.049,-0.049,-0.049,0.000,0.000,0.000
1643253993622392832,2022-01-27-03:26:33,10.1.1.3,45,-0.039,-0.039,-0.039,0.000,0.000,0.000
1643253993810700032,2022-01-27-03:26:33,10.1.1.3,32,-0.029,-0.029,-0.029,0.000,0.000,0.000
1643253994010827008,2022-01-27-03:26:34,10.1.1.3,31,-0.019,-0.019,-0.019,0.000,0.000,0.000
1643253994210594048,2022-01-27-03:26:34,10.1.1.3,30,-0.009,-0.009,-0.009,0.000,0.000,0.000
1643253994390628096,2022-01-27-03:26:34,10.1.1.3,8,-0.000,-0.000,-0.000,0.000,0.000,0.000
1643253994610048000,2022-01-27-03:26:34,10.1.1.3,26,-0.011,-0.011,-0.011,0.000,0.000,0.000
1643253994810395904,2022-01-27-03:26:34,10.1.1.3,25,-0.021,-0.021,-0.021,0.000,0.000,0.000
1643253995033713152,2022-01-27-03:26:35,10.1.1.3,44,-0.031,-0.031,-0.031,0.000,0.000,0.000
1643253995230330112,2022-01-27-03:26:35,10.1.1.3,39,-0.041,-0.041,-0.041,0.000,0.000,0.000
1643253995410249984,2022-01-27-03:26:35,10.1.1.3,18,-0.050,-0.050,-0.050,0.000,0.000,0.000
1643253995614248960,2022-01-27-03:26:35,10.1.1.3,21,-0.060,-0.060,-0.060,0.000,0.000,0.000
1643253995828995840,2022-01-27-03:26:35,10.1.1.3,34,-0.071,-0.071,-0.071,0.000,0.000,0.000
1643253996015022080,2022-01-27-03:26:36,10.1.1.3,19,-0.080,-0.080,-0.080,0.000,0.000,0.000
1643253996229017856,2022-01-27-03:26:36,10.1.1.3,32,-0.091,-0.091,-0.091,0.000,0.000,0.000
1643253996414841856,2022-01-27-03:26:36,10.1.1.3,17,-0.100,-0.100,-0.100,0.000,0.000,0.000
1643253996615802112,2022-01-27-03:26:36,10.1.1.3,17,-0.110,-0.110,-0.110,0.000,0.000,0.000
1643253996815606016,2022-01-27-03:26:36,10.1.1.3,16,-0.120,-0.120,-0.120,0.000,0.000,0.000
1643253997037702144,2022-01-27-03:26:37,10.1.1.3,37,-0.131,-0.131,-0.131,0.000,0.000,0.000
1643253997235331072,2022-01-27-03:26:37,10.1.1.3,34,-0.141,-0.141,-0.141,0.000,0.000,0.000
1643253997434972160,2022-01-27-03:26:37,10.1.1.3,33,-0.151,-0.151,-0.151,0.000,0.000,0.000
1643253997635804928,2022-01-27-03:26:37,10.1.1.3,32,-0.161,-0.161,-0.161,0.000,0.000,0.000
1643253997835745024,2022-01-27-03:26:37,10.1.1.3,32,-0.170,-0.170,-0.170,0.000,0.000,0.000
1643253998045364992,2022-01-27-03:26:38,10.1.1.3,40,-0.181,-0.181,-0.181,0.000,0.000,0.000
1643253998235543040,2022-01-27-03:26:38,10.1.1.3,25,-0.190,-0.190,-0.190,0.000,0.000,0.000
1643253998451625984,2022-01-27-03:26:38,10.1.1.3,40,-0.201,-0.201,-0.201,0.000,0.000,0.000
1643253998654723840,2022-01-27-03:26:38,10.1.1.3,39,-0.211,-0.211,-0.211,0.000,0.000,0.000
1643253998835331840,2022-01-27-03:26:38,10.1.1.3,18,-0.220,-0.220,-0.220,0.000,0.000,0.000
1643253999041344000,2022-01-27-03:26:39,10.1.1.3,23,-0.230,-0.230,-0.230,0.000,0.000,0.000
1643253999255492864,2022-01-27-03:26:39,10.1.1.3,37,-0.241,-0.241,-0.241,0.000,0.000,0.000
1643253999455229952,2022-01-27-03:26:39,10.1.1.3,34,-0.251,-0.251,-0.251,0.000,0.000,0.000
1643253999655392768,2022-01-27-03:26:39,10.1.1.3,33,-0.260,-0.260,-0.260,0.000,0.000,0.000
1643253999856375808,2022-01-27-03:26:39,10.1.1.3,33,-0.271,-0.271,-0.271,0.000,0.000,0.000
1643254000055585024,2022-01-27-03:26:40,10.1.1.3,32,-0.281,-0.281,-0.281,0.000,0.000,0.000
1643254000255964928,2022-01-27-03:26:40,10.1.1.3,31,-0.291,-0.291,-0.291,0.000,0.000,0.000
1643254000461015040,2022-01-27-03:26:40,10.1.1.3,35,-0.300,-0.300,-0.300,0.000,0.000,0.000
1643254000649167104,2022-01-27-03:26:40,10.1.1.3,20,-0.310,-0.310,-0.310,0.000,0.000,0.000
1643254000869532160,2022-01-27-03:26:40,10.1.1.3,39,-0.321,-0.321,-0.321,0.000,0.000,0.000
1643254001068881920,2022-01-27-03:26:41,10.1.1.3,37,-0.331,-0.331,-0.331,0.000,0.000,0.000
1643254001248318976,2022-01-27-03:26:41,10.1.1.3,16,-0.340,-0.340,-0.340,0.000,0.000,0.000
1643254001472029952,2022-01-27-03:26:41,10.1.1.3,37,-0.351,-0.351,-0.351,0.000,0.000,0.000
1643254001668968960,2022-01-27-03:26:41,10.1.1.3,32,-0.361,-0.361,-0.361,0.000,0.000,0.000
1643254001868720896,2022-01-27-03:26:41,10.1.1.3,30,-0.371,-0.371,-0.371,0.000,0.000,0.000
1643254002068177920,2022-01-27-03:26:42,10.1.1.3,28,-0.381,-0.381,-0.381,0.000,0.000,0.000
1643254002269149184,2022-01-27-03:26:42,10.1.1.3,28,-0.391,-0.391,-0.391,0.000,0.000,0.000
1643254002477932032,2022-01-27-03:26:42,10.1.1.3,36,-0.401,-0.401,-0.401,0.000,0.000,0.000
1643254002668963072,2022-01-27-03:26:42,10.1.1.3,26,-0.411,-0.411,-0.411,0.000,0.000,0.000
1643254002869344000,2022-01-27-03:26:42,10.1.1.3,25,-0.420,-0.420,-0.420,0.000,0.000,0.000
1643254003094345216,2022-01-27-03:26:43,10.1.1.3,50,-0.431,-0.431,-0.431,0.000,0.000,0.000
1643254003274099200,2022-01-27-03:26:43,10.1.1.3,27,-0.441,-0.441,-0.441,0.000,0.000,0.000
1643254003477345024,2022-01-27-03:26:43,10.1.1.3,28,-0.451,-0.451,-0.451,0.000,0.000,0.000
1643254003694001920,2022-01-27-03:26:43,10.1.1.3,44,-0.461,-0.461,-0.461,0.000,0.000,0.000
1643254003874200064,2022-01-27-03:26:43,10.1.1.3,22,-0.470,-0.470,-0.470,0.000,0.000,0.000
1643254004074661120,2022-01-27-03:26:44,10.1.1.3,19,-0.480,-0.480,-0.480,0.000,0.000,0.000
1643254004294735872,2022-01-27-03:26:44,10.1.1.3,37,-0.489,-0.489,-0.489,0.000,0.000,0.000
1643254004495556096,2022-01-27-03:26:44,10.1.1.3,37,-0.479,-0.479,-0.479,0.000,0.000,0.000
1643254004695086080,2022-01-27-03:26:44,10.1.1.3,36,-0.469,-0.469,-0.469,0.000,0.000,0.000
1643254004902718976,2022-01-27-03:26:44,10.1.1.3,42,-0.459,-0.459,-0.459,0.000,0.000,0.000
1643254005095089920,2022-01-27-03:26:45,10.1.1.3,33,-0.449,-0.449,-0.449,0.000,0.000,0.000
1643254005294699008,2022-01-27-03:26:45,10.1.1.3,30,-0.439,-0.439,-0.439,0.000,0.000,0.000
1643254005493998080,2022-01-27-03:26:45,10.1.1.3,29,-0.429,-0.429,-0.429,0.000,0.000,0.000
1643254005694113024,2022-01-27-03:26:45,10.1.1.3,28,-0.419,-0.419,-0.419,0.000,0.000,0.000
1643254005894359040,2022-01-27-03:26:45,10.1.1.3,27,-0.409,-0.409,-0.409,0.000,0.000,0.000
1643254006094553856,2022-01-27-03:26:46,10.1.1.3,27,-0.399,-0.399,-0.399,0.000,0.000,0.000
1643254006299688960,2022-01-27-03:26:46,10.1.1.3,29,-0.390,-0.390,-0.390,0.000,0.000,0.000
1643254006493660928,2022-01-27-03:26:46,10.1.1.3,22,-0.380,-0.380,-0.380,0.000,0.000,0.000
1643254006713826816,2022-01-27-03:26:46,10.1.1.3,41,-0.369,-0.369,-0.369,0.000,0.000,0.000
1643254006915095040,2022-01-27-03:26:46,10.1.1.3,40,-0.359,-0.359,-0.359,0.000,0.000,0.000
1643254007114160896,2022-01-27-03:26:47,10.1.1.3,37,-0.349,-0.349,-0.349,0.000,0.000,0.000
1643254007319659008,2022-01-27-03:26:47,10.1.1.3,41,-0.340,-0.340,-0.340,0.000,0.000,0.000
1643254007510386944,2022-01-27-03:26:47,10.1.1.3,31,-0.329,-0.329,-0.329,0.000,0.000,0.000
1643254007710243072,2022-01-27-03:26:47,10.1.1.3,30,-0.319,-0.319,-0.319,0.000,0.000,0.000
1643254007910871040,2022-01-27-03:26:47,10.1.1.3,30,-0.309,-0.309,-0.309,0.000,0.000,0.000
1643254008110958080,2022-01-27-03:26:48,10.1.1.3,29,-0.299,-0.299,-0.299,0.000,0.000,0.000
1643254008310912000,2022-01-27-03:26:48,10.1.1.3,28,-0.289,-0.289,-0.289,0.000,0.000,0.000
1643254008510443008,2022-01-27-03:26:48,10.1.1.3,26,-0.279,-0.279,-0.279,0.000,0.000,0.000
1643254008709867008,2022-01-27-03:26:48,10.1.1.3,25,-0.270,-0.270,-0.270,0.000,0.000,0.000
1643254008909886976,2022-01-27-03:26:48,10.1.1.3,24,-0.259,-0.259,-0.259,0.000,0.000,0.000
1643254009110289152,2022-01-27-03:26:49,10.1.1.3,23,-0.250,-0.250,-0.250,0.000,0.000,0.000
1643254009329925120,2022-01-27-03:26:49,10.1.1.3,42,-0.239,-0.239,-0.239,0.000,0.000,0.000
1643254009530450176,2022-01-27-03:26:49,10.1.1.3,41,-0.229,-0.229,-0.229,0.000,0.000,0.000
1643254009710068992,2022-01-27-03:26:49,10.1.1.3,20,-0.220,-0.220,-0.220,0.000,0.000,0.000
1643254009910429952,2022-01-27-03:26:49,10.1.1.3,18,-0.210,-0.210,-0.210,0.000,0.000,0.000
1643254010132188160,2022-01-27-03:26:50,10.1.1.3,39,-0.199,-0.199,-0.199,0.000,0.000,0.000
1643254010309745152,2022-01-27-03:26:50,10.1.1.3,16,-0.190,-0.190,-0.190,0.000,0.000,0.000
1643254010531205888,2022-01-27-03:26:50,10.1.1.3,36,-0.179,-0.179,-0.179,0.000,0.000,0.000
1643254010716623104,2022-01-27-03:26:50,10.1.1.3,21,-0.169,-0.169,-0.169,0.000,0.000,0.000
1643254010949234944,2022-01-27-03:26:50,10.1.1.3,52,-0.158,-0.158,-0.158,0.000,0.000,0.000
1643254011150044928,2022-01-27-03:26:51,10.1.1.3,52,-0.148,-0.148,-0.148,0.000,0.000,0.000
1643254011352896000,2022-01-27-03:26:51,10.1.1.3,53,-0.138,-0.138,-0.138,0.000,0.000,0.000
1643254011512318976,2022-01-27-03:26:51,10.1.1.3,10,-0.130,-0.130,-0.130,0.000,0.000,0.000
1643254011721192960,2022-01-27-03:26:51,10.1.1.3,18,-0.120,-0.120,-0.120,0.000,0.000,0.000
1643254011957133056,2022-01-27-03:26:51,10.1.1.3,53,-0.108,-0.108,-0.108,0.000,0.000,0.000
1643254012147185920,2022-01-27-03:26:52,10.1.1.3,42,-0.100,-0.100,-0.100,0.000,0.000,0.000
1643254012333689088,2022-01-27-03:26:52,10.1.1.3,28,-0.089,-0.089,-0.089,0.000,0.000,0.000
1643254012534841088,2022-01-27-03:26:52,10.1.1.3,27,-0.079,-0.079,-0.079,0.000,0.000,0.000
1643254012733948928,2022-01-27-03:26:52,10.1.1.3,26,-0.069,-0.069,-0.069,0.000,0.000,0.000
1643254012933268992,2022-01-27-03:26:52,10.1.1.3,24,-0.060,-0.060,-0.060,0.000,0.000,0.000
1643254013132292096,2022-01-27-03:26:53,10.1.1.3,23,-0.050,-0.050,-0.050,0.000,0.000,0.000
1643254013352678144,2022-01-27-03:26:53,10.1.1.3,42,-0.039,-0.039,-0.039,0.000,0.000,0.000
1643254013553422080,2022-01-27-03:26:53,10.1.1.3,42,-0.029,-0.029,-0.029,0.000,0.000,0.000
1643254013753579008,2022-01-27-03:26:53,10.1.1.3,39,-0.019,-0.019,-0.019,0.000,0.000,0.000
1643254013932956928,2022-01-27-03:26:53,10.1.1.3,17,-0.010,-0.010,-0.010,0.000,0.000,0.000
1643254014132628992,2022-01-27-03:26:54,10.1.1.3,15,-0.000,-0.000,-0.000,0.000,0.000,0.000
1643254014354917120,2022-01-27-03:26:54,10.1.1.3,36,-0.011,-0.011,-0.011,0.000,0.000,0.000
1643254014552406016,2022-01-27-03:26:54,10.1.1.3,33,-0.021,-0.021,-0.021,0.000,0.000,0.000
1643254014753586176,2022-01-27-03:26:54,10.1.1.3,32,-0.031,-0.031,-0.031,0.000,0.000,0.000
1643254014956058880,2022-01-27-03:26:54,10.1.1.3,33,-0.041,-0.041,-0.041,0.000,0.000,0.000
1643254015153304064,2022-01-27-03:26:55,10.1.1.3,29,-0.051,-0.051,-0.051,0.000,0.000,0.000
1643254015352560128,2022-01-27-03:26:55,10.1.1.3,28,-0.061,-0.061,-0.061,0.000,0.000,0.000
1643254015552832000,2022-01-27-03:26:55,10.1.1.3,26,-0.071,-0.071,-0.071,0.000,0.000,0.000
1643254015754657024,2022-01-27-03:26:55,10.1.1.3,26,-0.080,-0.080,-0.080,0.000,0.000,0.000
1643254015953485056,2022-01-27-03:26:55,10.1.1.3,24,-0.090,-0.090,-0.090,0.000,0.000,0.000
1643254016154587136,2022-01-27-03:26:56,10.1.1.3,20,-0.100,-0.100,-0.100,0.000,0.000,0.000
1643254016354317824,2022-01-27-03:26:56,10.1.1.3,19,-0.110,-0.110,-0.110,0.000,0.000,0.000
1643254016556183040,2022-01-27-03:26:56,10.1.1.3,20,-0.120,-0.120,-0.120,0.000,0.000,0.000
1643254016752876032,2022-01-27-03:26:56,10.1.1.3,15,-0.130,-0.130,-0.130,0.000,0.000,0.000
1643254016980703232,2022-01-27-03:26:56,10.1.1.3,41,-0.141,-0.141,-0.141,0.000,0.000,0.000
1643254017182732032,2022-01-27-03:26:57,10.1.1.3,42,-0.151,-0.151,-0.151,0.000,0.000,0.000
1643254017373858048,2022-01-27-03:26:57,10.1.1.3,32,-0.161,-0.161,-0.161,0.000,0.000,0.000
1643254017573206784,2022-01-27-03:26:57,10.1.1.3,31,-0.171,-0.171,-0.171,0.000,0.000,0.000
1643254017773586944,2022-01-27-03:26:57,10.1.1.3,30,-0.181,-0.181,-0.181,0.000,0.000,0.000
1643254017981651968,2022-01-27-03:26:57,10.1.1.3,38,-0.190,-0.190,-0.190,0.000,0.000,0.000
1643254018179086080,2022-01-27-03:26:58,10.1.1.3,34,-0.200,-0.200,-0.200,0.000,0.000,0.000
1643254018374458112,2022-01-27-03:26:58,10.1.1.3,28,-0.211,-0.211,-0.211,0.000,0.000,0.000
1643254018574510080,2022-01-27-03:26:58,10.1.1.3,27,-0.221,-0.221,-0.221,0.000,0.000,0.000
1643254018791315200,2022-01-27-03:26:58,10.1.1.3,44,-0.231,-0.231,-0.231,0.000,0.000,0.000
1643254018991290112,2022-01-27-03:26:58,10.1.1.3,42,-0.241,-0.241,-0.241,0.000,0.000,0.000
1643254019170903808,2022-01-27-03:26:59,10.1.1.3,21,-0.250,-0.250,-0.250,0.000,0.000,0.000
1643254019370969088,2022-01-27-03:26:59,10.1.1.3,19,-0.260,-0.260,-0.260,0.000,0.000,0.000
1643254019591908864,2022-01-27-03:26:59,10.1.1.3,35,-0.271,-0.271,-0.271,0.000,0.000,0.000
1643254019791929856,2022-01-27-03:26:59,10.1.1.3,33,-0.281,-0.281,-0.281,0.000,0.000,0.000
1643254019991463936,2022-01-27-03:26:59,10.1.1.3,32,-0.291,-0.291,-0.291,0.000,0.000,0.000
1643254020191844096,2022-01-27-03:27:00,10.1.1.3,30,-0.301,-0.301,-0.301,0.000,0.000,0.000
1643254020391388928,2022-01-27-03:27:00,10.1.1.3,28,-0.311,-0.311,-0.311,0.000,0.000,0.000
1643254020591288064,2022-01-27-03:27:00,10.1.1.3,27,-0.321,-0.321,-0.321,0.000,0.000,0.000
1643254020800834048,2022-01-27-03:27:00,10.1.1.3,36,-0.331,-0.331,-0.331,0.000,0.000,0.000
1643254020992182016,2022-01-27-03:27:00,10.1.1.3,25,-0.341,-0.341,-0.341,0.000,0.000,0.000
1643254021212147968,2022-01-27-03:27:01,10.1.1.3,41,-0.351,-0.351,-0.351,0.000,0.000,0.000
1643254021411554048,2022-01-27-03:27:01,10.1.1.3,40,-0.361,-0.361,-0.361,0.000,0.000,0.000
1643254021591469056,2022-01-27-03:27:01,10.1.1.3,19,-0.370,-0.370,-0.370,0.000,0.000,0.000
1643254021791202048,2022-01-27-03:27:01,10.1.1.3,17,-0.380,-0.380,-0.380,0.000,0.000,0.000
1643254021990711040,2022-01-27-03:27:01,10.1.1.3,16,-0.390,-0.390,-0.390,0.000,0.000,0.000
1643254022191194112,2022-01-27-03:27:02,10.1.1.3,15,-0.400,-0.400,-0.400,0.000,0.000,0.000
1643254022393684992,2022-01-27-03:27:02,10.1.1.3,17,-0.410,-0.410,-0.410,0.000,0.000,0.000
1643254022631567872,2022-01-27-03:27:02,10.1.1.3,51,-0.421,-0.421,-0.421,0.000,0.000,0.000
1643254022813221888,2022-01-27-03:27:02,10.1.1.3,30,-0.431,-0.431,-0.431,0.000,0.000,0.000
1643254023013539072,2022-01-27-03:27:03,10.1.1.3,29,-0.441,-0.441,-0.441,0.000,0.000,0.000
1643254023213340160,2022-01-27-03:27:03,10.1.1.3,28,-0.451,-0.451,-0.451,0.000,0.000,0.000
1643254023413748992,2022-01-27-03:27:03,10.1.1.3,25,-0.461,-0.461,-0.461,0.000,0.000,0.000
1643254023613351936,2022-01-27-03:27:03,10.1.1.3,22,-0.470,-0.470,-0.470,0.000,0.000,0.000
1643254023832947968,2022-01-27-03:27:03,10.1.1.3,40,-0.481,-0.481,-0.481,0.000,0.000,0.000
1643254024002039808,2022-01-27-03:27:04,10.1.1.3,6,-0.490,-0.490,-0.490,0.000,0.000,0.000
1643254024218511104,2022-01-27-03:27:04,10.1.1.3,21,-0.480,-0.480,-0.480,0.000,0.000,0.000
1643254024432149760,2022-01-27-03:27:04,10.1.1.3,33,-0.469,-0.469,-0.469,0.000,0.000,0.000
1643254024631916032,2022-01-27-03:27:04,10.1.1.3,30,-0.460,-0.460,-0.460,0.000,0.000,0.000
1643254024831609088,2022-01-27-03:27:04,10.1.1.3,28,-0.449,-0.449,-0.449,0.000,0.000,0.000
1643254025032713984,2022-01-27-03:27:05,10.1.1.3,28,-0.439,-0.439,-0.439,0.000,0.000,0.000
1643254025232018944,2022-01-27-03:27:05,10.1.1.3,27,-0.429,-0.429,-0.429,0.000,0.000,0.000
1643254025431920128,2022-01-27-03:27:05,10.1.1.3,25,-0.419,-0.419,-0.419,0.000,0.000,0.000
1643254025632080128,2022-01-27-03:27:05,10.1.1.3,24,-0.409,-0.409,-0.409,0.000,0.000,0.000
1643254025832253952,2022-01-27-03:27:05,10.1.1.3,24,-0.400,-0.400,-0.400,0.000,0.000,0.000
1643254026032375040,2022-01-27-03:27:06,10.1.1.3,22,-0.390,-0.390,-0.390,0.000,0.000,0.000
1643254026232300032,2022-01-27-03:27:06,10.1.1.3,21,-0.380,-0.380,-0.380,0.000,0.000,0.000
1643254026432035072,2022-01-27-03:27:06,10.1.1.3,20,-0.370,-0.370,-0.370,0.000,0.000,0.000
1643254026631652096,2022-01-27-03:27:06,10.1.1.3,19,-0.360,-0.360,-0.360,0.000,0.000,0.000
1643254026833165824,2022-01-27-03:27:06,10.1.1.3,19,-0.350,-0.350,-0.350,0.000,0.000,0.000
1643254027032531968,2022-01-27-03:27:07,10.1.1.3,18,-0.340,-0.340,-0.340,0.000,0.000,0.000
1643254027231548928,2022-01-27-03:27:07,10.1.1.3,16,-0.330,-0.330,-0.330,0.000,0.000,0.000
1643254027452788992,2022-01-27-03:27:07,10.1.1.3,36,-0.319,-0.319,-0.319,0.000,0.000,0.000
1643254027651664128,2022-01-27-03:27:07,10.1.1.3,34,-0.309,-0.309,-0.309,0.000,0.000,0.000
1643254027862746880,2022-01-27-03:27:07,10.1.1.3,43,-0.299,-0.299,-0.299,0.000,0.000,0.000
1643254028051211008,2022-01-27-03:27:08,10.1.1.3,30,-0.289,-0.289,-0.289,0.000,0.000,0.000
1643254028252988928,2022-01-27-03:27:08,10.1.1.3,30,-0.279,-0.279,-0.279,0.000,0.000,0.000
1643254028452220928,2022-01-27-03:27:08,10.1.1.3,28,-0.269,-0.269,-0.269,0.000,0.000,0.000
1643254028651508992,2022-01-27-03:27:08,10.1.1.3,27,-0.259,-0.259,-0.259,0.000,0.000,0.000
1643254028852348928,2022-01-27-03:27:08,10.1.1.3,27,-0.249,-0.249,-0.249,0.000,0.000,0.000
1643254029051593984,2022-01-27-03:27:09,10.1.1.3,25,-0.239,-0.239,-0.239,0.000,0.000,0.000
1643254029252017920,2022-01-27-03:27:09,10.1.1.3,24,-0.230,-0.230,-0.230,0.000,0.000,0.000
1643254029451958016,2022-01-27-03:27:09,10.1.1.3,24,-0.220,-0.220,-0.220,0.000,0.000,0.000
1643254029671420160,2022-01-27-03:27:09,10.1.1.3,42,-0.209,-0.209,-0.209,0.000,0.000,0.000
1643254029851804928,2022-01-27-03:27:09,10.1.1.3,22,-0.200,-0.200,-0.200,0.000,0.000,0.000
1643254030052231168,2022-01-27-03:27:10,10.1.1.3,21,-0.190,-0.190,-0.190,0.000,0.000,0.000
1643254030274188032,2022-01-27-03:27:10,10.1.1.3,41,-0.179,-0.179,-0.179,0.000,0.000,0.000
1643254030450607104,2022-01-27-03:27:10,10.1.1.3,16,-0.170,-0.170,-0.170,0.000,0.000,0.000
1643254030719727872,2022-01-27-03:27:10,10.1.1.3,83,-0.158,-0.158,-0.158,0.000,0.000,0.000
1643254030866453760,2022-01-27-03:27:10,10.1.1.3,29,-0.150,-0.150,-0.150,0.000,0.000,0.000
1643254031077780992,2022-01-27-03:27:11,10.1.1.3,39,-0.139,-0.139,-0.139,0.000,0.000,0.000
1643254031257625088,2022-01-27-03:27:11,10.1.1.3,19,-0.130,-0.130,-0.130,0.000,0.000,0.000
1643254031456168960,2022-01-27-03:27:11,10.1.1.3,16,-0.120,-0.120,-0.120,0.000,0.000,0.000
1643254031656347136,2022-01-27-03:27:11,10.1.1.3,13,-0.110,-0.110,-0.110,0.000,0.000,0.000
1643254031877338880,2022-01-27-03:27:11,10.1.1.3,33,-0.099,-0.099,-0.099,0.000,0.000,0.000
1643254032076152064,2022-01-27-03:27:12,10.1.1.3,31,-0.090,-0.090,-0.090,0.000,0.000,0.000
1643254032275960064,2022-01-27-03:27:12,10.1.1.3,25,-0.079,-0.079,-0.079,0.000,0.000,0.000
1643254032475913984,2022-01-27-03:27:12,10.1.1.3,23,-0.070,-0.070,-0.070,0.000,0.000,0.000
1643254032675972096,2022-01-27-03:27:12,10.1.1.3,19,-0.060,-0.060,-0.060,0.000,0.000,0.000
1643254032897156096,2022-01-27-03:27:12,10.1.1.3,39,-0.049,-0.049,-0.049,0.000,0.000,0.000
1643254033097209088,2022-01-27-03:27:13,10.1.1.3,38,-0.039,-0.039,-0.039,0.000,0.000,0.000
1643254033276681984,2022-01-27-03:27:13,10.1.1.3,16,-0.030,-0.030,-0.030,0.000,0.000,0.000
1643254033476804864,2022-01-27-03:27:13,10.1.1.3,16,-0.020,-0.020,-0.020,0.000,0.000,0.000
1643254033696270080,2022-01-27-03:27:13,10.1.1.3,35,-0.009,-0.009,-0.009,0.000,0.000,0.000
1643254033896003072,2022-01-27-03:27:13,10.1.1.3,33,-0.001,-0.001,-0.001,0.000,0.000,0.000
1643254034100548096,2022-01-27-03:27:14,10.1.1.3,37,-0.010,-0.010,-0.010,0.000,0.000,0.000
1643254034298105088,2022-01-27-03:27:14,10.1.1.3,33,-0.021,-0.021,-0.021,0.000,0.000,0.000
1643254034496887040,2022-01-27-03:27:14,10.1.1.3,31,-0.031,-0.031,-0.031,0.000,0.000,0.000
1643254034697200128,2022-01-27-03:27:14,10.1.1.3,30,-0.041,-0.041,-0.041,0.000,0.000,0.000
1643254034898104064,2022-01-27-03:27:14,10.1.1.3,30,-0.051,-0.051,-0.051,0.000,0.000,0.000
1643254035097835008,2022-01-27-03:27:15,10.1.1.3,29,-0.061,-0.061,-0.061,0.000,0.000,0.000
1643254035297352192,2022-01-27-03:27:15,10.1.1.3,27,-0.071,-0.071,-0.071,0.000,0.000,0.000
1643254035498814976,2022-01-27-03:27:15,10.1.1.3,26,-0.081,-0.081,-0.081,0.000,0.000,0.000
1643254035698895104,2022-01-27-03:27:15,10.1.1.3,25,-0.090,-0.090,-0.090,0.000,0.000,0.000
1643254035899176960,2022-01-27-03:27:15,10.1.1.3,25,-0.100,-0.100,-0.100,0.000,0.000,0.000
1643254036098308096,2022-01-27-03:27:16,10.1.1.3,21,-0.110,-0.110,-0.110,0.000,0.000,0.000
1643254036318073088,2022-01-27-03:27:16,10.1.1.3,39,-0.121,-0.121,-0.121,0.000,0.000,0.000
1643254036519097088,2022-01-27-03:27:16,10.1.1.3,39,-0.131,-0.131,-0.131,0.000,0.000,0.000
1643254036697506048,2022-01-27-03:27:16,10.1.1.3,16,-0.140,-0.140,-0.140,0.000,0.000,0.000
1643254036902354944,2022-01-27-03:27:16,10.1.1.3,20,-0.150,-0.150,-0.150,0.000,0.000,0.000
1643254037121152000,2022-01-27-03:27:17,10.1.1.3,38,-0.160,-0.160,-0.160,0.000,0.000,0.000
1643254037313512192,2022-01-27-03:27:17,10.1.1.3,29,-0.171,-0.171,-0.171,0.000,0.000,0.000
1643254037514839808,2022-01-27-03:27:17,10.1.1.3,29,-0.181,-0.181,-0.181,0.000,0.000,0.000
1643254037717339136,2022-01-27-03:27:17,10.1.1.3,31,-0.191,-0.191,-0.191,0.000,0.000,0.000
1643254037915695872,2022-01-27-03:27:17,10.1.1.3,29,-0.201,-0.201,-0.201,0.000,0.000,0.000
1643254038115080192,2022-01-27-03:27:18,10.1.1.3,22,-0.210,-0.210,-0.210,0.000,0.000,0.000
1643254038315512064,2022-01-27-03:27:18,10.1.1.3,20,-0.220,-0.220,-0.220,0.000,0.000,0.000
1643254038529936128,2022-01-27-03:27:18,10.1.1.3,31,-0.231,-0.231,-0.231,0.000,0.000,0.000
1643254038735895040,2022-01-27-03:27:18,10.1.1.3,35,-0.241,-0.241,-0.241,0.000,0.000,0.000
1643254038935806976,2022-01-27-03:27:18,10.1.1.3,33,-0.251,-0.251,-0.251,0.000,0.000,0.000
1643254039135292160,2022-01-27-03:27:19,10.1.1.3,31,-0.261,-0.261,-0.261,0.000,0.000,0.000
1643254039335809024,2022-01-27-03:27:19,10.1.1.3,30,-0.271,-0.271,-0.271,0.000,0.000,0.000
1643254039551634944,2022-01-27-03:27:19,10.1.1.3,42,-0.281,-0.281,-0.281,0.000,0.000,0.000
1643254039752410880,2022-01-27-03:27:19,10.1.1.3,42,-0.291,-0.291,-0.291,0.000,0.000,0.000
1643254039951681024,2022-01-27-03:27:19,10.1.1.3,40,-0.301,-0.301,-0.301,0.000,0.000,0.000
1643254040132288000,2022-01-27-03:27:20,10.1.1.3,19,-0.310,-0.310,-0.310,0.000,0.000,0.000
1643254040332128000,2022-01-27-03:27:20,10.1.1.3,18,-0.320,-0.320,-0.320,0.000,0.000,0.000
1643254040532759040,2022-01-27-03:27:20,10.1.1.3,17,-0.330,-0.330,-0.330,0.000,0.000,0.000
1643254040757622016,2022-01-27-03:27:20,10.1.1.3,40,-0.341,-0.341,-0.341,0.000,0.000,0.000
1643254040940337920,2022-01-27-03:27:20,10.1.1.3,22,-0.350,-0.350,-0.350,0.000,0.000,0.000
1643254041151299072,2022-01-27-03:27:21,10.1.1.3,32,-0.361,-0.361,-0.361,0.000,0.000,0.000
1643254041352183040,2022-01-27-03:27:21,10.1.1.3,30,-0.371,-0.371,-0.371,0.000,0.000,0.000
1643254041551964160,2022-01-27-03:27:21,10.1.1.3,30,-0.381,-0.381,-0.381,0.000,0.000,0.000
1643254041750670848,2022-01-27-03:27:21,10.1.1.3,27,-0.391,-0.391,-0.391,0.000,0.000,0.000
1643254041950489088,2022-01-27-03:27:21,10.1.1.3,26,-0.401,-0.401,-0.401,0.000,0.000,0.000
1643254042150529024,2022-01-27-03:27:22,10.1.1.3,24,-0.410,-0.410,-0.410,0.000,0.000,0.000
1643254042351015936,2022-01-27-03:27:22,10.1.1.3,24,-0.420,-0.420,-0.420,0.000,0.000,0.000
1643254042558253056,2022-01-27-03:27:22,10.1.1.3,30,-0.430,-0.430,-0.430,0.000,0.000,0.000
1643254042750446080,2022-01-27-03:27:22,10.1.1.3,21,-0.440,-0.440,-0.440,0.000,0.000,0.000
1643254042952146944,2022-01-27-03:27:22,10.1.1.3,21,-0.450,-0.450,-0.450,0.000,0.000,0.000
1643254043150669056,2022-01-27-03:27:23,10.1.1.3,18,-0.460,-0.460,-0.460,0.000,0.000,0.000
1643254043350550016,2022-01-27-03:27:23,10.1.1.3,18,-0.470,-0.470,-0.470,0.000,0.000,0.000
1643254043551126016,2022-01-27-03:27:23,10.1.1.3,17,-0.480,-0.480,-0.480,0.000,0.000,0.000
1643254043751184896,2022-01-27-03:27:23,10.1.1.3,15,-0.490,-0.490,-0.490,0.000,0.000,0.000
1643254043972634112,2022-01-27-03:27:23,10.1.1.3,36,-0.479,-0.479,-0.479,0.000,0.000,0.000
1643254044170969856,2022-01-27-03:27:24,10.1.1.3,33,-0.469,-0.469,-0.469,0.000,0.000,0.000
1643254044371465984,2022-01-27-03:27:24,10.1.1.3,32,-0.459,-0.459,-0.459,0.000,0.000,0.000
1643254044570571776,2022-01-27-03:27:24,10.1.1.3,29,-0.449,-0.449,-0.449,0.000,0.000,0.000
1643254044771273984,2022-01-27-03:27:24,10.1.1.3,28,-0.440,-0.440,-0.440,0.000,0.000,0.000
1643254044970187008,2022-01-27-03:27:24,10.1.1.3,26,-0.430,-0.430,-0.430,0.000,0.000,0.000
1643254045169388032,2022-01-27-03:27:25,10.1.1.3,24,-0.420,-0.420,-0.420,0.000,0.000,0.000
1643254045390202880,2022-01-27-03:27:25,10.1.1.3,44,-0.409,-0.409,-0.409,0.000,0.000,0.000
1643254045570311936,2022-01-27-03:27:25,10.1.1.3,21,-0.400,-0.400,-0.400,0.000,0.000,0.000
1643254045769634048,2022-01-27-03:27:25,10.1.1.3,19,-0.390,-0.390,-0.390,0.000,0.000,0.000
1643254045970096128,2022-01-27-03:27:25,10.1.1.3,18,-0.380,-0.380,-0.380,0.000,0.000,0.000
1643254046169390848,2022-01-27-03:27:26,10.1.1.3,17,-0.370,-0.370,-0.370,0.000,0.000,0.000
1643254046370358016,2022-01-27-03:27:26,10.1.1.3,15,-0.360,-0.360,-0.360,0.000,0.000,0.000
1643254046590313984,2022-01-27-03:27:26,10.1.1.3,34,-0.349,-0.349,-0.349,0.000,0.000,0.000
1643254046790291968,2022-01-27-03:27:26,10.1.1.3,32,-0.339,-0.339,-0.339,0.000,0.000,0.000
1643254046989357824,2022-01-27-03:27:26,10.1.1.3,27,-0.329,-0.329,-0.329,0.000,0.000,0.000
1643254047190185984,2022-01-27-03:27:27,10.1.1.3,26,-0.319,-0.319,-0.319,0.000,0.000,0.000
1643254047389657088,2022-01-27-03:27:27,10.1.1.3,24,-0.310,-0.310,-0.310,0.000,0.000,0.000
1643254047609728000,2022-01-27-03:27:27,10.1.1.3,41,-0.299,-0.299,-0.299,0.000,0.000,0.000
1643254047810342144,2022-01-27-03:27:27,10.1.1.3,40,-0.289,-0.289,-0.289,0.000,0.000,0.000
1643254048010479872,2022-01-27-03:27:28,10.1.1.3,39,-0.279,-0.279,-0.279,0.000,0.000,0.000
1643254048198999808,2022-01-27-03:27:28,10.1.1.3,27,-0.270,-0.270,-0.270,0.000,0.000,0.000
1643254048399431936,2022-01-27-03:27:28,10.1.1.3,26,-0.260,-0.260,-0.260,0.000,0.000,0.000
1643254048598316032,2022-01-27-03:27:28,10.1.1.3,23,-0.250,-0.250,-0.250,0.000,0.000,0.000
1643254048799299072,2022-01-27-03:27:28,10.1.1.3,24,-0.240,-0.240,-0.240,0.000,0.000,0.000
1643254048998028032,2022-01-27-03:27:28,10.1.1.3,19,-0.230,-0.230,-0.230,0.000,0.000,0.000
1643254049218851072,2022-01-27-03:27:29,10.1.1.3,38,-0.219,-0.219,-0.219,0.000,0.000,0.000
1643254049417449984,2022-01-27-03:27:29,10.1.1.3,36,-0.209,-0.209,-0.209,0.000,0.000,0.000
1643254049598202880,2022-01-27-03:27:29,10.1.1.3,16,-0.200,-0.200,-0.200,0.000,0.000,0.000
1643254049818480896,2022-01-27-03:27:29,10.1.1.3,35,-0.189,-0.189,-0.189,0.000,0.000,0.000
1643254050018840064,2022-01-27-03:27:30,10.1.1.3,35,-0.179,-0.179,-0.179,0.000,0.000,0.000
1643254050210834944,2022-01-27-03:27:30,10.1.1.3,26,-0.169,-0.169,-0.169,0.000,0.000,0.000
1643254050409806848,2022-01-27-03:27:30,10.1.1.3,24,-0.160,-0.160,-0.160,0.000,0.000,0.000
1643254050610308864,2022-01-27-03:27:30,10.1.1.3,23,-0.150,-0.150,-0.150,0.000,0.000,0.000
1643254050829458944,2022-01-27-03:27:30,10.1.1.3,42,-0.139,-0.139,-0.139,0.000,0.000,0.000
1643254051017088768,2022-01-27-03:27:31,10.1.1.3,28,-0.130,-0.130,-0.130,0.000,0.000,0.000
1643254051210763008,2022-01-27-03:27:31,10.1.1.3,20,-0.120,-0.120,-0.120,0.000,0.000,0.000
1643254051465268992,2022-01-27-03:27:31,10.1.1.3,74,-0.109,-0.109,-0.109,0.000,0.000,0.000
1643254051622766080,2022-01-27-03:27:31,10.1.1.3,30,-0.100,-0.100,-0.100,0.000,0.000,0.000
1643254051818013952,2022-01-27-03:27:31,10.1.1.3,24,-0.090,-0.090,-0.090,0.000,0.000,0.000
1643254052018414848,2022-01-27-03:27:32,10.1.1.3,24,-0.080,-0.080,-0.080,0.000,0.000,0.000
1643254052233725952,2022-01-27-03:27:32,10.1.1.3,37,-0.069,-0.069,-0.069,0.000,0.000,0.000
1643254052437468160,2022-01-27-03:27:32,10.1.1.3,41,-0.059,-0.059,-0.059,0.000,0.000,0.000
1643254052618204160,2022-01-27-03:27:32,10.1.1.3,20,-0.050,-0.050,-0.050,0.000,0.000,0.000
1643254052837594112,2022-01-27-03:27:32,10.1.1.3,38,-0.039,-0.039,-0.039,0.000,0.000,0.000
1643254053038413056,2022-01-27-03:27:33,10.1.1.3,38,-0.029,-0.029,-0.029,0.000,0.000,0.000
1643254053238360832,2022-01-27-03:27:33,10.1.1.3,37,-0.019,-0.019,-0.019,0.000,0.000,0.000
1643254053438036992,2022-01-27-03:27:33,10.1.1.3,36,-0.009,-0.009,-0.009,0.000,0.000,0.000
1643254053639534080,2022-01-27-03:27:33,10.1.1.3,35,-0.001,-0.001,-0.001,0.000,0.000,0.000
1643254053838233088,2022-01-27-03:27:33,10.1.1.3,34,-0.011,-0.011,-0.011,0.000,0.000,0.000
1643254054038024960,2022-01-27-03:27:34,10.1.1.3,33,-0.021,-0.021,-0.021,0.000,0.000,0.000
1643254054238280960,2022-01-27-03:27:34,10.1.1.3,32,-0.030,-0.030,-0.030,0.000,0.000,0.000
1643254054437401088,2022-01-27-03:27:34,10.1.1.3,30,-0.041,-0.041,-0.041,0.000,0.000,0.000
1643254054629012224,2022-01-27-03:27:34,10.1.1.3,21,-0.050,-0.050,-0.050,0.000,0.000,0.000
1643254054839288832,2022-01-27-03:27:34,10.1.1.3,30,-0.060,-0.060,-0.060,0.000,0.000,0.000
1643254055036144128,2022-01-27-03:27:35,10.1.1.3,24,-0.070,-0.070,-0.070,0.000,0.000,0.000
1643254055234963968,2022-01-27-03:27:35,10.1.1.3,23,-0.080,-0.080,-0.080,0.000,0.000,0.000
