FedericoMungari/DigitalTwin_service/01_WiredScenario/Output/Output_script/script_rosapi_2_output_robots8_freq0_6.txt
timestamp,date,node,latency,joint_1,joint_2,joint_3,joint_4,joint_5,joint_6
1643293117006817024,2022-01-27-14:18:37,10.1.1.7,33,-0.011,-0.011,-0.011,0.000,0.000,0.000
1643293117196712960,2022-01-27-14:18:37,10.1.1.7,22,-0.020,-0.020,-0.020,0.000,0.000,0.000
1643293117395622912,2022-01-27-14:18:37,10.1.1.7,19,-0.030,-0.030,-0.030,0.000,0.000,0.000
1643293117594893056,2022-01-27-14:18:37,10.1.1.7,17,-0.040,-0.040,-0.040,0.000,0.000,0.000
1643293117804608000,2022-01-27-14:18:37,10.1.1.7,26,-0.050,-0.050,-0.050,0.000,0.000,0.000
1643293118015002880,2022-01-27-14:18:38,10.1.1.7,36,-0.061,-0.061,-0.061,0.000,0.000,0.000
1643293118217094912,2022-01-27-14:18:38,10.1.1.7,35,-0.071,-0.071,-0.071,0.000,0.000,0.000
1643293118406130176,2022-01-27-14:18:38,10.1.1.7,20,-0.080,-0.080,-0.080,0.000,0.000,0.000
1643293118615823104,2022-01-27-14:18:38,10.1.1.7,29,-0.091,-0.091,-0.091,0.000,0.000,0.000
1643293118828849920,2022-01-27-14:18:38,10.1.1.7,42,-0.101,-0.101,-0.101,0.000,0.000,0.000
1643293119025239040,2022-01-27-14:18:39,10.1.1.7,37,-0.111,-0.111,-0.111,0.000,0.000,0.000
1643293119216958976,2022-01-27-14:18:39,10.1.1.7,27,-0.120,-0.120,-0.120,0.000,0.000,0.000
1643293119426400000,2022-01-27-14:18:39,10.1.1.7,36,-0.131,-0.131,-0.131,0.000,0.000,0.000
1643293119615643904,2022-01-27-14:18:39,10.1.1.7,22,-0.140,-0.140,-0.140,0.000,0.000,0.000
1643293119826776064,2022-01-27-14:18:39,10.1.1.7,31,-0.151,-0.151,-0.151,0.000,0.000,0.000
1643293120026887936,2022-01-27-14:18:40,10.1.1.7,31,-0.161,-0.161,-0.161,0.000,0.000,0.000
1643293120196681984,2022-01-27-14:18:40,10.1.1.7,-1,-0.169,-0.169,-0.169,0.000,0.000,0.000
1643293120430977024,2022-01-27-14:18:40,10.1.1.7,31,-0.180,-0.180,-0.180,0.000,0.000,0.000
1643293120645682944,2022-01-27-14:18:40,10.1.1.7,43,-0.191,-0.191,-0.191,0.000,0.000,0.000
1643293120845918976,2022-01-27-14:18:40,10.1.1.7,42,-0.201,-0.201,-0.201,0.000,0.000,0.000
1643293121036731904,2022-01-27-14:18:41,10.1.1.7,33,-0.210,-0.210,-0.210,0.000,0.000,0.000
1643293121235683072,2022-01-27-14:18:41,10.1.1.7,30,-0.221,-0.221,-0.221,0.000,0.000,0.000
1643293121435131904,2022-01-27-14:18:41,10.1.1.7,29,-0.230,-0.230,-0.230,0.000,0.000,0.000
1643293121635586048,2022-01-27-14:18:41,10.1.1.7,29,-0.241,-0.241,-0.241,0.000,0.000,0.000
1643293121846853120,2022-01-27-14:18:41,10.1.1.7,39,-0.251,-0.251,-0.251,0.000,0.000,0.000
1643293122035474176,2022-01-27-14:18:42,10.1.1.7,27,-0.260,-0.260,-0.260,0.000,0.000,0.000
1643293122246501888,2022-01-27-14:18:42,10.1.1.7,38,-0.271,-0.271,-0.271,0.000,0.000,0.000
1643293122446450944,2022-01-27-14:18:42,10.1.1.7,37,-0.281,-0.281,-0.281,0.000,0.000,0.000
1643293122638465792,2022-01-27-14:18:42,10.1.1.7,28,-0.290,-0.290,-0.290,0.000,0.000,0.000
1643293122846267904,2022-01-27-14:18:42,10.1.1.7,35,-0.301,-0.301,-0.301,0.000,0.000,0.000
1643293123044468992,2022-01-27-14:18:43,10.1.1.7,32,-0.311,-0.311,-0.311,0.000,0.000,0.000
1643293123245358848,2022-01-27-14:18:43,10.1.1.7,31,-0.321,-0.321,-0.321,0.000,0.000,0.000
1643293123445669888,2022-01-27-14:18:43,10.1.1.7,31,-0.331,-0.331,-0.331,0.000,0.000,0.000
1643293123645705984,2022-01-27-14:18:43,10.1.1.7,30,-0.341,-0.341,-0.341,0.000,0.000,0.000
1643293123845837056,2022-01-27-14:18:43,10.1.1.7,27,-0.350,-0.350,-0.350,0.000,0.000,0.000
1643293124047230976,2022-01-27-14:18:44,10.1.1.7,26,-0.360,-0.360,-0.360,0.000,0.000,0.000
1643293124266462976,2022-01-27-14:18:44,10.1.1.7,44,-0.371,-0.371,-0.371,0.000,0.000,0.000
1643293124467801088,2022-01-27-14:18:44,10.1.1.7,39,-0.381,-0.381,-0.381,0.000,0.000,0.000
1643293124667870976,2022-01-27-14:18:44,10.1.1.7,39,-0.391,-0.391,-0.391,0.000,0.000,0.000
1643293124865848064,2022-01-27-14:18:44,10.1.1.7,35,-0.401,-0.401,-0.401,0.000,0.000,0.000
1643293125064954880,2022-01-27-14:18:45,10.1.1.7,33,-0.411,-0.411,-0.411,0.000,0.000,0.000
1643293125285053952,2022-01-27-14:18:45,10.1.1.7,51,-0.422,-0.422,-0.422,0.000,0.000,0.000
1643293125465704960,2022-01-27-14:18:45,10.1.1.7,29,-0.431,-0.431,-0.431,0.000,0.000,0.000
1643293125665068032,2022-01-27-14:18:45,10.1.1.7,27,-0.441,-0.441,-0.441,0.000,0.000,0.000
1643293125865447168,2022-01-27-14:18:45,10.1.1.7,27,-0.450,-0.450,-0.450,0.000,0.000,0.000
1643293126066152960,2022-01-27-14:18:46,10.1.1.7,24,-0.460,-0.460,-0.460,0.000,0.000,0.000
1643293126285178880,2022-01-27-14:18:46,10.1.1.7,42,-0.471,-0.471,-0.471,0.000,0.000,0.000
1643293126464352000,2022-01-27-14:18:46,10.1.1.7,19,-0.480,-0.480,-0.480,0.000,0.000,0.000
1643293126686789888,2022-01-27-14:18:46,10.1.1.7,40,-0.489,-0.489,-0.489,0.000,0.000,0.000
1643293126864837888,2022-01-27-14:18:46,10.1.1.7,18,-0.480,-0.480,-0.480,0.000,0.000,0.000
1643293127084743936,2022-01-27-14:18:47,10.1.1.7,36,-0.469,-0.469,-0.469,0.000,0.000,0.000
1643293127275437056,2022-01-27-14:18:47,10.1.1.7,26,-0.460,-0.460,-0.460,0.000,0.000,0.000
1643293127486100992,2022-01-27-14:18:47,10.1.1.7,36,-0.449,-0.449,-0.449,0.000,0.000,0.000
1643293127689084160,2022-01-27-14:18:47,10.1.1.7,38,-0.439,-0.439,-0.439,0.000,0.000,0.000
1643293127885677056,2022-01-27-14:18:47,10.1.1.7,34,-0.429,-0.429,-0.429,0.000,0.000,0.000
1643293128085676032,2022-01-27-14:18:48,10.1.1.7,34,-0.419,-0.419,-0.419,0.000,0.000,0.000
1643293128285156096,2022-01-27-14:18:48,10.1.1.7,32,-0.409,-0.409,-0.409,0.000,0.000,0.000
1643293128497075968,2022-01-27-14:18:48,10.1.1.7,43,-0.399,-0.399,-0.399,0.000,0.000,0.000
1643293128687824896,2022-01-27-14:18:48,10.1.1.7,33,-0.389,-0.389,-0.389,0.000,0.000,0.000
1643293128886375936,2022-01-27-14:18:48,10.1.1.7,31,-0.380,-0.380,-0.380,0.000,0.000,0.000
1643293129095138048,2022-01-27-14:18:49,10.1.1.7,39,-0.369,-0.369,-0.369,0.000,0.000,0.000
1643293129285851904,2022-01-27-14:18:49,10.1.1.7,29,-0.359,-0.359,-0.359,0.000,0.000,0.000
1643293129486299904,2022-01-27-14:18:49,10.1.1.7,29,-0.349,-0.349,-0.349,0.000,0.000,0.000
1643293129688619008,2022-01-27-14:18:49,10.1.1.7,30,-0.340,-0.340,-0.340,0.000,0.000,0.000
1643293129885608960,2022-01-27-14:18:49,10.1.1.7,26,-0.330,-0.330,-0.330,0.000,0.000,0.000
1643293130086252800,2022-01-27-14:18:50,10.1.1.7,26,-0.320,-0.320,-0.320,0.000,0.000,0.000
1643293130305208064,2022-01-27-14:18:50,10.1.1.7,42,-0.309,-0.309,-0.309,0.000,0.000,0.000
1643293130505568000,2022-01-27-14:18:50,10.1.1.7,36,-0.299,-0.299,-0.299,0.000,0.000,0.000
1643293130699310080,2022-01-27-14:18:50,10.1.1.7,26,-0.290,-0.290,-0.290,0.000,0.000,0.000
1643293130907303936,2022-01-27-14:18:50,10.1.1.7,33,-0.279,-0.279,-0.279,0.000,0.000,0.000
1643293131110664960,2022-01-27-14:18:51,10.1.1.7,32,-0.270,-0.270,-0.270,0.000,0.000,0.000
1643293131309647104,2022-01-27-14:18:51,10.1.1.7,28,-0.260,-0.260,-0.260,0.000,0.000,0.000
1643293131520598784,2022-01-27-14:18:51,10.1.1.7,35,-0.249,-0.249,-0.249,0.000,0.000,0.000
1643293131707014912,2022-01-27-14:18:51,10.1.1.7,20,-0.240,-0.240,-0.240,0.000,0.000,0.000
1643293131916333824,2022-01-27-14:18:51,10.1.1.7,29,-0.229,-0.229,-0.229,0.000,0.000,0.000
1643293132116103936,2022-01-27-14:18:52,10.1.1.7,28,-0.220,-0.220,-0.220,0.000,0.000,0.000
1643293132325081088,2022-01-27-14:18:52,10.1.1.7,35,-0.209,-0.209,-0.209,0.000,0.000,0.000
1643293132516144896,2022-01-27-14:18:52,10.1.1.7,25,-0.200,-0.200,-0.200,0.000,0.000,0.000
1643293132725156096,2022-01-27-14:18:52,10.1.1.7,34,-0.189,-0.189,-0.189,0.000,0.000,0.000
1643293132915628800,2022-01-27-14:18:52,10.1.1.7,23,-0.180,-0.180,-0.180,0.000,0.000,0.000
1643293133114784000,2022-01-27-14:18:53,10.1.1.7,22,-0.170,-0.170,-0.170,0.000,0.000,0.000
1643293133316294912,2022-01-27-14:18:53,10.1.1.7,23,-0.160,-0.160,-0.160,0.000,0.000,0.000
1643293133526562816,2022-01-27-14:18:53,10.1.1.7,33,-0.149,-0.149,-0.149,0.000,0.000,0.000
1643293133725307904,2022-01-27-14:18:53,10.1.1.7,31,-0.139,-0.139,-0.139,0.000,0.000,0.000
1643293133916236032,2022-01-27-14:18:53,10.1.1.7,21,-0.130,-0.130,-0.130,0.000,0.000,0.000
1643293134115719168,2022-01-27-14:18:54,10.1.1.7,20,-0.120,-0.120,-0.120,0.000,0.000,0.000
1643293134316036864,2022-01-27-14:18:54,10.1.1.7,19,-0.110,-0.110,-0.110,0.000,0.000,0.000
1643293134525352960,2022-01-27-14:18:54,10.1.1.7,27,-0.100,-0.100,-0.100,0.000,0.000,0.000
1643293134756517888,2022-01-27-14:18:54,10.1.1.7,58,-0.089,-0.089,-0.089,0.000,0.000,0.000
1643293134925612032,2022-01-27-14:18:54,10.1.1.7,25,-0.080,-0.080,-0.080,0.000,0.000,0.000
1643293135136336128,2022-01-27-14:18:55,10.1.1.7,33,-0.069,-0.069,-0.069,0.000,0.000,0.000
1643293135345762048,2022-01-27-14:18:55,10.1.1.7,40,-0.059,-0.059,-0.059,0.000,0.000,0.000
1643293135525892864,2022-01-27-14:18:55,10.1.1.7,19,-0.050,-0.050,-0.050,0.000,0.000,0.000
1643293135747187968,2022-01-27-14:18:55,10.1.1.7,40,-0.039,-0.039,-0.039,0.000,0.000,0.000
1643293135935272960,2022-01-27-14:18:55,10.1.1.7,27,-0.030,-0.030,-0.030,0.000,0.000,0.000
1643293136147540992,2022-01-27-14:18:56,10.1.1.7,38,-0.019,-0.019,-0.019,0.000,0.000,0.000
1643293136347358976,2022-01-27-14:18:56,10.1.1.7,38,-0.009,-0.009,-0.009,0.000,0.000,0.000
1643293136512538880,2022-01-27-14:18:56,10.1.1.7,1,-0.001,-0.001,-0.001,0.000,0.000,0.000
1643293136735209984,2022-01-27-14:18:56,10.1.1.7,22,-0.010,-0.010,-0.010,0.000,0.000,0.000
1643293136945637888,2022-01-27-14:18:56,10.1.1.7,32,-0.021,-0.021,-0.021,0.000,0.000,0.000
1643293137145308928,2022-01-27-14:18:57,10.1.1.7,31,-0.031,-0.031,-0.031,0.000,0.000,0.000
1643293137346196992,2022-01-27-14:18:57,10.1.1.7,30,-0.041,-0.041,-0.041,0.000,0.000,0.000
1643293137545462016,2022-01-27-14:18:57,10.1.1.7,29,-0.050,-0.050,-0.050,0.000,0.000,0.000
1643293137746490880,2022-01-27-14:18:57,10.1.1.7,29,-0.060,-0.060,-0.060,0.000,0.000,0.000
1643293137935085056,2022-01-27-14:18:57,10.1.1.7,17,-0.070,-0.070,-0.070,0.000,0.000,0.000
1643293138134868992,2022-01-27-14:18:58,10.1.1.7,16,-0.080,-0.080,-0.080,0.000,0.000,0.000
1643293138365806080,2022-01-27-14:18:58,10.1.1.7,45,-0.091,-0.091,-0.091,0.000,0.000,0.000
1643293138554984960,2022-01-27-14:18:58,10.1.1.7,33,-0.101,-0.101,-0.101,0.000,0.000,0.000
1643293138745254912,2022-01-27-14:18:58,10.1.1.7,22,-0.110,-0.110,-0.110,0.000,0.000,0.000
1643293138945911040,2022-01-27-14:18:58,10.1.1.7,20,-0.120,-0.120,-0.120,0.000,0.000,0.000
1643293139144779008,2022-01-27-14:18:59,10.1.1.7,18,-0.130,-0.130,-0.130,0.000,0.000,0.000
1643293139348017920,2022-01-27-14:18:59,10.1.1.7,21,-0.140,-0.140,-0.140,0.000,0.000,0.000
1643293139555552000,2022-01-27-14:18:59,10.1.1.7,28,-0.150,-0.150,-0.150,0.000,0.000,0.000
1643293139765643008,2022-01-27-14:18:59,10.1.1.7,37,-0.161,-0.161,-0.161,0.000,0.000,0.000
1643293139966648064,2022-01-27-14:18:59,10.1.1.7,36,-0.171,-0.171,-0.171,0.000,0.000,0.000
1643293140164536832,2022-01-27-14:19:00,10.1.1.7,34,-0.181,-0.181,-0.181,0.000,0.000,0.000
1643293140365197824,2022-01-27-14:19:00,10.1.1.7,35,-0.191,-0.191,-0.191,0.000,0.000,0.000
1643293140565947136,2022-01-27-14:19:00,10.1.1.7,35,-0.201,-0.201,-0.201,0.000,0.000,0.000
1643293140764979968,2022-01-27-14:19:00,10.1.1.7,32,-0.211,-0.211,-0.211,0.000,0.000,0.000
1643293140965275136,2022-01-27-14:19:00,10.1.1.7,29,-0.221,-0.221,-0.221,0.000,0.000,0.000
1643293141165019904,2022-01-27-14:19:01,10.1.1.7,28,-0.231,-0.231,-0.231,0.000,0.000,0.000
1643293141365192960,2022-01-27-14:19:01,10.1.1.7,27,-0.240,-0.240,-0.240,0.000,0.000,0.000
1643293141584672000,2022-01-27-14:19:01,10.1.1.7,46,-0.251,-0.251,-0.251,0.000,0.000,0.000
1643293141764785920,2022-01-27-14:19:01,10.1.1.7,26,-0.260,-0.260,-0.260,0.000,0.000,0.000
1643293141964840960,2022-01-27-14:19:01,10.1.1.7,25,-0.270,-0.270,-0.270,0.000,0.000,0.000
1643293142164995840,2022-01-27-14:19:02,10.1.1.7,25,-0.280,-0.280,-0.280,0.000,0.000,0.000
1643293142365266176,2022-01-27-14:19:02,10.1.1.7,24,-0.290,-0.290,-0.290,0.000,0.000,0.000
1643293142566332160,2022-01-27-14:19:02,10.1.1.7,24,-0.300,-0.300,-0.300,0.000,0.000,0.000
1643293142764091136,2022-01-27-14:19:02,10.1.1.7,22,-0.310,-0.310,-0.310,0.000,0.000,0.000
1643293142984855808,2022-01-27-14:19:02,10.1.1.7,40,-0.321,-0.321,-0.321,0.000,0.000,0.000
1643293143164730112,2022-01-27-14:19:03,10.1.1.7,19,-0.330,-0.330,-0.330,0.000,0.000,0.000
1643293143366050048,2022-01-27-14:19:03,10.1.1.7,20,-0.340,-0.340,-0.340,0.000,0.000,0.000
1643293143577004800,2022-01-27-14:19:03,10.1.1.7,30,-0.351,-0.351,-0.351,0.000,0.000,0.000
1643293143784622080,2022-01-27-14:19:03,10.1.1.7,37,-0.361,-0.361,-0.361,0.000,0.000,0.000
1643293143984674816,2022-01-27-14:19:03,10.1.1.7,35,-0.371,-0.371,-0.371,0.000,0.000,0.000
1643293144184876800,2022-01-27-14:19:04,10.1.1.7,34,-0.381,-0.381,-0.381,0.000,0.000,0.000
1643293144384794112,2022-01-27-14:19:04,10.1.1.7,32,-0.391,-0.391,-0.391,0.000,0.000,0.000
1643293144584613120,2022-01-27-14:19:04,10.1.1.7,31,-0.401,-0.401,-0.401,0.000,0.000,0.000
1643293144785566208,2022-01-27-14:19:04,10.1.1.7,32,-0.411,-0.411,-0.411,0.000,0.000,0.000
1643293144984855040,2022-01-27-14:19:04,10.1.1.7,30,-0.421,-0.421,-0.421,0.000,0.000,0.000
1643293145204980992,2022-01-27-14:19:05,10.1.1.7,49,-0.431,-0.431,-0.431,0.000,0.000,0.000
1643293145385543168,2022-01-27-14:19:05,10.1.1.7,29,-0.441,-0.441,-0.441,0.000,0.000,0.000
1643293145584901120,2022-01-27-14:19:05,10.1.1.7,26,-0.450,-0.450,-0.450,0.000,0.000,0.000
1643293145784679936,2022-01-27-14:19:05,10.1.1.7,25,-0.460,-0.460,-0.460,0.000,0.000,0.000
1643293145995596032,2022-01-27-14:19:05,10.1.1.7,36,-0.471,-0.471,-0.471,0.000,0.000,0.000
1643293146185710848,2022-01-27-14:19:06,10.1.1.7,25,-0.480,-0.480,-0.480,0.000,0.000,0.000
1643293146405196032,2022-01-27-14:19:06,10.1.1.7,41,-0.489,-0.489,-0.489,0.000,0.000,0.000
1643293146605143040,2022-01-27-14:19:06,10.1.1.7,40,-0.479,-0.479,-0.479,0.000,0.000,0.000
1643293146805239808,2022-01-27-14:19:06,10.1.1.7,40,-0.469,-0.469,-0.469,0.000,0.000,0.000
1643293146994981888,2022-01-27-14:19:06,10.1.1.7,29,-0.460,-0.460,-0.460,0.000,0.000,0.000
1643293147206501120,2022-01-27-14:19:07,10.1.1.7,39,-0.449,-0.449,-0.449,0.000,0.000,0.000
1643293147405731840,2022-01-27-14:19:07,10.1.1.7,38,-0.439,-0.439,-0.439,0.000,0.000,0.000
1643293147596171008,2022-01-27-14:19:07,10.1.1.7,28,-0.430,-0.430,-0.430,0.000,0.000,0.000
1643293147796713984,2022-01-27-14:19:07,10.1.1.7,28,-0.420,-0.420,-0.420,0.000,0.000,0.000
1643293148005337088,2022-01-27-14:19:08,10.1.1.7,36,-0.409,-0.409,-0.409,0.000,0.000,0.000
1643293148195851008,2022-01-27-14:19:08,10.1.1.7,26,-0.400,-0.400,-0.400,0.000,0.000,0.000
1643293148405924096,2022-01-27-14:19:08,10.1.1.7,35,-0.389,-0.389,-0.389,0.000,0.000,0.000
1643293148605978112,2022-01-27-14:19:08,10.1.1.7,34,-0.379,-0.379,-0.379,0.000,0.000,0.000
1643293148805104128,2022-01-27-14:19:08,10.1.1.7,32,-0.369,-0.369,-0.369,0.000,0.000,0.000
1643293148996406016,2022-01-27-14:19:08,10.1.1.7,23,-0.360,-0.360,-0.360,0.000,0.000,0.000
1643293149205633024,2022-01-27-14:19:09,10.1.1.7,31,-0.349,-0.349,-0.349,0.000,0.000,0.000
1643293149406152960,2022-01-27-14:19:09,10.1.1.7,32,-0.339,-0.339,-0.339,0.000,0.000,0.000
1643293149605850880,2022-01-27-14:19:09,10.1.1.7,30,-0.329,-0.329,-0.329,0.000,0.000,0.000
1643293149805381888,2022-01-27-14:19:09,10.1.1.7,29,-0.319,-0.319,-0.319,0.000,0.000,0.000
1643293150020969984,2022-01-27-14:19:10,10.1.1.7,43,-0.310,-0.310,-0.310,0.000,0.000,0.000
1643293150206753024,2022-01-27-14:19:10,10.1.1.7,28,-0.300,-0.300,-0.300,0.000,0.000,0.000
1643293150405240064,2022-01-27-14:19:10,10.1.1.7,25,-0.290,-0.290,-0.290,0.000,0.000,0.000
1643293150606617856,2022-01-27-14:19:10,10.1.1.7,26,-0.280,-0.280,-0.280,0.000,0.000,0.000
1643293150805716992,2022-01-27-14:19:10,10.1.1.7,24,-0.270,-0.270,-0.270,0.000,0.000,0.000
1643293151026267136,2022-01-27-14:19:11,10.1.1.7,43,-0.259,-0.259,-0.259,0.000,0.000,0.000
1643293151226176000,2022-01-27-14:19:11,10.1.1.7,41,-0.249,-0.249,-0.249,0.000,0.000,0.000
1643293151416655104,2022-01-27-14:19:11,10.1.1.7,31,-0.239,-0.239,-0.239,0.000,0.000,0.000
1643293151626952960,2022-01-27-14:19:11,10.1.1.7,38,-0.229,-0.229,-0.229,0.000,0.000,0.000
1643293151826764032,2022-01-27-14:19:11,10.1.1.7,37,-0.219,-0.219,-0.219,0.000,0.000,0.000
1643293152026177024,2022-01-27-14:19:12,10.1.1.7,35,-0.209,-0.209,-0.209,0.000,0.000,0.000
1643293152216816896,2022-01-27-14:19:12,10.1.1.7,25,-0.200,-0.200,-0.200,0.000,0.000,0.000
1643293152427081216,2022-01-27-14:19:12,10.1.1.7,34,-0.189,-0.189,-0.189,0.000,0.000,0.000
1643293152615777024,2022-01-27-14:19:12,10.1.1.7,22,-0.180,-0.180,-0.180,0.000,0.000,0.000
1643293152837032960,2022-01-27-14:19:12,10.1.1.7,40,-0.170,-0.170,-0.170,0.000,0.000,0.000
1643293153017210112,2022-01-27-14:19:13,10.1.1.7,19,-0.160,-0.160,-0.160,0.000,0.000,0.000
1643293153248135168,2022-01-27-14:19:13,10.1.1.7,50,-0.149,-0.149,-0.149,0.000,0.000,0.000
1643293153454081024,2022-01-27-14:19:13,10.1.1.7,55,-0.139,-0.139,-0.139,0.000,0.000,0.000
1643293153639801088,2022-01-27-14:19:13,10.1.1.7,40,-0.129,-0.129,-0.129,0.000,0.000,0.000
1643293153833479936,2022-01-27-14:19:13,10.1.1.7,33,-0.120,-0.120,-0.120,0.000,0.000,0.000
1643293154046448896,2022-01-27-14:19:14,10.1.1.7,45,-0.109,-0.109,-0.109,0.000,0.000,0.000
1643293154235897088,2022-01-27-14:19:14,10.1.1.7,34,-0.100,-0.100,-0.100,0.000,0.000,0.000
1643293154426017024,2022-01-27-14:19:14,10.1.1.7,23,-0.090,-0.090,-0.090,0.000,0.000,0.000
1643293154645704960,2022-01-27-14:19:14,10.1.1.7,43,-0.079,-0.079,-0.079,0.000,0.000,0.000
1643293154836637952,2022-01-27-14:19:14,10.1.1.7,33,-0.069,-0.069,-0.069,0.000,0.000,0.000
1643293155036105984,2022-01-27-14:19:15,10.1.1.7,31,-0.060,-0.060,-0.060,0.000,0.000,0.000
1643293155228439040,2022-01-27-14:19:15,10.1.1.7,23,-0.050,-0.050,-0.050,0.000,0.000,0.000
1643293155436944896,2022-01-27-14:19:15,10.1.1.7,31,-0.040,-0.040,-0.040,0.000,0.000,0.000
1643293155645859072,2022-01-27-14:19:15,10.1.1.7,39,-0.029,-0.029,-0.029,0.000,0.000,0.000
1643293155845350912,2022-01-27-14:19:15,10.1.1.7,38,-0.019,-0.019,-0.019,0.000,0.000,0.000
1643293156036173056,2022-01-27-14:19:16,10.1.1.7,27,-0.010,-0.010,-0.010,0.000,0.000,0.000
1643293156216165120,2022-01-27-14:19:16,10.1.1.7,7,-0.001,-0.001,-0.001,0.000,0.000,0.000
1643293156435812864,2022-01-27-14:19:16,10.1.1.7,25,-0.010,-0.010,-0.010,0.000,0.000,0.000
1643293156647232000,2022-01-27-14:19:16,10.1.1.7,36,-0.021,-0.021,-0.021,0.000,0.000,0.000
1643293156835947008,2022-01-27-14:19:16,10.1.1.7,24,-0.030,-0.030,-0.030,0.000,0.000,0.000
1643293157036467968,2022-01-27-14:19:17,10.1.1.7,24,-0.040,-0.040,-0.040,0.000,0.000,0.000
1643293157235848960,2022-01-27-14:19:17,10.1.1.7,22,-0.050,-0.050,-0.050,0.000,0.000,0.000
1643293157466136064,2022-01-27-14:19:17,10.1.1.7,48,-0.061,-0.061,-0.061,0.000,0.000,0.000
1643293157647072000,2022-01-27-14:19:17,10.1.1.7,22,-0.070,-0.070,-0.070,0.000,0.000,0.000
1643293157845073920,2022-01-27-14:19:17,10.1.1.7,20,-0.080,-0.080,-0.080,0.000,0.000,0.000
1643293158044569856,2022-01-27-14:19:18,10.1.1.7,18,-0.090,-0.090,-0.090,0.000,0.000,0.000
1643293158244699904,2022-01-27-14:19:18,10.1.1.7,18,-0.100,-0.100,-0.100,0.000,0.000,0.000
1643293158444710144,2022-01-27-14:19:18,10.1.1.7,17,-0.110,-0.110,-0.110,0.000,0.000,0.000
1643293158645271040,2022-01-27-14:19:18,10.1.1.7,18,-0.120,-0.120,-0.120,0.000,0.000,0.000
1643293158864283136,2022-01-27-14:19:18,10.1.1.7,36,-0.131,-0.131,-0.131,0.000,0.000,0.000
1643293159078404864,2022-01-27-14:19:19,10.1.1.7,50,-0.141,-0.141,-0.141,0.000,0.000,0.000
1643293159254696960,2022-01-27-14:19:19,10.1.1.7,25,-0.150,-0.150,-0.150,0.000,0.000,0.000
1643293159454923008,2022-01-27-14:19:19,10.1.1.7,25,-0.160,-0.160,-0.160,0.000,0.000,0.000
1643293159664524032,2022-01-27-14:19:19,10.1.1.7,34,-0.171,-0.171,-0.171,0.000,0.000,0.000
1643293159865071104,2022-01-27-14:19:19,10.1.1.7,27,-0.180,-0.180,-0.180,0.000,0.000,0.000
1643293160064413184,2022-01-27-14:19:20,10.1.1.7,25,-0.190,-0.190,-0.190,0.000,0.000,0.000
1643293160265358848,2022-01-27-14:19:20,10.1.1.7,25,-0.200,-0.200,-0.200,0.000,0.000,0.000
1643293160465163008,2022-01-27-14:19:20,10.1.1.7,24,-0.210,-0.210,-0.210,0.000,0.000,0.000
1643293160665851136,2022-01-27-14:19:20,10.1.1.7,25,-0.220,-0.220,-0.220,0.000,0.000,0.000
1643293160865031936,2022-01-27-14:19:20,10.1.1.7,23,-0.230,-0.230,-0.230,0.000,0.000,0.000
1643293161064517120,2022-01-27-14:19:21,10.1.1.7,22,-0.240,-0.240,-0.240,0.000,0.000,0.000
1643293161264524032,2022-01-27-14:19:21,10.1.1.7,21,-0.250,-0.250,-0.250,0.000,0.000,0.000
1643293161464675840,2022-01-27-14:19:21,10.1.1.7,20,-0.260,-0.260,-0.260,0.000,0.000,0.000
1643293161664804864,2022-01-27-14:19:21,10.1.1.7,20,-0.270,-0.270,-0.270,0.000,0.000,0.000
1643293161865103872,2022-01-27-14:19:21,10.1.1.7,19,-0.280,-0.280,-0.280,0.000,0.000,0.000
1643293162088305920,2022-01-27-14:19:22,10.1.1.7,42,-0.291,-0.291,-0.291,0.000,0.000,0.000
1643293162285580032,2022-01-27-14:19:22,10.1.1.7,39,-0.301,-0.301,-0.301,0.000,0.000,0.000
1643293162489774080,2022-01-27-14:19:22,10.1.1.7,43,-0.311,-0.311,-0.311,0.000,0.000,0.000
1643293162675865856,2022-01-27-14:19:22,10.1.1.7,28,-0.320,-0.320,-0.320,0.000,0.000,0.000
1643293162875334912,2022-01-27-14:19:22,10.1.1.7,27,-0.330,-0.330,-0.330,0.000,0.000,0.000
1643293163086726912,2022-01-27-14:19:23,10.1.1.7,36,-0.341,-0.341,-0.341,0.000,0.000,0.000
1643293163284909056,2022-01-27-14:19:23,10.1.1.7,33,-0.351,-0.351,-0.351,0.000,0.000,0.000
1643293163484946944,2022-01-27-14:19:23,10.1.1.7,31,-0.360,-0.360,-0.360,0.000,0.000,0.000
1643293163706717952,2022-01-27-14:19:23,10.1.1.7,48,-0.371,-0.371,-0.371,0.000,0.000,0.000
1643293163895805952,2022-01-27-14:19:23,10.1.1.7,19,-0.380,-0.380,-0.380,0.000,0.000,0.000
1643293164116312064,2022-01-27-14:19:24,10.1.1.7,39,-0.391,-0.391,-0.391,0.000,0.000,0.000
1643293164305368064,2022-01-27-14:19:24,10.1.1.7,26,-0.400,-0.400,-0.400,0.000,0.000,0.000
1643293164516835840,2022-01-27-14:19:24,10.1.1.7,37,-0.411,-0.411,-0.411,0.000,0.000,0.000
1643293164705686016,2022-01-27-14:19:24,10.1.1.7,25,-0.420,-0.420,-0.420,0.000,0.000,0.000
1643293164926098176,2022-01-27-14:19:24,10.1.1.7,45,-0.431,-0.431,-0.431,0.000,0.000,0.000
1643293165105804032,2022-01-27-14:19:25,10.1.1.7,24,-0.440,-0.440,-0.440,0.000,0.000,0.000
1643293165305926144,2022-01-27-14:19:25,10.1.1.7,23,-0.450,-0.450,-0.450,0.000,0.000,0.000
1643293165526508032,2022-01-27-14:19:25,10.1.1.7,43,-0.461,-0.461,-0.461,0.000,0.000,0.000
1643293165719597056,2022-01-27-14:19:25,10.1.1.7,33,-0.470,-0.470,-0.470,0.000,0.000,0.000
1643293165915698176,2022-01-27-14:19:25,10.1.1.7,27,-0.480,-0.480,-0.480,0.000,0.000,0.000
1643293166105349120,2022-01-27-14:19:26,10.1.1.7,15,-0.490,-0.490,-0.490,0.000,0.000,0.000
1643293166316997120,2022-01-27-14:19:26,10.1.1.7,26,-0.480,-0.480,-0.480,0.000,0.000,0.000
1643293166517586944,2022-01-27-14:19:26,10.1.1.7,26,-0.470,-0.470,-0.470,0.000,0.000,0.000
1643293166725132032,2022-01-27-14:19:26,10.1.1.7,33,-0.459,-0.459,-0.459,0.000,0.000,0.000
1643293166916208128,2022-01-27-14:19:26,10.1.1.7,23,-0.450,-0.450,-0.450,0.000,0.000,0.000
1643293167125520896,2022-01-27-14:19:27,10.1.1.7,32,-0.440,-0.440,-0.440,0.000,0.000,0.000
1643293167325179136,2022-01-27-14:19:27,10.1.1.7,31,-0.430,-0.430,-0.430,0.000,0.000,0.000
1643293167525494016,2022-01-27-14:19:27,10.1.1.7,30,-0.419,-0.419,-0.419,0.000,0.000,0.000
1643293167725402112,2022-01-27-14:19:27,10.1.1.7,29,-0.409,-0.409,-0.409,0.000,0.000,0.000
1643293167931150848,2022-01-27-14:19:27,10.1.1.7,34,-0.400,-0.400,-0.400,0.000,0.000,0.000
1643293168125629952,2022-01-27-14:19:28,10.1.1.7,29,-0.389,-0.389,-0.389,0.000,0.000,0.000
1643293168335740160,2022-01-27-14:19:28,10.1.1.7,38,-0.379,-0.379,-0.379,0.000,0.000,0.000
1643293168547282944,2022-01-27-14:19:28,10.1.1.7,49,-0.369,-0.369,-0.369,0.000,0.000,0.000
1643293168745831936,2022-01-27-14:19:28,10.1.1.7,47,-0.359,-0.359,-0.359,0.000,0.000,0.000
1643293168925422848,2022-01-27-14:19:28,10.1.1.7,26,-0.350,-0.350,-0.350,0.000,0.000,0.000
1643293169125803008,2022-01-27-14:19:29,10.1.1.7,26,-0.340,-0.340,-0.340,0.000,0.000,0.000
1643293169325510912,2022-01-27-14:19:29,10.1.1.7,25,-0.330,-0.330,-0.330,0.000,0.000,0.000
1643293169525427200,2022-01-27-14:19:29,10.1.1.7,24,-0.320,-0.320,-0.320,0.000,0.000,0.000
1643293169746124032,2022-01-27-14:19:29,10.1.1.7,43,-0.309,-0.309,-0.309,0.000,0.000,0.000
1643293169951158016,2022-01-27-14:19:29,10.1.1.7,47,-0.299,-0.299,-0.299,0.000,0.000,0.000
1643293170142263040,2022-01-27-14:19:30,10.1.1.7,38,-0.290,-0.290,-0.290,0.000,0.000,0.000
1643293170335624960,2022-01-27-14:19:30,10.1.1.7,30,-0.280,-0.280,-0.280,0.000,0.000,0.000
1643293170525998080,2022-01-27-14:19:30,10.1.1.7,19,-0.270,-0.270,-0.270,0.000,0.000,0.000
1643293170735799040,2022-01-27-14:19:30,10.1.1.7,29,-0.259,-0.259,-0.259,0.000,0.000,0.000
1643293170946568960,2022-01-27-14:19:30,10.1.1.7,39,-0.249,-0.249,-0.249,0.000,0.000,0.000
1643293171135403008,2022-01-27-14:19:31,10.1.1.7,25,-0.240,-0.240,-0.240,0.000,0.000,0.000
1643293171335504128,2022-01-27-14:19:31,10.1.1.7,21,-0.230,-0.230,-0.230,0.000,0.000,0.000
1643293171535497984,2022-01-27-14:19:31,10.1.1.7,21,-0.220,-0.220,-0.220,0.000,0.000,0.000
1643293171765722112,2022-01-27-14:19:31,10.1.1.7,50,-0.209,-0.209,-0.209,0.000,0.000,0.000
1643293171956888064,2022-01-27-14:19:31,10.1.1.7,39,-0.199,-0.199,-0.199,0.000,0.000,0.000
1643293172145280000,2022-01-27-14:19:32,10.1.1.7,27,-0.190,-0.190,-0.190,0.000,0.000,0.000
1643293172345985792,2022-01-27-14:19:32,10.1.1.7,25,-0.180,-0.180,-0.180,0.000,0.000,0.000
1643293172545250816,2022-01-27-14:19:32,10.1.1.7,23,-0.170,-0.170,-0.170,0.000,0.000,0.000
1643293172755740928,2022-01-27-14:19:32,10.1.1.7,32,-0.159,-0.159,-0.159,0.000,0.000,0.000
1643293172984188160,2022-01-27-14:19:32,10.1.1.7,57,-0.149,-0.149,-0.149,0.000,0.000,0.000
1643293173156019968,2022-01-27-14:19:33,10.1.1.7,29,-0.140,-0.140,-0.140,0.000,0.000,0.000
1643293173346642944,2022-01-27-14:19:33,10.1.1.7,18,-0.130,-0.130,-0.130,0.000,0.000,0.000
1643293173566812160,2022-01-27-14:19:33,10.1.1.7,37,-0.119,-0.119,-0.119,0.000,0.000,0.000
1643293173755606784,2022-01-27-14:19:33,10.1.1.7,26,-0.110,-0.110,-0.110,0.000,0.000,0.000
1643293173956770048,2022-01-27-14:19:33,10.1.1.7,27,-0.100,-0.100,-0.100,0.000,0.000,0.000
1643293174165474048,2022-01-27-14:19:34,10.1.1.7,35,-0.089,-0.089,-0.089,0.000,0.000,0.000
1643293174366835968,2022-01-27-14:19:34,10.1.1.7,35,-0.079,-0.079,-0.079,0.000,0.000,0.000
1643293174566313984,2022-01-27-14:19:34,10.1.1.7,33,-0.069,-0.069,-0.069,0.000,0.000,0.000
1643293174764781056,2022-01-27-14:19:34,10.1.1.7,31,-0.060,-0.060,-0.060,0.000,0.000,0.000
1643293174965393152,2022-01-27-14:19:34,10.1.1.7,31,-0.050,-0.050,-0.050,0.000,0.000,0.000
1643293175165571840,2022-01-27-14:19:35,10.1.1.7,30,-0.039,-0.039,-0.039,0.000,0.000,0.000
1643293175365009152,2022-01-27-14:19:35,10.1.1.7,29,-0.029,-0.029,-0.029,0.000,0.000,0.000
1643293175585096960,2022-01-27-14:19:35,10.1.1.7,48,-0.019,-0.019,-0.019,0.000,0.000,0.000
1643293175769360896,2022-01-27-14:19:35,10.1.1.7,32,-0.010,-0.010,-0.010,0.000,0.000,0.000
1643293175945161984,2022-01-27-14:19:35,10.1.1.7,7,-0.000,-0.000,-0.000,0.000,0.000,0.000
1643293176166588928,2022-01-27-14:19:36,10.1.1.7,27,-0.010,-0.010,-0.010,0.000,0.000,0.000
1643293176385102080,2022-01-27-14:19:36,10.1.1.7,46,-0.021,-0.021,-0.021,0.000,0.000,0.000
1643293176565229056,2022-01-27-14:19:36,10.1.1.7,25,-0.030,-0.030,-0.030,0.000,0.000,0.000
1643293176765721088,2022-01-27-14:19:36,10.1.1.7,25,-0.040,-0.040,-0.040,0.000,0.000,0.000
1643293176966460928,2022-01-27-14:19:36,10.1.1.7,26,-0.050,-0.050,-0.050,0.000,0.000,0.000
1643293177165219072,2022-01-27-14:19:37,10.1.1.7,24,-0.060,-0.060,-0.060,0.000,0.000,0.000
1643293177385360896,2022-01-27-14:19:37,10.1.1.7,43,-0.071,-0.071,-0.071,0.000,0.000,0.000
1643293177565393920,2022-01-27-14:19:37,10.1.1.7,23,-0.080,-0.080,-0.080,0.000,0.000,0.000
1643293177785889024,2022-01-27-14:19:37,10.1.1.7,42,-0.091,-0.091,-0.091,0.000,0.000,0.000
1643293177965176064,2022-01-27-14:19:37,10.1.1.7,20,-0.100,-0.100,-0.100,0.000,0.000,0.000
1643293178165366784,2022-01-27-14:19:38,10.1.1.7,19,-0.110,-0.110,-0.110,0.000,0.000,0.000
1643293178379738112,2022-01-27-14:19:38,10.1.1.7,24,-0.120,-0.120,-0.120,0.000,0.000,0.000
1643293178575129088,2022-01-27-14:19:38,10.1.1.7,27,-0.130,-0.130,-0.130,0.000,0.000,0.000
1643293178785191168,2022-01-27-14:19:38,10.1.1.7,37,-0.141,-0.141,-0.141,0.000,0.000,0.000
1643293178984931072,2022-01-27-14:19:38,10.1.1.7,36,-0.151,-0.151,-0.151,0.000,0.000,0.000
1643293179184777984,2022-01-27-14:19:39,10.1.1.7,35,-0.161,-0.161,-0.161,0.000,0.000,0.000
1643293179385505792,2022-01-27-14:19:39,10.1.1.7,35,-0.171,-0.171,-0.171,0.000,0.000,0.000
1643293179584600064,2022-01-27-14:19:39,10.1.1.7,33,-0.181,-0.181,-0.181,0.000,0.000,0.000
1643293179775767040,2022-01-27-14:19:39,10.1.1.7,24,-0.190,-0.190,-0.190,0.000,0.000,0.000
1643293179985893120,2022-01-27-14:19:39,10.1.1.7,34,-0.201,-0.201,-0.201,0.000,0.000,0.000
1643293180185350912,2022-01-27-14:19:40,10.1.1.7,33,-0.211,-0.211,-0.211,0.000,0.000,0.000
1643293180405888000,2022-01-27-14:19:40,10.1.1.7,52,-0.222,-0.222,-0.222,0.000,0.000,0.000
1643293180585001984,2022-01-27-14:19:40,10.1.1.7,31,-0.231,-0.231,-0.231,0.000,0.000,0.000
1643293180785021952,2022-01-27-14:19:40,10.1.1.7,29,-0.241,-0.241,-0.241,0.000,0.000,0.000
1643293180996303104,2022-01-27-14:19:40,10.1.1.7,40,-0.251,-0.251,-0.251,0.000,0.000,0.000
1643293181185726976,2022-01-27-14:19:41,10.1.1.7,28,-0.261,-0.261,-0.261,0.000,0.000,0.000
1643293181395771136,2022-01-27-14:19:41,10.1.1.7,37,-0.271,-0.271,-0.271,0.000,0.000,0.000
1643293181585583872,2022-01-27-14:19:41,10.1.1.7,27,-0.280,-0.280,-0.280,0.000,0.000,0.000
1643293181805049856,2022-01-27-14:19:41,10.1.1.7,44,-0.291,-0.291,-0.291,0.000,0.000,0.000
1643293181995680000,2022-01-27-14:19:41,10.1.1.7,32,-0.300,-0.300,-0.300,0.000,0.000,0.000
1643293182205965056,2022-01-27-14:19:42,10.1.1.7,42,-0.311,-0.311,-0.311,0.000,0.000,0.000
1643293182396055040,2022-01-27-14:19:42,10.1.1.7,29,-0.320,-0.320,-0.320,0.000,0.000,0.000
1643293182586627840,2022-01-27-14:19:42,10.1.1.7,19,-0.330,-0.330,-0.330,0.000,0.000,0.000
1643293182795230976,2022-01-27-14:19:42,10.1.1.7,27,-0.340,-0.340,-0.340,0.000,0.000,0.000
1643293182996336896,2022-01-27-14:19:42,10.1.1.7,27,-0.350,-0.350,-0.350,0.000,0.000,0.000
1643293183195961088,2022-01-27-14:19:43,10.1.1.7,26,-0.360,-0.360,-0.360,0.000,0.000,0.000
1643293183395730944,2022-01-27-14:19:43,10.1.1.7,25,-0.370,-0.370,-0.370,0.000,0.000,0.000
1643293183599417856,2022-01-27-14:19:43,10.1.1.7,25,-0.380,-0.380,-0.380,0.000,0.000,0.000
1643293183826381056,2022-01-27-14:19:43,10.1.1.7,45,-0.391,-0.391,-0.391,0.000,0.000,0.000
1643293184005346048,2022-01-27-14:19:44,10.1.1.7,22,-0.400,-0.400,-0.400,0.000,0.000,0.000
1643293184215595008,2022-01-27-14:19:44,10.1.1.7,32,-0.411,-0.411,-0.411,0.000,0.000,0.000
1643293184406021120,2022-01-27-14:19:44,10.1.1.7,22,-0.420,-0.420,-0.420,0.000,0.000,0.000
1643293184605700864,2022-01-27-14:19:44,10.1.1.7,20,-0.430,-0.430,-0.430,0.000,0.000,0.000
1643293184827508992,2022-01-27-14:19:44,10.1.1.7,41,-0.441,-0.441,-0.441,0.000,0.000,0.000
1643293185026984960,2022-01-27-14:19:45,10.1.1.7,40,-0.451,-0.451,-0.451,0.000,0.000,0.000
1643293185205761024,2022-01-27-14:19:45,10.1.1.7,18,-0.460,-0.460,-0.460,0.000,0.000,0.000
1643293185415739136,2022-01-27-14:19:45,10.1.1.7,27,-0.470,-0.470,-0.470,0.000,0.000,0.000
1643293185615752960,2022-01-27-14:19:45,10.1.1.7,26,-0.480,-0.480,-0.480,0.000,0.000,0.000
1643293185796081152,2022-01-27-14:19:45,10.1.1.7,6,-0.489,-0.489,-0.489,0.000,0.000,0.000
1643293186027610112,2022-01-27-14:19:46,10.1.1.7,37,-0.479,-0.479,-0.479,0.000,0.000,0.000
1643293186215922944,2022-01-27-14:19:46,10.1.1.7,25,-0.470,-0.470,-0.470,0.000,0.000,0.000
1643293186426320128,2022-01-27-14:19:46,10.1.1.7,35,-0.459,-0.459,-0.459,0.000,0.000,0.000
1643293186615483136,2022-01-27-14:19:46,10.1.1.7,23,-0.450,-0.450,-0.450,0.000,0.000,0.000
1643293186815645952,2022-01-27-14:19:46,10.1.1.7,22,-0.440,-0.440,-0.440,0.000,0.000,0.000
1643293187045797120,2022-01-27-14:19:47,10.1.1.7,51,-0.428,-0.428,-0.428,0.000,0.000,0.000
1643293187236483072,2022-01-27-14:19:47,10.1.1.7,41,-0.419,-0.419,-0.419,0.000,0.000,0.000
1643293187426477824,2022-01-27-14:19:47,10.1.1.7,31,-0.410,-0.410,-0.410,0.000,0.000,0.000
1643293187625854976,2022-01-27-14:19:47,10.1.1.7,29,-0.399,-0.399,-0.399,0.000,0.000,0.000
1643293187816122112,2022-01-27-14:19:47,10.1.1.7,19,-0.390,-0.390,-0.390,0.000,0.000,0.000
1643293188047385088,2022-01-27-14:19:48,10.1.1.7,49,-0.379,-0.379,-0.379,0.000,0.000,0.000
1643293188233259008,2022-01-27-14:19:48,10.1.1.7,28,-0.370,-0.370,-0.370,0.000,0.000,0.000
1643293188446063104,2022-01-27-14:19:48,10.1.1.7,46,-0.359,-0.359,-0.359,0.000,0.000,0.000
1643293188647205120,2022-01-27-14:19:48,10.1.1.7,47,-0.349,-0.349,-0.349,0.000,0.000,0.000
1643293188826257920,2022-01-27-14:19:48,10.1.1.7,25,-0.340,-0.340,-0.340,0.000,0.000,0.000
1643293189038043136,2022-01-27-14:19:49,10.1.1.7,36,-0.329,-0.329,-0.329,0.000,0.000,0.000
1643293189236337920,2022-01-27-14:19:49,10.1.1.7,34,-0.319,-0.319,-0.319,0.000,0.000,0.000
1643293189446182912,2022-01-27-14:19:49,10.1.1.7,43,-0.309,-0.309,-0.309,0.000,0.000,0.000
1643293189627321856,2022-01-27-14:19:49,10.1.1.7,23,-0.300,-0.300,-0.300,0.000,0.000,0.000
1643293189845792000,2022-01-27-14:19:49,10.1.1.7,41,-0.289,-0.289,-0.289,0.000,0.000,0.000
1643293190046597120,2022-01-27-14:19:50,10.1.1.7,40,-0.279,-0.279,-0.279,0.000,0.000,0.000
1643293190245702144,2022-01-27-14:19:50,10.1.1.7,39,-0.269,-0.269,-0.269,0.000,0.000,0.000
1643293190446355968,2022-01-27-14:19:50,10.1.1.7,39,-0.259,-0.259,-0.259,0.000,0.000,0.000
1643293190645292032,2022-01-27-14:19:50,10.1.1.7,38,-0.249,-0.249,-0.249,0.000,0.000,0.000
1643293190846007040,2022-01-27-14:19:50,10.1.1.7,38,-0.239,-0.239,-0.239,0.000,0.000,0.000
1643293191036140800,2022-01-27-14:19:51,10.1.1.7,27,-0.230,-0.230,-0.230,0.000,0.000,0.000
1643293191235976960,2022-01-27-14:19:51,10.1.1.7,27,-0.220,-0.220,-0.220,0.000,0.000,0.000
1643293191446028032,2022-01-27-14:19:51,10.1.1.7,36,-0.209,-0.209,-0.209,0.000,0.000,0.000
1643293191645733120,2022-01-27-14:19:51,10.1.1.7,35,-0.199,-0.199,-0.199,0.000,0.000,0.000
1643293191847595008,2022-01-27-14:19:51,10.1.1.7,36,-0.189,-0.189,-0.189,0.000,0.000,0.000
1643293192046839040,2022-01-27-14:19:52,10.1.1.7,35,-0.179,-0.179,-0.179,0.000,0.000,0.000
1643293192245415936,2022-01-27-14:19:52,10.1.1.7,33,-0.169,-0.169,-0.169,0.000,0.000,0.000
1643293192446505984,2022-01-27-14:19:52,10.1.1.7,33,-0.159,-0.159,-0.159,0.000,0.000,0.000
1643293192656402944,2022-01-27-14:19:52,10.1.1.7,41,-0.149,-0.149,-0.149,0.000,0.000,0.000
1643293192836136192,2022-01-27-14:19:52,10.1.1.7,20,-0.140,-0.140,-0.140,0.000,0.000,0.000
1643293193045795840,2022-01-27-14:19:53,10.1.1.7,29,-0.129,-0.129,-0.129,0.000,0.000,0.000
1643293193245147904,2022-01-27-14:19:53,10.1.1.7,28,-0.120,-0.120,-0.120,0.000,0.000,0.000
1643293193435568128,2022-01-27-14:19:53,10.1.1.7,17,-0.110,-0.110,-0.110,0.000,0.000,0.000
1643293193656784896,2022-01-27-14:19:53,10.1.1.7,38,-0.099,-0.099,-0.099,0.000,0.000,0.000
1643293193865166848,2022-01-27-14:19:53,10.1.1.7,45,-0.089,-0.089,-0.089,0.000,0.000,0.000
1643293194046607872,2022-01-27-14:19:54,10.1.1.7,26,-0.080,-0.080,-0.080,0.000,0.000,0.000
1643293194266045184,2022-01-27-14:19:54,10.1.1.7,45,-0.069,-0.069,-0.069,0.000,0.000,0.000
1643293194457672192,2022-01-27-14:19:54,10.1.1.7,34,-0.059,-0.059,-0.059,0.000,0.000,0.000
1643293194664633088,2022-01-27-14:19:54,10.1.1.7,40,-0.049,-0.049,-0.049,0.000,0.000,0.000
1643293194845114880,2022-01-27-14:19:54,10.1.1.7,20,-0.040,-0.040,-0.040,0.000,0.000,0.000
1643293195080118016,2022-01-27-14:19:55,10.1.1.7,54,-0.029,-0.029,-0.029,0.000,0.000,0.000
1643293195266153216,2022-01-27-14:19:55,10.1.1.7,39,-0.019,-0.019,-0.019,0.000,0.000,0.000
1643293195465914880,2022-01-27-14:19:55,10.1.1.7,38,-0.009,-0.009,-0.009,0.000,0.000,0.000
1643293195645090048,2022-01-27-14:19:55,10.1.1.7,16,-0.000,-0.000,-0.000,0.000,0.000,0.000
1643293195865096192,2022-01-27-14:19:55,10.1.1.7,35,-0.011,-0.011,-0.011,0.000,0.000,0.000
1643293196054828032,2022-01-27-14:19:56,10.1.1.7,24,-0.020,-0.020,-0.020,0.000,0.000,0.000
1643293196266032896,2022-01-27-14:19:56,10.1.1.7,35,-0.031,-0.031,-0.031,0.000,0.000,0.000
1643293196465312000,2022-01-27-14:19:56,10.1.1.7,33,-0.041,-0.041,-0.041,0.000,0.000,0.000
1643293196665765888,2022-01-27-14:19:56,10.1.1.7,29,-0.050,-0.050,-0.050,0.000,0.000,0.000
1643293196885630976,2022-01-27-14:19:56,10.1.1.7,48,-0.061,-0.061,-0.061,0.000,0.000,0.000
1643293197065160960,2022-01-27-14:19:57,10.1.1.7,27,-0.070,-0.070,-0.070,0.000,0.000,0.000
1643293197275224832,2022-01-27-14:19:57,10.1.1.7,36,-0.081,-0.081,-0.081,0.000,0.000,0.000
1643293197484937984,2022-01-27-14:19:57,10.1.1.7,45,-0.091,-0.091,-0.091,0.000,0.000,0.000
1643293197665168128,2022-01-27-14:19:57,10.1.1.7,25,-0.100,-0.100,-0.100,0.000,0.000,0.000
1643293197864887040,2022-01-27-14:19:57,10.1.1.7,24,-0.110,-0.110,-0.110,0.000,0.000,0.000
1643293198065038080,2022-01-27-14:19:58,10.1.1.7,23,-0.120,-0.120,-0.120,0.000,0.000,0.000
1643293198265239040,2022-01-27-14:19:58,10.1.1.7,23,-0.130,-0.130,-0.130,0.000,0.000,0.000
1643293198464788992,2022-01-27-14:19:58,10.1.1.7,22,-0.140,-0.140,-0.140,0.000,0.000,0.000
1643293198675440128,2022-01-27-14:19:58,10.1.1.7,32,-0.151,-0.151,-0.151,0.000,0.000,0.000
1643293198885068032,2022-01-27-14:19:58,10.1.1.7,40,-0.161,-0.161,-0.161,0.000,0.000,0.000
1643293199064791808,2022-01-27-14:19:59,10.1.1.7,19,-0.170,-0.170,-0.170,0.000,0.000,0.000
1643293199288585984,2022-01-27-14:19:59,10.1.1.7,42,-0.181,-0.181,-0.181,0.000,0.000,0.000
1643293199466560000,2022-01-27-14:19:59,10.1.1.7,19,-0.190,-0.190,-0.190,0.000,0.000,0.000
1643293199678064128,2022-01-27-14:19:59,10.1.1.7,26,-0.200,-0.200,-0.200,0.000,0.000,0.000
1643293199885988096,2022-01-27-14:19:59,10.1.1.7,33,-0.211,-0.211,-0.211,0.000,0.000,0.000
1643293200075244032,2022-01-27-14:20:00,10.1.1.7,22,-0.220,-0.220,-0.220,0.000,0.000,0.000
1643293200286430976,2022-01-27-14:20:00,10.1.1.7,33,-0.231,-0.231,-0.231,0.000,0.000,0.000
1643293200486262016,2022-01-27-14:20:00,10.1.1.7,32,-0.240,-0.240,-0.240,0.000,0.000,0.000
1643293200686878976,2022-01-27-14:20:00,10.1.1.7,32,-0.251,-0.251,-0.251,0.000,0.000,0.000
1643293200896163072,2022-01-27-14:20:00,10.1.1.7,40,-0.261,-0.261,-0.261,0.000,0.000,0.000
1643293201076478976,2022-01-27-14:20:01,10.1.1.7,20,-0.270,-0.270,-0.270,0.000,0.000,0.000
1643293201275429120,2022-01-27-14:20:01,10.1.1.7,19,-0.280,-0.280,-0.280,0.000,0.000,0.000
1643293201485465088,2022-01-27-14:20:01,10.1.1.7,28,-0.291,-0.291,-0.291,0.000,0.000,0.000
1643293201695579136,2022-01-27-14:20:01,10.1.1.7,38,-0.301,-0.301,-0.301,0.000,0.000,0.000
1643293201905822976,2022-01-27-14:20:01,10.1.1.7,47,-0.311,-0.311,-0.311,0.000,0.000,0.000
1643293202105735936,2022-01-27-14:20:02,10.1.1.7,46,-0.321,-0.321,-0.321,0.000,0.000,0.000
1643293202295608064,2022-01-27-14:20:02,10.1.1.7,35,-0.331,-0.331,-0.331,0.000,0.000,0.000
1643293202495613184,2022-01-27-14:20:02,10.1.1.7,35,-0.341,-0.341,-0.341,0.000,0.000,0.000
1643293202695353088,2022-01-27-14:20:02,10.1.1.7,33,-0.351,-0.351,-0.351,0.000,0.000,0.000
1643293202895345920,2022-01-27-14:20:02,10.1.1.7,32,-0.361,-0.361,-0.361,0.000,0.000,0.000
1643293203106084096,2022-01-27-14:20:03,10.1.1.7,42,-0.371,-0.371,-0.371,0.000,0.000,0.000
1643293203297030912,2022-01-27-14:20:03,10.1.1.7,33,-0.381,-0.381,-0.381,0.000,0.000,0.000
1643293203506501888,2022-01-27-14:20:03,10.1.1.7,41,-0.391,-0.391,-0.391,0.000,0.000,0.000
1643293203695449088,2022-01-27-14:20:03,10.1.1.7,30,-0.401,-0.401,-0.401,0.000,0.000,0.000
1643293203896660992,2022-01-27-14:20:03,10.1.1.7,30,-0.411,-0.411,-0.411,0.000,0.000,0.000
1643293204095361024,2022-01-27-14:20:04,10.1.1.7,28,-0.420,-0.420,-0.420,0.000,0.000,0.000
1643293204296252928,2022-01-27-14:20:04,10.1.1.7,28,-0.430,-0.430,-0.430,0.000,0.000,0.000
1643293204496471040,2022-01-27-14:20:04,10.1.1.7,28,-0.440,-0.440,-0.440,0.000,0.000,0.000
1643293204706746112,2022-01-27-14:20:04,10.1.1.7,38,-0.451,-0.451,-0.451,0.000,0.000,0.000
1643293204896109056,2022-01-27-14:20:04,10.1.1.7,27,-0.460,-0.460,-0.460,0.000,0.000,0.000
1643293205095809024,2022-01-27-14:20:05,10.1.1.7,26,-0.470,-0.470,-0.470,0.000,0.000,0.000
1643293205306006784,2022-01-27-14:20:05,10.1.1.7,34,-0.481,-0.481,-0.481,0.000,0.000,0.000
1643293205475933952,2022-01-27-14:20:05,10.1.1.7,4,-0.489,-0.489,-0.489,0.000,0.000,0.000
1643293205695857920,2022-01-27-14:20:05,10.1.1.7,23,-0.480,-0.480,-0.480,0.000,0.000,0.000
1643293205905918976,2022-01-27-14:20:05,10.1.1.7,33,-0.469,-0.469,-0.469,0.000,0.000,0.000
1643293206105436928,2022-01-27-14:20:06,10.1.1.7,31,-0.460,-0.460,-0.460,0.000,0.000,0.000
1643293206306745088,2022-01-27-14:20:06,10.1.1.7,32,-0.450,-0.450,-0.450,0.000,0.000,0.000
1643293206496465920,2022-01-27-14:20:06,10.1.1.7,21,-0.440,-0.440,-0.440,0.000,0.000,0.000
1643293206719116800,2022-01-27-14:20:06,10.1.1.7,41,-0.430,-0.430,-0.430,0.000,0.000,0.000
1643293206907191040,2022-01-27-14:20:06,10.1.1.7,29,-0.420,-0.420,-0.420,0.000,0.000,0.000
1643293207127785984,2022-01-27-14:20:07,10.1.1.7,49,-0.409,-0.409,-0.409,0.000,0.000,0.000
1643293207306740992,2022-01-27-14:20:07,10.1.1.7,27,-0.400,-0.400,-0.400,0.000,0.000,0.000
1643293207507149824,2022-01-27-14:20:07,10.1.1.7,27,-0.390,-0.390,-0.390,0.000,0.000,0.000
1643293207726659072,2022-01-27-14:20:07,10.1.1.7,46,-0.379,-0.379,-0.379,0.000,0.000,0.000
1643293207906733056,2022-01-27-14:20:07,10.1.1.7,25,-0.370,-0.370,-0.370,0.000,0.000,0.000
1643293208106832128,2022-01-27-14:20:08,10.1.1.7,24,-0.360,-0.360,-0.360,0.000,0.000,0.000
1643293208315207936,2022-01-27-14:20:08,10.1.1.7,32,-0.349,-0.349,-0.349,0.000,0.000,0.000
1643293208526638080,2022-01-27-14:20:08,10.1.1.7,43,-0.339,-0.339,-0.339,0.000,0.000,0.000
1643293208715784960,2022-01-27-14:20:08,10.1.1.7,31,-0.330,-0.330,-0.330,0.000,0.000,0.000
1643293208916815872,2022-01-27-14:20:08,10.1.1.7,32,-0.320,-0.320,-0.320,0.000,0.000,0.000
1643293209115858176,2022-01-27-14:20:09,10.1.1.7,30,-0.310,-0.310,-0.310,0.000,0.000,0.000
1643293209325277184,2022-01-27-14:20:09,10.1.1.7,37,-0.299,-0.299,-0.299,0.000,0.000,0.000
1643293209516755968,2022-01-27-14:20:09,10.1.1.7,28,-0.290,-0.290,-0.290,0.000,0.000,0.000
1643293209727084032,2022-01-27-14:20:09,10.1.1.7,38,-0.279,-0.279,-0.279,0.000,0.000,0.000
1643293209916515072,2022-01-27-14:20:09,10.1.1.7,27,-0.270,-0.270,-0.270,0.000,0.000,0.000
1643293210116591872,2022-01-27-14:20:10,10.1.1.7,26,-0.260,-0.260,-0.260,0.000,0.000,0.000
1643293210325858048,2022-01-27-14:20:10,10.1.1.7,35,-0.249,-0.249,-0.249,0.000,0.000,0.000
1643293210525705984,2022-01-27-14:20:10,10.1.1.7,34,-0.239,-0.239,-0.239,0.000,0.000,0.000
1643293210725148928,2022-01-27-14:20:10,10.1.1.7,32,-0.229,-0.229,-0.229,0.000,0.000,0.000
1643293210924711936,2022-01-27-14:20:10,10.1.1.7,32,-0.219,-0.219,-0.219,0.000,0.000,0.000
1643293211125924096,2022-01-27-14:20:11,10.1.1.7,32,-0.209,-0.209,-0.209,0.000,0.000,0.000
1643293211325050112,2022-01-27-14:20:11,10.1.1.7,31,-0.199,-0.199,-0.199,0.000,0.000,0.000
1643293211525031936,2022-01-27-14:20:11,10.1.1.7,30,-0.190,-0.190,-0.190,0.000,0.000,0.000
1643293211724929024,2022-01-27-14:20:11,10.1.1.7,28,-0.180,-0.180,-0.180,0.000,0.000,0.000
1643293211925020928,2022-01-27-14:20:11,10.1.1.7,27,-0.170,-0.170,-0.170,0.000,0.000,0.000
1643293212125792000,2022-01-27-14:20:12,10.1.1.7,27,-0.160,-0.160,-0.160,0.000,0.000,0.000
1643293212328665088,2022-01-27-14:20:12,10.1.1.7,29,-0.150,-0.150,-0.150,0.000,0.000,0.000
1643293212527321088,2022-01-27-14:20:12,10.1.1.7,26,-0.140,-0.140,-0.140,0.000,0.000,0.000
1643293212745196032,2022-01-27-14:20:12,10.1.1.7,44,-0.129,-0.129,-0.129,0.000,0.000,0.000
1643293212929019904,2022-01-27-14:20:12,10.1.1.7,27,-0.120,-0.120,-0.120,0.000,0.000,0.000
1643293213131853056,2022-01-27-14:20:13,10.1.1.7,28,-0.110,-0.110,-0.110,0.000,0.000,0.000
1643293213326491136,2022-01-27-14:20:13,10.1.1.7,20,-0.100,-0.100,-0.100,0.000,0.000,0.000
1643293213525178880,2022-01-27-14:20:13,10.1.1.7,18,-0.090,-0.090,-0.090,0.000,0.000,0.000
1643293213745646080,2022-01-27-14:20:13,10.1.1.7,38,-0.079,-0.079,-0.079,0.000,0.000,0.000
1643293213945120000,2022-01-27-14:20:13,10.1.1.7,36,-0.069,-0.069,-0.069,0.000,0.000,0.000
1643293214145182976,2022-01-27-14:20:14,10.1.1.7,35,-0.059,-0.059,-0.059,0.000,0.000,0.000
1643293214345099008,2022-01-27-14:20:14,10.1.1.7,34,-0.049,-0.049,-0.049,0.000,0.000,0.000
1643293214545844992,2022-01-27-14:20:14,10.1.1.7,34,-0.039,-0.039,-0.039,0.000,0.000,0.000
1643293214746231040,2022-01-27-14:20:14,10.1.1.7,34,-0.029,-0.029,-0.029,0.000,0.000,0.000
1643293214936239872,2022-01-27-14:20:14,10.1.1.7,23,-0.020,-0.020,-0.020,0.000,0.000,0.000
1643293215145363200,2022-01-27-14:20:15,10.1.1.7,31,-0.009,-0.009,-0.009,0.000,0.000,0.000
1643293215325068032,2022-01-27-14:20:15,10.1.1.7,10,-0.000,-0.000,-0.000,0.000,0.000,0.000
1643293215545566976,2022-01-27-14:20:15,10.1.1.7,30,-0.010,-0.010,-0.010,0.000,0.000,0.000
1643293215745137920,2022-01-27-14:20:15,10.1.1.7,29,-0.021,-0.021,-0.021,0.000,0.000,0.000
1643293215945140992,2022-01-27-14:20:15,10.1.1.7,28,-0.031,-0.031,-0.031,0.000,0.000,0.000
1643293216145140992,2022-01-27-14:20:16,10.1.1.7,27,-0.040,-0.040,-0.040,0.000,0.000,0.000
1643293216344909824,2022-01-27-14:20:16,10.1.1.7,27,-0.050,-0.050,-0.050,0.000,0.000,0.000
1643293216547225856,2022-01-27-14:20:16,10.1.1.7,28,-0.060,-0.060,-0.060,0.000,0.000,0.000
1643293216746268928,2022-01-27-14:20:16,10.1.1.7,23,-0.070,-0.070,-0.070,0.000,0.000,0.000
1643293216946796800,2022-01-27-14:20:16,10.1.1.7,23,-0.080,-0.080,-0.080,0.000,0.000,0.000
1643293217147362048,2022-01-27-14:20:17,10.1.1.7,20,-0.090,-0.090,-0.090,0.000,0.000,0.000
1643293217367080960,2022-01-27-14:20:17,10.1.1.7,38,-0.101,-0.101,-0.101,0.000,0.000,0.000
1643293217567683072,2022-01-27-14:20:17,10.1.1.7,38,-0.111,-0.111,-0.111,0.000,0.000,0.000
1643293217756064000,2022-01-27-14:20:17,10.1.1.7,25,-0.120,-0.120,-0.120,0.000,0.000,0.000
1643293217967896064,2022-01-27-14:20:17,10.1.1.7,36,-0.131,-0.131,-0.131,0.000,0.000,0.000
1643293218157668096,2022-01-27-14:20:18,10.1.1.7,25,-0.140,-0.140,-0.140,0.000,0.000,0.000
1643293218367044096,2022-01-27-14:20:18,10.1.1.7,33,-0.151,-0.151,-0.151,0.000,0.000,0.000
1643293218586873088,2022-01-27-14:20:18,10.1.1.7,52,-0.161,-0.161,-0.161,0.000,0.000,0.000
1643293218766185984,2022-01-27-14:20:18,10.1.1.7,30,-0.171,-0.171,-0.171,0.000,0.000,0.000
1643293218966914816,2022-01-27-14:20:18,10.1.1.7,30,-0.181,-0.181,-0.181,0.000,0.000,0.000
1643293219166011136,2022-01-27-14:20:19,10.1.1.7,28,-0.191,-0.191,-0.191,0.000,0.000,0.000
1643293219366895872,2022-01-27-14:20:19,10.1.1.7,29,-0.200,-0.200,-0.200,0.000,0.000,0.000
1643293219566754048,2022-01-27-14:20:19,10.1.1.7,27,-0.210,-0.210,-0.210,0.000,0.000,0.000
1643293219766573056,2022-01-27-14:20:19,10.1.1.7,26,-0.220,-0.220,-0.220,0.000,0.000,0.000
1643293219987771904,2022-01-27-14:20:19,10.1.1.7,46,-0.231,-0.231,-0.231,0.000,0.000,0.000
1643293220165993984,2022-01-27-14:20:20,10.1.1.7,24,-0.240,-0.240,-0.240,0.000,0.000,0.000
1643293220375932928,2022-01-27-14:20:20,10.1.1.7,33,-0.250,-0.250,-0.250,0.000,0.000,0.000
1643293220576008192,2022-01-27-14:20:20,10.1.1.7,32,-0.260,-0.260,-0.260,0.000,0.000,0.000
1643293220776408832,2022-01-27-14:20:20,10.1.1.7,31,-0.271,-0.271,-0.271,0.000,0.000,0.000
1643293220946892032,2022-01-27-14:20:20,10.1.1.7,-1,-0.279,-0.279,-0.279,0.000,0.000,0.000
1643293221176356096,2022-01-27-14:20:21,10.1.1.7,29,-0.291,-0.291,-0.291,0.000,0.000,0.000
1643293221385867008,2022-01-27-14:20:21,10.1.1.7,37,-0.301,-0.301,-0.301,0.000,0.000,0.000
1643293221586811904,2022-01-27-14:20:21,10.1.1.7,38,-0.311,-0.311,-0.311,0.000,0.000,0.000
1643293221777216000,2022-01-27-14:20:21,10.1.1.7,28,-0.320,-0.320,-0.320,0.000,0.000,0.000
1643293221985735936,2022-01-27-14:20:21,10.1.1.7,36,-0.331,-0.331,-0.331,0.000,0.000,0.000
1643293222187393024,2022-01-27-14:20:22,10.1.1.7,37,-0.341,-0.341,-0.341,0.000,0.000,0.000
1643293222387193088,2022-01-27-14:20:22,10.1.1.7,36,-0.351,-0.351,-0.351,0.000,0.000,0.000
1643293222587624960,2022-01-27-14:20:22,10.1.1.7,36,-0.361,-0.361,-0.361,0.000,0.000,0.000
1643293222786690048,2022-01-27-14:20:22,10.1.1.7,34,-0.371,-0.371,-0.371,0.000,0.000,0.000
1643293222986920192,2022-01-27-14:20:22,10.1.1.7,34,-0.381,-0.381,-0.381,0.000,0.000,0.000
1643293223181417984,2022-01-27-14:20:23,10.1.1.7,27,-0.390,-0.390,-0.390,0.000,0.000,0.000
1643293223385797120,2022-01-27-14:20:23,10.1.1.7,30,-0.400,-0.400,-0.400,0.000,0.000,0.000
1643293223585509888,2022-01-27-14:20:23,10.1.1.7,29,-0.410,-0.410,-0.410,0.000,0.000,0.000
1643293223785538048,2022-01-27-14:20:23,10.1.1.7,28,-0.420,-0.420,-0.420,0.000,0.000,0.000
1643293223986145024,2022-01-27-14:20:23,10.1.1.7,28,-0.430,-0.430,-0.430,0.000,0.000,0.000
1643293224186075904,2022-01-27-14:20:24,10.1.1.7,26,-0.440,-0.440,-0.440,0.000,0.000,0.000
1643293224387826944,2022-01-27-14:20:24,10.1.1.7,27,-0.450,-0.450,-0.450,0.000,0.000,0.000
1643293224587204864,2022-01-27-14:20:24,10.1.1.7,26,-0.460,-0.460,-0.460,0.000,0.000,0.000
1643293224785689088,2022-01-27-14:20:24,10.1.1.7,24,-0.470,-0.470,-0.470,0.000,0.000,0.000
1643293224996527872,2022-01-27-14:20:24,10.1.1.7,32,-0.480,-0.480,-0.480,0.000,0.000,0.000
1643293225167045120,2022-01-27-14:20:25,10.1.1.7,2,-0.489,-0.489,-0.489,0.000,0.000,0.000
1643293225398680064,2022-01-27-14:20:25,10.1.1.7,33,-0.480,-0.480,-0.480,0.000,0.000,0.000
1643293225597116928,2022-01-27-14:20:25,10.1.1.7,30,-0.470,-0.470,-0.470,0.000,0.000,0.000
1643293225806338048,2022-01-27-14:20:25,10.1.1.7,39,-0.459,-0.459,-0.459,0.000,0.000,0.000
1643293225996241920,2022-01-27-14:20:25,10.1.1.7,28,-0.449,-0.449,-0.449,0.000,0.000,0.000
1643293226205789952,2022-01-27-14:20:26,10.1.1.7,37,-0.439,-0.439,-0.439,0.000,0.000,0.000
1643293226395535104,2022-01-27-14:20:26,10.1.1.7,26,-0.430,-0.430,-0.430,0.000,0.000,0.000
1643293226605617920,2022-01-27-14:20:26,10.1.1.7,35,-0.419,-0.419,-0.419,0.000,0.000,0.000
1643293226795380224,2022-01-27-14:20:26,10.1.1.7,24,-0.410,-0.410,-0.410,0.000,0.000,0.000
1643293227005769984,2022-01-27-14:20:27,10.1.1.7,33,-0.399,-0.399,-0.399,0.000,0.000,0.000
1643293227195521024,2022-01-27-14:20:27,10.1.1.7,22,-0.390,-0.390,-0.390,0.000,0.000,0.000
1643293227406511104,2022-01-27-14:20:27,10.1.1.7,32,-0.379,-0.379,-0.379,0.000,0.000,0.000
1643293227606051840,2022-01-27-14:20:27,10.1.1.7,30,-0.370,-0.370,-0.370,0.000,0.000,0.000
1643293227805885184,2022-01-27-14:20:27,10.1.1.7,30,-0.359,-0.359,-0.359,0.000,0.000,0.000
1643293228005594112,2022-01-27-14:20:28,10.1.1.7,29,-0.349,-0.349,-0.349,0.000,0.000,0.000
1643293228205364992,2022-01-27-14:20:28,10.1.1.7,28,-0.339,-0.339,-0.339,0.000,0.000,0.000
1643293228395961088,2022-01-27-14:20:28,10.1.1.7,18,-0.330,-0.330,-0.330,0.000,0.000,0.000
1643293228615664896,2022-01-27-14:20:28,10.1.1.7,38,-0.319,-0.319,-0.319,0.000,0.000,0.000
1643293228806126080,2022-01-27-14:20:28,10.1.1.7,28,-0.310,-0.310,-0.310,0.000,0.000,0.000
1643293229005291008,2022-01-27-14:20:29,10.1.1.7,26,-0.300,-0.300,-0.300,0.000,0.000,0.000
1643293229205116160,2022-01-27-14:20:29,10.1.1.7,25,-0.290,-0.290,-0.290,0.000,0.000,0.000
1643293229425229056,2022-01-27-14:20:29,10.1.1.7,43,-0.279,-0.279,-0.279,0.000,0.000,0.000
1643293229624886016,2022-01-27-14:20:29,10.1.1.7,42,-0.269,-0.269,-0.269,0.000,0.000,0.000
1643293229825057024,2022-01-27-14:20:29,10.1.1.7,42,-0.259,-0.259,-0.259,0.000,0.000,0.000
1643293230005554944,2022-01-27-14:20:30,10.1.1.7,22,-0.250,-0.250,-0.250,0.000,0.000,0.000
1643293230205251072,2022-01-27-14:20:30,10.1.1.7,20,-0.240,-0.240,-0.240,0.000,0.000,0.000
1643293230404783104,2022-01-27-14:20:30,10.1.1.7,18,-0.230,-0.230,-0.230,0.000,0.000,0.000
1643293230625422080,2022-01-27-14:20:30,10.1.1.7,37,-0.219,-0.219,-0.219,0.000,0.000,0.000
1643293230825346048,2022-01-27-14:20:30,10.1.1.7,37,-0.209,-0.209,-0.209,0.000,0.000,0.000
1643293231025170176,2022-01-27-14:20:31,10.1.1.7,36,-0.199,-0.199,-0.199,0.000,0.000,0.000
1643293231225501184,2022-01-27-14:20:31,10.1.1.7,35,-0.189,-0.189,-0.189,0.000,0.000,0.000
1643293231425561856,2022-01-27-14:20:31,10.1.1.7,34,-0.179,-0.179,-0.179,0.000,0.000,0.000
1643293231625547008,2022-01-27-14:20:31,10.1.1.7,33,-0.169,-0.169,-0.169,0.000,0.000,0.000
1643293231825675008,2022-01-27-14:20:31,10.1.1.7,33,-0.159,-0.159,-0.159,0.000,0.000,0.000
1643293232016064000,2022-01-27-14:20:32,10.1.1.7,23,-0.150,-0.150,-0.150,0.000,0.000,0.000
1643293232245137920,2022-01-27-14:20:32,10.1.1.7,51,-0.138,-0.138,-0.138,0.000,0.000,0.000
1643293232415606016,2022-01-27-14:20:32,10.1.1.7,20,-0.130,-0.130,-0.130,0.000,0.000,0.000
1643293232625261056,2022-01-27-14:20:32,10.1.1.7,29,-0.120,-0.120,-0.120,0.000,0.000,0.000
1643293232825297152,2022-01-27-14:20:32,10.1.1.7,29,-0.109,-0.109,-0.109,0.000,0.000,0.000
1643293233025605888,2022-01-27-14:20:33,10.1.1.7,29,-0.099,-0.099,-0.099,0.000,0.000,0.000
1643293233216797184,2022-01-27-14:20:33,10.1.1.7,19,-0.090,-0.090,-0.090,0.000,0.000,0.000
1643293233416176128,2022-01-27-14:20:33,10.1.1.7,18,-0.080,-0.080,-0.080,0.000,0.000,0.000
1643293233616152064,2022-01-27-14:20:33,10.1.1.7,18,-0.070,-0.070,-0.070,0.000,0.000,0.000
1643293233816798976,2022-01-27-14:20:33,10.1.1.7,18,-0.060,-0.060,-0.060,0.000,0.000,0.000
1643293234036137216,2022-01-27-14:20:34,10.1.1.7,36,-0.049,-0.049,-0.049,0.000,0.000,0.000
1643293234227330816,2022-01-27-14:20:34,10.1.1.7,27,-0.040,-0.040,-0.040,0.000,0.000,0.000
1643293234426604032,2022-01-27-14:20:34,10.1.1.7,26,-0.030,-0.030,-0.030,0.000,0.000,0.000
1643293234635809024,2022-01-27-14:20:34,10.1.1.7,35,-0.019,-0.019,-0.019,0.000,0.000,0.000
1643293234835699200,2022-01-27-14:20:34,10.1.1.7,34,-0.009,-0.009,-0.009,0.000,0.000,0.000
1643293235006375168,2022-01-27-14:20:35,10.1.1.7,4,-0.001,-0.001,-0.001,0.000,0.000,0.000
1643293235227216128,2022-01-27-14:20:35,10.1.1.7,22,-0.010,-0.010,-0.010,0.000,0.000,0.000
1643293235426112768,2022-01-27-14:20:35,10.1.1.7,23,-0.020,-0.020,-0.020,0.000,0.000,0.000
1643293235646441984,2022-01-27-14:20:35,10.1.1.7,43,-0.031,-0.031,-0.031,0.000,0.000,0.000
1643293235845928960,2022-01-27-14:20:35,10.1.1.7,42,-0.041,-0.041,-0.041,0.000,0.000,0.000
1643293236045953024,2022-01-27-14:20:36,10.1.1.7,41,-0.051,-0.051,-0.051,0.000,0.000,0.000
1643293236226237952,2022-01-27-14:20:36,10.1.1.7,20,-0.060,-0.060,-0.060,0.000,0.000,0.000
1643293236425882112,2022-01-27-14:20:36,10.1.1.7,19,-0.070,-0.070,-0.070,0.000,0.000,0.000
1643293236625689088,2022-01-27-14:20:36,10.1.1.7,18,-0.080,-0.080,-0.080,0.000,0.000,0.000
1643293236845212928,2022-01-27-14:20:36,10.1.1.7,37,-0.091,-0.091,-0.091,0.000,0.000,0.000
1643293237046089984,2022-01-27-14:20:37,10.1.1.7,38,-0.101,-0.101,-0.101,0.000,0.000,0.000
1643293237246063104,2022-01-27-14:20:37,10.1.1.7,37,-0.111,-0.111,-0.111,0.000,0.000,0.000
1643293237435596032,2022-01-27-14:20:37,10.1.1.7,26,-0.120,-0.120,-0.120,0.000,0.000,0.000
1643293237636295936,2022-01-27-14:20:37,10.1.1.7,26,-0.130,-0.130,-0.130,0.000,0.000,0.000
1643293237847002880,2022-01-27-14:20:37,10.1.1.7,36,-0.141,-0.141,-0.141,0.000,0.000,0.000
1643293238036371968,2022-01-27-14:20:38,10.1.1.7,25,-0.150,-0.150,-0.150,0.000,0.000,0.000
1643293238236811008,2022-01-27-14:20:38,10.1.1.7,25,-0.160,-0.160,-0.160,0.000,0.000,0.000
1643293238446737920,2022-01-27-14:20:38,10.1.1.7,34,-0.171,-0.171,-0.171,0.000,0.000,0.000
1643293238646488064,2022-01-27-14:20:38,10.1.1.7,33,-0.181,-0.181,-0.181,0.000,0.000,0.000
1643293238836132096,2022-01-27-14:20:38,10.1.1.7,22,-0.190,-0.190,-0.190,0.000,0.000,0.000
1643293239065723904,2022-01-27-14:20:39,10.1.1.7,51,-0.202,-0.202,-0.202,0.000,0.000,0.000
1643293239246947072,2022-01-27-14:20:39,10.1.1.7,32,-0.210,-0.210,-0.210,0.000,0.000,0.000
1643293239436633088,2022-01-27-14:20:39,10.1.1.7,21,-0.220,-0.220,-0.220,0.000,0.000,0.000
1643293239646665216,2022-01-27-14:20:39,10.1.1.7,29,-0.230,-0.230,-0.230,0.000,0.000,0.000
1643293239856080896,2022-01-27-14:20:39,10.1.1.7,37,-0.240,-0.240,-0.240,0.000,0.000,0.000
1643293240046482176,2022-01-27-14:20:40,10.1.1.7,27,-0.250,-0.250,-0.250,0.000,0.000,0.000
1643293240256148992,2022-01-27-14:20:40,10.1.1.7,36,-0.261,-0.261,-0.261,0.000,0.000,0.000
1643293240466758912,2022-01-27-14:20:40,10.1.1.7,46,-0.271,-0.271,-0.271,0.000,0.000,0.000
1643293240646464000,2022-01-27-14:20:40,10.1.1.7,25,-0.280,-0.280,-0.280,0.000,0.000,0.000
1643293240867094016,2022-01-27-14:20:40,10.1.1.7,45,-0.291,-0.291,-0.291,0.000,0.000,0.000
1643293241057181952,2022-01-27-14:20:41,10.1.1.7,34,-0.301,-0.301,-0.301,0.000,0.000,0.000
1643293241258842112,2022-01-27-14:20:41,10.1.1.7,34,-0.311,-0.311,-0.311,0.000,0.000,0.000
1643293241455437824,2022-01-27-14:20:41,10.1.1.7,30,-0.320,-0.320,-0.320,0.000,0.000,0.000
1643293241666036992,2022-01-27-14:20:41,10.1.1.7,40,-0.331,-0.331,-0.331,0.000,0.000,0.000
1643293241855596032,2022-01-27-14:20:41,10.1.1.7,28,-0.341,-0.341,-0.341,0.000,0.000,0.000
1643293242067079168,2022-01-27-14:20:42,10.1.1.7,39,-0.351,-0.351,-0.351,0.000,0.000,0.000
1643293242266275840,2022-01-27-14:20:42,10.1.1.7,37,-0.361,-0.361,-0.361,0.000,0.000,0.000
1643293242465893888,2022-01-27-14:20:42,10.1.1.7,36,-0.371,-0.371,-0.371,0.000,0.000,0.000
1643293242655884032,2022-01-27-14:20:42,10.1.1.7,26,-0.380,-0.380,-0.380,0.000,0.000,0.000
1643293242867273984,2022-01-27-14:20:42,10.1.1.7,36,-0.391,-0.391,-0.391,0.000,0.000,0.000
1643293243066312192,2022-01-27-14:20:43,10.1.1.7,34,-0.401,-0.401,-0.401,0.000,0.000,0.000
1643293243265694976,2022-01-27-14:20:43,10.1.1.7,33,-0.411,-0.411,-0.411,0.000,0.000,0.000
1643293243486803968,2022-01-27-14:20:43,10.1.1.7,53,-0.422,-0.422,-0.422,0.000,0.000,0.000
1643293243656646912,2022-01-27-14:20:43,10.1.1.7,23,-0.430,-0.430,-0.430,0.000,0.000,0.000
1643293243866964224,2022-01-27-14:20:43,10.1.1.7,32,-0.441,-0.441,-0.441,0.000,0.000,0.000
1643293244066757888,2022-01-27-14:20:44,10.1.1.7,31,-0.450,-0.450,-0.450,0.000,0.000,0.000
1643293244286451968,2022-01-27-14:20:44,10.1.1.7,50,-0.461,-0.461,-0.461,0.000,0.000,0.000
1643293244466778112,2022-01-27-14:20:44,10.1.1.7,30,-0.470,-0.470,-0.470,0.000,0.000,0.000
1643293244685150976,2022-01-27-14:20:44,10.1.1.7,47,-0.481,-0.481,-0.481,0.000,0.000,0.000
1643293244845518080,2022-01-27-14:20:44,10.1.1.7,7,-0.489,-0.489,-0.489,0.000,0.000,0.000
1643293245066378240,2022-01-27-14:20:45,10.1.1.7,27,-0.480,-0.480,-0.480,0.000,0.000,0.000
1643293245265106944,2022-01-27-14:20:45,10.1.1.7,25,-0.470,-0.470,-0.470,0.000,0.000,0.000
1643293245465210880,2022-01-27-14:20:45,10.1.1.7,24,-0.460,-0.460,-0.460,0.000,0.000,0.000
1643293245665946112,2022-01-27-14:20:45,10.1.1.7,24,-0.450,-0.450,-0.450,0.000,0.000,0.000
1643293245865474816,2022-01-27-14:20:45,10.1.1.7,23,-0.440,-0.440,-0.440,0.000,0.000,0.000
1643293246064827904,2022-01-27-14:20:46,10.1.1.7,22,-0.430,-0.430,-0.430,0.000,0.000,0.000
1643293246265808128,2022-01-27-14:20:46,10.1.1.7,22,-0.420,-0.420,-0.420,0.000,0.000,0.000
1643293246485421824,2022-01-27-14:20:46,10.1.1.7,40,-0.409,-0.409,-0.409,0.000,0.000,0.000
1643293246645363200,2022-01-27-14:20:46,10.1.1.7,-1,-0.401,-0.401,-0.401,0.000,0.000,0.000
1643293246885015040,2022-01-27-14:20:46,10.1.1.7,39,-0.389,-0.389,-0.389,0.000,0.000,0.000
1643293247064846080,2022-01-27-14:20:47,10.1.1.7,18,-0.380,-0.380,-0.380,0.000,0.000,0.000
1643293247285164032,2022-01-27-14:20:47,10.1.1.7,37,-0.369,-0.369,-0.369,0.000,0.000,0.000
1643293247484992000,2022-01-27-14:20:47,10.1.1.7,37,-0.359,-0.359,-0.359,0.000,0.000,0.000
1643293247685472000,2022-01-27-14:20:47,10.1.1.7,36,-0.349,-0.349,-0.349,0.000,0.000,0.000
1643293247884998144,2022-01-27-14:20:47,10.1.1.7,35,-0.339,-0.339,-0.339,0.000,0.000,0.000
1643293248085603072,2022-01-27-14:20:48,10.1.1.7,35,-0.329,-0.329,-0.329,0.000,0.000,0.000
1643293248285347840,2022-01-27-14:20:48,10.1.1.7,35,-0.319,-0.319,-0.319,0.000,0.000,0.000
1643293248484930048,2022-01-27-14:20:48,10.1.1.7,34,-0.309,-0.309,-0.309,0.000,0.000,0.000
1643293248685110016,2022-01-27-14:20:48,10.1.1.7,33,-0.299,-0.299,-0.299,0.000,0.000,0.000
1643293248885315840,2022-01-27-14:20:48,10.1.1.7,33,-0.289,-0.289,-0.289,0.000,0.000,0.000
1643293249085756160,2022-01-27-14:20:49,10.1.1.7,32,-0.279,-0.279,-0.279,0.000,0.000,0.000
1643293249285741056,2022-01-27-14:20:49,10.1.1.7,32,-0.269,-0.269,-0.269,0.000,0.000,0.000
1643293249485521920,2022-01-27-14:20:49,10.1.1.7,31,-0.259,-0.259,-0.259,0.000,0.000,0.000
1643293249685538048,2022-01-27-14:20:49,10.1.1.7,31,-0.249,-0.249,-0.249,0.000,0.000,0.000
1643293249886957824,2022-01-27-14:20:49,10.1.1.7,31,-0.239,-0.239,-0.239,0.000,0.000,0.000
1643293250089596928,2022-01-27-14:20:50,10.1.1.7,30,-0.230,-0.230,-0.230,0.000,0.000,0.000
1643293250285829120,2022-01-27-14:20:50,10.1.1.7,26,-0.220,-0.220,-0.220,0.000,0.000,0.000
1643293250485654016,2022-01-27-14:20:50,10.1.1.7,25,-0.210,-0.210,-0.210,0.000,0.000,0.000
1643293250686883840,2022-01-27-14:20:50,10.1.1.7,25,-0.200,-0.200,-0.200,0.000,0.000,0.000
1643293250887725056,2022-01-27-14:20:50,10.1.1.7,25,-0.190,-0.190,-0.190,0.000,0.000,0.000
1643293251086679808,2022-01-27-14:20:51,10.1.1.7,23,-0.180,-0.180,-0.180,0.000,0.000,0.000
1643293251306724096,2022-01-27-14:20:51,10.1.1.7,43,-0.169,-0.169,-0.169,0.000,0.000,0.000
1643293251506865152,2022-01-27-14:20:51,10.1.1.7,42,-0.159,-0.159,-0.159,0.000,0.000,0.000
1643293251706062080,2022-01-27-14:20:51,10.1.1.7,41,-0.149,-0.149,-0.149,0.000,0.000,0.000
1643293251886907136,2022-01-27-14:20:51,10.1.1.7,20,-0.140,-0.140,-0.140,0.000,0.000,0.000
1643293252086235904,2022-01-27-14:20:52,10.1.1.7,19,-0.130,-0.130,-0.130,0.000,0.000,0.000
1643293252286032896,2022-01-27-14:20:52,10.1.1.7,18,-0.120,-0.120,-0.120,0.000,0.000,0.000
1643293252486269952,2022-01-27-14:20:52,10.1.1.7,18,-0.110,-0.110,-0.110,0.000,0.000,0.000
1643293252706411008,2022-01-27-14:20:52,10.1.1.7,37,-0.099,-0.099,-0.099,0.000,0.000,0.000
1643293252906327040,2022-01-27-14:20:52,10.1.1.7,37,-0.089,-0.089,-0.089,0.000,0.000,0.000
1643293253107311104,2022-01-27-14:20:53,10.1.1.7,37,-0.079,-0.079,-0.079,0.000,0.000,0.000
1643293253305346048,2022-01-27-14:20:53,10.1.1.7,34,-0.069,-0.069,-0.069,0.000,0.000,0.000
1643293253507015936,2022-01-27-14:20:53,10.1.1.7,35,-0.059,-0.059,-0.059,0.000,0.000,0.000
1643293253708296960,2022-01-27-14:20:53,10.1.1.7,35,-0.049,-0.049,-0.049,0.000,0.000,0.000
1643293253906593024,2022-01-27-14:20:53,10.1.1.7,33,-0.039,-0.039,-0.039,0.000,0.000,0.000
1643293254106566912,2022-01-27-14:20:54,10.1.1.7,29,-0.030,-0.030,-0.030,0.000,0.000,0.000
1643293254309411072,2022-01-27-14:20:54,10.1.1.7,29,-0.020,-0.020,-0.020,0.000,0.000,0.000
1643293254506708992,2022-01-27-14:20:54,10.1.1.7,25,-0.010,-0.010,-0.010,0.000,0.000,0.000
1643293254686515968,2022-01-27-14:20:54,10.1.1.7,5,-0.001,-0.001,-0.001,0.000,0.000,0.000
1643293254916593920,2022-01-27-14:20:54,10.1.1.7,33,-0.010,-0.010,-0.010,0.000,0.000,0.000
1643293255117643008,2022-01-27-14:20:55,10.1.1.7,34,-0.021,-0.021,-0.021,0.000,0.000,0.000
1643293255326394112,2022-01-27-14:20:55,10.1.1.7,41,-0.031,-0.031,-0.031,0.000,0.000,0.000
1643293255526746112,2022-01-27-14:20:55,10.1.1.7,39,-0.041,-0.041,-0.041,0.000,0.000,0.000
1643293255727269888,2022-01-27-14:20:55,10.1.1.7,39,-0.051,-0.051,-0.051,0.000,0.000,0.000
1643293255926348800,2022-01-27-14:20:55,10.1.1.7,37,-0.061,-0.061,-0.061,0.000,0.000,0.000
1643293256126633984,2022-01-27-14:20:56,10.1.1.7,37,-0.071,-0.071,-0.071,0.000,0.000,0.000
1643293256327204096,2022-01-27-14:20:56,10.1.1.7,36,-0.081,-0.081,-0.081,0.000,0.000,0.000
1643293256516765184,2022-01-27-14:20:56,10.1.1.7,25,-0.090,-0.090,-0.090,0.000,0.000,0.000
1643293256726493952,2022-01-27-14:20:56,10.1.1.7,34,-0.101,-0.101,-0.101,0.000,0.000,0.000
1643293256917618944,2022-01-27-14:20:56,10.1.1.7,25,-0.110,-0.110,-0.110,0.000,0.000,0.000
1643293257117056000,2022-01-27-14:20:57,10.1.1.7,22,-0.120,-0.120,-0.120,0.000,0.000,0.000
1643293257327398144,2022-01-27-14:20:57,10.1.1.7,31,-0.130,-0.130,-0.130,0.000,0.000,0.000
1643293257536210944,2022-01-27-14:20:57,10.1.1.7,39,-0.141,-0.141,-0.141,0.000,0.000,0.000
1643293257727154944,2022-01-27-14:20:57,10.1.1.7,29,-0.150,-0.150,-0.150,0.000,0.000,0.000
1643293257936180224,2022-01-27-14:20:57,10.1.1.7,38,-0.161,-0.161,-0.161,0.000,0.000,0.000
1643293258126693888,2022-01-27-14:20:58,10.1.1.7,27,-0.170,-0.170,-0.170,0.000,0.000,0.000
1643293258325680896,2022-01-27-14:20:58,10.1.1.7,25,-0.180,-0.180,-0.180,0.000,0.000,0.000
1643293258527324928,2022-01-27-14:20:58,10.1.1.7,26,-0.190,-0.190,-0.190,0.000,0.000,0.000
1643293258736655104,2022-01-27-14:20:58,10.1.1.7,34,-0.200,-0.200,-0.200,0.000,0.000,0.000
1643293258946355968,2022-01-27-14:20:58,10.1.1.7,42,-0.211,-0.211,-0.211,0.000,0.000,0.000
1643293259135740160,2022-01-27-14:20:59,10.1.1.7,31,-0.220,-0.220,-0.220,0.000,0.000,0.000
1643293259335592960,2022-01-27-14:20:59,10.1.1.7,29,-0.230,-0.230,-0.230,0.000,0.000,0.000
1643293259550672896,2022-01-27-14:20:59,10.1.1.7,42,-0.241,-0.241,-0.241,0.000,0.000,0.000
1643293259746965760,2022-01-27-14:20:59,10.1.1.7,38,-0.251,-0.251,-0.251,0.000,0.000,0.000
1643293259947096064,2022-01-27-14:20:59,10.1.1.7,37,-0.261,-0.261,-0.261,0.000,0.000,0.000
1643293260146208000,2022-01-27-14:21:00,10.1.1.7,35,-0.271,-0.271,-0.271,0.000,0.000,0.000
1643293260347084032,2022-01-27-14:21:00,10.1.1.7,35,-0.281,-0.281,-0.281,0.000,0.000,0.000
1643293260548768000,2022-01-27-14:21:00,10.1.1.7,36,-0.291,-0.291,-0.291,0.000,0.000,0.000
1643293260746970880,2022-01-27-14:21:00,10.1.1.7,33,-0.301,-0.301,-0.301,0.000,0.000,0.000
1643293260946505984,2022-01-27-14:21:00,10.1.1.7,31,-0.310,-0.310,-0.310,0.000,0.000,0.000
1643293261147429888,2022-01-27-14:21:01,10.1.1.7,31,-0.320,-0.320,-0.320,0.000,0.000,0.000
1643293261348645888,2022-01-27-14:21:01,10.1.1.7,31,-0.331,-0.331,-0.331,0.000,0.000,0.000
1643293261566975232,2022-01-27-14:21:01,10.1.1.7,45,-0.341,-0.341,-0.341,0.000,0.000,0.000
1643293261767172096,2022-01-27-14:21:01,10.1.1.7,44,-0.351,-0.351,-0.351,0.000,0.000,0.000
1643293261967951104,2022-01-27-14:21:01,10.1.1.7,42,-0.361,-0.361,-0.361,0.000,0.000,0.000
1643293262155986944,2022-01-27-14:21:02,10.1.1.7,31,-0.371,-0.371,-0.371,0.000,0.000,0.000
1643293262356295168,2022-01-27-14:21:02,10.1.1.7,30,-0.380,-0.380,-0.380,0.000,0.000,0.000
1643293262567483904,2022-01-27-14:21:02,10.1.1.7,40,-0.391,-0.391,-0.391,0.000,0.000,0.000
1643293262766462208,2022-01-27-14:21:02,10.1.1.7,38,-0.401,-0.401,-0.401,0.000,0.000,0.000
1643293262957057024,2022-01-27-14:21:02,10.1.1.7,28,-0.410,-0.410,-0.410,0.000,0.000,0.000
1643293263156188928,2022-01-27-14:21:03,10.1.1.7,26,-0.420,-0.420,-0.420,0.000,0.000,0.000
1643293263367713024,2022-01-27-14:21:03,10.1.1.7,37,-0.431,-0.431,-0.431,0.000,0.000,0.000
1643293263567388928,2022-01-27-14:21:03,10.1.1.7,35,-0.441,-0.441,-0.441,0.000,0.000,0.000
1643293263787866112,2022-01-27-14:21:03,10.1.1.7,50,-0.451,-0.451,-0.451,0.000,0.000,0.000
1643293263975895040,2022-01-27-14:21:03,10.1.1.7,37,-0.461,-0.461,-0.461,0.000,0.000,0.000
1643293264177481984,2022-01-27-14:21:04,10.1.1.7,38,-0.471,-0.471,-0.471,0.000,0.000,0.000
1643293264370459136,2022-01-27-14:21:04,10.1.1.7,30,-0.480,-0.480,-0.480,0.000,0.000,0.000
1643293264547844864,2022-01-27-14:21:04,10.1.1.7,7,-0.489,-0.489,-0.489,0.000,0.000,0.000
1643293264766951168,2022-01-27-14:21:04,10.1.1.7,25,-0.480,-0.480,-0.480,0.000,0.000,0.000
1643293264968662016,2022-01-27-14:21:04,10.1.1.7,25,-0.470,-0.470,-0.470,0.000,0.000,0.000
1643293265188007168,2022-01-27-14:21:05,10.1.1.7,44,-0.459,-0.459,-0.459,0.000,0.000,0.000
1643293265386979072,2022-01-27-14:21:05,10.1.1.7,42,-0.449,-0.449,-0.449,0.000,0.000,0.000
1643293265586209024,2022-01-27-14:21:05,10.1.1.7,41,-0.439,-0.439,-0.439,0.000,0.000,0.000
1643293265787420160,2022-01-27-14:21:05,10.1.1.7,40,-0.429,-0.429,-0.429,0.000,0.000,0.000
1643293265981362944,2022-01-27-14:21:05,10.1.1.7,33,-0.420,-0.420,-0.420,0.000,0.000,0.000
1643293266190469120,2022-01-27-14:21:06,10.1.1.7,41,-0.409,-0.409,-0.409,0.000,0.000,0.000
1643293266386755072,2022-01-27-14:21:06,10.1.1.7,36,-0.399,-0.399,-0.399,0.000,0.000,0.000
1643293266577730048,2022-01-27-14:21:06,10.1.1.7,26,-0.390,-0.390,-0.390,0.000,0.000,0.000
1643293266787211776,2022-01-27-14:21:06,10.1.1.7,34,-0.379,-0.379,-0.379,0.000,0.000,0.000
1643293266987531008,2022-01-27-14:21:06,10.1.1.7,34,-0.369,-0.369,-0.369,0.000,0.000,0.000
1643293267208054016,2022-01-27-14:21:07,10.1.1.7,54,-0.358,-0.358,-0.358,0.000,0.000,0.000
1643293267387461888,2022-01-27-14:21:07,10.1.1.7,28,-0.350,-0.350,-0.350,0.000,0.000,0.000
1643293267597225984,2022-01-27-14:21:07,10.1.1.7,37,-0.339,-0.339,-0.339,0.000,0.000,0.000
1643293267788224000,2022-01-27-14:21:07,10.1.1.7,28,-0.330,-0.330,-0.330,0.000,0.000,0.000
1643293267987684096,2022-01-27-14:21:07,10.1.1.7,26,-0.320,-0.320,-0.320,0.000,0.000,0.000
1643293268188359936,2022-01-27-14:21:08,10.1.1.7,26,-0.310,-0.310,-0.310,0.000,0.000,0.000
1643293268397803008,2022-01-27-14:21:08,10.1.1.7,34,-0.299,-0.299,-0.299,0.000,0.000,0.000
1643293268606484992,2022-01-27-14:21:08,10.1.1.7,40,-0.289,-0.289,-0.289,0.000,0.000,0.000
1643293268797043200,2022-01-27-14:21:08,10.1.1.7,28,-0.280,-0.280,-0.280,0.000,0.000,0.000
1643293269007715072,2022-01-27-14:21:09,10.1.1.7,38,-0.269,-0.269,-0.269,0.000,0.000,0.000
1643293269206929920,2022-01-27-14:21:09,10.1.1.7,36,-0.259,-0.259,-0.259,0.000,0.000,0.000
1643293269407704064,2022-01-27-14:21:09,10.1.1.7,36,-0.249,-0.249,-0.249,0.000,0.000,0.000
1643293269607026176,2022-01-27-14:21:09,10.1.1.7,35,-0.239,-0.239,-0.239,0.000,0.000,0.000
1643293269805951232,2022-01-27-14:21:09,10.1.1.7,33,-0.229,-0.229,-0.229,0.000,0.000,0.000
1643293270006972928,2022-01-27-14:21:10,10.1.1.7,33,-0.219,-0.219,-0.219,0.000,0.000,0.000
1643293270196340992,2022-01-27-14:21:10,10.1.1.7,19,-0.210,-0.210,-0.210,0.000,0.000,0.000
1643293270415992064,2022-01-27-14:21:10,10.1.1.7,38,-0.199,-0.199,-0.199,0.000,0.000,0.000
1643293270605705984,2022-01-27-14:21:10,10.1.1.7,25,-0.190,-0.190,-0.190,0.000,0.000,0.000
1643293270807056896,2022-01-27-14:21:10,10.1.1.7,25,-0.180,-0.180,-0.180,0.000,0.000,0.000
1643293271006835968,2022-01-27-14:21:11,10.1.1.7,24,-0.170,-0.170,-0.170,0.000,0.000,0.000
1643293271206563072,2022-01-27-14:21:11,10.1.1.7,23,-0.160,-0.160,-0.160,0.000,0.000,0.000
1643293271426659072,2022-01-27-14:21:11,10.1.1.7,42,-0.149,-0.149,-0.149,0.000,0.000,0.000
1643293271606853888,2022-01-27-14:21:11,10.1.1.7,20,-0.140,-0.140,-0.140,0.000,0.000,0.000
1643293271806500864,2022-01-27-14:21:11,10.1.1.7,19,-0.130,-0.130,-0.130,0.000,0.000,0.000
1643293272017060096,2022-01-27-14:21:12,10.1.1.7,28,-0.120,-0.120,-0.120,0.000,0.000,0.000
1643293272231725056,2022-01-27-14:21:12,10.1.1.7,40,-0.109,-0.109,-0.109,0.000,0.000,0.000
1643293272426661888,2022-01-27-14:21:12,10.1.1.7,32,-0.100,-0.100,-0.100,0.000,0.000,0.000
1643293272616601088,2022-01-27-14:21:12,10.1.1.7,20,-0.090,-0.090,-0.090,0.000,0.000,0.000
1643293272816700928,2022-01-27-14:21:12,10.1.1.7,18,-0.080,-0.080,-0.080,0.000,0.000,0.000
1643293273047403008,2022-01-27-14:21:13,10.1.1.7,48,-0.069,-0.069,-0.069,0.000,0.000,0.000
1643293273227067904,2022-01-27-14:21:13,10.1.1.7,26,-0.060,-0.060,-0.060,0.000,0.000,0.000
1643293273425831936,2022-01-27-14:21:13,10.1.1.7,25,-0.050,-0.050,-0.050,0.000,0.000,0.000
1643293273626251008,2022-01-27-14:21:13,10.1.1.7,25,-0.040,-0.040,-0.040,0.000,0.000,0.000
1643293273846035968,2022-01-27-14:21:13,10.1.1.7,44,-0.029,-0.029,-0.029,0.000,0.000,0.000
1643293274025746176,2022-01-27-14:21:14,10.1.1.7,23,-0.020,-0.020,-0.020,0.000,0.000,0.000
1643293274225668864,2022-01-27-14:21:14,10.1.1.7,22,-0.010,-0.010,-0.010,0.000,0.000,0.000
1643293274425533184,2022-01-27-14:21:14,10.1.1.7,21,-0.000,-0.000,-0.000,0.000,0.000,0.000
1643293274636179968,2022-01-27-14:21:14,10.1.1.7,30,-0.010,-0.010,-0.010,0.000,0.000,0.000
1643293274846105088,2022-01-27-14:21:14,10.1.1.7,38,-0.021,-0.021,-0.021,0.000,0.000,0.000
1643293275045835008,2022-01-27-14:21:15,10.1.1.7,36,-0.031,-0.031,-0.031,0.000,0.000,0.000
1643293275245186048,2022-01-27-14:21:15,10.1.1.7,35,-0.041,-0.041,-0.041,0.000,0.000,0.000
1643293275445506048,2022-01-27-14:21:15,10.1.1.7,35,-0.051,-0.051,-0.051,0.000,0.000,0.000
1643293275645884928,2022-01-27-14:21:15,10.1.1.7,34,-0.061,-0.061,-0.061,0.000,0.000,0.000
1643293275845562880,2022-01-27-14:21:15,10.1.1.7,31,-0.071,-0.071,-0.071,0.000,0.000,0.000
1643293276045184000,2022-01-27-14:21:16,10.1.1.7,29,-0.081,-0.081,-0.081,0.000,0.000,0.000
1643293276245455104,2022-01-27-14:21:16,10.1.1.7,29,-0.091,-0.091,-0.091,0.000,0.000,0.000
1643293276435286016,2022-01-27-14:21:16,10.1.1.7,18,-0.100,-0.100,-0.100,0.000,0.000,0.000
1643293276635461120,2022-01-27-14:21:16,10.1.1.7,18,-0.110,-0.110,-0.110,0.000,0.000,0.000
1643293276845042944,2022-01-27-14:21:16,10.1.1.7,27,-0.120,-0.120,-0.120,0.000,0.000,0.000
1643293277045907968,2022-01-27-14:21:17,10.1.1.7,27,-0.130,-0.130,-0.130,0.000,0.000,0.000
1643293277245789952,2022-01-27-14:21:17,10.1.1.7,26,-0.140,-0.140,-0.140,0.000,0.000,0.000
1643293277465452800,2022-01-27-14:21:17,10.1.1.7,45,-0.151,-0.151,-0.151,0.000,0.000,0.000
1643293277645967872,2022-01-27-14:21:17,10.1.1.7,26,-0.160,-0.160,-0.160,0.000,0.000,0.000
1643293277845520128,2022-01-27-14:21:17,10.1.1.7,24,-0.170,-0.170,-0.170,0.000,0.000,0.000
1643293278045635840,2022-01-27-14:21:18,10.1.1.7,23,-0.180,-0.180,-0.180,0.000,0.000,0.000
1643293278256977152,2022-01-27-14:21:18,10.1.1.7,33,-0.191,-0.191,-0.191,0.000,0.000,0.000
1643293278466702848,2022-01-27-14:21:18,10.1.1.7,41,-0.201,-0.201,-0.201,0.000,0.000,0.000
1643293278666608128,2022-01-27-14:21:18,10.1.1.7,40,-0.211,-0.211,-0.211,0.000,0.000,0.000
1643293278856376832,2022-01-27-14:21:18,10.1.1.7,29,-0.220,-0.220,-0.220,0.000,0.000,0.000
1643293279056941056,2022-01-27-14:21:19,10.1.1.7,28,-0.230,-0.230,-0.230,0.000,0.000,0.000
1643293279255932928,2022-01-27-14:21:19,10.1.1.7,26,-0.240,-0.240,-0.240,0.000,0.000,0.000
1643293279456600064,2022-01-27-14:21:19,10.1.1.7,26,-0.250,-0.250,-0.250,0.000,0.000,0.000
1643293279666601984,2022-01-27-14:21:19,10.1.1.7,36,-0.261,-0.261,-0.261,0.000,0.000,0.000
1643293279856455936,2022-01-27-14:21:19,10.1.1.7,25,-0.270,-0.270,-0.270,0.000,0.000,0.000
1643293280056624896,2022-01-27-14:21:20,10.1.1.7,25,-0.280,-0.280,-0.280,0.000,0.000,0.000
1643293280266985984,2022-01-27-14:21:20,10.1.1.7,34,-0.291,-0.291,-0.291,0.000,0.000,0.000
1643293280467490048,2022-01-27-14:21:20,10.1.1.7,34,-0.301,-0.301,-0.301,0.000,0.000,0.000
1643293280666798080,2022-01-27-14:21:20,10.1.1.7,33,-0.311,-0.311,-0.311,0.000,0.000,0.000
1643293280866142976,2022-01-27-14:21:20,10.1.1.7,32,-0.321,-0.321,-0.321,0.000,0.000,0.000
1643293281055529216,2022-01-27-14:21:21,10.1.1.7,20,-0.330,-0.330,-0.330,0.000,0.000,0.000
1643293281266600960,2022-01-27-14:21:21,10.1.1.7,29,-0.340,-0.340,-0.340,0.000,0.000,0.000
1643293281467084800,2022-01-27-14:21:21,10.1.1.7,29,-0.350,-0.350,-0.350,0.000,0.000,0.000
1643293281666188032,2022-01-27-14:21:21,10.1.1.7,28,-0.360,-0.360,-0.360,0.000,0.000,0.000
1643293281867588096,2022-01-27-14:21:21,10.1.1.7,28,-0.370,-0.370,-0.370,0.000,0.000,0.000
1643293282067607040,2022-01-27-14:21:22,10.1.1.7,28,-0.380,-0.380,-0.380,0.000,0.000,0.000
1643293282266905088,2022-01-27-14:21:22,10.1.1.7,26,-0.390,-0.390,-0.390,0.000,0.000,0.000
1643293282476614912,2022-01-27-14:21:22,10.1.1.7,35,-0.401,-0.401,-0.401,0.000,0.000,0.000
1643293282676271872,2022-01-27-14:21:22,10.1.1.7,35,-0.411,-0.411,-0.411,0.000,0.000,0.000
1643293282888171008,2022-01-27-14:21:22,10.1.1.7,46,-0.421,-0.421,-0.421,0.000,0.000,0.000
1643293283067430144,2022-01-27-14:21:23,10.1.1.7,25,-0.430,-0.430,-0.430,0.000,0.000,0.000
1643293283275963904,2022-01-27-14:21:23,10.1.1.7,33,-0.440,-0.440,-0.440,0.000,0.000,0.000
1643293283476346880,2022-01-27-14:21:23,10.1.1.7,32,-0.450,-0.450,-0.450,0.000,0.000,0.000
1643293283666843904,2022-01-27-14:21:23,10.1.1.7,19,-0.460,-0.460,-0.460,0.000,0.000,0.000
1643293283887559936,2022-01-27-14:21:23,10.1.1.7,40,-0.471,-0.471,-0.471,0.000,0.000,0.000
1643293284085442048,2022-01-27-14:21:24,10.1.1.7,37,-0.481,-0.481,-0.481,0.000,0.000,0.000
1643293284266771200,2022-01-27-14:21:24,10.1.1.7,18,-0.490,-0.490,-0.490,0.000,0.000,0.000
1643293284476572928,2022-01-27-14:21:24,10.1.1.7,27,-0.480,-0.480,-0.480,0.000,0.000,0.000
1643293284687767040,2022-01-27-14:21:24,10.1.1.7,38,-0.469,-0.469,-0.469,0.000,0.000,0.000
1643293284886984960,2022-01-27-14:21:24,10.1.1.7,37,-0.459,-0.459,-0.459,0.000,0.000,0.000
1643293285086289920,2022-01-27-14:21:25,10.1.1.7,36,-0.449,-0.449,-0.449,0.000,0.000,0.000
1643293285276218880,2022-01-27-14:21:25,10.1.1.7,24,-0.440,-0.440,-0.440,0.000,0.000,0.000
1643293285475870976,2022-01-27-14:21:25,10.1.1.7,24,-0.430,-0.430,-0.430,0.000,0.000,0.000
1643293285706830080,2022-01-27-14:21:25,10.1.1.7,54,-0.418,-0.418,-0.418,0.000,0.000,0.000
1643293285886342912,2022-01-27-14:21:25,10.1.1.7,33,-0.409,-0.409,-0.409,0.000,0.000,0.000
1643293286090668800,2022-01-27-14:21:26,10.1.1.7,36,-0.399,-0.399,-0.399,0.000,0.000,0.000
1643293286287899136,2022-01-27-14:21:26,10.1.1.7,32,-0.389,-0.389,-0.389,0.000,0.000,0.000
1643293286475842048,2022-01-27-14:21:26,10.1.1.7,20,-0.380,-0.380,-0.380,0.000,0.000,0.000
1643293286687027968,2022-01-27-14:21:26,10.1.1.7,30,-0.369,-0.369,-0.369,0.000,0.000,0.000
1643293286886885888,2022-01-27-14:21:26,10.1.1.7,29,-0.360,-0.360,-0.360,0.000,0.000,0.000
1643293287087610112,2022-01-27-14:21:27,10.1.1.7,29,-0.350,-0.350,-0.350,0.000,0.000,0.000
1643293287286629888,2022-01-27-14:21:27,10.1.1.7,28,-0.340,-0.340,-0.340,0.000,0.000,0.000
1643293287486733056,2022-01-27-14:21:27,10.1.1.7,27,-0.330,-0.330,-0.330,0.000,0.000,0.000
1643293287686896128,2022-01-27-14:21:27,10.1.1.7,27,-0.320,-0.320,-0.320,0.000,0.000,0.000
1643293287886871040,2022-01-27-14:21:27,10.1.1.7,26,-0.310,-0.310,-0.310,0.000,0.000,0.000
1643293288088754944,2022-01-27-14:21:28,10.1.1.7,28,-0.300,-0.300,-0.300,0.000,0.000,0.000
1643293288285270016,2022-01-27-14:21:28,10.1.1.7,24,-0.290,-0.290,-0.290,0.000,0.000,0.000
1643293288486790912,2022-01-27-14:21:28,10.1.1.7,24,-0.280,-0.280,-0.280,0.000,0.000,0.000
1643293288685611008,2022-01-27-14:21:28,10.1.1.7,23,-0.270,-0.270,-0.270,0.000,0.000,0.000
1643293288885436160,2022-01-27-14:21:28,10.1.1.7,22,-0.260,-0.260,-0.260,0.000,0.000,0.000
1643293289105257984,2022-01-27-14:21:29,10.1.1.7,41,-0.249,-0.249,-0.249,0.000,0.000,0.000
1643293289307055104,2022-01-27-14:21:29,10.1.1.7,41,-0.239,-0.239,-0.239,0.000,0.000,0.000
1643293289516779776,2022-01-27-14:21:29,10.1.1.7,47,-0.229,-0.229,-0.229,0.000,0.000,0.000
1643293289706336000,2022-01-27-14:21:29,10.1.1.7,36,-0.219,-0.219,-0.219,0.000,0.000,0.000
1643293289906493952,2022-01-27-14:21:29,10.1.1.7,35,-0.209,-0.209,-0.209,0.000,0.000,0.000
1643293290106807040,2022-01-27-14:21:30,10.1.1.7,34,-0.199,-0.199,-0.199,0.000,0.000,0.000
1643293290306329088,2022-01-27-14:21:30,10.1.1.7,33,-0.189,-0.189,-0.189,0.000,0.000,0.000
1643293290506924032,2022-01-27-14:21:30,10.1.1.7,33,-0.179,-0.179,-0.179,0.000,0.000,0.000
1643293290706407168,2022-01-27-14:21:30,10.1.1.7,32,-0.169,-0.169,-0.169,0.000,0.000,0.000
1643293290906585088,2022-01-27-14:21:30,10.1.1.7,31,-0.159,-0.159,-0.159,0.000,0.000,0.000
1643293291096985088,2022-01-27-14:21:31,10.1.1.7,21,-0.150,-0.150,-0.150,0.000,0.000,0.000
1643293291306516992,2022-01-27-14:21:31,10.1.1.7,30,-0.139,-0.139,-0.139,0.000,0.000,0.000
1643293291505523968,2022-01-27-14:21:31,10.1.1.7,27,-0.130,-0.130,-0.130,0.000,0.000,0.000
1643293291705809152,2022-01-27-14:21:31,10.1.1.7,27,-0.120,-0.120,-0.120,0.000,0.000,0.000
1643293291906533888,2022-01-27-14:21:31,10.1.1.7,26,-0.110,-0.110,-0.110,0.000,0.000,0.000
1643293292116300032,2022-01-27-14:21:32,10.1.1.7,35,-0.099,-0.099,-0.099,0.000,0.000,0.000
1643293292326237952,2022-01-27-14:21:32,10.1.1.7,44,-0.089,-0.089,-0.089,0.000,0.000,0.000
1643293292506663168,2022-01-27-14:21:32,10.1.1.7,24,-0.080,-0.080,-0.080,0.000,0.000,0.000
1643293292706929920,2022-01-27-14:21:32,10.1.1.7,23,-0.070,-0.070,-0.070,0.000,0.000,0.000
1643293292927361024,2022-01-27-14:21:32,10.1.1.7,42,-0.059,-0.059,-0.059,0.000,0.000,0.000
1643293293127545088,2022-01-27-14:21:33,10.1.1.7,41,-0.049,-0.049,-0.049,0.000,0.000,0.000
1643293293327363840,2022-01-27-14:21:33,10.1.1.7,40,-0.039,-0.039,-0.039,0.000,0.000,0.000
1643293293526693120,2022-01-27-14:21:33,10.1.1.7,39,-0.029,-0.029,-0.029,0.000,0.000,0.000
1643293293725858048,2022-01-27-14:21:33,10.1.1.7,38,-0.019,-0.019,-0.019,0.000,0.000,0.000
1643293293926675200,2022-01-27-14:21:33,10.1.1.7,37,-0.009,-0.009,-0.009,0.000,0.000,0.000
1643293294107224832,2022-01-27-14:21:34,10.1.1.7,17,-0.000,-0.000,-0.000,0.000,0.000,0.000
1643293294325844992,2022-01-27-14:21:34,10.1.1.7,35,-0.011,-0.011,-0.011,0.000,0.000,0.000
1643293294525938944,2022-01-27-14:21:34,10.1.1.7,35,-0.021,-0.021,-0.021,0.000,0.000,0.000
1643293294727107072,2022-01-27-14:21:34,10.1.1.7,34,-0.031,-0.031,-0.031,0.000,0.000,0.000
1643293294927341056,2022-01-27-14:21:34,10.1.1.7,32,-0.041,-0.041,-0.041,0.000,0.000,0.000
1643293295127234048,2022-01-27-14:21:35,10.1.1.7,30,-0.051,-0.051,-0.051,0.000,0.000,0.000
1643293295326381824,2022-01-27-14:21:35,10.1.1.7,29,-0.061,-0.061,-0.061,0.000,0.000,0.000
1643293295527260160,2022-01-27-14:21:35,10.1.1.7,30,-0.071,-0.071,-0.071,0.000,0.000,0.000
1643293295729815040,2022-01-27-14:21:35,10.1.1.7,29,-0.080,-0.080,-0.080,0.000,0.000,0.000
1643293295945316096,2022-01-27-14:21:35,10.1.1.7,46,-0.091,-0.091,-0.091,0.000,0.000,0.000
1643293296125174016,2022-01-27-14:21:36,10.1.1.7,25,-0.100,-0.100,-0.100,0.000,0.000,0.000
1643293296325347840,2022-01-27-14:21:36,10.1.1.7,25,-0.110,-0.110,-0.110,0.000,0.000,0.000
1643293296525209856,2022-01-27-14:21:36,10.1.1.7,24,-0.120,-0.120,-0.120,0.000,0.000,0.000
1643293296728451072,2022-01-27-14:21:36,10.1.1.7,27,-0.130,-0.130,-0.130,0.000,0.000,0.000
1643293296925263872,2022-01-27-14:21:36,10.1.1.7,23,-0.140,-0.140,-0.140,0.000,0.000,0.000
1643293297126427904,2022-01-27-14:21:37,10.1.1.7,23,-0.150,-0.150,-0.150,0.000,0.000,0.000
1643293297345777920,2022-01-27-14:21:37,10.1.1.7,42,-0.161,-0.161,-0.161,0.000,0.000,0.000
1643293297547403008,2022-01-27-14:21:37,10.1.1.7,41,-0.171,-0.171,-0.171,0.000,0.000,0.000
1643293297746031104,2022-01-27-14:21:37,10.1.1.7,40,-0.181,-0.181,-0.181,0.000,0.000,0.000
1643293297946126848,2022-01-27-14:21:37,10.1.1.7,39,-0.191,-0.191,-0.191,0.000,0.000,0.000
1643293298139591936,2022-01-27-14:21:38,10.1.1.7,28,-0.200,-0.200,-0.200,0.000,0.000,0.000
1643293298347457024,2022-01-27-14:21:38,10.1.1.7,35,-0.211,-0.211,-0.211,0.000,0.000,0.000
1643293298547102976,2022-01-27-14:21:38,10.1.1.7,32,-0.221,-0.221,-0.221,0.000,0.000,0.000
1643293298746285824,2022-01-27-14:21:38,10.1.1.7,31,-0.231,-0.231,-0.231,0.000,0.000,0.000
1643293298946484992,2022-01-27-14:21:38,10.1.1.7,30,-0.241,-0.241,-0.241,0.000,0.000,0.000
1643293299149076992,2022-01-27-14:21:39,10.1.1.7,31,-0.250,-0.250,-0.250,0.000,0.000,0.000
1643293299365693184,2022-01-27-14:21:39,10.1.1.7,47,-0.261,-0.261,-0.261,0.000,0.000,0.000
1643293299545382144,2022-01-27-14:21:39,10.1.1.7,26,-0.270,-0.270,-0.270,0.000,0.000,0.000
1643293299756005888,2022-01-27-14:21:39,10.1.1.7,36,-0.281,-0.281,-0.281,0.000,0.000,0.000
1643293299945485056,2022-01-27-14:21:39,10.1.1.7,25,-0.290,-0.290,-0.290,0.000,0.000,0.000
1643293300145553152,2022-01-27-14:21:40,10.1.1.7,24,-0.300,-0.300,-0.300,0.000,0.000,0.000
1643293300366072064,2022-01-27-14:21:40,10.1.1.7,44,-0.311,-0.311,-0.311,0.000,0.000,0.000
1643293300565690880,2022-01-27-14:21:40,10.1.1.7,43,-0.321,-0.321,-0.321,0.000,0.000,0.000
1643293300766396928,2022-01-27-14:21:40,10.1.1.7,43,-0.331,-0.331,-0.331,0.000,0.000,0.000
1643293300946432000,2022-01-27-14:21:40,10.1.1.7,22,-0.340,-0.340,-0.340,0.000,0.000,0.000
1643293301166533888,2022-01-27-14:21:41,10.1.1.7,42,-0.351,-0.351,-0.351,0.000,0.000,0.000
1643293301355752960,2022-01-27-14:21:41,10.1.1.7,30,-0.361,-0.361,-0.361,0.000,0.000,0.000
1643293301545787136,2022-01-27-14:21:41,10.1.1.7,19,-0.370,-0.370,-0.370,0.000,0.000,0.000
1643293301766417920,2022-01-27-14:21:41,10.1.1.7,39,-0.381,-0.381,-0.381,0.000,0.000,0.000
1643293301966761984,2022-01-27-14:21:41,10.1.1.7,39,-0.391,-0.391,-0.391,0.000,0.000,0.000
1643293302166768128,2022-01-27-14:21:42,10.1.1.7,38,-0.401,-0.401,-0.401,0.000,0.000,0.000
1643293302366846976,2022-01-27-14:21:42,10.1.1.7,38,-0.411,-0.411,-0.411,0.000,0.000,0.000
1643293302566696960,2022-01-27-14:21:42,10.1.1.7,37,-0.421,-0.421,-0.421,0.000,0.000,0.000
1643293302769612032,2022-01-27-14:21:42,10.1.1.7,39,-0.431,-0.431,-0.431,0.000,0.000,0.000
1643293302966182912,2022-01-27-14:21:42,10.1.1.7,35,-0.441,-0.441,-0.441,0.000,0.000,0.000
1643293303166838016,2022-01-27-14:21:43,10.1.1.7,35,-0.451,-0.451,-0.451,0.000,0.000,0.000
1643293303367214848,2022-01-27-14:21:43,10.1.1.7,35,-0.461,-0.461,-0.461,0.000,0.000,0.000
1643293303566788864,2022-01-27-14:21:43,10.1.1.7,34,-0.471,-0.471,-0.471,0.000,0.000,0.000
1643293303766166016,2022-01-27-14:21:43,10.1.1.7,32,-0.481,-0.481,-0.481,0.000,0.000,0.000
1643293303946304000,2022-01-27-14:21:43,10.1.1.7,11,-0.490,-0.490,-0.490,0.000,0.000,0.000
1643293304167104000,2022-01-27-14:21:44,10.1.1.7,31,-0.479,-0.479,-0.479,0.000,0.000,0.000
1643293304366862080,2022-01-27-14:21:44,10.1.1.7,30,-0.469,-0.469,-0.469,0.000,0.000,0.000
1643293304569081088,2022-01-27-14:21:44,10.1.1.7,31,-0.459,-0.459,-0.459,0.000,0.000,0.000
1643293304767544064,2022-01-27-14:21:44,10.1.1.7,29,-0.450,-0.450,-0.450,0.000,0.000,0.000
1643293304968205824,2022-01-27-14:21:44,10.1.1.7,28,-0.440,-0.440,-0.440,0.000,0.000,0.000
1643293305166802944,2022-01-27-14:21:45,10.1.1.7,26,-0.430,-0.430,-0.430,0.000,0.000,0.000
1643293305366722048,2022-01-27-14:21:45,10.1.1.7,25,-0.420,-0.420,-0.420,0.000,0.000,0.000
1643293305566610176,2022-01-27-14:21:45,10.1.1.7,24,-0.410,-0.410,-0.410,0.000,0.000,0.000
1643293305785620992,2022-01-27-14:21:45,10.1.1.7,42,-0.399,-0.399,-0.399,0.000,0.000,0.000
1643293305986016000,2022-01-27-14:21:45,10.1.1.7,42,-0.389,-0.389,-0.389,0.000,0.000,0.000
1643293306166528000,2022-01-27-14:21:46,10.1.1.7,21,-0.380,-0.380,-0.380,0.000,0.000,0.000
1643293306386708992,2022-01-27-14:21:46,10.1.1.7,41,-0.369,-0.369,-0.369,0.000,0.000,0.000
1643293306586438912,2022-01-27-14:21:46,10.1.1.7,40,-0.359,-0.359,-0.359,0.000,0.000,0.000
1643293306786557952,2022-01-27-14:21:46,10.1.1.7,39,-0.349,-0.349,-0.349,0.000,0.000,0.000
1643293306990356992,2022-01-27-14:21:46,10.1.1.7,42,-0.339,-0.339,-0.339,0.000,0.000,0.000
1643293307186774016,2022-01-27-14:21:47,10.1.1.7,37,-0.329,-0.329,-0.329,0.000,0.000,0.000
1643293307387438080,2022-01-27-14:21:47,10.1.1.7,36,-0.319,-0.319,-0.319,0.000,0.000,0.000
1643293307586662912,2022-01-27-14:21:47,10.1.1.7,34,-0.309,-0.309,-0.309,0.000,0.000,0.000
1643293307787229952,2022-01-27-14:21:47,10.1.1.7,34,-0.299,-0.299,-0.299,0.000,0.000,0.000
1643293307987171840,2022-01-27-14:21:47,10.1.1.7,33,-0.289,-0.289,-0.289,0.000,0.000,0.000
1643293308186796032,2022-01-27-14:21:48,10.1.1.7,31,-0.279,-0.279,-0.279,0.000,0.000,0.000
1643293308386630912,2022-01-27-14:21:48,10.1.1.7,30,-0.269,-0.269,-0.269,0.000,0.000,0.000
1643293308586579200,2022-01-27-14:21:48,10.1.1.7,29,-0.260,-0.260,-0.260,0.000,0.000,0.000
1643293308786740992,2022-01-27-14:21:48,10.1.1.7,29,-0.250,-0.250,-0.250,0.000,0.000,0.000
1643293308986571008,2022-01-27-14:21:48,10.1.1.7,28,-0.240,-0.240,-0.240,0.000,0.000,0.000
1643293309187232000,2022-01-27-14:21:49,10.1.1.7,28,-0.230,-0.230,-0.230,0.000,0.000,0.000
1643293309386691072,2022-01-27-14:21:49,10.1.1.7,27,-0.220,-0.220,-0.220,0.000,0.000,0.000
1643293309586785024,2022-01-27-14:21:49,10.1.1.7,26,-0.210,-0.210,-0.210,0.000,0.000,0.000
1643293309785903104,2022-01-27-14:21:49,10.1.1.7,25,-0.200,-0.200,-0.200,0.000,0.000,0.000
1643293309985893120,2022-01-27-14:21:49,10.1.1.7,24,-0.190,-0.190,-0.190,0.000,0.000,0.000
1643293310186689024,2022-01-27-14:21:50,10.1.1.7,25,-0.180,-0.180,-0.180,0.000,0.000,0.000
1643293310388375040,2022-01-27-14:21:50,10.1.1.7,25,-0.170,-0.170,-0.170,0.000,0.000,0.000
1643293310586804992,2022-01-27-14:21:50,10.1.1.7,23,-0.160,-0.160,-0.160,0.000,0.000,0.000
1643293310797108992,2022-01-27-14:21:50,10.1.1.7,33,-0.149,-0.149,-0.149,0.000,0.000,0.000
1643293310987361024,2022-01-27-14:21:50,10.1.1.7,22,-0.140,-0.140,-0.140,0.000,0.000,0.000
1643293311250157056,2022-01-27-14:21:51,10.1.1.7,45,-0.129,-0.129,-0.129,0.000,0.000,0.000
1643293311387746048,2022-01-27-14:21:51,10.1.1.7,20,-0.120,-0.120,-0.120,0.000,0.000,0.000
1643293311586957056,2022-01-27-14:21:51,10.1.1.7,19,-0.110,-0.110,-0.110,0.000,0.000,0.000
1643293311806402816,2022-01-27-14:21:51,10.1.1.7,37,-0.099,-0.099,-0.099,0.000,0.000,0.000
1643293311997033984,2022-01-27-14:21:51,10.1.1.7,27,-0.090,-0.090,-0.090,0.000,0.000,0.000
1643293312196611840,2022-01-27-14:21:52,10.1.1.7,26,-0.080,-0.080,-0.080,0.000,0.000,0.000
1643293312396410112,2022-01-27-14:21:52,10.1.1.7,25,-0.070,-0.070,-0.070,0.000,0.000,0.000
1643293312605704960,2022-01-27-14:21:52,10.1.1.7,33,-0.059,-0.059,-0.059,0.000,0.000,0.000
1643293312805507072,2022-01-27-14:21:52,10.1.1.7,32,-0.049,-0.049,-0.049,0.000,0.000,0.000
1643293313007389184,2022-01-27-14:21:53,10.1.1.7,34,-0.039,-0.039,-0.039,0.000,0.000,0.000
1643293313205615104,2022-01-27-14:21:53,10.1.1.7,31,-0.029,-0.029,-0.029,0.000,0.000,0.000
1643293313407387136,2022-01-27-14:21:53,10.1.1.7,32,-0.019,-0.019,-0.019,0.000,0.000,0.000
1643293313605390080,2022-01-27-14:21:53,10.1.1.7,29,-0.009,-0.009,-0.009,0.000,0.000,0.000
1643293313786689024,2022-01-27-14:21:53,10.1.1.7,10,-0.000,-0.000,-0.000,0.000,0.000,0.000
1643293314005379072,2022-01-27-14:21:54,10.1.1.7,28,-0.011,-0.011,-0.011,0.000,0.000,0.000
1643293314205914880,2022-01-27-14:21:54,10.1.1.7,28,-0.020,-0.020,-0.020,0.000,0.000,0.000
1643293314406354944,2022-01-27-14:21:54,10.1.1.7,28,-0.030,-0.030,-0.030,0.000,0.000,0.000
1643293314605433856,2022-01-27-14:21:54,10.1.1.7,27,-0.040,-0.040,-0.040,0.000,0.000,0.000
1643293314805818112,2022-01-27-14:21:54,10.1.1.7,27,-0.050,-0.050,-0.050,0.000,0.000,0.000
1643293315006292224,2022-01-27-14:21:55,10.1.1.7,26,-0.060,-0.060,-0.060,0.000,0.000,0.000
1643293315205662976,2022-01-27-14:21:55,10.1.1.7,25,-0.070,-0.070,-0.070,0.000,0.000,0.000
1643293315405682944,2022-01-27-14:21:55,10.1.1.7,24,-0.080,-0.080,-0.080,0.000,0.000,0.000
1643293315606393088,2022-01-27-14:21:55,10.1.1.7,24,-0.090,-0.090,-0.090,0.000,0.000,0.000
1643293315806029056,2022-01-27-14:21:55,10.1.1.7,23,-0.100,-0.100,-0.100,0.000,0.000,0.000
1643293316005903104,2022-01-27-14:21:56,10.1.1.7,21,-0.110,-0.110,-0.110,0.000,0.000,0.000
1643293316205536000,2022-01-27-14:21:56,10.1.1.7,19,-0.120,-0.120,-0.120,0.000,0.000,0.000
1643293316425487872,2022-01-27-14:21:56,10.1.1.7,39,-0.131,-0.131,-0.131,0.000,0.000,0.000
1643293316625508096,2022-01-27-14:21:56,10.1.1.7,38,-0.141,-0.141,-0.141,0.000,0.000,0.000
1643293316815751936,2022-01-27-14:21:56,10.1.1.7,28,-0.151,-0.151,-0.151,0.000,0.000,0.000
1643293317016343040,2022-01-27-14:21:57,10.1.1.7,28,-0.160,-0.160,-0.160,0.000,0.000,0.000
1643293317216662784,2022-01-27-14:21:57,10.1.1.7,28,-0.170,-0.170,-0.170,0.000,0.000,0.000
1643293317416434944,2022-01-27-14:21:57,10.1.1.7,27,-0.180,-0.180,-0.180,0.000,0.000,0.000
1643293317626034944,2022-01-27-14:21:57,10.1.1.7,36,-0.191,-0.191,-0.191,0.000,0.000,0.000
1643293317816526848,2022-01-27-14:21:57,10.1.1.7,26,-0.200,-0.200,-0.200,0.000,0.000,0.000
1643293318026134016,2022-01-27-14:21:58,10.1.1.7,35,-0.211,-0.211,-0.211,0.000,0.000,0.000
1643293318226408960,2022-01-27-14:21:58,10.1.1.7,35,-0.221,-0.221,-0.221,0.000,0.000,0.000
1643293318426632960,2022-01-27-14:21:58,10.1.1.7,34,-0.231,-0.231,-0.231,0.000,0.000,0.000
1643293318626882048,2022-01-27-14:21:58,10.1.1.7,34,-0.241,-0.241,-0.241,0.000,0.000,0.000
1643293318827485952,2022-01-27-14:21:58,10.1.1.7,34,-0.251,-0.251,-0.251,0.000,0.000,0.000
1643293319016477184,2022-01-27-14:21:59,10.1.1.7,23,-0.260,-0.260,-0.260,0.000,0.000,0.000
1643293319217096960,2022-01-27-14:21:59,10.1.1.7,23,-0.270,-0.270,-0.270,0.000,0.000,0.000
1643293319426543104,2022-01-27-14:21:59,10.1.1.7,32,-0.281,-0.281,-0.281,0.000,0.000,0.000
1643293319617559040,2022-01-27-14:21:59,10.1.1.7,21,-0.290,-0.290,-0.290,0.000,0.000,0.000
1643293319828520960,2022-01-27-14:21:59,10.1.1.7,31,-0.300,-0.300,-0.300,0.000,0.000,0.000
1643293320038397952,2022-01-27-14:22:00,10.1.1.7,40,-0.311,-0.311,-0.311,0.000,0.000,0.000
1643293320237134080,2022-01-27-14:22:00,10.1.1.7,38,-0.321,-0.321,-0.321,0.000,0.000,0.000
1643293320440214016,2022-01-27-14:22:00,10.1.1.7,40,-0.331,-0.331,-0.331,0.000,0.000,0.000
1643293320627624960,2022-01-27-14:22:00,10.1.1.7,26,-0.340,-0.340,-0.340,0.000,0.000,0.000
1643293320829521920,2022-01-27-14:22:00,10.1.1.7,27,-0.350,-0.350,-0.350,0.000,0.000,0.000
1643293321037085184,2022-01-27-14:22:01,10.1.1.7,34,-0.361,-0.361,-0.361,0.000,0.000,0.000
1643293321237103872,2022-01-27-14:22:01,10.1.1.7,33,-0.370,-0.370,-0.370,0.000,0.000,0.000
1643293321447001088,2022-01-27-14:22:01,10.1.1.7,41,-0.381,-0.381,-0.381,0.000,0.000,0.000
1643293321637001984,2022-01-27-14:22:01,10.1.1.7,30,-0.391,-0.391,-0.391,0.000,0.000,0.000
1643293321846849792,2022-01-27-14:22:01,10.1.1.7,39,-0.401,-0.401,-0.401,0.000,0.000,0.000
1643293322048009984,2022-01-27-14:22:02,10.1.1.7,39,-0.411,-0.411,-0.411,0.000,0.000,0.000
1643293322237637888,2022-01-27-14:22:02,10.1.1.7,27,-0.420,-0.420,-0.420,0.000,0.000,0.000
1643293322447058944,2022-01-27-14:22:02,10.1.1.7,37,-0.431,-0.431,-0.431,0.000,0.000,0.000
1643293322647185152,2022-01-27-14:22:02,10.1.1.7,35,-0.441,-0.441,-0.441,0.000,0.000,0.000
1643293322838507776,2022-01-27-14:22:02,10.1.1.7,26,-0.450,-0.450,-0.450,0.000,0.000,0.000
1643293323048690176,2022-01-27-14:22:03,10.1.1.7,34,-0.461,-0.461,-0.461,0.000,0.000,0.000
1643293323247038976,2022-01-27-14:22:03,10.1.1.7,30,-0.470,-0.470,-0.470,0.000,0.000,0.000
1643293323447608064,2022-01-27-14:22:03,10.1.1.7,29,-0.480,-0.480,-0.480,0.000,0.000,0.000
1643293323647092992,2022-01-27-14:22:03,10.1.1.7,29,-0.490,-0.490,-0.490,0.000,0.000,0.000
1643293323869185024,2022-01-27-14:22:03,10.1.1.7,50,-0.479,-0.479,-0.479,0.000,0.000,0.000
1643293324047578112,2022-01-27-14:22:04,10.1.1.7,28,-0.470,-0.470,-0.470,0.000,0.000,0.000
1643293324248164864,2022-01-27-14:22:04,10.1.1.7,28,-0.460,-0.460,-0.460,0.000,0.000,0.000
1643293324447480064,2022-01-27-14:22:04,10.1.1.7,26,-0.450,-0.450,-0.450,0.000,0.000,0.000
1643293324659912192,2022-01-27-14:22:04,10.1.1.7,38,-0.439,-0.439,-0.439,0.000,0.000,0.000
1643293324857052928,2022-01-27-14:22:04,10.1.1.7,33,-0.429,-0.429,-0.429,0.000,0.000,0.000
1643293325057369856,2022-01-27-14:22:05,10.1.1.7,33,-0.419,-0.419,-0.419,0.000,0.000,0.000
1643293325270270976,2022-01-27-14:22:05,10.1.1.7,44,-0.409,-0.409,-0.409,0.000,0.000,0.000
1643293325467149056,2022-01-27-14:22:05,10.1.1.7,38,-0.399,-0.399,-0.399,0.000,0.000,0.000
1643293325657083904,2022-01-27-14:22:05,10.1.1.7,28,-0.390,-0.390,-0.390,0.000,0.000,0.000
1643293325870379008,2022-01-27-14:22:05,10.1.1.7,40,-0.379,-0.379,-0.379,0.000,0.000,0.000
1643293326066902016,2022-01-27-14:22:06,10.1.1.7,36,-0.369,-0.369,-0.369,0.000,0.000,0.000
1643293326256700160,2022-01-27-14:22:06,10.1.1.7,25,-0.360,-0.360,-0.360,0.000,0.000,0.000
1643293326468750080,2022-01-27-14:22:06,10.1.1.7,35,-0.350,-0.350,-0.350,0.000,0.000,0.000
1643293326667720192,2022-01-27-14:22:06,10.1.1.7,33,-0.339,-0.339,-0.339,0.000,0.000,0.000
1643293326867752960,2022-01-27-14:22:06,10.1.1.7,29,-0.330,-0.330,-0.330,0.000,0.000,0.000
1643293327066720000,2022-01-27-14:22:07,10.1.1.7,26,-0.320,-0.320,-0.320,0.000,0.000,0.000
1643293327266673920,2022-01-27-14:22:07,10.1.1.7,26,-0.310,-0.310,-0.310,0.000,0.000,0.000
1643293327487483904,2022-01-27-14:22:07,10.1.1.7,46,-0.299,-0.299,-0.299,0.000,0.000,0.000
1643293327677581056,2022-01-27-14:22:07,10.1.1.7,33,-0.289,-0.289,-0.289,0.000,0.000,0.000
1643293327867425792,2022-01-27-14:22:07,10.1.1.7,22,-0.280,-0.280,-0.280,0.000,0.000,0.000
1643293328086947072,2022-01-27-14:22:08,10.1.1.7,39,-0.269,-0.269,-0.269,0.000,0.000,0.000
1643293328277116928,2022-01-27-14:22:08,10.1.1.7,28,-0.260,-0.260,-0.260,0.000,0.000,0.000
1643293328486969088,2022-01-27-14:22:08,10.1.1.7,37,-0.249,-0.249,-0.249,0.000,0.000,0.000
1643293328687588864,2022-01-27-14:22:08,10.1.1.7,36,-0.239,-0.239,-0.239,0.000,0.000,0.000
1643293328888140032,2022-01-27-14:22:08,10.1.1.7,37,-0.229,-0.229,-0.229,0.000,0.000,0.000
1643293329078185984,2022-01-27-14:22:09,10.1.1.7,26,-0.220,-0.220,-0.220,0.000,0.000,0.000
1643293329277479936,2022-01-27-14:22:09,10.1.1.7,25,-0.210,-0.210,-0.210,0.000,0.000,0.000
1643293329486855936,2022-01-27-14:22:09,10.1.1.7,32,-0.199,-0.199,-0.199,0.000,0.000,0.000
1643293329677195008,2022-01-27-14:22:09,10.1.1.7,22,-0.190,-0.190,-0.190,0.000,0.000,0.000
1643293329876605952,2022-01-27-14:22:09,10.1.1.7,20,-0.180,-0.180,-0.180,0.000,0.000,0.000
1643293330087165184,2022-01-27-14:22:10,10.1.1.7,30,-0.170,-0.170,-0.170,0.000,0.000,0.000
1643293330288510208,2022-01-27-14:22:10,10.1.1.7,31,-0.160,-0.160,-0.160,0.000,0.000,0.000
1643293330488212992,2022-01-27-14:22:10,10.1.1.7,30,-0.150,-0.150,-0.150,0.000,0.000,0.000
1643293330688941056,2022-01-27-14:22:10,10.1.1.7,30,-0.140,-0.140,-0.140,0.000,0.000,0.000
1643293330887387136,2022-01-27-14:22:10,10.1.1.7,27,-0.130,-0.130,-0.130,0.000,0.000,0.000
1643293331087092992,2022-01-27-14:22:11,10.1.1.7,26,-0.120,-0.120,-0.120,0.000,0.000,0.000
1643293331307065856,2022-01-27-14:22:11,10.1.1.7,46,-0.109,-0.109,-0.109,0.000,0.000,0.000
1643293331485840128,2022-01-27-14:22:11,10.1.1.7,24,-0.100,-0.100,-0.100,0.000,0.000,0.000
1643293331694835968,2022-01-27-14:22:11,10.1.1.7,29,-0.090,-0.090,-0.090,0.000,0.000,0.000
1643293331889421824,2022-01-27-14:22:11,10.1.1.7,26,-0.080,-0.080,-0.080,0.000,0.000,0.000
1643293332106760960,2022-01-27-14:22:12,10.1.1.7,42,-0.069,-0.069,-0.069,0.000,0.000,0.000
1643293332287642880,2022-01-27-14:22:12,10.1.1.7,22,-0.060,-0.060,-0.060,0.000,0.000,0.000
1643293332466872064,2022-01-27-14:22:12,10.1.1.7,-1,-0.051,-0.051,-0.051,0.000,0.000,0.000
1643293332707921152,2022-01-27-14:22:12,10.1.1.7,40,-0.039,-0.039,-0.039,0.000,0.000,0.000
1643293332896398080,2022-01-27-14:22:12,10.1.1.7,28,-0.030,-0.030,-0.030,0.000,0.000,0.000
1643293333106568192,2022-01-27-14:22:13,10.1.1.7,37,-0.019,-0.019,-0.019,0.000,0.000,0.000
1643293333296692992,2022-01-27-14:22:13,10.1.1.7,26,-0.010,-0.010,-0.010,0.000,0.000,0.000
1643293333485680128,2022-01-27-14:22:13,10.1.1.7,15,-0.000,-0.000,-0.000,0.000,0.000,0.000
1643293333705895936,2022-01-27-14:22:13,10.1.1.7,34,-0.011,-0.011,-0.011,0.000,0.000,0.000
1643293333906083072,2022-01-27-14:22:13,10.1.1.7,34,-0.021,-0.021,-0.021,0.000,0.000,0.000
1643293334105899008,2022-01-27-14:22:14,10.1.1.7,32,-0.031,-0.031,-0.031,0.000,0.000,0.000
1643293334307696128,2022-01-27-14:22:14,10.1.1.7,30,-0.041,-0.041,-0.041,0.000,0.000,0.000
1643293334496096000,2022-01-27-14:22:14,10.1.1.7,19,-0.050,-0.050,-0.050,0.000,0.000,0.000
1643293334706439936,2022-01-27-14:22:14,10.1.1.7,29,-0.060,-0.060,-0.060,0.000,0.000,0.000
1643293334906380800,2022-01-27-14:22:14,10.1.1.7,28,-0.070,-0.070,-0.070,0.000,0.000,0.000
1643293335108342784,2022-01-27-14:22:15,10.1.1.7,27,-0.080,-0.080,-0.080,0.000,0.000,0.000
