FedericoMungari/DigitalTwin_service/01_WiredScenario/Output/Output_script/script_rosapi_2_output_robots6_freq0_3.txt
timestamp,date,node,latency,joint_1,joint_2,joint_3,joint_4,joint_5,joint_6
1641091003173979904,2022-01-02-02:36:43,10.1.1.4,186,-0.010,-0.010,-0.010,0.000,0.000,0.000
1641091003375521792,2022-01-02-02:36:43,10.1.1.4,178,-0.020,-0.020,-0.020,0.000,0.000,0.000
1641091003575923968,2022-01-02-02:36:43,10.1.1.4,171,-0.030,-0.030,-0.030,0.000,0.000,0.000
1641091003774491904,2022-01-02-02:36:43,10.1.1.4,168,-0.040,-0.040,-0.040,0.000,0.000,0.000
1641091003990848000,2022-01-02-02:36:43,10.1.1.4,175,-0.050,-0.050,-0.050,0.000,0.000,0.000
1641091004192786944,2022-01-02-02:36:44,10.1.1.4,175,-0.060,-0.060,-0.060,0.000,0.000,0.000
1641091004390963200,2022-01-02-02:36:44,10.1.1.4,173,-0.070,-0.070,-0.070,0.000,0.000,0.000
1641091004589113856,2022-01-02-02:36:44,10.1.1.4,167,-0.080,-0.080,-0.080,0.000,0.000,0.000
1641091004792564992,2022-01-02-02:36:44,10.1.1.4,169,-0.090,-0.090,-0.090,0.000,0.000,0.000
1641091004992837888,2022-01-02-02:36:44,10.1.1.4,167,-0.100,-0.100,-0.100,0.000,0.000,0.000
1641091005210867968,2022-01-02-02:36:45,10.1.1.4,180,-0.110,-0.110,-0.110,0.000,0.000,0.000
1641091005410469888,2022-01-02-02:36:45,10.1.1.4,178,-0.120,-0.120,-0.120,0.000,0.000,0.000
1641091005609776128,2022-01-02-02:36:45,10.1.1.4,175,-0.130,-0.130,-0.130,0.000,0.000,0.000
1641091005807684864,2022-01-02-02:36:45,10.1.1.4,170,-0.140,-0.140,-0.140,0.000,0.000,0.000
1641091006008153088,2022-01-02-02:36:46,10.1.1.4,169,-0.150,-0.150,-0.150,0.000,0.000,0.000
1641091006211726848,2022-01-02-02:36:46,10.1.1.4,173,-0.160,-0.160,-0.160,0.000,0.000,0.000
1641091006408418816,2022-01-02-02:36:46,10.1.1.4,168,-0.170,-0.170,-0.170,0.000,0.000,0.000
1641091006606515968,2022-01-02-02:36:46,10.1.1.4,164,-0.180,-0.180,-0.180,0.000,0.000,0.000
1641091006804969984,2022-01-02-02:36:46,10.1.1.4,162,-0.190,-0.190,-0.190,0.000,0.000,0.000
1641091007007215872,2022-01-02-02:36:47,10.1.1.4,162,-0.200,-0.200,-0.200,0.000,0.000,0.000
1641091007227698176,2022-01-02-02:36:47,10.1.1.4,178,-0.210,-0.210,-0.210,0.000,0.000,0.000
1641091007424184064,2022-01-02-02:36:47,10.1.1.4,172,-0.220,-0.220,-0.220,0.000,0.000,0.000
1641091007628040960,2022-01-02-02:36:47,10.1.1.4,175,-0.230,-0.230,-0.230,0.000,0.000,0.000
1641091007823745024,2022-01-02-02:36:47,10.1.1.4,170,-0.240,-0.240,-0.240,0.000,0.000,0.000
1641091008024691968,2022-01-02-02:36:48,10.1.1.4,170,-0.250,-0.250,-0.250,0.000,0.000,0.000
1641091008224383232,2022-01-02-02:36:48,10.1.1.4,169,-0.260,-0.260,-0.260,0.000,0.000,0.000
1641091008426578944,2022-01-02-02:36:48,10.1.1.4,171,-0.270,-0.270,-0.270,0.000,0.000,0.000
1641091008624840960,2022-01-02-02:36:48,10.1.1.4,168,-0.280,-0.280,-0.280,0.000,0.000,0.000
1641091008824121856,2022-01-02-02:36:48,10.1.1.4,166,-0.290,-0.290,-0.290,0.000,0.000,0.000
1641091009025021184,2022-01-02-02:36:49,10.1.1.4,164,-0.300,-0.300,-0.300,0.000,0.000,0.000
1641091009222860032,2022-01-02-02:36:49,10.1.1.4,163,-0.310,-0.310,-0.310,0.000,0.000,0.000
1641091009421735936,2022-01-02-02:36:49,10.1.1.4,160,-0.320,-0.320,-0.320,0.000,0.000,0.000
1641091009620641024,2022-01-02-02:36:49,10.1.1.4,157,-0.330,-0.330,-0.330,0.000,0.000,0.000
1641091009822222848,2022-01-02-02:36:49,10.1.1.4,158,-0.340,-0.340,-0.340,0.000,0.000,0.000
1641091010022309120,2022-01-02-02:36:50,10.1.1.4,156,-0.350,-0.350,-0.350,0.000,0.000,0.000
1641091010221097984,2022-01-02-02:36:50,10.1.1.4,155,-0.360,-0.360,-0.360,0.000,0.000,0.000
1641091010421005056,2022-01-02-02:36:50,10.1.1.4,153,-0.370,-0.370,-0.370,0.000,0.000,0.000
1641091010640487936,2022-01-02-02:36:50,10.1.1.4,172,-0.380,-0.380,-0.380,0.000,0.000,0.000
1641091010843493888,2022-01-02-02:36:50,10.1.1.4,175,-0.390,-0.390,-0.390,0.000,0.000,0.000
1641091011040698112,2022-01-02-02:36:51,10.1.1.4,171,-0.400,-0.400,-0.400,0.000,0.000,0.000
1641091011239545088,2022-01-02-02:36:51,10.1.1.4,169,-0.410,-0.410,-0.410,0.000,0.000,0.000
1641091011439838976,2022-01-02-02:36:51,10.1.1.4,169,-0.420,-0.420,-0.420,0.000,0.000,0.000
1641091011644678144,2022-01-02-02:36:51,10.1.1.4,173,-0.430,-0.430,-0.430,0.000,0.000,0.000
1641091011842704896,2022-01-02-02:36:51,10.1.1.4,170,-0.440,-0.440,-0.440,0.000,0.000,0.000
1641091012038320128,2022-01-02-02:36:52,10.1.1.4,163,-0.450,-0.450,-0.450,0.000,0.000,0.000
1641091012240365056,2022-01-02-02:36:52,10.1.1.4,165,-0.460,-0.460,-0.460,0.000,0.000,0.000
1641091012440398080,2022-01-02-02:36:52,10.1.1.4,160,-0.470,-0.470,-0.470,0.000,0.000,0.000
1641091012639630080,2022-01-02-02:36:52,10.1.1.4,158,-0.480,-0.480,-0.480,0.000,0.000,0.000
1641091012839576832,2022-01-02-02:36:52,10.1.1.4,157,-0.490,-0.490,-0.490,0.000,0.000,0.000
1641091013037359872,2022-01-02-02:36:53,10.1.1.4,155,-0.480,-0.480,-0.480,0.000,0.000,0.000
1641091013238024960,2022-01-02-02:36:53,10.1.1.4,152,-0.470,-0.470,-0.470,0.000,0.000,0.000
1641091013438697216,2022-01-02-02:36:53,10.1.1.4,154,-0.460,-0.460,-0.460,0.000,0.000,0.000
1641091013637213952,2022-01-02-02:36:53,10.1.1.4,151,-0.450,-0.450,-0.450,0.000,0.000,0.000
1641091013834738944,2022-01-02-02:36:53,10.1.1.4,148,-0.440,-0.440,-0.440,0.000,0.000,0.000
1641091014034264064,2022-01-02-02:36:54,10.1.1.4,147,-0.430,-0.430,-0.430,0.000,0.000,0.000
1641091014235811840,2022-01-02-02:36:54,10.1.1.4,147,-0.420,-0.420,-0.420,0.000,0.000,0.000
1641091014455721984,2022-01-02-02:36:54,10.1.1.4,167,-0.410,-0.410,-0.410,0.000,0.000,0.000
1641091014653917952,2022-01-02-02:36:54,10.1.1.4,163,-0.400,-0.400,-0.400,0.000,0.000,0.000
1641091014855580928,2022-01-02-02:36:54,10.1.1.4,164,-0.390,-0.390,-0.390,0.000,0.000,0.000
1641091015054440960,2022-01-02-02:36:55,10.1.1.4,162,-0.380,-0.380,-0.380,0.000,0.000,0.000
1641091015252408064,2022-01-02-02:36:55,10.1.1.4,157,-0.370,-0.370,-0.370,0.000,0.000,0.000
1641091015452377088,2022-01-02-02:36:55,10.1.1.4,156,-0.360,-0.360,-0.360,0.000,0.000,0.000
1641091015653278976,2022-01-02-02:36:55,10.1.1.4,155,-0.350,-0.350,-0.350,0.000,0.000,0.000
1641091015853831936,2022-01-02-02:36:55,10.1.1.4,155,-0.340,-0.340,-0.340,0.000,0.000,0.000
1641091016052560128,2022-01-02-02:36:56,10.1.1.4,153,-0.330,-0.330,-0.330,0.000,0.000,0.000
1641091016254499840,2022-01-02-02:36:56,10.1.1.4,154,-0.320,-0.320,-0.320,0.000,0.000,0.000
1641091016456728064,2022-01-02-02:36:56,10.1.1.4,155,-0.310,-0.310,-0.310,0.000,0.000,0.000
1641091016657512960,2022-01-02-02:36:56,10.1.1.4,156,-0.300,-0.300,-0.300,0.000,0.000,0.000
1641091016862910976,2022-01-02-02:36:56,10.1.1.4,160,-0.290,-0.290,-0.290,0.000,0.000,0.000
1641091017067086080,2022-01-02-02:36:57,10.1.1.4,161,-0.280,-0.280,-0.280,0.000,0.000,0.000
1641091017258490112,2022-01-02-02:36:57,10.1.1.4,151,-0.270,-0.270,-0.270,0.000,0.000,0.000
1641091017480914176,2022-01-02-02:36:57,10.1.1.4,168,-0.260,-0.260,-0.260,0.000,0.000,0.000
1641091017679516928,2022-01-02-02:36:57,10.1.1.4,166,-0.250,-0.250,-0.250,0.000,0.000,0.000
1641091017882703104,2022-01-02-02:36:57,10.1.1.4,167,-0.240,-0.240,-0.240,0.000,0.000,0.000
1641091018081468160,2022-01-02-02:36:58,10.1.1.4,166,-0.230,-0.230,-0.230,0.000,0.000,0.000
1641091018282277120,2022-01-02-02:36:58,10.1.1.4,166,-0.220,-0.220,-0.220,0.000,0.000,0.000
1641091018482601984,2022-01-02-02:36:58,10.1.1.4,165,-0.210,-0.210,-0.210,0.000,0.000,0.000
1641091018684825856,2022-01-02-02:36:58,10.1.1.4,166,-0.200,-0.200,-0.200,0.000,0.000,0.000
1641091018886035968,2022-01-02-02:36:58,10.1.1.4,166,-0.190,-0.190,-0.190,0.000,0.000,0.000
1641091019086129920,2022-01-02-02:36:59,10.1.1.4,165,-0.180,-0.180,-0.180,0.000,0.000,0.000
1641091019285427200,2022-01-02-02:36:59,10.1.1.4,164,-0.170,-0.170,-0.170,0.000,0.000,0.000
1641091019487642880,2022-01-02-02:36:59,10.1.1.4,166,-0.160,-0.160,-0.160,0.000,0.000,0.000
1641091019689303040,2022-01-02-02:36:59,10.1.1.4,167,-0.150,-0.150,-0.150,0.000,0.000,0.000
1641091019889328128,2022-01-02-02:36:59,10.1.1.4,166,-0.140,-0.140,-0.140,0.000,0.000,0.000
1641091020091432192,2022-01-02-02:37:00,10.1.1.4,167,-0.130,-0.130,-0.130,0.000,0.000,0.000
1641091020289536000,2022-01-02-02:37:00,10.1.1.4,164,-0.120,-0.120,-0.120,0.000,0.000,0.000
1641091020490423040,2022-01-02-02:37:00,10.1.1.4,166,-0.110,-0.110,-0.110,0.000,0.000,0.000
1641091020692015872,2022-01-02-02:37:00,10.1.1.4,166,-0.100,-0.100,-0.100,0.000,0.000,0.000
1641091020891518208,2022-01-02-02:37:00,10.1.1.4,164,-0.090,-0.090,-0.090,0.000,0.000,0.000
1641091021097564928,2022-01-02-02:37:01,10.1.1.4,170,-0.080,-0.080,-0.080,0.000,0.000,0.000
1641091021294582016,2022-01-02-02:37:01,10.1.1.4,166,-0.070,-0.070,-0.070,0.000,0.000,0.000
1641091021512979968,2022-01-02-02:37:01,10.1.1.4,183,-0.060,-0.060,-0.060,0.000,0.000,0.000
1641091021713377024,2022-01-02-02:37:01,10.1.1.4,183,-0.050,-0.050,-0.050,0.000,0.000,0.000
1641091021912893952,2022-01-02-02:37:01,10.1.1.4,181,-0.040,-0.040,-0.040,0.000,0.000,0.000
1641091022112660992,2022-01-02-02:37:02,10.1.1.4,179,-0.030,-0.030,-0.030,0.000,0.000,0.000
1641091022315272192,2022-01-02-02:37:02,10.1.1.4,181,-0.020,-0.020,-0.020,0.000,0.000,0.000
1641091022514390016,2022-01-02-02:37:02,10.1.1.4,177,-0.010,-0.010,-0.010,0.000,0.000,0.000
1641091022715096832,2022-01-02-02:37:02,10.1.1.4,178,0.000,0.000,0.000,0.000,0.000,0.000
1641091022915436032,2022-01-02-02:37:02,10.1.1.4,178,-0.010,-0.010,-0.010,0.000,0.000,0.000
1641091023114981888,2022-01-02-02:37:03,10.1.1.4,176,-0.020,-0.020,-0.020,0.000,0.000,0.000
1641091023315546880,2022-01-02-02:37:03,10.1.1.4,176,-0.030,-0.030,-0.030,0.000,0.000,0.000
1641091023514426112,2022-01-02-02:37:03,10.1.1.4,174,-0.040,-0.040,-0.040,0.000,0.000,0.000
1641091023716387072,2022-01-02-02:37:03,10.1.1.4,175,-0.050,-0.050,-0.050,0.000,0.000,0.000
1641091023918493952,2022-01-02-02:37:03,10.1.1.4,177,-0.060,-0.060,-0.060,0.000,0.000,0.000
1641091024121259008,2022-01-02-02:37:04,10.1.1.4,178,-0.070,-0.070,-0.070,0.000,0.000,0.000
1641091024317223936,2022-01-02-02:37:04,10.1.1.4,171,-0.080,-0.080,-0.080,0.000,0.000,0.000
1641091024516726016,2022-01-02-02:37:04,10.1.1.4,170,-0.090,-0.090,-0.090,0.000,0.000,0.000
1641091024716849152,2022-01-02-02:37:04,10.1.1.4,170,-0.100,-0.100,-0.100,0.000,0.000,0.000
1641091024937650944,2022-01-02-02:37:04,10.1.1.4,188,-0.110,-0.110,-0.110,0.000,0.000,0.000
1641091025135090944,2022-01-02-02:37:05,10.1.1.4,185,-0.120,-0.120,-0.120,0.000,0.000,0.000
1641091025337296896,2022-01-02-02:37:05,10.1.1.4,186,-0.130,-0.130,-0.130,0.000,0.000,0.000
1641091025535608064,2022-01-02-02:37:05,10.1.1.4,182,-0.140,-0.140,-0.140,0.000,0.000,0.000
1641091025736723968,2022-01-02-02:37:05,10.1.1.4,182,-0.150,-0.150,-0.150,0.000,0.000,0.000
1641091025936183040,2022-01-02-02:37:05,10.1.1.4,181,-0.160,-0.160,-0.160,0.000,0.000,0.000
1641091026141906944,2022-01-02-02:37:06,10.1.1.4,186,-0.170,-0.170,-0.170,0.000,0.000,0.000
1641091026336372992,2022-01-02-02:37:06,10.1.1.4,179,-0.180,-0.180,-0.180,0.000,0.000,0.000
1641091026536130048,2022-01-02-02:37:06,10.1.1.4,177,-0.190,-0.190,-0.190,0.000,0.000,0.000
1641091026736578048,2022-01-02-02:37:06,10.1.1.4,177,-0.200,-0.200,-0.200,0.000,0.000,0.000
1641091026936117760,2022-01-02-02:37:06,10.1.1.4,176,-0.210,-0.210,-0.210,0.000,0.000,0.000
1641091027136193024,2022-01-02-02:37:07,10.1.1.4,174,-0.220,-0.220,-0.220,0.000,0.000,0.000
1641091027337626880,2022-01-02-02:37:07,10.1.1.4,175,-0.230,-0.230,-0.230,0.000,0.000,0.000
1641091027536828160,2022-01-02-02:37:07,10.1.1.4,173,-0.240,-0.240,-0.240,0.000,0.000,0.000
1641091027737127168,2022-01-02-02:37:07,10.1.1.4,172,-0.250,-0.250,-0.250,0.000,0.000,0.000
1641091027934999040,2022-01-02-02:37:07,10.1.1.4,168,-0.260,-0.260,-0.260,0.000,0.000,0.000
1641091028137677824,2022-01-02-02:37:08,10.1.1.4,170,-0.270,-0.270,-0.270,0.000,0.000,0.000
1641091028335841792,2022-01-02-02:37:08,10.1.1.4,168,-0.280,-0.280,-0.280,0.000,0.000,0.000
1641091028556468992,2022-01-02-02:37:08,10.1.1.4,187,-0.290,-0.290,-0.290,0.000,0.000,0.000
1641091028758574848,2022-01-02-02:37:08,10.1.1.4,188,-0.300,-0.300,-0.300,0.000,0.000,0.000
1641091028955815936,2022-01-02-02:37:08,10.1.1.4,185,-0.310,-0.310,-0.310,0.000,0.000,0.000
1641091029157795840,2022-01-02-02:37:09,10.1.1.4,187,-0.320,-0.320,-0.320,0.000,0.000,0.000
1641091029358341888,2022-01-02-02:37:09,10.1.1.4,185,-0.330,-0.330,-0.330,0.000,0.000,0.000
1641091029560221952,2022-01-02-02:37:09,10.1.1.4,187,-0.340,-0.340,-0.340,0.000,0.000,0.000
1641091029755682048,2022-01-02-02:37:09,10.1.1.4,181,-0.350,-0.350,-0.350,0.000,0.000,0.000
1641091029955492864,2022-01-02-02:37:09,10.1.1.4,179,-0.360,-0.360,-0.360,0.000,0.000,0.000
1641091030158277120,2022-01-02-02:37:10,10.1.1.4,181,-0.370,-0.370,-0.370,0.000,0.000,0.000
1641091030356035840,2022-01-02-02:37:10,10.1.1.4,178,-0.380,-0.380,-0.380,0.000,0.000,0.000
1641091030554272000,2022-01-02-02:37:10,10.1.1.4,176,-0.390,-0.390,-0.390,0.000,0.000,0.000
1641091030754230016,2022-01-02-02:37:10,10.1.1.4,175,-0.400,-0.400,-0.400,0.000,0.000,0.000
1641091030954067968,2022-01-02-02:37:10,10.1.1.4,174,-0.410,-0.410,-0.410,0.000,0.000,0.000
1641091031154365952,2022-01-02-02:37:11,10.1.1.4,174,-0.420,-0.420,-0.420,0.000,0.000,0.000
1641091031355118080,2022-01-02-02:37:11,10.1.1.4,174,-0.430,-0.430,-0.430,0.000,0.000,0.000
1641091031554861056,2022-01-02-02:37:11,10.1.1.4,173,-0.440,-0.440,-0.440,0.000,0.000,0.000
1641091031754617856,2022-01-02-02:37:11,10.1.1.4,171,-0.450,-0.450,-0.450,0.000,0.000,0.000
1641091031953915136,2022-01-02-02:37:11,10.1.1.4,171,-0.460,-0.460,-0.460,0.000,0.000,0.000
1641091032154360064,2022-01-02-02:37:12,10.1.1.4,170,-0.470,-0.470,-0.470,0.000,0.000,0.000
1641091032354753024,2022-01-02-02:37:12,10.1.1.4,170,-0.480,-0.480,-0.480,0.000,0.000,0.000
1641091032554225920,2022-01-02-02:37:12,10.1.1.4,169,-0.490,-0.490,-0.490,0.000,0.000,0.000
1641091032753285888,2022-01-02-02:37:12,10.1.1.4,168,-0.480,-0.480,-0.480,0.000,0.000,0.000
1641091032952510976,2022-01-02-02:37:12,10.1.1.4,166,-0.470,-0.470,-0.470,0.000,0.000,0.000
1641091033153894912,2022-01-02-02:37:13,10.1.1.4,167,-0.460,-0.460,-0.460,0.000,0.000,0.000
1641091033353827072,2022-01-02-02:37:13,10.1.1.4,166,-0.450,-0.450,-0.450,0.000,0.000,0.000
1641091033553242880,2022-01-02-02:37:13,10.1.1.4,165,-0.440,-0.440,-0.440,0.000,0.000,0.000
1641091033773214976,2022-01-02-02:37:13,10.1.1.4,184,-0.430,-0.430,-0.430,0.000,0.000,0.000
1641091033977492992,2022-01-02-02:37:13,10.1.1.4,188,-0.420,-0.420,-0.420,0.000,0.000,0.000
1641091034171330816,2022-01-02-02:37:14,10.1.1.4,180,-0.410,-0.410,-0.410,0.000,0.000,0.000
1641091034371268864,2022-01-02-02:37:14,10.1.1.4,178,-0.400,-0.400,-0.400,0.000,0.000,0.000
1641091034572307968,2022-01-02-02:37:14,10.1.1.4,178,-0.390,-0.390,-0.390,0.000,0.000,0.000
1641091034777462016,2022-01-02-02:37:14,10.1.1.4,181,-0.380,-0.380,-0.380,0.000,0.000,0.000
1641091034971497984,2022-01-02-02:37:14,10.1.1.4,170,-0.370,-0.370,-0.370,0.000,0.000,0.000
1641091035174266112,2022-01-02-02:37:15,10.1.1.4,168,-0.360,-0.360,-0.360,0.000,0.000,0.000
1641091035371060992,2022-01-02-02:37:15,10.1.1.4,164,-0.350,-0.350,-0.350,0.000,0.000,0.000
1641091035571075840,2022-01-02-02:37:15,10.1.1.4,163,-0.340,-0.340,-0.340,0.000,0.000,0.000
1641091035789454848,2022-01-02-02:37:15,10.1.1.4,181,-0.330,-0.330,-0.330,0.000,0.000,0.000
1641091035989869056,2022-01-02-02:37:15,10.1.1.4,181,-0.320,-0.320,-0.320,0.000,0.000,0.000
1641091036191473920,2022-01-02-02:37:16,10.1.1.4,182,-0.310,-0.310,-0.310,0.000,0.000,0.000
1641091036392132096,2022-01-02-02:37:16,10.1.1.4,180,-0.300,-0.300,-0.300,0.000,0.000,0.000
1641091036592172032,2022-01-02-02:37:16,10.1.1.4,180,-0.290,-0.290,-0.290,0.000,0.000,0.000
1641091036791111936,2022-01-02-02:37:16,10.1.1.4,178,-0.280,-0.280,-0.280,0.000,0.000,0.000
1641091036990693120,2022-01-02-02:37:16,10.1.1.4,176,-0.270,-0.270,-0.270,0.000,0.000,0.000
1641091037190484992,2022-01-02-02:37:17,10.1.1.4,175,-0.260,-0.260,-0.260,0.000,0.000,0.000
1641091037390216960,2022-01-02-02:37:17,10.1.1.4,173,-0.250,-0.250,-0.250,0.000,0.000,0.000
1641091037588622080,2022-01-02-02:37:17,10.1.1.4,170,-0.240,-0.240,-0.240,0.000,0.000,0.000
1641091037788003072,2022-01-02-02:37:17,10.1.1.4,169,-0.230,-0.230,-0.230,0.000,0.000,0.000
1641091037989576960,2022-01-02-02:37:17,10.1.1.4,169,-0.220,-0.220,-0.220,0.000,0.000,0.000
1641091038188579072,2022-01-02-02:37:18,10.1.1.4,167,-0.210,-0.210,-0.210,0.000,0.000,0.000
1641091038386050816,2022-01-02-02:37:18,10.1.1.4,163,-0.200,-0.200,-0.200,0.000,0.000,0.000
1641091038585829120,2022-01-02-02:37:18,10.1.1.4,162,-0.190,-0.190,-0.190,0.000,0.000,0.000
1641091038786045184,2022-01-02-02:37:18,10.1.1.4,162,-0.180,-0.180,-0.180,0.000,0.000,0.000
1641091039008145152,2022-01-02-02:37:19,10.1.1.4,176,-0.170,-0.170,-0.170,0.000,0.000,0.000
1641091039206288128,2022-01-02-02:37:19,10.1.1.4,173,-0.160,-0.160,-0.160,0.000,0.000,0.000
1641091039406729984,2022-01-02-02:37:19,10.1.1.4,173,-0.150,-0.150,-0.150,0.000,0.000,0.000
1641091039604702976,2022-01-02-02:37:19,10.1.1.4,169,-0.140,-0.140,-0.140,0.000,0.000,0.000
1641091039805495040,2022-01-02-02:37:19,10.1.1.4,169,-0.130,-0.130,-0.130,0.000,0.000,0.000
1641091040003865856,2022-01-02-02:37:20,10.1.1.4,167,-0.120,-0.120,-0.120,0.000,0.000,0.000
1641091040204624896,2022-01-02-02:37:20,10.1.1.4,167,-0.110,-0.110,-0.110,0.000,0.000,0.000
1641091040404084992,2022-01-02-02:37:20,10.1.1.4,166,-0.100,-0.100,-0.100,0.000,0.000,0.000
1641091040603954176,2022-01-02-02:37:20,10.1.1.4,165,-0.090,-0.090,-0.090,0.000,0.000,0.000
1641091040802799872,2022-01-02-02:37:20,10.1.1.4,163,-0.080,-0.080,-0.080,0.000,0.000,0.000
1641091041003665920,2022-01-02-02:37:21,10.1.1.4,163,-0.070,-0.070,-0.070,0.000,0.000,0.000
1641091041202771968,2022-01-02-02:37:21,10.1.1.4,161,-0.060,-0.060,-0.060,0.000,0.000,0.000
1641091041402988800,2022-01-02-02:37:21,10.1.1.4,161,-0.050,-0.050,-0.050,0.000,0.000,0.000
1641091041604764928,2022-01-02-02:37:21,10.1.1.4,161,-0.040,-0.040,-0.040,0.000,0.000,0.000
1641091041803872000,2022-01-02-02:37:21,10.1.1.4,160,-0.030,-0.030,-0.030,0.000,0.000,0.000
1641091042003331072,2022-01-02-02:37:22,10.1.1.4,159,-0.020,-0.020,-0.020,0.000,0.000,0.000
1641091042205275904,2022-01-02-02:37:22,10.1.1.4,160,-0.010,-0.010,-0.010,0.000,0.000,0.000
1641091042405373184,2022-01-02-02:37:22,10.1.1.4,157,0.000,0.000,0.000,0.000,0.000,0.000
1641091042600035840,2022-01-02-02:37:22,10.1.1.4,152,-0.010,-0.010,-0.010,0.000,0.000,0.000
1641091042819601920,2022-01-02-02:37:22,10.1.1.4,171,-0.020,-0.020,-0.020,0.000,0.000,0.000
1641091043021347072,2022-01-02-02:37:23,10.1.1.4,171,-0.030,-0.030,-0.030,0.000,0.000,0.000
1641091043221564928,2022-01-02-02:37:23,10.1.1.4,171,-0.040,-0.040,-0.040,0.000,0.000,0.000
1641091043422600960,2022-01-02-02:37:23,10.1.1.4,171,-0.050,-0.050,-0.050,0.000,0.000,0.000
1641091043620815872,2022-01-02-02:37:23,10.1.1.4,169,-0.060,-0.060,-0.060,0.000,0.000,0.000
1641091043819758848,2022-01-02-02:37:23,10.1.1.4,167,-0.070,-0.070,-0.070,0.000,0.000,0.000
1641091044020633856,2022-01-02-02:37:24,10.1.1.4,167,-0.080,-0.080,-0.080,0.000,0.000,0.000
1641091044220023040,2022-01-02-02:37:24,10.1.1.4,166,-0.090,-0.090,-0.090,0.000,0.000,0.000
1641091044420185088,2022-01-02-02:37:24,10.1.1.4,165,-0.100,-0.100,-0.100,0.000,0.000,0.000
1641091044618799872,2022-01-02-02:37:24,10.1.1.4,163,-0.110,-0.110,-0.110,0.000,0.000,0.000
1641091044820132864,2022-01-02-02:37:24,10.1.1.4,160,-0.120,-0.120,-0.120,0.000,0.000,0.000
1641091045019635968,2022-01-02-02:37:25,10.1.1.4,156,-0.130,-0.130,-0.130,0.000,0.000,0.000
1641091045215794176,2022-01-02-02:37:25,10.1.1.4,152,-0.140,-0.140,-0.140,0.000,0.000,0.000
1641091045418926080,2022-01-02-02:37:25,10.1.1.4,154,-0.150,-0.150,-0.150,0.000,0.000,0.000
1641091045615874048,2022-01-02-02:37:25,10.1.1.4,150,-0.160,-0.160,-0.160,0.000,0.000,0.000
1641091045817711104,2022-01-02-02:37:25,10.1.1.4,151,-0.170,-0.170,-0.170,0.000,0.000,0.000
1641091046015668992,2022-01-02-02:37:26,10.1.1.4,148,-0.180,-0.180,-0.180,0.000,0.000,0.000
1641091046216495872,2022-01-02-02:37:26,10.1.1.4,149,-0.190,-0.190,-0.190,0.000,0.000,0.000
1641091046438980096,2022-01-02-02:37:26,10.1.1.4,171,-0.200,-0.200,-0.200,0.000,0.000,0.000
1641091046637244928,2022-01-02-02:37:26,10.1.1.4,168,-0.210,-0.210,-0.210,0.000,0.000,0.000
1641091046836837888,2022-01-02-02:37:26,10.1.1.4,167,-0.220,-0.220,-0.220,0.000,0.000,0.000
1641091047036721920,2022-01-02-02:37:27,10.1.1.4,166,-0.230,-0.230,-0.230,0.000,0.000,0.000
1641091047239866880,2022-01-02-02:37:27,10.1.1.4,168,-0.240,-0.240,-0.240,0.000,0.000,0.000
1641091047436030976,2022-01-02-02:37:27,10.1.1.4,163,-0.250,-0.250,-0.250,0.000,0.000,0.000
1641091047633620992,2022-01-02-02:37:27,10.1.1.4,155,-0.260,-0.260,-0.260,0.000,0.000,0.000
1641091047832911104,2022-01-02-02:37:27,10.1.1.4,154,-0.270,-0.270,-0.270,0.000,0.000,0.000
1641091048032901888,2022-01-02-02:37:28,10.1.1.4,152,-0.280,-0.280,-0.280,0.000,0.000,0.000
1641091048234539008,2022-01-02-02:37:28,10.1.1.4,152,-0.290,-0.290,-0.290,0.000,0.000,0.000
1641091048436805888,2022-01-02-02:37:28,10.1.1.4,155,-0.300,-0.300,-0.300,0.000,0.000,0.000
1641091048638199040,2022-01-02-02:37:28,10.1.1.4,153,-0.310,-0.310,-0.310,0.000,0.000,0.000
1641091048840276992,2022-01-02-02:37:28,10.1.1.4,154,-0.320,-0.320,-0.320,0.000,0.000,0.000
1641091049046006016,2022-01-02-02:37:29,10.1.1.4,155,-0.330,-0.330,-0.330,0.000,0.000,0.000
1641091049262200064,2022-01-02-02:37:29,10.1.1.4,174,-0.340,-0.340,-0.340,0.000,0.000,0.000
1641091049463168000,2022-01-02-02:37:29,10.1.1.4,174,-0.350,-0.350,-0.350,0.000,0.000,0.000
1641091049663119104,2022-01-02-02:37:29,10.1.1.4,173,-0.360,-0.360,-0.360,0.000,0.000,0.000
1641091049863992064,2022-01-02-02:37:29,10.1.1.4,172,-0.370,-0.370,-0.370,0.000,0.000,0.000
1641091050063949056,2022-01-02-02:37:30,10.1.1.4,171,-0.380,-0.380,-0.380,0.000,0.000,0.000
1641091050264280064,2022-01-02-02:37:30,10.1.1.4,171,-0.390,-0.390,-0.390,0.000,0.000,0.000
1641091050464858112,2022-01-02-02:37:30,10.1.1.4,170,-0.400,-0.400,-0.400,0.000,0.000,0.000
1641091050664756992,2022-01-02-02:37:30,10.1.1.4,170,-0.410,-0.410,-0.410,0.000,0.000,0.000
1641091050865612032,2022-01-02-02:37:30,10.1.1.4,170,-0.420,-0.420,-0.420,0.000,0.000,0.000
1641091051068075008,2022-01-02-02:37:31,10.1.1.4,171,-0.430,-0.430,-0.430,0.000,0.000,0.000
1641091051276356096,2022-01-02-02:37:31,10.1.1.4,172,-0.440,-0.440,-0.440,0.000,0.000,0.000
1641091051468118016,2022-01-02-02:37:31,10.1.1.4,168,-0.450,-0.450,-0.450,0.000,0.000,0.000
1641091051669230080,2022-01-02-02:37:31,10.1.1.4,169,-0.460,-0.460,-0.460,0.000,0.000,0.000
1641091051868390912,2022-01-02-02:37:31,10.1.1.4,166,-0.470,-0.470,-0.470,0.000,0.000,0.000
1641091052072297984,2022-01-02-02:37:32,10.1.1.4,166,-0.480,-0.480,-0.480,0.000,0.000,0.000
1641091052270430976,2022-01-02-02:37:32,10.1.1.4,163,-0.490,-0.490,-0.490,0.000,0.000,0.000
1641091052491123968,2022-01-02-02:37:32,10.1.1.4,180,-0.480,-0.480,-0.480,0.000,0.000,0.000
1641091052692289024,2022-01-02-02:37:32,10.1.1.4,178,-0.470,-0.470,-0.470,0.000,0.000,0.000
1641091052891506944,2022-01-02-02:37:32,10.1.1.4,179,-0.460,-0.460,-0.460,0.000,0.000,0.000
1641091053093984000,2022-01-02-02:37:33,10.1.1.4,180,-0.450,-0.450,-0.450,0.000,0.000,0.000
1641091053294243072,2022-01-02-02:37:33,10.1.1.4,179,-0.440,-0.440,-0.440,0.000,0.000,0.000
1641091053494909952,2022-01-02-02:37:33,10.1.1.4,179,-0.430,-0.430,-0.430,0.000,0.000,0.000
1641091053693760000,2022-01-02-02:37:33,10.1.1.4,177,-0.420,-0.420,-0.420,0.000,0.000,0.000
1641091053892272896,2022-01-02-02:37:33,10.1.1.4,174,-0.410,-0.410,-0.410,0.000,0.000,0.000
1641091054092071936,2022-01-02-02:37:34,10.1.1.4,174,-0.400,-0.400,-0.400,0.000,0.000,0.000
1641091054294104064,2022-01-02-02:37:34,10.1.1.4,175,-0.390,-0.390,-0.390,0.000,0.000,0.000
1641091054494147072,2022-01-02-02:37:34,10.1.1.4,174,-0.380,-0.380,-0.380,0.000,0.000,0.000
1641091054695761920,2022-01-02-02:37:34,10.1.1.4,173,-0.370,-0.370,-0.370,0.000,0.000,0.000
1641091054896069120,2022-01-02-02:37:34,10.1.1.4,173,-0.360,-0.360,-0.360,0.000,0.000,0.000
1641091055094232064,2022-01-02-02:37:35,10.1.1.4,170,-0.350,-0.350,-0.350,0.000,0.000,0.000
1641091055295255040,2022-01-02-02:37:35,10.1.1.4,170,-0.340,-0.340,-0.340,0.000,0.000,0.000
1641091055499340032,2022-01-02-02:37:35,10.1.1.4,173,-0.330,-0.330,-0.330,0.000,0.000,0.000
1641091055695027968,2022-01-02-02:37:35,10.1.1.4,168,-0.320,-0.320,-0.320,0.000,0.000,0.000
1641091055895704064,2022-01-02-02:37:35,10.1.1.4,168,-0.310,-0.310,-0.310,0.000,0.000,0.000
1641091056096267008,2022-01-02-02:37:36,10.1.1.4,168,-0.300,-0.300,-0.300,0.000,0.000,0.000
1641091056300393984,2022-01-02-02:37:36,10.1.1.4,172,-0.290,-0.290,-0.290,0.000,0.000,0.000
1641091056516613120,2022-01-02-02:37:36,10.1.1.4,187,-0.280,-0.280,-0.280,0.000,0.000,0.000
1641091056721185024,2022-01-02-02:37:36,10.1.1.4,191,-0.270,-0.270,-0.270,0.000,0.000,0.000
1641091056917798912,2022-01-02-02:37:36,10.1.1.4,185,-0.260,-0.260,-0.260,0.000,0.000,0.000
1641091057116379904,2022-01-02-02:37:37,10.1.1.4,183,-0.250,-0.250,-0.250,0.000,0.000,0.000
1641091057316812032,2022-01-02-02:37:37,10.1.1.4,183,-0.240,-0.240,-0.240,0.000,0.000,0.000
1641091057518481920,2022-01-02-02:37:37,10.1.1.4,183,-0.230,-0.230,-0.230,0.000,0.000,0.000
1641091057716732928,2022-01-02-02:37:37,10.1.1.4,180,-0.220,-0.220,-0.220,0.000,0.000,0.000
1641091057917114112,2022-01-02-02:37:37,10.1.1.4,178,-0.210,-0.210,-0.210,0.000,0.000,0.000
1641091058118626048,2022-01-02-02:37:38,10.1.1.4,178,-0.200,-0.200,-0.200,0.000,0.000,0.000
1641091058316700928,2022-01-02-02:37:38,10.1.1.4,175,-0.190,-0.190,-0.190,0.000,0.000,0.000
1641091058520018176,2022-01-02-02:37:38,10.1.1.4,177,-0.180,-0.180,-0.180,0.000,0.000,0.000
1641091058720248832,2022-01-02-02:37:38,10.1.1.4,176,-0.170,-0.170,-0.170,0.000,0.000,0.000
1641091058917825024,2022-01-02-02:37:38,10.1.1.4,173,-0.160,-0.160,-0.160,0.000,0.000,0.000
1641091059118849024,2022-01-02-02:37:39,10.1.1.4,174,-0.150,-0.150,-0.150,0.000,0.000,0.000
1641091059318226176,2022-01-02-02:37:39,10.1.1.4,171,-0.140,-0.140,-0.140,0.000,0.000,0.000
1641091059516382976,2022-01-02-02:37:39,10.1.1.4,169,-0.130,-0.130,-0.130,0.000,0.000,0.000
1641091059717705984,2022-01-02-02:37:39,10.1.1.4,169,-0.120,-0.120,-0.120,0.000,0.000,0.000
1641091059937213952,2022-01-02-02:37:39,10.1.1.4,188,-0.110,-0.110,-0.110,0.000,0.000,0.000
1641091060139715840,2022-01-02-02:37:40,10.1.1.4,190,-0.100,-0.100,-0.100,0.000,0.000,0.000
1641091060338094848,2022-01-02-02:37:40,10.1.1.4,186,-0.090,-0.090,-0.090,0.000,0.000,0.000
1641091060537612800,2022-01-02-02:37:40,10.1.1.4,185,-0.080,-0.080,-0.080,0.000,0.000,0.000
1641091060737390080,2022-01-02-02:37:40,10.1.1.4,184,-0.070,-0.070,-0.070,0.000,0.000,0.000
1641091060941116160,2022-01-02-02:37:40,10.1.1.4,186,-0.060,-0.060,-0.060,0.000,0.000,0.000
1641091061139158016,2022-01-02-02:37:41,10.1.1.4,184,-0.050,-0.050,-0.050,0.000,0.000,0.000
1641091061336291072,2022-01-02-02:37:41,10.1.1.4,179,-0.040,-0.040,-0.040,0.000,0.000,0.000
1641091061538434048,2022-01-02-02:37:41,10.1.1.4,178,-0.030,-0.030,-0.030,0.000,0.000,0.000
1641091061736466944,2022-01-02-02:37:41,10.1.1.4,176,-0.020,-0.020,-0.020,0.000,0.000,0.000
1641091061946454016,2022-01-02-02:37:41,10.1.1.4,182,-0.010,-0.010,-0.010,0.000,0.000,0.000
1641091062136496128,2022-01-02-02:37:42,10.1.1.4,174,0.000,0.000,0.000,0.000,0.000,0.000
1641091062334963968,2022-01-02-02:37:42,10.1.1.4,171,-0.010,-0.010,-0.010,0.000,0.000,0.000
1641091062538297856,2022-01-02-02:37:42,10.1.1.4,173,-0.020,-0.020,-0.020,0.000,0.000,0.000
1641091062739197952,2022-01-02-02:37:42,10.1.1.4,174,-0.030,-0.030,-0.030,0.000,0.000,0.000
1641091062936465920,2022-01-02-02:37:42,10.1.1.4,168,-0.040,-0.040,-0.040,0.000,0.000,0.000
1641091063155322112,2022-01-02-02:37:43,10.1.1.4,187,-0.050,-0.050,-0.050,0.000,0.000,0.000
1641091063357605888,2022-01-02-02:37:43,10.1.1.4,188,-0.060,-0.060,-0.060,0.000,0.000,0.000
1641091063557085952,2022-01-02-02:37:43,10.1.1.4,186,-0.070,-0.070,-0.070,0.000,0.000,0.000
1641091063757368064,2022-01-02-02:37:43,10.1.1.4,184,-0.080,-0.080,-0.080,0.000,0.000,0.000
1641091063957137152,2022-01-02-02:37:43,10.1.1.4,180,-0.090,-0.090,-0.090,0.000,0.000,0.000
1641091064155688960,2022-01-02-02:37:44,10.1.1.4,178,-0.100,-0.100,-0.100,0.000,0.000,0.000
1641091064356342016,2022-01-02-02:37:44,10.1.1.4,178,-0.110,-0.110,-0.110,0.000,0.000,0.000
1641091064554959104,2022-01-02-02:37:44,10.1.1.4,175,-0.120,-0.120,-0.120,0.000,0.000,0.000
1641091064755801856,2022-01-02-02:37:44,10.1.1.4,175,-0.130,-0.130,-0.130,0.000,0.000,0.000
1641091064954582016,2022-01-02-02:37:44,10.1.1.4,173,-0.140,-0.140,-0.140,0.000,0.000,0.000
1641091065153460992,2022-01-02-02:37:45,10.1.1.4,171,-0.150,-0.150,-0.150,0.000,0.000,0.000
1641091065352744960,2022-01-02-02:37:45,10.1.1.4,170,-0.160,-0.160,-0.160,0.000,0.000,0.000
1641091065552570112,2022-01-02-02:37:45,10.1.1.4,169,-0.170,-0.170,-0.170,0.000,0.000,0.000
1641091065754157056,2022-01-02-02:37:45,10.1.1.4,170,-0.180,-0.180,-0.180,0.000,0.000,0.000
1641091065952420096,2022-01-02-02:37:45,10.1.1.4,167,-0.190,-0.190,-0.190,0.000,0.000,0.000
1641091066154545920,2022-01-02-02:37:46,10.1.1.4,168,-0.200,-0.200,-0.200,0.000,0.000,0.000
1641091066354987008,2022-01-02-02:37:46,10.1.1.4,167,-0.210,-0.210,-0.210,0.000,0.000,0.000
1641091066573400064,2022-01-02-02:37:46,10.1.1.4,185,-0.220,-0.220,-0.220,0.000,0.000,0.000
1641091066772058880,2022-01-02-02:37:46,10.1.1.4,183,-0.230,-0.230,-0.230,0.000,0.000,0.000
1641091066971121152,2022-01-02-02:37:46,10.1.1.4,181,-0.240,-0.240,-0.240,0.000,0.000,0.000
1641091067176947200,2022-01-02-02:37:47,10.1.1.4,187,-0.250,-0.250,-0.250,0.000,0.000,0.000
1641091067370220032,2022-01-02-02:37:47,10.1.1.4,177,-0.260,-0.260,-0.260,0.000,0.000,0.000
1641091067571266816,2022-01-02-02:37:47,10.1.1.4,178,-0.270,-0.270,-0.270,0.000,0.000,0.000
1641091067772713984,2022-01-02-02:37:47,10.1.1.4,178,-0.280,-0.280,-0.280,0.000,0.000,0.000
1641091067971412992,2022-01-02-02:37:47,10.1.1.4,173,-0.290,-0.290,-0.290,0.000,0.000,0.000
1641091068171837952,2022-01-02-02:37:48,10.1.1.4,174,-0.300,-0.300,-0.300,0.000,0.000,0.000
1641091068373630976,2022-01-02-02:37:48,10.1.1.4,176,-0.310,-0.310,-0.310,0.000,0.000,0.000
1641091068571693056,2022-01-02-02:37:48,10.1.1.4,173,-0.320,-0.320,-0.320,0.000,0.000,0.000
1641091068771868928,2022-01-02-02:37:48,10.1.1.4,172,-0.330,-0.330,-0.330,0.000,0.000,0.000
1641091068970757120,2022-01-02-02:37:48,10.1.1.4,170,-0.340,-0.340,-0.340,0.000,0.000,0.000
1641091069171300864,2022-01-02-02:37:49,10.1.1.4,170,-0.350,-0.350,-0.350,0.000,0.000,0.000
1641091069371119104,2022-01-02-02:37:49,10.1.1.4,168,-0.360,-0.360,-0.360,0.000,0.000,0.000
1641091069571368960,2022-01-02-02:37:49,10.1.1.4,167,-0.370,-0.370,-0.370,0.000,0.000,0.000
1641091069771225856,2022-01-02-02:37:49,10.1.1.4,167,-0.380,-0.380,-0.380,0.000,0.000,0.000
1641091069969097984,2022-01-02-02:37:49,10.1.1.4,164,-0.390,-0.390,-0.390,0.000,0.000,0.000
1641091070167442176,2022-01-02-02:37:50,10.1.1.4,162,-0.400,-0.400,-0.400,0.000,0.000,0.000
1641091070367371008,2022-01-02-02:37:50,10.1.1.4,161,-0.410,-0.410,-0.410,0.000,0.000,0.000
1641091070570343936,2022-01-02-02:37:50,10.1.1.4,163,-0.420,-0.420,-0.420,0.000,0.000,0.000
1641091070790537216,2022-01-02-02:37:50,10.1.1.4,179,-0.430,-0.430,-0.430,0.000,0.000,0.000
1641091070988802816,2022-01-02-02:37:50,10.1.1.4,179,-0.440,-0.440,-0.440,0.000,0.000,0.000
1641091071189313024,2022-01-02-02:37:51,10.1.1.4,176,-0.450,-0.450,-0.450,0.000,0.000,0.000
1641091071388087040,2022-01-02-02:37:51,10.1.1.4,174,-0.460,-0.460,-0.460,0.000,0.000,0.000
1641091071586249216,2022-01-02-02:37:51,10.1.1.4,172,-0.470,-0.470,-0.470,0.000,0.000,0.000
1641091071784787968,2022-01-02-02:37:51,10.1.1.4,170,-0.480,-0.480,-0.480,0.000,0.000,0.000
1641091071986676992,2022-01-02-02:37:51,10.1.1.4,171,-0.490,-0.490,-0.490,0.000,0.000,0.000
1641091072187596032,2022-01-02-02:37:52,10.1.1.4,170,-0.480,-0.480,-0.480,0.000,0.000,0.000
1641091072386772992,2022-01-02-02:37:52,10.1.1.4,168,-0.470,-0.470,-0.470,0.000,0.000,0.000
1641091072585627136,2022-01-02-02:37:52,10.1.1.4,167,-0.460,-0.460,-0.460,0.000,0.000,0.000
1641091072783252992,2022-01-02-02:37:52,10.1.1.4,163,-0.450,-0.450,-0.450,0.000,0.000,0.000
1641091072985872128,2022-01-02-02:37:52,10.1.1.4,165,-0.440,-0.440,-0.440,0.000,0.000,0.000
1641091073186071040,2022-01-02-02:37:53,10.1.1.4,163,-0.430,-0.430,-0.430,0.000,0.000,0.000
1641091073386394880,2022-01-02-02:37:53,10.1.1.4,161,-0.420,-0.420,-0.420,0.000,0.000,0.000
1641091073584617984,2022-01-02-02:37:53,10.1.1.4,158,-0.410,-0.410,-0.410,0.000,0.000,0.000
1641091073785533952,2022-01-02-02:37:53,10.1.1.4,158,-0.400,-0.400,-0.400,0.000,0.000,0.000
1641091074004748032,2022-01-02-02:37:54,10.1.1.4,175,-0.390,-0.390,-0.390,0.000,0.000,0.000
1641091074203845120,2022-01-02-02:37:54,10.1.1.4,174,-0.380,-0.380,-0.380,0.000,0.000,0.000
1641091074404311808,2022-01-02-02:37:54,10.1.1.4,173,-0.370,-0.370,-0.370,0.000,0.000,0.000
1641091074603907072,2022-01-02-02:37:54,10.1.1.4,171,-0.360,-0.360,-0.360,0.000,0.000,0.000
1641091074802462976,2022-01-02-02:37:54,10.1.1.4,169,-0.350,-0.350,-0.350,0.000,0.000,0.000
1641091075000348160,2022-01-02-02:37:55,10.1.1.4,166,-0.340,-0.340,-0.340,0.000,0.000,0.000
1641091075202600960,2022-01-02-02:37:55,10.1.1.4,166,-0.330,-0.330,-0.330,0.000,0.000,0.000
1641091075403507968,2022-01-02-02:37:55,10.1.1.4,166,-0.320,-0.320,-0.320,0.000,0.000,0.000
1641091075603145984,2022-01-02-02:37:55,10.1.1.4,165,-0.310,-0.310,-0.310,0.000,0.000,0.000
1641091075799078912,2022-01-02-02:37:55,10.1.1.4,161,-0.300,-0.300,-0.300,0.000,0.000,0.000
1641091076001279232,2022-01-02-02:37:56,10.1.1.4,160,-0.290,-0.290,-0.290,0.000,0.000,0.000
1641091076203099136,2022-01-02-02:37:56,10.1.1.4,161,-0.280,-0.280,-0.280,0.000,0.000,0.000
1641091076400670976,2022-01-02-02:37:56,10.1.1.4,158,-0.270,-0.270,-0.270,0.000,0.000,0.000
1641091076598820096,2022-01-02-02:37:56,10.1.1.4,155,-0.260,-0.260,-0.260,0.000,0.000,0.000
1641091076801556992,2022-01-02-02:37:56,10.1.1.4,157,-0.250,-0.250,-0.250,0.000,0.000,0.000
1641091076999499008,2022-01-02-02:37:56,10.1.1.4,155,-0.240,-0.240,-0.240,0.000,0.000,0.000
1641091077197662208,2022-01-02-02:37:57,10.1.1.4,152,-0.230,-0.230,-0.230,0.000,0.000,0.000
1641091077399642880,2022-01-02-02:37:57,10.1.1.4,153,-0.220,-0.220,-0.220,0.000,0.000,0.000
1641091077597566976,2022-01-02-02:37:57,10.1.1.4,150,-0.210,-0.210,-0.210,0.000,0.000,0.000
1641091077817248000,2022-01-02-02:37:57,10.1.1.4,169,-0.200,-0.200,-0.200,0.000,0.000,0.000
1641091078018955008,2022-01-02-02:37:58,10.1.1.4,169,-0.190,-0.190,-0.190,0.000,0.000,0.000
1641091078217544192,2022-01-02-02:37:58,10.1.1.4,166,-0.180,-0.180,-0.180,0.000,0.000,0.000
1641091078416881920,2022-01-02-02:37:58,10.1.1.4,165,-0.170,-0.170,-0.170,0.000,0.000,0.000
1641091078614206976,2022-01-02-02:37:58,10.1.1.4,162,-0.160,-0.160,-0.160,0.000,0.000,0.000
1641091078816786944,2022-01-02-02:37:58,10.1.1.4,164,-0.150,-0.150,-0.150,0.000,0.000,0.000
1641091079015834112,2022-01-02-02:37:59,10.1.1.4,162,-0.140,-0.140,-0.140,0.000,0.000,0.000
1641091079214839040,2022-01-02-02:37:59,10.1.1.4,156,-0.130,-0.130,-0.130,0.000,0.000,0.000
1641091079415386880,2022-01-02-02:37:59,10.1.1.4,154,-0.120,-0.120,-0.120,0.000,0.000,0.000
1641091079616391936,2022-01-02-02:37:59,10.1.1.4,153,-0.110,-0.110,-0.110,0.000,0.000,0.000
1641091079812939008,2022-01-02-02:37:59,10.1.1.4,149,-0.100,-0.100,-0.100,0.000,0.000,0.000
1641091080014360064,2022-01-02-02:38:00,10.1.1.4,150,-0.090,-0.090,-0.090,0.000,0.000,0.000
1641091080215245056,2022-01-02-02:38:00,10.1.1.4,150,-0.080,-0.080,-0.080,0.000,0.000,0.000
1641091080415383040,2022-01-02-02:38:00,10.1.1.4,150,-0.070,-0.070,-0.070,0.000,0.000,0.000
1641091080617448192,2022-01-02-02:38:00,10.1.1.4,150,-0.060,-0.060,-0.060,0.000,0.000,0.000
1641091080819386112,2022-01-02-02:38:00,10.1.1.4,152,-0.050,-0.050,-0.050,0.000,0.000,0.000
1641091081040086016,2022-01-02-02:38:01,10.1.1.4,171,-0.040,-0.040,-0.040,0.000,0.000,0.000
1641091081243095040,2022-01-02-02:38:01,10.1.1.4,174,-0.030,-0.030,-0.030,0.000,0.000,0.000
1641091081439870208,2022-01-02-02:38:01,10.1.1.4,170,-0.020,-0.020,-0.020,0.000,0.000,0.000
1641091081640705024,2022-01-02-02:38:01,10.1.1.4,170,-0.010,-0.010,-0.010,0.000,0.000,0.000
1641091081843086848,2022-01-02-02:38:01,10.1.1.4,172,0.000,0.000,0.000,0.000,0.000,0.000
1641091082043548160,2022-01-02-02:38:02,10.1.1.4,172,-0.010,-0.010,-0.010,0.000,0.000,0.000
1641091082244384000,2022-01-02-02:38:02,10.1.1.4,171,-0.020,-0.020,-0.020,0.000,0.000,0.000
1641091082444771072,2022-01-02-02:38:02,10.1.1.4,171,-0.030,-0.030,-0.030,0.000,0.000,0.000
1641091082644809984,2022-01-02-02:38:02,10.1.1.4,171,-0.040,-0.040,-0.040,0.000,0.000,0.000
1641091082847659008,2022-01-02-02:38:02,10.1.1.4,172,-0.050,-0.050,-0.050,0.000,0.000,0.000
1641091083047424000,2022-01-02-02:38:03,10.1.1.4,171,-0.060,-0.060,-0.060,0.000,0.000,0.000
1641091083251549952,2022-01-02-02:38:03,10.1.1.4,175,-0.070,-0.070,-0.070,0.000,0.000,0.000
1641091083450793984,2022-01-02-02:38:03,10.1.1.4,173,-0.080,-0.080,-0.080,0.000,0.000,0.000
1641091083647927040,2022-01-02-02:38:03,10.1.1.4,169,-0.090,-0.090,-0.090,0.000,0.000,0.000
1641091083848598016,2022-01-02-02:38:03,10.1.1.4,169,-0.100,-0.100,-0.100,0.000,0.000,0.000
1641091084050244096,2022-01-02-02:38:04,10.1.1.4,169,-0.110,-0.110,-0.110,0.000,0.000,0.000
1641091084251130112,2022-01-02-02:38:04,10.1.1.4,170,-0.120,-0.120,-0.120,0.000,0.000,0.000
1641091084457880064,2022-01-02-02:38:04,10.1.1.4,174,-0.130,-0.130,-0.130,0.000,0.000,0.000
1641091084650989056,2022-01-02-02:38:04,10.1.1.4,168,-0.140,-0.140,-0.140,0.000,0.000,0.000
1641091084852862976,2022-01-02-02:38:04,10.1.1.4,169,-0.150,-0.150,-0.150,0.000,0.000,0.000
1641091085054208000,2022-01-02-02:38:05,10.1.1.4,169,-0.160,-0.160,-0.160,0.000,0.000,0.000
1641091085253249792,2022-01-02-02:38:05,10.1.1.4,168,-0.170,-0.170,-0.170,0.000,0.000,0.000
1641091085454090240,2022-01-02-02:38:05,10.1.1.4,167,-0.180,-0.180,-0.180,0.000,0.000,0.000
1641091085659539968,2022-01-02-02:38:05,10.1.1.4,171,-0.190,-0.190,-0.190,0.000,0.000,0.000
1641091085875163136,2022-01-02-02:38:05,10.1.1.4,186,-0.200,-0.200,-0.200,0.000,0.000,0.000
1641091086072988160,2022-01-02-02:38:06,10.1.1.4,183,-0.210,-0.210,-0.210,0.000,0.000,0.000
1641091086273711872,2022-01-02-02:38:06,10.1.1.4,182,-0.220,-0.220,-0.220,0.000,0.000,0.000
1641091086475917056,2022-01-02-02:38:06,10.1.1.4,183,-0.230,-0.230,-0.230,0.000,0.000,0.000
1641091086674376960,2022-01-02-02:38:06,10.1.1.4,181,-0.240,-0.240,-0.240,0.000,0.000,0.000
1641091086874392064,2022-01-02-02:38:06,10.1.1.4,178,-0.250,-0.250,-0.250,0.000,0.000,0.000
1641091087077025792,2022-01-02-02:38:07,10.1.1.4,180,-0.260,-0.260,-0.260,0.000,0.000,0.000
1641091087274651136,2022-01-02-02:38:07,10.1.1.4,176,-0.270,-0.270,-0.270,0.000,0.000,0.000
1641091087476156928,2022-01-02-02:38:07,10.1.1.4,176,-0.280,-0.280,-0.280,0.000,0.000,0.000
1641091087677494016,2022-01-02-02:38:07,10.1.1.4,177,-0.290,-0.290,-0.290,0.000,0.000,0.000
1641091087876018944,2022-01-02-02:38:07,10.1.1.4,173,-0.300,-0.300,-0.300,0.000,0.000,0.000
1641091088077560064,2022-01-02-02:38:08,10.1.1.4,173,-0.310,-0.310,-0.310,0.000,0.000,0.000
1641091088277986048,2022-01-02-02:38:08,10.1.1.4,174,-0.320,-0.320,-0.320,0.000,0.000,0.000
1641091088476120064,2022-01-02-02:38:08,10.1.1.4,171,-0.330,-0.330,-0.330,0.000,0.000,0.000
1641091088678237952,2022-01-02-02:38:08,10.1.1.4,172,-0.340,-0.340,-0.340,0.000,0.000,0.000
1641091088876349952,2022-01-02-02:38:08,10.1.1.4,168,-0.350,-0.350,-0.350,0.000,0.000,0.000
1641091089096466176,2022-01-02-02:38:09,10.1.1.4,186,-0.360,-0.360,-0.360,0.000,0.000,0.000
1641091089296264960,2022-01-02-02:38:09,10.1.1.4,184,-0.370,-0.370,-0.370,0.000,0.000,0.000
1641091089498016000,2022-01-02-02:38:09,10.1.1.4,185,-0.380,-0.380,-0.380,0.000,0.000,0.000
1641091089697010944,2022-01-02-02:38:09,10.1.1.4,183,-0.390,-0.390,-0.390,0.000,0.000,0.000
1641091089903179008,2022-01-02-02:38:09,10.1.1.4,189,-0.400,-0.400,-0.400,0.000,0.000,0.000
1641091090100326912,2022-01-02-02:38:10,10.1.1.4,185,-0.410,-0.410,-0.410,0.000,0.000,0.000
1641091090301246976,2022-01-02-02:38:10,10.1.1.4,185,-0.420,-0.420,-0.420,0.000,0.000,0.000
1641091090497976064,2022-01-02-02:38:10,10.1.1.4,181,-0.430,-0.430,-0.430,0.000,0.000,0.000
1641091090698438912,2022-01-02-02:38:10,10.1.1.4,181,-0.440,-0.440,-0.440,0.000,0.000,0.000
1641091090896823808,2022-01-02-02:38:10,10.1.1.4,176,-0.450,-0.450,-0.450,0.000,0.000,0.000
1641091091098556928,2022-01-02-02:38:11,10.1.1.4,177,-0.460,-0.460,-0.460,0.000,0.000,0.000
1641091091297925120,2022-01-02-02:38:11,10.1.1.4,176,-0.470,-0.470,-0.470,0.000,0.000,0.000
1641091091500432896,2022-01-02-02:38:11,10.1.1.4,178,-0.480,-0.480,-0.480,0.000,0.000,0.000
1641091091700120064,2022-01-02-02:38:11,10.1.1.4,175,-0.490,-0.490,-0.490,0.000,0.000,0.000
1641091091898569984,2022-01-02-02:38:11,10.1.1.4,172,-0.480,-0.480,-0.480,0.000,0.000,0.000
1641091092097954048,2022-01-02-02:38:12,10.1.1.4,170,-0.470,-0.470,-0.470,0.000,0.000,0.000
1641091092298604032,2022-01-02-02:38:12,10.1.1.4,170,-0.460,-0.460,-0.460,0.000,0.000,0.000
1641091092496731904,2022-01-02-02:38:12,10.1.1.4,168,-0.450,-0.450,-0.450,0.000,0.000,0.000
1641091092720015104,2022-01-02-02:38:12,10.1.1.4,191,-0.440,-0.440,-0.440,0.000,0.000,0.000
1641091092916992000,2022-01-02-02:38:12,10.1.1.4,187,-0.430,-0.430,-0.430,0.000,0.000,0.000
1641091093118156032,2022-01-02-02:38:13,10.1.1.4,185,-0.420,-0.420,-0.420,0.000,0.000,0.000
1641091093317185024,2022-01-02-02:38:13,10.1.1.4,186,-0.410,-0.410,-0.410,0.000,0.000,0.000
1641091093520397824,2022-01-02-02:38:13,10.1.1.4,184,-0.400,-0.400,-0.400,0.000,0.000,0.000
1641091093718384896,2022-01-02-02:38:13,10.1.1.4,183,-0.390,-0.390,-0.390,0.000,0.000,0.000
1641091093918481152,2022-01-02-02:38:13,10.1.1.4,185,-0.380,-0.380,-0.380,0.000,0.000,0.000
1641091094117711104,2022-01-02-02:38:14,10.1.1.4,183,-0.370,-0.370,-0.370,0.000,0.000,0.000
1641091094316233984,2022-01-02-02:38:14,10.1.1.4,181,-0.360,-0.360,-0.360,0.000,0.000,0.000
1641091094517476096,2022-01-02-02:38:14,10.1.1.4,182,-0.350,-0.350,-0.350,0.000,0.000,0.000
1641091094717966080,2022-01-02-02:38:14,10.1.1.4,181,-0.340,-0.340,-0.340,0.000,0.000,0.000
1641091094918685952,2022-01-02-02:38:14,10.1.1.4,178,-0.330,-0.330,-0.330,0.000,0.000,0.000
1641091095117746176,2022-01-02-02:38:15,10.1.1.4,179,-0.320,-0.320,-0.320,0.000,0.000,0.000
1641091095315332864,2022-01-02-02:38:15,10.1.1.4,174,-0.310,-0.310,-0.310,0.000,0.000,0.000
1641091095517313024,2022-01-02-02:38:15,10.1.1.4,176,-0.300,-0.300,-0.300,0.000,0.000,0.000
1641091095716384000,2022-01-02-02:38:15,10.1.1.4,174,-0.290,-0.290,-0.290,0.000,0.000,0.000
1641091095915795968,2022-01-02-02:38:15,10.1.1.4,172,-0.280,-0.280,-0.280,0.000,0.000,0.000
1641091096115083008,2022-01-02-02:38:16,10.1.1.4,169,-0.270,-0.270,-0.270,0.000,0.000,0.000
1641091096316119808,2022-01-02-02:38:16,10.1.1.4,169,-0.260,-0.260,-0.260,0.000,0.000,0.000
1641091096515794944,2022-01-02-02:38:16,10.1.1.4,168,-0.250,-0.250,-0.250,0.000,0.000,0.000
1641091096741668864,2022-01-02-02:38:16,10.1.1.4,193,-0.240,-0.240,-0.240,0.000,0.000,0.000
1641091096933979904,2022-01-02-02:38:16,10.1.1.4,184,-0.230,-0.230,-0.230,0.000,0.000,0.000
1641091097136610048,2022-01-02-02:38:17,10.1.1.4,186,-0.220,-0.220,-0.220,0.000,0.000,0.000
1641091097334577920,2022-01-02-02:38:17,10.1.1.4,183,-0.210,-0.210,-0.210,0.000,0.000,0.000
1641091097534982912,2022-01-02-02:38:17,10.1.1.4,183,-0.200,-0.200,-0.200,0.000,0.000,0.000
1641091097737253888,2022-01-02-02:38:17,10.1.1.4,184,-0.190,-0.190,-0.190,0.000,0.000,0.000
1641091097933716992,2022-01-02-02:38:17,10.1.1.4,177,-0.180,-0.180,-0.180,0.000,0.000,0.000
1641091098135444992,2022-01-02-02:38:18,10.1.1.4,179,-0.170,-0.170,-0.170,0.000,0.000,0.000
1641091098334850048,2022-01-02-02:38:18,10.1.1.4,175,-0.160,-0.160,-0.160,0.000,0.000,0.000
1641091098534644992,2022-01-02-02:38:18,10.1.1.4,173,-0.150,-0.150,-0.150,0.000,0.000,0.000
1641091098733937152,2022-01-02-02:38:18,10.1.1.4,171,-0.140,-0.140,-0.140,0.000,0.000,0.000
1641091098934007040,2022-01-02-02:38:18,10.1.1.4,171,-0.130,-0.130,-0.130,0.000,0.000,0.000
1641091099142790144,2022-01-02-02:38:19,10.1.1.4,177,-0.120,-0.120,-0.120,0.000,0.000,0.000
1641091099335779072,2022-01-02-02:38:19,10.1.1.4,171,-0.110,-0.110,-0.110,0.000,0.000,0.000
1641091099533752064,2022-01-02-02:38:19,10.1.1.4,167,-0.100,-0.100,-0.100,0.000,0.000,0.000
1641091099732894976,2022-01-02-02:38:19,10.1.1.4,166,-0.090,-0.090,-0.090,0.000,0.000,0.000
1641091099933868032,2022-01-02-02:38:19,10.1.1.4,166,-0.080,-0.080,-0.080,0.000,0.000,0.000
1641091100151768832,2022-01-02-02:38:20,10.1.1.4,183,-0.070,-0.070,-0.070,0.000,0.000,0.000
1641091100351401984,2022-01-02-02:38:20,10.1.1.4,179,-0.060,-0.060,-0.060,0.000,0.000,0.000
1641091100552040192,2022-01-02-02:38:20,10.1.1.4,178,-0.050,-0.050,-0.050,0.000,0.000,0.000
1641091100752145920,2022-01-02-02:38:20,10.1.1.4,176,-0.040,-0.040,-0.040,0.000,0.000,0.000
1641091100952231936,2022-01-02-02:38:20,10.1.1.4,176,-0.030,-0.030,-0.030,0.000,0.000,0.000
1641091101149600000,2022-01-02-02:38:21,10.1.1.4,172,-0.020,-0.020,-0.020,0.000,0.000,0.000
1641091101351352832,2022-01-02-02:38:21,10.1.1.4,174,-0.010,-0.010,-0.010,0.000,0.000,0.000
1641091101549141760,2022-01-02-02:38:21,10.1.1.4,170,0.000,0.000,0.000,0.000,0.000,0.000
1641091101750566912,2022-01-02-02:38:21,10.1.1.4,171,-0.010,-0.010,-0.010,0.000,0.000,0.000
1641091101947629824,2022-01-02-02:38:21,10.1.1.4,167,-0.020,-0.020,-0.020,0.000,0.000,0.000
1641091102149487104,2022-01-02-02:38:22,10.1.1.4,168,-0.030,-0.030,-0.030,0.000,0.000,0.000
1641091102348783872,2022-01-02-02:38:22,10.1.1.4,167,-0.040,-0.040,-0.040,0.000,0.000,0.000
1641091102548964096,2022-01-02-02:38:22,10.1.1.4,166,-0.050,-0.050,-0.050,0.000,0.000,0.000
1641091102747561984,2022-01-02-02:38:22,10.1.1.4,161,-0.060,-0.060,-0.060,0.000,0.000,0.000
1641091102946820864,2022-01-02-02:38:22,10.1.1.4,160,-0.070,-0.070,-0.070,0.000,0.000,0.000
1641091103148114944,2022-01-02-02:38:23,10.1.1.4,160,-0.080,-0.080,-0.080,0.000,0.000,0.000
1641091103366350848,2022-01-02-02:38:23,10.1.1.4,177,-0.090,-0.090,-0.090,0.000,0.000,0.000
1641091103569820928,2022-01-02-02:38:23,10.1.1.4,180,-0.100,-0.100,-0.100,0.000,0.000,0.000
1641091103766813952,2022-01-02-02:38:23,10.1.1.4,175,-0.110,-0.110,-0.110,0.000,0.000,0.000
1641091103965743104,2022-01-02-02:38:23,10.1.1.4,172,-0.120,-0.120,-0.120,0.000,0.000,0.000
1641091104168482048,2022-01-02-02:38:24,10.1.1.4,174,-0.130,-0.130,-0.130,0.000,0.000,0.000
1641091104366589184,2022-01-02-02:38:24,10.1.1.4,172,-0.140,-0.140,-0.140,0.000,0.000,0.000
1641091104565677824,2022-01-02-02:38:24,10.1.1.4,169,-0.150,-0.150,-0.150,0.000,0.000,0.000
1641091104765777152,2022-01-02-02:38:24,10.1.1.4,169,-0.160,-0.160,-0.160,0.000,0.000,0.000
1641091104965032960,2022-01-02-02:38:24,10.1.1.4,167,-0.170,-0.170,-0.170,0.000,0.000,0.000
1641091105166320128,2022-01-02-02:38:25,10.1.1.4,164,-0.180,-0.180,-0.180,0.000,0.000,0.000
1641091105364514048,2022-01-02-02:38:25,10.1.1.4,163,-0.190,-0.190,-0.190,0.000,0.000,0.000
1641091105565831936,2022-01-02-02:38:25,10.1.1.4,163,-0.200,-0.200,-0.200,0.000,0.000,0.000
1641091105764911872,2022-01-02-02:38:25,10.1.1.4,160,-0.210,-0.210,-0.210,0.000,0.000,0.000
1641091105963845888,2022-01-02-02:38:25,10.1.1.4,158,-0.220,-0.220,-0.220,0.000,0.000,0.000
1641091106166650112,2022-01-02-02:38:26,10.1.1.4,160,-0.230,-0.230,-0.230,0.000,0.000,0.000
1641091106366183936,2022-01-02-02:38:26,10.1.1.4,159,-0.240,-0.240,-0.240,0.000,0.000,0.000
1641091106564007936,2022-01-02-02:38:26,10.1.1.4,156,-0.250,-0.250,-0.250,0.000,0.000,0.000
1641091106793406976,2022-01-02-02:38:26,10.1.1.4,184,-0.260,-0.260,-0.260,0.000,0.000,0.000
1641091106982342912,2022-01-02-02:38:26,10.1.1.4,171,-0.270,-0.270,-0.270,0.000,0.000,0.000
1641091107182647040,2022-01-02-02:38:27,10.1.1.4,169,-0.280,-0.280,-0.280,0.000,0.000,0.000
1641091107382287104,2022-01-02-02:38:27,10.1.1.4,168,-0.290,-0.290,-0.290,0.000,0.000,0.000
1641091107583200000,2022-01-02-02:38:27,10.1.1.4,168,-0.300,-0.300,-0.300,0.000,0.000,0.000
1641091107781457920,2022-01-02-02:38:27,10.1.1.4,165,-0.310,-0.310,-0.310,0.000,0.000,0.000
1641091107982033920,2022-01-02-02:38:27,10.1.1.4,165,-0.320,-0.320,-0.320,0.000,0.000,0.000
1641091108181817088,2022-01-02-02:38:28,10.1.1.4,164,-0.330,-0.330,-0.330,0.000,0.000,0.000
1641091108379769088,2022-01-02-02:38:28,10.1.1.4,161,-0.340,-0.340,-0.340,0.000,0.000,0.000
1641091108580359936,2022-01-02-02:38:28,10.1.1.4,159,-0.350,-0.350,-0.350,0.000,0.000,0.000
1641091108780450048,2022-01-02-02:38:28,10.1.1.4,159,-0.360,-0.360,-0.360,0.000,0.000,0.000
1641091108977920000,2022-01-02-02:38:28,10.1.1.4,156,-0.370,-0.370,-0.370,0.000,0.000,0.000
1641091109178884096,2022-01-02-02:38:29,10.1.1.4,156,-0.380,-0.380,-0.380,0.000,0.000,0.000
1641091109379977984,2022-01-02-02:38:29,10.1.1.4,156,-0.390,-0.390,-0.390,0.000,0.000,0.000
1641091109578860032,2022-01-02-02:38:29,10.1.1.4,154,-0.400,-0.400,-0.400,0.000,0.000,0.000
1641091109778828032,2022-01-02-02:38:29,10.1.1.4,153,-0.410,-0.410,-0.410,0.000,0.000,0.000
1641091109977072128,2022-01-02-02:38:29,10.1.1.4,151,-0.420,-0.420,-0.420,0.000,0.000,0.000
1641091110179075072,2022-01-02-02:38:30,10.1.1.4,152,-0.430,-0.430,-0.430,0.000,0.000,0.000
1641091110378225152,2022-01-02-02:38:30,10.1.1.4,150,-0.440,-0.440,-0.440,0.000,0.000,0.000
1641091110599142144,2022-01-02-02:38:30,10.1.1.4,170,-0.450,-0.450,-0.450,0.000,0.000,0.000
1641091110795464960,2022-01-02-02:38:30,10.1.1.4,166,-0.460,-0.460,-0.460,0.000,0.000,0.000
1641091110996210176,2022-01-02-02:38:30,10.1.1.4,166,-0.470,-0.470,-0.470,0.000,0.000,0.000
1641091111199577088,2022-01-02-02:38:31,10.1.1.4,168,-0.480,-0.480,-0.480,0.000,0.000,0.000
1641091111394382080,2022-01-02-02:38:31,10.1.1.4,162,-0.490,-0.490,-0.490,0.000,0.000,0.000
1641091111594397952,2022-01-02-02:38:31,10.1.1.4,160,-0.480,-0.480,-0.480,0.000,0.000,0.000
1641091111794970112,2022-01-02-02:38:31,10.1.1.4,158,-0.470,-0.470,-0.470,0.000,0.000,0.000
1641091111992925952,2022-01-02-02:38:31,10.1.1.4,155,-0.460,-0.460,-0.460,0.000,0.000,0.000
1641091112196361984,2022-01-02-02:38:32,10.1.1.4,155,-0.450,-0.450,-0.450,0.000,0.000,0.000
1641091112396841984,2022-01-02-02:38:32,10.1.1.4,157,-0.440,-0.440,-0.440,0.000,0.000,0.000
1641091112598830080,2022-01-02-02:38:32,10.1.1.4,158,-0.430,-0.430,-0.430,0.000,0.000,0.000
1641091112801021952,2022-01-02-02:38:32,10.1.1.4,159,-0.420,-0.420,-0.420,0.000,0.000,0.000
1641091113006628864,2022-01-02-02:38:33,10.1.1.4,164,-0.410,-0.410,-0.410,0.000,0.000,0.000
1641091113205420032,2022-01-02-02:38:33,10.1.1.4,162,-0.400,-0.400,-0.400,0.000,0.000,0.000
1641091113405607936,2022-01-02-02:38:33,10.1.1.4,162,-0.390,-0.390,-0.390,0.000,0.000,0.000
1641091113605115904,2022-01-02-02:38:33,10.1.1.4,159,-0.380,-0.380,-0.380,0.000,0.000,0.000
1641091113805062144,2022-01-02-02:38:33,10.1.1.4,159,-0.370,-0.370,-0.370,0.000,0.000,0.000
1641091114003350016,2022-01-02-02:38:34,10.1.1.4,156,-0.360,-0.360,-0.360,0.000,0.000,0.000
1641091114204329984,2022-01-02-02:38:34,10.1.1.4,157,-0.350,-0.350,-0.350,0.000,0.000,0.000
1641091114426819072,2022-01-02-02:38:34,10.1.1.4,178,-0.340,-0.340,-0.340,0.000,0.000,0.000
1641091114630009856,2022-01-02-02:38:34,10.1.1.4,180,-0.330,-0.330,-0.330,0.000,0.000,0.000
1641091114828937984,2022-01-02-02:38:34,10.1.1.4,178,-0.320,-0.320,-0.320,0.000,0.000,0.000
1641091115029148928,2022-01-02-02:38:35,10.1.1.4,176,-0.310,-0.310,-0.310,0.000,0.000,0.000
1641091115230944000,2022-01-02-02:38:35,10.1.1.4,177,-0.300,-0.300,-0.300,0.000,0.000,0.000
1641091115430924800,2022-01-02-02:38:35,10.1.1.4,174,-0.290,-0.290,-0.290,0.000,0.000,0.000
1641091115630477824,2022-01-02-02:38:35,10.1.1.4,172,-0.280,-0.280,-0.280,0.000,0.000,0.000
1641091115831886080,2022-01-02-02:38:35,10.1.1.4,171,-0.270,-0.270,-0.270,0.000,0.000,0.000
1641091116033063936,2022-01-02-02:38:36,10.1.1.4,171,-0.260,-0.260,-0.260,0.000,0.000,0.000
1641091116233118976,2022-01-02-02:38:36,10.1.1.4,171,-0.250,-0.250,-0.250,0.000,0.000,0.000
1641091116432182016,2022-01-02-02:38:36,10.1.1.4,169,-0.240,-0.240,-0.240,0.000,0.000,0.000
1641091116636569088,2022-01-02-02:38:36,10.1.1.4,169,-0.230,-0.230,-0.230,0.000,0.000,0.000
1641091116834733056,2022-01-02-02:38:36,10.1.1.4,170,-0.220,-0.220,-0.220,0.000,0.000,0.000
1641091117033967872,2022-01-02-02:38:37,10.1.1.4,168,-0.210,-0.210,-0.210,0.000,0.000,0.000
1641091117238105088,2022-01-02-02:38:37,10.1.1.4,171,-0.200,-0.200,-0.200,0.000,0.000,0.000
1641091117437537024,2022-01-02-02:38:37,10.1.1.4,168,-0.190,-0.190,-0.190,0.000,0.000,0.000
1641091117656093952,2022-01-02-02:38:37,10.1.1.4,187,-0.180,-0.180,-0.180,0.000,0.000,0.000
1641091117857997824,2022-01-02-02:38:37,10.1.1.4,189,-0.170,-0.170,-0.170,0.000,0.000,0.000
1641091118057629952,2022-01-02-02:38:38,10.1.1.4,187,-0.160,-0.160,-0.160,0.000,0.000,0.000
1641091118260067072,2022-01-02-02:38:38,10.1.1.4,188,-0.150,-0.150,-0.150,0.000,0.000,0.000
1641091118456397056,2022-01-02-02:38:38,10.1.1.4,184,-0.140,-0.140,-0.140,0.000,0.000,0.000
1641091118671173120,2022-01-02-02:38:38,10.1.1.4,198,-0.130,-0.130,-0.130,0.000,0.000,0.000
1641091118859810048,2022-01-02-02:38:38,10.1.1.4,184,-0.120,-0.120,-0.120,0.000,0.000,0.000
1641091119060833024,2022-01-02-02:38:39,10.1.1.4,182,-0.110,-0.110,-0.110,0.000,0.000,0.000
1641091119257440000,2022-01-02-02:38:39,10.1.1.4,177,-0.100,-0.100,-0.100,0.000,0.000,0.000
1641091119460068096,2022-01-02-02:38:39,10.1.1.4,176,-0.090,-0.090,-0.090,0.000,0.000,0.000
1641091119667437056,2022-01-02-02:38:39,10.1.1.4,183,-0.080,-0.080,-0.080,0.000,0.000,0.000
1641091119859108864,2022-01-02-02:38:39,10.1.1.4,173,-0.070,-0.070,-0.070,0.000,0.000,0.000
1641091120065128192,2022-01-02-02:38:40,10.1.1.4,178,-0.060,-0.060,-0.060,0.000,0.000,0.000
1641091120259019008,2022-01-02-02:38:40,10.1.1.4,171,-0.050,-0.050,-0.050,0.000,0.000,0.000
1641091120480623104,2022-01-02-02:38:40,10.1.1.4,191,-0.040,-0.040,-0.040,0.000,0.000,0.000
1641091120680907008,2022-01-02-02:38:40,10.1.1.4,191,-0.030,-0.030,-0.030,0.000,0.000,0.000
1641091120879802112,2022-01-02-02:38:40,10.1.1.4,189,-0.020,-0.020,-0.020,0.000,0.000,0.000
1641091121082184192,2022-01-02-02:38:41,10.1.1.4,191,-0.010,-0.010,-0.010,0.000,0.000,0.000
1641091121281990912,2022-01-02-02:38:41,10.1.1.4,188,0.000,0.000,0.000,0.000,0.000,0.000
1641091121479724032,2022-01-02-02:38:41,10.1.1.4,187,-0.010,-0.010,-0.010,0.000,0.000,0.000
1641091121681921024,2022-01-02-02:38:41,10.1.1.4,188,-0.020,-0.020,-0.020,0.000,0.000,0.000
1641091121880347136,2022-01-02-02:38:41,10.1.1.4,186,-0.030,-0.030,-0.030,0.000,0.000,0.000
1641091122080305152,2022-01-02-02:38:42,10.1.1.4,185,-0.040,-0.040,-0.040,0.000,0.000,0.000
1641091122282649088,2022-01-02-02:38:42,10.1.1.4,187,-0.050,-0.050,-0.050,0.000,0.000,0.000
1641091122481036032,2022-01-02-02:38:42,10.1.1.4,185,-0.060,-0.060,-0.060,0.000,0.000,0.000
1641091122682356992,2022-01-02-02:38:42,10.1.1.4,184,-0.070,-0.070,-0.070,0.000,0.000,0.000
1641091122887442176,2022-01-02-02:38:42,10.1.1.4,189,-0.080,-0.080,-0.080,0.000,0.000,0.000
1641091123080514816,2022-01-02-02:38:43,10.1.1.4,182,-0.090,-0.090,-0.090,0.000,0.000,0.000
1641091123282497792,2022-01-02-02:38:43,10.1.1.4,182,-0.100,-0.100,-0.100,0.000,0.000,0.000
1641091123502300928,2022-01-02-02:38:43,10.1.1.4,192,-0.110,-0.110,-0.110,0.000,0.000,0.000
1641091123700584960,2022-01-02-02:38:43,10.1.1.4,190,-0.120,-0.120,-0.120,0.000,0.000,0.000
1641091123901196032,2022-01-02-02:38:43,10.1.1.4,190,-0.130,-0.130,-0.130,0.000,0.000,0.000
1641091124103302912,2022-01-02-02:38:44,10.1.1.4,191,-0.140,-0.140,-0.140,0.000,0.000,0.000
1641091124304056832,2022-01-02-02:38:44,10.1.1.4,191,-0.150,-0.150,-0.150,0.000,0.000,0.000
1641091124500137216,2022-01-02-02:38:44,10.1.1.4,187,-0.160,-0.160,-0.160,0.000,0.000,0.000
1641091124700990976,2022-01-02-02:38:44,10.1.1.4,186,-0.170,-0.170,-0.170,0.000,0.000,0.000
1641091124902292992,2022-01-02-02:38:44,10.1.1.4,184,-0.180,-0.180,-0.180,0.000,0.000,0.000
1641091125099756032,2022-01-02-02:38:45,10.1.1.4,183,-0.190,-0.190,-0.190,0.000,0.000,0.000
1641091125304018944,2022-01-02-02:38:45,10.1.1.4,183,-0.200,-0.200,-0.200,0.000,0.000,0.000
1641091125499686912,2022-01-02-02:38:45,10.1.1.4,180,-0.210,-0.210,-0.210,0.000,0.000,0.000
1641091125703636992,2022-01-02-02:38:45,10.1.1.4,181,-0.220,-0.220,-0.220,0.000,0.000,0.000
1641091125900544000,2022-01-02-02:38:45,10.1.1.4,178,-0.230,-0.230,-0.230,0.000,0.000,0.000
1641091126102168064,2022-01-02-02:38:46,10.1.1.4,179,-0.240,-0.240,-0.240,0.000,0.000,0.000
1641091126302462208,2022-01-02-02:38:46,10.1.1.4,177,-0.250,-0.250,-0.250,0.000,0.000,0.000
1641091126499831040,2022-01-02-02:38:46,10.1.1.4,175,-0.260,-0.260,-0.260,0.000,0.000,0.000
1641091126700335872,2022-01-02-02:38:46,10.1.1.4,175,-0.270,-0.270,-0.270,0.000,0.000,0.000
1641091126899655168,2022-01-02-02:38:46,10.1.1.4,174,-0.280,-0.280,-0.280,0.000,0.000,0.000
1641091127101104896,2022-01-02-02:38:47,10.1.1.4,175,-0.290,-0.290,-0.290,0.000,0.000,0.000
1641091127302604800,2022-01-02-02:38:47,10.1.1.4,176,-0.300,-0.300,-0.300,0.000,0.000,0.000
1641091127499463936,2022-01-02-02:38:47,10.1.1.4,172,-0.310,-0.310,-0.310,0.000,0.000,0.000
1641091127701935104,2022-01-02-02:38:47,10.1.1.4,173,-0.320,-0.320,-0.320,0.000,0.000,0.000
1641091127899243008,2022-01-02-02:38:47,10.1.1.4,169,-0.330,-0.330,-0.330,0.000,0.000,0.000
1641091128119561984,2022-01-02-02:38:48,10.1.1.4,189,-0.340,-0.340,-0.340,0.000,0.000,0.000
1641091128322846976,2022-01-02-02:38:48,10.1.1.4,192,-0.350,-0.350,-0.350,0.000,0.000,0.000
1641091128522105856,2022-01-02-02:38:48,10.1.1.4,190,-0.360,-0.360,-0.360,0.000,0.000,0.000
1641091128719273984,2022-01-02-02:38:48,10.1.1.4,186,-0.370,-0.370,-0.370,0.000,0.000,0.000
1641091128918942976,2022-01-02-02:38:48,10.1.1.4,186,-0.380,-0.380,-0.380,0.000,0.000,0.000
1641091129119884032,2022-01-02-02:38:49,10.1.1.4,186,-0.390,-0.390,-0.390,0.000,0.000,0.000
1641091129319776000,2022-01-02-02:38:49,10.1.1.4,185,-0.400,-0.400,-0.400,0.000,0.000,0.000
1641091129517182976,2022-01-02-02:38:49,10.1.1.4,181,-0.410,-0.410,-0.410,0.000,0.000,0.000
1641091129717550080,2022-01-02-02:38:49,10.1.1.4,180,-0.420,-0.420,-0.420,0.000,0.000,0.000
1641091129918458112,2022-01-02-02:38:49,10.1.1.4,178,-0.430,-0.430,-0.430,0.000,0.000,0.000
1641091130118422016,2022-01-02-02:38:50,10.1.1.4,178,-0.440,-0.440,-0.440,0.000,0.000,0.000
1641091130318916096,2022-01-02-02:38:50,10.1.1.4,177,-0.450,-0.450,-0.450,0.000,0.000,0.000
1641091130517837056,2022-01-02-02:38:50,10.1.1.4,175,-0.460,-0.460,-0.460,0.000,0.000,0.000
1641091130716576000,2022-01-02-02:38:50,10.1.1.4,174,-0.470,-0.470,-0.470,0.000,0.000,0.000
1641091130918205952,2022-01-02-02:38:50,10.1.1.4,175,-0.480,-0.480,-0.480,0.000,0.000,0.000
1641091131118104832,2022-01-02-02:38:51,10.1.1.4,174,-0.490,-0.490,-0.490,0.000,0.000,0.000
1641091131314732032,2022-01-02-02:38:51,10.1.1.4,170,-0.480,-0.480,-0.480,0.000,0.000,0.000
1641091131518225920,2022-01-02-02:38:51,10.1.1.4,172,-0.470,-0.470,-0.470,0.000,0.000,0.000
1641091131717583872,2022-01-02-02:38:51,10.1.1.4,172,-0.460,-0.460,-0.460,0.000,0.000,0.000
1641091131916855040,2022-01-02-02:38:51,10.1.1.4,171,-0.450,-0.450,-0.450,0.000,0.000,0.000
1641091132115532032,2022-01-02-02:38:52,10.1.1.4,169,-0.440,-0.440,-0.440,0.000,0.000,0.000
1641091132317281024,2022-01-02-02:38:52,10.1.1.4,170,-0.430,-0.430,-0.430,0.000,0.000,0.000
1641091132517664000,2022-01-02-02:38:52,10.1.1.4,170,-0.420,-0.420,-0.420,0.000,0.000,0.000
1641091132714014976,2022-01-02-02:38:52,10.1.1.4,165,-0.410,-0.410,-0.410,0.000,0.000,0.000
1641091132935988992,2022-01-02-02:38:52,10.1.1.4,187,-0.400,-0.400,-0.400,0.000,0.000,0.000
1641091133135642880,2022-01-02-02:38:53,10.1.1.4,185,-0.390,-0.390,-0.390,0.000,0.000,0.000
1641091133335395072,2022-01-02-02:38:53,10.1.1.4,184,-0.380,-0.380,-0.380,0.000,0.000,0.000
1641091133533353216,2022-01-02-02:38:53,10.1.1.4,178,-0.370,-0.370,-0.370,0.000,0.000,0.000
1641091133732448000,2022-01-02-02:38:53,10.1.1.4,174,-0.360,-0.360,-0.360,0.000,0.000,0.000
1641091133935213056,2022-01-02-02:38:53,10.1.1.4,176,-0.350,-0.350,-0.350,0.000,0.000,0.000
1641091134133702144,2022-01-02-02:38:54,10.1.1.4,174,-0.340,-0.340,-0.340,0.000,0.000,0.000
1641091134333602048,2022-01-02-02:38:54,10.1.1.4,173,-0.330,-0.330,-0.330,0.000,0.000,0.000
1641091134532520960,2022-01-02-02:38:54,10.1.1.4,170,-0.320,-0.320,-0.320,0.000,0.000,0.000
1641091134732449024,2022-01-02-02:38:54,10.1.1.4,169,-0.310,-0.310,-0.310,0.000,0.000,0.000
1641091134935164928,2022-01-02-02:38:54,10.1.1.4,171,-0.300,-0.300,-0.300,0.000,0.000,0.000
1641091135132226816,2022-01-02-02:38:55,10.1.1.4,168,-0.290,-0.290,-0.290,0.000,0.000,0.000
1641091135330786816,2022-01-02-02:38:55,10.1.1.4,162,-0.280,-0.280,-0.280,0.000,0.000,0.000
1641091135552835840,2022-01-02-02:38:55,10.1.1.4,185,-0.270,-0.270,-0.270,0.000,0.000,0.000
1641091135750611968,2022-01-02-02:38:55,10.1.1.4,182,-0.260,-0.260,-0.260,0.000,0.000,0.000
1641091135951046912,2022-01-02-02:38:55,10.1.1.4,179,-0.250,-0.250,-0.250,0.000,0.000,0.000
1641091136150686976,2022-01-02-02:38:56,10.1.1.4,178,-0.240,-0.240,-0.240,0.000,0.000,0.000
1641091136350336000,2022-01-02-02:38:56,10.1.1.4,176,-0.230,-0.230,-0.230,0.000,0.000,0.000
1641091136548996096,2022-01-02-02:38:56,10.1.1.4,174,-0.220,-0.220,-0.220,0.000,0.000,0.000
1641091136748913920,2022-01-02-02:38:56,10.1.1.4,173,-0.210,-0.210,-0.210,0.000,0.000,0.000
1641091136947542784,2022-01-02-02:38:56,10.1.1.4,171,-0.200,-0.200,-0.200,0.000,0.000,0.000
1641091137147494144,2022-01-02-02:38:57,10.1.1.4,171,-0.190,-0.190,-0.190,0.000,0.000,0.000
1641091137347001088,2022-01-02-02:38:57,10.1.1.4,168,-0.180,-0.180,-0.180,0.000,0.000,0.000
1641091137548553984,2022-01-02-02:38:57,10.1.1.4,169,-0.170,-0.170,-0.170,0.000,0.000,0.000
1641091137749336832,2022-01-02-02:38:57,10.1.1.4,169,-0.160,-0.160,-0.160,0.000,0.000,0.000
1641091137946724864,2022-01-02-02:38:57,10.1.1.4,166,-0.150,-0.150,-0.150,0.000,0.000,0.000
1641091138147324160,2022-01-02-02:38:58,10.1.1.4,166,-0.140,-0.140,-0.140,0.000,0.000,0.000
1641091138349256960,2022-01-02-02:38:58,10.1.1.4,167,-0.130,-0.130,-0.130,0.000,0.000,0.000
1641091138545644032,2022-01-02-02:38:58,10.1.1.4,163,-0.120,-0.120,-0.120,0.000,0.000,0.000
1641091138746682880,2022-01-02-02:38:58,10.1.1.4,163,-0.110,-0.110,-0.110,0.000,0.000,0.000
1641091138947407104,2022-01-02-02:38:58,10.1.1.4,160,-0.100,-0.100,-0.100,0.000,0.000,0.000
1641091139167706112,2022-01-02-02:38:59,10.1.1.4,179,-0.090,-0.090,-0.090,0.000,0.000,0.000
1641091139364630016,2022-01-02-02:38:59,10.1.1.4,176,-0.080,-0.080,-0.080,0.000,0.000,0.000
1641091139567393024,2022-01-02-02:38:59,10.1.1.4,178,-0.070,-0.070,-0.070,0.000,0.000,0.000
1641091139766469888,2022-01-02-02:38:59,10.1.1.4,176,-0.060,-0.060,-0.060,0.000,0.000,0.000
1641091139963793920,2022-01-02-02:38:59,10.1.1.4,172,-0.050,-0.050,-0.050,0.000,0.000,0.000
1641091140165637120,2022-01-02-02:39:00,10.1.1.4,173,-0.040,-0.040,-0.040,0.000,0.000,0.000
1641091140365696000,2022-01-02-02:39:00,10.1.1.4,172,-0.030,-0.030,-0.030,0.000,0.000,0.000
1641091140563987968,2022-01-02-02:39:00,10.1.1.4,169,-0.020,-0.020,-0.020,0.000,0.000,0.000
1641091140764734976,2022-01-02-02:39:00,10.1.1.4,170,-0.010,-0.010,-0.010,0.000,0.000,0.000
1641091140964123136,2022-01-02-02:39:00,10.1.1.4,169,0.000,0.000,0.000,0.000,0.000,0.000
1641091141163778048,2022-01-02-02:39:01,10.1.1.4,168,-0.010,-0.010,-0.010,0.000,0.000,0.000
1641091141363373056,2022-01-02-02:39:01,10.1.1.4,167,-0.020,-0.020,-0.020,0.000,0.000,0.000
1641091141563226112,2022-01-02-02:39:01,10.1.1.4,166,-0.030,-0.030,-0.030,0.000,0.000,0.000
1641091141762866944,2022-01-02-02:39:01,10.1.1.4,165,-0.040,-0.040,-0.040,0.000,0.000,0.000
1641091141960689152,2022-01-02-02:39:01,10.1.1.4,162,-0.050,-0.050,-0.050,0.000,0.000,0.000
1641091142162849024,2022-01-02-02:39:02,10.1.1.4,162,-0.060,-0.060,-0.060,0.000,0.000,0.000
1641091142360638976,2022-01-02-02:39:02,10.1.1.4,160,-0.070,-0.070,-0.070,0.000,0.000,0.000
1641091142559330816,2022-01-02-02:39:02,10.1.1.4,156,-0.080,-0.080,-0.080,0.000,0.000,0.000
1641091142759254016,2022-01-02-02:39:02,10.1.1.4,155,-0.090,-0.090,-0.090,0.000,0.000,0.000
1641091142961824000,2022-01-02-02:39:02,10.1.1.4,157,-0.100,-0.100,-0.100,0.000,0.000,0.000
1641091143158160896,2022-01-02-02:39:03,10.1.1.4,152,-0.110,-0.110,-0.110,0.000,0.000,0.000
1641091143358750208,2022-01-02-02:39:03,10.1.1.4,152,-0.120,-0.120,-0.120,0.000,0.000,0.000
1641091143578500096,2022-01-02-02:39:03,10.1.1.4,171,-0.130,-0.130,-0.130,0.000,0.000,0.000
1641091143778295040,2022-01-02-02:39:03,10.1.1.4,170,-0.140,-0.140,-0.140,0.000,0.000,0.000
1641091143978877184,2022-01-02-02:39:03,10.1.1.4,170,-0.150,-0.150,-0.150,0.000,0.000,0.000
1641091144179107840,2022-01-02-02:39:04,10.1.1.4,168,-0.160,-0.160,-0.160,0.000,0.000,0.000
1641091144378885888,2022-01-02-02:39:04,10.1.1.4,168,-0.170,-0.170,-0.170,0.000,0.000,0.000
1641091144576792832,2022-01-02-02:39:04,10.1.1.4,165,-0.180,-0.180,-0.180,0.000,0.000,0.000
1641091144783742976,2022-01-02-02:39:04,10.1.1.4,171,-0.190,-0.190,-0.190,0.000,0.000,0.000
1641091144976150016,2022-01-02-02:39:04,10.1.1.4,160,-0.200,-0.200,-0.200,0.000,0.000,0.000
1641091145177989120,2022-01-02-02:39:05,10.1.1.4,162,-0.210,-0.210,-0.210,0.000,0.000,0.000
1641091145379688960,2022-01-02-02:39:05,10.1.1.4,162,-0.220,-0.220,-0.220,0.000,0.000,0.000
1641091145579418880,2022-01-02-02:39:05,10.1.1.4,161,-0.230,-0.230,-0.230,0.000,0.000,0.000
1641091145782352896,2022-01-02-02:39:05,10.1.1.4,162,-0.240,-0.240,-0.240,0.000,0.000,0.000
1641091145983201024,2022-01-02-02:39:05,10.1.1.4,162,-0.250,-0.250,-0.250,0.000,0.000,0.000
1641091146183064832,2022-01-02-02:39:06,10.1.1.4,159,-0.260,-0.260,-0.260,0.000,0.000,0.000
1641091146382597888,2022-01-02-02:39:06,10.1.1.4,156,-0.270,-0.270,-0.270,0.000,0.000,0.000
1641091146584604928,2022-01-02-02:39:06,10.1.1.4,158,-0.280,-0.280,-0.280,0.000,0.000,0.000
1641091146786646016,2022-01-02-02:39:06,10.1.1.4,160,-0.290,-0.290,-0.290,0.000,0.000,0.000
1641091146986182912,2022-01-02-02:39:06,10.1.1.4,159,-0.300,-0.300,-0.300,0.000,0.000,0.000
1641091147206322944,2022-01-02-02:39:07,10.1.1.4,178,-0.310,-0.310,-0.310,0.000,0.000,0.000
1641091147408015104,2022-01-02-02:39:07,10.1.1.4,179,-0.320,-0.320,-0.320,0.000,0.000,0.000
1641091147608097024,2022-01-02-02:39:07,10.1.1.4,178,-0.330,-0.330,-0.330,0.000,0.000,0.000
1641091147810749952,2022-01-02-02:39:07,10.1.1.4,179,-0.340,-0.340,-0.340,0.000,0.000,0.000
1641091148008009984,2022-01-02-02:39:08,10.1.1.4,175,-0.350,-0.350,-0.350,0.000,0.000,0.000
1641091148213957120,2022-01-02-02:39:08,10.1.1.4,177,-0.360,-0.360,-0.360,0.000,0.000,0.000
1641091148414273024,2022-01-02-02:39:08,10.1.1.4,177,-0.370,-0.370,-0.370,0.000,0.000,0.000
1641091148610651904,2022-01-02-02:39:08,10.1.1.4,172,-0.380,-0.380,-0.380,0.000,0.000,0.000
1641091148815238912,2022-01-02-02:39:08,10.1.1.4,176,-0.390,-0.390,-0.390,0.000,0.000,0.000
1641091149011383040,2022-01-02-02:39:09,10.1.1.4,172,-0.400,-0.400,-0.400,0.000,0.000,0.000
1641091149211069184,2022-01-02-02:39:09,10.1.1.4,170,-0.410,-0.410,-0.410,0.000,0.000,0.000
1641091149411385088,2022-01-02-02:39:09,10.1.1.4,169,-0.420,-0.420,-0.420,0.000,0.000,0.000
1641091149612592896,2022-01-02-02:39:09,10.1.1.4,170,-0.430,-0.430,-0.430,0.000,0.000,0.000
1641091149816337152,2022-01-02-02:39:09,10.1.1.4,173,-0.440,-0.440,-0.440,0.000,0.000,0.000
1641091150015223040,2022-01-02-02:39:10,10.1.1.4,172,-0.450,-0.450,-0.450,0.000,0.000,0.000
1641091150215106048,2022-01-02-02:39:10,10.1.1.4,171,-0.460,-0.460,-0.460,0.000,0.000,0.000
1641091150414871040,2022-01-02-02:39:10,10.1.1.4,170,-0.470,-0.470,-0.470,0.000,0.000,0.000
1641091150613928960,2022-01-02-02:39:10,10.1.1.4,168,-0.480,-0.480,-0.480,0.000,0.000,0.000
1641091150815025152,2022-01-02-02:39:10,10.1.1.4,168,-0.490,-0.490,-0.490,0.000,0.000,0.000
1641091151020185088,2022-01-02-02:39:11,10.1.1.4,173,-0.480,-0.480,-0.480,0.000,0.000,0.000
1641091151216326912,2022-01-02-02:39:11,10.1.1.4,168,-0.470,-0.470,-0.470,0.000,0.000,0.000
1641091151437444864,2022-01-02-02:39:11,10.1.1.4,188,-0.460,-0.460,-0.460,0.000,0.000,0.000
1641091151636542208,2022-01-02-02:39:11,10.1.1.4,185,-0.450,-0.450,-0.450,0.000,0.000,0.000
1641091151838284032,2022-01-02-02:39:11,10.1.1.4,185,-0.440,-0.440,-0.440,0.000,0.000,0.000
1641091152036691968,2022-01-02-02:39:12,10.1.1.4,183,-0.430,-0.430,-0.430,0.000,0.000,0.000
1641091152238418944,2022-01-02-02:39:12,10.1.1.4,181,-0.420,-0.420,-0.420,0.000,0.000,0.000
1641091152435648000,2022-01-02-02:39:12,10.1.1.4,179,-0.410,-0.410,-0.410,0.000,0.000,0.000
1641091152636471040,2022-01-02-02:39:12,10.1.1.4,177,-0.400,-0.400,-0.400,0.000,0.000,0.000
1641091152837920000,2022-01-02-02:39:12,10.1.1.4,178,-0.390,-0.390,-0.390,0.000,0.000,0.000
1641091153040622080,2022-01-02-02:39:13,10.1.1.4,178,-0.380,-0.380,-0.380,0.000,0.000,0.000
1641091153237460992,2022-01-02-02:39:13,10.1.1.4,174,-0.370,-0.370,-0.370,0.000,0.000,0.000
1641091153438398976,2022-01-02-02:39:13,10.1.1.4,173,-0.360,-0.360,-0.360,0.000,0.000,0.000
1641091153639678976,2022-01-02-02:39:13,10.1.1.4,175,-0.350,-0.350,-0.350,0.000,0.000,0.000
1641091153839185920,2022-01-02-02:39:13,10.1.1.4,173,-0.340,-0.340,-0.340,0.000,0.000,0.000
1641091154043433984,2022-01-02-02:39:14,10.1.1.4,173,-0.330,-0.330,-0.330,0.000,0.000,0.000
1641091154259098112,2022-01-02-02:39:14,10.1.1.4,191,-0.320,-0.320,-0.320,0.000,0.000,0.000
1641091154458791936,2022-01-02-02:39:14,10.1.1.4,190,-0.310,-0.310,-0.310,0.000,0.000,0.000
1641091154659363072,2022-01-02-02:39:14,10.1.1.4,187,-0.300,-0.300,-0.300,0.000,0.000,0.000
1641091154861736960,2022-01-02-02:39:14,10.1.1.4,191,-0.290,-0.290,-0.290,0.000,0.000,0.000
1641091155057496064,2022-01-02-02:39:15,10.1.1.4,185,-0.280,-0.280,-0.280,0.000,0.000,0.000
1641091155258259968,2022-01-02-02:39:15,10.1.1.4,184,-0.270,-0.270,-0.270,0.000,0.000,0.000
1641091155459974144,2022-01-02-02:39:15,10.1.1.4,185,-0.260,-0.260,-0.260,0.000,0.000,0.000
1641091155657638912,2022-01-02-02:39:15,10.1.1.4,182,-0.250,-0.250,-0.250,0.000,0.000,0.000
1641091155857400064,2022-01-02-02:39:15,10.1.1.4,181,-0.240,-0.240,-0.240,0.000,0.000,0.000
1641091156058610944,2022-01-02-02:39:16,10.1.1.4,179,-0.230,-0.230,-0.230,0.000,0.000,0.000
1641091156258377984,2022-01-02-02:39:16,10.1.1.4,178,-0.220,-0.220,-0.220,0.000,0.000,0.000
1641091156460071168,2022-01-02-02:39:16,10.1.1.4,179,-0.210,-0.210,-0.210,0.000,0.000,0.000
1641091156659188992,2022-01-02-02:39:16,10.1.1.4,176,-0.200,-0.200,-0.200,0.000,0.000,0.000
1641091156861551104,2022-01-02-02:39:16,10.1.1.4,177,-0.190,-0.190,-0.190,0.000,0.000,0.000
1641091157057327872,2022-01-02-02:39:17,10.1.1.4,172,-0.180,-0.180,-0.180,0.000,0.000,0.000
1641091157260716032,2022-01-02-02:39:17,10.1.1.4,173,-0.170,-0.170,-0.170,0.000,0.000,0.000
1641091157478210816,2022-01-02-02:39:17,10.1.1.4,190,-0.160,-0.160,-0.160,0.000,0.000,0.000
1641091157679136000,2022-01-02-02:39:17,10.1.1.4,190,-0.150,-0.150,-0.150,0.000,0.000,0.000
1641091157878612992,2022-01-02-02:39:17,10.1.1.4,187,-0.140,-0.140,-0.140,0.000,0.000,0.000
1641091158076898048,2022-01-02-02:39:18,10.1.1.4,185,-0.130,-0.130,-0.130,0.000,0.000,0.000
1641091158279653120,2022-01-02-02:39:18,10.1.1.4,187,-0.120,-0.120,-0.120,0.000,0.000,0.000
1641091158476764928,2022-01-02-02:39:18,10.1.1.4,183,-0.110,-0.110,-0.110,0.000,0.000,0.000
1641091158679725824,2022-01-02-02:39:18,10.1.1.4,185,-0.100,-0.100,-0.100,0.000,0.000,0.000
1641091158878430976,2022-01-02-02:39:18,10.1.1.4,182,-0.090,-0.090,-0.090,0.000,0.000,0.000
1641091159076247808,2022-01-02-02:39:19,10.1.1.4,175,-0.080,-0.080,-0.080,0.000,0.000,0.000
1641091159276599040,2022-01-02-02:39:19,10.1.1.4,175,-0.070,-0.070,-0.070,0.000,0.000,0.000
1641091159476325120,2022-01-02-02:39:19,10.1.1.4,173,-0.060,-0.060,-0.060,0.000,0.000,0.000
1641091159678692096,2022-01-02-02:39:19,10.1.1.4,174,-0.050,-0.050,-0.050,0.000,0.000,0.000
1641091159875490048,2022-01-02-02:39:19,10.1.1.4,170,-0.040,-0.040,-0.040,0.000,0.000,0.000
1641091160076062976,2022-01-02-02:39:20,10.1.1.4,169,-0.030,-0.030,-0.030,0.000,0.000,0.000
1641091160276642048,2022-01-02-02:39:20,10.1.1.4,169,-0.020,-0.020,-0.020,0.000,0.000,0.000
1641091160475379968,2022-01-02-02:39:20,10.1.1.4,167,-0.010,-0.010,-0.010,0.000,0.000,0.000
1641091160695409152,2022-01-02-02:39:20,10.1.1.4,186,0.000,0.000,0.000,0.000,0.000,0.000
1641091160896225024,2022-01-02-02:39:20,10.1.1.4,186,-0.010,-0.010,-0.010,0.000,0.000,0.000
1641091161098701056,2022-01-02-02:39:21,10.1.1.4,188,-0.020,-0.020,-0.020,0.000,0.000,0.000
1641091161296550912,2022-01-02-02:39:21,10.1.1.4,186,-0.030,-0.030,-0.030,0.000,0.000,0.000
1641091161494960896,2022-01-02-02:39:21,10.1.1.4,183,-0.040,-0.040,-0.040,0.000,0.000,0.000
1641091161696395008,2022-01-02-02:39:21,10.1.1.4,184,-0.050,-0.050,-0.050,0.000,0.000,0.000
1641091161895186944,2022-01-02-02:39:21,10.1.1.4,181,-0.060,-0.060,-0.060,0.000,0.000,0.000
1641091162102921984,2022-01-02-02:39:22,10.1.1.4,182,-0.070,-0.070,-0.070,0.000,0.000,0.000
1641091162296107008,2022-01-02-02:39:22,10.1.1.4,173,-0.080,-0.080,-0.080,0.000,0.000,0.000
1641091162495034880,2022-01-02-02:39:22,10.1.1.4,171,-0.090,-0.090,-0.090,0.000,0.000,0.000
1641091162694994944,2022-01-02-02:39:22,10.1.1.4,170,-0.100,-0.100,-0.100,0.000,0.000,0.000
1641091162894017024,2022-01-02-02:39:22,10.1.1.4,168,-0.110,-0.110,-0.110,0.000,0.000,0.000
1641091163094161152,2022-01-02-02:39:23,10.1.1.4,167,-0.120,-0.120,-0.120,0.000,0.000,0.000
1641091163314694912,2022-01-02-02:39:23,10.1.1.4,186,-0.130,-0.130,-0.130,0.000,0.000,0.000
1641091163512093184,2022-01-02-02:39:23,10.1.1.4,183,-0.140,-0.140,-0.140,0.000,0.000,0.000
1641091163714550016,2022-01-02-02:39:23,10.1.1.4,184,-0.150,-0.150,-0.150,0.000,0.000,0.000
1641091163915996928,2022-01-02-02:39:23,10.1.1.4,185,-0.160,-0.160,-0.160,0.000,0.000,0.000
1641091164111546880,2022-01-02-02:39:24,10.1.1.4,180,-0.170,-0.170,-0.170,0.000,0.000,0.000
1641091164311734016,2022-01-02-02:39:24,10.1.1.4,179,-0.180,-0.180,-0.180,0.000,0.000,0.000
1641091164511293952,2022-01-02-02:39:24,10.1.1.4,178,-0.190,-0.190,-0.190,0.000,0.000,0.000
1641091164713682944,2022-01-02-02:39:24,10.1.1.4,179,-0.200,-0.200,-0.200,0.000,0.000,0.000
1641091164913163008,2022-01-02-02:39:24,10.1.1.4,178,-0.210,-0.210,-0.210,0.000,0.000,0.000
1641091165114814976,2022-01-02-02:39:25,10.1.1.4,179,-0.220,-0.220,-0.220,0.000,0.000,0.000
1641091165315425024,2022-01-02-02:39:25,10.1.1.4,174,-0.230,-0.230,-0.230,0.000,0.000,0.000
1641091165510749952,2022-01-02-02:39:25,10.1.1.4,170,-0.240,-0.240,-0.240,0.000,0.000,0.000
1641091165710400000,2022-01-02-02:39:25,10.1.1.4,169,-0.250,-0.250,-0.250,0.000,0.000,0.000
1641091165911296000,2022-01-02-02:39:25,10.1.1.4,169,-0.260,-0.260,-0.260,0.000,0.000,0.000
1641091166110362880,2022-01-02-02:39:26,10.1.1.4,167,-0.270,-0.270,-0.270,0.000,0.000,0.000
1641091166310759936,2022-01-02-02:39:26,10.1.1.4,167,-0.280,-0.280,-0.280,0.000,0.000,0.000
1641091166510104832,2022-01-02-02:39:26,10.1.1.4,166,-0.290,-0.290,-0.290,0.000,0.000,0.000
1641091166710989056,2022-01-02-02:39:26,10.1.1.4,166,-0.300,-0.300,-0.300,0.000,0.000,0.000
1641091166910695936,2022-01-02-02:39:26,10.1.1.4,165,-0.310,-0.310,-0.310,0.000,0.000,0.000
1641091167110585088,2022-01-02-02:39:27,10.1.1.4,164,-0.320,-0.320,-0.320,0.000,0.000,0.000
1641091167320691200,2022-01-02-02:39:27,10.1.1.4,173,-0.330,-0.330,-0.330,0.000,0.000,0.000
1641091167511439104,2022-01-02-02:39:27,10.1.1.4,164,-0.340,-0.340,-0.340,0.000,0.000,0.000
1641091167727968000,2022-01-02-02:39:27,10.1.1.4,179,-0.350,-0.350,-0.350,0.000,0.000,0.000
1641091167928098816,2022-01-02-02:39:27,10.1.1.4,179,-0.360,-0.360,-0.360,0.000,0.000,0.000
1641091168126758144,2022-01-02-02:39:28,10.1.1.4,177,-0.370,-0.370,-0.370,0.000,0.000,0.000
1641091168328138240,2022-01-02-02:39:28,10.1.1.4,177,-0.380,-0.380,-0.380,0.000,0.000,0.000
1641091168526935040,2022-01-02-02:39:28,10.1.1.4,175,-0.390,-0.390,-0.390,0.000,0.000,0.000
1641091168727452928,2022-01-02-02:39:28,10.1.1.4,175,-0.400,-0.400,-0.400,0.000,0.000,0.000
1641091168925338880,2022-01-02-02:39:28,10.1.1.4,172,-0.410,-0.410,-0.410,0.000,0.000,0.000
1641091169127566080,2022-01-02-02:39:29,10.1.1.4,174,-0.420,-0.420,-0.420,0.000,0.000,0.000
1641091169327299072,2022-01-02-02:39:29,10.1.1.4,172,-0.430,-0.430,-0.430,0.000,0.000,0.000
1641091169526019072,2022-01-02-02:39:29,10.1.1.4,169,-0.440,-0.440,-0.440,0.000,0.000,0.000
1641091169725696000,2022-01-02-02:39:29,10.1.1.4,170,-0.450,-0.450,-0.450,0.000,0.000,0.000
1641091169926258944,2022-01-02-02:39:29,10.1.1.4,170,-0.460,-0.460,-0.460,0.000,0.000,0.000
1641091170123702016,2022-01-02-02:39:30,10.1.1.4,166,-0.470,-0.470,-0.470,0.000,0.000,0.000
1641091170325453056,2022-01-02-02:39:30,10.1.1.4,166,-0.480,-0.480,-0.480,0.000,0.000,0.000
1641091170523462144,2022-01-02-02:39:30,10.1.1.4,163,-0.490,-0.490,-0.490,0.000,0.000,0.000
1641091170725664000,2022-01-02-02:39:30,10.1.1.4,162,-0.480,-0.480,-0.480,0.000,0.000,0.000
1641091170923193088,2022-01-02-02:39:30,10.1.1.4,160,-0.470,-0.470,-0.470,0.000,0.000,0.000
1641091171122471936,2022-01-02-02:39:31,10.1.1.4,159,-0.460,-0.460,-0.460,0.000,0.000,0.000
1641091171324207104,2022-01-02-02:39:31,10.1.1.4,160,-0.450,-0.450,-0.450,0.000,0.000,0.000
1641091171523424000,2022-01-02-02:39:31,10.1.1.4,158,-0.440,-0.440,-0.440,0.000,0.000,0.000
1641091171725132032,2022-01-02-02:39:31,10.1.1.4,159,-0.430,-0.430,-0.430,0.000,0.000,0.000
1641091171921889024,2022-01-02-02:39:31,10.1.1.4,154,-0.420,-0.420,-0.420,0.000,0.000,0.000
1641091172143160064,2022-01-02-02:39:32,10.1.1.4,174,-0.410,-0.410,-0.410,0.000,0.000,0.000
1641091172342055936,2022-01-02-02:39:32,10.1.1.4,169,-0.400,-0.400,-0.400,0.000,0.000,0.000
1641091172542795008,2022-01-02-02:39:32,10.1.1.4,171,-0.390,-0.390,-0.390,0.000,0.000,0.000
1641091172742801920,2022-01-02-02:39:32,10.1.1.4,168,-0.380,-0.380,-0.380,0.000,0.000,0.000
1641091172940546048,2022-01-02-02:39:32,10.1.1.4,167,-0.370,-0.370,-0.370,0.000,0.000,0.000
1641091173141753856,2022-01-02-02:39:33,10.1.1.4,167,-0.360,-0.360,-0.360,0.000,0.000,0.000
1641091173340882176,2022-01-02-02:39:33,10.1.1.4,162,-0.350,-0.350,-0.350,0.000,0.000,0.000
1641091173539866880,2022-01-02-02:39:33,10.1.1.4,163,-0.340,-0.340,-0.340,0.000,0.000,0.000
1641091173740467968,2022-01-02-02:39:33,10.1.1.4,163,-0.330,-0.330,-0.330,0.000,0.000,0.000
1641091173942560000,2022-01-02-02:39:33,10.1.1.4,163,-0.320,-0.320,-0.320,0.000,0.000,0.000
1641091174162337024,2022-01-02-02:39:34,10.1.1.4,170,-0.310,-0.310,-0.310,0.000,0.000,0.000
1641091174362603776,2022-01-02-02:39:34,10.1.1.4,166,-0.300,-0.300,-0.300,0.000,0.000,0.000
1641091174560283904,2022-01-02-02:39:34,10.1.1.4,158,-0.290,-0.290,-0.290,0.000,0.000,0.000
1641091174760723200,2022-01-02-02:39:34,10.1.1.4,157,-0.280,-0.280,-0.280,0.000,0.000,0.000
1641091174956679168,2022-01-02-02:39:34,10.1.1.4,152,-0.270,-0.270,-0.270,0.000,0.000,0.000
1641091175159087872,2022-01-02-02:39:35,10.1.1.4,150,-0.260,-0.260,-0.260,0.000,0.000,0.000
1641091175355572992,2022-01-02-02:39:35,10.1.1.4,148,-0.250,-0.250,-0.250,0.000,0.000,0.000
1641091175575548928,2022-01-02-02:39:35,10.1.1.4,167,-0.240,-0.240,-0.240,0.000,0.000,0.000
1641091175777510912,2022-01-02-02:39:35,10.1.1.4,168,-0.230,-0.230,-0.230,0.000,0.000,0.000
1641091175975825152,2022-01-02-02:39:35,10.1.1.4,165,-0.220,-0.220,-0.220,0.000,0.000,0.000
1641091176176357888,2022-01-02-02:39:36,10.1.1.4,165,-0.210,-0.210,-0.210,0.000,0.000,0.000
1641091176376576000,2022-01-02-02:39:36,10.1.1.4,164,-0.200,-0.200,-0.200,0.000,0.000,0.000
1641091176576004096,2022-01-02-02:39:36,10.1.1.4,158,-0.190,-0.190,-0.190,0.000,0.000,0.000
1641091176776048896,2022-01-02-02:39:36,10.1.1.4,157,-0.180,-0.180,-0.180,0.000,0.000,0.000
1641091176975367936,2022-01-02-02:39:36,10.1.1.4,156,-0.170,-0.170,-0.170,0.000,0.000,0.000
1641091177177371136,2022-01-02-02:39:37,10.1.1.4,155,-0.160,-0.160,-0.160,0.000,0.000,0.000
1641091177377854976,2022-01-02-02:39:37,10.1.1.4,155,-0.150,-0.150,-0.150,0.000,0.000,0.000
1641091177578722048,2022-01-02-02:39:37,10.1.1.4,155,-0.140,-0.140,-0.140,0.000,0.000,0.000
1641091177779892992,2022-01-02-02:39:37,10.1.1.4,155,-0.130,-0.130,-0.130,0.000,0.000,0.000
1641091177980232960,2022-01-02-02:39:37,10.1.1.4,154,-0.120,-0.120,-0.120,0.000,0.000,0.000
1641091178182501120,2022-01-02-02:39:38,10.1.1.4,155,-0.110,-0.110,-0.110,0.000,0.000,0.000
1641091178404082944,2022-01-02-02:39:38,10.1.1.4,175,-0.100,-0.100,-0.100,0.000,0.000,0.000
1641091178603115008,2022-01-02-02:39:38,10.1.1.4,173,-0.090,-0.090,-0.090,0.000,0.000,0.000
1641091178804858880,2022-01-02-02:39:38,10.1.1.4,173,-0.080,-0.080,-0.080,0.000,0.000,0.000
1641091179004299008,2022-01-02-02:39:39,10.1.1.4,173,-0.070,-0.070,-0.070,0.000,0.000,0.000
1641091179205733120,2022-01-02-02:39:39,10.1.1.4,173,-0.060,-0.060,-0.060,0.000,0.000,0.000
1641091179406199040,2022-01-02-02:39:39,10.1.1.4,173,-0.050,-0.050,-0.050,0.000,0.000,0.000
1641091179606995968,2022-01-02-02:39:39,10.1.1.4,172,-0.040,-0.040,-0.040,0.000,0.000,0.000
1641091179810041856,2022-01-02-02:39:39,10.1.1.4,175,-0.030,-0.030,-0.030,0.000,0.000,0.000
1641091180008769024,2022-01-02-02:39:40,10.1.1.4,172,-0.020,-0.020,-0.020,0.000,0.000,0.000
1641091180212173056,2022-01-02-02:39:40,10.1.1.4,175,-0.010,-0.010,-0.010,0.000,0.000,0.000
1641091180415523072,2022-01-02-02:39:40,10.1.1.4,177,0.000,0.000,0.000,0.000,0.000,0.000
1641091180613403136,2022-01-02-02:39:40,10.1.1.4,175,-0.010,-0.010,-0.010,0.000,0.000,0.000
1641091180815768064,2022-01-02-02:39:40,10.1.1.4,176,-0.020,-0.020,-0.020,0.000,0.000,0.000
1641091181009998080,2022-01-02-02:39:41,10.1.1.4,170,-0.030,-0.030,-0.030,0.000,0.000,0.000
1641091181217838080,2022-01-02-02:39:41,10.1.1.4,177,-0.040,-0.040,-0.040,0.000,0.000,0.000
1641091181411693056,2022-01-02-02:39:41,10.1.1.4,169,-0.050,-0.050,-0.050,0.000,0.000,0.000
1641091181612013056,2022-01-02-02:39:41,10.1.1.4,169,-0.060,-0.060,-0.060,0.000,0.000,0.000
1641091181814595072,2022-01-02-02:39:41,10.1.1.4,170,-0.070,-0.070,-0.070,0.000,0.000,0.000
1641091182013832960,2022-01-02-02:39:42,10.1.1.4,169,-0.080,-0.080,-0.080,0.000,0.000,0.000
1641091182216710144,2022-01-02-02:39:42,10.1.1.4,171,-0.090,-0.090,-0.090,0.000,0.000,0.000
1641091182417760000,2022-01-02-02:39:42,10.1.1.4,171,-0.100,-0.100,-0.100,0.000,0.000,0.000
1641091182616712192,2022-01-02-02:39:42,10.1.1.4,169,-0.110,-0.110,-0.110,0.000,0.000,0.000
1641091182815124992,2022-01-02-02:39:42,10.1.1.4,167,-0.120,-0.120,-0.120,0.000,0.000,0.000
1641091183017029120,2022-01-02-02:39:43,10.1.1.4,168,-0.130,-0.130,-0.130,0.000,0.000,0.000
1641091183217449984,2022-01-02-02:39:43,10.1.1.4,165,-0.140,-0.140,-0.140,0.000,0.000,0.000
1641091183437824000,2022-01-02-02:39:43,10.1.1.4,187,-0.150,-0.150,-0.150,0.000,0.000,0.000
1641091183638258944,2022-01-02-02:39:43,10.1.1.4,186,-0.160,-0.160,-0.160,0.000,0.000,0.000
1641091183836567040,2022-01-02-02:39:43,10.1.1.4,183,-0.170,-0.170,-0.170,0.000,0.000,0.000
1641091184039417856,2022-01-02-02:39:44,10.1.1.4,185,-0.180,-0.180,-0.180,0.000,0.000,0.000
1641091184240314112,2022-01-02-02:39:44,10.1.1.4,183,-0.190,-0.190,-0.190,0.000,0.000,0.000
1641091184438054144,2022-01-02-02:39:44,10.1.1.4,180,-0.200,-0.200,-0.200,0.000,0.000,0.000
1641091184641047040,2022-01-02-02:39:44,10.1.1.4,180,-0.210,-0.210,-0.210,0.000,0.000,0.000
1641091184837155072,2022-01-02-02:39:44,10.1.1.4,177,-0.220,-0.220,-0.220,0.000,0.000,0.000
1641091185037996032,2022-01-02-02:39:45,10.1.1.4,176,-0.230,-0.230,-0.230,0.000,0.000,0.000
1641091185239037952,2022-01-02-02:39:45,10.1.1.4,177,-0.240,-0.240,-0.240,0.000,0.000,0.000
1641091185442810112,2022-01-02-02:39:45,10.1.1.4,179,-0.250,-0.250,-0.250,0.000,0.000,0.000
1641091185640357888,2022-01-02-02:39:45,10.1.1.4,177,-0.260,-0.260,-0.260,0.000,0.000,0.000
1641091185841420800,2022-01-02-02:39:45,10.1.1.4,177,-0.270,-0.270,-0.270,0.000,0.000,0.000
1641091186041430016,2022-01-02-02:39:46,10.1.1.4,176,-0.280,-0.280,-0.280,0.000,0.000,0.000
1641091186240112896,2022-01-02-02:39:46,10.1.1.4,174,-0.290,-0.290,-0.290,0.000,0.000,0.000
1641091186439672832,2022-01-02-02:39:46,10.1.1.4,173,-0.300,-0.300,-0.300,0.000,0.000,0.000
1641091186660721920,2022-01-02-02:39:46,10.1.1.4,192,-0.310,-0.310,-0.310,0.000,0.000,0.000
1641091186860593152,2022-01-02-02:39:46,10.1.1.4,190,-0.320,-0.320,-0.320,0.000,0.000,0.000
1641091187060964096,2022-01-02-02:39:47,10.1.1.4,190,-0.330,-0.330,-0.330,0.000,0.000,0.000
1641091187263863040,2022-01-02-02:39:47,10.1.1.4,190,-0.340,-0.340,-0.340,0.000,0.000,0.000
1641091187462452992,2022-01-02-02:39:47,10.1.1.4,189,-0.350,-0.350,-0.350,0.000,0.000,0.000
1641091187662020864,2022-01-02-02:39:47,10.1.1.4,187,-0.360,-0.360,-0.360,0.000,0.000,0.000
1641091187862669824,2022-01-02-02:39:47,10.1.1.4,186,-0.370,-0.370,-0.370,0.000,0.000,0.000
1641091188058844928,2022-01-02-02:39:48,10.1.1.4,182,-0.380,-0.380,-0.380,0.000,0.000,0.000
1641091188261771008,2022-01-02-02:39:48,10.1.1.4,184,-0.390,-0.390,-0.390,0.000,0.000,0.000
1641091188462436864,2022-01-02-02:39:48,10.1.1.4,184,-0.400,-0.400,-0.400,0.000,0.000,0.000
1641091188668400128,2022-01-02-02:39:48,10.1.1.4,185,-0.410,-0.410,-0.410,0.000,0.000,0.000
1641091188861095936,2022-01-02-02:39:48,10.1.1.4,177,-0.420,-0.420,-0.420,0.000,0.000,0.000
1641091189066044160,2022-01-02-02:39:49,10.1.1.4,181,-0.430,-0.430,-0.430,0.000,0.000,0.000
1641091189266953984,2022-01-02-02:39:49,10.1.1.4,177,-0.440,-0.440,-0.440,0.000,0.000,0.000
1641091189460345088,2022-01-02-02:39:49,10.1.1.4,174,-0.450,-0.450,-0.450,0.000,0.000,0.000
1641091189662203904,2022-01-02-02:39:49,10.1.1.4,174,-0.460,-0.460,-0.460,0.000,0.000,0.000
1641091189880430848,2022-01-02-02:39:49,10.1.1.4,191,-0.470,-0.470,-0.470,0.000,0.000,0.000
1641091190079431936,2022-01-02-02:39:50,10.1.1.4,189,-0.480,-0.480,-0.480,0.000,0.000,0.000
1641091190280623872,2022-01-02-02:39:50,10.1.1.4,190,-0.490,-0.490,-0.490,0.000,0.000,0.000
1641091190479435008,2022-01-02-02:39:50,10.1.1.4,188,-0.480,-0.480,-0.480,0.000,0.000,0.000
1641091190681799936,2022-01-02-02:39:50,10.1.1.4,189,-0.470,-0.470,-0.470,0.000,0.000,0.000
1641091190879410944,2022-01-02-02:39:50,10.1.1.4,185,-0.460,-0.460,-0.460,0.000,0.000,0.000
1641091191080299008,2022-01-02-02:39:51,10.1.1.4,184,-0.450,-0.450,-0.450,0.000,0.000,0.000
1641091191280570112,2022-01-02-02:39:51,10.1.1.4,184,-0.440,-0.440,-0.440,0.000,0.000,0.000
1641091191479378944,2022-01-02-02:39:51,10.1.1.4,177,-0.430,-0.430,-0.430,0.000,0.000,0.000
1641091191679692032,2022-01-02-02:39:51,10.1.1.4,177,-0.420,-0.420,-0.420,0.000,0.000,0.000
1641091191879881984,2022-01-02-02:39:51,10.1.1.4,177,-0.410,-0.410,-0.410,0.000,0.000,0.000
1641091192077874944,2022-01-02-02:39:52,10.1.1.4,174,-0.400,-0.400,-0.400,0.000,0.000,0.000
1641091192278904064,2022-01-02-02:39:52,10.1.1.4,174,-0.390,-0.390,-0.390,0.000,0.000,0.000
1641091192478940928,2022-01-02-02:39:52,10.1.1.4,173,-0.380,-0.380,-0.380,0.000,0.000,0.000
1641091192679331072,2022-01-02-02:39:52,10.1.1.4,173,-0.370,-0.370,-0.370,0.000,0.000,0.000
1641091192880088064,2022-01-02-02:39:52,10.1.1.4,173,-0.360,-0.360,-0.360,0.000,0.000,0.000
1641091193076712960,2022-01-02-02:39:53,10.1.1.4,169,-0.350,-0.350,-0.350,0.000,0.000,0.000
1641091193298146048,2022-01-02-02:39:53,10.1.1.4,189,-0.340,-0.340,-0.340,0.000,0.000,0.000
1641091193498109184,2022-01-02-02:39:53,10.1.1.4,188,-0.330,-0.330,-0.330,0.000,0.000,0.000
1641091193696614144,2022-01-02-02:39:53,10.1.1.4,186,-0.320,-0.320,-0.320,0.000,0.000,0.000
1641091193898776064,2022-01-02-02:39:53,10.1.1.4,188,-0.310,-0.310,-0.310,0.000,0.000,0.000
1641091194096546816,2022-01-02-02:39:54,10.1.1.4,185,-0.300,-0.300,-0.300,0.000,0.000,0.000
1641091194298351104,2022-01-02-02:39:54,10.1.1.4,185,-0.290,-0.290,-0.290,0.000,0.000,0.000
1641091194497278976,2022-01-02-02:39:54,10.1.1.4,183,-0.280,-0.280,-0.280,0.000,0.000,0.000
1641091194707953920,2022-01-02-02:39:54,10.1.1.4,193,-0.270,-0.270,-0.270,0.000,0.000,0.000
1641091194896326144,2022-01-02-02:39:54,10.1.1.4,181,-0.260,-0.260,-0.260,0.000,0.000,0.000
1641091195095290880,2022-01-02-02:39:55,10.1.1.4,172,-0.250,-0.250,-0.250,0.000,0.000,0.000
1641091195296855808,2022-01-02-02:39:55,10.1.1.4,173,-0.240,-0.240,-0.240,0.000,0.000,0.000
1641091195496294144,2022-01-02-02:39:55,10.1.1.4,172,-0.230,-0.230,-0.230,0.000,0.000,0.000
1641091195696884992,2022-01-02-02:39:55,10.1.1.4,172,-0.220,-0.220,-0.220,0.000,0.000,0.000
1641091195894563072,2022-01-02-02:39:55,10.1.1.4,169,-0.210,-0.210,-0.210,0.000,0.000,0.000
1641091196096941056,2022-01-02-02:39:56,10.1.1.4,171,-0.200,-0.200,-0.200,0.000,0.000,0.000
1641091196293637888,2022-01-02-02:39:56,10.1.1.4,167,-0.190,-0.190,-0.190,0.000,0.000,0.000
1641091196516144896,2022-01-02-02:39:56,10.1.1.4,188,-0.180,-0.180,-0.180,0.000,0.000,0.000
1641091196715084032,2022-01-02-02:39:56,10.1.1.4,186,-0.170,-0.170,-0.170,0.000,0.000,0.000
1641091196913867008,2022-01-02-02:39:56,10.1.1.4,184,-0.160,-0.160,-0.160,0.000,0.000,0.000
1641091197114269952,2022-01-02-02:39:57,10.1.1.4,182,-0.150,-0.150,-0.150,0.000,0.000,0.000
1641091197313987072,2022-01-02-02:39:57,10.1.1.4,182,-0.140,-0.140,-0.140,0.000,0.000,0.000
1641091197511940864,2022-01-02-02:39:57,10.1.1.4,177,-0.130,-0.130,-0.130,0.000,0.000,0.000
1641091197713326848,2022-01-02-02:39:57,10.1.1.4,177,-0.120,-0.120,-0.120,0.000,0.000,0.000
1641091197914040064,2022-01-02-02:39:57,10.1.1.4,177,-0.110,-0.110,-0.110,0.000,0.000,0.000
1641091198111984896,2022-01-02-02:39:58,10.1.1.4,174,-0.100,-0.100,-0.100,0.000,0.000,0.000
1641091198314333952,2022-01-02-02:39:58,10.1.1.4,176,-0.090,-0.090,-0.090,0.000,0.000,0.000
1641091198521948160,2022-01-02-02:39:58,10.1.1.4,183,-0.080,-0.080,-0.080,0.000,0.000,0.000
1641091198711229184,2022-01-02-02:39:58,10.1.1.4,170,-0.070,-0.070,-0.070,0.000,0.000,0.000
1641091198914426112,2022-01-02-02:39:58,10.1.1.4,171,-0.060,-0.060,-0.060,0.000,0.000,0.000
1641091199111053824,2022-01-02-02:39:59,10.1.1.4,167,-0.050,-0.050,-0.050,0.000,0.000,0.000
1641091199313815040,2022-01-02-02:39:59,10.1.1.4,167,-0.040,-0.040,-0.040,0.000,0.000,0.000
1641091199509521920,2022-01-02-02:39:59,10.1.1.4,162,-0.030,-0.030,-0.030,0.000,0.000,0.000
1641091199711281152,2022-01-02-02:39:59,10.1.1.4,162,-0.020,-0.020,-0.020,0.000,0.000,0.000
1641091199928632064,2022-01-02-02:39:59,10.1.1.4,176,-0.010,-0.010,-0.010,0.000,0.000,0.000
1641091200130209024,2022-01-02-02:40:00,10.1.1.4,177,0.000,0.000,0.000,0.000,0.000,0.000
1641091200329626112,2022-01-02-02:40:00,10.1.1.4,174,-0.010,-0.010,-0.010,0.000,0.000,0.000
1641091200528920832,2022-01-02-02:40:00,10.1.1.4,171,-0.020,-0.020,-0.020,0.000,0.000,0.000
1641091200727881984,2022-01-02-02:40:00,10.1.1.4,168,-0.030,-0.030,-0.030,0.000,0.000,0.000
1641091200928750080,2022-01-02-02:40:00,10.1.1.4,167,-0.040,-0.040,-0.040,0.000,0.000,0.000
1641091201128864000,2022-01-02-02:40:01,10.1.1.4,168,-0.050,-0.050,-0.050,0.000,0.000,0.000
1641091201328606976,2022-01-02-02:40:01,10.1.1.4,167,-0.060,-0.060,-0.060,0.000,0.000,0.000
1641091201529686016,2022-01-02-02:40:01,10.1.1.4,167,-0.070,-0.070,-0.070,0.000,0.000,0.000
1641091201728024064,2022-01-02-02:40:01,10.1.1.4,164,-0.080,-0.080,-0.080,0.000,0.000,0.000
1641091201928126976,2022-01-02-02:40:01,10.1.1.4,163,-0.090,-0.090,-0.090,0.000,0.000,0.000
1641091202127720960,2022-01-02-02:40:02,10.1.1.4,162,-0.100,-0.100,-0.100,0.000,0.000,0.000
1641091202328324096,2022-01-02-02:40:02,10.1.1.4,161,-0.110,-0.110,-0.110,0.000,0.000,0.000
1641091202546721024,2022-01-02-02:40:02,10.1.1.4,176,-0.120,-0.120,-0.120,0.000,0.000,0.000
1641091202752336128,2022-01-02-02:40:02,10.1.1.4,172,-0.130,-0.130,-0.130,0.000,0.000,0.000
1641091202946580992,2022-01-02-02:40:02,10.1.1.4,167,-0.140,-0.140,-0.140,0.000,0.000,0.000
1641091203148482048,2022-01-02-02:40:03,10.1.1.4,166,-0.150,-0.150,-0.150,0.000,0.000,0.000
1641091203348197888,2022-01-02-02:40:03,10.1.1.4,165,-0.160,-0.160,-0.160,0.000,0.000,0.000
1641091203544375808,2022-01-02-02:40:03,10.1.1.4,160,-0.170,-0.170,-0.170,0.000,0.000,0.000
1641091203745126912,2022-01-02-02:40:03,10.1.1.4,158,-0.180,-0.180,-0.180,0.000,0.000,0.000
1641091203945494784,2022-01-02-02:40:03,10.1.1.4,159,-0.190,-0.190,-0.190,0.000,0.000,0.000
1641091204142821120,2022-01-02-02:40:04,10.1.1.4,155,-0.200,-0.200,-0.200,0.000,0.000,0.000
1641091204366217984,2022-01-02-02:40:04,10.1.1.4,178,-0.210,-0.210,-0.210,0.000,0.000,0.000
1641091204564989184,2022-01-02-02:40:04,10.1.1.4,175,-0.220,-0.220,-0.220,0.000,0.000,0.000
1641091204761667840,2022-01-02-02:40:04,10.1.1.4,170,-0.230,-0.230,-0.230,0.000,0.000,0.000
1641091204962054912,2022-01-02-02:40:04,10.1.1.4,170,-0.240,-0.240,-0.240,0.000,0.000,0.000
1641091205163377152,2022-01-02-02:40:05,10.1.1.4,171,-0.250,-0.250,-0.250,0.000,0.000,0.000
1641091205360843008,2022-01-02-02:40:05,10.1.1.4,167,-0.260,-0.260,-0.260,0.000,0.000,0.000
1641091205564388096,2022-01-02-02:40:05,10.1.1.4,170,-0.270,-0.270,-0.270,0.000,0.000,0.000
1641091205767127040,2022-01-02-02:40:05,10.1.1.4,172,-0.280,-0.280,-0.280,0.000,0.000,0.000
1641091205965126912,2022-01-02-02:40:05,10.1.1.4,161,-0.290,-0.290,-0.290,0.000,0.000,0.000
1641091206161705984,2022-01-02-02:40:06,10.1.1.4,156,-0.300,-0.300,-0.300,0.000,0.000,0.000
1641091206362749952,2022-01-02-02:40:06,10.1.1.4,156,-0.310,-0.310,-0.310,0.000,0.000,0.000
1641091206562561024,2022-01-02-02:40:06,10.1.1.4,156,-0.320,-0.320,-0.320,0.000,0.000,0.000
1641091206760574976,2022-01-02-02:40:06,10.1.1.4,153,-0.330,-0.330,-0.330,0.000,0.000,0.000
1641091206980876032,2022-01-02-02:40:06,10.1.1.4,173,-0.340,-0.340,-0.340,0.000,0.000,0.000
1641091207186053888,2022-01-02-02:40:07,10.1.1.4,177,-0.350,-0.350,-0.350,0.000,0.000,0.000
1641091207379885056,2022-01-02-02:40:07,10.1.1.4,167,-0.360,-0.360,-0.360,0.000,0.000,0.000
1641091207578563840,2022-01-02-02:40:07,10.1.1.4,165,-0.370,-0.370,-0.370,0.000,0.000,0.000
1641091207778708992,2022-01-02-02:40:07,10.1.1.4,164,-0.380,-0.380,-0.380,0.000,0.000,0.000
1641091207978589952,2022-01-02-02:40:07,10.1.1.4,163,-0.390,-0.390,-0.390,0.000,0.000,0.000
1641091208178397952,2022-01-02-02:40:08,10.1.1.4,161,-0.400,-0.400,-0.400,0.000,0.000,0.000
1641091208378233856,2022-01-02-02:40:08,10.1.1.4,159,-0.410,-0.410,-0.410,0.000,0.000,0.000
1641091208578674176,2022-01-02-02:40:08,10.1.1.4,158,-0.420,-0.420,-0.420,0.000,0.000,0.000
1641091208775547904,2022-01-02-02:40:08,10.1.1.4,154,-0.430,-0.430,-0.430,0.000,0.000,0.000
1641091208977562880,2022-01-02-02:40:08,10.1.1.4,155,-0.440,-0.440,-0.440,0.000,0.000,0.000
1641091209198141952,2022-01-02-02:40:09,10.1.1.4,169,-0.450,-0.450,-0.450,0.000,0.000,0.000
1641091209401585152,2022-01-02-02:40:09,10.1.1.4,172,-0.460,-0.460,-0.460,0.000,0.000,0.000
1641091209601655040,2022-01-02-02:40:09,10.1.1.4,170,-0.470,-0.470,-0.470,0.000,0.000,0.000
1641091209802583808,2022-01-02-02:40:09,10.1.1.4,171,-0.480,-0.480,-0.480,0.000,0.000,0.000
1641091210003025152,2022-01-02-02:40:10,10.1.1.4,171,-0.490,-0.490,-0.490,0.000,0.000,0.000
1641091210204232960,2022-01-02-02:40:10,10.1.1.4,171,-0.480,-0.480,-0.480,0.000,0.000,0.000
1641091210404169984,2022-01-02-02:40:10,10.1.1.4,170,-0.470,-0.470,-0.470,0.000,0.000,0.000
1641091210602763008,2022-01-02-02:40:10,10.1.1.4,167,-0.460,-0.460,-0.460,0.000,0.000,0.000
1641091210804125184,2022-01-02-02:40:10,10.1.1.4,167,-0.450,-0.450,-0.450,0.000,0.000,0.000
1641091211005158912,2022-01-02-02:40:11,10.1.1.4,164,-0.440,-0.440,-0.440,0.000,0.000,0.000
1641091211215055872,2022-01-02-02:40:11,10.1.1.4,171,-0.430,-0.430,-0.430,0.000,0.000,0.000
1641091211407016960,2022-01-02-02:40:11,10.1.1.4,162,-0.420,-0.420,-0.420,0.000,0.000,0.000
1641091211612130048,2022-01-02-02:40:11,10.1.1.4,165,-0.410,-0.410,-0.410,0.000,0.000,0.000
1641091211810290944,2022-01-02-02:40:11,10.1.1.4,163,-0.400,-0.400,-0.400,0.000,0.000,0.000
1641091212011974144,2022-01-02-02:40:12,10.1.1.4,161,-0.390,-0.390,-0.390,0.000,0.000,0.000
1641091212232058112,2022-01-02-02:40:12,10.1.1.4,179,-0.380,-0.380,-0.380,0.000,0.000,0.000
1641091212431201024,2022-01-02-02:40:12,10.1.1.4,176,-0.370,-0.370,-0.370,0.000,0.000,0.000
1641091212631803136,2022-01-02-02:40:12,10.1.1.4,176,-0.360,-0.360,-0.360,0.000,0.000,0.000
1641091212832515072,2022-01-02-02:40:12,10.1.1.4,176,-0.350,-0.350,-0.350,0.000,0.000,0.000
1641091213034087936,2022-01-02-02:40:13,10.1.1.4,177,-0.340,-0.340,-0.340,0.000,0.000,0.000
1641091213232367104,2022-01-02-02:40:13,10.1.1.4,174,-0.330,-0.330,-0.330,0.000,0.000,0.000
1641091213432077056,2022-01-02-02:40:13,10.1.1.4,173,-0.320,-0.320,-0.320,0.000,0.000,0.000
1641091213632673024,2022-01-02-02:40:13,10.1.1.4,173,-0.310,-0.310,-0.310,0.000,0.000,0.000
1641091213835565056,2022-01-02-02:40:13,10.1.1.4,175,-0.300,-0.300,-0.300,0.000,0.000,0.000
1641091214035564800,2022-01-02-02:40:14,10.1.1.4,175,-0.290,-0.290,-0.290,0.000,0.000,0.000
1641091214237157120,2022-01-02-02:40:14,10.1.1.4,175,-0.280,-0.280,-0.280,0.000,0.000,0.000
1641091214437156864,2022-01-02-02:40:14,10.1.1.4,174,-0.270,-0.270,-0.270,0.000,0.000,0.000
1641091214638447872,2022-01-02-02:40:14,10.1.1.4,175,-0.260,-0.260,-0.260,0.000,0.000,0.000
1641091214837776896,2022-01-02-02:40:14,10.1.1.4,170,-0.250,-0.250,-0.250,0.000,0.000,0.000
1641091215038331136,2022-01-02-02:40:15,10.1.1.4,172,-0.240,-0.240,-0.240,0.000,0.000,0.000
1641091215235471104,2022-01-02-02:40:15,10.1.1.4,169,-0.230,-0.230,-0.230,0.000,0.000,0.000
1641091215442167040,2022-01-02-02:40:15,10.1.1.4,175,-0.220,-0.220,-0.220,0.000,0.000,0.000
1641091215635878144,2022-01-02-02:40:15,10.1.1.4,168,-0.210,-0.210,-0.210,0.000,0.000,0.000
1641091215855912960,2022-01-02-02:40:15,10.1.1.4,187,-0.200,-0.200,-0.200,0.000,0.000,0.000
1641091216059190016,2022-01-02-02:40:16,10.1.1.4,189,-0.190,-0.190,-0.190,0.000,0.000,0.000
1641091216258554880,2022-01-02-02:40:16,10.1.1.4,187,-0.180,-0.180,-0.180,0.000,0.000,0.000
1641091216468507136,2022-01-02-02:40:16,10.1.1.4,187,-0.170,-0.170,-0.170,0.000,0.000,0.000
1641091216658878208,2022-01-02-02:40:16,10.1.1.4,186,-0.160,-0.160,-0.160,0.000,0.000,0.000
1641091216861582080,2022-01-02-02:40:16,10.1.1.4,187,-0.150,-0.150,-0.150,0.000,0.000,0.000
1641091217058867968,2022-01-02-02:40:17,10.1.1.4,183,-0.140,-0.140,-0.140,0.000,0.000,0.000
1641091217259869184,2022-01-02-02:40:17,10.1.1.4,183,-0.130,-0.130,-0.130,0.000,0.000,0.000
1641091217460300800,2022-01-02-02:40:17,10.1.1.4,181,-0.120,-0.120,-0.120,0.000,0.000,0.000
1641091217661633024,2022-01-02-02:40:17,10.1.1.4,177,-0.110,-0.110,-0.110,0.000,0.000,0.000
1641091217860524032,2022-01-02-02:40:17,10.1.1.4,177,-0.100,-0.100,-0.100,0.000,0.000,0.000
1641091218060673024,2022-01-02-02:40:18,10.1.1.4,177,-0.090,-0.090,-0.090,0.000,0.000,0.000
1641091218260140800,2022-01-02-02:40:18,10.1.1.4,175,-0.080,-0.080,-0.080,0.000,0.000,0.000
1641091218458985216,2022-01-02-02:40:18,10.1.1.4,174,-0.070,-0.070,-0.070,0.000,0.000,0.000
1641091218658545920,2022-01-02-02:40:18,10.1.1.4,172,-0.060,-0.060,-0.060,0.000,0.000,0.000
1641091218861170176,2022-01-02-02:40:18,10.1.1.4,173,-0.050,-0.050,-0.050,0.000,0.000,0.000
1641091219078958080,2022-01-02-02:40:19,10.1.1.4,190,-0.040,-0.040,-0.040,0.000,0.000,0.000
