FedericoMungari/DigitalTwin_service/01_WiredScenario/Output/Output_script/script_rosapi_2_output_robots4_freq0_4.txt
timestamp,date,node,latency,joint_1,joint_2,joint_3,joint_4,joint_5,joint_6
1644344712013894912,2022-02-08-18:25:12,10.1.1.5,7,-0.100,-0.100,-0.100,0.000,0.000,0.000
1644344712135129856,2022-02-08-18:25:12,10.1.1.5,25,-0.090,-0.090,-0.090,0.000,0.000,0.000
1644344712233570048,2022-02-08-18:25:12,10.1.1.5,25,-0.080,-0.080,-0.080,0.000,0.000,0.000
1644344712334286080,2022-02-08-18:25:12,10.1.1.5,23,-0.070,-0.070,-0.070,0.000,0.000,0.000
1644344712433214976,2022-02-08-18:25:12,10.1.1.5,21,-0.060,-0.060,-0.060,0.000,0.000,0.000
1644344712634497792,2022-02-08-18:25:12,10.1.1.5,19,-0.040,-0.040,-0.040,0.000,0.000,0.000
1644344712759422976,2022-02-08-18:25:12,10.1.1.5,37,-0.030,-0.030,-0.030,0.000,0.000,0.000
1644344712854742016,2022-02-08-18:25:12,10.1.1.5,34,-0.020,-0.020,-0.020,0.000,0.000,0.000
1644344712954778880,2022-02-08-18:25:12,10.1.1.5,34,-0.010,-0.010,-0.010,0.000,0.000,0.000
1644344713054501888,2022-02-08-18:25:13,10.1.1.5,30,0.000,0.000,0.000,0.000,0.000,0.000
1644344713154270976,2022-02-08-18:25:13,10.1.1.5,28,0.010,0.010,0.010,0.000,0.000,0.000
1644344713255875072,2022-02-08-18:25:13,10.1.1.5,26,0.020,0.020,0.020,0.000,0.000,0.000
1644344713353874944,2022-02-08-18:25:13,10.1.1.5,25,0.030,0.030,0.030,0.000,0.000,0.000
1644344713455038976,2022-02-08-18:25:13,10.1.1.5,23,0.040,0.040,0.040,0.000,0.000,0.000
1644344713554899968,2022-02-08-18:25:13,10.1.1.5,22,0.050,0.050,0.050,0.000,0.000,0.000
1644344713676027904,2022-02-08-18:25:13,10.1.1.5,39,0.060,0.060,0.060,0.000,0.000,0.000
1644344713775582976,2022-02-08-18:25:13,10.1.1.5,36,0.070,0.070,0.070,0.000,0.000,0.000
1644344713875414016,2022-02-08-18:25:13,10.1.1.5,34,0.080,0.080,0.080,0.000,0.000,0.000
1644344713974298880,2022-02-08-18:25:13,10.1.1.5,32,0.090,0.090,0.090,0.000,0.000,0.000
1644344714074423040,2022-02-08-18:25:14,10.1.1.5,30,0.100,0.100,0.100,0.000,0.000,0.000
1644344714277658112,2022-02-08-18:25:14,10.1.1.5,28,0.080,0.080,0.080,0.000,0.000,0.000
1644344714374299904,2022-02-08-18:25:14,10.1.1.5,26,0.070,0.070,0.070,0.000,0.000,0.000
1644344714474668032,2022-02-08-18:25:14,10.1.1.5,26,0.060,0.060,0.060,0.000,0.000,0.000
1644344714576606976,2022-02-08-18:25:14,10.1.1.5,23,0.050,0.050,0.050,0.000,0.000,0.000
1644344714794316032,2022-02-08-18:25:14,10.1.1.5,38,0.030,0.030,0.030,0.000,0.000,0.000
1644344714894840064,2022-02-08-18:25:14,10.1.1.5,34,0.020,0.020,0.020,0.000,0.000,0.000
1644344714993637120,2022-02-08-18:25:14,10.1.1.5,33,0.010,0.010,0.010,0.000,0.000,0.000
1644344715193217024,2022-02-08-18:25:15,10.1.1.5,24,-0.010,-0.010,-0.010,0.000,0.000,0.000
1644344715293008128,2022-02-08-18:25:15,10.1.1.5,23,-0.020,-0.020,-0.020,0.000,0.000,0.000
1644344715393451008,2022-02-08-18:25:15,10.1.1.5,22,-0.030,-0.030,-0.030,0.000,0.000,0.000
1644344715492669952,2022-02-08-18:25:15,10.1.1.5,21,-0.040,-0.040,-0.040,0.000,0.000,0.000
1644344715593489920,2022-02-08-18:25:15,10.1.1.5,21,-0.050,-0.050,-0.050,0.000,0.000,0.000
1644344715913981952,2022-02-08-18:25:15,10.1.1.5,33,-0.080,-0.080,-0.080,0.000,0.000,0.000
1644344716013711872,2022-02-08-18:25:16,10.1.1.5,30,-0.090,-0.090,-0.090,0.000,0.000,0.000
1644344716113606912,2022-02-08-18:25:16,10.1.1.5,29,-0.100,-0.100,-0.100,0.000,0.000,0.000
1644344716213975040,2022-02-08-18:25:16,10.1.1.5,27,-0.090,-0.090,-0.090,0.000,0.000,0.000
1644344716314686976,2022-02-08-18:25:16,10.1.1.5,25,-0.080,-0.080,-0.080,0.000,0.000,0.000
1644344716413351936,2022-02-08-18:25:16,10.1.1.5,23,-0.070,-0.070,-0.070,0.000,0.000,0.000
1644344716637283072,2022-02-08-18:25:16,10.1.1.5,39,-0.050,-0.050,-0.050,0.000,0.000,0.000
1644344716734222848,2022-02-08-18:25:16,10.1.1.5,38,-0.040,-0.040,-0.040,0.000,0.000,0.000
1644344716834083072,2022-02-08-18:25:16,10.1.1.5,35,-0.030,-0.030,-0.030,0.000,0.000,0.000
1644344716934014976,2022-02-08-18:25:16,10.1.1.5,32,-0.020,-0.020,-0.020,0.000,0.000,0.000
1644344717033778944,2022-02-08-18:25:17,10.1.1.5,30,-0.010,-0.010,-0.010,0.000,0.000,0.000
1644344717135025920,2022-02-08-18:25:17,10.1.1.5,29,0.000,0.000,0.000,0.000,0.000,0.000
1644344717235085056,2022-02-08-18:25:17,10.1.1.5,24,0.010,0.010,0.010,0.000,0.000,0.000
1644344717333548032,2022-02-08-18:25:17,10.1.1.5,23,0.020,0.020,0.020,0.000,0.000,0.000
1644344717434099968,2022-02-08-18:25:17,10.1.1.5,22,0.030,0.030,0.030,0.000,0.000,0.000
1644344717533474816,2022-02-08-18:25:17,10.1.1.5,21,0.040,0.040,0.040,0.000,0.000,0.000
1644344717763437056,2022-02-08-18:25:17,10.1.1.5,39,0.060,0.060,0.060,0.000,0.000,0.000
1644344717855122176,2022-02-08-18:25:17,10.1.1.5,38,0.070,0.070,0.070,0.000,0.000,0.000
1644344717953437952,2022-02-08-18:25:17,10.1.1.5,37,0.080,0.080,0.080,0.000,0.000,0.000
1644344718054630144,2022-02-08-18:25:18,10.1.1.5,36,0.090,0.090,0.090,0.000,0.000,0.000
1644344718153915904,2022-02-08-18:25:18,10.1.1.5,35,0.100,0.100,0.100,0.000,0.000,0.000
1644344718255395840,2022-02-08-18:25:18,10.1.1.5,34,0.090,0.090,0.090,0.000,0.000,0.000
1644344718354340096,2022-02-08-18:25:18,10.1.1.5,33,0.080,0.080,0.080,0.000,0.000,0.000
1644344718454215168,2022-02-08-18:25:18,10.1.1.5,32,0.070,0.070,0.070,0.000,0.000,0.000
1644344718554086912,2022-02-08-18:25:18,10.1.1.5,32,0.060,0.060,0.060,0.000,0.000,0.000
1644344718654732032,2022-02-08-18:25:18,10.1.1.5,31,0.050,0.050,0.050,0.000,0.000,0.000
1644344718754547200,2022-02-08-18:25:18,10.1.1.5,31,0.040,0.040,0.040,0.000,0.000,0.000
1644344718853734912,2022-02-08-18:25:18,10.1.1.5,30,0.030,0.030,0.030,0.000,0.000,0.000
1644344718954444032,2022-02-08-18:25:18,10.1.1.5,29,0.020,0.020,0.020,0.000,0.000,0.000
1644344719058216192,2022-02-08-18:25:19,10.1.1.5,28,0.010,0.010,0.010,0.000,0.000,0.000
1644344719153511936,2022-02-08-18:25:19,10.1.1.5,27,0.000,0.000,0.000,0.000,0.000,0.000
1644344719255403008,2022-02-08-18:25:19,10.1.1.5,26,-0.010,-0.010,-0.010,0.000,0.000,0.000
1644344719355303168,2022-02-08-18:25:19,10.1.1.5,22,-0.020,-0.020,-0.020,0.000,0.000,0.000
1644344719455074048,2022-02-08-18:25:19,10.1.1.5,21,-0.030,-0.030,-0.030,0.000,0.000,0.000
1644344719575307008,2022-02-08-18:25:19,10.1.1.5,37,-0.040,-0.040,-0.040,0.000,0.000,0.000
1644344719676493824,2022-02-08-18:25:19,10.1.1.5,33,-0.050,-0.050,-0.050,0.000,0.000,0.000
1644344719776449792,2022-02-08-18:25:19,10.1.1.5,30,-0.060,-0.060,-0.060,0.000,0.000,0.000
1644344719877691136,2022-02-08-18:25:19,10.1.1.5,31,-0.070,-0.070,-0.070,0.000,0.000,0.000
1644344719975213056,2022-02-08-18:25:19,10.1.1.5,28,-0.080,-0.080,-0.080,0.000,0.000,0.000
1644344720074838016,2022-02-08-18:25:20,10.1.1.5,26,-0.090,-0.090,-0.090,0.000,0.000,0.000
1644344720175427072,2022-02-08-18:25:20,10.1.1.5,24,-0.100,-0.100,-0.100,0.000,0.000,0.000
1644344720277326080,2022-02-08-18:25:20,10.1.1.5,23,-0.090,-0.090,-0.090,0.000,0.000,0.000
1644344720375184128,2022-02-08-18:25:20,10.1.1.5,22,-0.080,-0.080,-0.080,0.000,0.000,0.000
1644344720474291968,2022-02-08-18:25:20,10.1.1.5,21,-0.070,-0.070,-0.070,0.000,0.000,0.000
1644344720594100992,2022-02-08-18:25:20,10.1.1.5,36,-0.060,-0.060,-0.060,0.000,0.000,0.000
1644344720693936128,2022-02-08-18:25:20,10.1.1.5,34,-0.050,-0.050,-0.050,0.000,0.000,0.000
1644344720793960192,2022-02-08-18:25:20,10.1.1.5,33,-0.040,-0.040,-0.040,0.000,0.000,0.000
1644344720893692928,2022-02-08-18:25:20,10.1.1.5,32,-0.030,-0.030,-0.030,0.000,0.000,0.000
1644344720994913024,2022-02-08-18:25:20,10.1.1.5,31,-0.020,-0.020,-0.020,0.000,0.000,0.000
1644344721095272192,2022-02-08-18:25:21,10.1.1.5,30,-0.010,-0.010,-0.010,0.000,0.000,0.000
1644344721194088960,2022-02-08-18:25:21,10.1.1.5,26,0.000,0.000,0.000,0.000,0.000,0.000
1644344721294960128,2022-02-08-18:25:21,10.1.1.5,25,0.010,0.010,0.010,0.000,0.000,0.000
1644344721393331968,2022-02-08-18:25:21,10.1.1.5,23,0.020,0.020,0.020,0.000,0.000,0.000
1644344721493586944,2022-02-08-18:25:21,10.1.1.5,22,0.030,0.030,0.030,0.000,0.000,0.000
1644344721593410048,2022-02-08-18:25:21,10.1.1.5,21,0.040,0.040,0.040,0.000,0.000,0.000
1644344721816379136,2022-02-08-18:25:21,10.1.1.5,39,0.060,0.060,0.060,0.000,0.000,0.000
1644344721913952000,2022-02-08-18:25:21,10.1.1.5,38,0.070,0.070,0.070,0.000,0.000,0.000
1644344722013362944,2022-02-08-18:25:22,10.1.1.5,37,0.080,0.080,0.080,0.000,0.000,0.000
1644344722114789888,2022-02-08-18:25:22,10.1.1.5,34,0.090,0.090,0.090,0.000,0.000,0.000
1644344722213025024,2022-02-08-18:25:22,10.1.1.5,30,0.100,0.100,0.100,0.000,0.000,0.000
1644344722314822912,2022-02-08-18:25:22,10.1.1.5,29,0.090,0.090,0.090,0.000,0.000,0.000
1644344722512982016,2022-02-08-18:25:22,10.1.1.5,28,0.070,0.070,0.070,0.000,0.000,0.000
1644344722615137024,2022-02-08-18:25:22,10.1.1.5,27,0.060,0.060,0.060,0.000,0.000,0.000
1644344722715638016,2022-02-08-18:25:22,10.1.1.5,27,0.050,0.050,0.050,0.000,0.000,0.000
1644344722814126848,2022-02-08-18:25:22,10.1.1.5,25,0.040,0.040,0.040,0.000,0.000,0.000
1644344722914781952,2022-02-08-18:25:22,10.1.1.5,24,0.030,0.030,0.030,0.000,0.000,0.000
1644344723015419904,2022-02-08-18:25:23,10.1.1.5,24,0.020,0.020,0.020,0.000,0.000,0.000
1644344723114454016,2022-02-08-18:25:23,10.1.1.5,23,0.010,0.010,0.010,0.000,0.000,0.000
1644344723215547136,2022-02-08-18:25:23,10.1.1.5,22,0.000,0.000,0.000,0.000,0.000,0.000
1644344723314204928,2022-02-08-18:25:23,10.1.1.5,21,-0.010,-0.010,-0.010,0.000,0.000,0.000
1644344723532957952,2022-02-08-18:25:23,10.1.1.5,37,-0.030,-0.030,-0.030,0.000,0.000,0.000
1644344723633920000,2022-02-08-18:25:23,10.1.1.5,32,-0.040,-0.040,-0.040,0.000,0.000,0.000
1644344723734440960,2022-02-08-18:25:23,10.1.1.5,30,-0.050,-0.050,-0.050,0.000,0.000,0.000
1644344723834018048,2022-02-08-18:25:23,10.1.1.5,29,-0.060,-0.060,-0.060,0.000,0.000,0.000
1644344723934307072,2022-02-08-18:25:23,10.1.1.5,25,-0.070,-0.070,-0.070,0.000,0.000,0.000
1644344724033731840,2022-02-08-18:25:24,10.1.1.5,23,-0.080,-0.080,-0.080,0.000,0.000,0.000
1644344724133037056,2022-02-08-18:25:24,10.1.1.5,20,-0.090,-0.090,-0.090,0.000,0.000,0.000
1644344724256109056,2022-02-08-18:25:24,10.1.1.5,39,-0.100,-0.100,-0.100,0.000,0.000,0.000
1644344724353393152,2022-02-08-18:25:24,10.1.1.5,35,-0.090,-0.090,-0.090,0.000,0.000,0.000
1644344724453876992,2022-02-08-18:25:24,10.1.1.5,35,-0.080,-0.080,-0.080,0.000,0.000,0.000
1644344724554302976,2022-02-08-18:25:24,10.1.1.5,34,-0.070,-0.070,-0.070,0.000,0.000,0.000
1644344724654222848,2022-02-08-18:25:24,10.1.1.5,33,-0.060,-0.060,-0.060,0.000,0.000,0.000
1644344724753310976,2022-02-08-18:25:24,10.1.1.5,32,-0.050,-0.050,-0.050,0.000,0.000,0.000
1644344724854181120,2022-02-08-18:25:24,10.1.1.5,31,-0.040,-0.040,-0.040,0.000,0.000,0.000
1644344724953302016,2022-02-08-18:25:24,10.1.1.5,30,-0.030,-0.030,-0.030,0.000,0.000,0.000
1644344725054668032,2022-02-08-18:25:25,10.1.1.5,28,-0.020,-0.020,-0.020,0.000,0.000,0.000
1644344725152670976,2022-02-08-18:25:25,10.1.1.5,27,-0.010,-0.010,-0.010,0.000,0.000,0.000
1644344725254450176,2022-02-08-18:25:25,10.1.1.5,27,0.000,0.000,0.000,0.000,0.000,0.000
1644344725353627904,2022-02-08-18:25:25,10.1.1.5,26,0.010,0.010,0.010,0.000,0.000,0.000
1644344725453753856,2022-02-08-18:25:25,10.1.1.5,25,0.020,0.020,0.020,0.000,0.000,0.000
1644344725553366016,2022-02-08-18:25:25,10.1.1.5,24,0.030,0.030,0.030,0.000,0.000,0.000
1644344725653801984,2022-02-08-18:25:25,10.1.1.5,23,0.040,0.040,0.040,0.000,0.000,0.000
1644344725764834816,2022-02-08-18:25:25,10.1.1.5,23,0.050,0.050,0.050,0.000,0.000,0.000
1644344725952284160,2022-02-08-18:25:25,10.1.1.5,19,0.069,0.069,0.069,0.000,0.000,0.000
1644344726077259008,2022-02-08-18:25:26,10.1.1.5,35,0.080,0.080,0.080,0.000,0.000,0.000
1644344726174801152,2022-02-08-18:25:26,10.1.1.5,33,0.090,0.090,0.090,0.000,0.000,0.000
1644344726279976960,2022-02-08-18:25:26,10.1.1.5,31,0.100,0.100,0.100,0.000,0.000,0.000
1644344726374598912,2022-02-08-18:25:26,10.1.1.5,30,0.090,0.090,0.090,0.000,0.000,0.000
1644344726475717120,2022-02-08-18:25:26,10.1.1.5,30,0.080,0.080,0.080,0.000,0.000,0.000
1644344726575126784,2022-02-08-18:25:26,10.1.1.5,29,0.070,0.070,0.070,0.000,0.000,0.000
1644344726674201856,2022-02-08-18:25:26,10.1.1.5,28,0.060,0.060,0.060,0.000,0.000,0.000
1644344726777389056,2022-02-08-18:25:26,10.1.1.5,26,0.050,0.050,0.050,0.000,0.000,0.000
1644344726876215808,2022-02-08-18:25:26,10.1.1.5,25,0.040,0.040,0.040,0.000,0.000,0.000
1644344726975929088,2022-02-08-18:25:26,10.1.1.5,24,0.030,0.030,0.030,0.000,0.000,0.000
1644344727076334848,2022-02-08-18:25:27,10.1.1.5,23,0.020,0.020,0.020,0.000,0.000,0.000
1644344727175734016,2022-02-08-18:25:27,10.1.1.5,21,0.010,0.010,0.010,0.000,0.000,0.000
1644344727275356928,2022-02-08-18:25:27,10.1.1.5,20,0.000,0.000,0.000,0.000,0.000,0.000
1644344727394208000,2022-02-08-18:25:27,10.1.1.5,39,-0.010,-0.010,-0.010,0.000,0.000,0.000
1644344727494874880,2022-02-08-18:25:27,10.1.1.5,35,-0.020,-0.020,-0.020,0.000,0.000,0.000
1644344727593508864,2022-02-08-18:25:27,10.1.1.5,34,-0.030,-0.030,-0.030,0.000,0.000,0.000
1644344727693520128,2022-02-08-18:25:27,10.1.1.5,33,-0.040,-0.040,-0.040,0.000,0.000,0.000
1644344727794888960,2022-02-08-18:25:27,10.1.1.5,32,-0.050,-0.050,-0.050,0.000,0.000,0.000
1644344727893934848,2022-02-08-18:25:27,10.1.1.5,30,-0.060,-0.060,-0.060,0.000,0.000,0.000
1644344727994525952,2022-02-08-18:25:27,10.1.1.5,29,-0.070,-0.070,-0.070,0.000,0.000,0.000
1644344728094518784,2022-02-08-18:25:28,10.1.1.5,28,-0.080,-0.080,-0.080,0.000,0.000,0.000
1644344728195766016,2022-02-08-18:25:28,10.1.1.5,28,-0.090,-0.090,-0.090,0.000,0.000,0.000
1644344728294099968,2022-02-08-18:25:28,10.1.1.5,26,-0.100,-0.100,-0.100,0.000,0.000,0.000
1644344728393917952,2022-02-08-18:25:28,10.1.1.5,24,-0.090,-0.090,-0.090,0.000,0.000,0.000
1644344728492815872,2022-02-08-18:25:28,10.1.1.5,22,-0.080,-0.080,-0.080,0.000,0.000,0.000
1644344728593496064,2022-02-08-18:25:28,10.1.1.5,21,-0.070,-0.070,-0.070,0.000,0.000,0.000
1644344728694349056,2022-02-08-18:25:28,10.1.1.5,20,-0.060,-0.060,-0.060,0.000,0.000,0.000
1644344728814141952,2022-02-08-18:25:28,10.1.1.5,39,-0.050,-0.050,-0.050,0.000,0.000,0.000
1644344728913986816,2022-02-08-18:25:28,10.1.1.5,36,-0.040,-0.040,-0.040,0.000,0.000,0.000
1644344729013326848,2022-02-08-18:25:29,10.1.1.5,34,-0.030,-0.030,-0.030,0.000,0.000,0.000
1644344729113995008,2022-02-08-18:25:29,10.1.1.5,33,-0.020,-0.020,-0.020,0.000,0.000,0.000
1644344729214701824,2022-02-08-18:25:29,10.1.1.5,31,-0.010,-0.010,-0.010,0.000,0.000,0.000
1644344729314002944,2022-02-08-18:25:29,10.1.1.5,31,0.000,0.000,0.000,0.000,0.000,0.000
1644344729413197056,2022-02-08-18:25:29,10.1.1.5,29,0.010,0.010,0.010,0.000,0.000,0.000
1644344729514209024,2022-02-08-18:25:29,10.1.1.5,28,0.020,0.020,0.020,0.000,0.000,0.000
1644344729614396928,2022-02-08-18:25:29,10.1.1.5,26,0.030,0.030,0.030,0.000,0.000,0.000
1644344729714081024,2022-02-08-18:25:29,10.1.1.5,23,0.040,0.040,0.040,0.000,0.000,0.000
1644344729814457856,2022-02-08-18:25:29,10.1.1.5,22,0.050,0.050,0.050,0.000,0.000,0.000
1644344729913667840,2022-02-08-18:25:29,10.1.1.5,21,0.060,0.060,0.060,0.000,0.000,0.000
1644344730013587968,2022-02-08-18:25:30,10.1.1.5,20,0.070,0.070,0.070,0.000,0.000,0.000
1644344730133419008,2022-02-08-18:25:30,10.1.1.5,39,0.080,0.080,0.080,0.000,0.000,0.000
1644344730234308096,2022-02-08-18:25:30,10.1.1.5,36,0.090,0.090,0.090,0.000,0.000,0.000
1644344730333719040,2022-02-08-18:25:30,10.1.1.5,34,0.100,0.100,0.100,0.000,0.000,0.000
1644344730434699008,2022-02-08-18:25:30,10.1.1.5,34,0.090,0.090,0.090,0.000,0.000,0.000
1644344730535048960,2022-02-08-18:25:30,10.1.1.5,33,0.080,0.080,0.080,0.000,0.000,0.000
1644344730633982976,2022-02-08-18:25:30,10.1.1.5,31,0.070,0.070,0.070,0.000,0.000,0.000
1644344730733666816,2022-02-08-18:25:30,10.1.1.5,31,0.060,0.060,0.060,0.000,0.000,0.000
1644344730832658176,2022-02-08-18:25:30,10.1.1.5,30,0.050,0.050,0.050,0.000,0.000,0.000
1644344730933414912,2022-02-08-18:25:30,10.1.1.5,29,0.040,0.040,0.040,0.000,0.000,0.000
1644344731034470912,2022-02-08-18:25:31,10.1.1.5,27,0.030,0.030,0.030,0.000,0.000,0.000
1644344731134046976,2022-02-08-18:25:31,10.1.1.5,25,0.020,0.020,0.020,0.000,0.000,0.000
1644344731233426176,2022-02-08-18:25:31,10.1.1.5,22,0.010,0.010,0.010,0.000,0.000,0.000
1644344731335577088,2022-02-08-18:25:31,10.1.1.5,21,0.000,0.000,0.000,0.000,0.000,0.000
1644344731434889984,2022-02-08-18:25:31,10.1.1.5,20,-0.010,-0.010,-0.010,0.000,0.000,0.000
1644344731554177024,2022-02-08-18:25:31,10.1.1.5,39,-0.020,-0.020,-0.020,0.000,0.000,0.000
1644344731653654016,2022-02-08-18:25:31,10.1.1.5,36,-0.030,-0.030,-0.030,0.000,0.000,0.000
1644344731714301184,2022-02-08-18:25:31,10.1.1.5,-5,-0.030,-0.030,-0.030,0.000,0.000,0.000
1644344731855653120,2022-02-08-18:25:31,10.1.1.5,34,-0.050,-0.050,-0.050,0.000,0.000,0.000
1644344731954018048,2022-02-08-18:25:31,10.1.1.5,32,-0.060,-0.060,-0.060,0.000,0.000,0.000
1644344732053498112,2022-02-08-18:25:32,10.1.1.5,31,-0.070,-0.070,-0.070,0.000,0.000,0.000
1644344732154243072,2022-02-08-18:25:32,10.1.1.5,29,-0.080,-0.080,-0.080,0.000,0.000,0.000
1644344732256984064,2022-02-08-18:25:32,10.1.1.5,26,-0.090,-0.090,-0.090,0.000,0.000,0.000
1644344732354625024,2022-02-08-18:25:32,10.1.1.5,25,-0.100,-0.100,-0.100,0.000,0.000,0.000
1644344732453392128,2022-02-08-18:25:32,10.1.1.5,24,-0.090,-0.090,-0.090,0.000,0.000,0.000
1644344732553718016,2022-02-08-18:25:32,10.1.1.5,23,-0.080,-0.080,-0.080,0.000,0.000,0.000
1644344732654830080,2022-02-08-18:25:32,10.1.1.5,23,-0.070,-0.070,-0.070,0.000,0.000,0.000
1644344732755235072,2022-02-08-18:25:32,10.1.1.5,22,-0.060,-0.060,-0.060,0.000,0.000,0.000
1644344732854088192,2022-02-08-18:25:32,10.1.1.5,20,-0.050,-0.050,-0.050,0.000,0.000,0.000
1644344732956006144,2022-02-08-18:25:32,10.1.1.5,19,-0.040,-0.040,-0.040,0.000,0.000,0.000
1644344733074714880,2022-02-08-18:25:33,10.1.1.5,38,-0.030,-0.030,-0.030,0.000,0.000,0.000
1644344733173654016,2022-02-08-18:25:33,10.1.1.5,33,-0.020,-0.020,-0.020,0.000,0.000,0.000
1644344733278734080,2022-02-08-18:25:33,10.1.1.5,29,-0.010,-0.010,-0.010,0.000,0.000,0.000
1644344733375557888,2022-02-08-18:25:33,10.1.1.5,28,0.000,0.000,0.000,0.000,0.000,0.000
1644344733475481088,2022-02-08-18:25:33,10.1.1.5,25,0.010,0.010,0.010,0.000,0.000,0.000
1644344733575943936,2022-02-08-18:25:33,10.1.1.5,24,0.020,0.020,0.020,0.000,0.000,0.000
1644344733678705920,2022-02-08-18:25:33,10.1.1.5,23,0.030,0.030,0.030,0.000,0.000,0.000
1644344733774617856,2022-02-08-18:25:33,10.1.1.5,23,0.040,0.040,0.040,0.000,0.000,0.000
1644344733875251968,2022-02-08-18:25:33,10.1.1.5,22,0.050,0.050,0.050,0.000,0.000,0.000
1644344733973732096,2022-02-08-18:25:33,10.1.1.5,21,0.060,0.060,0.060,0.000,0.000,0.000
1644344734077164032,2022-02-08-18:25:34,10.1.1.5,20,0.070,0.070,0.070,0.000,0.000,0.000
1644344734295017984,2022-02-08-18:25:34,10.1.1.5,38,0.090,0.090,0.090,0.000,0.000,0.000
1644344734396387072,2022-02-08-18:25:34,10.1.1.5,34,0.100,0.100,0.100,0.000,0.000,0.000
1644344734494157056,2022-02-08-18:25:34,10.1.1.5,32,0.090,0.090,0.090,0.000,0.000,0.000
1644344734593960960,2022-02-08-18:25:34,10.1.1.5,31,0.080,0.080,0.080,0.000,0.000,0.000
1644344734693378048,2022-02-08-18:25:34,10.1.1.5,30,0.070,0.070,0.070,0.000,0.000,0.000
1644344734793562880,2022-02-08-18:25:34,10.1.1.5,29,0.060,0.060,0.060,0.000,0.000,0.000
1644344734893028864,2022-02-08-18:25:34,10.1.1.5,28,0.050,0.050,0.050,0.000,0.000,0.000
1644344734993825792,2022-02-08-18:25:34,10.1.1.5,27,0.040,0.040,0.040,0.000,0.000,0.000
1644344735093123840,2022-02-08-18:25:35,10.1.1.5,26,0.030,0.030,0.030,0.000,0.000,0.000
1644344735194001920,2022-02-08-18:25:35,10.1.1.5,25,0.020,0.020,0.020,0.000,0.000,0.000
1644344735295278080,2022-02-08-18:25:35,10.1.1.5,23,0.010,0.010,0.010,0.000,0.000,0.000
1644344735393591040,2022-02-08-18:25:35,10.1.1.5,22,0.000,0.000,0.000,0.000,0.000,0.000
1644344735495537920,2022-02-08-18:25:35,10.1.1.5,22,-0.010,-0.010,-0.010,0.000,0.000,0.000
1644344735593488896,2022-02-08-18:25:35,10.1.1.5,21,-0.020,-0.020,-0.020,0.000,0.000,0.000
1644344735713027072,2022-02-08-18:25:35,10.1.1.5,38,-0.030,-0.030,-0.030,0.000,0.000,0.000
1644344735814536960,2022-02-08-18:25:35,10.1.1.5,37,-0.040,-0.040,-0.040,0.000,0.000,0.000
1644344735913726976,2022-02-08-18:25:35,10.1.1.5,36,-0.050,-0.050,-0.050,0.000,0.000,0.000
1644344735974806016,2022-02-08-18:25:35,10.1.1.5,-5,-0.050,-0.050,-0.050,0.000,0.000,0.000
1644344736113966848,2022-02-08-18:25:36,10.1.1.5,33,-0.070,-0.070,-0.070,0.000,0.000,0.000
1644344736214050048,2022-02-08-18:25:36,10.1.1.5,32,-0.080,-0.080,-0.080,0.000,0.000,0.000
1644344736314454016,2022-02-08-18:25:36,10.1.1.5,32,-0.090,-0.090,-0.090,0.000,0.000,0.000
1644344736414227968,2022-02-08-18:25:36,10.1.1.5,32,-0.100,-0.100,-0.100,0.000,0.000,0.000
1644344736513655808,2022-02-08-18:25:36,10.1.1.5,30,-0.090,-0.090,-0.090,0.000,0.000,0.000
1644344736614720000,2022-02-08-18:25:36,10.1.1.5,25,-0.080,-0.080,-0.080,0.000,0.000,0.000
1644344736713412096,2022-02-08-18:25:36,10.1.1.5,24,-0.070,-0.070,-0.070,0.000,0.000,0.000
1644344736813997056,2022-02-08-18:25:36,10.1.1.5,23,-0.060,-0.060,-0.060,0.000,0.000,0.000
1644344736914049024,2022-02-08-18:25:36,10.1.1.5,21,-0.050,-0.050,-0.050,0.000,0.000,0.000
1644344737013680896,2022-02-08-18:25:37,10.1.1.5,21,-0.040,-0.040,-0.040,0.000,0.000,0.000
1644344737134725120,2022-02-08-18:25:37,10.1.1.5,39,-0.030,-0.030,-0.030,0.000,0.000,0.000
1644344737234353920,2022-02-08-18:25:37,10.1.1.5,37,-0.020,-0.020,-0.020,0.000,0.000,0.000
1644344737333690880,2022-02-08-18:25:37,10.1.1.5,36,-0.010,-0.010,-0.010,0.000,0.000,0.000
1644344737434919168,2022-02-08-18:25:37,10.1.1.5,35,0.000,0.000,0.000,0.000,0.000,0.000
1644344737533638912,2022-02-08-18:25:37,10.1.1.5,33,0.010,0.010,0.010,0.000,0.000,0.000
1644344737634350080,2022-02-08-18:25:37,10.1.1.5,32,0.020,0.020,0.020,0.000,0.000,0.000
1644344737734113024,2022-02-08-18:25:37,10.1.1.5,31,0.030,0.030,0.030,0.000,0.000,0.000
1644344737833722112,2022-02-08-18:25:37,10.1.1.5,30,0.040,0.040,0.040,0.000,0.000,0.000
1644344737933253120,2022-02-08-18:25:37,10.1.1.5,28,0.050,0.050,0.050,0.000,0.000,0.000
1644344738033282048,2022-02-08-18:25:38,10.1.1.5,27,0.060,0.060,0.060,0.000,0.000,0.000
1644344738135299840,2022-02-08-18:25:38,10.1.1.5,25,0.070,0.070,0.070,0.000,0.000,0.000
1644344738233445888,2022-02-08-18:25:38,10.1.1.5,24,0.080,0.080,0.080,0.000,0.000,0.000
1644344738332943872,2022-02-08-18:25:38,10.1.1.5,23,0.090,0.090,0.090,0.000,0.000,0.000
1644344738433958912,2022-02-08-18:25:38,10.1.1.5,22,0.100,0.100,0.100,0.000,0.000,0.000
1644344738533006848,2022-02-08-18:25:38,10.1.1.5,21,0.090,0.090,0.090,0.000,0.000,0.000
1644344738653579008,2022-02-08-18:25:38,10.1.1.5,40,0.080,0.080,0.080,0.000,0.000,0.000
1644344738753139968,2022-02-08-18:25:38,10.1.1.5,39,0.070,0.070,0.070,0.000,0.000,0.000
1644344738853745920,2022-02-08-18:25:38,10.1.1.5,36,0.060,0.060,0.060,0.000,0.000,0.000
1644344738953607936,2022-02-08-18:25:38,10.1.1.5,35,0.050,0.050,0.050,0.000,0.000,0.000
1644344739053456128,2022-02-08-18:25:39,10.1.1.5,34,0.040,0.040,0.040,0.000,0.000,0.000
1644344739154390016,2022-02-08-18:25:39,10.1.1.5,33,0.030,0.030,0.030,0.000,0.000,0.000
1644344739254488064,2022-02-08-18:25:39,10.1.1.5,31,0.020,0.020,0.020,0.000,0.000,0.000
1644344739354234880,2022-02-08-18:25:39,10.1.1.5,30,0.010,0.010,0.010,0.000,0.000,0.000
1644344739454886912,2022-02-08-18:25:39,10.1.1.5,30,-0.000,-0.000,-0.000,0.000,0.000,0.000
1644344739553996032,2022-02-08-18:25:39,10.1.1.5,29,-0.010,-0.010,-0.010,0.000,0.000,0.000
1644344739654385920,2022-02-08-18:25:39,10.1.1.5,28,-0.020,-0.020,-0.020,0.000,0.000,0.000
1644344739753292032,2022-02-08-18:25:39,10.1.1.5,25,-0.030,-0.030,-0.030,0.000,0.000,0.000
1644344739852956928,2022-02-08-18:25:39,10.1.1.5,25,-0.040,-0.040,-0.040,0.000,0.000,0.000
1644344739954824960,2022-02-08-18:25:39,10.1.1.5,23,-0.050,-0.050,-0.050,0.000,0.000,0.000
1644344740053617920,2022-02-08-18:25:40,10.1.1.5,22,-0.060,-0.060,-0.060,0.000,0.000,0.000
1644344740154156032,2022-02-08-18:25:40,10.1.1.5,21,-0.070,-0.070,-0.070,0.000,0.000,0.000
1644344740353879808,2022-02-08-18:25:40,10.1.1.5,19,-0.090,-0.090,-0.090,0.000,0.000,0.000
1644344740474950144,2022-02-08-18:25:40,10.1.1.5,39,-0.100,-0.100,-0.100,0.000,0.000,0.000
1644344740574875136,2022-02-08-18:25:40,10.1.1.5,38,-0.090,-0.090,-0.090,0.000,0.000,0.000
1644344740673239040,2022-02-08-18:25:40,10.1.1.5,36,-0.080,-0.080,-0.080,0.000,0.000,0.000
1644344740777012224,2022-02-08-18:25:40,10.1.1.5,34,-0.070,-0.070,-0.070,0.000,0.000,0.000
1644344740875873024,2022-02-08-18:25:40,10.1.1.5,30,-0.060,-0.060,-0.060,0.000,0.000,0.000
1644344740975081984,2022-02-08-18:25:40,10.1.1.5,29,-0.050,-0.050,-0.050,0.000,0.000,0.000
1644344741080462080,2022-02-08-18:25:41,10.1.1.5,27,-0.040,-0.040,-0.040,0.000,0.000,0.000
1644344741173712896,2022-02-08-18:25:41,10.1.1.5,26,-0.030,-0.030,-0.030,0.000,0.000,0.000
1644344741275768064,2022-02-08-18:25:41,10.1.1.5,25,-0.020,-0.020,-0.020,0.000,0.000,0.000
1644344741376846080,2022-02-08-18:25:41,10.1.1.5,24,-0.010,-0.010,-0.010,0.000,0.000,0.000
1644344741473867008,2022-02-08-18:25:41,10.1.1.5,23,0.000,0.000,0.000,0.000,0.000,0.000
1644344741574902016,2022-02-08-18:25:41,10.1.1.5,22,0.010,0.010,0.010,0.000,0.000,0.000
1644344741674020096,2022-02-08-18:25:41,10.1.1.5,21,0.020,0.020,0.020,0.000,0.000,0.000
1644344741773273088,2022-02-08-18:25:41,10.1.1.5,20,0.030,0.030,0.030,0.000,0.000,0.000
1644344741894913792,2022-02-08-18:25:41,10.1.1.5,38,0.040,0.040,0.040,0.000,0.000,0.000
1644344741994765056,2022-02-08-18:25:41,10.1.1.5,35,0.050,0.050,0.050,0.000,0.000,0.000
1644344742095175936,2022-02-08-18:25:42,10.1.1.5,34,0.060,0.060,0.060,0.000,0.000,0.000
1644344742196069888,2022-02-08-18:25:42,10.1.1.5,32,0.070,0.070,0.070,0.000,0.000,0.000
1644344742293171968,2022-02-08-18:25:42,10.1.1.5,31,0.080,0.080,0.080,0.000,0.000,0.000
1644344742394295808,2022-02-08-18:25:42,10.1.1.5,26,0.090,0.090,0.090,0.000,0.000,0.000
1644344742494745856,2022-02-08-18:25:42,10.1.1.5,23,0.100,0.100,0.100,0.000,0.000,0.000
1644344742715661056,2022-02-08-18:25:42,10.1.1.5,33,0.080,0.080,0.080,0.000,0.000,0.000
1644344742815944960,2022-02-08-18:25:42,10.1.1.5,32,0.070,0.070,0.070,0.000,0.000,0.000
1644344742913672960,2022-02-08-18:25:42,10.1.1.5,30,0.060,0.060,0.060,0.000,0.000,0.000
1644344743015853824,2022-02-08-18:25:43,10.1.1.5,29,0.050,0.050,0.050,0.000,0.000,0.000
1644344743117379072,2022-02-08-18:25:43,10.1.1.5,26,0.040,0.040,0.040,0.000,0.000,0.000
1644344743215774976,2022-02-08-18:25:43,10.1.1.5,26,0.030,0.030,0.030,0.000,0.000,0.000
1644344743317230080,2022-02-08-18:25:43,10.1.1.5,25,0.020,0.020,0.020,0.000,0.000,0.000
1644344743413839104,2022-02-08-18:25:43,10.1.1.5,24,0.010,0.010,0.010,0.000,0.000,0.000
1644344743514718976,2022-02-08-18:25:43,10.1.1.5,23,0.000,0.000,0.000,0.000,0.000,0.000
1644344743614590976,2022-02-08-18:25:43,10.1.1.5,22,-0.010,-0.010,-0.010,0.000,0.000,0.000
1644344743713978880,2022-02-08-18:25:43,10.1.1.5,20,-0.020,-0.020,-0.020,0.000,0.000,0.000
1644344743934936064,2022-02-08-18:25:43,10.1.1.5,38,-0.040,-0.040,-0.040,0.000,0.000,0.000
1644344744034068992,2022-02-08-18:25:44,10.1.1.5,37,-0.050,-0.050,-0.050,0.000,0.000,0.000
1644344744135467008,2022-02-08-18:25:44,10.1.1.5,34,-0.060,-0.060,-0.060,0.000,0.000,0.000
1644344744233691904,2022-02-08-18:25:44,10.1.1.5,33,-0.070,-0.070,-0.070,0.000,0.000,0.000
1644344744333532160,2022-02-08-18:25:44,10.1.1.5,32,-0.080,-0.080,-0.080,0.000,0.000,0.000
1644344744436836864,2022-02-08-18:25:44,10.1.1.5,31,-0.090,-0.090,-0.090,0.000,0.000,0.000
1644344744533746944,2022-02-08-18:25:44,10.1.1.5,26,-0.100,-0.100,-0.100,0.000,0.000,0.000
1644344744634708992,2022-02-08-18:25:44,10.1.1.5,23,-0.090,-0.090,-0.090,0.000,0.000,0.000
1644344744738519040,2022-02-08-18:25:44,10.1.1.5,22,-0.080,-0.080,-0.080,0.000,0.000,0.000
1644344744833129984,2022-02-08-18:25:44,10.1.1.5,21,-0.070,-0.070,-0.070,0.000,0.000,0.000
1644344744937391104,2022-02-08-18:25:44,10.1.1.5,20,-0.060,-0.060,-0.060,0.000,0.000,0.000
1644344745057879040,2022-02-08-18:25:45,10.1.1.5,39,-0.050,-0.050,-0.050,0.000,0.000,0.000
1644344745154884096,2022-02-08-18:25:45,10.1.1.5,38,-0.040,-0.040,-0.040,0.000,0.000,0.000
1644344745255798016,2022-02-08-18:25:45,10.1.1.5,36,-0.030,-0.030,-0.030,0.000,0.000,0.000
1644344745354817024,2022-02-08-18:25:45,10.1.1.5,35,-0.020,-0.020,-0.020,0.000,0.000,0.000
1644344745455138048,2022-02-08-18:25:45,10.1.1.5,34,-0.010,-0.010,-0.010,0.000,0.000,0.000
1644344745553890048,2022-02-08-18:25:45,10.1.1.5,34,0.000,0.000,0.000,0.000,0.000,0.000
1644344745654311936,2022-02-08-18:25:45,10.1.1.5,33,0.010,0.010,0.010,0.000,0.000,0.000
1644344745755356160,2022-02-08-18:25:45,10.1.1.5,32,0.020,0.020,0.020,0.000,0.000,0.000
1644344745855753984,2022-02-08-18:25:45,10.1.1.5,31,0.030,0.030,0.030,0.000,0.000,0.000
1644344745953473024,2022-02-08-18:25:45,10.1.1.5,29,0.040,0.040,0.040,0.000,0.000,0.000
1644344746054821888,2022-02-08-18:25:46,10.1.1.5,25,0.050,0.050,0.050,0.000,0.000,0.000
1644344746155940096,2022-02-08-18:25:46,10.1.1.5,23,0.060,0.060,0.060,0.000,0.000,0.000
1644344746256599040,2022-02-08-18:25:46,10.1.1.5,22,0.070,0.070,0.070,0.000,0.000,0.000
1644344746353972992,2022-02-08-18:25:46,10.1.1.5,20,0.080,0.080,0.080,0.000,0.000,0.000
1644344746474713088,2022-02-08-18:25:46,10.1.1.5,35,0.090,0.090,0.090,0.000,0.000,0.000
1644344746573360896,2022-02-08-18:25:46,10.1.1.5,33,0.100,0.100,0.100,0.000,0.000,0.000
1644344746675949056,2022-02-08-18:25:46,10.1.1.5,32,0.090,0.090,0.090,0.000,0.000,0.000
1644344746774422016,2022-02-08-18:25:46,10.1.1.5,31,0.080,0.080,0.080,0.000,0.000,0.000
1644344746875220992,2022-02-08-18:25:46,10.1.1.5,29,0.070,0.070,0.070,0.000,0.000,0.000
1644344746974891776,2022-02-08-18:25:46,10.1.1.5,28,0.060,0.060,0.060,0.000,0.000,0.000
1644344747074196992,2022-02-08-18:25:47,10.1.1.5,25,0.050,0.050,0.050,0.000,0.000,0.000
1644344747174139904,2022-02-08-18:25:47,10.1.1.5,24,0.040,0.040,0.040,0.000,0.000,0.000
1644344747275790848,2022-02-08-18:25:47,10.1.1.5,23,0.030,0.030,0.030,0.000,0.000,0.000
1644344747376750080,2022-02-08-18:25:47,10.1.1.5,21,0.020,0.020,0.020,0.000,0.000,0.000
1644344747494433024,2022-02-08-18:25:47,10.1.1.5,38,0.010,0.010,0.010,0.000,0.000,0.000
1644344747593209088,2022-02-08-18:25:47,10.1.1.5,27,0.000,0.000,0.000,0.000,0.000,0.000
1644344747693378048,2022-02-08-18:25:47,10.1.1.5,25,-0.010,-0.010,-0.010,0.000,0.000,0.000
1644344747795901952,2022-02-08-18:25:47,10.1.1.5,24,-0.020,-0.020,-0.020,0.000,0.000,0.000
1644344747896253184,2022-02-08-18:25:47,10.1.1.5,23,-0.030,-0.030,-0.030,0.000,0.000,0.000
1644344747994637056,2022-02-08-18:25:47,10.1.1.5,22,-0.040,-0.040,-0.040,0.000,0.000,0.000
1644344748096647936,2022-02-08-18:25:48,10.1.1.5,20,-0.050,-0.050,-0.050,0.000,0.000,0.000
1644344748213931008,2022-02-08-18:25:48,10.1.1.5,38,-0.060,-0.060,-0.060,0.000,0.000,0.000
1644344748314322944,2022-02-08-18:25:48,10.1.1.5,34,-0.070,-0.070,-0.070,0.000,0.000,0.000
1644344748414825984,2022-02-08-18:25:48,10.1.1.5,33,-0.080,-0.080,-0.080,0.000,0.000,0.000
1644344748514031872,2022-02-08-18:25:48,10.1.1.5,32,-0.090,-0.090,-0.090,0.000,0.000,0.000
1644344748614059008,2022-02-08-18:25:48,10.1.1.5,31,-0.100,-0.100,-0.100,0.000,0.000,0.000
1644344748714940928,2022-02-08-18:25:48,10.1.1.5,28,-0.090,-0.090,-0.090,0.000,0.000,0.000
1644344748812802048,2022-02-08-18:25:48,10.1.1.5,27,-0.080,-0.080,-0.080,0.000,0.000,0.000
1644344748912674816,2022-02-08-18:25:48,10.1.1.5,27,-0.070,-0.070,-0.070,0.000,0.000,0.000
1644344749013242880,2022-02-08-18:25:49,10.1.1.5,26,-0.060,-0.060,-0.060,0.000,0.000,0.000
1644344749113463040,2022-02-08-18:25:49,10.1.1.5,24,-0.050,-0.050,-0.050,0.000,0.000,0.000
1644344749214157056,2022-02-08-18:25:49,10.1.1.5,23,-0.040,-0.040,-0.040,0.000,0.000,0.000
1644344749313918976,2022-02-08-18:25:49,10.1.1.5,22,-0.030,-0.030,-0.030,0.000,0.000,0.000
1644344749413846016,2022-02-08-18:25:49,10.1.1.5,20,-0.020,-0.020,-0.020,0.000,0.000,0.000
1644344749513863168,2022-02-08-18:25:49,10.1.1.5,20,-0.010,-0.010,-0.010,0.000,0.000,0.000
1644344749633426944,2022-02-08-18:25:49,10.1.1.5,38,0.000,0.000,0.000,0.000,0.000,0.000
1644344749733472000,2022-02-08-18:25:49,10.1.1.5,35,0.010,0.010,0.010,0.000,0.000,0.000
1644344749834121984,2022-02-08-18:25:49,10.1.1.5,34,0.020,0.020,0.020,0.000,0.000,0.000
1644344749933331968,2022-02-08-18:25:49,10.1.1.5,33,0.030,0.030,0.030,0.000,0.000,0.000
1644344750133874944,2022-02-08-18:25:50,10.1.1.5,21,0.050,0.050,0.050,0.000,0.000,0.000
1644344750234138112,2022-02-08-18:25:50,10.1.1.5,20,0.060,0.060,0.060,0.000,0.000,0.000
1644344750453712896,2022-02-08-18:25:50,10.1.1.5,38,0.080,0.080,0.080,0.000,0.000,0.000
1644344750553092864,2022-02-08-18:25:50,10.1.1.5,38,0.090,0.090,0.090,0.000,0.000,0.000
1644344750654756096,2022-02-08-18:25:50,10.1.1.5,35,0.100,0.100,0.100,0.000,0.000,0.000
1644344750755158016,2022-02-08-18:25:50,10.1.1.5,33,0.090,0.090,0.090,0.000,0.000,0.000
1644344750854230016,2022-02-08-18:25:50,10.1.1.5,32,0.080,0.080,0.080,0.000,0.000,0.000
1644344750954799872,2022-02-08-18:25:50,10.1.1.5,30,0.070,0.070,0.070,0.000,0.000,0.000
1644344751056534016,2022-02-08-18:25:51,10.1.1.5,29,0.060,0.060,0.060,0.000,0.000,0.000
1644344751154712064,2022-02-08-18:25:51,10.1.1.5,27,0.050,0.050,0.050,0.000,0.000,0.000
1644344751255827968,2022-02-08-18:25:51,10.1.1.5,26,0.040,0.040,0.040,0.000,0.000,0.000
1644344751353805056,2022-02-08-18:25:51,10.1.1.5,24,0.030,0.030,0.030,0.000,0.000,0.000
1644344751455802880,2022-02-08-18:25:51,10.1.1.5,23,0.020,0.020,0.020,0.000,0.000,0.000
1644344751559109888,2022-02-08-18:25:51,10.1.1.5,22,0.010,0.010,0.010,0.000,0.000,0.000
1644344751656265984,2022-02-08-18:25:51,10.1.1.5,20,0.000,0.000,0.000,0.000,0.000,0.000
1644344751758246912,2022-02-08-18:25:51,10.1.1.5,20,-0.010,-0.010,-0.010,0.000,0.000,0.000
1644344751879198976,2022-02-08-18:25:51,10.1.1.5,39,-0.020,-0.020,-0.020,0.000,0.000,0.000
1644344751974277120,2022-02-08-18:25:51,10.1.1.5,36,-0.030,-0.030,-0.030,0.000,0.000,0.000
1644344752077379840,2022-02-08-18:25:52,10.1.1.5,34,-0.040,-0.040,-0.040,0.000,0.000,0.000
1644344752173788928,2022-02-08-18:25:52,10.1.1.5,33,-0.050,-0.050,-0.050,0.000,0.000,0.000
1644344752274092800,2022-02-08-18:25:52,10.1.1.5,32,-0.060,-0.060,-0.060,0.000,0.000,0.000
1644344752375125760,2022-02-08-18:25:52,10.1.1.5,31,-0.070,-0.070,-0.070,0.000,0.000,0.000
1644344752474490880,2022-02-08-18:25:52,10.1.1.5,30,-0.080,-0.080,-0.080,0.000,0.000,0.000
1644344752573577984,2022-02-08-18:25:52,10.1.1.5,28,-0.090,-0.090,-0.090,0.000,0.000,0.000
1644344752676634112,2022-02-08-18:25:52,10.1.1.5,25,-0.100,-0.100,-0.100,0.000,0.000,0.000
1644344752774390016,2022-02-08-18:25:52,10.1.1.5,24,-0.090,-0.090,-0.090,0.000,0.000,0.000
1644344752873935872,2022-02-08-18:25:52,10.1.1.5,21,-0.080,-0.080,-0.080,0.000,0.000,0.000
1644344752995951872,2022-02-08-18:25:52,10.1.1.5,33,-0.070,-0.070,-0.070,0.000,0.000,0.000
1644344753096737024,2022-02-08-18:25:53,10.1.1.5,31,-0.060,-0.060,-0.060,0.000,0.000,0.000
1644344753194477056,2022-02-08-18:25:53,10.1.1.5,30,-0.050,-0.050,-0.050,0.000,0.000,0.000
1644344753294691072,2022-02-08-18:25:53,10.1.1.5,29,-0.040,-0.040,-0.040,0.000,0.000,0.000
1644344753394929920,2022-02-08-18:25:53,10.1.1.5,26,-0.030,-0.030,-0.030,0.000,0.000,0.000
1644344753494648064,2022-02-08-18:25:53,10.1.1.5,25,-0.020,-0.020,-0.020,0.000,0.000,0.000
1644344753594340096,2022-02-08-18:25:53,10.1.1.5,22,-0.010,-0.010,-0.010,0.000,0.000,0.000
1644344753694840064,2022-02-08-18:25:53,10.1.1.5,21,0.000,0.000,0.000,0.000,0.000,0.000
1644344753815110912,2022-02-08-18:25:53,10.1.1.5,39,0.010,0.010,0.010,0.000,0.000,0.000
1644344753914280960,2022-02-08-18:25:53,10.1.1.5,35,0.020,0.020,0.020,0.000,0.000,0.000
1644344754014108928,2022-02-08-18:25:54,10.1.1.5,34,0.030,0.030,0.030,0.000,0.000,0.000
1644344754114159104,2022-02-08-18:25:54,10.1.1.5,33,0.040,0.040,0.040,0.000,0.000,0.000
1644344754213469952,2022-02-08-18:25:54,10.1.1.5,31,0.050,0.050,0.050,0.000,0.000,0.000
1644344754314161152,2022-02-08-18:25:54,10.1.1.5,30,0.060,0.060,0.060,0.000,0.000,0.000
1644344754413517824,2022-02-08-18:25:54,10.1.1.5,29,0.070,0.070,0.070,0.000,0.000,0.000
1644344754513596160,2022-02-08-18:25:54,10.1.1.5,27,0.080,0.080,0.080,0.000,0.000,0.000
1644344754613298944,2022-02-08-18:25:54,10.1.1.5,25,0.090,0.090,0.090,0.000,0.000,0.000
1644344754714523904,2022-02-08-18:25:54,10.1.1.5,24,0.100,0.100,0.100,0.000,0.000,0.000
1644344754814146048,2022-02-08-18:25:54,10.1.1.5,22,0.090,0.090,0.090,0.000,0.000,0.000
1644344754913499136,2022-02-08-18:25:54,10.1.1.5,20,0.080,0.080,0.080,0.000,0.000,0.000
1644344755033551104,2022-02-08-18:25:55,10.1.1.5,39,0.070,0.070,0.070,0.000,0.000,0.000
1644344755133538048,2022-02-08-18:25:55,10.1.1.5,37,0.060,0.060,0.060,0.000,0.000,0.000
1644344755234238976,2022-02-08-18:25:55,10.1.1.5,34,0.050,0.050,0.050,0.000,0.000,0.000
1644344755333678848,2022-02-08-18:25:55,10.1.1.5,33,0.040,0.040,0.040,0.000,0.000,0.000
1644344755435316992,2022-02-08-18:25:55,10.1.1.5,32,0.030,0.030,0.030,0.000,0.000,0.000
1644344755533598976,2022-02-08-18:25:55,10.1.1.5,31,0.020,0.020,0.020,0.000,0.000,0.000
1644344755634785792,2022-02-08-18:25:55,10.1.1.5,31,0.010,0.010,0.010,0.000,0.000,0.000
1644344755732983040,2022-02-08-18:25:55,10.1.1.5,30,0.000,0.000,0.000,0.000,0.000,0.000
1644344755833775872,2022-02-08-18:25:55,10.1.1.5,29,-0.010,-0.010,-0.010,0.000,0.000,0.000
1644344755933903104,2022-02-08-18:25:55,10.1.1.5,25,-0.020,-0.020,-0.020,0.000,0.000,0.000
1644344756032529152,2022-02-08-18:25:56,10.1.1.5,24,-0.030,-0.030,-0.030,0.000,0.000,0.000
1644344756133593088,2022-02-08-18:25:56,10.1.1.5,23,-0.040,-0.040,-0.040,0.000,0.000,0.000
1644344756232974080,2022-02-08-18:25:56,10.1.1.5,22,-0.050,-0.050,-0.050,0.000,0.000,0.000
1644344756332630016,2022-02-08-18:25:56,10.1.1.5,21,-0.060,-0.060,-0.060,0.000,0.000,0.000
1644344756433948928,2022-02-08-18:25:56,10.1.1.5,21,-0.070,-0.070,-0.070,0.000,0.000,0.000
1644344756534817024,2022-02-08-18:25:56,10.1.1.5,19,-0.080,-0.080,-0.080,0.000,0.000,0.000
1644344756655689984,2022-02-08-18:25:56,10.1.1.5,39,-0.090,-0.090,-0.090,0.000,0.000,0.000
1644344756754385920,2022-02-08-18:25:56,10.1.1.5,38,-0.100,-0.100,-0.100,0.000,0.000,0.000
1644344756855074816,2022-02-08-18:25:56,10.1.1.5,37,-0.090,-0.090,-0.090,0.000,0.000,0.000
1644344756953541888,2022-02-08-18:25:56,10.1.1.5,36,-0.080,-0.080,-0.080,0.000,0.000,0.000
1644344757064498944,2022-02-08-18:25:57,10.1.1.5,35,-0.070,-0.070,-0.070,0.000,0.000,0.000
1644344757154507008,2022-02-08-18:25:57,10.1.1.5,25,-0.060,-0.060,-0.060,0.000,0.000,0.000
1644344757253364992,2022-02-08-18:25:57,10.1.1.5,23,-0.050,-0.050,-0.050,0.000,0.000,0.000
1644344757354029056,2022-02-08-18:25:57,10.1.1.5,22,-0.040,-0.040,-0.040,0.000,0.000,0.000
1644344757454679040,2022-02-08-18:25:57,10.1.1.5,21,-0.030,-0.030,-0.030,0.000,0.000,0.000
1644344757655363072,2022-02-08-18:25:57,10.1.1.5,20,-0.010,-0.010,-0.010,0.000,0.000,0.000
1644344757774185984,2022-02-08-18:25:57,10.1.1.5,39,0.000,0.000,0.000,0.000,0.000,0.000
1644344757874881024,2022-02-08-18:25:57,10.1.1.5,39,0.010,0.010,0.010,0.000,0.000,0.000
1644344757981733120,2022-02-08-18:25:57,10.1.1.5,38,0.020,0.020,0.020,0.000,0.000,0.000
1644344758074990080,2022-02-08-18:25:58,10.1.1.5,26,0.030,0.030,0.030,0.000,0.000,0.000
1644344758173046016,2022-02-08-18:25:58,10.1.1.5,22,0.040,0.040,0.040,0.000,0.000,0.000
1644344758273241088,2022-02-08-18:25:58,10.1.1.5,21,0.050,0.050,0.050,0.000,0.000,0.000
1644344758373874944,2022-02-08-18:25:58,10.1.1.5,20,0.060,0.060,0.060,0.000,0.000,0.000
1644344758475739904,2022-02-08-18:25:58,10.1.1.5,20,0.070,0.070,0.070,0.000,0.000,0.000
1644344758593182208,2022-02-08-18:25:58,10.1.1.5,36,0.080,0.080,0.080,0.000,0.000,0.000
1644344758692994048,2022-02-08-18:25:58,10.1.1.5,35,0.090,0.090,0.090,0.000,0.000,0.000
1644344758793238016,2022-02-08-18:25:58,10.1.1.5,34,0.100,0.100,0.100,0.000,0.000,0.000
1644344758892751872,2022-02-08-18:25:58,10.1.1.5,34,0.090,0.090,0.090,0.000,0.000,0.000
1644344758992834048,2022-02-08-18:25:58,10.1.1.5,33,0.080,0.080,0.080,0.000,0.000,0.000
1644344759092891904,2022-02-08-18:25:59,10.1.1.5,32,0.070,0.070,0.070,0.000,0.000,0.000
1644344759193156096,2022-02-08-18:25:59,10.1.1.5,32,0.060,0.060,0.060,0.000,0.000,0.000
1644344759293071104,2022-02-08-18:25:59,10.1.1.5,31,0.050,0.050,0.050,0.000,0.000,0.000
1644344759392779008,2022-02-08-18:25:59,10.1.1.5,30,0.040,0.040,0.040,0.000,0.000,0.000
1644344759492911104,2022-02-08-18:25:59,10.1.1.5,29,0.030,0.030,0.030,0.000,0.000,0.000
1644344759592724992,2022-02-08-18:25:59,10.1.1.5,29,0.020,0.020,0.020,0.000,0.000,0.000
1644344759692614912,2022-02-08-18:25:59,10.1.1.5,28,0.010,0.010,0.010,0.000,0.000,0.000
1644344759793102080,2022-02-08-18:25:59,10.1.1.5,28,0.000,0.000,0.000,0.000,0.000,0.000
1644344759893101056,2022-02-08-18:25:59,10.1.1.5,25,-0.010,-0.010,-0.010,0.000,0.000,0.000
1644344759995325952,2022-02-08-18:25:59,10.1.1.5,25,-0.020,-0.020,-0.020,0.000,0.000,0.000
1644344760093192960,2022-02-08-18:26:00,10.1.1.5,23,-0.030,-0.030,-0.030,0.000,0.000,0.000
1644344760192284160,2022-02-08-18:26:00,10.1.1.5,23,-0.040,-0.040,-0.040,0.000,0.000,0.000
1644344760292334080,2022-02-08-18:26:00,10.1.1.5,22,-0.050,-0.050,-0.050,0.000,0.000,0.000
1644344760401061888,2022-02-08-18:26:00,10.1.1.5,21,-0.060,-0.060,-0.060,0.000,0.000,0.000
1644344760492989184,2022-02-08-18:26:00,10.1.1.5,20,-0.070,-0.070,-0.070,0.000,0.000,0.000
1644344760593193984,2022-02-08-18:26:00,10.1.1.5,20,-0.080,-0.080,-0.080,0.000,0.000,0.000
1644344760692923136,2022-02-08-18:26:00,10.1.1.5,19,-0.089,-0.089,-0.089,0.000,0.000,0.000
1644344760813232896,2022-02-08-18:26:00,10.1.1.5,38,-0.100,-0.100,-0.100,0.000,0.000,0.000
1644344760914444800,2022-02-08-18:26:00,10.1.1.5,36,-0.090,-0.090,-0.090,0.000,0.000,0.000
1644344761014663936,2022-02-08-18:26:01,10.1.1.5,33,-0.080,-0.080,-0.080,0.000,0.000,0.000
1644344761115059968,2022-02-08-18:26:01,10.1.1.5,28,-0.070,-0.070,-0.070,0.000,0.000,0.000
1644344761214096128,2022-02-08-18:26:01,10.1.1.5,25,-0.060,-0.060,-0.060,0.000,0.000,0.000
1644344761316926976,2022-02-08-18:26:01,10.1.1.5,24,-0.050,-0.050,-0.050,0.000,0.000,0.000
1644344761414311936,2022-02-08-18:26:01,10.1.1.5,23,-0.040,-0.040,-0.040,0.000,0.000,0.000
1644344761664092160,2022-02-08-18:26:01,10.1.1.5,22,-0.020,-0.020,-0.020,0.000,0.000,0.000
1644344761733102080,2022-02-08-18:26:01,10.1.1.5,21,-0.010,-0.010,-0.010,0.000,0.000,0.000
1644344761835066112,2022-02-08-18:26:01,10.1.1.5,19,-0.000,-0.000,-0.000,0.000,0.000,0.000
1644344761955430912,2022-02-08-18:26:01,10.1.1.5,37,0.010,0.010,0.010,0.000,0.000,0.000
1644344762073828096,2022-02-08-18:26:02,10.1.1.5,34,0.020,0.020,0.020,0.000,0.000,0.000
1644344762155028224,2022-02-08-18:26:02,10.1.1.5,32,0.030,0.030,0.030,0.000,0.000,0.000
1644344762257180928,2022-02-08-18:26:02,10.1.1.5,30,0.040,0.040,0.040,0.000,0.000,0.000
1644344762355337984,2022-02-08-18:26:02,10.1.1.5,24,0.050,0.050,0.050,0.000,0.000,0.000
1644344762473426944,2022-02-08-18:26:02,10.1.1.5,38,0.060,0.060,0.060,0.000,0.000,0.000
1644344762575320064,2022-02-08-18:26:02,10.1.1.5,37,0.070,0.070,0.070,0.000,0.000,0.000
1644344762674164992,2022-02-08-18:26:02,10.1.1.5,37,0.080,0.080,0.080,0.000,0.000,0.000
1644344762775638016,2022-02-08-18:26:02,10.1.1.5,36,0.090,0.090,0.090,0.000,0.000,0.000
1644344762873390080,2022-02-08-18:26:02,10.1.1.5,35,0.100,0.100,0.100,0.000,0.000,0.000
1644344762972979968,2022-02-08-18:26:02,10.1.1.5,34,0.090,0.090,0.090,0.000,0.000,0.000
1644344763072792064,2022-02-08-18:26:03,10.1.1.5,34,0.080,0.080,0.080,0.000,0.000,0.000
1644344763172985088,2022-02-08-18:26:03,10.1.1.5,33,0.070,0.070,0.070,0.000,0.000,0.000
1644344763273658112,2022-02-08-18:26:03,10.1.1.5,31,0.060,0.060,0.060,0.000,0.000,0.000
1644344763374095872,2022-02-08-18:26:03,10.1.1.5,31,0.050,0.050,0.050,0.000,0.000,0.000
1644344763472771840,2022-02-08-18:26:03,10.1.1.5,29,0.040,0.040,0.040,0.000,0.000,0.000
1644344763572762880,2022-02-08-18:26:03,10.1.1.5,27,0.030,0.030,0.030,0.000,0.000,0.000
1644344763672771840,2022-02-08-18:26:03,10.1.1.5,26,0.020,0.020,0.020,0.000,0.000,0.000
1644344763773190912,2022-02-08-18:26:03,10.1.1.5,25,0.010,0.010,0.010,0.000,0.000,0.000
1644344763872940032,2022-02-08-18:26:03,10.1.1.5,24,0.000,0.000,0.000,0.000,0.000,0.000
1644344763973124096,2022-02-08-18:26:03,10.1.1.5,23,-0.010,-0.010,-0.010,0.000,0.000,0.000
1644344764076000000,2022-02-08-18:26:04,10.1.1.5,22,-0.020,-0.020,-0.020,0.000,0.000,0.000
1644344764179214848,2022-02-08-18:26:04,10.1.1.5,21,-0.030,-0.030,-0.030,0.000,0.000,0.000
1644344764273580032,2022-02-08-18:26:04,10.1.1.5,20,-0.040,-0.040,-0.040,0.000,0.000,0.000
1644344764374136064,2022-02-08-18:26:04,10.1.1.5,19,-0.050,-0.050,-0.050,0.000,0.000,0.000
1644344764498999040,2022-02-08-18:26:04,10.1.1.5,38,-0.060,-0.060,-0.060,0.000,0.000,0.000
1644344764593110016,2022-02-08-18:26:04,10.1.1.5,38,-0.070,-0.070,-0.070,0.000,0.000,0.000
1644344764693423104,2022-02-08-18:26:04,10.1.1.5,37,-0.080,-0.080,-0.080,0.000,0.000,0.000
1644344764827554048,2022-02-08-18:26:04,10.1.1.5,33,-0.090,-0.090,-0.090,0.000,0.000,0.000
1644344764892925952,2022-02-08-18:26:04,10.1.1.5,27,-0.100,-0.100,-0.100,0.000,0.000,0.000
1644344764993818880,2022-02-08-18:26:04,10.1.1.5,26,-0.090,-0.090,-0.090,0.000,0.000,0.000
1644344765092881920,2022-02-08-18:26:05,10.1.1.5,24,-0.080,-0.080,-0.080,0.000,0.000,0.000
1644344765192768000,2022-02-08-18:26:05,10.1.1.5,23,-0.070,-0.070,-0.070,0.000,0.000,0.000
1644344765292933888,2022-02-08-18:26:05,10.1.1.5,23,-0.060,-0.060,-0.060,0.000,0.000,0.000
1644344765393233920,2022-02-08-18:26:05,10.1.1.5,23,-0.050,-0.050,-0.050,0.000,0.000,0.000
1644344765493009920,2022-02-08-18:26:05,10.1.1.5,22,-0.040,-0.040,-0.040,0.000,0.000,0.000
1644344765592848128,2022-02-08-18:26:05,10.1.1.5,21,-0.030,-0.030,-0.030,0.000,0.000,0.000
1644344765693888000,2022-02-08-18:26:05,10.1.1.5,21,-0.020,-0.020,-0.020,0.000,0.000,0.000
1644344765792902912,2022-02-08-18:26:05,10.1.1.5,21,-0.010,-0.010,-0.010,0.000,0.000,0.000
1644344765895526912,2022-02-08-18:26:05,10.1.1.5,20,-0.000,-0.000,-0.000,0.000,0.000,0.000
1644344766016023040,2022-02-08-18:26:06,10.1.1.5,30,0.010,0.010,0.010,0.000,0.000,0.000
1644344766116527104,2022-02-08-18:26:06,10.1.1.5,29,0.020,0.020,0.020,0.000,0.000,0.000
1644344766215266816,2022-02-08-18:26:06,10.1.1.5,24,0.030,0.030,0.030,0.000,0.000,0.000
1644344766317442816,2022-02-08-18:26:06,10.1.1.5,23,0.040,0.040,0.040,0.000,0.000,0.000
1644344766414454016,2022-02-08-18:26:06,10.1.1.5,21,0.050,0.050,0.050,0.000,0.000,0.000
1644344766516652032,2022-02-08-18:26:06,10.1.1.5,20,0.060,0.060,0.060,0.000,0.000,0.000
1644344766637895168,2022-02-08-18:26:06,10.1.1.5,39,0.070,0.070,0.070,0.000,0.000,0.000
1644344766732606976,2022-02-08-18:26:06,10.1.1.5,37,0.080,0.080,0.080,0.000,0.000,0.000
1644344766839270144,2022-02-08-18:26:06,10.1.1.5,36,0.090,0.090,0.090,0.000,0.000,0.000
1644344766934330112,2022-02-08-18:26:06,10.1.1.5,35,0.100,0.100,0.100,0.000,0.000,0.000
1644344767032856832,2022-02-08-18:26:07,10.1.1.5,33,0.090,0.090,0.090,0.000,0.000,0.000
1644344767138796032,2022-02-08-18:26:07,10.1.1.5,31,0.080,0.080,0.080,0.000,0.000,0.000
1644344767233117184,2022-02-08-18:26:07,10.1.1.5,30,0.070,0.070,0.070,0.000,0.000,0.000
1644344767333309952,2022-02-08-18:26:07,10.1.1.5,29,0.060,0.060,0.060,0.000,0.000,0.000
1644344767433562880,2022-02-08-18:26:07,10.1.1.5,28,0.050,0.050,0.050,0.000,0.000,0.000
1644344767533644032,2022-02-08-18:26:07,10.1.1.5,27,0.040,0.040,0.040,0.000,0.000,0.000
1644344767633255936,2022-02-08-18:26:07,10.1.1.5,27,0.030,0.030,0.030,0.000,0.000,0.000
1644344767733043968,2022-02-08-18:26:07,10.1.1.5,25,0.020,0.020,0.020,0.000,0.000,0.000
1644344767833355008,2022-02-08-18:26:07,10.1.1.5,24,0.010,0.010,0.010,0.000,0.000,0.000
1644344767932786944,2022-02-08-18:26:07,10.1.1.5,24,0.000,0.000,0.000,0.000,0.000,0.000
1644344768032537088,2022-02-08-18:26:08,10.1.1.5,24,-0.010,-0.010,-0.010,0.000,0.000,0.000
1644344768132783872,2022-02-08-18:26:08,10.1.1.5,23,-0.020,-0.020,-0.020,0.000,0.000,0.000
1644344768232317952,2022-02-08-18:26:08,10.1.1.5,21,-0.030,-0.030,-0.030,0.000,0.000,0.000
1644344768332585216,2022-02-08-18:26:08,10.1.1.5,20,-0.040,-0.040,-0.040,0.000,0.000,0.000
1644344768433121024,2022-02-08-18:26:08,10.1.1.5,20,-0.050,-0.050,-0.050,0.000,0.000,0.000
1644344768552516864,2022-02-08-18:26:08,10.1.1.5,39,-0.060,-0.060,-0.060,0.000,0.000,0.000
1644344768653358848,2022-02-08-18:26:08,10.1.1.5,38,-0.070,-0.070,-0.070,0.000,0.000,0.000
1644344768754342144,2022-02-08-18:26:08,10.1.1.5,38,-0.080,-0.080,-0.080,0.000,0.000,0.000
1644344768855451136,2022-02-08-18:26:08,10.1.1.5,35,-0.090,-0.090,-0.090,0.000,0.000,0.000
1644344768956064000,2022-02-08-18:26:08,10.1.1.5,31,-0.100,-0.100,-0.100,0.000,0.000,0.000
1644344769055728896,2022-02-08-18:26:09,10.1.1.5,29,-0.090,-0.090,-0.090,0.000,0.000,0.000
1644344769153747200,2022-02-08-18:26:09,10.1.1.5,27,-0.080,-0.080,-0.080,0.000,0.000,0.000
1644344769257043968,2022-02-08-18:26:09,10.1.1.5,25,-0.070,-0.070,-0.070,0.000,0.000,0.000
1644344769353585920,2022-02-08-18:26:09,10.1.1.5,23,-0.060,-0.060,-0.060,0.000,0.000,0.000
1644344769460076032,2022-02-08-18:26:09,10.1.1.5,22,-0.050,-0.050,-0.050,0.000,0.000,0.000
1644344769553509888,2022-02-08-18:26:09,10.1.1.5,21,-0.040,-0.040,-0.040,0.000,0.000,0.000
1644344769673968128,2022-02-08-18:26:09,10.1.1.5,39,-0.030,-0.030,-0.030,0.000,0.000,0.000
1644344769774484992,2022-02-08-18:26:09,10.1.1.5,37,-0.020,-0.020,-0.020,0.000,0.000,0.000
1644344769873553920,2022-02-08-18:26:09,10.1.1.5,36,-0.010,-0.010,-0.010,0.000,0.000,0.000
1644344769978854912,2022-02-08-18:26:09,10.1.1.5,33,0.000,0.000,0.000,0.000,0.000,0.000
1644344770074237952,2022-02-08-18:26:10,10.1.1.5,32,0.010,0.010,0.010,0.000,0.000,0.000
1644344770174789888,2022-02-08-18:26:10,10.1.1.5,30,0.020,0.020,0.020,0.000,0.000,0.000
1644344770273566976,2022-02-08-18:26:10,10.1.1.5,27,0.030,0.030,0.030,0.000,0.000,0.000
1644344770374252032,2022-02-08-18:26:10,10.1.1.5,25,0.040,0.040,0.040,0.000,0.000,0.000
1644344770474249984,2022-02-08-18:26:10,10.1.1.5,23,0.050,0.050,0.050,0.000,0.000,0.000
1644344770572759040,2022-02-08-18:26:10,10.1.1.5,21,0.060,0.060,0.060,0.000,0.000,0.000
1644344770673916928,2022-02-08-18:26:10,10.1.1.5,21,0.070,0.070,0.070,0.000,0.000,0.000
1644344770794981888,2022-02-08-18:26:10,10.1.1.5,38,0.080,0.080,0.080,0.000,0.000,0.000
1644344770894836992,2022-02-08-18:26:10,10.1.1.5,34,0.090,0.090,0.090,0.000,0.000,0.000
1644344770996452096,2022-02-08-18:26:10,10.1.1.5,33,0.100,0.100,0.100,0.000,0.000,0.000
1644344771093897984,2022-02-08-18:26:11,10.1.1.5,32,0.090,0.090,0.090,0.000,0.000,0.000
1644344771294394880,2022-02-08-18:26:11,10.1.1.5,29,0.070,0.070,0.070,0.000,0.000,0.000
1644344771393993984,2022-02-08-18:26:11,10.1.1.5,27,0.060,0.060,0.060,0.000,0.000,0.000
1644344771495860224,2022-02-08-18:26:11,10.1.1.5,26,0.050,0.050,0.050,0.000,0.000,0.000
1644344771692642048,2022-02-08-18:26:11,10.1.1.5,24,0.030,0.030,0.030,0.000,0.000,0.000
1644344771793134848,2022-02-08-18:26:11,10.1.1.5,24,0.020,0.020,0.020,0.000,0.000,0.000
1644344771892996096,2022-02-08-18:26:11,10.1.1.5,23,0.010,0.010,0.010,0.000,0.000,0.000
1644344771993454080,2022-02-08-18:26:11,10.1.1.5,21,0.000,0.000,0.000,0.000,0.000,0.000
1644344772093233152,2022-02-08-18:26:12,10.1.1.5,20,-0.010,-0.010,-0.010,0.000,0.000,0.000
1644344772193797120,2022-02-08-18:26:12,10.1.1.5,19,-0.020,-0.020,-0.020,0.000,0.000,0.000
1644344772313455104,2022-02-08-18:26:12,10.1.1.5,39,-0.030,-0.030,-0.030,0.000,0.000,0.000
1644344772414382848,2022-02-08-18:26:12,10.1.1.5,38,-0.040,-0.040,-0.040,0.000,0.000,0.000
1644344772513634048,2022-02-08-18:26:12,10.1.1.5,37,-0.050,-0.050,-0.050,0.000,0.000,0.000
1644344772613534976,2022-02-08-18:26:12,10.1.1.5,35,-0.060,-0.060,-0.060,0.000,0.000,0.000
1644344772713210112,2022-02-08-18:26:12,10.1.1.5,34,-0.070,-0.070,-0.070,0.000,0.000,0.000
1644344772813735936,2022-02-08-18:26:12,10.1.1.5,33,-0.080,-0.080,-0.080,0.000,0.000,0.000
1644344772913796864,2022-02-08-18:26:12,10.1.1.5,32,-0.090,-0.090,-0.090,0.000,0.000,0.000
1644344773013362944,2022-02-08-18:26:13,10.1.1.5,30,-0.100,-0.100,-0.100,0.000,0.000,0.000
1644344773113773056,2022-02-08-18:26:13,10.1.1.5,30,-0.090,-0.090,-0.090,0.000,0.000,0.000
1644344773213658112,2022-02-08-18:26:13,10.1.1.5,29,-0.080,-0.080,-0.080,0.000,0.000,0.000
1644344773313293824,2022-02-08-18:26:13,10.1.1.5,28,-0.070,-0.070,-0.070,0.000,0.000,0.000
1644344773414979840,2022-02-08-18:26:13,10.1.1.5,27,-0.060,-0.060,-0.060,0.000,0.000,0.000
1644344773512954880,2022-02-08-18:26:13,10.1.1.5,26,-0.050,-0.050,-0.050,0.000,0.000,0.000
1644344773613337088,2022-02-08-18:26:13,10.1.1.5,25,-0.040,-0.040,-0.040,0.000,0.000,0.000
1644344773714128896,2022-02-08-18:26:13,10.1.1.5,24,-0.030,-0.030,-0.030,0.000,0.000,0.000
1644344773813592832,2022-02-08-18:26:13,10.1.1.5,23,-0.020,-0.020,-0.020,0.000,0.000,0.000
1644344773913786880,2022-02-08-18:26:13,10.1.1.5,22,-0.010,-0.010,-0.010,0.000,0.000,0.000
1644344774013737984,2022-02-08-18:26:14,10.1.1.5,21,0.000,0.000,0.000,0.000,0.000,0.000
1644344774114203904,2022-02-08-18:26:14,10.1.1.5,20,0.010,0.010,0.010,0.000,0.000,0.000
1644344774234448896,2022-02-08-18:26:14,10.1.1.5,38,0.020,0.020,0.020,0.000,0.000,0.000
1644344774334362880,2022-02-08-18:26:14,10.1.1.5,37,0.030,0.030,0.030,0.000,0.000,0.000
1644344774434468096,2022-02-08-18:26:14,10.1.1.5,32,0.040,0.040,0.040,0.000,0.000,0.000
1644344774534450176,2022-02-08-18:26:14,10.1.1.5,31,0.050,0.050,0.050,0.000,0.000,0.000
1644344774634161920,2022-02-08-18:26:14,10.1.1.5,30,0.060,0.060,0.060,0.000,0.000,0.000
1644344774736313088,2022-02-08-18:26:14,10.1.1.5,29,0.070,0.070,0.070,0.000,0.000,0.000
1644344774833769984,2022-02-08-18:26:14,10.1.1.5,27,0.080,0.080,0.080,0.000,0.000,0.000
1644344774934578944,2022-02-08-18:26:14,10.1.1.5,26,0.090,0.090,0.090,0.000,0.000,0.000
1644344775035198976,2022-02-08-18:26:15,10.1.1.5,24,0.100,0.100,0.100,0.000,0.000,0.000
1644344775134497792,2022-02-08-18:26:15,10.1.1.5,23,0.090,0.090,0.090,0.000,0.000,0.000
1644344775233635840,2022-02-08-18:26:15,10.1.1.5,22,0.080,0.080,0.080,0.000,0.000,0.000
1644344775334164992,2022-02-08-18:26:15,10.1.1.5,22,0.070,0.070,0.070,0.000,0.000,0.000
1644344775434208000,2022-02-08-18:26:15,10.1.1.5,21,0.060,0.060,0.060,0.000,0.000,0.000
1644344775535878912,2022-02-08-18:26:15,10.1.1.5,20,0.050,0.050,0.050,0.000,0.000,0.000
1644344775656100864,2022-02-08-18:26:15,10.1.1.5,38,0.040,0.040,0.040,0.000,0.000,0.000
1644344775753513984,2022-02-08-18:26:15,10.1.1.5,36,0.030,0.030,0.030,0.000,0.000,0.000
1644344775853504000,2022-02-08-18:26:15,10.1.1.5,35,0.020,0.020,0.020,0.000,0.000,0.000
1644344775954304000,2022-02-08-18:26:15,10.1.1.5,33,0.010,0.010,0.010,0.000,0.000,0.000
1644344776053495040,2022-02-08-18:26:16,10.1.1.5,33,0.000,0.000,0.000,0.000,0.000,0.000
1644344776153782016,2022-02-08-18:26:16,10.1.1.5,31,-0.010,-0.010,-0.010,0.000,0.000,0.000
1644344776253114112,2022-02-08-18:26:16,10.1.1.5,30,-0.020,-0.020,-0.020,0.000,0.000,0.000
1644344776353053952,2022-02-08-18:26:16,10.1.1.5,29,-0.030,-0.030,-0.030,0.000,0.000,0.000
1644344776453398016,2022-02-08-18:26:16,10.1.1.5,28,-0.040,-0.040,-0.040,0.000,0.000,0.000
1644344776553061888,2022-02-08-18:26:16,10.1.1.5,27,-0.050,-0.050,-0.050,0.000,0.000,0.000
1644344776653544960,2022-02-08-18:26:16,10.1.1.5,26,-0.060,-0.060,-0.060,0.000,0.000,0.000
1644344776753726976,2022-02-08-18:26:16,10.1.1.5,25,-0.070,-0.070,-0.070,0.000,0.000,0.000
1644344776853379072,2022-02-08-18:26:16,10.1.1.5,24,-0.080,-0.080,-0.080,0.000,0.000,0.000
1644344776953263872,2022-02-08-18:26:16,10.1.1.5,23,-0.090,-0.090,-0.090,0.000,0.000,0.000
1644344777053672192,2022-02-08-18:26:17,10.1.1.5,22,-0.100,-0.100,-0.100,0.000,0.000,0.000
1644344777153835008,2022-02-08-18:26:17,10.1.1.5,22,-0.090,-0.090,-0.090,0.000,0.000,0.000
1644344777253999104,2022-02-08-18:26:17,10.1.1.5,20,-0.080,-0.080,-0.080,0.000,0.000,0.000
1644344777353334016,2022-02-08-18:26:17,10.1.1.5,20,-0.070,-0.070,-0.070,0.000,0.000,0.000
1644344777475561984,2022-02-08-18:26:17,10.1.1.5,39,-0.060,-0.060,-0.060,0.000,0.000,0.000
1644344777574106880,2022-02-08-18:26:17,10.1.1.5,38,-0.050,-0.050,-0.050,0.000,0.000,0.000
1644344777673864960,2022-02-08-18:26:17,10.1.1.5,36,-0.040,-0.040,-0.040,0.000,0.000,0.000
1644344777773484032,2022-02-08-18:26:17,10.1.1.5,35,-0.030,-0.030,-0.030,0.000,0.000,0.000
1644344777873552128,2022-02-08-18:26:17,10.1.1.5,34,-0.020,-0.020,-0.020,0.000,0.000,0.000
1644344777973099008,2022-02-08-18:26:17,10.1.1.5,33,-0.010,-0.010,-0.010,0.000,0.000,0.000
1644344778074223872,2022-02-08-18:26:18,10.1.1.5,32,0.000,0.000,0.000,0.000,0.000,0.000
1644344778172915968,2022-02-08-18:26:18,10.1.1.5,31,0.010,0.010,0.010,0.000,0.000,0.000
1644344778273732864,2022-02-08-18:26:18,10.1.1.5,31,0.020,0.020,0.020,0.000,0.000,0.000
1644344778373459200,2022-02-08-18:26:18,10.1.1.5,26,0.030,0.030,0.030,0.000,0.000,0.000
1644344778473679104,2022-02-08-18:26:18,10.1.1.5,25,0.040,0.040,0.040,0.000,0.000,0.000
1644344778580840960,2022-02-08-18:26:18,10.1.1.5,24,0.050,0.050,0.050,0.000,0.000,0.000
1644344778674148096,2022-02-08-18:26:18,10.1.1.5,24,0.060,0.060,0.060,0.000,0.000,0.000
1644344778773494016,2022-02-08-18:26:18,10.1.1.5,23,0.070,0.070,0.070,0.000,0.000,0.000
1644344778874435840,2022-02-08-18:26:18,10.1.1.5,22,0.080,0.080,0.080,0.000,0.000,0.000
1644344778972321024,2022-02-08-18:26:18,10.1.1.5,19,0.090,0.090,0.090,0.000,0.000,0.000
1644344779093144832,2022-02-08-18:26:19,10.1.1.5,37,0.100,0.100,0.100,0.000,0.000,0.000
1644344779194513920,2022-02-08-18:26:19,10.1.1.5,34,0.090,0.090,0.090,0.000,0.000,0.000
1644344779293562880,2022-02-08-18:26:19,10.1.1.5,33,0.080,0.080,0.080,0.000,0.000,0.000
1644344779393654016,2022-02-08-18:26:19,10.1.1.5,31,0.070,0.070,0.070,0.000,0.000,0.000
1644344779493670912,2022-02-08-18:26:19,10.1.1.5,30,0.060,0.060,0.060,0.000,0.000,0.000
1644344779593327104,2022-02-08-18:26:19,10.1.1.5,29,0.050,0.050,0.050,0.000,0.000,0.000
1644344779695344896,2022-02-08-18:26:19,10.1.1.5,28,0.040,0.040,0.040,0.000,0.000,0.000
1644344779793790208,2022-02-08-18:26:19,10.1.1.5,27,0.030,0.030,0.030,0.000,0.000,0.000
1644344779893452800,2022-02-08-18:26:19,10.1.1.5,25,0.020,0.020,0.020,0.000,0.000,0.000
1644344779994208000,2022-02-08-18:26:19,10.1.1.5,24,0.010,0.010,0.010,0.000,0.000,0.000
1644344780093088000,2022-02-08-18:26:20,10.1.1.5,23,0.000,0.000,0.000,0.000,0.000,0.000
1644344780192941824,2022-02-08-18:26:20,10.1.1.5,21,-0.010,-0.010,-0.010,0.000,0.000,0.000
1644344780293282048,2022-02-08-18:26:20,10.1.1.5,21,-0.020,-0.020,-0.020,0.000,0.000,0.000
1644344780414521088,2022-02-08-18:26:20,10.1.1.5,37,-0.030,-0.030,-0.030,0.000,0.000,0.000
1644344780513803008,2022-02-08-18:26:20,10.1.1.5,34,-0.040,-0.040,-0.040,0.000,0.000,0.000
1644344780615288064,2022-02-08-18:26:20,10.1.1.5,33,-0.050,-0.050,-0.050,0.000,0.000,0.000
1644344780713480960,2022-02-08-18:26:20,10.1.1.5,32,-0.060,-0.060,-0.060,0.000,0.000,0.000
1644344780814151936,2022-02-08-18:26:20,10.1.1.5,31,-0.070,-0.070,-0.070,0.000,0.000,0.000
1644344780913069056,2022-02-08-18:26:20,10.1.1.5,30,-0.080,-0.080,-0.080,0.000,0.000,0.000
1644344781013460992,2022-02-08-18:26:21,10.1.1.5,29,-0.090,-0.090,-0.090,0.000,0.000,0.000
1644344781114935040,2022-02-08-18:26:21,10.1.1.5,29,-0.100,-0.100,-0.100,0.000,0.000,0.000
1644344781214603008,2022-02-08-18:26:21,10.1.1.5,28,-0.090,-0.090,-0.090,0.000,0.000,0.000
1644344781314045952,2022-02-08-18:26:21,10.1.1.5,26,-0.080,-0.080,-0.080,0.000,0.000,0.000
1644344781414190080,2022-02-08-18:26:21,10.1.1.5,25,-0.070,-0.070,-0.070,0.000,0.000,0.000
1644344781514061824,2022-02-08-18:26:21,10.1.1.5,24,-0.060,-0.060,-0.060,0.000,0.000,0.000
1644344781613832960,2022-02-08-18:26:21,10.1.1.5,23,-0.050,-0.050,-0.050,0.000,0.000,0.000
1644344781716336128,2022-02-08-18:26:21,10.1.1.5,22,-0.040,-0.040,-0.040,0.000,0.000,0.000
1644344781813153024,2022-02-08-18:26:21,10.1.1.5,21,-0.030,-0.030,-0.030,0.000,0.000,0.000
1644344781913652992,2022-02-08-18:26:21,10.1.1.5,20,-0.020,-0.020,-0.020,0.000,0.000,0.000
1644344782033541888,2022-02-08-18:26:22,10.1.1.5,39,-0.010,-0.010,-0.010,0.000,0.000,0.000
1644344782133800960,2022-02-08-18:26:22,10.1.1.5,38,0.000,0.000,0.000,0.000,0.000,0.000
1644344782233283072,2022-02-08-18:26:22,10.1.1.5,36,0.010,0.010,0.010,0.000,0.000,0.000
1644344782294996992,2022-02-08-18:26:22,10.1.1.5,-5,0.010,0.010,0.010,0.000,0.000,0.000
1644344782433273088,2022-02-08-18:26:22,10.1.1.5,34,0.030,0.030,0.030,0.000,0.000,0.000
1644344782534405120,2022-02-08-18:26:22,10.1.1.5,33,0.040,0.040,0.040,0.000,0.000,0.000
1644344782633783040,2022-02-08-18:26:22,10.1.1.5,32,0.050,0.050,0.050,0.000,0.000,0.000
1644344782733261056,2022-02-08-18:26:22,10.1.1.5,30,0.060,0.060,0.060,0.000,0.000,0.000
1644344782833515008,2022-02-08-18:26:22,10.1.1.5,28,0.070,0.070,0.070,0.000,0.000,0.000
1644344782933204992,2022-02-08-18:26:22,10.1.1.5,26,0.080,0.080,0.080,0.000,0.000,0.000
1644344783033686016,2022-02-08-18:26:23,10.1.1.5,23,0.090,0.090,0.090,0.000,0.000,0.000
1644344783133863936,2022-02-08-18:26:23,10.1.1.5,22,0.100,0.100,0.100,0.000,0.000,0.000
1644344783233419776,2022-02-08-18:26:23,10.1.1.5,21,0.090,0.090,0.090,0.000,0.000,0.000
1644344783334342912,2022-02-08-18:26:23,10.1.1.5,21,0.080,0.080,0.080,0.000,0.000,0.000
1644344783435102976,2022-02-08-18:26:23,10.1.1.5,20,0.070,0.070,0.070,0.000,0.000,0.000
1644344783653487872,2022-02-08-18:26:23,10.1.1.5,37,0.050,0.050,0.050,0.000,0.000,0.000
1644344783753334016,2022-02-08-18:26:23,10.1.1.5,35,0.040,0.040,0.040,0.000,0.000,0.000
1644344783853327872,2022-02-08-18:26:23,10.1.1.5,34,0.030,0.030,0.030,0.000,0.000,0.000
1644344783953666048,2022-02-08-18:26:23,10.1.1.5,33,0.020,0.020,0.020,0.000,0.000,0.000
1644344784053304832,2022-02-08-18:26:24,10.1.1.5,32,0.010,0.010,0.010,0.000,0.000,0.000
1644344784154371072,2022-02-08-18:26:24,10.1.1.5,31,-0.000,-0.000,-0.000,0.000,0.000,0.000
1644344784254019072,2022-02-08-18:26:24,10.1.1.5,31,-0.010,-0.010,-0.010,0.000,0.000,0.000
1644344784353300992,2022-02-08-18:26:24,10.1.1.5,30,-0.020,-0.020,-0.020,0.000,0.000,0.000
1644344784453586944,2022-02-08-18:26:24,10.1.1.5,29,-0.030,-0.030,-0.030,0.000,0.000,0.000
1644344784553587968,2022-02-08-18:26:24,10.1.1.5,28,-0.040,-0.040,-0.040,0.000,0.000,0.000
1644344784654247936,2022-02-08-18:26:24,10.1.1.5,27,-0.050,-0.050,-0.050,0.000,0.000,0.000
1644344784754226944,2022-02-08-18:26:24,10.1.1.5,26,-0.060,-0.060,-0.060,0.000,0.000,0.000
1644344784855344128,2022-02-08-18:26:24,10.1.1.5,25,-0.070,-0.070,-0.070,0.000,0.000,0.000
1644344784955234048,2022-02-08-18:26:24,10.1.1.5,24,-0.080,-0.080,-0.080,0.000,0.000,0.000
1644344785054179840,2022-02-08-18:26:25,10.1.1.5,23,-0.090,-0.090,-0.090,0.000,0.000,0.000
1644344785153389056,2022-02-08-18:26:25,10.1.1.5,22,-0.100,-0.100,-0.100,0.000,0.000,0.000
1644344785254006016,2022-02-08-18:26:25,10.1.1.5,21,-0.090,-0.090,-0.090,0.000,0.000,0.000
1644344785353369088,2022-02-08-18:26:25,10.1.1.5,20,-0.080,-0.080,-0.080,0.000,0.000,0.000
1644344785453628160,2022-02-08-18:26:25,10.1.1.5,19,-0.071,-0.071,-0.071,0.000,0.000,0.000
1644344785573308928,2022-02-08-18:26:25,10.1.1.5,38,-0.060,-0.060,-0.060,0.000,0.000,0.000
1644344785673486080,2022-02-08-18:26:25,10.1.1.5,37,-0.050,-0.050,-0.050,0.000,0.000,0.000
1644344785773467904,2022-02-08-18:26:25,10.1.1.5,36,-0.040,-0.040,-0.040,0.000,0.000,0.000
1644344785873003008,2022-02-08-18:26:25,10.1.1.5,35,-0.030,-0.030,-0.030,0.000,0.000,0.000
1644344785973223936,2022-02-08-18:26:25,10.1.1.5,34,-0.020,-0.020,-0.020,0.000,0.000,0.000
1644344786073478912,2022-02-08-18:26:26,10.1.1.5,34,-0.010,-0.010,-0.010,0.000,0.000,0.000
1644344786173049856,2022-02-08-18:26:26,10.1.1.5,33,0.000,0.000,0.000,0.000,0.000,0.000
1644344786273946112,2022-02-08-18:26:26,10.1.1.5,32,0.010,0.010,0.010,0.000,0.000,0.000
1644344786373445888,2022-02-08-18:26:26,10.1.1.5,31,0.020,0.020,0.020,0.000,0.000,0.000
1644344786473504000,2022-02-08-18:26:26,10.1.1.5,30,0.030,0.030,0.030,0.000,0.000,0.000
1644344786574161152,2022-02-08-18:26:26,10.1.1.5,28,0.040,0.040,0.040,0.000,0.000,0.000
1644344786673722112,2022-02-08-18:26:26,10.1.1.5,25,0.050,0.050,0.050,0.000,0.000,0.000
1644344786773827072,2022-02-08-18:26:26,10.1.1.5,22,0.060,0.060,0.060,0.000,0.000,0.000
1644344786872749056,2022-02-08-18:26:26,10.1.1.5,21,0.070,0.070,0.070,0.000,0.000,0.000
1644344786974010880,2022-02-08-18:26:26,10.1.1.5,20,0.080,0.080,0.080,0.000,0.000,0.000
1644344787095909120,2022-02-08-18:26:27,10.1.1.5,39,0.090,0.090,0.090,0.000,0.000,0.000
1644344787192770048,2022-02-08-18:26:27,10.1.1.5,38,0.100,0.100,0.100,0.000,0.000,0.000
1644344787293398016,2022-02-08-18:26:27,10.1.1.5,37,0.090,0.090,0.090,0.000,0.000,0.000
1644344787394524160,2022-02-08-18:26:27,10.1.1.5,37,0.080,0.080,0.080,0.000,0.000,0.000
1644344787493402880,2022-02-08-18:26:27,10.1.1.5,35,0.070,0.070,0.070,0.000,0.000,0.000
1644344787592971008,2022-02-08-18:26:27,10.1.1.5,34,0.060,0.060,0.060,0.000,0.000,0.000
1644344787694935040,2022-02-08-18:26:27,10.1.1.5,33,0.050,0.050,0.050,0.000,0.000,0.000
1644344787794382080,2022-02-08-18:26:27,10.1.1.5,32,0.040,0.040,0.040,0.000,0.000,0.000
1644344787893542912,2022-02-08-18:26:27,10.1.1.5,30,0.030,0.030,0.030,0.000,0.000,0.000
1644344787993436160,2022-02-08-18:26:27,10.1.1.5,29,0.020,0.020,0.020,0.000,0.000,0.000
1644344788093555968,2022-02-08-18:26:28,10.1.1.5,28,0.010,0.010,0.010,0.000,0.000,0.000
1644344788194235136,2022-02-08-18:26:28,10.1.1.5,26,0.000,0.000,0.000,0.000,0.000,0.000
1644344788293921024,2022-02-08-18:26:28,10.1.1.5,24,-0.010,-0.010,-0.010,0.000,0.000,0.000
1644344788393181184,2022-02-08-18:26:28,10.1.1.5,22,-0.020,-0.020,-0.020,0.000,0.000,0.000
1644344788493532928,2022-02-08-18:26:28,10.1.1.5,20,-0.030,-0.030,-0.030,0.000,0.000,0.000
1644344788593487872,2022-02-08-18:26:28,10.1.1.5,19,-0.039,-0.039,-0.039,0.000,0.000,0.000
1644344788713357056,2022-02-08-18:26:28,10.1.1.5,38,-0.050,-0.050,-0.050,0.000,0.000,0.000
1644344788813800960,2022-02-08-18:26:28,10.1.1.5,37,-0.060,-0.060,-0.060,0.000,0.000,0.000
1644344788913760000,2022-02-08-18:26:28,10.1.1.5,36,-0.070,-0.070,-0.070,0.000,0.000,0.000
1644344789015693056,2022-02-08-18:26:29,10.1.1.5,34,-0.080,-0.080,-0.080,0.000,0.000,0.000
1644344789113176064,2022-02-08-18:26:29,10.1.1.5,33,-0.090,-0.090,-0.090,0.000,0.000,0.000
1644344789213556992,2022-02-08-18:26:29,10.1.1.5,31,-0.100,-0.100,-0.100,0.000,0.000,0.000
1644344789313432064,2022-02-08-18:26:29,10.1.1.5,31,-0.090,-0.090,-0.090,0.000,0.000,0.000
1644344789413014016,2022-02-08-18:26:29,10.1.1.5,30,-0.080,-0.080,-0.080,0.000,0.000,0.000
1644344789513356032,2022-02-08-18:26:29,10.1.1.5,29,-0.070,-0.070,-0.070,0.000,0.000,0.000
1644344789613364992,2022-02-08-18:26:29,10.1.1.5,28,-0.060,-0.060,-0.060,0.000,0.000,0.000
1644344789713628928,2022-02-08-18:26:29,10.1.1.5,27,-0.050,-0.050,-0.050,0.000,0.000,0.000
1644344789813327104,2022-02-08-18:26:29,10.1.1.5,26,-0.040,-0.040,-0.040,0.000,0.000,0.000
1644344789913520128,2022-02-08-18:26:29,10.1.1.5,26,-0.030,-0.030,-0.030,0.000,0.000,0.000
1644344790013236992,2022-02-08-18:26:30,10.1.1.5,25,-0.020,-0.020,-0.020,0.000,0.000,0.000
1644344790115922944,2022-02-08-18:26:30,10.1.1.5,24,-0.010,-0.010,-0.010,0.000,0.000,0.000
1644344790213499904,2022-02-08-18:26:30,10.1.1.5,23,0.000,0.000,0.000,0.000,0.000,0.000
1644344790313534976,2022-02-08-18:26:30,10.1.1.5,22,0.010,0.010,0.010,0.000,0.000,0.000
1644344790413414912,2022-02-08-18:26:30,10.1.1.5,21,0.020,0.020,0.020,0.000,0.000,0.000
1644344790515117056,2022-02-08-18:26:30,10.1.1.5,20,0.030,0.030,0.030,0.000,0.000,0.000
1644344790613264128,2022-02-08-18:26:30,10.1.1.5,20,0.040,0.040,0.040,0.000,0.000,0.000
1644344790734089984,2022-02-08-18:26:30,10.1.1.5,38,0.050,0.050,0.050,0.000,0.000,0.000
1644344790834216960,2022-02-08-18:26:30,10.1.1.5,38,0.060,0.060,0.060,0.000,0.000,0.000
1644344790933552128,2022-02-08-18:26:30,10.1.1.5,36,0.070,0.070,0.070,0.000,0.000,0.000
1644344791034164992,2022-02-08-18:26:31,10.1.1.5,34,0.080,0.080,0.080,0.000,0.000,0.000
1644344791133172992,2022-02-08-18:26:31,10.1.1.5,32,0.090,0.090,0.090,0.000,0.000,0.000
1644344791233565952,2022-02-08-18:26:31,10.1.1.5,31,0.100,0.100,0.100,0.000,0.000,0.000
1644344791333342976,2022-02-08-18:26:31,10.1.1.5,30,0.090,0.090,0.090,0.000,0.000,0.000
1644344791434302208,2022-02-08-18:26:31,10.1.1.5,29,0.080,0.080,0.080,0.000,0.000,0.000
1644344791533456128,2022-02-08-18:26:31,10.1.1.5,27,0.070,0.070,0.070,0.000,0.000,0.000
1644344791633344000,2022-02-08-18:26:31,10.1.1.5,26,0.060,0.060,0.060,0.000,0.000,0.000
1644344791733207040,2022-02-08-18:26:31,10.1.1.5,25,0.050,0.050,0.050,0.000,0.000,0.000
1644344791834362112,2022-02-08-18:26:31,10.1.1.5,23,0.040,0.040,0.040,0.000,0.000,0.000
1644344791933938944,2022-02-08-18:26:31,10.1.1.5,23,0.030,0.030,0.030,0.000,0.000,0.000
1644344792034533888,2022-02-08-18:26:32,10.1.1.5,21,0.020,0.020,0.020,0.000,0.000,0.000
1644344792133419008,2022-02-08-18:26:32,10.1.1.5,21,0.010,0.010,0.010,0.000,0.000,0.000
1644344792233797120,2022-02-08-18:26:32,10.1.1.5,20,0.000,0.000,0.000,0.000,0.000,0.000
1644344792353961984,2022-02-08-18:26:32,10.1.1.5,39,-0.010,-0.010,-0.010,0.000,0.000,0.000
1644344792453180928,2022-02-08-18:26:32,10.1.1.5,38,-0.020,-0.020,-0.020,0.000,0.000,0.000
1644344792554737152,2022-02-08-18:26:32,10.1.1.5,37,-0.030,-0.030,-0.030,0.000,0.000,0.000
1644344792653116928,2022-02-08-18:26:32,10.1.1.5,35,-0.040,-0.040,-0.040,0.000,0.000,0.000
1644344792753377024,2022-02-08-18:26:32,10.1.1.5,35,-0.050,-0.050,-0.050,0.000,0.000,0.000
1644344792853168896,2022-02-08-18:26:32,10.1.1.5,34,-0.060,-0.060,-0.060,0.000,0.000,0.000
1644344792953263104,2022-02-08-18:26:32,10.1.1.5,34,-0.070,-0.070,-0.070,0.000,0.000,0.000
1644344793053472000,2022-02-08-18:26:33,10.1.1.5,33,-0.080,-0.080,-0.080,0.000,0.000,0.000
1644344793153713920,2022-02-08-18:26:33,10.1.1.5,32,-0.090,-0.090,-0.090,0.000,0.000,0.000
1644344793255030016,2022-02-08-18:26:33,10.1.1.5,31,-0.100,-0.100,-0.100,0.000,0.000,0.000
1644344793354494208,2022-02-08-18:26:33,10.1.1.5,31,-0.090,-0.090,-0.090,0.000,0.000,0.000
1644344793454168064,2022-02-08-18:26:33,10.1.1.5,30,-0.080,-0.080,-0.080,0.000,0.000,0.000
1644344793553158912,2022-02-08-18:26:33,10.1.1.5,30,-0.070,-0.070,-0.070,0.000,0.000,0.000
1644344793653177088,2022-02-08-18:26:33,10.1.1.5,28,-0.060,-0.060,-0.060,0.000,0.000,0.000
1644344793753671936,2022-02-08-18:26:33,10.1.1.5,28,-0.050,-0.050,-0.050,0.000,0.000,0.000
1644344793854373888,2022-02-08-18:26:33,10.1.1.5,26,-0.040,-0.040,-0.040,0.000,0.000,0.000
1644344793953262080,2022-02-08-18:26:33,10.1.1.5,25,-0.030,-0.030,-0.030,0.000,0.000,0.000
1644344794053134848,2022-02-08-18:26:34,10.1.1.5,24,-0.020,-0.020,-0.020,0.000,0.000,0.000
1644344794153806848,2022-02-08-18:26:34,10.1.1.5,24,-0.010,-0.010,-0.010,0.000,0.000,0.000
1644344794252924928,2022-02-08-18:26:34,10.1.1.5,23,0.000,0.000,0.000,0.000,0.000,0.000
1644344794353516032,2022-02-08-18:26:34,10.1.1.5,22,0.010,0.010,0.010,0.000,0.000,0.000
1644344794453965056,2022-02-08-18:26:34,10.1.1.5,21,0.020,0.020,0.020,0.000,0.000,0.000
1644344794553140992,2022-02-08-18:26:34,10.1.1.5,21,0.030,0.030,0.030,0.000,0.000,0.000
1644344794653623040,2022-02-08-18:26:34,10.1.1.5,20,0.040,0.040,0.040,0.000,0.000,0.000
1644344794753143040,2022-02-08-18:26:34,10.1.1.5,20,0.050,0.050,0.050,0.000,0.000,0.000
1644344794853068032,2022-02-08-18:26:34,10.1.1.5,19,0.059,0.059,0.059,0.000,0.000,0.000
1644344794973617152,2022-02-08-18:26:34,10.1.1.5,38,0.070,0.070,0.070,0.000,0.000,0.000
1644344795073103872,2022-02-08-18:26:35,10.1.1.5,37,0.080,0.080,0.080,0.000,0.000,0.000
1644344795173101056,2022-02-08-18:26:35,10.1.1.5,36,0.090,0.090,0.090,0.000,0.000,0.000
1644344795277946112,2022-02-08-18:26:35,10.1.1.5,35,0.100,0.100,0.100,0.000,0.000,0.000
1644344795373475072,2022-02-08-18:26:35,10.1.1.5,35,0.090,0.090,0.090,0.000,0.000,0.000
1644344795473377024,2022-02-08-18:26:35,10.1.1.5,34,0.080,0.080,0.080,0.000,0.000,0.000
1644344795575360000,2022-02-08-18:26:35,10.1.1.5,33,0.070,0.070,0.070,0.000,0.000,0.000
1644344795673928960,2022-02-08-18:26:35,10.1.1.5,32,0.060,0.060,0.060,0.000,0.000,0.000
1644344795773657088,2022-02-08-18:26:35,10.1.1.5,32,0.050,0.050,0.050,0.000,0.000,0.000
1644344795874011904,2022-02-08-18:26:35,10.1.1.5,31,0.040,0.040,0.040,0.000,0.000,0.000
1644344795974445056,2022-02-08-18:26:35,10.1.1.5,30,0.030,0.030,0.030,0.000,0.000,0.000
1644344796073957888,2022-02-08-18:26:36,10.1.1.5,30,0.020,0.020,0.020,0.000,0.000,0.000
1644344796173641984,2022-02-08-18:26:36,10.1.1.5,28,0.010,0.010,0.010,0.000,0.000,0.000
1644344796273633024,2022-02-08-18:26:36,10.1.1.5,26,0.000,0.000,0.000,0.000,0.000,0.000
1644344796374020096,2022-02-08-18:26:36,10.1.1.5,25,-0.010,-0.010,-0.010,0.000,0.000,0.000
1644344796475287808,2022-02-08-18:26:36,10.1.1.5,23,-0.020,-0.020,-0.020,0.000,0.000,0.000
1644344796574562048,2022-02-08-18:26:36,10.1.1.5,21,-0.030,-0.030,-0.030,0.000,0.000,0.000
1644344796695156992,2022-02-08-18:26:36,10.1.1.5,38,-0.040,-0.040,-0.040,0.000,0.000,0.000
1644344796794779904,2022-02-08-18:26:36,10.1.1.5,37,-0.050,-0.050,-0.050,0.000,0.000,0.000
1644344796894059776,2022-02-08-18:26:36,10.1.1.5,33,-0.060,-0.060,-0.060,0.000,0.000,0.000
1644344796994189056,2022-02-08-18:26:36,10.1.1.5,32,-0.070,-0.070,-0.070,0.000,0.000,0.000
1644344797193996800,2022-02-08-18:26:37,10.1.1.5,31,-0.090,-0.090,-0.090,0.000,0.000,0.000
1644344797294300928,2022-02-08-18:26:37,10.1.1.5,29,-0.100,-0.100,-0.100,0.000,0.000,0.000
1644344797393527040,2022-02-08-18:26:37,10.1.1.5,28,-0.090,-0.090,-0.090,0.000,0.000,0.000
1644344797495105024,2022-02-08-18:26:37,10.1.1.5,27,-0.080,-0.080,-0.080,0.000,0.000,0.000
1644344797593897984,2022-02-08-18:26:37,10.1.1.5,26,-0.070,-0.070,-0.070,0.000,0.000,0.000
1644344797694861824,2022-02-08-18:26:37,10.1.1.5,25,-0.060,-0.060,-0.060,0.000,0.000,0.000
1644344797793880064,2022-02-08-18:26:37,10.1.1.5,23,-0.050,-0.050,-0.050,0.000,0.000,0.000
1644344797893431808,2022-02-08-18:26:37,10.1.1.5,22,-0.040,-0.040,-0.040,0.000,0.000,0.000
1644344797993863168,2022-02-08-18:26:37,10.1.1.5,20,-0.030,-0.030,-0.030,0.000,0.000,0.000
1644344798093624064,2022-02-08-18:26:38,10.1.1.5,20,-0.020,-0.020,-0.020,0.000,0.000,0.000
1644344798213658112,2022-02-08-18:26:38,10.1.1.5,39,-0.010,-0.010,-0.010,0.000,0.000,0.000
1644344798314151168,2022-02-08-18:26:38,10.1.1.5,37,0.000,0.000,0.000,0.000,0.000,0.000
1644344798415031040,2022-02-08-18:26:38,10.1.1.5,34,0.010,0.010,0.010,0.000,0.000,0.000
1644344798513753856,2022-02-08-18:26:38,10.1.1.5,32,0.020,0.020,0.020,0.000,0.000,0.000
1644344798614362880,2022-02-08-18:26:38,10.1.1.5,32,0.030,0.030,0.030,0.000,0.000,0.000
1644344798714260992,2022-02-08-18:26:38,10.1.1.5,31,0.040,0.040,0.040,0.000,0.000,0.000
1644344798814241024,2022-02-08-18:26:38,10.1.1.5,30,0.050,0.050,0.050,0.000,0.000,0.000
1644344798913840128,2022-02-08-18:26:38,10.1.1.5,28,0.060,0.060,0.060,0.000,0.000,0.000
1644344799013658880,2022-02-08-18:26:39,10.1.1.5,27,0.070,0.070,0.070,0.000,0.000,0.000
1644344799113826048,2022-02-08-18:26:39,10.1.1.5,26,0.080,0.080,0.080,0.000,0.000,0.000
1644344799216131840,2022-02-08-18:26:39,10.1.1.5,25,0.090,0.090,0.090,0.000,0.000,0.000
1644344799313967104,2022-02-08-18:26:39,10.1.1.5,25,0.100,0.100,0.100,0.000,0.000,0.000
1644344799414028032,2022-02-08-18:26:39,10.1.1.5,23,0.090,0.090,0.090,0.000,0.000,0.000
1644344799513430016,2022-02-08-18:26:39,10.1.1.5,21,0.080,0.080,0.080,0.000,0.000,0.000
1644344799633671936,2022-02-08-18:26:39,10.1.1.5,39,0.070,0.070,0.070,0.000,0.000,0.000
1644344799733246976,2022-02-08-18:26:39,10.1.1.5,38,0.060,0.060,0.060,0.000,0.000,0.000
1644344799833313024,2022-02-08-18:26:39,10.1.1.5,38,0.050,0.050,0.050,0.000,0.000,0.000
1644344799933455104,2022-02-08-18:26:39,10.1.1.5,37,0.040,0.040,0.040,0.000,0.000,0.000
1644344800033806080,2022-02-08-18:26:40,10.1.1.5,35,0.030,0.030,0.030,0.000,0.000,0.000
1644344800133799936,2022-02-08-18:26:40,10.1.1.5,34,0.020,0.020,0.020,0.000,0.000,0.000
1644344800233714944,2022-02-08-18:26:40,10.1.1.5,33,0.010,0.010,0.010,0.000,0.000,0.000
1644344800334980096,2022-02-08-18:26:40,10.1.1.5,33,0.000,0.000,0.000,0.000,0.000,0.000
1644344800433320960,2022-02-08-18:26:40,10.1.1.5,32,-0.010,-0.010,-0.010,0.000,0.000,0.000
1644344800533639936,2022-02-08-18:26:40,10.1.1.5,32,-0.020,-0.020,-0.020,0.000,0.000,0.000
1644344800633981952,2022-02-08-18:26:40,10.1.1.5,31,-0.030,-0.030,-0.030,0.000,0.000,0.000
1644344800733630976,2022-02-08-18:26:40,10.1.1.5,30,-0.040,-0.040,-0.040,0.000,0.000,0.000
1644344800835851008,2022-02-08-18:26:40,10.1.1.5,29,-0.050,-0.050,-0.050,0.000,0.000,0.000
1644344800934267136,2022-02-08-18:26:40,10.1.1.5,28,-0.060,-0.060,-0.060,0.000,0.000,0.000
1644344801033964032,2022-02-08-18:26:41,10.1.1.5,27,-0.070,-0.070,-0.070,0.000,0.000,0.000
1644344801137121024,2022-02-08-18:26:41,10.1.1.5,26,-0.080,-0.080,-0.080,0.000,0.000,0.000
1644344801234390016,2022-02-08-18:26:41,10.1.1.5,24,-0.090,-0.090,-0.090,0.000,0.000,0.000
1644344801336581888,2022-02-08-18:26:41,10.1.1.5,23,-0.100,-0.100,-0.100,0.000,0.000,0.000
1644344801434312960,2022-02-08-18:26:41,10.1.1.5,23,-0.090,-0.090,-0.090,0.000,0.000,0.000
1644344801533847040,2022-02-08-18:26:41,10.1.1.5,22,-0.080,-0.080,-0.080,0.000,0.000,0.000
1644344801633942016,2022-02-08-18:26:41,10.1.1.5,21,-0.070,-0.070,-0.070,0.000,0.000,0.000
1644344801735894016,2022-02-08-18:26:41,10.1.1.5,20,-0.060,-0.060,-0.060,0.000,0.000,0.000
1644344801834958080,2022-02-08-18:26:41,10.1.1.5,20,-0.050,-0.050,-0.050,0.000,0.000,0.000
1644344801956749824,2022-02-08-18:26:41,10.1.1.5,39,-0.040,-0.040,-0.040,0.000,0.000,0.000
1644344802059433984,2022-02-08-18:26:42,10.1.1.5,39,-0.030,-0.030,-0.030,0.000,0.000,0.000
1644344802155246080,2022-02-08-18:26:42,10.1.1.5,34,-0.020,-0.020,-0.020,0.000,0.000,0.000
1644344802255319040,2022-02-08-18:26:42,10.1.1.5,33,-0.010,-0.010,-0.010,0.000,0.000,0.000
1644344802354396160,2022-02-08-18:26:42,10.1.1.5,33,0.000,0.000,0.000,0.000,0.000,0.000
1644344802455648000,2022-02-08-18:26:42,10.1.1.5,28,0.010,0.010,0.010,0.000,0.000,0.000
1644344802553366784,2022-02-08-18:26:42,10.1.1.5,27,0.020,0.020,0.020,0.000,0.000,0.000
1644344802653726208,2022-02-08-18:26:42,10.1.1.5,26,0.030,0.030,0.030,0.000,0.000,0.000
1644344802754267904,2022-02-08-18:26:42,10.1.1.5,25,0.040,0.040,0.040,0.000,0.000,0.000
1644344802853810944,2022-02-08-18:26:42,10.1.1.5,24,0.050,0.050,0.050,0.000,0.000,0.000
1644344802954025984,2022-02-08-18:26:42,10.1.1.5,22,0.060,0.060,0.060,0.000,0.000,0.000
1644344803054825984,2022-02-08-18:26:43,10.1.1.5,21,0.070,0.070,0.070,0.000,0.000,0.000
1644344803173314048,2022-02-08-18:26:43,10.1.1.5,39,0.080,0.080,0.080,0.000,0.000,0.000
1644344803274697984,2022-02-08-18:26:43,10.1.1.5,37,0.090,0.090,0.090,0.000,0.000,0.000
1644344803373480960,2022-02-08-18:26:43,10.1.1.5,33,0.100,0.100,0.100,0.000,0.000,0.000
1644344803473241088,2022-02-08-18:26:43,10.1.1.5,32,0.090,0.090,0.090,0.000,0.000,0.000
1644344803573803008,2022-02-08-18:26:43,10.1.1.5,30,0.080,0.080,0.080,0.000,0.000,0.000
1644344803673552128,2022-02-08-18:26:43,10.1.1.5,29,0.070,0.070,0.070,0.000,0.000,0.000
1644344803773564160,2022-02-08-18:26:43,10.1.1.5,28,0.060,0.060,0.060,0.000,0.000,0.000
1644344803873625088,2022-02-08-18:26:43,10.1.1.5,28,0.050,0.050,0.050,0.000,0.000,0.000
1644344803974616064,2022-02-08-18:26:43,10.1.1.5,26,0.040,0.040,0.040,0.000,0.000,0.000
1644344804073710080,2022-02-08-18:26:44,10.1.1.5,24,0.030,0.030,0.030,0.000,0.000,0.000
1644344804173820928,2022-02-08-18:26:44,10.1.1.5,23,0.020,0.020,0.020,0.000,0.000,0.000
1644344804273195008,2022-02-08-18:26:44,10.1.1.5,22,0.010,0.010,0.010,0.000,0.000,0.000
1644344804373289216,2022-02-08-18:26:44,10.1.1.5,21,0.000,0.000,0.000,0.000,0.000,0.000
1644344804474147072,2022-02-08-18:26:44,10.1.1.5,20,-0.010,-0.010,-0.010,0.000,0.000,0.000
1644344804595855872,2022-02-08-18:26:44,10.1.1.5,39,-0.020,-0.020,-0.020,0.000,0.000,0.000
1644344804693406208,2022-02-08-18:26:44,10.1.1.5,37,-0.030,-0.030,-0.030,0.000,0.000,0.000
1644344804794020864,2022-02-08-18:26:44,10.1.1.5,35,-0.040,-0.040,-0.040,0.000,0.000,0.000
1644344804892985088,2022-02-08-18:26:44,10.1.1.5,34,-0.050,-0.050,-0.050,0.000,0.000,0.000
1644344804994044160,2022-02-08-18:26:44,10.1.1.5,33,-0.060,-0.060,-0.060,0.000,0.000,0.000
1644344805093854976,2022-02-08-18:26:45,10.1.1.5,32,-0.070,-0.070,-0.070,0.000,0.000,0.000
1644344805193305856,2022-02-08-18:26:45,10.1.1.5,31,-0.080,-0.080,-0.080,0.000,0.000,0.000
1644344805293950208,2022-02-08-18:26:45,10.1.1.5,30,-0.090,-0.090,-0.090,0.000,0.000,0.000
1644344805393025024,2022-02-08-18:26:45,10.1.1.5,29,-0.100,-0.100,-0.100,0.000,0.000,0.000
1644344805494409984,2022-02-08-18:26:45,10.1.1.5,28,-0.090,-0.090,-0.090,0.000,0.000,0.000
1644344805595382016,2022-02-08-18:26:45,10.1.1.5,27,-0.080,-0.080,-0.080,0.000,0.000,0.000
1644344805693271040,2022-02-08-18:26:45,10.1.1.5,25,-0.070,-0.070,-0.070,0.000,0.000,0.000
1644344805793540096,2022-02-08-18:26:45,10.1.1.5,24,-0.060,-0.060,-0.060,0.000,0.000,0.000
1644344805893505024,2022-02-08-18:26:45,10.1.1.5,23,-0.050,-0.050,-0.050,0.000,0.000,0.000
1644344805993996032,2022-02-08-18:26:45,10.1.1.5,22,-0.040,-0.040,-0.040,0.000,0.000,0.000
1644344806093978880,2022-02-08-18:26:46,10.1.1.5,20,-0.030,-0.030,-0.030,0.000,0.000,0.000
1644344806213018880,2022-02-08-18:26:46,10.1.1.5,39,-0.020,-0.020,-0.020,0.000,0.000,0.000
1644344806313585920,2022-02-08-18:26:46,10.1.1.5,38,-0.010,-0.010,-0.010,0.000,0.000,0.000
1644344806413389056,2022-02-08-18:26:46,10.1.1.5,37,0.000,0.000,0.000,0.000,0.000,0.000
1644344806513697024,2022-02-08-18:26:46,10.1.1.5,36,0.010,0.010,0.010,0.000,0.000,0.000
1644344806613763072,2022-02-08-18:26:46,10.1.1.5,34,0.020,0.020,0.020,0.000,0.000,0.000
1644344806713767168,2022-02-08-18:26:46,10.1.1.5,32,0.030,0.030,0.030,0.000,0.000,0.000
1644344806813947904,2022-02-08-18:26:46,10.1.1.5,31,0.040,0.040,0.040,0.000,0.000,0.000
1644344806913597184,2022-02-08-18:26:46,10.1.1.5,31,0.050,0.050,0.050,0.000,0.000,0.000
1644344807013241088,2022-02-08-18:26:47,10.1.1.5,30,0.060,0.060,0.060,0.000,0.000,0.000
1644344807113654016,2022-02-08-18:26:47,10.1.1.5,29,0.070,0.070,0.070,0.000,0.000,0.000
1644344807213434880,2022-02-08-18:26:47,10.1.1.5,28,0.080,0.080,0.080,0.000,0.000,0.000
1644344807313796096,2022-02-08-18:26:47,10.1.1.5,28,0.090,0.090,0.090,0.000,0.000,0.000
1644344807413274112,2022-02-08-18:26:47,10.1.1.5,26,0.100,0.100,0.100,0.000,0.000,0.000
1644344807514245120,2022-02-08-18:26:47,10.1.1.5,24,0.090,0.090,0.090,0.000,0.000,0.000
1644344807614247168,2022-02-08-18:26:47,10.1.1.5,24,0.080,0.080,0.080,0.000,0.000,0.000
1644344807713874944,2022-02-08-18:26:47,10.1.1.5,23,0.070,0.070,0.070,0.000,0.000,0.000
1644344807815369984,2022-02-08-18:26:47,10.1.1.5,22,0.060,0.060,0.060,0.000,0.000,0.000
1644344807913958144,2022-02-08-18:26:47,10.1.1.5,21,0.050,0.050,0.050,0.000,0.000,0.000
1644344808033356800,2022-02-08-18:26:48,10.1.1.5,38,0.040,0.040,0.040,0.000,0.000,0.000
1644344808135026944,2022-02-08-18:26:48,10.1.1.5,36,0.030,0.030,0.030,0.000,0.000,0.000
1644344808236530944,2022-02-08-18:26:48,10.1.1.5,34,0.020,0.020,0.020,0.000,0.000,0.000
1644344808338846976,2022-02-08-18:26:48,10.1.1.5,33,0.010,0.010,0.010,0.000,0.000,0.000
1644344808437876992,2022-02-08-18:26:48,10.1.1.5,32,0.000,0.000,0.000,0.000,0.000,0.000
1644344808634499072,2022-02-08-18:26:48,10.1.1.5,29,-0.020,-0.020,-0.020,0.000,0.000,0.000
1644344808734066944,2022-02-08-18:26:48,10.1.1.5,28,-0.030,-0.030,-0.030,0.000,0.000,0.000
1644344808833966848,2022-02-08-18:26:48,10.1.1.5,27,-0.040,-0.040,-0.040,0.000,0.000,0.000
1644344809032908800,2022-02-08-18:26:49,10.1.1.5,26,-0.060,-0.060,-0.060,0.000,0.000,0.000
1644344809132677120,2022-02-08-18:26:49,10.1.1.5,25,-0.070,-0.070,-0.070,0.000,0.000,0.000
1644344809233038848,2022-02-08-18:26:49,10.1.1.5,25,-0.080,-0.080,-0.080,0.000,0.000,0.000
1644344809332620032,2022-02-08-18:26:49,10.1.1.5,25,-0.090,-0.090,-0.090,0.000,0.000,0.000
1644344809433441024,2022-02-08-18:26:49,10.1.1.5,24,-0.100,-0.100,-0.100,0.000,0.000,0.000
1644344809533263872,2022-02-08-18:26:49,10.1.1.5,24,-0.090,-0.090,-0.090,0.000,0.000,0.000
1644344809633385984,2022-02-08-18:26:49,10.1.1.5,23,-0.080,-0.080,-0.080,0.000,0.000,0.000
1644344809732944128,2022-02-08-18:26:49,10.1.1.5,23,-0.070,-0.070,-0.070,0.000,0.000,0.000
1644344809833553152,2022-02-08-18:26:49,10.1.1.5,22,-0.060,-0.060,-0.060,0.000,0.000,0.000
1644344809932995072,2022-02-08-18:26:49,10.1.1.5,21,-0.050,-0.050,-0.050,0.000,0.000,0.000
1644344810033579008,2022-02-08-18:26:50,10.1.1.5,21,-0.040,-0.040,-0.040,0.000,0.000,0.000
1644344810133879040,2022-02-08-18:26:50,10.1.1.5,20,-0.030,-0.030,-0.030,0.000,0.000,0.000
1644344810254797824,2022-02-08-18:26:50,10.1.1.5,39,-0.020,-0.020,-0.020,0.000,0.000,0.000
1644344810353750016,2022-02-08-18:26:50,10.1.1.5,38,-0.010,-0.010,-0.010,0.000,0.000,0.000
1644344810453892864,2022-02-08-18:26:50,10.1.1.5,36,0.000,0.000,0.000,0.000,0.000,0.000
1644344810553793792,2022-02-08-18:26:50,10.1.1.5,35,0.010,0.010,0.010,0.000,0.000,0.000
1644344810654043904,2022-02-08-18:26:50,10.1.1.5,34,0.020,0.020,0.020,0.000,0.000,0.000
1644344810753899008,2022-02-08-18:26:50,10.1.1.5,33,0.030,0.030,0.030,0.000,0.000,0.000
1644344810854306048,2022-02-08-18:26:50,10.1.1.5,31,0.040,0.040,0.040,0.000,0.000,0.000
1644344810954950144,2022-02-08-18:26:50,10.1.1.5,30,0.050,0.050,0.050,0.000,0.000,0.000
1644344811053841152,2022-02-08-18:26:51,10.1.1.5,30,0.060,0.060,0.060,0.000,0.000,0.000
1644344811154082048,2022-02-08-18:26:51,10.1.1.5,29,0.070,0.070,0.070,0.000,0.000,0.000
1644344811255377152,2022-02-08-18:26:51,10.1.1.5,27,0.080,0.080,0.080,0.000,0.000,0.000
1644344811353746944,2022-02-08-18:26:51,10.1.1.5,26,0.090,0.090,0.090,0.000,0.000,0.000
1644344811455352064,2022-02-08-18:26:51,10.1.1.5,25,0.100,0.100,0.100,0.000,0.000,0.000
1644344811555361024,2022-02-08-18:26:51,10.1.1.5,24,0.090,0.090,0.090,0.000,0.000,0.000
1644344811654906112,2022-02-08-18:26:51,10.1.1.5,23,0.080,0.080,0.080,0.000,0.000,0.000
1644344811753884160,2022-02-08-18:26:51,10.1.1.5,22,0.070,0.070,0.070,0.000,0.000,0.000
1644344811854163968,2022-02-08-18:26:51,10.1.1.5,21,0.060,0.060,0.060,0.000,0.000,0.000
1644344811954590976,2022-02-08-18:26:51,10.1.1.5,19,0.050,0.050,0.050,0.000,0.000,0.000
1644344812075340032,2022-02-08-18:26:52,10.1.1.5,37,0.040,0.040,0.040,0.000,0.000,0.000
1644344812173333760,2022-02-08-18:26:52,10.1.1.5,35,0.030,0.030,0.030,0.000,0.000,0.000
1644344812273794816,2022-02-08-18:26:52,10.1.1.5,34,0.020,0.020,0.020,0.000,0.000,0.000
1644344812374811904,2022-02-08-18:26:52,10.1.1.5,33,0.010,0.010,0.010,0.000,0.000,0.000
1644344812473712896,2022-02-08-18:26:52,10.1.1.5,32,0.000,0.000,0.000,0.000,0.000,0.000
1644344812573573120,2022-02-08-18:26:52,10.1.1.5,31,-0.010,-0.010,-0.010,0.000,0.000,0.000
1644344812673894912,2022-02-08-18:26:52,10.1.1.5,30,-0.020,-0.020,-0.020,0.000,0.000,0.000
1644344812773700864,2022-02-08-18:26:52,10.1.1.5,29,-0.030,-0.030,-0.030,0.000,0.000,0.000
1644344812875380992,2022-02-08-18:26:52,10.1.1.5,28,-0.040,-0.040,-0.040,0.000,0.000,0.000
1644344812973478912,2022-02-08-18:26:52,10.1.1.5,27,-0.050,-0.050,-0.050,0.000,0.000,0.000
1644344813073795072,2022-02-08-18:26:53,10.1.1.5,26,-0.060,-0.060,-0.060,0.000,0.000,0.000
1644344813173615872,2022-02-08-18:26:53,10.1.1.5,24,-0.070,-0.070,-0.070,0.000,0.000,0.000
1644344813274414080,2022-02-08-18:26:53,10.1.1.5,22,-0.080,-0.080,-0.080,0.000,0.000,0.000
1644344813373955072,2022-02-08-18:26:53,10.1.1.5,22,-0.090,-0.090,-0.090,0.000,0.000,0.000
1644344813475207936,2022-02-08-18:26:53,10.1.1.5,20,-0.100,-0.100,-0.100,0.000,0.000,0.000
1644344813594382080,2022-02-08-18:26:53,10.1.1.5,39,-0.090,-0.090,-0.090,0.000,0.000,0.000
1644344813693947136,2022-02-08-18:26:53,10.1.1.5,35,-0.080,-0.080,-0.080,0.000,0.000,0.000
1644344813794137088,2022-02-08-18:26:53,10.1.1.5,34,-0.070,-0.070,-0.070,0.000,0.000,0.000
1644344813893731072,2022-02-08-18:26:53,10.1.1.5,33,-0.060,-0.060,-0.060,0.000,0.000,0.000
1644344813994051072,2022-02-08-18:26:53,10.1.1.5,32,-0.050,-0.050,-0.050,0.000,0.000,0.000
1644344814093689088,2022-02-08-18:26:54,10.1.1.5,30,-0.040,-0.040,-0.040,0.000,0.000,0.000
1644344814193787136,2022-02-08-18:26:54,10.1.1.5,29,-0.030,-0.030,-0.030,0.000,0.000,0.000
1644344814294172928,2022-02-08-18:26:54,10.1.1.5,28,-0.020,-0.020,-0.020,0.000,0.000,0.000
1644344814394522880,2022-02-08-18:26:54,10.1.1.5,27,-0.010,-0.010,-0.010,0.000,0.000,0.000
1644344814494332160,2022-02-08-18:26:54,10.1.1.5,26,0.000,0.000,0.000,0.000,0.000,0.000
1644344814594890240,2022-02-08-18:26:54,10.1.1.5,25,0.010,0.010,0.010,0.000,0.000,0.000
1644344814694399232,2022-02-08-18:26:54,10.1.1.5,24,0.020,0.020,0.020,0.000,0.000,0.000
1644344814794095104,2022-02-08-18:26:54,10.1.1.5,23,0.030,0.030,0.030,0.000,0.000,0.000
1644344814893921024,2022-02-08-18:26:54,10.1.1.5,22,0.040,0.040,0.040,0.000,0.000,0.000
1644344814994867968,2022-02-08-18:26:54,10.1.1.5,21,0.050,0.050,0.050,0.000,0.000,0.000
1644344815113858048,2022-02-08-18:26:55,10.1.1.5,38,0.060,0.060,0.060,0.000,0.000,0.000
1644344815214596096,2022-02-08-18:26:55,10.1.1.5,35,0.070,0.070,0.070,0.000,0.000,0.000
1644344815317096960,2022-02-08-18:26:55,10.1.1.5,34,0.080,0.080,0.080,0.000,0.000,0.000
1644344815413923072,2022-02-08-18:26:55,10.1.1.5,30,0.090,0.090,0.090,0.000,0.000,0.000
1644344815513838080,2022-02-08-18:26:55,10.1.1.5,28,0.100,0.100,0.100,0.000,0.000,0.000
1644344815613799168,2022-02-08-18:26:55,10.1.1.5,24,0.090,0.090,0.090,0.000,0.000,0.000
1644344815713582080,2022-02-08-18:26:55,10.1.1.5,23,0.080,0.080,0.080,0.000,0.000,0.000
1644344815814606848,2022-02-08-18:26:55,10.1.1.5,22,0.070,0.070,0.070,0.000,0.000,0.000
1644344815914275840,2022-02-08-18:26:55,10.1.1.5,22,0.060,0.060,0.060,0.000,0.000,0.000
1644344816013956096,2022-02-08-18:26:56,10.1.1.5,20,0.050,0.050,0.050,0.000,0.000,0.000
1644344816113417984,2022-02-08-18:26:56,10.1.1.5,20,0.040,0.040,0.040,0.000,0.000,0.000
1644344816233553920,2022-02-08-18:26:56,10.1.1.5,39,0.030,0.030,0.030,0.000,0.000,0.000
1644344816334309120,2022-02-08-18:26:56,10.1.1.5,37,0.020,0.020,0.020,0.000,0.000,0.000
1644344816433984000,2022-02-08-18:26:56,10.1.1.5,35,0.010,0.010,0.010,0.000,0.000,0.000
1644344816533325056,2022-02-08-18:26:56,10.1.1.5,34,0.000,0.000,0.000,0.000,0.000,0.000
1644344816633899008,2022-02-08-18:26:56,10.1.1.5,33,-0.010,-0.010,-0.010,0.000,0.000,0.000
1644344816735557120,2022-02-08-18:26:56,10.1.1.5,31,-0.020,-0.020,-0.020,0.000,0.000,0.000
1644344816833796864,2022-02-08-18:26:56,10.1.1.5,31,-0.030,-0.030,-0.030,0.000,0.000,0.000
1644344816933795072,2022-02-08-18:26:56,10.1.1.5,29,-0.040,-0.040,-0.040,0.000,0.000,0.000
1644344817034153984,2022-02-08-18:26:57,10.1.1.5,28,-0.050,-0.050,-0.050,0.000,0.000,0.000
1644344817133883904,2022-02-08-18:26:57,10.1.1.5,25,-0.060,-0.060,-0.060,0.000,0.000,0.000
1644344817234025984,2022-02-08-18:26:57,10.1.1.5,24,-0.070,-0.070,-0.070,0.000,0.000,0.000
1644344817333762816,2022-02-08-18:26:57,10.1.1.5,23,-0.080,-0.080,-0.080,0.000,0.000,0.000
1644344817433598976,2022-02-08-18:26:57,10.1.1.5,22,-0.090,-0.090,-0.090,0.000,0.000,0.000
1644344817534092032,2022-02-08-18:26:57,10.1.1.5,22,-0.100,-0.100,-0.100,0.000,0.000,0.000
1644344817634011136,2022-02-08-18:26:57,10.1.1.5,21,-0.090,-0.090,-0.090,0.000,0.000,0.000
1644344817753904128,2022-02-08-18:26:57,10.1.1.5,39,-0.080,-0.080,-0.080,0.000,0.000,0.000
1644344817853612800,2022-02-08-18:26:57,10.1.1.5,36,-0.070,-0.070,-0.070,0.000,0.000,0.000
1644344817955128832,2022-02-08-18:26:57,10.1.1.5,34,-0.060,-0.060,-0.060,0.000,0.000,0.000
1644344818053873152,2022-02-08-18:26:58,10.1.1.5,34,-0.050,-0.050,-0.050,0.000,0.000,0.000
1644344818153945088,2022-02-08-18:26:58,10.1.1.5,32,-0.040,-0.040,-0.040,0.000,0.000,0.000
1644344818254204160,2022-02-08-18:26:58,10.1.1.5,31,-0.030,-0.030,-0.030,0.000,0.000,0.000
1644344818353480960,2022-02-08-18:26:58,10.1.1.5,30,-0.020,-0.020,-0.020,0.000,0.000,0.000
1644344818453850112,2022-02-08-18:26:58,10.1.1.5,29,-0.010,-0.010,-0.010,0.000,0.000,0.000
1644344818555130880,2022-02-08-18:26:58,10.1.1.5,29,0.000,0.000,0.000,0.000,0.000,0.000
1644344818653995008,2022-02-08-18:26:58,10.1.1.5,28,0.010,0.010,0.010,0.000,0.000,0.000
1644344818754367232,2022-02-08-18:26:58,10.1.1.5,25,0.020,0.020,0.020,0.000,0.000,0.000
1644344818856372992,2022-02-08-18:26:58,10.1.1.5,24,0.030,0.030,0.030,0.000,0.000,0.000
1644344818953680128,2022-02-08-18:26:58,10.1.1.5,22,0.040,0.040,0.040,0.000,0.000,0.000
1644344819054430976,2022-02-08-18:26:59,10.1.1.5,21,0.050,0.050,0.050,0.000,0.000,0.000
1644344819153250048,2022-02-08-18:26:59,10.1.1.5,19,0.059,0.059,0.059,0.000,0.000,0.000
1644344819273592832,2022-02-08-18:26:59,10.1.1.5,38,0.070,0.070,0.070,0.000,0.000,0.000
1644344819373282048,2022-02-08-18:26:59,10.1.1.5,34,0.080,0.080,0.080,0.000,0.000,0.000
1644344819473201152,2022-02-08-18:26:59,10.1.1.5,33,0.090,0.090,0.090,0.000,0.000,0.000
1644344819574135040,2022-02-08-18:26:59,10.1.1.5,32,0.100,0.100,0.100,0.000,0.000,0.000
1644344819674144000,2022-02-08-18:26:59,10.1.1.5,30,0.090,0.090,0.090,0.000,0.000,0.000
1644344819774651136,2022-02-08-18:26:59,10.1.1.5,29,0.080,0.080,0.080,0.000,0.000,0.000
1644344819874546944,2022-02-08-18:26:59,10.1.1.5,28,0.070,0.070,0.070,0.000,0.000,0.000
1644344819975652864,2022-02-08-18:26:59,10.1.1.5,25,0.060,0.060,0.060,0.000,0.000,0.000
1644344820078650880,2022-02-08-18:27:00,10.1.1.5,25,0.050,0.050,0.050,0.000,0.000,0.000
1644344820176961792,2022-02-08-18:27:00,10.1.1.5,23,0.040,0.040,0.040,0.000,0.000,0.000
1644344820274332928,2022-02-08-18:27:00,10.1.1.5,23,0.030,0.030,0.030,0.000,0.000,0.000
1644344820373702144,2022-02-08-18:27:00,10.1.1.5,22,0.020,0.020,0.020,0.000,0.000,0.000
1644344820473210112,2022-02-08-18:27:00,10.1.1.5,20,0.010,0.010,0.010,0.000,0.000,0.000
1644344820573873152,2022-02-08-18:27:00,10.1.1.5,20,0.000,0.000,0.000,0.000,0.000,0.000
1644344820675046912,2022-02-08-18:27:00,10.1.1.5,19,-0.009,-0.009,-0.009,0.000,0.000,0.000
1644344820793880064,2022-02-08-18:27:00,10.1.1.5,37,-0.020,-0.020,-0.020,0.000,0.000,0.000
1644344820895132928,2022-02-08-18:27:00,10.1.1.5,34,-0.030,-0.030,-0.030,0.000,0.000,0.000
1644344820993593088,2022-02-08-18:27:00,10.1.1.5,33,-0.040,-0.040,-0.040,0.000,0.000,0.000
1644344821094002944,2022-02-08-18:27:01,10.1.1.5,32,-0.050,-0.050,-0.050,0.000,0.000,0.000
1644344821194302208,2022-02-08-18:27:01,10.1.1.5,29,-0.060,-0.060,-0.060,0.000,0.000,0.000
1644344821293637888,2022-02-08-18:27:01,10.1.1.5,29,-0.070,-0.070,-0.070,0.000,0.000,0.000
1644344821394387968,2022-02-08-18:27:01,10.1.1.5,28,-0.080,-0.080,-0.080,0.000,0.000,0.000
1644344821493902080,2022-02-08-18:27:01,10.1.1.5,26,-0.090,-0.090,-0.090,0.000,0.000,0.000
1644344821593632000,2022-02-08-18:27:01,10.1.1.5,25,-0.100,-0.100,-0.100,0.000,0.000,0.000
1644344821693521920,2022-02-08-18:27:01,10.1.1.5,23,-0.090,-0.090,-0.090,0.000,0.000,0.000
1644344821793875968,2022-02-08-18:27:01,10.1.1.5,22,-0.080,-0.080,-0.080,0.000,0.000,0.000
1644344821898659840,2022-02-08-18:27:01,10.1.1.5,21,-0.070,-0.070,-0.070,0.000,0.000,0.000
1644344821994407936,2022-02-08-18:27:01,10.1.1.5,21,-0.060,-0.060,-0.060,0.000,0.000,0.000
1644344822093655040,2022-02-08-18:27:02,10.1.1.5,20,-0.050,-0.050,-0.050,0.000,0.000,0.000
1644344822213990912,2022-02-08-18:27:02,10.1.1.5,39,-0.040,-0.040,-0.040,0.000,0.000,0.000
1644344822314460160,2022-02-08-18:27:02,10.1.1.5,37,-0.030,-0.030,-0.030,0.000,0.000,0.000
1644344822414494976,2022-02-08-18:27:02,10.1.1.5,35,-0.020,-0.020,-0.020,0.000,0.000,0.000
1644344822513422080,2022-02-08-18:27:02,10.1.1.5,34,-0.010,-0.010,-0.010,0.000,0.000,0.000
1644344822614365952,2022-02-08-18:27:02,10.1.1.5,33,0.000,0.000,0.000,0.000,0.000,0.000
1644344822713956096,2022-02-08-18:27:02,10.1.1.5,32,0.010,0.010,0.010,0.000,0.000,0.000
1644344822814484992,2022-02-08-18:27:02,10.1.1.5,31,0.020,0.020,0.020,0.000,0.000,0.000
1644344822914190080,2022-02-08-18:27:02,10.1.1.5,31,0.030,0.030,0.030,0.000,0.000,0.000
1644344823013406976,2022-02-08-18:27:03,10.1.1.5,29,0.040,0.040,0.040,0.000,0.000,0.000
1644344823115348224,2022-02-08-18:27:03,10.1.1.5,26,0.050,0.050,0.050,0.000,0.000,0.000
1644344823213662976,2022-02-08-18:27:03,10.1.1.5,25,0.060,0.060,0.060,0.000,0.000,0.000
1644344823314032128,2022-02-08-18:27:03,10.1.1.5,24,0.070,0.070,0.070,0.000,0.000,0.000
1644344823414035968,2022-02-08-18:27:03,10.1.1.5,23,0.080,0.080,0.080,0.000,0.000,0.000
1644344823514120192,2022-02-08-18:27:03,10.1.1.5,21,0.090,0.090,0.090,0.000,0.000,0.000
1644344823613772032,2022-02-08-18:27:03,10.1.1.5,20,0.100,0.100,0.100,0.000,0.000,0.000
1644344823713501952,2022-02-08-18:27:03,10.1.1.5,19,0.091,0.091,0.091,0.000,0.000,0.000
1644344823833678848,2022-02-08-18:27:03,10.1.1.5,35,0.080,0.080,0.080,0.000,0.000,0.000
1644344823933270016,2022-02-08-18:27:03,10.1.1.5,33,0.070,0.070,0.070,0.000,0.000,0.000
1644344824033730048,2022-02-08-18:27:04,10.1.1.5,32,0.060,0.060,0.060,0.000,0.000,0.000
1644344824133196032,2022-02-08-18:27:04,10.1.1.5,31,0.050,0.050,0.050,0.000,0.000,0.000
1644344824233982208,2022-02-08-18:27:04,10.1.1.5,30,0.040,0.040,0.040,0.000,0.000,0.000
1644344824333479936,2022-02-08-18:27:04,10.1.1.5,29,0.030,0.030,0.030,0.000,0.000,0.000
1644344824433618944,2022-02-08-18:27:04,10.1.1.5,28,0.020,0.020,0.020,0.000,0.000,0.000
1644344824533447936,2022-02-08-18:27:04,10.1.1.5,26,0.010,0.010,0.010,0.000,0.000,0.000
1644344824633574912,2022-02-08-18:27:04,10.1.1.5,25,0.000,0.000,0.000,0.000,0.000,0.000
1644344824733430016,2022-02-08-18:27:04,10.1.1.5,23,-0.010,-0.010,-0.010,0.000,0.000,0.000
1644344824833080064,2022-02-08-18:27:04,10.1.1.5,21,-0.020,-0.020,-0.020,0.000,0.000,0.000
1644344824933463040,2022-02-08-18:27:04,10.1.1.5,20,-0.030,-0.030,-0.030,0.000,0.000,0.000
1644344825053845760,2022-02-08-18:27:05,10.1.1.5,38,-0.040,-0.040,-0.040,0.000,0.000,0.000
1644344825153021184,2022-02-08-18:27:05,10.1.1.5,37,-0.050,-0.050,-0.050,0.000,0.000,0.000
1644344825253210112,2022-02-08-18:27:05,10.1.1.5,35,-0.060,-0.060,-0.060,0.000,0.000,0.000
1644344825353571840,2022-02-08-18:27:05,10.1.1.5,33,-0.070,-0.070,-0.070,0.000,0.000,0.000
1644344825453378816,2022-02-08-18:27:05,10.1.1.5,33,-0.080,-0.080,-0.080,0.000,0.000,0.000
1644344825553492992,2022-02-08-18:27:05,10.1.1.5,32,-0.090,-0.090,-0.090,0.000,0.000,0.000
1644344825654728960,2022-02-08-18:27:05,10.1.1.5,31,-0.100,-0.100,-0.100,0.000,0.000,0.000
1644344825753700864,2022-02-08-18:27:05,10.1.1.5,30,-0.090,-0.090,-0.090,0.000,0.000,0.000
1644344825853147136,2022-02-08-18:27:05,10.1.1.5,29,-0.080,-0.080,-0.080,0.000,0.000,0.000
1644344825953135872,2022-02-08-18:27:05,10.1.1.5,26,-0.070,-0.070,-0.070,0.000,0.000,0.000
1644344826053158144,2022-02-08-18:27:06,10.1.1.5,24,-0.060,-0.060,-0.060,0.000,0.000,0.000
1644344826153938944,2022-02-08-18:27:06,10.1.1.5,23,-0.050,-0.050,-0.050,0.000,0.000,0.000
1644344826253457920,2022-02-08-18:27:06,10.1.1.5,20,-0.040,-0.040,-0.040,0.000,0.000,0.000
1644344826376070912,2022-02-08-18:27:06,10.1.1.5,39,-0.030,-0.030,-0.030,0.000,0.000,0.000
1644344826475867904,2022-02-08-18:27:06,10.1.1.5,35,-0.020,-0.020,-0.020,0.000,0.000,0.000
1644344826574710016,2022-02-08-18:27:06,10.1.1.5,34,-0.010,-0.010,-0.010,0.000,0.000,0.000
