FedericoMungari/DigitalTwin_service/01_WiredScenario/Output/Output_script/script_rosapi_2_output_robots12_freq0_5.txt
timestamp,date,node,latency,joint_1,joint_2,joint_3,joint_4,joint_5,joint_6
1644375319005050880,2022-02-09-02:55:19,10.1.1.6,1,-0.100,-0.100,-0.100,0.000,0.000,-0.000
1644375323224916992,2022-02-09-02:55:23,10.1.1.6,-15,-0.100,-0.100,-0.100,0.000,0.000,-0.000
1644375330211558144,2022-02-09-02:55:29,10.1.1.6,-1778,-0.100,-0.100,-0.100,0.000,0.000,-0.000
1644375347346417920,2022-02-09-02:55:44,10.1.1.6,-5923,-0.100,-0.100,-0.100,0.000,0.000,-0.000
1644375351364728832,2022-02-09-02:55:51,10.1.1.6,-4,-0.100,-0.100,-0.100,0.000,0.000,-0.000
1644375355788416000,2022-02-09-02:55:55,10.1.1.6,-2,-0.100,-0.100,-0.100,0.000,0.000,-0.000
1644375359765625088,2022-02-09-02:55:59,10.1.1.6,1,-0.100,-0.100,-0.100,0.000,0.000,-0.000
1644375363803837184,2022-02-09-02:56:03,10.1.1.6,-1,-0.100,-0.100,-0.100,0.000,0.000,-0.000
1644375367943243008,2022-02-09-02:56:07,10.1.1.6,-2,-0.100,-0.100,-0.100,0.000,0.000,-0.000
1644375371944973056,2022-02-09-02:56:11,10.1.1.6,-2,-0.100,-0.100,-0.100,0.000,0.000,-0.000
1644375376289875968,2022-02-09-02:56:16,10.1.1.6,-7,-0.100,-0.100,-0.100,0.000,0.000,-0.000
1644375381523355904,2022-02-09-02:56:20,10.1.1.6,0,-0.100,-0.100,-0.100,0.000,0.000,-0.000
1644375387161444864,2022-02-09-02:56:25,10.1.1.6,4,-0.100,-0.100,-0.100,0.000,0.000,-0.000
1644375392878541056,2022-02-09-02:56:31,10.1.1.6,2,-0.100,-0.100,-0.100,0.000,0.000,-0.000
1644375398622962944,2022-02-09-02:56:37,10.1.1.6,-9,-0.100,-0.100,-0.100,0.000,0.000,-0.000
1644375403712673024,2022-02-09-02:56:42,10.1.1.6,-28,-0.100,-0.100,-0.100,0.000,0.000,-0.000
1644375409527726848,2022-02-09-02:56:47,10.1.1.6,4,-0.100,-0.100,-0.100,0.000,0.000,-0.000
1644375414367688960,2022-02-09-02:56:53,10.1.1.6,-9,-0.100,-0.100,-0.100,0.000,0.000,-0.000
1644375419835760128,2022-02-09-02:56:59,10.1.1.6,-32,-0.100,-0.100,-0.100,0.000,0.000,-0.000
1644375428095751168,2022-02-09-02:57:04,10.1.1.6,-19,-0.100,-0.100,-0.100,0.000,0.000,-0.000
1644375433818223872,2022-02-09-02:57:12,10.1.1.6,-10,-0.100,-0.100,-0.100,0.000,0.000,-0.000
1644375438158451200,2022-02-09-02:57:18,10.1.1.6,-4,-0.100,-0.100,-0.100,0.000,0.000,-0.000
1644375442227958016,2022-02-09-02:57:22,10.1.1.6,-36,-0.100,-0.100,-0.100,0.000,0.000,-0.000
1644375446285222912,2022-02-09-02:57:26,10.1.1.6,-2,-0.100,-0.100,-0.100,0.000,0.000,-0.000
1644375450320622848,2022-02-09-02:57:30,10.1.1.6,-8,-0.100,-0.100,-0.100,0.000,0.000,-0.000
1644375454364967936,2022-02-09-02:57:34,10.1.1.6,3,-0.100,-0.100,-0.100,0.000,0.000,-0.000
1644375459705028096,2022-02-09-02:57:38,10.1.1.6,0,-0.100,-0.100,-0.100,0.000,0.000,-0.000
1644375464164678144,2022-02-09-02:57:43,10.1.1.6,1,-0.100,-0.100,-0.100,0.000,0.000,-0.000
1644375468446872064,2022-02-09-02:57:48,10.1.1.6,-9,-0.100,-0.100,-0.100,0.000,0.000,-0.000
1644375472815200000,2022-02-09-02:57:52,10.1.1.6,-10,-0.100,-0.100,-0.100,0.000,0.000,-0.000
1644375478673475072,2022-02-09-02:57:56,10.1.1.6,0,-0.100,-0.100,-0.100,0.000,0.000,-0.000
1644375478938315008,2022-02-09-02:57:58,10.1.1.6,-1066,-0.100,-0.100,-0.100,0.000,0.000,-0.000
1644375484802948864,2022-02-09-02:58:03,10.1.1.6,5,-0.100,-0.100,-0.100,0.000,0.000,-0.000
1644375492898208000,2022-02-09-02:58:09,10.1.1.6,-13,-0.100,-0.100,-0.100,0.000,0.000,-0.000
1644375498206620928,2022-02-09-02:58:18,10.1.1.6,-11,-0.100,-0.100,-0.100,0.000,0.000,-0.000
1644375503339544064,2022-02-09-02:58:22,10.1.1.6,-182,-0.100,-0.100,-0.100,0.000,0.000,-0.000
1644375509534078976,2022-02-09-02:58:27,10.1.1.6,-62,-0.100,-0.100,-0.100,0.000,0.000,-0.000
1644375516908022016,2022-02-09-02:58:33,10.1.1.6,-1,-0.100,-0.100,-0.100,0.000,0.000,-0.000
1644375524181114880,2022-02-09-02:58:41,10.1.1.6,-1,-0.100,-0.100,-0.100,0.000,0.000,-0.000
1644375532942310144,2022-02-09-02:58:48,10.1.1.6,-7,-0.100,-0.100,-0.100,0.000,0.000,-0.000
1644375540032567040,2022-02-09-02:58:57,10.1.1.6,-346,-0.100,-0.100,-0.100,0.000,0.000,-0.000
1644375553484662016,2022-02-09-02:59:05,10.1.1.6,-898,-0.100,-0.100,-0.100,0.000,0.000,-0.000
1644375564513155840,2022-02-09-02:59:20,10.1.1.6,-10,-0.100,-0.100,-0.100,0.000,0.000,-0.000
1644375571769662976,2022-02-09-02:59:30,10.1.1.6,4,-0.100,-0.100,-0.100,0.000,0.000,-0.000
1644375578990561024,2022-02-09-02:59:35,10.1.1.6,-3,-0.100,-0.100,-0.100,0.000,0.000,-0.000
1644375590473176064,2022-02-09-02:59:43,10.1.1.6,-273,-0.100,-0.100,-0.100,0.000,0.000,-0.000
1644375601677917952,2022-02-09-02:59:57,10.1.1.6,-15,-0.100,-0.100,-0.100,0.000,0.000,-0.000
1644375612699776768,2022-02-09-03:00:10,10.1.1.6,-19,-0.100,-0.100,-0.100,0.000,0.000,-0.000
1644375643990386944,2022-02-09-03:00:30,10.1.1.6,-1,-0.100,-0.100,-0.100,0.000,0.000,-0.000
1644375649026789888,2022-02-09-03:00:49,10.1.1.6,1,-0.100,-0.100,-0.100,0.000,0.000,-0.000
1644375653442241024,2022-02-09-03:00:53,10.1.1.6,-4,-0.100,-0.100,-0.100,0.000,0.000,-0.000
1644375657467113984,2022-02-09-03:00:57,10.1.1.6,-7,-0.100,-0.100,-0.100,0.000,0.000,-0.000
1644375665942996992,2022-02-09-03:01:01,10.1.1.6,-4,-0.100,-0.100,-0.100,0.000,0.000,-0.000
1644375670388562944,2022-02-09-03:01:10,10.1.1.6,0,-0.100,-0.100,-0.100,0.000,0.000,-0.000
1644375675418560000,2022-02-09-03:01:14,10.1.1.6,0,-0.100,-0.100,-0.100,0.000,0.000,-0.000
1644375679426525184,2022-02-09-03:01:19,10.1.1.6,-3,-0.100,-0.100,-0.100,0.000,0.000,-0.000
1644375683476164096,2022-02-09-03:01:23,10.1.1.6,-24,-0.100,-0.100,-0.100,0.000,0.000,-0.000
1644375687560261120,2022-02-09-03:01:27,10.1.1.6,-15,-0.100,-0.100,-0.100,0.000,0.000,-0.000
1644375692723188992,2022-02-09-03:01:31,10.1.1.6,-8,-0.100,-0.100,-0.100,0.000,0.000,-0.000
1644375697074917120,2022-02-09-03:01:37,10.1.1.6,-10,-0.100,-0.100,-0.100,0.000,0.000,-0.000
1644375708228253952,2022-02-09-03:01:41,10.1.1.6,-16,-0.100,-0.100,-0.100,0.000,0.000,-0.000
1644375725947680000,2022-02-09-03:01:59,10.1.1.6,-1067,-0.100,-0.100,-0.100,0.000,0.000,-0.000
1644375745821803008,2022-02-09-03:02:20,10.1.1.6,0,-0.100,-0.100,-0.100,0.000,0.000,-0.000
1644375776830715904,2022-02-09-03:02:48,10.1.1.6,1,-0.100,-0.100,-0.100,0.000,0.000,-0.000
1644375781306628096,2022-02-09-03:03:01,10.1.1.6,-12,-0.100,-0.100,-0.100,0.000,0.000,-0.000
1644375785389453056,2022-02-09-03:03:05,10.1.1.6,-17,-0.100,-0.100,-0.100,0.000,0.000,-0.000
1644375789427598080,2022-02-09-03:03:09,10.1.1.6,-11,-0.100,-0.100,-0.100,0.000,0.000,-0.000
1644375793505722880,2022-02-09-03:03:13,10.1.1.6,-7,-0.100,-0.100,-0.100,0.000,0.000,-0.000
1644375811072774912,2022-02-09-03:03:17,10.1.1.6,-4,-0.100,-0.100,-0.100,0.000,0.000,-0.000
1644375817606731776,2022-02-09-03:03:37,10.1.1.6,-10,-0.100,-0.100,-0.100,0.000,0.000,-0.000
1644375821665997056,2022-02-09-03:03:41,10.1.1.6,0,-0.100,-0.100,-0.100,0.000,0.000,-0.000
1644375826253121024,2022-02-09-03:03:45,10.1.1.6,-9,-0.100,-0.100,-0.100,0.000,0.000,-0.000
1644375830246949888,2022-02-09-03:03:50,10.1.1.6,-2,-0.100,-0.100,-0.100,0.000,0.000,-0.000
1644375834367377152,2022-02-09-03:03:54,10.1.1.6,0,-0.100,-0.100,-0.100,0.000,0.000,-0.000
1644375838387322880,2022-02-09-03:03:58,10.1.1.6,-5,-0.100,-0.100,-0.100,0.000,0.000,-0.000
1644375842406262016,2022-02-09-03:04:02,10.1.1.6,-11,-0.100,-0.100,-0.100,0.000,0.000,-0.000
1644375846446824960,2022-02-09-03:04:06,10.1.1.6,-2,-0.100,-0.100,-0.100,0.000,0.000,-0.000
1644375850485989120,2022-02-09-03:04:10,10.1.1.6,1,-0.100,-0.100,-0.100,0.000,0.000,-0.000
1644375854506758912,2022-02-09-03:04:14,10.1.1.6,-6,-0.100,-0.100,-0.100,0.000,0.000,-0.000
1644375858567578112,2022-02-09-03:04:18,10.1.1.6,-9,-0.100,-0.100,-0.100,0.000,0.000,-0.000
1644375862607378944,2022-02-09-03:04:22,10.1.1.6,0,-0.100,-0.100,-0.100,0.000,0.000,-0.000
1644375866648789760,2022-02-09-03:04:26,10.1.1.6,-1,-0.100,-0.100,-0.100,0.000,0.000,-0.000
1644375870666578944,2022-02-09-03:04:30,10.1.1.6,-9,-0.100,-0.100,-0.100,0.000,0.000,-0.000
1644375874705914880,2022-02-09-03:04:34,10.1.1.6,3,-0.100,-0.100,-0.100,0.000,0.000,-0.000
1644375878727865856,2022-02-09-03:04:38,10.1.1.6,-2,-0.100,-0.100,-0.100,0.000,0.000,-0.000
1644375882746899968,2022-02-09-03:04:42,10.1.1.6,1,-0.100,-0.100,-0.100,0.000,0.000,-0.000
1644375886766684928,2022-02-09-03:04:46,10.1.1.6,-1,-0.100,-0.100,-0.100,0.000,0.000,-0.000
1644375890787784192,2022-02-09-03:04:50,10.1.1.6,-5,-0.100,-0.100,-0.100,0.000,0.000,-0.000
1644375894806838016,2022-02-09-03:04:54,10.1.1.6,-9,-0.100,-0.100,-0.100,0.000,0.000,-0.000
1644375898827249152,2022-02-09-03:04:58,10.1.1.6,-14,-0.100,-0.100,-0.100,0.000,0.000,-0.000
1644375902867048960,2022-02-09-03:05:02,10.1.1.6,4,-0.100,-0.100,-0.100,0.000,0.000,-0.000
1644375906887491072,2022-02-09-03:05:06,10.1.1.6,-1,-0.100,-0.100,-0.100,0.000,0.000,-0.000
1644375910927042048,2022-02-09-03:05:10,10.1.1.6,1,-0.100,-0.100,-0.100,0.000,0.000,-0.000
1644375914948548096,2022-02-09-03:05:14,10.1.1.6,-8,-0.100,-0.100,-0.100,0.000,0.000,-0.000
1644375918987306240,2022-02-09-03:05:18,10.1.1.6,-1,-0.100,-0.100,-0.100,0.000,0.000,-0.000
1644375923046447104,2022-02-09-03:05:23,10.1.1.6,-4,-0.100,-0.100,-0.100,0.000,0.000,-0.000
1644375927068408064,2022-02-09-03:05:27,10.1.1.6,-16,-0.100,-0.100,-0.100,0.000,0.000,-0.000
1644375931107465984,2022-02-09-03:05:31,10.1.1.6,-5,-0.100,-0.100,-0.100,0.000,0.000,-0.000
1644375935127556096,2022-02-09-03:05:35,10.1.1.6,-15,-0.100,-0.100,-0.100,0.000,0.000,-0.000
1644375939166727168,2022-02-09-03:05:39,10.1.1.6,4,-0.100,-0.100,-0.100,0.000,0.000,-0.000
1644375943187453952,2022-02-09-03:05:43,10.1.1.6,4,-0.100,-0.100,-0.100,0.000,0.000,-0.000
1644375947208655104,2022-02-09-03:05:47,10.1.1.6,-2,-0.100,-0.100,-0.100,0.000,0.000,-0.000
1644375951226603008,2022-02-09-03:05:51,10.1.1.6,-6,-0.100,-0.100,-0.100,0.000,0.000,-0.000
1644375955268500992,2022-02-09-03:05:55,10.1.1.6,-4,-0.100,-0.100,-0.100,0.000,0.000,-0.000
1644375959287622912,2022-02-09-03:05:59,10.1.1.6,-6,-0.100,-0.100,-0.100,0.000,0.000,-0.000
1644375963307135232,2022-02-09-03:06:03,10.1.1.6,-6,-0.100,-0.100,-0.100,0.000,0.000,-0.000
1644375967347259136,2022-02-09-03:06:07,10.1.1.6,2,-0.100,-0.100,-0.100,0.000,0.000,-0.000
1644375971366880000,2022-02-09-03:06:11,10.1.1.6,4,-0.100,-0.100,-0.100,0.000,0.000,-0.000
1644375975387689216,2022-02-09-03:06:15,10.1.1.6,-6,-0.100,-0.100,-0.100,0.000,0.000,-0.000
1644375979426369792,2022-02-09-03:06:19,10.1.1.6,-1,-0.100,-0.100,-0.100,0.000,0.000,-0.000
1644375983447298048,2022-02-09-03:06:23,10.1.1.6,-7,-0.100,-0.100,-0.100,0.000,0.000,-0.000
1644375987487232000,2022-02-09-03:06:27,10.1.1.6,4,-0.100,-0.100,-0.100,0.000,0.000,-0.000
1644375991507250944,2022-02-09-03:06:31,10.1.1.6,-7,-0.100,-0.100,-0.100,0.000,0.000,-0.000
1644375995547952896,2022-02-09-03:06:35,10.1.1.6,4,-0.100,-0.100,-0.100,0.000,0.000,-0.000
1644375999567425024,2022-02-09-03:06:39,10.1.1.6,-1,-0.100,-0.100,-0.100,0.000,0.000,-0.000
1644376003586380032,2022-02-09-03:06:43,10.1.1.6,-1,-0.100,-0.100,-0.100,0.000,0.000,-0.000
1644376007608918016,2022-02-09-03:06:47,10.1.1.6,2,-0.100,-0.100,-0.100,0.000,0.000,-0.000
1644376011629403136,2022-02-09-03:06:51,10.1.1.6,1,-0.100,-0.100,-0.100,0.000,0.000,-0.000
1644376015649534976,2022-02-09-03:06:55,10.1.1.6,1,-0.100,-0.100,-0.100,0.000,0.000,-0.000
1644376019687546112,2022-02-09-03:06:59,10.1.1.6,4,-0.100,-0.100,-0.100,0.000,0.000,-0.000
1644376023709559040,2022-02-09-03:07:03,10.1.1.6,-8,-0.100,-0.100,-0.100,0.000,0.000,-0.000
1644376027748048896,2022-02-09-03:07:07,10.1.1.6,-2,-0.100,-0.100,-0.100,0.000,0.000,-0.000
1644376031767034880,2022-02-09-03:07:11,10.1.1.6,-5,-0.100,-0.100,-0.100,0.000,0.000,-0.000
1644376035786992128,2022-02-09-03:07:15,10.1.1.6,-4,-0.100,-0.100,-0.100,0.000,0.000,-0.000
1644376039807704832,2022-02-09-03:07:19,10.1.1.6,-4,-0.100,-0.100,-0.100,0.000,0.000,-0.000
1644376043827728896,2022-02-09-03:07:23,10.1.1.6,-10,-0.100,-0.100,-0.100,0.000,0.000,-0.000
1644376047848113920,2022-02-09-03:07:27,10.1.1.6,-11,-0.100,-0.100,-0.100,0.000,0.000,-0.000
1644376051867461888,2022-02-09-03:07:31,10.1.1.6,-11,-0.100,-0.100,-0.100,0.000,0.000,-0.000
1644376055907400960,2022-02-09-03:07:35,10.1.1.6,-2,-0.100,-0.100,-0.100,0.000,0.000,-0.000
1644376059926817792,2022-02-09-03:07:39,10.1.1.6,-6,-0.100,-0.100,-0.100,0.000,0.000,-0.000
1644376063947953920,2022-02-09-03:07:43,10.1.1.6,-7,-0.100,-0.100,-0.100,0.000,0.000,-0.000
1644376067967870976,2022-02-09-03:07:47,10.1.1.6,-13,-0.100,-0.100,-0.100,0.000,0.000,-0.000
1644376072008096000,2022-02-09-03:07:52,10.1.1.6,4,-0.100,-0.100,-0.100,0.000,0.000,-0.000
1644376076027851008,2022-02-09-03:07:56,10.1.1.6,-8,-0.100,-0.100,-0.100,0.000,0.000,-0.000
1644376080066978816,2022-02-09-03:08:00,10.1.1.6,0,-0.100,-0.100,-0.100,0.000,0.000,-0.000
1644376084088123136,2022-02-09-03:08:04,10.1.1.6,1,-0.100,-0.100,-0.100,0.000,0.000,-0.000
1644376088108668928,2022-02-09-03:08:08,10.1.1.6,3,-0.100,-0.100,-0.100,0.000,0.000,-0.000
1644376092128884992,2022-02-09-03:08:12,10.1.1.6,-1,-0.100,-0.100,-0.100,0.000,0.000,-0.000
1644376096151181056,2022-02-09-03:08:16,10.1.1.6,-6,-0.100,-0.100,-0.100,0.000,0.000,-0.000
1644376100167688960,2022-02-09-03:08:20,10.1.1.6,-8,-0.100,-0.100,-0.100,0.000,0.000,-0.000
1644376104209096960,2022-02-09-03:08:24,10.1.1.6,3,-0.100,-0.100,-0.100,0.000,0.000,-0.000
1644376108209434112,2022-02-09-03:08:28,10.1.1.6,-15,-0.100,-0.100,-0.100,0.000,0.000,-0.000
1644376112228535040,2022-02-09-03:08:32,10.1.1.6,-16,-0.100,-0.100,-0.100,0.000,0.000,-0.000
1644376116269144064,2022-02-09-03:08:36,10.1.1.6,2,-0.100,-0.100,-0.100,0.000,0.000,-0.000
1644376120287996160,2022-02-09-03:08:40,10.1.1.6,-6,-0.100,-0.100,-0.100,0.000,0.000,-0.000
1644376124347642880,2022-02-09-03:08:44,10.1.1.6,-1,-0.100,-0.100,-0.100,0.000,0.000,-0.000
1644376128368244992,2022-02-09-03:08:48,10.1.1.6,-5,-0.100,-0.100,-0.100,0.000,0.000,-0.000
1644376132388704000,2022-02-09-03:08:52,10.1.1.6,-4,-0.100,-0.100,-0.100,0.000,0.000,-0.000
1644376136427558912,2022-02-09-03:08:56,10.1.1.6,-7,-0.100,-0.100,-0.100,0.000,0.000,-0.000
1644376140467936000,2022-02-09-03:09:00,10.1.1.6,-8,-0.100,-0.100,-0.100,0.000,0.000,-0.000
1644376144508118016,2022-02-09-03:09:04,10.1.1.6,-5,-0.100,-0.100,-0.100,0.000,0.000,-0.000
1644376148527128064,2022-02-09-03:09:08,10.1.1.6,-2,-0.100,-0.100,-0.100,0.000,0.000,-0.000
1644376152549659904,2022-02-09-03:09:12,10.1.1.6,-4,-0.100,-0.100,-0.100,0.000,0.000,-0.000
1644376156587223040,2022-02-09-03:09:16,10.1.1.6,-2,-0.100,-0.100,-0.100,0.000,0.000,-0.000
1644376160626810112,2022-02-09-03:09:20,10.1.1.6,-6,-0.100,-0.100,-0.100,0.000,0.000,-0.000
1644376164646887168,2022-02-09-03:09:24,10.1.1.6,-6,-0.100,-0.100,-0.100,0.000,0.000,-0.000
1644376168668631040,2022-02-09-03:09:28,10.1.1.6,-10,-0.100,-0.100,-0.100,0.000,0.000,-0.000
1644376172707076096,2022-02-09-03:09:32,10.1.1.6,3,-0.100,-0.100,-0.100,0.000,0.000,-0.000
1644376176725664000,2022-02-09-03:09:36,10.1.1.6,4,-0.100,-0.100,-0.100,0.000,0.000,-0.000
1644376180783323904,2022-02-09-03:09:40,10.1.1.6,-32,-0.100,-0.100,-0.100,0.000,0.000,-0.000
1644376184785255936,2022-02-09-03:09:44,10.1.1.6,3,-0.100,-0.100,-0.100,0.000,0.000,-0.000
1644376188806993920,2022-02-09-03:09:48,10.1.1.6,-7,-0.100,-0.100,-0.100,0.000,0.000,-0.000
1644376192849850880,2022-02-09-03:09:52,10.1.1.6,-5,-0.100,-0.100,-0.100,0.000,0.000,-0.000
1644376196866220032,2022-02-09-03:09:56,10.1.1.6,-11,-0.100,-0.100,-0.100,0.000,0.000,-0.000
1644376200926013952,2022-02-09-03:10:00,10.1.1.6,4,-0.100,-0.100,-0.100,0.000,0.000,-0.000
1644376205005372928,2022-02-09-03:10:05,10.1.1.6,5,-0.100,-0.100,-0.100,0.000,0.000,-0.000
1644376209026177792,2022-02-09-03:10:09,10.1.1.6,-4,-0.100,-0.100,-0.100,0.000,0.000,-0.000
1644376213064107776,2022-02-09-03:10:13,10.1.1.6,-2,-0.100,-0.100,-0.100,0.000,0.000,-0.000
1644376217084694016,2022-02-09-03:10:17,10.1.1.6,-1,-0.100,-0.100,-0.100,0.000,0.000,-0.000
1644376221106103808,2022-02-09-03:10:21,10.1.1.6,-1,-0.100,-0.100,-0.100,0.000,0.000,-0.000
1644376225146502144,2022-02-09-03:10:25,10.1.1.6,5,-0.100,-0.100,-0.100,0.000,0.000,-0.000
1644376229164107008,2022-02-09-03:10:29,10.1.1.6,-11,-0.100,-0.100,-0.100,0.000,0.000,-0.000
1644376233223715072,2022-02-09-03:10:33,10.1.1.6,1,-0.100,-0.100,-0.100,0.000,0.000,-0.000
1644376237243159040,2022-02-09-03:10:37,10.1.1.6,-1,-0.100,-0.100,-0.100,0.000,0.000,-0.000
1644376241263511808,2022-02-09-03:10:41,10.1.1.6,1,-0.100,-0.100,-0.100,0.000,0.000,-0.000
1644376245284614912,2022-02-09-03:10:45,10.1.1.6,-1,-0.100,-0.100,-0.100,0.000,0.000,-0.000
1644376249322443008,2022-02-09-03:10:49,10.1.1.6,5,-0.100,-0.100,-0.100,0.000,0.000,-0.000
1644376253343080960,2022-02-09-03:10:53,10.1.1.6,7,-0.100,-0.100,-0.100,0.000,0.000,-0.000
1644376257363507968,2022-02-09-03:10:57,10.1.1.6,5,-0.100,-0.100,-0.100,0.000,0.000,-0.000
1644376261383238144,2022-02-09-03:11:01,10.1.1.6,1,-0.100,-0.100,-0.100,0.000,0.000,-0.000
1644376265404332032,2022-02-09-03:11:05,10.1.1.6,1,-0.100,-0.100,-0.100,0.000,0.000,-0.000
1644376269423855104,2022-02-09-03:11:09,10.1.1.6,-8,-0.100,-0.100,-0.100,0.000,0.000,-0.000
1644376273462418944,2022-02-09-03:11:13,10.1.1.6,0,-0.100,-0.100,-0.100,0.000,0.000,-0.000
1644376277482547968,2022-02-09-03:11:17,10.1.1.6,-7,-0.100,-0.100,-0.100,0.000,0.000,-0.000
1644376281503185920,2022-02-09-03:11:21,10.1.1.6,-11,-0.100,-0.100,-0.100,0.000,0.000,-0.000
1644376285542382848,2022-02-09-03:11:25,10.1.1.6,6,-0.100,-0.100,-0.100,0.000,0.000,-0.000
1644376289561958912,2022-02-09-03:11:29,10.1.1.6,1,-0.100,-0.100,-0.100,0.000,0.000,-0.000
1644376293582055168,2022-02-09-03:11:33,10.1.1.6,-1,-0.100,-0.100,-0.100,0.000,0.000,-0.000
1644376297601980928,2022-02-09-03:11:37,10.1.1.6,-1,-0.100,-0.100,-0.100,0.000,0.000,-0.000
1644376301642802944,2022-02-09-03:11:41,10.1.1.6,10,-0.100,-0.100,-0.100,0.000,0.000,-0.000
1644376305660829184,2022-02-09-03:11:45,10.1.1.6,-4,-0.100,-0.100,-0.100,0.000,0.000,-0.000
1644376309701136128,2022-02-09-03:11:49,10.1.1.6,-4,-0.100,-0.100,-0.100,0.000,0.000,-0.000
1644376313721715968,2022-02-09-03:11:53,10.1.1.6,-4,-0.100,-0.100,-0.100,0.000,0.000,-0.000
1644376317761723904,2022-02-09-03:11:57,10.1.1.6,3,-0.100,-0.100,-0.100,0.000,0.000,-0.000
1644376321780827904,2022-02-09-03:12:01,10.1.1.6,0,-0.100,-0.100,-0.100,0.000,0.000,-0.000
1644376325862638080,2022-02-09-03:12:05,10.1.1.6,4,-0.100,-0.100,-0.100,0.000,0.000,-0.000
1644376329880105984,2022-02-09-03:12:09,10.1.1.6,4,-0.100,-0.100,-0.100,0.000,0.000,-0.000
1644376333901417984,2022-02-09-03:12:13,10.1.1.6,-5,-0.100,-0.100,-0.100,0.000,0.000,-0.000
1644376337941046016,2022-02-09-03:12:17,10.1.1.6,9,-0.100,-0.100,-0.100,0.000,0.000,-0.000
1644376341959964928,2022-02-09-03:12:21,10.1.1.6,4,-0.100,-0.100,-0.100,0.000,0.000,-0.000
1644376345979929856,2022-02-09-03:12:25,10.1.1.6,4,-0.100,-0.100,-0.100,0.000,0.000,-0.000
1644376350000980992,2022-02-09-03:12:30,10.1.1.6,-1,-0.100,-0.100,-0.100,0.000,0.000,-0.000
1644376354019612160,2022-02-09-03:12:34,10.1.1.6,-7,-0.100,-0.100,-0.100,0.000,0.000,-0.000
1644376358059723008,2022-02-09-03:12:38,10.1.1.6,10,-0.100,-0.100,-0.100,0.000,0.000,-0.000
1644376362081374976,2022-02-09-03:12:42,10.1.1.6,0,-0.100,-0.100,-0.100,0.000,0.000,-0.000
1644376366121859072,2022-02-09-03:12:46,10.1.1.6,-10,-0.100,-0.100,-0.100,0.000,0.000,-0.000
1644376370159563008,2022-02-09-03:12:50,10.1.1.6,2,-0.100,-0.100,-0.100,0.000,0.000,-0.000
1644376374184081152,2022-02-09-03:12:54,10.1.1.6,-11,-0.100,-0.100,-0.100,0.000,0.000,-0.000
1644376378218620160,2022-02-09-03:12:58,10.1.1.6,0,-0.100,-0.100,-0.100,0.000,0.000,-0.000
1644376382258579968,2022-02-09-03:13:02,10.1.1.6,8,-0.100,-0.100,-0.100,0.000,0.000,-0.000
1644376386298934016,2022-02-09-03:13:06,10.1.1.6,-1,-0.100,-0.100,-0.100,0.000,0.000,-0.000
1644376390319667200,2022-02-09-03:13:10,10.1.1.6,-2,-0.100,-0.100,-0.100,0.000,0.000,-0.000
1644376394358486784,2022-02-09-03:13:14,10.1.1.6,8,-0.100,-0.100,-0.100,0.000,0.000,-0.000
1644376398378895104,2022-02-09-03:13:18,10.1.1.6,1,-0.100,-0.100,-0.100,0.000,0.000,-0.000
1644376402399447808,2022-02-09-03:13:22,10.1.1.6,4,-0.100,-0.100,-0.100,0.000,0.000,-0.000
1644376406418668032,2022-02-09-03:13:26,10.1.1.6,4,-0.100,-0.100,-0.100,0.000,0.000,-0.000
1644376410457896960,2022-02-09-03:13:30,10.1.1.6,10,-0.100,-0.100,-0.100,0.000,0.000,-0.000
1644376414498465024,2022-02-09-03:13:34,10.1.1.6,11,-0.100,-0.100,-0.100,0.000,0.000,-0.000
1644376418518034944,2022-02-09-03:13:38,10.1.1.6,-3,-0.100,-0.100,-0.100,0.000,0.000,-0.000
1644376422558288128,2022-02-09-03:13:42,10.1.1.6,0