FedericoMungari/DigitalTwin_service/01_WiredScenario/Output/Output_script/script_ROSAPI_output_robots4_freq0_1.txt.csv
timestamp,node,latency,joint_1,joint_2,joint_3,joint_4,joint_5,joint_6
1640060650776081152,"2021-12-21,04:24:10",10.1.1.2,4403,0.000,0.000,0.000,0.000,0.000,0.000
1640060653070676992,"2021-12-21,04:24:13",10.1.1.2,309,-0.010,-0.010,-0.010,0.000,0.000,0.000
1640060653083504896,"2021-12-21,04:24:13",10.1.1.2,0.3228590488433838,-0.010,-0.010,-0.010,0.000,0.000,0.000
1640060653370435072,"2021-12-21,04:24:13",10.1.1.2,285,-0.020,-0.020,-0.020,0.000,0.000,0.000
1640060653403511040,"2021-12-21,04:24:13",10.1.1.2,0.31877684593200684,-0.020,-0.020,-0.020,0.000,0.000,0.000
1640060653729960960,"2021-12-21,04:24:13",10.1.1.2,325,-0.030,-0.030,-0.030,0.000,0.000,0.000
1640060653736217856,"2021-12-21,04:24:13",10.1.1.2,0.331312894821167,-0.030,-0.030,-0.030,0.000,0.000,0.000
1640060654049658112,"2021-12-21,04:24:14",10.1.1.2,312,-0.040,-0.040,-0.040,0.000,0.000,0.000
1640060654057091840,"2021-12-21,04:24:14",10.1.1.2,0.3195681571960449,-0.040,-0.040,-0.040,0.000,0.000,0.000
1640060654368592896,"2021-12-21,04:24:14",10.1.1.2,309,-0.050,-0.050,-0.050,0.000,0.000,0.000
1640060654408994048,"2021-12-21,04:24:14",10.1.1.2,0.35049891471862793,-0.050,-0.050,-0.050,0.000,0.000,0.000
1640060654719388928,"2021-12-21,04:24:14",10.1.1.2,308,-0.060,-0.060,-0.060,0.000,0.000,0.000
1640060654760286208,"2021-12-21,04:24:14",10.1.1.2,0.3496699333190918,-0.060,-0.060,-0.060,0.000,0.000,0.000
1640060655068169216,"2021-12-21,04:24:15",10.1.1.2,306,-0.070,-0.070,-0.070,0.000,0.000,0.000
1640060655145946112,"2021-12-21,04:24:15",10.1.1.2,0.3843410015106201,-0.070,-0.070,-0.070,0.000,0.000,0.000
1640060655448563200,"2021-12-21,04:24:15",10.1.1.2,301,-0.080,-0.080,-0.080,0.000,0.000,0.000
1640060655524089088,"2021-12-21,04:24:15",10.1.1.2,0.37665581703186035,-0.080,-0.080,-0.080,0.000,0.000,0.000
1640060655828665088,"2021-12-21,04:24:15",10.1.1.2,302,-0.090,-0.090,-0.090,0.000,0.000,0.000
1640060655870348032,"2021-12-21,04:24:15",10.1.1.2,0.34458208084106445,-0.090,-0.090,-0.090,0.000,0.000,0.000
1640060656156788992,"2021-12-21,04:24:16",10.1.1.2,285,-0.100,-0.100,-0.100,0.000,0.000,0.000
1640060656181658112,"2021-12-21,04:24:16",10.1.1.2,0.3099679946899414,-0.100,-0.100,-0.100,0.000,0.000,0.000
1640060656566423040,"2021-12-21,04:24:16",10.1.1.2,381,-0.110,-0.110,-0.110,0.000,0.000,0.000
1640060656578526976,"2021-12-21,04:24:16",10.1.1.2,0.3937230110168457,-0.110,-0.110,-0.110,0.000,0.000,0.000
1640060656895410176,"2021-12-21,04:24:16",10.1.1.2,315,-0.120,-0.120,-0.120,0.000,0.000,0.000
1640060656923374848,"2021-12-21,04:24:16",10.1.1.2,0.34346604347229004,-0.120,-0.120,-0.120,0.000,0.000,0.000
1640060657216605952,"2021-12-21,04:24:17",10.1.1.2,291,-0.130,-0.130,-0.130,0.000,0.000,0.000
1640060657244115968,"2021-12-21,04:24:17",10.1.1.2,0.3186328411102295,-0.130,-0.130,-0.130,0.000,0.000,0.000
1640060657573345792,"2021-12-21,04:24:17",10.1.1.2,327,-0.140,-0.140,-0.140,0.000,0.000,0.000
1640060657636971008,"2021-12-21,04:24:17",10.1.1.2,0.39109301567077637,-0.140,-0.140,-0.140,0.000,0.000,0.000
1640060657977415168,"2021-12-21,04:24:17",10.1.1.2,335,-0.150,-0.150,-0.150,0.000,0.000,0.000
1640060657997795072,"2021-12-21,04:24:17",10.1.1.2,0.3596069812774658,-0.150,-0.150,-0.150,0.000,0.000,0.000
1640060658312321792,"2021-12-21,04:24:18",10.1.1.2,313,-0.160,-0.160,-0.160,0.000,0.000,0.000
1640060658345505024,"2021-12-21,04:24:18",10.1.1.2,0.3461310863494873,-0.160,-0.160,-0.160,0.000,0.000,0.000
1640060658672983040,"2021-12-21,04:24:18",10.1.1.2,324,-0.170,-0.170,-0.170,0.000,0.000,0.000
1640060658739867904,"2021-12-21,04:24:18",10.1.1.2,0.3918609619140625,-0.170,-0.170,-0.170,0.000,0.000,0.000
1640060659031464192,"2021-12-21,04:24:19",10.1.1.2,290,-0.180,-0.180,-0.180,0.000,0.000,0.000
1640060659062377984,"2021-12-21,04:24:19",10.1.1.2,0.3210639953613281,-0.180,-0.180,-0.180,0.000,0.000,0.000
1640060659391457024,"2021-12-21,04:24:19",10.1.1.2,326,-0.190,-0.190,-0.190,0.000,0.000,0.000
1640060659426786816,"2021-12-21,04:24:19",10.1.1.2,0.36193203926086426,-0.190,-0.190,-0.190,0.000,0.000,0.000
1640060659771792896,"2021-12-21,04:24:19",10.1.1.2,329,-0.200,-0.200,-0.200,0.000,0.000,0.000
1640060659811788032,"2021-12-21,04:24:19",10.1.1.2,0.36939287185668945,-0.200,-0.200,-0.200,0.000,0.000,0.000
1640060660149459968,"2021-12-21,04:24:20",10.1.1.2,334,-0.210,-0.210,-0.210,0.000,0.000,0.000
1640060660179330048,"2021-12-21,04:24:20",10.1.1.2,0.365062952041626,-0.210,-0.210,-0.210,0.000,0.000,0.000
1640060660460033792,"2021-12-21,04:24:20",10.1.1.2,278,-0.220,-0.220,-0.220,0.000,0.000,0.000
1640060660520335872,"2021-12-21,04:24:20",10.1.1.2,0.3387279510498047,-0.220,-0.220,-0.220,0.000,0.000,0.000
1640060660838377984,"2021-12-21,04:24:20",10.1.1.2,315,-0.230,-0.230,-0.230,0.000,0.000,0.000
1640060660870240000,"2021-12-21,04:24:20",10.1.1.2,0.34787893295288086,-0.230,-0.230,-0.230,0.000,0.000,0.000
1640060661229628928,"2021-12-21,04:24:21",10.1.1.2,357,-0.240,-0.240,-0.240,0.000,0.000,0.000
1640060661245815040,"2021-12-21,04:24:21",10.1.1.2,0.37384700775146484,-0.240,-0.240,-0.240,0.000,0.000,0.000
1640060661570832896,"2021-12-21,04:24:21",10.1.1.2,320,-0.250,-0.250,-0.250,0.000,0.000,0.000
1640060661589500928,"2021-12-21,04:24:21",10.1.1.2,0.3384840488433838,-0.250,-0.250,-0.250,0.000,0.000,0.000
1640060661920530176,"2021-12-21,04:24:21",10.1.1.2,327,-0.260,-0.260,-0.260,0.000,0.000,0.000
1640060662005086976,"2021-12-21,04:24:22",10.1.1.2,0.4118340015411377,-0.260,-0.260,-0.260,0.000,0.000,0.000
1640060662309498112,"2021-12-21,04:24:22",10.1.1.2,302,-0.270,-0.270,-0.270,0.000,0.000,0.000
1640060662335621120,"2021-12-21,04:24:22",10.1.1.2,0.32926297187805176,-0.270,-0.270,-0.270,0.000,0.000,0.000
1640060662636374016,"2021-12-21,04:24:22",10.1.1.2,298,-0.280,-0.280,-0.280,0.000,0.000,0.000
1640060662726896128,"2021-12-21,04:24:22",10.1.1.2,0.3899109363555908,-0.280,-0.280,-0.280,0.000,0.000,0.000
1640060663025962240,"2021-12-21,04:24:23",10.1.1.2,297,-0.290,-0.290,-0.290,0.000,0.000,0.000
1640060663045859072,"2021-12-21,04:24:23",10.1.1.2,0.3177218437194824,-0.290,-0.290,-0.290,0.000,0.000,0.000
1640060663356393984,"2021-12-21,04:24:23",10.1.1.2,306,-0.300,-0.300,-0.300,0.000,0.000,0.000
1640060663411112960,"2021-12-21,04:24:23",10.1.1.2,0.36364221572875977,-0.300,-0.300,-0.300,0.000,0.000,0.000
1640060663724011008,"2021-12-21,04:24:23",10.1.1.2,311,-0.310,-0.310,-0.310,0.000,0.000,0.000
1640060663738450176,"2021-12-21,04:24:23",10.1.1.2,0.3260359764099121,-0.310,-0.310,-0.310,0.000,0.000,0.000
1640060664078476032,"2021-12-21,04:24:24",10.1.1.2,337,-0.320,-0.320,-0.320,0.000,0.000,0.000
1640060664130820096,"2021-12-21,04:24:24",10.1.1.2,0.3906869888305664,-0.320,-0.320,-0.320,0.000,0.000,0.000
1640060664434644992,"2021-12-21,04:24:24",10.1.1.2,301,-0.330,-0.330,-0.330,0.000,0.000,0.000
1640060664474145024,"2021-12-21,04:24:24",10.1.1.2,0.3414328098297119,-0.330,-0.330,-0.330,0.000,0.000,0.000
1640060664790980096,"2021-12-21,04:24:24",10.1.1.2,314,-0.340,-0.340,-0.340,0.000,0.000,0.000
1640060664825843968,"2021-12-21,04:24:24",10.1.1.2,0.3496980667114258,-0.340,-0.340,-0.340,0.000,0.000,0.000
1640060665184006912,"2021-12-21,04:24:25",10.1.1.2,0.3511359691619873,-0.350,-0.350,-0.350,0.000,0.000,0.000
1640060665530228992,"2021-12-21,04:24:25",10.1.1.2,337,-0.360,-0.360,-0.360,0.000,0.000,0.000
1640060665575175936,"2021-12-21,04:24:25",10.1.1.2,0.3826470375061035,-0.360,-0.360,-0.360,0.000,0.000,0.000
1640060665931343104,"2021-12-21,04:24:25",10.1.1.2,343,-0.370,-0.370,-0.370,0.000,0.000,0.000
1640060666001196032,"2021-12-21,04:24:26",10.1.1.2,0.42418599128723145,-0.370,-0.370,-0.370,0.000,0.000,0.000
1640060666303585024,"2021-12-21,04:24:26",10.1.1.2,300,-0.380,-0.380,-0.380,0.000,0.000,0.000
1640060666337513984,"2021-12-21,04:24:26",10.1.1.2,0.33455395698547363,-0.380,-0.380,-0.380,0.000,0.000,0.000
1640060666660346880,"2021-12-21,04:24:26",10.1.1.2,320,-0.390,-0.390,-0.390,0.000,0.000,0.000
1640060666700786944,"2021-12-21,04:24:26",10.1.1.2,0.36168813705444336,-0.390,-0.390,-0.390,0.000,0.000,0.000
1640060666999636992,"2021-12-21,04:24:26",10.1.1.2,297,-0.400,-0.400,-0.400,0.000,0.000,0.000
1640060667041223168,"2021-12-21,04:24:27",10.1.1.2,0.33896303176879883,-0.400,-0.400,-0.400,0.000,0.000,0.000
1640060667397569792,"2021-12-21,04:24:27",10.1.1.2,353,-0.410,-0.410,-0.410,0.000,0.000,0.000
1640060667429837824,"2021-12-21,04:24:27",10.1.1.2,0.3853731155395508,-0.410,-0.410,-0.410,0.000,0.000,0.000
1640060667746273024,"2021-12-21,04:24:27",10.1.1.2,310,-0.420,-0.420,-0.420,0.000,0.000,0.000
1640060667765278976,"2021-12-21,04:24:27",10.1.1.2,0.32932305335998535,-0.420,-0.420,-0.420,0.000,0.000,0.000
1640060668118920192,"2021-12-21,04:24:28",10.1.1.2,0.3516108989715576,-0.430,-0.430,-0.430,0.000,0.000,0.000
1640060668450990848,"2021-12-21,04:24:28",10.1.1.2,313,-0.440,-0.440,-0.440,0.000,0.000,0.000
1640060668506155008,"2021-12-21,04:24:28",10.1.1.2,0.3691580295562744,-0.440,-0.440,-0.440,0.000,0.000,0.000
1640060668826443008,"2021-12-21,04:24:28",10.1.1.2,318,-0.450,-0.450,-0.450,0.000,0.000,0.000
1640060668870341120,"2021-12-21,04:24:28",10.1.1.2,0.3620600700378418,-0.450,-0.450,-0.450,0.000,0.000,0.000
1640060669189080064,"2021-12-21,04:24:29",10.1.1.2,307,-0.460,-0.460,-0.460,0.000,0.000,0.000
1640060669221189888,"2021-12-21,04:24:29",10.1.1.2,0.33988404273986816,-0.460,-0.460,-0.460,0.000,0.000,0.000
1640060669595122944,"2021-12-21,04:24:29",10.1.1.2,370,-0.470,-0.470,-0.470,0.000,0.000,0.000
1640060669615438080,"2021-12-21,04:24:29",10.1.1.2,0.39042210578918457,-0.470,-0.470,-0.470,0.000,0.000,0.000
1640060669971142144,"2021-12-21,04:24:29",10.1.1.2,353,-0.480,-0.480,-0.480,0.000,0.000,0.000
1640060670035761152,"2021-12-21,04:24:30",10.1.1.2,0.4183328151702881,-0.480,-0.480,-0.480,0.000,0.000,0.000
1640060670343941888,"2021-12-21,04:24:30",10.1.1.2,303,-0.490,-0.490,-0.490,0.000,0.000,0.000
1640060670383119104,"2021-12-21,04:24:30",10.1.1.2,0.34285712242126465,-0.490,-0.490,-0.490,0.000,0.000,0.000
1640060670713953024,"2021-12-21,04:24:30",10.1.1.2,321,-0.480,-0.480,-0.480,0.000,0.000,0.000
1640060670725522944,"2021-12-21,04:24:30",10.1.1.2,0.3332479000091553,-0.480,-0.480,-0.480,0.000,0.000,0.000
1640060671108494080,"2021-12-21,04:24:31",10.1.1.2,372,-0.470,-0.470,-0.470,0.000,0.000,0.000
1640060671127523840,"2021-12-21,04:24:31",10.1.1.2,0.39250802993774414,-0.470,-0.470,-0.470,0.000,0.000,0.000
1640060671441137152,"2021-12-21,04:24:31",10.1.1.2,311,-0.460,-0.460,-0.460,0.000,0.000,0.000
1640060671475713024,"2021-12-21,04:24:31",10.1.1.2,0.3451719284057617,-0.460,-0.460,-0.460,0.000,0.000,0.000
1640060671825259008,"2021-12-21,04:24:31",10.1.1.2,347,-0.450,-0.450,-0.450,0.000,0.000,0.000
1640060671845817088,"2021-12-21,04:24:31",10.1.1.2,0.3683450222015381,-0.450,-0.450,-0.450,0.000,0.000,0.000
1640060672179950080,"2021-12-21,04:24:32",10.1.1.2,332,-0.440,-0.440,-0.440,0.000,0.000,0.000
1640060672209117952,"2021-12-21,04:24:32",10.1.1.2,0.3616769313812256,-0.440,-0.440,-0.440,0.000,0.000,0.000
1640060672558780928,"2021-12-21,04:24:32",10.1.1.2,343,-0.430,-0.430,-0.430,0.000,0.000,0.000
1640060672571067136,"2021-12-21,04:24:32",10.1.1.2,0.35651707649230957,-0.430,-0.430,-0.430,0.000,0.000,0.000
1640060672891735040,"2021-12-21,04:24:32",10.1.1.2,317,-0.420,-0.420,-0.420,0.000,0.000,0.000
1640060672933585920,"2021-12-21,04:24:32",10.1.1.2,0.3598949909210205,-0.420,-0.420,-0.420,0.000,0.000,0.000
1640060673252982016,"2021-12-21,04:24:33",10.1.1.2,316,-0.410,-0.410,-0.410,0.000,0.000,0.000
1640060673278884864,"2021-12-21,04:24:33",10.1.1.2,0.3422701358795166,-0.410,-0.410,-0.410,0.000,0.000,0.000
1640060673635997952,"2021-12-21,04:24:33",10.1.1.2,352,-0.400,-0.400,-0.400,0.000,0.000,0.000
1640060673640535040,"2021-12-21,04:24:33",10.1.1.2,0.35686206817626953,-0.400,-0.400,-0.400,0.000,0.000,0.000
1640060673978075904,"2021-12-21,04:24:33",10.1.1.2,331,-0.390,-0.390,-0.390,0.000,0.000,0.000
1640060674026016000,"2021-12-21,04:24:34",10.1.1.2,0.38018083572387695,-0.390,-0.390,-0.390,0.000,0.000,0.000
1640060674327905792,"2021-12-21,04:24:34",10.1.1.2,299,-0.380,-0.380,-0.380,0.000,0.000,0.000
1640060674395901952,"2021-12-21,04:24:34",10.1.1.2,0.36836695671081543,-0.380,-0.380,-0.380,0.000,0.000,0.000
1640060674712673792,"2021-12-21,04:24:34",10.1.1.2,314,-0.370,-0.370,-0.370,0.000,0.000,0.000
1640060674759623168,"2021-12-21,04:24:34",10.1.1.2,0.361767053604126,-0.370,-0.370,-0.370,0.000,0.000,0.000
1640060675060969984,"2021-12-21,04:24:35",10.1.1.2,298,-0.360,-0.360,-0.360,0.000,0.000,0.000
1640060675085519104,"2021-12-21,04:24:35",10.1.1.2,0.3228001594543457,-0.360,-0.360,-0.360,0.000,0.000,0.000
1640060675472903936,"2021-12-21,04:24:35",10.1.1.2,380,-0.350,-0.350,-0.350,0.000,0.000,0.000
1640060675509232128,"2021-12-21,04:24:35",10.1.1.2,0.41725611686706543,-0.350,-0.350,-0.350,0.000,0.000,0.000
1640060675803268864,"2021-12-21,04:24:35",10.1.1.2,291,-0.340,-0.340,-0.340,0.000,0.000,0.000
1640060675837752064,"2021-12-21,04:24:35",10.1.1.2,0.3259541988372803,-0.340,-0.340,-0.340,0.000,0.000,0.000
1640060676197374976,"2021-12-21,04:24:36",10.1.1.2,357,-0.330,-0.330,-0.330,0.000,0.000,0.000
1640060676276923904,"2021-12-21,04:24:36",10.1.1.2,0.43697118759155273,-0.330,-0.330,-0.330,0.000,0.000,0.000
1640060676577921024,"2021-12-21,04:24:36",10.1.1.2,298,-0.320,-0.320,-0.320,0.000,0.000,0.000
1640060676616936960,"2021-12-21,04:24:36",10.1.1.2,0.33809804916381836,-0.320,-0.320,-0.320,0.000,0.000,0.000
1640060676918498048,"2021-12-21,04:24:36",10.1.1.2,299,-0.310,-0.310,-0.310,0.000,0.000,0.000
1640060677009177088,"2021-12-21,04:24:37",10.1.1.2,0.39043307304382324,-0.310,-0.310,-0.310,0.000,0.000,0.000
1640060677332670976,"2021-12-21,04:24:37",10.1.1.2,321,-0.300,-0.300,-0.300,0.000,0.000,0.000
1640060677352745984,"2021-12-21,04:24:37",10.1.1.2,0.34203505516052246,-0.300,-0.300,-0.300,0.000,0.000,0.000
1640060677680902912,"2021-12-21,04:24:37",10.1.1.2,319,-0.290,-0.290,-0.290,0.000,0.000,0.000
1640060677704428032,"2021-12-21,04:24:37",10.1.1.2,0.3455641269683838,-0.290,-0.290,-0.290,0.000,0.000,0.000
1640060678059537920,"2021-12-21,04:24:38",10.1.1.2,353,-0.280,-0.280,-0.280,0.000,0.000,0.000
1640060678086242048,"2021-12-21,04:24:38",10.1.1.2,0.37991905212402344,-0.280,-0.280,-0.280,0.000,0.000,0.000
1640060678420532992,"2021-12-21,04:24:38",10.1.1.2,332,-0.270,-0.270,-0.270,0.000,0.000,0.000
1640060678460998912,"2021-12-21,04:24:38",10.1.1.2,0.37287187576293945,-0.270,-0.270,-0.270,0.000,0.000,0.000
1640060678782561024,"2021-12-21,04:24:38",10.1.1.2,312,-0.260,-0.260,-0.260,0.000,0.000,0.000
1640060678799334912,"2021-12-21,04:24:38",10.1.1.2,0.3289480209350586,-0.260,-0.260,-0.260,0.000,0.000,0.000
1640060679152532992,"2021-12-21,04:24:39",10.1.1.2,351,-0.250,-0.250,-0.250,0.000,0.000,0.000
1640060679183407104,"2021-12-21,04:24:39",10.1.1.2,0.38251781463623047,-0.250,-0.250,-0.250,0.000,0.000,0.000
1640060679515873024,"2021-12-21,04:24:39",10.1.1.2,329,-0.240,-0.240,-0.240,0.000,0.000,0.000
1640060679605295872,"2021-12-21,04:24:39",10.1.1.2,0.4193398952484131,-0.240,-0.240,-0.240,0.000,0.000,0.000
1640060679916709888,"2021-12-21,04:24:39",10.1.1.2,296,-0.230,-0.230,-0.230,0.000,0.000,0.000
1640060679942585856,"2021-12-21,04:24:39",10.1.1.2,0.33589601516723633,-0.230,-0.230,-0.230,0.000,0.000,0.000
1640060680235761920,"2021-12-21,04:24:40",10.1.1.2,291,-0.220,-0.220,-0.220,0.000,0.000,0.000
1640060680280601088,"2021-12-21,04:24:40",10.1.1.2,0.3364748954772949,-0.220,-0.220,-0.220,0.000,0.000,0.000
1640060680614275072,"2021-12-21,04:24:40",10.1.1.2,329,-0.210,-0.210,-0.210,0.000,0.000,0.000
1640060680691998976,"2021-12-21,04:24:40",10.1.1.2,0.40781307220458984,-0.210,-0.210,-0.210,0.000,0.000,0.000
1640060681014019840,"2021-12-21,04:24:41",10.1.1.2,320,-0.200,-0.200,-0.200,0.000,0.000,0.000
1640060681020869120,"2021-12-21,04:24:41",10.1.1.2,0.32765793800354004,-0.200,-0.200,-0.200,0.000,0.000,0.000
1640060681336390912,"2021-12-21,04:24:41",10.1.1.2,312,-0.190,-0.190,-0.190,0.000,0.000,0.000
1640060681410597120,"2021-12-21,04:24:41",10.1.1.2,0.3874669075012207,-0.190,-0.190,-0.190,0.000,0.000,0.000
1640060681695545856,"2021-12-21,04:24:41",10.1.1.2,283,-0.180,-0.180,-0.180,0.000,0.000,0.000
1640060681735277824,"2021-12-21,04:24:41",10.1.1.2,0.32328295707702637,-0.180,-0.180,-0.180,0.000,0.000,0.000
1640060682100000000,"2021-12-21,04:24:42",10.1.1.2,363,-0.170,-0.170,-0.170,0.000,0.000,0.000
1640060682116038144,"2021-12-21,04:24:42",10.1.1.2,0.379331111907959,-0.170,-0.170,-0.170,0.000,0.000,0.000
1640060682404508160,"2021-12-21,04:24:42",10.1.1.2,287,-0.160,-0.160,-0.160,0.000,0.000,0.000
1640060682438915072,"2021-12-21,04:24:42",10.1.1.2,0.32149600982666016,-0.160,-0.160,-0.160,0.000,0.000,0.000
1640060682754167040,"2021-12-21,04:24:42",10.1.1.2,312,-0.150,-0.150,-0.150,0.000,0.000,0.000
1640060682801748992,"2021-12-21,04:24:42",10.1.1.2,0.36049985885620117,-0.150,-0.150,-0.150,0.000,0.000,0.000
1640060683104579072,"2021-12-21,04:24:43",10.1.1.2,300,-0.140,-0.140,-0.140,0.000,0.000,0.000
1640060683146140928,"2021-12-21,04:24:43",10.1.1.2,0.34275007247924805,-0.140,-0.140,-0.140,0.000,0.000,0.000
1640060683444269056,"2021-12-21,04:24:43",10.1.1.2,296,-0.130,-0.130,-0.130,0.000,0.000,0.000
1640060683460974080,"2021-12-21,04:24:43",10.1.1.2,0.3132200241088867,-0.130,-0.130,-0.130,0.000,0.000,0.000
1640060683774704896,"2021-12-21,04:24:43",10.1.1.2,311,-0.120,-0.120,-0.120,0.000,0.000,0.000
1640060683795692800,"2021-12-21,04:24:43",10.1.1.2,0.33292102813720703,-0.120,-0.120,-0.120,0.000,0.000,0.000
1640060684104965888,"2021-12-21,04:24:44",10.1.1.2,307,-0.110,-0.110,-0.110,0.000,0.000,0.000
1640060684112161024,"2021-12-21,04:24:44",10.1.1.2,0.3145740032196045,-0.110,-0.110,-0.110,0.000,0.000,0.000
1640060684426161152,"2021-12-21,04:24:44",10.1.1.2,311,-0.100,-0.100,-0.100,0.000,0.000,0.000
1640060684436267008,"2021-12-21,04:24:44",10.1.1.2,0.3221709728240967,-0.100,-0.100,-0.100,0.000,0.000,0.000
1640060684734215936,"2021-12-21,04:24:44",10.1.1.2,294,-0.090,-0.090,-0.090,0.000,0.000,0.000
1640060684761518848,"2021-12-21,04:24:44",10.1.1.2,0.3213918209075928,-0.090,-0.090,-0.090,0.000,0.000,0.000
1640060685075140864,"2021-12-21,04:24:45",10.1.1.2,312,-0.080,-0.080,-0.080,0.000,0.000,0.000
1640060685092279040,"2021-12-21,04:24:45",10.1.1.2,0.32942819595336914,-0.080,-0.080,-0.080,0.000,0.000,0.000
1640060685395097088,"2021-12-21,04:24:45",10.1.1.2,301,-0.070,-0.070,-0.070,0.000,0.000,0.000
1640060685471843072,"2021-12-21,04:24:45",10.1.1.2,0.3781430721282959,-0.070,-0.070,-0.070,0.000,0.000,0.000
1640060685805273088,"2021-12-21,04:24:45",10.1.1.2,331,-0.060,-0.060,-0.060,0.000,0.000,0.000
1640060685840822016,"2021-12-21,04:24:45",10.1.1.2,0.3675248622894287,-0.060,-0.060,-0.060,0.000,0.000,0.000
1640060686164411904,"2021-12-21,04:24:46",10.1.1.2,321,-0.050,-0.050,-0.050,0.000,0.000,0.000
1640060686196237056,"2021-12-21,04:24:46",10.1.1.2,0.3539998531341553,-0.050,-0.050,-0.050,0.000,0.000,0.000
1640060686526829056,"2021-12-21,04:24:46",10.1.1.2,328,-0.040,-0.040,-0.040,0.000,0.000,0.000
1640060686542853120,"2021-12-21,04:24:46",10.1.1.2,0.344357967376709,-0.040,-0.040,-0.040,0.000,0.000,0.000
1640060686854381056,"2021-12-21,04:24:46",10.1.1.2,309,-0.030,-0.030,-0.030,0.000,0.000,0.000
1640060686875035136,"2021-12-21,04:24:46",10.1.1.2,0.3303189277648926,-0.030,-0.030,-0.030,0.000,0.000,0.000
1640060687174205184,"2021-12-21,04:24:47",10.1.1.2,297,-0.020,-0.020,-0.020,0.000,0.000,0.000
1640060687197141760,"2021-12-21,04:24:47",10.1.1.2,0.3202850818634033,-0.020,-0.020,-0.020,0.000,0.000,0.000
1640060687513900032,"2021-12-21,04:24:47",10.1.1.2,315,-0.010,-0.010,-0.010,0.000,0.000,0.000
1640060687519414784,"2021-12-21,04:24:47",10.1.1.2,0.32098913192749023,-0.010,-0.010,-0.010,0.000,0.000,0.000
1640060687833683968,"2021-12-21,04:24:47",10.1.1.2,311,0.000,0.000,0.000,0.000,0.000,0.000
1640060687899024128,"2021-12-21,04:24:47",10.1.1.2,0.3770139217376709,0.000,0.000,0.000,0.000,0.000,0.000
1640060688214128128,"2021-12-21,04:24:48",10.1.1.2,312,-0.010,-0.010,-0.010,0.000,0.000,0.000
1640060688244360960,"2021-12-21,04:24:48",10.1.1.2,0.3430039882659912,-0.010,-0.010,-0.010,0.000,0.000,0.000
1640060688625586944,"2021-12-21,04:24:48",10.1.1.2,373,-0.020,-0.020,-0.020,0.000,0.000,0.000
1640060688668328960,"2021-12-21,04:24:48",10.1.1.2,0.41701817512512207,-0.020,-0.020,-0.020,0.000,0.000,0.000
1640060688985405952,"2021-12-21,04:24:48",10.1.1.2,313,-0.030,-0.030,-0.030,0.000,0.000,0.000
1640060689048530176,"2021-12-21,04:24:49",10.1.1.2,0.3780488967895508,-0.030,-0.030,-0.030,0.000,0.000,0.000
1640060689385494016,"2021-12-21,04:24:49",10.1.1.2,333,-0.040,-0.040,-0.040,0.000,0.000,0.000
1640060689432632832,"2021-12-21,04:24:49",10.1.1.2,0.380687952041626,-0.040,-0.040,-0.040,0.000,0.000,0.000
1640060689733632000,"2021-12-21,04:24:49",10.1.1.2,297,-0.050,-0.050,-0.050,0.000,0.000,0.000
1640060689772669184,"2021-12-21,04:24:49",10.1.1.2,0.33739781379699707,-0.050,-0.050,-0.050,0.000,0.000,0.000
1640060690074949888,"2021-12-21,04:24:50",10.1.1.2,300,-0.060,-0.060,-0.060,0.000,0.000,0.000
1640060690140456960,"2021-12-21,04:24:50",10.1.1.2,0.36629700660705566,-0.060,-0.060,-0.060,0.000,0.000,0.000
1640060690454052096,"2021-12-21,04:24:50",10.1.1.2,305,-0.070,-0.070,-0.070,0.000,0.000,0.000
1640060690511616000,"2021-12-21,04:24:50",10.1.1.2,0.3594679832458496,-0.070,-0.070,-0.070,0.000,0.000,0.000
1640060690842099968,"2021-12-21,04:24:50",10.1.1.2,319,-0.080,-0.080,-0.080,0.000,0.000,0.000
1640060690861856000,"2021-12-21,04:24:50",10.1.1.2,0.3393590450286865,-0.080,-0.080,-0.080,0.000,0.000,0.000
1640060691200764928,"2021-12-21,04:24:51",10.1.1.2,336,-0.090,-0.090,-0.090,0.000,0.000,0.000
1640060691217230080,"2021-12-21,04:24:51",10.1.1.2,0.35346198081970215,-0.090,-0.090,-0.090,0.000,0.000,0.000
1640060691572312064,"2021-12-21,04:24:51",10.1.1.2,334,-0.100,-0.100,-0.100,0.000,0.000,0.000
1640060691611888896,"2021-12-21,04:24:51",10.1.1.2,0.37296509742736816,-0.100,-0.100,-0.100,0.000,0.000,0.000
1640060691933319168,"2021-12-21,04:24:51",10.1.1.2,309,-0.110,-0.110,-0.110,0.000,0.000,0.000
1640060691989789952,"2021-12-21,04:24:51",10.1.1.2,0.36348986625671387,-0.110,-0.110,-0.110,0.000,0.000,0.000
1640060692329978112,"2021-12-21,04:24:52",10.1.1.2,338,-0.120,-0.120,-0.120,0.000,0.000,0.000
1640060692348190976,"2021-12-21,04:24:52",10.1.1.2,0.3566761016845703,-0.120,-0.120,-0.120,0.000,0.000,0.000
1640060692686415872,"2021-12-21,04:24:52",10.1.1.2,326,-0.130,-0.130,-0.130,0.000,0.000,0.000
1640060692759502848,"2021-12-21,04:24:52",10.1.1.2,0.4039008617401123,-0.130,-0.130,-0.130,0.000,0.000,0.000
1640060693104943872,"2021-12-21,04:24:53",10.1.1.2,343,-0.140,-0.140,-0.140,0.000,0.000,0.000
1640060693112611072,"2021-12-21,04:24:53",10.1.1.2,0.351701021194458,-0.140,-0.140,-0.140,0.000,0.000,0.000
1640060693439970048,"2021-12-21,04:24:53",10.1.1.2,323,-0.150,-0.150,-0.150,0.000,0.000,0.000
1640060693501761792,"2021-12-21,04:24:53",10.1.1.2,0.3870110511779785,-0.150,-0.150,-0.150,0.000,0.000,0.000
1640060693808770816,"2021-12-21,04:24:53",10.1.1.2,304,-0.160,-0.160,-0.160,0.000,0.000,0.000
1640060693881399040,"2021-12-21,04:24:53",10.1.1.2,0.37784910202026367,-0.160,-0.160,-0.160,0.000,0.000,0.000
1640060694189356032,"2021-12-21,04:24:54",10.1.1.2,306,-0.170,-0.170,-0.170,0.000,0.000,0.000
1640060694219702016,"2021-12-21,04:24:54",10.1.1.2,0.3367781639099121,-0.170,-0.170,-0.170,0.000,0.000,0.000
1640060694537463808,"2021-12-21,04:24:54",10.1.1.2,315,-0.180,-0.180,-0.180,0.000,0.000,0.000
1640060694567919872,"2021-12-21,04:24:54",10.1.1.2,0.3464548587799072,-0.180,-0.180,-0.180,0.000,0.000,0.000
1640060694941935104,"2021-12-21,04:24:54",10.1.1.2,369,-0.190,-0.190,-0.190,0.000,0.000,0.000
1640060694963816960,"2021-12-21,04:24:54",10.1.1.2,0.39182305335998535,-0.190,-0.190,-0.190,0.000,0.000,0.000
1640060695276928000,"2021-12-21,04:24:55",10.1.1.2,307,-0.200,-0.200,-0.200,0.000,0.000,0.000
1640060695319073792,"2021-12-21,04:24:55",10.1.1.2,0.3500649929046631,-0.200,-0.200,-0.200,0.000,0.000,0.000
1640060695687661056,"2021-12-21,04:24:55",10.1.1.2,366,-0.210,-0.210,-0.210,0.000,0.000,0.000
1640060695748267008,"2021-12-21,04:24:55",10.1.1.2,0.42758607864379883,-0.210,-0.210,-0.210,0.000,0.000,0.000
1640060696065911040,"2021-12-21,04:24:56",10.1.1.2,313,-0.220,-0.220,-0.220,0.000,0.000,0.000
1640060696126471936,"2021-12-21,04:24:56",10.1.1.2,0.37418603897094727,-0.220,-0.220,-0.220,0.000,0.000,0.000
1640060696433986048,"2021-12-21,04:24:56",10.1.1.2,305,-0.230,-0.230,-0.230,0.000,0.000,0.000
1640060696479759872,"2021-12-21,04:24:56",10.1.1.2,0.35135507583618164,-0.230,-0.230,-0.230,0.000,0.000,0.000
1640060696814404096,"2021-12-21,04:24:56",10.1.1.2,332,-0.240,-0.240,-0.240,0.000,0.000,0.000
1640060696873291008,"2021-12-21,04:24:56",10.1.1.2,0.3919060230255127,-0.240,-0.240,-0.240,0.000,0.000,0.000
1640060697194392064,"2021-12-21,04:24:57",10.1.1.2,318,-0.250,-0.250,-0.250,0.000,0.000,0.000
1640060697229990912,"2021-12-21,04:24:57",10.1.1.2,0.35366201400756836,-0.250,-0.250,-0.250,0.000,0.000,0.000
1640060697553221888,"2021-12-21,04:24:57",10.1.1.2,320,-0.260,-0.260,-0.260,0.000,0.000,0.000
1640060697606141952,"2021-12-21,04:24:57",10.1.1.2,0.37392616271972656,-0.260,-0.260,-0.260,0.000,0.000,0.000
1640060697935890944,"2021-12-21,04:24:57",10.1.1.2,327,-0.270,-0.270,-0.270,0.000,0.000,0.000
1640060697946292992,"2021-12-21,04:24:57",10.1.1.2,0.33798694610595703,-0.270,-0.270,-0.270,0.000,0.000,0.000
1640060698294050048,"2021-12-21,04:24:58",10.1.1.2,344,-0.280,-0.280,-0.280,0.000,0.000,0.000
1640060698359260160,"2021-12-21,04:24:58",10.1.1.2,0.40976905822753906,-0.280,-0.280,-0.280,0.000,0.000,0.000
1640060698688375040,"2021-12-21,04:24:58",10.1.1.2,0.3273739814758301,-0.290,-0.290,-0.290,0.000,0.000,0.000
1640060698991727104,"2021-12-21,04:24:58",10.1.1.2,297,-0.300,-0.300,-0.300,0.000,0.000,0.000
1640060699025146880,"2021-12-21,04:24:59",10.1.1.2,0.33089113235473633,-0.300,-0.300,-0.300,0.000,0.000,0.000
1640060699395510784,"2021-12-21,04:24:59",10.1.1.2,356,-0.310,-0.310,-0.310,0.000,0.000,0.000
1640060699438844928,"2021-12-21,04:24:59",10.1.1.2,0.40008997917175293,-0.310,-0.310,-0.310,0.000,0.000,0.000
1640060699771732992,"2021-12-21,04:24:59",10.1.1.2,330,-0.320,-0.320,-0.320,0.000,0.000,0.000
1640060699796667136,"2021-12-21,04:24:59",10.1.1.2,0.3560359477996826,-0.320,-0.320,-0.320,0.000,0.000,0.000
1640060700121712896,"2021-12-21,04:25:00",10.1.1.2,321,-0.330,-0.330,-0.330,0.000,0.000,0.000
1640060700173212928,"2021-12-21,04:25:00",10.1.1.2,0.3729891777038574,-0.330,-0.330,-0.330,0.000,0.000,0.000
1640060700508284928,"2021-12-21,04:25:00",10.1.1.2,332,-0.340,-0.340,-0.340,0.000,0.000,0.000
1640060700574174976,"2021-12-21,04:25:00",10.1.1.2,0.39855289459228516,-0.340,-0.340,-0.340,0.000,0.000,0.000
1640060700901787136,"2021-12-21,04:25:00",10.1.1.2,323,-0.350,-0.350,-0.350,0.000,0.000,0.000
1640060700918855936,"2021-12-21,04:25:00",10.1.1.2,0.34052085876464844,-0.350,-0.350,-0.350,0.000,0.000,0.000
1640060701259278080,"2021-12-21,04:25:01",10.1.1.2,338,-0.360,-0.360,-0.360,0.000,0.000,0.000
1640060701293190912,"2021-12-21,04:25:01",10.1.1.2,0.37275099754333496,-0.360,-0.360,-0.360,0.000,0.000,0.000
1640060701598136064,"2021-12-21,04:25:01",10.1.1.2,297,-0.370,-0.370,-0.370,0.000,0.000,0.000
1640060701677664000,"2021-12-21,04:25:01",10.1.1.2,0.377810001373291,-0.370,-0.370,-0.370,0.000,0.000,0.000
1640060702000557824,"2021-12-21,04:25:02",10.1.1.2,318,-0.380,-0.380,-0.380,0.000,0.000,0.000
1640060702031316992,"2021-12-21,04:25:02",10.1.1.2,0.3473188877105713,-0.380,-0.380,-0.380,0.000,0.000,0.000
1640060702372216832,"2021-12-21,04:25:02",10.1.1.2,334,-0.390,-0.390,-0.390,0.000,0.000,0.000
1640060702416476928,"2021-12-21,04:25:02",10.1.1.2,0.3786931037902832,-0.390,-0.390,-0.390,0.000,0.000,0.000
1640060702735444992,"2021-12-21,04:25:02",10.1.1.2,308,-0.400,-0.400,-0.400,0.000,0.000,0.000
1640060702773402880,"2021-12-21,04:25:02",10.1.1.2,0.3469400405883789,-0.400,-0.400,-0.400,0.000,0.000,0.000
1640060703094674944,"2021-12-21,04:25:03",10.1.1.2,313,-0.410,-0.410,-0.410,0.000,0.000,0.000
1640060703169084928,"2021-12-21,04:25:03",10.1.1.2,0.38797497749328613,-0.410,-0.410,-0.410,0.000,0.000,0.000
1640060703506119936,"2021-12-21,04:25:03",10.1.1.2,335,-0.420,-0.420,-0.420,0.000,0.000,0.000
1640060703523014912,"2021-12-21,04:25:03",10.1.1.2,0.3524169921875,-0.420,-0.420,-0.420,0.000,0.000,0.000
1640060703890546176,"2021-12-21,04:25:03",10.1.1.2,363,-0.430,-0.430,-0.430,0.000,0.000,0.000
1640060703924006912,"2021-12-21,04:25:03",10.1.1.2,0.39662885665893555,-0.430,-0.430,-0.430,0.000,0.000,0.000
1640060704270503936,"2021-12-21,04:25:04",10.1.1.2,343,-0.440,-0.440,-0.440,0.000,0.000,0.000
1640060704295907072,"2021-12-21,04:25:04",10.1.1.2,0.3694760799407959,-0.440,-0.440,-0.440,0.000,0.000,0.000
1640060704630354944,"2021-12-21,04:25:04",10.1.1.2,331,-0.450,-0.450,-0.450,0.000,0.000,0.000
1640060704688088064,"2021-12-21,04:25:04",10.1.1.2,0.3896770477294922,-0.450,-0.450,-0.450,0.000,0.000,0.000
1640060705001085952,"2021-12-21,04:25:05",10.1.1.2,311,-0.460,-0.460,-0.460,0.000,0.000,0.000
1640060705024670976,"2021-12-21,04:25:05",10.1.1.2,0.33516693115234375,-0.460,-0.460,-0.460,0.000,0.000,0.000
1640060705351348992,"2021-12-21,04:25:05",10.1.1.2,319,-0.470,-0.470,-0.470,0.000,0.000,0.000
1640060705405976064,"2021-12-21,04:25:05",10.1.1.2,0.3743319511413574,-0.470,-0.470,-0.470,0.000,0.000,0.000
1640060705732866048,"2021-12-21,04:25:05",10.1.1.2,323,-0.480,-0.480,-0.480,0.000,0.000,0.000
1640060705780065024,"2021-12-21,04:25:05",10.1.1.2,0.37095117568969727,-0.480,-0.480,-0.480,0.000,0.000,0.000
1640060706125731072,"2021-12-21,04:25:06",10.1.1.2,344,-0.490,-0.490,-0.490,0.000,0.000,0.000
1640060706170105856,"2021-12-21,04:25:06",10.1.1.2,0.3888518810272217,-0.490,-0.490,-0.490,0.000,0.000,0.000
1640060706473114112,"2021-12-21,04:25:06",10.1.1.2,301,-0.480,-0.480,-0.480,0.000,0.000,0.000
1640060706554950912,"2021-12-21,04:25:06",10.1.1.2,0.3834540843963623,-0.480,-0.480,-0.480,0.000,0.000,0.000
1640060706843597056,"2021-12-21,04:25:06",10.1.1.2,287,-0.470,-0.470,-0.470,0.000,0.000,0.000
1640060706892184064,"2021-12-21,04:25:06",10.1.1.2,0.3357830047607422,-0.470,-0.470,-0.470,0.000,0.000,0.000
1640060707202694912,"2021-12-21,04:25:07",10.1.1.2,306,-0.460,-0.460,-0.460,0.000,0.000,0.000
1640060707215684864,"2021-12-21,04:25:07",10.1.1.2,0.31934094429016113,-0.460,-0.460,-0.460,0.000,0.000,0.000
1640060707564534016,"2021-12-21,04:25:07",10.1.1.2,345,-0.450,-0.450,-0.450,0.000,0.000,0.000
1640060707636599040,"2021-12-21,04:25:07",10.1.1.2,0.41768598556518555,-0.450,-0.450,-0.450,0.000,0.000,0.000
1640060707924283136,"2021-12-21,04:25:07",10.1.1.2,286,-0.440,-0.440,-0.440,0.000,0.000,0.000
1640060707996768000,"2021-12-21,04:25:07",10.1.1.2,0.35875701904296875,-0.440,-0.440,-0.440,0.000,0.000,0.000
1640060708323334912,"2021-12-21,04:25:08",10.1.1.2,323,-0.430,-0.430,-0.430,0.000,0.000,0.000
1640060708356668928,"2021-12-21,04:25:08",10.1.1.2,0.35774683952331543,-0.430,-0.430,-0.430,0.000,0.000,0.000
1640060708688718080,"2021-12-21,04:25:08",10.1.1.2,330,-0.420,-0.420,-0.420,0.000,0.000,0.000
1640060708771661056,"2021-12-21,04:25:08",10.1.1.2,0.4135749340057373,-0.420,-0.420,-0.420,0.000,0.000,0.000
1640060709055883776,"2021-12-21,04:25:09",10.1.1.2,282,-0.410,-0.410,-0.410,0.000,0.000,0.000
1640060709119334912,"2021-12-21,04:25:09",10.1.1.2,0.3463399410247803,-0.410,-0.410,-0.410,0.000,0.000,0.000
1640060709445519872,"2021-12-21,04:25:09",10.1.1.2,322,-0.400,-0.400,-0.400,0.000,0.000,0.000
1640060709464834816,"2021-12-21,04:25:09",10.1.1.2,0.3417329788208008,-0.400,-0.400,-0.400,0.000,0.000,0.000
1640060709787051008,"2021-12-21,04:25:09",10.1.1.2,313,-0.390,-0.390,-0.390,0.000,0.000,0.000
1640060709867613952,"2021-12-21,04:25:09",10.1.1.2,0.3942379951477051,-0.390,-0.390,-0.390,0.000,0.000,0.000
1640060710156196096,"2021-12-21,04:25:10",10.1.1.2,286,-0.380,-0.380,-0.380,0.000,0.000,0.000
1640060710200325120,"2021-12-21,04:25:10",10.1.1.2,0.33132290840148926,-0.380,-0.380,-0.380,0.000,0.000,0.000
1640060710498681088,"2021-12-21,04:25:10",10.1.1.2,295,-0.370,-0.370,-0.370,0.000,0.000,0.000
1640060710553427968,"2021-12-21,04:25:10",10.1.1.2,0.3517940044403076,-0.370,-0.370,-0.370,0.000,0.000,0.000
1640060710888477184,"2021-12-21,04:25:10",10.1.1.2,331,-0.360,-0.360,-0.360,0.000,0.000,0.000
1640060710976427008,"2021-12-21,04:25:10",10.1.1.2,0.41985583305358887,-0.360,-0.360,-0.360,0.000,0.000,0.000
1640060711286606080,"2021-12-21,04:25:11",10.1.1.2,308,-0.350,-0.350,-0.350,0.000,0.000,0.000
1640060711337462784,"2021-12-21,04:25:11",10.1.1.2,0.3596351146697998,-0.350,-0.350,-0.350,0.000,0.000,0.000
1640060711637552896,"2021-12-21,04:25:11",10.1.1.2,298,-0.340,-0.340,-0.340,0.000,0.000,0.000
1640060711684025088,"2021-12-21,04:25:11",10.1.1.2,0.345120906829834,-0.340,-0.340,-0.340,0.000,0.000,0.000
1640060712028214016,"2021-12-21,04:25:12",10.1.1.2,334,-0.330,-0.330,-0.330,0.000,0.000,0.000
1640060712070435072,"2021-12-21,04:25:12",10.1.1.2,0.37654900550842285,-0.330,-0.330,-0.330,0.000,0.000,0.000
1640060712436534016,"2021-12-21,04:25:12",10.1.1.2,357,-0.320,-0.320,-0.320,0.000,0.000,0.000
1640060712469203968,"2021-12-21,04:25:12",10.1.1.2,0.38984203338623047,-0.320,-0.320,-0.320,0.000,0.000,0.000
1640060712786269952,"2021-12-21,04:25:12",10.1.1.2,315,-0.310,-0.310,-0.310,0.000,0.000,0.000
1640060712790994944,"2021-12-21,04:25:12",10.1.1.2,0.3202970027923584,-0.310,-0.310,-0.310,0.000,0.000,0.000
1640060713127278080,"2021-12-21,04:25:13",10.1.1.2,334,-0.300,-0.300,-0.300,0.000,0.000,0.000
1640060713176302848,"2021-12-21,04:25:13",10.1.1.2,0.38324618339538574,-0.300,-0.300,-0.300,0.000,0.000,0.000
1640060713498217216,"2021-12-21,04:25:13",10.1.1.2,318,-0.290,-0.290,-0.290,0.000,0.000,0.000
1640060713527881984,"2021-12-21,04:25:13",10.1.1.2,0.3482980728149414,-0.290,-0.290,-0.290,0.000,0.000,0.000
1640060713865910016,"2021-12-21,04:25:13",10.1.1.2,335,-0.280,-0.280,-0.280,0.000,0.000,0.000
1640060713944987136,"2021-12-21,04:25:13",10.1.1.2,0.4143040180206299,-0.280,-0.280,-0.280,0.000,0.000,0.000
1640060714246007040,"2021-12-21,04:25:14",10.1.1.2,299,-0.270,-0.270,-0.270,0.000,0.000,0.000
1640060714292434944,"2021-12-21,04:25:14",10.1.1.2,0.3457489013671875,-0.270,-0.270,-0.270,0.000,0.000,0.000
1640060714615380992,"2021-12-21,04:25:14",10.1.1.2,315,-0.260,-0.260,-0.260,0.000,0.000,0.000
1640060714672601088,"2021-12-21,04:25:14",10.1.1.2,0.37262606620788574,-0.260,-0.260,-0.260,0.000,0.000,0.000
1640060714984636160,"2021-12-21,04:25:14",10.1.1.2,309,-0.250,-0.250,-0.250,0.000,0.000,0.000
1640060715059292160,"2021-12-21,04:25:15",10.1.1.2,0.38401198387145996,-0.250,-0.250,-0.250,0.000,0.000,0.000
1640060715356506112,"2021-12-21,04:25:15",10.1.1.2,295,-0.240,-0.240,-0.240,0.000,0.000,0.000
1640060715413783040,"2021-12-21,04:25:15",10.1.1.2,0.35315513610839844,-0.240,-0.240,-0.240,0.000,0.000,0.000
1640060715756083968,"2021-12-21,04:25:15",10.1.1.2,339,-0.230,-0.230,-0.230,0.000,0.000,0.000
1640060715822514176,"2021-12-21,04:25:15",10.1.1.2,0.40654492378234863,-0.230,-0.230,-0.230,0.000,0.000,0.000
1640060716132922880,"2021-12-21,04:25:16",10.1.1.2,300,-0.220,-0.220,-0.220,0.000,0.000,0.000
1640060716162777856,"2021-12-21,04:25:16",10.1.1.2,0.33895397186279297,-0.220,-0.220,-0.220,0.000,0.000,0.000
1640060716465435904,"2021-12-21,04:25:16",10.1.1.2,299,-0.210,-0.210,-0.210,0.000,0.000,0.000
1640060716569006080,"2021-12-21,04:25:16",10.1.1.2,0.4044671058654785,-0.210,-0.210,-0.210,0.000,0.000,0.000
1640060716853519872,"2021-12-21,04:25:16",10.1.1.2,283,-0.200,-0.200,-0.200,0.000,0.000,0.000
1640060716909629184,"2021-12-21,04:25:16",10.1.1.2,0.3392620086669922,-0.200,-0.200,-0.200,0.000,0.000,0.000
1640060717212467968,"2021-12-21,04:25:17",10.1.1.2,298,-0.190,-0.190,-0.190,0.000,0.000,0.000
1640060717271830016,"2021-12-21,04:25:17",10.1.1.2,0.35796689987182617,-0.190,-0.190,-0.190,0.000,0.000,0.000
1640060717616238080,"2021-12-21,04:25:17",10.1.1.2,342,-0.180,-0.180,-0.180,0.000,0.000,0.000
1640060717679737088,"2021-12-21,04:25:17",10.1.1.2,0.4064650535583496,-0.180,-0.180,-0.180,0.000,0.000,0.000
1640060718000935168,"2021-12-21,04:25:18",10.1.1.2,314,-0.170,-0.170,-0.170,0.000,0.000,0.000
1640060718014085120,"2021-12-21,04:25:18",10.1.1.2,0.32769107818603516,-0.170,-0.170,-0.170,0.000,0.000,0.000
1640060718304045056,"2021-12-21,04:25:18",10.1.1.2,288,-0.160,-0.160,-0.160,0.000,0.000,0.000
1640060718351689984,"2021-12-21,04:25:18",10.1.1.2,0.332927942276001,-0.160,-0.160,-0.160,0.000,0.000,0.000
1640060718697395968,"2021-12-21,04:25:18",10.1.1.2,343,-0.150,-0.150,-0.150,0.000,0.000,0.000
1640060718752711168,"2021-12-21,04:25:18",10.1.1.2,0.39913082122802734,-0.150,-0.150,-0.150,0.000,0.000,0.000
1640060719051264000,"2021-12-21,04:25:19",10.1.1.2,294,-0.140,-0.140,-0.140,0.000,0.000,0.000
1640060719153006080,"2021-12-21,04:25:19",10.1.1.2,0.39644789695739746,-0.140,-0.140,-0.140,0.000,0.000,0.000
1640060719440620032,"2021-12-21,04:25:19",10.1.1.2,286,-0.130,-0.130,-0.130,0.000,0.000,0.000
1640060719487226112,"2021-12-21,04:25:19",10.1.1.2,0.3327188491821289,-0.130,-0.130,-0.130,0.000,0.000,0.000
1640060719840416000,"2021-12-21,04:25:19",10.1.1.2,350,-0.120,-0.120,-0.120,0.000,0.000,0.000
1640060719843649024,"2021-12-21,04:25:19",10.1.1.2,0.3548450469970703,-0.120,-0.120,-0.120,0.000,0.000,0.000
1640060720161464832,"2021-12-21,04:25:20",10.1.1.2,315,-0.110,-0.110,-0.110,0.000,0.000,0.000
1640060720170736128,"2021-12-21,04:25:20",10.1.1.2,0.32516002655029297,-0.110,-0.110,-0.110,0.000,0.000,0.000
1640060720499846912,"2021-12-21,04:25:20",10.1.1.2,324,-0.100,-0.100,-0.100,0.000,0.000,0.000
1640060720529664000,"2021-12-21,04:25:20",10.1.1.2,0.35495996475219727,-0.100,-0.100,-0.100,0.000,0.000,0.000
1640060720858956032,"2021-12-21,04:25:20",10.1.1.2,326,-0.090,-0.090,-0.090,0.000,0.000,0.000
1640060720937274880,"2021-12-21,04:25:20",10.1.1.2,0.40522289276123047,-0.090,-0.090,-0.090,0.000,0.000,0.000
1640060721249677056,"2021-12-21,04:25:21",10.1.1.2,309,-0.080,-0.080,-0.080,0.000,0.000,0.000
1640060721345523200,"2021-12-21,04:25:21",10.1.1.2,0.40574193000793457,-0.080,-0.080,-0.080,0.000,0.000,0.000
1640060721637818112,"2021-12-21,04:25:21",10.1.1.2,290,-0.070,-0.070,-0.070,0.000,0.000,0.000
1640060721671627008,"2021-12-21,04:25:21",10.1.1.2,0.3243119716644287,-0.070,-0.070,-0.070,0.000,0.000,0.000
1640060722007486208,"2021-12-21,04:25:22",10.1.1.2,332,-0.060,-0.060,-0.060,0.000,0.000,0.000
1640060722068859136,"2021-12-21,04:25:22",10.1.1.2,0.3941819667816162,-0.060,-0.060,-0.060,0.000,0.000,0.000
1640060722406680064,"2021-12-21,04:25:22",10.1.1.2,334,-0.050,-0.050,-0.050,0.000,0.000,0.000
1640060722474384128,"2021-12-21,04:25:22",10.1.1.2,0.4027249813079834,-0.050,-0.050,-0.050,0.000,0.000,0.000
1640060722776530944,"2021-12-21,04:25:22",10.1.1.2,299,-0.040,-0.040,-0.040,0.000,0.000,0.000
1640060722883399936,"2021-12-21,04:25:22",10.1.1.2,0.4069061279296875,-0.040,-0.040,-0.040,0.000,0.000,0.000
1640060723186564864,"2021-12-21,04:25:23",10.1.1.2,301,-0.030,-0.030,-0.030,0.000,0.000,0.000
1640060723202074112,"2021-12-21,04:25:23",10.1.1.2,0.31745481491088867,-0.030,-0.030,-0.030,0.000,0.000,0.000
1640060723508274944,"2021-12-21,04:25:23",10.1.1.2,304,-0.020,-0.020,-0.020,0.000,0.000,0.000
1640060723579795968,"2021-12-21,04:25:23",10.1.1.2,0.37603211402893066,-0.020,-0.020,-0.020,0.000,0.000,0.000
1640060723915546880,"2021-12-21,04:25:23",10.1.1.2,328,-0.010,-0.010,-0.010,0.000,0.000,0.000
1640060724000530944,"2021-12-21,04:25:24",10.1.1.2,0.41376614570617676,-0.010,-0.010,-0.010,0.000,0.000,0.000
1640060724326464000,"2021-12-21,04:25:24",10.1.1.2,324,0.000,0.000,0.000,0.000,0.000,0.000
1640060724344058112,"2021-12-21,04:25:24",10.1.1.2,0.3420259952545166,0.000,0.000,0.000,0.000,0.000,0.000
1640060724678039040,"2021-12-21,04:25:24",10.1.1.2,330,-0.010,-0.010,-0.010,0.000,0.000,0.000
1640060724739049984,"2021-12-21,04:25:24",10.1.1.2,0.39183807373046875,-0.010,-0.010,-0.010,0.000,0.000,0.000
1640060725066193152,"2021-12-21,04:25:25",10.1.1.2,324,-0.020,-0.020,-0.020,0.000,0.000,0.000
1640060725132742912,"2021-12-21,04:25:25",10.1.1.2,0.3917381763458252,-0.020,-0.020,-0.020,0.000,0.000,0.000
1640060725469424896,"2021-12-21,04:25:25",10.1.1.2,335,-0.030,-0.030,-0.030,0.000,0.000,0.000
1640060725474593024,"2021-12-21,04:25:25",10.1.1.2,0.34052491188049316,-0.030,-0.030,-0.030,0.000,0.000,0.000
1640060725812539136,"2021-12-21,04:25:25",10.1.1.2,335,-0.040,-0.040,-0.040,0.000,0.000,0.000
1640060725832050176,"2021-12-21,04:25:25",10.1.1.2,0.3555591106414795,-0.040,-0.040,-0.040,0.000,0.000,0.000
1640060726164896000,"2021-12-21,04:25:26",10.1.1.2,326,-0.050,-0.050,-0.050,0.000,0.000,0.000
1640060726216561920,"2021-12-21,04:25:26",10.1.1.2,0.37802720069885254,-0.050,-0.050,-0.050,0.000,0.000,0.000
1640060726511979008,"2021-12-21,04:25:26",10.1.1.2,292,-0.060,-0.060,-0.060,0.000,0.000,0.000
1640060726596382976,"2021-12-21,04:25:26",10.1.1.2,0.3774139881134033,-0.060,-0.060,-0.060,0.000,0.000,0.000
1640060726944897024,"2021-12-21,04:25:26",10.1.1.2,346,-0.070,-0.070,-0.070,0.000,0.000,0.000
1640060727021465088,"2021-12-21,04:25:27",10.1.1.2,0.4233851432800293,-0.070,-0.070,-0.070,0.000,0.000,0.000
1640060727336005888,"2021-12-21,04:25:27",10.1.1.2,307,-0.080,-0.080,-0.080,0.000,0.000,0.000
1640060727382844928,"2021-12-21,04:25:27",10.1.1.2,0.3597989082336426,-0.080,-0.080,-0.080,0.000,0.000,0.000
1640060727699228928,"2021-12-21,04:25:27",10.1.1.2,307,-0.090,-0.090,-0.090,0.000,0.000,0.000
1640060727785497856,"2021-12-21,04:25:27",10.1.1.2,0.39679503440856934,-0.090,-0.090,-0.090,0.000,0.000,0.000
1640060728079761920,"2021-12-21,04:25:28",10.1.1.2,292,-0.100,-0.100,-0.100,0.000,0.000,0.000
1640060728117511936,"2021-12-21,04:25:28",10.1.1.2,0.3307209014892578,-0.100,-0.100,-0.100,0.000,0.000,0.000
1640060728458110976,"2021-12-21,04:25:28",10.1.1.2,334,-0.110,-0.110,-0.110,0.000,0.000,0.000
1640060728528630016,"2021-12-21,04:25:28",10.1.1.2,0.4056708812713623,-0.110,-0.110,-0.110,0.000,0.000,0.000
1640060728827837952,"2021-12-21,04:25:28",10.1.1.2,296,-0.120,-0.120,-0.120,0.000,0.000,0.000
1640060728910275072,"2021-12-21,04:25:28",10.1.1.2,0.37951111793518066,-0.120,-0.120,-0.120,0.000,0.000,0.000
1640060729207567104,"2021-12-21,04:25:29",10.1.1.2,295,-0.130,-0.130,-0.130,0.000,0.000,0.000
1640060729260824832,"2021-12-21,04:25:29",10.1.1.2,0.34880805015563965,-0.130,-0.130,-0.130,0.000,0.000,0.000
1640060729586227968,"2021-12-21,04:25:29",10.1.1.2,319,-0.140,-0.140,-0.140,0.000,0.000,0.000
1640060729653944064,"2021-12-21,04:25:29",10.1.1.2,0.386976957321167,-0.140,-0.140,-0.140,0.000,0.000,0.000
1640060729985917952,"2021-12-21,04:25:29",10.1.1.2,330,-0.150,-0.150,-0.150,0.000,0.000,0.000
1640060730035876864,"2021-12-21,04:25:30",10.1.1.2,0.3805510997772217,-0.150,-0.150,-0.150,0.000,0.000,0.000
1640060730358036992,"2021-12-21,04:25:30",10.1.1.2,319,-0.160,-0.160,-0.160,0.000,0.000,0.000
1640060730432579072,"2021-12-21,04:25:30",10.1.1.2,0.39461278915405273,-0.160,-0.160,-0.160,0.000,0.000,0.000
1640060730725220864,"2021-12-21,04:25:30",10.1.1.2,290,-0.170,-0.170,-0.170,0.000,0.000,0.000
1640060730794700032,"2021-12-21,04:25:30",10.1.1.2,0.36057400703430176,-0.170,-0.170,-0.170,0.000,0.000,0.000
1640060731117379072,"2021-12-21,04:25:31",10.1.1.2,320,-0.180,-0.180,-0.180,0.000,0.000,0.000
1640060731197395968,"2021-12-21,04:25:31",10.1.1.2,0.4011070728302002,-0.180,-0.180,-0.180,0.000,0.000,0.000
1640060731495740928,"2021-12-21,04:25:31",10.1.1.2,296,-0.190,-0.190,-0.190,0.000,0.000,0.000
1640060731536217856,"2021-12-21,04:25:31",10.1.1.2,0.3373749256134033,-0.190,-0.190,-0.190,0.000,0.000,0.000
1640060731908754176,"2021-12-21,04:25:31",10.1.1.2,340,-0.200,-0.200,-0.200,0.000,0.000,0.000
1640060731934407936,"2021-12-21,04:25:31",10.1.1.2,0.3940398693084717,-0.200,-0.200,-0.200,0.000,0.000,0.000
1640060732231170816,"2021-12-21,04:25:32",10.1.1.2,294,-0.210,-0.210,-0.210,0.000,0.000,0.000
1640060732266285824,"2021-12-21,04:25:32",10.1.1.2,0.3295149803161621,-0.210,-0.210,-0.210,0.000,0.000,0.000
1640060732591675904,"2021-12-21,04:25:32",10.1.1.2,316,-0.220,-0.220,-0.220,0.000,0.000,0.000
1640060732647334144,"2021-12-21,04:25:32",10.1.1.2,0.3719289302825928,-0.220,-0.220,-0.220,0.000,0.000,0.000
1640060732962397184,"2021-12-21,04:25:32",10.1.1.2,312,-0.230,-0.230,-0.230,0.000,0.000,0.000
1640060733031128832,"2021-12-21,04:25:33",10.1.1.2,0.3819270133972168,-0.230,-0.230,-0.230,0.000,0.000,0.000
1640060733393027072,"2021-12-21,04:25:33",10.1.1.2,0.3598599433898926,-0.240,-0.240,-0.240,0.000,0.000,0.000
1640060733686830080,"2021-12-21,04:25:33",10.1.1.2,290,-0.250,-0.250,-0.250,0.000,0.000,0.000
1640060733728740096,"2021-12-21,04:25:33",10.1.1.2,0.3339722156524658,-0.250,-0.250,-0.250,0.000,0.000,0.000
1640060734090440960,"2021-12-21,04:25:34",10.1.1.2,359,-0.260,-0.260,-0.260,0.000,0.000,0.000
1640060734140083968,"2021-12-21,04:25:34",10.1.1.2,0.4092278480529785,-0.260,-0.260,-0.260,0.000,0.000,0.000
1640060734448293888,"2021-12-21,04:25:34",10.1.1.2,306,-0.270,-0.270,-0.270,0.000,0.000,0.000
1640060734521675008,"2021-12-21,04:25:34",10.1.1.2,0.3799140453338623,-0.270,-0.270,-0.270,0.000,0.000,0.000
1640060734880649984,"2021-12-21,04:25:34",10.1.1.2,356,-0.280,-0.280,-0.280,0.000,0.000,0.000
1640060734956564992,"2021-12-21,04:25:34",10.1.1.2,0.4323599338531494,-0.280,-0.280,-0.280,0.000,0.000,0.000
1640060735274552064,"2021-12-21,04:25:35",10.1.1.2,0.31650209426879883,-0.290,-0.290,-0.290,0.000,0.000,0.000
1640060735274950912,"2021-12-21,04:25:35",10.1.1.2,316,-0.290,-0.290,-0.290,0.000,0.000,0.000
1640060735625134080,"2021-12-21,04:25:35",10.1.1.2,347,-0.300,-0.300,-0.300,0.000,0.000,0.000
1640060735666231040,"2021-12-21,04:25:35",10.1.1.2,0.383652925491333,-0.300,-0.300,-0.300,0.000,0.000,0.000
1640060736005351936,"2021-12-21,04:25:36",10.1.1.2,333,-0.310,-0.310,-0.310,0.000,0.000,0.000
1640060736042614016,"2021-12-21,04:25:36",10.1.1.2,0.37103891372680664,-0.310,-0.310,-0.310,0.000,0.000,0.000
1640060736366381056,"2021-12-21,04:25:36",10.1.1.2,320,-0.320,-0.320,-0.320,0.000,0.000,0.000
1640060736464782848,"2021-12-21,04:25:36",10.1.1.2,0.41873812675476074,-0.320,-0.320,-0.320,0.000,0.000,0.000
1640060736767454976,"2021-12-21,04:25:36",10.1.1.2,301,-0.330,-0.330,-0.330,0.000,0.000,0.000
1640060736801361920,"2021-12-21,04:25:36",10.1.1.2,0.33518314361572266,-0.330,-0.330,-0.330,0.000,0.000,0.000
1640060737126800128,"2021-12-21,04:25:37",10.1.1.2,323,-0.340,-0.340,-0.340,0.000,0.000,0.000
1640060737205355776,"2021-12-21,04:25:37",10.1.1.2,0.4025850296020508,-0.340,-0.340,-0.340,0.000,0.000,0.000
1640060737492281856,"2021-12-21,04:25:37",10.1.1.2,285,-0.350,-0.350,-0.350,0.000,0.000,0.000
1640060737559518208,"2021-12-21,04:25:37",10.1.1.2,0.3527989387512207,-0.350,-0.350,-0.350,0.000,0.000,0.000
1640060737872556800,"2021-12-21,04:25:37",10.1.1.2,311,-0.360,-0.360,-0.360,0.000,0.000,0.000
1640060737932801024,"2021-12-21,04:25:37",10.1.1.2,0.37157702445983887,-0.360,-0.360,-0.360,0.000,0.000,0.000
1640060738230617088,"2021-12-21,04:25:38",10.1.1.2,296,-0.370,-0.370,-0.370,0.000,0.000,0.000
1640060738301134080,"2021-12-21,04:25:38",10.1.1.2,0.36702394485473633,-0.370,-0.370,-0.370,0.000,0.000,0.000
1640060738599923968,"2021-12-21,04:25:38",10.1.1.2,297,-0.380,-0.380,-0.380,0.000,0.000,0.000
1640060738685147904,"2021-12-21,04:25:38",10.1.1.2,0.382584810256958,-0.380,-0.380,-0.380,0.000,0.000,0.000
1640060738988267776,"2021-12-21,04:25:38",10.1.1.2,301,-0.390,-0.390,-0.390,0.000,0.000,0.000
1640060739040167168,"2021-12-21,04:25:39",10.1.1.2,0.3529629707336426,-0.390,-0.390,-0.390,0.000,0.000,0.000
1640060739348089088,"2021-12-21,04:25:39",10.1.1.2,305,-0.400,-0.400,-0.400,0.000,0.000,0.000
1640060739403582208,"2021-12-21,04:25:39",10.1.1.2,0.36141395568847656,-0.400,-0.400,-0.400,0.000,0.000,0.000
1640060739743073024,"2021-12-21,04:25:39",10.1.1.2,335,-0.410,-0.410,-0.410,0.000,0.000,0.000
1640060739803953920,"2021-12-21,04:25:39",10.1.1.2,0.3962538242340088,-0.410,-0.410,-0.410,0.000,0.000,0.000
1640060740113420032,"2021-12-21,04:25:40",10.1.1.2,304,-0.420,-0.420,-0.420,0.000,0.000,0.000
1640060740151644928,"2021-12-21,04:25:40",10.1.1.2,0.34277796745300293,-0.420,-0.420,-0.420,0.000,0.000,0.000
1640060740455988992,"2021-12-21,04:25:40",10.1.1.2,302,-0.430,-0.430,-0.430,0.000,0.000,0.000
1640060740569042944,"2021-12-21,04:25:40",10.1.1.2,0.41548895835876465,-0.430,-0.430,-0.430,0.000,0.000,0.000
1640060740853564928,"2021-12-21,04:25:40",10.1.1.2,283,-0.440,-0.440,-0.440,0.000,0.000,0.000
1640060740886157056,"2021-12-21,04:25:40",10.1.1.2,0.3157329559326172,-0.440,-0.440,-0.440,0.000,0.000,0.000
1640060741237118976,"2021-12-21,04:25:41",10.1.1.2,341,-0.450,-0.450,-0.450,0.000,0.000,0.000
1640060741319164928,"2021-12-21,04:25:41",10.1.1.2,0.423673152923584,-0.450,-0.450,-0.450,0.000,0.000,0.000
1640060741644427008,"2021-12-21,04:25:41",10.1.1.2,323,-0.460,-0.460,-0.460,0.000,0.000,0.000
1640060741687831040,"2021-12-21,04:25:41",10.1.1.2,0.3674747943878174,-0.460,-0.460,-0.460,0.000,0.000,0.000
1640060742035623168,"2021-12-21,04:25:42",10.1.1.2,344,-0.470,-0.470,-0.470,0.000,0.000,0.000
1640060742074021120,"2021-12-21,04:25:42",10.1.1.2,0.3828408718109131,-0.470,-0.470,-0.470,0.000,0.000,0.000
1640060742365236992,"2021-12-21,04:25:42",10.1.1.2,289,-0.480,-0.480,-0.480,0.000,0.000,0.000
1640060742424218880,"2021-12-21,04:25:42",10.1.1.2,0.34896397590637207,-0.480,-0.480,-0.480,0.000,0.000,0.000
1640060742784236032,"2021-12-21,04:25:42",10.1.1.2,358,-0.490,-0.490,-0.490,0.000,0.000,0.000
1640060742844046080,"2021-12-21,04:25:42",10.1.1.2,0.4180300235748291,-0.490,-0.490,-0.490,0.000,0.000,0.000
1640060743146482944,"2021-12-21,04:25:43",10.1.1.2,300,-0.480,-0.480,-0.480,0.000,0.000,0.000
1640060743204476160,"2021-12-21,04:25:43",10.1.1.2,0.35892295837402344,-0.480,-0.480,-0.480,0.000,0.000,0.000
1640060743497165056,"2021-12-21,04:25:43",10.1.1.2,291,-0.470,-0.470,-0.470,0.000,0.000,0.000
1640060743560777984,"2021-12-21,04:25:43",10.1.1.2,0.35486292839050293,-0.470,-0.470,-0.470,0.000,0.000,0.000
1640060743894649088,"2021-12-21,04:25:43",10.1.1.2,331,-0.460,-0.460,-0.460,0.000,0.000,0.000
1640060743931584000,"2021-12-21,04:25:43",10.1.1.2,0.36890697479248047,-0.460,-0.460,-0.460,0.000,0.000,0.000
1640060744256988928,"2021-12-21,04:25:44",10.1.1.2,322,-0.450,-0.450,-0.450,0.000,0.000,0.000
1640060744269841920,"2021-12-21,04:25:44",10.1.1.2,0.335827112197876,-0.450,-0.450,-0.450,0.000,0.000,0.000
1640060744594639104,"2021-12-21,04:25:44",10.1.1.2,322,-0.440,-0.440,-0.440,0.000,0.000,0.000
1640060744642398976,"2021-12-21,04:25:44",10.1.1.2,0.370434045791626,-0.440,-0.440,-0.440,0.000,0.000,0.000
1640060744943892992,"2021-12-21,04:25:44",10.1.1.2,300,-0.430,-0.430,-0.430,0.000,0.000,0.000
1640060744968960000,"2021-12-21,04:25:44",10.1.1.2,0.32535886764526367,-0.430,-0.430,-0.430,0.000,0.000,0.000
1640060745274113792,"2021-12-21,04:25:45",10.1.1.2,303,-0.420,-0.420,-0.420,0.000,0.000,0.000
1640060745310273792,"2021-12-21,04:25:45",10.1.1.2,0.33960604667663574,-0.420,-0.420,-0.420,0.000,0.000,0.000
1640060745653510144,"2021-12-21,04:25:45",10.1.1.2,341,-0.410,-0.410,-0.410,0.000,0.000,0.000
1640060745682061056,"2021-12-21,04:25:45",10.1.1.2,0.3700988292694092,-0.410,-0.410,-0.410,0.000,0.000,0.000
1640060745994120960,"2021-12-21,04:25:45",10.1.1.2,310,-0.400,-0.400,-0.400,0.000,0.000,0.000
1640060746006447104,"2021-12-21,04:25:46",10.1.1.2,0.3226652145385742,-0.400,-0.400,-0.400,0.000,0.000,0.000
1640060746323465216,"2021-12-21,04:25:46",10.1.1.2,315,-0.390,-0.390,-0.390,0.000,0.000,0.000
1640060746355117056,"2021-12-21,04:25:46",10.1.1.2,0.34737086296081543,-0.390,-0.390,-0.390,0.000,0.000,0.000
1640060746673489152,"2021-12-21,04:25:46",10.1.1.2,317,-0.380,-0.380,-0.380,0.000,0.000,0.000
1640060746708365056,"2021-12-21,04:25:46",10.1.1.2,0.35205984115600586,-0.380,-0.380,-0.380,0.000,0.000,0.000
1640060747014054144,"2021-12-21,04:25:47",10.1.1.2,303,-0.370,-0.370,-0.370,0.000,0.000,0.000
1640060747067363072,"2021-12-21,04:25:47",10.1.1.2,0.3567988872528076,-0.370,-0.370,-0.370,0.000,0.000,0.000
1640060747397682944,"2021-12-21,04:25:47",10.1.1.2,328,-0.360,-0.360,-0.360,0.000,0.000,0.000
1640060747446369024,"2021-12-21,04:25:47",10.1.1.2,0.37766098976135254,-0.360,-0.360,-0.360,0.000,0.000,0.000
1640060747743719168,"2021-12-21,04:25:47",10.1.1.2,295,-0.350,-0.350,-0.350,0.000,0.000,0.000
1640060747781789952,"2021-12-21,04:25:47",10.1.1.2,0.33417391777038574,-0.350,-0.350,-0.350,0.000,0.000,0.000
1640060748103931904,"2021-12-21,04:25:48",10.1.1.2,320,-0.340,-0.340,-0.340,0.000,0.000,0.000
1640060748120812800,"2021-12-21,04:25:48",10.1.1.2,0.33753108978271484,-0.340,-0.340,-0.340,0.000,0.000,0.000
1640060748443424000,"2021-12-21,04:25:48",10.1.1.2,319,-0.330,-0.330,-0.330,0.000,0.000,0.000
1640060748498460928,"2021-12-21,04:25:48",10.1.1.2,0.37477803230285645,-0.330,-0.330,-0.330,0.000,0.000,0.000
1640060748813043200,"2021-12-21,04:25:48",10.1.1.2,311,-0.320,-0.320,-0.320,0.000,0.000,0.000
1640060748863414016,"2021-12-21,04:25:48",10.1.1.2,0.36191415786743164,-0.320,-0.320,-0.320,0.000,0.000,0.000
1640060749172475136,"2021-12-21,04:25:49",10.1.1.2,305,-0.310,-0.310,-0.310,0.000,0.000,0.000
1640060749259257088,"2021-12-21,04:25:49",10.1.1.2,0.3928349018096924,-0.310,-0.310,-0.310,0.000,0.000,0.000
1640060749583725824,"2021-12-21,04:25:49",10.1.1.2,322,-0.300,-0.300,-0.300,0.000,0.000,0.000
1640060749647778048,"2021-12-21,04:25:49",10.1.1.2,0.3866298198699951,-0.300,-0.300,-0.300,0.000,0.000,0.000
1640060749955054080,"2021-12-21,04:25:49",10.1.1.2,303,-0.290,-0.290,-0.290,0.000,0.000,0.000
1640060750015938048,"2021-12-21,04:25:50",10.1.1.2,0.36495304107666016,-0.290,-0.290,-0.290,0.000,0.000,0.000
1640060750343110144,"2021-12-21,04:25:50",10.1.1.2,325,-0.280,-0.280,-0.280,0.000,0.000,0.000
1640060750429658880,"2021-12-21,04:25:50",10.1.1.2,0.41218090057373047,-0.280,-0.280,-0.280,0.000,0.000,0.000
1640060750746138112,"2021-12-21,04:25:50",10.1.1.2,314,-0.270,-0.270,-0.270,0.000,0.000,0.000
1640060750824512000,"2021-12-21,04:25:50",10.1.1.2,0.3927948474884033,-0.270,-0.270,-0.270,0.000,0.000,0.000
1640060751111727104,"2021-12-21,04:25:51",10.1.1.2,285,-0.260,-0.260,-0.260,0.000,0.000,0.000
1640060751139753984,"2021-12-21,04:25:51",10.1.1.2,0.3139820098876953,-0.260,-0.260,-0.260,0.000,0.000,0.000
1640060751429862144,"2021-12-21,04:25:51",10.1.1.2,288,-0.250,-0.250,-0.250,0.000,0.000,0.000
1640060751462189824,"2021-12-21,04:25:51",10.1.1.2,0.3209230899810791,-0.250,-0.250,-0.250,0.000,0.000,0.000
1640060751830178048,"2021-12-21,04:25:51",10.1.1.2,362,-0.240,-0.240,-0.240,0.000,0.000,0.000
1640060751895749120,"2021-12-21,04:25:51",10.1.1.2,0.4287838935852051,-0.240,-0.240,-0.240,0.000,0.000,0.000
1640060752226119936,"2021-12-21,04:25:52",10.1.1.2,328,-0.230,-0.230,-0.230,0.000,0.000,0.000
1640060752275968000,"2021-12-21,04:25:52",10.1.1.2,0.37826108932495117,-0.230,-0.230,-0.230,0.000,0.000,0.000
1640060752610193920,"2021-12-21,04:25:52",10.1.1.2,329,-0.220,-0.220,-0.220,0.000,0.000,0.000
1640060752672960000,"2021-12-21,04:25:52",10.1.1.2,0.3922109603881836,-0.220,-0.220,-0.220,0.000,0.000,0.000
1640060752968928000,"2021-12-21,04:25:52",10.1.1.2,293,-0.210,-0.210,-0.210,0.000,0.000,0.000
1640060753058000128,"2021-12-21,04:25:53",10.1.1.2,0.38315796852111816,-0.210,-0.210,-0.210,0.000,0.000,0.000
1640060753382631168,"2021-12-21,04:25:53",10.1.1.2,323,-0.200,-0.200,-0.200,0.000,0.000,0.000
1640060753398063872,"2021-12-21,04:25:53",10.1.1.2,0.33861708641052246,-0.200,-0.200,-0.200,0.000,0.000,0.000
1640060753689733120,"2021-12-21,04:25:53",10.1.1.2,285,-0.190,-0.190,-0.190,0.000,0.000,0.000
1640060753775747072,"2021-12-21,04:25:53",10.1.1.2,0.37334394454956055,-0.190,-0.190,-0.190,0.000,0.000,0.000
1640060754089859072,"2021-12-21,04:25:54",10.1.1.2,307,-0.180,-0.180,-0.180,0.000,0.000,0.000
1640060754177041152,"2021-12-21,04:25:54",10.1.1.2,0.3951301574707031,-0.180,-0.180,-0.180,0.000,0.000,0.000
1640060754486607104,"2021-12-21,04:25:54",10.1.1.2,308,-0.170,-0.170,-0.170,0.000,0.000,0.000
1640060754582940160,"2021-12-21,04:25:54",10.1.1.2,0.40451502799987793,-0.170,-0.170,-0.170,0.000,0.000,0.000
1640060754914640896,"2021-12-21,04:25:54",10.1.1.2,329,-0.160,-0.160,-0.160,0.000,0.000,0.000
1640060754950973952,"2021-12-21,04:25:54",10.1.1.2,0.36614990234375,-0.160,-0.160,-0.160,0.000,0.000,0.000
1640060755285511936,"2021-12-21,04:25:55",10.1.1.2,332,-0.150,-0.150,-0.150,0.000,0.000,0.000
1640060755310436864,"2021-12-21,04:25:55",10.1.1.2,0.35802412033081055,-0.150,-0.150,-0.150,0.000,0.000,0.000
1640060755636635136,"2021-12-21,04:25:55",10.1.1.2,321,-0.140,-0.140,-0.140,0.000,0.000,0.000
1640060755669678848,"2021-12-21,04:25:55",10.1.1.2,0.3543119430541992,-0.140,-0.140,-0.140,0.000,0.000,0.000
1640060755954228992,"2021-12-21,04:25:55",10.1.1.2,283,-0.130,-0.130,-0.130,0.000,0.000,0.000
1640060756008284160,"2021-12-21,04:25:56",10.1.1.2,0.33733296394348145,-0.130,-0.130,-0.130,0.000,0.000,0.000
1640060756366717952,"2021-12-21,04:25:56",10.1.1.2,339,-0.120,-0.120,-0.120,0.000,0.000,0.000
1640060756406843904,"2021-12-21,04:25:56",10.1.1.2,0.37982797622680664,-0.120,-0.120,-0.120,0.000,0.000,0.000
1640060756713481984,"2021-12-21,04:25:56",10.1.1.2,305,-0.110,-0.110,-0.110,0.000,0.000,0.000
1640060756800424192,"2021-12-21,04:25:56",10.1.1.2,0.39238905906677246,-0.110,-0.110,-0.110,0.000,0.000,0.000
1640060757093043200,"2021-12-21,04:25:57",10.1.1.2,291,-0.100,-0.100,-0.100,0.000,0.000,0.000
1640060757163905024,"2021-12-21,04:25:57",10.1.1.2,0.36214399337768555,-0.100,-0.100,-0.100,0.000,0.000,0.000
1640060757496492032,"2021-12-21,04:25:57",10.1.1.2,330,-0.090,-0.090,-0.090,0.000,0.000,0.000
1640060757533276160,"2021-12-21,04:25:57",10.1.1.2,0.3677489757537842,-0.090,-0.090,-0.090,0.000,0.000,0.000
1640060757842667008,"2021-12-21,04:25:57",10.1.1.2,307,-0.080,-0.080,-0.080,0.000,0.000,0.000
1640060757932029952,"2021-12-21,04:25:57",10.1.1.2,0.3974928855895996,-0.080,-0.080,-0.080,0.000,0.000,0.000
1640060758247824896,"2021-12-21,04:25:58",10.1.1.2,314,-0.070,-0.070,-0.070,0.000,0.000,0.000
1640060758285212160,"2021-12-21,04:25:58",10.1.1.2,0.351794958114624,-0.070,-0.070,-0.070,0.000,0.000,0.000
1640060758599953920,"2021-12-21,04:25:58",10.1.1.2,312,-0.060,-0.060,-0.060,0.000,0.000,0.000
1640060758688246016,"2021-12-21,04:25:58",10.1.1.2,0.4011077880859375,-0.060,-0.060,-0.060,0.000,0.000,0.000
1640060758991962880,"2021-12-21,04:25:58",10.1.1.2,301,-0.050,-0.050,-0.050,0.000,0.000,0.000
1640060759093029120,"2021-12-21,04:25:59",10.1.1.2,0.4031660556793213,-0.050,-0.050,-0.050,0.000,0.000,0.000
1640060759379590912,"2021-12-21,04:25:59",10.1.1.2,284,-0.040,-0.040,-0.040,0.000,0.000,0.000
1640060759429721088,"2021-12-21,04:25:59",10.1.1.2,0.3346250057220459,-0.040,-0.040,-0.040,0.000,0.000,0.000
1640060759770041088,"2021-12-21,04:25:59",10.1.1.2,338,-0.030,-0.030,-0.030,0.000,0.000,0.000
1640060759851724032,"2021-12-21,04:25:59",10.1.1.2,0.42069411277770996,-0.030,-0.030,-0.030,0.000,0.000,0.000
1640060760171314944,"2021-12-21,04:26:00",10.1.1.2,316,-0.020,-0.020,-0.020,0.000,0.000,0.000
1640060760239689216,"2021-12-21,04:26:00",10.1.1.2,0.38595104217529297,-0.020,-0.020,-0.020,0.000,0.000,0.000
1640060760568613888,"2021-12-21,04:26:00",10.1.1.2,325,-0.010,-0.010,-0.010,0.000,0.000,0.000
1640060760609207040,"2021-12-21,04:26:00",10.1.1.2,0.3637990951538086,-0.010,-0.010,-0.010,0.000,0.000,0.000
1640060760926800128,"2021-12-21,04:26:00",10.1.1.2,315,0.000,0.000,0.000,0.000,0.000,0.000
1640060760995072000,"2021-12-21,04:26:00",10.1.1.2,0.3836650848388672,0.000,0.000,0.000,0.000,0.000,0.000
1640060761306575104,"2021-12-21,04:26:01",10.1.1.2,309,-0.010,-0.010,-0.010,0.000,0.000,0.000
1640060761398152960,"2021-12-21,04:26:01",10.1.1.2,0.4017448425292969,-0.010,-0.010,-0.010,0.000,0.000,0.000
1640060761686757120,"2021-12-21,04:26:01",10.1.1.2,286,-0.020,-0.020,-0.020,0.000,0.000,0.000
1640060761723128064,"2021-12-21,04:26:01",10.1.1.2,0.3234860897064209,-0.020,-0.020,-0.020,0.000,0.000,0.000
1640060762035116032,"2021-12-21,04:26:02",10.1.1.2,306,-0.030,-0.030,-0.030,0.000,0.000,0.000
1640060762079291136,"2021-12-21,04:26:02",10.1.1.2,0.3499140739440918,-0.030,-0.030,-0.030,0.000,0.000,0.000
1640060762405735936,"2021-12-21,04:26:02",10.1.1.2,323,-0.040,-0.040,-0.040,0.000,0.000,0.000
1640060762439092992,"2021-12-21,04:26:02",10.1.1.2,0.35708117485046387,-0.040,-0.040,-0.040,0.000,0.000,0.000
1640060762764734976,"2021-12-21,04:26:02",10.1.1.2,323,-0.050,-0.050,-0.050,0.000,0.000,0.000
1640060762807343872,"2021-12-21,04:26:02",10.1.1.2,0.36571788787841797,-0.050,-0.050,-0.050,0.000,0.000,0.000
1640060763124535040,"2021-12-21,04:26:03",10.1.1.2,313,-0.060,-0.060,-0.060,0.000,0.000,0.000
1640060763192483072,"2021-12-21,04:26:03",10.1.1.2,0.38176703453063965,-0.060,-0.060,-0.060,0.000,0.000,0.000
1640060763524577024,"2021-12-21,04:26:03",10.1.1.2,327,-0.070,-0.070,-0.070,0.000,0.000,0.000
1640060763568252160,"2021-12-21,04:26:03",10.1.1.2,0.3711729049682617,-0.070,-0.070,-0.070,0.000,0.000,0.000
1640060763871911936,"2021-12-21,04:26:03",10.1.1.2,298,-0.080,-0.080,-0.080,0.000,0.000,0.000
1640060763999728896,"2021-12-21,04:26:03",10.1.1.2,0.4261200428009033,-0.080,-0.080,-0.080,0.000,0.000,0.000
1640060764282280960,"2021-12-21,04:26:04",10.1.1.2,280,-0.090,-0.090,-0.090,0.000,0.000,0.000
1640060764368057088,"2021-12-21,04:26:04",10.1.1.2,0.3664069175720215,-0.090,-0.090,-0.090,0.000,0.000,0.000
1640060764674331904,"2021-12-21,04:26:04",10.1.1.2,303,-0.100,-0.100,-0.100,0.000,0.000,0.000
1640060764756721920,"2021-12-21,04:26:04",10.1.1.2,0.386199951171875,-0.100,-0.100,-0.100,0.000,0.000,0.000
1640060765061455104,"2021-12-21,04:26:05",10.1.1.2,303,-0.110,-0.110,-0.110,0.000,0.000,0.000
1640060765108082176,"2021-12-21,04:26:05",10.1.1.2,0.349668025970459,-0.110,-0.110,-0.110,0.000,0.000,0.000
1640060765412673024,"2021-12-21,04:26:05",10.1.1.2,302,-0.120,-0.120,-0.120,0.000,0.000,0.000
1640060765428601088,"2021-12-21,04:26:05",10.1.1.2,0.3183739185333252,-0.120,-0.120,-0.120,0.000,0.000,0.000
1640060765796236032,"2021-12-21,04:26:05",10.1.1.2,361,-0.130,-0.130,-0.130,0.000,0.000,0.000
1640060765875366912,"2021-12-21,04:26:05",10.1.1.2,0.44035887718200684,-0.130,-0.130,-0.130,0.000,0.000,0.000
1640060766187386880,"2021-12-21,04:26:06",10.1.1.2,310,-0.140,-0.140,-0.140,0.000,0.000,0.000
1640060766284581888,"2021-12-21,04:26:06",10.1.1.2,0.40787601470947266,-0.140,-0.140,-0.140,0.000,0.000,0.000
1640060766578462976,"2021-12-21,04:26:06",10.1.1.2,292,-0.150,-0.150,-0.150,0.000,0.000,0.000
1640060766615323904,"2021-12-21,04:26:06",10.1.1.2,0.3294870853424072,-0.150,-0.150,-0.150,0.000,0.000,0.000
1640060766922030080,"2021-12-21,04:26:06",10.1.1.2,303,-0.160,-0.160,-0.160,0.000,0.000,0.000
1640060767003331072,"2021-12-21,04:26:07",10.1.1.2,0.385181188583374,-0.160,-0.160,-0.160,0.000,0.000,0.000
1640060767329760000,"2021-12-21,04:26:07",10.1.1.2,324,-0.170,-0.170,-0.170,0.000,0.000,0.000
1640060767350675200,"2021-12-21,04:26:07",10.1.1.2,0.34552597999572754,-0.170,-0.170,-0.170,0.000,0.000,0.000
1640060767654408960,"2021-12-21,04:26:07",10.1.1.2,302,-0.180,-0.180,-0.180,0.000,0.000,0.000
1640060767757592832,"2021-12-21,04:26:07",10.1.1.2,0.4056379795074463,-0.180,-0.180,-0.180,0.000,0.000,0.000
1640060768064357888,"2021-12-21,04:26:08",10.1.1.2,305,-0.190,-0.190,-0.190,0.000,0.000,0.000
1640060768089755904,"2021-12-21,04:26:08",10.1.1.2,0.33066606521606445,-0.190,-0.190,-0.190,0.000,0.000,0.000
1640060768408410112,"2021-12-21,04:26:08",10.1.1.2,316,-0.200,-0.200,-0.200,0.000,0.000,0.000
1640060768465044992,"2021-12-21,04:26:08",10.1.1.2,0.3736550807952881,-0.200,-0.200,-0.200,0.000,0.000,0.000
1640060768777081088,"2021-12-21,04:26:08",10.1.1.2,308,-0.210,-0.210,-0.210,0.000,0.000,0.000
1640060768882193920,"2021-12-21,04:26:08",10.1.1.2,0.4131920337677002,-0.210,-0.210,-0.210,0.000,0.000,0.000
1640060769179483904,"2021-12-21,04:26:09",10.1.1.2,292,-0.220,-0.220,-0.220,0.000,0.000,0.000
1640060769239736064,"2021-12-21,04:26:09",10.1.1.2,0.35332703590393066,-0.220,-0.220,-0.220,0.000,0.000,0.000
1640060769578669056,"2021-12-21,04:26:09",10.1.1.2,337,-0.230,-0.230,-0.230,0.000,0.000,0.000
1640060769653265920,"2021-12-21,04:26:09",10.1.1.2,0.41194987297058105,-0.230,-0.230,-0.230,0.000,0.000,0.000
1640060769971345920,"2021-12-21,04:26:09",10.1.1.2,314,-0.240,-0.240,-0.240,0.000,0.000,0.000
1640060770019515136,"2021-12-21,04:26:10",10.1.1.2,0.3646090030670166,-0.240,-0.240,-0.240,0.000,0.000,0.000
1640060770321267968,"2021-12-21,04:26:10",10.1.1.2,299,-0.250,-0.250,-0.250,0.000,0.000,0.000
1640060770412276992,"2021-12-21,04:26:10",10.1.1.2,0.391132116317749,-0.250,-0.250,-0.250,0.000,0.000,0.000
1640060770766110976,"2021-12-21,04:26:10",10.1.1.2,351,-0.260,-0.260,-0.260,0.000,0.000,0.000
1640060770826720000,"2021-12-21,04:26:10",10.1.1.2,0.4123959541320801,-0.260,-0.260,-0.260,0.000,0.000,0.000
1640060771132348160,"2021-12-21,04:26:11",10.1.1.2,304,-0.270,-0.270,-0.270,0.000,0.000,0.000
1640060771172035072,"2021-12-21,04:26:11",10.1.1.2,0.3440861701965332,-0.270,-0.270,-0.270,0.000,0.000,0.000
1640060771462003968,"2021-12-21,04:26:11",10.1.1.2,287,-0.280,-0.280,-0.280,0.000,0.000,0.000
1640060771516937984,"2021-12-21,04:26:11",10.1.1.2,0.34282612800598145,-0.280,-0.280,-0.280,0.000,0.000,0.000
1640060771878732800,"2021-12-21,04:26:11",10.1.1.2,360,-0.290,-0.290,-0.290,0.000,0.000,0.000
1640060771948736000,"2021-12-21,04:26:11",10.1.1.2,0.4302341938018799,-0.290,-0.290,-0.290,0.000,0.000,0.000
1640060772308888064,"2021-12-21,04:26:12",10.1.1.2,357,-0.300,-0.300,-0.300,0.000,0.000,0.000
1640060772385122048,"2021-12-21,04:26:12",10.1.1.2,0.43458080291748047,-0.300,-0.300,-0.300,0.000,0.000,0.000
1640060772737822976,"2021-12-21,04:26:12",10.1.1.2,351,-0.310,-0.310,-0.310,0.000,0.000,0.000
1640060772764148992,"2021-12-21,04:26:12",10.1.1.2,0.3776381015777588,-0.310,-0.310,-0.310,0.000,0.000,0.000
1640060773087474176,"2021-12-21,04:26:13",10.1.1.2,317,-0.320,-0.320,-0.320,0.000,0.000,0.000
1640060773113832960,"2021-12-21,04:26:13",10.1.1.2,0.3439769744873047,-0.320,-0.320,-0.320,0.000,0.000,0.000
1640060773465102080,"2021-12-21,04:26:13",10.1.1.2,348,-0.330,-0.330,-0.330,0.000,0.000,0.000
1640060773555556096,"2021-12-21,04:26:13",10.1.1.2,0.43895387649536133,-0.330,-0.330,-0.330,0.000,0.000,0.000
1640060773854174976,"2021-12-21,04:26:13",10.1.1.2,297,-0.340,-0.340,-0.340,0.000,0.000,0.000
1640060773898894080,"2021-12-21,04:26:13",10.1.1.2,0.34189391136169434,-0.340,-0.340,-0.340,0.000,0.000,0.000
1640060774224154112,"2021-12-21,04:26:14",10.1.1.2,323,-0.350,-0.350,-0.350,0.000,0.000,0.000
1640060774292527872,"2021-12-21,04:26:14",10.1.1.2,0.39220094680786133,-0.350,-0.350,-0.350,0.000,0.000,0.000
1640060774575164160,"2021-12-21,04:26:14",10.1.1.2,281,-0.360,-0.360,-0.360,0.000,0.000,0.000
1640060774614352896,"2021-12-21,04:26:14",10.1.1.2,0.32057785987854004,-0.360,-0.360,-0.360,0.000,0.000,0.000
1640060774905880064,"2021-12-21,04:26:14",10.1.1.2,288,-0.370,-0.370,-0.370,0.000,0.000,0.000
1640060774940766976,"2021-12-21,04:26:14",10.1.1.2,0.3233790397644043,-0.370,-0.370,-0.370,0.000,0.000,0.000
1640060775255693056,"2021-12-21,04:26:15",10.1.1.2,313,-0.380,-0.380,-0.380,0.000,0.000,0.000
1640060775274566912,"2021-12-21,04:26:15",10.1.1.2,0.3320901393890381,-0.380,-0.380,-0.380,0.000,0.000,0.000
1640060775575503104,"2021-12-21,04:26:15",10.1.1.2,298,-0.390,-0.390,-0.390,0.000,0.000,0.000
1640060775662586880,"2021-12-21,04:26:15",10.1.1.2,0.38603806495666504,-0.390,-0.390,-0.390,0.000,0.000,0.000
1640060775948438016,"2021-12-21,04:26:15",10.1.1.2,280,-0.400,-0.400,-0.400,0.000,0.000,0.000
1640060776021282048,"2021-12-21,04:26:16",10.1.1.2,0.35659098625183105,-0.400,-0.400,-0.400,0.000,0.000,0.000
1640060776316584192,"2021-12-21,04:26:16",10.1.1.2,293,-0.410,-0.410,-0.410,0.000,0.000,0.000
1640060776360385792,"2021-12-21,04:26:16",10.1.1.2,0.3375670909881592,-0.410,-0.410,-0.410,0.000,0.000,0.000
1640060776705032192,"2021-12-21,04:26:16",10.1.1.2,334,-0.420,-0.420,-0.420,0.000,0.000,0.000
1640060776732989184,"2021-12-21,04:26:16",10.1.1.2,0.36307406425476074,-0.420,-0.420,-0.420,0.000,0.000,0.000
1640060777035586048,"2021-12-21,04:26:17",10.1.1.2,300,-0.430,-0.430,-0.430,0.000,0.000,0.000
1640060777068877056,"2021-12-21,04:26:17",10.1.1.2,0.33411097526550293,-0.430,-0.430,-0.430,0.000,0.000,0.000
1640060777367539968,"2021-12-21,04:26:17",10.1.1.2,296,-0.440,-0.440,-0.440,0.000,0.000,0.000
1640060777396925952,"2021-12-21,04:26:17",10.1.1.2,0.3263518810272217,-0.440,-0.440,-0.440,0.000,0.000,0.000
1640060777716806912,"2021-12-21,04:26:17",10.1.1.2,317,-0.450,-0.450,-0.450,0.000,0.000,0.000
1640060777726573824,"2021-12-21,04:26:17",10.1.1.2,0.3277299404144287,-0.450,-0.450,-0.450,0.000,0.000,0.000
1640060778024535040,"2021-12-21,04:26:18",10.1.1.2,296,-0.460,-0.460,-0.460,0.000,0.000,0.000
1640060778051719936,"2021-12-21,04:26:18",10.1.1.2,0.32379889488220215,-0.460,-0.460,-0.460,0.000,0.000,0.000
1640060778368678144,"2021-12-21,04:26:18",10.1.1.2,315,-0.470,-0.470,-0.470,0.000,0.000,0.000
1640060778433816064,"2021-12-21,04:26:18",10.1.1.2,0.3799779415130615,-0.470,-0.470,-0.470,0.000,0.000,0.000
1640060778724875008,"2021-12-21,04:26:18",10.1.1.2,287,-0.480,-0.480,-0.480,0.000,0.000,0.000
1640060778813903104,"2021-12-21,04:26:18",10.1.1.2,0.37633395195007324,-0.480,-0.480,-0.480,0.000,0.000,0.000
1640060779129853952,"2021-12-21,04:26:19",10.1.1.2,312,-0.490,-0.490,-0.490,0.000,0.000,0.000
1640060779196994048,"2021-12-21,04:26:19",10.1.1.2,0.3816831111907959,-0.490,-0.490,-0.490,0.000,0.000,0.000
1640060779496141824,"2021-12-21,04:26:19",10.1.1.2,295,-0.480,-0.480,-0.480,0.000,0.000,0.000
1640060779593188096,"2021-12-21,04:26:19",10.1.1.2,0.3925778865814209,-0.480,-0.480,-0.480,0.000,0.000,0.000
1640060779924377856,"2021-12-21,04:26:19",10.1.1.2,327,-0.470,-0.470,-0.470,0.000,0.000,0.000
1640060779995171072,"2021-12-21,04:26:19",10.1.1.2,0.3986179828643799,-0.470,-0.470,-0.470,0.000,0.000,0.000
1640060780325669888,"2021-12-21,04:26:20",10.1.1.2,328,-0.460,-0.460,-0.460,0.000,0.000,0.000
1640060780368089088,"2021-12-21,04:26:20",10.1.1.2,0.3712129592895508,-0.460,-0.460,-0.460,0.000,0.000,0.000
1640060780673694976,"2021-12-21,04:26:20",10.1.1.2,304,-0.450,-0.450,-0.450,0.000,0.000,0.000
1640060780776407040,"2021-12-21,04:26:20",10.1.1.2,0.4069051742553711,-0.450,-0.450,-0.450,0.000,0.000,0.000
1640060781119507200,"2021-12-21,04:26:21",10.1.1.2,341,-0.440,-0.440,-0.440,0.000,0.000,0.000
1640060781176848896,"2021-12-21,04:26:21",10.1.1.2,0.3992018699645996,-0.440,-0.440,-0.440,0.000,0.000,0.000
1640060781473431040,"2021-12-21,04:26:21",10.1.1.2,294,-0.430,-0.430,-0.430,0.000,0.000,0.000
1640060781526202880,"2021-12-21,04:26:21",10.1.1.2,0.34778404235839844,-0.430,-0.430,-0.430,0.000,0.000,0.000
1640060781842861056,"2021-12-21,04:26:21",10.1.1.2,314,-0.420,-0.420,-0.420,0.000,0.000,0.000
1640060781926605056,"2021-12-21,04:26:21",10.1.1.2,0.39844202995300293,-0.420,-0.420,-0.420,0.000,0.000,0.000
1640060782273020928,"2021-12-21,04:26:22",10.1.1.2,344,-0.410,-0.410,-0.410,0.000,0.000,0.000
1640060782351515136,"2021-12-21,04:26:22",10.1.1.2,0.42340588569641113,-0.410,-0.410,-0.410,0.000,0.000,0.000
1640060782653153024,"2021-12-21,04:26:22",10.1.1.2,299,-0.400,-0.400,-0.400,0.000,0.000,0.000
1640060782735586048,"2021-12-21,04:26:22",10.1.1.2,0.38259005546569824,-0.400,-0.400,-0.400,0.000,0.000,0.000
1640060783095922944,"2021-12-21,04:26:23",10.1.1.2,358,-0.390,-0.390,-0.390,0.000,0.000,0.000
1640060783153431808,"2021-12-21,04:26:23",10.1.1.2,0.41623592376708984,-0.390,-0.390,-0.390,0.000,0.000,0.000
1640060783461001984,"2021-12-21,04:26:23",10.1.1.2,301,-0.380,-0.380,-0.380,0.000,0.000,0.000
1640060783509704192,"2021-12-21,04:26:23",10.1.1.2,0.3499021530151367,-0.380,-0.380,-0.380,0.000,0.000,0.000
1640060783840153088,"2021-12-21,04:26:23",10.1.1.2,328,-0.370,-0.370,-0.370,0.000,0.000,0.000
1640060783889208064,"2021-12-21,04:26:23",10.1.1.2,0.37792396545410156,-0.370,-0.370,-0.370,0.000,0.000,0.000
1640060784239886080,"2021-12-21,04:26:24",10.1.1.2,348,-0.360,-0.360,-0.360,0.000,0.000,0.000
1640060784266861056,"2021-12-21,04:26:24",10.1.1.2,0.37590694427490234,-0.360,-0.360,-0.360,0.000,0.000,0.000
1640060784559245056,"2021-12-21,04:26:24",10.1.1.2,291,-0.350,-0.350,-0.350,0.000,0.000,0.000
1640060784599986944,"2021-12-21,04:26:24",10.1.1.2,0.33193421363830566,-0.350,-0.350,-0.350,0.000,0.000,0.000
1640060784911856896,"2021-12-21,04:26:24",10.1.1.2,307,-0.340,-0.340,-0.340,0.000,0.000,0.000
1640060784961302016,"2021-12-21,04:26:24",10.1.1.2,0.3577589988708496,-0.340,-0.340,-0.340,0.000,0.000,0.000
1640060785260296192,"2021-12-21,04:26:25",10.1.1.2,292,-0.330,-0.330,-0.330,0.000,0.000,0.000
1640060785309339136,"2021-12-21,04:26:25",10.1.1.2,0.3417341709136963,-0.330,-0.330,-0.330,0.000,0.000,0.000
1640060785667737088,"2021-12-21,04:26:25",10.1.1.2,354,-0.320,-0.320,-0.320,0.000,0.000,0.000
1640060785685564928,"2021-12-21,04:26:25",10.1.1.2,0.37229013442993164,-0.320,-0.320,-0.320,0.000,0.000,0.000
1640060785988727040,"2021-12-21,04:26:25",10.1.1.2,300,-0.310,-0.310,-0.310,0.000,0.000,0.000
1640060786040211968,"2021-12-21,04:26:26",10.1.1.2,0.3528461456298828,-0.310,-0.310,-0.310,0.000,0.000,0.000
1640060786380404992,"2021-12-21,04:26:26",10.1.1.2,338,-0.300,-0.300,-0.300,0.000,0.000,0.000
1640060786481177088,"2021-12-21,04:26:26",10.1.1.2,0.439288854598999,-0.300,-0.300,-0.300,0.000,0.000,0.000
1640060786782075904,"2021-12-21,04:26:26",10.1.1.2,296,-0.290,-0.290,-0.290,0.000,0.000,0.000
1640060786844153856,"2021-12-21,04:26:26",10.1.1.2,0.3586239814758301,-0.290,-0.290,-0.290,0.000,0.000,0.000
1640060787150089984,"2021-12-21,04:26:27",10.1.1.2,302,-0.280,-0.280,-0.280,0.000,0.000,0.000
1640060787232494080,"2021-12-21,04:26:27",10.1.1.2,0.38500499725341797,-0.280,-0.280,-0.280,0.000,0.000,0.000
1640060787548244992,"2021-12-21,04:26:27",10.1.1.2,312,-0.270,-0.270,-0.270,0.000,0.000,0.000
1640060787596268032,"2021-12-21,04:26:27",10.1.1.2,0.3625600337982178,-0.270,-0.270,-0.270,0.000,0.000,0.000
1640060787905000960,"2021-12-21,04:26:27",10.1.1.2,307,-0.260,-0.260,-0.260,0.000,0.000,0.000
1640060787957829120,"2021-12-21,04:26:27",10.1.1.2,0.36033010482788086,-0.260,-0.260,-0.260,0.000,0.000,0.000
1640060788286676992,"2021-12-21,04:26:28",10.1.1.2,317,-0.250,-0.250,-0.250,0.000,0.000,0.000
1640060788387819008,"2021-12-21,04:26:28",10.1.1.2,0.41910696029663086,-0.250,-0.250,-0.250,0.000,0.000,0.000
1640060788684190976,"2021-12-21,04:26:28",10.1.1.2,294,-0.240,-0.240,-0.240,0.000,0.000,0.000
1640060788741673984,"2021-12-21,04:26:28",10.1.1.2,0.35202908515930176,-0.240,-0.240,-0.240,0.000,0.000,0.000
1640060789035109120,"2021-12-21,04:26:29",10.1.1.2,291,-0.230,-0.230,-0.230,0.000,0.000,0.000
1640060789143096064,"2021-12-21,04:26:29",10.1.1.2,0.3997979164123535,-0.230,-0.230,-0.230,0.000,0.000,0.000
1640060789462991872,"2021-12-21,04:26:29",10.1.1.2,313,-0.220,-0.220,-0.220,0.000,0.000,0.000
1640060789476228864,"2021-12-21,04:26:29",10.1.1.2,0.32662105560302734,-0.220,-0.220,-0.220,0.000,0.000,0.000
1640060789773577984,"2021-12-21,04:26:29",10.1.1.2,295,-0.210,-0.210,-0.210,0.000,0.000,0.000
1640060789884798976,"2021-12-21,04:26:29",10.1.1.2,0.4065868854522705,-0.210,-0.210,-0.210,0.000,0.000,0.000
1640060790193579008,"2021-12-21,04:26:30",10.1.1.2,306,-0.200,-0.200,-0.200,0.000,0.000,0.000
1640060790268677888,"2021-12-21,04:26:30",10.1.1.2,0.38144493103027344,-0.200,-0.200,-0.200,0.000,0.000,0.000
1640060790587773184,"2021-12-21,04:26:30",10.1.1.2,316,-0.190,-0.190,-0.190,0.000,0.000,0.000
1640060790656843008,"2021-12-21,04:26:30",10.1.1.2,0.38567686080932617,-0.190,-0.190,-0.190,0.000,0.000,0.000
1640060790983966976,"2021-12-21,04:26:30",10.1.1.2,325,-0.180,-0.180,-0.180,0.000,0.000,0.000
1640060791022455808,"2021-12-21,04:26:31",10.1.1.2,0.3639979362487793,-0.180,-0.180,-0.180,0.000,0.000,0.000
1640060791351564032,"2021-12-21,04:26:31",10.1.1.2,326,-0.170,-0.170,-0.170,0.000,0.000,0.000
1640060791379193088,"2021-12-21,04:26:31",10.1.1.2,0.3538649082183838,-0.170,-0.170,-0.170,0.000,0.000,0.000
1640060791729305856,"2021-12-21,04:26:31",10.1.1.2,348,-0.160,-0.160,-0.160,0.000,0.000,0.000
1640060791820396032,"2021-12-21,04:26:31",10.1.1.2,0.4398820400238037,-0.160,-0.160,-0.160,0.000,0.000,0.000
1640060792129547008,"2021-12-21,04:26:32",10.1.1.2,307,-0.150,-0.150,-0.150,0.000,0.000,0.000
1640060792183656960,"2021-12-21,04:26:32",10.1.1.2,0.36188602447509766,-0.150,-0.150,-0.150,0.000,0.000,0.000
1640060792478804224,"2021-12-21,04:26:32",10.1.1.2,292,-0.140,-0.140,-0.140,0.000,0.000,0.000
1640060792517011968,"2021-12-21,04:26:32",10.1.1.2,0.33119893074035645,-0.140,-0.140,-0.140,0.000,0.000,0.000
1640060792849868032,"2021-12-21,04:26:32",10.1.1.2,330,-0.130,-0.130,-0.130,0.000,0.000,0.000
1640060792958535936,"2021-12-21,04:26:32",10.1.1.2,0.4395279884338379,-0.130,-0.130,-0.130,0.000,0.000,0.000
1640060793258063104,"2021-12-21,04:26:33",10.1.1.2,297,-0.120,-0.120,-0.120,0.000,0.000,0.000
1640060793333564160,"2021-12-21,04:26:33",10.1.1.2,0.37358903884887695,-0.120,-0.120,-0.120,0.000,0.000,0.000
1640060793657146880,"2021-12-21,04:26:33",10.1.1.2,320,-0.110,-0.110,-0.110,0.000,0.000,0.000
1640060793691472896,"2021-12-21,04:26:33",10.1.1.2,0.3550560474395752,-0.110,-0.110,-0.110,0.000,0.000,0.000
1640060794045896960,"2021-12-21,04:26:34",10.1.1.2,352,-0.100,-0.100,-0.100,0.000,0.000,0.000
1640060794106447872,"2021-12-21,04:26:34",10.1.1.2,0.41307997703552246,-0.100,-0.100,-0.100,0.000,0.000,0.000
1640060794395840000,"2021-12-21,04:26:34",10.1.1.2,287,-0.090,-0.090,-0.090,0.000,0.000,0.000
1640060794445643776,"2021-12-21,04:26:34",10.1.1.2,0.3377859592437744,-0.090,-0.090,-0.090,0.000,0.000,0.000
1640060794755525120,"2021-12-21,04:26:34",10.1.1.2,308,-0.080,-0.080,-0.080,0.000,0.000,0.000
1640060794855266048,"2021-12-21,04:26:34",10.1.1.2,0.4081411361694336,-0.080,-0.080,-0.080,0.000,0.000,0.000
1640060795135169024,"2021-12-21,04:26:35",10.1.1.2,278,-0.070,-0.070,-0.070,0.000,0.000,0.000
1640060795233270016,"2021-12-21,04:26:35",10.1.1.2,0.376615047454834,-0.070,-0.070,-0.070,0.000,0.000,0.000
1640060795573946112,"2021-12-21,04:26:35",10.1.1.2,338,-0.060,-0.060,-0.060,0.000,0.000,0.000
1640060795592626176,"2021-12-21,04:26:35",10.1.1.2,0.35773396492004395,-0.060,-0.060,-0.060,0.000,0.000,0.000
1640060795883159040,"2021-12-21,04:26:35",10.1.1.2,288,-0.050,-0.050,-0.050,0.000,0.000,0.000
1640060795934838016,"2021-12-21,04:26:35",10.1.1.2,0.34036803245544434,-0.050,-0.050,-0.050,0.000,0.000,0.000
1640060796223439104,"2021-12-21,04:26:36",10.1.1.2,287,-0.040,-0.040,-0.040,0.000,0.000,0.000
1640060796263411968,"2021-12-21,04:26:36",10.1.1.2,0.3270270824432373,-0.040,-0.040,-0.040,0.000,0.000,0.000
1640060796542407936,"2021-12-21,04:26:36",10.1.1.2,276,-0.030,-0.030,-0.030,0.000,0.000,0.000
1640060796575664128,"2021-12-21,04:26:36",10.1.1.2,0.30936408042907715,-0.030,-0.030,-0.030,0.000,0.000,0.000
1640060796881477120,"2021-12-21,04:26:36",10.1.1.2,304,-0.020,-0.020,-0.020,0.000,0.000,0.000
1640060796949757952,"2021-12-21,04:26:36",10.1.1.2,0.3727738857269287,-0.020,-0.020,-0.020,0.000,0.000,0.000
1640060797243586048,"2021-12-21,04:26:37",10.1.1.2,292,-0.010,-0.010,-0.010,0.000,0.000,0.000
1640060797274610944,"2021-12-21,04:26:37",10.1.1.2,0.32341814041137695,-0.010,-0.010,-0.010,0.000,0.000,0.000
1640060797565093888,"2021-12-21,04:26:37",10.1.1.2,289,0.000,0.000,0.000,0.000,0.000,0.000
1640060797597188864,"2021-12-21,04:26:37",10.1.1.2,0.32115817070007324,0.000,0.000,0.000,0.000,0.000,0.000
1640060797891636992,"2021-12-21,04:26:37",10.1.1.2,291,-0.010,-0.010,-0.010,0.000,0.000,0.000
1640060797959984896,"2021-12-21,04:26:37",10.1.1.2,0.36139988899230957,-0.010,-0.010,-0.010,0.000,0.000,0.000
1640060798287333120,"2021-12-21,04:26:38",10.1.1.2,325,-0.020,-0.020,-0.020,0.000,0.000,0.000
1640060798303886848,"2021-12-21,04:26:38",10.1.1.2,0.342299222946167,-0.020,-0.020,-0.020,0.000,0.000,0.000
1640060798640480000,"2021-12-21,04:26:38",10.1.1.2,330,-0.030,-0.030,-0.030,0.000,0.000,0.000
1640060798659574016,"2021-12-21,04:26:38",10.1.1.2,0.34924912452697754,-0.030,-0.030,-0.030,0.000,0.000,0.000
1640060799002039040,"2021-12-21,04:26:39",10.1.1.2,340,-0.040,-0.040,-0.040,0.000,0.000,0.000
1640060799083117056,"2021-12-21,04:26:39",10.1.1.2,0.42212891578674316,-0.040,-0.040,-0.040,0.000,0.000,0.000
1640060799396101120,"2021-12-21,04:26:39",10.1.1.2,311,-0.050,-0.050,-0.050,0.000,0.000,0.000
1640060799501106944,"2021-12-21,04:26:39",10.1.1.2,0.4164848327636719,-0.050,-0.050,-0.050,0.000,0.000,0.000
1640060799804296960,"2021-12-21,04:26:39",10.1.1.2,301,-0.060,-0.060,-0.060,0.000,0.000,0.000
1640060799839890944,"2021-12-21,04:26:39",10.1.1.2,0.3375098705291748,-0.060,-0.060,-0.060,0.000,0.000,0.000
1640060800205452800,"2021-12-21,04:26:40",10.1.1.2,362,-0.070,-0.070,-0.070,0.000,0.000,0.000
1640060800242927104,"2021-12-21,04:26:40",10.1.1.2,0.40027689933776855,-0.070,-0.070,-0.070,0.000,0.000,0.000
1640060800548176896,"2021-12-21,04:26:40",10.1.1.2,303,-0.080,-0.080,-0.080,0.000,0.000,0.000
1640060800599337216,"2021-12-21,04:26:40",10.1.1.2,0.354539155960083,-0.080,-0.080,-0.080,0.000,0.000,0.000
1640060800912143104,"2021-12-21,04:26:40",10.1.1.2,311,-0.090,-0.090,-0.090,0.000,0.000,0.000
1640060801008539904,"2021-12-21,04:26:41",10.1.1.2,0.40795087814331055,-0.090,-0.090,-0.090,0.000,0.000,0.000
1640060801318711040,"2021-12-21,04:26:41",10.1.1.2,308,-0.100,-0.100,-0.100,0.000,0.000,0.000
1640060801394556160,"2021-12-21,04:26:41",10.1.1.2,0.38478994369506836,-0.100,-0.100,-0.100,0.000,0.000,0.000
1640060801679348992,"2021-12-21,04:26:41",10.1.1.2,282,-0.110,-0.110,-0.110,0.000,0.000,0.000
1640060801713222912,"2021-12-21,04:26:41",10.1.1.2,0.31658196449279785,-0.110,-0.110,-0.110,0.000,0.000,0.000
1640060802041299200,"2021-12-21,04:26:42",10.1.1.2,326,-0.120,-0.120,-0.120,0.000,0.000,0.000
1640060802088197120,"2021-12-21,04:26:42",10.1.1.2,0.37332892417907715,-0.120,-0.120,-0.120,0.000,0.000,0.000
1640060802413007104,"2021-12-21,04:26:42",10.1.1.2,316,-0.130,-0.130,-0.130,0.000,0.000,0.000
1640060802511710976,"2021-12-21,04:26:42",10.1.1.2,0.41548895835876465,-0.130,-0.130,-0.130,0.000,0.000,0.000
1640060802834029056,"2021-12-21,04:26:42",10.1.1.2,320,-0.140,-0.140,-0.140,0.000,0.000,0.000
1640060802880965888,"2021-12-21,04:26:42",10.1.1.2,0.36775994300842285,-0.140,-0.140,-0.140,0.000,0.000,0.000
1640060803223484160,"2021-12-21,04:26:43",10.1.1.2,335,-0.150,-0.150,-0.150,0.000,0.000,0.000
1640060803294060032,"2021-12-21,04:26:43",10.1.1.2,0.4058380126953125,-0.150,-0.150,-0.150,0.000,0.000,0.000
1640060803643252992,"2021-12-21,04:26:43",10.1.1.2,347,-0.160,-0.160,-0.160,0.000,0.000,0.000
1640060803695033088,"2021-12-21,04:26:43",10.1.1.2,0.39935302734375,-0.160,-0.160,-0.160,0.000,0.000,0.000
1640060804046459904,"2021-12-21,04:26:44",10.1.1.2,349,-0.170,-0.170,-0.170,0.000,0.000,0.000
1640060804089728000,"2021-12-21,04:26:44",10.1.1.2,0.3933260440826416,-0.170,-0.170,-0.170,0.000,0.000,0.000
1640060804403804928,"2021-12-21,04:26:44",10.1.1.2,312,-0.180,-0.180,-0.180,0.000,0.000,0.000
1640060804442979072,"2021-12-21,04:26:44",10.1.1.2,0.35143113136291504,-0.180,-0.180,-0.180,0.000,0.000,0.000
1640060804745242112,"2021-12-21,04:26:44",10.1.1.2,300,-0.190,-0.190,-0.190,0.000,0.000,0.000
1640060804778699008,"2021-12-21,04:26:44",10.1.1.2,0.3343238830566406,-0.190,-0.190,-0.190,0.000,0.000,0.000
1640060805074817792,"2021-12-21,04:26:45",10.1.1.2,292,-0.200,-0.200,-0.200,0.000,0.000,0.000
1640060805133229056,"2021-12-21,04:26:45",10.1.1.2,0.3512580394744873,-0.200,-0.200,-0.200,0.000,0.000,0.000
1640060805446234880,"2021-12-21,04:26:45",10.1.1.2,296,-0.210,-0.210,-0.210,0.000,0.000,0.000
1640060805494498048,"2021-12-21,04:26:45",10.1.1.2,0.34475207328796387,-0.210,-0.210,-0.210,0.000,0.000,0.000
1640060805857028864,"2021-12-21,04:26:45",10.1.1.2,360,-0.220,-0.220,-0.220,0.000,0.000,0.000
1640060805956773120,"2021-12-21,04:26:45",10.1.1.2,0.46062302589416504,-0.220,-0.220,-0.220,0.000,0.000,0.000
1640060806296644096,"2021-12-21,04:26:46",10.1.1.2,336,-0.230,-0.230,-0.230,0.000,0.000,0.000
1640060806333780992,"2021-12-21,04:26:46",10.1.1.2,0.3741161823272705,-0.230,-0.230,-0.230,0.000,0.000,0.000
1640060806635853056,"2021-12-21,04:26:46",10.1.1.2,300,-0.240,-0.240,-0.240,0.000,0.000,0.000
1640060806709693952,"2021-12-21,04:26:46",10.1.1.2,0.37445878982543945,-0.240,-0.240,-0.240,0.000,0.000,0.000
1640060807048751104,"2021-12-21,04:26:47",10.1.1.2,336,-0.250,-0.250,-0.250,0.000,0.000,0.000
1640060807125773056,"2021-12-21,04:26:47",10.1.1.2,0.4137709140777588,-0.250,-0.250,-0.250,0.000,0.000,0.000
1640060807426789120,"2021-12-21,04:26:47",10.1.1.2,299,-0.260,-0.260,-0.260,0.000,0.000,0.000
1640060807513200896,"2021-12-21,04:26:47",10.1.1.2,0.38613104820251465,-0.260,-0.260,-0.260,0.000,0.000,0.000
1640060807828012032,"2021-12-21,04:26:47",10.1.1.2,312,-0.270,-0.270,-0.270,0.000,0.000,0.000
1640060807873568000,"2021-12-21,04:26:47",10.1.1.2,0.3567390441894531,-0.270,-0.270,-0.270,0.000,0.000,0.000
1640060808226370048,"2021-12-21,04:26:48",10.1.1.2,349,-0.280,-0.280,-0.280,0.000,0.000,0.000
1640060808327408128,"2021-12-21,04:26:48",10.1.1.2,0.450300931930542,-0.280,-0.280,-0.280,0.000,0.000,0.000
1640060808668376832,"2021-12-21,04:26:48",10.1.1.2,339,-0.290,-0.290,-0.290,0.000,0.000,0.000
1640060808727535872,"2021-12-21,04:26:48",10.1.1.2,0.3986179828643799,-0.290,-0.290,-0.290,0.000,0.000,0.000
1640060809026227968,"2021-12-21,04:26:49",10.1.1.2,296,-0.300,-0.300,-0.300,0.000,0.000,0.000
1640060809116674048,"2021-12-21,04:26:49",10.1.1.2,0.3874399662017822,-0.300,-0.300,-0.300,0.000,0.000,0.000
1640060809426116864,"2021-12-21,04:26:49",10.1.1.2,308,-0.310,-0.310,-0.310,0.000,0.000,0.000
1640060809450057984,"2021-12-21,04:26:49",10.1.1.2,0.33205699920654297,-0.310,-0.310,-0.310,0.000,0.000,0.000
1640060809796132096,"2021-12-21,04:26:49",10.1.1.2,344,-0.320,-0.320,-0.320,0.000,0.000,0.000
1640060809838088960,"2021-12-21,04:26:49",10.1.1.2,0.3865630626678467,-0.320,-0.320,-0.320,0.000,0.000,0.000
1640060810209983232,"2021-12-21,04:26:50",10.1.1.2,369,-0.330,-0.330,-0.330,0.000,0.000,0.000
1640060810320422912,"2021-12-21,04:26:50",10.1.1.2,0.4804859161376953,-0.330,-0.330,-0.330,0.000,0.000,0.000
1640060810625673984,"2021-12-21,04:26:50",10.1.1.2,303,-0.340,-0.340,-0.340,0.000,0.000,0.000
1640060810725817088,"2021-12-21,04:26:50",10.1.1.2,0.40362000465393066,-0.340,-0.340,-0.340,0.000,0.000,0.000
1640060811025000960,"2021-12-21,04:26:51",10.1.1.2,293,-0.350,-0.350,-0.350,0.000,0.000,0.000
1640060811071085824,"2021-12-21,04:26:51",10.1.1.2,0.3398721218109131,-0.350,-0.350,-0.350,0.000,0.000,0.000
1640060811459464960,"2021-12-21,04:26:51",10.1.1.2,372,-0.360,-0.360,-0.360,0.000,0.000,0.000
1640060811543535104,"2021-12-21,04:26:51",10.1.1.2,0.45776796340942383,-0.360,-0.360,-0.360,0.000,0.000,0.000
1640060811847553024,"2021-12-21,04:26:51",10.1.1.2,301,-0.370,-0.370,-0.370,0.000,0.000,0.000
1640060811938061056,"2021-12-21,04:26:51",10.1.1.2,0.39290714263916016,-0.370,-0.370,-0.370,0.000,0.000,0.000
1640060812234107904,"2021-12-21,04:26:52",10.1.1.2,294,-0.380,-0.380,-0.380,0.000,0.000,0.000
1640060812286115840,"2021-12-21,04:26:52",10.1.1.2,0.3468639850616455,-0.380,-0.380,-0.380,0.000,0.000,0.000
1640060812594352896,"2021-12-21,04:26:52",10.1.1.2,305,-0.390,-0.390,-0.390,0.000,0.000,0.000
1640060812637664000,"2021-12-21,04:26:52",10.1.1.2,0.34925413131713867,-0.390,-0.390,-0.390,0.000,0.000,0.000
1640060812924340992,"2021-12-21,04:26:52",10.1.1.2,285,-0.400,-0.400,-0.400,0.000,0.000,0.000
1640060812984905984,"2021-12-21,04:26:52",10.1.1.2,0.3460099697113037,-0.400,-0.400,-0.400,0.000,0.000,0.000
1640060813264884992,"2021-12-21,04:26:53",10.1.1.2,278,-0.410,-0.410,-0.410,0.000,0.000,0.000
1640060813344532992,"2021-12-21,04:26:53",10.1.1.2,0.35814619064331055,-0.410,-0.410,-0.410,0.000,0.000,0.000
1640060813654691072,"2021-12-21,04:26:53",10.1.1.2,306,-0.420,-0.420,-0.420,0.000,0.000,0.000
1640060813763884032,"2021-12-21,04:26:53",10.1.1.2,0.4161720275878906,-0.420,-0.420,-0.420,0.000,0.000,0.000
1640060814097997056,"2021-12-21,04:26:54",10.1.1.2,332,-0.430,-0.430,-0.430,0.000,0.000,0.000
1640060814130477824,"2021-12-21,04:26:54",10.1.1.2,0.36522889137268066,-0.430,-0.430,-0.430,0.000,0.000,0.000
1640060814484261120,"2021-12-21,04:26:54",10.1.1.2,351,-0.440,-0.440,-0.440,0.000,0.000,0.000
1640060814528614912,"2021-12-21,04:26:54",10.1.1.2,0.39661502838134766,-0.440,-0.440,-0.440,0.000,0.000,0.000
1640060814884537856,"2021-12-21,04:26:54",10.1.1.2,354,-0.450,-0.450,-0.450,0.000,0.000,0.000
1640060814935347968,"2021-12-21,04:26:54",10.1.1.2,0.4051070213317871,-0.450,-0.450,-0.450,0.000,0.000,0.000
1640060815261905920,"2021-12-21,04:26:55",10.1.1.2,325,-0.460,-0.460,-0.460,0.000,0.000,0.000
1640060815341955072,"2021-12-21,04:26:55",10.1.1.2,0.4052770137786865,-0.460,-0.460,-0.460,0.000,0.000,0.000
1640060815660502016,"2021-12-21,04:26:55",10.1.1.2,309,-0.470,-0.470,-0.470,0.000,0.000,0.000
1640060815701528064,"2021-12-21,04:26:55",10.1.1.2,0.35065579414367676,-0.470,-0.470,-0.470,0.000,0.000,0.000
1640060816010780928,"2021-12-21,04:26:56",10.1.1.2,307,-0.480,-0.480,-0.480,0.000,0.000,0.000
1640060816078236160,"2021-12-21,04:26:56",10.1.1.2,0.37517499923706055,-0.480,-0.480,-0.480,0.000,0.000,0.000
1640060816431130880,"2021-12-21,04:26:56",10.1.1.2,350,-0.490,-0.490,-0.490,0.000,0.000,0.000
1640060816526972160,"2021-12-21,04:26:56",10.1.1.2,0.4469738006591797,-0.490,-0.490,-0.490,0.000,0.000,0.000
1640060816862989056,"2021-12-21,04:26:56",10.1.1.2,330,-0.480,-0.480,-0.480,0.000,0.000,0.000
1640060816955271936,"2021-12-21,04:26:56",10.1.1.2,0.4239230155944824,-0.480,-0.480,-0.480,0.000,0.000,0.000
1640060817261862144,"2021-12-21,04:26:57",10.1.1.2,305,-0.470,-0.470,-0.470,0.000,0.000,0.000
1640060817339834880,"2021-12-21,04:26:57",10.1.1.2,0.38339710235595703,-0.470,-0.470,-0.470,0.000,0.000,0.000
1640060817649271040,"2021-12-21,04:26:57",10.1.1.2,307,-0.460,-0.460,-0.460,0.000,0.000,0.000
1640060817728161024,"2021-12-21,04:26:57",10.1.1.2,0.3867309093475342,-0.460,-0.460,-0.460,0.000,0.000,0.000
1640060818048913920,"2021-12-21,04:26:58",10.1.1.2,318,-0.450,-0.450,-0.450,0.000,0.000,0.000
1640060818094678016,"2021-12-21,04:26:58",10.1.1.2,0.3644120693206787,-0.450,-0.450,-0.450,0.000,0.000,0.000
1640060818446865152,"2021-12-21,04:26:58",10.1.1.2,346,-0.440,-0.440,-0.440,0.000,0.000,0.000
1640060818491972096,"2021-12-21,04:26:58",10.1.1.2,0.3921539783477783,-0.440,-0.440,-0.440,0.000,0.000,0.000
1640060818819417088,"2021-12-21,04:26:58",10.1.1.2,325,-0.430,-0.430,-0.430,0.000,0.000,0.000
1640060818898479104,"2021-12-21,04:26:58",10.1.1.2,0.4050259590148926,-0.430,-0.430,-0.430,0.000,0.000,0.000
1640060819217554176,"2021-12-21,04:26:59",10.1.1.2,317,-0.420,-0.420,-0.420,0.000,0.000,0.000
1640060819287113984,"2021-12-21,04:26:59",10.1.1.2,0.38720083236694336,-0.420,-0.420,-0.420,0.000,0.000,0.000
1640060819607305984,"2021-12-21,04:26:59",10.1.1.2,317,-0.410,-0.410,-0.410,0.000,0.000,0.000
1640060819672625152,"2021-12-21,04:26:59",10.1.1.2,0.38350582122802734,-0.410,-0.410,-0.410,0.000,0.000,0.000
1640060820009172992,"2021-12-21,04:27:00",10.1.1.2,334,-0.400,-0.400,-0.400,0.000,0.000,0.000
1640060820098066944,"2021-12-21,04:27:00",10.1.1.2,0.42374300956726074,-0.400,-0.400,-0.400,0.000,0.000,0.000
1640060820426394880,"2021-12-21,04:27:00",10.1.1.2,326,-0.390,-0.390,-0.390,0.000,0.000,0.000
1640060820514328064,"2021-12-21,04:27:00",10.1.1.2,0.41461801528930664,-0.390,-0.390,-0.390,0.000,0.000,0.000
1640060820835230208,"2021-12-21,04:27:00",10.1.1.2,317,-0.380,-0.380,-0.380,0.000,0.000,0.000
1640060820925925888,"2021-12-21,04:27:00",10.1.1.2,0.408843994140625,-0.380,-0.380,-0.380,0.000,0.000,0.000
1640060821234127104,"2021-12-21,04:27:01",10.1.1.2,306,-0.370,-0.370,-0.370,0.000,0.000,0.000
1640060821337814016,"2021-12-21,04:27:01",10.1.1.2,0.4105539321899414,-0.370,-0.370,-0.370,0.000,0.000,0.000
1640060821614617088,"2021-12-21,04:27:01",10.1.1.2,274,-0.360,-0.360,-0.360,0.000,0.000,0.000
1640060821708969984,"2021-12-21,04:27:01",10.1.1.2,0.36881089210510254,-0.360,-0.360,-0.360,0.000,0.000,0.000
1640060822033023232,"2021-12-21,04:27:02",10.1.1.2,322,-0.350,-0.350,-0.350,0.000,0.000,0.000
1640060822066169856,"2021-12-21,04:27:02",10.1.1.2,0.3555428981781006,-0.350,-0.350,-0.350,0.000,0.000,0.000
1640060822437107200,"2021-12-21,04:27:02",10.1.1.2,369,-0.340,-0.340,-0.340,0.000,0.000,0.000
1640060822506910208,"2021-12-21,04:27:02",10.1.1.2,0.43923091888427734,-0.340,-0.340,-0.340,0.000,0.000,0.000
1640060822835110912,"2021-12-21,04:27:02",10.1.1.2,326,-0.330,-0.330,-0.330,0.000,0.000,0.000
1640060822939877888,"2021-12-21,04:27:02",10.1.1.2,0.4317970275878906,-0.330,-0.330,-0.330,0.000,0.000,0.000
1640060823263577856,"2021-12-21,04:27:03",10.1.1.2,322,-0.320,-0.320,-0.320,0.000,0.000,0.000
1640060823326128896,"2021-12-21,04:27:03",10.1.1.2,0.3846719264984131,-0.320,-0.320,-0.320,0.000,0.000,0.000
1640060823630722048,"2021-12-21,04:27:03",10.1.1.2,303,-0.310,-0.310,-0.310,0.000,0.000,0.000
1640060823711731968,"2021-12-21,04:27:03",10.1.1.2,0.3842761516571045,-0.310,-0.310,-0.310,0.000,0.000,0.000
1640060824009680128,"2021-12-21,04:27:04",10.1.1.2,294,-0.300,-0.300,-0.300,0.000,0.000,0.000
1640060824041528064,"2021-12-21,04:27:04",10.1.1.2,0.32565808296203613,-0.300,-0.300,-0.300,0.000,0.000,0.000
1640060824348925184,"2021-12-21,04:27:04",10.1.1.2,305,-0.290,-0.290,-0.290,0.000,0.000,0.000
1640060824442217216,"2021-12-21,04:27:04",10.1.1.2,0.399320125579834,-0.290,-0.290,-0.290,0.000,0.000,0.000
1640060824779921920,"2021-12-21,04:27:04",10.1.1.2,335,-0.280,-0.280,-0.280,0.000,0.000,0.000
1640060824830323968,"2021-12-21,04:27:04",10.1.1.2,0.3858349323272705,-0.280,-0.280,-0.280,0.000,0.000,0.000
1640060825150881024,"2021-12-21,04:27:05",10.1.1.2,319,-0.270,-0.270,-0.270,0.000,0.000,0.000
1640060825178311168,"2021-12-21,04:27:05",10.1.1.2,0.3466920852661133,-0.270,-0.270,-0.270,0.000,0.000,0.000
1640060825490914048,"2021-12-21,04:27:05",10.1.1.2,311,-0.260,-0.260,-0.260,0.000,0.000,0.000
1640060825574065920,"2021-12-21,04:27:05",10.1.1.2,0.3945610523223877,-0.260,-0.260,-0.260,0.000,0.000,0.000
1640060825941411072,"2021-12-21,04:27:05",10.1.1.2,365,-0.250,-0.250,-0.250,0.000,0.000,0.000
1640060825964804864,"2021-12-21,04:27:05",10.1.1.2,0.3887307643890381,-0.250,-0.250,-0.250,0.000,0.000,0.000
1640060826311550976,"2021-12-21,04:27:06",10.1.1.2,344,-0.240,-0.240,-0.240,0.000,0.000,0.000
1640060826385863936,"2021-12-21,04:27:06",10.1.1.2,0.41954898834228516,-0.240,-0.240,-0.240,0.000,0.000,0.000
1640060826687107072,"2021-12-21,04:27:06",10.1.1.2,299,-0.230,-0.230,-0.230,0.000,0.000,0.000
1640060826745948160,"2021-12-21,04:27:06",10.1.1.2,0.3583869934082031,-0.230,-0.230,-0.230,0.000,0.000,0.000
1640060827065062144,"2021-12-21,04:27:07",10.1.1.2,317,-0.220,-0.220,-0.220,0.000,0.000,0.000
1640060827081307904,"2021-12-21,04:27:07",10.1.1.2,0.3334939479827881,-0.220,-0.220,-0.220,0.000,0.000,0.000
1640060827403578880,"2021-12-21,04:27:07",10.1.1.2,320,-0.210,-0.210,-0.210,0.000,0.000,0.000
1640060827434434048,"2021-12-21,04:27:07",10.1.1.2,0.35148096084594727,-0.210,-0.210,-0.210,0.000,0.000,0.000
1640060827785986048,"2021-12-21,04:27:07",10.1.1.2,348,-0.200,-0.200,-0.200,0.000,0.000,0.000
1640060827869199104,"2021-12-21,04:27:07",10.1.1.2,0.43139100074768066,-0.200,-0.200,-0.200,0.000,0.000,0.000
1640060828185244928,"2021-12-21,04:27:08",10.1.1.2,314,-0.190,-0.190,-0.190,0.000,0.000,0.000
1640060828277432064,"2021-12-21,04:27:08",10.1.1.2,0.40680813789367676,-0.190,-0.190,-0.190,0.000,0.000,0.000
1640060828564054016,"2021-12-21,04:27:08",10.1.1.2,285,-0.180,-0.180,-0.180,0.000,0.000,0.000
1640060828595254784,"2021-12-21,04:27:08",10.1.1.2,0.31658005714416504,-0.180,-0.180,-0.180,0.000,0.000,0.000
1640060828921747968,"2021-12-21,04:27:08",10.1.1.2,324,-0.170,-0.170,-0.170,0.000,0.000,0.000
1640060829008765952,"2021-12-21,04:27:09",10.1.1.2,0.4113788604736328,-0.170,-0.170,-0.170,0.000,0.000,0.000
1640060829304872960,"2021-12-21,04:27:09",10.1.1.2,293,-0.160,-0.160,-0.160,0.000,0.000,0.000
1640060829342345984,"2021-12-21,04:27:09",10.1.1.2,0.33159303665161133,-0.160,-0.160,-0.160,0.000,0.000,0.000
1640060829682405888,"2021-12-21,04:27:09",10.1.1.2,335,-0.150,-0.150,-0.150,0.000,0.000,0.000
1640060829770276096,"2021-12-21,04:27:09",10.1.1.2,0.4248931407928467,-0.150,-0.150,-0.150,0.000,0.000,0.000
1640060830099415040,"2021-12-21,04:27:10",10.1.1.2,323,-0.140,-0.140,-0.140,0.000,0.000,0.000
1640060830159444992,"2021-12-21,04:27:10",10.1.1.2,0.38395214080810547,-0.140,-0.140,-0.140,0.000,0.000,0.000
1640060830469748992,"2021-12-21,04:27:10",10.1.1.2,308,-0.130,-0.130,-0.130,0.000,0.000,0.000
1640060830567910912,"2021-12-21,04:27:10",10.1.1.2,0.4065699577331543,-0.130,-0.130,-0.130,0.000,0.000,0.000
1640060830881581056,"2021-12-21,04:27:10",10.1.1.2,311,-0.120,-0.120,-0.120,0.000,0.000,0.000
1640060830925070080,"2021-12-21,04:27:10",10.1.1.2,0.35532498359680176,-0.120,-0.120,-0.120,0.000,0.000,0.000
1640060831234390016,"2021-12-21,04:27:11",10.1.1.2,307,-0.110,-0.110,-0.110,0.000,0.000,0.000
1640060831328346880,"2021-12-21,04:27:11",10.1.1.2,0.4019629955291748,-0.110,-0.110,-0.110,0.000,0.000,0.000
1640060831624452096,"2021-12-21,04:27:11",10.1.1.2,294,-0.100,-0.100,-0.100,0.000,0.000,0.000
1640060831744435968,"2021-12-21,04:27:11",10.1.1.2,0.4147040843963623,-0.100,-0.100,-0.100,0.000,0.000,0.000
1640060832078524160,"2021-12-21,04:27:12",10.1.1.2,328,-0.090,-0.090,-0.090,0.000,0.000,0.000
1640060832137893888,"2021-12-21,04:27:12",10.1.1.2,0.38858485221862793,-0.090,-0.090,-0.090,0.000,0.000,0.000
1640060832447774976,"2021-12-21,04:27:12",10.1.1.2,307,-0.080,-0.080,-0.080,0.000,0.000,0.000
1640060832530302976,"2021-12-21,04:27:12",10.1.1.2,0.3909327983856201,-0.080,-0.080,-0.080,0.000,0.000,0.000
1640060832892203008,"2021-12-21,04:27:12",10.1.1.2,359,-0.070,-0.070,-0.070,0.000,0.000,0.000
1640060832973594880,"2021-12-21,04:27:12",10.1.1.2,0.4421091079711914,-0.070,-0.070,-0.070,0.000,0.000,0.000
1640060833259512832,"2021-12-21,04:27:13",10.1.1.2,284,-0.060,-0.060,-0.060,0.000,0.000,0.000
1640060833355560192,"2021-12-21,04:27:13",10.1.1.2,0.38077592849731445,-0.060,-0.060,-0.060,0.000,0.000,0.000
1640060833661752064,"2021-12-21,04:27:13",10.1.1.2,300,-0.050,-0.050,-0.050,0.000,0.000,0.000
1640060833758824960,"2021-12-21,04:27:13",10.1.1.2,0.39801502227783203,-0.050,-0.050,-0.050,0.000,0.000,0.000
1640060834051239936,"2021-12-21,04:27:14",10.1.1.2,289,-0.040,-0.040,-0.040,0.000,0.000,0.000
1640060834118838016,"2021-12-21,04:27:14",10.1.1.2,0.35814499855041504,-0.040,-0.040,-0.040,0.000,0.000,0.000
1640060834453146880,"2021-12-21,04:27:14",10.1.1.2,332,-0.030,-0.030,-0.030,0.000,0.000,0.000
1640060834541410048,"2021-12-21,04:27:14",10.1.1.2,0.420551061630249,-0.030,-0.030,-0.030,0.000,0.000,0.000
1640060834887003904,"2021-12-21,04:27:14",10.1.1.2,343,-0.020,-0.020,-0.020,0.000,0.000,0.000
1640060834967533056,"2021-12-21,04:27:14",10.1.1.2,0.42466282844543457,-0.020,-0.020,-0.020,0.000,0.000,0.000
