FedericoMungari/DigitalTwin_service/01_WiredScenario/Output/Output_script/script_rosapi_2_output_robots2_freq0_1.txt
timestamp,date,node,latency,joint_1,joint_2,joint_3,joint_4,joint_5,joint_6
1641182316274704896,2022-01-03-03:58:36,10.1.1.2,185,-0.010,-0.010,-0.010,0.000,0.000,0.000
1641182316464399104,2022-01-03-03:58:36,10.1.1.2,174,-0.020,-0.020,-0.020,0.000,0.000,0.000
1641182316663905024,2022-01-03-03:58:36,10.1.1.2,172,-0.030,-0.030,-0.030,0.000,0.000,0.000
1641182316856868096,2022-01-03-03:58:36,10.1.1.2,164,-0.040,-0.040,-0.040,0.000,0.000,0.000
1641182317062669056,2022-01-03-03:58:37,10.1.1.2,169,-0.050,-0.050,-0.050,0.000,0.000,0.000
1641182317256372992,2022-01-03-03:58:37,10.1.1.2,161,-0.060,-0.060,-0.060,0.000,0.000,0.000
1641182317461786880,2022-01-03-03:58:37,10.1.1.2,165,-0.070,-0.070,-0.070,0.000,0.000,0.000
1641182317663505152,2022-01-03-03:58:37,10.1.1.2,166,-0.080,-0.080,-0.080,0.000,0.000,0.000
1641182317853444096,2022-01-03-03:58:37,10.1.1.2,155,-0.090,-0.090,-0.090,0.000,0.000,0.000
1641182318065270784,2022-01-03-03:58:38,10.1.1.2,166,-0.100,-0.100,-0.100,0.000,0.000,0.000
1641182318296019968,2022-01-03-03:58:38,10.1.1.2,196,-0.110,-0.110,-0.110,0.000,0.000,0.000
1641182318663398912,2022-01-03-03:58:38,10.1.1.2,161,-0.130,-0.130,-0.130,0.000,0.000,0.000
1641182318860918016,2022-01-03-03:58:38,10.1.1.2,156,-0.140,-0.140,-0.140,0.000,0.000,0.000
1641182319061059840,2022-01-03-03:58:39,10.1.1.2,156,-0.150,-0.150,-0.150,0.000,0.000,0.000
1641182319280910080,2022-01-03-03:58:39,10.1.1.2,173,-0.160,-0.160,-0.160,0.000,0.000,0.000
1641182319481064960,2022-01-03-03:58:39,10.1.1.2,170,-0.170,-0.170,-0.170,0.000,0.000,0.000
1641182319680188928,2022-01-03-03:58:39,10.1.1.2,168,-0.180,-0.180,-0.180,0.000,0.000,0.000
1641182319879450112,2022-01-03-03:58:39,10.1.1.2,161,-0.190,-0.190,-0.190,0.000,0.000,0.000
1641182320096726016,2022-01-03-03:58:40,10.1.1.2,178,-0.200,-0.200,-0.200,0.000,0.000,0.000
1641182320294897152,2022-01-03-03:58:40,10.1.1.2,175,-0.210,-0.210,-0.210,0.000,0.000,0.000
1641182320512463104,2022-01-03-03:58:40,10.1.1.2,191,-0.220,-0.220,-0.220,0.000,0.000,0.000
1641182320674737920,2022-01-03-03:58:40,10.1.1.2,152,-0.230,-0.230,-0.230,0.000,0.000,0.000
1641182320894084096,2022-01-03-03:58:40,10.1.1.2,170,-0.240,-0.240,-0.240,0.000,0.000,0.000
1641182321094683904,2022-01-03-03:58:41,10.1.1.2,170,-0.250,-0.250,-0.250,0.000,0.000,0.000
1641182321278828032,2022-01-03-03:58:41,10.1.1.2,154,-0.260,-0.260,-0.260,0.000,0.000,0.000
1641182321492824064,2022-01-03-03:58:41,10.1.1.2,167,-0.270,-0.270,-0.270,0.000,0.000,0.000
1641182321698808832,2022-01-03-03:58:41,10.1.1.2,172,-0.280,-0.280,-0.280,0.000,0.000,0.000
1641182321900557056,2022-01-03-03:58:41,10.1.1.2,173,-0.290,-0.290,-0.290,0.000,0.000,0.000
1641182322092835072,2022-01-03-03:58:42,10.1.1.2,164,-0.300,-0.300,-0.300,0.000,0.000,0.000
1641182322300007936,2022-01-03-03:58:42,10.1.1.2,171,-0.310,-0.310,-0.310,0.000,0.000,0.000
1641182322516048896,2022-01-03-03:58:42,10.1.1.2,186,-0.320,-0.320,-0.320,0.000,0.000,0.000
1641182322696326144,2022-01-03-03:58:42,10.1.1.2,165,-0.330,-0.330,-0.330,0.000,0.000,0.000
1641182322898948864,2022-01-03-03:58:42,10.1.1.2,167,-0.340,-0.340,-0.340,0.000,0.000,0.000
1641182323099713024,2022-01-03-03:58:43,10.1.1.2,167,-0.350,-0.350,-0.350,0.000,0.000,0.000
1641182323299026944,2022-01-03-03:58:43,10.1.1.2,165,-0.360,-0.360,-0.360,0.000,0.000,0.000
1641182323514467840,2022-01-03-03:58:43,10.1.1.2,180,-0.370,-0.370,-0.370,0.000,0.000,0.000
1641182323704193024,2022-01-03-03:58:43,10.1.1.2,169,-0.380,-0.380,-0.380,0.000,0.000,0.000
1641182323905807104,2022-01-03-03:58:43,10.1.1.2,166,-0.390,-0.390,-0.390,0.000,0.000,0.000
1641182324106244096,2022-01-03-03:58:44,10.1.1.2,167,-0.400,-0.400,-0.400,0.000,0.000,0.000
1641182324306548992,2022-01-03-03:58:44,10.1.1.2,166,-0.410,-0.410,-0.410,0.000,0.000,0.000
1641182324507740928,2022-01-03-03:58:44,10.1.1.2,165,-0.420,-0.420,-0.420,0.000,0.000,0.000
1641182324708098816,2022-01-03-03:58:44,10.1.1.2,164,-0.430,-0.430,-0.430,0.000,0.000,0.000
1641182324909668096,2022-01-03-03:58:44,10.1.1.2,165,-0.440,-0.440,-0.440,0.000,0.000,0.000
1641182325121660928,2022-01-03-03:58:45,10.1.1.2,175,-0.450,-0.450,-0.450,0.000,0.000,0.000
1641182325327641856,2022-01-03-03:58:45,10.1.1.2,175,-0.460,-0.460,-0.460,0.000,0.000,0.000
1641182325527307008,2022-01-03-03:58:45,10.1.1.2,174,-0.470,-0.470,-0.470,0.000,0.000,0.000
1641182325748812800,2022-01-03-03:58:45,10.1.1.2,194,-0.480,-0.480,-0.480,0.000,0.000,0.000
1641182325928963840,2022-01-03-03:58:45,10.1.1.2,174,-0.490,-0.490,-0.490,0.000,0.000,0.000
1641182326134264064,2022-01-03-03:58:46,10.1.1.2,175,-0.480,-0.480,-0.480,0.000,0.000,0.000
1641182326325470976,2022-01-03-03:58:46,10.1.1.2,164,-0.470,-0.470,-0.470,0.000,0.000,0.000
1641182326553025024,2022-01-03-03:58:46,10.1.1.2,191,-0.460,-0.460,-0.460,0.000,0.000,0.000
1641182326752610048,2022-01-03-03:58:46,10.1.1.2,189,-0.450,-0.450,-0.450,0.000,0.000,0.000
1641182326948077056,2022-01-03-03:58:46,10.1.1.2,184,-0.440,-0.440,-0.440,0.000,0.000,0.000
1641182327350652928,2022-01-03-03:58:47,10.1.1.2,184,-0.420,-0.420,-0.420,0.000,0.000,0.000
1641182327551672832,2022-01-03-03:58:47,10.1.1.2,184,-0.410,-0.410,-0.410,0.000,0.000,0.000
1641182327750650880,2022-01-03-03:58:47,10.1.1.2,179,-0.400,-0.400,-0.400,0.000,0.000,0.000
1641182327951628032,2022-01-03-03:58:47,10.1.1.2,178,-0.390,-0.390,-0.390,0.000,0.000,0.000
1641182328152218112,2022-01-03-03:58:48,10.1.1.2,178,-0.380,-0.380,-0.380,0.000,0.000,0.000
1641182328352811008,2022-01-03-03:58:48,10.1.1.2,178,-0.370,-0.370,-0.370,0.000,0.000,0.000
1641182328559184128,2022-01-03-03:58:48,10.1.1.2,183,-0.360,-0.360,-0.360,0.000,0.000,0.000
1641182328751307008,2022-01-03-03:58:48,10.1.1.2,173,-0.350,-0.350,-0.350,0.000,0.000,0.000
1641182328972103168,2022-01-03-03:58:48,10.1.1.2,193,-0.340,-0.340,-0.340,0.000,0.000,0.000
1641182329171719168,2022-01-03-03:58:49,10.1.1.2,191,-0.330,-0.330,-0.330,0.000,0.000,0.000
1641182329371833088,2022-01-03-03:58:49,10.1.1.2,191,-0.320,-0.320,-0.320,0.000,0.000,0.000
1641182329572377088,2022-01-03-03:58:49,10.1.1.2,190,-0.310,-0.310,-0.310,0.000,0.000,0.000
1641182329770648832,2022-01-03-03:58:49,10.1.1.2,187,-0.300,-0.300,-0.300,0.000,0.000,0.000
1641182329970944768,2022-01-03-03:58:49,10.1.1.2,187,-0.290,-0.290,-0.290,0.000,0.000,0.000
1641182330177110784,2022-01-03-03:58:50,10.1.1.2,189,-0.280,-0.280,-0.280,0.000,0.000,0.000
1641182330372122880,2022-01-03-03:58:50,10.1.1.2,181,-0.270,-0.270,-0.270,0.000,0.000,0.000
1641182330572822016,2022-01-03-03:58:50,10.1.1.2,182,-0.260,-0.260,-0.260,0.000,0.000,0.000
1641182330773684992,2022-01-03-03:58:50,10.1.1.2,181,-0.250,-0.250,-0.250,0.000,0.000,0.000
1641182330972024832,2022-01-03-03:58:50,10.1.1.2,179,-0.240,-0.240,-0.240,0.000,0.000,0.000
1641182331172982016,2022-01-03-03:58:51,10.1.1.2,179,-0.230,-0.230,-0.230,0.000,0.000,0.000
1641182331372282112,2022-01-03-03:58:51,10.1.1.2,178,-0.220,-0.220,-0.220,0.000,0.000,0.000
1641182331572696832,2022-01-03-03:58:51,10.1.1.2,176,-0.210,-0.210,-0.210,0.000,0.000,0.000
1641182331773189120,2022-01-03-03:58:51,10.1.1.2,176,-0.200,-0.200,-0.200,0.000,0.000,0.000
1641182331978441984,2022-01-03-03:58:51,10.1.1.2,181,-0.190,-0.190,-0.190,0.000,0.000,0.000
1641182332180643072,2022-01-03-03:58:52,10.1.1.2,182,-0.180,-0.180,-0.180,0.000,0.000,0.000
1641182332381989120,2022-01-03-03:58:52,10.1.1.2,183,-0.170,-0.170,-0.170,0.000,0.000,0.000
1641182332580666112,2022-01-03-03:58:52,10.1.1.2,181,-0.160,-0.160,-0.160,0.000,0.000,0.000
1641182332781986048,2022-01-03-03:58:52,10.1.1.2,180,-0.150,-0.150,-0.150,0.000,0.000,0.000
1641182332982012160,2022-01-03-03:58:52,10.1.1.2,178,-0.140,-0.140,-0.140,0.000,0.000,0.000
1641182333181596160,2022-01-03-03:58:53,10.1.1.2,178,-0.130,-0.130,-0.130,0.000,0.000,0.000
1641182333401020928,2022-01-03-03:58:53,10.1.1.2,196,-0.120,-0.120,-0.120,0.000,0.000,0.000
1641182333581809920,2022-01-03-03:58:53,10.1.1.2,176,-0.110,-0.110,-0.110,0.000,0.000,0.000
1641182333802938880,2022-01-03-03:58:53,10.1.1.2,196,-0.100,-0.100,-0.100,0.000,0.000,0.000
1641182334002052096,2022-01-03-03:58:54,10.1.1.2,194,-0.090,-0.090,-0.090,0.000,0.000,0.000
1641182334200723968,2022-01-03-03:58:54,10.1.1.2,192,-0.080,-0.080,-0.080,0.000,0.000,0.000
1641182334400298240,2022-01-03-03:58:54,10.1.1.2,190,-0.070,-0.070,-0.070,0.000,0.000,0.000
1641182334598881024,2022-01-03-03:58:54,10.1.1.2,189,-0.060,-0.060,-0.060,0.000,0.000,0.000
1641182334798661888,2022-01-03-03:58:54,10.1.1.2,188,-0.050,-0.050,-0.050,0.000,0.000,0.000
1641182334997324032,2022-01-03-03:58:54,10.1.1.2,183,-0.040,-0.040,-0.040,0.000,0.000,0.000
1641182335199122944,2022-01-03-03:58:55,10.1.1.2,183,-0.030,-0.030,-0.030,0.000,0.000,0.000
1641182335396909056,2022-01-03-03:58:55,10.1.1.2,180,-0.020,-0.020,-0.020,0.000,0.000,0.000
1641182335613233152,2022-01-03-03:58:55,10.1.1.2,194,-0.010,-0.010,-0.010,0.000,0.000,0.000
1641182335800587008,2022-01-03-03:58:55,10.1.1.2,180,0.000,0.000,0.000,0.000,0.000,0.000
1641182335994204160,2022-01-03-03:58:55,10.1.1.2,173,-0.010,-0.010,-0.010,0.000,0.000,0.000
1641182336216075008,2022-01-03-03:58:56,10.1.1.2,192,-0.020,-0.020,-0.020,0.000,0.000,0.000
1641182336416758016,2022-01-03-03:58:56,10.1.1.2,192,-0.030,-0.030,-0.030,0.000,0.000,0.000
1641182336621550080,2022-01-03-03:58:56,10.1.1.2,196,-0.040,-0.040,-0.040,0.000,0.000,0.000
1641182336816593920,2022-01-03-03:58:56,10.1.1.2,190,-0.050,-0.050,-0.050,0.000,0.000,0.000
1641182337015918848,2022-01-03-03:58:57,10.1.1.2,188,-0.060,-0.060,-0.060,0.000,0.000,0.000
1641182337216690176,2022-01-03-03:58:57,10.1.1.2,188,-0.070,-0.070,-0.070,0.000,0.000,0.000
1641182337421473024,2022-01-03-03:58:57,10.1.1.2,192,-0.080,-0.080,-0.080,0.000,0.000,0.000
1641182337628487168,2022-01-03-03:58:57,10.1.1.2,198,-0.090,-0.090,-0.090,0.000,0.000,0.000
1641182337818063104,2022-01-03-03:58:57,10.1.1.2,186,-0.100,-0.100,-0.100,0.000,0.000,0.000
1641182338014925056,2022-01-03-03:58:58,10.1.1.2,179,-0.110,-0.110,-0.110,0.000,0.000,0.000
1641182338212760832,2022-01-03-03:58:58,10.1.1.2,176,-0.120,-0.120,-0.120,0.000,0.000,0.000
1641182338412697088,2022-01-03-03:58:58,10.1.1.2,174,-0.130,-0.130,-0.130,0.000,0.000,0.000
1641182338619229952,2022-01-03-03:58:58,10.1.1.2,180,-0.140,-0.140,-0.140,0.000,0.000,0.000
1641182338812715008,2022-01-03-03:58:58,10.1.1.2,173,-0.150,-0.150,-0.150,0.000,0.000,0.000
1641182339011969024,2022-01-03-03:58:59,10.1.1.2,172,-0.160,-0.160,-0.160,0.000,0.000,0.000
1641182339233027840,2022-01-03-03:58:59,10.1.1.2,188,-0.170,-0.170,-0.170,0.000,0.000,0.000
1641182339432092928,2022-01-03-03:58:59,10.1.1.2,186,-0.180,-0.180,-0.180,0.000,0.000,0.000
1641182339632334080,2022-01-03-03:58:59,10.1.1.2,184,-0.190,-0.190,-0.190,0.000,0.000,0.000
1641182339832154880,2022-01-03-03:58:59,10.1.1.2,184,-0.200,-0.200,-0.200,0.000,0.000,0.000
1641182340031426816,2022-01-03-03:59:00,10.1.1.2,181,-0.210,-0.210,-0.210,0.000,0.000,0.000
1641182340231600896,2022-01-03-03:59:00,10.1.1.2,181,-0.220,-0.220,-0.220,0.000,0.000,0.000
1641182340430735104,2022-01-03-03:59:00,10.1.1.2,179,-0.230,-0.230,-0.230,0.000,0.000,0.000
1641182340632044032,2022-01-03-03:59:00,10.1.1.2,180,-0.240,-0.240,-0.240,0.000,0.000,0.000
1641182340830437888,2022-01-03-03:59:00,10.1.1.2,177,-0.250,-0.250,-0.250,0.000,0.000,0.000
1641182341032963072,2022-01-03-03:59:01,10.1.1.2,179,-0.260,-0.260,-0.260,0.000,0.000,0.000
1641182341230637056,2022-01-03-03:59:01,10.1.1.2,176,-0.270,-0.270,-0.270,0.000,0.000,0.000
1641182341430514176,2022-01-03-03:59:01,10.1.1.2,176,-0.280,-0.280,-0.280,0.000,0.000,0.000
1641182341629466112,2022-01-03-03:59:01,10.1.1.2,174,-0.290,-0.290,-0.290,0.000,0.000,0.000
1641182341829256960,2022-01-03-03:59:01,10.1.1.2,171,-0.300,-0.300,-0.300,0.000,0.000,0.000
1641182342054640896,2022-01-03-03:59:02,10.1.1.2,192,-0.310,-0.310,-0.310,0.000,0.000,0.000
1641182342236573952,2022-01-03-03:59:02,10.1.1.2,172,-0.320,-0.320,-0.320,0.000,0.000,0.000
1641182342435616000,2022-01-03-03:59:02,10.1.1.2,171,-0.330,-0.330,-0.330,0.000,0.000,0.000
1641182342636701184,2022-01-03-03:59:02,10.1.1.2,170,-0.340,-0.340,-0.340,0.000,0.000,0.000
1641182342854574848,2022-01-03-03:59:02,10.1.1.2,186,-0.350,-0.350,-0.350,0.000,0.000,0.000
1641182343057812992,2022-01-03-03:59:03,10.1.1.2,188,-0.360,-0.360,-0.360,0.000,0.000,0.000
1641182343254269952,2022-01-03-03:59:03,10.1.1.2,184,-0.370,-0.370,-0.370,0.000,0.000,0.000
1641182343450768896,2022-01-03-03:59:03,10.1.1.2,179,-0.380,-0.380,-0.380,0.000,0.000,0.000
1641182343654061056,2022-01-03-03:59:03,10.1.1.2,181,-0.390,-0.390,-0.390,0.000,0.000,0.000
1641182343845947136,2022-01-03-03:59:03,10.1.1.2,172,-0.400,-0.400,-0.400,0.000,0.000,0.000
1641182344052628992,2022-01-03-03:59:04,10.1.1.2,177,-0.410,-0.410,-0.410,0.000,0.000,0.000
1641182344255513856,2022-01-03-03:59:04,10.1.1.2,176,-0.420,-0.420,-0.420,0.000,0.000,0.000
1641182344452300032,2022-01-03-03:59:04,10.1.1.2,172,-0.430,-0.430,-0.430,0.000,0.000,0.000
1641182344653938944,2022-01-03-03:59:04,10.1.1.2,171,-0.440,-0.440,-0.440,0.000,0.000,0.000
1641182345252388864,2022-01-03-03:59:05,10.1.1.2,168,-0.470,-0.470,-0.470,0.000,0.000,0.000
1641182345452420864,2022-01-03-03:59:05,10.1.1.2,167,-0.480,-0.480,-0.480,0.000,0.000,0.000
1641182345670077952,2022-01-03-03:59:05,10.1.1.2,184,-0.490,-0.490,-0.490,0.000,0.000,0.000
1641182345869060096,2022-01-03-03:59:05,10.1.1.2,182,-0.480,-0.480,-0.480,0.000,0.000,0.000
1641182346074841088,2022-01-03-03:59:06,10.1.1.2,185,-0.470,-0.470,-0.470,0.000,0.000,0.000
1641182346270117888,2022-01-03-03:59:06,10.1.1.2,179,-0.460,-0.460,-0.460,0.000,0.000,0.000
1641182346469667072,2022-01-03-03:59:06,10.1.1.2,178,-0.450,-0.450,-0.450,0.000,0.000,0.000
1641182346661114880,2022-01-03-03:59:06,10.1.1.2,168,-0.440,-0.440,-0.440,0.000,0.000,0.000
1641182346861629952,2022-01-03-03:59:06,10.1.1.2,168,-0.430,-0.430,-0.430,0.000,0.000,0.000
1641182347059766016,2022-01-03-03:59:07,10.1.1.2,163,-0.420,-0.420,-0.420,0.000,0.000,0.000
1641182347260263936,2022-01-03-03:59:07,10.1.1.2,162,-0.410,-0.410,-0.410,0.000,0.000,0.000
1641182347460495104,2022-01-03-03:59:07,10.1.1.2,162,-0.400,-0.400,-0.400,0.000,0.000,0.000
1641182347683590912,2022-01-03-03:59:07,10.1.1.2,184,-0.390,-0.390,-0.390,0.000,0.000,0.000
1641182347879777024,2022-01-03-03:59:07,10.1.1.2,179,-0.380,-0.380,-0.380,0.000,0.000,0.000
1641182348079799040,2022-01-03-03:59:08,10.1.1.2,178,-0.370,-0.370,-0.370,0.000,0.000,0.000
1641182348278081792,2022-01-03-03:59:08,10.1.1.2,177,-0.360,-0.360,-0.360,0.000,0.000,0.000
1641182348479195136,2022-01-03-03:59:08,10.1.1.2,177,-0.350,-0.350,-0.350,0.000,0.000,0.000
1641182348663395840,2022-01-03-03:59:08,10.1.1.2,161,-0.340,-0.340,-0.340,0.000,0.000,0.000
1641182348882818816,2022-01-03-03:59:08,10.1.1.2,178,-0.330,-0.330,-0.330,0.000,0.000,0.000
1641182349077760000,2022-01-03-03:59:09,10.1.1.2,169,-0.320,-0.320,-0.320,0.000,0.000,0.000
1641182349276715008,2022-01-03-03:59:09,10.1.1.2,167,-0.310,-0.310,-0.310,0.000,0.000,0.000
1641182349476083968,2022-01-03-03:59:09,10.1.1.2,166,-0.300,-0.300,-0.300,0.000,0.000,0.000
1641182349676017920,2022-01-03-03:59:09,10.1.1.2,164,-0.290,-0.290,-0.290,0.000,0.000,0.000
1641182349877021952,2022-01-03-03:59:09,10.1.1.2,164,-0.280,-0.280,-0.280,0.000,0.000,0.000
1641182350075023872,2022-01-03-03:59:10,10.1.1.2,162,-0.270,-0.270,-0.270,0.000,0.000,0.000
1641182350276331776,2022-01-03-03:59:10,10.1.1.2,162,-0.260,-0.260,-0.260,0.000,0.000,0.000
1641182350475298048,2022-01-03-03:59:10,10.1.1.2,158,-0.250,-0.250,-0.250,0.000,0.000,0.000
1641182350679721984,2022-01-03-03:59:10,10.1.1.2,162,-0.240,-0.240,-0.240,0.000,0.000,0.000
1641182350875139840,2022-01-03-03:59:10,10.1.1.2,157,-0.230,-0.230,-0.230,0.000,0.000,0.000
1641182351076576000,2022-01-03-03:59:11,10.1.1.2,157,-0.220,-0.220,-0.220,0.000,0.000,0.000
1641182351275934976,2022-01-03-03:59:11,10.1.1.2,156,-0.210,-0.210,-0.210,0.000,0.000,0.000
1641182351495280896,2022-01-03-03:59:11,10.1.1.2,175,-0.200,-0.200,-0.200,0.000,0.000,0.000
1641182351692950016,2022-01-03-03:59:11,10.1.1.2,171,-0.190,-0.190,-0.190,0.000,0.000,0.000
1641182351896086016,2022-01-03-03:59:11,10.1.1.2,173,-0.180,-0.180,-0.180,0.000,0.000,0.000
1641182352088488192,2022-01-03-03:59:12,10.1.1.2,164,-0.170,-0.170,-0.170,0.000,0.000,0.000
1641182352278897920,2022-01-03-03:59:12,10.1.1.2,154,-0.160,-0.160,-0.160,0.000,0.000,0.000
1641182352498720768,2022-01-03-03:59:12,10.1.1.2,173,-0.150,-0.150,-0.150,0.000,0.000,0.000
1641182352904711936,2022-01-03-03:59:12,10.1.1.2,178,-0.130,-0.130,-0.130,0.000,0.000,0.000
1641182353098675968,2022-01-03-03:59:13,10.1.1.2,171,-0.120,-0.120,-0.120,0.000,0.000,0.000
1641182353298994176,2022-01-03-03:59:13,10.1.1.2,170,-0.110,-0.110,-0.110,0.000,0.000,0.000
1641182353484504064,2022-01-03-03:59:13,10.1.1.2,154,-0.100,-0.100,-0.100,0.000,0.000,0.000
1641182353692387072,2022-01-03-03:59:13,10.1.1.2,161,-0.090,-0.090,-0.090,0.000,0.000,0.000
1641182353892698880,2022-01-03-03:59:13,10.1.1.2,161,-0.080,-0.080,-0.080,0.000,0.000,0.000
1641182354094449920,2022-01-03-03:59:14,10.1.1.2,162,-0.070,-0.070,-0.070,0.000,0.000,0.000
1641182354293711872,2022-01-03-03:59:14,10.1.1.2,160,-0.060,-0.060,-0.060,0.000,0.000,0.000
1641182354497646080,2022-01-03-03:59:14,10.1.1.2,163,-0.050,-0.050,-0.050,0.000,0.000,0.000
1641182354715117824,2022-01-03-03:59:14,10.1.1.2,174,-0.040,-0.040,-0.040,0.000,0.000,0.000
1641182354917859072,2022-01-03-03:59:14,10.1.1.2,174,-0.030,-0.030,-0.030,0.000,0.000,0.000
1641182355118306048,2022-01-03-03:59:15,10.1.1.2,174,-0.020,-0.020,-0.020,0.000,0.000,0.000
1641182355318531072,2022-01-03-03:59:15,10.1.1.2,173,-0.010,-0.010,-0.010,0.000,0.000,0.000
1641182355519665920,2022-01-03-03:59:15,10.1.1.2,173,0.000,0.000,0.000,0.000,0.000,0.000
1641182355720643072,2022-01-03-03:59:15,10.1.1.2,173,-0.010,-0.010,-0.010,0.000,0.000,0.000
1641182355921982976,2022-01-03-03:59:15,10.1.1.2,174,-0.020,-0.020,-0.020,0.000,0.000,0.000
1641182356121649920,2022-01-03-03:59:16,10.1.1.2,173,-0.030,-0.030,-0.030,0.000,0.000,0.000
1641182356325232128,2022-01-03-03:59:16,10.1.1.2,175,-0.040,-0.040,-0.040,0.000,0.000,0.000
1641182356525222912,2022-01-03-03:59:16,10.1.1.2,175,-0.050,-0.050,-0.050,0.000,0.000,0.000
1641182356723710976,2022-01-03-03:59:16,10.1.1.2,173,-0.060,-0.060,-0.060,0.000,0.000,0.000
1641182356925578240,2022-01-03-03:59:16,10.1.1.2,173,-0.070,-0.070,-0.070,0.000,0.000,0.000
1641182357127795968,2022-01-03-03:59:17,10.1.1.2,173,-0.080,-0.080,-0.080,0.000,0.000,0.000
1641182357326749952,2022-01-03-03:59:17,10.1.1.2,172,-0.090,-0.090,-0.090,0.000,0.000,0.000
1641182357527546880,2022-01-03-03:59:17,10.1.1.2,170,-0.100,-0.100,-0.100,0.000,0.000,0.000
1641182357749313024,2022-01-03-03:59:17,10.1.1.2,190,-0.110,-0.110,-0.110,0.000,0.000,0.000
1641182357927622144,2022-01-03-03:59:17,10.1.1.2,168,-0.120,-0.120,-0.120,0.000,0.000,0.000
1641182358128012800,2022-01-03-03:59:18,10.1.1.2,168,-0.130,-0.130,-0.130,0.000,0.000,0.000
1641182358349934080,2022-01-03-03:59:18,10.1.1.2,189,-0.140,-0.140,-0.140,0.000,0.000,0.000
1641182358528506880,2022-01-03-03:59:18,10.1.1.2,167,-0.150,-0.150,-0.150,0.000,0.000,0.000
1641182358750380032,2022-01-03-03:59:18,10.1.1.2,188,-0.160,-0.160,-0.160,0.000,0.000,0.000
1641182358951152128,2022-01-03-03:59:18,10.1.1.2,188,-0.170,-0.170,-0.170,0.000,0.000,0.000
1641182359150536960,2022-01-03-03:59:19,10.1.1.2,187,-0.180,-0.180,-0.180,0.000,0.000,0.000
1641182359352135936,2022-01-03-03:59:19,10.1.1.2,188,-0.190,-0.190,-0.190,0.000,0.000,0.000
1641182359554948096,2022-01-03-03:59:19,10.1.1.2,190,-0.200,-0.200,-0.200,0.000,0.000,0.000
1641182359751526144,2022-01-03-03:59:19,10.1.1.2,186,-0.210,-0.210,-0.210,0.000,0.000,0.000
1641182359952869888,2022-01-03-03:59:19,10.1.1.2,187,-0.220,-0.220,-0.220,0.000,0.000,0.000
1641182360153131008,2022-01-03-03:59:20,10.1.1.2,186,-0.230,-0.230,-0.230,0.000,0.000,0.000
1641182360352414976,2022-01-03-03:59:20,10.1.1.2,185,-0.240,-0.240,-0.240,0.000,0.000,0.000
1641182360555223040,2022-01-03-03:59:20,10.1.1.2,186,-0.250,-0.250,-0.250,0.000,0.000,0.000
1641182360752985856,2022-01-03-03:59:20,10.1.1.2,184,-0.260,-0.260,-0.260,0.000,0.000,0.000
1641182360954114816,2022-01-03-03:59:20,10.1.1.2,184,-0.270,-0.270,-0.270,0.000,0.000,0.000
1641182361154669056,2022-01-03-03:59:21,10.1.1.2,183,-0.280,-0.280,-0.280,0.000,0.000,0.000
1641182361356259072,2022-01-03-03:59:21,10.1.1.2,185,-0.290,-0.290,-0.290,0.000,0.000,0.000
1641182361553920000,2022-01-03-03:59:21,10.1.1.2,181,-0.300,-0.300,-0.300,0.000,0.000,0.000
1641182361754699008,2022-01-03-03:59:21,10.1.1.2,181,-0.310,-0.310,-0.310,0.000,0.000,0.000
1641182361955904000,2022-01-03-03:59:21,10.1.1.2,181,-0.320,-0.320,-0.320,0.000,0.000,0.000
1641182362155724032,2022-01-03-03:59:22,10.1.1.2,175,-0.330,-0.330,-0.330,0.000,0.000,0.000
1641182362575692800,2022-01-03-03:59:22,10.1.1.2,194,-0.350,-0.350,-0.350,0.000,0.000,0.000
1641182362773718016,2022-01-03-03:59:22,10.1.1.2,191,-0.360,-0.360,-0.360,0.000,0.000,0.000
1641182362974162176,2022-01-03-03:59:22,10.1.1.2,190,-0.370,-0.370,-0.370,0.000,0.000,0.000
1641182363175493120,2022-01-03-03:59:23,10.1.1.2,191,-0.380,-0.380,-0.380,0.000,0.000,0.000
1641182363374541056,2022-01-03-03:59:23,10.1.1.2,189,-0.390,-0.390,-0.390,0.000,0.000,0.000
1641182363575320064,2022-01-03-03:59:23,10.1.1.2,188,-0.400,-0.400,-0.400,0.000,0.000,0.000
1641182363780570880,2022-01-03-03:59:23,10.1.1.2,193,-0.410,-0.410,-0.410,0.000,0.000,0.000
1641182363980819968,2022-01-03-03:59:23,10.1.1.2,192,-0.420,-0.420,-0.420,0.000,0.000,0.000
1641182364180710912,2022-01-03-03:59:24,10.1.1.2,191,-0.430,-0.430,-0.430,0.000,0.000,0.000
1641182364575813120,2022-01-03-03:59:24,10.1.1.2,184,-0.450,-0.450,-0.450,0.000,0.000,0.000
1641182364775948032,2022-01-03-03:59:24,10.1.1.2,184,-0.460,-0.460,-0.460,0.000,0.000,0.000
1641182364974278912,2022-01-03-03:59:24,10.1.1.2,181,-0.470,-0.470,-0.470,0.000,0.000,0.000
1641182365175399936,2022-01-03-03:59:25,10.1.1.2,181,-0.480,-0.480,-0.480,0.000,0.000,0.000
1641182365376399872,2022-01-03-03:59:25,10.1.1.2,181,-0.490,-0.490,-0.490,0.000,0.000,0.000
1641182365576719104,2022-01-03-03:59:25,10.1.1.2,180,-0.480,-0.480,-0.480,0.000,0.000,0.000
1641182365782788864,2022-01-03-03:59:25,10.1.1.2,185,-0.470,-0.470,-0.470,0.000,0.000,0.000
1641182366182945024,2022-01-03-03:59:26,10.1.1.2,184,-0.450,-0.450,-0.450,0.000,0.000,0.000
1641182366386297088,2022-01-03-03:59:26,10.1.1.2,185,-0.440,-0.440,-0.440,0.000,0.000,0.000
1641182366585481984,2022-01-03-03:59:26,10.1.1.2,181,-0.430,-0.430,-0.430,0.000,0.000,0.000
1641182366793363968,2022-01-03-03:59:26,10.1.1.2,189,-0.420,-0.420,-0.420,0.000,0.000,0.000
1641182366974915072,2022-01-03-03:59:26,10.1.1.2,169,-0.410,-0.410,-0.410,0.000,0.000,0.000
1641182367194567936,2022-01-03-03:59:27,10.1.1.2,188,-0.400,-0.400,-0.400,0.000,0.000,0.000
1641182367394327040,2022-01-03-03:59:27,10.1.1.2,184,-0.390,-0.390,-0.390,0.000,0.000,0.000
1641182367593331200,2022-01-03-03:59:27,10.1.1.2,183,-0.380,-0.380,-0.380,0.000,0.000,0.000
1641182367793754112,2022-01-03-03:59:27,10.1.1.2,182,-0.370,-0.370,-0.370,0.000,0.000,0.000
1641182367996046080,2022-01-03-03:59:27,10.1.1.2,184,-0.360,-0.360,-0.360,0.000,0.000,0.000
1641182368193603072,2022-01-03-03:59:28,10.1.1.2,180,-0.350,-0.350,-0.350,0.000,0.000,0.000
1641182368393665024,2022-01-03-03:59:28,10.1.1.2,180,-0.340,-0.340,-0.340,0.000,0.000,0.000
1641182368593508864,2022-01-03-03:59:28,10.1.1.2,178,-0.330,-0.330,-0.330,0.000,0.000,0.000
1641182368794852864,2022-01-03-03:59:28,10.1.1.2,179,-0.320,-0.320,-0.320,0.000,0.000,0.000
1641182368993722880,2022-01-03-03:59:28,10.1.1.2,177,-0.310,-0.310,-0.310,0.000,0.000,0.000
1641182369192670976,2022-01-03-03:59:29,10.1.1.2,174,-0.300,-0.300,-0.300,0.000,0.000,0.000
1641182369405585152,2022-01-03-03:59:29,10.1.1.2,187,-0.290,-0.290,-0.290,0.000,0.000,0.000
1641182369594520064,2022-01-03-03:59:29,10.1.1.2,174,-0.280,-0.280,-0.280,0.000,0.000,0.000
1641182369811956992,2022-01-03-03:59:29,10.1.1.2,191,-0.270,-0.270,-0.270,0.000,0.000,0.000
1641182370011931904,2022-01-03-03:59:30,10.1.1.2,191,-0.260,-0.260,-0.260,0.000,0.000,0.000
1641182370212517120,2022-01-03-03:59:30,10.1.1.2,189,-0.250,-0.250,-0.250,0.000,0.000,0.000
1641182370412189952,2022-01-03-03:59:30,10.1.1.2,188,-0.240,-0.240,-0.240,0.000,0.000,0.000
1641182370614718976,2022-01-03-03:59:30,10.1.1.2,189,-0.230,-0.230,-0.230,0.000,0.000,0.000
1641182371006056960,2022-01-03-03:59:31,10.1.1.2,179,-0.210,-0.210,-0.210,0.000,0.000,0.000
1641182371218874880,2022-01-03-03:59:31,10.1.1.2,190,-0.200,-0.200,-0.200,0.000,0.000,0.000
1641182371419090944,2022-01-03-03:59:31,10.1.1.2,188,-0.190,-0.190,-0.190,0.000,0.000,0.000
1641182371611087104,2022-01-03-03:59:31,10.1.1.2,179,-0.180,-0.180,-0.180,0.000,0.000,0.000
1641182371818514176,2022-01-03-03:59:31,10.1.1.2,185,-0.170,-0.170,-0.170,0.000,0.000,0.000
1641182372016710144,2022-01-03-03:59:32,10.1.1.2,183,-0.160,-0.160,-0.160,0.000,0.000,0.000
1641182372218002944,2022-01-03-03:59:32,10.1.1.2,182,-0.150,-0.150,-0.150,0.000,0.000,0.000
1641182372416816896,2022-01-03-03:59:32,10.1.1.2,178,-0.140,-0.140,-0.140,0.000,0.000,0.000
1641182372616348928,2022-01-03-03:59:32,10.1.1.2,177,-0.130,-0.130,-0.130,0.000,0.000,0.000
1641182372815218944,2022-01-03-03:59:32,10.1.1.2,175,-0.120,-0.120,-0.120,0.000,0.000,0.000
1641182373013936128,2022-01-03-03:59:33,10.1.1.2,173,-0.110,-0.110,-0.110,0.000,0.000,0.000
1641182373214050048,2022-01-03-03:59:33,10.1.1.2,172,-0.100,-0.100,-0.100,0.000,0.000,0.000
1641182373414861056,2022-01-03-03:59:33,10.1.1.2,172,-0.090,-0.090,-0.090,0.000,0.000,0.000
1641182373614497024,2022-01-03-03:59:33,10.1.1.2,171,-0.080,-0.080,-0.080,0.000,0.000,0.000
1641182373835033856,2022-01-03-03:59:33,10.1.1.2,188,-0.070,-0.070,-0.070,0.000,0.000,0.000
1641182374032648192,2022-01-03-03:59:34,10.1.1.2,183,-0.060,-0.060,-0.060,0.000,0.000,0.000
1641182374238167040,2022-01-03-03:59:34,10.1.1.2,188,-0.050,-0.050,-0.050,0.000,0.000,0.000
1641182374421908992,2022-01-03-03:59:34,10.1.1.2,171,-0.040,-0.040,-0.040,0.000,0.000,0.000
1641182374628856832,2022-01-03-03:59:34,10.1.1.2,175,-0.030,-0.030,-0.030,0.000,0.000,0.000
1641182374844697088,2022-01-03-03:59:34,10.1.1.2,188,-0.020,-0.020,-0.020,0.000,0.000,0.000
1641182375027986176,2022-01-03-03:59:35,10.1.1.2,170,-0.010,-0.010,-0.010,0.000,0.000,0.000
1641182375228830976,2022-01-03-03:59:35,10.1.1.2,170,0.000,0.000,0.000,0.000,0.000,0.000
1641182375428969984,2022-01-03-03:59:35,10.1.1.2,169,-0.010,-0.010,-0.010,0.000,0.000,0.000
1641182375645592064,2022-01-03-03:59:35,10.1.1.2,184,-0.020,-0.020,-0.020,0.000,0.000,0.000
1641182375847346944,2022-01-03-03:59:35,10.1.1.2,183,-0.030,-0.030,-0.030,0.000,0.000,0.000
1641182376046753024,2022-01-03-03:59:36,10.1.1.2,182,-0.040,-0.040,-0.040,0.000,0.000,0.000
1641182376245778176,2022-01-03-03:59:36,10.1.1.2,180,-0.050,-0.050,-0.050,0.000,0.000,0.000
1641182376446492928,2022-01-03-03:59:36,10.1.1.2,180,-0.060,-0.060,-0.060,0.000,0.000,0.000
1641182376645840896,2022-01-03-03:59:36,10.1.1.2,178,-0.070,-0.070,-0.070,0.000,0.000,0.000
1641182376669286912,2022-01-03-03:59:36,10.1.1.2,-1,-0.070,-0.070,-0.070,0.000,0.000,0.000
1641182377045031168,2022-01-03-03:59:37,10.1.1.2,175,-0.090,-0.090,-0.090,0.000,0.000,0.000
1641182377246103040,2022-01-03-03:59:37,10.1.1.2,176,-0.100,-0.100,-0.100,0.000,0.000,0.000
1641182377444576000,2022-01-03-03:59:37,10.1.1.2,173,-0.110,-0.110,-0.110,0.000,0.000,0.000
1641182377644880896,2022-01-03-03:59:37,10.1.1.2,170,-0.120,-0.120,-0.120,0.000,0.000,0.000
1641182377844552960,2022-01-03-03:59:37,10.1.1.2,166,-0.130,-0.130,-0.130,0.000,0.000,0.000
1641182378044261888,2022-01-03-03:59:38,10.1.1.2,166,-0.140,-0.140,-0.140,0.000,0.000,0.000
1641182378244079104,2022-01-03-03:59:38,10.1.1.2,164,-0.150,-0.150,-0.150,0.000,0.000,0.000
1641182378446310144,2022-01-03-03:59:38,10.1.1.2,166,-0.160,-0.160,-0.160,0.000,0.000,0.000
1641182378663741952,2022-01-03-03:59:38,10.1.1.2,182,-0.170,-0.170,-0.170,0.000,0.000,0.000
1641182378863508992,2022-01-03-03:59:38,10.1.1.2,179,-0.180,-0.180,-0.180,0.000,0.000,0.000
1641182379062568960,2022-01-03-03:59:39,10.1.1.2,177,-0.190,-0.190,-0.190,0.000,0.000,0.000
1641182379262849024,2022-01-03-03:59:39,10.1.1.2,177,-0.200,-0.200,-0.200,0.000,0.000,0.000
1641182379462668800,2022-01-03-03:59:39,10.1.1.2,176,-0.210,-0.210,-0.210,0.000,0.000,0.000
1641182379664836864,2022-01-03-03:59:39,10.1.1.2,177,-0.220,-0.220,-0.220,0.000,0.000,0.000
1641182379861433856,2022-01-03-03:59:39,10.1.1.2,172,-0.230,-0.230,-0.230,0.000,0.000,0.000
1641182380055279104,2022-01-03-03:59:40,10.1.1.2,165,-0.240,-0.240,-0.240,0.000,0.000,0.000
1641182380264302848,2022-01-03-03:59:40,10.1.1.2,173,-0.250,-0.250,-0.250,0.000,0.000,0.000
1641182380463437056,2022-01-03-03:59:40,10.1.1.2,172,-0.260,-0.260,-0.260,0.000,0.000,0.000
1641182380663806976,2022-01-03-03:59:40,10.1.1.2,171,-0.270,-0.270,-0.270,0.000,0.000,0.000
1641182380863385856,2022-01-03-03:59:40,10.1.1.2,170,-0.280,-0.280,-0.280,0.000,0.000,0.000
1641182381065213952,2022-01-03-03:59:41,10.1.1.2,171,-0.290,-0.290,-0.290,0.000,0.000,0.000
1641182381264401920,2022-01-03-03:59:41,10.1.1.2,170,-0.300,-0.300,-0.300,0.000,0.000,0.000
1641182381456418048,2022-01-03-03:59:41,10.1.1.2,160,-0.310,-0.310,-0.310,0.000,0.000,0.000
1641182381655837184,2022-01-03-03:59:41,10.1.1.2,159,-0.320,-0.320,-0.320,0.000,0.000,0.000
1641182381856039936,2022-01-03-03:59:41,10.1.1.2,159,-0.330,-0.330,-0.330,0.000,0.000,0.000
1641182382074921984,2022-01-03-03:59:42,10.1.1.2,177,-0.340,-0.340,-0.340,0.000,0.000,0.000
1641182382274839040,2022-01-03-03:59:42,10.1.1.2,175,-0.350,-0.350,-0.350,0.000,0.000,0.000
1641182382475357952,2022-01-03-03:59:42,10.1.1.2,175,-0.360,-0.360,-0.360,0.000,0.000,0.000
1641182382655491072,2022-01-03-03:59:42,10.1.1.2,153,-0.370,-0.370,-0.370,0.000,0.000,0.000
1641182382876602880,2022-01-03-03:59:42,10.1.1.2,173,-0.380,-0.380,-0.380,0.000,0.000,0.000
1641182383073654784,2022-01-03-03:59:43,10.1.1.2,169,-0.390,-0.390,-0.390,0.000,0.000,0.000
1641182383275540224,2022-01-03-03:59:43,10.1.1.2,170,-0.400,-0.400,-0.400,0.000,0.000,0.000
1641182383476079872,2022-01-03-03:59:43,10.1.1.2,169,-0.410,-0.410,-0.410,0.000,0.000,0.000
1641182383675479040,2022-01-03-03:59:43,10.1.1.2,168,-0.420,-0.420,-0.420,0.000,0.000,0.000
1641182383874402048,2022-01-03-03:59:43,10.1.1.2,166,-0.430,-0.430,-0.430,0.000,0.000,0.000
1641182384075052032,2022-01-03-03:59:44,10.1.1.2,163,-0.440,-0.440,-0.440,0.000,0.000,0.000
1641182384273366016,2022-01-03-03:59:44,10.1.1.2,161,-0.450,-0.450,-0.450,0.000,0.000,0.000
1641182384472616960,2022-01-03-03:59:44,10.1.1.2,159,-0.460,-0.460,-0.460,0.000,0.000,0.000
1641182384673257984,2022-01-03-03:59:44,10.1.1.2,159,-0.470,-0.470,-0.470,0.000,0.000,0.000
1641182384871540992,2022-01-03-03:59:44,10.1.1.2,156,-0.480,-0.480,-0.480,0.000,0.000,0.000
1641182385070169088,2022-01-03-03:59:45,10.1.1.2,154,-0.490,-0.490,-0.490,0.000,0.000,0.000
1641182385269838080,2022-01-03-03:59:45,10.1.1.2,152,-0.480,-0.480,-0.480,0.000,0.000,0.000
1641182385491023104,2022-01-03-03:59:45,10.1.1.2,172,-0.470,-0.470,-0.470,0.000,0.000,0.000
1641182385674722816,2022-01-03-03:59:45,10.1.1.2,155,-0.460,-0.460,-0.460,0.000,0.000,0.000
1641182385874150912,2022-01-03-03:59:45,10.1.1.2,153,-0.450,-0.450,-0.450,0.000,0.000,0.000
1641182386084587008,2022-01-03-03:59:46,10.1.1.2,163,-0.440,-0.440,-0.440,0.000,0.000,0.000
1641182386272954112,2022-01-03-03:59:46,10.1.1.2,151,-0.430,-0.430,-0.430,0.000,0.000,0.000
1641182386492669184,2022-01-03-03:59:46,10.1.1.2,169,-0.420,-0.420,-0.420,0.000,0.000,0.000
1641182386710993152,2022-01-03-03:59:46,10.1.1.2,187,-0.410,-0.410,-0.410,0.000,0.000,0.000
1641182386876418048,2022-01-03-03:59:46,10.1.1.2,152,-0.400,-0.400,-0.400,0.000,0.000,0.000
1641182387100812032,2022-01-03-03:59:47,10.1.1.2,175,-0.390,-0.390,-0.390,0.000,0.000,0.000
1641182387297272832,2022-01-03-03:59:47,10.1.1.2,171,-0.380,-0.380,-0.380,0.000,0.000,0.000
1641182387493577984,2022-01-03-03:59:47,10.1.1.2,166,-0.370,-0.370,-0.370,0.000,0.000,0.000
1641182387698919168,2022-01-03-03:59:47,10.1.1.2,171,-0.360,-0.360,-0.360,0.000,0.000,0.000
1641182387901042944,2022-01-03-03:59:47,10.1.1.2,171,-0.350,-0.350,-0.350,0.000,0.000,0.000
1641182388100267008,2022-01-03-03:59:48,10.1.1.2,168,-0.340,-0.340,-0.340,0.000,0.000,0.000
1641182388299726080,2022-01-03-03:59:48,10.1.1.2,167,-0.330,-0.330,-0.330,0.000,0.000,0.000
1641182388498831872,2022-01-03-03:59:48,10.1.1.2,163,-0.320,-0.320,-0.320,0.000,0.000,0.000
1641182388699820032,2022-01-03-03:59:48,10.1.1.2,163,-0.310,-0.310,-0.310,0.000,0.000,0.000
1641182388900279040,2022-01-03-03:59:48,10.1.1.2,163,-0.300,-0.300,-0.300,0.000,0.000,0.000
1641182389103100928,2022-01-03-03:59:49,10.1.1.2,165,-0.290,-0.290,-0.290,0.000,0.000,0.000
1641182389301148928,2022-01-03-03:59:49,10.1.1.2,161,-0.280,-0.280,-0.280,0.000,0.000,0.000
1641182389523485952,2022-01-03-03:59:49,10.1.1.2,181,-0.270,-0.270,-0.270,0.000,0.000,0.000
1641182389722443008,2022-01-03-03:59:49,10.1.1.2,179,-0.260,-0.260,-0.260,0.000,0.000,0.000
1641182389921803008,2022-01-03-03:59:49,10.1.1.2,178,-0.250,-0.250,-0.250,0.000,0.000,0.000
1641182390122265088,2022-01-03-03:59:50,10.1.1.2,177,-0.240,-0.240,-0.240,0.000,0.000,0.000
1641182390321104128,2022-01-03-03:59:50,10.1.1.2,175,-0.230,-0.230,-0.230,0.000,0.000,0.000
1641182390521532928,2022-01-03-03:59:50,10.1.1.2,175,-0.220,-0.220,-0.220,0.000,0.000,0.000
1641182390724524032,2022-01-03-03:59:50,10.1.1.2,177,-0.210,-0.210,-0.210,0.000,0.000,0.000
1641182390923630080,2022-01-03-03:59:50,10.1.1.2,174,-0.200,-0.200,-0.200,0.000,0.000,0.000
1641182391126746880,2022-01-03-03:59:51,10.1.1.2,172,-0.190,-0.190,-0.190,0.000,0.000,0.000
1641182391332375040,2022-01-03-03:59:51,10.1.1.2,175,-0.180,-0.180,-0.180,0.000,0.000,0.000
1641182391525625856,2022-01-03-03:59:51,10.1.1.2,167,-0.170,-0.170,-0.170,0.000,0.000,0.000
1641182391727371008,2022-01-03-03:59:51,10.1.1.2,168,-0.160,-0.160,-0.160,0.000,0.000,0.000
1641182391928137984,2022-01-03-03:59:51,10.1.1.2,168,-0.150,-0.150,-0.150,0.000,0.000,0.000
1641182392148296960,2022-01-03-03:59:52,10.1.1.2,187,-0.140,-0.140,-0.140,0.000,0.000,0.000
1641182392347600896,2022-01-03-03:59:52,10.1.1.2,184,-0.130,-0.130,-0.130,0.000,0.000,0.000
1641182392550340864,2022-01-03-03:59:52,10.1.1.2,186,-0.120,-0.120,-0.120,0.000,0.000,0.000
1641182392749052160,2022-01-03-03:59:52,10.1.1.2,184,-0.110,-0.110,-0.110,0.000,0.000,0.000
1641182392948966144,2022-01-03-03:59:52,10.1.1.2,183,-0.100,-0.100,-0.100,0.000,0.000,0.000
1641182393150060032,2022-01-03-03:59:53,10.1.1.2,182,-0.090,-0.090,-0.090,0.000,0.000,0.000
1641182393350415104,2022-01-03-03:59:53,10.1.1.2,182,-0.080,-0.080,-0.080,0.000,0.000,0.000
1641182393550391040,2022-01-03-03:59:53,10.1.1.2,181,-0.070,-0.070,-0.070,0.000,0.000,0.000
1641182393751260928,2022-01-03-03:59:53,10.1.1.2,180,-0.060,-0.060,-0.060,0.000,0.000,0.000
1641182393952222208,2022-01-03-03:59:53,10.1.1.2,180,-0.050,-0.050,-0.050,0.000,0.000,0.000
1641182394152452096,2022-01-03-03:59:54,10.1.1.2,180,-0.040,-0.040,-0.040,0.000,0.000,0.000
1641182394353121024,2022-01-03-03:59:54,10.1.1.2,179,-0.030,-0.030,-0.030,0.000,0.000,0.000
1641182394551558144,2022-01-03-03:59:54,10.1.1.2,176,-0.020,-0.020,-0.020,0.000,0.000,0.000
1641182394752067072,2022-01-03-03:59:54,10.1.1.2,176,-0.010,-0.010,-0.010,0.000,0.000,0.000
1641182394952836864,2022-01-03-03:59:54,10.1.1.2,175,0.000,0.000,0.000,0.000,0.000,0.000
1641182395155486976,2022-01-03-03:59:55,10.1.1.2,178,-0.010,-0.010,-0.010,0.000,0.000,0.000
1641182395353288960,2022-01-03-03:59:55,10.1.1.2,175,-0.020,-0.020,-0.020,0.000,0.000,0.000
1641182395561316096,2022-01-03-03:59:55,10.1.1.2,182,-0.030,-0.030,-0.030,0.000,0.000,0.000
1641182395771936768,2022-01-03-03:59:55,10.1.1.2,192,-0.040,-0.040,-0.040,0.000,0.000,0.000
1641182395971384064,2022-01-03-03:59:55,10.1.1.2,191,-0.050,-0.050,-0.050,0.000,0.000,0.000
1641182396172115968,2022-01-03-03:59:56,10.1.1.2,190,-0.060,-0.060,-0.060,0.000,0.000,0.000
1641182396372119808,2022-01-03-03:59:56,10.1.1.2,190,-0.070,-0.070,-0.070,0.000,0.000,0.000
1641182396573569024,2022-01-03-03:59:56,10.1.1.2,189,-0.080,-0.080,-0.080,0.000,0.000,0.000
1641182396980859904,2022-01-03-03:59:56,10.1.1.2,195,-0.100,-0.100,-0.100,0.000,0.000,0.000
1641182397172897024,2022-01-03-03:59:57,10.1.1.2,186,-0.110,-0.110,-0.110,0.000,0.000,0.000
1641182397372674816,2022-01-03-03:59:57,10.1.1.2,185,-0.120,-0.120,-0.120,0.000,0.000,0.000
1641182397775604992,2022-01-03-03:59:57,10.1.1.2,186,-0.140,-0.140,-0.140,0.000,0.000,0.000
1641182397985435136,2022-01-03-03:59:57,10.1.1.2,196,-0.150,-0.150,-0.150,0.000,0.000,0.000
1641182398170684928,2022-01-03-03:59:58,10.1.1.2,180,-0.160,-0.160,-0.160,0.000,0.000,0.000
1641182398371881984,2022-01-03-03:59:58,10.1.1.2,179,-0.170,-0.170,-0.170,0.000,0.000,0.000
1641182398772717056,2022-01-03-03:59:58,10.1.1.2,178,-0.190,-0.190,-0.190,0.000,0.000,0.000
1641182398971970048,2022-01-03-03:59:58,10.1.1.2,177,-0.200,-0.200,-0.200,0.000,0.000,0.000
1641182399171394048,2022-01-03-03:59:59,10.1.1.2,175,-0.210,-0.210,-0.210,0.000,0.000,0.000
1641182399372219136,2022-01-03-03:59:59,10.1.1.2,175,-0.220,-0.220,-0.220,0.000,0.000,0.000
1641182399594830080,2022-01-03-03:59:59,10.1.1.2,195,-0.230,-0.230,-0.230,0.000,0.000,0.000
1641182399791249152,2022-01-03-03:59:59,10.1.1.2,190,-0.240,-0.240,-0.240,0.000,0.000,0.000
1641182399991890944,2022-01-03-03:59:59,10.1.1.2,189,-0.250,-0.250,-0.250,0.000,0.000,0.000
1641182400199354880,2022-01-03-04:00:00,10.1.1.2,196,-0.260,-0.260,-0.260,0.000,0.000,0.000
1641182400391362048,2022-01-03-04:00:00,10.1.1.2,187,-0.270,-0.270,-0.270,0.000,0.000,0.000
1641182400591438080,2022-01-03-04:00:00,10.1.1.2,186,-0.280,-0.280,-0.280,0.000,0.000,0.000
1641182401180901120,2022-01-03-04:00:01,10.1.1.2,173,-0.310,-0.310,-0.310,0.000,0.000,0.000
1641182401391571968,2022-01-03-04:00:01,10.1.1.2,183,-0.320,-0.320,-0.320,0.000,0.000,0.000
1641182401798100992,2022-01-03-04:00:01,10.1.1.2,188,-0.340,-0.340,-0.340,0.000,0.000,0.000
1641182402006999040,2022-01-03-04:00:02,10.1.1.2,196,-0.350,-0.350,-0.350,0.000,0.000,0.000
1641182402194492928,2022-01-03-04:00:02,10.1.1.2,181,-0.360,-0.360,-0.360,0.000,0.000,0.000
1641182402394130944,2022-01-03-04:00:02,10.1.1.2,178,-0.370,-0.370,-0.370,0.000,0.000,0.000
1641182402593768960,2022-01-03-04:00:02,10.1.1.2,177,-0.380,-0.380,-0.380,0.000,0.000,0.000
1641182402794169856,2022-01-03-04:00:02,10.1.1.2,176,-0.390,-0.390,-0.390,0.000,0.000,0.000
1641182402819862016,2022-01-03-04:00:02,10.1.1.2,-1,-0.390,-0.390,-0.390,0.000,0.000,0.000
1641182403197511936,2022-01-03-04:00:03,10.1.1.2,177,-0.410,-0.410,-0.410,0.000,0.000,0.000
1641182403417455872,2022-01-03-04:00:03,10.1.1.2,194,-0.420,-0.420,-0.420,0.000,0.000,0.000
1641182403592030976,2022-01-03-04:00:03,10.1.1.2,168,-0.430,-0.430,-0.430,0.000,0.000,0.000
1641182403817950976,2022-01-03-04:00:03,10.1.1.2,193,-0.440,-0.440,-0.440,0.000,0.000,0.000
1641182404013846016,2022-01-03-04:00:04,10.1.1.2,188,-0.450,-0.450,-0.450,0.000,0.000,0.000
1641182404211726848,2022-01-03-04:00:04,10.1.1.2,185,-0.460,-0.460,-0.460,0.000,0.000,0.000
1641182404407396096,2022-01-03-04:00:04,10.1.1.2,179,-0.470,-0.470,-0.470,0.000,0.000,0.000
1641182404614270976,2022-01-03-04:00:04,10.1.1.2,186,-0.480,-0.480,-0.480,0.000,0.000,0.000
1641182404806580992,2022-01-03-04:00:04,10.1.1.2,177,-0.490,-0.490,-0.490,0.000,0.000,0.000
1641182405007589120,2022-01-03-04:00:05,10.1.1.2,177,-0.480,-0.480,-0.480,0.000,0.000,0.000
1641182405206223872,2022-01-03-04:00:05,10.1.1.2,175,-0.470,-0.470,-0.470,0.000,0.000,0.000
1641182405414583040,2022-01-03-04:00:05,10.1.1.2,182,-0.460,-0.460,-0.460,0.000,0.000,0.000
1641182405613276928,2022-01-03-04:00:05,10.1.1.2,181,-0.450,-0.450,-0.450,0.000,0.000,0.000
1641182405813698048,2022-01-03-04:00:05,10.1.1.2,180,-0.440,-0.440,-0.440,0.000,0.000,0.000
1641182406012470016,2022-01-03-04:00:06,10.1.1.2,178,-0.430,-0.430,-0.430,0.000,0.000,0.000
1641182406214998016,2022-01-03-04:00:06,10.1.1.2,177,-0.420,-0.420,-0.420,0.000,0.000,0.000
1641182406412160000,2022-01-03-04:00:06,10.1.1.2,174,-0.410,-0.410,-0.410,0.000,0.000,0.000
1641182406611954944,2022-01-03-04:00:06,10.1.1.2,173,-0.400,-0.400,-0.400,0.000,0.000,0.000
1641182406811708928,2022-01-03-04:00:06,10.1.1.2,171,-0.390,-0.390,-0.390,0.000,0.000,0.000
1641182407014432000,2022-01-03-04:00:07,10.1.1.2,174,-0.380,-0.380,-0.380,0.000,0.000,0.000
1641182407211054080,2022-01-03-04:00:07,10.1.1.2,168,-0.370,-0.370,-0.370,0.000,0.000,0.000
1641182407412622080,2022-01-03-04:00:07,10.1.1.2,168,-0.360,-0.360,-0.360,0.000,0.000,0.000
1641182407623867136,2022-01-03-04:00:07,10.1.1.2,176,-0.350,-0.350,-0.350,0.000,0.000,0.000
1641182407822503168,2022-01-03-04:00:07,10.1.1.2,174,-0.340,-0.340,-0.340,0.000,0.000,0.000
1641182408023025920,2022-01-03-04:00:08,10.1.1.2,174,-0.330,-0.330,-0.330,0.000,0.000,0.000
1641182408223324928,2022-01-03-04:00:08,10.1.1.2,173,-0.320,-0.320,-0.320,0.000,0.000,0.000
1641182408433331968,2022-01-03-04:00:08,10.1.1.2,182,-0.310,-0.310,-0.310,0.000,0.000,0.000
1641182408631892992,2022-01-03-04:00:08,10.1.1.2,180,-0.300,-0.300,-0.300,0.000,0.000,0.000
1641182408824170240,2022-01-03-04:00:08,10.1.1.2,171,-0.290,-0.290,-0.290,0.000,0.000,0.000
1641182409025410816,2022-01-03-04:00:09,10.1.1.2,171,-0.280,-0.280,-0.280,0.000,0.000,0.000
1641182409224678912,2022-01-03-04:00:09,10.1.1.2,170,-0.270,-0.270,-0.270,0.000,0.000,0.000
1641182409423342080,2022-01-03-04:00:09,10.1.1.2,167,-0.260,-0.260,-0.260,0.000,0.000,0.000
1641182409623868928,2022-01-03-04:00:09,10.1.1.2,165,-0.250,-0.250,-0.250,0.000,0.000,0.000
1641182409823695872,2022-01-03-04:00:09,10.1.1.2,165,-0.240,-0.240,-0.240,0.000,0.000,0.000
1641182410042507776,2022-01-03-04:00:10,10.1.1.2,179,-0.230,-0.230,-0.230,0.000,0.000,0.000
1641182410252321024,2022-01-03-04:00:10,10.1.1.2,187,-0.220,-0.220,-0.220,0.000,0.000,0.000
1641182410449899008,2022-01-03-04:00:10,10.1.1.2,183,-0.210,-0.210,-0.210,0.000,0.000,0.000
1641182410638645760,2022-01-03-04:00:10,10.1.1.2,171,-0.200,-0.200,-0.200,0.000,0.000,0.000
1641182410838119936,2022-01-03-04:00:10,10.1.1.2,170,-0.190,-0.190,-0.190,0.000,0.000,0.000
1641182411038260992,2022-01-03-04:00:11,10.1.1.2,169,-0.180,-0.180,-0.180,0.000,0.000,0.000
1641182411239008000,2022-01-03-04:00:11,10.1.1.2,169,-0.170,-0.170,-0.170,0.000,0.000,0.000
1641182411442769920,2022-01-03-04:00:11,10.1.1.2,172,-0.160,-0.160,-0.160,0.000,0.000,0.000
1641182411647156992,2022-01-03-04:00:11,10.1.1.2,174,-0.150,-0.150,-0.150,0.000,0.000,0.000
1641182411849519872,2022-01-03-04:00:11,10.1.1.2,176,-0.140,-0.140,-0.140,0.000,0.000,0.000
1641182412036587008,2022-01-03-04:00:12,10.1.1.2,162,-0.130,-0.130,-0.130,0.000,0.000,0.000
1641182412236929024,2022-01-03-04:00:12,10.1.1.2,161,-0.120,-0.120,-0.120,0.000,0.000,0.000
1641182412444140800,2022-01-03-04:00:12,10.1.1.2,168,-0.110,-0.110,-0.110,0.000,0.000,0.000
1641182412658750976,2022-01-03-04:00:12,10.1.1.2,181,-0.100,-0.100,-0.100,0.000,0.000,0.000
1641182412856313856,2022-01-03-04:00:12,10.1.1.2,176,-0.090,-0.090,-0.090,0.000,0.000,0.000
1641182413056328960,2022-01-03-04:00:13,10.1.1.2,175,-0.080,-0.080,-0.080,0.000,0.000,0.000
1641182413444504064,2022-01-03-04:00:13,10.1.1.2,162,-0.060,-0.060,-0.060,0.000,0.000,0.000
1641182413643439104,2022-01-03-04:00:13,10.1.1.2,160,-0.050,-0.050,-0.050,0.000,0.000,0.000
1641182413859234048,2022-01-03-04:00:13,10.1.1.2,174,-0.040,-0.040,-0.040,0.000,0.000,0.000
1641182414043941888,2022-01-03-04:00:14,10.1.1.2,157,-0.030,-0.030,-0.030,0.000,0.000,0.000
1641182414263683072,2022-01-03-04:00:14,10.1.1.2,177,-0.020,-0.020,-0.020,0.000,0.000,0.000
1641182414466177024,2022-01-03-04:00:14,10.1.1.2,177,-0.010,-0.010,-0.010,0.000,0.000,0.000
1641182414664866048,2022-01-03-04:00:14,10.1.1.2,174,0.000,0.000,0.000,0.000,0.000,0.000
1641182414860919040,2022-01-03-04:00:14,10.1.1.2,170,-0.010,-0.010,-0.010,0.000,0.000,0.000
1641182415060601088,2022-01-03-04:00:15,10.1.1.2,168,-0.020,-0.020,-0.020,0.000,0.000,0.000
1641182415266583040,2022-01-03-04:00:15,10.1.1.2,168,-0.030,-0.030,-0.030,0.000,0.000,0.000
1641182415462405888,2022-01-03-04:00:15,10.1.1.2,165,-0.040,-0.040,-0.040,0.000,0.000,0.000
1641182415662821888,2022-01-03-04:00:15,10.1.1.2,165,-0.050,-0.050,-0.050,0.000,0.000,0.000
1641182415879240960,2022-01-03-04:00:15,10.1.1.2,180,-0.060,-0.060,-0.060,0.000,0.000,0.000
1641182416079140864,2022-01-03-04:00:16,10.1.1.2,177,-0.070,-0.070,-0.070,0.000,0.000,0.000
1641182416274292992,2022-01-03-04:00:16,10.1.1.2,170,-0.080,-0.080,-0.080,0.000,0.000,0.000
1641182416478457088,2022-01-03-04:00:16,10.1.1.2,175,-0.090,-0.090,-0.090,0.000,0.000,0.000
1641182416672673024,2022-01-03-04:00:16,10.1.1.2,168,-0.100,-0.100,-0.100,0.000,0.000,0.000
1641182416871484160,2022-01-03-04:00:16,10.1.1.2,166,-0.110,-0.110,-0.110,0.000,0.000,0.000
1641182417072071936,2022-01-03-04:00:17,10.1.1.2,166,-0.120,-0.120,-0.120,0.000,0.000,0.000
1641182417276992000,2022-01-03-04:00:17,10.1.1.2,170,-0.130,-0.130,-0.130,0.000,0.000,0.000
1641182417472598016,2022-01-03-04:00:17,10.1.1.2,165,-0.140,-0.140,-0.140,0.000,0.000,0.000
1641182417676753920,2022-01-03-04:00:17,10.1.1.2,169,-0.150,-0.150,-0.150,0.000,0.000,0.000
1641182417871335936,2022-01-03-04:00:17,10.1.1.2,162,-0.160,-0.160,-0.160,0.000,0.000,0.000
1641182418070619136,2022-01-03-04:00:18,10.1.1.2,161,-0.170,-0.170,-0.170,0.000,0.000,0.000
1641182418269912832,2022-01-03-04:00:18,10.1.1.2,160,-0.180,-0.180,-0.180,0.000,0.000,0.000
1641182418469829120,2022-01-03-04:00:18,10.1.1.2,157,-0.190,-0.190,-0.190,0.000,0.000,0.000
1641182418670604032,2022-01-03-04:00:18,10.1.1.2,157,-0.200,-0.200,-0.200,0.000,0.000,0.000
1641182418868404992,2022-01-03-04:00:18,10.1.1.2,153,-0.210,-0.210,-0.210,0.000,0.000,0.000
1641182419070080000,2022-01-03-04:00:19,10.1.1.2,153,-0.220,-0.220,-0.220,0.000,0.000,0.000
1641182419308113152,2022-01-03-04:00:19,10.1.1.2,190,-0.230,-0.230,-0.230,0.000,0.000,0.000
1641182419477641216,2022-01-03-04:00:19,10.1.1.2,159,-0.240,-0.240,-0.240,0.000,0.000,0.000
1641182419681518080,2022-01-03-04:00:19,10.1.1.2,162,-0.250,-0.250,-0.250,0.000,0.000,0.000
1641182419879057920,2022-01-03-04:00:19,10.1.1.2,159,-0.260,-0.260,-0.260,0.000,0.000,0.000
1641182420080905984,2022-01-03-04:00:20,10.1.1.2,160,-0.270,-0.270,-0.270,0.000,0.000,0.000
1641182420313455104,2022-01-03-04:00:20,10.1.1.2,189,-0.280,-0.280,-0.280,0.000,0.000,0.000
1641182420516740096,2022-01-03-04:00:20,10.1.1.2,192,-0.290,-0.290,-0.290,0.000,0.000,0.000
1641182420701724160,2022-01-03-04:00:20,10.1.1.2,176,-0.300,-0.300,-0.300,0.000,0.000,0.000
1641182420900982016,2022-01-03-04:00:20,10.1.1.2,175,-0.310,-0.310,-0.310,0.000,0.000,0.000
1641182421102096128,2022-01-03-04:00:21,10.1.1.2,175,-0.320,-0.320,-0.320,0.000,0.000,0.000
1641182421512825088,2022-01-03-04:00:21,10.1.1.2,183,-0.340,-0.340,-0.340,0.000,0.000,0.000
1641182421705996032,2022-01-03-04:00:21,10.1.1.2,172,-0.350,-0.350,-0.350,0.000,0.000,0.000
1641182421899272960,2022-01-03-04:00:21,10.1.1.2,165,-0.360,-0.360,-0.360,0.000,0.000,0.000
1641182422102210048,2022-01-03-04:00:22,10.1.1.2,165,-0.370,-0.370,-0.370,0.000,0.000,0.000
1641182422300080128,2022-01-03-04:00:22,10.1.1.2,163,-0.380,-0.380,-0.380,0.000,0.000,0.000
1641182422529594880,2022-01-03-04:00:22,10.1.1.2,191,-0.390,-0.390,-0.390,0.000,0.000,0.000
1641182422705187072,2022-01-03-04:00:22,10.1.1.2,165,-0.400,-0.400,-0.400,0.000,0.000,0.000
1641182422908888064,2022-01-03-04:00:22,10.1.1.2,167,-0.410,-0.410,-0.410,0.000,0.000,0.000
1641182423133313792,2022-01-03-04:00:23,10.1.1.2,190,-0.420,-0.420,-0.420,0.000,0.000,0.000
1641182423324585984,2022-01-03-04:00:23,10.1.1.2,181,-0.430,-0.430,-0.430,0.000,0.000,0.000
1641182423524291072,2022-01-03-04:00:23,10.1.1.2,180,-0.440,-0.440,-0.440,0.000,0.000,0.000
1641182423724876032,2022-01-03-04:00:23,10.1.1.2,180,-0.450,-0.450,-0.450,0.000,0.000,0.000
1641182423925050112,2022-01-03-04:00:23,10.1.1.2,179,-0.460,-0.460,-0.460,0.000,0.000,0.000
1641182424115529984,2022-01-03-04:00:24,10.1.1.2,169,-0.470,-0.470,-0.470,0.000,0.000,0.000
1641182424338094848,2022-01-03-04:00:24,10.1.1.2,190,-0.480,-0.480,-0.480,0.000,0.000,0.000
1641182424519721984,2022-01-03-04:00:24,10.1.1.2,171,-0.490,-0.490,-0.490,0.000,0.000,0.000
1641182424727910912,2022-01-03-04:00:24,10.1.1.2,178,-0.480,-0.480,-0.480,0.000,0.000,0.000
1641182424930792192,2022-01-03-04:00:24,10.1.1.2,180,-0.470,-0.470,-0.470,0.000,0.000,0.000
1641182425122370048,2022-01-03-04:00:25,10.1.1.2,171,-0.460,-0.460,-0.460,0.000,0.000,0.000
1641182425531035904,2022-01-03-04:00:25,10.1.1.2,175,-0.440,-0.440,-0.440,0.000,0.000,0.000
1641182425732295936,2022-01-03-04:00:25,10.1.1.2,174,-0.430,-0.430,-0.430,0.000,0.000,0.000
1641182425931144960,2022-01-03-04:00:25,10.1.1.2,174,-0.420,-0.420,-0.420,0.000,0.000,0.000
1641182426335869952,2022-01-03-04:00:26,10.1.1.2,173,-0.400,-0.400,-0.400,0.000,0.000,0.000
1641182426533417984,2022-01-03-04:00:26,10.1.1.2,170,-0.390,-0.390,-0.390,0.000,0.000,0.000
1641182426754352128,2022-01-03-04:00:26,10.1.1.2,190,-0.380,-0.380,-0.380,0.000,0.000,0.000
1641182426954999040,2022-01-03-04:00:26,10.1.1.2,190,-0.370,-0.370,-0.370,0.000,0.000,0.000
1641182427154928896,2022-01-03-04:00:27,10.1.1.2,189,-0.360,-0.360,-0.360,0.000,0.000,0.000
1641182427355653888,2022-01-03-04:00:27,10.1.1.2,189,-0.350,-0.350,-0.350,0.000,0.000,0.000
1641182427557225984,2022-01-03-04:00:27,10.1.1.2,189,-0.340,-0.340,-0.340,0.000,0.000,0.000
1641182427755600896,2022-01-03-04:00:27,10.1.1.2,187,-0.330,-0.330,-0.330,0.000,0.000,0.000
1641182427955493888,2022-01-03-04:00:27,10.1.1.2,186,-0.320,-0.320,-0.320,0.000,0.000,0.000
1641182428159182080,2022-01-03-04:00:28,10.1.1.2,189,-0.310,-0.310,-0.310,0.000,0.000,0.000
1641182428363291904,2022-01-03-04:00:28,10.1.1.2,191,-0.300,-0.300,-0.300,0.000,0.000,0.000
1641182428554169856,2022-01-03-04:00:28,10.1.1.2,182,-0.290,-0.290,-0.290,0.000,0.000,0.000
1641182428763245056,2022-01-03-04:00:28,10.1.1.2,191,-0.280,-0.280,-0.280,0.000,0.000,0.000
1641182428972270848,2022-01-03-04:00:28,10.1.1.2,199,-0.270,-0.270,-0.270,0.000,0.000,0.000
1641182429155170048,2022-01-03-04:00:29,10.1.1.2,181,-0.260,-0.260,-0.260,0.000,0.000,0.000
1641182429354383872,2022-01-03-04:00:29,10.1.1.2,179,-0.250,-0.250,-0.250,0.000,0.000,0.000
1641182429554519040,2022-01-03-04:00:29,10.1.1.2,179,-0.240,-0.240,-0.240,0.000,0.000,0.000
1641182429754841088,2022-01-03-04:00:29,10.1.1.2,179,-0.230,-0.230,-0.230,0.000,0.000,0.000
1641182429955796992,2022-01-03-04:00:29,10.1.1.2,179,-0.220,-0.220,-0.220,0.000,0.000,0.000
1641182430154369024,2022-01-03-04:00:30,10.1.1.2,177,-0.210,-0.210,-0.210,0.000,0.000,0.000
1641182430354907136,2022-01-03-04:00:30,10.1.1.2,176,-0.200,-0.200,-0.200,0.000,0.000,0.000
1641182430757975040,2022-01-03-04:00:30,10.1.1.2,178,-0.180,-0.180,-0.180,0.000,0.000,0.000
1641182430958286080,2022-01-03-04:00:30,10.1.1.2,176,-0.170,-0.170,-0.170,0.000,0.000,0.000
1641182431157295104,2022-01-03-04:00:31,10.1.1.2,174,-0.160,-0.160,-0.160,0.000,0.000,0.000
1641182431358028800,2022-01-03-04:00:31,10.1.1.2,174,-0.150,-0.150,-0.150,0.000,0.000,0.000
1641182431558192128,2022-01-03-04:00:31,10.1.1.2,174,-0.140,-0.140,-0.140,0.000,0.000,0.000
1641182431773025024,2022-01-03-04:00:31,10.1.1.2,188,-0.130,-0.130,-0.130,0.000,0.000,0.000
1641182431985407232,2022-01-03-04:00:31,10.1.1.2,199,-0.120,-0.120,-0.120,0.000,0.000,0.000
1641182432169140224,2022-01-03-04:00:32,10.1.1.2,182,-0.110,-0.110,-0.110,0.000,0.000,0.000
1641182432373068032,2022-01-03-04:00:32,10.1.1.2,185,-0.100,-0.100,-0.100,0.000,0.000,0.000
1641182432579977984,2022-01-03-04:00:32,10.1.1.2,191,-0.090,-0.090,-0.090,0.000,0.000,0.000
1641182432775284992,2022-01-03-04:00:32,10.1.1.2,181,-0.080,-0.080,-0.080,0.000,0.000,0.000
1641182432978045952,2022-01-03-04:00:32,10.1.1.2,182,-0.070,-0.070,-0.070,0.000,0.000,0.000
1641182433173182976,2022-01-03-04:00:33,10.1.1.2,176,-0.060,-0.060,-0.060,0.000,0.000,0.000
1641182433372771072,2022-01-03-04:00:33,10.1.1.2,175,-0.050,-0.050,-0.050,0.000,0.000,0.000
1641182433580349952,2022-01-03-04:00:33,10.1.1.2,181,-0.040,-0.040,-0.040,0.000,0.000,0.000
1641182433787276032,2022-01-03-04:00:33,10.1.1.2,184,-0.030,-0.030,-0.030,0.000,0.000,0.000
1641182433995937024,2022-01-03-04:00:33,10.1.1.2,193,-0.020,-0.020,-0.020,0.000,0.000,0.000
1641182434188681984,2022-01-03-04:00:34,10.1.1.2,186,-0.010,-0.010,-0.010,0.000,0.000,0.000
1641182434376281088,2022-01-03-04:00:34,10.1.1.2,173,0.000,0.000,0.000,0.000,0.000,0.000
1641182434578011904,2022-01-03-04:00:34,10.1.1.2,173,-0.010,-0.010,-0.010,0.000,0.000,0.000
1641182434796210944,2022-01-03-04:00:34,10.1.1.2,190,-0.020,-0.020,-0.020,0.000,0.000,0.000
1641182434996519168,2022-01-03-04:00:34,10.1.1.2,181,-0.030,-0.030,-0.030,0.000,0.000,0.000
1641182435197609984,2022-01-03-04:00:35,10.1.1.2,180,-0.040,-0.040,-0.040,0.000,0.000,0.000
1641182435390703872,2022-01-03-04:00:35,10.1.1.2,172,-0.050,-0.050,-0.050,0.000,0.000,0.000
1641182435590897920,2022-01-03-04:00:35,10.1.1.2,170,-0.060,-0.060,-0.060,0.000,0.000,0.000
1641182435809746944,2022-01-03-04:00:35,10.1.1.2,189,-0.070,-0.070,-0.070,0.000,0.000,0.000
1641182436010110976,2022-01-03-04:00:36,10.1.1.2,188,-0.080,-0.080,-0.080,0.000,0.000,0.000
1641182436194486016,2022-01-03-04:00:36,10.1.1.2,172,-0.090,-0.090,-0.090,0.000,0.000,0.000
1641182436392879872,2022-01-03-04:00:36,10.1.1.2,169,-0.100,-0.100,-0.100,0.000,0.000,0.000
1641182436614563840,2022-01-03-04:00:36,10.1.1.2,190,-0.110,-0.110,-0.110,0.000,0.000,0.000
1641182436813025024,2022-01-03-04:00:36,10.1.1.2,185,-0.120,-0.120,-0.120,0.000,0.000,0.000
1641182437012249088,2022-01-03-04:00:37,10.1.1.2,184,-0.130,-0.130,-0.130,0.000,0.000,0.000
1641182437212069888,2022-01-03-04:00:37,10.1.1.2,183,-0.140,-0.140,-0.140,0.000,0.000,0.000
1641182437412200960,2022-01-03-04:00:37,10.1.1.2,182,-0.150,-0.150,-0.150,0.000,0.000,0.000
1641182437612043008,2022-01-03-04:00:37,10.1.1.2,181,-0.160,-0.160,-0.160,0.000,0.000,0.000
1641182437809874176,2022-01-03-04:00:37,10.1.1.2,178,-0.170,-0.170,-0.170,0.000,0.000,0.000
1641182438010662912,2022-01-03-04:00:38,10.1.1.2,179,-0.180,-0.180,-0.180,0.000,0.000,0.000
1641182438218552064,2022-01-03-04:00:38,10.1.1.2,186,-0.190,-0.190,-0.190,0.000,0.000,0.000
1641182438410376192,2022-01-03-04:00:38,10.1.1.2,176,-0.200,-0.200,-0.200,0.000,0.000,0.000
1641182438610706176,2022-01-03-04:00:38,10.1.1.2,175,-0.210,-0.210,-0.210,0.000,0.000,0.000
1641182438829846016,2022-01-03-04:00:38,10.1.1.2,190,-0.220,-0.220,-0.220,0.000,0.000,0.000
1641182439012090880,2022-01-03-04:00:39,10.1.1.2,171,-0.230,-0.230,-0.230,0.000,0.000,0.000
1641182439229324032,2022-01-03-04:00:39,10.1.1.2,181,-0.240,-0.240,-0.240,0.000,0.000,0.000
1641182439428039936,2022-01-03-04:00:39,10.1.1.2,179,-0.250,-0.250,-0.250,0.000,0.000,0.000
1641182439628611072,2022-01-03-04:00:39,10.1.1.2,178,-0.260,-0.260,-0.260,0.000,0.000,0.000
1641182439828558080,2022-01-03-04:00:39,10.1.1.2,177,-0.270,-0.270,-0.270,0.000,0.000,0.000
1641182440029526016,2022-01-03-04:00:40,10.1.1.2,176,-0.280,-0.280,-0.280,0.000,0.000,0.000
1641182440229368832,2022-01-03-04:00:40,10.1.1.2,175,-0.290,-0.290,-0.290,0.000,0.000,0.000
1641182440432066816,2022-01-03-04:00:40,10.1.1.2,178,-0.300,-0.300,-0.300,0.000,0.000,0.000
1641182440631716096,2022-01-03-04:00:40,10.1.1.2,177,-0.310,-0.310,-0.310,0.000,0.000,0.000
1641182440826825984,2022-01-03-04:00:40,10.1.1.2,168,-0.320,-0.320,-0.320,0.000,0.000,0.000
1641182441025988096,2022-01-03-04:00:41,10.1.1.2,166,-0.330,-0.330,-0.330,0.000,0.000,0.000
1641182441249596160,2022-01-03-04:00:41,10.1.1.2,185,-0.340,-0.340,-0.340,0.000,0.000,0.000
1641182441447374080,2022-01-03-04:00:41,10.1.1.2,180,-0.350,-0.350,-0.350,0.000,0.000,0.000
1641182441628931072,2022-01-03-04:00:41,10.1.1.2,161,-0.360,-0.360,-0.360,0.000,0.000,0.000
1641182441835987200,2022-01-03-04:00:41,10.1.1.2,166,-0.370,-0.370,-0.370,0.000,0.000,0.000
1641182442036696064,2022-01-03-04:00:42,10.1.1.2,165,-0.380,-0.380,-0.380,0.000,0.000,0.000
1641182442240730880,2022-01-03-04:00:42,10.1.1.2,168,-0.390,-0.390,-0.390,0.000,0.000,0.000
1641182442441880832,2022-01-03-04:00:42,10.1.1.2,167,-0.400,-0.400,-0.400,0.000,0.000,0.000
1641182442645540864,2022-01-03-04:00:42,10.1.1.2,170,-0.410,-0.410,-0.410,0.000,0.000,0.000
1641182442843059968,2022-01-03-04:00:42,10.1.1.2,167,-0.420,-0.420,-0.420,0.000,0.000,0.000
1641182443052165888,2022-01-03-04:00:43,10.1.1.2,175,-0.430,-0.430,-0.430,0.000,0.000,0.000
1641182443249073920,2022-01-03-04:00:43,10.1.1.2,171,-0.440,-0.440,-0.440,0.000,0.000,0.000
1641182443473692928,2022-01-03-04:00:43,10.1.1.2,195,-0.450,-0.450,-0.450,0.000,0.000,0.000
1641182443643294208,2022-01-03-04:00:43,10.1.1.2,164,-0.460,-0.460,-0.460,0.000,0.000,0.000
1641182443843806976,2022-01-03-04:00:43,10.1.1.2,163,-0.470,-0.470,-0.470,0.000,0.000,0.000
1641182444046870016,2022-01-03-04:00:44,10.1.1.2,166,-0.480,-0.480,-0.480,0.000,0.000,0.000
1641182444241604096,2022-01-03-04:00:44,10.1.1.2,160,-0.490,-0.490,-0.490,0.000,0.000,0.000
1641182444451531008,2022-01-03-04:00:44,10.1.1.2,169,-0.480,-0.480,-0.480,0.000,0.000,0.000
1641182444661497088,2022-01-03-04:00:44,10.1.1.2,178,-0.470,-0.470,-0.470,0.000,0.000,0.000
1641182444860246016,2022-01-03-04:00:44,10.1.1.2,176,-0.460,-0.460,-0.460,0.000,0.000,0.000
1641182445071350016,2022-01-03-04:00:45,10.1.1.2,186,-0.450,-0.450,-0.450,0.000,0.000,0.000
1641182445261357056,2022-01-03-04:00:45,10.1.1.2,175,-0.440,-0.440,-0.440,0.000,0.000,0.000
1641182445456859136,2022-01-03-04:00:45,10.1.1.2,168,-0.430,-0.430,-0.430,0.000,0.000,0.000
1641182445657560064,2022-01-03-04:00:45,10.1.1.2,168,-0.420,-0.420,-0.420,0.000,0.000,0.000
1641182445857014016,2022-01-03-04:00:45,10.1.1.2,167,-0.410,-0.410,-0.410,0.000,0.000,0.000
1641182446058201088,2022-01-03-04:00:46,10.1.1.2,166,-0.400,-0.400,-0.400,0.000,0.000,0.000
1641182446257914112,2022-01-03-04:00:46,10.1.1.2,165,-0.390,-0.390,-0.390,0.000,0.000,0.000
1641182446456048128,2022-01-03-04:00:46,10.1.1.2,162,-0.380,-0.380,-0.380,0.000,0.000,0.000
1641182446654362880,2022-01-03-04:00:46,10.1.1.2,160,-0.370,-0.370,-0.370,0.000,0.000,0.000
1641182446855412992,2022-01-03-04:00:46,10.1.1.2,159,-0.360,-0.360,-0.360,0.000,0.000,0.000
1641182447056246016,2022-01-03-04:00:47,10.1.1.2,158,-0.350,-0.350,-0.350,0.000,0.000,0.000
1641182447254714880,2022-01-03-04:00:47,10.1.1.2,156,-0.340,-0.340,-0.340,0.000,0.000,0.000
1641182447455334912,2022-01-03-04:00:47,10.1.1.2,155,-0.330,-0.330,-0.330,0.000,0.000,0.000
1641182447675355904,2022-01-03-04:00:47,10.1.1.2,173,-0.320,-0.320,-0.320,0.000,0.000,0.000
1641182447854317056,2022-01-03-04:00:47,10.1.1.2,153,-0.310,-0.310,-0.310,0.000,0.000,0.000
1641182448073111040,2022-01-03-04:00:48,10.1.1.2,171,-0.300,-0.300,-0.300,0.000,0.000,0.000
1641182448302337024,2022-01-03-04:00:48,10.1.1.2,198,-0.290,-0.290,-0.290,0.000,0.000,0.000
1641182448460304128,2022-01-03-04:00:48,10.1.1.2,156,-0.280,-0.280,-0.280,0.000,0.000,0.000
1641182448679940864,2022-01-03-04:00:48,10.1.1.2,174,-0.270,-0.270,-0.270,0.000,0.000,0.000
1641182448878961920,2022-01-03-04:00:48,10.1.1.2,172,-0.260,-0.260,-0.260,0.000,0.000,0.000
1641182449076779008,2022-01-03-04:00:49,10.1.1.2,169,-0.250,-0.250,-0.250,0.000,0.000,0.000
1641182449277090048,2022-01-03-04:00:49,10.1.1.2,169,-0.240,-0.240,-0.240,0.000,0.000,0.000
1641182449499564032,2022-01-03-04:00:49,10.1.1.2,191,-0.230,-0.230,-0.230,0.000,0.000,0.000
1641182449669976064,2022-01-03-04:00:49,10.1.1.2,160,-0.220,-0.220,-0.220,0.000,0.000,0.000
1641182449872076032,2022-01-03-04:00:49,10.1.1.2,162,-0.210,-0.210,-0.210,0.000,0.000,0.000
1641182450069363200,2022-01-03-04:00:50,10.1.1.2,158,-0.200,-0.200,-0.200,0.000,0.000,0.000
1641182450268182016,2022-01-03-04:00:50,10.1.1.2,155,-0.190,-0.190,-0.190,0.000,0.000,0.000
1641182450477714944,2022-01-03-04:00:50,10.1.1.2,164,-0.180,-0.180,-0.180,0.000,0.000,0.000
1641182450666830080,2022-01-03-04:00:50,10.1.1.2,152,-0.170,-0.170,-0.170,0.000,0.000,0.000
1641182450869353984,2022-01-03-04:00:50,10.1.1.2,154,-0.160,-0.160,-0.160,0.000,0.000,0.000
1641182451100101120,2022-01-03-04:00:51,10.1.1.2,184,-0.150,-0.150,-0.150,0.000,0.000,0.000
1641182451270412800,2022-01-03-04:00:51,10.1.1.2,152,-0.140,-0.140,-0.140,0.000,0.000,0.000
1641182451470993920,2022-01-03-04:00:51,10.1.1.2,153,-0.130,-0.130,-0.130,0.000,0.000,0.000
1641182451690590976,2022-01-03-04:00:51,10.1.1.2,171,-0.120,-0.120,-0.120,0.000,0.000,0.000
1641182451892157952,2022-01-03-04:00:51,10.1.1.2,172,-0.110,-0.110,-0.110,0.000,0.000,0.000
1641182452093736960,2022-01-03-04:00:52,10.1.1.2,173,-0.100,-0.100,-0.100,0.000,0.000,0.000
1641182452275433984,2022-01-03-04:00:52,10.1.1.2,153,-0.090,-0.090,-0.090,0.000,0.000,0.000
1641182452494884864,2022-01-03-04:00:52,10.1.1.2,169,-0.080,-0.080,-0.080,0.000,0.000,0.000
1641182452696683008,2022-01-03-04:00:52,10.1.1.2,170,-0.070,-0.070,-0.070,0.000,0.000,0.000
1641182452898270976,2022-01-03-04:00:52,10.1.1.2,171,-0.060,-0.060,-0.060,0.000,0.000,0.000
1641182453098336000,2022-01-03-04:00:53,10.1.1.2,170,-0.050,-0.050,-0.050,0.000,0.000,0.000
1641182453299947008,2022-01-03-04:00:53,10.1.1.2,170,-0.040,-0.040,-0.040,0.000,0.000,0.000
1641182453527357952,2022-01-03-04:00:53,10.1.1.2,197,-0.030,-0.030,-0.030,0.000,0.000,0.000
1641182453685715968,2022-01-03-04:00:53,10.1.1.2,154,-0.020,-0.020,-0.020,0.000,0.000,0.000
1641182453917090816,2022-01-03-04:00:53,10.1.1.2,185,-0.010,-0.010,-0.010,0.000,0.000,0.000
1641182454106813952,2022-01-03-04:00:54,10.1.1.2,172,0.000,0.000,0.000,0.000,0.000,0.000
1641182454309037056,2022-01-03-04:00:54,10.1.1.2,173,-0.010,-0.010,-0.010,0.000,0.000,0.000
1641182454508784128,2022-01-03-04:00:54,10.1.1.2,172,-0.020,-0.020,-0.020,0.000,0.000,0.000
1641182454708014848,2022-01-03-04:00:54,10.1.1.2,171,-0.030,-0.030,-0.030,0.000,0.000,0.000
1641182454909029888,2022-01-03-04:00:54,10.1.1.2,171,-0.040,-0.040,-0.040,0.000,0.000,0.000
1641182455110255872,2022-01-03-04:00:55,10.1.1.2,171,-0.050,-0.050,-0.050,0.000,0.000,0.000
1641182455332978944,2022-01-03-04:00:55,10.1.1.2,193,-0.060,-0.060,-0.060,0.000,0.000,0.000
1641182455530000896,2022-01-03-04:00:55,10.1.1.2,190,-0.070,-0.070,-0.070,0.000,0.000,0.000
1641182455715365888,2022-01-03-04:00:55,10.1.1.2,175,-0.080,-0.080,-0.080,0.000,0.000,0.000
1641182455915441920,2022-01-03-04:00:55,10.1.1.2,174,-0.090,-0.090,-0.090,0.000,0.000,0.000
1641182456106547968,2022-01-03-04:00:56,10.1.1.2,164,-0.100,-0.100,-0.100,0.000,0.000,0.000
1641182456318644992,2022-01-03-04:00:56,10.1.1.2,176,-0.110,-0.110,-0.110,0.000,0.000,0.000
1641182456541121024,2022-01-03-04:00:56,10.1.1.2,198,-0.120,-0.120,-0.120,0.000,0.000,0.000
1641182456727195904,2022-01-03-04:00:56,10.1.1.2,180,-0.130,-0.130,-0.130,0.000,0.000,0.000
1641182456931875840,2022-01-03-04:00:56,10.1.1.2,184,-0.140,-0.140,-0.140,0.000,0.000,0.000
1641182457130316032,2022-01-03-04:00:57,10.1.1.2,181,-0.150,-0.150,-0.150,0.000,0.000,0.000
1641182457329931008,2022-01-03-04:00:57,10.1.1.2,179,-0.160,-0.160,-0.160,0.000,0.000,0.000
1641182457528780032,2022-01-03-04:00:57,10.1.1.2,177,-0.170,-0.170,-0.170,0.000,0.000,0.000
1641182457733033984,2022-01-03-04:00:57,10.1.1.2,180,-0.180,-0.180,-0.180,0.000,0.000,0.000
1641182457929501952,2022-01-03-04:00:57,10.1.1.2,175,-0.190,-0.190,-0.190,0.000,0.000,0.000
1641182458129338880,2022-01-03-04:00:58,10.1.1.2,175,-0.200,-0.200,-0.200,0.000,0.000,0.000
1641182458337261056,2022-01-03-04:00:58,10.1.1.2,182,-0.210,-0.210,-0.210,0.000,0.000,0.000
1641182458766377984,2022-01-03-04:00:58,10.1.1.2,200,-0.230,-0.230,-0.230,0.000,0.000,0.000
1641182458957768960,2022-01-03-04:00:58,10.1.1.2,191,-0.240,-0.240,-0.240,0.000,0.000,0.000
1641182459355534080,2022-01-03-04:00:59,10.1.1.2,186,-0.260,-0.260,-0.260,0.000,0.000,0.000
1641182459562248960,2022-01-03-04:00:59,10.1.1.2,192,-0.270,-0.270,-0.270,0.000,0.000,0.000
1641182459757932800,2022-01-03-04:00:59,10.1.1.2,187,-0.280,-0.280,-0.280,0.000,0.000,0.000
1641182459956902912,2022-01-03-04:00:59,10.1.1.2,186,-0.290,-0.290,-0.290,0.000,0.000,0.000
1641182460155517952,2022-01-03-04:01:00,10.1.1.2,183,-0.300,-0.300,-0.300,0.000,0.000,0.000
1641182460366539008,2022-01-03-04:01:00,10.1.1.2,192,-0.310,-0.310,-0.310,0.000,0.000,0.000
1641182460566302976,2022-01-03-04:01:00,10.1.1.2,192,-0.320,-0.320,-0.320,0.000,0.000,0.000
1641182460765595904,2022-01-03-04:01:00,10.1.1.2,191,-0.330,-0.330,-0.330,0.000,0.000,0.000
1641182460960381952,2022-01-03-04:01:00,10.1.1.2,185,-0.340,-0.340,-0.340,0.000,0.000,0.000
1641182461362976000,2022-01-03-04:01:01,10.1.1.2,184,-0.360,-0.360,-0.360,0.000,0.000,0.000
1641182461560609024,2022-01-03-04:01:01,10.1.1.2,180,-0.370,-0.370,-0.370,0.000,0.000,0.000
1641182461759915008,2022-01-03-04:01:01,10.1.1.2,177,-0.380,-0.380,-0.380,0.000,0.000,0.000
1641182461959503872,2022-01-03-04:01:01,10.1.1.2,177,-0.390,-0.390,-0.390,0.000,0.000,0.000
1641182462158703104,2022-01-03-04:01:02,10.1.1.2,175,-0.400,-0.400,-0.400,0.000,0.000,0.000
1641182462358755072,2022-01-03-04:01:02,10.1.1.2,174,-0.410,-0.410,-0.410,0.000,0.000,0.000
1641182462580916992,2022-01-03-04:01:02,10.1.1.2,195,-0.420,-0.420,-0.420,0.000,0.000,0.000
1641182462760327936,2022-01-03-04:01:02,10.1.1.2,174,-0.430,-0.430,-0.430,0.000,0.000,0.000
1641182462972218112,2022-01-03-04:01:02,10.1.1.2,183,-0.440,-0.440,-0.440,0.000,0.000,0.000
1641182463173489152,2022-01-03-04:01:03,10.1.1.2,184,-0.450,-0.450,-0.450,0.000,0.000,0.000
1641182463375803904,2022-01-03-04:01:03,10.1.1.2,185,-0.460,-0.460,-0.460,0.000,0.000,0.000
1641182463581069824,2022-01-03-04:01:03,10.1.1.2,188,-0.470,-0.470,-0.470,0.000,0.000,0.000
1641182463782041088,2022-01-03-04:01:03,10.1.1.2,187,-0.480,-0.480,-0.480,0.000,0.000,0.000
1641182463974844928,2022-01-03-04:01:03,10.1.1.2,180,-0.490,-0.490,-0.490,0.000,0.000,0.000
1641182464599791104,2022-01-03-04:01:04,10.1.1.2,192,-0.460,-0.460,-0.460,0.000,0.000,0.000
1641182464991554048,2022-01-03-04:01:04,10.1.1.2,178,-0.440,-0.440,-0.440,0.000,0.000,0.000
1641182465190864128,2022-01-03-04:01:05,10.1.1.2,175,-0.430,-0.430,-0.430,0.000,0.000,0.000
1641182465412359936,2022-01-03-04:01:05,10.1.1.2,196,-0.420,-0.420,-0.420,0.000,0.000,0.000
1641182465598982144,2022-01-03-04:01:05,10.1.1.2,181,-0.410,-0.410,-0.410,0.000,0.000,0.000
1641182465800087040,2022-01-03-04:01:05,10.1.1.2,181,-0.400,-0.400,-0.400,0.000,0.000,0.000
1641182466001324800,2022-01-03-04:01:06,10.1.1.2,181,-0.390,-0.390,-0.390,0.000,0.000,0.000
1641182466196058880,2022-01-03-04:01:06,10.1.1.2,174,-0.380,-0.380,-0.380,0.000,0.000,0.000
1641182466394834944,2022-01-03-04:01:06,10.1.1.2,172,-0.370,-0.370,-0.370,0.000,0.000,0.000
1641182466611745024,2022-01-03-04:01:06,10.1.1.2,188,-0.360,-0.360,-0.360,0.000,0.000,0.000
1641182466815119104,2022-01-03-04:01:06,10.1.1.2,189,-0.350,-0.350,-0.350,0.000,0.000,0.000
1641182467015482880,2022-01-03-04:01:07,10.1.1.2,189,-0.340,-0.340,-0.340,0.000,0.000,0.000
1641182467214610176,2022-01-03-04:01:07,10.1.1.2,187,-0.330,-0.330,-0.330,0.000,0.000,0.000
1641182467416301056,2022-01-03-04:01:07,10.1.1.2,188,-0.320,-0.320,-0.320,0.000,0.000,0.000
1641182467613229056,2022-01-03-04:01:07,10.1.1.2,185,-0.310,-0.310,-0.310,0.000,0.000,0.000
1641182467818868992,2022-01-03-04:01:07,10.1.1.2,189,-0.300,-0.300,-0.300,0.000,0.000,0.000
1641182468012723968,2022-01-03-04:01:08,10.1.1.2,181,-0.290,-0.290,-0.290,0.000,0.000,0.000
1641182468213814016,2022-01-03-04:01:08,10.1.1.2,181,-0.280,-0.280,-0.280,0.000,0.000,0.000
1641182468413050880,2022-01-03-04:01:08,10.1.1.2,180,-0.270,-0.270,-0.270,0.000,0.000,0.000
1641182468614553856,2022-01-03-04:01:08,10.1.1.2,180,-0.260,-0.260,-0.260,0.000,0.000,0.000
1641182468818688000,2022-01-03-04:01:08,10.1.1.2,184,-0.250,-0.250,-0.250,0.000,0.000,0.000
1641182469012121856,2022-01-03-04:01:09,10.1.1.2,176,-0.240,-0.240,-0.240,0.000,0.000,0.000
1641182469213009152,2022-01-03-04:01:09,10.1.1.2,173,-0.230,-0.230,-0.230,0.000,0.000,0.000
1641182469616898048,2022-01-03-04:01:09,10.1.1.2,175,-0.210,-0.210,-0.210,0.000,0.000,0.000
1641182469827902976,2022-01-03-04:01:09,10.1.1.2,185,-0.200,-0.200,-0.200,0.000,0.000,0.000
1641182470014494976,2022-01-03-04:01:10,10.1.1.2,171,-0.190,-0.190,-0.190,0.000,0.000,0.000
1641182470216861952,2022-01-03-04:01:10,10.1.1.2,171,-0.180,-0.180,-0.180,0.000,0.000,0.000
1641182470415034112,2022-01-03-04:01:10,10.1.1.2,168,-0.170,-0.170,-0.170,0.000,0.000,0.000
1641182470635549184,2022-01-03-04:01:10,10.1.1.2,187,-0.160,-0.160,-0.160,0.000,0.000,0.000
1641182471032825088,2022-01-03-04:01:11,10.1.1.2,183,-0.140,-0.140,-0.140,0.000,0.000,0.000
1641182471235483904,2022-01-03-04:01:11,10.1.1.2,185,-0.130,-0.130,-0.130,0.000,0.000,0.000
1641182471421083904,2022-01-03-04:01:11,10.1.1.2,169,-0.120,-0.120,-0.120,0.000,0.000,0.000
1641182471629607936,2022-01-03-04:01:11,10.1.1.2,175,-0.110,-0.110,-0.110,0.000,0.000,0.000
1641182471846216960,2022-01-03-04:01:11,10.1.1.2,186,-0.100,-0.100,-0.100,0.000,0.000,0.000
1641182472044593152,2022-01-03-04:01:12,10.1.1.2,183,-0.090,-0.090,-0.090,0.000,0.000,0.000
1641182472254193152,2022-01-03-04:01:12,10.1.1.2,192,-0.080,-0.080,-0.080,0.000,0.000,0.000
1641182472445101056,2022-01-03-04:01:12,10.1.1.2,181,-0.070,-0.070,-0.070,0.000,0.000,0.000
1641182472464207872,2022-01-03-04:01:12,10.1.1.2,-1,-0.070,-0.070,-0.070,0.000,0.000,0.000
1641182472830787840,2022-01-03-04:01:12,10.1.1.2,165,-0.050,-0.050,-0.050,0.000,0.000,0.000
1641182473044393984,2022-01-03-04:01:13,10.1.1.2,177,-0.040,-0.040,-0.040,0.000,0.000,0.000
1641182473450409984,2022-01-03-04:01:13,10.1.1.2,180,-0.020,-0.020,-0.020,0.000,0.000,0.000
1641182473651681024,2022-01-03-04:01:13,10.1.1.2,180,-0.010,-0.010,-0.010,0.000,0.000,0.000
1641182473851708928,2022-01-03-04:01:13,10.1.1.2,179,0.000,0.000,0.000,0.000,0.000,0.000
1641182474047013120,2022-01-03-04:01:14,10.1.1.2,174,-0.010,-0.010,-0.010,0.000,0.000,0.000
1641182474245150976,2022-01-03-04:01:14,10.1.1.2,171,-0.020,-0.020,-0.020,0.000,0.000,0.000
1641182474444451072,2022-01-03-04:01:14,10.1.1.2,170,-0.030,-0.030,-0.030,0.000,0.000,0.000
1641182474643168000,2022-01-03-04:01:14,10.1.1.2,167,-0.040,-0.040,-0.040,0.000,0.000,0.000
1641182474844064000,2022-01-03-04:01:14,10.1.1.2,167,-0.050,-0.050,-0.050,0.000,0.000,0.000
1641182475045376000,2022-01-03-04:01:15,10.1.1.2,167,-0.060,-0.060,-0.060,0.000,0.000,0.000
1641182475241907968,2022-01-03-04:01:15,10.1.1.2,160,-0.070,-0.070,-0.070,0.000,0.000,0.000
1641182475850205952,2022-01-03-04:01:15,10.1.1.2,165,-0.100,-0.100,-0.100,0.000,0.000,0.000
1641182476248646912,2022-01-03-04:01:16,10.1.1.2,162,-0.120,-0.120,-0.120,0.000,0.000,0.000
1641182476469321984,2022-01-03-04:01:16,10.1.1.2,182,-0.130,-0.130,-0.130,0.000,0.000,0.000
1641182476658048000,2022-01-03-04:01:16,10.1.1.2,170,-0.140,-0.140,-0.140,0.000,0.000,0.000
1641182476859586048,2022-01-03-04:01:16,10.1.1.2,169,-0.150,-0.150,-0.150,0.000,0.000,0.000
1641182477057420032,2022-01-03-04:01:17,10.1.1.2,167,-0.160,-0.160,-0.160,0.000,0.000,0.000
1641182477257148928,2022-01-03-04:01:17,10.1.1.2,166,-0.170,-0.170,-0.170,0.000,0.000,0.000
1641182477661079808,2022-01-03-04:01:17,10.1.1.2,168,-0.190,-0.190,-0.190,0.000,0.000,0.000
1641182477861291776,2022-01-03-04:01:17,10.1.1.2,168,-0.200,-0.200,-0.200,0.000,0.000,0.000
1641182478060066816,2022-01-03-04:01:18,10.1.1.2,165,-0.210,-0.210,-0.210,0.000,0.000,0.000
1641182478258606080,2022-01-03-04:01:18,10.1.1.2,163,-0.220,-0.220,-0.220,0.000,0.000,0.000
1641182478458908160,2022-01-03-04:01:18,10.1.1.2,162,-0.230,-0.230,-0.230,0.000,0.000,0.000
1641182478664115968,2022-01-03-04:01:18,10.1.1.2,166,-0.240,-0.240,-0.240,0.000,0.000,0.000
1641182478858712832,2022-01-03-04:01:18,10.1.1.2,159,-0.250,-0.250,-0.250,0.000,0.000,0.000
1641182479062675968,2022-01-03-04:01:19,10.1.1.2,160,-0.260,-0.260,-0.260,0.000,0.000,0.000
1641182479259966976,2022-01-03-04:01:19,10.1.1.2,156,-0.270,-0.270,-0.270,0.000,0.000,0.000
1641182479482775040,2022-01-03-04:01:19,10.1.1.2,173,-0.280,-0.280,-0.280,0.000,0.000,0.000
1641182479672566784,2022-01-03-04:01:19,10.1.1.2,162,-0.290,-0.290,-0.290,0.000,0.000,0.000
1641182479880156160,2022-01-03-04:01:19,10.1.1.2,163,-0.300,-0.300,-0.300,0.000,0.000,0.000
1641182480087433216,2022-01-03-04:01:20,10.1.1.2,168,-0.310,-0.310,-0.310,0.000,0.000,0.000
1641182480280262912,2022-01-03-04:01:20,10.1.1.2,160,-0.320,-0.320,-0.320,0.000,0.000,0.000
1641182480478977792,2022-01-03-04:01:20,10.1.1.2,158,-0.330,-0.330,-0.330,0.000,0.000,0.000
1641182480679577088,2022-01-03-04:01:20,10.1.1.2,157,-0.340,-0.340,-0.340,0.000,0.000,0.000
1641182480878604800,2022-01-03-04:01:20,10.1.1.2,156,-0.350,-0.350,-0.350,0.000,0.000,0.000
1641182481078265856,2022-01-03-04:01:21,10.1.1.2,155,-0.360,-0.360,-0.360,0.000,0.000,0.000
1641182481276535040,2022-01-03-04:01:21,10.1.1.2,153,-0.370,-0.370,-0.370,0.000,0.000,0.000
1641182481500160000,2022-01-03-04:01:21,10.1.1.2,172,-0.380,-0.380,-0.380,0.000,0.000,0.000
1641182481691486976,2022-01-03-04:01:21,10.1.1.2,159,-0.390,-0.390,-0.390,0.000,0.000,0.000
1641182481890266880,2022-01-03-04:01:21,10.1.1.2,154,-0.400,-0.400,-0.400,0.000,0.000,0.000
1641182482110440960,2022-01-03-04:01:22,10.1.1.2,174,-0.410,-0.410,-0.410,0.000,0.000,0.000
1641182482299056128,2022-01-03-04:01:22,10.1.1.2,162,-0.420,-0.420,-0.420,0.000,0.000,0.000
1641182482495860992,2022-01-03-04:01:22,10.1.1.2,157,-0.430,-0.430,-0.430,0.000,0.000,0.000
1641182482715239936,2022-01-03-04:01:22,10.1.1.2,176,-0.440,-0.440,-0.440,0.000,0.000,0.000
1641182482895538944,2022-01-03-04:01:22,10.1.1.2,154,-0.450,-0.450,-0.450,0.000,0.000,0.000
1641182483108419840,2022-01-03-04:01:23,10.1.1.2,167,-0.460,-0.460,-0.460,0.000,0.000,0.000
1641182483312411136,2022-01-03-04:01:23,10.1.1.2,168,-0.470,-0.470,-0.470,0.000,0.000,0.000
1641182483505170176,2022-01-03-04:01:23,10.1.1.2,160,-0.480,-0.480,-0.480,0.000,0.000,0.000
1641182483720128000,2022-01-03-04:01:23,10.1.1.2,174,-0.490,-0.490,-0.490,0.000,0.000,0.000
1641182483917437952,2022-01-03-04:01:23,10.1.1.2,171,-0.480,-0.480,-0.480,0.000,0.000,0.000
1641182484119806976,2022-01-03-04:01:24,10.1.1.2,172,-0.470,-0.470,-0.470,0.000,0.000,0.000
1641182484319835904,2022-01-03-04:01:24,10.1.1.2,171,-0.460,-0.460,-0.460,0.000,0.000,0.000
1641182484522150912,2022-01-03-04:01:24,10.1.1.2,172,-0.450,-0.450,-0.450,0.000,0.000,0.000
1641182484722244864,2022-01-03-04:01:24,10.1.1.2,172,-0.440,-0.440,-0.440,0.000,0.000,0.000
1641182484922446080,2022-01-03-04:01:24,10.1.1.2,171,-0.430,-0.430,-0.430,0.000,0.000,0.000
1641182485123323904,2022-01-03-04:01:25,10.1.1.2,171,-0.420,-0.420,-0.420,0.000,0.000,0.000
1641182485323744000,2022-01-03-04:01:25,10.1.1.2,171,-0.410,-0.410,-0.410,0.000,0.000,0.000
1641182485523952128,2022-01-03-04:01:25,10.1.1.2,170,-0.400,-0.400,-0.400,0.000,0.000,0.000
1641182485726747904,2022-01-03-04:01:25,10.1.1.2,172,-0.390,-0.390,-0.390,0.000,0.000,0.000
1641182485925208064,2022-01-03-04:01:25,10.1.1.2,168,-0.380,-0.380,-0.380,0.000,0.000,0.000
1641182486126953984,2022-01-03-04:01:26,10.1.1.2,169,-0.370,-0.370,-0.370,0.000,0.000,0.000
1641182486328737024,2022-01-03-04:01:26,10.1.1.2,170,-0.360,-0.360,-0.360,0.000,0.000,0.000
1641182486528121088,2022-01-03-04:01:26,10.1.1.2,169,-0.350,-0.350,-0.350,0.000,0.000,0.000
1641182486735258112,2022-01-03-04:01:26,10.1.1.2,176,-0.340,-0.340,-0.340,0.000,0.000,0.000
1641182486931463936,2022-01-03-04:01:26,10.1.1.2,171,-0.330,-0.330,-0.330,0.000,0.000,0.000
1641182487130848768,2022-01-03-04:01:27,10.1.1.2,166,-0.320,-0.320,-0.320,0.000,0.000,0.000
1641182487350092800,2022-01-03-04:01:27,10.1.1.2,180,-0.310,-0.310,-0.310,0.000,0.000,0.000
1641182487547288064,2022-01-03-04:01:27,10.1.1.2,176,-0.300,-0.300,-0.300,0.000,0.000,0.000
1641182487748519936,2022-01-03-04:01:27,10.1.1.2,176,-0.290,-0.290,-0.290,0.000,0.000,0.000
1641182487950501888,2022-01-03-04:01:27,10.1.1.2,177,-0.280,-0.280,-0.280,0.000,0.000,0.000
1641182488149436928,2022-01-03-04:01:28,10.1.1.2,174,-0.270,-0.270,-0.270,0.000,0.000,0.000
1641182488550575872,2022-01-03-04:01:28,10.1.1.2,174,-0.250,-0.250,-0.250,0.000,0.000,0.000
1641182488752440832,2022-01-03-04:01:28,10.1.1.2,175,-0.240,-0.240,-0.240,0.000,0.000,0.000
1641182488948883968,2022-01-03-04:01:28,10.1.1.2,170,-0.230,-0.230,-0.230,0.000,0.000,0.000
1641182489157513984,2022-01-03-04:01:29,10.1.1.2,177,-0.220,-0.220,-0.220,0.000,0.000,0.000
1641182489358083072,2022-01-03-04:01:29,10.1.1.2,177,-0.210,-0.210,-0.210,0.000,0.000,0.000
1641182489571068160,2022-01-03-04:01:29,10.1.1.2,186,-0.200,-0.200,-0.200,0.000,0.000,0.000
1641182489759286016,2022-01-03-04:01:29,10.1.1.2,173,-0.190,-0.190,-0.190,0.000,0.000,0.000
1641182489960603904,2022-01-03-04:01:29,10.1.1.2,174,-0.180,-0.180,-0.180,0.000,0.000,0.000
1641182490171547904,2022-01-03-04:01:30,10.1.1.2,184,-0.170,-0.170,-0.170,0.000,0.000,0.000
1641182490379968768,2022-01-03-04:01:30,10.1.1.2,190,-0.160,-0.160,-0.160,0.000,0.000,0.000
1641182490578502912,2022-01-03-04:01:30,10.1.1.2,186,-0.150,-0.150,-0.150,0.000,0.000,0.000
1641182490780646912,2022-01-03-04:01:30,10.1.1.2,188,-0.140,-0.140,-0.140,0.000,0.000,0.000
1641182490981502976,2022-01-03-04:01:30,10.1.1.2,187,-0.130,-0.130,-0.130,0.000,0.000,0.000
1641182491180134912,2022-01-03-04:01:31,10.1.1.2,181,-0.120,-0.120,-0.120,0.000,0.000,0.000
1641182491381144064,2022-01-03-04:01:31,10.1.1.2,179,-0.110,-0.110,-0.110,0.000,0.000,0.000
1641182491580902144,2022-01-03-04:01:31,10.1.1.2,179,-0.100,-0.100,-0.100,0.000,0.000,0.000
1641182491800066048,2022-01-03-04:01:31,10.1.1.2,189,-0.090,-0.090,-0.090,0.000,0.000,0.000
1641182491993138944,2022-01-03-04:01:31,10.1.1.2,177,-0.080,-0.080,-0.080,0.000,0.000,0.000
1641182492202253056,2022-01-03-04:01:32,10.1.1.2,185,-0.070,-0.070,-0.070,0.000,0.000,0.000
1641182492401062912,2022-01-03-04:01:32,10.1.1.2,182,-0.060,-0.060,-0.060,0.000,0.000,0.000
1641182492600178944,2022-01-03-04:01:32,10.1.1.2,180,-0.050,-0.050,-0.050,0.000,0.000,0.000
1641182492801085952,2022-01-03-04:01:32,10.1.1.2,180,-0.040,-0.040,-0.040,0.000,0.000,0.000
1641182493015505152,2022-01-03-04:01:33,10.1.1.2,193,-0.030,-0.030,-0.030,0.000,0.000,0.000
1641182493200896000,2022-01-03-04:01:33,10.1.1.2,178,-0.020,-0.020,-0.020,0.000,0.000,0.000
1641182493402053120,2022-01-03-04:01:33,10.1.1.2,178,-0.010,-0.010,-0.010,0.000,0.000,0.000
1641182493616060928,2022-01-03-04:01:33,10.1.1.2,189,0.000,0.000,0.000,0.000,0.000,0.000
1641182493816070144,2022-01-03-04:01:33,10.1.1.2,189,-0.010,-0.010,-0.010,0.000,0.000,0.000
1641182494017460224,2022-01-03-04:01:34,10.1.1.2,189,-0.020,-0.020,-0.020,0.000,0.000,0.000
1641182494216260864,2022-01-03-04:01:34,10.1.1.2,187,-0.030,-0.030,-0.030,0.000,0.000,0.000
1641182494420113152,2022-01-03-04:01:34,10.1.1.2,187,-0.040,-0.040,-0.040,0.000,0.000,0.000
1641182494616403200,2022-01-03-04:01:34,10.1.1.2,184,-0.050,-0.050,-0.050,0.000,0.000,0.000
1641182494824933888,2022-01-03-04:01:34,10.1.1.2,192,-0.060,-0.060,-0.060,0.000,0.000,0.000
1641182495017256960,2022-01-03-04:01:35,10.1.1.2,183,-0.070,-0.070,-0.070,0.000,0.000,0.000
1641182495420186880,2022-01-03-04:01:35,10.1.1.2,184,-0.090,-0.090,-0.090,0.000,0.000,0.000
1641182495620771840,2022-01-03-04:01:35,10.1.1.2,183,-0.100,-0.100,-0.100,0.000,0.000,0.000
1641182495829844992,2022-01-03-04:01:35,10.1.1.2,191,-0.110,-0.110,-0.110,0.000,0.000,0.000
1641182496019115008,2022-01-03-04:01:36,10.1.1.2,178,-0.120,-0.120,-0.120,0.000,0.000,0.000
1641182496239270912,2022-01-03-04:01:36,10.1.1.2,193,-0.130,-0.130,-0.130,0.000,0.000,0.000
1641182496438350848,2022-01-03-04:01:36,10.1.1.2,192,-0.140,-0.140,-0.140,0.000,0.000,0.000
1641182496643693824,2022-01-03-04:01:36,10.1.1.2,195,-0.150,-0.150,-0.150,0.000,0.000,0.000
1641182496839136000,2022-01-03-04:01:36,10.1.1.2,190,-0.160,-0.160,-0.160,0.000,0.000,0.000
1641182497034835200,2022-01-03-04:01:37,10.1.1.2,184,-0.170,-0.170,-0.170,0.000,0.000,0.000
1641182497234749184,2022-01-03-04:01:37,10.1.1.2,183,-0.180,-0.180,-0.180,0.000,0.000,0.000
1641182497443800064,2022-01-03-04:01:37,10.1.1.2,191,-0.190,-0.190,-0.190,0.000,0.000,0.000
1641182497632998912,2022-01-03-04:01:37,10.1.1.2,179,-0.200,-0.200,-0.200,0.000,0.000,0.000
1641182497834438912,2022-01-03-04:01:37,10.1.1.2,179,-0.210,-0.210,-0.210,0.000,0.000,0.000
1641182498033970176,2022-01-03-04:01:38,10.1.1.2,179,-0.220,-0.220,-0.220,0.000,0.000,0.000
1641182498232883968,2022-01-03-04:01:38,10.1.1.2,176,-0.230,-0.230,-0.230,0.000,0.000,0.000
1641182498434540032,2022-01-03-04:01:38,10.1.1.2,177,-0.240,-0.240,-0.240,0.000,0.000,0.000
1641182498636781056,2022-01-03-04:01:38,10.1.1.2,178,-0.250,-0.250,-0.250,0.000,0.000,0.000
1641182498833828864,2022-01-03-04:01:38,10.1.1.2,174,-0.260,-0.260,-0.260,0.000,0.000,0.000
1641182499040272896,2022-01-03-04:01:39,10.1.1.2,179,-0.270,-0.270,-0.270,0.000,0.000,0.000
1641182499252334080,2022-01-03-04:01:39,10.1.1.2,190,-0.280,-0.280,-0.280,0.000,0.000,0.000
1641182499452093952,2022-01-03-04:01:39,10.1.1.2,189,-0.290,-0.290,-0.290,0.000,0.000,0.000
1641182499651740928,2022-01-03-04:01:39,10.1.1.2,187,-0.300,-0.300,-0.300,0.000,0.000,0.000
1641182499857007104,2022-01-03-04:01:39,10.1.1.2,190,-0.310,-0.310,-0.310,0.000,0.000,0.000
1641182500051364864,2022-01-03-04:01:40,10.1.1.2,182,-0.320,-0.320,-0.320,0.000,0.000,0.000
1641182500250696960,2022-01-03-04:01:40,10.1.1.2,181,-0.330,-0.330,-0.330,0.000,0.000,0.000
1641182500451152128,2022-01-03-04:01:40,10.1.1.2,180,-0.340,-0.340,-0.340,0.000,0.000,0.000
1641182500650759936,2022-01-03-04:01:40,10.1.1.2,179,-0.350,-0.350,-0.350,0.000,0.000,0.000
1641182500857043968,2022-01-03-04:01:40,10.1.1.2,185,-0.360,-0.360,-0.360,0.000,0.000,0.000
1641182501051706112,2022-01-03-04:01:41,10.1.1.2,175,-0.370,-0.370,-0.370,0.000,0.000,0.000
1641182501250052096,2022-01-03-04:01:41,10.1.1.2,173,-0.380,-0.380,-0.380,0.000,0.000,0.000
1641182501452549888,2022-01-03-04:01:41,10.1.1.2,173,-0.390,-0.390,-0.390,0.000,0.000,0.000
1641182501653894912,2022-01-03-04:01:41,10.1.1.2,174,-0.400,-0.400,-0.400,0.000,0.000,0.000
1641182501849092864,2022-01-03-04:01:41,10.1.1.2,168,-0.410,-0.410,-0.410,0.000,0.000,0.000
1641182502050529024,2022-01-03-04:01:42,10.1.1.2,169,-0.420,-0.420,-0.420,0.000,0.000,0.000
1641182502271113984,2022-01-03-04:01:42,10.1.1.2,183,-0.430,-0.430,-0.430,0.000,0.000,0.000
1641182502471767040,2022-01-03-04:01:42,10.1.1.2,184,-0.440,-0.440,-0.440,0.000,0.000,0.000
1641182502667654144,2022-01-03-04:01:42,10.1.1.2,179,-0.450,-0.450,-0.450,0.000,0.000,0.000
1641182502866221824,2022-01-03-04:01:42,10.1.1.2,177,-0.460,-0.460,-0.460,0.000,0.000,0.000
1641182503081125120,2022-01-03-04:01:43,10.1.1.2,191,-0.470,-0.470,-0.470,0.000,0.000,0.000
1641182503282242048,2022-01-03-04:01:43,10.1.1.2,192,-0.480,-0.480,-0.480,0.000,0.000,0.000
1641182503680794112,2022-01-03-04:01:43,10.1.1.2,188,-0.480,-0.480,-0.480,0.000,0.000,0.000
1641182503872323072,2022-01-03-04:01:43,10.1.1.2,179,-0.470,-0.470,-0.470,0.000,0.000,0.000
1641182504070733056,2022-01-03-04:01:44,10.1.1.2,177,-0.460,-0.460,-0.460,0.000,0.000,0.000
1641182504270437120,2022-01-03-04:01:44,10.1.1.2,175,-0.450,-0.450,-0.450,0.000,0.000,0.000
1641182504492180224,2022-01-03-04:01:44,10.1.1.2,196,-0.440,-0.440,-0.440,0.000,0.000,0.000
1641182504674731008,2022-01-03-04:01:44,10.1.1.2,177,-0.430,-0.430,-0.430,0.000,0.000,0.000
1641182504882347008,2022-01-03-04:01:44,10.1.1.2,183,-0.420,-0.420,-0.420,0.000,0.000,0.000
1641182505069792000,2022-01-03-04:01:45,10.1.1.2,170,-0.410,-0.410,-0.410,0.000,0.000,0.000
1641182505268392960,2022-01-03-04:01:45,10.1.1.2,167,-0.400,-0.400,-0.400,0.000,0.000,0.000
1641182505469744896,2022-01-03-04:01:45,10.1.1.2,168,-0.390,-0.390,-0.390,0.000,0.000,0.000
1641182505686403072,2022-01-03-04:01:45,10.1.1.2,184,-0.380,-0.380,-0.380,0.000,0.000,0.000
1641182505866766848,2022-01-03-04:01:45,10.1.1.2,162,-0.370,-0.370,-0.370,0.000,0.000,0.000
1641182506086268928,2022-01-03-04:01:46,10.1.1.2,182,-0.360,-0.360,-0.360,0.000,0.000,0.000
1641182506285801984,2022-01-03-04:01:46,10.1.1.2,180,-0.350,-0.350,-0.350,0.000,0.000,0.000
1641182506484674048,2022-01-03-04:01:46,10.1.1.2,179,-0.340,-0.340,-0.340,0.000,0.000,0.000
1641182506683259904,2022-01-03-04:01:46,10.1.1.2,176,-0.330,-0.330,-0.330,0.000,0.000,0.000
1641182506883783936,2022-01-03-04:01:46,10.1.1.2,176,-0.320,-0.320,-0.320,0.000,0.000,0.000
1641182507084122880,2022-01-03-04:01:47,10.1.1.2,175,-0.310,-0.310,-0.310,0.000,0.000,0.000
1641182507283150848,2022-01-03-04:01:47,10.1.1.2,174,-0.300,-0.300,-0.300,0.000,0.000,0.000
1641182507483130880,2022-01-03-04:01:47,10.1.1.2,173,-0.290,-0.290,-0.290,0.000,0.000,0.000
1641182507684401920,2022-01-03-04:01:47,10.1.1.2,173,-0.280,-0.280,-0.280,0.000,0.000,0.000
1641182507882585088,2022-01-03-04:01:47,10.1.1.2,170,-0.270,-0.270,-0.270,0.000,0.000,0.000
1641182508083392000,2022-01-03-04:01:48,10.1.1.2,169,-0.260,-0.260,-0.260,0.000,0.000,0.000
1641182508306617088,2022-01-03-04:01:48,10.1.1.2,191,-0.250,-0.250,-0.250,0.000,0.000,0.000
1641182508481297920,2022-01-03-04:01:48,10.1.1.2,165,-0.240,-0.240,-0.240,0.000,0.000,0.000
1641182508682396928,2022-01-03-04:01:48,10.1.1.2,165,-0.230,-0.230,-0.230,0.000,0.000,0.000
1641182508881739008,2022-01-03-04:01:48,10.1.1.2,162,-0.220,-0.220,-0.220,0.000,0.000,0.000
1641182509080696064,2022-01-03-04:01:49,10.1.1.2,160,-0.210,-0.210,-0.210,0.000,0.000,0.000
1641182509280704000,2022-01-03-04:01:49,10.1.1.2,159,-0.200,-0.200,-0.200,0.000,0.000,0.000
1641182509501543168,2022-01-03-04:01:49,10.1.1.2,179,-0.190,-0.190,-0.190,0.000,0.000,0.000
1641182509719666944,2022-01-03-04:01:49,10.1.1.2,196,-0.180,-0.180,-0.180,0.000,0.000,0.000
1641182509896726016,2022-01-03-04:01:49,10.1.1.2,173,-0.170,-0.170,-0.170,0.000,0.000,0.000
1641182510110811904,2022-01-03-04:01:50,10.1.1.2,186,-0.160,-0.160,-0.160,0.000,0.000,0.000
1641182510287798784,2022-01-03-04:01:50,10.1.1.2,162,-0.150,-0.150,-0.150,0.000,0.000,0.000
1641182510497519104,2022-01-03-04:01:50,10.1.1.2,171,-0.140,-0.140,-0.140,0.000,0.000,0.000
1641182510700275968,2022-01-03-04:01:50,10.1.1.2,173,-0.130,-0.130,-0.130,0.000,0.000,0.000
1641182510896743168,2022-01-03-04:01:50,10.1.1.2,167,-0.120,-0.120,-0.120,0.000,0.000,0.000
1641182511106759168,2022-01-03-04:01:51,10.1.1.2,176,-0.110,-0.110,-0.110,0.000,0.000,0.000
1641182511293952000,2022-01-03-04:01:51,10.1.1.2,163,-0.100,-0.100,-0.100,0.000,0.000,0.000
1641182511494013184,2022-01-03-04:01:51,10.1.1.2,162,-0.090,-0.090,-0.090,0.000,0.000,0.000
1641182511693597952,2022-01-03-04:01:51,10.1.1.2,161,-0.080,-0.080,-0.080,0.000,0.000,0.000
1641182511892811008,2022-01-03-04:01:51,10.1.1.2,158,-0.070,-0.070,-0.070,0.000,0.000,0.000
1641182512092612864,2022-01-03-04:01:52,10.1.1.2,157,-0.060,-0.060,-0.060,0.000,0.000,0.000
1641182512293149952,2022-01-03-04:01:52,10.1.1.2,157,-0.050,-0.050,-0.050,0.000,0.000,0.000
1641182512491174912,2022-01-03-04:01:52,10.1.1.2,154,-0.040,-0.040,-0.040,0.000,0.000,0.000
1641182512692030976,2022-01-03-04:01:52,10.1.1.2,154,-0.030,-0.030,-0.030,0.000,0.000,0.000
1641182512892008192,2022-01-03-04:01:52,10.1.1.2,153,-0.020,-0.020,-0.020,0.000,0.000,0.000
1641182513112845056,2022-01-03-04:01:53,10.1.1.2,174,-0.010,-0.010,-0.010,0.000,0.000,0.000
1641182513330578176,2022-01-03-04:01:53,10.1.1.2,190,0.000,0.000,0.000,0.000,0.000,0.000
1641182513520140032,2022-01-03-04:01:53,10.1.1.2,180,-0.010,-0.010,-0.010,0.000,0.000,0.000
1641182513697182976,2022-01-03-04:01:53,10.1.1.2,156,-0.020,-0.020,-0.020,0.000,0.000,0.000
1641182513898888192,2022-01-03-04:01:53,10.1.1.2,155,-0.030,-0.030,-0.030,0.000,0.000,0.000
1641182514098108928,2022-01-03-04:01:54,10.1.1.2,152,-0.040,-0.040,-0.040,0.000,0.000,0.000
1641182514312091136,2022-01-03-04:01:54,10.1.1.2,167,-0.050,-0.050,-0.050,0.000,0.000,0.000
1641182514514832896,2022-01-03-04:01:54,10.1.1.2,168,-0.060,-0.060,-0.060,0.000,0.000,0.000
1641182514710221056,2022-01-03-04:01:54,10.1.1.2,163,-0.070,-0.070,-0.070,0.000,0.000,0.000
1641182514908852224,2022-01-03-04:01:54,10.1.1.2,161,-0.080,-0.080,-0.080,0.000,0.000,0.000
1641182515116059136,2022-01-03-04:01:55,10.1.1.2,167,-0.090,-0.090,-0.090,0.000,0.000,0.000
1641182515309416960,2022-01-03-04:01:55,10.1.1.2,159,-0.100,-0.100,-0.100,0.000,0.000,0.000
1641182515508196096,2022-01-03-04:01:55,10.1.1.2,154,-0.110,-0.110,-0.110,0.000,0.000,0.000
1641182515709285120,2022-01-03-04:01:55,10.1.1.2,153,-0.120,-0.120,-0.120,0.000,0.000,0.000
1641182515908729088,2022-01-03-04:01:55,10.1.1.2,151,-0.130,-0.130,-0.130,0.000,0.000,0.000
1641182516124773888,2022-01-03-04:01:56,10.1.1.2,166,-0.140,-0.140,-0.140,0.000,0.000,0.000
1641182516315603968,2022-01-03-04:01:56,10.1.1.2,156,-0.150,-0.150,-0.150,0.000,0.000,0.000
1641182516519568896,2022-01-03-04:01:56,10.1.1.2,156,-0.160,-0.160,-0.160,0.000,0.000,0.000
1641182516737396992,2022-01-03-04:01:56,10.1.1.2,171,-0.170,-0.170,-0.170,0.000,0.000,0.000
1641182516933024000,2022-01-03-04:01:56,10.1.1.2,166,-0.180,-0.180,-0.180,0.000,0.000,0.000
1641182517139812864,2022-01-03-04:01:57,10.1.1.2,170,-0.190,-0.190,-0.190,0.000,0.000,0.000
1641182517541807872,2022-01-03-04:01:57,10.1.1.2,171,-0.210,-0.210,-0.210,0.000,0.000,0.000
1641182517736617216,2022-01-03-04:01:57,10.1.1.2,165,-0.220,-0.220,-0.220,0.000,0.000,0.000
1641182517937058816,2022-01-03-04:01:57,10.1.1.2,165,-0.230,-0.230,-0.230,0.000,0.000,0.000
1641182518139453952,2022-01-03-04:01:58,10.1.1.2,166,-0.240,-0.240,-0.240,0.000,0.000,0.000
1641182518339972096,2022-01-03-04:01:58,10.1.1.2,165,-0.250,-0.250,-0.250,0.000,0.000,0.000
1641182518540491008,2022-01-03-04:01:58,10.1.1.2,164,-0.260,-0.260,-0.260,0.000,0.000,0.000
1641182518741227008,2022-01-03-04:01:58,10.1.1.2,165,-0.270,-0.270,-0.270,0.000,0.000,0.000
1641182518944247040,2022-01-03-04:01:58,10.1.1.2,167,-0.280,-0.280,-0.280,0.000,0.000,0.000
1641182519141036032,2022-01-03-04:01:59,10.1.1.2,162,-0.290,-0.290,-0.290,0.000,0.000,0.000
1641182519343286016,2022-01-03-04:01:59,10.1.1.2,164,-0.300,-0.300,-0.300,0.000,0.000,0.000
1641182519562615040,2022-01-03-04:01:59,10.1.1.2,183,-0.310,-0.310,-0.310,0.000,0.000,0.000
1641182519762994176,2022-01-03-04:01:59,10.1.1.2,181,-0.320,-0.320,-0.320,0.000,0.000,0.000
1641182519964446976,2022-01-03-04:01:59,10.1.1.2,182,-0.330,-0.330,-0.330,0.000,0.000,0.000
1641182520149996032,2022-01-03-04:02:00,10.1.1.2,166,-0.340,-0.340,-0.340,0.000,0.000,0.000
1641182520351095808,2022-01-03-04:02:00,10.1.1.2,165,-0.350,-0.350,-0.350,0.000,0.000,0.000
1641182520575725056,2022-01-03-04:02:00,10.1.1.2,189,-0.360,-0.360,-0.360,0.000,0.000,0.000
1641182520772919808,2022-01-03-04:02:00,10.1.1.2,185,-0.370,-0.370,-0.370,0.000,0.000,0.000
1641182520974838016,2022-01-03-04:02:00,10.1.1.2,181,-0.380,-0.380,-0.380,0.000,0.000,0.000
1641182521165911040,2022-01-03-04:02:01,10.1.1.2,168,-0.390,-0.390,-0.390,0.000,0.000,0.000
1641182521398093824,2022-01-03-04:02:01,10.1.1.2,198,-0.400,-0.400,-0.400,0.000,0.000,0.000
1641182521987318016,2022-01-03-04:02:01,10.1.1.2,185,-0.430,-0.430,-0.430,0.000,0.000,0.000
1641182522173420032,2022-01-03-04:02:02,10.1.1.2,170,-0.440,-0.440,-0.440,0.000,0.000,0.000
1641182522375431936,2022-01-03-04:02:02,10.1.1.2,171,-0.450,-0.450,-0.450,0.000,0.000,0.000
1641182522587710976,2022-01-03-04:02:02,10.1.1.2,183,-0.460,-0.460,-0.460,0.000,0.000,0.000
1641182522788237056,2022-01-03-04:02:02,10.1.1.2,182,-0.470,-0.470,-0.470,0.000,0.000,0.000
1641182522988809984,2022-01-03-04:02:02,10.1.1.2,181,-0.480,-0.480,-0.480,0.000,0.000,0.000
1641182523190046976,2022-01-03-04:02:03,10.1.1.2,180,-0.490,-0.490,-0.490,0.000,0.000,0.000
1641182523389161216,2022-01-03-04:02:03,10.1.1.2,174,-0.480,-0.480,-0.480,0.000,0.000,0.000
1641182523590461952,2022-01-03-04:02:03,10.1.1.2,175,-0.470,-0.470,-0.470,0.000,0.000,0.000
1641182523792176896,2022-01-03-04:02:03,10.1.1.2,173,-0.460,-0.460,-0.460,0.000,0.000,0.000
1641182524010499072,2022-01-03-04:02:04,10.1.1.2,190,-0.450,-0.450,-0.450,0.000,0.000,0.000
1641182524209083136,2022-01-03-04:02:04,10.1.1.2,187,-0.440,-0.440,-0.440,0.000,0.000,0.000
1641182524410638080,2022-01-03-04:02:04,10.1.1.2,188,-0.430,-0.430,-0.430,0.000,0.000,0.000
1641182524610388992,2022-01-03-04:02:04,10.1.1.2,187,-0.420,-0.420,-0.420,0.000,0.000,0.000
1641182524811232000,2022-01-03-04:02:04,10.1.1.2,185,-0.410,-0.410,-0.410,0.000,0.000,0.000
1641182525010627072,2022-01-03-04:02:05,10.1.1.2,185,-0.400,-0.400,-0.400,0.000,0.000,0.000
1641182525212723968,2022-01-03-04:02:05,10.1.1.2,185,-0.390,-0.390,-0.390,0.000,0.000,0.000
1641182525412529920,2022-01-03-04:02:05,10.1.1.2,185,-0.380,-0.380,-0.380,0.000,0.000,0.000
1641182525611612160,2022-01-03-04:02:05,10.1.1.2,183,-0.370,-0.370,-0.370,0.000,0.000,0.000
1641182525810664960,2022-01-03-04:02:05,10.1.1.2,181,-0.360,-0.360,-0.360,0.000,0.000,0.000
1641182526009831936,2022-01-03-04:02:06,10.1.1.2,180,-0.350,-0.350,-0.350,0.000,0.000,0.000
1641182526211208192,2022-01-03-04:02:06,10.1.1.2,179,-0.340,-0.340,-0.340,0.000,0.000,0.000
1641182526413174016,2022-01-03-04:02:06,10.1.1.2,179,-0.330,-0.330,-0.330,0.000,0.000,0.000
1641182526611448064,2022-01-03-04:02:06,10.1.1.2,174,-0.320,-0.320,-0.320,0.000,0.000,0.000
1641182526812439040,2022-01-03-04:02:06,10.1.1.2,175,-0.310,-0.310,-0.310,0.000,0.000,0.000
1641182527026577920,2022-01-03-04:02:07,10.1.1.2,187,-0.300,-0.300,-0.300,0.000,0.000,0.000
1641182527433312768,2022-01-03-04:02:07,10.1.1.2,190,-0.280,-0.280,-0.280,0.000,0.000,0.000
1641182527633871104,2022-01-03-04:02:07,10.1.1.2,189,-0.270,-0.270,-0.270,0.000,0.000,0.000
1641182527834765056,2022-01-03-04:02:07,10.1.1.2,189,-0.260,-0.260,-0.260,0.000,0.000,0.000
1641182528019777024,2022-01-03-04:02:08,10.1.1.2,173,-0.250,-0.250,-0.250,0.000,0.000,0.000
1641182528244899072,2022-01-03-04:02:08,10.1.1.2,197,-0.240,-0.240,-0.240,0.000,0.000,0.000
1641182528439079936,2022-01-03-04:02:08,10.1.1.2,190,-0.230,-0.230,-0.230,0.000,0.000,0.000
1641182528638874880,2022-01-03-04:02:08,10.1.1.2,188,-0.220,-0.220,-0.220,0.000,0.000,0.000
1641182528828253952,2022-01-03-04:02:08,10.1.1.2,176,-0.210,-0.210,-0.210,0.000,0.000,0.000
1641182529038813952,2022-01-03-04:02:09,10.1.1.2,187,-0.200,-0.200,-0.200,0.000,0.000,0.000
1641182529239170048,2022-01-03-04:02:09,10.1.1.2,185,-0.190,-0.190,-0.190,0.000,0.000,0.000
1641182529441251072,2022-01-03-04:02:09,10.1.1.2,185,-0.180,-0.180,-0.180,0.000,0.000,0.000
1641182529639138048,2022-01-03-04:02:09,10.1.1.2,182,-0.170,-0.170,-0.170,0.000,0.000,0.000
1641182530058129920,2022-01-03-04:02:10,10.1.1.2,192,-0.150,-0.150,-0.150,0.000,0.000,0.000
1641182530256994048,2022-01-03-04:02:10,10.1.1.2,188,-0.140,-0.140,-0.140,0.000,0.000,0.000
1641182530456784128,2022-01-03-04:02:10,10.1.1.2,186,-0.130,-0.130,-0.130,0.000,0.000,0.000
1641182530656465920,2022-01-03-04:02:10,10.1.1.2,185,-0.120,-0.120,-0.120,0.000,0.000,0.000
1641182530856521984,2022-01-03-04:02:10,10.1.1.2,185,-0.110,-0.110,-0.110,0.000,0.000,0.000
1641182531056067840,2022-01-03-04:02:11,10.1.1.2,183,-0.100,-0.100,-0.100,0.000,0.000,0.000
1641182531256239872,2022-01-03-04:02:11,10.1.1.2,182,-0.090,-0.090,-0.090,0.000,0.000,0.000
1641182531457227008,2022-01-03-04:02:11,10.1.1.2,180,-0.080,-0.080,-0.080,0.000,0.000,0.000
1641182531658601984,2022-01-03-04:02:11,10.1.1.2,179,-0.070,-0.070,-0.070,0.000,0.000,0.000
1641182531857604864,2022-01-03-04:02:11,10.1.1.2,173,-0.060,-0.060,-0.060,0.000,0.000,0.000
1641182532075382016,2022-01-03-04:02:12,10.1.1.2,191,-0.050,-0.050,-0.050,0.000,0.000,0.000
1641182532271627776,2022-01-03-04:02:12,10.1.1.2,187,-0.040,-0.040,-0.040,0.000,0.000,0.000
1641182532470571008,2022-01-03-04:02:12,10.1.1.2,184,-0.030,-0.030,-0.030,0.000,0.000,0.000
1641182532671160832,2022-01-03-04:02:12,10.1.1.2,183,-0.020,-0.020,-0.020,0.000,0.000,0.000
1641182532870369024,2022-01-03-04:02:12,10.1.1.2,181,-0.010,-0.010,-0.010,0.000,0.000,0.000
1641182533070554880,2022-01-03-04:02:13,10.1.1.2,178,0.000,0.000,0.000,0.000,0.000,0.000
1641182533468177920,2022-01-03-04:02:13,10.1.1.2,172,-0.020,-0.020,-0.020,0.000,0.000,0.000
1641182533670329088,2022-01-03-04:02:13,10.1.1.2,174,-0.030,-0.030,-0.030,0.000,0.000,0.000
1641182533868580096,2022-01-03-04:02:13,10.1.1.2,172,-0.040,-0.040,-0.040,0.000,0.000,0.000
1641182534068641792,2022-01-03-04:02:14,10.1.1.2,168,-0.050,-0.050,-0.050,0.000,0.000,0.000
1641182534290745856,2022-01-03-04:02:14,10.1.1.2,189,-0.060,-0.060,-0.060,0.000,0.000,0.000
1641182534489512960,2022-01-03-04:02:14,10.1.1.2,187,-0.070,-0.070,-0.070,0.000,0.000,0.000
1641182534690306048,2022-01-03-04:02:14,10.1.1.2,187,-0.080,-0.080,-0.080,0.000,0.000,0.000
1641182534887522816,2022-01-03-04:02:14,10.1.1.2,183,-0.090,-0.090,-0.090,0.000,0.000,0.000
1641182535091418880,2022-01-03-04:02:15,10.1.1.2,186,-0.100,-0.100,-0.100,0.000,0.000,0.000
1641182535288408064,2022-01-03-04:02:15,10.1.1.2,181,-0.110,-0.110,-0.110,0.000,0.000,0.000
1641182535693538048,2022-01-03-04:02:15,10.1.1.2,185,-0.130,-0.130,-0.130,0.000,0.000,0.000
1641182535903960832,2022-01-03-04:02:15,10.1.1.2,195,-0.140,-0.140,-0.140,0.000,0.000,0.000
1641182536285265920,2022-01-03-04:02:16,10.1.1.2,170,-0.160,-0.160,-0.160,0.000,0.000,0.000
1641182536484681984,2022-01-03-04:02:16,10.1.1.2,170,-0.170,-0.170,-0.170,0.000,0.000,0.000
1641182536684580096,2022-01-03-04:02:16,10.1.1.2,169,-0.180,-0.180,-0.180,0.000,0.000,0.000
1641182536895139072,2022-01-03-04:02:16,10.1.1.2,179,-0.190,-0.190,-0.190,0.000,0.000,0.000
1641182537083730944,2022-01-03-04:02:17,10.1.1.2,167,-0.200,-0.200,-0.200,0.000,0.000,0.000
1641182537485673984,2022-01-03-04:02:17,10.1.1.2,167,-0.220,-0.220,-0.220,0.000,0.000,0.000
1641182537686758912,2022-01-03-04:02:17,10.1.1.2,166,-0.230,-0.230,-0.230,0.000,0.000,0.000
1641182537912795904,2022-01-03-04:02:17,10.1.1.2,192,-0.240,-0.240,-0.240,0.000,0.000,0.000
1641182538102670848,2022-01-03-04:02:18,10.1.1.2,181,-0.250,-0.250,-0.250,0.000,0.000,0.000
1641182538501293824,2022-01-03-04:02:18,10.1.1.2,178,-0.270,-0.270,-0.270,0.000,0.000,0.000
1641182538707343104,2022-01-03-04:02:18,10.1.1.2,183,-0.280,-0.280,-0.280,0.000,0.000,0.000
1641182538902200064,2022-01-03-04:02:18,10.1.1.2,177,-0.290,-0.290,-0.290,0.000,0.000,0.000
1641182539101346048,2022-01-03-04:02:19,10.1.1.2,175,-0.300,-0.300,-0.300,0.000,0.000,0.000
1641182539300811008,2022-01-03-04:02:19,10.1.1.2,174,-0.310,-0.310,-0.310,0.000,0.000,0.000
1641182539499953152,2022-01-03-04:02:19,10.1.1.2,172,-0.320,-0.320,-0.320,0.000,0.000,0.000
1641182539700372992,2022-01-03-04:02:19,10.1.1.2,168,-0.330,-0.330,-0.330,0.000,0.000,0.000
1641182539910738944,2022-01-03-04:02:19,10.1.1.2,178,-0.340,-0.340,-0.340,0.000,0.000,0.000
1641182540100399104,2022-01-03-04:02:20,10.1.1.2,167,-0.350,-0.350,-0.350,0.000,0.000,0.000
1641182540299207936,2022-01-03-04:02:20,10.1.1.2,161,-0.360,-0.360,-0.360,0.000,0.000,0.000
1641182540518668032,2022-01-03-04:02:20,10.1.1.2,178,-0.370,-0.370,-0.370,0.000,0.000,0.000
1641182540719213056,2022-01-03-04:02:20,10.1.1.2,178,-0.380,-0.380,-0.380,0.000,0.000,0.000
1641182540918957056,2022-01-03-04:02:20,10.1.1.2,177,-0.390,-0.390,-0.390,0.000,0.000,0.000
1641182541108180992,2022-01-03-04:02:21,10.1.1.2,166,-0.400,-0.400,-0.400,0.000,0.000,0.000
1641182541318115072,2022-01-03-04:02:21,10.1.1.2,174,-0.410,-0.410,-0.410,0.000,0.000,0.000
1641182541518605056,2022-01-03-04:02:21,10.1.1.2,173,-0.420,-0.420,-0.420,0.000,0.000,0.000
