FedericoMungari/DigitalTwin_service/01_WiredScenario/Output/Output_script/script_rosapi_2_output_robots10_freq0_2.txt
timestamp,date,node,latency,joint_1,joint_2,joint_3,joint_4,joint_5,joint_6
1644362088600467968,2022-02-08-23:14:48,10.1.1.3,9,-0.100,-0.100,-0.100,-0.000,0.000,-0.000
1644362088719745024,2022-02-08-23:14:48,10.1.1.3,28,-0.090,-0.090,-0.090,0.000,0.000,0.000
1644362088820625152,2022-02-08-23:14:48,10.1.1.3,27,-0.080,-0.080,-0.080,0.000,0.000,0.000
1644362088921019904,2022-02-08-23:14:48,10.1.1.3,27,-0.070,-0.070,-0.070,0.000,0.000,0.000
1644362089034650112,2022-02-08-23:14:49,10.1.1.3,26,-0.060,-0.060,-0.060,0.000,0.000,0.000
1644362089118696960,2022-02-08-23:14:49,10.1.1.3,25,-0.050,-0.050,-0.050,0.000,0.000,0.000
1644362089939388928,2022-02-08-23:14:49,10.1.1.3,39,0.030,0.030,0.030,0.000,0.000,0.000
1644362090040240128,2022-02-08-23:14:50,10.1.1.3,38,0.040,0.040,0.040,0.000,0.000,0.000
1644362090550854912,2022-02-08-23:14:50,10.1.1.3,38,0.090,0.090,0.090,0.000,0.000,0.000
1644362090650432000,2022-02-08-23:14:50,10.1.1.3,36,0.100,0.100,0.100,0.000,0.000,0.000
1644362091658635008,2022-02-08-23:14:51,10.1.1.3,29,0.000,0.000,0.000,0.000,0.000,0.000
1644362091759424000,2022-02-08-23:14:51,10.1.1.3,29,-0.010,-0.010,-0.010,0.000,0.000,0.000
1644362091859496960,2022-02-08-23:14:51,10.1.1.3,28,-0.020,-0.020,-0.020,0.000,0.000,0.000
1644362091958228224,2022-02-08-23:14:51,10.1.1.3,27,-0.030,-0.030,-0.030,0.000,0.000,0.000
1644362092058551040,2022-02-08-23:14:52,10.1.1.3,27,-0.040,-0.040,-0.040,0.000,0.000,0.000
1644362092158462976,2022-02-08-23:14:52,10.1.1.3,26,-0.050,-0.050,-0.050,0.000,0.000,0.000
1644362092259591936,2022-02-08-23:14:52,10.1.1.3,26,-0.060,-0.060,-0.060,0.000,0.000,0.000
1644362092358475008,2022-02-08-23:14:52,10.1.1.3,25,-0.070,-0.070,-0.070,0.000,0.000,0.000
1644362092458203904,2022-02-08-23:14:52,10.1.1.3,24,-0.080,-0.080,-0.080,0.000,0.000,0.000
1644362092858458112,2022-02-08-23:14:52,10.1.1.3,21,-0.080,-0.080,-0.080,0.000,0.000,0.000
1644362092958539008,2022-02-08-23:14:52,10.1.1.3,20,-0.070,-0.070,-0.070,0.000,0.000,0.000
1644362093058483968,2022-02-08-23:14:53,10.1.1.3,19,-0.060,-0.060,-0.060,0.000,0.000,0.000
1644362093178999808,2022-02-08-23:14:53,10.1.1.3,38,-0.050,-0.050,-0.050,0.000,0.000,0.000
1644362093279340032,2022-02-08-23:14:53,10.1.1.3,38,-0.040,-0.040,-0.040,0.000,0.000,0.000
1644362093378892800,2022-02-08-23:14:53,10.1.1.3,36,-0.030,-0.030,-0.030,0.000,0.000,0.000
1644362093479604992,2022-02-08-23:14:53,10.1.1.3,35,-0.020,-0.020,-0.020,0.000,0.000,0.000
1644362094179565824,2022-02-08-23:14:54,10.1.1.3,29,0.050,0.050,0.050,0.000,0.000,0.000
1644362094279755008,2022-02-08-23:14:54,10.1.1.3,29,0.060,0.060,0.060,0.000,0.000,0.000
1644362094379128064,2022-02-08-23:14:54,10.1.1.3,28,0.070,0.070,0.070,0.000,0.000,0.000
1644362094483360000,2022-02-08-23:14:54,10.1.1.3,28,0.080,0.080,0.080,0.000,0.000,0.000
1644362094589364992,2022-02-08-23:14:54,10.1.1.3,36,0.090,0.090,0.090,0.000,0.000,0.000
1644362094680381184,2022-02-08-23:14:54,10.1.1.3,26,0.100,0.100,0.100,0.000,0.000,0.000
1644362094780728064,2022-02-08-23:14:54,10.1.1.3,25,0.090,0.090,0.090,0.000,0.000,0.000
1644362095398871040,2022-02-08-23:14:55,10.1.1.3,37,0.030,0.030,0.030,0.000,0.000,0.000
1644362095498449152,2022-02-08-23:14:55,10.1.1.3,36,0.020,0.020,0.020,0.000,0.000,0.000
1644362095600413184,2022-02-08-23:14:55,10.1.1.3,36,0.010,0.010,0.010,0.000,0.000,0.000
1644362095698807040,2022-02-08-23:14:55,10.1.1.3,36,0.000,0.000,0.000,0.000,0.000,0.000
1644362095800087808,2022-02-08-23:14:55,10.1.1.3,35,-0.010,-0.010,-0.010,0.000,0.000,0.000
1644362095898578944,2022-02-08-23:14:55,10.1.1.3,35,-0.020,-0.020,-0.020,0.000,0.000,0.000
1644362096598788864,2022-02-08-23:14:56,10.1.1.3,30,-0.090,-0.090,-0.090,0.000,0.000,0.000
1644362096698932992,2022-02-08-23:14:56,10.1.1.3,29,-0.100,-0.100,-0.100,0.000,0.000,0.000
1644362096808583936,2022-02-08-23:14:56,10.1.1.3,28,-0.090,-0.090,-0.090,0.000,0.000,0.000
1644362096898874880,2022-02-08-23:14:56,10.1.1.3,27,-0.080,-0.080,-0.080,0.000,0.000,0.000
1644362097001413120,2022-02-08-23:14:57,10.1.1.3,26,-0.070,-0.070,-0.070,0.000,0.000,0.000
1644362097618566144,2022-02-08-23:14:57,10.1.1.3,39,-0.010,-0.010,-0.010,0.000,0.000,0.000
1644362097718589952,2022-02-08-23:14:57,10.1.1.3,39,0.000,0.000,0.000,0.000,0.000,0.000
1644362097840198912,2022-02-08-23:14:57,10.1.1.3,48,0.010,0.010,0.010,0.000,0.000,0.000
1644362097918230016,2022-02-08-23:14:57,10.1.1.3,38,0.020,0.020,0.020,0.000,0.000,0.000
1644362098018737920,2022-02-08-23:14:58,10.1.1.3,37,0.030,0.030,0.030,0.000,0.000,0.000
1644362098118632960,2022-02-08-23:14:58,10.1.1.3,37,0.040,0.040,0.040,0.000,0.000,0.000
1644362098218642944,2022-02-08-23:14:58,10.1.1.3,36,0.050,0.050,0.050,0.000,0.000,0.000
1644362098318850048,2022-02-08-23:14:58,10.1.1.3,36,0.060,0.060,0.060,0.000,0.000,0.000
1644362098419141888,2022-02-08-23:14:58,10.1.1.3,36,0.070,0.070,0.070,0.000,0.000,0.000
1644362099000379136,2022-02-08-23:14:59,10.1.1.3,11,0.070,0.070,0.070,0.000,0.000,0.000
1644362099419548160,2022-02-08-23:14:59,10.1.1.3,29,0.030,0.030,0.030,0.000,0.000,0.000
1644362099518610944,2022-02-08-23:14:59,10.1.1.3,29,0.020,0.020,0.020,0.000,0.000,0.000
1644362099618923776,2022-02-08-23:14:59,10.1.1.3,28,0.010,0.010,0.010,0.000,0.000,0.000
1644362099719069952,2022-02-08-23:14:59,10.1.1.3,28,0.000,0.000,0.000,0.000,0.000,0.000
1644362099818541056,2022-02-08-23:14:59,10.1.1.3,27,-0.010,-0.010,-0.010,0.000,0.000,0.000
1644362099918999040,2022-02-08-23:14:59,10.1.1.3,27,-0.020,-0.020,-0.020,0.000,0.000,0.000
1644362100024352000,2022-02-08-23:15:00,10.1.1.3,26,-0.030,-0.030,-0.030,0.000,0.000,0.000
1644362100118649856,2022-02-08-23:15:00,10.1.1.3,25,-0.040,-0.040,-0.040,0.000,0.000,0.000
1644362101239160064,2022-02-08-23:15:01,10.1.1.3,34,-0.050,-0.050,-0.050,0.000,0.000,0.000
1644362102441665792,2022-02-08-23:15:02,10.1.1.3,20,0.070,0.070,0.070,0.000,0.000,0.000
1644362102659681024,2022-02-08-23:15:02,10.1.1.3,37,0.090,0.090,0.090,0.000,0.000,0.000
1644362102829049088,2022-02-08-23:15:02,10.1.1.3,3,0.090,0.090,0.090,0.000,0.000,0.000
1644362103159069952,2022-02-08-23:15:03,10.1.1.3,30,0.060,0.060,0.060,0.000,0.000,0.000
1644362103259123968,2022-02-08-23:15:03,10.1.1.3,29,0.050,0.050,0.050,0.000,0.000,0.000
1644362103358465792,2022-02-08-23:15:03,10.1.1.3,28,0.040,0.040,0.040,0.000,0.000,0.000
1644362103460290816,2022-02-08-23:15:03,10.1.1.3,28,0.030,0.030,0.030,0.000,0.000,0.000
1644362103579195904,2022-02-08-23:15:03,10.1.1.3,39,0.020,0.020,0.020,0.000,0.000,0.000
1644362103679892992,2022-02-08-23:15:03,10.1.1.3,37,0.010,0.010,0.010,0.000,0.000,0.000
1644362103779483136,2022-02-08-23:15:03,10.1.1.3,37,0.000,0.000,0.000,0.000,0.000,0.000
1644362103879118848,2022-02-08-23:15:03,10.1.1.3,36,-0.010,-0.010,-0.010,0.000,0.000,0.000
1644362103979057152,2022-02-08-23:15:03,10.1.1.3,36,-0.020,-0.020,-0.020,0.000,0.000,0.000
1644362104079418880,2022-02-08-23:15:04,10.1.1.3,35,-0.030,-0.030,-0.030,0.000,0.000,0.000
1644362105179735040,2022-02-08-23:15:05,10.1.1.3,28,-0.060,-0.060,-0.060,0.000,0.000,0.000
1644362105280459776,2022-02-08-23:15:05,10.1.1.3,26,-0.050,-0.050,-0.050,0.000,0.000,0.000
1644362105379268864,2022-02-08-23:15:05,10.1.1.3,26,-0.040,-0.040,-0.040,0.000,0.000,0.000
1644362105479363840,2022-02-08-23:15:05,10.1.1.3,25,-0.030,-0.030,-0.030,0.000,0.000,0.000
1644362106080178944,2022-02-08-23:15:06,10.1.1.3,20,0.030,0.030,0.030,0.000,0.000,0.000
1644362106299418880,2022-02-08-23:15:06,10.1.1.3,39,0.050,0.050,0.050,0.000,0.000,0.000
1644362106379909888,2022-02-08-23:15:06,10.1.1.3,19,0.060,0.060,0.060,0.000,0.000,0.000
1644362106520706816,2022-02-08-23:15:06,10.1.1.3,37,0.070,0.070,0.070,0.000,0.000,0.000
1644362106598479872,2022-02-08-23:15:06,10.1.1.3,37,0.080,0.080,0.080,0.000,0.000,0.000
1644362106699217152,2022-02-08-23:15:06,10.1.1.3,36,0.090,0.090,0.090,0.000,0.000,0.000
1644362106798680064,2022-02-08-23:15:06,10.1.1.3,36,0.100,0.100,0.100,0.000,0.000,0.000
1644362106899553024,2022-02-08-23:15:06,10.1.1.3,36,0.090,0.090,0.090,0.000,0.000,0.000
1644362106999363072,2022-02-08-23:15:06,10.1.1.3,35,0.080,0.080,0.080,0.000,0.000,0.000
1644362107699687936,2022-02-08-23:15:07,10.1.1.3,30,0.010,0.010,0.010,0.000,0.000,0.000
1644362107799932928,2022-02-08-23:15:07,10.1.1.3,29,0.000,0.000,0.000,0.000,0.000,0.000
1644362107899023104,2022-02-08-23:15:07,10.1.1.3,28,-0.010,-0.010,-0.010,0.000,0.000,0.000
1644362107998737152,2022-02-08-23:15:07,10.1.1.3,27,-0.020,-0.020,-0.020,0.000,0.000,0.000
1644362108099187968,2022-02-08-23:15:08,10.1.1.3,26,-0.030,-0.030,-0.030,0.000,0.000,0.000
1644362108198543104,2022-02-08-23:15:08,10.1.1.3,26,-0.040,-0.040,-0.040,0.000,0.000,0.000
1644362108299525120,2022-02-08-23:15:08,10.1.1.3,25,-0.050,-0.050,-0.050,0.000,0.000,0.000
1644362108620873984,2022-02-08-23:15:08,10.1.1.3,36,-0.080,-0.080,-0.080,0.000,0.000,0.000
1644362108719106048,2022-02-08-23:15:08,10.1.1.3,35,-0.090,-0.090,-0.090,0.000,0.000,0.000
1644362108899095040,2022-02-08-23:15:08,10.1.1.3,13,-0.090,-0.090,-0.090,0.000,0.000,0.000
1644362109118635008,2022-02-08-23:15:09,10.1.1.3,29,-0.070,-0.070,-0.070,0.000,0.000,0.000
1644362109220423936,2022-02-08-23:15:09,10.1.1.3,29,-0.060,-0.060,-0.060,0.000,0.000,0.000
1644362109318897920,2022-02-08-23:15:09,10.1.1.3,27,-0.050,-0.050,-0.050,0.000,0.000,0.000
1644362109422533888,2022-02-08-23:15:09,10.1.1.3,26,-0.040,-0.040,-0.040,0.000,0.000,0.000
1644362109518803968,2022-02-08-23:15:09,10.1.1.3,25,-0.030,-0.030,-0.030,0.000,0.000,0.000
1644362111139385088,2022-02-08-23:15:11,10.1.1.3,29,0.070,0.070,0.070,0.000,0.000,0.000
1644362111239312896,2022-02-08-23:15:11,10.1.1.3,28,0.060,0.060,0.060,0.000,0.000,0.000
1644362111339430144,2022-02-08-23:15:11,10.1.1.3,28,0.050,0.050,0.050,0.000,0.000,0.000
1644362111439315200,2022-02-08-23:15:11,10.1.1.3,27,0.040,0.040,0.040,0.000,0.000,0.000
1644362111539330048,2022-02-08-23:15:11,10.1.1.3,26,0.030,0.030,0.030,0.000,0.000,0.000
1644362111639345920,2022-02-08-23:15:11,10.1.1.3,26,0.020,0.020,0.020,0.000,0.000,0.000
1644362111738547968,2022-02-08-23:15:11,10.1.1.3,25,0.010,0.010,0.010,0.000,0.000,0.000
1644362112138777088,2022-02-08-23:15:12,10.1.1.3,20,-0.030,-0.030,-0.030,0.000,0.000,0.000
1644362112258428928,2022-02-08-23:15:12,10.1.1.3,39,-0.040,-0.040,-0.040,0.000,0.000,0.000
1644362112358854912,2022-02-08-23:15:12,10.1.1.3,38,-0.050,-0.050,-0.050,0.000,0.000,0.000
1644362112458848000,2022-02-08-23:15:12,10.1.1.3,38,-0.060,-0.060,-0.060,0.000,0.000,0.000
1644362112798860032,2022-02-08-23:15:12,10.1.1.3,29,-0.090,-0.090,-0.090,0.000,0.000,0.000
1644362112898789888,2022-02-08-23:15:12,10.1.1.3,28,-0.100,-0.100,-0.100,0.000,0.000,0.000
1644362112999085056,2022-02-08-23:15:12,10.1.1.3,27,-0.090,-0.090,-0.090,0.000,0.000,0.000
1644362113098809856,2022-02-08-23:15:13,10.1.1.3,27,-0.080,-0.080,-0.080,0.000,0.000,0.000
1644362113198735872,2022-02-08-23:15:13,10.1.1.3,26,-0.070,-0.070,-0.070,0.000,0.000,0.000
1644362113718839040,2022-02-08-23:15:13,10.1.1.3,37,-0.020,-0.020,-0.020,0.000,0.000,0.000
1644362113829511936,2022-02-08-23:15:13,10.1.1.3,47,-0.010,-0.010,-0.010,0.000,0.000,0.000
1644362113918621184,2022-02-08-23:15:13,10.1.1.3,36,0.000,0.000,0.000,0.000,0.000,0.000
1644362114618778112,2022-02-08-23:15:14,10.1.1.3,29,0.070,0.070,0.070,0.000,0.000,0.000
1644362114720678144,2022-02-08-23:15:14,10.1.1.3,28,0.080,0.080,0.080,0.000,0.000,0.000
1644362114818837760,2022-02-08-23:15:14,10.1.1.3,27,0.090,0.090,0.090,0.000,0.000,0.000
1644362114919249920,2022-02-08-23:15:14,10.1.1.3,26,0.100,0.100,0.100,0.000,0.000,0.000
1644362115029128192,2022-02-08-23:15:15,10.1.1.3,36,0.090,0.090,0.090,0.000,0.000,0.000
1644362115118633984,2022-02-08-23:15:15,10.1.1.3,25,0.080,0.080,0.080,0.000,0.000,0.000
1644362115218961920,2022-02-08-23:15:15,10.1.1.3,25,0.070,0.070,0.070,0.000,0.000,0.000
1644362115318737152,2022-02-08-23:15:15,10.1.1.3,25,0.060,0.060,0.060,0.000,0.000,0.000
1644362116038948096,2022-02-08-23:15:16,10.1.1.3,38,-0.010,-0.010,-0.010,0.000,0.000,0.000
1644362116149459968,2022-02-08-23:15:16,10.1.1.3,48,-0.020,-0.020,-0.020,0.000,0.000,0.000
1644362116247787008,2022-02-08-23:15:16,10.1.1.3,37,-0.030,-0.030,-0.030,0.000,0.000,0.000
1644362116449650176,2022-02-08-23:15:16,10.1.1.3,38,-0.050,-0.050,-0.050,0.000,0.000,0.000
1644362116550625024,2022-02-08-23:15:16,10.1.1.3,38,-0.060,-0.060,-0.060,0.000,0.000,0.000
1644362116639166208,2022-02-08-23:15:16,10.1.1.3,27,-0.070,-0.070,-0.070,0.000,0.000,0.000
1644362116739748864,2022-02-08-23:15:16,10.1.1.3,26,-0.080,-0.080,-0.080,0.000,0.000,0.000
1644362116850034944,2022-02-08-23:15:16,10.1.1.3,36,-0.090,-0.090,-0.090,0.000,0.000,0.000
1644362116939523072,2022-02-08-23:15:16,10.1.1.3,25,-0.100,-0.100,-0.100,0.000,0.000,0.000
1644362117038561024,2022-02-08-23:15:17,10.1.1.3,25,-0.090,-0.090,-0.090,0.000,0.000,0.000
1644362117838385152,2022-02-08-23:15:17,10.1.1.3,19,-0.010,-0.010,-0.010,0.000,0.000,0.000
1644362118059016960,2022-02-08-23:15:18,10.1.1.3,38,0.010,0.010,0.010,0.000,0.000,0.000
1644362118159347968,2022-02-08-23:15:18,10.1.1.3,38,0.020,0.020,0.020,0.000,0.000,0.000
1644362118248390912,2022-02-08-23:15:18,10.1.1.3,27,0.030,0.030,0.030,0.000,0.000,0.000
1644362118358848000,2022-02-08-23:15:18,10.1.1.3,37,0.040,0.040,0.040,0.000,0.000,0.000
1644362118459016960,2022-02-08-23:15:18,10.1.1.3,37,0.050,0.050,0.050,0.000,0.000,0.000
1644362118558788096,2022-02-08-23:15:18,10.1.1.3,36,0.060,0.060,0.060,0.000,0.000,0.000
1644362119258925824,2022-02-08-23:15:19,10.1.1.3,30,0.070,0.070,0.070,0.000,0.000,0.000
1644362119359239168,2022-02-08-23:15:19,10.1.1.3,29,0.060,0.060,0.060,0.000,0.000,0.000
1644362119659152896,2022-02-08-23:15:19,10.1.1.3,28,0.030,0.030,0.030,0.000,0.000,0.000
1644362119759255040,2022-02-08-23:15:19,10.1.1.3,27,0.020,0.020,0.020,0.000,0.000,0.000
1644362119879059200,2022-02-08-23:15:19,10.1.1.3,39,0.010,0.010,0.010,0.000,0.000,0.000
1644362119978763008,2022-02-08-23:15:19,10.1.1.3,38,0.000,0.000,0.000,0.000,0.000,0.000
1644362120079695104,2022-02-08-23:15:20,10.1.1.3,38,-0.010,-0.010,-0.010,0.000,0.000,0.000
1644362120580080896,2022-02-08-23:15:20,10.1.1.3,21,-0.060,-0.060,-0.060,0.000,0.000,0.000
1644362120679988992,2022-02-08-23:15:20,10.1.1.3,20,-0.070,-0.070,-0.070,0.000,0.000,0.000
1644362120779774976,2022-02-08-23:15:20,10.1.1.3,19,-0.080,-0.080,-0.080,0.000,0.000,0.000
1644362120899148032,2022-02-08-23:15:20,10.1.1.3,39,-0.090,-0.090,-0.090,0.000,0.000,0.000
1644362120999116032,2022-02-08-23:15:20,10.1.1.3,38,-0.100,-0.100,-0.100,0.000,0.000,0.000
1644362121088732928,2022-02-08-23:15:21,10.1.1.3,28,-0.090,-0.090,-0.090,0.000,0.000,0.000
1644362121198923008,2022-02-08-23:15:21,10.1.1.3,37,-0.080,-0.080,-0.080,0.000,0.000,0.000
1644362121399045888,2022-02-08-23:15:21,10.1.1.3,35,-0.060,-0.060,-0.060,0.000,0.000,0.000
1644362121499277056,2022-02-08-23:15:21,10.1.1.3,35,-0.050,-0.050,-0.050,0.000,0.000,0.000
1644362122018803968,2022-02-08-23:15:22,10.1.1.3,37,0.000,0.000,0.000,0.000,0.000,0.000
1644362122118459904,2022-02-08-23:15:22,10.1.1.3,36,0.010,0.010,0.010,0.000,0.000,0.000
1644362122221577984,2022-02-08-23:15:22,10.1.1.3,36,0.020,0.020,0.020,0.000,0.000,0.000
1644362122319872000,2022-02-08-23:15:22,10.1.1.3,36,0.030,0.030,0.030,0.000,0.000,0.000
1644362122425585152,2022-02-08-23:15:22,10.1.1.3,35,0.040,0.040,0.040,0.000,0.000,0.000
1644362123329102080,2022-02-08-23:15:23,10.1.1.3,39,0.070,0.070,0.070,0.000,0.000,0.000
1644362123419329024,2022-02-08-23:15:23,10.1.1.3,27,0.060,0.060,0.060,0.000,0.000,0.000
1644362123518909952,2022-02-08-23:15:23,10.1.1.3,26,0.050,0.050,0.050,0.000,0.000,0.000
1644362123618299904,2022-02-08-23:15:23,10.1.1.3,26,0.040,0.040,0.040,0.000,0.000,0.000
1644362123719193856,2022-02-08-23:15:23,10.1.1.3,25,0.030,0.030,0.030,0.000,0.000,0.000
1644362124528305152,2022-02-08-23:15:24,10.1.1.3,30,-0.050,-0.050,-0.050,0.000,0.000,0.000
1644362124729172992,2022-02-08-23:15:24,10.1.1.3,27,-0.070,-0.070,-0.070,0.000,0.000,0.000
1644362125318427136,2022-02-08-23:15:25,10.1.1.3,10,-0.070,-0.070,-0.070,0.000,0.000,0.000
1644362125638906880,2022-02-08-23:15:25,10.1.1.3,29,-0.040,-0.040,-0.040,0.000,0.000,0.000
1644362125739301888,2022-02-08-23:15:25,10.1.1.3,28,-0.030,-0.030,-0.030,0.000,0.000,0.000
1644362125838893056,2022-02-08-23:15:25,10.1.1.3,28,-0.020,-0.020,-0.020,0.000,0.000,0.000
1644362125938493952,2022-02-08-23:15:25,10.1.1.3,27,-0.010,-0.010,-0.010,0.000,0.000,0.000
1644362126039095040,2022-02-08-23:15:26,10.1.1.3,26,0.000,0.000,0.000,0.000,0.000,0.000
1644362126238722048,2022-02-08-23:15:26,10.1.1.3,26,0.020,0.020,0.020,0.000,0.000,0.000
1644362126339872000,2022-02-08-23:15:26,10.1.1.3,26,0.030,0.030,0.030,0.000,0.000,0.000
1644362126438674944,2022-02-08-23:15:26,10.1.1.3,24,0.040,0.040,0.040,0.000,0.000,0.000
1644362127339613952,2022-02-08-23:15:27,10.1.1.3,20,0.070,0.070,0.070,0.000,0.000,0.000
1644362127458447872,2022-02-08-23:15:27,10.1.1.3,38,0.060,0.060,0.060,0.000,0.000,0.000
1644362127558707968,2022-02-08-23:15:27,10.1.1.3,38,0.050,0.050,0.050,0.000,0.000,0.000
1644362127659596800,2022-02-08-23:15:27,10.1.1.3,37,0.040,0.040,0.040,0.000,0.000,0.000
1644362127759505152,2022-02-08-23:15:27,10.1.1.3,35,0.030,0.030,0.030,0.000,0.000,0.000
1644362128382516992,2022-02-08-23:15:28,10.1.1.3,32,-0.030,-0.030,-0.030,0.000,0.000,0.000
1644362128478891008,2022-02-08-23:15:28,10.1.1.3,28,-0.040,-0.040,-0.040,0.000,0.000,0.000
1644362128579186944,2022-02-08-23:15:28,10.1.1.3,28,-0.050,-0.050,-0.050,0.000,0.000,0.000
1644362128679672064,2022-02-08-23:15:28,10.1.1.3,27,-0.060,-0.060,-0.060,0.000,0.000,0.000
1644362128898628096,2022-02-08-23:15:28,10.1.1.3,29,-0.080,-0.080,-0.080,0.000,0.000,0.000
1644362128999038976,2022-02-08-23:15:28,10.1.1.3,28,-0.090,-0.090,-0.090,0.000,0.000,0.000
1644362129100187136,2022-02-08-23:15:29,10.1.1.3,28,-0.100,-0.100,-0.100,0.000,0.000,0.000
1644362129198648064,2022-02-08-23:15:29,10.1.1.3,27,-0.090,-0.090,-0.090,0.000,0.000,0.000
1644362129298539008,2022-02-08-23:15:29,10.1.1.3,26,-0.080,-0.080,-0.080,0.000,0.000,0.000
1644362129398520064,2022-02-08-23:15:29,10.1.1.3,26,-0.070,-0.070,-0.070,0.000,0.000,0.000
1644362129499191040,2022-02-08-23:15:29,10.1.1.3,26,-0.060,-0.060,-0.060,0.000,0.000,0.000
1644362129598716928,2022-02-08-23:15:29,10.1.1.3,25,-0.050,-0.050,-0.050,0.000,0.000,0.000
1644362129698375936,2022-02-08-23:15:29,10.1.1.3,25,-0.040,-0.040,-0.040,0.000,0.000,0.000
1644362130518337024,2022-02-08-23:15:30,10.1.1.3,39,0.040,0.040,0.040,0.000,0.000,0.000
1644362130599215104,2022-02-08-23:15:30,10.1.1.3,18,0.049,0.049,0.049,0.000,0.000,0.000
1644362130729729792,2022-02-08-23:15:30,10.1.1.3,48,0.060,0.060,0.060,0.000,0.000,0.000
1644362130819437056,2022-02-08-23:15:30,10.1.1.3,37,0.070,0.070,0.070,0.000,0.000,0.000
1644362130928966912,2022-02-08-23:15:30,10.1.1.3,47,0.080,0.080,0.080,0.000,0.000,0.000
1644362131008497920,2022-02-08-23:15:31,10.1.1.3,26,0.090,0.090,0.090,0.000,0.000,0.000
1644362131118969856,2022-02-08-23:15:31,10.1.1.3,36,0.100,0.100,0.100,0.000,0.000,0.000
1644362131219180032,2022-02-08-23:15:31,10.1.1.3,35,0.090,0.090,0.090,0.000,0.000,0.000
1644362131318749952,2022-02-08-23:15:31,10.1.1.3,35,0.080,0.080,0.080,0.000,0.000,0.000
1644362131438276096,2022-02-08-23:15:31,10.1.1.3,38,0.070,0.070,0.070,0.000,0.000,0.000
1644362131538425856,2022-02-08-23:15:31,10.1.1.3,37,0.060,0.060,0.060,0.000,0.000,0.000
1644362131638515968,2022-02-08-23:15:31,10.1.1.3,37,0.050,0.050,0.050,0.000,0.000,0.000
1644362131739065856,2022-02-08-23:15:31,10.1.1.3,36,0.040,0.040,0.040,0.000,0.000,0.000
1644362132548528896,2022-02-08-23:15:32,10.1.1.3,28,-0.040,-0.040,-0.040,0.000,0.000,0.000
1644362132758678016,2022-02-08-23:15:32,10.1.1.3,37,-0.060,-0.060,-0.060,0.000,0.000,0.000
1644362132849283840,2022-02-08-23:15:32,10.1.1.3,27,-0.070,-0.070,-0.070,0.000,0.000,0.000
1644362132959261952,2022-02-08-23:15:32,10.1.1.3,36,-0.080,-0.080,-0.080,0.000,0.000,0.000
1644362133058671872,2022-02-08-23:15:33,10.1.1.3,36,-0.090,-0.090,-0.090,0.000,0.000,0.000
1644362133158484992,2022-02-08-23:15:33,10.1.1.3,35,-0.100,-0.100,-0.100,0.000,0.000,0.000
1644362133258905856,2022-02-08-23:15:33,10.1.1.3,35,-0.090,-0.090,-0.090,0.000,0.000,0.000
1644362134258585088,2022-02-08-23:15:34,10.1.1.3,29,0.010,0.010,0.010,0.000,0.000,0.000
1644362134358652160,2022-02-08-23:15:34,10.1.1.3,29,0.020,0.020,0.020,0.000,0.000,0.000
1644362134458925056,2022-02-08-23:15:34,10.1.1.3,28,0.030,0.030,0.030,0.000,0.000,0.000
1644362134560702208,2022-02-08-23:15:34,10.1.1.3,28,0.040,0.040,0.040,0.000,0.000,0.000
1644362134659544832,2022-02-08-23:15:34,10.1.1.3,27,0.050,0.050,0.050,0.000,0.000,0.000
1644362134758690048,2022-02-08-23:15:34,10.1.1.3,27,0.060,0.060,0.060,0.000,0.000,0.000
1644362134858789888,2022-02-08-23:15:34,10.1.1.3,26,0.070,0.070,0.070,0.000,0.000,0.000
1644362134958352128,2022-02-08-23:15:34,10.1.1.3,26,0.080,0.080,0.080,0.000,0.000,0.000
1644362135178524928,2022-02-08-23:15:35,10.1.1.3,39,0.100,0.100,0.100,0.000,0.000,0.000
1644362135278925824,2022-02-08-23:15:35,10.1.1.3,38,0.090,0.090,0.090,0.000,0.000,0.000
1644362135378833920,2022-02-08-23:15:35,10.1.1.3,37,0.080,0.080,0.080,0.000,0.000,0.000
1644362135478614016,2022-02-08-23:15:35,10.1.1.3,36,0.070,0.070,0.070,0.000,0.000,0.000
1644362135590349056,2022-02-08-23:15:35,10.1.1.3,45,0.060,0.060,0.060,0.000,0.000,0.000
1644362135679728128,2022-02-08-23:15:35,10.1.1.3,35,0.050,0.050,0.050,0.000,0.000,0.000
1644362136378737920,2022-02-08-23:15:36,10.1.1.3,29,-0.020,-0.020,-0.020,0.000,0.000,0.000
1644362136479324160,2022-02-08-23:15:36,10.1.1.3,28,-0.030,-0.030,-0.030,0.000,0.000,0.000
1644362136579340032,2022-02-08-23:15:36,10.1.1.3,26,-0.040,-0.040,-0.040,0.000,0.000,0.000
1644362136679517952,2022-02-08-23:15:36,10.1.1.3,26,-0.050,-0.050,-0.050,0.000,0.000,0.000
1644362136998603008,2022-02-08-23:15:36,10.1.1.3,39,-0.080,-0.080,-0.080,0.000,0.000,0.000
1644362137099355904,2022-02-08-23:15:37,10.1.1.3,38,-0.090,-0.090,-0.090,0.000,0.000,0.000
1644362137199009024,2022-02-08-23:15:37,10.1.1.3,37,-0.100,-0.100,-0.100,0.000,0.000,0.000
1644362137300133888,2022-02-08-23:15:37,10.1.1.3,37,-0.090,-0.090,-0.090,0.000,0.000,0.000
1644362137398678016,2022-02-08-23:15:37,10.1.1.3,28,-0.080,-0.080,-0.080,0.000,0.000,0.000
1644362137498574848,2022-02-08-23:15:37,10.1.1.3,27,-0.070,-0.070,-0.070,0.000,0.000,0.000
1644362137598644992,2022-02-08-23:15:37,10.1.1.3,25,-0.060,-0.060,-0.060,0.000,0.000,0.000
1644362138418854912,2022-02-08-23:15:38,10.1.1.3,39,0.020,0.020,0.020,0.000,0.000,0.000
1644362138518612992,2022-02-08-23:15:38,10.1.1.3,39,0.030,0.030,0.030,0.000,0.000,0.000
1644362138618814976,2022-02-08-23:15:38,10.1.1.3,38,0.040,0.040,0.040,0.000,0.000,0.000
1644362138718350848,2022-02-08-23:15:38,10.1.1.3,37,0.050,0.050,0.050,0.000,0.000,0.000
1644362138818770944,2022-02-08-23:15:38,10.1.1.3,37,0.060,0.060,0.060,0.000,0.000,0.000
1644362138928948992,2022-02-08-23:15:38,10.1.1.3,46,0.070,0.070,0.070,0.000,0.000,0.000
1644362139018522880,2022-02-08-23:15:39,10.1.1.3,35,0.080,0.080,0.080,0.000,0.000,0.000
1644362139129314048,2022-02-08-23:15:39,10.1.1.3,45,0.090,0.090,0.090,0.000,0.000,0.000
1644362139298691072,2022-02-08-23:15:39,10.1.1.3,9,0.090,0.090,0.090,0.000,0.000,0.000
1644362139418669824,2022-02-08-23:15:39,10.1.1.3,28,0.080,0.080,0.080,0.000,0.000,0.000
1644362139518382080,2022-02-08-23:15:39,10.1.1.3,28,0.070,0.070,0.070,0.000,0.000,0.000
1644362139618664960,2022-02-08-23:15:39,10.1.1.3,27,0.060,0.060,0.060,0.000,0.000,0.000
1644362139720221952,2022-02-08-23:15:39,10.1.1.3,26,0.050,0.050,0.050,0.000,0.000,0.000
1644362140119771904,2022-02-08-23:15:40,10.1.1.3,20,0.010,0.010,0.010,0.000,0.000,0.000
1644362140383124224,2022-02-08-23:15:40,10.1.1.3,39,-0.010,-0.010,-0.010,0.000,0.000,0.000
1644362140438624000,2022-02-08-23:15:40,10.1.1.3,38,-0.020,-0.020,-0.020,0.000,0.000,0.000
1644362140539098112,2022-02-08-23:15:40,10.1.1.3,37,-0.030,-0.030,-0.030,0.000,0.000,0.000
1644362140738388992,2022-02-08-23:15:40,10.1.1.3,26,-0.050,-0.050,-0.050,0.000,0.000,0.000
1644362141340311040,2022-02-08-23:15:41,10.1.1.3,20,-0.090,-0.090,-0.090,0.000,0.000,0.000
1644362141438697984,2022-02-08-23:15:41,10.1.1.3,19,-0.080,-0.080,-0.080,0.000,0.000,0.000
1644362141558827008,2022-02-08-23:15:41,10.1.1.3,38,-0.070,-0.070,-0.070,0.000,0.000,0.000
1644362141661178112,2022-02-08-23:15:41,10.1.1.3,37,-0.060,-0.060,-0.060,0.000,0.000,0.000
1644362141758791936,2022-02-08-23:15:41,10.1.1.3,37,-0.050,-0.050,-0.050,0.000,0.000,0.000
1644362141860761856,2022-02-08-23:15:41,10.1.1.3,36,-0.040,-0.040,-0.040,0.000,0.000,0.000
1644362141960982016,2022-02-08-23:15:41,10.1.1.3,36,-0.030,-0.030,-0.030,0.000,0.000,0.000
1644362142060890880,2022-02-08-23:15:42,10.1.1.3,35,-0.020,-0.020,-0.020,0.000,0.000,0.000
1644362142158560000,2022-02-08-23:15:42,10.1.1.3,35,-0.010,-0.010,-0.010,0.000,0.000,0.000
1644362142858556928,2022-02-08-23:15:42,10.1.1.3,30,0.060,0.060,0.060,0.000,0.000,0.000
1644362142959486976,2022-02-08-23:15:42,10.1.1.3,29,0.070,0.070,0.070,0.000,0.000,0.000
1644362143059184128,2022-02-08-23:15:43,10.1.1.3,29,0.080,0.080,0.080,0.000,0.000,0.000
1644362143158554112,2022-02-08-23:15:43,10.1.1.3,28,0.090,0.090,0.090,0.000,0.000,0.000
1644362143259223040,2022-02-08-23:15:43,10.1.1.3,26,0.100,0.100,0.100,0.000,0.000,0.000
1644362143359417856,2022-02-08-23:15:43,10.1.1.3,26,0.090,0.090,0.090,0.000,0.000,0.000
1644362143459482880,2022-02-08-23:15:43,10.1.1.3,25,0.080,0.080,0.080,0.000,0.000,0.000
1644362143560030976,2022-02-08-23:15:43,10.1.1.3,25,0.070,0.070,0.070,0.000,0.000,0.000
1644362143998862080,2022-02-08-23:15:43,10.1.1.3,39,0.030,0.030,0.030,0.000,0.000,0.000
1644362144098705920,2022-02-08-23:15:44,10.1.1.3,38,0.020,0.020,0.020,0.000,0.000,0.000
1644362144199110912,2022-02-08-23:15:44,10.1.1.3,38,0.010,0.010,0.010,0.000,0.000,0.000
1644362144301410816,2022-02-08-23:15:44,10.1.1.3,38,0.000,0.000,0.000,0.000,0.000,0.000
1644362144399116032,2022-02-08-23:15:44,10.1.1.3,37,-0.010,-0.010,-0.010,0.000,0.000,0.000
1644362144512374016,2022-02-08-23:15:44,10.1.1.3,47,-0.020,-0.020,-0.020,0.000,0.000,0.000
1644362144600075008,2022-02-08-23:15:44,10.1.1.3,36,-0.030,-0.030,-0.030,0.000,0.000,0.000
1644362144710477056,2022-02-08-23:15:44,10.1.1.3,45,-0.040,-0.040,-0.040,0.000,0.000,0.000
1644362144798427136,2022-02-08-23:15:44,10.1.1.3,34,-0.050,-0.050,-0.050,0.000,0.000,0.000
1644362145698827008,2022-02-08-23:15:45,10.1.1.3,29,-0.060,-0.060,-0.060,0.000,0.000,0.000
1644362145798481920,2022-02-08-23:15:45,10.1.1.3,29,-0.050,-0.050,-0.050,0.000,0.000,0.000
1644362145898731008,2022-02-08-23:15:45,10.1.1.3,29,-0.040,-0.040,-0.040,0.000,0.000,0.000
1644362146010472960,2022-02-08-23:15:46,10.1.1.3,39,-0.030,-0.030,-0.030,0.000,0.000,0.000
1644362146099117056,2022-02-08-23:15:46,10.1.1.3,27,-0.020,-0.020,-0.020,0.000,0.000,0.000
1644362146198867200,2022-02-08-23:15:46,10.1.1.3,27,-0.010,-0.010,-0.010,0.000,0.000,0.000
1644362146310765056,2022-02-08-23:15:46,10.1.1.3,26,0.000,0.000,0.000,0.000,0.000,0.000
1644362146400782080,2022-02-08-23:15:46,10.1.1.3,26,0.010,0.010,0.010,0.000,0.000,0.000
1644362147119177984,2022-02-08-23:15:47,10.1.1.3,40,0.080,0.080,0.080,0.000,0.000,0.000
1644362147319153920,2022-02-08-23:15:47,10.1.1.3,35,0.100,0.100,0.100,0.000,0.000,0.000
1644362147719234048,2022-02-08-23:15:47,10.1.1.3,28,0.060,0.060,0.060,0.000,0.000,0.000
1644362147819041024,2022-02-08-23:15:47,10.1.1.3,27,0.050,0.050,0.050,0.000,0.000,0.000
1644362147919833856,2022-02-08-23:15:47,10.1.1.3,26,0.040,0.040,0.040,0.000,0.000,0.000
1644362148019588096,2022-02-08-23:15:48,10.1.1.3,26,0.030,0.030,0.030,0.000,0.000,0.000
1644362148442434048,2022-02-08-23:15:48,10.1.1.3,38,-0.010,-0.010,-0.010,0.000,0.000,0.000
1644362148540126208,2022-02-08-23:15:48,10.1.1.3,38,-0.020,-0.020,-0.020,0.000,0.000,0.000
1644362148739790080,2022-02-08-23:15:48,10.1.1.3,27,-0.040,-0.040,-0.040,0.000,0.000,0.000
1644362148839013120,2022-02-08-23:15:48,10.1.1.3,27,-0.050,-0.050,-0.050,0.000,0.000,0.000
1644362149139100928,2022-02-08-23:15:49,10.1.1.3,20,-0.080,-0.080,-0.080,0.000,0.000,0.000
1644362149338742016,2022-02-08-23:15:49,10.1.1.3,19,-0.100,-0.100,-0.100,0.000,0.000,0.000
1644362149558936064,2022-02-08-23:15:49,10.1.1.3,37,-0.080,-0.080,-0.080,0.000,0.000,0.000
1644362149658473984,2022-02-08-23:15:49,10.1.1.3,36,-0.070,-0.070,-0.070,0.000,0.000,0.000
1644362149752965888,2022-02-08-23:15:49,10.1.1.3,26,-0.060,-0.060,-0.060,0.000,0.000,0.000
1644362150359229952,2022-02-08-23:15:50,10.1.1.3,29,0.000,0.000,0.000,0.000,0.000,0.000
1644362150458801152,2022-02-08-23:15:50,10.1.1.3,28,0.010,0.010,0.010,0.000,0.000,0.000
1644362150778553856,2022-02-08-23:15:50,10.1.1.3,39,0.040,0.040,0.040,0.000,0.000,0.000
1644362150878833152,2022-02-08-23:15:50,10.1.1.3,38,0.050,0.050,0.050,0.000,0.000,0.000
1644362151379296000,2022-02-08-23:15:51,10.1.1.3,27,0.100,0.100,0.100,0.000,0.000,0.000
1644362151478822912,2022-02-08-23:15:51,10.1.1.3,26,0.090,0.090,0.090,0.000,0.000,0.000
1644362151578560000,2022-02-08-23:15:51,10.1.1.3,20,0.080,0.080,0.080,0.000,0.000,0.000
1644362151699275008,2022-02-08-23:15:51,10.1.1.3,39,0.070,0.070,0.070,0.000,0.000,0.000
1644362151799742976,2022-02-08-23:15:51,10.1.1.3,39,0.060,0.060,0.060,0.000,0.000,0.000
1644362151898729984,2022-02-08-23:15:51,10.1.1.3,39,0.050,0.050,0.050,0.000,0.000,0.000
1644362151998384896,2022-02-08-23:15:51,10.1.1.3,38,0.040,0.040,0.040,0.000,0.000,0.000
1644362152098572032,2022-02-08-23:15:52,10.1.1.3,38,0.030,0.030,0.030,0.000,0.000,0.000
1644362152198604032,2022-02-08-23:15:52,10.1.1.3,37,0.020,0.020,0.020,0.000,0.000,0.000
1644362152298840064,2022-02-08-23:15:52,10.1.1.3,37,0.010,0.010,0.010,0.000,0.000,0.000
1644362152398812928,2022-02-08-23:15:52,10.1.1.3,36,0.000,0.000,0.000,0.000,0.000,0.000
1644362152499028992,2022-02-08-23:15:52,10.1.1.3,36,-0.010,-0.010,-0.010,0.000,0.000,0.000
1644362152598701056,2022-02-08-23:15:52,10.1.1.3,35,-0.020,-0.020,-0.020,0.000,0.000,0.000
1644362152698440192,2022-02-08-23:15:52,10.1.1.3,34,-0.030,-0.030,-0.030,0.000,0.000,0.000
1644362153105259008,2022-02-08-23:15:53,10.1.1.3,28,-0.070,-0.070,-0.070,0.000,0.000,0.000
1644362153698456064,2022-02-08-23:15:53,10.1.1.3,17,-0.070,-0.070,-0.070,0.000,0.000,0.000
1644362153818877952,2022-02-08-23:15:53,10.1.1.3,37,-0.060,-0.060,-0.060,0.000,0.000,0.000
1644362153918888960,2022-02-08-23:15:53,10.1.1.3,36,-0.050,-0.050,-0.050,0.000,0.000,0.000
1644362154019784960,2022-02-08-23:15:54,10.1.1.3,36,-0.040,-0.040,-0.040,0.000,0.000,0.000
1644362154320046848,2022-02-08-23:15:54,10.1.1.3,28,-0.010,-0.010,-0.010,0.000,0.000,0.000
1644362154418544896,2022-02-08-23:15:54,10.1.1.3,27,0.000,0.000,0.000,0.000,0.000,0.000
1644362154518436864,2022-02-08-23:15:54,10.1.1.3,27,0.010,0.010,0.010,0.000,0.000,0.000
1644362154619503872,2022-02-08-23:15:54,10.1.1.3,26,0.020,0.020,0.020,0.000,0.000,0.000
1644362154718727168,2022-02-08-23:15:54,10.1.1.3,26,0.030,0.030,0.030,0.000,0.000,0.000
1644362154819704064,2022-02-08-23:15:54,10.1.1.3,25,0.040,0.040,0.040,0.000,0.000,0.000
1644362154918857984,2022-02-08-23:15:54,10.1.1.3,25,0.050,0.050,0.050,0.000,0.000,0.000
1644362155438853120,2022-02-08-23:15:55,10.1.1.3,39,0.100,0.100,0.100,0.000,0.000,0.000
1644362155538796800,2022-02-08-23:15:55,10.1.1.3,39,0.090,0.090,0.090,0.000,0.000,0.000
1644362155638854912,2022-02-08-23:15:55,10.1.1.3,38,0.080,0.080,0.080,0.000,0.000,0.000
1644362155738648064,2022-02-08-23:15:55,10.1.1.3,37,0.070,0.070,0.070,0.000,0.000,0.000
1644362155838382848,2022-02-08-23:15:55,10.1.1.3,37,0.060,0.060,0.060,0.000,0.000,0.000
1644362155938599936,2022-02-08-23:15:55,10.1.1.3,36,0.050,0.050,0.050,0.000,0.000,0.000
1644362156038713856,2022-02-08-23:15:56,10.1.1.3,35,0.040,0.040,0.040,0.000,0.000,0.000
1644362156138749952,2022-02-08-23:15:56,10.1.1.3,35,0.030,0.030,0.030,0.000,0.000,0.000
1644362156238224896,2022-02-08-23:15:56,10.1.1.3,35,0.020,0.020,0.020,0.000,0.000,0.000
1644362157238872064,2022-02-08-23:15:57,10.1.1.3,27,-0.080,-0.080,-0.080,0.000,0.000,0.000
1644362157338657024,2022-02-08-23:15:57,10.1.1.3,27,-0.090,-0.090,-0.090,0.000,0.000,0.000
1644362157438600960,2022-02-08-23:15:57,10.1.1.3,26,-0.100,-0.100,-0.100,0.000,0.000,0.000
1644362157538769920,2022-02-08-23:15:57,10.1.1.3,26,-0.090,-0.090,-0.090,0.000,0.000,0.000
1644362157639784192,2022-02-08-23:15:57,10.1.1.3,25,-0.080,-0.080,-0.080,0.000,0.000,0.000
1644362157739484928,2022-02-08-23:15:57,10.1.1.3,24,-0.070,-0.070,-0.070,0.000,0.000,0.000
1644362158559247104,2022-02-08-23:15:58,10.1.1.3,39,0.010,0.010,0.010,0.000,0.000,0.000
1644362158658981120,2022-02-08-23:15:58,10.1.1.3,38,0.020,0.020,0.020,0.000,0.000,0.000
1644362158758797056,2022-02-08-23:15:58,10.1.1.3,38,0.030,0.030,0.030,0.000,0.000,0.000
1644362158858535936,2022-02-08-23:15:58,10.1.1.3,37,0.040,0.040,0.040,0.000,0.000,0.000
1644362158958881024,2022-02-08-23:15:58,10.1.1.3,37,0.050,0.050,0.050,0.000,0.000,0.000
1644362159059297024,2022-02-08-23:15:59,10.1.1.3,36,0.060,0.060,0.060,0.000,0.000,0.000
1644362159159559936,2022-02-08-23:15:59,10.1.1.3,36,0.070,0.070,0.070,0.000,0.000,0.000
1644362159259272192,2022-02-08-23:15:59,10.1.1.3,35,0.080,0.080,0.080,0.000,0.000,0.000
1644362159358181120,2022-02-08-23:15:59,10.1.1.3,35,0.090,0.090,0.090,0.000,0.000,0.000
1644362159458287872,2022-02-08-23:15:59,10.1.1.3,35,0.100,0.100,0.100,0.000,0.000,0.000
1644362160158713088,2022-02-08-23:16:00,10.1.1.3,30,0.030,0.030,0.030,0.000,0.000,0.000
1644362160258821120,2022-02-08-23:16:00,10.1.1.3,29,0.020,0.020,0.020,0.000,0.000,0.000
1644362160359284992,2022-02-08-23:16:00,10.1.1.3,29,0.010,0.010,0.010,0.000,0.000,0.000
1644362160458502144,2022-02-08-23:16:00,10.1.1.3,29,0.000,0.000,0.000,0.000,0.000,0.000
1644362160558563072,2022-02-08-23:16:00,10.1.1.3,28,-0.010,-0.010,-0.010,0.000,0.000,0.000
1644362160658651136,2022-02-08-23:16:00,10.1.1.3,27,-0.020,-0.020,-0.020,0.000,0.000,0.000
1644362160760626176,2022-02-08-23:16:00,10.1.1.3,27,-0.030,-0.030,-0.030,0.000,0.000,0.000
1644362160859394048,2022-02-08-23:16:00,10.1.1.3,26,-0.040,-0.040,-0.040,0.000,0.000,0.000
1644362160959214848,2022-02-08-23:16:00,10.1.1.3,26,-0.050,-0.050,-0.050,0.000,0.000,0.000
1644362161378504960,2022-02-08-23:16:01,10.1.1.3,30,-0.090,-0.090,-0.090,0.000,0.000,0.000
1644362161479190016,2022-02-08-23:16:01,10.1.1.3,29,-0.100,-0.100,-0.100,0.000,0.000,0.000
1644362161579042048,2022-02-08-23:16:01,10.1.1.3,29,-0.090,-0.090,-0.090,0.000,0.000,0.000
1644362161679104000,2022-02-08-23:16:01,10.1.1.3,29,-0.080,-0.080,-0.080,0.000,0.000,0.000
1644362161779126784,2022-02-08-23:16:01,10.1.1.3,28,-0.070,-0.070,-0.070,0.000,0.000,0.000
1644362161879394048,2022-02-08-23:16:01,10.1.1.3,28,-0.060,-0.060,-0.060,0.000,0.000,0.000
1644362161979037952,2022-02-08-23:16:01,10.1.1.3,27,-0.050,-0.050,-0.050,0.000,0.000,0.000
1644362162088888832,2022-02-08-23:16:02,10.1.1.3,36,-0.040,-0.040,-0.040,0.000,0.000,0.000
1644362162178802944,2022-02-08-23:16:02,10.1.1.3,25,-0.030,-0.030,-0.030,0.000,0.000,0.000
1644362162818771968,2022-02-08-23:16:02,10.1.1.3,29,0.030,0.030,0.030,0.000,0.000,0.000
1644362162918736896,2022-02-08-23:16:02,10.1.1.3,29,0.040,0.040,0.040,0.000,0.000,0.000
1644362163019742976,2022-02-08-23:16:03,10.1.1.3,28,0.050,0.050,0.050,0.000,0.000,0.000
1644362163120003840,2022-02-08-23:16:03,10.1.1.3,28,0.060,0.060,0.060,0.000,0.000,0.000
1644362163218985984,2022-02-08-23:16:03,10.1.1.3,27,0.070,0.070,0.070,0.000,0.000,0.000
1644362163318568960,2022-02-08-23:16:03,10.1.1.3,26,0.080,0.080,0.080,0.000,0.000,0.000
1644362163421611008,2022-02-08-23:16:03,10.1.1.3,26,0.090,0.090,0.090,0.000,0.000,0.000
1644362163518892032,2022-02-08-23:16:03,10.1.1.3,26,0.100,0.100,0.100,0.000,0.000,0.000
1644362163619064064,2022-02-08-23:16:03,10.1.1.3,25,0.090,0.090,0.090,0.000,0.000,0.000
1644362163738488064,2022-02-08-23:16:03,10.1.1.3,38,0.080,0.080,0.080,0.000,0.000,0.000
1644362163838577920,2022-02-08-23:16:03,10.1.1.3,38,0.070,0.070,0.070,0.000,0.000,0.000
1644362163938909952,2022-02-08-23:16:03,10.1.1.3,37,0.060,0.060,0.060,0.000,0.000,0.000
1644362164039020032,2022-02-08-23:16:04,10.1.1.3,36,0.050,0.050,0.050,0.000,0.000,0.000
1644362164138967040,2022-02-08-23:16:04,10.1.1.3,36,0.040,0.040,0.040,0.000,0.000,0.000
1644362164238739968,2022-02-08-23:16:04,10.1.1.3,35,0.030,0.030,0.030,0.000,0.000,0.000
1644362164638716928,2022-02-08-23:16:04,10.1.1.3,29,-0.010,-0.010,-0.010,0.000,0.000,0.000
1644362164739063040,2022-02-08-23:16:04,10.1.1.3,28,-0.020,-0.020,-0.020,0.000,0.000,0.000
1644362164850253056,2022-02-08-23:16:04,10.1.1.3,37,-0.030,-0.030,-0.030,0.000,0.000,0.000
1644362164939264000,2022-02-08-23:16:04,10.1.1.3,26,-0.040,-0.040,-0.040,0.000,0.000,0.000
1644362165039310848,2022-02-08-23:16:05,10.1.1.3,25,-0.050,-0.050,-0.050,0.000,0.000,0.000
1644362165138690048,2022-02-08-23:16:05,10.1.1.3,25,-0.060,-0.060,-0.060,0.000,0.000,0.000
1644362165940416000,2022-02-08-23:16:05,10.1.1.3,19,-0.060,-0.060,-0.060,0.000,0.000,0.000
1644362166058904832,2022-02-08-23:16:06,10.1.1.3,39,-0.050,-0.050,-0.050,0.000,0.000,0.000
1644362166160056064,2022-02-08-23:16:06,10.1.1.3,38,-0.040,-0.040,-0.040,0.000,0.000,0.000
1644362166259066112,2022-02-08-23:16:06,10.1.1.3,37,-0.030,-0.030,-0.030,0.000,0.000,0.000
1644362166359389952,2022-02-08-23:16:06,10.1.1.3,37,-0.020,-0.020,-0.020,0.000,0.000,0.000
1644362166458856192,2022-02-08-23:16:06,10.1.1.3,36,-0.010,-0.010,-0.010,0.000,0.000,0.000
1644362166559514112,2022-02-08-23:16:06,10.1.1.3,35,0.000,0.000,0.000,0.000,0.000,0.000
1644362166661348096,2022-02-08-23:16:06,10.1.1.3,35,0.010,0.010,0.010,0.000,0.000,0.000
1644362167558831104,2022-02-08-23:16:07,10.1.1.3,29,0.100,0.100,0.100,0.000,0.000,0.000
1644362167658502144,2022-02-08-23:16:07,10.1.1.3,27,0.090,0.090,0.090,0.000,0.000,0.000
1644362167758991872,2022-02-08-23:16:07,10.1.1.3,26,0.080,0.080,0.080,0.000,0.000,0.000
1644362167859257856,2022-02-08-23:16:07,10.1.1.3,25,0.070,0.070,0.070,0.000,0.000,0.000
1644362168078766080,2022-02-08-23:16:08,10.1.1.3,36,0.050,0.050,0.050,0.000,0.000,0.000
1644362168179585024,2022-02-08-23:16:08,10.1.1.3,36,0.040,0.040,0.040,0.000,0.000,0.000
1644362168279952896,2022-02-08-23:16:08,10.1.1.3,34,0.030,0.030,0.030,0.000,0.000,0.000
1644362168478713088,2022-02-08-23:16:08,10.1.1.3,29,0.010,0.010,0.010,0.000,0.000,0.000
1644362168579806208,2022-02-08-23:16:08,10.1.1.3,29,0.000,0.000,0.000,0.000,0.000,0.000
1644362168678509824,2022-02-08-23:16:08,10.1.1.3,28,-0.010,-0.010,-0.010,0.000,0.000,0.000
1644362168779869184,2022-02-08-23:16:08,10.1.1.3,26,-0.020,-0.020,-0.020,0.000,0.000,0.000
1644362168880233984,2022-02-08-23:16:08,10.1.1.3,26,-0.030,-0.030,-0.030,0.000,0.000,0.000
1644362169579293952,2022-02-08-23:16:09,10.1.1.3,20,-0.100,-0.100,-0.100,0.000,0.000,0.000
1644362169700283136,2022-02-08-23:16:09,10.1.1.3,39,-0.090,-0.090,-0.090,0.000,0.000,0.000
1644362169798940928,2022-02-08-23:16:09,10.1.1.3,38,-0.080,-0.080,-0.080,0.000,0.000,0.000
1644362169901343232,2022-02-08-23:16:09,10.1.1.3,38,-0.070,-0.070,-0.070,0.000,0.000,0.000
1644362169999310848,2022-02-08-23:16:09,10.1.1.3,36,-0.060,-0.060,-0.060,0.000,0.000,0.000
1644362170100212224,2022-02-08-23:16:10,10.1.1.3,35,-0.050,-0.050,-0.050,0.000,0.000,0.000
1644362170300847104,2022-02-08-23:16:10,10.1.1.3,29,-0.030,-0.030,-0.030,0.000,0.000,0.000
1644362170400044032,2022-02-08-23:16:10,10.1.1.3,28,-0.020,-0.020,-0.020,0.000,0.000,0.000
1644362170499276032,2022-02-08-23:16:10,10.1.1.3,27,-0.010,-0.010,-0.010,0.000,0.000,0.000
1644362170598493952,2022-02-08-23:16:10,10.1.1.3,26,0.000,0.000,0.000,0.000,0.000,0.000
1644362170698738944,2022-02-08-23:16:10,10.1.1.3,26,0.010,0.010,0.010,0.000,0.000,0.000
1644362170798569984,2022-02-08-23:16:10,10.1.1.3,25,0.020,0.020,0.020,0.000,0.000,0.000
1644362170899858944,2022-02-08-23:16:10,10.1.1.3,25,0.030,0.030,0.030,0.000,0.000,0.000
1644362171499772160,2022-02-08-23:16:11,10.1.1.3,20,0.090,0.090,0.090,0.000,0.000,0.000
1644362171609447936,2022-02-08-23:16:11,10.1.1.3,29,0.100,0.100,0.100,0.000,0.000,0.000
1644362171720609792,2022-02-08-23:16:11,10.1.1.3,38,0.090,0.090,0.090,0.000,0.000,0.000
1644362171818694144,2022-02-08-23:16:11,10.1.1.3,37,0.080,0.080,0.080,0.000,0.000,0.000
1644362171919667968,2022-02-08-23:16:11,10.1.1.3,36,0.070,0.070,0.070,0.000,0.000,0.000
1644362172018948096,2022-02-08-23:16:12,10.1.1.3,35,0.060,0.060,0.060,0.000,0.000,0.000
1644362172239973120,2022-02-08-23:16:12,10.1.1.3,36,0.040,0.040,0.040,0.000,0.000,0.000
1644362172440030208,2022-02-08-23:16:12,10.1.1.3,36,0.020,0.020,0.020,0.000,0.000,0.000
1644362172540636160,2022-02-08-23:16:12,10.1.1.3,35,0.010,0.010,0.010,0.000,0.000,0.000
1644362172938863872,2022-02-08-23:16:12,10.1.1.3,29,-0.030,-0.030,-0.030,0.000,0.000,0.000
1644362173038714880,2022-02-08-23:16:13,10.1.1.3,28,-0.040,-0.040,-0.040,0.000,0.000,0.000
1644362173138688000,2022-02-08-23:16:13,10.1.1.3,27,-0.050,-0.050,-0.050,0.000,0.000,0.000
1644362173238221056,2022-02-08-23:16:13,10.1.1.3,26,-0.060,-0.060,-0.060,0.000,0.000,0.000
1644362173959660032,2022-02-08-23:16:13,10.1.1.3,29,-0.070,-0.070,-0.070,0.000,0.000,0.000
1644362174058478080,2022-02-08-23:16:14,10.1.1.3,27,-0.060,-0.060,-0.060,0.000,0.000,0.000
1644362174158843904,2022-02-08-23:16:14,10.1.1.3,25,-0.050,-0.050,-0.050,0.000,0.000,0.000
1644362174879105024,2022-02-08-23:16:14,10.1.1.3,39,0.020,0.020,0.020,0.000,0.000,0.000
1644362174980036096,2022-02-08-23:16:14,10.1.1.3,38,0.030,0.030,0.030,0.000,0.000,0.000
1644362175071369984,2022-02-08-23:16:15,10.1.1.3,27,0.040,0.040,0.040,0.000,0.000,0.000
1644362175182157056,2022-02-08-23:16:15,10.1.1.3,37,0.050,0.050,0.050,0.000,0.000,0.000
1644362175279341056,2022-02-08-23:16:15,10.1.1.3,35,0.060,0.060,0.060,0.000,0.000,0.000
1644362175919169024,2022-02-08-23:16:15,10.1.1.3,38,0.080,0.080,0.080,0.000,0.000,0.000
1644362176029997056,2022-02-08-23:16:16,10.1.1.3,46,0.070,0.070,0.070,0.000,0.000,0.000
1644362176109908224,2022-02-08-23:16:16,10.1.1.3,25,0.060,0.060,0.060,0.000,0.000,0.000
1644362176219911168,2022-02-08-23:16:16,10.1.1.3,35,0.050,0.050,0.050,0.000,0.000,0.000
1644362176621606144,2022-02-08-23:16:16,10.1.1.3,31,0.010,0.010,0.010,0.000,0.000,0.000
1644362176719005184,2022-02-08-23:16:16,10.1.1.3,28,0.000,0.000,0.000,0.000,0.000,0.000
1644362176818682880,2022-02-08-23:16:16,10.1.1.3,27,-0.010,-0.010,-0.010,0.000,0.000,0.000
1644362176919337984,2022-02-08-23:16:16,10.1.1.3,27,-0.020,-0.020,-0.020,0.000,0.000,0.000
1644362177019023872,2022-02-08-23:16:17,10.1.1.3,26,-0.030,-0.030,-0.030,0.000,0.000,0.000
1644362177119038208,2022-02-08-23:16:17,10.1.1.3,25,-0.040,-0.040,-0.040,0.000,0.000,0.000
1644362177219472896,2022-02-08-23:16:17,10.1.1.3,24,-0.050,-0.050,-0.050,0.000,0.000,0.000
1644362177739542016,2022-02-08-23:16:17,10.1.1.3,39,-0.100,-0.100,-0.100,0.000,0.000,0.000
1644362177838382848,2022-02-08-23:16:17,10.1.1.3,38,-0.090,-0.090,-0.090,0.000,0.000,0.000
1644362177948685824,2022-02-08-23:16:17,10.1.1.3,47,-0.080,-0.080,-0.080,0.000,0.000,0.000
1644362178038672896,2022-02-08-23:16:18,10.1.1.3,36,-0.070,-0.070,-0.070,0.000,0.000,0.000
1644362178139192064,2022-02-08-23:16:18,10.1.1.3,36,-0.060,-0.060,-0.060,0.000,0.000,0.000
1644362178238935040,2022-02-08-23:16:18,10.1.1.3,35,-0.050,-0.050,-0.050,0.000,0.000,0.000
1644362178338500864,2022-02-08-23:16:18,10.1.1.3,34,-0.040,-0.040,-0.040,0.000,0.000,0.000
1644362178738481920,2022-02-08-23:16:18,10.1.1.3,28,0.000,0.000,0.000,0.000,0.000,0.000
1644362178838711040,2022-02-08-23:16:18,10.1.1.3,27,0.010,0.010,0.010,0.000,0.000,0.000
1644362178938714880,2022-02-08-23:16:18,10.1.1.3,27,0.020,0.020,0.020,0.000,0.000,0.000
1644362179038629888,2022-02-08-23:16:19,10.1.1.3,26,0.030,0.030,0.030,0.000,0.000,0.000
1644362179138654976,2022-02-08-23:16:19,10.1.1.3,26,0.040,0.040,0.040,0.000,0.000,0.000
1644362179239275008,2022-02-08-23:16:19,10.1.1.3,25,0.050,0.050,0.050,0.000,0.000,0.000
1644362180038860032,2022-02-08-23:16:20,10.1.1.3,19,0.070,0.070,0.070,0.000,0.000,0.000
1644362180158579968,2022-02-08-23:16:20,10.1.1.3,38,0.060,0.060,0.060,0.000,0.000,0.000
1644362180269253888,2022-02-08-23:16:20,10.1.1.3,47,0.050,0.050,0.050,0.000,0.000,0.000
1644362180359623936,2022-02-08-23:16:20,10.1.1.3,36,0.040,0.040,0.040,0.000,0.000,0.000
1644362180459507968,2022-02-08-23:16:20,10.1.1.3,35,0.030,0.030,0.030,0.000,0.000,0.000
1644362180558442240,2022-02-08-23:16:20,10.1.1.3,35,0.020,0.020,0.020,0.000,0.000,0.000
1644362180958384896,2022-02-08-23:16:20,10.1.1.3,29,-0.020,-0.020,-0.020,0.000,0.000,0.000
1644362181058827008,2022-02-08-23:16:21,10.1.1.3,28,-0.030,-0.030,-0.030,0.000,0.000,0.000
1644362181171443968,2022-02-08-23:16:21,10.1.1.3,37,-0.040,-0.040,-0.040,0.000,0.000,0.000
1644362181258724864,2022-02-08-23:16:21,10.1.1.3,26,-0.050,-0.050,-0.050,0.000,0.000,0.000
1644362181358302976,2022-02-08-23:16:21,10.1.1.3,25,-0.060,-0.060,-0.060,0.000,0.000,0.000
1644362181468947968,2022-02-08-23:16:21,10.1.1.3,35,-0.070,-0.070,-0.070,0.000,0.000,0.000
1644362182049176064,2022-02-08-23:16:22,10.1.1.3,11,-0.070,-0.070,-0.070,0.000,0.000,0.000
1644362182359128064,2022-02-08-23:16:22,10.1.1.3,19,-0.040,-0.040,-0.040,0.000,0.000,0.000
1644362182481456896,2022-02-08-23:16:22,10.1.1.3,39,-0.030,-0.030,-0.030,0.000,0.000,0.000
1644362182581264896,2022-02-08-23:16:22,10.1.1.3,38,-0.020,-0.020,-0.020,0.000,0.000,0.000
1644362182679440128,2022-02-08-23:16:22,10.1.1.3,37,-0.010,-0.010,-0.010,0.000,0.000,0.000
1644362182778642944,2022-02-08-23:16:22,10.1.1.3,36,0.000,0.000,0.000,0.000,0.000,0.000
1644362182888387840,2022-02-08-23:16:22,10.1.1.3,46,0.010,0.010,0.010,0.000,0.000,0.000
1644362182979265024,2022-02-08-23:16:22,10.1.1.3,35,0.020,0.020,0.020,0.000,0.000,0.000
1644362183490200064,2022-02-08-23:16:23,10.1.1.3,40,0.070,0.070,0.070,0.000,0.000,0.000
1644362183578947072,2022-02-08-23:16:23,10.1.1.3,29,0.080,0.080,0.080,0.000,0.000,0.000
1644362183689000960,2022-02-08-23:16:23,10.1.1.3,38,0.090,0.090,0.090,0.000,0.000,0.000
1644362183778795008,2022-02-08-23:16:23,10.1.1.3,27,0.100,0.100,0.100,0.000,0.000,0.000
1644362183879046912,2022-02-08-23:16:23,10.1.1.3,26,0.090,0.090,0.090,0.000,0.000,0.000
1644362183978683904,2022-02-08-23:16:23,10.1.1.3,25,0.080,0.080,0.080,0.000,0.000,0.000
1644362184079723008,2022-02-08-23:16:24,10.1.1.3,25,0.070,0.070,0.070,0.000,0.000,0.000
1644362184679238144,2022-02-08-23:16:24,10.1.1.3,20,0.010,0.010,0.010,0.000,0.000,0.000
1644362184779040000,2022-02-08-23:16:24,10.1.1.3,19,0.000,0.000,0.000,0.000,0.000,0.000
1644362184898617088,2022-02-08-23:16:24,10.1.1.3,39,-0.010,-0.010,-0.010,0.000,0.000,0.000
1644362184998770944,2022-02-08-23:16:24,10.1.1.3,38,-0.020,-0.020,-0.020,0.000,0.000,0.000
1644362185098833920,2022-02-08-23:16:25,10.1.1.3,37,-0.030,-0.030,-0.030,0.000,0.000,0.000
1644362185199578880,2022-02-08-23:16:25,10.1.1.3,36,-0.040,-0.040,-0.040,0.000,0.000,0.000
1644362185299602944,2022-02-08-23:16:25,10.1.1.3,35,-0.050,-0.050,-0.050,0.000,0.000,0.000
1644362185400301824,2022-02-08-23:16:25,10.1.1.3,35,-0.060,-0.060,-0.060,0.000,0.000,0.000
1644362186098467072,2022-02-08-23:16:26,10.1.1.3,29,-0.070,-0.070,-0.070,0.000,0.000,0.000
1644362186198612992,2022-02-08-23:16:26,10.1.1.3,29,-0.060,-0.060,-0.060,0.000,0.000,0.000
1644362186298518784,2022-02-08-23:16:26,10.1.1.3,28,-0.050,-0.050,-0.050,0.000,0.000,0.000
1644362186399218176,2022-02-08-23:16:26,10.1.1.3,27,-0.040,-0.040,-0.040,0.000,0.000,0.000
1644362186498964992,2022-02-08-23:16:26,10.1.1.3,27,-0.030,-0.030,-0.030,0.000,0.000,0.000
1644362186600520960,2022-02-08-23:16:26,10.1.1.3,26,-0.020,-0.020,-0.020,0.000,0.000,0.000
1644362186701349888,2022-02-08-23:16:26,10.1.1.3,25,-0.010,-0.010,-0.010,0.000,0.000,0.000
1644362187318978048,2022-02-08-23:16:27,10.1.1.3,39,0.050,0.050,0.050,0.000,0.000,0.000
1644362187428658944,2022-02-08-23:16:27,10.1.1.3,48,0.060,0.060,0.060,0.000,0.000,0.000
1644362187510315008,2022-02-08-23:16:27,10.1.1.3,28,0.070,0.070,0.070,0.000,0.000,0.000
1644362187619031808,2022-02-08-23:16:27,10.1.1.3,37,0.080,0.080,0.080,0.000,0.000,0.000
1644362187719782144,2022-02-08-23:16:27,10.1.1.3,37,0.090,0.090,0.090,0.000,0.000,0.000
1644362187900329984,2022-02-08-23:16:27,10.1.1.3,15,0.090,0.090,0.090,0.000,0.000,0.000
1644362188518852096,2022-02-08-23:16:28,10.1.1.3,28,0.030,0.030,0.030,0.000,0.000,0.000
1644362188618504960,2022-02-08-23:16:28,10.1.1.3,28,0.020,0.020,0.020,0.000,0.000,0.000
1644362188718849024,2022-02-08-23:16:28,10.1.1.3,27,0.010,0.010,0.010,0.000,0.000,0.000
1644362188818754816,2022-02-08-23:16:28,10.1.1.3,27,0.000,0.000,0.000,0.000,0.000,0.000
1644362188918946048,2022-02-08-23:16:28,10.1.1.3,26,-0.010,-0.010,-0.010,0.000,0.000,0.000
1644362189019036928,2022-02-08-23:16:29,10.1.1.3,25,-0.020,-0.020,-0.020,0.000,0.000,0.000
1644362189828792064,2022-02-08-23:16:29,10.1.1.3,29,-0.100,-0.100,-0.100,0.000,0.000,0.000
1644362189939398144,2022-02-08-23:16:29,10.1.1.3,38,-0.090,-0.090,-0.090,0.000,0.000,0.000
1644362190028440064,2022-02-08-23:16:30,10.1.1.3,28,-0.080,-0.080,-0.080,0.000,0.000,0.000
1644362190138819840,2022-02-08-23:16:30,10.1.1.3,37,-0.070,-0.070,-0.070,0.000,0.000,0.000
1644362190238874880,2022-02-08-23:16:30,10.1.1.3,36,-0.060,-0.060,-0.060,0.000,0.000,0.000
1644362190339019008,2022-02-08-23:16:30,10.1.1.3,35,-0.050,-0.050,-0.050,0.000,0.000,0.000
1644362190938749952,2022-02-08-23:16:30,10.1.1.3,29,0.010,0.010,0.010,0.000,0.000,0.000
1644362191039094016,2022-02-08-23:16:31,10.1.1.3,29,0.020,0.020,0.020,0.000,0.000,0.000
1644362191139250944,2022-02-08-23:16:31,10.1.1.3,29,0.030,0.030,0.030,0.000,0.000,0.000
1644362191238970112,2022-02-08-23:16:31,10.1.1.3,28,0.040,0.040,0.040,0.000,0.000,0.000
1644362191339212800,2022-02-08-23:16:31,10.1.1.3,26,0.050,0.050,0.050,0.000,0.000,0.000
1644362191898386944,2022-02-08-23:16:31,10.1.1.3,37,0.100,0.100,0.100,0.000,0.000,0.000
1644362192079958016,2022-02-08-23:16:32,10.1.1.3,30,0.080,0.080,0.080,0.000,0.000,0.000
1644362192179207168,2022-02-08-23:16:32,10.1.1.3,29,0.070,0.070,0.070,0.000,0.000,0.000
1644362192279279872,2022-02-08-23:16:32,10.1.1.3,29,0.060,0.060,0.060,0.000,0.000,0.000
1644362192381142016,2022-02-08-23:16:32,10.1.1.3,29,0.050,0.050,0.050,0.000,0.000,0.000
1644362192480171008,2022-02-08-23:16:32,10.1.1.3,28,0.040,0.040,0.040,0.000,0.000,0.000
1644362192580046848,2022-02-08-23:16:32,10.1.1.3,27,0.030,0.030,0.030,0.000,0.000,0.000
1644362192680555008,2022-02-08-23:16:32,10.1.1.3,27,0.020,0.020,0.020,0.000,0.000,0.000
1644362192779484160,2022-02-08-23:16:32,10.1.1.3,26,0.010,0.010,0.010,0.000,0.000,0.000
1644362192879174912,2022-02-08-23:16:32,10.1.1.3,25,0.000,0.000,0.000,0.000,0.000,0.000
1644362192981012992,2022-02-08-23:16:32,10.1.1.3,24,-0.010,-0.010,-0.010,0.000,0.000,0.000
1644362193800691968,2022-02-08-23:16:33,10.1.1.3,38,-0.090,-0.090,-0.090,0.000,0.000,0.000
1644362193899035904,2022-02-08-23:16:33,10.1.1.3,37,-0.100,-0.100,-0.100,0.000,0.000,0.000
1644362193998706944,2022-02-08-23:16:33,10.1.1.3,36,-0.090,-0.090,-0.090,0.000,0.000,0.000
1644362194702988032,2022-02-08-23:16:34,10.1.1.3,29,-0.020,-0.020,-0.020,0.000,0.000,0.000
1644362194799951104,2022-02-08-23:16:34,10.1.1.3,28,-0.010,-0.010,-0.010,0.000,0.000,0.000
1644362194899805952,2022-02-08-23:16:34,10.1.1.3,25,0.000,0.000,0.000,0.000,0.000,0.000
1644362195418760960,2022-02-08-23:16:35,10.1.1.3,39,0.050,0.050,0.050,0.000,0.000,0.000
1644362195518277888,2022-02-08-23:16:35,10.1.1.3,37,0.060,0.060,0.060,0.000,0.000,0.000
1644362195619015936,2022-02-08-23:16:35,10.1.1.3,35,0.070,0.070,0.070,0.000,0.000,0.000
1644362195720818944,2022-02-08-23:16:35,10.1.1.3,35,0.080,0.080,0.080,0.000,0.000,0.000
1644362196101704960,2022-02-08-23:16:36,10.1.1.3,12,0.080,0.080,0.080,0.000,0.000,0.000
1644362196420167936,2022-02-08-23:16:36,10.1.1.3,29,0.050,0.050,0.050,0.000,0.000,0.000
1644362196518713856,2022-02-08-23:16:36,10.1.1.3,28,0.040,0.040,0.040,0.000,0.000,0.000
1644362196622298112,2022-02-08-23:16:36,10.1.1.3,28,0.030,0.030,0.030,0.000,0.000,0.000
1644362196718606080,2022-02-08-23:16:36,10.1.1.3,27,0.020,0.020,0.020,0.000,0.000,0.000
1644362196818771968,2022-02-08-23:16:36,10.1.1.3,26,0.010,0.010,0.010,0.000,0.000,0.000
1644362196918551808,2022-02-08-23:16:36,10.1.1.3,25,0.000,0.000,0.000,0.000,0.000,0.000
1644362197020841984,2022-02-08-23:16:37,10.1.1.3,25,-0.010,-0.010,-0.010,0.000,0.000,0.000
1644362197640384000,2022-02-08-23:16:37,10.1.1.3,39,-0.070,-0.070,-0.070,0.000,0.000,0.000
1644362197741463808,2022-02-08-23:16:37,10.1.1.3,37,-0.080,-0.080,-0.080,0.000,0.000,0.000
1644362197850541056,2022-02-08-23:16:37,10.1.1.3,47,-0.090,-0.090,-0.090,0.000,0.000,0.000
1644362197939640064,2022-02-08-23:16:37,10.1.1.3,36,-0.100,-0.100,-0.100,0.000,0.000,0.000
1644362198038259968,2022-02-08-23:16:38,10.1.1.3,35,-0.090,-0.090,-0.090,0.000,0.000,0.000
1644362198739479040,2022-02-08-23:16:38,10.1.1.3,29,-0.020,-0.020,-0.020,0.000,0.000,0.000
1644362198840706048,2022-02-08-23:16:38,10.1.1.3,28,-0.010,-0.010,-0.010,0.000,0.000,0.000
1644362198938929920,2022-02-08-23:16:38,10.1.1.3,27,0.000,0.000,0.000,0.000,0.000,0.000
1644362199038727936,2022-02-08-23:16:39,10.1.1.3,27,0.010,0.010,0.010,0.000,0.000,0.000
1644362199139246080,2022-02-08-23:16:39,10.1.1.3,26,0.020,0.020,0.020,0.000,0.000,0.000
1644362199240441088,2022-02-08-23:16:39,10.1.1.3,25,0.030,0.030,0.030,0.000,0.000,0.000
1644362200258418176,2022-02-08-23:16:40,10.1.1.3,39,0.070,0.070,0.070,0.000,0.000,0.000
1644362200358829056,2022-02-08-23:16:40,10.1.1.3,38,0.060,0.060,0.060,0.000,0.000,0.000
1644362200460562944,2022-02-08-23:16:40,10.1.1.3,38,0.050,0.050,0.050,0.000,0.000,0.000
1644362200558310144,2022-02-08-23:16:40,10.1.1.3,38,0.040,0.040,0.040,0.000,0.000,0.000
1644362200658694912,2022-02-08-23:16:40,10.1.1.3,36,0.030,0.030,0.030,0.000,0.000,0.000
1644362200758557184,2022-02-08-23:16:40,10.1.1.3,36,0.020,0.020,0.020,0.000,0.000,0.000
1644362200858609920,2022-02-08-23:16:40,10.1.1.3,36,0.010,0.010,0.010,0.000,0.000,0.000
1644362200958388992,2022-02-08-23:16:40,10.1.1.3,35,0.000,0.000,0.000,0.000,0.000,0.000
1644362201959325184,2022-02-08-23:16:41,10.1.1.3,29,-0.100,-0.100,-0.100,0.000,0.000,0.000
1644362202059768064,2022-02-08-23:16:42,10.1.1.3,28,-0.090,-0.090,-0.090,0.000,0.000,0.000
1644362202161065216,2022-02-08-23:16:42,10.1.1.3,28,-0.080,-0.080,-0.080,0.000,0.000,0.000
1644362202261785088,2022-02-08-23:16:42,10.1.1.3,27,-0.070,-0.070,-0.070,0.000,0.000,0.000
1644362202358982144,2022-02-08-23:16:42,10.1.1.3,26,-0.060,-0.060,-0.060,0.000,0.000,0.000
1644362202462786816,2022-02-08-23:16:42,10.1.1.3,25,-0.050,-0.050,-0.050,0.000,0.000,0.000
1644362203378947072,2022-02-08-23:16:43,10.1.1.3,39,0.040,0.040,0.040,0.000,0.000,0.000
1644362203478669824,2022-02-08-23:16:43,10.1.1.3,38,0.050,0.050,0.050,0.000,0.000,0.000
1644362203571387136,2022-02-08-23:16:43,10.1.1.3,28,0.060,0.060,0.060,0.000,0.000,0.000
1644362203688910080,2022-02-08-23:16:43,10.1.1.3,46,0.070,0.070,0.070,0.000,0.000,0.000
1644362204258531072,2022-02-08-23:16:44,10.1.1.3,10,0.070,0.070,0.070,0.000,0.000,0.000
1644362204379257856,2022-02-08-23:16:44,10.1.1.3,30,0.060,0.060,0.060,0.000,0.000,0.000
1644362204479065856,2022-02-08-23:16:44,10.1.1.3,29,0.050,0.050,0.050,0.000,0.000,0.000
1644362204579279872,2022-02-08-23:16:44,10.1.1.3,29,0.040,0.040,0.040,0.000,0.000,0.000
1644362204680658944,2022-02-08-23:16:44,10.1.1.3,28,0.030,0.030,0.030,0.000,0.000,0.000
1644362204778820864,2022-02-08-23:16:44,10.1.1.3,26,0.020,0.020,0.020,0.000,0.000,0.000
1644362204880472064,2022-02-08-23:16:44,10.1.1.3,26,0.010,0.010,0.010,0.000,0.000,0.000
1644362204979104000,2022-02-08-23:16:44,10.1.1.3,26,0.000,0.000,0.000,0.000,0.000,0.000
1644362205082347008,2022-02-08-23:16:45,10.1.1.3,25,-0.010,-0.010,-0.010,0.000,0.000,0.000
1644362205178336000,2022-02-08-23:16:45,10.1.1.3,25,-0.020,-0.020,-0.020,0.000,0.000,0.000
1644362205883372032,2022-02-08-23:16:45,10.1.1.3,19,-0.090,-0.090,-0.090,0.000,0.000,0.000
1644362205998863872,2022-02-08-23:16:45,10.1.1.3,39,-0.100,-0.100,-0.100,0.000,0.000,0.000
1644362206098665984,2022-02-08-23:16:46,10.1.1.3,39,-0.090,-0.090,-0.090,0.000,0.000,0.000
1644362206189817856,2022-02-08-23:16:46,10.1.1.3,28,-0.080,-0.080,-0.080,0.000,0.000,0.000
1644362206308902144,2022-02-08-23:16:46,10.1.1.3,47,-0.070,-0.070,-0.070,0.000,0.000,0.000
1644362206391499008,2022-02-08-23:16:46,10.1.1.3,25,-0.060,-0.060,-0.060,0.000,0.000,0.000
1644362207398878976,2022-02-08-23:16:47,10.1.1.3,29,0.040,0.040,0.040,0.000,0.000,0.000
1644362207498689024,2022-02-08-23:16:47,10.1.1.3,29,0.050,0.050,0.050,0.000,0.000,0.000
1644362207599200000,2022-02-08-23:16:47,10.1.1.3,27,0.060,0.060,0.060,0.000,0.000,0.000
1644362207700734976,2022-02-08-23:16:47,10.1.1.3,27,0.070,0.070,0.070,0.000,0.000,0.000
1644362207800539904,2022-02-08-23:16:47,10.1.1.3,26,0.080,0.080,0.080,0.000,0.000,0.000
1644362208009074944,2022-02-08-23:16:48,10.1.1.3,34,0.100,0.100,0.100,0.000,0.000,0.000
1644362208519105792,2022-02-08-23:16:48,10.1.1.3,38,0.050,0.050,0.050,0.000,0.000,0.000
1644362208618646016,2022-02-08-23:16:48,10.1.1.3,38,0.040,0.040,0.040,0.000,0.000,0.000
1644362208718987008,2022-02-08-23:16:48,10.1.1.3,38,0.030,0.030,0.030,0.000,0.000,0.000
1644362208818844160,2022-02-08-23:16:48,10.1.1.3,35,0.020,0.020,0.020,0.000,0.000,0.000
1644362208923212032,2022-02-08-23:16:48,10.1.1.3,35,0.010,0.010,0.010,0.000,0.000,0.000
1644362209628843008,2022-02-08-23:16:49,10.1.1.3,39,-0.060,-0.060,-0.060,0.000,0.000,0.000
1644362209718673920,2022-02-08-23:16:49,10.1.1.3,29,-0.070,-0.070,-0.070,0.000,0.000,0.000
1644362209818993920,2022-02-08-23:16:49,10.1.1.3,28,-0.080,-0.080,-0.080,0.000,0.000,0.000
1644362209919868928,2022-02-08-23:16:49,10.1.1.3,28,-0.090,-0.090,-0.090,0.000,0.000,0.000
1644362210019421184,2022-02-08-23:16:50,10.1.1.3,27,-0.100,-0.100,-0.100,0.000,0.000,0.000
1644362210119235072,2022-02-08-23:16:50,10.1.1.3,27,-0.090,-0.090,-0.090,0.000,0.000,0.000
1644362210229104896,2022-02-08-23:16:50,10.1.1.3,36,-0.080,-0.080,-0.080,0.000,0.000,0.000
1644362210328992000,2022-02-08-23:16:50,10.1.1.3,36,-0.070,-0.070,-0.070,0.000,0.000,0.000
1644362210419062016,2022-02-08-23:16:50,10.1.1.3,25,-0.060,-0.060,-0.060,0.000,0.000,0.000
1644362210528329984,2022-02-08-23:16:50,10.1.1.3,35,-0.050,-0.050,-0.050,0.000,0.000,0.000
1644362211318978048,2022-02-08-23:16:51,10.1.1.3,20,0.030,0.030,0.030,0.000,0.000,0.000
1644362211438461952,2022-02-08-23:16:51,10.1.1.3,39,0.040,0.040,0.040,0.000,0.000,0.000
1644362211539177984,2022-02-08-23:16:51,10.1.1.3,39,0.050,0.050,0.050,0.000,0.000,0.000
1644362211638979840,2022-02-08-23:16:51,10.1.1.3,38,0.060,0.060,0.060,0.000,0.000,0.000
1644362211738429184,2022-02-08-23:16:51,10.1.1.3,38,0.070,0.070,0.070,0.000,0.000,0.000
1644362211838283008,2022-02-08-23:16:51,10.1.1.3,37,0.080,0.080,0.080,0.000,0.000,0.000
1644362211928827904,2022-02-08-23:16:51,10.1.1.3,26,0.090,0.090,0.090,0.000,0.000,0.000
1644362212039165952,2022-02-08-23:16:52,10.1.1.3,36,0.100,0.100,0.100,0.000,0.000,0.000
1644362212138899968,2022-02-08-23:16:52,10.1.1.3,35,0.090,0.090,0.090,0.000,0.000,0.000
1644362212938853120,2022-02-08-23:16:52,10.1.1.3,29,0.010,0.010,0.010,0.000,0.000,0.000
1644362213148873984,2022-02-08-23:16:53,10.1.1.3,39,-0.010,-0.010,-0.010,0.000,0.000,0.000
1644362213237970944,2022-02-08-23:16:53,10.1.1.3,27,-0.020,-0.020,-0.020,0.000,0.000,0.000
1644362213339378176,2022-02-08-23:16:53,10.1.1.3,26,-0.030,-0.030,-0.030,0.000,0.000,0.000
1644362213440004096,2022-02-08-23:16:53,10.1.1.3,25,-0.040,-0.040,-0.040,0.000,0.000,0.000
1644362214359154944,2022-02-08-23:16:54,10.1.1.3,39,-0.070,-0.070,-0.070,0.000,0.000,0.000
1644362214459399936,2022-02-08-23:16:54,10.1.1.3,39,-0.060,-0.060,-0.060,0.000,0.000,0.000
1644362214559026944,2022-02-08-23:16:54,10.1.1.3,38,-0.050,-0.050,-0.050,0.000,0.000,0.000
1644362214660809984,2022-02-08-23:16:54,10.1.1.3,37,-0.040,-0.040,-0.040,0.000,0.000,0.000
1644362214758939136,2022-02-08-23:16:54,10.1.1.3,36,-0.030,-0.030,-0.030,0.000,0.000,0.000
1644362214868699904,2022-02-08-23:16:54,10.1.1.3,46,-0.020,-0.020,-0.020,0.000,0.000,0.000
1644362214968297984,2022-02-08-23:16:54,10.1.1.3,46,-0.010,-0.010,-0.010,0.000,0.000,0.000
1644362215058989056,2022-02-08-23:16:55,10.1.1.3,35,0.000,0.000,0.000,0.000,0.000,0.000
1644362215158514944,2022-02-08-23:16:55,10.1.1.3,35,0.010,0.010,0.010,0.000,0.000,0.000
1644362215258918144,2022-02-08-23:16:55,10.1.1.3,34,0.020,0.020,0.020,0.000,0.000,0.000
1644362216059139072,2022-02-08-23:16:56,10.1.1.3,29,0.100,0.100,0.100,0.000,0.000,0.000
1644362216158500864,2022-02-08-23:16:56,10.1.1.3,29,0.090,0.090,0.090,0.000,0.000,0.000
1644362216261133056,2022-02-08-23:16:56,10.1.1.3,28,0.080,0.080,0.080,0.000,0.000,0.000
1644362216358732032,2022-02-08-23:16:56,10.1.1.3,28,0.070,0.070,0.070,0.000,0.000,0.000
1644362216458745088,2022-02-08-23:16:56,10.1.1.3,27,0.060,0.060,0.060,0.000,0.000,0.000
1644362216558537984,2022-02-08-23:16:56,10.1.1.3,27,0.050,0.050,0.050,0.000,0.000,0.000
1644362216659273984,2022-02-08-23:16:56,10.1.1.3,26,0.040,0.040,0.040,0.000,0.000,0.000
1644362216759081984,2022-02-08-23:16:56,10.1.1.3,25,0.030,0.030,0.030,0.000,0.000,0.000
1644362217459139072,2022-02-08-23:16:57,10.1.1.3,20,-0.040,-0.040,-0.040,0.000,0.000,0.000
1644362217579691776,2022-02-08-23:16:57,10.1.1.3,40,-0.050,-0.050,-0.050,0.000,0.000,0.000
1644362217689063936,2022-02-08-23:16:57,10.1.1.3,49,-0.060,-0.060,-0.060,0.000,0.000,0.000
1644362217778708992,2022-02-08-23:16:57,10.1.1.3,38,-0.070,-0.070,-0.070,0.000,0.000,0.000
1644362217879208192,2022-02-08-23:16:57,10.1.1.3,37,-0.080,-0.080,-0.080,0.000,0.000,0.000
1644362217978653952,2022-02-08-23:16:57,10.1.1.3,36,-0.090,-0.090,-0.090,0.000,0.000,0.000
1644362218079035136,2022-02-08-23:16:58,10.1.1.3,36,-0.100,-0.100,-0.100,0.000,0.000,0.000
1644362218168381952,2022-02-08-23:16:58,10.1.1.3,24,-0.090,-0.090,-0.090,0.000,0.000,0.000
1644362218980887040,2022-02-08-23:16:58,10.1.1.3,28,-0.010,-0.010,-0.010,0.000,0.000,0.000
1644362219080118784,2022-02-08-23:16:59,10.1.1.3,27,0.000,0.000,0.000,0.000,0.000,0.000
1644362219179584000,2022-02-08-23:16:59,10.1.1.3,27,0.010,0.010,0.010,0.000,0.000,0.000
1644362219288940800,2022-02-08-23:16:59,10.1.1.3,36,0.020,0.020,0.020,0.000,0.000,0.000
1644362219378742016,2022-02-08-23:16:59,10.1.1.3,26,0.030,0.030,0.030,0.000,0.000,0.000
1644362219478964992,2022-02-08-23:16:59,10.1.1.3,26,0.040,0.040,0.040,0.000,0.000,0.000
1644362219579442944,2022-02-08-23:16:59,10.1.1.3,26,0.050,0.050,0.050,0.000,0.000,0.000
1644362219678964992,2022-02-08-23:16:59,10.1.1.3,25,0.060,0.060,0.060,0.000,0.000,0.000
1644362219778779136,2022-02-08-23:16:59,10.1.1.3,24,0.070,0.070,0.070,0.000,0.000,0.000
1644362220378865920,2022-02-08-23:17:00,10.1.1.3,21,0.070,0.070,0.070,0.000,0.000,0.000
1644362220698951936,2022-02-08-23:17:00,10.1.1.3,39,0.040,0.040,0.040,0.000,0.000,0.000
1644362220809804800,2022-02-08-23:17:00,10.1.1.3,49,0.030,0.030,0.030,0.000,0.000,0.000
1644362220899180800,2022-02-08-23:17:00,10.1.1.3,38,0.020,0.020,0.020,0.000,0.000,0.000
1644362221000730880,2022-02-08-23:17:01,10.1.1.3,38,0.010,0.010,0.010,0.000,0.000,0.000
1644362221089707008,2022-02-08-23:17:01,10.1.1.3,28,0.000,0.000,0.000,0.000,0.000,0.000
1644362221188879104,2022-02-08-23:17:01,10.1.1.3,27,-0.010,-0.010,-0.010,0.000,0.000,0.000
1644362221299473920,2022-02-08-23:17:01,10.1.1.3,36,-0.020,-0.020,-0.020,0.000,0.000,0.000
1644362221399621120,2022-02-08-23:17:01,10.1.1.3,35,-0.030,-0.030,-0.030,0.000,0.000,0.000
1644362221499383040,2022-02-08-23:17:01,10.1.1.3,35,-0.040,-0.040,-0.040,0.000,0.000,0.000
1644362221599772928,2022-02-08-23:17:01,10.1.1.3,34,-0.050,-0.050,-0.050,0.000,0.000,0.000
1644362222199239936,2022-02-08-23:17:02,10.1.1.3,29,-0.090,-0.090,-0.090,0.000,0.000,0.000
1644362222301734912,2022-02-08-23:17:02,10.1.1.3,28,-0.080,-0.080,-0.080,0.000,0.000,0.000
1644362222410129152,2022-02-08-23:17:02,10.1.1.3,38,-0.070,-0.070,-0.070,0.000,0.000,0.000
1644362222499036160,2022-02-08-23:17:02,10.1.1.3,27,-0.060,-0.060,-0.060,0.000,0.000,0.000
1644362222599983872,2022-02-08-23:17:02,10.1.1.3,27,-0.050,-0.050,-0.050,0.000,0.000,0.000
1644362222699683840,2022-02-08-23:17:02,10.1.1.3,26,-0.040,-0.040,-0.040,0.000,0.000,0.000
1644362222799165952,2022-02-08-23:17:02,10.1.1.3,26,-0.030,-0.030,-0.030,0.000,0.000,0.000
1644362222899819008,2022-02-08-23:17:02,10.1.1.3,25,-0.020,-0.020,-0.020,0.000,0.000,0.000
1644362222999130880,2022-02-08-23:17:02,10.1.1.3,25,-0.010,-0.010,-0.010,0.000,0.000,0.000
1644362223099452928,2022-02-08-23:17:03,10.1.1.3,24,0.000,0.000,0.000,0.000,0.000,0.000
1644362223511683840,2022-02-08-23:17:03,10.1.1.3,27,0.040,0.040,0.040,0.000,0.000,0.000
1644362224718892032,2022-02-08-23:17:04,10.1.1.3,19,0.040,0.040,0.040,0.000,0.000,0.000
1644362224839406080,2022-02-08-23:17:04,10.1.1.3,39,0.030,0.030,0.030,0.000,0.000,0.000
1644362224940346880,2022-02-08-23:17:04,10.1.1.3,38,0.020,0.020,0.020,0.000,0.000,0.000
1644362225039442176,2022-02-08-23:17:05,10.1.1.3,38,0.010,0.010,0.010,0.000,0.000,0.000
1644362225139145984,2022-02-08-23:17:05,10.1.1.3,37,0.000,0.000,0.000,0.000,0.000,0.000
1644362225239366144,2022-02-08-23:17:05,10.1.1.3,37,-0.010,-0.010,-0.010,0.000,0.000,0.000
1644362225338949888,2022-02-08-23:17:05,10.1.1.3,36,-0.020,-0.020,-0.020,0.000,0.000,0.000
1644362225439749120,2022-02-08-23:17:05,10.1.1.3,35,-0.030,-0.030,-0.030,0.000,0.000,0.000
1644362225538785024,2022-02-08-23:17:05,10.1.1.3,35,-0.040,-0.040,-0.040,0.000,0.000,0.000
1644362226259230976,2022-02-08-23:17:06,10.1.1.3,29,-0.090,-0.090,-0.090,0.000,0.000,0.000
1644362226361573888,2022-02-08-23:17:06,10.1.1.3,28,-0.080,-0.080,-0.080,0.000,0.000,0.000
1644362226462032128,2022-02-08-23:17:06,10.1.1.3,27,-0.070,-0.070,-0.070,0.000,0.000,0.000
1644362226561651968,2022-02-08-23:17:06,10.1.1.3,27,-0.060,-0.060,-0.060,0.000,0.000,0.000
1644362226663564800,2022-02-08-23:17:06,10.1.1.3,26,-0.050,-0.050,-0.050,0.000,0.000,0.000
1644362226759680000,2022-02-08-23:17:06,10.1.1.3,25,-0.040,-0.040,-0.040,0.000,0.000,0.000
1644362226897028864,2022-02-08-23:17:06,10.1.1.3,38,-0.030,-0.030,-0.030,0.000,0.000,0.000
1644362226979527936,2022-02-08-23:17:06,10.1.1.3,37,-0.020,-0.020,-0.020,0.000,0.000,0.000
1644362227079820032,2022-02-08-23:17:07,10.1.1.3,37,-0.010,-0.010,-0.010,0.000,0.000,0.000
1644362227180273152,2022-02-08-23:17:07,10.1.1.3,35,0.000,0.000,0.000,0.000,0.000,0.000
1644362227271059968,2022-02-08-23:17:07,10.1.1.3,25,0.010,0.010,0.010,0.000,0.000,0.000
1644362227390202880,2022-02-08-23:17:07,10.1.1.3,44,0.020,0.020,0.020,0.000,0.000,0.000
1644362227979202048,2022-02-08-23:17:07,10.1.1.3,28,0.080,0.080,0.080,0.000,0.000,0.000
1644362228078972928,2022-02-08-23:17:08,10.1.1.3,28,0.090,0.090,0.090,0.000,0.000,0.000
1644362228190532864,2022-02-08-23:17:08,10.1.1.3,37,0.100,0.100,0.100,0.000,0.000,0.000
1644362228281188864,2022-02-08-23:17:08,10.1.1.3,26,0.090,0.090,0.090,0.000,0.000,0.000
1644362228379084032,2022-02-08-23:17:08,10.1.1.3,25,0.080,0.080,0.080,0.000,0.000,0.000
1644362228489379840,2022-02-08-23:17:08,10.1.1.3,34,0.070,0.070,0.070,0.000,0.000,0.000
1644362228802786048,2022-02-08-23:17:08,10.1.1.3,38,0.040,0.040,0.040,0.000,0.000,0.000
1644362228899233024,2022-02-08-23:17:08,10.1.1.3,38,0.030,0.030,0.030,0.000,0.000,0.000
1644362228999848960,2022-02-08-23:17:08,10.1.1.3,38,0.020,0.020,0.020,0.000,0.000,0.000
1644362229099365120,2022-02-08-23:17:09,10.1.1.3,37,0.010,0.010,0.010,0.000,0.000,0.000
1644362229199520000,2022-02-08-23:17:09,10.1.1.3,37,0.000,0.000,0.000,0.000,0.000,0.000
1644362229291728896,2022-02-08-23:17:09,10.1.1.3,25,-0.010,-0.010,-0.010,0.000,0.000,0.000
1644362229390345984,2022-02-08-23:17:09,10.1.1.3,25,-0.020,-0.020,-0.020,0.000,0.000,0.000
1644362229799119872,2022-02-08-23:17:09,10.1.1.3,29,-0.060,-0.060,-0.060,0.000,0.000,0.000
1644362230099601920,2022-02-08-23:17:10,10.1.1.3,28,-0.090,-0.090,-0.090,0.000,0.000,0.000
1644362230201505792,2022-02-08-23:17:10,10.1.1.3,28,-0.100,-0.100,-0.100,0.000,0.000,0.000
1644362230299590144,2022-02-08-23:17:10,10.1.1.3,27,-0.090,-0.090,-0.090,0.000,0.000,0.000
1644362230399527936,2022-02-08-23:17:10,10.1.1.3,27,-0.080,-0.080,-0.080,0.000,0.000,0.000
1644362230500078080,2022-02-08-23:17:10,10.1.1.3,26,-0.070,-0.070,-0.070,0.000,0.000,0.000
1644362230599792128,2022-02-08-23:17:10,10.1.1.3,26,-0.060,-0.060,-0.060,0.000,0.000,0.000
1644362230699111936,2022-02-08-23:17:10,10.1.1.3,25,-0.050,-0.050,-0.050,0.000,0.000,0.000
1644362230799862016,2022-02-08-23:17:10,10.1.1.3,25,-0.040,-0.040,-0.040,0.000,0.000,0.000
1644362230899537920,2022-02-08-23:17:10,10.1.1.3,24,-0.030,-0.030,-0.030,0.000,0.000,0.000
1644362230999939840,2022-02-08-23:17:10,10.1.1.3,24,-0.020,-0.020,-0.020,0.000,0.000,0.000
1644362231720672000,2022-02-08-23:17:11,10.1.1.3,39,0.050,0.050,0.050,0.000,0.000,0.000
1644362231820507904,2022-02-08-23:17:11,10.1.1.3,38,0.060,0.060,0.060,0.000,0.000,0.000
1644362231929210880,2022-02-08-23:17:11,10.1.1.3,48,0.070,0.070,0.070,0.000,0.000,0.000
1644362232029438976,2022-02-08-23:17:12,10.1.1.3,47,0.080,0.080,0.080,0.000,0.000,0.000
1644362232109972992,2022-02-08-23:17:12,10.1.1.3,27,0.090,0.090,0.090,0.000,0.000,0.000
1644362232219348992,2022-02-08-23:17:12,10.1.1.3,36,0.100,0.100,0.100,0.000,0.000,0.000
1644362232319278080,2022-02-08-23:17:12,10.1.1.3,36,0.090,0.090,0.090,0.000,0.000,0.000
1644362232419817984,2022-02-08-23:17:12,10.1.1.3,34,0.080,0.080,0.080,0.000,0.000,0.000
1644362232520175872,2022-02-08-23:17:12,10.1.1.3,34,0.070,0.070,0.070,0.000,0.000,0.000
1644362233029985792,2022-02-08-23:17:13,10.1.1.3,38,0.020,0.020,0.020,0.000,0.000,0.000
1644362233119852032,2022-02-08-23:17:13,10.1.1.3,28,0.010,0.010,0.010,0.000,0.000,0.000
1644362233220004096,2022-02-08-23:17:13,10.1.1.3,27,0.000,0.000,0.000,0.000,0.000,0.000
1644362233319742976,2022-02-08-23:17:13,10.1.1.3,26,-0.010,-0.010,-0.010,0.000,0.000,0.000
1644362233420087040,2022-02-08-23:17:13,10.1.1.3,26,-0.020,-0.020,-0.020,0.000,0.000,0.000
1644362233519514112,2022-02-08-23:17:13,10.1.1.3,25,-0.030,-0.030,-0.030,0.000,0.000,0.000
1644362233619591936,2022-02-08-23:17:13,10.1.1.3,25,-0.040,-0.040,-0.040,0.000,0.000,0.000
1644362233719219968,2022-02-08-23:17:13,10.1.1.3,25,-0.050,-0.050,-0.050,0.000,0.000,0.000
1644362233819768832,2022-02-08-23:17:13,10.1.1.3,24,-0.060,-0.060,-0.060,0.000,0.000,0.000
1644362234129296896,2022-02-08-23:17:14,10.1.1.3,25,-0.090,-0.090,-0.090,0.000,0.000,0.000
1644362234249368832,2022-02-08-23:17:14,10.1.1.3,44,-0.100,-0.100,-0.100,0.000,0.000,0.000
1644362234339832064,2022-02-08-23:17:14,10.1.1.3,33,-0.090,-0.090,-0.090,0.000,0.000,0.000
1644362235039848192,2022-02-08-23:17:15,10.1.1.3,29,-0.020,-0.020,-0.020,0.000,0.000,0.000
1644362235140430848,2022-02-08-23:17:15,10.1.1.3,29,-0.010,-0.010,-0.010,0.000,0.000,0.000
1644362235249659904,2022-02-08-23:17:15,10.1.1.3,38,0.000,0.000,0.000,0.000,0.000,0.000
1644362235339857152,2022-02-08-23:17:15,10.1.1.3,27,0.010,0.010,0.010,0.000,0.000,0.000
1644362235439459072,2022-02-08-23:17:15,10.1.1.3,27,0.020,0.020,0.020,0.000,0.000,0.000
1644362235549129984,2022-02-08-23:17:15,10.1.1.3,36,0.030,0.030,0.030,0.000,0.000,0.000
1644362235639863040,2022-02-08-23:17:15,10.1.1.3,26,0.040,0.040,0.040,0.000,0.000,0.000
1644362235740390912,2022-02-08-23:17:15,10.1.1.3,26,0.050,0.050,0.050,0.000,0.000,0.000
1644362235839600128,2022-02-08-23:17:15,10.1.1.3,25,0.060,0.060,0.060,0.000,0.000,0.000
1644362235939197184,2022-02-08-23:17:15,10.1.1.3,25,0.070,0.070,0.070,0.000,0.000,0.000
1644362236039282944,2022-02-08-23:17:16,10.1.1.3,24,0.080,0.080,0.080,0.000,0.000,0.000
1644362236140617984,2022-02-08-23:17:16,10.1.1.3,24,0.090,0.090,0.090,0.000,0.000,0.000
1644362236320300032,2022-02-08-23:17:16,10.1.1.3,3,0.090,0.090,0.090,0.000,0.000,0.000
1644362236979728896,2022-02-08-23:17:16,10.1.1.3,39,0.030,0.030,0.030,0.000,0.000,0.000
1644362237079401984,2022-02-08-23:17:17,10.1.1.3,38,0.020,0.020,0.020,0.000,0.000,0.000
1644362237179565824,2022-02-08-23:17:17,10.1.1.3,38,0.010,0.010,0.010,0.000,0.000,0.000
1644362237280148992,2022-02-08-23:17:17,10.1.1.3,37,-0.000,-0.000,-0.000,0.000,0.000,0.000
1644362237380652800,2022-02-08-23:17:17,10.1.1.3,37,-0.010,-0.010,-0.010,0.000,0.000,0.000
1644362237489556992,2022-02-08-23:17:17,10.1.1.3,46,-0.020,-0.020,-0.020,0.000,0.000,0.000
1644362237590475008,2022-02-08-23:17:17,10.1.1.3,46,-0.030,-0.030,-0.030,0.000,0.000,0.000
1644362237680608000,2022-02-08-23:17:17,10.1.1.3,35,-0.040,-0.040,-0.040,0.000,0.000,0.000
1644362238280199168,2022-02-08-23:17:18,10.1.1.3,29,-0.100,-0.100,-0.100,0.000,0.000,0.000
1644362238389588992,2022-02-08-23:17:18,10.1.1.3,38,-0.090,-0.090,-0.090,0.000,0.000,0.000
1644362238480489984,2022-02-08-23:17:18,10.1.1.3,28,-0.080,-0.080,-0.080,0.000,0.000,0.000
1644362238580032000,2022-02-08-23:17:18,10.1.1.3,27,-0.070,-0.070,-0.070,0.000,0.000,0.000
1644362238680236032,2022-02-08-23:17:18,10.1.1.3,26,-0.060,-0.060,-0.060,0.000,0.000,0.000
1644362238779795968,2022-02-08-23:17:18,10.1.1.3,26,-0.050,-0.050,-0.050,0.000,0.000,0.000
1644362238879965184,2022-02-08-23:17:18,10.1.1.3,25,-0.040,-0.040,-0.040,0.000,0.000,0.000
1644362238979631872,2022-02-08-23:17:18,10.1.1.3,25,-0.030,-0.030,-0.030,0.000,0.000,0.000
1644362239082031104,2022-02-08-23:17:19,10.1.1.3,25,-0.020,-0.020,-0.020,0.000,0.000,0.000
1644362239180056064,2022-02-08-23:17:19,10.1.1.3,24,-0.010,-0.010,-0.010,0.000,0.000,0.000
1644362239909751808,2022-02-08-23:17:19,10.1.1.3,49,0.060,0.060,0.060,0.000,0.000,0.000
1644362239999761152,2022-02-08-23:17:19,10.1.1.3,39,0.070,0.070,0.070,0.000,0.000,0.000
1644362240090373888,2022-02-08-23:17:20,10.1.1.3,28,0.080,0.080,0.080,0.000,0.000,0.000
1644362240200541952,2022-02-08-23:17:20,10.1.1.3,38,0.090,0.090,0.090,0.000,0.000,0.000
1644362240299983872,2022-02-08-23:17:20,10.1.1.3,38,0.100,0.100,0.100,0.000,0.000,0.000
1644362240410547968,2022-02-08-23:17:20,10.1.1.3,48,0.090,0.090,0.090,0.000,0.000,0.000
1644362240500582912,2022-02-08-23:17:20,10.1.1.3,37,0.080,0.080,0.080,0.000,0.000,0.000
1644362240600327936,2022-02-08-23:17:20,10.1.1.3,36,0.070,0.070,0.070,0.000,0.000,0.000
1644362240700125952,2022-02-08-23:17:20,10.1.1.3,35,0.060,0.060,0.060,0.000,0.000,0.000
1644362240800669952,2022-02-08-23:17:20,10.1.1.3,35,0.050,0.050,0.050,0.000,0.000,0.000
1644362240901254912,2022-02-08-23:17:20,10.1.1.3,34,0.040,0.040,0.040,0.000,0.000,0.000
1644362241000179968,2022-02-08-23:17:21,10.1.1.3,34,0.030,0.030,0.030,0.000,0.000,0.000
1644362241700771072,2022-02-08-23:17:21,10.1.1.3,29,-0.040,-0.040,-0.040,0.000,0.000,0.000
1644362241800091136,2022-02-08-23:17:21,10.1.1.3,29,-0.050,-0.050,-0.050,0.000,0.000,0.000
1644362241909490944,2022-02-08-23:17:21,10.1.1.3,39,-0.060,-0.060,-0.060,0.000,0.000,0.000
1644362241999600896,2022-02-08-23:17:21,10.1.1.3,29,-0.070,-0.070,-0.070,0.000,0.000,0.000
1644362242100587008,2022-02-08-23:17:22,10.1.1.3,28,-0.080,-0.080,-0.080,0.000,0.000,0.000
1644362242200087040,2022-02-08-23:17:22,10.1.1.3,27,-0.090,-0.090,-0.090,0.000,0.000,0.000
1644362242300579072,2022-02-08-23:17:22,10.1.1.3,25,-0.100,-0.100,-0.100,0.000,0.000,0.000
1644362242400086016,2022-02-08-23:17:22,10.1.1.3,25,-0.090,-0.090,-0.090,0.000,0.000,0.000
1644362243120246784,2022-02-08-23:17:23,10.1.1.3,38,-0.020,-0.020,-0.020,0.000,0.000,0.000
1644362243221684992,2022-02-08-23:17:23,10.1.1.3,38,-0.010,-0.010,-0.010,0.000,0.000,0.000
1644362243309732864,2022-02-08-23:17:23,10.1.1.3,27,0.000,0.000,0.000,0.000,0.000,0.000
1644362243410022912,2022-02-08-23:17:23,10.1.1.3,27,0.010,0.010,0.010,0.000,0.000,0.000
1644362243520379136,2022-02-08-23:17:23,10.1.1.3,36,0.020,0.020,0.020,0.000,0.000,0.000
1644362243620014080,2022-02-08-23:17:23,10.1.1.3,35,0.030,0.030,0.030,0.000,0.000,0.000
1644362243720057856,2022-02-08-23:17:23,10.1.1.3,35,0.040,0.040,0.040,0.000,0.000,0.000
1644362243819875840,2022-02-08-23:17:23,10.1.1.3,35,0.050,0.050,0.050,0.000,0.000,0.000
1644362244220760064,2022-02-08-23:17:24,10.1.1.3,29,0.090,0.090,0.090,0.000,0.000,0.000
1644362244319814912,2022-02-08-23:17:24,10.1.1.3,29,0.100,0.100,0.100,0.000,0.000,0.000
1644362244520417024,2022-02-08-23:17:24,10.1.1.3,24,0.080,0.080,0.080,0.000,0.000,0.000
1644362244621143040,2022-02-08-23:17:24,10.1.1.3,25,0.070,0.070,0.070,0.000,0.000,0.000
1644362244719737088,2022-02-08-23:17:24,10.1.1.3,23,0.060,0.060,0.060,0.000,0.000,0.000
1644362245119760128,2022-02-08-23:17:25,10.1.1.3,20,0.020,0.020,0.020,0.000,0.000,0.000
1644362245379853056,2022-02-08-23:17:25,10.1.1.3,35,0.000,0.000,0.000,0.000,0.000,0.000
1644362245481154816,2022-02-08-23:17:25,10.1.1.3,35,-0.010,-0.010,-0.010,0.000,0.000,0.000
1644362245580418048,2022-02-08-23:17:25,10.1.1.3,34,-0.020,-0.020,-0.020,0.000,0.000,0.000
1644362246280195840,2022-02-08-23:17:26,10.1.1.3,29,-0.090,-0.090,-0.090,0.000,0.000,0.000
1644362246390723072,2022-02-08-23:17:26,10.1.1.3,38,-0.100,-0.100,-0.100,0.000,0.000,0.000
1644362246479891968,2022-02-08-23:17:26,10.1.1.3,27,-0.090,-0.090,-0.090,0.000,0.000,0.000
1644362246581054976,2022-02-08-23:17:26,10.1.1.3,26,-0.080,-0.080,-0.080,0.000,0.000,0.000
1644362246682446080,2022-02-08-23:17:26,10.1.1.3,25,-0.070,-0.070,-0.070,0.000,0.000,0.000
1644362246779858944,2022-02-08-23:17:26,10.1.1.3,25,-0.060,-0.060,-0.060,0.000,0.000,0.000
1644362246879656192,2022-02-08-23:17:26,10.1.1.3,24,-0.050,-0.050,-0.050,0.000,0.000,0.000
1644362247500876032,2022-02-08-23:17:27,10.1.1.3,39,0.010,0.010,0.010,0.000,0.000,0.000
1644362247605972992,2022-02-08-23:17:27,10.1.1.3,38,0.020,0.020,0.020,0.000,0.000,0.000
1644362247699644160,2022-02-08-23:17:27,10.1.1.3,37,0.030,0.030,0.030,0.000,0.000,0.000
1644362247800136960,2022-02-08-23:17:27,10.1.1.3,37,0.040,0.040,0.040,0.000,0.000,0.000
1644362247900410880,2022-02-08-23:17:27,10.1.1.3,36,0.050,0.050,0.050,0.000,0.000,0.000
1644362248000779008,2022-02-08-23:17:28,10.1.1.3,36,0.060,0.060,0.060,0.000,0.000,0.000
1644362248100857088,2022-02-08-23:17:28,10.1.1.3,35,0.070,0.070,0.070,0.000,0.000,0.000
1644362248199934976,2022-02-08-23:17:28,10.1.1.3,34,0.080,0.080,0.080,0.000,0.000,0.000
1644362248300546048,2022-02-08-23:17:28,10.1.1.3,34,0.090,0.090,0.090,0.000,0.000,0.000
1644362248480076032,2022-02-08-23:17:28,10.1.1.3,12,0.090,0.090,0.090,0.000,0.000,0.000
1644362248800510976,2022-02-08-23:17:28,10.1.1.3,29,0.060,0.060,0.060,0.000,0.000,0.000
1644362248900580864,2022-02-08-23:17:28,10.1.1.3,28,0.050,0.050,0.050,0.000,0.000,0.000
1644362249010721024,2022-02-08-23:17:29,10.1.1.3,37,0.040,0.040,0.040,0.000,0.000,0.000
1644362249101337856,2022-02-08-23:17:29,10.1.1.3,26,0.030,0.030,0.030,0.000,0.000,0.000
1644362249199721984,2022-02-08-23:17:29,10.1.1.3,24,0.020,0.020,0.020,0.000,0.000,0.000
1644362249299966208,2022-02-08-23:17:29,10.1.1.3,24,0.010,0.010,0.010,0.000,0.000,0.000
1644362249920382976,2022-02-08-23:17:29,10.1.1.3,39,-0.050,-0.050,-0.050,0.000,0.000,0.000
1644362250031543040,2022-02-08-23:17:30,10.1.1.3,48,-0.060,-0.060,-0.060,0.000,0.000,0.000
1644362250120871168,2022-02-08-23:17:30,10.1.1.3,37,-0.070,-0.070,-0.070,0.000,0.000,0.000
1644362250219831040,2022-02-08-23:17:30,10.1.1.3,36,-0.080,-0.080,-0.080,0.000,0.000,0.000
1644362250320067840,2022-02-08-23:17:30,10.1.1.3,36,-0.090,-0.090,-0.090,0.000,0.000,0.000
1644362250410404864,2022-02-08-23:17:30,10.1.1.3,25,-0.100,-0.100,-0.100,0.000,0.000,0.000
1644362250520436992,2022-02-08-23:17:30,10.1.1.3,34,-0.090,-0.090,-0.090,0.000,0.000,0.000
1644362250920883968,2022-02-08-23:17:30,10.1.1.3,28,-0.050,-0.050,-0.050,0.000,0.000,0.000
1644362251020859904,2022-02-08-23:17:31,10.1.1.3,27,-0.040,-0.040,-0.040,0.000,0.000,0.000
1644362251120354048,2022-02-08-23:17:31,10.1.1.3,27,-0.030,-0.030,-0.030,0.000,0.000,0.000
1644362251226095872,2022-02-08-23:17:31,10.1.1.3,26,-0.020,-0.020,-0.020,0.000,0.000,0.000
1644362251331933952,2022-02-08-23:17:31,10.1.1.3,36,-0.010,-0.010,-0.010,0.000,0.000,0.000
1644362251420627968,2022-02-08-23:17:31,10.1.1.3,25,0.000,0.000,0.000,0.000,0.000,0.000
1644362251519591936,2022-02-08-23:17:31,10.1.1.3,23,0.010,0.010,0.010,0.000,0.000,0.000
1644362252150742016,2022-02-08-23:17:32,10.1.1.3,49,0.070,0.070,0.070,0.000,0.000,0.000
1644362252239892992,2022-02-08-23:17:32,10.1.1.3,38,0.080,0.080,0.080,0.000,0.000,0.000
1644362252340240128,2022-02-08-23:17:32,10.1.1.3,36,0.090,0.090,0.090,0.000,0.000,0.000
1644362252440136960,2022-02-08-23:17:32,10.1.1.3,35,0.100,0.100,0.100,0.000,0.000,0.000
1644362252613159936,2022-02-08-23:17:32,10.1.1.3,34,0.090,0.090,0.090,0.000,0.000,0.000
1644362252640165120,2022-02-08-23:17:32,10.1.1.3,27,0.080,0.080,0.080,0.000,0.000,0.000
1644362252741025024,2022-02-08-23:17:32,10.1.1.3,26,0.070,0.070,0.070,0.000,0.000,0.000
1644362252839915008,2022-02-08-23:17:32,10.1.1.3,25,0.060,0.060,0.060,0.000,0.000,0.000
1644362252951308032,2022-02-08-23:17:32,10.1.1.3,35,0.050,0.050,0.050,0.000,0.000,0.000
1644362253040317952,2022-02-08-23:17:33,10.1.1.3,24,0.040,0.040,0.040,0.000,0.000,0.000
1644362253461288960,2022-02-08-23:17:33,10.1.1.3,39,-0.000,-0.000,-0.000,0.000,0.000,0.000
1644362253560376832,2022-02-08-23:17:33,10.1.1.3,38,-0.010,-0.010,-0.010,0.000,0.000,0.000
1644362253659953152,2022-02-08-23:17:33,10.1.1.3,37,-0.020,-0.020,-0.020,0.000,0.000,0.000
1644362253760051968,2022-02-08-23:17:33,10.1.1.3,37,-0.030,-0.030,-0.030,0.000,0.000,0.000
1644362253860894976,2022-02-08-23:17:33,10.1.1.3,36,-0.040,-0.040,-0.040,0.000,0.000,0.000
1644362253960047872,2022-02-08-23:17:33,10.1.1.3,35,-0.050,-0.050,-0.050,0.000,0.000,0.000
1644362254060563200,2022-02-08-23:17:34,10.1.1.3,34,-0.060,-0.060,-0.060,0.000,0.000,0.000
1644362254170736128,2022-02-08-23:17:34,10.1.1.3,44,-0.070,-0.070,-0.070,0.000,0.000,0.000
1644362254260466944,2022-02-08-23:17:34,10.1.1.3,33,-0.080,-0.080,-0.080,0.000,0.000,0.000
1644362254491120128,2022-02-08-23:17:34,10.1.1.3,24,-0.100,-0.100,-0.100,0.000,0.000,0.000
1644362254600726016,2022-02-08-23:17:34,10.1.1.3,33,-0.090,-0.090,-0.090,0.000,0.000,0.000
1644362255000541952,2022-02-08-23:17:35,10.1.1.3,30,-0.050,-0.050,-0.050,0.000,0.000,0.000
1644362255200134144,2022-02-08-23:17:35,10.1.1.3,28,-0.030,-0.030,-0.030,0.000,0.000,0.000
1644362255300795136,2022-02-08-23:17:35,10.1.1.3,27,-0.020,-0.020,-0.020,0.000,0.000,0.000
1644362255400453120,2022-02-08-23:17:35,10.1.1.3,27,-0.010,-0.010,-0.010,0.000,0.000,0.000
1644362255500276992,2022-02-08-23:17:35,10.1.1.3,25,0.000,0.000,0.000,0.000,0.000,0.000
1644362255600054016,2022-02-08-23:17:35,10.1.1.3,25,0.010,0.010,0.010,0.000,0.000,0.000
1644362255700824064,2022-02-08-23:17:35,10.1.1.3,24,0.020,0.020,0.020,0.000,0.000,0.000
1644362256420182016,2022-02-08-23:17:36,10.1.1.3,38,0.090,0.090,0.090,0.000,0.000,0.000
1644362256531899904,2022-02-08-23:17:36,10.1.1.3,48,0.100,0.100,0.100,0.000,0.000,0.000
1644362256620825088,2022-02-08-23:17:36,10.1.1.3,37,0.090,0.090,0.090,0.000,0.000,0.000
1644362256720598016,2022-02-08-23:17:36,10.1.1.3,37,0.080,0.080,0.080,0.000,0.000,0.000
1644362256821428992,2022-02-08-23:17:36,10.1.1.3,36,0.070,0.070,0.070,0.000,0.000,0.000
1644362256921120768,2022-02-08-23:17:36,10.1.1.3,35,0.060,0.060,0.060,0.000,0.000,0.000
1644362257020451072,2022-02-08-23:17:37,10.1.1.3,34,0.050,0.050,0.050,0.000,0.000,0.000
1644362257120815872,2022-02-08-23:17:37,10.1.1.3,34,0.040,0.040,0.040,0.000,0.000,0.000
1644362257680171008,2022-02-08-23:17:37,10.1.1.3,29,-0.010,-0.010,-0.010,0.000,0.000,0.000
1644362257720379136,2022-02-08-23:17:37,10.1.1.3,27,-0.020,-0.020,-0.020,0.000,0.000,0.000
1644362257820082944,2022-02-08-23:17:37,10.1.1.3,26,-0.030,-0.030,-0.030,0.000,0.000,0.000
1644362257920397056,2022-02-08-23:17:37,10.1.1.3,25,-0.040,-0.040,-0.040,0.000,0.000,0.000
1644362258020813824,2022-02-08-23:17:38,10.1.1.3,25,-0.050,-0.050,-0.050,0.000,0.000,0.000
1644362258120199936,2022-02-08-23:17:38,10.1.1.3,25,-0.060,-0.060,-0.060,0.000,0.000,0.000
1644362258220252928,2022-02-08-23:17:38,10.1.1.3,24,-0.070,-0.070,-0.070,0.000,0.000,0.000
1644362258320777984,2022-02-08-23:17:38,10.1.1.3,24,-0.080,-0.080,-0.080,0.000,0.000,0.000
1644362258420135936,2022-02-08-23:17:38,10.1.1.3,23,-0.090,-0.090,-0.090,0.000,0.000,0.000
1644362258520129024,2022-02-08-23:17:38,10.1.1.3,23,-0.100,-0.100,-0.100,0.000,0.000,0.000
1644362259120121088,2022-02-08-23:17:39,10.1.1.3,20,-0.040,-0.040,-0.040,0.000,0.000,0.000
1644362259241128960,2022-02-08-23:17:39,10.1.1.3,39,-0.030,-0.030,-0.030,0.000,0.000,0.000
1644362259340003072,2022-02-08-23:17:39,10.1.1.3,38,-0.020,-0.020,-0.020,0.000,0.000,0.000
1644362259440627200,2022-02-08-23:17:39,10.1.1.3,38,-0.010,-0.010,-0.010,0.000,0.000,0.000
1644362259541388032,2022-02-08-23:17:39,10.1.1.3,38,0.000,0.000,0.000,0.000,0.000,0.000
1644362259641360128,2022-02-08-23:17:39,10.1.1.3,37,0.010,0.010,0.010,0.000,0.000,0.000
1644362259740027904,2022-02-08-23:17:39,10.1.1.3,37,0.020,0.020,0.020,0.000,0.000,0.000
1644362259840116992,2022-02-08-23:17:39,10.1.1.3,36,0.030,0.030,0.030,0.000,0.000,0.000
1644362259940263936,2022-02-08-23:17:39,10.1.1.3,36,0.040,0.040,0.040,0.000,0.000,0.000
1644362260041446912,2022-02-08-23:17:40,10.1.1.3,35,0.050,0.050,0.050,0.000,0.000,0.000
1644362260141170944,2022-02-08-23:17:40,10.1.1.3,34,0.060,0.060,0.060,0.000,0.000,0.000
1644362260241265920,2022-02-08-23:17:40,10.1.1.3,34,0.070,0.070,0.070,0.000,0.000,0.000
1644362260339968000,2022-02-08-23:17:40,10.1.1.3,33,0.080,0.080,0.080,0.000,0.000,0.000
1644362260440929792,2022-02-08-23:17:40,10.1.1.3,33,0.090,0.090,0.090,0.000,0.000,0.000
1644362260621206016,2022-02-08-23:17:40,10.1.1.3,11,0.090,0.090,0.090,0.000,0.000,0.000
1644362260942370816,2022-02-08-23:17:40,10.1.1.3,29,0.060,0.060,0.060,0.000,0.000,0.000
1644362261140734976,2022-02-08-23:17:41,10.1.1.3,28,0.040,0.040,0.040,0.000,0.000,0.000
1644362261241718016,2022-02-08-23:17:41,10.1.1.3,27,0.030,0.030,0.030,0.000,0.000,0.000
1644362261340177920,2022-02-08-23:17:41,10.1.1.3,27,0.020,0.020,0.020,0.000,0.000,0.000
1644362261440167936,2022-02-08-23:17:41,10.1.1.3,25,0.010,0.010,0.010,0.000,0.000,0.000
1644362261541271040,2022-02-08-23:17:41,10.1.1.3,25,0.000,0.000,0.000,0.000,0.000,0.000
1644362261640454912,2022-02-08-23:17:41,10.1.1.3,24,-0.010,-0.010,-0.010,0.000,0.000,0.000
1644362261740515840,2022-02-08-23:17:41,10.1.1.3,24,-0.020,-0.020,-0.020,0.000,0.000,0.000
1644362261840833792,2022-02-08-23:17:41,10.1.1.3,23,-0.030,-0.030,-0.030,0.000,0.000,0.000
1644362262541240832,2022-02-08-23:17:42,10.1.1.3,19,-0.100,-0.100,-0.100,0.000,0.000,0.000
1644362262660975104,2022-02-08-23:17:42,10.1.1.3,39,-0.090,-0.090,-0.090,0.000,0.000,0.000
1644362262760880896,2022-02-08-23:17:42,10.1.1.3,38,-0.080,-0.080,-0.080,0.000,0.000,0.000
1644362262860291072,2022-02-08-23:17:42,10.1.1.3,38,-0.070,-0.070,-0.070,0.000,0.000,0.000
1644362262960107008,2022-02-08-23:17:42,10.1.1.3,37,-0.060,-0.060,-0.060,0.000,0.000,0.000
1644362263061160192,2022-02-08-23:17:43,10.1.1.3,37,-0.050,-0.050,-0.050,0.000,0.000,0.000
1644362263160961024,2022-02-08-23:17:43,10.1.1.3,36,-0.040,-0.040,-0.040,0.000,0.000,0.000
1644362263260147968,2022-02-08-23:17:43,10.1.1.3,36,-0.030,-0.030,-0.030,0.000,0.000,0.000
1644362263361295104,2022-02-08-23:17:43,10.1.1.3,35,-0.020,-0.020,-0.020,0.000,0.000,0.000
1644362263460262912,2022-02-08-23:17:43,10.1.1.3,34,-0.010,-0.010,-0.010,0.000,0.000,0.000
1644362263560386816,2022-02-08-23:17:43,10.1.1.3,34,0.000,0.000,0.000,0.000,0.000,0.000
1644362263660535040,2022-02-08-23:17:43,10.1.1.3,34,0.010,0.010,0.010,0.000,0.000,0.000
1644362263760070912,2022-02-08-23:17:43,10.1.1.3,33,0.020,0.020,0.020,0.000,0.000,0.000
1644362263861177088,2022-02-08-23:17:43,10.1.1.3,33,0.030,0.030,0.030,0.000,0.000,0.000
1644362264560616960,2022-02-08-23:17:44,10.1.1.3,29,0.100,0.100,0.100,0.000,0.000,0.000
1644362264660610816,2022-02-08-23:17:44,10.1.1.3,29,0.090,0.090,0.090,0.000,0.000,0.000
1644362264760968960,2022-02-08-23:17:44,10.1.1.3,28,0.080,0.080,0.080,0.000,0.000,0.000
1644362264860873984,2022-02-08-23:17:44,10.1.1.3,28,0.070,0.070,0.070,0.000,0.000,0.000
1644362264960473088,2022-02-08-23:17:44,10.1.1.3,27,0.060,0.060,0.060,0.000,0.000,0.000
1644362265060651008,2022-02-08-23:17:45,10.1.1.3,27,0.050,0.050,0.050,0.000,0.000,0.000
1644362265160877056,2022-02-08-23:17:45,10.1.1.3,26,0.040,0.040,0.040,0.000,0.000,0.000
1644362265260488960,2022-02-08-23:17:45,10.1.1.3,26,0.030,0.030,0.030,0.000,0.000,0.000
1644362265360096000,2022-02-08-23:17:45,10.1.1.3,25,0.020,0.020,0.020,0.000,0.000,0.000
1644362265460747008,2022-02-08-23:17:45,10.1.1.3,25,0.010,0.010,0.010,0.000,0.000,0.000
1644362265560576000,2022-02-08-23:17:45,10.1.1.3,25,0.000,0.000,0.000,0.000,0.000,0.000
1644362265660634112,2022-02-08-23:17:45,10.1.1.3,24,-0.010,-0.010,-0.010,0.000,0.000,0.000
1644362265760638976,2022-02-08-23:17:45,10.1.1.3,23,-0.020,-0.020,-0.020,0.000,0.000,0.000
1644362266380850176,2022-02-08-23:17:46,10.1.1.3,39,-0.080,-0.080,-0.080,0.000,0.000,0.000
1644362266480691968,2022-02-08-23:17:46,10.1.1.3,39,-0.090,-0.090,-0.090,0.000,0.000,0.000
1644362266581351936,2022-02-08-23:17:46,10.1.1.3,38,-0.100,-0.100,-0.100,0.000,0.000,0.000
1644362266680308992,2022-02-08-23:17:46,10.1.1.3,37,-0.090,-0.090,-0.090,0.000,0.000,0.000
1644362266781089024,2022-02-08-23:17:46,10.1.1.3,37,-0.080,-0.080,-0.080,0.000,0.000,0.000
1644362266881176064,2022-02-08-23:17:46,10.1.1.3,37,-0.070,-0.070,-0.070,0.000,0.000,0.000
1644362266992260096,2022-02-08-23:17:46,10.1.1.3,46,-0.060,-0.060,-0.060,0.000,0.000,0.000
1644362267080642816,2022-02-08-23:17:47,10.1.1.3,36,-0.050,-0.050,-0.050,0.000,0.000,0.000
1644362267180775936,2022-02-08-23:17:47,10.1.1.3,35,-0.040,-0.040,-0.040,0.000,0.000,0.000
1644362267280888064,2022-02-08-23:17:47,10.1.1.3,35,-0.030,-0.030,-0.030,0.000,0.000,0.000
1644362267380382976,2022-02-08-23:17:47,10.1.1.3,34,-0.020,-0.020,-0.020,0.000,0.000,0.000
1644362267480741888,2022-02-08-23:17:47,10.1.1.3,34,-0.010,-0.010,-0.010,0.000,0.000,0.000
1644362267581239040,2022-02-08-23:17:47,10.1.1.3,34,0.000,0.000,0.000,0.000,0.000,0.000
1644362267680908800,2022-02-08-23:17:47,10.1.1.3,33,0.010,0.010,0.010,0.000,0.000,0.000
1644362267781191168,2022-02-08-23:17:47,10.1.1.3,32,0.020,0.020,0.020,0.000,0.000,0.000
1644362268280491008,2022-02-08-23:17:48,10.1.1.3,29,0.070,0.070,0.070,0.000,0.000,0.000
1644362268390959104,2022-02-08-23:17:48,10.1.1.3,39,0.080,0.080,0.080,0.000,0.000,0.000
1644362268480279808,2022-02-08-23:17:48,10.1.1.3,28,0.090,0.090,0.090,0.000,0.000,0.000
1644362268581042944,2022-02-08-23:17:48,10.1.1.3,28,0.100,0.100,0.100,0.000,0.000,0.000
1644362268681224192,2022-02-08-23:17:48,10.1.1.3,27,0.090,0.090,0.090,0.000,0.000,0.000
1644362268780555008,2022-02-08-23:17:48,10.1.1.3,26,0.080,0.080,0.080,0.000,0.000,0.000
1644362268882889984,2022-02-08-23:17:48,10.1.1.3,26,0.070,0.070,0.070,0.000,0.000,0.000
1644362268980930048,2022-02-08-23:17:48,10.1.1.3,26,0.060,0.060,0.060,0.000,0.000,0.000
1644362269082739968,2022-02-08-23:17:49,10.1.1.3,25,0.050,0.050,0.050,0.000,0.000,0.000
1644362269180656896,2022-02-08-23:17:49,10.1.1.3,25,0.040,0.040,0.040,0.000,0.000,0.000
1644362269280752896,2022-02-08-23:17:49,10.1.1.3,24,0.030,0.030,0.030,0.000,0.000,0.000
1644362269380819200,2022-02-08-23:17:49,10.1.1.3,24,0.020,0.020,0.020,0.000,0.000,0.000
1644362269481024000,2022-02-08-23:17:49,10.1.1.3,23,0.010,0.010,0.010,0.000,0.000,0.000
1644362269580979968,2022-02-08-23:17:49,10.1.1.3,22,0.000,0.000,0.000,0.000,0.000,0.000
1644362270200335104,2022-02-08-23:17:50,10.1.1.3,39,-0.060,-0.060,-0.060,0.000,0.000,0.000
1644362270300721920,2022-02-08-23:17:50,10.1.1.3,39,-0.070,-0.070,-0.070,0.000,0.000,0.000
1644362270401084928,2022-02-08-23:17:50,10.1.1.3,38,-0.080,-0.080,-0.080,0.000,0.000,0.000
1644362270500859136,2022-02-08-23:17:50,10.1.1.3,37,-0.090,-0.090,-0.090,0.000,0.000,0.000
1644362270632509952,2022-02-08-23:17:50,10.1.1.3,28,-0.100,-0.100,-0.100,0.000,0.000,0.000
1644362270701745920,2022-02-08-23:17:50,10.1.1.3,27,-0.090,-0.090,-0.090,0.000,0.000,0.000
1644362270800811008,2022-02-08-23:17:50,10.1.1.3,26,-0.080,-0.080,-0.080,0.000,0.000,0.000
1644362270901829888,2022-02-08-23:17:50,10.1.1.3,26,-0.070,-0.070,-0.070,0.000,0.000,0.000
1644362271000475904,2022-02-08-23:17:51,10.1.1.3,25,-0.060,-0.060,-0.060,0.000,0.000,0.000
1644362271112935936,2022-02-08-23:17:51,10.1.1.3,25,-0.050,-0.050,-0.050,0.000,0.000,0.000
1644362271200481792,2022-02-08-23:17:51,10.1.1.3,24,-0.040,-0.040,-0.040,0.000,0.000,0.000
1644362271301244928,2022-02-08-23:17:51,10.1.1.3,24,-0.030,-0.030,-0.030,0.000,0.000,0.000
1644362271400876032,2022-02-08-23:17:51,10.1.1.3,23,-0.020,-0.020,-0.020,0.000,0.000,0.000
1644362271501296896,2022-02-08-23:17:51,10.1.1.3,22,-0.010,-0.010,-0.010,0.000,0.000,0.000
1644362271603600896,2022-02-08-23:17:51,10.1.1.3,22,0.000,0.000,0.000,0.000,0.000,0.000
1644362272101255936,2022-02-08-23:17:52,10.1.1.3,19,0.050,0.050,0.050,0.000,0.000,0.000
1644362272212291840,2022-02-08-23:17:52,10.1.1.3,29,0.060,0.060,0.060,0.000,0.000,0.000
1644362272321360128,2022-02-08-23:17:52,10.1.1.3,38,0.070,0.070,0.070,0.000,0.000,0.000
1644362272421471232,2022-02-08-23:17:52,10.1.1.3,38,0.080,0.080,0.080,0.000,0.000,0.000
1644362272520833024,2022-02-08-23:17:52,10.1.1.3,37,0.090,0.090,0.090,0.000,0.000,0.000
1644362272621627136,2022-02-08-23:17:52,10.1.1.3,36,0.100,0.100,0.100,0.000,0.000,0.000
1644362272721536000,2022-02-08-23:17:52,10.1.1.3,36,0.090,0.090,0.090,0.000,0.000,0.000
1644362272821091840,2022-02-08-23:17:52,10.1.1.3,34,0.080,0.080,0.080,0.000,0.000,0.000
1644362272921281024,2022-02-08-23:17:52,10.1.1.3,34,0.070,0.070,0.070,0.000,0.000,0.000
1644362273020626944,2022-02-08-23:17:53,10.1.1.3,33,0.060,0.060,0.060,0.000,0.000,0.000
1644362273121851904,2022-02-08-23:17:53,10.1.1.3,33,0.050,0.050,0.050,0.000,0.000,0.000
1644362273621228032,2022-02-08-23:17:53,10.1.1.3,28,0.000,0.000,0.000,0.000,0.000,0.000
1644362273721151232,2022-02-08-23:17:53,10.1.1.3,28,-0.010,-0.010,-0.010,0.000,0.000,0.000
1644362273823191808,2022-02-08-23:17:53,10.1.1.3,27,-0.020,-0.020,-0.020,0.000,0.000,0.000
1644362273921564928,2022-02-08-23:17:53,10.1.1.3,26,-0.030,-0.030,-0.030,0.000,0.000,0.000
1644362274020872192,2022-02-08-23:17:54,10.1.1.3,24,-0.040,-0.040,-0.040,0.000,0.000,0.000
1644362274121485056,2022-02-08-23:17:54,10.1.1.3,24,-0.050,-0.050,-0.050,0.000,0.000,0.000
1644362274220900096,2022-02-08-23:17:54,10.1.1.3,23,-0.060,-0.060,-0.060,0.000,0.000,0.000
1644362274321121024,2022-02-08-23:17:54,10.1.1.3,22,-0.070,-0.070,-0.070,0.000,0.000,0.000
1644362274664102912,2022-02-08-23:17:54,10.1.1.3,20,-0.100,-0.100,-0.100,0.000,0.000,0.000
1644362274741140992,2022-02-08-23:17:54,10.1.1.3,34,-0.090,-0.090,-0.090,0.000,0.000,0.000
1644362274840636928,2022-02-08-23:17:54,10.1.1.3,32,-0.080,-0.080,-0.080,0.000,0.000,0.000
1644362275142630144,2022-02-08-23:17:55,10.1.1.3,30,-0.050,-0.050,-0.050,0.000,0.000,0.000
1644362275240739072,2022-02-08-23:17:55,10.1.1.3,28,-0.040,-0.040,-0.040,0.000,0.000,0.000
1644362275341342976,2022-02-08-23:17:55,10.1.1.3,28,-0.030,-0.030,-0.030,0.000,0.000,0.000
1644362275441078016,2022-02-08-23:17:55,10.1.1.3,27,-0.020,-0.020,-0.020,0.000,0.000,0.000
1644362275541480960,2022-02-08-23:17:55,10.1.1.3,27,-0.010,-0.010,-0.010,0.000,0.000,0.000
1644362275641750016,2022-02-08-23:17:55,10.1.1.3,26,0.000,0.000,0.000,0.000,0.000,0.000
1644362275742535168,2022-02-08-23:17:55,10.1.1.3,25,0.010,0.010,0.010,0.000,0.000,0.000
1644362275841033984,2022-02-08-23:17:55,10.1.1.3,25,0.020,0.020,0.020,0.000,0.000,0.000
1644362275951725056,2022-02-08-23:17:55,10.1.1.3,34,0.030,0.030,0.030,0.000,0.000,0.000
1644362276041129984,2022-02-08-23:17:56,10.1.1.3,23,0.040,0.040,0.040,0.000,0.000,0.000
1644362276142134784,2022-02-08-23:17:56,10.1.1.3,23,0.050,0.050,0.050,0.000,0.000,0.000
1644362276542812160,2022-02-08-23:17:56,10.1.1.3,20,0.090,0.090,0.090,0.000,0.000,0.000
1644362276661363968,2022-02-08-23:17:56,10.1.1.3,39,0.100,0.100,0.100,0.000,0.000,0.000
1644362276761029888,2022-02-08-23:17:56,10.1.1.3,39,0.090,0.090,0.090,0.000,0.000,0.000
1644362276861242112,2022-02-08-23:17:56,10.1.1.3,38,0.080,0.080,0.080,0.000,0.000,0.000
1644362276961259008,2022-02-08-23:17:56,10.1.1.3,37,0.070,0.070,0.070,0.000,0.000,0.000
1644362277063000832,2022-02-08-23:17:57,10.1.1.3,36,0.060,0.060,0.060,0.000,0.000,0.000
1644362277161108992,2022-02-08-23:17:57,10.1.1.3,36,0.050,0.050,0.050,0.000,0.000,0.000
1644362277263254784,2022-02-08-23:17:57,10.1.1.3,35,0.040,0.040,0.040,0.000,0.000,0.000
1644362277361607168,2022-02-08-23:17:57,10.1.1.3,35,0.030,0.030,0.030,0.000,0.000,0.000
1644362277460984832,2022-02-08-23:17:57,10.1.1.3,34,0.020,0.020,0.020,0.000,0.000,0.000
1644362277561400832,2022-02-08-23:17:57,10.1.1.3,33,0.010,0.010,0.010,0.000,0.000,0.000
1644362277960992000,2022-02-08-23:17:57,10.1.1.3,30,-0.030,-0.030,-0.030,0.000,0.000,0.000
1644362278161411072,2022-02-08-23:17:58,10.1.1.3,29,-0.050,-0.050,-0.050,0.000,0.000,0.000
1644362278261117952,2022-02-08-23:17:58,10.1.1.3,28,-0.060,-0.060,-0.060,0.000,0.000,0.000
1644362278361083136,2022-02-08-23:17:58,10.1.1.3,28,-0.070,-0.070,-0.070,0.000,0.000,0.000
1644362278460819968,2022-02-08-23:17:58,10.1.1.3,27,-0.080,-0.080,-0.080,0.000,0.000,0.000
1644362278560795904,2022-02-08-23:17:58,10.1.1.3,27,-0.090,-0.090,-0.090,0.000,0.000,0.000
1644362278660926976,2022-02-08-23:17:58,10.1.1.3,26,-0.100,-0.100,-0.100,0.000,0.000,0.000
1644362278761317120,2022-02-08-23:17:58,10.1.1.3,25,-0.090,-0.090,-0.090,0.000,0.000,0.000
1644362278861210112,2022-02-08-23:17:58,10.1.1.3,25,-0.080,-0.080,-0.080,0.000,0.000,0.000
1644362278961874944,2022-02-08-23:17:58,10.1.1.3,24,-0.070,-0.070,-0.070,0.000,0.000,0.000
1644362279060847872,2022-02-08-23:17:59,10.1.1.3,24,-0.060,-0.060,-0.060,0.000,0.000,0.000
1644362279161304064,2022-02-08-23:17:59,10.1.1.3,24,-0.050,-0.050,-0.050,0.000,0.000,0.000
1644362279261063936,2022-02-08-23:17:59,10.1.1.3,24,-0.040,-0.040,-0.040,0.000,0.000,0.000
1644362279361196032,2022-02-08-23:17:59,10.1.1.3,23,-0.030,-0.030,-0.030,0.000,0.000,0.000
1644362279461275136,2022-02-08-23:17:59,10.1.1.3,23,-0.020,-0.020,-0.020,0.000,0.000,0.000
1644362280182002944,2022-02-08-23:18:00,10.1.1.3,39,0.050,0.050,0.050,0.000,0.000,0.000
1644362280281281024,2022-02-08-23:18:00,10.1.1.3,38,0.060,0.060,0.060,0.000,0.000,0.000
1644362280380798976,2022-02-08-23:18:00,10.1.1.3,38,0.070,0.070,0.070,0.000,0.000,0.000
1644362280481116160,2022-02-08-23:18:00,10.1.1.3,37,0.080,0.080,0.080,0.000,0.000,0.000
1644362280581219840,2022-02-08-23:18:00,10.1.1.3,36,0.090,0.090,0.090,0.000,0.000,0.000
1644362280681188096,2022-02-08-23:18:00,10.1.1.3,36,0.100,0.100,0.100,0.000,0.000,0.000
1644362280781339904,2022-02-08-23:18:00,10.1.1.3,36,0.090,0.090,0.090,0.000,0.000,0.000
1644362280881280000,2022-02-08-23:18:00,10.1.1.3,35,0.080,0.080,0.080,0.000,0.000,0.000
1644362280980876800,2022-02-08-23:18:00,10.1.1.3,35,0.070,0.070,0.070,0.000,0.000,0.000
1644362281081939968,2022-02-08-23:18:01,10.1.1.3,34,0.060,0.060,0.060,0.000,0.000,0.000
1644362281280947968,2022-02-08-23:18:01,10.1.1.3,33,0.040,0.040,0.040,0.000,0.000,0.000
1644362281381091072,2022-02-08-23:18:01,10.1.1.3,33,0.030,0.030,0.030,0.000,0.000,0.000
1644362281480953088,2022-02-08-23:18:01,10.1.1.3,32,0.020,0.020,0.020,0.000,0.000,0.000
1644362281781136896,2022-02-08-23:18:01,10.1.1.3,30,-0.010,-0.010,-0.010,0.000,0.000,0.000
1644362281882831104,2022-02-08-23:18:01,10.1.1.3,28,-0.020,-0.020,-0.020,0.000,0.000,0.000
1644362281985320192,2022-02-08-23:18:01,10.1.1.3,28,-0.030,-0.030,-0.030,0.000,0.000,0.000
