FedericoMungari/DigitalTwin_service/01_WiredScenario/Output/Output_script/script_ROSAPI_output_robots12_freq0_4.txt.csv
timestamp,node,latency,joint_1,joint_2,joint_3,joint_4,joint_5,joint_6
1640078289803617024,"2021-12-21,09:18:04",10.1.1.5,49387,0.000,0.000,0.000,0.000,0.000,0.000
1640078295216489984,"2021-12-21,09:18:13",10.1.1.5,3121,-0.010,-0.010,-0.010,0.000,0.000,0.000
1640078295263959040,"2021-12-21,09:18:15",10.1.1.5,4.477829933166504,-0.010,-0.010,-0.010,0.000,0.000,0.000
1640078295597903104,"2021-12-21,09:18:15",10.1.1.5,332,-0.020,-0.020,-0.020,0.000,0.000,0.000
1640078295608942080,"2021-12-21,09:18:15",10.1.1.5,0.3437330722808838,-0.020,-0.020,-0.020,0.000,0.000,0.000
1640078302064898048,"2021-12-21,09:18:17",10.1.1.5,1.454394817352295,-0.030,-0.030,-0.030,0.000,0.000,0.000
1640078309382018048,"2021-12-21,09:18:29",10.1.1.5,7044,-0.040,-0.040,-0.040,0.000,0.000,0.000
1640078309970650880,"2021-12-21,09:18:29",10.1.1.5,7.63352108001709,-0.040,-0.040,-0.040,0.000,0.000,0.000
1640078310263816960,"2021-12-21,09:18:30",10.1.1.5,290,-0.050,-0.050,-0.050,0.000,0.000,0.000
1640078310296557056,"2021-12-21,09:18:30",10.1.1.5,0.3238492012023926,-0.050,-0.050,-0.050,0.000,0.000,0.000
1640078310616268032,"2021-12-21,09:18:30",10.1.1.5,316,-0.060,-0.060,-0.060,0.000,0.000,0.000
1640078310657531136,"2021-12-21,09:18:30",10.1.1.5,0.3573758602142334,-0.060,-0.060,-0.060,0.000,0.000,0.000
1640078310984807936,"2021-12-21,09:18:30",10.1.1.5,323,-0.070,-0.070,-0.070,0.000,0.000,0.000
1640078310990013952,"2021-12-21,09:18:30",10.1.1.5,0.3301811218261719,-0.070,-0.070,-0.070,0.000,0.000,0.000
1640078312731832064,"2021-12-21,09:18:31",10.1.1.5,326,-0.080,-0.080,-0.080,0.000,0.000,0.000
1640078316960613120,"2021-12-21,09:18:32",10.1.1.5,1.9233429431915283,-0.080,-0.080,-0.080,0.000,0.000,0.000
1640078318305324032,"2021-12-21,09:18:38",10.1.1.5,1277,-0.090,-0.090,-0.090,0.000,0.000,0.000
1640078318353150976,"2021-12-21,09:18:38",10.1.1.5,1.3252949714660645,-0.090,-0.090,-0.090,0.000,0.000,0.000
1640078318677260032,"2021-12-21,09:18:38",10.1.1.5,311,-0.100,-0.100,-0.100,0.000,0.000,0.000
1640078318688582912,"2021-12-21,09:18:38",10.1.1.5,0.32264089584350586,-0.100,-0.100,-0.100,0.000,0.000,0.000
1640078319033688064,"2021-12-21,09:18:39",10.1.1.5,343,-0.110,-0.110,-0.110,0.000,0.000,0.000
1640078319049037056,"2021-12-21,09:18:39",10.1.1.5,0.35788798332214355,-0.110,-0.110,-0.110,0.000,0.000,0.000
1640078319410043904,"2021-12-21,09:18:39",10.1.1.5,359,-0.120,-0.120,-0.120,0.000,0.000,0.000
1640078319458447872,"2021-12-21,09:18:39",10.1.1.5,0.408066987991333,-0.120,-0.120,-0.120,0.000,0.000,0.000
1640078328793256960,"2021-12-21,09:18:45",10.1.1.5,2344,-0.140,-0.140,-0.140,0.000,0.000,0.000
1640078333017664000,"2021-12-21,09:18:48",10.1.1.5,5.855921983718872,-0.140,-0.140,-0.140,0.000,0.000,0.000
1640078344681495040,"2021-12-21,09:18:59",10.1.1.5,6068,-0.150,-0.150,-0.150,0.000,0.000,0.000
1640078348613415936,"2021-12-21,09:19:05",10.1.1.5,12.22644305229187,-0.150,-0.150,-0.150,0.000,0.000,0.000
1640078367154212096,"2021-12-21,09:19:26",10.1.1.5,18034,-0.160,-0.160,-0.160,0.000,0.000,0.000
1640078367161489920,"2021-12-21,09:19:27",10.1.1.5,18.471661806106567,-0.160,-0.160,-0.160,0.000,0.000,0.000
1640078367483038976,"2021-12-21,09:19:27",10.1.1.5,318,-0.170,-0.170,-0.170,0.000,0.000,0.000
1640078367524589056,"2021-12-21,09:19:27",10.1.1.5,0.360170841217041,-0.170,-0.170,-0.170,0.000,0.000,0.000
1640078367820647936,"2021-12-21,09:19:27",10.1.1.5,294,-0.180,-0.180,-0.180,0.000,0.000,0.000
1640078367845391104,"2021-12-21,09:19:27",10.1.1.5,0.3190429210662842,-0.180,-0.180,-0.180,0.000,0.000,0.000
1640078368212321024,"2021-12-21,09:19:28",10.1.1.5,364,-0.190,-0.190,-0.190,0.000,0.000,0.000
1640078368235617024,"2021-12-21,09:19:28",10.1.1.5,0.3876078128814697,-0.190,-0.190,-0.190,0.000,0.000,0.000
1640078369828480000,"2021-12-21,09:19:29",10.1.1.5,1587,-0.200,-0.200,-0.200,0.000,0.000,0.000
1640078369851800064,"2021-12-21,09:19:29",10.1.1.5,1.6111929416656494,-0.200,-0.200,-0.200,0.000,0.000,0.000
1640078370449033984,"2021-12-21,09:19:30",10.1.1.5,578,-0.210,-0.210,-0.210,0.000,0.000,0.000
1640078370489675008,"2021-12-21,09:19:30",10.1.1.5,0.5998070240020752,-0.210,-0.210,-0.210,0.000,0.000,0.000
1640078371349462016,"2021-12-21,09:19:31",10.1.1.5,854,-0.220,-0.220,-0.220,0.000,0.000,0.000
1640078371383426816,"2021-12-21,09:19:31",10.1.1.5,0.888826847076416,-0.220,-0.220,-0.220,0.000,0.000,0.000
1640078371876446976,"2021-12-21,09:19:31",10.1.1.5,476,-0.230,-0.230,-0.230,0.000,0.000,0.000
1640078371914021120,"2021-12-21,09:19:31",10.1.1.5,0.5171151161193848,-0.230,-0.230,-0.230,0.000,0.000,0.000
1640078372268992000,"2021-12-21,09:19:32",10.1.1.5,353,-0.240,-0.240,-0.240,0.000,0.000,0.000
1640078372345985792,"2021-12-21,09:19:32",10.1.1.5,0.4305250644683838,-0.240,-0.240,-0.240,0.000,0.000,0.000
1640078373132550912,"2021-12-21,09:19:33",10.1.1.5,0.7827060222625732,-0.250,-0.250,-0.250,0.000,0.000,0.000
1640078374466167040,"2021-12-21,09:19:34",10.1.1.5,1.3155100345611572,-0.260,-0.260,-0.260,0.000,0.000,0.000
1640078374467521024,"2021-12-21,09:19:34",10.1.1.5,1316,-0.260,-0.260,-0.260,0.000,0.000,0.000
1640078376007652096,"2021-12-21,09:19:36",10.1.1.5,1.5077340602874756,-0.270,-0.270,-0.270,0.000,0.000,0.000
1640078380433989120,"2021-12-21,09:19:39",10.1.1.5,3688,-0.280,-0.280,-0.280,0.000,0.000,0.000
1640078380511921920,"2021-12-21,09:19:40",10.1.1.5,4.284167051315308,-0.280,-0.280,-0.280,0.000,0.000,0.000
1640078381080102912,"2021-12-21,09:19:41",10.1.1.5,558,-0.290,-0.290,-0.290,0.000,0.000,0.000
1640078381107145984,"2021-12-21,09:19:41",10.1.1.5,0.5824108123779297,-0.290,-0.290,-0.290,0.000,0.000,0.000
1640078382041306112,"2021-12-21,09:19:42",10.1.1.5,0.9291679859161377,-0.300,-0.300,-0.300,0.000,0.000,0.000
1640078382940440064,"2021-12-21,09:19:42",10.1.1.5,872,-0.310,-0.310,-0.310,0.000,0.000,0.000
1640078382968830208,"2021-12-21,09:19:42",10.1.1.5,0.9009978771209717,-0.310,-0.310,-0.310,0.000,0.000,0.000
1640078383319441920,"2021-12-21,09:19:43",10.1.1.5,347,-0.320,-0.320,-0.320,0.000,0.000,0.000
1640078383349438976,"2021-12-21,09:19:43",10.1.1.5,0.3775138854980469,-0.320,-0.320,-0.320,0.000,0.000,0.000
1640078383950539008,"2021-12-21,09:19:43",10.1.1.5,598,-0.330,-0.330,-0.330,0.000,0.000,0.000
1640078383984327168,"2021-12-21,09:19:43",10.1.1.5,0.6327199935913086,-0.330,-0.330,-0.330,0.000,0.000,0.000
1640078384449245952,"2021-12-21,09:19:44",10.1.1.5,459,-0.340,-0.340,-0.340,0.000,0.000,0.000
1640078384474287872,"2021-12-21,09:19:44",10.1.1.5,0.4846339225769043,-0.340,-0.340,-0.340,0.000,0.000,0.000
1640078385012454912,"2021-12-21,09:19:45",10.1.1.5,536,-0.350,-0.350,-0.350,0.000,0.000,0.000
1640078385031227136,"2021-12-21,09:19:45",10.1.1.5,0.5554399490356445,-0.350,-0.350,-0.350,0.000,0.000,0.000
1640078385470971136,"2021-12-21,09:19:45",10.1.1.5,429,-0.360,-0.360,-0.360,0.000,0.000,0.000
1640078385494213120,"2021-12-21,09:19:45",10.1.1.5,0.4559800624847412,-0.360,-0.360,-0.360,0.000,0.000,0.000
1640078385888109824,"2021-12-21,09:19:45",10.1.1.5,387,-0.370,-0.370,-0.370,0.000,0.000,0.000
1640078385937977088,"2021-12-21,09:19:45",10.1.1.5,0.4372990131378174,-0.370,-0.370,-0.370,0.000,0.000,0.000
1640078386355906048,"2021-12-21,09:19:46",10.1.1.5,415,-0.380,-0.380,-0.380,0.000,0.000,0.000
1640078386449202176,"2021-12-21,09:19:46",10.1.1.5,0.5087800025939941,-0.380,-0.380,-0.380,0.000,0.000,0.000
1640078386948857088,"2021-12-21,09:19:46",10.1.1.5,460,-0.390,-0.390,-0.390,0.000,0.000,0.000
1640078386995486976,"2021-12-21,09:19:46",10.1.1.5,0.5051970481872559,-0.390,-0.390,-0.390,0.000,0.000,0.000
1640078387420044800,"2021-12-21,09:19:47",10.1.1.5,418,-0.400,-0.400,-0.400,0.000,0.000,0.000
1640078387484180992,"2021-12-21,09:19:47",10.1.1.5,0.4753880500793457,-0.400,-0.400,-0.400,0.000,0.000,0.000
1640078388156590080,"2021-12-21,09:19:48",10.1.1.5,662,-0.410,-0.410,-0.410,0.000,0.000,0.000
1640078388200129024,"2021-12-21,09:19:48",10.1.1.5,0.706291913986206,-0.410,-0.410,-0.410,0.000,0.000,0.000
1640078388800858112,"2021-12-21,09:19:48",10.1.1.5,0.5982120037078857,-0.420,-0.420,-0.420,0.000,0.000,0.000
1640078389428529920,"2021-12-21,09:19:49",10.1.1.5,0.611382007598877,-0.430,-0.430,-0.430,0.000,0.000,0.000
1640078389404488192,"2021-12-21,09:19:49",10.1.1.5,586,-0.430,-0.430,-0.430,0.000,0.000,0.000
1640078389869880832,"2021-12-21,09:19:49",10.1.1.5,433,-0.440,-0.440,-0.440,0.000,0.000,0.000
1640078389890530048,"2021-12-21,09:19:49",10.1.1.5,0.45926809310913086,-0.440,-0.440,-0.440,0.000,0.000,0.000
1640078390276349184,"2021-12-21,09:19:50",10.1.1.5,382,-0.450,-0.450,-0.450,0.000,0.000,0.000
1640078390386868992,"2021-12-21,09:19:50",10.1.1.5,0.49350690841674805,-0.450,-0.450,-0.450,0.000,0.000,0.000
1640078391182675968,"2021-12-21,09:19:51",10.1.1.5,762,-0.460,-0.460,-0.460,0.000,0.000,0.000
1640078391249028864,"2021-12-21,09:19:51",10.1.1.5,0.8290228843688965,-0.460,-0.460,-0.460,0.000,0.000,0.000
1640078391623644160,"2021-12-21,09:19:51",10.1.1.5,355,-0.470,-0.470,-0.470,0.000,0.000,0.000
1640078391678672128,"2021-12-21,09:19:51",10.1.1.5,0.4124581813812256,-0.470,-0.470,-0.470,0.000,0.000,0.000
1640078392084219904,"2021-12-21,09:19:52",10.1.1.5,401,-0.480,-0.480,-0.480,0.000,0.000,0.000
1640078392117963008,"2021-12-21,09:19:52",10.1.1.5,0.43718600273132324,-0.480,-0.480,-0.480,0.000,0.000,0.000
1640078392532665088,"2021-12-21,09:19:52",10.1.1.5,407,-0.490,-0.490,-0.490,0.000,0.000,0.000
1640078392553495808,"2021-12-21,09:19:52",10.1.1.5,0.4284968376159668,-0.490,-0.490,-0.490,0.000,0.000,0.000
1640078392970913792,"2021-12-21,09:19:52",10.1.1.5,415,-0.500,-0.500,-0.500,0.000,0.000,0.000
1640078393061327872,"2021-12-21,09:19:53",10.1.1.5,0.5054960250854492,-0.500,-0.500,-0.500,0.000,0.000,0.000
1640078393380050944,"2021-12-21,09:19:53",10.1.1.5,317,-0.510,-0.510,-0.510,0.000,0.000,0.000
1640078393424560896,"2021-12-21,09:19:53",10.1.1.5,0.3619201183319092,-0.510,-0.510,-0.510,0.000,0.000,0.000
1640078393740273920,"2021-12-21,09:19:53",10.1.1.5,314,-0.520,-0.520,-0.520,0.000,0.000,0.000
1640078393776702976,"2021-12-21,09:19:53",10.1.1.5,0.35086512565612793,-0.520,-0.520,-0.520,0.000,0.000,0.000
1640078394122258944,"2021-12-21,09:19:54",10.1.1.5,339,-0.530,-0.530,-0.530,0.000,0.000,0.000
1640078394165540864,"2021-12-21,09:19:54",10.1.1.5,0.38480186462402344,-0.530,-0.530,-0.530,0.000,0.000,0.000
1640078394478621952,"2021-12-21,09:19:54",10.1.1.5,310,-0.540,-0.540,-0.540,0.000,0.000,0.000
1640078394512641024,"2021-12-21,09:19:54",10.1.1.5,0.34473395347595215,-0.540,-0.540,-0.540,0.000,0.000,0.000
1640078394860814080,"2021-12-21,09:19:54",10.1.1.5,346,-0.550,-0.550,-0.550,0.000,0.000,0.000
1640078394914819072,"2021-12-21,09:19:54",10.1.1.5,0.40077781677246094,-0.550,-0.550,-0.550,0.000,0.000,0.000
1640078395401421056,"2021-12-21,09:19:55",10.1.1.5,483,-0.560,-0.560,-0.560,0.000,0.000,0.000
1640078395465261824,"2021-12-21,09:19:55",10.1.1.5,0.5475490093231201,-0.560,-0.560,-0.560,0.000,0.000,0.000
1640078395834945792,"2021-12-21,09:19:55",10.1.1.5,344,-0.570,-0.570,-0.570,0.000,0.000,0.000
1640078395872075008,"2021-12-21,09:19:55",10.1.1.5,0.381458044052124,-0.570,-0.570,-0.570,0.000,0.000,0.000
1640078396236308992,"2021-12-21,09:19:56",10.1.1.5,362,-0.580,-0.580,-0.580,0.000,0.000,0.000
1640078396257035008,"2021-12-21,09:19:56",10.1.1.5,0.3833191394805908,-0.580,-0.580,-0.580,0.000,0.000,0.000
1640078396609021952,"2021-12-21,09:19:56",10.1.1.5,348,-0.590,-0.590,-0.590,0.000,0.000,0.000
1640078396674479872,"2021-12-21,09:19:56",10.1.1.5,0.41420602798461914,-0.590,-0.590,-0.590,0.000,0.000,0.000
1640078397055552000,"2021-12-21,09:19:57",10.1.1.5,374,-0.600,-0.600,-0.600,0.000,0.000,0.000
1640078397135542016,"2021-12-21,09:19:57",10.1.1.5,0.45433688163757324,-0.600,-0.600,-0.600,0.000,0.000,0.000
1640078397573842944,"2021-12-21,09:19:57",10.1.1.5,415,-0.610,-0.610,-0.610,0.000,0.000,0.000
1640078397608125952,"2021-12-21,09:19:57",10.1.1.5,0.44984006881713867,-0.610,-0.610,-0.610,0.000,0.000,0.000
1640078397995712000,"2021-12-21,09:19:57",10.1.1.5,386,-0.620,-0.620,-0.620,0.000,0.000,0.000
1640078398006236928,"2021-12-21,09:19:58",10.1.1.5,0.3967268466949463,-0.620,-0.620,-0.620,0.000,0.000,0.000
1640078398372925952,"2021-12-21,09:19:58",10.1.1.5,365,-0.610,-0.610,-0.610,0.000,0.000,0.000
1640078398386241024,"2021-12-21,09:19:58",10.1.1.5,0.378436803817749,-0.610,-0.610,-0.610,0.000,0.000,0.000
1640078398801657856,"2021-12-21,09:19:58",10.1.1.5,394,-0.600,-0.600,-0.600,0.000,0.000,0.000
1640078398802665984,"2021-12-21,09:19:58",10.1.1.5,0.39777588844299316,-0.600,-0.600,-0.600,0.000,0.000,0.000
1640078399169601792,"2021-12-21,09:19:59",10.1.1.5,365,-0.590,-0.590,-0.590,0.000,0.000,0.000
1640078399189376000,"2021-12-21,09:19:59",10.1.1.5,0.3843660354614258,-0.590,-0.590,-0.590,0.000,0.000,0.000
1640078399813265920,"2021-12-21,09:19:59",10.1.1.5,620,-0.580,-0.580,-0.580,0.000,0.000,0.000
1640078399851857920,"2021-12-21,09:19:59",10.1.1.5,0.659182071685791,-0.580,-0.580,-0.580,0.000,0.000,0.000
1640078401221744896,"2021-12-21,09:20:00",10.1.1.5,345,-0.570,-0.570,-0.570,0.000,0.000,0.000
1640078401336965120,"2021-12-21,09:20:01",10.1.1.5,1.482239007949829,-0.570,-0.570,-0.570,0.000,0.000,0.000
1640078401419843840,"2021-12-21,09:20:01",10.1.1.5,-4,-0.560,-0.560,-0.560,0.000,0.000,0.000
1640078401960828160,"2021-12-21,09:20:01",10.1.1.5,0.6177639961242676,-0.560,-0.560,-0.560,0.000,0.000,0.000
1640078402335604992,"2021-12-21,09:20:02",10.1.1.5,370,-0.550,-0.550,-0.550,0.000,0.000,0.000
1640078402344968960,"2021-12-21,09:20:02",10.1.1.5,0.3796520233154297,-0.550,-0.550,-0.550,0.000,0.000,0.000
1640078402726507776,"2021-12-21,09:20:02",10.1.1.5,379,-0.540,-0.540,-0.540,0.000,0.000,0.000
1640078402747674112,"2021-12-21,09:20:02",10.1.1.5,0.4011390209197998,-0.540,-0.540,-0.540,0.000,0.000,0.000
1640078403106710784,"2021-12-21,09:20:03",10.1.1.5,357,-0.530,-0.530,-0.530,0.000,0.000,0.000
1640078403174016000,"2021-12-21,09:20:03",10.1.1.5,0.42100977897644043,-0.530,-0.530,-0.530,0.000,0.000,0.000
1640078403638060032,"2021-12-21,09:20:03",10.1.1.5,462,-0.520,-0.520,-0.520,0.000,0.000,0.000
1640078403651895040,"2021-12-21,09:20:03",10.1.1.5,0.47618603706359863,-0.520,-0.520,-0.520,0.000,0.000,0.000
1640078404300622080,"2021-12-21,09:20:04",10.1.1.5,631,-0.510,-0.510,-0.510,0.000,0.000,0.000
1640078404333630208,"2021-12-21,09:20:04",10.1.1.5,0.6645619869232178,-0.510,-0.510,-0.510,0.000,0.000,0.000
1640078404819334144,"2021-12-21,09:20:04",10.1.1.5,484,-0.500,-0.500,-0.500,0.000,0.000,0.000
1640078404923021056,"2021-12-21,09:20:04",10.1.1.5,0.5880241394042969,-0.500,-0.500,-0.500,0.000,0.000,0.000
1640078405430202112,"2021-12-21,09:20:05",10.1.1.5,491,-0.490,-0.490,-0.490,0.000,0.000,0.000
1640078405452004864,"2021-12-21,09:20:05",10.1.1.5,0.5137729644775391,-0.490,-0.490,-0.490,0.000,0.000,0.000
1640078405779716864,"2021-12-21,09:20:05",10.1.1.5,325,-0.480,-0.480,-0.480,0.000,0.000,0.000
1640078405820440064,"2021-12-21,09:20:05",10.1.1.5,0.3665809631347656,-0.480,-0.480,-0.480,0.000,0.000,0.000
1640078406168728064,"2021-12-21,09:20:06",10.1.1.5,346,-0.470,-0.470,-0.470,0.000,0.000,0.000
1640078406187629824,"2021-12-21,09:20:06",10.1.1.5,0.3658630847930908,-0.470,-0.470,-0.470,0.000,0.000,0.000
1640078406553401856,"2021-12-21,09:20:06",10.1.1.5,362,-0.460,-0.460,-0.460,0.000,0.000,0.000
1640078406569140992,"2021-12-21,09:20:06",10.1.1.5,0.37787795066833496,-0.460,-0.460,-0.460,0.000,0.000,0.000
1640078406980323072,"2021-12-21,09:20:06",10.1.1.5,406,-0.450,-0.450,-0.450,0.000,0.000,0.000
1640078407044431872,"2021-12-21,09:20:07",10.1.1.5,0.47055506706237793,-0.450,-0.450,-0.450,0.000,0.000,0.000
1640078407419486976,"2021-12-21,09:20:07",10.1.1.5,373,-0.440,-0.440,-0.440,0.000,0.000,0.000
1640078407462630912,"2021-12-21,09:20:07",10.1.1.5,0.41660094261169434,-0.440,-0.440,-0.440,0.000,0.000,0.000
1640078407859137024,"2021-12-21,09:20:07",10.1.1.5,390,-0.430,-0.430,-0.430,0.000,0.000,0.000
1640078407907398912,"2021-12-21,09:20:07",10.1.1.5,0.4386448860168457,-0.430,-0.430,-0.430,0.000,0.000,0.000
1640078408299753984,"2021-12-21,09:20:08",10.1.1.5,386,-0.420,-0.420,-0.420,0.000,0.000,0.000
1640078408325126912,"2021-12-21,09:20:08",10.1.1.5,0.4124469757080078,-0.420,-0.420,-0.420,0.000,0.000,0.000
1640078408812562944,"2021-12-21,09:20:08",10.1.1.5,484,-0.410,-0.410,-0.410,0.000,0.000,0.000
1640078408849684992,"2021-12-21,09:20:08",10.1.1.5,0.5226559638977051,-0.410,-0.410,-0.410,0.000,0.000,0.000
1640078409272828160,"2021-12-21,09:20:09",10.1.1.5,398,-0.400,-0.400,-0.400,0.000,0.000,0.000
1640078409320868864,"2021-12-21,09:20:09",10.1.1.5,0.4470808506011963,-0.400,-0.400,-0.400,0.000,0.000,0.000
1640078409688657152,"2021-12-21,09:20:09",10.1.1.5,365,-0.390,-0.390,-0.390,0.000,0.000,0.000
1640078409700449024,"2021-12-21,09:20:09",10.1.1.5,0.3770179748535156,-0.390,-0.390,-0.390,0.000,0.000,0.000
1640078410068950784,"2021-12-21,09:20:10",10.1.1.5,365,-0.380,-0.380,-0.380,0.000,0.000,0.000
1640078410124226048,"2021-12-21,09:20:10",10.1.1.5,0.4214468002319336,-0.380,-0.380,-0.380,0.000,0.000,0.000
1640078410530145792,"2021-12-21,09:20:10",10.1.1.5,398,-0.370,-0.370,-0.370,0.000,0.000,0.000
1640078410569565184,"2021-12-21,09:20:10",10.1.1.5,0.43773698806762695,-0.370,-0.370,-0.370,0.000,0.000,0.000
1640078411108863232,"2021-12-21,09:20:11",10.1.1.5,536,-0.360,-0.360,-0.360,0.000,0.000,0.000
1640078411153660160,"2021-12-21,09:20:11",10.1.1.5,0.5812489986419678,-0.360,-0.360,-0.360,0.000,0.000,0.000
1640078411637531136,"2021-12-21,09:20:11",10.1.1.5,477,-0.350,-0.350,-0.350,0.000,0.000,0.000
1640078411698636032,"2021-12-21,09:20:11",10.1.1.5,0.5383768081665039,-0.350,-0.350,-0.350,0.000,0.000,0.000
1640078412298203904,"2021-12-21,09:20:12",10.1.1.5,597,-0.340,-0.340,-0.340,0.000,0.000,0.000
1640078412384110080,"2021-12-21,09:20:12",10.1.1.5,0.6837692260742188,-0.340,-0.340,-0.340,0.000,0.000,0.000
1640078412748817920,"2021-12-21,09:20:12",10.1.1.5,361,-0.330,-0.330,-0.330,0.000,0.000,0.000
1640078412818906112,"2021-12-21,09:20:12",10.1.1.5,0.4326159954071045,-0.330,-0.330,-0.330,0.000,0.000,0.000
1640078413178010112,"2021-12-21,09:20:13",10.1.1.5,356,-0.320,-0.320,-0.320,0.000,0.000,0.000
1640078413198572032,"2021-12-21,09:20:13",10.1.1.5,0.3767120838165283,-0.320,-0.320,-0.320,0.000,0.000,0.000
1640078413536734208,"2021-12-21,09:20:13",10.1.1.5,336,-0.310,-0.310,-0.310,0.000,0.000,0.000
1640078413584750848,"2021-12-21,09:20:13",10.1.1.5,0.38460516929626465,-0.310,-0.310,-0.310,0.000,0.000,0.000
1640078413926817024,"2021-12-21,09:20:13",10.1.1.5,339,-0.300,-0.300,-0.300,0.000,0.000,0.000
1640078413962418176,"2021-12-21,09:20:13",10.1.1.5,0.3729898929595947,-0.300,-0.300,-0.300,0.000,0.000,0.000
1640078414306587904,"2021-12-21,09:20:14",10.1.1.5,339,-0.290,-0.290,-0.290,0.000,0.000,0.000
1640078414380002048,"2021-12-21,09:20:14",10.1.1.5,0.412553071975708,-0.290,-0.290,-0.290,0.000,0.000,0.000
1640078414790205952,"2021-12-21,09:20:14",10.1.1.5,407,-0.280,-0.280,-0.280,0.000,0.000,0.000
1640078414847804928,"2021-12-21,09:20:14",10.1.1.5,0.4651908874511719,-0.280,-0.280,-0.280,0.000,0.000,0.000
1640078415187077120,"2021-12-21,09:20:15",10.1.1.5,337,-0.270,-0.270,-0.270,0.000,0.000,0.000
1640078415218429184,"2021-12-21,09:20:15",10.1.1.5,0.36750006675720215,-0.270,-0.270,-0.270,0.000,0.000,0.000
1640078415548926208,"2021-12-21,09:20:15",10.1.1.5,328,-0.260,-0.260,-0.260,0.000,0.000,0.000
1640078415590540032,"2021-12-21,09:20:15",10.1.1.5,0.37049007415771484,-0.260,-0.260,-0.260,0.000,0.000,0.000
1640078416052509184,"2021-12-21,09:20:16",10.1.1.5,454,-0.250,-0.250,-0.250,0.000,0.000,0.000
1640078416085248000,"2021-12-21,09:20:16",10.1.1.5,0.4847750663757324,-0.250,-0.250,-0.250,0.000,0.000,0.000
1640078416605056000,"2021-12-21,09:20:16",10.1.1.5,507,-0.240,-0.240,-0.240,0.000,0.000,0.000
1640078416664651008,"2021-12-21,09:20:16",10.1.1.5,0.5769798755645752,-0.240,-0.240,-0.240,0.000,0.000,0.000
1640078417233291008,"2021-12-21,09:20:17",10.1.1.5,551,-0.230,-0.230,-0.230,0.000,0.000,0.000
1640078417291169024,"2021-12-21,09:20:17",10.1.1.5,0.6100490093231201,-0.230,-0.230,-0.230,0.000,0.000,0.000
1640078417644406016,"2021-12-21,09:20:17",10.1.1.5,351,-0.220,-0.220,-0.220,0.000,0.000,0.000
1640078417728061952,"2021-12-21,09:20:17",10.1.1.5,0.4348478317260742,-0.220,-0.220,-0.220,0.000,0.000,0.000
1640078418073797888,"2021-12-21,09:20:18",10.1.1.5,341,-0.210,-0.210,-0.210,0.000,0.000,0.000
1640078418166762240,"2021-12-21,09:20:18",10.1.1.5,0.4343748092651367,-0.210,-0.210,-0.210,0.000,0.000,0.000
1640078418625346816,"2021-12-21,09:20:18",10.1.1.5,457,-0.200,-0.200,-0.200,0.000,0.000,0.000
1640078418677342976,"2021-12-21,09:20:18",10.1.1.5,0.5091409683227539,-0.200,-0.200,-0.200,0.000,0.000,0.000
1640078419193630976,"2021-12-21,09:20:19",10.1.1.5,511,-0.190,-0.190,-0.190,0.000,0.000,0.000
1640078419243924992,"2021-12-21,09:20:19",10.1.1.5,0.5608170032501221,-0.190,-0.190,-0.190,0.000,0.000,0.000
1640078419602768896,"2021-12-21,09:20:19",10.1.1.5,356,-0.180,-0.180,-0.180,0.000,0.000,0.000
1640078419644649984,"2021-12-21,09:20:19",10.1.1.5,0.394899845123291,-0.180,-0.180,-0.180,0.000,0.000,0.000
1640078420066867200,"2021-12-21,09:20:20",10.1.1.5,416,-0.170,-0.170,-0.170,0.000,0.000,0.000
1640078420095875072,"2021-12-21,09:20:20",10.1.1.5,0.4457731246948242,-0.170,-0.170,-0.170,0.000,0.000,0.000
1640078420463502848,"2021-12-21,09:20:20",10.1.1.5,365,-0.160,-0.160,-0.160,0.000,0.000,0.000
1640078420516363008,"2021-12-21,09:20:20",10.1.1.5,0.4183938503265381,-0.160,-0.160,-0.160,0.000,0.000,0.000
1640078420945980160,"2021-12-21,09:20:20",10.1.1.5,0.42787885665893555,-0.150,-0.150,-0.150,0.000,0.000,0.000
1640078426647763968,"2021-12-21,09:20:21",10.1.1.5,531,-0.140,-0.140,-0.140,0.000,0.000,0.000
1640078426926768128,"2021-12-21,09:20:26",10.1.1.5,5.953979969024658,-0.140,-0.140,-0.140,0.000,0.000,0.000
1640078435019543808,"2021-12-21,09:20:33",10.1.1.5,6608,-0.130,-0.130,-0.130,0.000,0.000,0.000
1640078435040792832,"2021-12-21,09:20:35",10.1.1.5,8.112728118896484,-0.130,-0.130,-0.130,0.000,0.000,0.000
1640078435395052032,"2021-12-21,09:20:35",10.1.1.5,351,-0.140,-0.140,-0.140,0.000,0.000,0.000
1640078435400075008,"2021-12-21,09:20:35",10.1.1.5,0.3567819595336914,-0.140,-0.140,-0.140,0.000,0.000,0.000
1640078435763411968,"2021-12-21,09:20:35",10.1.1.5,361,-0.150,-0.150,-0.150,0.000,0.000,0.000
1640078435813419008,"2021-12-21,09:20:35",10.1.1.5,0.4118800163269043,-0.150,-0.150,-0.150,0.000,0.000,0.000
1640078436145423872,"2021-12-21,09:20:36",10.1.1.5,330,-0.160,-0.160,-0.160,0.000,0.000,0.000
1640078436159475968,"2021-12-21,09:20:36",10.1.1.5,0.34459805488586426,-0.160,-0.160,-0.160,0.000,0.000,0.000
1640078436502270976,"2021-12-21,09:20:36",10.1.1.5,338,-0.170,-0.170,-0.170,0.000,0.000,0.000
1640078436534096128,"2021-12-21,09:20:36",10.1.1.5,0.3692190647125244,-0.170,-0.170,-0.170,0.000,0.000,0.000
1640078442952527104,"2021-12-21,09:20:42",10.1.1.5,6416,-0.180,-0.180,-0.180,0.000,0.000,0.000
1640078442992854016,"2021-12-21,09:20:42",10.1.1.5,6.457417011260986,-0.180,-0.180,-0.180,0.000,0.000,0.000
1640078443368963840,"2021-12-21,09:20:43",10.1.1.5,370,-0.190,-0.190,-0.190,0.000,0.000,0.000
1640078443411921152,"2021-12-21,09:20:43",10.1.1.5,0.4175751209259033,-0.190,-0.190,-0.190,0.000,0.000,0.000
1640078443801434112,"2021-12-21,09:20:43",10.1.1.5,383,-0.200,-0.200,-0.200,0.000,0.000,0.000
1640078443842279936,"2021-12-21,09:20:43",10.1.1.5,0.42455410957336426,-0.200,-0.200,-0.200,0.000,0.000,0.000
1640078444333611008,"2021-12-21,09:20:44",10.1.1.5,485,-0.210,-0.210,-0.210,0.000,0.000,0.000
1640078444393559808,"2021-12-21,09:20:44",10.1.1.5,0.53997802734375,-0.210,-0.210,-0.210,0.000,0.000,0.000
1640078444763230976,"2021-12-21,09:20:44",10.1.1.5,367,-0.220,-0.220,-0.220,0.000,0.000,0.000
1640078444806659840,"2021-12-21,09:20:44",10.1.1.5,0.41135716438293457,-0.220,-0.220,-0.220,0.000,0.000,0.000
1640078445219542016,"2021-12-21,09:20:45",10.1.1.5,410,-0.230,-0.230,-0.230,0.000,0.000,0.000
1640078445232663040,"2021-12-21,09:20:45",10.1.1.5,0.42378997802734375,-0.230,-0.230,-0.230,0.000,0.000,0.000
1640078445587992064,"2021-12-21,09:20:45",10.1.1.5,351,-0.240,-0.240,-0.240,0.000,0.000,0.000
1640078445651008000,"2021-12-21,09:20:45",10.1.1.5,0.4144151210784912,-0.240,-0.240,-0.240,0.000,0.000,0.000
1640078446020672000,"2021-12-21,09:20:46",10.1.1.5,368,-0.250,-0.250,-0.250,0.000,0.000,0.000
1640078446071748096,"2021-12-21,09:20:46",10.1.1.5,0.41947007179260254,-0.250,-0.250,-0.250,0.000,0.000,0.000
1640078446419030784,"2021-12-21,09:20:46",10.1.1.5,345,-0.260,-0.260,-0.260,0.000,0.000,0.000
1640078446455002112,"2021-12-21,09:20:46",10.1.1.5,0.3797168731689453,-0.260,-0.260,-0.260,0.000,0.000,0.000
1640078446818664192,"2021-12-21,09:20:46",10.1.1.5,358,-0.270,-0.270,-0.270,0.000,0.000,0.000
1640078446871293184,"2021-12-21,09:20:46",10.1.1.5,0.4111020565032959,-0.270,-0.270,-0.270,0.000,0.000,0.000
1640078447207091200,"2021-12-21,09:20:47",10.1.1.5,334,-0.280,-0.280,-0.280,0.000,0.000,0.000
1640078447420979968,"2021-12-21,09:20:47",10.1.1.5,0.5481839179992676,-0.280,-0.280,-0.280,0.000,0.000,0.000
1640078447936201984,"2021-12-21,09:20:47",10.1.1.5,503,-0.290,-0.290,-0.290,0.000,0.000,0.000
1640078447983625984,"2021-12-21,09:20:47",10.1.1.5,0.5511457920074463,-0.290,-0.290,-0.290,0.000,0.000,0.000
1640078448406567936,"2021-12-21,09:20:48",10.1.1.5,0.4210700988769531,-0.300,-0.300,-0.300,0.000,0.000,0.000
1640078449049009152,"2021-12-21,09:20:49",10.1.1.5,637,-0.310,-0.310,-0.310,0.000,0.000,0.000
1640078449061963008,"2021-12-21,09:20:49",10.1.1.5,0.6501650810241699,-0.310,-0.310,-0.310,0.000,0.000,0.000
1640078449423842048,"2021-12-21,09:20:49",10.1.1.5,360,-0.320,-0.320,-0.320,0.000,0.000,0.000
1640078449446213120,"2021-12-21,09:20:49",10.1.1.5,0.3821840286254883,-0.320,-0.320,-0.320,0.000,0.000,0.000
1640078449841763072,"2021-12-21,09:20:49",10.1.1.5,393,-0.330,-0.330,-0.330,0.000,0.000,0.000
1640078449883667968,"2021-12-21,09:20:49",10.1.1.5,0.43542981147766113,-0.330,-0.330,-0.330,0.000,0.000,0.000
1640078450291956992,"2021-12-21,09:20:50",10.1.1.5,407,-0.340,-0.340,-0.340,0.000,0.000,0.000
1640078450328635904,"2021-12-21,09:20:50",10.1.1.5,0.44352293014526367,-0.340,-0.340,-0.340,0.000,0.000,0.000
1640078450713812224,"2021-12-21,09:20:50",10.1.1.5,382,-0.350,-0.350,-0.350,0.000,0.000,0.000
1640078450759510016,"2021-12-21,09:20:50",10.1.1.5,0.4279160499572754,-0.350,-0.350,-0.350,0.000,0.000,0.000
1640078451142270976,"2021-12-21,09:20:51",10.1.1.5,379,-0.360,-0.360,-0.360,0.000,0.000,0.000
1640078451212833792,"2021-12-21,09:20:51",10.1.1.5,0.44983601570129395,-0.360,-0.360,-0.360,0.000,0.000,0.000
1640078451639698944,"2021-12-21,09:20:51",10.1.1.5,403,-0.370,-0.370,-0.370,0.000,0.000,0.000
1640078451650015232,"2021-12-21,09:20:51",10.1.1.5,0.41382503509521484,-0.370,-0.370,-0.370,0.000,0.000,0.000
1640078451997999872,"2021-12-21,09:20:51",10.1.1.5,346,-0.380,-0.380,-0.380,0.000,0.000,0.000
1640078452023659008,"2021-12-21,09:20:52",10.1.1.5,0.37227320671081543,-0.380,-0.380,-0.380,0.000,0.000,0.000
1640078452351504128,"2021-12-21,09:20:52",10.1.1.5,325,-0.390,-0.390,-0.390,0.000,0.000,0.000
1640078452428253952,"2021-12-21,09:20:52",10.1.1.5,0.40326690673828125,-0.390,-0.390,-0.390,0.000,0.000,0.000
1640078452761828864,"2021-12-21,09:20:52",10.1.1.5,331,-0.400,-0.400,-0.400,0.000,0.000,0.000
1640078452833574144,"2021-12-21,09:20:52",10.1.1.5,0.40361690521240234,-0.400,-0.400,-0.400,0.000,0.000,0.000
1640078453197891840,"2021-12-21,09:20:53",10.1.1.5,362,-0.410,-0.410,-0.410,0.000,0.000,0.000
1640078453244424960,"2021-12-21,09:20:53",10.1.1.5,0.4089949131011963,-0.410,-0.410,-0.410,0.000,0.000,0.000
1640078453732022016,"2021-12-21,09:20:53",10.1.1.5,485,-0.420,-0.420,-0.420,0.000,0.000,0.000
1640078453767045120,"2021-12-21,09:20:53",10.1.1.5,0.5201749801635742,-0.420,-0.420,-0.420,0.000,0.000,0.000
1640078454282063104,"2021-12-21,09:20:54",10.1.1.5,0.5124108791351318,-0.430,-0.430,-0.430,0.000,0.000,0.000
1640078454837265920,"2021-12-21,09:20:54",10.1.1.5,548,-0.440,-0.440,-0.440,0.000,0.000,0.000
1640078454881251072,"2021-12-21,09:20:54",10.1.1.5,0.5966172218322754,-0.440,-0.440,-0.440,0.000,0.000,0.000
1640078455295970816,"2021-12-21,09:20:55",10.1.1.5,410,-0.450,-0.450,-0.450,0.000,0.000,0.000
1640078455320386048,"2021-12-21,09:20:55",10.1.1.5,0.4348728656768799,-0.450,-0.450,-0.450,0.000,0.000,0.000
1640078455702095872,"2021-12-21,09:20:55",10.1.1.5,375,-0.460,-0.460,-0.460,0.000,0.000,0.000
1640078455745289984,"2021-12-21,09:20:55",10.1.1.5,0.41910791397094727,-0.460,-0.460,-0.460,0.000,0.000,0.000
1640078456081965824,"2021-12-21,09:20:56",10.1.1.5,334,-0.470,-0.470,-0.470,0.000,0.000,0.000
1640078456127796992,"2021-12-21,09:20:56",10.1.1.5,0.3803880214691162,-0.470,-0.470,-0.470,0.000,0.000,0.000
1640078456491333120,"2021-12-21,09:20:56",10.1.1.5,342,-0.480,-0.480,-0.480,0.000,0.000,0.000
1640078456530898176,"2021-12-21,09:20:56",10.1.1.5,0.38234806060791016,-0.480,-0.480,-0.480,0.000,0.000,0.000
1640078456911320832,"2021-12-21,09:20:56",10.1.1.5,379,-0.490,-0.490,-0.490,0.000,0.000,0.000
1640078456931346944,"2021-12-21,09:20:56",10.1.1.5,0.3991429805755615,-0.490,-0.490,-0.490,0.000,0.000,0.000
1640078457312259840,"2021-12-21,09:20:57",10.1.1.5,377,-0.500,-0.500,-0.500,0.000,0.000,0.000
1640078457380348928,"2021-12-21,09:20:57",10.1.1.5,0.4420299530029297,-0.500,-0.500,-0.500,0.000,0.000,0.000
1640078457791816960,"2021-12-21,09:20:57",10.1.1.5,409,-0.510,-0.510,-0.510,0.000,0.000,0.000
1640078457811927040,"2021-12-21,09:20:57",10.1.1.5,0.4296879768371582,-0.510,-0.510,-0.510,0.000,0.000,0.000
1640078458208921856,"2021-12-21,09:20:58",10.1.1.5,395,-0.520,-0.520,-0.520,0.000,0.000,0.000
1640078458237878016,"2021-12-21,09:20:58",10.1.1.5,0.42438578605651855,-0.520,-0.520,-0.520,0.000,0.000,0.000
1640078458599796992,"2021-12-21,09:20:58",10.1.1.5,356,-0.530,-0.530,-0.530,0.000,0.000,0.000
1640078458676623104,"2021-12-21,09:20:58",10.1.1.5,0.4328739643096924,-0.530,-0.530,-0.530,0.000,0.000,0.000
1640078459106981120,"2021-12-21,09:20:59",10.1.1.5,422,-0.540,-0.540,-0.540,0.000,0.000,0.000
1640078459180318208,"2021-12-21,09:20:59",10.1.1.5,0.4861941337585449,-0.540,-0.540,-0.540,0.000,0.000,0.000
1640078459747148032,"2021-12-21,09:20:59",10.1.1.5,558,-0.550,-0.550,-0.550,0.000,0.000,0.000
1640078459793988096,"2021-12-21,09:20:59",10.1.1.5,0.6057939529418945,-0.550,-0.550,-0.550,0.000,0.000,0.000
1640078460185035008,"2021-12-21,09:21:00",10.1.1.5,388,-0.560,-0.560,-0.560,0.000,0.000,0.000
1640078460229500160,"2021-12-21,09:21:00",10.1.1.5,0.4333381652832031,-0.560,-0.560,-0.560,0.000,0.000,0.000
1640078460644634880,"2021-12-21,09:21:00",10.1.1.5,405,-0.570,-0.570,-0.570,0.000,0.000,0.000
1640078460690900992,"2021-12-21,09:21:00",10.1.1.5,0.45215296745300293,-0.570,-0.570,-0.570,0.000,0.000,0.000
1640078461065011968,"2021-12-21,09:21:01",10.1.1.5,370,-0.580,-0.580,-0.580,0.000,0.000,0.000
1640078461098969088,"2021-12-21,09:21:01",10.1.1.5,0.4047360420227051,-0.580,-0.580,-0.580,0.000,0.000,0.000
1640078461553492992,"2021-12-21,09:21:01",10.1.1.5,451,-0.590,-0.590,-0.590,0.000,0.000,0.000
1640078461583885824,"2021-12-21,09:21:01",10.1.1.5,0.4817638397216797,-0.590,-0.590,-0.590,0.000,0.000,0.000
1640078461943876864,"2021-12-21,09:21:01",10.1.1.5,358,-0.600,-0.600,-0.600,0.000,0.000,0.000
1640078462007467008,"2021-12-21,09:21:02",10.1.1.5,0.4220540523529053,-0.600,-0.600,-0.600,0.000,0.000,0.000
1640078462377494016,"2021-12-21,09:21:02",10.1.1.5,368,-0.610,-0.610,-0.610,0.000,0.000,0.000
1640078462395885824,"2021-12-21,09:21:02",10.1.1.5,0.38666796684265137,-0.610,-0.610,-0.610,0.000,0.000,0.000
1640078462842108928,"2021-12-21,09:21:02",10.1.1.5,436,-0.620,-0.620,-0.620,0.000,0.000,0.000
1640078462878868224,"2021-12-21,09:21:02",10.1.1.5,0.47327685356140137,-0.620,-0.620,-0.620,0.000,0.000,0.000
1640078463260385024,"2021-12-21,09:21:03",10.1.1.5,379,-0.610,-0.610,-0.610,0.000,0.000,0.000
1640078463371584000,"2021-12-21,09:21:03",10.1.1.5,0.4911479949951172,-0.610,-0.610,-0.610,0.000,0.000,0.000
1640078463781969152,"2021-12-21,09:21:03",10.1.1.5,406,-0.600,-0.600,-0.600,0.000,0.000,0.000
1640078463834286080,"2021-12-21,09:21:03",10.1.1.5,0.45865797996520996,-0.600,-0.600,-0.600,0.000,0.000,0.000
1640078464424410112,"2021-12-21,09:21:04",10.1.1.5,0.5867798328399658,-0.590,-0.590,-0.590,0.000,0.000,0.000
1640078464425255936,"2021-12-21,09:21:04",10.1.1.5,587,-0.590,-0.590,-0.590,0.000,0.000,0.000
1640078464909133056,"2021-12-21,09:21:04",10.1.1.5,482,-0.580,-0.580,-0.580,0.000,0.000,0.000
1640078464982112000,"2021-12-21,09:21:04",10.1.1.5,0.5560150146484375,-0.580,-0.580,-0.580,0.000,0.000,0.000
1640078465366511104,"2021-12-21,09:21:05",10.1.1.5,382,-0.570,-0.570,-0.570,0.000,0.000,0.000
1640078465396923136,"2021-12-21,09:21:05",10.1.1.5,0.4127371311187744,-0.570,-0.570,-0.570,0.000,0.000,0.000
1640078467016876032,"2021-12-21,09:21:07",10.1.1.5,1614,-0.560,-0.560,-0.560,0.000,0.000,0.000
1640078467077605120,"2021-12-21,09:21:07",10.1.1.5,1.6752419471740723,-0.560,-0.560,-0.560,0.000,0.000,0.000
1640078467375931136,"2021-12-21,09:21:07",10.1.1.5,296,-0.550,-0.550,-0.550,0.000,0.000,0.000
1640078467408256000,"2021-12-21,09:21:07",10.1.1.5,0.3293030261993408,-0.550,-0.550,-0.550,0.000,0.000,0.000
1640078467768174848,"2021-12-21,09:21:07",10.1.1.5,358,-0.540,-0.540,-0.540,0.000,0.000,0.000
1640078467815332864,"2021-12-21,09:21:07",10.1.1.5,0.4056589603424072,-0.540,-0.540,-0.540,0.000,0.000,0.000
1640078468183959040,"2021-12-21,09:21:08",10.1.1.5,366,-0.530,-0.530,-0.530,0.000,0.000,0.000
1640078468213854976,"2021-12-21,09:21:08",10.1.1.5,0.3939199447631836,-0.530,-0.530,-0.530,0.000,0.000,0.000
1640078468651022848,"2021-12-21,09:21:08",10.1.1.5,432,-0.520,-0.520,-0.520,0.000,0.000,0.000
1640078468717606144,"2021-12-21,09:21:08",10.1.1.5,0.4999828338623047,-0.520,-0.520,-0.520,0.000,0.000,0.000
1640078469163991808,"2021-12-21,09:21:09",10.1.1.5,439,-0.510,-0.510,-0.510,0.000,0.000,0.000
1640078469209168896,"2021-12-21,09:21:09",10.1.1.5,0.4844388961791992,-0.510,-0.510,-0.510,0.000,0.000,0.000
1640078469608220928,"2021-12-21,09:21:09",10.1.1.5,392,-0.500,-0.500,-0.500,0.000,0.000,0.000
1640078470203502848,"2021-12-21,09:21:09",10.1.1.5,0.640164852142334,-0.500,-0.500,-0.500,0.000,0.000,0.000
1640078470761900032,"2021-12-21,09:21:10",10.1.1.5,553,-0.490,-0.490,-0.490,0.000,0.000,0.000
1640078470862253056,"2021-12-21,09:21:10",10.1.1.5,0.6533448696136475,-0.490,-0.490,-0.490,0.000,0.000,0.000
1640078471203725056,"2021-12-21,09:21:11",10.1.1.5,336,-0.480,-0.480,-0.480,0.000,0.000,0.000
1640078471262972160,"2021-12-21,09:21:11",10.1.1.5,0.3991279602050781,-0.480,-0.480,-0.480,0.000,0.000,0.000
1640078471620312064,"2021-12-21,09:21:11",10.1.1.5,355,-0.470,-0.470,-0.470,0.000,0.000,0.000
1640078471675642112,"2021-12-21,09:21:11",10.1.1.5,0.41126394271850586,-0.470,-0.470,-0.470,0.000,0.000,0.000
1640078472069200896,"2021-12-21,09:21:12",10.1.1.5,391,-0.460,-0.460,-0.460,0.000,0.000,0.000
1640078472126609152,"2021-12-21,09:21:12",10.1.1.5,0.44866394996643066,-0.460,-0.460,-0.460,0.000,0.000,0.000
1640078472533574144,"2021-12-21,09:21:12",10.1.1.5,405,-0.450,-0.450,-0.450,0.000,0.000,0.000
1640078472588764928,"2021-12-21,09:21:12",10.1.1.5,0.46067380905151367,-0.450,-0.450,-0.450,0.000,0.000,0.000
1640078472936228096,"2021-12-21,09:21:12",10.1.1.5,339,-0.440,-0.440,-0.440,0.000,0.000,0.000
1640078472959245056,"2021-12-21,09:21:12",10.1.1.5,0.3634297847747803,-0.440,-0.440,-0.440,0.000,0.000,0.000
1640078473317043968,"2021-12-21,09:21:13",10.1.1.5,353,-0.430,-0.430,-0.430,0.000,0.000,0.000
1640078473405445120,"2021-12-21,09:21:13",10.1.1.5,0.4418611526489258,-0.430,-0.430,-0.430,0.000,0.000,0.000
1640078473916776960,"2021-12-21,09:21:13",10.1.1.5,503,-0.420,-0.420,-0.420,0.000,0.000,0.000
1640078473996690944,"2021-12-21,09:21:13",10.1.1.5,0.5835731029510498,-0.420,-0.420,-0.420,0.000,0.000,0.000
1640078474416481024,"2021-12-21,09:21:14",10.1.1.5,415,-0.410,-0.410,-0.410,0.000,0.000,0.000
1640078474444751872,"2021-12-21,09:21:14",10.1.1.5,0.44374895095825195,-0.410,-0.410,-0.410,0.000,0.000,0.000
1640078474953310976,"2021-12-21,09:21:14",10.1.1.5,498,-0.400,-0.400,-0.400,0.000,0.000,0.000
1640078475055664896,"2021-12-21,09:21:15",10.1.1.5,0.6005380153656006,-0.400,-0.400,-0.400,0.000,0.000,0.000
1640078475415885824,"2021-12-21,09:21:15",10.1.1.5,357,-0.390,-0.390,-0.390,0.000,0.000,0.000
1640078475552005888,"2021-12-21,09:21:15",10.1.1.5,0.4937739372253418,-0.390,-0.390,-0.390,0.000,0.000,0.000
1640078475950193920,"2021-12-21,09:21:15",10.1.1.5,395,-0.380,-0.380,-0.380,0.000,0.000,0.000
1640078475982312960,"2021-12-21,09:21:15",10.1.1.5,0.4268679618835449,-0.380,-0.380,-0.380,0.000,0.000,0.000
1640078476353405952,"2021-12-21,09:21:16",10.1.1.5,369,-0.370,-0.370,-0.370,0.000,0.000,0.000
1640078476472892160,"2021-12-21,09:21:16",10.1.1.5,0.4892430305480957,-0.370,-0.370,-0.370,0.000,0.000,0.000
1640078476950264832,"2021-12-21,09:21:16",10.1.1.5,469,-0.360,-0.360,-0.360,0.000,0.000,0.000
1640078477006295040,"2021-12-21,09:21:17",10.1.1.5,0.5251600742340088,-0.360,-0.360,-0.360,0.000,0.000,0.000
1640078477403459072,"2021-12-21,09:21:17",10.1.1.5,371,-0.350,-0.350,-0.350,0.000,0.000,0.000
1640078477480186880,"2021-12-21,09:21:17",10.1.1.5,0.44850707054138184,-0.350,-0.350,-0.350,0.000,0.000,0.000
1640078477937753856,"2021-12-21,09:21:17",10.1.1.5,450,-0.340,-0.340,-0.340,0.000,0.000,0.000
1640078477993822208,"2021-12-21,09:21:17",10.1.1.5,0.5071151256561279,-0.340,-0.340,-0.340,0.000,0.000,0.000
1640078478433573120,"2021-12-21,09:21:18",10.1.1.5,438,-0.330,-0.330,-0.330,0.000,0.000,0.000
1640078478452680960,"2021-12-21,09:21:18",10.1.1.5,0.45756077766418457,-0.330,-0.330,-0.330,0.000,0.000,0.000
1640078478874316032,"2021-12-21,09:21:18",10.1.1.5,418,-0.320,-0.320,-0.320,0.000,0.000,0.000
1640078478946136064,"2021-12-21,09:21:18",10.1.1.5,0.49166011810302734,-0.320,-0.320,-0.320,0.000,0.000,0.000
1640078479482323968,"2021-12-21,09:21:19",10.1.1.5,534,-0.310,-0.310,-0.310,0.000,0.000,0.000
1640078479525456896,"2021-12-21,09:21:19",10.1.1.5,0.5777099132537842,-0.310,-0.310,-0.310,0.000,0.000,0.000
1640078479964838144,"2021-12-21,09:21:19",10.1.1.5,412,-0.300,-0.300,-0.300,0.000,0.000,0.000
1640078480039060992,"2021-12-21,09:21:20",10.1.1.5,0.48673486709594727,-0.300,-0.300,-0.300,0.000,0.000,0.000
1640078480538443008,"2021-12-21,09:21:20",10.1.1.5,477,-0.290,-0.290,-0.290,0.000,0.000,0.000
1640078480588290048,"2021-12-21,09:21:20",10.1.1.5,0.5397388935089111,-0.290,-0.290,-0.290,0.000,0.000,0.000
1640078481015672832,"2021-12-21,09:21:21",10.1.1.5,418,-0.280,-0.280,-0.280,0.000,0.000,0.000
1640078481095636992,"2021-12-21,09:21:21",10.1.1.5,0.4981198310852051,-0.280,-0.280,-0.280,0.000,0.000,0.000
1640078481456497920,"2021-12-21,09:21:21",10.1.1.5,359,-0.270,-0.270,-0.270,0.000,0.000,0.000
1640078481589056000,"2021-12-21,09:21:21",10.1.1.5,0.49182581901550293,-0.270,-0.270,-0.270,0.000,0.000,0.000
1640078482004457984,"2021-12-21,09:21:22",10.1.1.5,405,-0.260,-0.260,-0.260,0.000,0.000,0.000
1640078482026931968,"2021-12-21,09:21:22",10.1.1.5,0.428009033203125,-0.260,-0.260,-0.260,0.000,0.000,0.000
1640078482405984000,"2021-12-21,09:21:22",10.1.1.5,367,-0.250,-0.250,-0.250,0.000,0.000,0.000
1640078482460347904,"2021-12-21,09:21:22",10.1.1.5,0.4220700263977051,-0.250,-0.250,-0.250,0.000,0.000,0.000
1640078482926345984,"2021-12-21,09:21:22",10.1.1.5,463,-0.240,-0.240,-0.240,0.000,0.000,0.000
1640078483008749056,"2021-12-21,09:21:23",10.1.1.5,0.5456500053405762,-0.240,-0.240,-0.240,0.000,0.000,0.000
1640078483599350016,"2021-12-21,09:21:23",10.1.1.5,554,-0.230,-0.230,-0.230,0.000,0.000,0.000
1640078483680118016,"2021-12-21,09:21:23",10.1.1.5,0.6350650787353516,-0.230,-0.230,-0.230,0.000,0.000,0.000
1640078484169373952,"2021-12-21,09:21:24",10.1.1.5,487,-0.220,-0.220,-0.220,0.000,0.000,0.000
1640078484182437888,"2021-12-21,09:21:24",10.1.1.5,0.500391960144043,-0.220,-0.220,-0.220,0.000,0.000,0.000
1640078484604162048,"2021-12-21,09:21:24",10.1.1.5,0.40854501724243164,-0.210,-0.210,-0.210,0.000,0.000,0.000
1640078484966736128,"2021-12-21,09:21:24",10.1.1.5,360,-0.200,-0.200,-0.200,0.000,0.000,0.000
1640078485030180096,"2021-12-21,09:21:25",10.1.1.5,0.42447590827941895,-0.200,-0.200,-0.200,0.000,0.000,0.000
1640078485417437952,"2021-12-21,09:21:25",10.1.1.5,382,-0.190,-0.190,-0.190,0.000,0.000,0.000
1640078485470390016,"2021-12-21,09:21:25",10.1.1.5,0.43513989448547363,-0.190,-0.190,-0.190,0.000,0.000,0.000
1640078485867237120,"2021-12-21,09:21:25",10.1.1.5,388,-0.180,-0.180,-0.180,0.000,0.000,0.000
1640078485899257856,"2021-12-21,09:21:25",10.1.1.5,0.4205601215362549,-0.180,-0.180,-0.180,0.000,0.000,0.000
1640078486248249088,"2021-12-21,09:21:26",10.1.1.5,347,-0.170,-0.170,-0.170,0.000,0.000,0.000
1640078486296555008,"2021-12-21,09:21:26",10.1.1.5,0.39493489265441895,-0.170,-0.170,-0.170,0.000,0.000,0.000
1640078486324475136,"2021-12-21,09:21:26",10.1.1.5,-23,-0.160,-0.160,-0.160,0.000,0.000,0.000
1640078486833817088,"2021-12-21,09:21:26",10.1.1.5,0.5166580677032471,-0.160,-0.160,-0.160,0.000,0.000,0.000
1640078487257050880,"2021-12-21,09:21:27",10.1.1.5,417,-0.150,-0.150,-0.150,0.000,0.000,0.000
1640078487313246976,"2021-12-21,09:21:27",10.1.1.5,0.4739089012145996,-0.150,-0.150,-0.150,0.000,0.000,0.000
1640078487667396096,"2021-12-21,09:21:27",10.1.1.5,351,-0.140,-0.140,-0.140,0.000,0.000,0.000
1640078487723313920,"2021-12-21,09:21:27",10.1.1.5,0.38201212882995605,-0.140,-0.140,-0.140,0.000,0.000,0.000
1640078488106969088,"2021-12-21,09:21:28",10.1.1.5,380,-0.130,-0.130,-0.130,0.000,0.000,0.000
1640078488149411840,"2021-12-21,09:21:28",10.1.1.5,0.4231858253479004,-0.130,-0.130,-0.130,0.000,0.000,0.000
1640078488537018112,"2021-12-21,09:21:28",10.1.1.5,384,-0.140,-0.140,-0.140,0.000,0.000,0.000
1640078488624121856,"2021-12-21,09:21:28",10.1.1.5,0.47182798385620117,-0.140,-0.140,-0.140,0.000,0.000,0.000
1640078489066330880,"2021-12-21,09:21:29",10.1.1.5,435,-0.150,-0.150,-0.150,0.000,0.000,0.000
1640078489149694976,"2021-12-21,09:21:29",10.1.1.5,0.519049882888794,-0.150,-0.150,-0.150,0.000,0.000,0.000
1640078489546208000,"2021-12-21,09:21:29",10.1.1.5,393,-0.160,-0.160,-0.160,0.000,0.000,0.000
1640078489629622016,"2021-12-21,09:21:29",10.1.1.5,0.4771459102630615,-0.160,-0.160,-0.160,0.000,0.000,0.000
1640078490501862144,"2021-12-21,09:21:30",10.1.1.5,718,-0.170,-0.170,-0.170,0.000,0.000,0.000
1640078490515427072,"2021-12-21,09:21:30",10.1.1.5,0.87646484375,-0.170,-0.170,-0.170,0.000,0.000,0.000
1640078502398551040,"2021-12-21,09:21:39",10.1.1.5,9.015782117843628,-0.180,-0.180,-0.180,0.000,0.000,0.000
1640078505333362176,"2021-12-21,09:21:45",10.1.1.5,2932,-0.190,-0.190,-0.190,0.000,0.000,0.000
1640078505407037952,"2021-12-21,09:21:45",10.1.1.5,3.006485939025879,-0.190,-0.190,-0.190,0.000,0.000,0.000
1640078526547259136,"2021-12-21,09:22:06",10.1.1.5,20756,-0.200,-0.200,-0.200,0.000,0.000,0.000
1640078526596503040,"2021-12-21,09:22:06",10.1.1.5,21.18799901008606,-0.200,-0.200,-0.200,0.000,0.000,0.000
1640078526904425984,"2021-12-21,09:22:06",10.1.1.5,306,-0.210,-0.210,-0.210,0.000,0.000,0.000
1640078526993756928,"2021-12-21,09:22:06",10.1.1.5,0.39541101455688477,-0.210,-0.210,-0.210,0.000,0.000,0.000
1640078527360850176,"2021-12-21,09:22:07",10.1.1.5,365,-0.220,-0.220,-0.220,0.000,0.000,0.000
1640078527434755072,"2021-12-21,09:22:07",10.1.1.5,0.439054012298584,-0.220,-0.220,-0.220,0.000,0.000,0.000
1640078527796631040,"2021-12-21,09:22:07",10.1.1.5,359,-0.230,-0.230,-0.230,0.000,0.000,0.000
1640078527802340864,"2021-12-21,09:22:07",10.1.1.5,0.3656120300292969,-0.230,-0.230,-0.230,0.000,0.000,0.000
1640078538064881920,"2021-12-21,09:22:08",10.1.1.5,500,-0.240,-0.240,-0.240,0.000,0.000,0.000
1640078542838993152,"2021-12-21,09:22:18",10.1.1.5,10.482213020324707,-0.240,-0.240,-0.240,0.000,0.000,0.000
1640078551407796992,"2021-12-21,09:22:25",10.1.1.5,1386,-0.250,-0.250,-0.250,0.000,0.000,0.000
1640078551837443072,"2021-12-21,09:22:31",10.1.1.5,7.4236509799957275,-0.250,-0.250,-0.250,0.000,0.000,0.000
1640078554539097088,"2021-12-21,09:22:34",10.1.1.5,2700,-0.260,-0.260,-0.260,0.000,0.000,0.000
1640078554577605888,"2021-12-21,09:22:34",10.1.1.5,2.7388668060302734,-0.260,-0.260,-0.260,0.000,0.000,0.000
1640078554935303936,"2021-12-21,09:22:34",10.1.1.5,355,-0.270,-0.270,-0.270,0.000,0.000,0.000
1640078555016897024,"2021-12-21,09:22:35",10.1.1.5,0.4370458126068115,-0.270,-0.270,-0.270,0.000,0.000,0.000
1640078555417335040,"2021-12-21,09:22:35",10.1.1.5,397,-0.280,-0.280,-0.280,0.000,0.000,0.000
1640078555506514944,"2021-12-21,09:22:35",10.1.1.5,0.4871029853820801,-0.280,-0.280,-0.280,0.000,0.000,0.000
1640078555855225088,"2021-12-21,09:22:35",10.1.1.5,347,-0.290,-0.290,-0.290,0.000,0.000,0.000
1640078555904545024,"2021-12-21,09:22:35",10.1.1.5,0.3962070941925049,-0.290,-0.290,-0.290,0.000,0.000,0.000
1640078556403740928,"2021-12-21,09:22:36",10.1.1.5,353,-0.300,-0.300,-0.300,0.000,0.000,0.000
1640078556425040896,"2021-12-21,09:22:36",10.1.1.5,0.373898983001709,-0.300,-0.300,-0.300,0.000,0.000,0.000
1640078556776720896,"2021-12-21,09:22:36",10.1.1.5,345,-0.310,-0.310,-0.310,0.000,0.000,0.000
1640078556834564096,"2021-12-21,09:22:36",10.1.1.5,0.4026210308074951,-0.310,-0.310,-0.310,0.000,0.000,0.000
1640078557171811072,"2021-12-21,09:22:37",10.1.1.5,335,-0.320,-0.320,-0.320,0.000,0.000,0.000
1640078557213731072,"2021-12-21,09:22:37",10.1.1.5,0.3777890205383301,-0.320,-0.320,-0.320,0.000,0.000,0.000
1640078557571099136,"2021-12-21,09:22:37",10.1.1.5,354,-0.330,-0.330,-0.330,0.000,0.000,0.000
1640078557654861056,"2021-12-21,09:22:37",10.1.1.5,0.4380669593811035,-0.330,-0.330,-0.330,0.000,0.000,0.000
1640078558050039040,"2021-12-21,09:22:38",10.1.1.5,393,-0.340,-0.340,-0.340,0.000,0.000,0.000
1640078558126208000,"2021-12-21,09:22:38",10.1.1.5,0.46931886672973633,-0.340,-0.340,-0.340,0.000,0.000,0.000
1640078558508999168,"2021-12-21,09:22:38",10.1.1.5,380,-0.350,-0.350,-0.350,0.000,0.000,0.000
1640078558553313024,"2021-12-21,09:22:38",10.1.1.5,0.42487311363220215,-0.350,-0.350,-0.350,0.000,0.000,0.000
1640078558995717888,"2021-12-21,09:22:38",10.1.1.5,440,-0.360,-0.360,-0.360,0.000,0.000,0.000
1640078559045293056,"2021-12-21,09:22:39",10.1.1.5,0.4903130531311035,-0.360,-0.360,-0.360,0.000,0.000,0.000
1640078559467907072,"2021-12-21,09:22:39",10.1.1.5,418,-0.370,-0.370,-0.370,0.000,0.000,0.000
1640078559515685120,"2021-12-21,09:22:39",10.1.1.5,0.4661228656768799,-0.370,-0.370,-0.370,0.000,0.000,0.000
1640078559907956992,"2021-12-21,09:22:39",10.1.1.5,388,-0.380,-0.380,-0.380,0.000,0.000,0.000
1640078559951236864,"2021-12-21,09:22:39",10.1.1.5,0.432020902633667,-0.380,-0.380,-0.380,0.000,0.000,0.000
1640078560305622016,"2021-12-21,09:22:40",10.1.1.5,352,-0.390,-0.390,-0.390,0.000,0.000,0.000
1640078560332276992,"2021-12-21,09:22:40",10.1.1.5,0.3794858455657959,-0.390,-0.390,-0.390,0.000,0.000,0.000
1640078560666210816,"2021-12-21,09:22:40",10.1.1.5,331,-0.400,-0.400,-0.400,0.000,0.000,0.000
1640078560771298816,"2021-12-21,09:22:40",10.1.1.5,0.4370300769805908,-0.400,-0.400,-0.400,0.000,0.000,0.000
1640078561165965056,"2021-12-21,09:22:41",10.1.1.5,389,-0.410,-0.410,-0.410,0.000,0.000,0.000
1640078561248549888,"2021-12-21,09:22:41",10.1.1.5,0.4720449447631836,-0.410,-0.410,-0.410,0.000,0.000,0.000
1640078561673641984,"2021-12-21,09:22:41",10.1.1.5,418,-0.420,-0.420,-0.420,0.000,0.000,0.000
1640078561710063872,"2021-12-21,09:22:41",10.1.1.5,0.45455098152160645,-0.420,-0.420,-0.420,0.000,0.000,0.000
1640078562122946048,"2021-12-21,09:22:42",10.1.1.5,411,-0.430,-0.430,-0.430,0.000,0.000,0.000
1640078562205264128,"2021-12-21,09:22:42",10.1.1.5,0.49361109733581543,-0.430,-0.430,-0.430,0.000,0.000,0.000
1640078562532370176,"2021-12-21,09:22:42",10.1.1.5,324,-0.440,-0.440,-0.440,0.000,0.000,0.000
1640078562599196928,"2021-12-21,09:22:42",10.1.1.5,0.3905317783355713,-0.440,-0.440,-0.440,0.000,0.000,0.000
1640078562964369920,"2021-12-21,09:22:42",10.1.1.5,357,-0.450,-0.450,-0.450,0.000,0.000,0.000
1640078562996834048,"2021-12-21,09:22:42",10.1.1.5,0.3911168575286865,-0.450,-0.450,-0.450,0.000,0.000,0.000
1640078563391181824,"2021-12-21,09:22:43",10.1.1.5,383,-0.460,-0.460,-0.460,0.000,0.000,0.000
1640078563454863104,"2021-12-21,09:22:43",10.1.1.5,0.4467308521270752,-0.460,-0.460,-0.460,0.000,0.000,0.000
1640078564180300032,"2021-12-21,09:22:44",10.1.1.5,723,-0.470,-0.470,-0.470,0.000,0.000,0.000
1640078564208030976,"2021-12-21,09:22:44",10.1.1.5,0.7517290115356445,-0.470,-0.470,-0.470,0.000,0.000,0.000
1640078564552478976,"2021-12-21,09:22:44",10.1.1.5,340,-0.480,-0.480,-0.480,0.000,0.000,0.000
1640078564599339008,"2021-12-21,09:22:44",10.1.1.5,0.3899190425872803,-0.480,-0.480,-0.480,0.000,0.000,0.000
1640078565029588992,"2021-12-21,09:22:45",10.1.1.5,427,-0.490,-0.490,-0.490,0.000,0.000,0.000
1640078565083002112,"2021-12-21,09:22:45",10.1.1.5,0.48192405700683594,-0.490,-0.490,-0.490,0.000,0.000,0.000
1640078565429115136,"2021-12-21,09:22:45",10.1.1.5,343,-0.500,-0.500,-0.500,0.000,0.000,0.000
1640078565509184000,"2021-12-21,09:22:45",10.1.1.5,0.4232819080352783,-0.500,-0.500,-0.500,0.000,0.000,0.000
1640078565513262080,"2021-12-21,09:22:45",10.1.1.5,-1,-0.510,-0.510,-0.510,0.000,0.000,0.000
1640078565932545792,"2021-12-21,09:22:45",10.1.1.5,0.4203791618347168,-0.510,-0.510,-0.510,0.000,0.000,0.000
1640078566505755904,"2021-12-21,09:22:46",10.1.1.5,568,-0.520,-0.520,-0.520,0.000,0.000,0.000
1640078566570326016,"2021-12-21,09:22:46",10.1.1.5,0.6336460113525391,-0.520,-0.520,-0.520,0.000,0.000,0.000
1640078567040337152,"2021-12-21,09:22:47",10.1.1.5,440,-0.530,-0.530,-0.530,0.000,0.000,0.000
1640078567119368960,"2021-12-21,09:22:47",10.1.1.5,0.5192551612854004,-0.530,-0.530,-0.530,0.000,0.000,0.000
1640078567483788032,"2021-12-21,09:22:47",10.1.1.5,359,-0.540,-0.540,-0.540,0.000,0.000,0.000
1640078567539546880,"2021-12-21,09:22:47",10.1.1.5,0.41498899459838867,-0.540,-0.540,-0.540,0.000,0.000,0.000
1640078567964203008,"2021-12-21,09:22:47",10.1.1.5,419,-0.550,-0.550,-0.550,0.000,0.000,0.000
1640078567975282944,"2021-12-21,09:22:47",10.1.1.5,0.43031883239746094,-0.550,-0.550,-0.550,0.000,0.000,0.000
1640078568423038976,"2021-12-21,09:22:48",10.1.1.5,445,-0.560,-0.560,-0.560,0.000,0.000,0.000
1640078568485122816,"2021-12-21,09:22:48",10.1.1.5,0.5080759525299072,-0.560,-0.560,-0.560,0.000,0.000,0.000
1640078568851435776,"2021-12-21,09:22:48",10.1.1.5,361,-0.570,-0.570,-0.570,0.000,0.000,0.000
1640078568916572160,"2021-12-21,09:22:48",10.1.1.5,0.4293978214263916,-0.570,-0.570,-0.570,0.000,0.000,0.000
1640078569241888000,"2021-12-21,09:22:49",10.1.1.5,319,-0.580,-0.580,-0.580,0.000,0.000,0.000
1640078569340747008,"2021-12-21,09:22:49",10.1.1.5,0.4187331199645996,-0.580,-0.580,-0.580,0.000,0.000,0.000
1640078569829675008,"2021-12-21,09:22:49",10.1.1.5,346,-0.590,-0.590,-0.590,0.000,0.000,0.000
1640078569871727872,"2021-12-21,09:22:49",10.1.1.5,0.5283310413360596,-0.590,-0.590,-0.590,0.000,0.000,0.000
1640078569881613056,"2021-12-21,09:22:49",10.1.1.5,-1,-0.600,-0.600,-0.600,0.000,0.000,0.000
1640078570348748800,"2021-12-21,09:22:50",10.1.1.5,0.475269079208374,-0.600,-0.600,-0.600,0.000,0.000,0.000
1640078570670223104,"2021-12-21,09:22:50",10.1.1.5,319,-0.610,-0.610,-0.610,0.000,0.000,0.000
1640078570782428928,"2021-12-21,09:22:50",10.1.1.5,0.43169307708740234,-0.610,-0.610,-0.610,0.000,0.000,0.000
1640078571188976128,"2021-12-21,09:22:51",10.1.1.5,401,-0.620,-0.620,-0.620,0.000,0.000,0.000
1640078571242157056,"2021-12-21,09:22:51",10.1.1.5,0.4551658630371094,-0.620,-0.620,-0.620,0.000,0.000,0.000
1640078571596827904,"2021-12-21,09:22:51",10.1.1.5,349,-0.610,-0.610,-0.610,0.000,0.000,0.000
1640078571679276032,"2021-12-21,09:22:51",10.1.1.5,0.43160295486450195,-0.610,-0.610,-0.610,0.000,0.000,0.000
1640078572027392000,"2021-12-21,09:22:52",10.1.1.5,346,-0.600,-0.600,-0.600,0.000,0.000,0.000
1640078572095962112,"2021-12-21,09:22:52",10.1.1.5,0.4150381088256836,-0.600,-0.600,-0.600,0.000,0.000,0.000
1640078572427261184,"2021-12-21,09:22:52",10.1.1.5,330,-0.590,-0.590,-0.590,0.000,0.000,0.000
1640078572494981888,"2021-12-21,09:22:52",10.1.1.5,0.3977649211883545,-0.590,-0.590,-0.590,0.000,0.000,0.000
1640078572806184960,"2021-12-21,09:22:52",10.1.1.5,307,-0.580,-0.580,-0.580,0.000,0.000,0.000
1640078572872015104,"2021-12-21,09:22:52",10.1.1.5,0.373917818069458,-0.580,-0.580,-0.580,0.000,0.000,0.000
1640078573275154176,"2021-12-21,09:22:53",10.1.1.5,398,-0.570,-0.570,-0.570,0.000,0.000,0.000
1640078573318339072,"2021-12-21,09:22:53",10.1.1.5,0.4413919448852539,-0.570,-0.570,-0.570,0.000,0.000,0.000
1640078573678239232,"2021-12-21,09:22:53",10.1.1.5,358,-0.560,-0.560,-0.560,0.000,0.000,0.000
1640078573736141824,"2021-12-21,09:22:53",10.1.1.5,0.41639184951782227,-0.560,-0.560,-0.560,0.000,0.000,0.000
1640078574103442944,"2021-12-21,09:22:54",10.1.1.5,347,-0.550,-0.550,-0.550,0.000,0.000,0.000
1640078574196307968,"2021-12-21,09:22:54",10.1.1.5,0.44010305404663086,-0.550,-0.550,-0.550,0.000,0.000,0.000
1640078575190966016,"2021-12-21,09:22:55",10.1.1.5,992,-0.540,-0.540,-0.540,0.000,0.000,0.000
1640078575257306112,"2021-12-21,09:22:55",10.1.1.5,1.0585520267486572,-0.540,-0.540,-0.540,0.000,0.000,0.000
1640078575652740096,"2021-12-21,09:22:55",10.1.1.5,392,-0.530,-0.530,-0.530,0.000,0.000,0.000
1640078575755898112,"2021-12-21,09:22:55",10.1.1.5,0.4869070053100586,-0.530,-0.530,-0.530,0.000,0.000,0.000
1640078576174227968,"2021-12-21,09:22:56",10.1.1.5,412,-0.520,-0.520,-0.520,0.000,0.000,0.000
1640078576211747840,"2021-12-21,09:22:56",10.1.1.5,0.4506258964538574,-0.520,-0.520,-0.520,0.000,0.000,0.000
1640078576590596864,"2021-12-21,09:22:56",10.1.1.5,364,-0.510,-0.510,-0.510,0.000,0.000,0.000
1640078576638194944,"2021-12-21,09:22:56",10.1.1.5,0.4123539924621582,-0.510,-0.510,-0.510,0.000,0.000,0.000
1640078577004205056,"2021-12-21,09:22:57",10.1.1.5,361,-0.500,-0.500,-0.500,0.000,0.000,0.000
1640078577079472896,"2021-12-21,09:22:57",10.1.1.5,0.43668103218078613,-0.500,-0.500,-0.500,0.000,0.000,0.000
1640078577407887104,"2021-12-21,09:22:57",10.1.1.5,325,-0.490,-0.490,-0.490,0.000,0.000,0.000
1640078577448157184,"2021-12-21,09:22:57",10.1.1.5,0.3658871650695801,-0.490,-0.490,-0.490,0.000,0.000,0.000
1640078577846359040,"2021-12-21,09:22:57",10.1.1.5,396,-0.480,-0.480,-0.480,0.000,0.000,0.000
1640078577896323072,"2021-12-21,09:22:57",10.1.1.5,0.44602108001708984,-0.480,-0.480,-0.480,0.000,0.000,0.000
1640078578268049920,"2021-12-21,09:22:58",10.1.1.5,369,-0.470,-0.470,-0.470,0.000,0.000,0.000
1640078578301815040,"2021-12-21,09:22:58",10.1.1.5,0.403717041015625,-0.470,-0.470,-0.470,0.000,0.000,0.000
1640078578698004992,"2021-12-21,09:22:58",10.1.1.5,394,-0.460,-0.460,-0.460,0.000,0.000,0.000
1640078578754749184,"2021-12-21,09:22:58",10.1.1.5,0.4511129856109619,-0.460,-0.460,-0.460,0.000,0.000,0.000
1640078579193775872,"2021-12-21,09:22:59",10.1.1.5,435,-0.450,-0.450,-0.450,0.000,0.000,0.000
1640078579345211904,"2021-12-21,09:22:59",10.1.1.5,0.5873908996582031,-0.450,-0.450,-0.450,0.000,0.000,0.000
1640078579773963008,"2021-12-21,09:22:59",10.1.1.5,426,-0.440,-0.440,-0.440,0.000,0.000,0.000
1640078579908876800,"2021-12-21,09:22:59",10.1.1.5,0.5610978603363037,-0.440,-0.440,-0.440,0.000,0.000,0.000
1640078580291836928,"2021-12-21,09:23:00",10.1.1.5,364,-0.430,-0.430,-0.430,0.000,0.000,0.000
1640078580361548800,"2021-12-21,09:23:00",10.1.1.5,0.43431711196899414,-0.430,-0.430,-0.430,0.000,0.000,0.000
1640078580832724992,"2021-12-21,09:23:00",10.1.1.5,467,-0.420,-0.420,-0.420,0.000,0.000,0.000
1640078580863928064,"2021-12-21,09:23:00",10.1.1.5,0.4996190071105957,-0.420,-0.420,-0.420,0.000,0.000,0.000
1640079008727493120,"2021-12-21,09:30:08",10.1.1.5,427344,-0.410,-0.410,-0.410,0.000,0.000,0.000
1640079008803296000,"2021-12-21,09:30:08",10.1.1.5,427.9378900527954,-0.410,-0.410,-0.410,0.000,0.000,0.000
1640079009455621120,"2021-12-21,09:30:09",10.1.1.5,650,-0.400,-0.400,-0.400,0.000,0.000,0.000
1640079009524549888,"2021-12-21,09:30:09",10.1.1.5,0.7191219329833984,-0.400,-0.400,-0.400,0.000,0.000,0.000
1640079009918277888,"2021-12-21,09:30:09",10.1.1.5,392,-0.390,-0.390,-0.390,0.000,0.000,0.000
1640079010002489088,"2021-12-21,09:30:10",10.1.1.5,0.4765300750732422,-0.390,-0.390,-0.390,0.000,0.000,0.000
1640079011593061888,"2021-12-21,09:30:11",10.1.1.5,1588,-0.380,-0.380,-0.380,0.000,0.000,0.000
1640079011645906944,"2021-12-21,09:30:11",10.1.1.5,1.641273021697998,-0.380,-0.380,-0.380,0.000,0.000,0.000
1640079012319386880,"2021-12-21,09:30:12",10.1.1.5,668,-0.370,-0.370,-0.370,0.000,0.000,0.000
1640079012411750144,"2021-12-21,09:30:12",10.1.1.5,0.7621700763702393,-0.370,-0.370,-0.370,0.000,0.000,0.000
1640079012719876096,"2021-12-21,09:30:12",10.1.1.5,302,-0.360,-0.360,-0.360,0.000,0.000,0.000
1640079012818286848,"2021-12-21,09:30:12",10.1.1.5,0.40087318420410156,-0.360,-0.360,-0.360,0.000,0.000,0.000
1640079013190445056,"2021-12-21,09:30:13",10.1.1.5,369,-0.350,-0.350,-0.350,0.000,0.000,0.000
1640079013501447936,"2021-12-21,09:30:13",10.1.1.5,0.6805121898651123,-0.350,-0.350,-0.350,0.000,0.000,0.000
1640079014955631872,"2021-12-21,09:30:14",10.1.1.5,1158,-0.340,-0.340,-0.340,0.000,0.000,0.000
1640079015033123072,"2021-12-21,09:30:15",10.1.1.5,1.2359189987182617,-0.340,-0.340,-0.340,0.000,0.000,0.000
1640079015715636992,"2021-12-21,09:30:15",10.1.1.5,678,-0.330,-0.330,-0.330,0.000,0.000,0.000
1640079015772941056,"2021-12-21,09:30:15",10.1.1.5,0.7355360984802246,-0.330,-0.330,-0.330,0.000,0.000,0.000
1640079016275585024,"2021-12-21,09:30:16",10.1.1.5,499,-0.320,-0.320,-0.320,0.000,0.000,0.000
1640079016395518976,"2021-12-21,09:30:16",10.1.1.5,0.6193208694458008,-0.320,-0.320,-0.320,0.000,0.000,0.000
1640079016763457024,"2021-12-21,09:30:16",10.1.1.5,365,-0.310,-0.310,-0.310,0.000,0.000,0.000
1640079016839134976,"2021-12-21,09:30:16",10.1.1.5,0.4414510726928711,-0.310,-0.310,-0.310,0.000,0.000,0.000
1640079017220446976,"2021-12-21,09:30:17",10.1.1.5,367,-0.300,-0.300,-0.300,0.000,0.000,0.000
1640079017259456000,"2021-12-21,09:30:17",10.1.1.5,0.41488003730773926,-0.300,-0.300,-0.300,0.000,0.000,0.000
1640079017657225984,"2021-12-21,09:30:17",10.1.1.5,395,-0.290,-0.290,-0.290,0.000,0.000,0.000
1640079017814131968,"2021-12-21,09:30:17",10.1.1.5,0.5529439449310303,-0.290,-0.290,-0.290,0.000,0.000,0.000
1640079018219818240,"2021-12-21,09:30:18",10.1.1.5,397,-0.280,-0.280,-0.280,0.000,0.000,0.000
1640079018260368128,"2021-12-21,09:30:18",10.1.1.5,0.43805885314941406,-0.280,-0.280,-0.280,0.000,0.000,0.000
1640079018639834880,"2021-12-21,09:30:18",10.1.1.5,377,-0.270,-0.270,-0.270,0.000,0.000,0.000
1640079018666048000,"2021-12-21,09:30:18",10.1.1.5,0.4040651321411133,-0.270,-0.270,-0.270,0.000,0.000,0.000
1640079019006198784,"2021-12-21,09:30:19",10.1.1.5,338,-0.260,-0.260,-0.260,0.000,0.000,0.000
1640079019100122880,"2021-12-21,09:30:19",10.1.1.5,0.4320528507232666,-0.260,-0.260,-0.260,0.000,0.000,0.000
1640079020312697856,"2021-12-21,09:30:20",10.1.1.5,1197,-0.250,-0.250,-0.250,0.000,0.000,0.000
1640079020354896896,"2021-12-21,09:30:20",10.1.1.5,1.239928960800171,-0.250,-0.250,-0.250,0.000,0.000,0.000
1640079020735177984,"2021-12-21,09:30:20",10.1.1.5,367,-0.240,-0.240,-0.240,0.000,0.000,0.000
1640079020781188864,"2021-12-21,09:30:20",10.1.1.5,0.4202439785003662,-0.240,-0.240,-0.240,0.000,0.000,0.000
1640079021111952128,"2021-12-21,09:30:21",10.1.1.5,326,-0.230,-0.230,-0.230,0.000,0.000,0.000
1640079021190267136,"2021-12-21,09:30:21",10.1.1.5,0.40509915351867676,-0.230,-0.230,-0.230,0.000,0.000,0.000
1640079021532985088,"2021-12-21,09:30:21",10.1.1.5,339,-0.220,-0.220,-0.220,0.000,0.000,0.000
1640079021597299968,"2021-12-21,09:30:21",10.1.1.5,0.40554118156433105,-0.220,-0.220,-0.220,0.000,0.000,0.000
1640079022076647168,"2021-12-21,09:30:22",10.1.1.5,476,-0.210,-0.210,-0.210,0.000,0.000,0.000
1640079022113661952,"2021-12-21,09:30:22",10.1.1.5,0.5134201049804688,-0.210,-0.210,-0.210,0.000,0.000,0.000
1640079022503587840,"2021-12-21,09:30:22",10.1.1.5,388,-0.200,-0.200,-0.200,0.000,0.000,0.000
1640079022591767040,"2021-12-21,09:30:22",10.1.1.5,0.47670602798461914,-0.200,-0.200,-0.200,0.000,0.000,0.000
1640079022960108032,"2021-12-21,09:30:22",10.1.1.5,366,-0.190,-0.190,-0.190,0.000,0.000,0.000
1640079022992420864,"2021-12-21,09:30:22",10.1.1.5,0.3992578983306885,-0.190,-0.190,-0.190,0.000,0.000,0.000
1640079023373940992,"2021-12-21,09:30:23",10.1.1.5,379,-0.180,-0.180,-0.180,0.000,0.000,0.000
1640079023442132992,"2021-12-21,09:30:23",10.1.1.5,0.4480772018432617,-0.180,-0.180,-0.180,0.000,0.000,0.000
1640079023796660992,"2021-12-21,09:30:23",10.1.1.5,351,-0.170,-0.170,-0.170,0.000,0.000,0.000
1640079023882600960,"2021-12-21,09:30:23",10.1.1.5,0.43887805938720703,-0.170,-0.170,-0.170,0.000,0.000,0.000
1640079024320369920,"2021-12-21,09:30:24",10.1.1.5,434,-0.160,-0.160,-0.160,0.000,0.000,0.000
1640079024400157952,"2021-12-21,09:30:24",10.1.1.5,0.5147230625152588,-0.160,-0.160,-0.160,0.000,0.000,0.000
1640079024840101888,"2021-12-21,09:30:24",10.1.1.5,436,-0.150,-0.150,-0.150,0.000,0.000,0.000
1640079024904977152,"2021-12-21,09:30:24",10.1.1.5,0.5016589164733887,-0.150,-0.150,-0.150,0.000,0.000,0.000
1640079025423970816,"2021-12-21,09:30:25",10.1.1.5,514,-0.140,-0.140,-0.140,0.000,0.000,0.000
1640079025464622848,"2021-12-21,09:30:25",10.1.1.5,0.5554361343383789,-0.140,-0.140,-0.140,0.000,0.000,0.000
1640079026078579968,"2021-12-21,09:30:26",10.1.1.5,604,-0.130,-0.130,-0.130,0.000,0.000,0.000
1640079026142402048,"2021-12-21,09:30:26",10.1.1.5,0.6684360504150391,-0.130,-0.130,-0.130,0.000,0.000,0.000
1640079026479963136,"2021-12-21,09:30:26",10.1.1.5,330,-0.140,-0.140,-0.140,0.000,0.000,0.000
1640079026579440128,"2021-12-21,09:30:26",10.1.1.5,0.430588960647583,-0.140,-0.140,-0.140,0.000,0.000,0.000
1640079026978854912,"2021-12-21,09:30:26",10.1.1.5,396,-0.150,-0.150,-0.150,0.000,0.000,0.000
1640079027052797184,"2021-12-21,09:30:27",10.1.1.5,0.47058892250061035,-0.150,-0.150,-0.150,0.000,0.000,0.000
1640079027457757952,"2021-12-21,09:30:27",10.1.1.5,399,-0.160,-0.160,-0.160,0.000,0.000,0.000
1640079027553433856,"2021-12-21,09:30:27",10.1.1.5,0.49522995948791504,-0.160,-0.160,-0.160,0.000,0.000,0.000
1640079028040569088,"2021-12-21,09:30:28",10.1.1.5,469,-0.170,-0.170,-0.170,0.000,0.000,0.000
1640079028111912960,"2021-12-21,09:30:28",10.1.1.5,0.541693925857544,-0.170,-0.170,-0.170,0.000,0.000,0.000
1640079028446327808,"2021-12-21,09:30:28",10.1.1.5,331,-0.180,-0.180,-0.180,0.000,0.000,0.000
1640079028585095936,"2021-12-21,09:30:28",10.1.1.5,0.4701988697052002,-0.180,-0.180,-0.180,0.000,0.000,0.000
1640079029577414144,"2021-12-21,09:30:29",10.1.1.5,988,-0.190,-0.190,-0.190,0.000,0.000,0.000
1640079029689201152,"2021-12-21,09:30:29",10.1.1.5,1.1002709865570068,-0.190,-0.190,-0.190,0.000,0.000,0.000
1640079030096133888,"2021-12-21,09:30:30",10.1.1.5,390,-0.200,-0.200,-0.200,0.000,0.000,0.000
1640079030191268864,"2021-12-21,09:30:30",10.1.1.5,0.4856588840484619,-0.200,-0.200,-0.200,0.000,0.000,0.000
1640079030536696832,"2021-12-21,09:30:30",10.1.1.5,342,-0.210,-0.210,-0.210,0.000,0.000,0.000
1640079030644999936,"2021-12-21,09:30:30",10.1.1.5,0.45126795768737793,-0.210,-0.210,-0.210,0.000,0.000,0.000
1640079032043394048,"2021-12-21,09:30:32",10.1.1.5,1395,-0.220,-0.220,-0.220,0.000,0.000,0.000
1640079032154294016,"2021-12-21,09:30:32",10.1.1.5,1.5066020488739014,-0.220,-0.220,-0.220,0.000,0.000,0.000
1640079032516923904,"2021-12-21,09:30:32",10.1.1.5,361,-0.230,-0.230,-0.230,0.000,0.000,0.000
1640079032580379904,"2021-12-21,09:30:32",10.1.1.5,0.4247889518737793,-0.230,-0.230,-0.230,0.000,0.000,0.000
1640079032900148992,"2021-12-21,09:30:32",10.1.1.5,318,-0.240,-0.240,-0.240,0.000,0.000,0.000
1640079033010713088,"2021-12-21,09:30:33",10.1.1.5,0.42882299423217773,-0.240,-0.240,-0.240,0.000,0.000,0.000
1640079033362516992,"2021-12-21,09:30:33",10.1.1.5,346,-0.250,-0.250,-0.250,0.000,0.000,0.000
1640079033483820032,"2021-12-21,09:30:33",10.1.1.5,0.4682900905609131,-0.250,-0.250,-0.250,0.000,0.000,0.000
1640079033829197056,"2021-12-21,09:30:33",10.1.1.5,343,-0.260,-0.260,-0.260,0.000,0.000,0.000
1640079033860914944,"2021-12-21,09:30:33",10.1.1.5,0.3750770092010498,-0.260,-0.260,-0.260,0.000,0.000,0.000
1640079034240240128,"2021-12-21,09:30:34",10.1.1.5,376,-0.270,-0.270,-0.270,0.000,0.000,0.000
1640079034318540032,"2021-12-21,09:30:34",10.1.1.5,0.45301198959350586,-0.270,-0.270,-0.270,0.000,0.000,0.000
1640079034700932864,"2021-12-21,09:30:34",10.1.1.5,363,-0.280,-0.280,-0.280,0.000,0.000,0.000
1640079034780822016,"2021-12-21,09:30:34",10.1.1.5,0.4438321590423584,-0.280,-0.280,-0.280,0.000,0.000,0.000
1640079035208434176,"2021-12-21,09:30:35",10.1.1.5,422,-0.290,-0.290,-0.290,0.000,0.000,0.000
1640079035281240064,"2021-12-21,09:30:35",10.1.1.5,0.495805025100708,-0.290,-0.290,-0.290,0.000,0.000,0.000
1640079035686548992,"2021-12-21,09:30:35",10.1.1.5,402,-0.300,-0.300,-0.300,0.000,0.000,0.000
1640079035766660864,"2021-12-21,09:30:35",10.1.1.5,0.48258399963378906,-0.300,-0.300,-0.300,0.000,0.000,0.000
1640079036177344000,"2021-12-21,09:30:36",10.1.1.5,406,-0.310,-0.310,-0.310,0.000,0.000,0.000
1640079036251531008,"2021-12-21,09:30:36",10.1.1.5,0.48055505752563477,-0.310,-0.310,-0.310,0.000,0.000,0.000
1640079036604819968,"2021-12-21,09:30:36",10.1.1.5,351,-0.320,-0.320,-0.320,0.000,0.000,0.000
1640079036696450048,"2021-12-21,09:30:36",10.1.1.5,0.44328999519348145,-0.320,-0.320,-0.320,0.000,0.000,0.000
1640079037045793024,"2021-12-21,09:30:37",10.1.1.5,347,-0.330,-0.330,-0.330,0.000,0.000,0.000
1640079037111339008,"2021-12-21,09:30:37",10.1.1.5,0.41344690322875977,-0.330,-0.330,-0.330,0.000,0.000,0.000
1640079037516088064,"2021-12-21,09:30:37",10.1.1.5,400,-0.340,-0.340,-0.340,0.000,0.000,0.000
1640079037588849152,"2021-12-21,09:30:37",10.1.1.5,0.47387194633483887,-0.340,-0.340,-0.340,0.000,0.000,0.000
1640079037982146048,"2021-12-21,09:30:37",10.1.1.5,391,-0.350,-0.350,-0.350,0.000,0.000,0.000
1640079037997196032,"2021-12-21,09:30:37",10.1.1.5,0.4070010185241699,-0.350,-0.350,-0.350,0.000,0.000,0.000
1640079038359226880,"2021-12-21,09:30:38",10.1.1.5,356,-0.360,-0.360,-0.360,0.000,0.000,0.000
1640079038417225984,"2021-12-21,09:30:38",10.1.1.5,0.41484594345092773,-0.360,-0.360,-0.360,0.000,0.000,0.000
1640079038798729984,"2021-12-21,09:30:38",10.1.1.5,380,-0.370,-0.370,-0.370,0.000,0.000,0.000
1640079038878483968,"2021-12-21,09:30:38",10.1.1.5,0.4598960876464844,-0.370,-0.370,-0.370,0.000,0.000,0.000
1640079039369198080,"2021-12-21,09:30:39",10.1.1.5,416,-0.380,-0.380,-0.380,0.000,0.000,0.000
1640079039401123072,"2021-12-21,09:30:39",10.1.1.5,0.5204000473022461,-0.380,-0.380,-0.380,0.000,0.000,0.000
1640079039759330048,"2021-12-21,09:30:39",10.1.1.5,356,-0.390,-0.390,-0.390,0.000,0.000,0.000
1640079039856081920,"2021-12-21,09:30:39",10.1.1.5,0.4533679485321045,-0.390,-0.390,-0.390,0.000,0.000,0.000
1640079040238372096,"2021-12-21,09:30:40",10.1.1.5,380,-0.400,-0.400,-0.400,0.000,0.000,0.000
1640079040313217024,"2021-12-21,09:30:40",10.1.1.5,0.45530080795288086,-0.400,-0.400,-0.400,0.000,0.000,0.000
1640079040712933120,"2021-12-21,09:30:40",10.1.1.5,398,-0.410,-0.410,-0.410,0.000,0.000,0.000
1640079040778265856,"2021-12-21,09:30:40",10.1.1.5,0.4635639190673828,-0.410,-0.410,-0.410,0.000,0.000,0.000
1640079041271420928,"2021-12-21,09:30:41",10.1.1.5,491,-0.420,-0.420,-0.420,0.000,0.000,0.000
1640079041379224064,"2021-12-21,09:30:41",10.1.1.5,0.5992519855499268,-0.420,-0.420,-0.420,0.000,0.000,0.000
1640079041753940224,"2021-12-21,09:30:41",10.1.1.5,373,-0.430,-0.430,-0.430,0.000,0.000,0.000
1640079041795898880,"2021-12-21,09:30:41",10.1.1.5,0.4088428020477295,-0.430,-0.430,-0.430,0.000,0.000,0.000
1640079042303802112,"2021-12-21,09:30:42",10.1.1.5,496,-0.440,-0.440,-0.440,0.000,0.000,0.000
1640079042369947904,"2021-12-21,09:30:42",10.1.1.5,0.5630040168762207,-0.440,-0.440,-0.440,0.000,0.000,0.000
1640079042748461056,"2021-12-21,09:30:42",10.1.1.5,376,-0.450,-0.450,-0.450,0.000,0.000,0.000
1640079042777144832,"2021-12-21,09:30:42",10.1.1.5,0.4056367874145508,-0.450,-0.450,-0.450,0.000,0.000,0.000
1640079043089409024,"2021-12-21,09:30:43",10.1.1.5,309,-0.460,-0.460,-0.460,0.000,0.000,0.000
1640079043133344768,"2021-12-21,09:30:43",10.1.1.5,0.35333991050720215,-0.460,-0.460,-0.460,0.000,0.000,0.000
1640079043674166016,"2021-12-21,09:30:43",10.1.1.5,538,-0.470,-0.470,-0.470,0.000,0.000,0.000
1640079043689831936,"2021-12-21,09:30:43",10.1.1.5,0.5545589923858643,-0.470,-0.470,-0.470,0.000,0.000,0.000
1640079044093250048,"2021-12-21,09:30:44",10.1.1.5,393,-0.480,-0.480,-0.480,0.000,0.000,0.000
1640079044124954880,"2021-12-21,09:30:44",10.1.1.5,0.4256441593170166,-0.480,-0.480,-0.480,0.000,0.000,0.000
1640079044605814016,"2021-12-21,09:30:44",10.1.1.5,471,-0.490,-0.490,-0.490,0.000,0.000,0.000
1640079044672920064,"2021-12-21,09:30:44",10.1.1.5,0.5390458106994629,-0.490,-0.490,-0.490,0.000,0.000,0.000
1640079045063795968,"2021-12-21,09:30:45",10.1.1.5,389,-0.500,-0.500,-0.500,0.000,0.000,0.000
1640079045150931968,"2021-12-21,09:30:45",10.1.1.5,0.47594594955444336,-0.500,-0.500,-0.500,0.000,0.000,0.000
1640079045487478016,"2021-12-21,09:30:45",10.1.1.5,331,-0.510,-0.510,-0.510,0.000,0.000,0.000
1640079045580590080,"2021-12-21,09:30:45",10.1.1.5,0.4248368740081787,-0.510,-0.510,-0.510,0.000,0.000,0.000
1640079045930984960,"2021-12-21,09:30:45",10.1.1.5,342,-0.520,-0.520,-0.520,0.000,0.000,0.000
1640079046030744064,"2021-12-21,09:30:46",10.1.1.5,0.4439060688018799,-0.520,-0.520,-0.520,0.000,0.000,0.000
1640079046454073856,"2021-12-21,09:30:46",10.1.1.5,422,-0.530,-0.530,-0.530,0.000,0.000,0.000
1640079046522425856,"2021-12-21,09:30:46",10.1.1.5,0.49045491218566895,-0.530,-0.530,-0.530,0.000,0.000,0.000
1640079046916621056,"2021-12-21,09:30:46",10.1.1.5,387,-0.540,-0.540,-0.540,0.000,0.000,0.000
1640079047110722048,"2021-12-21,09:30:47",10.1.1.5,0.5814239978790283,-0.540,-0.540,-0.540,0.000,0.000,0.000
1640079047612720128,"2021-12-21,09:30:47",10.1.1.5,491,-0.550,-0.550,-0.550,0.000,0.000,0.000
1640079047664852992,"2021-12-21,09:30:47",10.1.1.5,0.5435571670532227,-0.550,-0.550,-0.550,0.000,0.000,0.000
1640079048101718784,"2021-12-21,09:30:48",10.1.1.5,383,-0.560,-0.560,-0.560,0.000,0.000,0.000
1640079048163415808,"2021-12-21,09:30:48",10.1.1.5,0.44516587257385254,-0.560,-0.560,-0.560,0.000,0.000,0.000
1640079048554946048,"2021-12-21,09:30:48",10.1.1.5,389,-0.570,-0.570,-0.570,0.000,0.000,0.000
1640079048681948928,"2021-12-21,09:30:48",10.1.1.5,0.5165731906890869,-0.570,-0.570,-0.570,0.000,0.000,0.000
1640079049178819840,"2021-12-21,09:30:49",10.1.1.5,493,-0.580,-0.580,-0.580,0.000,0.000,0.000
1640079049191418880,"2021-12-21,09:30:49",10.1.1.5,0.505997896194458,-0.580,-0.580,-0.580,0.000,0.000,0.000
1640079049582250240,"2021-12-21,09:30:49",10.1.1.5,382,-0.590,-0.590,-0.590,0.000,0.000,0.000
1640079049646199040,"2021-12-21,09:30:49",10.1.1.5,0.44692397117614746,-0.590,-0.590,-0.590,0.000,0.000,0.000
1640079050048052992,"2021-12-21,09:30:50",10.1.1.5,398,-0.600,-0.600,-0.600,0.000,0.000,0.000
1640079050211187968,"2021-12-21,09:30:50",10.1.1.5,0.5617480278015137,-0.600,-0.600,-0.600,0.000,0.000,0.000
1640079050592086016,"2021-12-21,09:30:50",10.1.1.5,377,-0.610,-0.610,-0.610,0.000,0.000,0.000
1640079050681995008,"2021-12-21,09:30:50",10.1.1.5,0.46763086318969727,-0.610,-0.610,-0.610,0.000,0.000,0.000
1640079051102674944,"2021-12-21,09:30:51",10.1.1.5,418,-0.620,-0.620,-0.620,0.000,0.000,0.000
1640079051224956928,"2021-12-21,09:30:51",10.1.1.5,0.5411920547485352,-0.620,-0.620,-0.620,0.000,0.000,0.000
1640079051713959936,"2021-12-21,09:30:51",10.1.1.5,487,-0.610,-0.610,-0.610,0.000,0.000,0.000
1640079051823482880,"2021-12-21,09:30:51",10.1.1.5,0.5971338748931885,-0.610,-0.610,-0.610,0.000,0.000,0.000
1640079052280898048,"2021-12-21,09:30:52",10.1.1.5,441,-0.600,-0.600,-0.600,0.000,0.000,0.000
1640079052452577024,"2021-12-21,09:30:52",10.1.1.5,0.6238269805908203,-0.600,-0.600,-0.600,0.000,0.000,0.000
1640079052904126976,"2021-12-21,09:30:52",10.1.1.5,447,-0.590,-0.590,-0.590,0.000,0.000,0.000
1640079052984430080,"2021-12-21,09:30:52",10.1.1.5,0.5278220176696777,-0.590,-0.590,-0.590,0.000,0.000,0.000
1640079053355806208,"2021-12-21,09:30:53",10.1.1.5,369,-0.580,-0.580,-0.580,0.000,0.000,0.000
1640079053544194816,"2021-12-21,09:30:53",10.1.1.5,0.5473048686981201,-0.580,-0.580,-0.580,0.000,0.000,0.000
1640079053977849856,"2021-12-21,09:30:53",10.1.1.5,431,-0.570,-0.570,-0.570,0.000,0.000,0.000
1640079054048270848,"2021-12-21,09:30:54",10.1.1.5,0.5023181438446045,-0.570,-0.570,-0.570,0.000,0.000,0.000
1640079054512728832,"2021-12-21,09:30:54",10.1.1.5,462,-0.560,-0.560,-0.560,0.000,0.000,0.000
1640079054718443008,"2021-12-21,09:30:54",10.1.1.5,0.6679971218109131,-0.560,-0.560,-0.560,0.000,0.000,0.000
1640079055426064128,"2021-12-21,09:30:55",10.1.1.5,701,-0.550,-0.550,-0.550,0.000,0.000,0.000
1640079055563862016,"2021-12-21,09:30:55",10.1.1.5,0.8404629230499268,-0.550,-0.550,-0.550,0.000,0.000,0.000
1640079055971631104,"2021-12-21,09:30:55",10.1.1.5,397,-0.540,-0.540,-0.540,0.000,0.000,0.000
1640079056098054912,"2021-12-21,09:30:56",10.1.1.5,0.5253968238830566,-0.540,-0.540,-0.540,0.000,0.000,0.000
1640079056486946048,"2021-12-21,09:30:56",10.1.1.5,380,-0.530,-0.530,-0.530,0.000,0.000,0.000
1640079056587728896,"2021-12-21,09:30:56",10.1.1.5,0.48818492889404297,-0.530,-0.530,-0.530,0.000,0.000,0.000
1640079068885359104,"2021-12-21,09:31:08",10.1.1.5,11767,-0.520,-0.520,-0.520,0.000,0.000,0.000
1640079068999057152,"2021-12-21,09:31:08",10.1.1.5,12.406132936477661,-0.520,-0.520,-0.520,0.000,0.000,0.000
1640079069500980992,"2021-12-21,09:31:09",10.1.1.5,486,-0.510,-0.510,-0.510,0.000,0.000,0.000
1640079069530214144,"2021-12-21,09:31:09",10.1.1.5,0.5184528827667236,-0.510,-0.510,-0.510,0.000,0.000,0.000
1640079070115963904,"2021-12-21,09:31:10",10.1.1.5,545,-0.500,-0.500,-0.500,0.000,0.000,0.000
1640079070164660992,"2021-12-21,09:31:10",10.1.1.5,0.5942068099975586,-0.500,-0.500,-0.500,0.000,0.000,0.000
1640079070507211008,"2021-12-21,09:31:10",10.1.1.5,339,-0.490,-0.490,-0.490,0.000,0.000,0.000
1640079070579472128,"2021-12-21,09:31:10",10.1.1.5,0.41223692893981934,-0.490,-0.490,-0.490,0.000,0.000,0.000
1640079070946557952,"2021-12-21,09:31:10",10.1.1.5,365,-0.480,-0.480,-0.480,0.000,0.000,0.000
1640079070962012160,"2021-12-21,09:31:10",10.1.1.5,0.38080906867980957,-0.480,-0.480,-0.480,0.000,0.000,0.000
1640079071304130048,"2021-12-21,09:31:11",10.1.1.5,340,-0.470,-0.470,-0.470,0.000,0.000,0.000
1640079071316397056,"2021-12-21,09:31:11",10.1.1.5,0.3529200553894043,-0.470,-0.470,-0.470,0.000,0.000,0.000
1640079071653772032,"2021-12-21,09:31:11",10.1.1.5,335,-0.460,-0.460,-0.460,0.000,0.000,0.000
1640079071745496064,"2021-12-21,09:31:11",10.1.1.5,0.42756104469299316,-0.460,-0.460,-0.460,0.000,0.000,0.000
1640079072063324928,"2021-12-21,09:31:12",10.1.1.5,316,-0.450,-0.450,-0.450,0.000,0.000,0.000
1640079072120579840,"2021-12-21,09:31:12",10.1.1.5,0.3736739158630371,-0.450,-0.450,-0.450,0.000,0.000,0.000
1640079072522353920,"2021-12-21,09:31:12",10.1.1.5,393,-0.440,-0.440,-0.440,0.000,0.000,0.000
1640079072612294912,"2021-12-21,09:31:12",10.1.1.5,0.4833071231842041,-0.440,-0.440,-0.440,0.000,0.000,0.000
1640079072981256960,"2021-12-21,09:31:12",10.1.1.5,366,-0.430,-0.430,-0.430,0.000,0.000,0.000
1640079073026269952,"2021-12-21,09:31:13",10.1.1.5,0.4113168716430664,-0.430,-0.430,-0.430,0.000,0.000,0.000
1640079073383756032,"2021-12-21,09:31:13",10.1.1.5,350,-0.420,-0.420,-0.420,0.000,0.000,0.000
1640079073509576192,"2021-12-21,09:31:13",10.1.1.5,0.4813821315765381,-0.420,-0.420,-0.420,0.000,0.000,0.000
1640079074193470976,"2021-12-21,09:31:14",10.1.1.5,680,-0.410,-0.410,-0.410,0.000,0.000,0.000
1640079074247680000,"2021-12-21,09:31:14",10.1.1.5,0.7338569164276123,-0.410,-0.410,-0.410,0.000,0.000,0.000
1640079074581775872,"2021-12-21,09:31:14",10.1.1.5,332,-0.400,-0.400,-0.400,0.000,0.000,0.000
1640079074670085888,"2021-12-21,09:31:14",10.1.1.5,0.4176039695739746,-0.400,-0.400,-0.400,0.000,0.000,0.000
1640079075026496000,"2021-12-21,09:31:15",10.1.1.5,354,-0.390,-0.390,-0.390,0.000,0.000,0.000
1640079075049563904,"2021-12-21,09:31:15",10.1.1.5,0.37773990631103516,-0.390,-0.390,-0.390,0.000,0.000,0.000
1640079079875969792,"2021-12-21,09:31:15",10.1.1.5,461,-0.380,-0.380,-0.380,0.000,0.000,0.000
1640079080025299200,"2021-12-21,09:31:20",10.1.1.5,4.946966171264648,-0.380,-0.380,-0.380,0.000,0.000,0.000
1640079081422177024,"2021-12-21,09:31:21",10.1.1.5,1395,-0.370,-0.370,-0.370,0.000,0.000,0.000
1640079081461349888,"2021-12-21,09:31:21",10.1.1.5,1.4344580173492432,-0.370,-0.370,-0.370,0.000,0.000,0.000
1640079088537182208,"2021-12-21,09:31:24",10.1.1.5,2696,-0.360,-0.360,-0.360,0.000,0.000,0.000
1640079099487762944,"2021-12-21,09:31:28",10.1.1.5,7.2627198696136475,-0.360,-0.360,-0.360,0.000,0.000,0.000
1640079102277848832,"2021-12-21,09:31:42",10.1.1.5,2764,-0.350,-0.350,-0.350,0.000,0.000,0.000
1640079102364700928,"2021-12-21,09:31:42",10.1.1.5,2.8516809940338135,-0.350,-0.350,-0.350,0.000,0.000,0.000
1640079102726851840,"2021-12-21,09:31:42",10.1.1.5,360,-0.340,-0.340,-0.340,0.000,0.000,0.000
1640079102781840128,"2021-12-21,09:31:42",10.1.1.5,0.41503286361694336,-0.340,-0.340,-0.340,0.000,0.000,0.000
1640079103117960960,"2021-12-21,09:31:43",10.1.1.5,324,-0.330,-0.330,-0.330,0.000,0.000,0.000
1640079103186064896,"2021-12-21,09:31:43",10.1.1.5,0.39296412467956543,-0.330,-0.330,-0.330,0.000,0.000,0.000
1640079103585933824,"2021-12-21,09:31:43",10.1.1.5,388,-0.320,-0.320,-0.320,0.000,0.000,0.000
1640079103768402176,"2021-12-21,09:31:43",10.1.1.5,0.5803930759429932,-0.320,-0.320,-0.320,0.000,0.000,0.000
1640079104205594112,"2021-12-21,09:31:44",10.1.1.5,435,-0.310,-0.310,-0.310,0.000,0.000,0.000
1640079104447771136,"2021-12-21,09:31:44",10.1.1.5,0.6774959564208984,-0.310,-0.310,-0.310,0.000,0.000,0.000
1640079104938543104,"2021-12-21,09:31:44",10.1.1.5,486,-0.300,-0.300,-0.300,0.000,0.000,0.000
1640079105050281984,"2021-12-21,09:31:45",10.1.1.5,0.5987310409545898,-0.300,-0.300,-0.300,0.000,0.000,0.000
1640079105486521088,"2021-12-21,09:31:45",10.1.1.5,434,-0.290,-0.290,-0.290,0.000,0.000,0.000
1640079105588715008,"2021-12-21,09:31:45",10.1.1.5,0.5370659828186035,-0.290,-0.290,-0.290,0.000,0.000,0.000
1640079105984180992,"2021-12-21,09:31:45",10.1.1.5,391,-0.280,-0.280,-0.280,0.000,0.000,0.000
1640079106126053120,"2021-12-21,09:31:46",10.1.1.5,0.5333712100982666,-0.280,-0.280,-0.280,0.000,0.000,0.000
1640079106545156096,"2021-12-21,09:31:46",10.1.1.5,408,-0.270,-0.270,-0.270,0.000,0.000,0.000
1640079106606606848,"2021-12-21,09:31:46",10.1.1.5,0.4727199077606201,-0.270,-0.270,-0.270,0.000,0.000,0.000
1640079107044316928,"2021-12-21,09:31:47",10.1.1.5,434,-0.260,-0.260,-0.260,0.000,0.000,0.000
1640079107072591104,"2021-12-21,09:31:47",10.1.1.5,0.4631021022796631,-0.260,-0.260,-0.260,0.000,0.000,0.000
1640079107531941888,"2021-12-21,09:31:47",10.1.1.5,438,-0.250,-0.250,-0.250,0.000,0.000,0.000
1640079107564608000,"2021-12-21,09:31:47",10.1.1.5,0.4716219902038574,-0.250,-0.250,-0.250,0.000,0.000,0.000
1640079107908332032,"2021-12-21,09:31:47",10.1.1.5,341,-0.240,-0.240,-0.240,0.000,0.000,0.000
1640079107948904960,"2021-12-21,09:31:47",10.1.1.5,0.38201212882995605,-0.240,-0.240,-0.240,0.000,0.000,0.000
1640079111057425920,"2021-12-21,09:31:48",10.1.1.5,397,-0.230,-0.230,-0.230,0.000,0.000,0.000
1640079111137917952,"2021-12-21,09:31:51",10.1.1.5,3.1840670108795166,-0.230,-0.230,-0.230,0.000,0.000,0.000
1640079118345208832,"2021-12-21,09:31:55",10.1.1.5,3989,-0.220,-0.220,-0.220,0.000,0.000,0.000
1640079119777703168,"2021-12-21,09:31:59",10.1.1.5,8.330641984939575,-0.220,-0.220,-0.220,0.000,0.000,0.000
1640079120231548928,"2021-12-21,09:32:00",10.1.1.5,427,-0.210,-0.210,-0.210,0.000,0.000,0.000
1640079120421310976,"2021-12-21,09:32:00",10.1.1.5,0.6140849590301514,-0.210,-0.210,-0.210,0.000,0.000,0.000
1640079120968734976,"2021-12-21,09:32:00",10.1.1.5,537,-0.200,-0.200,-0.200,0.000,0.000,0.000
1640079120996036096,"2021-12-21,09:32:00",10.1.1.5,0.5713047981262207,-0.200,-0.200,-0.200,0.000,0.000,0.000
1640079121379004928,"2021-12-21,09:32:01",10.1.1.5,381,-0.190,-0.190,-0.190,0.000,0.000,0.000
1640079121617278208,"2021-12-21,09:32:01",10.1.1.5,0.6198959350585938,-0.190,-0.190,-0.190,0.000,0.000,0.000
1640079122169751040,"2021-12-21,09:32:02",10.1.1.5,548,-0.180,-0.180,-0.180,0.000,0.000,0.000
1640079122355657984,"2021-12-21,09:32:02",10.1.1.5,0.7125470638275146,-0.180,-0.180,-0.180,0.000,0.000,0.000
1640079122859673088,"2021-12-21,09:32:02",10.1.1.5,495,-0.170,-0.170,-0.170,0.000,0.000,0.000
1640079122989924864,"2021-12-21,09:32:02",10.1.1.5,0.6256029605865479,-0.170,-0.170,-0.170,0.000,0.000,0.000
1640079123415514880,"2021-12-21,09:32:03",10.1.1.5,419,-0.160,-0.160,-0.160,0.000,0.000,0.000
1640079123616692992,"2021-12-21,09:32:03",10.1.1.5,0.6190710067749023,-0.160,-0.160,-0.160,0.000,0.000,0.000
1640079124035545088,"2021-12-21,09:32:04",10.1.1.5,417,-0.150,-0.150,-0.150,0.000,0.000,0.000
1640079124164293888,"2021-12-21,09:32:04",10.1.1.5,0.5463399887084961,-0.150,-0.150,-0.150,0.000,0.000,0.000
1640079124578926080,"2021-12-21,09:32:04",10.1.1.5,408,-0.140,-0.140,-0.140,0.000,0.000,0.000
1640079124668935168,"2021-12-21,09:32:04",10.1.1.5,0.4987189769744873,-0.140,-0.140,-0.140,0.000,0.000,0.000
1640079125121367808,"2021-12-21,09:32:05",10.1.1.5,448,-0.130,-0.130,-0.130,0.000,0.000,0.000
1640079125234460160,"2021-12-21,09:32:05",10.1.1.5,0.5618369579315186,-0.130,-0.130,-0.130,0.000,0.000,0.000
1640079126009748992,"2021-12-21,09:32:05",10.1.1.5,502,-0.140,-0.140,-0.140,0.000,0.000,0.000
1640079126166292992,"2021-12-21,09:32:06",10.1.1.5,0.9228041172027588,-0.140,-0.140,-0.140,0.000,0.000,0.000
1640079126693591040,"2021-12-21,09:32:06",10.1.1.5,501,-0.150,-0.150,-0.150,0.000,0.000,0.000
1640079126843308032,"2021-12-21,09:32:06",10.1.1.5,0.6682898998260498,-0.150,-0.150,-0.150,0.000,0.000,0.000
1640079127291920896,"2021-12-21,09:32:07",10.1.1.5,442,-0.160,-0.160,-0.160,0.000,0.000,0.000
1640079127440977152,"2021-12-21,09:32:07",10.1.1.5,0.5904960632324219,-0.160,-0.160,-0.160,0.000,0.000,0.000
1640079127907952128,"2021-12-21,09:32:07",10.1.1.5,459,-0.170,-0.170,-0.170,0.000,0.000,0.000
1640079128012291072,"2021-12-21,09:32:08",10.1.1.5,0.5635349750518799,-0.170,-0.170,-0.170,0.000,0.000,0.000
1640079128520993024,"2021-12-21,09:32:08",10.1.1.5,497,-0.180,-0.180,-0.180,0.000,0.000,0.000
1640079128626009088,"2021-12-21,09:32:08",10.1.1.5,0.6003081798553467,-0.180,-0.180,-0.180,0.000,0.000,0.000
1640079129127187968,"2021-12-21,09:32:09",10.1.1.5,499,-0.190,-0.190,-0.190,0.000,0.000,0.000
1640079129194403840,"2021-12-21,09:32:09",10.1.1.5,0.5667998790740967,-0.190,-0.190,-0.190,0.000,0.000,0.000
1640079129709484032,"2021-12-21,09:32:09",10.1.1.5,509,-0.200,-0.200,-0.200,0.000,0.000,0.000
1640079129874021120,"2021-12-21,09:32:09",10.1.1.5,0.6737990379333496,-0.200,-0.200,-0.200,0.000,0.000,0.000
1640079130322233856,"2021-12-21,09:32:10",10.1.1.5,404,-0.210,-0.210,-0.210,0.000,0.000,0.000
1640079130421929984,"2021-12-21,09:32:10",10.1.1.5,0.5044310092926025,-0.210,-0.210,-0.210,0.000,0.000,0.000
1640079130965878016,"2021-12-21,09:32:10",10.1.1.5,542,-0.220,-0.220,-0.220,0.000,0.000,0.000
1640079131108516096,"2021-12-21,09:32:11",10.1.1.5,0.6852331161499023,-0.220,-0.220,-0.220,0.000,0.000,0.000
1640079131442881024,"2021-12-21,09:32:11",10.1.1.5,330,-0.230,-0.230,-0.230,0.000,0.000,0.000
1640079131580135168,"2021-12-21,09:32:11",10.1.1.5,0.46825194358825684,-0.230,-0.230,-0.230,0.000,0.000,0.000
1640079138603262976,"2021-12-21,09:32:18",10.1.1.5,7021,-0.240,-0.240,-0.240,0.000,0.000,0.000
1640079138713869056,"2021-12-21,09:32:18",10.1.1.5,7.123009920120239,-0.240,-0.240,-0.240,0.000,0.000,0.000
1640079139151331072,"2021-12-21,09:32:19",10.1.1.5,411,-0.250,-0.250,-0.250,0.000,0.000,0.000
1640079139352611072,"2021-12-21,09:32:19",10.1.1.5,0.6130180358886719,-0.250,-0.250,-0.250,0.000,0.000,0.000
1640079139860243968,"2021-12-21,09:32:19",10.1.1.5,505,-0.260,-0.260,-0.260,0.000,0.000,0.000
1640079140072088064,"2021-12-21,09:32:20",10.1.1.5,0.7173991203308105,-0.260,-0.260,-0.260,0.000,0.000,0.000
1640079140502294016,"2021-12-21,09:32:20",10.1.1.5,424,-0.270,-0.270,-0.270,0.000,0.000,0.000
1640079140568178944,"2021-12-21,09:32:20",10.1.1.5,0.49229907989501953,-0.270,-0.270,-0.270,0.000,0.000,0.000
1640079141184864000,"2021-12-21,09:32:21",10.1.1.5,598,-0.280,-0.280,-0.280,0.000,0.000,0.000
1640079141244638976,"2021-12-21,09:32:21",10.1.1.5,0.6589181423187256,-0.280,-0.280,-0.280,0.000,0.000,0.000
1640079141727441152,"2021-12-21,09:32:21",10.1.1.5,477,-0.290,-0.290,-0.290,0.000,0.000,0.000
1640079141798137856,"2021-12-21,09:32:21",10.1.1.5,0.5481531620025635,-0.290,-0.290,-0.290,0.000,0.000,0.000
1640079142265428992,"2021-12-21,09:32:22",10.1.1.5,460,-0.300,-0.300,-0.300,0.000,0.000,0.000
1640079142448173056,"2021-12-21,09:32:22",10.1.1.5,0.6430449485778809,-0.300,-0.300,-0.300,0.000,0.000,0.000
1640079142870363904,"2021-12-21,09:32:22",10.1.1.5,405,-0.310,-0.310,-0.310,0.000,0.000,0.000
1640079143007354112,"2021-12-21,09:32:23",10.1.1.5,0.5414879322052002,-0.310,-0.310,-0.310,0.000,0.000,0.000
1640079143472294144,"2021-12-21,09:32:23",10.1.1.5,459,-0.320,-0.320,-0.320,0.000,0.000,0.000
1640079143600864000,"2021-12-21,09:32:23",10.1.1.5,0.5877118110656738,-0.320,-0.320,-0.320,0.000,0.000,0.000
1640079144056643072,"2021-12-21,09:32:24",10.1.1.5,452,-0.330,-0.330,-0.330,0.000,0.000,0.000
1640079144366953984,"2021-12-21,09:32:24",10.1.1.5,0.7614538669586182,-0.330,-0.330,-0.330,0.000,0.000,0.000
1640079144773588992,"2021-12-21,09:32:24",10.1.1.5,404,-0.340,-0.340,-0.340,0.000,0.000,0.000
1640079144889224960,"2021-12-21,09:32:24",10.1.1.5,0.5200400352478027,-0.340,-0.340,-0.340,0.000,0.000,0.000
1640079145403964928,"2021-12-21,09:32:25",10.1.1.5,501,-0.350,-0.350,-0.350,0.000,0.000,0.000
1640079145542886912,"2021-12-21,09:32:25",10.1.1.5,0.6405129432678223,-0.350,-0.350,-0.350,0.000,0.000,0.000
1640079146069790976,"2021-12-21,09:32:26",10.1.1.5,525,-0.360,-0.360,-0.360,0.000,0.000,0.000
1640079146329704960,"2021-12-21,09:32:26",10.1.1.5,0.7855010032653809,-0.360,-0.360,-0.360,0.000,0.000,0.000
1640079146795077120,"2021-12-21,09:32:26",10.1.1.5,457,-0.370,-0.370,-0.370,0.000,0.000,0.000
1640079146798985984,"2021-12-21,09:32:26",10.1.1.5,0.46390199661254883,-0.370,-0.370,-0.370,0.000,0.000,0.000
1640079147413399040,"2021-12-21,09:32:27",10.1.1.5,592,-0.380,-0.380,-0.380,0.000,0.000,0.000
1640079147569019136,"2021-12-21,09:32:27",10.1.1.5,0.747596025466919,-0.380,-0.380,-0.380,0.000,0.000,0.000
1640079148113775104,"2021-12-21,09:32:28",10.1.1.5,532,-0.390,-0.390,-0.390,0.000,0.000,0.000
1640079148221152000,"2021-12-21,09:32:28",10.1.1.5,0.6403980255126953,-0.390,-0.390,-0.390,0.000,0.000,0.000
1640079148972958208,"2021-12-21,09:32:28",10.1.1.5,644,-0.400,-0.400,-0.400,0.000,0.000,0.000
1640079149091998208,"2021-12-21,09:32:29",10.1.1.5,0.7638318538665771,-0.400,-0.400,-0.400,0.000,0.000,0.000
1640079149768845056,"2021-12-21,09:32:29",10.1.1.5,665,-0.410,-0.410,-0.410,0.000,0.000,0.000
1640079149843024128,"2021-12-21,09:32:29",10.1.1.5,0.7393298149108887,-0.410,-0.410,-0.410,0.000,0.000,0.000
1640079150301789952,"2021-12-21,09:32:30",10.1.1.5,455,-0.420,-0.420,-0.420,0.000,0.000,0.000
1640079150608567040,"2021-12-21,09:32:30",10.1.1.5,0.7627811431884766,-0.420,-0.420,-0.420,0.000,0.000,0.000
1640079151071604992,"2021-12-21,09:32:31",10.1.1.5,458,-0.430,-0.430,-0.430,0.000,0.000,0.000
1640079151187410944,"2021-12-21,09:32:31",10.1.1.5,0.5745699405670166,-0.430,-0.430,-0.430,0.000,0.000,0.000
1640079151661088000,"2021-12-21,09:32:31",10.1.1.5,462,-0.440,-0.440,-0.440,0.000,0.000,0.000
1640079151866092800,"2021-12-21,09:32:31",10.1.1.5,0.6678252220153809,-0.440,-0.440,-0.440,0.000,0.000,0.000
1640079152318060032,"2021-12-21,09:32:32",10.1.1.5,446,-0.450,-0.450,-0.450,0.000,0.000,0.000
1640079152464163072,"2021-12-21,09:32:32",10.1.1.5,0.5922360420227051,-0.450,-0.450,-0.450,0.000,0.000,0.000
1640079153160509952,"2021-12-21,09:32:33",10.1.1.5,675,-0.460,-0.460,-0.460,0.000,0.000,0.000
1640079153257533952,"2021-12-21,09:32:33",10.1.1.5,0.7728750705718994,-0.460,-0.460,-0.460,0.000,0.000,0.000
1640079153796453888,"2021-12-21,09:32:33",10.1.1.5,532,-0.470,-0.470,-0.470,0.000,0.000,0.000
1640079153973563904,"2021-12-21,09:32:33",10.1.1.5,0.7092680931091309,-0.470,-0.470,-0.470,0.000,0.000,0.000
1640079154386635008,"2021-12-21,09:32:34",10.1.1.5,409,-0.480,-0.480,-0.480,0.000,0.000,0.000
1640079154485494016,"2021-12-21,09:32:34",10.1.1.5,0.508432149887085,-0.480,-0.480,-0.480,0.000,0.000,0.000
1640079154949160960,"2021-12-21,09:32:34",10.1.1.5,461,-0.490,-0.490,-0.490,0.000,0.000,0.000
1640079155057511168,"2021-12-21,09:32:35",10.1.1.5,0.5661118030548096,-0.490,-0.490,-0.490,0.000,0.000,0.000
1640079155508613120,"2021-12-21,09:32:35",10.1.1.5,432,-0.500,-0.500,-0.500,0.000,0.000,0.000
1640079155694746880,"2021-12-21,09:32:35",10.1.1.5,0.6197769641876221,-0.500,-0.500,-0.500,0.000,0.000,0.000
1640079156177996032,"2021-12-21,09:32:36",10.1.1.5,465,-0.510,-0.510,-0.510,0.000,0.000,0.000
1640079156283107072,"2021-12-21,09:32:36",10.1.1.5,0.5705058574676514,-0.510,-0.510,-0.510,0.000,0.000,0.000
1640079156741295104,"2021-12-21,09:32:36",10.1.1.5,456,-0.520,-0.520,-0.520,0.000,0.000,0.000
1640079156823038208,"2021-12-21,09:32:36",10.1.1.5,0.5382351875305176,-0.520,-0.520,-0.520,0.000,0.000,0.000
1640079157429904896,"2021-12-21,09:32:37",10.1.1.5,604,-0.530,-0.530,-0.530,0.000,0.000,0.000
1640079157567092992,"2021-12-21,09:32:37",10.1.1.5,0.742002010345459,-0.530,-0.530,-0.530,0.000,0.000,0.000
1640079158078190080,"2021-12-21,09:32:38",10.1.1.5,508,-0.540,-0.540,-0.540,0.000,0.000,0.000
1640079158210151936,"2021-12-21,09:32:38",10.1.1.5,0.6408920288085938,-0.540,-0.540,-0.540,0.000,0.000,0.000
1640079158740385024,"2021-12-21,09:32:38",10.1.1.5,521,-0.550,-0.550,-0.550,0.000,0.000,0.000
1640079158794915072,"2021-12-21,09:32:38",10.1.1.5,0.5763931274414062,-0.550,-0.550,-0.550,0.000,0.000,0.000
1640079159245707008,"2021-12-21,09:32:39",10.1.1.5,445,-0.560,-0.560,-0.560,0.000,0.000,0.000
1640079159348611072,"2021-12-21,09:32:39",10.1.1.5,0.5498249530792236,-0.560,-0.560,-0.560,0.000,0.000,0.000
1640079159856049152,"2021-12-21,09:32:39",10.1.1.5,505,-0.570,-0.570,-0.570,0.000,0.000,0.000
1640079159944199168,"2021-12-21,09:32:39",10.1.1.5,0.5934100151062012,-0.570,-0.570,-0.570,0.000,0.000,0.000
1640079160598584832,"2021-12-21,09:32:40",10.1.1.5,649,-0.580,-0.580,-0.580,0.000,0.000,0.000
1640079160832802048,"2021-12-21,09:32:40",10.1.1.5,0.8838310241699219,-0.580,-0.580,-0.580,0.000,0.000,0.000
1640079161373277952,"2021-12-21,09:32:41",10.1.1.5,533,-0.590,-0.590,-0.590,0.000,0.000,0.000
1640079161434509056,"2021-12-21,09:32:41",10.1.1.5,0.5972762107849121,-0.590,-0.590,-0.590,0.000,0.000,0.000
1640079161920905216,"2021-12-21,09:32:41",10.1.1.5,474,-0.600,-0.600,-0.600,0.000,0.000,0.000
1640079162009103104,"2021-12-21,09:32:42",10.1.1.5,0.5627961158752441,-0.600,-0.600,-0.600,0.000,0.000,0.000
1640079162586860800,"2021-12-21,09:32:42",10.1.1.5,527,-0.610,-0.610,-0.610,0.000,0.000,0.000
1640079162800188928,"2021-12-21,09:32:42",10.1.1.5,0.7409448623657227,-0.610,-0.610,-0.610,0.000,0.000,0.000
1640079163204015104,"2021-12-21,09:32:43",10.1.1.5,401,-0.620,-0.620,-0.620,0.000,0.000,0.000
1640079163458714112,"2021-12-21,09:32:43",10.1.1.5,0.6567530632019043,-0.620,-0.620,-0.620,0.000,0.000,0.000
1640079164042043904,"2021-12-21,09:32:44",10.1.1.5,565,-0.610,-0.610,-0.610,0.000,0.000,0.000
1640079164075418112,"2021-12-21,09:32:44",10.1.1.5,0.6145989894866943,-0.610,-0.610,-0.610,0.000,0.000,0.000
1640079164654416128,"2021-12-21,09:32:44",10.1.1.5,526,-0.600,-0.600,-0.600,0.000,0.000,0.000
1640079164701554176,"2021-12-21,09:32:44",10.1.1.5,0.5853838920593262,-0.600,-0.600,-0.600,0.000,0.000,0.000
1640079165121808896,"2021-12-21,09:32:45",10.1.1.5,410,-0.590,-0.590,-0.590,0.000,0.000,0.000
1640079165195384064,"2021-12-21,09:32:45",10.1.1.5,0.48416590690612793,-0.590,-0.590,-0.590,0.000,0.000,0.000
1640079165620177152,"2021-12-21,09:32:45",10.1.1.5,423,-0.580,-0.580,-0.580,0.000,0.000,0.000
1640079165757563136,"2021-12-21,09:32:45",10.1.1.5,0.5607049465179443,-0.580,-0.580,-0.580,0.000,0.000,0.000
1640079166138149888,"2021-12-21,09:32:46",10.1.1.5,378,-0.570,-0.570,-0.570,0.000,0.000,0.000
1640079166315744000,"2021-12-21,09:32:46",10.1.1.5,0.5563969612121582,-0.570,-0.570,-0.570,0.000,0.000,0.000
1640079166736839936,"2021-12-21,09:32:46",10.1.1.5,418,-0.560,-0.560,-0.560,0.000,0.000,0.000
1640079167062180096,"2021-12-21,09:32:47",10.1.1.5,0.6830840110778809,-0.560,-0.560,-0.560,0.000,0.000,0.000
1640079167482355968,"2021-12-21,09:32:47",10.1.1.5,418,-0.550,-0.550,-0.550,0.000,0.000,0.000
1640079167521017088,"2021-12-21,09:32:47",10.1.1.5,0.4569737911224365,-0.550,-0.550,-0.550,0.000,0.000,0.000
1640079167893672960,"2021-12-21,09:32:47",10.1.1.5,365,-0.540,-0.540,-0.540,0.000,0.000,0.000
1640079168030200832,"2021-12-21,09:32:48",10.1.1.5,0.5035738945007324,-0.540,-0.540,-0.540,0.000,0.000,0.000
1640079168420736000,"2021-12-21,09:32:48",10.1.1.5,388,-0.530,-0.530,-0.530,0.000,0.000,0.000
1640079168522558976,"2021-12-21,09:32:48",10.1.1.5,0.4901847839355469,-0.530,-0.530,-0.530,0.000,0.000,0.000
1640079168936045824,"2021-12-21,09:32:48",10.1.1.5,398,-0.520,-0.520,-0.520,0.000,0.000,0.000
1640079169013844992,"2021-12-21,09:32:49",10.1.1.5,0.47620201110839844,-0.520,-0.520,-0.520,0.000,0.000,0.000
1640079169484833024,"2021-12-21,09:32:49",10.1.1.5,467,-0.510,-0.510,-0.510,0.000,0.000,0.000
1640079169504461056,"2021-12-21,09:32:49",10.1.1.5,0.48760390281677246,-0.510,-0.510,-0.510,0.000,0.000,0.000
1640079171462040832,"2021-12-21,09:32:51",10.1.1.5,1932,-0.500,-0.500,-0.500,0.000,0.000,0.000
1640079171607209984,"2021-12-21,09:32:51",10.1.1.5,2.0958330631256104,-0.500,-0.500,-0.500,0.000,0.000,0.000
1640079172070276864,"2021-12-21,09:32:52",10.1.1.5,460,-0.490,-0.490,-0.490,0.000,0.000,0.000
1640079172184930048,"2021-12-21,09:32:52",10.1.1.5,0.5748629570007324,-0.490,-0.490,-0.490,0.000,0.000,0.000
1640079172671612928,"2021-12-21,09:32:52",10.1.1.5,483,-0.480,-0.480,-0.480,0.000,0.000,0.000
1640079172769238016,"2021-12-21,09:32:52",10.1.1.5,0.5814251899719238,-0.480,-0.480,-0.480,0.000,0.000,0.000
1640079173265675008,"2021-12-21,09:32:53",10.1.1.5,491,-0.470,-0.470,-0.470,0.000,0.000,0.000
1640079173347651840,"2021-12-21,09:32:53",10.1.1.5,0.5732309818267822,-0.470,-0.470,-0.470,0.000,0.000,0.000
1640079173879503872,"2021-12-21,09:32:53",10.1.1.5,526,-0.460,-0.460,-0.460,0.000,0.000,0.000
1640079174208722176,"2021-12-21,09:32:54",10.1.1.5,0.8554449081420898,-0.460,-0.460,-0.460,0.000,0.000,0.000
1640079174697381888,"2021-12-21,09:32:54",10.1.1.5,486,-0.450,-0.450,-0.450,0.000,0.000,0.000
1640079175051256832,"2021-12-21,09:32:55",10.1.1.5,0.8406569957733154,-0.450,-0.450,-0.450,0.000,0.000,0.000
1640079175617338880,"2021-12-21,09:32:55",10.1.1.5,552,-0.440,-0.440,-0.440,0.000,0.000,0.000
1640079175670573056,"2021-12-21,09:32:55",10.1.1.5,0.6053991317749023,-0.440,-0.440,-0.440,0.000,0.000,0.000
1640079176260562944,"2021-12-21,09:32:56",10.1.1.5,565,-0.430,-0.430,-0.430,0.000,0.000,0.000
1640079176476728832,"2021-12-21,09:32:56",10.1.1.5,0.7816329002380371,-0.430,-0.430,-0.430,0.000,0.000,0.000
1640079177293585920,"2021-12-21,09:32:56",10.1.1.5,387,-0.420,-0.420,-0.420,0.000,0.000,0.000
1640079177504030976,"2021-12-21,09:32:57",10.1.1.5,1.0229032039642334,-0.420,-0.420,-0.420,0.000,0.000,0.000
1640079178274388992,"2021-12-21,09:32:58",10.1.1.5,759,-0.410,-0.410,-0.410,0.000,0.000,0.000
1640079178457603840,"2021-12-21,09:32:58",10.1.1.5,0.9426250457763672,-0.410,-0.410,-0.410,0.000,0.000,0.000
1640079178972315904,"2021-12-21,09:32:58",10.1.1.5,450,-0.400,-0.400,-0.400,0.000,0.000,0.000
1640079179198479872,"2021-12-21,09:32:59",10.1.1.5,0.6765158176422119,-0.400,-0.400,-0.400,0.000,0.000,0.000
1640079179773603840,"2021-12-21,09:32:59",10.1.1.5,566,-0.390,-0.390,-0.390,0.000,0.000,0.000
1640079179933632000,"2021-12-21,09:32:59",10.1.1.5,0.726219892501831,-0.390,-0.390,-0.390,0.000,0.000,0.000
1640079180490286080,"2021-12-21,09:33:00",10.1.1.5,544,-0.380,-0.380,-0.380,0.000,0.000,0.000
1640079180647787008,"2021-12-21,09:33:00",10.1.1.5,0.702023983001709,-0.380,-0.380,-0.380,0.000,0.000,0.000
1640079180654320128,"2021-12-21,09:33:00",10.1.1.5,-4,-0.370,-0.370,-0.370,0.000,0.000,0.000
1640079181354539008,"2021-12-21,09:33:01",10.1.1.5,0.7026710510253906,-0.370,-0.370,-0.370,0.000,0.000,0.000
1640079181918876928,"2021-12-21,09:33:01",10.1.1.5,553,-0.360,-0.360,-0.360,0.000,0.000,0.000
1640079182066496000,"2021-12-21,09:33:02",10.1.1.5,0.6967689990997314,-0.360,-0.360,-0.360,0.000,0.000,0.000
1640079182545170944,"2021-12-21,09:33:02",10.1.1.5,477,-0.350,-0.350,-0.350,0.000,0.000,0.000
1640079182612869120,"2021-12-21,09:33:02",10.1.1.5,0.5447778701782227,-0.350,-0.350,-0.350,0.000,0.000,0.000
1640079183295981824,"2021-12-21,09:33:03",10.1.1.5,676,-0.340,-0.340,-0.340,0.000,0.000,0.000
1640079183407821824,"2021-12-21,09:33:03",10.1.1.5,0.7936558723449707,-0.340,-0.340,-0.340,0.000,0.000,0.000
1640079184097349888,"2021-12-21,09:33:04",10.1.1.5,679,-0.330,-0.330,-0.330,0.000,0.000,0.000
1640079184435898112,"2021-12-21,09:33:04",10.1.1.5,1.0181360244750977,-0.330,-0.330,-0.330,0.000,0.000,0.000
1640079185118379008,"2021-12-21,09:33:05",10.1.1.5,674,-0.320,-0.320,-0.320,0.000,0.000,0.000
1640079185419912192,"2021-12-21,09:33:05",10.1.1.5,0.9776911735534668,-0.320,-0.320,-0.320,0.000,0.000,0.000
1640079186228003072,"2021-12-21,09:33:06",10.1.1.5,800,-0.310,-0.310,-0.310,0.000,0.000,0.000
1640079186465085952,"2021-12-21,09:33:06",10.1.1.5,1.0376369953155518,-0.310,-0.310,-0.310,0.000,0.000,0.000
1640079187108720896,"2021-12-21,09:33:07",10.1.1.5,606,-0.300,-0.300,-0.300,0.000,0.000,0.000
1640079187417680128,"2021-12-21,09:33:07",10.1.1.5,0.917382001876831,-0.300,-0.300,-0.300,0.000,0.000,0.000
1640079188044084992,"2021-12-21,09:33:08",10.1.1.5,602,-0.290,-0.290,-0.290,0.000,0.000,0.000
1640079188574994944,"2021-12-21,09:33:08",10.1.1.5,1.1543631553649902,-0.290,-0.290,-0.290,0.000,0.000,0.000
1640079188659545856,"2021-12-21,09:33:08",10.1.1.5,-1,-0.280,-0.280,-0.280,0.000,0.000,0.000
1640079189400454144,"2021-12-21,09:33:09",10.1.1.5,0.8236219882965088,-0.280,-0.280,-0.280,0.000,0.000,0.000
1640079190161484032,"2021-12-21,09:33:10",10.1.1.5,759,-0.270,-0.270,-0.270,0.000,0.000,0.000
1640079190272082176,"2021-12-21,09:33:10",10.1.1.5,0.8701720237731934,-0.270,-0.270,-0.270,0.000,0.000,0.000
1640079190710444032,"2021-12-21,09:33:10",10.1.1.5,430,-0.260,-0.260,-0.260,0.000,0.000,0.000
1640079191011053056,"2021-12-21,09:33:11",10.1.1.5,0.7309730052947998,-0.260,-0.260,-0.260,0.000,0.000,0.000
1640079191691868160,"2021-12-21,09:33:11",10.1.1.5,669,-0.250,-0.250,-0.250,0.000,0.000,0.000
1640079191847104000,"2021-12-21,09:33:11",10.1.1.5,0.8242490291595459,-0.250,-0.250,-0.250,0.000,0.000,0.000
1640079192306472960,"2021-12-21,09:33:12",10.1.1.5,452,-0.240,-0.240,-0.240,0.000,0.000,0.000
1640079192475777024,"2021-12-21,09:33:12",10.1.1.5,0.6219079494476318,-0.240,-0.240,-0.240,0.000,0.000,0.000
