FedericoMungari/DigitalTwin_service/01_WiredScenario/Output/Output_script/script_rosapi_2_output_robots10_freq0_5.txt
timestamp,date,node,latency,joint_1,joint_2,joint_3,joint_4,joint_5,joint_6
1644362088801292800,2022-02-08-23:14:48,10.1.1.6,26,-0.100,-0.100,-0.100,0.000,0.000,0.000
1644362088898638080,2022-02-08-23:14:48,10.1.1.6,25,-0.090,-0.090,-0.090,0.000,0.000,0.000
1644362089419298816,2022-02-08-23:14:49,10.1.1.6,39,-0.040,-0.040,-0.040,0.000,0.000,0.000
1644362089508883968,2022-02-08-23:14:49,10.1.1.6,27,-0.030,-0.030,-0.030,0.000,0.000,0.000
1644362089618477056,2022-02-08-23:14:49,10.1.1.6,36,-0.020,-0.020,-0.020,0.000,0.000,0.000
1644362089721410048,2022-02-08-23:14:49,10.1.1.6,35,-0.010,-0.010,-0.010,0.000,0.000,0.000
1644362089818276864,2022-02-08-23:14:49,10.1.1.6,34,0.000,0.000,0.000,0.000,0.000,0.000
1644362090338979072,2022-02-08-23:14:50,10.1.1.6,49,0.050,0.050,0.050,0.000,0.000,0.000
1644362090428811008,2022-02-08-23:14:50,10.1.1.6,39,0.060,0.060,0.060,0.000,0.000,0.000
1644362090518016000,2022-02-08-23:14:50,10.1.1.6,28,0.070,0.070,0.070,0.000,0.000,0.000
1644362090628989952,2022-02-08-23:14:50,10.1.1.6,38,0.080,0.080,0.080,0.000,0.000,0.000
1644362090718219008,2022-02-08-23:14:50,10.1.1.6,27,0.090,0.090,0.090,0.000,0.000,0.000
1644362090818166016,2022-02-08-23:14:50,10.1.1.6,26,0.100,0.100,0.100,0.000,0.000,0.000
1644362090918444032,2022-02-08-23:14:50,10.1.1.6,26,0.090,0.090,0.090,0.000,0.000,0.000
1644362091029153024,2022-02-08-23:14:51,10.1.1.6,35,0.080,0.080,0.080,0.000,0.000,0.000
1644362091550731008,2022-02-08-23:14:51,10.1.1.6,29,0.030,0.030,0.030,0.000,0.000,0.000
1644362091648003072,2022-02-08-23:14:51,10.1.1.6,28,0.020,0.020,0.020,0.000,0.000,0.000
1644362091758696960,2022-02-08-23:14:51,10.1.1.6,38,0.010,0.010,0.010,0.000,0.000,0.000
1644362091858349056,2022-02-08-23:14:51,10.1.1.6,36,0.000,0.000,0.000,0.000,0.000,0.000
1644362091948860928,2022-02-08-23:14:51,10.1.1.6,26,-0.010,-0.010,-0.010,0.000,0.000,0.000
1644362092059307008,2022-02-08-23:14:52,10.1.1.6,35,-0.020,-0.020,-0.020,0.000,0.000,0.000
1644362092159415040,2022-02-08-23:14:52,10.1.1.6,35,-0.030,-0.030,-0.030,0.000,0.000,0.000
1644362092958046976,2022-02-08-23:14:52,10.1.1.6,28,-0.090,-0.090,-0.090,0.000,0.000,0.000
1644362093081280000,2022-02-08-23:14:53,10.1.1.6,48,-0.080,-0.080,-0.080,0.000,0.000,0.000
1644362093158114816,2022-02-08-23:14:53,10.1.1.6,28,-0.070,-0.070,-0.070,0.000,0.000,0.000
1644362093258972928,2022-02-08-23:14:53,10.1.1.6,27,-0.060,-0.060,-0.060,0.000,0.000,0.000
1644362093378934016,2022-02-08-23:14:53,10.1.1.6,47,-0.050,-0.050,-0.050,0.000,0.000,0.000
1644362093462498816,2022-02-08-23:14:53,10.1.1.6,26,-0.040,-0.040,-0.040,0.000,0.000,0.000
1644362093558081024,2022-02-08-23:14:53,10.1.1.6,25,-0.030,-0.030,-0.030,0.000,0.000,0.000
1644362093978081024,2022-02-08-23:14:53,10.1.1.6,39,0.010,0.010,0.010,0.000,0.000,0.000
1644362094078205952,2022-02-08-23:14:54,10.1.1.6,39,0.020,0.020,0.020,0.000,0.000,0.000
1644362094178157056,2022-02-08-23:14:54,10.1.1.6,37,0.030,0.030,0.030,0.000,0.000,0.000
1644362094268052992,2022-02-08-23:14:54,10.1.1.6,25,0.040,0.040,0.040,0.000,0.000,0.000
1644362094481053184,2022-02-08-23:14:54,10.1.1.6,29,0.060,0.060,0.060,0.000,0.000,0.000
1644362094578152960,2022-02-08-23:14:54,10.1.1.6,29,0.070,0.070,0.070,0.000,0.000,0.000
1644362094678550016,2022-02-08-23:14:54,10.1.1.6,28,0.080,0.080,0.080,0.000,0.000,0.000
1644362094778470912,2022-02-08-23:14:54,10.1.1.6,28,0.090,0.090,0.090,0.000,0.000,0.000
1644362094878760960,2022-02-08-23:14:54,10.1.1.6,25,0.100,0.100,0.100,0.000,0.000,0.000
1644362095298657024,2022-02-08-23:14:55,10.1.1.6,38,0.060,0.060,0.060,0.000,0.000,0.000
1644362095390544896,2022-02-08-23:14:55,10.1.1.6,26,0.050,0.050,0.050,0.000,0.000,0.000
1644362095498790144,2022-02-08-23:14:55,10.1.1.6,35,0.040,0.040,0.040,0.000,0.000,0.000
1644362095598351872,2022-02-08-23:14:55,10.1.1.6,35,0.030,0.030,0.030,0.000,0.000,0.000
1644362096021389056,2022-02-08-23:14:56,10.1.1.6,49,-0.010,-0.010,-0.010,0.000,0.000,0.000
1644362096098889984,2022-02-08-23:14:56,10.1.1.6,28,-0.020,-0.020,-0.020,0.000,0.000,0.000
1644362096222163968,2022-02-08-23:14:56,10.1.1.6,48,-0.030,-0.030,-0.030,0.000,0.000,0.000
1644362096298971904,2022-02-08-23:14:56,10.1.1.6,26,-0.040,-0.040,-0.040,0.000,0.000,0.000
1644362096418898176,2022-02-08-23:14:56,10.1.1.6,46,-0.050,-0.050,-0.050,0.000,0.000,0.000
1644362096719082240,2022-02-08-23:14:56,10.1.1.6,38,-0.080,-0.080,-0.080,0.000,0.000,0.000
1644362096879357952,2022-02-08-23:14:56,10.1.1.6,38,-0.090,-0.090,-0.090,0.000,0.000,0.000
1644362097059060992,2022-02-08-23:14:57,10.1.1.6,10,-0.090,-0.090,-0.090,0.000,0.000,0.000
1644362097179896064,2022-02-08-23:14:57,10.1.1.6,29,-0.080,-0.080,-0.080,0.000,0.000,0.000
1644362097278407168,2022-02-08-23:14:57,10.1.1.6,28,-0.070,-0.070,-0.070,0.000,0.000,0.000
1644362097380590848,2022-02-08-23:14:57,10.1.1.6,28,-0.060,-0.060,-0.060,0.000,0.000,0.000
1644362097478512896,2022-02-08-23:14:57,10.1.1.6,27,-0.050,-0.050,-0.050,0.000,0.000,0.000
1644362097589148928,2022-02-08-23:14:57,10.1.1.6,37,-0.040,-0.040,-0.040,0.000,0.000,0.000
1644362097679105024,2022-02-08-23:14:57,10.1.1.6,25,-0.030,-0.030,-0.030,0.000,0.000,0.000
1644362097898951168,2022-02-08-23:14:57,10.1.1.6,28,-0.010,-0.010,-0.010,0.000,0.000,0.000
1644362098018891008,2022-02-08-23:14:58,10.1.1.6,47,0.000,0.000,0.000,0.000,0.000,0.000
1644362098097677824,2022-02-08-23:14:58,10.1.1.6,27,0.010,0.010,0.010,0.000,0.000,0.000
1644362098199459072,2022-02-08-23:14:58,10.1.1.6,26,0.020,0.020,0.020,0.000,0.000,0.000
1644362098318841856,2022-02-08-23:14:58,10.1.1.6,45,0.030,0.030,0.030,0.000,0.000,0.000
1644362099018604032,2022-02-08-23:14:59,10.1.1.6,39,0.100,0.100,0.100,0.000,0.000,0.000
1644362099120930048,2022-02-08-23:14:59,10.1.1.6,38,0.090,0.090,0.090,0.000,0.000,0.000
1644362099220568832,2022-02-08-23:14:59,10.1.1.6,38,0.080,0.080,0.080,0.000,0.000,0.000
1644362099308777984,2022-02-08-23:14:59,10.1.1.6,27,0.070,0.070,0.070,0.000,0.000,0.000
1644362099420332800,2022-02-08-23:14:59,10.1.1.6,35,0.060,0.060,0.060,0.000,0.000,0.000
1644362099918107904,2022-02-08-23:14:59,10.1.1.6,28,0.010,0.010,0.010,0.000,0.000,0.000
1644362100239449088,2022-02-08-23:15:00,10.1.1.6,36,-0.020,-0.020,-0.020,0.000,0.000,0.000
1644362100338212864,2022-02-08-23:15:00,10.1.1.6,35,-0.030,-0.030,-0.030,0.000,0.000,0.000
1644362100428997888,2022-02-08-23:15:00,10.1.1.6,25,-0.040,-0.040,-0.040,0.000,0.000,0.000
1644362100658749184,2022-02-08-23:15:00,10.1.1.6,49,-0.060,-0.060,-0.060,0.000,0.000,0.000
1644362100738248960,2022-02-08-23:15:00,10.1.1.6,29,-0.070,-0.070,-0.070,0.000,0.000,0.000
1644362100876257792,2022-02-08-23:15:00,10.1.1.6,50,-0.080,-0.080,-0.080,0.000,0.000,0.000
1644362101219358976,2022-02-08-23:15:01,10.1.1.6,-28,-0.080,-0.080,-0.080,0.000,0.000,0.000
1644362101654465024,2022-02-08-23:15:01,10.1.1.6,27,-0.040,-0.040,-0.040,0.000,0.000,0.000
1644362101758867968,2022-02-08-23:15:01,10.1.1.6,35,-0.030,-0.030,-0.030,0.000,0.000,0.000
1644362102400857856,2022-02-08-23:15:02,10.1.1.6,28,0.030,0.030,0.030,0.000,0.000,0.000
1644362102609647872,2022-02-08-23:15:02,10.1.1.6,37,0.050,0.050,0.050,0.000,0.000,0.000
1644362102711998976,2022-02-08-23:15:02,10.1.1.6,37,0.060,0.060,0.060,0.000,0.000,0.000
1644362102798456064,2022-02-08-23:15:02,10.1.1.6,26,0.070,0.070,0.070,0.000,0.000,0.000
1644362102899280128,2022-02-08-23:15:02,10.1.1.6,25,0.080,0.080,0.080,0.000,0.000,0.000
1644362103009132032,2022-02-08-23:15:03,10.1.1.6,35,0.090,0.090,0.090,0.000,0.000,0.000
1644362103099771136,2022-02-08-23:15:03,10.1.1.6,24,0.100,0.100,0.100,0.000,0.000,0.000
1644362103527024896,2022-02-08-23:15:03,10.1.1.6,37,0.060,0.060,0.060,0.000,0.000,0.000
1644362104418534912,2022-02-08-23:15:04,10.1.1.6,29,-0.030,-0.030,-0.030,0.000,0.000,0.000
1644362104517606144,2022-02-08-23:15:04,10.1.1.6,28,-0.040,-0.040,-0.040,0.000,0.000,0.000
1644362104618733824,2022-02-08-23:15:04,10.1.1.6,28,-0.050,-0.050,-0.050,0.000,0.000,0.000
1644362104727650048,2022-02-08-23:15:04,10.1.1.6,37,-0.060,-0.060,-0.060,0.000,0.000,0.000
1644362104818777088,2022-02-08-23:15:04,10.1.1.6,26,-0.070,-0.070,-0.070,0.000,0.000,0.000
1644362104918477056,2022-02-08-23:15:04,10.1.1.6,26,-0.080,-0.080,-0.080,0.000,0.000,0.000
1644362105018647040,2022-02-08-23:15:05,10.1.1.6,26,-0.090,-0.090,-0.090,0.000,0.000,0.000
1644362105128505088,2022-02-08-23:15:05,10.1.1.6,35,-0.100,-0.100,-0.100,0.000,0.000,0.000
1644362105237796096,2022-02-08-23:15:05,10.1.1.6,45,-0.090,-0.090,-0.090,0.000,0.000,0.000
1644362107358201088,2022-02-08-23:15:07,10.1.1.6,39,0.080,0.080,0.080,0.000,0.000,0.000
1644362107448473088,2022-02-08-23:15:07,10.1.1.6,27,0.070,0.070,0.070,0.000,0.000,0.000
1644362107548506880,2022-02-08-23:15:07,10.1.1.6,25,0.060,0.060,0.060,0.000,0.000,0.000
1644362107857851904,2022-02-08-23:15:07,10.1.1.6,26,0.030,0.030,0.030,0.000,0.000,0.000
1644362107958161152,2022-02-08-23:15:07,10.1.1.6,25,0.020,0.020,0.020,0.000,0.000,0.000
1644362108079122944,2022-02-08-23:15:08,10.1.1.6,45,0.010,0.010,0.010,0.000,0.000,0.000
1644362108863580928,2022-02-08-23:15:08,10.1.1.6,23,-0.070,-0.070,-0.070,0.000,0.000,0.000
1644362108969733888,2022-02-08-23:15:08,10.1.1.6,29,-0.080,-0.080,-0.080,0.000,0.000,0.000
1644362109068250880,2022-02-08-23:15:09,10.1.1.6,28,-0.090,-0.090,-0.090,0.000,0.000,0.000
1644362109169253120,2022-02-08-23:15:09,10.1.1.6,28,-0.100,-0.100,-0.100,0.000,0.000,0.000
1644362109269391104,2022-02-08-23:15:09,10.1.1.6,27,-0.090,-0.090,-0.090,0.000,0.000,0.000
1644362109368133120,2022-02-08-23:15:09,10.1.1.6,27,-0.080,-0.080,-0.080,0.000,0.000,0.000
1644362109477931008,2022-02-08-23:15:09,10.1.1.6,36,-0.070,-0.070,-0.070,0.000,0.000,0.000
1644362109578740992,2022-02-08-23:15:09,10.1.1.6,36,-0.060,-0.060,-0.060,0.000,0.000,0.000
1644362109668557056,2022-02-08-23:15:09,10.1.1.6,25,-0.050,-0.050,-0.050,0.000,0.000,0.000
1644362109778091008,2022-02-08-23:15:09,10.1.1.6,35,-0.040,-0.040,-0.040,0.000,0.000,0.000
1644362109877872896,2022-02-08-23:15:09,10.1.1.6,34,-0.030,-0.030,-0.030,0.000,0.000,0.000
1644362110179140096,2022-02-08-23:15:10,10.1.1.6,28,-0.000,-0.000,-0.000,0.000,0.000,0.000
1644362110279041024,2022-02-08-23:15:10,10.1.1.6,28,0.010,0.010,0.010,0.000,0.000,0.000
1644362110377944832,2022-02-08-23:15:10,10.1.1.6,26,0.020,0.020,0.020,0.000,0.000,0.000
1644362110498467072,2022-02-08-23:15:10,10.1.1.6,45,0.030,0.030,0.030,0.000,0.000,0.000
1644362110597872128,2022-02-08-23:15:10,10.1.1.6,45,0.040,0.040,0.040,0.000,0.000,0.000
1644362110698434048,2022-02-08-23:15:10,10.1.1.6,45,0.050,0.050,0.050,0.000,0.000,0.000
1644362110798088960,2022-02-08-23:15:10,10.1.1.6,44,0.060,0.060,0.060,0.000,0.000,0.000
1644362111578363904,2022-02-08-23:15:11,10.1.1.6,19,0.060,0.060,0.060,0.000,0.000,0.000
1644362111689040896,2022-02-08-23:15:11,10.1.1.6,29,0.050,0.050,0.050,0.000,0.000,0.000
1644362111811211008,2022-02-08-23:15:11,10.1.1.6,38,0.040,0.040,0.040,0.000,0.000,0.000
1644362111911667968,2022-02-08-23:15:11,10.1.1.6,38,0.030,0.030,0.030,0.000,0.000,0.000
1644362111990744064,2022-02-08-23:15:11,10.1.1.6,27,0.020,0.020,0.020,0.000,0.000,0.000
1644362112099028224,2022-02-08-23:15:12,10.1.1.6,36,0.010,0.010,0.010,0.000,0.000,0.000
1644362112198928128,2022-02-08-23:15:12,10.1.1.6,35,0.000,0.000,0.000,0.000,0.000,0.000
1644362112598220032,2022-02-08-23:15:12,10.1.1.6,29,-0.040,-0.040,-0.040,0.000,0.000,0.000
1644362112698853888,2022-02-08-23:15:12,10.1.1.6,28,-0.050,-0.050,-0.050,0.000,0.000,0.000
1644362112799355904,2022-02-08-23:15:12,10.1.1.6,28,-0.060,-0.060,-0.060,0.000,0.000,0.000
1644362112899533056,2022-02-08-23:15:12,10.1.1.6,27,-0.070,-0.070,-0.070,0.000,0.000,0.000
1644362112998226944,2022-02-08-23:15:12,10.1.1.6,26,-0.080,-0.080,-0.080,0.000,0.000,0.000
1644362113109246976,2022-02-08-23:15:13,10.1.1.6,36,-0.090,-0.090,-0.090,0.000,0.000,0.000
1644362113199106048,2022-02-08-23:15:13,10.1.1.6,25,-0.100,-0.100,-0.100,0.000,0.000,0.000
1644362113418808064,2022-02-08-23:15:13,10.1.1.6,39,-0.080,-0.080,-0.080,0.000,0.000,0.000
1644362113518179840,2022-02-08-23:15:13,10.1.1.6,38,-0.070,-0.070,-0.070,0.000,0.000,0.000
1644362113608617984,2022-02-08-23:15:13,10.1.1.6,28,-0.060,-0.060,-0.060,0.000,0.000,0.000
1644362113711180800,2022-02-08-23:15:13,10.1.1.6,26,-0.050,-0.050,-0.050,0.000,0.000,0.000
1644362114210514176,2022-02-08-23:15:14,10.1.1.6,20,0.000,0.000,0.000,0.000,0.000,0.000
1644362114338706944,2022-02-08-23:15:14,10.1.1.6,49,0.010,0.010,0.010,0.000,0.000,0.000
1644362114438518016,2022-02-08-23:15:14,10.1.1.6,49,0.020,0.020,0.020,0.000,0.000,0.000
1644362114528225792,2022-02-08-23:15:14,10.1.1.6,38,0.030,0.030,0.030,0.000,0.000,0.000
1644362114619271936,2022-02-08-23:15:14,10.1.1.6,28,0.040,0.040,0.040,0.000,0.000,0.000
1644362114721102848,2022-02-08-23:15:14,10.1.1.6,27,0.050,0.050,0.050,0.000,0.000,0.000
1644362114820365056,2022-02-08-23:15:14,10.1.1.6,26,0.060,0.060,0.060,0.000,0.000,0.000
1644362114939388160,2022-02-08-23:15:14,10.1.1.6,45,0.070,0.070,0.070,0.000,0.000,0.000
1644362115030211840,2022-02-08-23:15:15,10.1.1.6,35,0.080,0.080,0.080,0.000,0.000,0.000
1644362115411663104,2022-02-08-23:15:15,10.1.1.6,12,0.080,0.080,0.080,0.000,0.000,0.000
1644362115538539008,2022-02-08-23:15:15,10.1.1.6,39,0.070,0.070,0.070,0.000,0.000,0.000
1644362115630160128,2022-02-08-23:15:15,10.1.1.6,29,0.060,0.060,0.060,0.000,0.000,0.000
1644362115747960064,2022-02-08-23:15:15,10.1.1.6,38,0.050,0.050,0.050,0.000,0.000,0.000
1644362115838458112,2022-02-08-23:15:15,10.1.1.6,38,0.040,0.040,0.040,0.000,0.000,0.000
1644362115938889984,2022-02-08-23:15:15,10.1.1.6,37,0.030,0.030,0.030,0.000,0.000,0.000
1644362116031632896,2022-02-08-23:15:16,10.1.1.6,26,0.020,0.020,0.020,0.000,0.000,0.000
1644362116138598912,2022-02-08-23:15:16,10.1.1.6,35,0.010,0.010,0.010,0.000,0.000,0.000
1644362116248328960,2022-02-08-23:15:16,10.1.1.6,35,0.000,0.000,0.000,0.000,0.000,0.000
1644362116658082048,2022-02-08-23:15:16,10.1.1.6,28,-0.040,-0.040,-0.040,0.000,0.000,0.000
1644362116760386816,2022-02-08-23:15:16,10.1.1.6,28,-0.050,-0.050,-0.050,0.000,0.000,0.000
1644362116858889216,2022-02-08-23:15:16,10.1.1.6,27,-0.060,-0.060,-0.060,0.000,0.000,0.000
1644362116958193152,2022-02-08-23:15:16,10.1.1.6,26,-0.070,-0.070,-0.070,0.000,0.000,0.000
1644362117058331136,2022-02-08-23:15:17,10.1.1.6,26,-0.080,-0.080,-0.080,0.000,0.000,0.000
1644362117158652928,2022-02-08-23:15:17,10.1.1.6,25,-0.090,-0.090,-0.090,0.000,0.000,0.000
1644362117360222976,2022-02-08-23:15:17,10.1.1.6,23,-0.090,-0.090,-0.090,0.000,0.000,0.000
1644362117979286784,2022-02-08-23:15:17,10.1.1.6,39,-0.030,-0.030,-0.030,0.000,0.000,0.000
1644362118083524864,2022-02-08-23:15:18,10.1.1.6,29,-0.020,-0.020,-0.020,0.000,0.000,0.000
1644362118168442112,2022-02-08-23:15:18,10.1.1.6,28,-0.010,-0.010,-0.010,0.000,0.000,0.000
1644362118278592000,2022-02-08-23:15:18,10.1.1.6,38,0.000,0.000,0.000,0.000,0.000,0.000
1644362118368369152,2022-02-08-23:15:18,10.1.1.6,27,0.010,0.010,0.010,0.000,0.000,0.000
1644362118468761088,2022-02-08-23:15:18,10.1.1.6,27,0.020,0.020,0.020,0.000,0.000,0.000
1644362118578439936,2022-02-08-23:15:18,10.1.1.6,35,0.030,0.030,0.030,0.000,0.000,0.000
1644362118677858048,2022-02-08-23:15:18,10.1.1.6,34,0.040,0.040,0.040,0.000,0.000,0.000
1644362119188808960,2022-02-08-23:15:19,10.1.1.6,40,0.090,0.090,0.090,0.000,0.000,0.000
1644362119298392064,2022-02-08-23:15:19,10.1.1.6,49,0.100,0.100,0.100,0.000,0.000,0.000
1644362119378572032,2022-02-08-23:15:19,10.1.1.6,28,0.090,0.090,0.090,0.000,0.000,0.000
1644362119479304960,2022-02-08-23:15:19,10.1.1.6,28,0.080,0.080,0.080,0.000,0.000,0.000
1644362119578733056,2022-02-08-23:15:19,10.1.1.6,27,0.070,0.070,0.070,0.000,0.000,0.000
1644362119678377984,2022-02-08-23:15:19,10.1.1.6,27,0.060,0.060,0.060,0.000,0.000,0.000
1644362119779448064,2022-02-08-23:15:19,10.1.1.6,26,0.050,0.050,0.050,0.000,0.000,0.000
1644362119878658048,2022-02-08-23:15:19,10.1.1.6,25,0.040,0.040,0.040,0.000,0.000,0.000
1644362120598076160,2022-02-08-23:15:20,10.1.1.6,39,-0.030,-0.030,-0.030,0.000,0.000,0.000
1644362120688893952,2022-02-08-23:15:20,10.1.1.6,28,-0.040,-0.040,-0.040,0.000,0.000,0.000
1644362120798072064,2022-02-08-23:15:20,10.1.1.6,37,-0.050,-0.050,-0.050,0.000,0.000,0.000
1644362120889050112,2022-02-08-23:15:20,10.1.1.6,27,-0.060,-0.060,-0.060,0.000,0.000,0.000
1644362120988781824,2022-02-08-23:15:20,10.1.1.6,26,-0.070,-0.070,-0.070,0.000,0.000,0.000
1644362121097773056,2022-02-08-23:15:21,10.1.1.6,35,-0.080,-0.080,-0.080,0.000,0.000,0.000
1644362121479262208,2022-02-08-23:15:21,10.1.1.6,12,-0.080,-0.080,-0.080,0.000,0.000,0.000
1644362122030659840,2022-02-08-23:15:22,10.1.1.6,39,-0.030,-0.030,-0.030,0.000,0.000,0.000
1644362122118864896,2022-02-08-23:15:22,10.1.1.6,27,-0.020,-0.020,-0.020,0.000,0.000,0.000
1644362122219314176,2022-02-08-23:15:22,10.1.1.6,26,-0.010,-0.010,-0.010,0.000,0.000,0.000
1644362122318552064,2022-02-08-23:15:22,10.1.1.6,25,0.000,0.000,0.000,0.000,0.000,0.000
1644362122438674944,2022-02-08-23:15:22,10.1.1.6,45,0.010,0.010,0.010,0.000,0.000,0.000
1644362122519105024,2022-02-08-23:15:22,10.1.1.6,25,0.020,0.020,0.020,0.000,0.000,0.000
1644362123128740096,2022-02-08-23:15:23,10.1.1.6,29,0.080,0.080,0.080,0.000,0.000,0.000
1644362123228329984,2022-02-08-23:15:23,10.1.1.6,29,0.090,0.090,0.090,0.000,0.000,0.000
1644362123340101120,2022-02-08-23:15:23,10.1.1.6,38,0.100,0.100,0.100,0.000,0.000,0.000
1644362123442640896,2022-02-08-23:15:23,10.1.1.6,37,0.090,0.090,0.090,0.000,0.000,0.000
1644362123528808192,2022-02-08-23:15:23,10.1.1.6,27,0.080,0.080,0.080,0.000,0.000,0.000
1644362123629167104,2022-02-08-23:15:23,10.1.1.6,26,0.070,0.070,0.070,0.000,0.000,0.000
1644362123737903104,2022-02-08-23:15:23,10.1.1.6,35,0.060,0.060,0.060,0.000,0.000,0.000
1644362123938461184,2022-02-08-23:15:23,10.1.1.6,34,0.040,0.040,0.040,0.000,0.000,0.000
1644362124539025152,2022-02-08-23:15:24,10.1.1.6,28,-0.020,-0.020,-0.020,0.000,0.000,0.000
1644362124649178112,2022-02-08-23:15:24,10.1.1.6,25,-0.030,-0.030,-0.030,0.000,0.000,0.000
1644362124879002112,2022-02-08-23:15:24,10.1.1.6,48,-0.050,-0.050,-0.050,0.000,0.000,0.000
1644362124970571008,2022-02-08-23:15:24,10.1.1.6,37,-0.060,-0.060,-0.060,0.000,0.000,0.000
1644362125080628992,2022-02-08-23:15:25,10.1.1.6,46,-0.070,-0.070,-0.070,0.000,0.000,0.000
1644362125649150976,2022-02-08-23:15:25,10.1.1.6,10,-0.070,-0.070,-0.070,0.000,0.000,0.000
1644362125770083840,2022-02-08-23:15:25,10.1.1.6,30,-0.060,-0.060,-0.060,0.000,0.000,0.000
1644362125870624000,2022-02-08-23:15:25,10.1.1.6,29,-0.050,-0.050,-0.050,0.000,0.000,0.000
1644362125978339072,2022-02-08-23:15:25,10.1.1.6,38,-0.040,-0.040,-0.040,0.000,0.000,0.000
1644362126088567040,2022-02-08-23:15:26,10.1.1.6,28,-0.030,-0.030,-0.030,0.000,0.000,0.000
1644362126581944832,2022-02-08-23:15:26,10.1.1.6,28,0.020,0.020,0.020,0.000,0.000,0.000
1644362126681731072,2022-02-08-23:15:26,10.1.1.6,28,0.030,0.030,0.030,0.000,0.000,0.000
1644362126780431872,2022-02-08-23:15:26,10.1.1.6,27,0.040,0.040,0.040,0.000,0.000,0.000
1644362126880259072,2022-02-08-23:15:26,10.1.1.6,26,0.050,0.050,0.050,0.000,0.000,0.000
1644362126990763008,2022-02-08-23:15:26,10.1.1.6,35,0.060,0.060,0.060,0.000,0.000,0.000
1644362127081705984,2022-02-08-23:15:27,10.1.1.6,24,0.070,0.070,0.070,0.000,0.000,0.000
1644362127679066880,2022-02-08-23:15:27,10.1.1.6,19,0.070,0.070,0.070,0.000,0.000,0.000
1644362127790178048,2022-02-08-23:15:27,10.1.1.6,29,0.060,0.060,0.060,0.000,0.000,0.000
1644362127899149056,2022-02-08-23:15:27,10.1.1.6,38,0.050,0.050,0.050,0.000,0.000,0.000
1644362128016494080,2022-02-08-23:15:28,10.1.1.6,27,0.040,0.040,0.040,0.000,0.000,0.000
1644362128099635968,2022-02-08-23:15:28,10.1.1.6,37,0.030,0.030,0.030,0.000,0.000,0.000
1644362128190097152,2022-02-08-23:15:28,10.1.1.6,25,0.020,0.020,0.020,0.000,0.000,0.000
1644362128289206016,2022-02-08-23:15:28,10.1.1.6,24,0.010,0.010,0.010,0.000,0.000,0.000
1644362128699228928,2022-02-08-23:15:28,10.1.1.6,29,-0.030,-0.030,-0.030,0.000,0.000,0.000
1644362129198857984,2022-02-08-23:15:29,10.1.1.6,20,-0.080,-0.080,-0.080,0.000,0.000,0.000
1644362129308219904,2022-02-08-23:15:29,10.1.1.6,29,-0.090,-0.090,-0.090,0.000,0.000,0.000
1644362129408779008,2022-02-08-23:15:29,10.1.1.6,29,-0.100,-0.100,-0.100,0.000,0.000,0.000
1644362129509524992,2022-02-08-23:15:29,10.1.1.6,29,-0.090,-0.090,-0.090,0.000,0.000,0.000
1644362129608540928,2022-02-08-23:15:29,10.1.1.6,28,-0.080,-0.080,-0.080,0.000,0.000,0.000
1644362129708684032,2022-02-08-23:15:29,10.1.1.6,27,-0.070,-0.070,-0.070,0.000,0.000,0.000
1644362129808093184,2022-02-08-23:15:29,10.1.1.6,27,-0.060,-0.060,-0.060,0.000,0.000,0.000
1644362129909270016,2022-02-08-23:15:29,10.1.1.6,27,-0.050,-0.050,-0.050,0.000,0.000,0.000
1644362130008683008,2022-02-08-23:15:30,10.1.1.6,26,-0.040,-0.040,-0.040,0.000,0.000,0.000
1644362130118334976,2022-02-08-23:15:30,10.1.1.6,35,-0.030,-0.030,-0.030,0.000,0.000,0.000
1644362131137882880,2022-02-08-23:15:31,10.1.1.6,49,0.070,0.070,0.070,0.000,0.000,0.000
1644362131238266112,2022-02-08-23:15:31,10.1.1.6,48,0.080,0.080,0.080,0.000,0.000,0.000
1644362131341995008,2022-02-08-23:15:31,10.1.1.6,38,0.090,0.090,0.090,0.000,0.000,0.000
1644362131509447936,2022-02-08-23:15:31,10.1.1.6,3,0.090,0.090,0.090,0.000,0.000,0.000
1644362131938211840,2022-02-08-23:15:31,10.1.1.6,27,0.050,0.050,0.050,0.000,0.000,0.000
1644362132057594112,2022-02-08-23:15:32,10.1.1.6,46,0.040,0.040,0.040,0.000,0.000,0.000
1644362132138462976,2022-02-08-23:15:32,10.1.1.6,26,0.030,0.030,0.030,0.000,0.000,0.000
1644362132238118912,2022-02-08-23:15:32,10.1.1.6,25,0.020,0.020,0.020,0.000,0.000,0.000
1644362132338548992,2022-02-08-23:15:32,10.1.1.6,25,0.010,0.010,0.010,0.000,0.000,0.000
1644362132658145792,2022-02-08-23:15:32,10.1.1.6,43,-0.020,-0.020,-0.020,0.000,0.000,0.000
1644362133258732032,2022-02-08-23:15:33,10.1.1.6,39,-0.080,-0.080,-0.080,0.000,0.000,0.000
1644362133358385152,2022-02-08-23:15:33,10.1.1.6,39,-0.090,-0.090,-0.090,0.000,0.000,0.000
1644362133448295168,2022-02-08-23:15:33,10.1.1.6,28,-0.100,-0.100,-0.100,0.000,0.000,0.000
1644362133549937920,2022-02-08-23:15:33,10.1.1.6,28,-0.090,-0.090,-0.090,0.000,0.000,0.000
1644362133658132992,2022-02-08-23:15:33,10.1.1.6,37,-0.080,-0.080,-0.080,0.000,0.000,0.000
1644362134157604096,2022-02-08-23:15:34,10.1.1.6,28,-0.030,-0.030,-0.030,0.000,0.000,0.000
1644362134278737920,2022-02-08-23:15:34,10.1.1.6,47,-0.020,-0.020,-0.020,0.000,0.000,0.000
1644362134368349952,2022-02-08-23:15:34,10.1.1.6,36,-0.010,-0.010,-0.010,0.000,0.000,0.000
1644362134478722048,2022-02-08-23:15:34,10.1.1.6,45,0.000,0.000,0.000,0.000,0.000,0.000
1644362134778127872,2022-02-08-23:15:34,10.1.1.6,25,0.030,0.030,0.030,0.000,0.000,0.000
1644362135098020096,2022-02-08-23:15:35,10.1.1.6,37,0.060,0.060,0.060,0.000,0.000,0.000
1644362135188659968,2022-02-08-23:15:35,10.1.1.6,26,0.070,0.070,0.070,0.000,0.000,0.000
1644362135288711168,2022-02-08-23:15:35,10.1.1.6,25,0.080,0.080,0.080,0.000,0.000,0.000
1644362135671992064,2022-02-08-23:15:35,10.1.1.6,2,0.080,0.080,0.080,0.000,0.000,0.000
1644362135898263808,2022-02-08-23:15:35,10.1.1.6,30,0.060,0.060,0.060,0.000,0.000,0.000
1644362136018213120,2022-02-08-23:15:36,10.1.1.6,49,0.050,0.050,0.050,0.000,0.000,0.000
1644362136098798080,2022-02-08-23:15:36,10.1.1.6,29,0.040,0.040,0.040,0.000,0.000,0.000
1644362136218693120,2022-02-08-23:15:36,10.1.1.6,48,0.030,0.030,0.030,0.000,0.000,0.000
1644362136298057984,2022-02-08-23:15:36,10.1.1.6,26,0.020,0.020,0.020,0.000,0.000,0.000
1644362136419619072,2022-02-08-23:15:36,10.1.1.6,45,0.010,0.010,0.010,0.000,0.000,0.000
1644362136817873920,2022-02-08-23:15:36,10.1.1.6,35,-0.030,-0.030,-0.030,0.000,0.000,0.000
1644362136919687936,2022-02-08-23:15:36,10.1.1.6,35,-0.040,-0.040,-0.040,0.000,0.000,0.000
1644362137374304000,2022-02-08-23:15:37,10.1.1.6,48,-0.080,-0.080,-0.080,0.000,0.000,0.000
1644362137437715968,2022-02-08-23:15:37,10.1.1.6,48,-0.090,-0.090,-0.090,0.000,0.000,0.000
1644362137539457024,2022-02-08-23:15:37,10.1.1.6,47,-0.100,-0.100,-0.100,0.000,0.000,0.000
1644362137618294016,2022-02-08-23:15:37,10.1.1.6,27,-0.090,-0.090,-0.090,0.000,0.000,0.000
1644362137718713088,2022-02-08-23:15:37,10.1.1.6,26,-0.080,-0.080,-0.080,0.000,0.000,0.000
1644362138238889984,2022-02-08-23:15:38,10.1.1.6,38,-0.030,-0.030,-0.030,0.000,0.000,0.000
1644362138337657856,2022-02-08-23:15:38,10.1.1.6,36,-0.020,-0.020,-0.020,0.000,0.000,0.000
1644362138838907904,2022-02-08-23:15:38,10.1.1.6,29,0.030,0.030,0.030,0.000,0.000,0.000
1644362138939908864,2022-02-08-23:15:38,10.1.1.6,28,0.040,0.040,0.040,0.000,0.000,0.000
1644362139060379136,2022-02-08-23:15:39,10.1.1.6,47,0.050,0.050,0.050,0.000,0.000,0.000
1644362139139213056,2022-02-08-23:15:39,10.1.1.6,25,0.060,0.060,0.060,0.000,0.000,0.000
1644362139261478912,2022-02-08-23:15:39,10.1.1.6,45,0.070,0.070,0.070,0.000,0.000,0.000
1644362139340009984,2022-02-08-23:15:39,10.1.1.6,24,0.080,0.080,0.080,0.000,0.000,0.000
1644362139728244992,2022-02-08-23:15:39,10.1.1.6,9,0.080,0.080,0.080,0.000,0.000,0.000
1644362139849689856,2022-02-08-23:15:39,10.1.1.6,29,0.070,0.070,0.070,0.000,0.000,0.000
1644362139958018048,2022-02-08-23:15:39,10.1.1.6,37,0.060,0.060,0.060,0.000,0.000,0.000
1644362140058036992,2022-02-08-23:15:40,10.1.1.6,36,0.050,0.050,0.050,0.000,0.000,0.000
1644362140158855936,2022-02-08-23:15:40,10.1.1.6,35,0.040,0.040,0.040,0.000,0.000,0.000
1644362140248552960,2022-02-08-23:15:40,10.1.1.6,24,0.030,0.030,0.030,0.000,0.000,0.000
1644362140467700992,2022-02-08-23:15:40,10.1.1.6,38,0.010,0.010,0.010,0.000,0.000,0.000
1644362140558590976,2022-02-08-23:15:40,10.1.1.6,27,0.000,0.000,0.000,0.000,0.000,0.000
1644362140778281984,2022-02-08-23:15:40,10.1.1.6,44,-0.020,-0.020,-0.020,0.000,0.000,0.000
1644362141280508928,2022-02-08-23:15:41,10.1.1.6,39,-0.070,-0.070,-0.070,0.000,0.000,0.000
1644362141368000000,2022-02-08-23:15:41,10.1.1.6,29,-0.080,-0.080,-0.080,0.000,0.000,0.000
1644362141468318976,2022-02-08-23:15:41,10.1.1.6,28,-0.090,-0.090,-0.090,0.000,0.000,0.000
1644362141577462784,2022-02-08-23:15:41,10.1.1.6,38,-0.100,-0.100,-0.100,0.000,0.000,0.000
1644362141678131968,2022-02-08-23:15:41,10.1.1.6,37,-0.090,-0.090,-0.090,0.000,0.000,0.000
1644362141880003840,2022-02-08-23:15:41,10.1.1.6,36,-0.070,-0.070,-0.070,0.000,0.000,0.000
1644362142897851904,2022-02-08-23:15:42,10.1.1.6,49,0.030,0.030,0.030,0.000,0.000,0.000
1644362142978004992,2022-02-08-23:15:42,10.1.1.6,28,0.040,0.040,0.040,0.000,0.000,0.000
1644362143080288000,2022-02-08-23:15:43,10.1.1.6,28,0.050,0.050,0.050,0.000,0.000,0.000
1644362143198102016,2022-02-08-23:15:43,10.1.1.6,47,0.060,0.060,0.060,0.000,0.000,0.000
1644362143297321984,2022-02-08-23:15:43,10.1.1.6,47,0.070,0.070,0.070,0.000,0.000,0.000
1644362143399030016,2022-02-08-23:15:43,10.1.1.6,46,0.080,0.080,0.080,0.000,0.000,0.000
1644362143498642944,2022-02-08-23:15:43,10.1.1.6,46,0.090,0.090,0.090,0.000,0.000,0.000
1644362144097782016,2022-02-08-23:15:44,10.1.1.6,26,0.050,0.050,0.050,0.000,0.000,0.000
1644362144197694976,2022-02-08-23:15:44,10.1.1.6,26,0.040,0.040,0.040,0.000,0.000,0.000
1644362144408025088,2022-02-08-23:15:44,10.1.1.6,34,0.020,0.020,0.020,0.000,0.000,0.000
1644362145109431040,2022-02-08-23:15:45,10.1.1.6,28,-0.050,-0.050,-0.050,0.000,0.000,0.000
1644362145208683008,2022-02-08-23:15:45,10.1.1.6,28,-0.060,-0.060,-0.060,0.000,0.000,0.000
1644362145318156032,2022-02-08-23:15:45,10.1.1.6,38,-0.070,-0.070,-0.070,0.000,0.000,0.000
1644362145410717952,2022-02-08-23:15:45,10.1.1.6,27,-0.080,-0.080,-0.080,0.000,0.000,0.000
1644362145509722880,2022-02-08-23:15:45,10.1.1.6,27,-0.090,-0.090,-0.090,0.000,0.000,0.000
1644362145610119168,2022-02-08-23:15:45,10.1.1.6,26,-0.100,-0.100,-0.100,0.000,0.000,0.000
1644362145708670976,2022-02-08-23:15:45,10.1.1.6,25,-0.090,-0.090,-0.090,0.000,0.000,0.000
1644362145808568064,2022-02-08-23:15:45,10.1.1.6,25,-0.080,-0.080,-0.080,0.000,0.000,0.000
1644362146531232000,2022-02-08-23:15:46,10.1.1.6,39,-0.010,-0.010,-0.010,0.000,0.000,0.000
1644362146628407040,2022-02-08-23:15:46,10.1.1.6,39,0.000,0.000,0.000,0.000,0.000,0.000
1644362146733513984,2022-02-08-23:15:46,10.1.1.6,38,0.010,0.010,0.010,0.000,0.000,0.000
1644362146839389952,2022-02-08-23:15:46,10.1.1.6,38,0.020,0.020,0.020,0.000,0.000,0.000
1644362146938929152,2022-02-08-23:15:46,10.1.1.6,37,0.030,0.030,0.030,0.000,0.000,0.000
1644362147028929024,2022-02-08-23:15:47,10.1.1.6,26,0.040,0.040,0.040,0.000,0.000,0.000
1644362147128655872,2022-02-08-23:15:47,10.1.1.6,25,0.050,0.050,0.050,0.000,0.000,0.000
1644362147371006976,2022-02-08-23:15:47,10.1.1.6,25,0.070,0.070,0.070,0.000,0.000,0.000
1644362147481376000,2022-02-08-23:15:47,10.1.1.6,34,0.080,0.080,0.080,0.000,0.000,0.000
1644362147896101120,2022-02-08-23:15:47,10.1.1.6,-4,0.080,0.080,0.080,0.000,0.000,0.000
1644362148231555840,2022-02-08-23:15:48,10.1.1.6,28,0.050,0.050,0.050,0.000,0.000,0.000
1644362148328433920,2022-02-08-23:15:48,10.1.1.6,26,0.040,0.040,0.040,0.000,0.000,0.000
1644362148437391104,2022-02-08-23:15:48,10.1.1.6,26,0.030,0.030,0.030,0.000,0.000,0.000
1644362148538284032,2022-02-08-23:15:48,10.1.1.6,35,0.020,0.020,0.020,0.000,0.000,0.000
1644362148830582016,2022-02-08-23:15:48,10.1.1.6,19,-0.010,-0.010,-0.010,0.000,0.000,0.000
1644362148950295808,2022-02-08-23:15:48,10.1.1.6,38,-0.020,-0.020,-0.020,0.000,0.000,0.000
1644362149059822080,2022-02-08-23:15:49,10.1.1.6,48,-0.030,-0.030,-0.030,0.000,0.000,0.000
1644362149138600960,2022-02-08-23:15:49,10.1.1.6,27,-0.040,-0.040,-0.040,0.000,0.000,0.000
1644362149248740864,2022-02-08-23:15:49,10.1.1.6,38,-0.050,-0.050,-0.050,0.000,0.000,0.000
1644362149338641920,2022-02-08-23:15:49,10.1.1.6,26,-0.060,-0.060,-0.060,0.000,0.000,0.000
1644362149459156992,2022-02-08-23:15:49,10.1.1.6,46,-0.070,-0.070,-0.070,0.000,0.000,0.000
1644362149860996864,2022-02-08-23:15:49,10.1.1.6,29,-0.090,-0.090,-0.090,0.000,0.000,0.000
1644362149949314048,2022-02-08-23:15:49,10.1.1.6,29,-0.080,-0.080,-0.080,0.000,0.000,0.000
1644362150048544768,2022-02-08-23:15:50,10.1.1.6,29,-0.070,-0.070,-0.070,0.000,0.000,0.000
1644362150150062080,2022-02-08-23:15:50,10.1.1.6,28,-0.060,-0.060,-0.060,0.000,0.000,0.000
1644362150249636864,2022-02-08-23:15:50,10.1.1.6,27,-0.050,-0.050,-0.050,0.000,0.000,0.000
1644362150358081024,2022-02-08-23:15:50,10.1.1.6,36,-0.040,-0.040,-0.040,0.000,0.000,0.000
1644362150459644928,2022-02-08-23:15:50,10.1.1.6,35,-0.030,-0.030,-0.030,0.000,0.000,0.000
1644362150550956032,2022-02-08-23:15:50,10.1.1.6,25,-0.020,-0.020,-0.020,0.000,0.000,0.000
1644362150650029056,2022-02-08-23:15:50,10.1.1.6,25,-0.010,-0.010,-0.010,0.000,0.000,0.000
1644362151279983104,2022-02-08-23:15:51,10.1.1.6,47,0.050,0.050,0.050,0.000,0.000,0.000
1644362151378710016,2022-02-08-23:15:51,10.1.1.6,46,0.060,0.060,0.060,0.000,0.000,0.000
1644362151479508992,2022-02-08-23:15:51,10.1.1.6,45,0.070,0.070,0.070,0.000,0.000,0.000
1644362151588160000,2022-02-08-23:15:51,10.1.1.6,25,0.080,0.080,0.080,0.000,0.000,0.000
1644362151698075904,2022-02-08-23:15:51,10.1.1.6,34,0.090,0.090,0.090,0.000,0.000,0.000
1644362151868913920,2022-02-08-23:15:51,10.1.1.6,3,0.090,0.090,0.090,0.000,0.000,0.000
1644362152408076032,2022-02-08-23:15:52,10.1.1.6,37,0.040,0.040,0.040,0.000,0.000,0.000
1644362152508397056,2022-02-08-23:15:52,10.1.1.6,37,0.030,0.030,0.030,0.000,0.000,0.000
1644362152607863040,2022-02-08-23:15:52,10.1.1.6,36,0.020,0.020,0.020,0.000,0.000,0.000
1644362152717938944,2022-02-08-23:15:52,10.1.1.6,46,0.010,0.010,0.010,0.000,0.000,0.000
1644362152818274048,2022-02-08-23:15:52,10.1.1.6,45,0.000,0.000,0.000,0.000,0.000,0.000
1644362152908154112,2022-02-08-23:15:52,10.1.1.6,35,-0.010,-0.010,-0.010,0.000,0.000,0.000
1644362153007846144,2022-02-08-23:15:53,10.1.1.6,35,-0.020,-0.020,-0.020,0.000,0.000,0.000
1644362153418797056,2022-02-08-23:15:53,10.1.1.6,39,-0.060,-0.060,-0.060,0.000,0.000,0.000
1644362153507725056,2022-02-08-23:15:53,10.1.1.6,29,-0.070,-0.070,-0.070,0.000,0.000,0.000
1644362153615067904,2022-02-08-23:15:53,10.1.1.6,25,-0.080,-0.080,-0.080,0.000,0.000,0.000
1644362154017990144,2022-02-08-23:15:54,10.1.1.6,32,-0.080,-0.080,-0.080,0.000,0.000,0.000
1644362154318257920,2022-02-08-23:15:54,10.1.1.6,26,-0.050,-0.050,-0.050,0.000,0.000,0.000
1644362154437843200,2022-02-08-23:15:54,10.1.1.6,45,-0.040,-0.040,-0.040,0.000,0.000,0.000
1644362154517554944,2022-02-08-23:15:54,10.1.1.6,25,-0.030,-0.030,-0.030,0.000,0.000,0.000
1644362154618128128,2022-02-08-23:15:54,10.1.1.6,24,-0.020,-0.020,-0.020,0.000,0.000,0.000
1644362155838038016,2022-02-08-23:15:55,10.1.1.6,29,0.100,0.100,0.100,0.000,0.000,0.000
1644362156138940928,2022-02-08-23:15:56,10.1.1.6,28,0.070,0.070,0.070,0.000,0.000,0.000
1644362156237603072,2022-02-08-23:15:56,10.1.1.6,28,0.060,0.060,0.060,0.000,0.000,0.000
1644362156337888000,2022-02-08-23:15:56,10.1.1.6,27,0.050,0.050,0.050,0.000,0.000,0.000
1644362156460418816,2022-02-08-23:15:56,10.1.1.6,47,0.040,0.040,0.040,0.000,0.000,0.000
1644362156548353024,2022-02-08-23:15:56,10.1.1.6,37,0.030,0.030,0.030,0.000,0.000,0.000
1644362156657933824,2022-02-08-23:15:56,10.1.1.6,46,0.020,0.020,0.020,0.000,0.000,0.000
1644362156748137984,2022-02-08-23:15:56,10.1.1.6,35,0.010,0.010,0.010,0.000,0.000,0.000
1644362157550513920,2022-02-08-23:15:57,10.1.1.6,30,-0.070,-0.070,-0.070,0.000,0.000,0.000
1644362157658252032,2022-02-08-23:15:57,10.1.1.6,39,-0.080,-0.080,-0.080,0.000,0.000,0.000
1644362157757835008,2022-02-08-23:15:57,10.1.1.6,39,-0.090,-0.090,-0.090,0.000,0.000,0.000
1644362157848036096,2022-02-08-23:15:57,10.1.1.6,29,-0.100,-0.100,-0.100,0.000,0.000,0.000
1644362157958513920,2022-02-08-23:15:57,10.1.1.6,37,-0.090,-0.090,-0.090,0.000,0.000,0.000
1644362158057651968,2022-02-08-23:15:58,10.1.1.6,37,-0.080,-0.080,-0.080,0.000,0.000,0.000
1644362158149147904,2022-02-08-23:15:58,10.1.1.6,27,-0.070,-0.070,-0.070,0.000,0.000,0.000
1644362158258291968,2022-02-08-23:15:58,10.1.1.6,36,-0.060,-0.060,-0.060,0.000,0.000,0.000
1644362158358330112,2022-02-08-23:15:58,10.1.1.6,36,-0.050,-0.050,-0.050,0.000,0.000,0.000
1644362158448206848,2022-02-08-23:15:58,10.1.1.6,25,-0.040,-0.040,-0.040,0.000,0.000,0.000
1644362159368630784,2022-02-08-23:15:59,10.1.1.6,39,0.050,0.050,0.050,0.000,0.000,0.000
1644362159457906944,2022-02-08-23:15:59,10.1.1.6,29,0.060,0.060,0.060,0.000,0.000,0.000
1644362159578021120,2022-02-08-23:15:59,10.1.1.6,48,0.070,0.070,0.070,0.000,0.000,0.000
1644362159678334976,2022-02-08-23:15:59,10.1.1.6,48,0.080,0.080,0.080,0.000,0.000,0.000
1644362159758107904,2022-02-08-23:15:59,10.1.1.6,27,0.090,0.090,0.090,0.000,0.000,0.000
1644362159858051072,2022-02-08-23:15:59,10.1.1.6,27,0.100,0.100,0.100,0.000,0.000,0.000
1644362159958503936,2022-02-08-23:15:59,10.1.1.6,27,0.090,0.090,0.090,0.000,0.000,0.000
1644362160058034944,2022-02-08-23:16:00,10.1.1.6,26,0.080,0.080,0.080,0.000,0.000,0.000
1644362160158062848,2022-02-08-23:16:00,10.1.1.6,25,0.070,0.070,0.070,0.000,0.000,0.000
1644362160258338048,2022-02-08-23:16:00,10.1.1.6,25,0.060,0.060,0.060,0.000,0.000,0.000
1644362161069665024,2022-02-08-23:16:01,10.1.1.6,29,-0.020,-0.020,-0.020,0.000,0.000,0.000
1644362161178249984,2022-02-08-23:16:01,10.1.1.6,38,-0.030,-0.030,-0.030,0.000,0.000,0.000
1644362161279755008,2022-02-08-23:16:01,10.1.1.6,38,-0.040,-0.040,-0.040,0.000,0.000,0.000
1644362161378711040,2022-02-08-23:16:01,10.1.1.6,37,-0.050,-0.050,-0.050,0.000,0.000,0.000
1644362161480092928,2022-02-08-23:16:01,10.1.1.6,37,-0.060,-0.060,-0.060,0.000,0.000,0.000
1644362161579613952,2022-02-08-23:16:01,10.1.1.6,36,-0.070,-0.070,-0.070,0.000,0.000,0.000
1644362161678958848,2022-02-08-23:16:01,10.1.1.6,36,-0.080,-0.080,-0.080,0.000,0.000,0.000
1644362161778949888,2022-02-08-23:16:01,10.1.1.6,35,-0.090,-0.090,-0.090,0.000,0.000,0.000
1644362161880275968,2022-02-08-23:16:01,10.1.1.6,35,-0.100,-0.100,-0.100,0.000,0.000,0.000
1644362161970451968,2022-02-08-23:16:01,10.1.1.6,25,-0.090,-0.090,-0.090,0.000,0.000,0.000
1644362162071475968,2022-02-08-23:16:02,10.1.1.6,25,-0.080,-0.080,-0.080,0.000,0.000,0.000
1644362162389625088,2022-02-08-23:16:02,10.1.1.6,29,-0.050,-0.050,-0.050,0.000,0.000,0.000
1644362162499003904,2022-02-08-23:16:02,10.1.1.6,38,-0.040,-0.040,-0.040,0.000,0.000,0.000
1644362162599649024,2022-02-08-23:16:02,10.1.1.6,37,-0.030,-0.030,-0.030,0.000,0.000,0.000
1644362162700156928,2022-02-08-23:16:02,10.1.1.6,37,-0.020,-0.020,-0.020,0.000,0.000,0.000
1644362162799854080,2022-02-08-23:16:02,10.1.1.6,36,-0.010,-0.010,-0.010,0.000,0.000,0.000
1644362162898368000,2022-02-08-23:16:02,10.1.1.6,35,-0.000,-0.000,-0.000,0.000,0.000,0.000
1644362163800972032,2022-02-08-23:16:03,10.1.1.6,29,0.090,0.090,0.090,0.000,0.000,0.000
1644362163899301120,2022-02-08-23:16:03,10.1.1.6,28,0.100,0.100,0.100,0.000,0.000,0.000
1644362164020396032,2022-02-08-23:16:04,10.1.1.6,48,0.090,0.090,0.090,0.000,0.000,0.000
1644362164121447936,2022-02-08-23:16:04,10.1.1.6,47,0.080,0.080,0.080,0.000,0.000,0.000
1644362164211146240,2022-02-08-23:16:04,10.1.1.6,36,0.070,0.070,0.070,0.000,0.000,0.000
1644362164311490048,2022-02-08-23:16:04,10.1.1.6,35,0.060,0.060,0.060,0.000,0.000,0.000
1644362164419795968,2022-02-08-23:16:04,10.1.1.6,45,0.050,0.050,0.050,0.000,0.000,0.000
1644362165310305024,2022-02-08-23:16:05,10.1.1.6,29,-0.040,-0.040,-0.040,0.000,0.000,0.000
1644362165421495040,2022-02-08-23:16:05,10.1.1.6,38,-0.050,-0.050,-0.050,0.000,0.000,0.000
1644362165510704128,2022-02-08-23:16:05,10.1.1.6,27,-0.060,-0.060,-0.060,0.000,0.000,0.000
1644362165622020864,2022-02-08-23:16:05,10.1.1.6,36,-0.070,-0.070,-0.070,0.000,0.000,0.000
1644362165731628800,2022-02-08-23:16:05,10.1.1.6,38,-0.080,-0.080,-0.080,0.000,0.000,0.000
1644362165840147968,2022-02-08-23:16:05,10.1.1.6,45,-0.090,-0.090,-0.090,0.000,0.000,0.000
1644362166020059136,2022-02-08-23:16:06,10.1.1.6,24,-0.090,-0.090,-0.090,0.000,0.000,0.000
1644362166529233920,2022-02-08-23:16:06,10.1.1.6,29,-0.040,-0.040,-0.040,0.000,0.000,0.000
1644362166630690048,2022-02-08-23:16:06,10.1.1.6,28,-0.030,-0.030,-0.030,0.000,0.000,0.000
1644362166731478016,2022-02-08-23:16:06,10.1.1.6,28,-0.020,-0.020,-0.020,0.000,0.000,0.000
1644362166831831040,2022-02-08-23:16:06,10.1.1.6,27,-0.010,-0.010,-0.010,0.000,0.000,0.000
1644362166941831168,2022-02-08-23:16:06,10.1.1.6,36,0.000,0.000,0.000,0.000,0.000,0.000
1644362167031517952,2022-02-08-23:16:07,10.1.1.6,25,0.010,0.010,0.010,0.000,0.000,0.000
1644362167540615168,2022-02-08-23:16:07,10.1.1.6,25,0.060,0.060,0.060,0.000,0.000,0.000
1644362168079636224,2022-02-08-23:16:08,10.1.1.6,39,0.090,0.090,0.090,0.000,0.000,0.000
1644362168180165120,2022-02-08-23:16:08,10.1.1.6,38,0.080,0.080,0.080,0.000,0.000,0.000
1644362168280233984,2022-02-08-23:16:08,10.1.1.6,38,0.070,0.070,0.070,0.000,0.000,0.000
1644362168369230080,2022-02-08-23:16:08,10.1.1.6,27,0.060,0.060,0.060,0.000,0.000,0.000
1644362168469296896,2022-02-08-23:16:08,10.1.1.6,27,0.050,0.050,0.050,0.000,0.000,0.000
1644362168578699008,2022-02-08-23:16:08,10.1.1.6,36,0.040,0.040,0.040,0.000,0.000,0.000
1644362168668039168,2022-02-08-23:16:08,10.1.1.6,25,0.030,0.030,0.030,0.000,0.000,0.000
1644362169679025920,2022-02-08-23:16:09,10.1.1.6,29,-0.070,-0.070,-0.070,0.000,0.000,0.000
1644362169788477952,2022-02-08-23:16:09,10.1.1.6,39,-0.080,-0.080,-0.080,0.000,0.000,0.000
1644362169878118144,2022-02-08-23:16:09,10.1.1.6,28,-0.090,-0.090,-0.090,0.000,0.000,0.000
1644362169988316928,2022-02-08-23:16:09,10.1.1.6,38,-0.100,-0.100,-0.100,0.000,0.000,0.000
1644362170098752000,2022-02-08-23:16:10,10.1.1.6,47,-0.090,-0.090,-0.090,0.000,0.000,0.000
1644362170178420992,2022-02-08-23:16:10,10.1.1.6,27,-0.080,-0.080,-0.080,0.000,0.000,0.000
1644362170278508032,2022-02-08-23:16:10,10.1.1.6,26,-0.070,-0.070,-0.070,0.000,0.000,0.000
1644362170378501888,2022-02-08-23:16:10,10.1.1.6,25,-0.060,-0.060,-0.060,0.000,0.000,0.000
1644362170488327936,2022-02-08-23:16:10,10.1.1.6,35,-0.050,-0.050,-0.050,0.000,0.000,0.000
1644362170578537984,2022-02-08-23:16:10,10.1.1.6,25,-0.040,-0.040,-0.040,0.000,0.000,0.000
1644362170678377984,2022-02-08-23:16:10,10.1.1.6,24,-0.030,-0.030,-0.030,0.000,0.000,0.000
1644362171698102016,2022-02-08-23:16:11,10.1.1.6,39,0.070,0.070,0.070,0.000,0.000,0.000
1644362171788585984,2022-02-08-23:16:11,10.1.1.6,29,0.080,0.080,0.080,0.000,0.000,0.000
1644362171888006912,2022-02-08-23:16:11,10.1.1.6,29,0.090,0.090,0.090,0.000,0.000,0.000
1644362171989025024,2022-02-08-23:16:11,10.1.1.6,28,0.100,0.100,0.100,0.000,0.000,0.000
1644362172089416960,2022-02-08-23:16:12,10.1.1.6,28,0.090,0.090,0.090,0.000,0.000,0.000
1644362172188884992,2022-02-08-23:16:12,10.1.1.6,27,0.080,0.080,0.080,0.000,0.000,0.000
1644362172297623040,2022-02-08-23:16:12,10.1.1.6,37,0.070,0.070,0.070,0.000,0.000,0.000
1644362172387902976,2022-02-08-23:16:12,10.1.1.6,26,0.060,0.060,0.060,0.000,0.000,0.000
1644362172487868160,2022-02-08-23:16:12,10.1.1.6,26,0.050,0.050,0.050,0.000,0.000,0.000
1644362172588733952,2022-02-08-23:16:12,10.1.1.6,25,0.040,0.040,0.040,0.000,0.000,0.000
1644362174097922048,2022-02-08-23:16:14,10.1.1.6,20,-0.090,-0.090,-0.090,0.000,0.000,0.000
1644362174219064832,2022-02-08-23:16:14,10.1.1.6,40,-0.080,-0.080,-0.080,0.000,0.000,0.000
1644362174310272000,2022-02-08-23:16:14,10.1.1.6,29,-0.070,-0.070,-0.070,0.000,0.000,0.000
1644362174409121024,2022-02-08-23:16:14,10.1.1.6,28,-0.060,-0.060,-0.060,0.000,0.000,0.000
1644362174509083136,2022-02-08-23:16:14,10.1.1.6,28,-0.050,-0.050,-0.050,0.000,0.000,0.000
1644362174618546944,2022-02-08-23:16:14,10.1.1.6,37,-0.040,-0.040,-0.040,0.000,0.000,0.000
1644362174708858880,2022-02-08-23:16:14,10.1.1.6,27,-0.030,-0.030,-0.030,0.000,0.000,0.000
1644362174818391040,2022-02-08-23:16:14,10.1.1.6,36,-0.020,-0.020,-0.020,0.000,0.000,0.000
1644362174918577920,2022-02-08-23:16:14,10.1.1.6,35,-0.010,-0.010,-0.010,0.000,0.000,0.000
1644362175539148032,2022-02-08-23:16:15,10.1.1.6,48,0.050,0.050,0.050,0.000,0.000,0.000
1644362175618702848,2022-02-08-23:16:15,10.1.1.6,26,0.060,0.060,0.060,0.000,0.000,0.000
1644362175737651200,2022-02-08-23:16:15,10.1.1.6,46,0.070,0.070,0.070,0.000,0.000,0.000
1644362175828877056,2022-02-08-23:16:15,10.1.1.6,36,0.080,0.080,0.080,0.000,0.000,0.000
1644362175917995008,2022-02-08-23:16:15,10.1.1.6,25,0.090,0.090,0.090,0.000,0.000,0.000
1644362176028527872,2022-02-08-23:16:16,10.1.1.6,35,0.100,0.100,0.100,0.000,0.000,0.000
1644362177128875008,2022-02-08-23:16:17,10.1.1.6,29,-0.010,-0.010,-0.010,0.000,0.000,0.000
1644362177228848896,2022-02-08-23:16:17,10.1.1.6,29,-0.020,-0.020,-0.020,0.000,0.000,0.000
1644362177338296064,2022-02-08-23:16:17,10.1.1.6,38,-0.030,-0.030,-0.030,0.000,0.000,0.000
1644362177431937024,2022-02-08-23:16:17,10.1.1.6,29,-0.040,-0.040,-0.040,0.000,0.000,0.000
1644362177530726912,2022-02-08-23:16:17,10.1.1.6,27,-0.050,-0.050,-0.050,0.000,0.000,0.000
1644362177628483072,2022-02-08-23:16:17,10.1.1.6,27,-0.060,-0.060,-0.060,0.000,0.000,0.000
1644362177738743040,2022-02-08-23:16:17,10.1.1.6,36,-0.070,-0.070,-0.070,0.000,0.000,0.000
1644362177837872128,2022-02-08-23:16:17,10.1.1.6,35,-0.080,-0.080,-0.080,0.000,0.000,0.000
1644362178208048128,2022-02-08-23:16:18,10.1.1.6,3,-0.080,-0.080,-0.080,0.000,0.000,0.000
1644362178950782976,2022-02-08-23:16:18,10.1.1.6,39,-0.010,-0.010,-0.010,0.000,0.000,0.000
1644362179058589952,2022-02-08-23:16:19,10.1.1.6,48,0.000,0.000,0.000,0.000,0.000,0.000
1644362179158703104,2022-02-08-23:16:19,10.1.1.6,48,0.010,0.010,0.010,0.000,0.000,0.000
1644362179258099200,2022-02-08-23:16:19,10.1.1.6,47,0.020,0.020,0.020,0.000,0.000,0.000
1644362179338743808,2022-02-08-23:16:19,10.1.1.6,27,0.030,0.030,0.030,0.000,0.000,0.000
1644362179458487040,2022-02-08-23:16:19,10.1.1.6,46,0.040,0.040,0.040,0.000,0.000,0.000
1644362179558768128,2022-02-08-23:16:19,10.1.1.6,46,0.050,0.050,0.050,0.000,0.000,0.000
1644362179639139840,2022-02-08-23:16:19,10.1.1.6,26,0.060,0.060,0.060,0.000,0.000,0.000
1644362179738756864,2022-02-08-23:16:19,10.1.1.6,25,0.070,0.070,0.070,0.000,0.000,0.000
1644362179838528000,2022-02-08-23:16:19,10.1.1.6,25,0.080,0.080,0.080,0.000,0.000,0.000
1644362179938116096,2022-02-08-23:16:19,10.1.1.6,24,0.090,0.090,0.090,0.000,0.000,0.000
1644362180129511168,2022-02-08-23:16:20,10.1.1.6,13,0.090,0.090,0.090,0.000,0.000,0.000
1644362180657651968,2022-02-08-23:16:20,10.1.1.6,39,0.040,0.040,0.040,0.000,0.000,0.000
1644362180750454016,2022-02-08-23:16:20,10.1.1.6,29,0.030,0.030,0.030,0.000,0.000,0.000
1644362180858987008,2022-02-08-23:16:20,10.1.1.6,39,0.020,0.020,0.020,0.000,0.000,0.000
1644362180951054080,2022-02-08-23:16:20,10.1.1.6,28,0.010,0.010,0.010,0.000,0.000,0.000
1644362181057668096,2022-02-08-23:16:21,10.1.1.6,37,0.000,0.000,0.000,0.000,0.000,0.000
1644362181157591040,2022-02-08-23:16:21,10.1.1.6,37,-0.010,-0.010,-0.010,0.000,0.000,0.000
1644362181249380096,2022-02-08-23:16:21,10.1.1.6,27,-0.020,-0.020,-0.020,0.000,0.000,0.000
1644362181351831808,2022-02-08-23:16:21,10.1.1.6,26,-0.030,-0.030,-0.030,0.000,0.000,0.000
1644362181450542080,2022-02-08-23:16:21,10.1.1.6,26,-0.040,-0.040,-0.040,0.000,0.000,0.000
1644362181559154944,2022-02-08-23:16:21,10.1.1.6,35,-0.050,-0.050,-0.050,0.000,0.000,0.000
1644362182558665984,2022-02-08-23:16:22,10.1.1.6,30,-0.050,-0.050,-0.050,0.000,0.000,0.000
1644362182778654976,2022-02-08-23:16:22,10.1.1.6,49,-0.030,-0.030,-0.030,0.000,0.000,0.000
1644362182861597952,2022-02-08-23:16:22,10.1.1.6,31,-0.020,-0.020,-0.020,0.000,0.000,0.000
1644362182958278912,2022-02-08-23:16:22,10.1.1.6,28,-0.010,-0.010,-0.010,0.000,0.000,0.000
1644362183058370048,2022-02-08-23:16:23,10.1.1.6,28,0.000,0.000,0.000,0.000,0.000,0.000
1644362183179280128,2022-02-08-23:16:23,10.1.1.6,47,0.010,0.010,0.010,0.000,0.000,0.000
1644362183258951936,2022-02-08-23:16:23,10.1.1.6,27,0.020,0.020,0.020,0.000,0.000,0.000
1644362183358575104,2022-02-08-23:16:23,10.1.1.6,26,0.030,0.030,0.030,0.000,0.000,0.000
1644362183478203904,2022-02-08-23:16:23,10.1.1.6,46,0.040,0.040,0.040,0.000,0.000,0.000
1644362183558713856,2022-02-08-23:16:23,10.1.1.6,-14,0.040,0.040,0.040,0.000,0.000,0.000
1644362184550988800,2022-02-08-23:16:24,10.1.1.6,-1,0.050,0.050,0.050,0.000,0.000,0.000
1644362184678548224,2022-02-08-23:16:24,10.1.1.6,28,0.040,0.040,0.040,0.000,0.000,0.000
1644362184778624000,2022-02-08-23:16:24,10.1.1.6,28,0.030,0.030,0.030,0.000,0.000,0.000
1644362184898530048,2022-02-08-23:16:24,10.1.1.6,48,0.020,0.020,0.020,0.000,0.000,0.000
1644362184978710016,2022-02-08-23:16:24,10.1.1.6,27,0.010,0.010,0.010,0.000,0.000,0.000
1644362185078205952,2022-02-08-23:16:25,10.1.1.6,27,0.000,0.000,0.000,0.000,0.000,0.000
1644362185178682112,2022-02-08-23:16:25,10.1.1.6,26,-0.010,-0.010,-0.010,0.000,0.000,0.000
1644362185278307840,2022-02-08-23:16:25,10.1.1.6,26,-0.020,-0.020,-0.020,0.000,0.000,0.000
1644362185377886976,2022-02-08-23:16:25,10.1.1.6,25,-0.030,-0.030,-0.030,0.000,0.000,0.000
1644362186188770048,2022-02-08-23:16:26,10.1.1.6,30,-0.090,-0.090,-0.090,0.000,0.000,0.000
1644362186298238976,2022-02-08-23:16:26,10.1.1.6,39,-0.080,-0.080,-0.080,0.000,0.000,0.000
1644362186399426816,2022-02-08-23:16:26,10.1.1.6,38,-0.070,-0.070,-0.070,0.000,0.000,0.000
1644362186499435008,2022-02-08-23:16:26,10.1.1.6,38,-0.060,-0.060,-0.060,0.000,0.000,0.000
1644362186588995072,2022-02-08-23:16:26,10.1.1.6,27,-0.050,-0.050,-0.050,0.000,0.000,0.000
1644362186702963968,2022-02-08-23:16:26,10.1.1.6,36,-0.040,-0.040,-0.040,0.000,0.000,0.000
1644362186792020992,2022-02-08-23:16:26,10.1.1.6,26,-0.030,-0.030,-0.030,0.000,0.000,0.000
1644362188009445888,2022-02-08-23:16:28,10.1.1.6,39,0.090,0.090,0.090,0.000,0.000,0.000
1644362188098362880,2022-02-08-23:16:28,10.1.1.6,29,0.100,0.100,0.100,0.000,0.000,0.000
1644362188219532032,2022-02-08-23:16:28,10.1.1.6,48,0.090,0.090,0.090,0.000,0.000,0.000
1644362188299101184,2022-02-08-23:16:28,10.1.1.6,28,0.080,0.080,0.080,0.000,0.000,0.000
1644362188419147008,2022-02-08-23:16:28,10.1.1.6,48,0.070,0.070,0.070,0.000,0.000,0.000
1644362188518883840,2022-02-08-23:16:28,10.1.1.6,47,0.060,0.060,0.060,0.000,0.000,0.000
1644362188609949184,2022-02-08-23:16:28,10.1.1.6,37,0.050,0.050,0.050,0.000,0.000,0.000
1644362188698509824,2022-02-08-23:16:28,10.1.1.6,26,0.040,0.040,0.040,0.000,0.000,0.000
1644362188798770944,2022-02-08-23:16:28,10.1.1.6,25,0.030,0.030,0.030,0.000,0.000,0.000
1644362188918795008,2022-02-08-23:16:28,10.1.1.6,45,0.020,0.020,0.020,0.000,0.000,0.000
1644362189618660864,2022-02-08-23:16:29,10.1.1.6,39,-0.050,-0.050,-0.050,0.000,0.000,0.000
1644362189709739008,2022-02-08-23:16:29,10.1.1.6,29,-0.060,-0.060,-0.060,0.000,0.000,0.000
1644362189810153984,2022-02-08-23:16:29,10.1.1.6,29,-0.070,-0.070,-0.070,0.000,0.000,0.000
1644362189910636032,2022-02-08-23:16:29,10.1.1.6,28,-0.080,-0.080,-0.080,0.000,0.000,0.000
1644362190010327040,2022-02-08-23:16:30,10.1.1.6,28,-0.090,-0.090,-0.090,0.000,0.000,0.000
1644362190107781888,2022-02-08-23:16:30,10.1.1.6,28,-0.100,-0.100,-0.100,0.000,0.000,0.000
1644362190209748992,2022-02-08-23:16:30,10.1.1.6,27,-0.090,-0.090,-0.090,0.000,0.000,0.000
1644362190310272000,2022-02-08-23:16:30,10.1.1.6,27,-0.080,-0.080,-0.080,0.000,0.000,0.000
1644362190418690816,2022-02-08-23:16:30,10.1.1.6,37,-0.070,-0.070,-0.070,0.000,0.000,0.000
1644362191748056832,2022-02-08-23:16:31,10.1.1.6,49,0.060,0.060,0.060,0.000,0.000,0.000
1644362191829160960,2022-02-08-23:16:31,10.1.1.6,38,0.070,0.070,0.070,0.000,0.000,0.000
1644362192230968832,2022-02-08-23:16:32,10.1.1.6,30,0.090,0.090,0.090,0.000,0.000,0.000
1644362192328226048,2022-02-08-23:16:32,10.1.1.6,29,0.080,0.080,0.080,0.000,0.000,0.000
1644362192431529984,2022-02-08-23:16:32,10.1.1.6,29,0.070,0.070,0.070,0.000,0.000,0.000
1644362192538125056,2022-02-08-23:16:32,10.1.1.6,38,0.060,0.060,0.060,0.000,0.000,0.000
1644362192633153792,2022-02-08-23:16:32,10.1.1.6,28,0.050,0.050,0.050,0.000,0.000,0.000
1644362192739851008,2022-02-08-23:16:32,10.1.1.6,37,0.040,0.040,0.040,0.000,0.000,0.000
1644362192838112000,2022-02-08-23:16:32,10.1.1.6,37,0.030,0.030,0.030,0.000,0.000,0.000
1644362192938095104,2022-02-08-23:16:32,10.1.1.6,36,0.020,0.020,0.020,0.000,0.000,0.000
1644362193031531008,2022-02-08-23:16:33,10.1.1.6,27,0.010,0.010,0.010,0.000,0.000,0.000
1644362193938863104,2022-02-08-23:16:33,10.1.1.6,29,-0.080,-0.080,-0.080,0.000,0.000,0.000
1644362194051785984,2022-02-08-23:16:34,10.1.1.6,39,-0.090,-0.090,-0.090,0.000,0.000,0.000
1644362194158753024,2022-02-08-23:16:34,10.1.1.6,47,-0.100,-0.100,-0.100,0.000,0.000,0.000
1644362194240112128,2022-02-08-23:16:34,10.1.1.6,27,-0.090,-0.090,-0.090,0.000,0.000,0.000
1644362194337562112,2022-02-08-23:16:34,10.1.1.6,26,-0.080,-0.080,-0.080,0.000,0.000,0.000
1644362194438716928,2022-02-08-23:16:34,10.1.1.6,25,-0.070,-0.070,-0.070,0.000,0.000,0.000
1644362195257875968,2022-02-08-23:16:35,10.1.1.6,39,0.010,0.010,0.010,0.000,0.000,0.000
1644362195351675136,2022-02-08-23:16:35,10.1.1.6,29,0.020,0.020,0.020,0.000,0.000,0.000
1644362195448334080,2022-02-08-23:16:35,10.1.1.6,28,0.030,0.030,0.030,0.000,0.000,0.000
1644362195548738048,2022-02-08-23:16:35,10.1.1.6,27,0.040,0.040,0.040,0.000,0.000,0.000
1644362195658909184,2022-02-08-23:16:35,10.1.1.6,36,0.050,0.050,0.050,0.000,0.000,0.000
1644362195758456064,2022-02-08-23:16:35,10.1.1.6,36,0.060,0.060,0.060,0.000,0.000,0.000
1644362195851851008,2022-02-08-23:16:35,10.1.1.6,25,0.070,0.070,0.070,0.000,0.000,0.000
1644362196432584960,2022-02-08-23:16:36,10.1.1.6,4,0.070,0.070,0.070,0.000,0.000,0.000
1644362196658536960,2022-02-08-23:16:36,10.1.1.6,29,0.050,0.050,0.050,0.000,0.000,0.000
1644362196857556992,2022-02-08-23:16:36,10.1.1.6,28,0.030,0.030,0.030,0.000,0.000,0.000
1644362196970836992,2022-02-08-23:16:36,10.1.1.6,37,0.020,0.020,0.020,0.000,0.000,0.000
1644362197080542976,2022-02-08-23:16:37,10.1.1.6,46,0.010,0.010,0.010,0.000,0.000,0.000
1644362197170862848,2022-02-08-23:16:37,10.1.1.6,35,0.000,0.000,0.000,0.000,0.000,0.000
1644362197279095040,2022-02-08-23:16:37,10.1.1.6,45,-0.010,-0.010,-0.010,0.000,0.000,0.000
1644362197978579968,2022-02-08-23:16:37,10.1.1.6,39,-0.080,-0.080,-0.080,0.000,0.000,0.000
1644362198079868160,2022-02-08-23:16:38,10.1.1.6,38,-0.090,-0.090,-0.090,0.000,0.000,0.000
1644362198179416832,2022-02-08-23:16:38,10.1.1.6,38,-0.100,-0.100,-0.100,0.000,0.000,0.000
1644362198379476992,2022-02-08-23:16:38,10.1.1.6,36,-0.080,-0.080,-0.080,0.000,0.000,0.000
1644362198470720000,2022-02-08-23:16:38,10.1.1.6,26,-0.070,-0.070,-0.070,0.000,0.000,0.000
1644362198579351808,2022-02-08-23:16:38,10.1.1.6,35,-0.060,-0.060,-0.060,0.000,0.000,0.000
1644362198669310976,2022-02-08-23:16:38,10.1.1.6,24,-0.050,-0.050,-0.050,0.000,0.000,0.000
1644362199478238976,2022-02-08-23:16:39,10.1.1.6,28,0.030,0.030,0.030,0.000,0.000,0.000
1644362199590790912,2022-02-08-23:16:39,10.1.1.6,38,0.040,0.040,0.040,0.000,0.000,0.000
1644362199690520064,2022-02-08-23:16:39,10.1.1.6,37,0.050,0.050,0.050,0.000,0.000,0.000
1644362199778774016,2022-02-08-23:16:39,10.1.1.6,26,0.060,0.060,0.060,0.000,0.000,0.000
1644362199878772992,2022-02-08-23:16:39,10.1.1.6,25,0.070,0.070,0.070,0.000,0.000,0.000
1644362200478484992,2022-02-08-23:16:40,10.1.1.6,21,0.070,0.070,0.070,0.000,0.000,0.000
1644362200791160064,2022-02-08-23:16:40,10.1.1.6,29,0.040,0.040,0.040,0.000,0.000,0.000
1644362200898985984,2022-02-08-23:16:40,10.1.1.6,38,0.030,0.030,0.030,0.000,0.000,0.000
1644362200997655040,2022-02-08-23:16:40,10.1.1.6,35,0.020,0.020,0.020,0.000,0.000,0.000
1644362201798700032,2022-02-08-23:16:41,10.1.1.6,29,-0.060,-0.060,-0.060,0.000,0.000,0.000
1644362201898102016,2022-02-08-23:16:41,10.1.1.6,28,-0.070,-0.070,-0.070,0.000,0.000,0.000
1644362201998693888,2022-02-08-23:16:41,10.1.1.6,28,-0.080,-0.080,-0.080,0.000,0.000,0.000
1644362202112011008,2022-02-08-23:16:42,10.1.1.6,38,-0.090,-0.090,-0.090,0.000,0.000,0.000
1644362202219219968,2022-02-08-23:16:42,10.1.1.6,46,-0.100,-0.100,-0.100,0.000,0.000,0.000
1644362202299030016,2022-02-08-23:16:42,10.1.1.6,26,-0.090,-0.090,-0.090,0.000,0.000,0.000
1644362202712118016,2022-02-08-23:16:42,10.1.1.6,29,-0.050,-0.050,-0.050,0.000,0.000,0.000
1644362202818800896,2022-02-08-23:16:42,10.1.1.6,38,-0.040,-0.040,-0.040,0.000,0.000,0.000
1644362202911715072,2022-02-08-23:16:42,10.1.1.6,28,-0.030,-0.030,-0.030,0.000,0.000,0.000
1644362203018737152,2022-02-08-23:16:43,10.1.1.6,37,-0.020,-0.020,-0.020,0.000,0.000,0.000
1644362203118828032,2022-02-08-23:16:43,10.1.1.6,36,-0.010,-0.010,-0.010,0.000,0.000,0.000
1644362203219932928,2022-02-08-23:16:43,10.1.1.6,35,0.000,0.000,0.000,0.000,0.000,0.000
1644362203310955008,2022-02-08-23:16:43,10.1.1.6,25,0.010,0.010,0.010,0.000,0.000,0.000
1644362203918736896,2022-02-08-23:16:43,10.1.1.6,29,0.070,0.070,0.070,0.000,0.000,0.000
1644362204029836800,2022-02-08-23:16:44,10.1.1.6,39,0.080,0.080,0.080,0.000,0.000,0.000
1644362204139947008,2022-02-08-23:16:44,10.1.1.6,48,0.090,0.090,0.090,0.000,0.000,0.000
1644362204239290112,2022-02-08-23:16:44,10.1.1.6,47,0.100,0.100,0.100,0.000,0.000,0.000
1644362204319926016,2022-02-08-23:16:44,10.1.1.6,27,0.090,0.090,0.090,0.000,0.000,0.000
1644362204419225856,2022-02-08-23:16:44,10.1.1.6,26,0.080,0.080,0.080,0.000,0.000,0.000
1644362204531714816,2022-02-08-23:16:44,10.1.1.6,35,0.070,0.070,0.070,0.000,0.000,0.000
1644362205332050176,2022-02-08-23:16:45,10.1.1.6,30,-0.010,-0.010,-0.010,0.000,0.000,0.000
1644362205430900992,2022-02-08-23:16:45,10.1.1.6,28,-0.020,-0.020,-0.020,0.000,0.000,0.000
1644362205537964032,2022-02-08-23:16:45,10.1.1.6,37,-0.030,-0.030,-0.030,0.000,0.000,0.000
1644362205638299904,2022-02-08-23:16:45,10.1.1.6,37,-0.040,-0.040,-0.040,0.000,0.000,0.000
1644362205732676864,2022-02-08-23:16:45,10.1.1.6,26,-0.050,-0.050,-0.050,0.000,0.000,0.000
1644362206649655040,2022-02-08-23:16:46,10.1.1.6,39,-0.060,-0.060,-0.060,0.000,0.000,0.000
1644362206738840064,2022-02-08-23:16:46,10.1.1.6,28,-0.050,-0.050,-0.050,0.000,0.000,0.000
1644362206850979072,2022-02-08-23:16:46,10.1.1.6,37,-0.040,-0.040,-0.040,0.000,0.000,0.000
1644362206938738176,2022-02-08-23:16:46,10.1.1.6,26,-0.030,-0.030,-0.030,0.000,0.000,0.000
1644362207038868992,2022-02-08-23:16:47,10.1.1.6,26,-0.020,-0.020,-0.020,0.000,0.000,0.000
1644362207138892032,2022-02-08-23:16:47,10.1.1.6,26,-0.010,-0.010,-0.010,0.000,0.000,0.000
1644362207240425984,2022-02-08-23:16:47,10.1.1.6,25,0.000,0.000,0.000,0.000,0.000,0.000
1644362207739100928,2022-02-08-23:16:47,10.1.1.6,20,0.050,0.050,0.050,0.000,0.000,0.000
1644362207859389184,2022-02-08-23:16:47,10.1.1.6,39,0.060,0.060,0.060,0.000,0.000,0.000
1644362207949052160,2022-02-08-23:16:47,10.1.1.6,29,0.070,0.070,0.070,0.000,0.000,0.000
1644362208058419968,2022-02-08-23:16:48,10.1.1.6,38,0.080,0.080,0.080,0.000,0.000,0.000
1644362208151283968,2022-02-08-23:16:48,10.1.1.6,28,0.090,0.090,0.090,0.000,0.000,0.000
1644362208259366912,2022-02-08-23:16:48,10.1.1.6,37,0.100,0.100,0.100,0.000,0.000,0.000
1644362208357777152,2022-02-08-23:16:48,10.1.1.6,36,0.090,0.090,0.090,0.000,0.000,0.000
1644362209100896000,2022-02-08-23:16:49,10.1.1.6,38,0.020,0.020,0.020,0.000,0.000,0.000
1644362209199894784,2022-02-08-23:16:49,10.1.1.6,38,0.010,0.010,0.010,0.000,0.000,0.000
1644362209297615104,2022-02-08-23:16:49,10.1.1.6,37,0.000,0.000,0.000,0.000,0.000,0.000
1644362209388800000,2022-02-08-23:16:49,10.1.1.6,27,-0.010,-0.010,-0.010,0.000,0.000,0.000
1644362209807933952,2022-02-08-23:16:49,10.1.1.6,37,-0.050,-0.050,-0.050,0.000,0.000,0.000
1644362209909588224,2022-02-08-23:16:49,10.1.1.6,37,-0.060,-0.060,-0.060,0.000,0.000,0.000
1644362210008312832,2022-02-08-23:16:50,10.1.1.6,36,-0.070,-0.070,-0.070,0.000,0.000,0.000
1644362210098102016,2022-02-08-23:16:50,10.1.1.6,25,-0.080,-0.080,-0.080,0.000,0.000,0.000
1644362210209309952,2022-02-08-23:16:50,10.1.1.6,35,-0.090,-0.090,-0.090,0.000,0.000,0.000
1644362210377701120,2022-02-08-23:16:50,10.1.1.6,4,-0.090,-0.090,-0.090,0.000,0.000,0.000
1644362211107866112,2022-02-08-23:16:51,10.1.1.6,29,-0.020,-0.020,-0.020,0.000,0.000,0.000
1644362211207909120,2022-02-08-23:16:51,10.1.1.6,29,-0.010,-0.010,-0.010,0.000,0.000,0.000
1644362211309500928,2022-02-08-23:16:51,10.1.1.6,29,0.000,0.000,0.000,0.000,0.000,0.000
1644362211408452096,2022-02-08-23:16:51,10.1.1.6,28,0.010,0.010,0.010,0.000,0.000,0.000
1644362211508914944,2022-02-08-23:16:51,10.1.1.6,28,0.020,0.020,0.020,0.000,0.000,0.000
1644362211608696064,2022-02-08-23:16:51,10.1.1.6,28,0.030,0.030,0.030,0.000,0.000,0.000
1644362211708637952,2022-02-08-23:16:51,10.1.1.6,27,0.040,0.040,0.040,0.000,0.000,0.000
1644362211908617984,2022-02-08-23:16:51,10.1.1.6,25,0.060,0.060,0.060,0.000,0.000,0.000
1644362212619340032,2022-02-08-23:16:52,10.1.1.6,29,0.070,0.070,0.070,0.000,0.000,0.000
1644362212728429056,2022-02-08-23:16:52,10.1.1.6,39,0.060,0.060,0.060,0.000,0.000,0.000
1644362212837953024,2022-02-08-23:16:52,10.1.1.6,48,0.050,0.050,0.050,0.000,0.000,0.000
1644362212917850112,2022-02-08-23:16:52,10.1.1.6,28,0.040,0.040,0.040,0.000,0.000,0.000
1644362213038865152,2022-02-08-23:16:53,10.1.1.6,46,0.030,0.030,0.030,0.000,0.000,0.000
1644362213118041088,2022-02-08-23:16:53,10.1.1.6,26,0.020,0.020,0.020,0.000,0.000,0.000
1644362213218638848,2022-02-08-23:16:53,10.1.1.6,25,0.010,0.010,0.010,0.000,0.000,0.000
1644362213328440064,2022-02-08-23:16:53,10.1.1.6,35,0.000,0.000,0.000,0.000,0.000,0.000
1644362213438898944,2022-02-08-23:16:53,10.1.1.6,44,-0.010,-0.010,-0.010,0.000,0.000,0.000
1644362213639162112,2022-02-08-23:16:53,10.1.1.6,39,-0.030,-0.030,-0.030,0.000,0.000,0.000
1644362213738446080,2022-02-08-23:16:53,10.1.1.6,38,-0.040,-0.040,-0.040,0.000,0.000,0.000
1644362213838315008,2022-02-08-23:16:53,10.1.1.6,37,-0.050,-0.050,-0.050,0.000,0.000,0.000
1644362213929848832,2022-02-08-23:16:53,10.1.1.6,27,-0.060,-0.060,-0.060,0.000,0.000,0.000
1644362214031152128,2022-02-08-23:16:54,10.1.1.6,27,-0.070,-0.070,-0.070,0.000,0.000,0.000
1644362214138243840,2022-02-08-23:16:54,10.1.1.6,36,-0.080,-0.080,-0.080,0.000,0.000,0.000
1644362214238354944,2022-02-08-23:16:54,10.1.1.6,36,-0.090,-0.090,-0.090,0.000,0.000,0.000
1644362214338840064,2022-02-08-23:16:54,10.1.1.6,35,-0.100,-0.100,-0.100,0.000,0.000,0.000
1644362215650096896,2022-02-08-23:16:55,10.1.1.6,39,0.030,0.030,0.030,0.000,0.000,0.000
1644362215838736896,2022-02-08-23:16:55,10.1.1.6,28,0.050,0.050,0.050,0.000,0.000,0.000
1644362216050270208,2022-02-08-23:16:56,10.1.1.6,37,0.070,0.070,0.070,0.000,0.000,0.000
1644362216150063872,2022-02-08-23:16:56,10.1.1.6,36,0.080,0.080,0.080,0.000,0.000,0.000
1644362216249946112,2022-02-08-23:16:56,10.1.1.6,36,0.090,0.090,0.090,0.000,0.000,0.000
1644362216358420992,2022-02-08-23:16:56,10.1.1.6,45,0.100,0.100,0.100,0.000,0.000,0.000
1644362217049452032,2022-02-08-23:16:57,10.1.1.6,30,0.030,0.030,0.030,0.000,0.000,0.000
1644362217158653952,2022-02-08-23:16:57,10.1.1.6,39,0.020,0.020,0.020,0.000,0.000,0.000
1644362217258488064,2022-02-08-23:16:57,10.1.1.6,38,0.010,0.010,0.010,0.000,0.000,0.000
1644362217349257984,2022-02-08-23:16:57,10.1.1.6,28,0.000,0.000,0.000,0.000,0.000,0.000
1644362217448743936,2022-02-08-23:16:57,10.1.1.6,27,-0.010,-0.010,-0.010,0.000,0.000,0.000
1644362217550614016,2022-02-08-23:16:57,10.1.1.6,27,-0.020,-0.020,-0.020,0.000,0.000,0.000
1644362217658529024,2022-02-08-23:16:57,10.1.1.6,37,-0.030,-0.030,-0.030,0.000,0.000,0.000
1644362218570605056,2022-02-08-23:16:58,10.1.1.6,39,-0.080,-0.080,-0.080,0.000,0.000,0.000
1644362218668332032,2022-02-08-23:16:58,10.1.1.6,38,-0.070,-0.070,-0.070,0.000,0.000,0.000
1644362218770471936,2022-02-08-23:16:58,10.1.1.6,35,-0.060,-0.060,-0.060,0.000,0.000,0.000
1644362218879924992,2022-02-08-23:16:58,10.1.1.6,44,-0.050,-0.050,-0.050,0.000,0.000,0.000
1644362219259220992,2022-02-08-23:16:59,10.1.1.6,22,-0.010,-0.010,-0.010,0.000,0.000,0.000
1644362219578838016,2022-02-08-23:16:59,10.1.1.6,39,0.020,0.020,0.020,0.000,0.000,0.000
1644362219668951040,2022-02-08-23:16:59,10.1.1.6,29,0.030,0.030,0.030,0.000,0.000,0.000
1644362219768258048,2022-02-08-23:16:59,10.1.1.6,28,0.040,0.040,0.040,0.000,0.000,0.000
1644362219878246912,2022-02-08-23:16:59,10.1.1.6,38,0.050,0.050,0.050,0.000,0.000,0.000
1644362219978779904,2022-02-08-23:16:59,10.1.1.6,37,0.060,0.060,0.060,0.000,0.000,0.000
1644362220068236032,2022-02-08-23:17:00,10.1.1.6,27,0.070,0.070,0.070,0.000,0.000,0.000
1644362220178839040,2022-02-08-23:17:00,10.1.1.6,36,0.080,0.080,0.080,0.000,0.000,0.000
1644362220278875136,2022-02-08-23:17:00,10.1.1.6,36,0.090,0.090,0.090,0.000,0.000,0.000
1644362220368616960,2022-02-08-23:17:00,10.1.1.6,26,0.100,0.100,0.100,0.000,0.000,0.000
1644362220478982912,2022-02-08-23:17:00,10.1.1.6,35,0.090,0.090,0.090,0.000,0.000,0.000
1644362220578628096,2022-02-08-23:17:00,10.1.1.6,35,0.080,0.080,0.080,0.000,0.000,0.000
1644362220668845824,2022-02-08-23:17:00,10.1.1.6,24,0.070,0.070,0.070,0.000,0.000,0.000
1644362220768718080,2022-02-08-23:17:00,10.1.1.6,24,0.060,0.060,0.060,0.000,0.000,0.000
1644362221378614784,2022-02-08-23:17:01,10.1.1.6,29,-0.000,-0.000,-0.000,0.000,0.000,0.000
1644362221488701184,2022-02-08-23:17:01,10.1.1.6,39,-0.010,-0.010,-0.010,0.000,0.000,0.000
1644362221578728960,2022-02-08-23:17:01,10.1.1.6,28,-0.020,-0.020,-0.020,0.000,0.000,0.000
1644362221679552000,2022-02-08-23:17:01,10.1.1.6,28,-0.030,-0.030,-0.030,0.000,0.000,0.000
1644362221788811008,2022-02-08-23:17:01,10.1.1.6,37,-0.040,-0.040,-0.040,0.000,0.000,0.000
1644362221888477184,2022-02-08-23:17:01,10.1.1.6,36,-0.050,-0.050,-0.050,0.000,0.000,0.000
1644362221978929152,2022-02-08-23:17:01,10.1.1.6,26,-0.060,-0.060,-0.060,0.000,0.000,0.000
1644362222088439040,2022-02-08-23:17:02,10.1.1.6,35,-0.070,-0.070,-0.070,0.000,0.000,0.000
1644362222179090944,2022-02-08-23:17:02,10.1.1.6,25,-0.080,-0.080,-0.080,0.000,0.000,0.000
1644362222300091136,2022-02-08-23:17:02,10.1.1.6,44,-0.090,-0.090,-0.090,0.000,0.000,0.000
1644362222470127104,2022-02-08-23:17:02,10.1.1.6,13,-0.090,-0.090,-0.090,0.000,0.000,0.000
1644362223091314944,2022-02-08-23:17:03,10.1.1.6,29,-0.030,-0.030,-0.030,0.000,0.000,0.000
1644362223189155072,2022-02-08-23:17:03,10.1.1.6,29,-0.020,-0.020,-0.020,0.000,0.000,0.000
1644362223288896000,2022-02-08-23:17:03,10.1.1.6,28,-0.010,-0.010,-0.010,0.000,0.000,0.000
1644362223391827968,2022-02-08-23:17:03,10.1.1.6,26,0.000,0.000,0.000,0.000,0.000,0.000
1644362223918483968,2022-02-08-23:17:03,10.1.1.6,49,0.050,0.050,0.050,0.000,0.000,0.000
1644362224009154048,2022-02-08-23:17:04,10.1.1.6,39,0.060,0.060,0.060,0.000,0.000,0.000
1644362224109057024,2022-02-08-23:17:04,10.1.1.6,38,0.070,0.070,0.070,0.000,0.000,0.000
1644362224199409920,2022-02-08-23:17:04,10.1.1.6,28,0.080,0.080,0.080,0.000,0.000,0.000
1644362224298476032,2022-02-08-23:17:04,10.1.1.6,27,0.090,0.090,0.090,0.000,0.000,0.000
1644362224418676992,2022-02-08-23:17:04,10.1.1.6,47,0.100,0.100,0.100,0.000,0.000,0.000
1644362224510124800,2022-02-08-23:17:04,10.1.1.6,36,0.090,0.090,0.090,0.000,0.000,0.000
1644362224610279168,2022-02-08-23:17:04,10.1.1.6,36,0.080,0.080,0.080,0.000,0.000,0.000
1644362224710664960,2022-02-08-23:17:04,10.1.1.6,35,0.070,0.070,0.070,0.000,0.000,0.000
1644362224810705920,2022-02-08-23:17:04,10.1.1.6,35,0.060,0.060,0.060,0.000,0.000,0.000
1644362224918587904,2022-02-08-23:17:04,10.1.1.6,44,0.050,0.050,0.050,0.000,0.000,0.000
1644362225318931200,2022-02-08-23:17:05,10.1.1.6,41,0.010,0.010,0.010,0.000,0.000,0.000
1644362225710642176,2022-02-08-23:17:05,10.1.1.6,29,-0.030,-0.030,-0.030,0.000,0.000,0.000
1644362225809024000,2022-02-08-23:17:05,10.1.1.6,29,-0.040,-0.040,-0.040,0.000,0.000,0.000
1644362225909591808,2022-02-08-23:17:05,10.1.1.6,28,-0.050,-0.050,-0.050,0.000,0.000,0.000
1644362226010703104,2022-02-08-23:17:06,10.1.1.6,28,-0.060,-0.060,-0.060,0.000,0.000,0.000
1644362226109597952,2022-02-08-23:17:06,10.1.1.6,25,-0.070,-0.070,-0.070,0.000,0.000,0.000
1644362226711499008,2022-02-08-23:17:06,10.1.1.6,22,-0.070,-0.070,-0.070,0.000,0.000,0.000
1644362227130276864,2022-02-08-23:17:07,10.1.1.6,38,-0.030,-0.030,-0.030,0.000,0.000,0.000
1644362227330172928,2022-02-08-23:17:07,10.1.1.6,38,-0.010,-0.010,-0.010,0.000,0.000,0.000
1644362227428880896,2022-02-08-23:17:07,10.1.1.6,37,0.000,0.000,0.000,0.000,0.000,0.000
1644362227531091968,2022-02-08-23:17:07,10.1.1.6,37,0.010,0.010,0.010,0.000,0.000,0.000
1644362227631277056,2022-02-08-23:17:07,10.1.1.6,36,0.020,0.020,0.020,0.000,0.000,0.000
1644362227731555072,2022-02-08-23:17:07,10.1.1.6,36,0.030,0.030,0.030,0.000,0.000,0.000
1644362227831314176,2022-02-08-23:17:07,10.1.1.6,35,0.040,0.040,0.040,0.000,0.000,0.000
1644362227930969088,2022-02-08-23:17:07,10.1.1.6,34,0.050,0.050,0.050,0.000,0.000,0.000
1644362228729522944,2022-02-08-23:17:08,10.1.1.6,30,0.070,0.070,0.070,0.000,0.000,0.000
1644362228830694912,2022-02-08-23:17:08,10.1.1.6,29,0.060,0.060,0.060,0.000,0.000,0.000
1644362228929348864,2022-02-08-23:17:08,10.1.1.6,28,0.050,0.050,0.050,0.000,0.000,0.000
1644362229030204928,2022-02-08-23:17:09,10.1.1.6,28,0.040,0.040,0.040,0.000,0.000,0.000
1644362229129849856,2022-02-08-23:17:09,10.1.1.6,28,0.030,0.030,0.030,0.000,0.000,0.000
1644362229238569984,2022-02-08-23:17:09,10.1.1.6,36,0.020,0.020,0.020,0.000,0.000,0.000
1644362229329300992,2022-02-08-23:17:09,10.1.1.6,26,0.010,0.010,0.010,0.000,0.000,0.000
1644362229431566080,2022-02-08-23:17:09,10.1.1.6,26,0.000,0.000,0.000,0.000,0.000,0.000
1644362230639265024,2022-02-08-23:17:10,10.1.1.6,28,-0.080,-0.080,-0.080,0.000,0.000,0.000
1644362230759616000,2022-02-08-23:17:10,10.1.1.6,48,-0.070,-0.070,-0.070,0.000,0.000,0.000
1644362230858906112,2022-02-08-23:17:10,10.1.1.6,47,-0.060,-0.060,-0.060,0.000,0.000,0.000
1644362230939261952,2022-02-08-23:17:10,10.1.1.6,26,-0.050,-0.050,-0.050,0.000,0.000,0.000
1644362231039176960,2022-02-08-23:17:11,10.1.1.6,26,-0.040,-0.040,-0.040,0.000,0.000,0.000
1644362231139218944,2022-02-08-23:17:11,10.1.1.6,25,-0.030,-0.030,-0.030,0.000,0.000,0.000
1644362231259414016,2022-02-08-23:17:11,10.1.1.6,45,-0.020,-0.020,-0.020,0.000,0.000,0.000
1644362231338573056,2022-02-08-23:17:11,10.1.1.6,24,-0.010,-0.010,-0.010,0.000,0.000,0.000
1644362231438870016,2022-02-08-23:17:11,10.1.1.6,24,0.000,0.000,0.000,0.000,0.000,0.000
1644362231539246080,2022-02-08-23:17:11,10.1.1.6,24,0.010,0.010,0.010,0.000,0.000,0.000
1644362232359399168,2022-02-08-23:17:12,10.1.1.6,39,0.090,0.090,0.090,0.000,0.000,0.000
1644362232458499840,2022-02-08-23:17:12,10.1.1.6,39,0.100,0.100,0.100,0.000,0.000,0.000
1644362232558365952,2022-02-08-23:17:12,10.1.1.6,38,0.090,0.090,0.090,0.000,0.000,0.000
1644362232658925056,2022-02-08-23:17:12,10.1.1.6,38,0.080,0.080,0.080,0.000,0.000,0.000
1644362232759243008,2022-02-08-23:17:12,10.1.1.6,37,0.070,0.070,0.070,0.000,0.000,0.000
1644362232858999040,2022-02-08-23:17:12,10.1.1.6,37,0.060,0.060,0.060,0.000,0.000,0.000
1644362232959619072,2022-02-08-23:17:12,10.1.1.6,36,0.050,0.050,0.050,0.000,0.000,0.000
1644362233059196928,2022-02-08-23:17:13,10.1.1.6,36,0.040,0.040,0.040,0.000,0.000,0.000
1644362233150664960,2022-02-08-23:17:13,10.1.1.6,25,0.030,0.030,0.030,0.000,0.000,0.000
1644362233258710016,2022-02-08-23:17:13,10.1.1.6,34,0.020,0.020,0.020,0.000,0.000,0.000
1644362233350373120,2022-02-08-23:17:13,10.1.1.6,24,0.010,0.010,0.010,0.000,0.000,0.000
1644362234179148032,2022-02-08-23:17:14,10.1.1.6,49,-0.070,-0.070,-0.070,0.000,0.000,0.000
1644362234258635008,2022-02-08-23:17:14,10.1.1.6,29,-0.080,-0.080,-0.080,0.000,0.000,0.000
1644362234358654976,2022-02-08-23:17:14,10.1.1.6,28,-0.090,-0.090,-0.090,0.000,0.000,0.000
1644362234459410944,2022-02-08-23:17:14,10.1.1.6,27,-0.100,-0.100,-0.100,0.000,0.000,0.000
1644362234558394880,2022-02-08-23:17:14,10.1.1.6,27,-0.090,-0.090,-0.090,0.000,0.000,0.000
1644362234658924032,2022-02-08-23:17:14,10.1.1.6,26,-0.080,-0.080,-0.080,0.000,0.000,0.000
1644362234758555904,2022-02-08-23:17:14,10.1.1.6,26,-0.070,-0.070,-0.070,0.000,0.000,0.000
1644362234870904064,2022-02-08-23:17:14,10.1.1.6,35,-0.060,-0.060,-0.060,0.000,0.000,0.000
1644362234979422976,2022-02-08-23:17:14,10.1.1.6,45,-0.050,-0.050,-0.050,0.000,0.000,0.000
1644362235059233024,2022-02-08-23:17:15,10.1.1.6,24,-0.040,-0.040,-0.040,0.000,0.000,0.000
1644362235179354880,2022-02-08-23:17:15,10.1.1.6,44,-0.030,-0.030,-0.030,0.000,0.000,0.000
1644362235969587968,2022-02-08-23:17:15,10.1.1.6,30,0.050,0.050,0.050,0.000,0.000,0.000
1644362236079268864,2022-02-08-23:17:16,10.1.1.6,39,0.060,0.060,0.060,0.000,0.000,0.000
1644362236179447040,2022-02-08-23:17:16,10.1.1.6,38,0.070,0.070,0.070,0.000,0.000,0.000
1644362236279283968,2022-02-08-23:17:16,10.1.1.6,38,0.080,0.080,0.080,0.000,0.000,0.000
1644362236368905984,2022-02-08-23:17:16,10.1.1.6,28,0.090,0.090,0.090,0.000,0.000,0.000
1644362236479293952,2022-02-08-23:17:16,10.1.1.6,36,0.100,0.100,0.100,0.000,0.000,0.000
1644362236569165056,2022-02-08-23:17:16,10.1.1.6,26,0.090,0.090,0.090,0.000,0.000,0.000
1644362236671300864,2022-02-08-23:17:16,10.1.1.6,26,0.080,0.080,0.080,0.000,0.000,0.000
1644362236768727040,2022-02-08-23:17:16,10.1.1.6,25,0.070,0.070,0.070,0.000,0.000,0.000
1644362236869731840,2022-02-08-23:17:16,10.1.1.6,25,0.060,0.060,0.060,0.000,0.000,0.000
1644362237679627776,2022-02-08-23:17:17,10.1.1.6,29,-0.020,-0.020,-0.020,0.000,0.000,0.000
1644362237803304960,2022-02-08-23:17:17,10.1.1.6,49,-0.030,-0.030,-0.030,0.000,0.000,0.000
1644362237879339008,2022-02-08-23:17:17,10.1.1.6,28,-0.040,-0.040,-0.040,0.000,0.000,0.000
1644362237979130112,2022-02-08-23:17:17,10.1.1.6,27,-0.050,-0.050,-0.050,0.000,0.000,0.000
1644362238079448832,2022-02-08-23:17:18,10.1.1.6,27,-0.060,-0.060,-0.060,0.000,0.000,0.000
1644362238189542144,2022-02-08-23:17:18,10.1.1.6,36,-0.070,-0.070,-0.070,0.000,0.000,0.000
1644362238278937088,2022-02-08-23:17:18,10.1.1.6,26,-0.080,-0.080,-0.080,0.000,0.000,0.000
1644362238380048896,2022-02-08-23:17:18,10.1.1.6,25,-0.090,-0.090,-0.090,0.000,0.000,0.000
1644362238479186176,2022-02-08-23:17:18,10.1.1.6,25,-0.100,-0.100,-0.100,0.000,0.000,0.000
1644362238579091200,2022-02-08-23:17:18,10.1.1.6,24,-0.090,-0.090,-0.090,0.000,0.000,0.000
1644362238679344896,2022-02-08-23:17:18,10.1.1.6,24,-0.080,-0.080,-0.080,0.000,0.000,0.000
1644362238778595840,2022-02-08-23:17:18,10.1.1.6,24,-0.070,-0.070,-0.070,0.000,0.000,0.000
1644362238879139072,2022-02-08-23:17:18,10.1.1.6,23,-0.060,-0.060,-0.060,0.000,0.000,0.000
1644362239688734976,2022-02-08-23:17:19,10.1.1.6,29,0.020,0.020,0.020,0.000,0.000,0.000
1644362239798888960,2022-02-08-23:17:19,10.1.1.6,39,0.030,0.030,0.030,0.000,0.000,0.000
1644362239889709824,2022-02-08-23:17:19,10.1.1.6,28,0.040,0.040,0.040,0.000,0.000,0.000
1644362239989590016,2022-02-08-23:17:19,10.1.1.6,28,0.050,0.050,0.050,0.000,0.000,0.000
1644362240098938880,2022-02-08-23:17:20,10.1.1.6,37,0.060,0.060,0.060,0.000,0.000,0.000
1644362240189271808,2022-02-08-23:17:20,10.1.1.6,27,0.070,0.070,0.070,0.000,0.000,0.000
1644362240299303168,2022-02-08-23:17:20,10.1.1.6,36,0.080,0.080,0.080,0.000,0.000,0.000
1644362240389118976,2022-02-08-23:17:20,10.1.1.6,26,0.090,0.090,0.090,0.000,0.000,0.000
1644362240499223040,2022-02-08-23:17:20,10.1.1.6,36,0.100,0.100,0.100,0.000,0.000,0.000
1644362240589175040,2022-02-08-23:17:20,10.1.1.6,25,0.090,0.090,0.090,0.000,0.000,0.000
1644362240699470080,2022-02-08-23:17:20,10.1.1.6,34,0.080,0.080,0.080,0.000,0.000,0.000
1644362240799202048,2022-02-08-23:17:20,10.1.1.6,34,0.070,0.070,0.070,0.000,0.000,0.000
1644362241399768064,2022-02-08-23:17:21,10.1.1.6,29,0.010,0.010,0.010,0.000,0.000,0.000
1644362241499454976,2022-02-08-23:17:21,10.1.1.6,29,-0.000,-0.000,-0.000,0.000,0.000,0.000
1644362241599313920,2022-02-08-23:17:21,10.1.1.6,28,-0.010,-0.010,-0.010,0.000,0.000,0.000
1644362241699443200,2022-02-08-23:17:21,10.1.1.6,28,-0.020,-0.020,-0.020,0.000,0.000,0.000
1644362241819575040,2022-02-08-23:17:21,10.1.1.6,47,-0.030,-0.030,-0.030,0.000,0.000,0.000
1644362241899724032,2022-02-08-23:17:21,10.1.1.6,27,-0.040,-0.040,-0.040,0.000,0.000,0.000
1644362242019593984,2022-02-08-23:17:22,10.1.1.6,46,-0.050,-0.050,-0.050,0.000,0.000,0.000
1644362242099344128,2022-02-08-23:17:22,10.1.1.6,26,-0.060,-0.060,-0.060,0.000,0.000,0.000
1644362242198999808,2022-02-08-23:17:22,10.1.1.6,25,-0.070,-0.070,-0.070,0.000,0.000,0.000
1644362242299676928,2022-02-08-23:17:22,10.1.1.6,24,-0.080,-0.080,-0.080,0.000,0.000,0.000
1644362242399365888,2022-02-08-23:17:22,10.1.1.6,23,-0.090,-0.090,-0.090,0.000,0.000,0.000
1644362242579987968,2022-02-08-23:17:22,10.1.1.6,2,-0.090,-0.090,-0.090,0.000,0.000,0.000
1644362243109174016,2022-02-08-23:17:23,10.1.1.6,29,-0.040,-0.040,-0.040,0.000,0.000,0.000
1644362243220189184,2022-02-08-23:17:23,10.1.1.6,39,-0.030,-0.030,-0.030,0.000,0.000,0.000
1644362243314825984,2022-02-08-23:17:23,10.1.1.6,28,-0.020,-0.020,-0.020,0.000,0.000,0.000
1644362243419130112,2022-02-08-23:17:23,10.1.1.6,37,-0.010,-0.010,-0.010,0.000,0.000,0.000
1644362243519223808,2022-02-08-23:17:23,10.1.1.6,37,0.000,0.000,0.000,0.000,0.000,0.000
1644362243610449152,2022-02-08-23:17:23,10.1.1.6,27,0.010,0.010,0.010,0.000,0.000,0.000
1644362243710118144,2022-02-08-23:17:23,10.1.1.6,27,0.020,0.020,0.020,0.000,0.000,0.000
1644362243819277056,2022-02-08-23:17:23,10.1.1.6,35,0.030,0.030,0.030,0.000,0.000,0.000
1644362244339380992,2022-02-08-23:17:24,10.1.1.6,49,0.080,0.080,0.080,0.000,0.000,0.000
1644362244559348992,2022-02-08-23:17:24,10.1.1.6,49,0.100,0.100,0.100,0.000,0.000,0.000
1644362244639724032,2022-02-08-23:17:24,10.1.1.6,28,0.090,0.090,0.090,0.000,0.000,0.000
1644362244759284992,2022-02-08-23:17:24,10.1.1.6,48,0.080,0.080,0.080,0.000,0.000,0.000
1644362244839144960,2022-02-08-23:17:24,10.1.1.6,27,0.070,0.070,0.070,0.000,0.000,0.000
1644362244959127808,2022-02-08-23:17:24,10.1.1.6,47,0.060,0.060,0.060,0.000,0.000,0.000
1644362245039642112,2022-02-08-23:17:25,10.1.1.6,26,0.050,0.050,0.050,0.000,0.000,0.000
1644362245149007104,2022-02-08-23:17:25,10.1.1.6,36,0.040,0.040,0.040,0.000,0.000,0.000
1644362245259176960,2022-02-08-23:17:25,10.1.1.6,45,0.030,0.030,0.030,0.000,0.000,0.000
1644362246669323008,2022-02-08-23:17:26,10.1.1.6,38,-0.090,-0.090,-0.090,0.000,0.000,0.000
1644362246759706112,2022-02-08-23:17:26,10.1.1.6,28,-0.080,-0.080,-0.080,0.000,0.000,0.000
1644362246869775104,2022-02-08-23:17:26,10.1.1.6,38,-0.070,-0.070,-0.070,0.000,0.000,0.000
1644362246980293888,2022-02-08-23:17:26,10.1.1.6,47,-0.060,-0.060,-0.060,0.000,0.000,0.000
1644362247070932992,2022-02-08-23:17:27,10.1.1.6,37,-0.050,-0.050,-0.050,0.000,0.000,0.000
1644362247169565952,2022-02-08-23:17:27,10.1.1.6,35,-0.040,-0.040,-0.040,0.000,0.000,0.000
1644362247263098112,2022-02-08-23:17:27,10.1.1.6,25,-0.030,-0.030,-0.030,0.000,0.000,0.000
1644362247360684032,2022-02-08-23:17:27,10.1.1.6,24,-0.020,-0.020,-0.020,0.000,0.000,0.000
1644362247459877888,2022-02-08-23:17:27,10.1.1.6,24,-0.010,-0.010,-0.010,0.000,0.000,0.000
1644362247559362048,2022-02-08-23:17:27,10.1.1.6,23,0.000,0.000,0.000,0.000,0.000,0.000
1644362248079479808,2022-02-08-23:17:28,10.1.1.6,39,0.050,0.050,0.050,0.000,0.000,0.000
1644362248169634048,2022-02-08-23:17:28,10.1.1.6,29,0.060,0.060,0.060,0.000,0.000,0.000
1644362248279890176,2022-02-08-23:17:28,10.1.1.6,39,0.070,0.070,0.070,0.000,0.000,0.000
1644362248379395072,2022-02-08-23:17:28,10.1.1.6,38,0.080,0.080,0.080,0.000,0.000,0.000
1644362248479599104,2022-02-08-23:17:28,10.1.1.6,38,0.090,0.090,0.090,0.000,0.000,0.000
1644362248571302912,2022-02-08-23:17:28,10.1.1.6,27,0.100,0.100,0.100,0.000,0.000,0.000
1644362248670445824,2022-02-08-23:17:28,10.1.1.6,27,0.090,0.090,0.090,0.000,0.000,0.000
1644362248779643136,2022-02-08-23:17:28,10.1.1.6,36,0.080,0.080,0.080,0.000,0.000,0.000
1644362248869405952,2022-02-08-23:17:28,10.1.1.6,26,0.070,0.070,0.070,0.000,0.000,0.000
1644362248979631872,2022-02-08-23:17:28,10.1.1.6,35,0.060,0.060,0.060,0.000,0.000,0.000
1644362249079857152,2022-02-08-23:17:29,10.1.1.6,34,0.050,0.050,0.050,0.000,0.000,0.000
1644362249179777024,2022-02-08-23:17:29,10.1.1.6,34,0.040,0.040,0.040,0.000,0.000,0.000
1644362249269725184,2022-02-08-23:17:29,10.1.1.6,24,0.030,0.030,0.030,0.000,0.000,0.000
1644362249779505920,2022-02-08-23:17:29,10.1.1.6,29,-0.020,-0.020,-0.020,0.000,0.000,0.000
1644362249889384960,2022-02-08-23:17:29,10.1.1.6,39,-0.030,-0.030,-0.030,0.000,0.000,0.000
1644362249989260032,2022-02-08-23:17:29,10.1.1.6,39,-0.040,-0.040,-0.040,0.000,0.000,0.000
1644362250090481152,2022-02-08-23:17:30,10.1.1.6,38,-0.050,-0.050,-0.050,0.000,0.000,0.000
1644362250189732096,2022-02-08-23:17:30,10.1.1.6,38,-0.060,-0.060,-0.060,0.000,0.000,0.000
1644362250279337984,2022-02-08-23:17:30,10.1.1.6,27,-0.070,-0.070,-0.070,0.000,0.000,0.000
1644362250379055872,2022-02-08-23:17:30,10.1.1.6,26,-0.080,-0.080,-0.080,0.000,0.000,0.000
1644362250490670848,2022-02-08-23:17:30,10.1.1.6,35,-0.090,-0.090,-0.090,0.000,0.000,0.000
1644362250590244096,2022-02-08-23:17:30,10.1.1.6,35,-0.100,-0.100,-0.100,0.000,0.000,0.000
1644362250691394048,2022-02-08-23:17:30,10.1.1.6,34,-0.090,-0.090,-0.090,0.000,0.000,0.000
1644362251200838144,2022-02-08-23:17:31,10.1.1.6,40,-0.040,-0.040,-0.040,0.000,0.000,0.000
1644362251402189056,2022-02-08-23:17:31,10.1.1.6,26,-0.020,-0.020,-0.020,0.000,0.000,0.000
1644362251509177088,2022-02-08-23:17:31,10.1.1.6,35,-0.010,-0.010,-0.010,0.000,0.000,0.000
1644362251619555840,2022-02-08-23:17:31,10.1.1.6,44,0.000,0.000,0.000,0.000,0.000,0.000
1644362251699859968,2022-02-08-23:17:31,10.1.1.6,24,0.010,0.010,0.010,0.000,0.000,0.000
1644362251809256192,2022-02-08-23:17:31,10.1.1.6,34,0.020,0.020,0.020,0.000,0.000,0.000
1644362251913346048,2022-02-08-23:17:31,10.1.1.6,33,0.030,0.030,0.030,0.000,0.000,0.000
1644362252011986944,2022-02-08-23:17:32,10.1.1.6,33,0.040,0.040,0.040,0.000,0.000,0.000
1644362252510586112,2022-02-08-23:17:32,10.1.1.6,29,0.090,0.090,0.090,0.000,0.000,0.000
1644362252619574016,2022-02-08-23:17:32,10.1.1.6,37,0.100,0.100,0.100,0.000,0.000,0.000
1644362252711828992,2022-02-08-23:17:32,10.1.1.6,26,0.090,0.090,0.090,0.000,0.000,0.000
1644362252810877184,2022-02-08-23:17:32,10.1.1.6,25,0.080,0.080,0.080,0.000,0.000,0.000
1644362253429634048,2022-02-08-23:17:33,10.1.1.6,39,0.020,0.020,0.020,0.000,0.000,0.000
1644362253529836032,2022-02-08-23:17:33,10.1.1.6,38,0.010,0.010,0.010,0.000,0.000,0.000
1644362253639820032,2022-02-08-23:17:33,10.1.1.6,48,0.000,0.000,0.000,0.000,0.000,0.000
1644362253729643008,2022-02-08-23:17:33,10.1.1.6,37,-0.010,-0.010,-0.010,0.000,0.000,0.000
1644362253819335936,2022-02-08-23:17:33,10.1.1.6,27,-0.020,-0.020,-0.020,0.000,0.000,0.000
1644362253929747200,2022-02-08-23:17:33,10.1.1.6,37,-0.030,-0.030,-0.030,0.000,0.000,0.000
1644362254039828992,2022-02-08-23:17:34,10.1.1.6,46,-0.040,-0.040,-0.040,0.000,0.000,0.000
1644362254130214912,2022-02-08-23:17:34,10.1.1.6,35,-0.050,-0.050,-0.050,0.000,0.000,0.000
1644362254219727104,2022-02-08-23:17:34,10.1.1.6,25,-0.060,-0.060,-0.060,0.000,0.000,0.000
1644362254750866944,2022-02-08-23:17:34,10.1.1.6,40,-0.090,-0.090,-0.090,0.000,0.000,0.000
1644362254849936896,2022-02-08-23:17:34,10.1.1.6,39,-0.080,-0.080,-0.080,0.000,0.000,0.000
1644362254949753088,2022-02-08-23:17:34,10.1.1.6,38,-0.070,-0.070,-0.070,0.000,0.000,0.000
1644362255052081152,2022-02-08-23:17:35,10.1.1.6,38,-0.060,-0.060,-0.060,0.000,0.000,0.000
1644362255142067968,2022-02-08-23:17:35,10.1.1.6,27,-0.050,-0.050,-0.050,0.000,0.000,0.000
1644362255260445184,2022-02-08-23:17:35,10.1.1.6,46,-0.040,-0.040,-0.040,0.000,0.000,0.000
1644362255350435072,2022-02-08-23:17:35,10.1.1.6,36,-0.030,-0.030,-0.030,0.000,0.000,0.000
1644362255451540992,2022-02-08-23:17:35,10.1.1.6,35,-0.020,-0.020,-0.020,0.000,0.000,0.000
1644362255540653056,2022-02-08-23:17:35,10.1.1.6,24,-0.010,-0.010,-0.010,0.000,0.000,0.000
1644362255650652928,2022-02-08-23:17:35,10.1.1.6,34,0.000,0.000,0.000,0.000,0.000,0.000
1644362255753022976,2022-02-08-23:17:35,10.1.1.6,34,0.010,0.010,0.010,0.000,0.000,0.000
1644362255849505024,2022-02-08-23:17:35,10.1.1.6,33,0.020,0.020,0.020,0.000,0.000,0.000
1644362256450963968,2022-02-08-23:17:36,10.1.1.6,29,0.080,0.080,0.080,0.000,0.000,0.000
1644362256560563200,2022-02-08-23:17:36,10.1.1.6,39,0.090,0.090,0.090,0.000,0.000,0.000
1644362256660527104,2022-02-08-23:17:36,10.1.1.6,38,0.100,0.100,0.100,0.000,0.000,0.000
1644362256749753088,2022-02-08-23:17:36,10.1.1.6,28,0.090,0.090,0.090,0.000,0.000,0.000
1644362256861475840,2022-02-08-23:17:36,10.1.1.6,37,0.080,0.080,0.080,0.000,0.000,0.000
1644362256950596096,2022-02-08-23:17:36,10.1.1.6,27,0.070,0.070,0.070,0.000,0.000,0.000
1644362257061810944,2022-02-08-23:17:37,10.1.1.6,36,0.060,0.060,0.060,0.000,0.000,0.000
1644362257160496896,2022-02-08-23:17:37,10.1.1.6,36,0.050,0.050,0.050,0.000,0.000,0.000
1644362257261329920,2022-02-08-23:17:37,10.1.1.6,36,0.040,0.040,0.040,0.000,0.000,0.000
1644362257469809152,2022-02-08-23:17:37,10.1.1.6,33,0.020,0.020,0.020,0.000,0.000,0.000
1644362258170615040,2022-02-08-23:17:38,10.1.1.6,20,-0.050,-0.050,-0.050,0.000,0.000,0.000
1644362258280443904,2022-02-08-23:17:38,10.1.1.6,29,-0.060,-0.060,-0.060,0.000,0.000,0.000
1644362258400301824,2022-02-08-23:17:38,10.1.1.6,48,-0.070,-0.070,-0.070,0.000,0.000,0.000
1644362258501140224,2022-02-08-23:17:38,10.1.1.6,48,-0.080,-0.080,-0.080,0.000,0.000,0.000
1644362258591193856,2022-02-08-23:17:38,10.1.1.6,38,-0.090,-0.090,-0.090,0.000,0.000,0.000
1644362258681804800,2022-02-08-23:17:38,10.1.1.6,27,-0.100,-0.100,-0.100,0.000,0.000,0.000
1644362258779949824,2022-02-08-23:17:38,10.1.1.6,27,-0.090,-0.090,-0.090,0.000,0.000,0.000
1644362258879968000,2022-02-08-23:17:38,10.1.1.6,27,-0.080,-0.080,-0.080,0.000,0.000,0.000
1644362258980312064,2022-02-08-23:17:38,10.1.1.6,26,-0.070,-0.070,-0.070,0.000,0.000,0.000
1644362259080782848,2022-02-08-23:17:39,10.1.1.6,25,-0.060,-0.060,-0.060,0.000,0.000,0.000
1644362259180130048,2022-02-08-23:17:39,10.1.1.6,25,-0.050,-0.050,-0.050,0.000,0.000,0.000
1644362259290987008,2022-02-08-23:17:39,10.1.1.6,35,-0.040,-0.040,-0.040,0.000,0.000,0.000
1644362259381392896,2022-02-08-23:17:39,10.1.1.6,24,-0.030,-0.030,-0.030,0.000,0.000,0.000
1644362259491718144,2022-02-08-23:17:39,10.1.1.6,34,-0.020,-0.020,-0.020,0.000,0.000,0.000
1644362260301236992,2022-02-08-23:17:40,10.1.1.6,39,0.060,0.060,0.060,0.000,0.000,0.000
1644362260389718016,2022-02-08-23:17:40,10.1.1.6,28,0.070,0.070,0.070,0.000,0.000,0.000
1644362260501080064,2022-02-08-23:17:40,10.1.1.6,38,0.080,0.080,0.080,0.000,0.000,0.000
1644362260592166912,2022-02-08-23:17:40,10.1.1.6,27,0.090,0.090,0.090,0.000,0.000,0.000
1644362260700944896,2022-02-08-23:17:40,10.1.1.6,37,0.100,0.100,0.100,0.000,0.000,0.000
1644362260799584000,2022-02-08-23:17:40,10.1.1.6,36,0.090,0.090,0.090,0.000,0.000,0.000
1644362261220564992,2022-02-08-23:17:41,10.1.1.6,41,0.050,0.050,0.050,0.000,0.000,0.000
1644362261512099072,2022-02-08-23:17:41,10.1.1.6,29,0.020,0.020,0.020,0.000,0.000,0.000
1644362261721419008,2022-02-08-23:17:41,10.1.1.6,37,0.000,0.000,0.000,0.000,0.000,0.000
1644362261822403840,2022-02-08-23:17:41,10.1.1.6,37,-0.010,-0.010,-0.010,0.000,0.000,0.000
1644362261922429184,2022-02-08-23:17:41,10.1.1.6,37,-0.020,-0.020,-0.020,0.000,0.000,0.000
1644362262021289216,2022-02-08-23:17:42,10.1.1.6,36,-0.030,-0.030,-0.030,0.000,0.000,0.000
1644362262123075072,2022-02-08-23:17:42,10.1.1.6,35,-0.040,-0.040,-0.040,0.000,0.000,0.000
1644362262219875072,2022-02-08-23:17:42,10.1.1.6,34,-0.050,-0.050,-0.050,0.000,0.000,0.000
1644362262311831040,2022-02-08-23:17:42,10.1.1.6,23,-0.060,-0.060,-0.060,0.000,0.000,0.000
1644362262423181056,2022-02-08-23:17:42,10.1.1.6,32,-0.070,-0.070,-0.070,0.000,0.000,0.000
1644362263000905984,2022-02-08-23:17:43,10.1.1.6,8,-0.070,-0.070,-0.070,0.000,0.000,0.000
1644362263142242048,2022-02-08-23:17:43,10.1.1.6,48,-0.060,-0.060,-0.060,0.000,0.000,0.000
1644362263220866048,2022-02-08-23:17:43,10.1.1.6,27,-0.050,-0.050,-0.050,0.000,0.000,0.000
1644362263320672000,2022-02-08-23:17:43,10.1.1.6,26,-0.040,-0.040,-0.040,0.000,0.000,0.000
1644362263421040896,2022-02-08-23:17:43,10.1.1.6,26,-0.030,-0.030,-0.030,0.000,0.000,0.000
1644362263531824128,2022-02-08-23:17:43,10.1.1.6,35,-0.020,-0.020,-0.020,0.000,0.000,0.000
1644362263633232128,2022-02-08-23:17:43,10.1.1.6,34,-0.010,-0.010,-0.010,0.000,0.000,0.000
1644362263719728896,2022-02-08-23:17:43,10.1.1.6,23,0.000,0.000,0.000,0.000,0.000,0.000
1644362263841367040,2022-02-08-23:17:43,10.1.1.6,43,0.010,0.010,0.010,0.000,0.000,0.000
1644362264340244992,2022-02-08-23:17:44,10.1.1.6,39,0.060,0.060,0.060,0.000,0.000,0.000
1644362264439493888,2022-02-08-23:17:44,10.1.1.6,38,0.070,0.070,0.070,0.000,0.000,0.000
1644362264532244992,2022-02-08-23:17:44,10.1.1.6,28,0.080,0.080,0.080,0.000,0.000,0.000
1644362264641752832,2022-02-08-23:17:44,10.1.1.6,37,0.090,0.090,0.090,0.000,0.000,0.000
1644362264740001792,2022-02-08-23:17:44,10.1.1.6,37,0.100,0.100,0.100,0.000,0.000,0.000
1644362264841121792,2022-02-08-23:17:44,10.1.1.6,36,0.090,0.090,0.090,0.000,0.000,0.000
1644362264940761088,2022-02-08-23:17:44,10.1.1.6,35,0.080,0.080,0.080,0.000,0.000,0.000
1644362265042747136,2022-02-08-23:17:45,10.1.1.6,35,0.070,0.070,0.070,0.000,0.000,0.000
1644362265143030784,2022-02-08-23:17:45,10.1.1.6,34,0.060,0.060,0.060,0.000,0.000,0.000
1644362265243055104,2022-02-08-23:17:45,10.1.1.6,33,0.050,0.050,0.050,0.000,0.000,0.000
1644362265342977024,2022-02-08-23:17:45,10.1.1.6,32,0.040,0.040,0.040,0.000,0.000,0.000
1644362265739778048,2022-02-08-23:17:45,10.1.1.6,29,0.000,0.000,0.000,0.000,0.000,0.000
1644362265840137984,2022-02-08-23:17:45,10.1.1.6,28,-0.010,-0.010,-0.010,0.000,0.000,0.000
1644362265942595840,2022-02-08-23:17:45,10.1.1.6,28,-0.020,-0.020,-0.020,0.000,0.000,0.000
1644362266042956032,2022-02-08-23:17:46,10.1.1.6,27,-0.030,-0.030,-0.030,0.000,0.000,0.000
1644362266160911104,2022-02-08-23:17:46,10.1.1.6,46,-0.040,-0.040,-0.040,0.000,0.000,0.000
1644362266241702144,2022-02-08-23:17:46,10.1.1.6,26,-0.050,-0.050,-0.050,0.000,0.000,0.000
1644362266360584960,2022-02-08-23:17:46,10.1.1.6,45,-0.060,-0.060,-0.060,0.000,0.000,0.000
1644362266460666880,2022-02-08-23:17:46,10.1.1.6,44,-0.070,-0.070,-0.070,0.000,0.000,0.000
1644362266561552896,2022-02-08-23:17:46,10.1.1.6,44,-0.080,-0.080,-0.080,0.000,0.000,0.000
1644362266642412032,2022-02-08-23:17:46,10.1.1.6,23,-0.090,-0.090,-0.090,0.000,0.000,0.000
1644362266740417024,2022-02-08-23:17:46,10.1.1.6,22,-0.100,-0.100,-0.100,0.000,0.000,0.000
1644362267152658944,2022-02-08-23:17:47,10.1.1.6,29,-0.060,-0.060,-0.060,0.000,0.000,0.000
1644362267253774848,2022-02-08-23:17:47,10.1.1.6,29,-0.050,-0.050,-0.050,0.000,0.000,0.000
1644362267360291072,2022-02-08-23:17:47,10.1.1.6,37,-0.040,-0.040,-0.040,0.000,0.000,0.000
1644362267459630848,2022-02-08-23:17:47,10.1.1.6,36,-0.030,-0.030,-0.030,0.000,0.000,0.000
1644362267551407104,2022-02-08-23:17:47,10.1.1.6,26,-0.020,-0.020,-0.020,0.000,0.000,0.000
1644362267660455936,2022-02-08-23:17:47,10.1.1.6,35,-0.010,-0.010,-0.010,0.000,0.000,0.000
1644362267760313088,2022-02-08-23:17:47,10.1.1.6,35,0.000,0.000,0.000,0.000,0.000,0.000
1644362267860068096,2022-02-08-23:17:47,10.1.1.6,34,0.010,0.010,0.010,0.000,0.000,0.000
1644362267960786176,2022-02-08-23:17:47,10.1.1.6,34,0.020,0.020,0.020,0.000,0.000,0.000
1644362268060089088,2022-02-08-23:17:48,10.1.1.6,33,0.030,0.030,0.030,0.000,0.000,0.000
1644362268159982080,2022-02-08-23:17:48,10.1.1.6,33,0.040,0.040,0.040,0.000,0.000,0.000
1644362268260237824,2022-02-08-23:17:48,10.1.1.6,33,0.050,0.050,0.050,0.000,0.000,0.000
1644362268360305152,2022-02-08-23:17:48,10.1.1.6,32,0.060,0.060,0.060,0.000,0.000,0.000
1644362268959793152,2022-02-08-23:17:48,10.1.1.6,29,0.080,0.080,0.080,0.000,0.000,0.000
1644362269080431872,2022-02-08-23:17:49,10.1.1.6,49,0.070,0.070,0.070,0.000,0.000,0.000
1644362269160284160,2022-02-08-23:17:49,10.1.1.6,28,0.060,0.060,0.060,0.000,0.000,0.000
1644362269259953920,2022-02-08-23:17:49,10.1.1.6,28,0.050,0.050,0.050,0.000,0.000,0.000
1644362269379533056,2022-02-08-23:17:49,10.1.1.6,48,0.040,0.040,0.040,0.000,0.000,0.000
1644362269460236032,2022-02-08-23:17:49,10.1.1.6,27,0.030,0.030,0.030,0.000,0.000,0.000
1644362269579684096,2022-02-08-23:17:49,10.1.1.6,47,0.020,0.020,0.020,0.000,0.000,0.000
1644362269660303104,2022-02-08-23:17:49,10.1.1.6,27,0.010,0.010,0.010,0.000,0.000,0.000
1644362269769748992,2022-02-08-23:17:49,10.1.1.6,36,0.000,0.000,0.000,0.000,0.000,0.000
1644362269880798976,2022-02-08-23:17:49,10.1.1.6,46,-0.010,-0.010,-0.010,0.000,0.000,0.000
1644362269959988992,2022-02-08-23:17:49,10.1.1.6,25,-0.020,-0.020,-0.020,0.000,0.000,0.000
1644362270059723008,2022-02-08-23:17:50,10.1.1.6,24,-0.030,-0.030,-0.030,0.000,0.000,0.000
1644362270179846144,2022-02-08-23:17:50,10.1.1.6,44,-0.040,-0.040,-0.040,0.000,0.000,0.000
1644362270279910144,2022-02-08-23:17:50,10.1.1.6,43,-0.050,-0.050,-0.050,0.000,0.000,0.000
1644362270379569920,2022-02-08-23:17:50,10.1.1.6,43,-0.060,-0.060,-0.060,0.000,0.000,0.000
1644362270480161024,2022-02-08-23:17:50,10.1.1.6,43,-0.070,-0.070,-0.070,0.000,0.000,0.000
1644362270670437120,2022-02-08-23:17:50,10.1.1.6,29,-0.090,-0.090,-0.090,0.000,0.000,0.000
1644362270780279040,2022-02-08-23:17:50,10.1.1.6,39,-0.100,-0.100,-0.100,0.000,0.000,0.000
1644362270880146944,2022-02-08-23:17:50,10.1.1.6,38,-0.090,-0.090,-0.090,0.000,0.000,0.000
1644362270970984960,2022-02-08-23:17:50,10.1.1.6,28,-0.080,-0.080,-0.080,0.000,0.000,0.000
1644362271072216064,2022-02-08-23:17:51,10.1.1.6,27,-0.070,-0.070,-0.070,0.000,0.000,0.000
1644362271170612992,2022-02-08-23:17:51,10.1.1.6,27,-0.060,-0.060,-0.060,0.000,0.000,0.000
1644362271280481024,2022-02-08-23:17:51,10.1.1.6,36,-0.050,-0.050,-0.050,0.000,0.000,0.000
1644362271380389888,2022-02-08-23:17:51,10.1.1.6,36,-0.040,-0.040,-0.040,0.000,0.000,0.000
1644362271480317952,2022-02-08-23:17:51,10.1.1.6,35,-0.030,-0.030,-0.030,0.000,0.000,0.000
1644362271581044992,2022-02-08-23:17:51,10.1.1.6,35,-0.020,-0.020,-0.020,0.000,0.000,0.000
1644362271671106048,2022-02-08-23:17:51,10.1.1.6,24,-0.010,-0.010,-0.010,0.000,0.000,0.000
1644362271780060928,2022-02-08-23:17:51,10.1.1.6,34,0.000,0.000,0.000,0.000,0.000,0.000
1644362271880722944,2022-02-08-23:17:51,10.1.1.6,33,0.010,0.010,0.010,0.000,0.000,0.000
1644362271980390912,2022-02-08-23:17:51,10.1.1.6,32,0.020,0.020,0.020,0.000,0.000,0.000
1644362272380645120,2022-02-08-23:17:52,10.1.1.6,29,0.060,0.060,0.060,0.000,0.000,0.000
1644362272480451072,2022-02-08-23:17:52,10.1.1.6,28,0.070,0.070,0.070,0.000,0.000,0.000
1644362272590392064,2022-02-08-23:17:52,10.1.1.6,37,0.080,0.080,0.080,0.000,0.000,0.000
1644362272680449024,2022-02-08-23:17:52,10.1.1.6,27,0.090,0.090,0.090,0.000,0.000,0.000
1644362272800535040,2022-02-08-23:17:52,10.1.1.6,46,0.100,0.100,0.100,0.000,0.000,0.000
1644362272880368896,2022-02-08-23:17:52,10.1.1.6,26,0.090,0.090,0.090,0.000,0.000,0.000
1644362272990642944,2022-02-08-23:17:52,10.1.1.6,36,0.080,0.080,0.080,0.000,0.000,0.000
1644362273080662016,2022-02-08-23:17:53,10.1.1.6,25,0.070,0.070,0.070,0.000,0.000,0.000
1644362273191636992,2022-02-08-23:17:53,10.1.1.6,35,0.060,0.060,0.060,0.000,0.000,0.000
1644362273280441088,2022-02-08-23:17:53,10.1.1.6,24,0.050,0.050,0.050,0.000,0.000,0.000
1644362273390739968,2022-02-08-23:17:53,10.1.1.6,34,0.040,0.040,0.040,0.000,0.000,0.000
1644362273480431104,2022-02-08-23:17:53,10.1.1.6,22,0.030,0.030,0.030,0.000,0.000,0.000
1644362273580465920,2022-02-08-23:17:53,10.1.1.6,20,0.020,0.020,0.020,0.000,0.000,0.000
1644362273700606208,2022-02-08-23:17:53,10.1.1.6,39,0.010,0.010,0.010,0.000,0.000,0.000
1644362273800129024,2022-02-08-23:17:53,10.1.1.6,38,0.000,0.000,0.000,0.000,0.000,0.000
1644362273900684032,2022-02-08-23:17:53,10.1.1.6,37,-0.010,-0.010,-0.010,0.000,0.000,0.000
1644362274000483072,2022-02-08-23:17:54,10.1.1.6,36,-0.020,-0.020,-0.020,0.000,0.000,0.000
1644362274100378112,2022-02-08-23:17:54,10.1.1.6,36,-0.030,-0.030,-0.030,0.000,0.000,0.000
1644362274201127936,2022-02-08-23:17:54,10.1.1.6,36,-0.040,-0.040,-0.040,0.000,0.000,0.000
1644362274292355072,2022-02-08-23:17:54,10.1.1.6,25,-0.050,-0.050,-0.050,0.000,0.000,0.000
1644362274390852864,2022-02-08-23:17:54,10.1.1.6,25,-0.060,-0.060,-0.060,0.000,0.000,0.000
1644362274500261120,2022-02-08-23:17:54,10.1.1.6,34,-0.070,-0.070,-0.070,0.000,0.000,0.000
1644362274590290176,2022-02-08-23:17:54,10.1.1.6,24,-0.080,-0.080,-0.080,0.000,0.000,0.000
1644362274700488192,2022-02-08-23:17:54,10.1.1.6,33,-0.090,-0.090,-0.090,0.000,0.000,0.000
1644362274800189952,2022-02-08-23:17:54,10.1.1.6,33,-0.100,-0.100,-0.100,0.000,0.000,0.000
1644362274899652096,2022-02-08-23:17:54,10.1.1.6,32,-0.090,-0.090,-0.090,0.000,0.000,0.000
1644362275000352000,2022-02-08-23:17:55,10.1.1.6,32,-0.080,-0.080,-0.080,0.000,0.000,0.000
1644362275510281984,2022-02-08-23:17:55,10.1.1.6,39,-0.030,-0.030,-0.030,0.000,0.000,0.000
1644362275600155136,2022-02-08-23:17:55,10.1.1.6,28,-0.020,-0.020,-0.020,0.000,0.000,0.000
1644362275700308992,2022-02-08-23:17:55,10.1.1.6,27,-0.010,-0.010,-0.010,0.000,0.000,0.000
1644362275800303104,2022-02-08-23:17:55,10.1.1.6,27,0.000,0.000,0.000,0.000,0.000,0.000
1644362275900745984,2022-02-08-23:17:55,10.1.1.6,27,0.010,0.010,0.010,0.000,0.000,0.000
1644362276000665856,2022-02-08-23:17:56,10.1.1.6,26,0.020,0.020,0.020,0.000,0.000,0.000
1644362276101001984,2022-02-08-23:17:56,10.1.1.6,26,0.030,0.030,0.030,0.000,0.000,0.000
1644362276200162816,2022-02-08-23:17:56,10.1.1.6,25,0.040,0.040,0.040,0.000,0.000,0.000
1644362276320455936,2022-02-08-23:17:56,10.1.1.6,44,0.050,0.050,0.050,0.000,0.000,0.000
1644362276400160000,2022-02-08-23:17:56,10.1.1.6,24,0.060,0.060,0.060,0.000,0.000,0.000
1644362276500579072,2022-02-08-23:17:56,10.1.1.6,23,0.070,0.070,0.070,0.000,0.000,0.000
1644362276599900928,2022-02-08-23:17:56,10.1.1.6,23,0.080,0.080,0.080,0.000,0.000,0.000
1644362277000711936,2022-02-08-23:17:57,10.1.1.6,19,0.080,0.080,0.080,0.000,0.000,0.000
1644362277111942912,2022-02-08-23:17:57,10.1.1.6,30,0.070,0.070,0.070,0.000,0.000,0.000
1644362277210349056,2022-02-08-23:17:57,10.1.1.6,28,0.060,0.060,0.060,0.000,0.000,0.000
1644362277320393984,2022-02-08-23:17:57,10.1.1.6,38,0.050,0.050,0.050,0.000,0.000,0.000
1644362277420039936,2022-02-08-23:17:57,10.1.1.6,37,0.040,0.040,0.040,0.000,0.000,0.000
1644362277510801152,2022-02-08-23:17:57,10.1.1.6,27,0.030,0.030,0.030,0.000,0.000,0.000
1644362277620328960,2022-02-08-23:17:57,10.1.1.6,36,0.020,0.020,0.020,0.000,0.000,0.000
1644362277720026880,2022-02-08-23:17:57,10.1.1.6,36,0.010,0.010,0.010,0.000,0.000,0.000
1644362277820496128,2022-02-08-23:17:57,10.1.1.6,36,0.000,0.000,0.000,0.000,0.000,0.000
1644362277920867072,2022-02-08-23:17:57,10.1.1.6,35,-0.010,-0.010,-0.010,0.000,0.000,0.000
1644362278020615936,2022-02-08-23:17:58,10.1.1.6,34,-0.020,-0.020,-0.020,0.000,0.000,0.000
1644362278112536064,2022-02-08-23:17:58,10.1.1.6,24,-0.030,-0.030,-0.030,0.000,0.000,0.000
1644362278211351040,2022-02-08-23:17:58,10.1.1.6,23,-0.040,-0.040,-0.040,0.000,0.000,0.000
1644362278820946944,2022-02-08-23:17:58,10.1.1.6,29,-0.100,-0.100,-0.100,0.000,0.000,0.000
1644362278920903936,2022-02-08-23:17:58,10.1.1.6,29,-0.090,-0.090,-0.090,0.000,0.000,0.000
1644362279040636160,2022-02-08-23:17:59,10.1.1.6,48,-0.080,-0.080,-0.080,0.000,0.000,0.000
1644362279140422144,2022-02-08-23:17:59,10.1.1.6,47,-0.070,-0.070,-0.070,0.000,0.000,0.000
1644362279220848128,2022-02-08-23:17:59,10.1.1.6,27,-0.060,-0.060,-0.060,0.000,0.000,0.000
1644362279321400832,2022-02-08-23:17:59,10.1.1.6,27,-0.050,-0.050,-0.050,0.000,0.000,0.000
1644362279421075968,2022-02-08-23:17:59,10.1.1.6,26,-0.040,-0.040,-0.040,0.000,0.000,0.000
1644362279520390144,2022-02-08-23:17:59,10.1.1.6,25,-0.030,-0.030,-0.030,0.000,0.000,0.000
1644362279620291840,2022-02-08-23:17:59,10.1.1.6,25,-0.020,-0.020,-0.020,0.000,0.000,0.000
1644362279721074944,2022-02-08-23:17:59,10.1.1.6,24,-0.010,-0.010,-0.010,0.000,0.000,0.000
1644362279820779008,2022-02-08-23:17:59,10.1.1.6,24,0.000,0.000,0.000,0.000,0.000,0.000
1644362279923489024,2022-02-08-23:17:59,10.1.1.6,24,0.010,0.010,0.010,0.000,0.000,0.000
1644362280021682944,2022-02-08-23:18:00,10.1.1.6,23,0.020,0.020,0.020,0.000,0.000,0.000
1644362280141427968,2022-02-08-23:18:00,10.1.1.6,43,0.030,0.030,0.030,0.000,0.000,0.000
1644362280220761088,2022-02-08-23:18:00,10.1.1.6,23,0.040,0.040,0.040,0.000,0.000,0.000
1644362280340348928,2022-02-08-23:18:00,10.1.1.6,42,0.050,0.050,0.050,0.000,0.000,0.000
1644362280840833792,2022-02-08-23:18:00,10.1.1.6,39,0.100,0.100,0.100,0.000,0.000,0.000
1644362280940787200,2022-02-08-23:18:00,10.1.1.6,38,0.090,0.090,0.090,0.000,0.000,0.000
1644362281040877056,2022-02-08-23:18:01,10.1.1.6,38,0.080,0.080,0.080,0.000,0.000,0.000
1644362281141690112,2022-02-08-23:18:01,10.1.1.6,36,0.070,0.070,0.070,0.000,0.000,0.000
1644362281240411136,2022-02-08-23:18:01,10.1.1.6,35,0.060,0.060,0.060,0.000,0.000,0.000
1644362281341144064,2022-02-08-23:18:01,10.1.1.6,35,0.050,0.050,0.050,0.000,0.000,0.000
1644362281440438016,2022-02-08-23:18:01,10.1.1.6,34,0.040,0.040,0.040,0.000,0.000,0.000
1644362281540200960,2022-02-08-23:18:01,10.1.1.6,34,0.030,0.030,0.030,0.000,0.000,0.000
1644362281640553984,2022-02-08-23:18:01,10.1.1.6,33,0.020,0.020,0.020,0.000,0.000,0.000
1644362281740546816,2022-02-08-23:18:01,10.1.1.6,33,0.010,0.010,0.010,0.000,0.000,0.000
1644362282160701952,2022-02-08-23:18:02,10.1.1.6,42,-0.030,-0.030,-0.030,0.000,0.000,0.000
1644362282240907008,2022-02-08-23:18:02,10.1.1.6,22,-0.040,-0.040,-0.040,0.000,0.000,0.000
1644362282641179136,2022-02-08-23:18:02,10.1.1.6,20,-0.080,-0.080,-0.080,0.000,0.000,0.000
1644362282760788992,2022-02-08-23:18:02,10.1.1.6,39,-0.090,-0.090,-0.090,0.000,0.000,0.000
