FedericoMungari/DigitalTwin_service/01_WiredScenario/Output/Output_script/script_rosapi_2_output_robots8_freq0_2.txt
timestamp,date,node,latency,joint_1,joint_2,joint_3,joint_4,joint_5,joint_6
1644350894670119168,2022-02-08-20:08:14,10.1.1.3,2,-0.100,-0.100,-0.100,0.000,-0.000,-0.000
1644350894789863936,2022-02-08-20:08:14,10.1.1.3,22,-0.090,-0.090,-0.090,0.000,0.000,0.000
1644350894890607104,2022-02-08-20:08:14,10.1.1.3,20,-0.080,-0.080,-0.080,0.000,0.000,0.000
1644350894990031872,2022-02-08-20:08:14,10.1.1.3,20,-0.070,-0.070,-0.070,0.000,0.000,0.000
1644350895090946816,2022-02-08-20:08:15,10.1.1.3,20,-0.061,-0.061,-0.061,0.000,0.000,0.000
1644350895210799872,2022-02-08-20:08:15,10.1.1.3,38,-0.050,-0.050,-0.050,0.000,0.000,0.000
1644350895310482944,2022-02-08-20:08:15,10.1.1.3,38,-0.040,-0.040,-0.040,0.000,0.000,0.000
1644350895410235904,2022-02-08-20:08:15,10.1.1.3,37,-0.030,-0.030,-0.030,0.000,0.000,0.000
1644350895511270912,2022-02-08-20:08:15,10.1.1.3,36,-0.020,-0.020,-0.020,0.000,0.000,0.000
1644350895610036992,2022-02-08-20:08:15,10.1.1.3,35,-0.010,-0.010,-0.010,0.000,0.000,0.000
1644350895710509056,2022-02-08-20:08:15,10.1.1.3,35,0.000,0.000,0.000,0.000,0.000,0.000
1644350895810828032,2022-02-08-20:08:15,10.1.1.3,34,0.010,0.010,0.010,0.000,0.000,0.000
1644350895910900992,2022-02-08-20:08:15,10.1.1.3,33,0.020,0.020,0.020,0.000,0.000,0.000
1644350896011488000,2022-02-08-20:08:16,10.1.1.3,33,0.030,0.030,0.030,0.000,0.000,0.000
1644350896110778112,2022-02-08-20:08:16,10.1.1.3,32,0.040,0.040,0.040,0.000,0.000,0.000
1644350896210654976,2022-02-08-20:08:16,10.1.1.3,32,0.050,0.050,0.050,0.000,0.000,0.000
1644350896310974976,2022-02-08-20:08:16,10.1.1.3,31,0.060,0.060,0.060,0.000,0.000,0.000
1644350896411184128,2022-02-08-20:08:16,10.1.1.3,29,0.070,0.070,0.070,0.000,0.000,0.000
1644350896510469888,2022-02-08-20:08:16,10.1.1.3,28,0.080,0.080,0.080,0.000,0.000,0.000
1644350896611872000,2022-02-08-20:08:16,10.1.1.3,28,0.090,0.090,0.090,0.000,0.000,0.000
1644350896710649856,2022-02-08-20:08:16,10.1.1.3,26,0.100,0.100,0.100,0.000,0.000,0.000
1644350896811484928,2022-02-08-20:08:16,10.1.1.3,25,0.090,0.090,0.090,0.000,0.000,0.000
1644350896910363904,2022-02-08-20:08:16,10.1.1.3,24,0.080,0.080,0.080,0.000,0.000,0.000
1644350897011068160,2022-02-08-20:08:17,10.1.1.3,23,0.070,0.070,0.070,0.000,0.000,0.000
1644350897110918912,2022-02-08-20:08:17,10.1.1.3,22,0.060,0.060,0.060,0.000,0.000,0.000
1644350897210622976,2022-02-08-20:08:17,10.1.1.3,21,0.050,0.050,0.050,0.000,0.000,0.000
1644350897311448064,2022-02-08-20:08:17,10.1.1.3,20,0.040,0.040,0.040,0.000,0.000,0.000
1644350897410423040,2022-02-08-20:08:17,10.1.1.3,20,0.030,0.030,0.030,0.000,0.000,0.000
1644350897510232832,2022-02-08-20:08:17,10.1.1.3,19,0.020,0.020,0.020,0.000,0.000,0.000
1644350897630446080,2022-02-08-20:08:17,10.1.1.3,38,0.010,0.010,0.010,0.000,0.000,0.000
1644350897730768896,2022-02-08-20:08:17,10.1.1.3,38,0.000,0.000,0.000,0.000,0.000,0.000
1644350897830199040,2022-02-08-20:08:17,10.1.1.3,37,-0.010,-0.010,-0.010,0.000,0.000,0.000
1644350897931122176,2022-02-08-20:08:17,10.1.1.3,36,-0.020,-0.020,-0.020,0.000,0.000,0.000
1644350898031153920,2022-02-08-20:08:18,10.1.1.3,33,-0.030,-0.030,-0.030,0.000,0.000,0.000
1644350898130312960,2022-02-08-20:08:18,10.1.1.3,32,-0.040,-0.040,-0.040,0.000,0.000,0.000
1644350898230596096,2022-02-08-20:08:18,10.1.1.3,32,-0.050,-0.050,-0.050,0.000,0.000,0.000
1644350898331602944,2022-02-08-20:08:18,10.1.1.3,31,-0.060,-0.060,-0.060,0.000,0.000,0.000
1644350898430543872,2022-02-08-20:08:18,10.1.1.3,31,-0.070,-0.070,-0.070,0.000,0.000,0.000
1644350898530923008,2022-02-08-20:08:18,10.1.1.3,29,-0.080,-0.080,-0.080,0.000,0.000,0.000
1644350898630981888,2022-02-08-20:08:18,10.1.1.3,28,-0.090,-0.090,-0.090,0.000,0.000,0.000
1644350898731092992,2022-02-08-20:08:18,10.1.1.3,28,-0.100,-0.100,-0.100,0.000,0.000,0.000
1644350898831401984,2022-02-08-20:08:18,10.1.1.3,27,-0.090,-0.090,-0.090,0.000,0.000,0.000
1644350898930810880,2022-02-08-20:08:18,10.1.1.3,26,-0.080,-0.080,-0.080,0.000,0.000,0.000
1644350899030224128,2022-02-08-20:08:19,10.1.1.3,25,-0.070,-0.070,-0.070,0.000,0.000,0.000
1644350899130587136,2022-02-08-20:08:19,10.1.1.3,25,-0.060,-0.060,-0.060,0.000,0.000,0.000
1644350899230686976,2022-02-08-20:08:19,10.1.1.3,24,-0.050,-0.050,-0.050,0.000,0.000,0.000
1644350899331904768,2022-02-08-20:08:19,10.1.1.3,24,-0.040,-0.040,-0.040,0.000,0.000,0.000
1644350899430051072,2022-02-08-20:08:19,10.1.1.3,23,-0.030,-0.030,-0.030,0.000,0.000,0.000
1644350899530528000,2022-02-08-20:08:19,10.1.1.3,22,-0.020,-0.020,-0.020,0.000,0.000,0.000
1644350899630601984,2022-02-08-20:08:19,10.1.1.3,21,-0.010,-0.010,-0.010,0.000,0.000,0.000
1644350899730384128,2022-02-08-20:08:19,10.1.1.3,21,0.000,0.000,0.000,0.000,0.000,0.000
1644350899831439872,2022-02-08-20:08:19,10.1.1.3,20,0.010,0.010,0.010,0.000,0.000,0.000
1644350899950851072,2022-02-08-20:08:19,10.1.1.3,38,0.020,0.020,0.020,0.000,0.000,0.000
1644350900050644992,2022-02-08-20:08:20,10.1.1.3,38,0.030,0.030,0.030,0.000,0.000,0.000
1644350900150531072,2022-02-08-20:08:20,10.1.1.3,37,0.040,0.040,0.040,0.000,0.000,0.000
1644350900250468864,2022-02-08-20:08:20,10.1.1.3,36,0.050,0.050,0.050,0.000,0.000,0.000
1644350900350393088,2022-02-08-20:08:20,10.1.1.3,36,0.060,0.060,0.060,0.000,0.000,0.000
1644350900450604800,2022-02-08-20:08:20,10.1.1.3,35,0.070,0.070,0.070,0.000,0.000,0.000
1644350900549678080,2022-02-08-20:08:20,10.1.1.3,34,0.080,0.080,0.080,0.000,0.000,0.000
1644350900650603008,2022-02-08-20:08:20,10.1.1.3,34,0.090,0.090,0.090,0.000,0.000,0.000
1644350900750382848,2022-02-08-20:08:20,10.1.1.3,33,0.100,0.100,0.100,0.000,0.000,0.000
1644350900849946880,2022-02-08-20:08:20,10.1.1.3,32,0.090,0.090,0.090,0.000,0.000,0.000
1644350900950403840,2022-02-08-20:08:20,10.1.1.3,32,0.080,0.080,0.080,0.000,0.000,0.000
1644350901049857024,2022-02-08-20:08:21,10.1.1.3,32,0.070,0.070,0.070,0.000,0.000,0.000
1644350901150465024,2022-02-08-20:08:21,10.1.1.3,30,0.060,0.060,0.060,0.000,0.000,0.000
1644350901253563904,2022-02-08-20:08:21,10.1.1.3,29,0.050,0.050,0.050,0.000,0.000,0.000
1644350901351636992,2022-02-08-20:08:21,10.1.1.3,28,0.040,0.040,0.040,0.000,0.000,0.000
1644350901451524096,2022-02-08-20:08:21,10.1.1.3,28,0.030,0.030,0.030,0.000,0.000,0.000
1644350901550885888,2022-02-08-20:08:21,10.1.1.3,27,0.020,0.020,0.020,0.000,0.000,0.000
1644350901650763008,2022-02-08-20:08:21,10.1.1.3,27,0.010,0.010,0.010,0.000,0.000,0.000
1644350901751156992,2022-02-08-20:08:21,10.1.1.3,23,0.000,0.000,0.000,0.000,0.000,0.000
1644350901850123776,2022-02-08-20:08:21,10.1.1.3,23,-0.010,-0.010,-0.010,0.000,0.000,0.000
1644350902077594112,2022-02-08-20:08:22,10.1.1.3,29,-0.030,-0.030,-0.030,0.000,0.000,0.000
1644350902170479104,2022-02-08-20:08:22,10.1.1.3,28,-0.040,-0.040,-0.040,0.000,0.000,0.000
1644350902297647104,2022-02-08-20:08:22,10.1.1.3,37,-0.050,-0.050,-0.050,0.000,0.000,0.000
1644350902390315008,2022-02-08-20:08:22,10.1.1.3,36,-0.060,-0.060,-0.060,0.000,0.000,0.000
1644350902490454016,2022-02-08-20:08:22,10.1.1.3,35,-0.070,-0.070,-0.070,0.000,0.000,0.000
1644350902590244096,2022-02-08-20:08:22,10.1.1.3,35,-0.080,-0.080,-0.080,0.000,0.000,0.000
1644350902690321920,2022-02-08-20:08:22,10.1.1.3,34,-0.090,-0.090,-0.090,0.000,0.000,0.000
1644350902790309888,2022-02-08-20:08:22,10.1.1.3,34,-0.100,-0.100,-0.100,0.000,0.000,0.000
1644350902890011136,2022-02-08-20:08:22,10.1.1.3,33,-0.090,-0.090,-0.090,0.000,0.000,0.000
1644350902990042880,2022-02-08-20:08:22,10.1.1.3,32,-0.080,-0.080,-0.080,0.000,0.000,0.000
1644350903090356992,2022-02-08-20:08:23,10.1.1.3,32,-0.070,-0.070,-0.070,0.000,0.000,0.000
1644350903190483200,2022-02-08-20:08:23,10.1.1.3,31,-0.060,-0.060,-0.060,0.000,0.000,0.000
1644350903290532096,2022-02-08-20:08:23,10.1.1.3,30,-0.050,-0.050,-0.050,0.000,0.000,0.000
1644350903389857024,2022-02-08-20:08:23,10.1.1.3,29,-0.040,-0.040,-0.040,0.000,0.000,0.000
1644350903490174976,2022-02-08-20:08:23,10.1.1.3,29,-0.030,-0.030,-0.030,0.000,0.000,0.000
1644350903590095104,2022-02-08-20:08:23,10.1.1.3,28,-0.020,-0.020,-0.020,0.000,0.000,0.000
1644350903690344192,2022-02-08-20:08:23,10.1.1.3,27,-0.010,-0.010,-0.010,0.000,0.000,0.000
1644350903790707968,2022-02-08-20:08:23,10.1.1.3,27,0.000,0.000,0.000,0.000,0.000,0.000
1644350903890331136,2022-02-08-20:08:23,10.1.1.3,25,0.010,0.010,0.010,0.000,0.000,0.000
1644350903990124032,2022-02-08-20:08:23,10.1.1.3,25,0.020,0.020,0.020,0.000,0.000,0.000
1644350904090480128,2022-02-08-20:08:24,10.1.1.3,24,0.030,0.030,0.030,0.000,0.000,0.000
1644350904190107136,2022-02-08-20:08:24,10.1.1.3,22,0.040,0.040,0.040,0.000,0.000,0.000
1644350904290839808,2022-02-08-20:08:24,10.1.1.3,21,0.050,0.050,0.050,0.000,0.000,0.000
1644350904390747904,2022-02-08-20:08:24,10.1.1.3,20,0.060,0.060,0.060,0.000,0.000,0.000
1644350904490545152,2022-02-08-20:08:24,10.1.1.3,20,0.070,0.070,0.070,0.000,0.000,0.000
1644350904590429184,2022-02-08-20:08:24,10.1.1.3,19,0.079,0.079,0.079,0.000,0.000,0.000
1644350904710274816,2022-02-08-20:08:24,10.1.1.3,38,0.090,0.090,0.090,0.000,0.000,0.000
1644350904810010880,2022-02-08-20:08:24,10.1.1.3,35,0.100,0.100,0.100,0.000,0.000,0.000
1644350904910198016,2022-02-08-20:08:24,10.1.1.3,33,0.090,0.090,0.090,0.000,0.000,0.000
1644350905010706944,2022-02-08-20:08:25,10.1.1.3,33,0.080,0.080,0.080,0.000,0.000,0.000
1644350905250029056,2022-02-08-20:08:25,10.1.1.3,33,0.060,0.060,0.060,0.000,0.000,0.000
1644350905350107904,2022-02-08-20:08:25,10.1.1.3,33,0.050,0.050,0.050,0.000,0.000,0.000
1644350905455960064,2022-02-08-20:08:25,10.1.1.3,31,0.040,0.040,0.040,0.000,0.000,0.000
1644350905551897088,2022-02-08-20:08:25,10.1.1.3,27,0.030,0.030,0.030,0.000,0.000,0.000
1644350905650161920,2022-02-08-20:08:25,10.1.1.3,27,0.020,0.020,0.020,0.000,0.000,0.000
1644350905753273088,2022-02-08-20:08:25,10.1.1.3,25,0.010,0.010,0.010,0.000,0.000,0.000
1644350905850888960,2022-02-08-20:08:25,10.1.1.3,24,0.000,0.000,0.000,0.000,0.000,0.000
1644350905950212864,2022-02-08-20:08:25,10.1.1.3,24,-0.010,-0.010,-0.010,0.000,0.000,0.000
1644350906050450176,2022-02-08-20:08:26,10.1.1.3,23,-0.020,-0.020,-0.020,0.000,0.000,0.000
1644350906150491904,2022-02-08-20:08:26,10.1.1.3,22,-0.030,-0.030,-0.030,0.000,0.000,0.000
1644350906250834944,2022-02-08-20:08:26,10.1.1.3,22,-0.040,-0.040,-0.040,0.000,0.000,0.000
1644350906351147776,2022-02-08-20:08:26,10.1.1.3,21,-0.050,-0.050,-0.050,0.000,0.000,0.000
1644350906451308032,2022-02-08-20:08:26,10.1.1.3,20,-0.060,-0.060,-0.060,0.000,0.000,0.000
1644350906550492160,2022-02-08-20:08:26,10.1.1.3,20,-0.070,-0.070,-0.070,0.000,0.000,0.000
1644350906651843072,2022-02-08-20:08:26,10.1.1.3,18,-0.079,-0.079,-0.079,0.000,0.000,0.000
1644350906770644992,2022-02-08-20:08:26,10.1.1.3,37,-0.090,-0.090,-0.090,0.000,0.000,0.000
1644350906870925824,2022-02-08-20:08:26,10.1.1.3,37,-0.100,-0.100,-0.100,0.000,0.000,0.000
1644350906990999040,2022-02-08-20:08:26,10.1.1.3,36,-0.090,-0.090,-0.090,0.000,0.000,0.000
1644350907071301888,2022-02-08-20:08:27,10.1.1.3,34,-0.080,-0.080,-0.080,0.000,0.000,0.000
1644350907170097152,2022-02-08-20:08:27,10.1.1.3,31,-0.070,-0.070,-0.070,0.000,0.000,0.000
1644350907271011072,2022-02-08-20:08:27,10.1.1.3,30,-0.060,-0.060,-0.060,0.000,0.000,0.000
1644350907371300096,2022-02-08-20:08:27,10.1.1.3,29,-0.050,-0.050,-0.050,0.000,0.000,0.000
1644350907470062848,2022-02-08-20:08:27,10.1.1.3,28,-0.040,-0.040,-0.040,0.000,0.000,0.000
1644350907569960192,2022-02-08-20:08:27,10.1.1.3,27,-0.030,-0.030,-0.030,0.000,0.000,0.000
1644350907670599936,2022-02-08-20:08:27,10.1.1.3,27,-0.020,-0.020,-0.020,0.000,0.000,0.000
1644350907770636032,2022-02-08-20:08:27,10.1.1.3,25,-0.010,-0.010,-0.010,0.000,0.000,0.000
1644350907870248192,2022-02-08-20:08:27,10.1.1.3,24,0.000,0.000,0.000,0.000,0.000,0.000
1644350907970312960,2022-02-08-20:08:27,10.1.1.3,24,0.010,0.010,0.010,0.000,0.000,0.000
1644350908070817024,2022-02-08-20:08:28,10.1.1.3,23,0.020,0.020,0.020,0.000,0.000,0.000
1644350908170170112,2022-02-08-20:08:28,10.1.1.3,22,0.030,0.030,0.030,0.000,0.000,0.000
1644350908270167040,2022-02-08-20:08:28,10.1.1.3,22,0.040,0.040,0.040,0.000,0.000,0.000
1644350908370726144,2022-02-08-20:08:28,10.1.1.3,21,0.050,0.050,0.050,0.000,0.000,0.000
1644350908470548992,2022-02-08-20:08:28,10.1.1.3,20,0.060,0.060,0.060,0.000,0.000,0.000
1644350908570995968,2022-02-08-20:08:28,10.1.1.3,20,0.070,0.070,0.070,0.000,0.000,0.000
1644350908690313984,2022-02-08-20:08:28,10.1.1.3,38,0.080,0.080,0.080,0.000,0.000,0.000
1644350908790456064,2022-02-08-20:08:28,10.1.1.3,37,0.090,0.090,0.090,0.000,0.000,0.000
1644350908890494208,2022-02-08-20:08:28,10.1.1.3,36,0.100,0.100,0.100,0.000,0.000,0.000
1644350908990690048,2022-02-08-20:08:28,10.1.1.3,36,0.090,0.090,0.090,0.000,0.000,0.000
1644350909091134976,2022-02-08-20:08:29,10.1.1.3,35,0.080,0.080,0.080,0.000,0.000,0.000
1644350909190053888,2022-02-08-20:08:29,10.1.1.3,35,0.070,0.070,0.070,0.000,0.000,0.000
1644350909290329088,2022-02-08-20:08:29,10.1.1.3,33,0.060,0.060,0.060,0.000,0.000,0.000
1644350909390579968,2022-02-08-20:08:29,10.1.1.3,32,0.050,0.050,0.050,0.000,0.000,0.000
1644350909490861824,2022-02-08-20:08:29,10.1.1.3,32,0.040,0.040,0.040,0.000,0.000,0.000
1644350909590322944,2022-02-08-20:08:29,10.1.1.3,31,0.030,0.030,0.030,0.000,0.000,0.000
1644350909690670080,2022-02-08-20:08:29,10.1.1.3,30,0.020,0.020,0.020,0.000,0.000,0.000
1644350909790850048,2022-02-08-20:08:29,10.1.1.3,29,0.010,0.010,0.010,0.000,0.000,0.000
1644350909890554880,2022-02-08-20:08:29,10.1.1.3,29,0.000,0.000,0.000,0.000,0.000,0.000
1644350909991169024,2022-02-08-20:08:29,10.1.1.3,28,-0.010,-0.010,-0.010,0.000,0.000,0.000
1644350910091012096,2022-02-08-20:08:30,10.1.1.3,27,-0.020,-0.020,-0.020,0.000,0.000,0.000
1644350910190587136,2022-02-08-20:08:30,10.1.1.3,26,-0.030,-0.030,-0.030,0.000,0.000,0.000
1644350910290369024,2022-02-08-20:08:30,10.1.1.3,25,-0.040,-0.040,-0.040,0.000,0.000,0.000
1644350910390956032,2022-02-08-20:08:30,10.1.1.3,25,-0.050,-0.050,-0.050,0.000,0.000,0.000
1644350910490795008,2022-02-08-20:08:30,10.1.1.3,23,-0.060,-0.060,-0.060,0.000,0.000,0.000
1644350910590929152,2022-02-08-20:08:30,10.1.1.3,22,-0.070,-0.070,-0.070,0.000,0.000,0.000
1644350910691095040,2022-02-08-20:08:30,10.1.1.3,21,-0.080,-0.080,-0.080,0.000,0.000,0.000
1644350910791214080,2022-02-08-20:08:30,10.1.1.3,21,-0.090,-0.090,-0.090,0.000,0.000,0.000
1644350910890446848,2022-02-08-20:08:30,10.1.1.3,20,-0.100,-0.100,-0.100,0.000,0.000,0.000
1644350910989984000,2022-02-08-20:08:30,10.1.1.3,20,-0.090,-0.090,-0.090,0.000,0.000,0.000
1644350911091043072,2022-02-08-20:08:31,10.1.1.3,19,-0.080,-0.080,-0.080,0.000,0.000,0.000
1644350911210663168,2022-02-08-20:08:31,10.1.1.3,38,-0.070,-0.070,-0.070,0.000,0.000,0.000
1644350911310406912,2022-02-08-20:08:31,10.1.1.3,38,-0.060,-0.060,-0.060,0.000,0.000,0.000
1644350911410734848,2022-02-08-20:08:31,10.1.1.3,37,-0.050,-0.050,-0.050,0.000,0.000,0.000
1644350911510780928,2022-02-08-20:08:31,10.1.1.3,37,-0.040,-0.040,-0.040,0.000,0.000,0.000
1644350911611506944,2022-02-08-20:08:31,10.1.1.3,36,-0.030,-0.030,-0.030,0.000,0.000,0.000
1644350911711182080,2022-02-08-20:08:31,10.1.1.3,35,-0.020,-0.020,-0.020,0.000,0.000,0.000
1644350911810259968,2022-02-08-20:08:31,10.1.1.3,34,-0.010,-0.010,-0.010,0.000,0.000,0.000
1644350911910966016,2022-02-08-20:08:31,10.1.1.3,33,0.000,0.000,0.000,0.000,0.000,0.000
1644350912010927872,2022-02-08-20:08:32,10.1.1.3,32,0.010,0.010,0.010,0.000,0.000,0.000
1644350912110074880,2022-02-08-20:08:32,10.1.1.3,31,0.020,0.020,0.020,0.000,0.000,0.000
1644350912210863104,2022-02-08-20:08:32,10.1.1.3,31,0.030,0.030,0.030,0.000,0.000,0.000
1644350912310704896,2022-02-08-20:08:32,10.1.1.3,30,0.040,0.040,0.040,0.000,0.000,0.000
1644350912411122944,2022-02-08-20:08:32,10.1.1.3,29,0.050,0.050,0.050,0.000,0.000,0.000
1644350912510589952,2022-02-08-20:08:32,10.1.1.3,28,0.060,0.060,0.060,0.000,0.000,0.000
1644350912610670080,2022-02-08-20:08:32,10.1.1.3,28,0.070,0.070,0.070,0.000,0.000,0.000
1644350912711920896,2022-02-08-20:08:32,10.1.1.3,28,0.080,0.080,0.080,0.000,0.000,0.000
1644350912810683904,2022-02-08-20:08:32,10.1.1.3,26,0.090,0.090,0.090,0.000,0.000,0.000
1644350912910392064,2022-02-08-20:08:32,10.1.1.3,25,0.100,0.100,0.100,0.000,0.000,0.000
1644350913010523136,2022-02-08-20:08:33,10.1.1.3,25,0.090,0.090,0.090,0.000,0.000,0.000
1644350913110510080,2022-02-08-20:08:33,10.1.1.3,24,0.080,0.080,0.080,0.000,0.000,0.000
1644350913210980864,2022-02-08-20:08:33,10.1.1.3,23,0.070,0.070,0.070,0.000,0.000,0.000
1644350913310905856,2022-02-08-20:08:33,10.1.1.3,22,0.060,0.060,0.060,0.000,0.000,0.000
1644350913410816000,2022-02-08-20:08:33,10.1.1.3,22,0.050,0.050,0.050,0.000,0.000,0.000
1644350913510676992,2022-02-08-20:08:33,10.1.1.3,21,0.040,0.040,0.040,0.000,0.000,0.000
1644350913610842880,2022-02-08-20:08:33,10.1.1.3,19,0.030,0.030,0.030,0.000,0.000,0.000
1644350913730448896,2022-02-08-20:08:33,10.1.1.3,38,0.020,0.020,0.020,0.000,0.000,0.000
1644350913830530816,2022-02-08-20:08:33,10.1.1.3,38,0.010,0.010,0.010,0.000,0.000,0.000
1644350913930309120,2022-02-08-20:08:33,10.1.1.3,37,0.000,0.000,0.000,0.000,0.000,0.000
1644350914034939136,2022-02-08-20:08:34,10.1.1.3,37,-0.010,-0.010,-0.010,0.000,0.000,0.000
1644350914130390016,2022-02-08-20:08:34,10.1.1.3,35,-0.020,-0.020,-0.020,0.000,0.000,0.000
1644350914231244032,2022-02-08-20:08:34,10.1.1.3,34,-0.030,-0.030,-0.030,0.000,0.000,0.000
1644350914331314944,2022-02-08-20:08:34,10.1.1.3,34,-0.040,-0.040,-0.040,0.000,0.000,0.000
1644350914431747840,2022-02-08-20:08:34,10.1.1.3,33,-0.050,-0.050,-0.050,0.000,0.000,0.000
1644350914532200960,2022-02-08-20:08:34,10.1.1.3,33,-0.060,-0.060,-0.060,0.000,0.000,0.000
1644350914630812928,2022-02-08-20:08:34,10.1.1.3,31,-0.070,-0.070,-0.070,0.000,0.000,0.000
1644350914730295808,2022-02-08-20:08:34,10.1.1.3,30,-0.080,-0.080,-0.080,0.000,0.000,0.000
1644350914830703104,2022-02-08-20:08:34,10.1.1.3,30,-0.090,-0.090,-0.090,0.000,0.000,0.000
1644350914931188224,2022-02-08-20:08:34,10.1.1.3,29,-0.100,-0.100,-0.100,0.000,0.000,0.000
1644350915030317056,2022-02-08-20:08:35,10.1.1.3,29,-0.090,-0.090,-0.090,0.000,0.000,0.000
1644350915130216960,2022-02-08-20:08:35,10.1.1.3,28,-0.080,-0.080,-0.080,0.000,0.000,0.000
1644350915230739200,2022-02-08-20:08:35,10.1.1.3,28,-0.070,-0.070,-0.070,0.000,0.000,0.000
1644350915330557184,2022-02-08-20:08:35,10.1.1.3,27,-0.060,-0.060,-0.060,0.000,0.000,0.000
1644350915430720000,2022-02-08-20:08:35,10.1.1.3,26,-0.050,-0.050,-0.050,0.000,0.000,0.000
1644350915530404096,2022-02-08-20:08:35,10.1.1.3,25,-0.040,-0.040,-0.040,0.000,0.000,0.000
1644350915630534912,2022-02-08-20:08:35,10.1.1.3,24,-0.030,-0.030,-0.030,0.000,0.000,0.000
1644350915730125056,2022-02-08-20:08:35,10.1.1.3,24,-0.020,-0.020,-0.020,0.000,0.000,0.000
1644350915834033920,2022-02-08-20:08:35,10.1.1.3,24,-0.010,-0.010,-0.010,0.000,0.000,0.000
1644350915931222016,2022-02-08-20:08:35,10.1.1.3,23,0.000,0.000,0.000,0.000,0.000,0.000
1644350916030088960,2022-02-08-20:08:36,10.1.1.3,22,0.010,0.010,0.010,0.000,0.000,0.000
1644350916130142976,2022-02-08-20:08:36,10.1.1.3,21,0.020,0.020,0.020,0.000,0.000,0.000
1644350916230843904,2022-02-08-20:08:36,10.1.1.3,20,0.030,0.030,0.030,0.000,0.000,0.000
1644350916330812928,2022-02-08-20:08:36,10.1.1.3,20,0.040,0.040,0.040,0.000,0.000,0.000
1644350916430763008,2022-02-08-20:08:36,10.1.1.3,19,0.049,0.049,0.049,0.000,0.000,0.000
1644350916555543040,2022-02-08-20:08:36,10.1.1.3,38,0.060,0.060,0.060,0.000,0.000,0.000
1644350916650258176,2022-02-08-20:08:36,10.1.1.3,37,0.070,0.070,0.070,0.000,0.000,0.000
1644350916750503168,2022-02-08-20:08:36,10.1.1.3,36,0.080,0.080,0.080,0.000,0.000,0.000
1644350916850362112,2022-02-08-20:08:36,10.1.1.3,36,0.090,0.090,0.090,0.000,0.000,0.000
1644350916950840064,2022-02-08-20:08:36,10.1.1.3,36,0.100,0.100,0.100,0.000,0.000,0.000
1644350917050123008,2022-02-08-20:08:37,10.1.1.3,35,0.090,0.090,0.090,0.000,0.000,0.000
1644350917150144000,2022-02-08-20:08:37,10.1.1.3,34,0.080,0.080,0.080,0.000,0.000,0.000
1644350917250641152,2022-02-08-20:08:37,10.1.1.3,34,0.070,0.070,0.070,0.000,0.000,0.000
1644350917350260992,2022-02-08-20:08:37,10.1.1.3,33,0.060,0.060,0.060,0.000,0.000,0.000
1644350917451021824,2022-02-08-20:08:37,10.1.1.3,32,0.050,0.050,0.050,0.000,0.000,0.000
1644350917551214080,2022-02-08-20:08:37,10.1.1.3,32,0.040,0.040,0.040,0.000,0.000,0.000
1644350917650942976,2022-02-08-20:08:37,10.1.1.3,31,0.030,0.030,0.030,0.000,0.000,0.000
1644350917750156032,2022-02-08-20:08:37,10.1.1.3,31,0.020,0.020,0.020,0.000,0.000,0.000
1644350917850606848,2022-02-08-20:08:37,10.1.1.3,30,0.010,0.010,0.010,0.000,0.000,0.000
1644350917950323968,2022-02-08-20:08:37,10.1.1.3,29,0.000,0.000,0.000,0.000,0.000,0.000
1644350918050440960,2022-02-08-20:08:38,10.1.1.3,28,-0.010,-0.010,-0.010,0.000,0.000,0.000
1644350918150654976,2022-02-08-20:08:38,10.1.1.3,28,-0.020,-0.020,-0.020,0.000,0.000,0.000
1644350918250441984,2022-02-08-20:08:38,10.1.1.3,27,-0.030,-0.030,-0.030,0.000,0.000,0.000
1644350918350843904,2022-02-08-20:08:38,10.1.1.3,26,-0.040,-0.040,-0.040,0.000,0.000,0.000
1644350918450188032,2022-02-08-20:08:38,10.1.1.3,25,-0.050,-0.050,-0.050,0.000,0.000,0.000
1644350918550721024,2022-02-08-20:08:38,10.1.1.3,25,-0.060,-0.060,-0.060,0.000,0.000,0.000
1644350918650976000,2022-02-08-20:08:38,10.1.1.3,21,-0.070,-0.070,-0.070,0.000,0.000,0.000
1644350918750339072,2022-02-08-20:08:38,10.1.1.3,20,-0.080,-0.080,-0.080,0.000,0.000,0.000
1644350918850625024,2022-02-08-20:08:38,10.1.1.3,20,-0.090,-0.090,-0.090,0.000,0.000,0.000
1644350918970639872,2022-02-08-20:08:38,10.1.1.3,39,-0.100,-0.100,-0.100,0.000,0.000,0.000
1644350919070861056,2022-02-08-20:08:39,10.1.1.3,37,-0.090,-0.090,-0.090,0.000,0.000,0.000
1644350919170074112,2022-02-08-20:08:39,10.1.1.3,37,-0.080,-0.080,-0.080,0.000,0.000,0.000
1644350919271204864,2022-02-08-20:08:39,10.1.1.3,36,-0.070,-0.070,-0.070,0.000,0.000,0.000
1644350919370760960,2022-02-08-20:08:39,10.1.1.3,35,-0.060,-0.060,-0.060,0.000,0.000,0.000
1644350919470108928,2022-02-08-20:08:39,10.1.1.3,35,-0.050,-0.050,-0.050,0.000,0.000,0.000
1644350919571086848,2022-02-08-20:08:39,10.1.1.3,34,-0.040,-0.040,-0.040,0.000,0.000,0.000
1644350919670095872,2022-02-08-20:08:39,10.1.1.3,34,-0.030,-0.030,-0.030,0.000,0.000,0.000
1644350919770646016,2022-02-08-20:08:39,10.1.1.3,33,-0.020,-0.020,-0.020,0.000,0.000,0.000
1644350919870619904,2022-02-08-20:08:39,10.1.1.3,32,-0.010,-0.010,-0.010,0.000,0.000,0.000
1644350919970305024,2022-02-08-20:08:39,10.1.1.3,32,0.000,0.000,0.000,0.000,0.000,0.000
1644350920070585856,2022-02-08-20:08:40,10.1.1.3,31,0.010,0.010,0.010,0.000,0.000,0.000
1644350920170386944,2022-02-08-20:08:40,10.1.1.3,31,0.020,0.020,0.020,0.000,0.000,0.000
1644350920270531840,2022-02-08-20:08:40,10.1.1.3,30,0.030,0.030,0.030,0.000,0.000,0.000
1644350920370755840,2022-02-08-20:08:40,10.1.1.3,29,0.040,0.040,0.040,0.000,0.000,0.000
1644350920470112000,2022-02-08-20:08:40,10.1.1.3,28,0.050,0.050,0.050,0.000,0.000,0.000
1644350920571217920,2022-02-08-20:08:40,10.1.1.3,28,0.060,0.060,0.060,0.000,0.000,0.000
1644350920670081024,2022-02-08-20:08:40,10.1.1.3,28,0.070,0.070,0.070,0.000,0.000,0.000
1644350920770385152,2022-02-08-20:08:40,10.1.1.3,27,0.080,0.080,0.080,0.000,0.000,0.000
1644350920870757120,2022-02-08-20:08:40,10.1.1.3,27,0.090,0.090,0.090,0.000,0.000,0.000
1644350920970416896,2022-02-08-20:08:40,10.1.1.3,26,0.100,0.100,0.100,0.000,0.000,0.000
1644350921070416896,2022-02-08-20:08:41,10.1.1.3,25,0.090,0.090,0.090,0.000,0.000,0.000
1644350921170484992,2022-02-08-20:08:41,10.1.1.3,25,0.080,0.080,0.080,0.000,0.000,0.000
1644350921270605056,2022-02-08-20:08:41,10.1.1.3,25,0.070,0.070,0.070,0.000,0.000,0.000
1644350921370336000,2022-02-08-20:08:41,10.1.1.3,23,0.060,0.060,0.060,0.000,0.000,0.000
1644350921470344960,2022-02-08-20:08:41,10.1.1.3,22,0.050,0.050,0.050,0.000,0.000,0.000
1644350921570898176,2022-02-08-20:08:41,10.1.1.3,22,0.040,0.040,0.040,0.000,0.000,0.000
1644350921671268864,2022-02-08-20:08:41,10.1.1.3,21,0.030,0.030,0.030,0.000,0.000,0.000
1644350921769999104,2022-02-08-20:08:41,10.1.1.3,21,0.020,0.020,0.020,0.000,0.000,0.000
1644350921870883072,2022-02-08-20:08:41,10.1.1.3,20,0.010,0.010,0.010,0.000,0.000,0.000
1644350921970840064,2022-02-08-20:08:41,10.1.1.3,20,0.000,0.000,0.000,0.000,0.000,0.000
1644350922070466048,2022-02-08-20:08:42,10.1.1.3,19,-0.009,-0.009,-0.009,0.000,0.000,0.000
1644350922190813184,2022-02-08-20:08:42,10.1.1.3,38,-0.020,-0.020,-0.020,0.000,0.000,0.000
1644350922290244096,2022-02-08-20:08:42,10.1.1.3,37,-0.030,-0.030,-0.030,0.000,0.000,0.000
1644350922390219008,2022-02-08-20:08:42,10.1.1.3,36,-0.040,-0.040,-0.040,0.000,0.000,0.000
1644350922490524928,2022-02-08-20:08:42,10.1.1.3,36,-0.050,-0.050,-0.050,0.000,0.000,0.000
1644350922591382016,2022-02-08-20:08:42,10.1.1.3,35,-0.060,-0.060,-0.060,0.000,0.000,0.000
1644350922690768128,2022-02-08-20:08:42,10.1.1.3,35,-0.070,-0.070,-0.070,0.000,0.000,0.000
1644350922791585024,2022-02-08-20:08:42,10.1.1.3,34,-0.080,-0.080,-0.080,0.000,0.000,0.000
1644350922891056128,2022-02-08-20:08:42,10.1.1.3,21,-0.090,-0.090,-0.090,0.000,0.000,0.000
1644350922991077888,2022-02-08-20:08:42,10.1.1.3,21,-0.100,-0.100,-0.100,0.000,0.000,0.000
1644350923091378944,2022-02-08-20:08:43,10.1.1.3,20,-0.090,-0.090,-0.090,0.000,0.000,0.000
1644350923210632960,2022-02-08-20:08:43,10.1.1.3,38,-0.080,-0.080,-0.080,0.000,0.000,0.000
1644350923311033088,2022-02-08-20:08:43,10.1.1.3,37,-0.070,-0.070,-0.070,0.000,0.000,0.000
1644350923410466816,2022-02-08-20:08:43,10.1.1.3,37,-0.060,-0.060,-0.060,0.000,0.000,0.000
1644350923511507968,2022-02-08-20:08:43,10.1.1.3,36,-0.050,-0.050,-0.050,0.000,0.000,0.000
1644350923610193920,2022-02-08-20:08:43,10.1.1.3,36,-0.040,-0.040,-0.040,0.000,0.000,0.000
1644350923710676992,2022-02-08-20:08:43,10.1.1.3,35,-0.030,-0.030,-0.030,0.000,0.000,0.000
1644350923810729984,2022-02-08-20:08:43,10.1.1.3,34,-0.020,-0.020,-0.020,0.000,0.000,0.000
1644350923911106048,2022-02-08-20:08:43,10.1.1.3,34,-0.010,-0.010,-0.010,0.000,0.000,0.000
1644350924010724096,2022-02-08-20:08:44,10.1.1.3,33,0.000,0.000,0.000,0.000,0.000,0.000
1644350924110095104,2022-02-08-20:08:44,10.1.1.3,32,0.010,0.010,0.010,0.000,0.000,0.000
1644350924211048960,2022-02-08-20:08:44,10.1.1.3,32,0.020,0.020,0.020,0.000,0.000,0.000
1644350924310756096,2022-02-08-20:08:44,10.1.1.3,30,0.030,0.030,0.030,0.000,0.000,0.000
1644350924416538880,2022-02-08-20:08:44,10.1.1.3,23,0.040,0.040,0.040,0.000,0.000,0.000
1644350924510974976,2022-02-08-20:08:44,10.1.1.3,22,0.050,0.050,0.050,0.000,0.000,0.000
1644350924610712064,2022-02-08-20:08:44,10.1.1.3,22,0.060,0.060,0.060,0.000,0.000,0.000
1644350924710963968,2022-02-08-20:08:44,10.1.1.3,21,0.070,0.070,0.070,0.000,0.000,0.000
1644350924811439872,2022-02-08-20:08:44,10.1.1.3,21,0.080,0.080,0.080,0.000,0.000,0.000
1644350924910605056,2022-02-08-20:08:44,10.1.1.3,20,0.090,0.090,0.090,0.000,0.000,0.000
1644350925030790144,2022-02-08-20:08:45,10.1.1.3,39,0.100,0.100,0.100,0.000,0.000,0.000
1644350925130786816,2022-02-08-20:08:45,10.1.1.3,38,0.090,0.090,0.090,0.000,0.000,0.000
1644350925232359936,2022-02-08-20:08:45,10.1.1.3,37,0.080,0.080,0.080,0.000,0.000,0.000
1644350925331162880,2022-02-08-20:08:45,10.1.1.3,37,0.070,0.070,0.070,0.000,0.000,0.000
1644350925430747904,2022-02-08-20:08:45,10.1.1.3,36,0.060,0.060,0.060,0.000,0.000,0.000
1644350925530899968,2022-02-08-20:08:45,10.1.1.3,35,0.050,0.050,0.050,0.000,0.000,0.000
1644350925630790912,2022-02-08-20:08:45,10.1.1.3,34,0.040,0.040,0.040,0.000,0.000,0.000
1644350925730411008,2022-02-08-20:08:45,10.1.1.3,34,0.030,0.030,0.030,0.000,0.000,0.000
1644350925831480064,2022-02-08-20:08:45,10.1.1.3,33,0.020,0.020,0.020,0.000,0.000,0.000
1644350925930605056,2022-02-08-20:08:45,10.1.1.3,27,0.010,0.010,0.010,0.000,0.000,0.000
1644350926030756864,2022-02-08-20:08:46,10.1.1.3,26,0.000,0.000,0.000,0.000,0.000,0.000
1644350926130650880,2022-02-08-20:08:46,10.1.1.3,25,-0.010,-0.010,-0.010,0.000,0.000,0.000
1644350926230583040,2022-02-08-20:08:46,10.1.1.3,25,-0.020,-0.020,-0.020,0.000,0.000,0.000
1644350926330252032,2022-02-08-20:08:46,10.1.1.3,23,-0.030,-0.030,-0.030,0.000,0.000,0.000
1644350926430598144,2022-02-08-20:08:46,10.1.1.3,22,-0.040,-0.040,-0.040,0.000,0.000,0.000
1644350926530275072,2022-02-08-20:08:46,10.1.1.3,21,-0.050,-0.050,-0.050,0.000,0.000,0.000
1644350926630660096,2022-02-08-20:08:46,10.1.1.3,21,-0.060,-0.060,-0.060,0.000,0.000,0.000
1644350926730235136,2022-02-08-20:08:46,10.1.1.3,20,-0.070,-0.070,-0.070,0.000,0.000,0.000
1644350926830759168,2022-02-08-20:08:46,10.1.1.3,20,-0.080,-0.080,-0.080,0.000,0.000,0.000
1644350926930469120,2022-02-08-20:08:46,10.1.1.3,20,-0.090,-0.090,-0.090,0.000,0.000,0.000
1644350927031249152,2022-02-08-20:08:47,10.1.1.3,19,-0.099,-0.099,-0.099,0.000,0.000,0.000
1644350927150692864,2022-02-08-20:08:47,10.1.1.3,38,-0.090,-0.090,-0.090,0.000,0.000,0.000
1644350927250176000,2022-02-08-20:08:47,10.1.1.3,38,-0.080,-0.080,-0.080,0.000,0.000,0.000
1644350927350313984,2022-02-08-20:08:47,10.1.1.3,37,-0.070,-0.070,-0.070,0.000,0.000,0.000
1644350927450476800,2022-02-08-20:08:47,10.1.1.3,37,-0.060,-0.060,-0.060,0.000,0.000,0.000
1644350927550653952,2022-02-08-20:08:47,10.1.1.3,36,-0.050,-0.050,-0.050,0.000,0.000,0.000
1644350927650604032,2022-02-08-20:08:47,10.1.1.3,35,-0.040,-0.040,-0.040,0.000,0.000,0.000
1644350927750755072,2022-02-08-20:08:47,10.1.1.3,35,-0.030,-0.030,-0.030,0.000,0.000,0.000
1644350927850631936,2022-02-08-20:08:47,10.1.1.3,34,-0.020,-0.020,-0.020,0.000,0.000,0.000
1644350927950962176,2022-02-08-20:08:47,10.1.1.3,33,-0.010,-0.010,-0.010,0.000,0.000,0.000
1644350928050868992,2022-02-08-20:08:48,10.1.1.3,33,0.000,0.000,0.000,0.000,0.000,0.000
1644350928150355968,2022-02-08-20:08:48,10.1.1.3,32,0.010,0.010,0.010,0.000,0.000,0.000
1644350928250754048,2022-02-08-20:08:48,10.1.1.3,31,0.020,0.020,0.020,0.000,0.000,0.000
1644350928360965888,2022-02-08-20:08:48,10.1.1.3,29,0.030,0.030,0.030,0.000,0.000,0.000
1644350928451080960,2022-02-08-20:08:48,10.1.1.3,28,0.040,0.040,0.040,0.000,0.000,0.000
1644350928551640064,2022-02-08-20:08:48,10.1.1.3,28,0.050,0.050,0.050,0.000,0.000,0.000
1644350928650383104,2022-02-08-20:08:48,10.1.1.3,26,0.060,0.060,0.060,0.000,0.000,0.000
1644350928751156992,2022-02-08-20:08:48,10.1.1.3,25,0.070,0.070,0.070,0.000,0.000,0.000
1644350928850529024,2022-02-08-20:08:48,10.1.1.3,25,0.080,0.080,0.080,0.000,0.000,0.000
1644350928950458880,2022-02-08-20:08:48,10.1.1.3,24,0.090,0.090,0.090,0.000,0.000,0.000
1644350929051561984,2022-02-08-20:08:49,10.1.1.3,24,0.100,0.100,0.100,0.000,0.000,0.000
1644350929150459904,2022-02-08-20:08:49,10.1.1.3,22,0.090,0.090,0.090,0.000,0.000,0.000
1644350929250407936,2022-02-08-20:08:49,10.1.1.3,21,0.080,0.080,0.080,0.000,0.000,0.000
1644350929350817792,2022-02-08-20:08:49,10.1.1.3,21,0.070,0.070,0.070,0.000,0.000,0.000
1644350929451400960,2022-02-08-20:08:49,10.1.1.3,20,0.060,0.060,0.060,0.000,0.000,0.000
1644350929550953984,2022-02-08-20:08:49,10.1.1.3,19,0.050,0.050,0.050,0.000,0.000,0.000
1644350929670702848,2022-02-08-20:08:49,10.1.1.3,38,0.040,0.040,0.040,0.000,0.000,0.000
1644350929771308800,2022-02-08-20:08:49,10.1.1.3,37,0.030,0.030,0.030,0.000,0.000,0.000
1644350929870843904,2022-02-08-20:08:49,10.1.1.3,37,0.020,0.020,0.020,0.000,0.000,0.000
1644350929970526976,2022-02-08-20:08:49,10.1.1.3,36,0.010,0.010,0.010,0.000,0.000,0.000
1644350930070745088,2022-02-08-20:08:50,10.1.1.3,36,0.000,0.000,0.000,0.000,0.000,0.000
1644350930170886912,2022-02-08-20:08:50,10.1.1.3,35,-0.010,-0.010,-0.010,0.000,0.000,0.000
1644350930270714880,2022-02-08-20:08:50,10.1.1.3,35,-0.020,-0.020,-0.020,0.000,0.000,0.000
1644350930371053824,2022-02-08-20:08:50,10.1.1.3,34,-0.030,-0.030,-0.030,0.000,0.000,0.000
1644350930470479872,2022-02-08-20:08:50,10.1.1.3,33,-0.040,-0.040,-0.040,0.000,0.000,0.000
1644350930571561984,2022-02-08-20:08:50,10.1.1.3,31,-0.050,-0.050,-0.050,0.000,0.000,0.000
1644350930670968064,2022-02-08-20:08:50,10.1.1.3,30,-0.060,-0.060,-0.060,0.000,0.000,0.000
1644350930770960128,2022-02-08-20:08:50,10.1.1.3,29,-0.070,-0.070,-0.070,0.000,0.000,0.000
1644350930870646016,2022-02-08-20:08:50,10.1.1.3,29,-0.080,-0.080,-0.080,0.000,0.000,0.000
1644350930970756096,2022-02-08-20:08:50,10.1.1.3,28,-0.090,-0.090,-0.090,0.000,0.000,0.000
1644350931072092928,2022-02-08-20:08:51,10.1.1.3,27,-0.100,-0.100,-0.100,0.000,0.000,0.000
1644350931181212928,2022-02-08-20:08:51,10.1.1.3,27,-0.090,-0.090,-0.090,0.000,0.000,0.000
1644350931271752960,2022-02-08-20:08:51,10.1.1.3,25,-0.080,-0.080,-0.080,0.000,0.000,0.000
1644350931378180864,2022-02-08-20:08:51,10.1.1.3,25,-0.070,-0.070,-0.070,0.000,0.000,0.000
1644350931474332928,2022-02-08-20:08:51,10.1.1.3,22,-0.060,-0.060,-0.060,0.000,0.000,0.000
1644350931592216064,2022-02-08-20:08:51,10.1.1.3,38,-0.050,-0.050,-0.050,0.000,0.000,0.000
1644350931690889984,2022-02-08-20:08:51,10.1.1.3,37,-0.040,-0.040,-0.040,0.000,0.000,0.000
1644350931804055808,2022-02-08-20:08:51,10.1.1.3,38,-0.030,-0.030,-0.030,0.000,0.000,0.000
1644350931901377792,2022-02-08-20:08:51,10.1.1.3,42,-0.020,-0.020,-0.020,0.000,0.000,0.000
1644350931997588992,2022-02-08-20:08:51,10.1.1.3,38,-0.010,-0.010,-0.010,0.000,0.000,0.000
1644350932093366016,2022-02-08-20:08:52,10.1.1.3,35,0.000,0.000,0.000,0.000,0.000,0.000
1644350932191724032,2022-02-08-20:08:52,10.1.1.3,32,0.010,0.010,0.010,0.000,0.000,0.000
1644350932291219968,2022-02-08-20:08:52,10.1.1.3,29,0.020,0.020,0.020,0.000,0.000,0.000
1644350932409307904,2022-02-08-20:08:52,10.1.1.3,36,0.030,0.030,0.030,0.000,0.000,0.000
1644350932492098048,2022-02-08-20:08:52,10.1.1.3,28,0.040,0.040,0.040,0.000,0.000,0.000
1644350932591411968,2022-02-08-20:08:52,10.1.1.3,27,0.050,0.050,0.050,0.000,0.000,0.000
1644350932713710080,2022-02-08-20:08:52,10.1.1.3,27,0.060,0.060,0.060,0.000,0.000,0.000
1644350932793387776,2022-02-08-20:08:52,10.1.1.3,26,0.070,0.070,0.070,0.000,0.000,0.000
1644350932892039168,2022-02-08-20:08:52,10.1.1.3,25,0.080,0.080,0.080,0.000,0.000,0.000
1644350932991183104,2022-02-08-20:08:52,10.1.1.3,24,0.090,0.090,0.090,0.000,0.000,0.000
1644350933090909952,2022-02-08-20:08:53,10.1.1.3,24,0.100,0.100,0.100,0.000,0.000,0.000
1644350933195996160,2022-02-08-20:08:53,10.1.1.3,27,0.090,0.090,0.090,0.000,0.000,0.000
1644350933290903040,2022-02-08-20:08:53,10.1.1.3,22,0.080,0.080,0.080,0.000,0.000,0.000
1644350933390412032,2022-02-08-20:08:53,10.1.1.3,22,0.070,0.070,0.070,0.000,0.000,0.000
1644350933490434816,2022-02-08-20:08:53,10.1.1.3,20,0.060,0.060,0.060,0.000,0.000,0.000
1644350933611664896,2022-02-08-20:08:53,10.1.1.3,38,0.050,0.050,0.050,0.000,0.000,0.000
1644350933718682880,2022-02-08-20:08:53,10.1.1.3,33,0.040,0.040,0.040,0.000,0.000,0.000
1644350933810322944,2022-02-08-20:08:53,10.1.1.3,33,0.030,0.030,0.030,0.000,0.000,0.000
1644350933910726912,2022-02-08-20:08:53,10.1.1.3,32,0.020,0.020,0.020,0.000,0.000,0.000
1644350934011396864,2022-02-08-20:08:54,10.1.1.3,31,0.010,0.010,0.010,0.000,0.000,0.000
1644350934110416896,2022-02-08-20:08:54,10.1.1.3,31,0.000,0.000,0.000,0.000,0.000,0.000
1644350934211929088,2022-02-08-20:08:54,10.1.1.3,30,-0.010,-0.010,-0.010,0.000,0.000,0.000
1644350934310339072,2022-02-08-20:08:54,10.1.1.3,30,-0.020,-0.020,-0.020,0.000,0.000,0.000
1644350934410518016,2022-02-08-20:08:54,10.1.1.3,29,-0.030,-0.030,-0.030,0.000,0.000,0.000
1644350934511753984,2022-02-08-20:08:54,10.1.1.3,28,-0.040,-0.040,-0.040,0.000,0.000,0.000
1644350934611169024,2022-02-08-20:08:54,10.1.1.3,27,-0.050,-0.050,-0.050,0.000,0.000,0.000
1644350934711139072,2022-02-08-20:08:54,10.1.1.3,26,-0.060,-0.060,-0.060,0.000,0.000,0.000
1644350934811047168,2022-02-08-20:08:54,10.1.1.3,25,-0.070,-0.070,-0.070,0.000,0.000,0.000
1644350934910903808,2022-02-08-20:08:54,10.1.1.3,25,-0.080,-0.080,-0.080,0.000,0.000,0.000
1644350935010907904,2022-02-08-20:08:55,10.1.1.3,24,-0.090,-0.090,-0.090,0.000,0.000,0.000
1644350935111298048,2022-02-08-20:08:55,10.1.1.3,23,-0.100,-0.100,-0.100,0.000,0.000,0.000
1644350935210653952,2022-02-08-20:08:55,10.1.1.3,22,-0.090,-0.090,-0.090,0.000,0.000,0.000
1644350935314473984,2022-02-08-20:08:55,10.1.1.3,22,-0.080,-0.080,-0.080,0.000,0.000,0.000
1644350935410696960,2022-02-08-20:08:55,10.1.1.3,21,-0.070,-0.070,-0.070,0.000,0.000,0.000
1644350935510700032,2022-02-08-20:08:55,10.1.1.3,19,-0.060,-0.060,-0.060,0.000,0.000,0.000
1644350935610809088,2022-02-08-20:08:55,10.1.1.3,19,-0.051,-0.051,-0.051,0.000,0.000,0.000
1644350935730523136,2022-02-08-20:08:55,10.1.1.3,38,-0.040,-0.040,-0.040,0.000,0.000,0.000
1644350935830625024,2022-02-08-20:08:55,10.1.1.3,37,-0.030,-0.030,-0.030,0.000,0.000,0.000
1644350935930648064,2022-02-08-20:08:55,10.1.1.3,37,-0.020,-0.020,-0.020,0.000,0.000,0.000
1644350936031155200,2022-02-08-20:08:56,10.1.1.3,37,-0.010,-0.010,-0.010,0.000,0.000,0.000
1644350936131222016,2022-02-08-20:08:56,10.1.1.3,36,0.000,0.000,0.000,0.000,0.000,0.000
1644350936230644992,2022-02-08-20:08:56,10.1.1.3,35,0.010,0.010,0.010,0.000,0.000,0.000
1644350936331099136,2022-02-08-20:08:56,10.1.1.3,35,0.020,0.020,0.020,0.000,0.000,0.000
1644350936431016960,2022-02-08-20:08:56,10.1.1.3,33,0.030,0.030,0.030,0.000,0.000,0.000
1644350936530993920,2022-02-08-20:08:56,10.1.1.3,33,0.040,0.040,0.040,0.000,0.000,0.000
1644350936630528000,2022-02-08-20:08:56,10.1.1.3,32,0.050,0.050,0.050,0.000,0.000,0.000
1644350936730875136,2022-02-08-20:08:56,10.1.1.3,32,0.060,0.060,0.060,0.000,0.000,0.000
1644350936831533824,2022-02-08-20:08:56,10.1.1.3,31,0.070,0.070,0.070,0.000,0.000,0.000
1644350936930825984,2022-02-08-20:08:56,10.1.1.3,31,0.080,0.080,0.080,0.000,0.000,0.000
1644350937030503936,2022-02-08-20:08:57,10.1.1.3,30,0.090,0.090,0.090,0.000,0.000,0.000
1644350937131293952,2022-02-08-20:08:57,10.1.1.3,29,0.100,0.100,0.100,0.000,0.000,0.000
1644350937230560000,2022-02-08-20:08:57,10.1.1.3,28,0.090,0.090,0.090,0.000,0.000,0.000
1644350937359572992,2022-02-08-20:08:57,10.1.1.3,27,0.080,0.080,0.080,0.000,0.000,0.000
1644350937430800896,2022-02-08-20:08:57,10.1.1.3,24,0.070,0.070,0.070,0.000,0.000,0.000
1644350937530595072,2022-02-08-20:08:57,10.1.1.3,23,0.060,0.060,0.060,0.000,0.000,0.000
1644350937630861056,2022-02-08-20:08:57,10.1.1.3,22,0.050,0.050,0.050,0.000,0.000,0.000
1644350937730786048,2022-02-08-20:08:57,10.1.1.3,22,0.040,0.040,0.040,0.000,0.000,0.000
1644350937830910976,2022-02-08-20:08:57,10.1.1.3,21,0.030,0.030,0.030,0.000,0.000,0.000
1644350937930727936,2022-02-08-20:08:57,10.1.1.3,21,0.020,0.020,0.020,0.000,0.000,0.000
1644350938030390016,2022-02-08-20:08:58,10.1.1.3,20,0.010,0.010,0.010,0.000,0.000,0.000
1644350938130439936,2022-02-08-20:08:58,10.1.1.3,20,0.000,0.000,0.000,0.000,0.000,0.000
1644350938231024128,2022-02-08-20:08:58,10.1.1.3,19,-0.010,-0.010,-0.010,0.000,0.000,0.000
1644350938330946816,2022-02-08-20:08:58,10.1.1.3,19,-0.019,-0.019,-0.019,0.000,0.000,0.000
1644350938450947072,2022-02-08-20:08:58,10.1.1.3,38,-0.030,-0.030,-0.030,0.000,0.000,0.000
1644350938551083008,2022-02-08-20:08:58,10.1.1.3,37,-0.040,-0.040,-0.040,0.000,0.000,0.000
1644350938657661952,2022-02-08-20:08:58,10.1.1.3,37,-0.050,-0.050,-0.050,0.000,0.000,0.000
1644350938753799936,2022-02-08-20:08:58,10.1.1.3,36,-0.060,-0.060,-0.060,0.000,0.000,0.000
1644350938851939072,2022-02-08-20:08:58,10.1.1.3,35,-0.070,-0.070,-0.070,0.000,0.000,0.000
1644350938951312896,2022-02-08-20:08:58,10.1.1.3,31,-0.080,-0.080,-0.080,0.000,0.000,0.000
1644350939054868992,2022-02-08-20:08:59,10.1.1.3,31,-0.090,-0.090,-0.090,0.000,0.000,0.000
1644350939150510080,2022-02-08-20:08:59,10.1.1.3,30,-0.100,-0.100,-0.100,0.000,0.000,0.000
1644350939250747904,2022-02-08-20:08:59,10.1.1.3,26,-0.090,-0.090,-0.090,0.000,0.000,0.000
1644350939352274944,2022-02-08-20:08:59,10.1.1.3,25,-0.080,-0.080,-0.080,0.000,0.000,0.000
1644350939450167040,2022-02-08-20:08:59,10.1.1.3,25,-0.070,-0.070,-0.070,0.000,0.000,0.000
1644350939550766080,2022-02-08-20:08:59,10.1.1.3,24,-0.060,-0.060,-0.060,0.000,0.000,0.000
1644350939650760960,2022-02-08-20:08:59,10.1.1.3,24,-0.050,-0.050,-0.050,0.000,0.000,0.000
1644350939751019008,2022-02-08-20:08:59,10.1.1.3,23,-0.040,-0.040,-0.040,0.000,0.000,0.000
1644350939850331136,2022-02-08-20:08:59,10.1.1.3,23,-0.030,-0.030,-0.030,0.000,0.000,0.000
1644350939950382848,2022-02-08-20:08:59,10.1.1.3,22,-0.020,-0.020,-0.020,0.000,0.000,0.000
1644350940050184960,2022-02-08-20:09:00,10.1.1.3,22,-0.010,-0.010,-0.010,0.000,0.000,0.000
1644350940151137024,2022-02-08-20:09:00,10.1.1.3,21,0.000,0.000,0.000,0.000,0.000,0.000
1644350940370446848,2022-02-08-20:09:00,10.1.1.3,33,0.020,0.020,0.020,0.000,0.000,0.000
1644350940470824960,2022-02-08-20:09:00,10.1.1.3,32,0.030,0.030,0.030,0.000,0.000,0.000
1644350940570892032,2022-02-08-20:09:00,10.1.1.3,32,0.040,0.040,0.040,0.000,0.000,0.000
1644350940670996992,2022-02-08-20:09:00,10.1.1.3,31,0.050,0.050,0.050,0.000,0.000,0.000
1644350940770648064,2022-02-08-20:09:00,10.1.1.3,31,0.060,0.060,0.060,0.000,0.000,0.000
1644350940871119104,2022-02-08-20:09:00,10.1.1.3,30,0.070,0.070,0.070,0.000,0.000,0.000
1644350940970490880,2022-02-08-20:09:00,10.1.1.3,30,0.080,0.080,0.080,0.000,0.000,0.000
1644350941071556096,2022-02-08-20:09:01,10.1.1.3,29,0.090,0.090,0.090,0.000,0.000,0.000
1644350941170358784,2022-02-08-20:09:01,10.1.1.3,28,0.100,0.100,0.100,0.000,0.000,0.000
1644350941271162880,2022-02-08-20:09:01,10.1.1.3,28,0.090,0.090,0.090,0.000,0.000,0.000
1644350941391854080,2022-02-08-20:09:01,10.1.1.3,26,0.080,0.080,0.080,0.000,0.000,0.000
1644350941471051008,2022-02-08-20:09:01,10.1.1.3,23,0.070,0.070,0.070,0.000,0.000,0.000
1644350941570930944,2022-02-08-20:09:01,10.1.1.3,22,0.060,0.060,0.060,0.000,0.000,0.000
1644350941670938112,2022-02-08-20:09:01,10.1.1.3,21,0.050,0.050,0.050,0.000,0.000,0.000
1644350941771072000,2022-02-08-20:09:01,10.1.1.3,21,0.040,0.040,0.040,0.000,0.000,0.000
1644350941890865152,2022-02-08-20:09:01,10.1.1.3,28,0.030,0.030,0.030,0.000,0.000,0.000
1644350941991161088,2022-02-08-20:09:01,10.1.1.3,27,0.020,0.020,0.020,0.000,0.000,0.000
1644350942090823936,2022-02-08-20:09:02,10.1.1.3,27,0.010,0.010,0.010,0.000,0.000,0.000
1644350942191059200,2022-02-08-20:09:02,10.1.1.3,26,0.000,0.000,0.000,0.000,0.000,0.000
1644350942291111936,2022-02-08-20:09:02,10.1.1.3,25,-0.010,-0.010,-0.010,0.000,0.000,0.000
1644350942391247104,2022-02-08-20:09:02,10.1.1.3,24,-0.020,-0.020,-0.020,0.000,0.000,0.000
1644350942499399936,2022-02-08-20:09:02,10.1.1.3,23,-0.030,-0.030,-0.030,0.000,0.000,0.000
1644350942610536192,2022-02-08-20:09:02,10.1.1.3,27,-0.040,-0.040,-0.040,0.000,0.000,0.000
1644350943699558144,2022-02-08-20:09:02,10.1.1.3,25,-0.050,-0.050,-0.050,0.000,0.000,0.000
1644350943707335936,2022-02-08-20:09:03,10.1.1.3,-307,-0.050,-0.050,-0.050,0.000,0.000,0.000
1644350943850345984,2022-02-08-20:09:03,10.1.1.3,32,-0.070,-0.070,-0.070,0.000,0.000,0.000
1644350943950457088,2022-02-08-20:09:03,10.1.1.3,32,-0.080,-0.080,-0.080,0.000,0.000,0.000
1644350944051262976,2022-02-08-20:09:04,10.1.1.3,31,-0.090,-0.090,-0.090,0.000,0.000,0.000
1644350944152558080,2022-02-08-20:09:04,10.1.1.3,31,-0.100,-0.100,-0.100,0.000,0.000,0.000
1644350944250529024,2022-02-08-20:09:04,10.1.1.3,29,-0.090,-0.090,-0.090,0.000,0.000,0.000
1644350944350946048,2022-02-08-20:09:04,10.1.1.3,28,-0.080,-0.080,-0.080,0.000,0.000,0.000
1644350944451302144,2022-02-08-20:09:04,10.1.1.3,27,-0.070,-0.070,-0.070,0.000,0.000,0.000
1644350944550586112,2022-02-08-20:09:04,10.1.1.3,26,-0.060,-0.060,-0.060,0.000,0.000,0.000
1644350944652667136,2022-02-08-20:09:04,10.1.1.3,26,-0.050,-0.050,-0.050,0.000,0.000,0.000
1644350944750603008,2022-02-08-20:09:04,10.1.1.3,25,-0.040,-0.040,-0.040,0.000,0.000,0.000
1644350944851279104,2022-02-08-20:09:04,10.1.1.3,24,-0.030,-0.030,-0.030,0.000,0.000,0.000
1644350944951113984,2022-02-08-20:09:04,10.1.1.3,24,-0.020,-0.020,-0.020,0.000,0.000,0.000
1644350945050810112,2022-02-08-20:09:05,10.1.1.3,24,-0.010,-0.010,-0.010,0.000,0.000,0.000
1644350945150487040,2022-02-08-20:09:05,10.1.1.3,23,0.000,0.000,0.000,0.000,0.000,0.000
1644350945250828032,2022-02-08-20:09:05,10.1.1.3,22,0.010,0.010,0.010,0.000,0.000,0.000
1644350945351072000,2022-02-08-20:09:05,10.1.1.3,19,0.019,0.019,0.019,0.000,0.000,0.000
1644350945471568128,2022-02-08-20:09:05,10.1.1.3,36,0.030,0.030,0.030,0.000,0.000,0.000
1644350945572214016,2022-02-08-20:09:05,10.1.1.3,34,0.040,0.040,0.040,0.000,0.000,0.000
1644350945671408896,2022-02-08-20:09:05,10.1.1.3,34,0.050,0.050,0.050,0.000,0.000,0.000
1644350945771339776,2022-02-08-20:09:05,10.1.1.3,32,0.060,0.060,0.060,0.000,0.000,0.000
1644350945870454016,2022-02-08-20:09:05,10.1.1.3,31,0.070,0.070,0.070,0.000,0.000,0.000
1644350945970509056,2022-02-08-20:09:05,10.1.1.3,31,0.080,0.080,0.080,0.000,0.000,0.000
1644350946070940928,2022-02-08-20:09:06,10.1.1.3,30,0.090,0.090,0.090,0.000,0.000,0.000
1644350946170723072,2022-02-08-20:09:06,10.1.1.3,29,0.100,0.100,0.100,0.000,0.000,0.000
1644350946270561024,2022-02-08-20:09:06,10.1.1.3,29,0.090,0.090,0.090,0.000,0.000,0.000
1644350946371372032,2022-02-08-20:09:06,10.1.1.3,28,0.080,0.080,0.080,0.000,0.000,0.000
1644350946470864128,2022-02-08-20:09:06,10.1.1.3,28,0.070,0.070,0.070,0.000,0.000,0.000
1644350946570727168,2022-02-08-20:09:06,10.1.1.3,27,0.060,0.060,0.060,0.000,0.000,0.000
1644350946670566144,2022-02-08-20:09:06,10.1.1.3,27,0.050,0.050,0.050,0.000,0.000,0.000
1644350946770891008,2022-02-08-20:09:06,10.1.1.3,27,0.040,0.040,0.040,0.000,0.000,0.000
1644350946870682880,2022-02-08-20:09:06,10.1.1.3,26,0.030,0.030,0.030,0.000,0.000,0.000
1644350946970392832,2022-02-08-20:09:06,10.1.1.3,25,0.020,0.020,0.020,0.000,0.000,0.000
1644350947070941952,2022-02-08-20:09:07,10.1.1.3,25,0.010,0.010,0.010,0.000,0.000,0.000
1644350947178600192,2022-02-08-20:09:07,10.1.1.3,24,0.000,0.000,0.000,0.000,0.000,0.000
1644350947271158016,2022-02-08-20:09:07,10.1.1.3,24,-0.010,-0.010,-0.010,0.000,0.000,0.000
1644350947370703872,2022-02-08-20:09:07,10.1.1.3,23,-0.020,-0.020,-0.020,0.000,0.000,0.000
1644350947470586112,2022-02-08-20:09:07,10.1.1.3,23,-0.030,-0.030,-0.030,0.000,0.000,0.000
1644350947570544128,2022-02-08-20:09:07,10.1.1.3,22,-0.040,-0.040,-0.040,0.000,0.000,0.000
1644350947670923008,2022-02-08-20:09:07,10.1.1.3,22,-0.050,-0.050,-0.050,0.000,0.000,0.000
1644350947770873088,2022-02-08-20:09:07,10.1.1.3,21,-0.060,-0.060,-0.060,0.000,0.000,0.000
1644350947871090944,2022-02-08-20:09:07,10.1.1.3,21,-0.070,-0.070,-0.070,0.000,0.000,0.000
1644350947971065088,2022-02-08-20:09:07,10.1.1.3,20,-0.080,-0.080,-0.080,0.000,0.000,0.000
1644350948071094016,2022-02-08-20:09:08,10.1.1.3,19,-0.090,-0.090,-0.090,0.000,0.000,0.000
1644350948190630912,2022-02-08-20:09:08,10.1.1.3,38,-0.100,-0.100,-0.100,0.000,0.000,0.000
1644350948290689024,2022-02-08-20:09:08,10.1.1.3,37,-0.090,-0.090,-0.090,0.000,0.000,0.000
1644350948391038976,2022-02-08-20:09:08,10.1.1.3,37,-0.080,-0.080,-0.080,0.000,0.000,0.000
1644350948491380992,2022-02-08-20:09:08,10.1.1.3,36,-0.070,-0.070,-0.070,0.000,0.000,0.000
1644350948590392064,2022-02-08-20:09:08,10.1.1.3,36,-0.060,-0.060,-0.060,0.000,0.000,0.000
1644350948800941824,2022-02-08-20:09:08,10.1.1.3,35,-0.050,-0.050,-0.050,0.000,0.000,0.000
1644350948851027968,2022-02-08-20:09:08,10.1.1.3,37,-0.040,-0.040,-0.040,0.000,0.000,0.000
1644350948951580160,2022-02-08-20:09:08,10.1.1.3,36,-0.030,-0.030,-0.030,0.000,0.000,0.000
1644350949050889984,2022-02-08-20:09:09,10.1.1.3,36,-0.020,-0.020,-0.020,0.000,0.000,0.000
1644350949150629120,2022-02-08-20:09:09,10.1.1.3,36,-0.010,-0.010,-0.010,0.000,0.000,0.000
1644350949251323904,2022-02-08-20:09:09,10.1.1.3,35,0.000,0.000,0.000,0.000,0.000,0.000
1644350949350450944,2022-02-08-20:09:09,10.1.1.3,35,0.010,0.010,0.010,0.000,0.000,0.000
1644350949450689024,2022-02-08-20:09:09,10.1.1.3,34,0.020,0.020,0.020,0.000,0.000,0.000
1644350949551088128,2022-02-08-20:09:09,10.1.1.3,34,0.030,0.030,0.030,0.000,0.000,0.000
1644350949650956032,2022-02-08-20:09:09,10.1.1.3,33,0.040,0.040,0.040,0.000,0.000,0.000
1644350949767568128,2022-02-08-20:09:09,10.1.1.3,25,0.050,0.050,0.050,0.000,0.000,0.000
1644350949850662912,2022-02-08-20:09:09,10.1.1.3,25,0.060,0.060,0.060,0.000,0.000,0.000
1644350949950750208,2022-02-08-20:09:09,10.1.1.3,24,0.070,0.070,0.070,0.000,0.000,0.000
1644350950050504960,2022-02-08-20:09:10,10.1.1.3,23,0.080,0.080,0.080,0.000,0.000,0.000
1644350950150960896,2022-02-08-20:09:10,10.1.1.3,22,0.090,0.090,0.090,0.000,0.000,0.000
1644350950251015936,2022-02-08-20:09:10,10.1.1.3,22,0.100,0.100,0.100,0.000,0.000,0.000
1644350950351234816,2022-02-08-20:09:10,10.1.1.3,22,0.090,0.090,0.090,0.000,0.000,0.000
1644350950450795776,2022-02-08-20:09:10,10.1.1.3,21,0.080,0.080,0.080,0.000,0.000,0.000
1644350950550736896,2022-02-08-20:09:10,10.1.1.3,21,0.070,0.070,0.070,0.000,0.000,0.000
1644350950650804992,2022-02-08-20:09:10,10.1.1.3,20,0.060,0.060,0.060,0.000,0.000,0.000
1644350950750801920,2022-02-08-20:09:10,10.1.1.3,20,0.050,0.050,0.050,0.000,0.000,0.000
1644350950850882048,2022-02-08-20:09:10,10.1.1.3,19,0.040,0.040,0.040,0.000,0.000,0.000
1644350950951840000,2022-02-08-20:09:10,10.1.1.3,19,0.031,0.031,0.031,0.000,0.000,0.000
1644350951070846208,2022-02-08-20:09:11,10.1.1.3,38,0.020,0.020,0.020,0.000,0.000,0.000
1644350951170934016,2022-02-08-20:09:11,10.1.1.3,38,0.010,0.010,0.010,0.000,0.000,0.000
1644350951272237056,2022-02-08-20:09:11,10.1.1.3,37,0.000,0.000,0.000,0.000,0.000,0.000
1644350951370680064,2022-02-08-20:09:11,10.1.1.3,36,-0.010,-0.010,-0.010,0.000,0.000,0.000
1644350951471414016,2022-02-08-20:09:11,10.1.1.3,36,-0.020,-0.020,-0.020,0.000,0.000,0.000
1644350951571030016,2022-02-08-20:09:11,10.1.1.3,34,-0.030,-0.030,-0.030,0.000,0.000,0.000
1644350951670926080,2022-02-08-20:09:11,10.1.1.3,34,-0.040,-0.040,-0.040,0.000,0.000,0.000
1644350951771193088,2022-02-08-20:09:11,10.1.1.3,34,-0.050,-0.050,-0.050,0.000,0.000,0.000
1644350951870596864,2022-02-08-20:09:11,10.1.1.3,33,-0.060,-0.060,-0.060,0.000,0.000,0.000
1644350951970947072,2022-02-08-20:09:11,10.1.1.3,32,-0.070,-0.070,-0.070,0.000,0.000,0.000
1644350952071006976,2022-02-08-20:09:12,10.1.1.3,32,-0.080,-0.080,-0.080,0.000,0.000,0.000
1644350952170452224,2022-02-08-20:09:12,10.1.1.3,31,-0.090,-0.090,-0.090,0.000,0.000,0.000
1644350952271240960,2022-02-08-20:09:12,10.1.1.3,31,-0.100,-0.100,-0.100,0.000,0.000,0.000
1644350952370734848,2022-02-08-20:09:12,10.1.1.3,30,-0.090,-0.090,-0.090,0.000,0.000,0.000
1644350952470493952,2022-02-08-20:09:12,10.1.1.3,29,-0.080,-0.080,-0.080,0.000,0.000,0.000
1644350952571415808,2022-02-08-20:09:12,10.1.1.3,29,-0.070,-0.070,-0.070,0.000,0.000,0.000
1644350952673059840,2022-02-08-20:09:12,10.1.1.3,24,-0.060,-0.060,-0.060,0.000,0.000,0.000
1644350952771856128,2022-02-08-20:09:12,10.1.1.3,23,-0.050,-0.050,-0.050,0.000,0.000,0.000
1644350952871133184,2022-02-08-20:09:12,10.1.1.3,23,-0.040,-0.040,-0.040,0.000,0.000,0.000
1644350952971343104,2022-02-08-20:09:12,10.1.1.3,22,-0.030,-0.030,-0.030,0.000,0.000,0.000
1644350953071287040,2022-02-08-20:09:13,10.1.1.3,21,-0.020,-0.020,-0.020,0.000,0.000,0.000
1644350953171921920,2022-02-08-20:09:13,10.1.1.3,21,-0.010,-0.010,-0.010,0.000,0.000,0.000
1644350953270996992,2022-02-08-20:09:13,10.1.1.3,21,0.000,0.000,0.000,0.000,0.000,0.000
1644350953370974976,2022-02-08-20:09:13,10.1.1.3,20,0.010,0.010,0.010,0.000,0.000,0.000
1644350953471088896,2022-02-08-20:09:13,10.1.1.3,20,0.020,0.020,0.020,0.000,0.000,0.000
1644350953571414016,2022-02-08-20:09:13,10.1.1.3,19,0.030,0.030,0.030,0.000,0.000,0.000
1644350953670845952,2022-02-08-20:09:13,10.1.1.3,19,0.039,0.039,0.039,0.000,0.000,0.000
1644350953790957824,2022-02-08-20:09:13,10.1.1.3,38,0.050,0.050,0.050,0.000,0.000,0.000
1644350953891496960,2022-02-08-20:09:13,10.1.1.3,37,0.060,0.060,0.060,0.000,0.000,0.000
1644350953991353088,2022-02-08-20:09:13,10.1.1.3,36,0.070,0.070,0.070,0.000,0.000,0.000
1644350954090892032,2022-02-08-20:09:14,10.1.1.3,36,0.080,0.080,0.080,0.000,0.000,0.000
1644350954190902016,2022-02-08-20:09:14,10.1.1.3,35,0.090,0.090,0.090,0.000,0.000,0.000
1644350954291017984,2022-02-08-20:09:14,10.1.1.3,35,0.100,0.100,0.100,0.000,0.000,0.000
1644350954390932992,2022-02-08-20:09:14,10.1.1.3,34,0.090,0.090,0.090,0.000,0.000,0.000
1644350954491249920,2022-02-08-20:09:14,10.1.1.3,32,0.080,0.080,0.080,0.000,0.000,0.000
1644350954591520000,2022-02-08-20:09:14,10.1.1.3,32,0.070,0.070,0.070,0.000,0.000,0.000
1644350954690802944,2022-02-08-20:09:14,10.1.1.3,25,0.060,0.060,0.060,0.000,0.000,0.000
1644350954791260928,2022-02-08-20:09:14,10.1.1.3,25,0.050,0.050,0.050,0.000,0.000,0.000
1644350954891249920,2022-02-08-20:09:14,10.1.1.3,24,0.040,0.040,0.040,0.000,0.000,0.000
1644350954991286016,2022-02-08-20:09:14,10.1.1.3,24,0.030,0.030,0.030,0.000,0.000,0.000
1644350955090880000,2022-02-08-20:09:15,10.1.1.3,24,0.020,0.020,0.020,0.000,0.000,0.000
1644350955190972928,2022-02-08-20:09:15,10.1.1.3,23,0.010,0.010,0.010,0.000,0.000,0.000
1644350955291462912,2022-02-08-20:09:15,10.1.1.3,23,0.000,0.000,0.000,0.000,0.000,0.000
1644350955391495936,2022-02-08-20:09:15,10.1.1.3,22,-0.010,-0.010,-0.010,0.000,0.000,0.000
1644350955492387072,2022-02-08-20:09:15,10.1.1.3,21,-0.020,-0.020,-0.020,0.000,0.000,0.000
1644350955606644992,2022-02-08-20:09:15,10.1.1.3,21,-0.030,-0.030,-0.030,0.000,0.000,0.000
1644350955710673920,2022-02-08-20:09:15,10.1.1.3,27,-0.040,-0.040,-0.040,0.000,0.000,0.000
1644350955811280896,2022-02-08-20:09:15,10.1.1.3,25,-0.050,-0.050,-0.050,0.000,0.000,0.000
1644350955911014144,2022-02-08-20:09:15,10.1.1.3,23,-0.060,-0.060,-0.060,0.000,0.000,0.000
1644350956010870016,2022-02-08-20:09:16,10.1.1.3,23,-0.070,-0.070,-0.070,0.000,0.000,0.000
1644350956111112960,2022-02-08-20:09:16,10.1.1.3,22,-0.080,-0.080,-0.080,0.000,0.000,0.000
1644350956210836992,2022-02-08-20:09:16,10.1.1.3,21,-0.090,-0.090,-0.090,0.000,0.000,0.000
1644350956311155968,2022-02-08-20:09:16,10.1.1.3,20,-0.100,-0.100,-0.100,0.000,0.000,0.000
1644350956411047936,2022-02-08-20:09:16,10.1.1.3,20,-0.090,-0.090,-0.090,0.000,0.000,0.000
1644350956511735808,2022-02-08-20:09:16,10.1.1.3,19,-0.080,-0.080,-0.080,0.000,0.000,0.000
1644350956631217920,2022-02-08-20:09:16,10.1.1.3,37,-0.070,-0.070,-0.070,0.000,0.000,0.000
1644350956731384064,2022-02-08-20:09:16,10.1.1.3,36,-0.060,-0.060,-0.060,0.000,0.000,0.000
1644350956831079936,2022-02-08-20:09:16,10.1.1.3,36,-0.050,-0.050,-0.050,0.000,0.000,0.000
1644350956930953984,2022-02-08-20:09:16,10.1.1.3,36,-0.040,-0.040,-0.040,0.000,0.000,0.000
1644350957030419968,2022-02-08-20:09:17,10.1.1.3,23,-0.030,-0.030,-0.030,0.000,0.000,0.000
1644350957131145984,2022-02-08-20:09:17,10.1.1.3,23,-0.020,-0.020,-0.020,0.000,0.000,0.000
1644350957237891072,2022-02-08-20:09:17,10.1.1.3,20,-0.010,-0.010,-0.010,0.000,0.000,0.000
1644350957361848064,2022-02-08-20:09:17,10.1.1.3,32,0.000,0.000,0.000,0.000,0.000,0.000
1644350957454010880,2022-02-08-20:09:17,10.1.1.3,32,0.010,0.010,0.010,0.000,0.000,0.000
1644350957551321088,2022-02-08-20:09:17,10.1.1.3,28,0.020,0.020,0.020,0.000,0.000,0.000
1644350957651102976,2022-02-08-20:09:17,10.1.1.3,28,0.030,0.030,0.030,0.000,0.000,0.000
1644350957771483904,2022-02-08-20:09:17,10.1.1.3,35,0.040,0.040,0.040,0.000,0.000,0.000
1644350957870623232,2022-02-08-20:09:17,10.1.1.3,34,0.050,0.050,0.050,0.000,0.000,0.000
1644350957989453056,2022-02-08-20:09:17,10.1.1.3,34,0.060,0.060,0.060,0.000,0.000,0.000
1644350958091289088,2022-02-08-20:09:18,10.1.1.3,25,0.070,0.070,0.070,0.000,0.000,0.000
1644350958190924800,2022-02-08-20:09:18,10.1.1.3,24,0.080,0.080,0.080,0.000,0.000,0.000
1644350958295480064,2022-02-08-20:09:18,10.1.1.3,23,0.090,0.090,0.090,0.000,0.000,0.000
1644350958391456000,2022-02-08-20:09:18,10.1.1.3,22,0.100,0.100,0.100,0.000,0.000,0.000
1644350958492171008,2022-02-08-20:09:18,10.1.1.3,21,0.090,0.090,0.090,0.000,0.000,0.000
1644350958592157952,2022-02-08-20:09:18,10.1.1.3,20,0.080,0.080,0.080,0.000,0.000,0.000
1644350958691858944,2022-02-08-20:09:18,10.1.1.3,19,0.070,0.070,0.070,0.000,0.000,0.000
1644350958811467776,2022-02-08-20:09:18,10.1.1.3,39,0.060,0.060,0.060,0.000,0.000,0.000
1644350958911410944,2022-02-08-20:09:18,10.1.1.3,37,0.050,0.050,0.050,0.000,0.000,0.000
1644350959011912192,2022-02-08-20:09:19,10.1.1.3,37,0.040,0.040,0.040,0.000,0.000,0.000
1644350959111890176,2022-02-08-20:09:19,10.1.1.3,36,0.030,0.030,0.030,0.000,0.000,0.000
1644350959211193088,2022-02-08-20:09:19,10.1.1.3,35,0.020,0.020,0.020,0.000,0.000,0.000
1644350959311165952,2022-02-08-20:09:19,10.1.1.3,35,0.010,0.010,0.010,0.000,0.000,0.000
1644350959411573760,2022-02-08-20:09:19,10.1.1.3,34,0.000,0.000,0.000,0.000,0.000,0.000
1644350959511270912,2022-02-08-20:09:19,10.1.1.3,34,-0.010,-0.010,-0.010,0.000,0.000,0.000
1644350959612271104,2022-02-08-20:09:19,10.1.1.3,33,-0.020,-0.020,-0.020,0.000,0.000,0.000
1644350959711581952,2022-02-08-20:09:19,10.1.1.3,32,-0.030,-0.030,-0.030,0.000,0.000,0.000
1644350959811399936,2022-02-08-20:09:19,10.1.1.3,31,-0.040,-0.040,-0.040,0.000,0.000,0.000
1644350959912108800,2022-02-08-20:09:19,10.1.1.3,31,-0.050,-0.050,-0.050,0.000,0.000,0.000
1644350960012139008,2022-02-08-20:09:20,10.1.1.3,30,-0.060,-0.060,-0.060,0.000,0.000,0.000
1644350960111475968,2022-02-08-20:09:20,10.1.1.3,30,-0.070,-0.070,-0.070,0.000,0.000,0.000
1644350960212143872,2022-02-08-20:09:20,10.1.1.3,29,-0.080,-0.080,-0.080,0.000,0.000,0.000
1644350960312870912,2022-02-08-20:09:20,10.1.1.3,29,-0.090,-0.090,-0.090,0.000,0.000,0.000
1644350960411709952,2022-02-08-20:09:20,10.1.1.3,28,-0.100,-0.100,-0.100,0.000,0.000,0.000
1644350960511617024,2022-02-08-20:09:20,10.1.1.3,28,-0.090,-0.090,-0.090,0.000,0.000,0.000
1644350960611269120,2022-02-08-20:09:20,10.1.1.3,27,-0.080,-0.080,-0.080,0.000,0.000,0.000
1644350960711561984,2022-02-08-20:09:20,10.1.1.3,27,-0.070,-0.070,-0.070,0.000,0.000,0.000
1644350960811584000,2022-02-08-20:09:20,10.1.1.3,25,-0.060,-0.060,-0.060,0.000,0.000,0.000
1644350960911174144,2022-02-08-20:09:20,10.1.1.3,25,-0.050,-0.050,-0.050,0.000,0.000,0.000
1644350961010780928,2022-02-08-20:09:21,10.1.1.3,24,-0.040,-0.040,-0.040,0.000,0.000,0.000
1644350961111934976,2022-02-08-20:09:21,10.1.1.3,24,-0.030,-0.030,-0.030,0.000,0.000,0.000
1644350961211302144,2022-02-08-20:09:21,10.1.1.3,24,-0.020,-0.020,-0.020,0.000,0.000,0.000
1644350961310999040,2022-02-08-20:09:21,10.1.1.3,23,-0.010,-0.010,-0.010,0.000,0.000,0.000
1644350961411924992,2022-02-08-20:09:21,10.1.1.3,23,0.000,0.000,0.000,0.000,0.000,0.000
1644350961511621888,2022-02-08-20:09:21,10.1.1.3,22,0.010,0.010,0.010,0.000,0.000,0.000
1644350961611145984,2022-02-08-20:09:21,10.1.1.3,21,0.020,0.020,0.020,0.000,0.000,0.000
1644350961711030016,2022-02-08-20:09:21,10.1.1.3,20,0.030,0.030,0.030,0.000,0.000,0.000
1644350961811438080,2022-02-08-20:09:21,10.1.1.3,20,0.040,0.040,0.040,0.000,0.000,0.000
1644350961911185920,2022-02-08-20:09:21,10.1.1.3,19,0.050,0.050,0.050,0.000,0.000,0.000
1644350962011537152,2022-02-08-20:09:22,10.1.1.3,19,0.059,0.059,0.059,0.000,0.000,0.000
1644350962130775808,2022-02-08-20:09:22,10.1.1.3,38,0.070,0.070,0.070,0.000,0.000,0.000
1644350962231583232,2022-02-08-20:09:22,10.1.1.3,38,0.080,0.080,0.080,0.000,0.000,0.000
1644350962332098048,2022-02-08-20:09:22,10.1.1.3,38,0.090,0.090,0.090,0.000,0.000,0.000
1644350962431364096,2022-02-08-20:09:22,10.1.1.3,37,0.100,0.100,0.100,0.000,0.000,0.000
1644350962531964928,2022-02-08-20:09:22,10.1.1.3,36,0.090,0.090,0.090,0.000,0.000,0.000
1644350962630983168,2022-02-08-20:09:22,10.1.1.3,36,0.080,0.080,0.080,0.000,0.000,0.000
1644350962730979840,2022-02-08-20:09:22,10.1.1.3,35,0.070,0.070,0.070,0.000,0.000,0.000
1644350962831779840,2022-02-08-20:09:22,10.1.1.3,35,0.060,0.060,0.060,0.000,0.000,0.000
1644350962931328000,2022-02-08-20:09:22,10.1.1.3,34,0.050,0.050,0.050,0.000,0.000,0.000
1644350963031471872,2022-02-08-20:09:23,10.1.1.3,34,0.040,0.040,0.040,0.000,0.000,0.000
1644350963130827008,2022-02-08-20:09:23,10.1.1.3,33,0.030,0.030,0.030,0.000,0.000,0.000
1644350963231425024,2022-02-08-20:09:23,10.1.1.3,31,0.020,0.020,0.020,0.000,0.000,0.000
1644350963331574016,2022-02-08-20:09:23,10.1.1.3,30,0.010,0.010,0.010,0.000,0.000,0.000
1644350963431400960,2022-02-08-20:09:23,10.1.1.3,29,0.000,0.000,0.000,0.000,0.000,0.000
1644350963530555904,2022-02-08-20:09:23,10.1.1.3,29,-0.010,-0.010,-0.010,0.000,0.000,0.000
1644350963633089024,2022-02-08-20:09:23,10.1.1.3,27,-0.020,-0.020,-0.020,0.000,0.000,0.000
1644350963731062784,2022-02-08-20:09:23,10.1.1.3,27,-0.030,-0.030,-0.030,0.000,0.000,0.000
1644350963830784000,2022-02-08-20:09:23,10.1.1.3,26,-0.040,-0.040,-0.040,0.000,0.000,0.000
1644350963930601984,2022-02-08-20:09:23,10.1.1.3,26,-0.050,-0.050,-0.050,0.000,0.000,0.000
1644350964031086080,2022-02-08-20:09:24,10.1.1.3,25,-0.060,-0.060,-0.060,0.000,0.000,0.000
1644350964131383040,2022-02-08-20:09:24,10.1.1.3,25,-0.070,-0.070,-0.070,0.000,0.000,0.000
1644350964231012096,2022-02-08-20:09:24,10.1.1.3,24,-0.080,-0.080,-0.080,0.000,0.000,0.000
1644350964330893056,2022-02-08-20:09:24,10.1.1.3,24,-0.090,-0.090,-0.090,0.000,0.000,0.000
1644350964431284992,2022-02-08-20:09:24,10.1.1.3,23,-0.100,-0.100,-0.100,0.000,0.000,0.000
1644350964530530816,2022-02-08-20:09:24,10.1.1.3,22,-0.090,-0.090,-0.090,0.000,0.000,0.000
1644350964631180032,2022-02-08-20:09:24,10.1.1.3,22,-0.080,-0.080,-0.080,0.000,0.000,0.000
1644350964731204864,2022-02-08-20:09:24,10.1.1.3,21,-0.070,-0.070,-0.070,0.000,0.000,0.000
1644350964831249920,2022-02-08-20:09:24,10.1.1.3,21,-0.060,-0.060,-0.060,0.000,0.000,0.000
1644350964930563840,2022-02-08-20:09:24,10.1.1.3,20,-0.050,-0.050,-0.050,0.000,0.000,0.000
1644350965031910912,2022-02-08-20:09:25,10.1.1.3,20,-0.040,-0.040,-0.040,0.000,0.000,0.000
1644350965131038976,2022-02-08-20:09:25,10.1.1.3,19,-0.030,-0.030,-0.030,0.000,0.000,0.000
1644350965231322112,2022-02-08-20:09:25,10.1.1.3,19,-0.021,-0.021,-0.021,0.000,0.000,0.000
1644350965350722048,2022-02-08-20:09:25,10.1.1.3,37,-0.010,-0.010,-0.010,0.000,0.000,0.000
1644350965451819008,2022-02-08-20:09:25,10.1.1.3,37,0.000,0.000,0.000,0.000,0.000,0.000
1644350965551009792,2022-02-08-20:09:25,10.1.1.3,36,0.010,0.010,0.010,0.000,0.000,0.000
1644350965651427072,2022-02-08-20:09:25,10.1.1.3,36,0.020,0.020,0.020,0.000,0.000,0.000
1644350965751223040,2022-02-08-20:09:25,10.1.1.3,35,0.030,0.030,0.030,0.000,0.000,0.000
1644350965851151872,2022-02-08-20:09:25,10.1.1.3,35,0.040,0.040,0.040,0.000,0.000,0.000
1644350965950814976,2022-02-08-20:09:25,10.1.1.3,34,0.050,0.050,0.050,0.000,0.000,0.000
1644350966050964992,2022-02-08-20:09:26,10.1.1.3,34,0.060,0.060,0.060,0.000,0.000,0.000
1644350966150782976,2022-02-08-20:09:26,10.1.1.3,33,0.070,0.070,0.070,0.000,0.000,0.000
1644350966251107840,2022-02-08-20:09:26,10.1.1.3,33,0.080,0.080,0.080,0.000,0.000,0.000
1644350966351521024,2022-02-08-20:09:26,10.1.1.3,32,0.090,0.090,0.090,0.000,0.000,0.000
1644350966451428864,2022-02-08-20:09:26,10.1.1.3,31,0.100,0.100,0.100,0.000,0.000,0.000
1644350966551111936,2022-02-08-20:09:26,10.1.1.3,31,0.090,0.090,0.090,0.000,0.000,0.000
1644350966651503104,2022-02-08-20:09:26,10.1.1.3,30,0.080,0.080,0.080,0.000,0.000,0.000
1644350966751409920,2022-02-08-20:09:26,10.1.1.3,30,0.070,0.070,0.070,0.000,0.000,0.000
1644350966851432960,2022-02-08-20:09:26,10.1.1.3,29,0.060,0.060,0.060,0.000,0.000,0.000
1644350966951308032,2022-02-08-20:09:26,10.1.1.3,29,0.050,0.050,0.050,0.000,0.000,0.000
1644350967050978816,2022-02-08-20:09:27,10.1.1.3,28,0.040,0.040,0.040,0.000,0.000,0.000
1644350967151047936,2022-02-08-20:09:27,10.1.1.3,28,0.030,0.030,0.030,0.000,0.000,0.000
1644350967251418112,2022-02-08-20:09:27,10.1.1.3,27,0.020,0.020,0.020,0.000,0.000,0.000
1644350967351833088,2022-02-08-20:09:27,10.1.1.3,26,0.010,0.010,0.010,0.000,0.000,0.000
1644350967451544064,2022-02-08-20:09:27,10.1.1.3,25,0.000,0.000,0.000,0.000,0.000,0.000
1644350967551304192,2022-02-08-20:09:27,10.1.1.3,25,-0.010,-0.010,-0.010,0.000,0.000,0.000
1644350967651012864,2022-02-08-20:09:27,10.1.1.3,25,-0.020,-0.020,-0.020,0.000,0.000,0.000
1644350967750708992,2022-02-08-20:09:27,10.1.1.3,24,-0.030,-0.030,-0.030,0.000,0.000,0.000
1644350967851027968,2022-02-08-20:09:27,10.1.1.3,24,-0.040,-0.040,-0.040,0.000,0.000,0.000
1644350967952413952,2022-02-08-20:09:27,10.1.1.3,22,-0.050,-0.050,-0.050,0.000,0.000,0.000
1644350968050740992,2022-02-08-20:09:28,10.1.1.3,20,-0.060,-0.060,-0.060,0.000,0.000,0.000
1644350968150599936,2022-02-08-20:09:28,10.1.1.3,20,-0.070,-0.070,-0.070,0.000,0.000,0.000
1644350968250994944,2022-02-08-20:09:28,10.1.1.3,19,-0.080,-0.080,-0.080,0.000,0.000,0.000
1644350968351412992,2022-02-08-20:09:28,10.1.1.3,19,-0.090,-0.090,-0.090,0.000,0.000,0.000
1644350968470809856,2022-02-08-20:09:28,10.1.1.3,38,-0.100,-0.100,-0.100,0.000,0.000,0.000
1644350968571204864,2022-02-08-20:09:28,10.1.1.3,36,-0.090,-0.090,-0.090,0.000,0.000,0.000
1644350968670725120,2022-02-08-20:09:28,10.1.1.3,36,-0.080,-0.080,-0.080,0.000,0.000,0.000
1644350968771750912,2022-02-08-20:09:28,10.1.1.3,35,-0.070,-0.070,-0.070,0.000,0.000,0.000
1644350968871174144,2022-02-08-20:09:28,10.1.1.3,35,-0.060,-0.060,-0.060,0.000,0.000,0.000
1644350968971600128,2022-02-08-20:09:28,10.1.1.3,35,-0.050,-0.050,-0.050,0.000,0.000,0.000
1644350969071650048,2022-02-08-20:09:29,10.1.1.3,34,-0.040,-0.040,-0.040,0.000,0.000,0.000
1644350969171281152,2022-02-08-20:09:29,10.1.1.3,34,-0.030,-0.030,-0.030,0.000,0.000,0.000
1644350969271389952,2022-02-08-20:09:29,10.1.1.3,32,-0.020,-0.020,-0.020,0.000,0.000,0.000
1644350969370932224,2022-02-08-20:09:29,10.1.1.3,32,-0.010,-0.010,-0.010,0.000,0.000,0.000
1644350969471293952,2022-02-08-20:09:29,10.1.1.3,31,0.000,0.000,0.000,0.000,0.000,0.000
1644350969571878912,2022-02-08-20:09:29,10.1.1.3,30,0.010,0.010,0.010,0.000,0.000,0.000
1644350969672141056,2022-02-08-20:09:29,10.1.1.3,29,0.020,0.020,0.020,0.000,0.000,0.000
1644350969771536128,2022-02-08-20:09:29,10.1.1.3,29,0.030,0.030,0.030,0.000,0.000,0.000
1644350969871195904,2022-02-08-20:09:29,10.1.1.3,28,0.040,0.040,0.040,0.000,0.000,0.000
1644350969972317952,2022-02-08-20:09:29,10.1.1.3,28,0.050,0.050,0.050,0.000,0.000,0.000
1644350970071142912,2022-02-08-20:09:30,10.1.1.3,27,0.060,0.060,0.060,0.000,0.000,0.000
1644350970171410944,2022-02-08-20:09:30,10.1.1.3,26,0.070,0.070,0.070,0.000,0.000,0.000
1644350970270821120,2022-02-08-20:09:30,10.1.1.3,25,0.080,0.080,0.080,0.000,0.000,0.000
1644350970370979072,2022-02-08-20:09:30,10.1.1.3,24,0.090,0.090,0.090,0.000,0.000,0.000
1644350970471229184,2022-02-08-20:09:30,10.1.1.3,24,0.100,0.100,0.100,0.000,0.000,0.000
1644350970571552000,2022-02-08-20:09:30,10.1.1.3,23,0.090,0.090,0.090,0.000,0.000,0.000
1644350970671392000,2022-02-08-20:09:30,10.1.1.3,22,0.080,0.080,0.080,0.000,0.000,0.000
1644350970771528960,2022-02-08-20:09:30,10.1.1.3,21,0.070,0.070,0.070,0.000,0.000,0.000
1644350970871660032,2022-02-08-20:09:30,10.1.1.3,21,0.060,0.060,0.060,0.000,0.000,0.000
1644350970971518976,2022-02-08-20:09:30,10.1.1.3,20,0.050,0.050,0.050,0.000,0.000,0.000
1644350971072068864,2022-02-08-20:09:31,10.1.1.3,20,0.040,0.040,0.040,0.000,0.000,0.000
1644350971171596032,2022-02-08-20:09:31,10.1.1.3,19,0.030,0.030,0.030,0.000,0.000,0.000
1644350971271585024,2022-02-08-20:09:31,10.1.1.3,19,0.021,0.021,0.021,0.000,0.000,0.000
1644350971391254016,2022-02-08-20:09:31,10.1.1.3,38,0.010,0.010,0.010,0.000,0.000,0.000
1644350971491542016,2022-02-08-20:09:31,10.1.1.3,37,0.000,0.000,0.000,0.000,0.000,0.000
1644350971591222016,2022-02-08-20:09:31,10.1.1.3,37,-0.010,-0.010,-0.010,0.000,0.000,0.000
1644350971691631104,2022-02-08-20:09:31,10.1.1.3,36,-0.020,-0.020,-0.020,0.000,0.000,0.000
1644350971790811136,2022-02-08-20:09:31,10.1.1.3,35,-0.030,-0.030,-0.030,0.000,0.000,0.000
1644350971895770112,2022-02-08-20:09:31,10.1.1.3,35,-0.040,-0.040,-0.040,0.000,0.000,0.000
1644350971991170048,2022-02-08-20:09:31,10.1.1.3,35,-0.050,-0.050,-0.050,0.000,0.000,0.000
1644350972091006976,2022-02-08-20:09:32,10.1.1.3,34,-0.060,-0.060,-0.060,0.000,0.000,0.000
1644350972191471104,2022-02-08-20:09:32,10.1.1.3,34,-0.070,-0.070,-0.070,0.000,0.000,0.000
1644350972291208960,2022-02-08-20:09:32,10.1.1.3,33,-0.080,-0.080,-0.080,0.000,0.000,0.000
1644350972391343104,2022-02-08-20:09:32,10.1.1.3,33,-0.090,-0.090,-0.090,0.000,0.000,0.000
1644350972491170048,2022-02-08-20:09:32,10.1.1.3,32,-0.100,-0.100,-0.100,0.000,0.000,0.000
1644350972590894848,2022-02-08-20:09:32,10.1.1.3,32,-0.090,-0.090,-0.090,0.000,0.000,0.000
1644350972690618112,2022-02-08-20:09:32,10.1.1.3,31,-0.080,-0.080,-0.080,0.000,0.000,0.000
1644350972791846144,2022-02-08-20:09:32,10.1.1.3,31,-0.070,-0.070,-0.070,0.000,0.000,0.000
1644350972891747072,2022-02-08-20:09:32,10.1.1.3,30,-0.060,-0.060,-0.060,0.000,0.000,0.000
1644350972991105024,2022-02-08-20:09:32,10.1.1.3,29,-0.050,-0.050,-0.050,0.000,0.000,0.000
1644350973091201024,2022-02-08-20:09:33,10.1.1.3,29,-0.040,-0.040,-0.040,0.000,0.000,0.000
1644350973191787008,2022-02-08-20:09:33,10.1.1.3,23,-0.030,-0.030,-0.030,0.000,0.000,0.000
1644350973291371008,2022-02-08-20:09:33,10.1.1.3,23,-0.020,-0.020,-0.020,0.000,0.000,0.000
1644350973391485952,2022-02-08-20:09:33,10.1.1.3,22,-0.010,-0.010,-0.010,0.000,0.000,0.000
1644350973491380992,2022-02-08-20:09:33,10.1.1.3,21,0.000,0.000,0.000,0.000,0.000,0.000
1644350973590766080,2022-02-08-20:09:33,10.1.1.3,20,0.010,0.010,0.010,0.000,0.000,0.000
1644350973691843072,2022-02-08-20:09:33,10.1.1.3,20,0.020,0.020,0.020,0.000,0.000,0.000
1644350973791281920,2022-02-08-20:09:33,10.1.1.3,20,0.030,0.030,0.030,0.000,0.000,0.000
1644350973894667008,2022-02-08-20:09:33,10.1.1.3,19,0.040,0.040,0.040,0.000,0.000,0.000
1644350974011346944,2022-02-08-20:09:34,10.1.1.3,38,0.050,0.050,0.050,0.000,0.000,0.000
1644350974111373056,2022-02-08-20:09:34,10.1.1.3,38,0.060,0.060,0.060,0.000,0.000,0.000
1644350974210850048,2022-02-08-20:09:34,10.1.1.3,37,0.070,0.070,0.070,0.000,0.000,0.000
1644350974311168000,2022-02-08-20:09:34,10.1.1.3,37,0.080,0.080,0.080,0.000,0.000,0.000
1644350974411148032,2022-02-08-20:09:34,10.1.1.3,36,0.090,0.090,0.090,0.000,0.000,0.000
1644350974511631872,2022-02-08-20:09:34,10.1.1.3,36,0.100,0.100,0.100,0.000,0.000,0.000
1644350974611158016,2022-02-08-20:09:34,10.1.1.3,34,0.090,0.090,0.090,0.000,0.000,0.000
1644350974712043008,2022-02-08-20:09:34,10.1.1.3,34,0.080,0.080,0.080,0.000,0.000,0.000
1644350974811408896,2022-02-08-20:09:34,10.1.1.3,34,0.070,0.070,0.070,0.000,0.000,0.000
1644350974911240960,2022-02-08-20:09:34,10.1.1.3,33,0.060,0.060,0.060,0.000,0.000,0.000
1644350975011048192,2022-02-08-20:09:35,10.1.1.3,33,0.050,0.050,0.050,0.000,0.000,0.000
1644350975110748160,2022-02-08-20:09:35,10.1.1.3,32,0.040,0.040,0.040,0.000,0.000,0.000
1644350975210927104,2022-02-08-20:09:35,10.1.1.3,32,0.030,0.030,0.030,0.000,0.000,0.000
1644350975310811904,2022-02-08-20:09:35,10.1.1.3,31,0.020,0.020,0.020,0.000,0.000,0.000
1644350975414514176,2022-02-08-20:09:35,10.1.1.3,28,0.010,0.010,0.010,0.000,0.000,0.000
1644350975511197952,2022-02-08-20:09:35,10.1.1.3,28,0.000,0.000,0.000,0.000,0.000,0.000
1644350975610971904,2022-02-08-20:09:35,10.1.1.3,27,-0.010,-0.010,-0.010,0.000,0.000,0.000
1644350975711461120,2022-02-08-20:09:35,10.1.1.3,26,-0.020,-0.020,-0.020,0.000,0.000,0.000
1644350975810957824,2022-02-08-20:09:35,10.1.1.3,25,-0.030,-0.030,-0.030,0.000,0.000,0.000
1644350975920201984,2022-02-08-20:09:35,10.1.1.3,25,-0.040,-0.040,-0.040,0.000,0.000,0.000
1644350976011117056,2022-02-08-20:09:36,10.1.1.3,25,-0.050,-0.050,-0.050,0.000,0.000,0.000
1644350976111279872,2022-02-08-20:09:36,10.1.1.3,24,-0.060,-0.060,-0.060,0.000,0.000,0.000
1644350976211544064,2022-02-08-20:09:36,10.1.1.3,21,-0.070,-0.070,-0.070,0.000,0.000,0.000
1644350976311342080,2022-02-08-20:09:36,10.1.1.3,20,-0.080,-0.080,-0.080,0.000,0.000,0.000
1644350976412247040,2022-02-08-20:09:36,10.1.1.3,20,-0.090,-0.090,-0.090,0.000,0.000,0.000
1644350976511166976,2022-02-08-20:09:36,10.1.1.3,19,-0.100,-0.100,-0.100,0.000,0.000,0.000
1644350976611471872,2022-02-08-20:09:36,10.1.1.3,19,-0.091,-0.091,-0.091,0.000,0.000,0.000
1644350976731247872,2022-02-08-20:09:36,10.1.1.3,37,-0.080,-0.080,-0.080,0.000,0.000,0.000
1644350976831736064,2022-02-08-20:09:36,10.1.1.3,37,-0.070,-0.070,-0.070,0.000,0.000,0.000
1644350976931660800,2022-02-08-20:09:36,10.1.1.3,37,-0.060,-0.060,-0.060,0.000,0.000,0.000
1644350977030769152,2022-02-08-20:09:37,10.1.1.3,36,-0.050,-0.050,-0.050,0.000,0.000,0.000
1644350977132786944,2022-02-08-20:09:37,10.1.1.3,36,-0.040,-0.040,-0.040,0.000,0.000,0.000
1644350977231211008,2022-02-08-20:09:37,10.1.1.3,35,-0.030,-0.030,-0.030,0.000,0.000,0.000
1644350977331590912,2022-02-08-20:09:37,10.1.1.3,35,-0.020,-0.020,-0.020,0.000,0.000,0.000
1644350977431404032,2022-02-08-20:09:37,10.1.1.3,34,-0.010,-0.010,-0.010,0.000,0.000,0.000
1644350977531787008,2022-02-08-20:09:37,10.1.1.3,34,0.000,0.000,0.000,0.000,0.000,0.000
1644350977631254016,2022-02-08-20:09:37,10.1.1.3,33,0.010,0.010,0.010,0.000,0.000,0.000
1644350977731416832,2022-02-08-20:09:37,10.1.1.3,33,0.020,0.020,0.020,0.000,0.000,0.000
1644350977840231936,2022-02-08-20:09:37,10.1.1.3,32,0.030,0.030,0.030,0.000,0.000,0.000
1644350977906279168,2022-02-08-20:09:37,10.1.1.3,-62,0.030,0.030,0.030,0.000,0.000,0.000
1644350978051239936,2022-02-08-20:09:38,10.1.1.3,36,0.050,0.050,0.050,0.000,0.000,0.000
1644350978151709952,2022-02-08-20:09:38,10.1.1.3,36,0.060,0.060,0.060,0.000,0.000,0.000
1644350978251656960,2022-02-08-20:09:38,10.1.1.3,35,0.070,0.070,0.070,0.000,0.000,0.000
1644350978351766016,2022-02-08-20:09:38,10.1.1.3,35,0.080,0.080,0.080,0.000,0.000,0.000
1644350978451368192,2022-02-08-20:09:38,10.1.1.3,34,0.090,0.090,0.090,0.000,0.000,0.000
1644350978554770944,2022-02-08-20:09:38,10.1.1.3,34,0.100,0.100,0.100,0.000,0.000,0.000
1644350978651796992,2022-02-08-20:09:38,10.1.1.3,33,0.090,0.090,0.090,0.000,0.000,0.000
1644350978751044096,2022-02-08-20:09:38,10.1.1.3,32,0.080,0.080,0.080,0.000,0.000,0.000
1644350978850636032,2022-02-08-20:09:38,10.1.1.3,31,0.070,0.070,0.070,0.000,0.000,0.000
1644350978951554048,2022-02-08-20:09:38,10.1.1.3,31,0.060,0.060,0.060,0.000,0.000,0.000
1644350979051750912,2022-02-08-20:09:39,10.1.1.3,30,0.050,0.050,0.050,0.000,0.000,0.000
1644350979151278080,2022-02-08-20:09:39,10.1.1.3,30,0.040,0.040,0.040,0.000,0.000,0.000
1644350979251512064,2022-02-08-20:09:39,10.1.1.3,29,0.030,0.030,0.030,0.000,0.000,0.000
1644350979351053056,2022-02-08-20:09:39,10.1.1.3,29,0.020,0.020,0.020,0.000,0.000,0.000
1644350979451319808,2022-02-08-20:09:39,10.1.1.3,28,0.010,0.010,0.010,0.000,0.000,0.000
1644350979551440896,2022-02-08-20:09:39,10.1.1.3,28,0.000,0.000,0.000,0.000,0.000,0.000
1644350979651633152,2022-02-08-20:09:39,10.1.1.3,27,-0.010,-0.010,-0.010,0.000,0.000,0.000
1644350979752379904,2022-02-08-20:09:39,10.1.1.3,25,-0.020,-0.020,-0.020,0.000,0.000,0.000
1644350979852591872,2022-02-08-20:09:39,10.1.1.3,24,-0.030,-0.030,-0.030,0.000,0.000,0.000
1644350979951802112,2022-02-08-20:09:39,10.1.1.3,23,-0.040,-0.040,-0.040,0.000,0.000,0.000
1644350980051510016,2022-02-08-20:09:40,10.1.1.3,22,-0.050,-0.050,-0.050,0.000,0.000,0.000
1644350980151709952,2022-02-08-20:09:40,10.1.1.3,22,-0.060,-0.060,-0.060,0.000,0.000,0.000
1644350980251673088,2022-02-08-20:09:40,10.1.1.3,21,-0.070,-0.070,-0.070,0.000,0.000,0.000
1644350980351439104,2022-02-08-20:09:40,10.1.1.3,20,-0.080,-0.080,-0.080,0.000,0.000,0.000
1644350980451559168,2022-02-08-20:09:40,10.1.1.3,20,-0.090,-0.090,-0.090,0.000,0.000,0.000
1644350980551874048,2022-02-08-20:09:40,10.1.1.3,19,-0.099,-0.099,-0.099,0.000,0.000,0.000
1644350980671185920,2022-02-08-20:09:40,10.1.1.3,28,-0.090,-0.090,-0.090,0.000,0.000,0.000
1644350980771614976,2022-02-08-20:09:40,10.1.1.3,28,-0.080,-0.080,-0.080,0.000,0.000,0.000
1644350980870558976,2022-02-08-20:09:40,10.1.1.3,28,-0.070,-0.070,-0.070,0.000,0.000,0.000
1644350980970489088,2022-02-08-20:09:40,10.1.1.3,27,-0.060,-0.060,-0.060,0.000,0.000,0.000
1644350981071376128,2022-02-08-20:09:41,10.1.1.3,26,-0.050,-0.050,-0.050,0.000,0.000,0.000
1644350981177028864,2022-02-08-20:09:41,10.1.1.3,26,-0.040,-0.040,-0.040,0.000,0.000,0.000
1644350981271686912,2022-02-08-20:09:41,10.1.1.3,22,-0.030,-0.030,-0.030,0.000,0.000,0.000
1644350981371356928,2022-02-08-20:09:41,10.1.1.3,22,-0.020,-0.020,-0.020,0.000,0.000,0.000
1644350981471462912,2022-02-08-20:09:41,10.1.1.3,21,-0.010,-0.010,-0.010,0.000,0.000,0.000
1644350981571997952,2022-02-08-20:09:41,10.1.1.3,21,0.000,0.000,0.000,0.000,0.000,0.000
1644350981687407872,2022-02-08-20:09:41,10.1.1.3,20,0.010,0.010,0.010,0.000,0.000,0.000
1644350981771245056,2022-02-08-20:09:41,10.1.1.3,20,0.020,0.020,0.020,0.000,0.000,0.000
1644350981873306112,2022-02-08-20:09:41,10.1.1.3,20,0.030,0.030,0.030,0.000,0.000,0.000
1644350981972129024,2022-02-08-20:09:41,10.1.1.3,19,0.040,0.040,0.040,0.000,0.000,0.000
1644350982071891968,2022-02-08-20:09:42,10.1.1.3,18,0.049,0.049,0.049,0.000,0.000,0.000
1644350982190636032,2022-02-08-20:09:42,10.1.1.3,37,0.060,0.060,0.060,0.000,0.000,0.000
1644350982291028992,2022-02-08-20:09:42,10.1.1.3,37,0.070,0.070,0.070,0.000,0.000,0.000
1644350982390897152,2022-02-08-20:09:42,10.1.1.3,36,0.080,0.080,0.080,0.000,0.000,0.000
1644350982491107840,2022-02-08-20:09:42,10.1.1.3,36,0.090,0.090,0.090,0.000,0.000,0.000
1644350982592137984,2022-02-08-20:09:42,10.1.1.3,35,0.100,0.100,0.100,0.000,0.000,0.000
1644350982691205888,2022-02-08-20:09:42,10.1.1.3,35,0.090,0.090,0.090,0.000,0.000,0.000
1644350982790673920,2022-02-08-20:09:42,10.1.1.3,34,0.080,0.080,0.080,0.000,0.000,0.000
1644350982891463168,2022-02-08-20:09:42,10.1.1.3,34,0.070,0.070,0.070,0.000,0.000,0.000
1644350982991111168,2022-02-08-20:09:42,10.1.1.3,33,0.060,0.060,0.060,0.000,0.000,0.000
1644350983091724032,2022-02-08-20:09:43,10.1.1.3,33,0.050,0.050,0.050,0.000,0.000,0.000
1644350983191265024,2022-02-08-20:09:43,10.1.1.3,32,0.040,0.040,0.040,0.000,0.000,0.000
1644350983291277056,2022-02-08-20:09:43,10.1.1.3,32,0.030,0.030,0.030,0.000,0.000,0.000
1644350983391436032,2022-02-08-20:09:43,10.1.1.3,31,0.020,0.020,0.020,0.000,0.000,0.000
1644350983491204864,2022-02-08-20:09:43,10.1.1.3,30,0.010,0.010,0.010,0.000,0.000,0.000
1644350983591337984,2022-02-08-20:09:43,10.1.1.3,30,0.000,0.000,0.000,0.000,0.000,0.000
1644350983691315968,2022-02-08-20:09:43,10.1.1.3,29,-0.010,-0.010,-0.010,0.000,0.000,0.000
1644350983791105024,2022-02-08-20:09:43,10.1.1.3,29,-0.020,-0.020,-0.020,0.000,0.000,0.000
1644350983891580160,2022-02-08-20:09:43,10.1.1.3,28,-0.030,-0.030,-0.030,0.000,0.000,0.000
1644350983991378176,2022-02-08-20:09:43,10.1.1.3,27,-0.040,-0.040,-0.040,0.000,0.000,0.000
1644350984090825984,2022-02-08-20:09:44,10.1.1.3,27,-0.050,-0.050,-0.050,0.000,0.000,0.000
1644350984191206912,2022-02-08-20:09:44,10.1.1.3,26,-0.060,-0.060,-0.060,0.000,0.000,0.000
1644350984291096064,2022-02-08-20:09:44,10.1.1.3,25,-0.070,-0.070,-0.070,0.000,0.000,0.000
1644350984391055104,2022-02-08-20:09:44,10.1.1.3,25,-0.080,-0.080,-0.080,0.000,0.000,0.000
1644350984490648064,2022-02-08-20:09:44,10.1.1.3,24,-0.090,-0.090,-0.090,0.000,0.000,0.000
1644350984590729984,2022-02-08-20:09:44,10.1.1.3,22,-0.100,-0.100,-0.100,0.000,0.000,0.000
1644350984691538944,2022-02-08-20:09:44,10.1.1.3,20,-0.090,-0.090,-0.090,0.000,0.000,0.000
1644350984790725888,2022-02-08-20:09:44,10.1.1.3,20,-0.080,-0.080,-0.080,0.000,0.000,0.000
1644350984891195904,2022-02-08-20:09:44,10.1.1.3,19,-0.070,-0.070,-0.070,0.000,0.000,0.000
1644350984990946048,2022-02-08-20:09:44,10.1.1.3,19,-0.061,-0.061,-0.061,0.000,0.000,0.000
1644350985111751936,2022-02-08-20:09:45,10.1.1.3,38,-0.050,-0.050,-0.050,0.000,0.000,0.000
1644350985211549952,2022-02-08-20:09:45,10.1.1.3,37,-0.040,-0.040,-0.040,0.000,0.000,0.000
1644350985311837952,2022-02-08-20:09:45,10.1.1.3,37,-0.030,-0.030,-0.030,0.000,0.000,0.000
1644350985410947072,2022-02-08-20:09:45,10.1.1.3,36,-0.020,-0.020,-0.020,0.000,0.000,0.000
1644350985511342080,2022-02-08-20:09:45,10.1.1.3,36,-0.010,-0.010,-0.010,0.000,0.000,0.000
1644350985611517952,2022-02-08-20:09:45,10.1.1.3,35,0.000,0.000,0.000,0.000,0.000,0.000
1644350985711268864,2022-02-08-20:09:45,10.1.1.3,34,0.010,0.010,0.010,0.000,0.000,0.000
1644350985811709952,2022-02-08-20:09:45,10.1.1.3,34,0.020,0.020,0.020,0.000,0.000,0.000
1644350985910819072,2022-02-08-20:09:45,10.1.1.3,33,0.030,0.030,0.030,0.000,0.000,0.000
1644350986010835968,2022-02-08-20:09:46,10.1.1.3,32,0.040,0.040,0.040,0.000,0.000,0.000
1644350986110998016,2022-02-08-20:09:46,10.1.1.3,32,0.050,0.050,0.050,0.000,0.000,0.000
1644350986210681856,2022-02-08-20:09:46,10.1.1.3,31,0.060,0.060,0.060,0.000,0.000,0.000
1644350986312248832,2022-02-08-20:09:46,10.1.1.3,30,0.070,0.070,0.070,0.000,0.000,0.000
1644350986411383040,2022-02-08-20:09:46,10.1.1.3,28,0.080,0.080,0.080,0.000,0.000,0.000
1644350986511228160,2022-02-08-20:09:46,10.1.1.3,28,0.090,0.090,0.090,0.000,0.000,0.000
1644350986610868992,2022-02-08-20:09:46,10.1.1.3,27,0.100,0.100,0.100,0.000,0.000,0.000
1644350986711308032,2022-02-08-20:09:46,10.1.1.3,27,0.090,0.090,0.090,0.000,0.000,0.000
1644350986811326976,2022-02-08-20:09:46,10.1.1.3,26,0.080,0.080,0.080,0.000,0.000,0.000
1644350986911412992,2022-02-08-20:09:46,10.1.1.3,26,0.070,0.070,0.070,0.000,0.000,0.000
1644350987011452928,2022-02-08-20:09:47,10.1.1.3,25,0.060,0.060,0.060,0.000,0.000,0.000
1644350987111751936,2022-02-08-20:09:47,10.1.1.3,25,0.050,0.050,0.050,0.000,0.000,0.000
1644350987211479808,2022-02-08-20:09:47,10.1.1.3,24,0.040,0.040,0.040,0.000,0.000,0.000
1644350987311748864,2022-02-08-20:09:47,10.1.1.3,24,0.030,0.030,0.030,0.000,0.000,0.000
1644350987410942976,2022-02-08-20:09:47,10.1.1.3,23,0.020,0.020,0.020,0.000,0.000,0.000
1644350987511523072,2022-02-08-20:09:47,10.1.1.3,22,0.010,0.010,0.010,0.000,0.000,0.000
1644350987611624960,2022-02-08-20:09:47,10.1.1.3,21,0.000,0.000,0.000,0.000,0.000,0.000
1644350987720175104,2022-02-08-20:09:47,10.1.1.3,20,-0.010,-0.010,-0.010,0.000,0.000,0.000
1644350987810827008,2022-02-08-20:09:47,10.1.1.3,19,-0.019,-0.019,-0.019,0.000,0.000,0.000
1644350987931159040,2022-02-08-20:09:47,10.1.1.3,38,-0.030,-0.030,-0.030,0.000,0.000,0.000
1644350988031864832,2022-02-08-20:09:48,10.1.1.3,38,-0.040,-0.040,-0.040,0.000,0.000,0.000
1644350988131926016,2022-02-08-20:09:48,10.1.1.3,37,-0.050,-0.050,-0.050,0.000,0.000,0.000
1644350988232317952,2022-02-08-20:09:48,10.1.1.3,36,-0.060,-0.060,-0.060,0.000,0.000,0.000
1644350988333558016,2022-02-08-20:09:48,10.1.1.3,36,-0.070,-0.070,-0.070,0.000,0.000,0.000
1644350988430923008,2022-02-08-20:09:48,10.1.1.3,35,-0.080,-0.080,-0.080,0.000,0.000,0.000
1644350988530870016,2022-02-08-20:09:48,10.1.1.3,35,-0.090,-0.090,-0.090,0.000,0.000,0.000
1644350988631331072,2022-02-08-20:09:48,10.1.1.3,34,-0.100,-0.100,-0.100,0.000,0.000,0.000
1644350988731653888,2022-02-08-20:09:48,10.1.1.3,34,-0.090,-0.090,-0.090,0.000,0.000,0.000
1644350988831088128,2022-02-08-20:09:48,10.1.1.3,33,-0.080,-0.080,-0.080,0.000,0.000,0.000
1644350988931302912,2022-02-08-20:09:48,10.1.1.3,33,-0.070,-0.070,-0.070,0.000,0.000,0.000
1644350989031184896,2022-02-08-20:09:49,10.1.1.3,32,-0.060,-0.060,-0.060,0.000,0.000,0.000
1644350989131593984,2022-02-08-20:09:49,10.1.1.3,32,-0.050,-0.050,-0.050,0.000,0.000,0.000
1644350989231252992,2022-02-08-20:09:49,10.1.1.3,31,-0.040,-0.040,-0.040,0.000,0.000,0.000
1644350989331156992,2022-02-08-20:09:49,10.1.1.3,30,-0.030,-0.030,-0.030,0.000,0.000,0.000
1644350989431766016,2022-02-08-20:09:49,10.1.1.3,29,-0.020,-0.020,-0.020,0.000,0.000,0.000
1644350989531866112,2022-02-08-20:09:49,10.1.1.3,29,-0.010,-0.010,-0.010,0.000,0.000,0.000
1644350989630923008,2022-02-08-20:09:49,10.1.1.3,28,0.000,0.000,0.000,0.000,0.000,0.000
1644350989730999040,2022-02-08-20:09:49,10.1.1.3,28,0.010,0.010,0.010,0.000,0.000,0.000
1644350989831100928,2022-02-08-20:09:49,10.1.1.3,27,0.020,0.020,0.020,0.000,0.000,0.000
1644350989931401984,2022-02-08-20:09:49,10.1.1.3,27,0.030,0.030,0.030,0.000,0.000,0.000
1644350990031985152,2022-02-08-20:09:50,10.1.1.3,26,0.040,0.040,0.040,0.000,0.000,0.000
1644350990131133952,2022-02-08-20:09:50,10.1.1.3,25,0.050,0.050,0.050,0.000,0.000,0.000
1644350990231200000,2022-02-08-20:09:50,10.1.1.3,25,0.060,0.060,0.060,0.000,0.000,0.000
1644350990331710976,2022-02-08-20:09:50,10.1.1.3,24,0.070,0.070,0.070,0.000,0.000,0.000
1644350990431227904,2022-02-08-20:09:50,10.1.1.3,24,0.080,0.080,0.080,0.000,0.000,0.000
1644350990530795008,2022-02-08-20:09:50,10.1.1.3,23,0.090,0.090,0.090,0.000,0.000,0.000
1644350990631299072,2022-02-08-20:09:50,10.1.1.3,23,0.100,0.100,0.100,0.000,0.000,0.000
1644350990731059968,2022-02-08-20:09:50,10.1.1.3,22,0.090,0.090,0.090,0.000,0.000,0.000
1644350990831191040,2022-02-08-20:09:50,10.1.1.3,22,0.080,0.080,0.080,0.000,0.000,0.000
1644350990931246080,2022-02-08-20:09:50,10.1.1.3,22,0.070,0.070,0.070,0.000,0.000,0.000
1644350991031457792,2022-02-08-20:09:51,10.1.1.3,21,0.060,0.060,0.060,0.000,0.000,0.000
1644350991131283968,2022-02-08-20:09:51,10.1.1.3,21,0.050,0.050,0.050,0.000,0.000,0.000
1644350991231232000,2022-02-08-20:09:51,10.1.1.3,20,0.040,0.040,0.040,0.000,0.000,0.000
1644350991331320064,2022-02-08-20:09:51,10.1.1.3,20,0.030,0.030,0.030,0.000,0.000,0.000
1644350991430959104,2022-02-08-20:09:51,10.1.1.3,19,0.020,0.020,0.020,0.000,0.000,0.000
1644350991530989056,2022-02-08-20:09:51,10.1.1.3,19,0.011,0.011,0.011,0.000,0.000,0.000
1644350991651460864,2022-02-08-20:09:51,10.1.1.3,38,0.000,0.000,0.000,0.000,0.000,0.000
1644350991756263936,2022-02-08-20:09:51,10.1.1.3,37,-0.010,-0.010,-0.010,0.000,0.000,0.000
1644350991851130880,2022-02-08-20:09:51,10.1.1.3,36,-0.020,-0.020,-0.020,0.000,0.000,0.000
1644350991951168000,2022-02-08-20:09:51,10.1.1.3,36,-0.030,-0.030,-0.030,0.000,0.000,0.000
1644350992051384832,2022-02-08-20:09:52,10.1.1.3,35,-0.040,-0.040,-0.040,0.000,0.000,0.000
1644350992151298048,2022-02-08-20:09:52,10.1.1.3,34,-0.050,-0.050,-0.050,0.000,0.000,0.000
1644350992284303872,2022-02-08-20:09:52,10.1.1.3,34,-0.060,-0.060,-0.060,0.000,0.000,0.000
1644350992351680000,2022-02-08-20:09:52,10.1.1.3,32,-0.070,-0.070,-0.070,0.000,0.000,0.000
1644350992451677952,2022-02-08-20:09:52,10.1.1.3,31,-0.080,-0.080,-0.080,0.000,0.000,0.000
1644350992551544064,2022-02-08-20:09:52,10.1.1.3,31,-0.090,-0.090,-0.090,0.000,0.000,0.000
1644350992651415040,2022-02-08-20:09:52,10.1.1.3,30,-0.100,-0.100,-0.100,0.000,0.000,0.000
1644350992751364864,2022-02-08-20:09:52,10.1.1.3,30,-0.090,-0.090,-0.090,0.000,0.000,0.000
1644350992851059968,2022-02-08-20:09:52,10.1.1.3,29,-0.080,-0.080,-0.080,0.000,0.000,0.000
1644350992953080064,2022-02-08-20:09:52,10.1.1.3,29,-0.070,-0.070,-0.070,0.000,0.000,0.000
1644350993051027968,2022-02-08-20:09:53,10.1.1.3,28,-0.060,-0.060,-0.060,0.000,0.000,0.000
1644350993150851840,2022-02-08-20:09:53,10.1.1.3,28,-0.050,-0.050,-0.050,0.000,0.000,0.000
1644350993251578112,2022-02-08-20:09:53,10.1.1.3,28,-0.040,-0.040,-0.040,0.000,0.000,0.000
1644350993351398912,2022-02-08-20:09:53,10.1.1.3,27,-0.030,-0.030,-0.030,0.000,0.000,0.000
1644350993450717952,2022-02-08-20:09:53,10.1.1.3,26,-0.020,-0.020,-0.020,0.000,0.000,0.000
1644350993551584000,2022-02-08-20:09:53,10.1.1.3,26,-0.010,-0.010,-0.010,0.000,0.000,0.000
1644350993652552960,2022-02-08-20:09:53,10.1.1.3,26,0.000,0.000,0.000,0.000,0.000,0.000
1644350993751894016,2022-02-08-20:09:53,10.1.1.3,25,0.010,0.010,0.010,0.000,0.000,0.000
1644350993852360960,2022-02-08-20:09:53,10.1.1.3,24,0.020,0.020,0.020,0.000,0.000,0.000
1644350993950891008,2022-02-08-20:09:53,10.1.1.3,23,0.030,0.030,0.030,0.000,0.000,0.000
1644350994051318016,2022-02-08-20:09:54,10.1.1.3,21,0.040,0.040,0.040,0.000,0.000,0.000
1644350994151273984,2022-02-08-20:09:54,10.1.1.3,21,0.050,0.050,0.050,0.000,0.000,0.000
1644350994250940160,2022-02-08-20:09:54,10.1.1.3,20,0.060,0.060,0.060,0.000,0.000,0.000
1644350994351980032,2022-02-08-20:09:54,10.1.1.3,20,0.070,0.070,0.070,0.000,0.000,0.000
1644350994451372032,2022-02-08-20:09:54,10.1.1.3,19,0.079,0.079,0.079,0.000,0.000,0.000
1644350994571535104,2022-02-08-20:09:54,10.1.1.3,38,0.090,0.090,0.090,0.000,0.000,0.000
1644350994671629824,2022-02-08-20:09:54,10.1.1.3,37,0.100,0.100,0.100,0.000,0.000,0.000
1644350994771554048,2022-02-08-20:09:54,10.1.1.3,37,0.090,0.090,0.090,0.000,0.000,0.000
1644350994871081984,2022-02-08-20:09:54,10.1.1.3,36,0.080,0.080,0.080,0.000,0.000,0.000
1644350994971584000,2022-02-08-20:09:54,10.1.1.3,35,0.070,0.070,0.070,0.000,0.000,0.000
1644350995071809024,2022-02-08-20:09:55,10.1.1.3,34,0.060,0.060,0.060,0.000,0.000,0.000
1644350995171736832,2022-02-08-20:09:55,10.1.1.3,31,0.050,0.050,0.050,0.000,0.000,0.000
1644350995272259840,2022-02-08-20:09:55,10.1.1.3,31,0.040,0.040,0.040,0.000,0.000,0.000
1644350995371984128,2022-02-08-20:09:55,10.1.1.3,30,0.030,0.030,0.030,0.000,0.000,0.000
1644350995471291136,2022-02-08-20:09:55,10.1.1.3,30,0.020,0.020,0.020,0.000,0.000,0.000
1644350995571703040,2022-02-08-20:09:55,10.1.1.3,29,0.010,0.010,0.010,0.000,0.000,0.000
1644350995671212032,2022-02-08-20:09:55,10.1.1.3,29,0.000,0.000,0.000,0.000,0.000,0.000
1644350995772128000,2022-02-08-20:09:55,10.1.1.3,28,-0.010,-0.010,-0.010,0.000,0.000,0.000
1644350995871897088,2022-02-08-20:09:55,10.1.1.3,28,-0.020,-0.020,-0.020,0.000,0.000,0.000
1644350995971170816,2022-02-08-20:09:55,10.1.1.3,28,-0.030,-0.030,-0.030,0.000,0.000,0.000
1644350996071460864,2022-02-08-20:09:56,10.1.1.3,27,-0.040,-0.040,-0.040,0.000,0.000,0.000
1644350996171164160,2022-02-08-20:09:56,10.1.1.3,27,-0.050,-0.050,-0.050,0.000,0.000,0.000
1644350996270950912,2022-02-08-20:09:56,10.1.1.3,26,-0.060,-0.060,-0.060,0.000,0.000,0.000
1644350996372226048,2022-02-08-20:09:56,10.1.1.3,26,-0.070,-0.070,-0.070,0.000,0.000,0.000
1644350996470846976,2022-02-08-20:09:56,10.1.1.3,24,-0.080,-0.080,-0.080,0.000,0.000,0.000
1644350996571727104,2022-02-08-20:09:56,10.1.1.3,24,-0.090,-0.090,-0.090,0.000,0.000,0.000
1644350996671372800,2022-02-08-20:09:56,10.1.1.3,23,-0.100,-0.100,-0.100,0.000,0.000,0.000
1644350996771271936,2022-02-08-20:09:56,10.1.1.3,23,-0.090,-0.090,-0.090,0.000,0.000,0.000
1644350996871768832,2022-02-08-20:09:56,10.1.1.3,23,-0.080,-0.080,-0.080,0.000,0.000,0.000
1644350996970693120,2022-02-08-20:09:56,10.1.1.3,22,-0.070,-0.070,-0.070,0.000,0.000,0.000
1644350997071517952,2022-02-08-20:09:57,10.1.1.3,22,-0.060,-0.060,-0.060,0.000,0.000,0.000
1644350997171282176,2022-02-08-20:09:57,10.1.1.3,21,-0.050,-0.050,-0.050,0.000,0.000,0.000
1644350997272315136,2022-02-08-20:09:57,10.1.1.3,20,-0.040,-0.040,-0.040,0.000,0.000,0.000
1644350997371191040,2022-02-08-20:09:57,10.1.1.3,19,-0.030,-0.030,-0.030,0.000,0.000,0.000
1644350997491481088,2022-02-08-20:09:57,10.1.1.3,38,-0.020,-0.020,-0.020,0.000,0.000,0.000
1644350997590820096,2022-02-08-20:09:57,10.1.1.3,37,-0.010,-0.010,-0.010,0.000,0.000,0.000
1644350997691924992,2022-02-08-20:09:57,10.1.1.3,36,0.000,0.000,0.000,0.000,0.000,0.000
1644350997791294976,2022-02-08-20:09:57,10.1.1.3,35,0.010,0.010,0.010,0.000,0.000,0.000
1644350997891089920,2022-02-08-20:09:57,10.1.1.3,33,0.020,0.020,0.020,0.000,0.000,0.000
1644350997992712960,2022-02-08-20:09:57,10.1.1.3,33,0.030,0.030,0.030,0.000,0.000,0.000
1644350998091993088,2022-02-08-20:09:58,10.1.1.3,31,0.040,0.040,0.040,0.000,0.000,0.000
1644350998191364096,2022-02-08-20:09:58,10.1.1.3,31,0.050,0.050,0.050,0.000,0.000,0.000
1644350998291603968,2022-02-08-20:09:58,10.1.1.3,30,0.060,0.060,0.060,0.000,0.000,0.000
1644350998391358976,2022-02-08-20:09:58,10.1.1.3,29,0.070,0.070,0.070,0.000,0.000,0.000
1644350998491660032,2022-02-08-20:09:58,10.1.1.3,29,0.080,0.080,0.080,0.000,0.000,0.000
1644350998591389952,2022-02-08-20:09:58,10.1.1.3,28,0.090,0.090,0.090,0.000,0.000,0.000
1644350998691885056,2022-02-08-20:09:58,10.1.1.3,28,0.100,0.100,0.100,0.000,0.000,0.000
1644350998792203776,2022-02-08-20:09:58,10.1.1.3,28,0.090,0.090,0.090,0.000,0.000,0.000
1644350998911576064,2022-02-08-20:09:58,10.1.1.3,27,0.080,0.080,0.080,0.000,0.000,0.000
1644350999012016896,2022-02-08-20:09:59,10.1.1.3,25,0.070,0.070,0.070,0.000,0.000,0.000
1644350999111856896,2022-02-08-20:09:59,10.1.1.3,25,0.060,0.060,0.060,0.000,0.000,0.000
1644350999211458048,2022-02-08-20:09:59,10.1.1.3,23,0.050,0.050,0.050,0.000,0.000,0.000
1644350999311127808,2022-02-08-20:09:59,10.1.1.3,21,0.040,0.040,0.040,0.000,0.000,0.000
1644350999412143872,2022-02-08-20:09:59,10.1.1.3,21,0.030,0.030,0.030,0.000,0.000,0.000
1644350999510951936,2022-02-08-20:09:59,10.1.1.3,20,0.020,0.020,0.020,0.000,0.000,0.000
1644350999611314944,2022-02-08-20:09:59,10.1.1.3,20,0.010,0.010,0.010,0.000,0.000,0.000
1644350999731246848,2022-02-08-20:09:59,10.1.1.3,37,0.000,0.000,0.000,0.000,0.000,0.000
1644350999831526912,2022-02-08-20:09:59,10.1.1.3,36,-0.010,-0.010,-0.010,0.000,0.000,0.000
1644350999930756096,2022-02-08-20:09:59,10.1.1.3,35,-0.020,-0.020,-0.020,0.000,0.000,0.000
1644351000030936832,2022-02-08-20:10:00,10.1.1.3,35,-0.030,-0.030,-0.030,0.000,0.000,0.000
1644351000131740160,2022-02-08-20:10:00,10.1.1.3,34,-0.040,-0.040,-0.040,0.000,0.000,0.000
1644351000231066112,2022-02-08-20:10:00,10.1.1.3,33,-0.050,-0.050,-0.050,0.000,0.000,0.000
1644351000331396096,2022-02-08-20:10:00,10.1.1.3,33,-0.060,-0.060,-0.060,0.000,0.000,0.000
1644351000431886848,2022-02-08-20:10:00,10.1.1.3,32,-0.070,-0.070,-0.070,0.000,0.000,0.000
1644351000531777024,2022-02-08-20:10:00,10.1.1.3,31,-0.080,-0.080,-0.080,0.000,0.000,0.000
1644351000631629056,2022-02-08-20:10:00,10.1.1.3,31,-0.090,-0.090,-0.090,0.000,0.000,0.000
1644351000731260928,2022-02-08-20:10:00,10.1.1.3,29,-0.100,-0.100,-0.100,0.000,0.000,0.000
1644351000831382016,2022-02-08-20:10:00,10.1.1.3,28,-0.090,-0.090,-0.090,0.000,0.000,0.000
1644351000931020032,2022-02-08-20:10:00,10.1.1.3,28,-0.080,-0.080,-0.080,0.000,0.000,0.000
1644351001031672064,2022-02-08-20:10:01,10.1.1.3,26,-0.070,-0.070,-0.070,0.000,0.000,0.000
1644351001131545088,2022-02-08-20:10:01,10.1.1.3,25,-0.060,-0.060,-0.060,0.000,0.000,0.000
1644351001231229952,2022-02-08-20:10:01,10.1.1.3,25,-0.050,-0.050,-0.050,0.000,0.000,0.000
1644351001331108096,2022-02-08-20:10:01,10.1.1.3,24,-0.040,-0.040,-0.040,0.000,0.000,0.000
1644351001431482112,2022-02-08-20:10:01,10.1.1.3,24,-0.030,-0.030,-0.030,0.000,0.000,0.000
1644351001531620864,2022-02-08-20:10:01,10.1.1.3,23,-0.020,-0.020,-0.020,0.000,0.000,0.000
1644351001631480832,2022-02-08-20:10:01,10.1.1.3,23,-0.010,-0.010,-0.010,0.000,0.000,0.000
1644351001731120128,2022-02-08-20:10:01,10.1.1.3,22,0.000,0.000,0.000,0.000,0.000,0.000
1644351001831356928,2022-02-08-20:10:01,10.1.1.3,21,0.010,0.010,0.010,0.000,0.000,0.000
1644351001931289856,2022-02-08-20:10:01,10.1.1.3,21,0.020,0.020,0.020,0.000,0.000,0.000
1644351002031485184,2022-02-08-20:10:02,10.1.1.3,20,0.030,0.030,0.030,0.000,0.000,0.000
1644351002131346944,2022-02-08-20:10:02,10.1.1.3,20,0.040,0.040,0.040,0.000,0.000,0.000
1644351002230993920,2022-02-08-20:10:02,10.1.1.3,19,0.050,0.050,0.050,0.000,0.000,0.000
1644351002331705088,2022-02-08-20:10:02,10.1.1.3,19,0.059,0.059,0.059,0.000,0.000,0.000
1644351002453569792,2022-02-08-20:10:02,10.1.1.3,38,0.070,0.070,0.070,0.000,0.000,0.000
1644351002515456000,2022-02-08-20:10:02,10.1.1.3,-35,0.070,0.070,0.070,0.000,0.000,0.000
1644351002651644928,2022-02-08-20:10:02,10.1.1.3,24,0.090,0.090,0.090,0.000,0.000,0.000
1644351002751684864,2022-02-08-20:10:02,10.1.1.3,24,0.100,0.100,0.100,0.000,0.000,0.000
1644351002851900160,2022-02-08-20:10:02,10.1.1.3,23,0.090,0.090,0.090,0.000,0.000,0.000
1644351002951270144,2022-02-08-20:10:02,10.1.1.3,23,0.080,0.080,0.080,0.000,0.000,0.000
1644351003051856128,2022-02-08-20:10:03,10.1.1.3,22,0.070,0.070,0.070,0.000,0.000,0.000
1644351003151539200,2022-02-08-20:10:03,10.1.1.3,21,0.060,0.060,0.060,0.000,0.000,0.000
1644351003251265024,2022-02-08-20:10:03,10.1.1.3,21,0.050,0.050,0.050,0.000,0.000,0.000
1644351003350963200,2022-02-08-20:10:03,10.1.1.3,21,0.040,0.040,0.040,0.000,0.000,0.000
1644351003451323136,2022-02-08-20:10:03,10.1.1.3,19,0.030,0.030,0.030,0.000,0.000,0.000
1644351003603666176,2022-02-08-20:10:03,10.1.1.3,37,0.020,0.020,0.020,0.000,0.000,0.000
1644351003671021056,2022-02-08-20:10:03,10.1.1.3,36,0.010,0.010,0.010,0.000,0.000,0.000
1644351003771105024,2022-02-08-20:10:03,10.1.1.3,35,0.000,0.000,0.000,0.000,0.000,0.000
1644351003871586048,2022-02-08-20:10:03,10.1.1.3,35,-0.010,-0.010,-0.010,0.000,0.000,0.000
1644351003971766016,2022-02-08-20:10:03,10.1.1.3,35,-0.020,-0.020,-0.020,0.000,0.000,0.000
1644351004071291904,2022-02-08-20:10:04,10.1.1.3,34,-0.030,-0.030,-0.030,0.000,0.000,0.000
1644351004171854848,2022-02-08-20:10:04,10.1.1.3,34,-0.040,-0.040,-0.040,0.000,0.000,0.000
1644351004271131904,2022-02-08-20:10:04,10.1.1.3,34,-0.050,-0.050,-0.050,0.000,0.000,0.000
1644351004371713024,2022-02-08-20:10:04,10.1.1.3,33,-0.060,-0.060,-0.060,0.000,0.000,0.000
1644351004471163904,2022-02-08-20:10:04,10.1.1.3,33,-0.070,-0.070,-0.070,0.000,0.000,0.000
1644351004572025088,2022-02-08-20:10:04,10.1.1.3,32,-0.080,-0.080,-0.080,0.000,0.000,0.000
1644351004671379968,2022-02-08-20:10:04,10.1.1.3,31,-0.090,-0.090,-0.090,0.000,0.000,0.000
1644351004770780160,2022-02-08-20:10:04,10.1.1.3,31,-0.100,-0.100,-0.100,0.000,0.000,0.000
1644351004871354112,2022-02-08-20:10:04,10.1.1.3,30,-0.090,-0.090,-0.090,0.000,0.000,0.000
1644351004971025920,2022-02-08-20:10:04,10.1.1.3,30,-0.080,-0.080,-0.080,0.000,0.000,0.000
1644351005072041984,2022-02-08-20:10:05,10.1.1.3,29,-0.070,-0.070,-0.070,0.000,0.000,0.000
1644351005190061056,2022-02-08-20:10:05,10.1.1.3,29,-0.060,-0.060,-0.060,0.000,0.000,0.000
1644351005271440896,2022-02-08-20:10:05,10.1.1.3,28,-0.050,-0.050,-0.050,0.000,0.000,0.000
1644351005370914048,2022-02-08-20:10:05,10.1.1.3,27,-0.040,-0.040,-0.040,0.000,0.000,0.000
1644351005471223040,2022-02-08-20:10:05,10.1.1.3,26,-0.030,-0.030,-0.030,0.000,0.000,0.000
1644351005571919872,2022-02-08-20:10:05,10.1.1.3,26,-0.020,-0.020,-0.020,0.000,0.000,0.000
1644351005671250176,2022-02-08-20:10:05,10.1.1.3,25,-0.010,-0.010,-0.010,0.000,0.000,0.000
1644351005771926016,2022-02-08-20:10:05,10.1.1.3,25,0.000,0.000,0.000,0.000,0.000,0.000
1644351005871357952,2022-02-08-20:10:05,10.1.1.3,24,0.010,0.010,0.010,0.000,0.000,0.000
1644351005973746176,2022-02-08-20:10:05,10.1.1.3,25,0.020,0.020,0.020,0.000,0.000,0.000
1644351006071631872,2022-02-08-20:10:06,10.1.1.3,23,0.030,0.030,0.030,0.000,0.000,0.000
1644351006172038144,2022-02-08-20:10:06,10.1.1.3,22,0.040,0.040,0.040,0.000,0.000,0.000
1644351006271554048,2022-02-08-20:10:06,10.1.1.3,21,0.050,0.050,0.050,0.000,0.000,0.000
1644351006371450880,2022-02-08-20:10:06,10.1.1.3,21,0.060,0.060,0.060,0.000,0.000,0.000
1644351006471117056,2022-02-08-20:10:06,10.1.1.3,21,0.070,0.070,0.070,0.000,0.000,0.000
1644351006570971904,2022-02-08-20:10:06,10.1.1.3,20,0.080,0.080,0.080,0.000,0.000,0.000
1644351006671668992,2022-02-08-20:10:06,10.1.1.3,20,0.090,0.090,0.090,0.000,0.000,0.000
1644351006771825152,2022-02-08-20:10:06,10.1.1.3,20,0.100,0.100,0.100,0.000,0.000,0.000
1644351006871137024,2022-02-08-20:10:06,10.1.1.3,19,0.091,0.091,0.091,0.000,0.000,0.000
1644351006991065856,2022-02-08-20:10:06,10.1.1.3,36,0.080,0.080,0.080,0.000,0.000,0.000
1644351007090852096,2022-02-08-20:10:07,10.1.1.3,35,0.070,0.070,0.070,0.000,0.000,0.000
1644351007191098880,2022-02-08-20:10:07,10.1.1.3,34,0.060,0.060,0.060,0.000,0.000,0.000
1644351007290987008,2022-02-08-20:10:07,10.1.1.3,34,0.050,0.050,0.050,0.000,0.000,0.000
1644351007391119872,2022-02-08-20:10:07,10.1.1.3,33,0.040,0.040,0.040,0.000,0.000,0.000
1644351007491465984,2022-02-08-20:10:07,10.1.1.3,32,0.030,0.030,0.030,0.000,0.000,0.000
