FedericoMungari/DigitalTwin_service/01_WiredScenario/Output/Output_script/script_rosapi_2_output_robots12_freq0_7.txt
timestamp,date,node,latency,joint_1,joint_2,joint_3,joint_4,joint_5,joint_6
1644939578170916096,2022-02-15-15:39:37,10.1.1.8,13,-0.100,-0.100,-0.100,-0.000,0.000,0.000
1644939578204942080,2022-02-15-15:39:38,10.1.1.8,38,-0.090,-0.090,-0.090,0.000,0.000,0.000
1644939578830894080,2022-02-15-15:39:38,10.1.1.8,28,0.030,0.030,0.030,0.000,0.000,0.000
1644939579125447936,2022-02-15-15:39:39,10.1.1.8,30,0.080,0.080,0.080,0.000,0.000,0.000
1644939579311350016,2022-02-15-15:39:39,10.1.1.8,39,0.090,0.090,0.090,0.000,0.000,0.000
1644939579384365056,2022-02-15-15:39:39,10.1.1.8,23,0.090,0.090,0.090,0.000,0.000,0.000
1644939579705459968,2022-02-15-15:39:39,10.1.1.8,29,0.030,0.030,0.030,0.000,0.000,0.000
1644939579764893952,2022-02-15-15:39:39,10.1.1.8,39,0.020,0.020,0.020,0.000,0.000,0.000
1644939580307173888,2022-02-15-15:39:40,10.1.1.8,39,-0.080,-0.080,-0.080,0.000,0.000,0.000
1644939580345681920,2022-02-15-15:39:40,10.1.1.8,28,-0.090,-0.090,-0.090,0.000,0.000,0.000
1644939580470088960,2022-02-15-15:39:40,10.1.1.8,-100,-0.090,-0.090,-0.090,0.000,0.000,0.000
1644939580766701824,2022-02-15-15:39:40,10.1.1.8,28,-0.050,-0.050,-0.050,0.000,0.000,0.000
1644939580831981824,2022-02-15-15:39:40,10.1.1.8,38,-0.040,-0.040,-0.040,0.000,0.000,0.000
1644939581445216000,2022-02-15-15:39:41,10.1.1.8,29,0.080,0.080,0.080,0.000,0.000,0.000
1644939581626149888,2022-02-15-15:39:41,10.1.1.8,56,0.080,0.080,0.080,0.000,0.000,0.000
1644939582585155072,2022-02-15-15:39:42,10.1.1.8,19,-0.100,-0.100,-0.100,0.000,0.000,0.000
1644939583085330944,2022-02-15-15:39:43,10.1.1.8,29,-0.020,-0.020,-0.020,0.000,0.000,0.000
1644939584646276096,2022-02-15-15:39:44,10.1.1.8,29,0.020,0.020,0.020,0.000,0.000,0.000
1644939585706226176,2022-02-15-15:39:45,10.1.1.8,28,-0.030,-0.030,-0.030,0.000,0.000,0.000
1644939587046361856,2022-02-15-15:39:47,10.1.1.8,11,-0.030,-0.030,-0.030,0.000,0.000,0.000
1644939587108897024,2022-02-15-15:39:47,10.1.1.8,20,-0.040,-0.040,-0.040,0.000,0.000,0.000
1644939587166311936,2022-02-15-15:39:47,10.1.1.8,29,-0.050,-0.050,-0.050,0.000,0.000,0.000
1644939587226504192,2022-02-15-15:39:47,10.1.1.8,38,-0.060,-0.060,-0.060,0.000,0.000,0.000
1644939587608736000,2022-02-15-15:39:47,10.1.1.8,7,-0.060,-0.060,-0.060,0.000,0.000,0.000
1644939588028678912,2022-02-15-15:39:48,10.1.1.8,20,0.019,0.019,0.019,0.000,0.000,0.000
1644939588347342080,2022-02-15-15:39:48,10.1.1.8,34,0.080,0.080,0.080,0.000,0.000,0.000
1644939588687387904,2022-02-15-15:39:48,10.1.1.8,17,0.080,0.080,0.080,0.000,0.000,0.000
1644939588966999040,2022-02-15-15:39:48,10.1.1.8,40,0.030,0.030,0.030,0.000,0.000,0.000
1644939589083278848,2022-02-15-15:39:49,10.1.1.8,38,0.010,0.010,0.010,0.000,0.000,0.000
1644939589468640000,2022-02-15-15:39:49,10.1.1.8,30,-0.070,-0.070,-0.070,0.000,0.000,0.000
1644939589538966016,2022-02-15-15:39:49,10.1.1.8,39,-0.080,-0.080,-0.080,0.000,0.000,0.000
1644939589567632896,2022-02-15-15:39:49,10.1.1.8,28,-0.090,-0.090,-0.090,0.000,0.000,0.000
1644939589646991104,2022-02-15-15:39:49,10.1.1.8,7,-0.090,-0.090,-0.090,0.000,0.000,0.000
1644939591265847808,2022-02-15-15:39:51,10.1.1.8,39,0.010,0.010,0.010,0.000,0.000,0.000
1644939591729054976,2022-02-15-15:39:51,10.1.1.8,28,-0.060,-0.060,-0.060,0.000,0.000,0.000
1644939592227531008,2022-02-15-15:39:52,10.1.1.8,-47,-0.060,-0.060,-0.060,0.000,0.000,0.000
1644939592446844928,2022-02-15-15:39:52,10.1.1.8,28,-0.030,-0.030,-0.030,0.000,0.000,0.000
1644939592968306944,2022-02-15-15:39:52,10.1.1.8,30,0.050,0.050,0.050,0.000,0.000,0.000
1644939593182169856,2022-02-15-15:39:53,10.1.1.8,28,0.080,0.080,0.080,0.000,0.000,0.000
1644939593368144128,2022-02-15-15:39:53,10.1.1.8,20,0.080,0.080,0.080,0.000,0.000,0.000
1644939593806265088,2022-02-15-15:39:53,10.1.1.8,29,0.000,0.000,0.000,0.000,0.000,0.000
1644939593986180096,2022-02-15-15:39:53,10.1.1.8,39,-0.030,-0.030,-0.030,0.000,0.000,0.000
1644939594026714112,2022-02-15-15:39:54,10.1.1.8,28,-0.040,-0.040,-0.040,0.000,0.000,0.000
1644939594327166208,2022-02-15-15:39:54,10.1.1.8,20,-0.100,-0.100,-0.100,0.000,0.000,0.000
1644939594389071104,2022-02-15-15:39:54,10.1.1.8,29,-0.090,-0.090,-0.090,0.000,0.000,0.000
1644939594446305024,2022-02-15-15:39:54,10.1.1.8,38,-0.080,-0.080,-0.080,0.000,0.000,0.000
1644939594986586112,2022-02-15-15:39:54,10.1.1.8,29,0.020,0.020,0.020,0.000,0.000,0.000
1644939595046656000,2022-02-15-15:39:55,10.1.1.8,39,0.030,0.030,0.030,0.000,0.000,0.000
1644939595086361856,2022-02-15-15:39:55,10.1.1.8,28,0.040,0.040,0.040,0.000,0.000,0.000
1644939595686032128,2022-02-15-15:39:55,10.1.1.8,20,0.040,0.040,0.040,0.000,0.000,0.000
1644939595811918080,2022-02-15-15:39:55,10.1.1.8,39,0.020,0.020,0.020,0.000,0.000,0.000
1644939595846541824,2022-02-15-15:39:55,10.1.1.8,28,0.010,0.010,0.010,0.000,0.000,0.000
1644939595907872000,2022-02-15-15:39:55,10.1.1.8,38,0.000,0.000,0.000,0.000,0.000,0.000
1644939596267610112,2022-02-15-15:39:56,10.1.1.8,39,-0.070,-0.070,-0.070,0.000,0.000,0.000
1644939596307620096,2022-02-15-15:39:56,10.1.1.8,28,-0.080,-0.080,-0.080,0.000,0.000,0.000
1644939596506760960,2022-02-15-15:39:56,10.1.1.8,23,-0.080,-0.080,-0.080,0.000,0.000,0.000
1644939596867554048,2022-02-15-15:39:56,10.1.1.8,28,-0.010,-0.010,-0.010,0.000,0.000,0.000
1644939597287417856,2022-02-15-15:39:57,10.1.1.8,28,0.070,0.070,0.070,0.000,0.000,0.000
1644939597586008064,2022-02-15-15:39:57,10.1.1.8,23,0.070,0.070,0.070,0.000,0.000,0.000
1644939597651902976,2022-02-15-15:39:57,10.1.1.8,28,0.060,0.060,0.060,0.000,0.000,0.000
1644939597767788032,2022-02-15-15:39:57,10.1.1.8,39,0.040,0.040,0.040,0.000,0.000,0.000
1644939597808332800,2022-02-15-15:39:57,10.1.1.8,28,0.030,0.030,0.030,0.000,0.000,0.000
1644939597866247936,2022-02-15-15:39:57,10.1.1.8,38,0.020,0.020,0.020,0.000,0.000,0.000
1644939598331227136,2022-02-15-15:39:58,10.1.1.8,23,-0.070,-0.070,-0.070,0.000,0.000,0.000
1644939598387770880,2022-02-15-15:39:58,10.1.1.8,30,-0.080,-0.080,-0.080,0.000,0.000,0.000
1644939598567387136,2022-02-15-15:39:58,10.1.1.8,5,-0.080,-0.080,-0.080,0.000,0.000,0.000
1644939599486520064,2022-02-15-15:39:59,10.1.1.8,39,0.090,0.090,0.090,0.000,0.000,0.000
1644939599528093952,2022-02-15-15:39:59,10.1.1.8,29,0.100,0.100,0.100,0.000,0.000,0.000
1644939600287494912,2022-02-15-15:40:00,10.1.1.8,30,-0.050,-0.050,-0.050,0.000,0.000,0.000
1644939600587568128,2022-02-15-15:40:00,10.1.1.8,22,-0.090,-0.090,-0.090,0.000,0.000,0.000
1644939601207415040,2022-02-15-15:40:01,10.1.1.8,20,0.030,0.030,0.030,0.000,0.000,0.000
1644939601766499072,2022-02-15-15:40:01,10.1.1.8,19,0.060,0.060,0.060,0.000,0.000,0.000
1644939601827037184,2022-02-15-15:40:01,10.1.1.8,29,0.050,0.050,0.050,0.000,0.000,0.000
1644939602347887872,2022-02-15-15:40:02,10.1.1.8,39,-0.050,-0.050,-0.050,0.000,0.000,0.000
1644939602828530176,2022-02-15-15:40:02,10.1.1.8,10,-0.050,-0.050,-0.050,0.000,0.000,0.000
1644939602885720064,2022-02-15-15:40:02,10.1.1.8,20,-0.040,-0.040,-0.040,0.000,0.000,0.000
1644939602947741952,2022-02-15-15:40:02,10.1.1.8,29,-0.030,-0.030,-0.030,0.000,0.000,0.000
1644939603007149824,2022-02-15-15:40:03,10.1.1.8,38,-0.020,-0.020,-0.020,0.000,0.000,0.000
1644939603208408064,2022-02-15-15:40:03,10.1.1.8,30,0.020,0.020,0.020,0.000,0.000,0.000
1644939603268830976,2022-02-15-15:40:03,10.1.1.8,39,0.030,0.030,0.030,0.000,0.000,0.000
1644939603867516160,2022-02-15-15:40:03,10.1.1.8,23,0.050,0.050,0.050,0.000,0.000,0.000
1644939604187619840,2022-02-15-15:40:04,10.1.1.8,39,-0.010,-0.010,-0.010,0.000,0.000,0.000
1644939604229249024,2022-02-15-15:40:04,10.1.1.8,28,-0.020,-0.020,-0.020,0.000,0.000,0.000
1644939604627175168,2022-02-15-15:40:04,10.1.1.8,20,-0.100,-0.100,-0.100,0.000,0.000,0.000
1644939604687244800,2022-02-15-15:40:04,10.1.1.8,29,-0.090,-0.090,-0.090,0.000,0.000,0.000
1644939604746712832,2022-02-15-15:40:04,10.1.1.8,38,-0.080,-0.080,-0.080,0.000,0.000,0.000
1644939605827980032,2022-02-15-15:40:05,10.1.1.8,39,0.070,0.070,0.070,0.000,0.000,0.000
1644939605867203840,2022-02-15-15:40:05,10.1.1.8,28,0.060,0.060,0.060,0.000,0.000,0.000
1644939606946232064,2022-02-15-15:40:06,10.1.1.8,39,-0.050,-0.050,-0.050,0.000,0.000,0.000
1644939606986917888,2022-02-15-15:40:06,10.1.1.8,29,-0.040,-0.040,-0.040,0.000,0.000,0.000
1644939608437872896,2022-02-15-15:40:08,10.1.1.8,-6,-0.040,-0.040,-0.040,0.000,0.000,0.000
1644939609061907968,2022-02-15-15:40:09,10.1.1.8,-9,-0.040,-0.040,-0.040,0.000,0.000,0.000
1644939609611543808,2022-02-15-15:40:09,10.1.1.8,39,0.060,0.060,0.060,0.000,0.000,0.000
1644939609967876864,2022-02-15-15:40:09,10.1.1.8,39,0.070,0.070,0.070,0.000,0.000,0.000
1644939611526962944,2022-02-15-15:40:11,10.1.1.8,20,0.030,0.030,0.030,0.000,0.000,0.000
1644939611586391040,2022-02-15-15:40:11,10.1.1.8,29,0.040,0.040,0.040,0.000,0.000,0.000
1644939612186220800,2022-02-15-15:40:12,10.1.1.8,13,0.040,0.040,0.040,0.000,0.000,0.000
1644939612628221952,2022-02-15-15:40:12,10.1.1.8,39,-0.040,-0.040,-0.040,0.000,0.000,0.000
1644939613227813888,2022-02-15-15:40:13,10.1.1.8,23,-0.040,-0.040,-0.040,0.000,0.000,0.000
1644939613848614912,2022-02-15-15:40:13,10.1.1.8,30,0.080,0.080,0.080,0.000,0.000,0.000
1644939614046855936,2022-02-15-15:40:14,10.1.1.8,23,0.080,0.080,0.080,0.000,0.000,0.000
1644939614245305088,2022-02-15-15:40:14,10.1.1.8,40,0.050,0.050,0.050,0.000,0.000,0.000
1644939618052297984,2022-02-15-15:40:15,10.1.1.8,39,0.020,0.020,0.020,0.000,0.000,0.000
1644939618286125056,2022-02-15-15:40:18,10.1.1.8,28,0.070,0.070,0.070,0.000,0.000,0.000
1644939618609163008,2022-02-15-15:40:18,10.1.1.8,11,0.070,0.070,0.070,0.000,0.000,0.000
1644939618727158016,2022-02-15-15:40:18,10.1.1.8,29,0.050,0.050,0.050,0.000,0.000,0.000
1644939618786470912,2022-02-15-15:40:18,10.1.1.8,39,0.040,0.040,0.040,0.000,0.000,0.000
1644939619706852864,2022-02-15-15:40:19,10.1.1.8,20,-0.060,-0.060,-0.060,0.000,0.000,0.000
1644939620226028800,2022-02-15-15:40:20,10.1.1.8,29,0.030,0.030,0.030,0.000,0.000,0.000
1644939620548535040,2022-02-15-15:40:20,10.1.1.8,40,0.090,0.090,0.090,0.000,0.000,0.000
1644939620628510976,2022-02-15-15:40:20,10.1.1.8,16,0.090,0.090,0.090,0.000,0.000,0.000
1644939621146783232,2022-02-15-15:40:21,10.1.1.8,29,-0.010,-0.010,-0.010,0.000,0.000,0.000
1644939621208334848,2022-02-15-15:40:21,10.1.1.8,38,-0.020,-0.020,-0.020,0.000,0.000,0.000
1644939621610956032,2022-02-15-15:40:21,10.1.1.8,29,-0.100,-0.100,-0.100,0.000,0.000,0.000
1644939621669308928,2022-02-15-15:40:21,10.1.1.8,38,-0.090,-0.090,-0.090,0.000,0.000,0.000
1644939622538887936,2022-02-15-15:40:22,10.1.1.8,30,0.080,0.080,0.080,0.000,0.000,0.000
1644939622706921984,2022-02-15-15:40:22,10.1.1.8,6,0.080,0.080,0.080,0.000,0.000,0.000
1644939623186304000,2022-02-15-15:40:23,10.1.1.8,28,-0.010,-0.010,-0.010,0.000,0.000,0.000
1644939623806961920,2022-02-15-15:40:23,10.1.1.8,39,-0.070,-0.070,-0.070,0.000,0.000,0.000
1644939625127616000,2022-02-15-15:40:25,10.1.1.8,39,0.010,0.010,0.010,0.000,0.000,0.000
1644939626086083840,2022-02-15-15:40:26,10.1.1.8,38,-0.020,-0.020,-0.020,0.000,0.000,0.000
1644939626587665920,2022-02-15-15:40:26,10.1.1.8,29,0.080,0.080,0.080,0.000,0.000,0.000
1644939626768173056,2022-02-15-15:40:26,10.1.1.8,6,0.080,0.080,0.080,0.000,0.000,0.000
1644939627211296000,2022-02-15-15:40:27,10.1.1.8,39,0.000,0.000,0.000,0.000,0.000,0.000
1644939627567117056,2022-02-15-15:40:27,10.1.1.8,38,-0.070,-0.070,-0.070,0.000,0.000,0.000
1644939627847155200,2022-02-15-15:40:27,10.1.1.8,12,-0.070,-0.070,-0.070,0.000,0.000,0.000
1644939628367784960,2022-02-15-15:40:28,10.1.1.8,20,0.030,0.030,0.030,0.000,0.000,0.000
1644939628746542848,2022-02-15-15:40:28,10.1.1.8,40,0.100,0.100,0.100,0.000,0.000,0.000
1644939628787501056,2022-02-15-15:40:28,10.1.1.8,28,0.090,0.090,0.090,0.000,0.000,0.000
1644939629246892032,2022-02-15-15:40:29,10.1.1.8,30,0.000,0.000,0.000,0.000,0.000,0.000
1644939629807102976,2022-02-15-15:40:29,10.1.1.8,28,-0.090,-0.090,-0.090,0.000,0.000,0.000
1644939630408675072,2022-02-15-15:40:30,10.1.1.8,20,0.030,0.030,0.030,0.000,0.000,0.000
1644939630687771136,2022-02-15-15:40:30,10.1.1.8,29,0.080,0.080,0.080,0.000,0.000,0.000
1644939630807579904,2022-02-15-15:40:30,10.1.1.8,28,0.100,0.100,0.100,0.000,0.000,0.000
1644939630932600064,2022-02-15-15:40:30,10.1.1.8,30,0.080,0.080,0.080,0.000,0.000,0.000
1644939631029121024,2022-02-15-15:40:31,10.1.1.8,20,0.060,0.060,0.060,0.000,0.000,0.000
1644939632306534912,2022-02-15-15:40:32,10.1.1.8,28,-0.020,-0.020,-0.020,0.000,0.000,0.000
1644939632898674944,2022-02-15-15:40:32,10.1.1.8,39,0.090,0.090,0.090,0.000,0.000,0.000
1644939632955468032,2022-02-15-15:40:32,10.1.1.8,-3,0.090,0.090,0.090,0.000,0.000,0.000
1644939633707282944,2022-02-15-15:40:33,10.1.1.8,39,-0.040,-0.040,-0.040,0.000,0.000,0.000
1644939633751395840,2022-02-15-15:40:33,10.1.1.8,29,-0.050,-0.050,-0.050,0.000,0.000,0.000
1644939634246376960,2022-02-15-15:40:34,10.1.1.8,21,-0.050,-0.050,-0.050,0.000,0.000,0.000
1644939634466105856,2022-02-15-15:40:34,10.1.1.8,39,-0.010,-0.010,-0.010,0.000,0.000,0.000
1644939634506151936,2022-02-15-15:40:34,10.1.1.8,28,0.000,0.000,0.000,0.000,0.000,0.000
1644939634566344960,2022-02-15-15:40:34,10.1.1.8,38,0.010,0.010,0.010,0.000,0.000,0.000
1644939634866318080,2022-02-15-15:40:34,10.1.1.8,29,0.070,0.070,0.070,0.000,0.000,0.000
1644939634927016960,2022-02-15-15:40:34,10.1.1.8,39,0.080,0.080,0.080,0.000,0.000,0.000
1644939635107796992,2022-02-15-15:40:35,10.1.1.8,17,0.080,0.080,0.080,0.000,0.000,0.000
1644939635585874944,2022-02-15-15:40:35,10.1.1.8,39,-0.010,-0.010,-0.010,0.000,0.000,0.000
1644939635628717056,2022-02-15-15:40:35,10.1.1.8,28,-0.020,-0.020,-0.020,0.000,0.000,0.000
1644939635847662848,2022-02-15-15:40:35,10.1.1.8,38,-0.060,-0.060,-0.060,0.000,0.000,0.000
1644939636280050944,2022-02-15-15:40:36,10.1.1.8,3,-0.060,-0.060,-0.060,0.000,0.000,0.000
1644939636747930880,2022-02-15-15:40:36,10.1.1.8,19,0.020,0.020,0.020,0.000,0.000,0.000
1644939637433686016,2022-02-15-15:40:37,10.1.1.8,38,0.060,0.060,0.060,0.000,0.000,0.000
1644939638757817856,2022-02-15-15:40:38,10.1.1.8,28,-0.030,-0.030,-0.030,0.000,0.000,0.000
1644939640146644992,2022-02-15-15:40:40,10.1.1.8,9,-0.030,-0.030,-0.030,0.000,0.000,0.000
1644939640908392960,2022-02-15-15:40:40,10.1.1.8,15,-0.030,-0.030,-0.030,0.000,0.000,0.000
1644939641203449856,2022-02-15-15:40:41,10.1.1.8,30,0.020,0.020,0.020,0.000,0.000,0.000
1644939642047362048,2022-02-15-15:40:42,10.1.1.8,-1,0.020,0.020,0.020,0.000,0.000,0.000
1644939642507183104,2022-02-15-15:40:42,10.1.1.8,29,-0.070,-0.070,-0.070,0.000,0.000,0.000
1644939642811078144,2022-02-15-15:40:42,10.1.1.8,5,-0.070,-0.070,-0.070,0.000,0.000,0.000
1644939643189115136,2022-02-15-15:40:43,10.1.1.8,29,0.000,0.000,0.000,0.000,0.000,0.000
1644939643246043904,2022-02-15-15:40:43,10.1.1.8,38,0.010,0.010,0.010,0.000,0.000,0.000
1644939643468249088,2022-02-15-15:40:43,10.1.1.8,39,0.050,0.050,0.050,0.000,0.000,0.000
1644939644007570944,2022-02-15-15:40:44,10.1.1.8,20,0.050,0.050,0.050,0.000,0.000,0.000
1644939645241241856,2022-02-15-15:40:44,10.1.1.8,30,0.000,0.000,0.000,0.000,0.000,0.000
1644939645746403840,2022-02-15-15:40:45,10.1.1.8,29,-0.100,-0.100,-0.100,0.000,0.000,0.000
1644939645805659904,2022-02-15-15:40:45,10.1.1.8,38,-0.090,-0.090,-0.090,0.000,0.000,0.000
1644939646588985088,2022-02-15-15:40:46,10.1.1.8,21,0.060,0.060,0.060,0.000,0.000,0.000
1644939646866779136,2022-02-15-15:40:46,10.1.1.8,39,0.090,0.090,0.090,0.000,0.000,0.000
1644939647752552960,2022-02-15-15:40:47,10.1.1.8,29,-0.080,-0.080,-0.080,0.000,0.000,0.000
1644939647948115968,2022-02-15-15:40:47,10.1.1.8,10,-0.080,-0.080,-0.080,0.000,0.000,0.000
1644939649858528000,2022-02-15-15:40:49,10.1.1.8,10,-0.080,-0.080,-0.080,0.000,0.000,0.000
1644939649907644928,2022-02-15-15:40:49,10.1.1.8,20,-0.090,-0.090,-0.090,0.000,0.000,0.000
1644939650008364800,2022-02-15-15:40:50,10.1.1.8,18,-0.090,-0.090,-0.090,0.000,0.000,0.000
1644939650746216960,2022-02-15-15:40:50,10.1.1.8,39,0.050,0.050,0.050,0.000,0.000,0.000
1644939650985651968,2022-02-15-15:40:50,10.1.1.8,19,0.100,0.100,0.100,0.000,0.000,0.000
1644939651045696000,2022-02-15-15:40:51,10.1.1.8,28,0.090,0.090,0.090,0.000,0.000,0.000
1644939651535643136,2022-02-15-15:40:51,10.1.1.8,39,0.000,0.000,0.000,0.000,0.000,0.000
1644939651587290112,2022-02-15-15:40:51,10.1.1.8,40,-0.010,-0.010,-0.010,0.000,0.000,0.000
1644939652306138880,2022-02-15-15:40:52,10.1.1.8,38,-0.050,-0.050,-0.050,0.000,0.000,0.000
1644939652766458112,2022-02-15-15:40:52,10.1.1.8,39,0.040,0.040,0.040,0.000,0.000,0.000
1644939652806204928,2022-02-15-15:40:52,10.1.1.8,28,0.050,0.050,0.050,0.000,0.000,0.000
1644939653334119168,2022-02-15-15:40:53,10.1.1.8,14,0.050,0.050,0.050,0.000,0.000,0.000
1644939653395379968,2022-02-15-15:40:53,10.1.1.8,22,0.040,0.040,0.040,0.000,0.000,0.000
1644939654707540992,2022-02-15-15:40:54,10.1.1.8,39,-0.010,-0.010,-0.010,0.000,0.000,0.000
1644939654911124992,2022-02-15-15:40:54,10.1.1.8,29,0.030,0.030,0.030,0.000,0.000,0.000
1644939655408023040,2022-02-15-15:40:55,10.1.1.8,19,0.070,0.070,0.070,0.000,0.000,0.000
1644939657147483136,2022-02-15-15:40:57,10.1.1.8,38,0.060,0.060,0.060,0.000,0.000,0.000
1644939657408502016,2022-02-15-15:40:57,10.1.1.8,20,0.090,0.090,0.090,0.000,0.000,0.000
1644939657912715008,2022-02-15-15:40:57,10.1.1.8,39,0.000,0.000,0.000,0.000,0.000,0.000
1644939658646119168,2022-02-15-15:40:58,10.1.1.8,28,-0.060,-0.060,-0.060,0.000,0.000,0.000
1644939659205945856,2022-02-15-15:40:59,10.1.1.8,39,0.040,0.040,0.040,0.000,0.000,0.000
1644939659866384896,2022-02-15-15:40:59,10.1.1.8,24,0.040,0.040,0.040,0.000,0.000,0.000
1644939660086238976,2022-02-15-15:41:00,10.1.1.8,39,0.000,0.000,0.000,0.000,0.000,0.000
1644939661085720064,2022-02-15-15:41:01,10.1.1.8,10,0.000,0.000,0.000,0.000,0.000,0.000
1644939661205867008,2022-02-15-15:41:01,10.1.1.8,28,0.020,0.020,0.020,0.000,0.000,0.000
1644939662026040064,2022-02-15-15:41:02,10.1.1.8,20,0.020,0.020,0.020,0.000,0.000,0.000
1644939662186170112,2022-02-15-15:41:02,10.1.1.8,29,-0.010,-0.010,-0.010,0.000,0.000,0.000
1644939662245948160,2022-02-15-15:41:02,10.1.1.8,39,-0.020,-0.020,-0.020,0.000,0.000,0.000
1644939662285976832,2022-02-15-15:41:02,10.1.1.8,28,-0.030,-0.030,-0.030,0.000,0.000,0.000
1644939663922383104,2022-02-15-15:41:03,10.1.1.8,29,0.060,0.060,0.060,0.000,0.000,0.000
1644939664290665984,2022-02-15-15:41:04,10.1.1.8,7,0.060,0.060,0.060,0.000,0.000,0.000
1644939664606703104,2022-02-15-15:41:04,10.1.1.8,20,0.000,0.000,0.000,0.000,0.000,0.000
1644939665643076864,2022-02-15-15:41:05,10.1.1.8,6,0.000,0.000,0.000,0.000,0.000,0.000
1644939666666744832,2022-02-15-15:41:06,10.1.1.8,11,0.000,0.000,0.000,0.000,0.000,0.000
1644939667507287040,2022-02-15-15:41:07,10.1.1.8,40,-0.040,-0.040,-0.040,0.000,0.000,0.000
1644939667733369088,2022-02-15-15:41:07,10.1.1.8,42,0.000,0.000,0.000,0.000,0.000,0.000
1644939668748222208,2022-02-15-15:41:08,10.1.1.8,4,0.000,0.000,0.000,0.000,0.000,0.000
1644939669928555008,2022-02-15-15:41:09,10.1.1.8,3,0.000,0.000,0.000,0.000,0.000,0.000
1644939671006226944,2022-02-15-15:41:11,10.1.1.8,22,0.000,0.000,0.000,0.000,0.000,0.000
1644939672086318848,2022-02-15-15:41:12,10.1.1.8,10,0.000,0.000,0.000,0.000,0.000,0.000
1644939672205630976,2022-02-15-15:41:12,10.1.1.8,29,0.020,0.020,0.020,0.000,0.000,0.000
1644939672266477056,2022-02-15-15:41:12,10.1.1.8,38,0.030,0.030,0.030,0.000,0.000,0.000
1644939672970882816,2022-02-15-15:41:12,10.1.1.8,22,0.030,0.030,0.030,0.000,0.000,0.000
1644939673186608128,2022-02-15-15:41:13,10.1.1.8,29,-0.010,-0.010,-0.010,0.000,0.000,0.000
1644939673246056192,2022-02-15-15:41:13,10.1.1.8,38,-0.020,-0.020,-0.020,0.000,0.000,0.000
1644939673285427200,2022-02-15-15:41:13,10.1.1.8,28,-0.030,-0.030,-0.030,0.000,0.000,0.000
1644939673886334976,2022-02-15-15:41:13,10.1.1.8,21,-0.050,-0.050,-0.050,0.000,0.000,0.000
1644939674146714880,2022-02-15-15:41:14,10.1.1.8,28,0.000,0.000,0.000,0.000,0.000,0.000
1644939674987443968,2022-02-15-15:41:14,10.1.1.8,38,0.040,0.040,0.040,0.000,0.000,0.000
1644939675386349056,2022-02-15-15:41:15,10.1.1.8,30,-0.040,-0.040,-0.040,0.000,0.000,0.000
1644939676066781952,2022-02-15-15:41:16,10.1.1.8,16,-0.040,-0.040,-0.040,0.000,0.000,0.000
1644939676586138880,2022-02-15-15:41:16,10.1.1.8,20,0.060,0.060,0.060,0.000,0.000,0.000
1644939676705691136,2022-02-15-15:41:16,10.1.1.8,39,0.080,0.080,0.080,0.000,0.000,0.000
1644939676886179072,2022-02-15-15:41:16,10.1.1.8,14,0.080,0.080,0.080,0.000,0.000,0.000
1644939677706428160,2022-02-15-15:41:17,10.1.1.8,20,-0.080,-0.080,-0.080,0.000,0.000,0.000
1644939677766078976,2022-02-15-15:41:17,10.1.1.8,29,-0.090,-0.090,-0.090,0.000,0.000,0.000
1644939677847297024,2022-02-15-15:41:17,10.1.1.8,7,-0.090,-0.090,-0.090,0.000,0.000,0.000
1644939678667156992,2022-02-15-15:41:18,10.1.1.8,19,0.070,0.070,0.070,0.000,0.000,0.000
1644939678725892096,2022-02-15-15:41:18,10.1.1.8,28,0.080,0.080,0.080,0.000,0.000,0.000
1644939678925758976,2022-02-15-15:41:18,10.1.1.8,24,0.080,0.080,0.080,0.000,0.000,0.000
1644939680285968128,2022-02-15-15:41:20,10.1.1.8,20,-0.020,-0.020,-0.020,0.000,0.000,0.000
1644939680345705984,2022-02-15-15:41:20,10.1.1.8,29,-0.010,-0.010,-0.010,0.000,0.000,0.000
1644939680406694912,2022-02-15-15:41:20,10.1.1.8,38,0.000,0.000,0.000,0.000,0.000,0.000
1644939681269125888,2022-02-15-15:41:21,10.1.1.8,29,0.040,0.040,0.040,0.000,0.000,0.000
1644939682087131904,2022-02-15-15:41:22,10.1.1.8,29,-0.080,-0.080,-0.080,0.000,0.000,0.000
1644939682146055936,2022-02-15-15:41:22,10.1.1.8,38,-0.070,-0.070,-0.070,0.000,0.000,0.000
1644939683326499840,2022-02-15-15:41:23,10.1.1.8,39,0.040,0.040,0.040,0.000,0.000,0.000
1644939683366144000,2022-02-15-15:41:23,10.1.1.8,29,0.030,0.030,0.030,0.000,0.000,0.000
1644939684086426112,2022-02-15-15:41:24,10.1.1.8,39,-0.090,-0.090,-0.090,0.000,0.000,0.000
1644939685775710976,2022-02-15-15:41:25,10.1.1.8,29,-0.010,-0.010,-0.010,0.000,0.000,0.000
1644939686167141888,2022-02-15-15:41:26,10.1.1.8,39,-0.090,-0.090,-0.090,0.000,0.000,0.000
1644939686208209920,2022-02-15-15:41:26,10.1.1.8,29,-0.100,-0.100,-0.100,0.000,0.000,0.000
1644939686265924096,2022-02-15-15:41:26,10.1.1.8,39,-0.090,-0.090,-0.090,0.000,0.000,0.000
1644939686307792896,2022-02-15-15:41:26,10.1.1.8,28,-0.080,-0.080,-0.080,0.000,0.000,0.000
1644939686767299840,2022-02-15-15:41:26,10.1.1.8,29,0.010,0.010,0.010,0.000,0.000,0.000
1644939686827815168,2022-02-15-15:41:26,10.1.1.8,39,0.020,0.020,0.020,0.000,0.000,0.000
1644939687326021888,2022-02-15-15:41:27,10.1.1.8,29,0.080,0.080,0.080,0.000,0.000,0.000
1644939687687105792,2022-02-15-15:41:27,10.1.1.8,28,0.010,0.010,0.010,0.000,0.000,0.000
1644939688406488832,2022-02-15-15:41:28,10.1.1.8,39,-0.070,-0.070,-0.070,0.000,0.000,0.000
1644939688446008064,2022-02-15-15:41:28,10.1.1.8,28,-0.060,-0.060,-0.060,0.000,0.000,0.000
1644939689106198016,2022-02-15-15:41:29,10.1.1.8,29,0.070,0.070,0.070,0.000,0.000,0.000
1644939689165940992,2022-02-15-15:41:29,10.1.1.8,39,0.080,0.080,0.080,0.000,0.000,0.000
1644939689346664960,2022-02-15-15:41:29,10.1.1.8,15,0.080,0.080,0.080,0.000,0.000,0.000
1644939690625751040,2022-02-15-15:41:30,10.1.1.8,29,-0.040,-0.040,-0.040,0.000,0.000,0.000
1644939691327182080,2022-02-15-15:41:31,10.1.1.8,39,0.090,0.090,0.090,0.000,0.000,0.000
1644939691366660096,2022-02-15-15:41:31,10.1.1.8,29,0.100,0.100,0.100,0.000,0.000,0.000
1644939693607523072,2022-02-15-15:41:33,10.1.1.8,22,0.100,0.100,0.100,0.000,0.000,0.000
1644939694186202880,2022-02-15-15:41:34,10.1.1.8,39,-0.010,-0.010,-0.010,0.000,0.000,0.000
1644939695086452992,2022-02-15-15:41:35,10.1.1.8,16,-0.010,-0.010,-0.010,0.000,0.000,0.000
1644939696026725888,2022-02-15-15:41:36,10.1.1.8,39,0.030,0.030,0.030,0.000,0.000,0.000
1644939696348332800,2022-02-15-15:41:36,10.1.1.8,37,-0.030,-0.030,-0.030,0.000,0.000,0.000
1644939697051213056,2022-02-15-15:41:37,10.1.1.8,11,-0.030,-0.030,-0.030,0.000,0.000,0.000
1644939697859548160,2022-02-15-15:41:37,10.1.1.8,28,0.090,0.090,0.090,0.000,0.000,0.000
1644939699406824192,2022-02-15-15:41:39,10.1.1.8,28,-0.020,-0.020,-0.020,0.000,0.000,0.000
1644939700869992960,2022-02-15-15:41:40,10.1.1.8,39,0.100,0.100,0.100,0.000,0.000,0.000
1644939700986563072,2022-02-15-15:41:40,10.1.1.8,20,0.070,0.070,0.070,0.000,0.000,0.000
1644939701046386944,2022-02-15-15:41:41,10.1.1.8,29,0.060,0.060,0.060,0.000,0.000,0.000
1644939701106512896,2022-02-15-15:41:41,10.1.1.8,39,0.050,0.050,0.050,0.000,0.000,0.000
1644939701566031872,2022-02-15-15:41:41,10.1.1.8,39,-0.040,-0.040,-0.040,0.000,0.000,0.000
1644939701606394112,2022-02-15-15:41:41,10.1.1.8,29,-0.050,-0.050,-0.050,0.000,0.000,0.000
1644939702086280192,2022-02-15-15:41:42,10.1.1.8,39,-0.060,-0.060,-0.060,0.000,0.000,0.000
1644939702711052800,2022-02-15-15:41:42,10.1.1.8,29,0.050,0.050,0.050,0.000,0.000,0.000
1644939703208125952,2022-02-15-15:41:43,10.1.1.8,20,0.050,0.050,0.050,0.000,0.000,0.000
1644939704621003008,2022-02-15-15:41:44,10.1.1.8,39,-0.010,-0.010,-0.010,0.000,0.000,0.000
1644939705726278912,2022-02-15-15:41:45,10.1.1.8,9,-0.010,-0.010,-0.010,0.000,0.000,0.000
1644939705849122048,2022-02-15-15:41:45,10.1.1.8,28,-0.030,-0.030,-0.030,0.000,0.000,0.000
1644939706901374208,2022-02-15-15:41:46,10.1.1.8,19,-0.030,-0.030,-0.030,0.000,0.000,0.000
1644939708127420928,2022-02-15-15:41:48,10.1.1.8,39,-0.010,-0.010,-0.010,0.000,0.000,0.000
1644939708466835968,2022-02-15-15:41:48,10.1.1.8,19,-0.080,-0.080,-0.080,0.000,0.000,0.000
1644939708527911936,2022-02-15-15:41:48,10.1.1.8,29,-0.090,-0.090,-0.090,0.000,0.000,0.000
1644939708611131904,2022-02-15-15:41:48,10.1.1.8,8,-0.090,-0.090,-0.090,0.000,0.000,0.000
1644939708846071040,2022-02-15-15:41:48,10.1.1.8,39,-0.050,-0.050,-0.050,0.000,0.000,0.000
1644939708885560064,2022-02-15-15:41:48,10.1.1.8,28,-0.040,-0.040,-0.040,0.000,0.000,0.000
1644939709699331072,2022-02-15-15:41:49,10.1.1.8,19,0.100,0.100,0.100,0.000,0.000,0.000
1644939709727309824,2022-02-15-15:41:49,10.1.1.8,29,0.090,0.090,0.090,0.000,0.000,0.000
1644939714621958144,2022-02-15-15:41:50,10.1.1.8,29,0.050,0.050,0.050,0.000,0.000,0.000
1644939720046720000,2022-02-15-15:41:55,10.1.1.8,29,0.010,0.010,0.010,0.000,0.000,0.000
1644939724930012928,2022-02-15-15:42:01,10.1.1.8,30,-0.040,-0.040,-0.040,0.000,0.000,0.000
1644939730442980096,2022-02-15-15:42:05,10.1.1.8,39,0.010,0.010,0.010,0.000,0.000,0.000
1644939736096393216,2022-02-15-15:42:11,10.1.1.8,39,0.090,0.090,0.090,0.000,0.000,0.000
1644939740394125824,2022-02-15-15:42:16,10.1.1.8,-5170,0.090,0.090,0.090,0.000,0.000,0.000
1644939741759661824,2022-02-15-15:42:20,10.1.1.8,29,0.080,0.080,0.080,0.000,0.000,0.000
1644939746843949056,2022-02-15-15:42:24,10.1.1.8,-34,0.080,0.080,0.080,0.000,0.000,0.000
1644939750015536896,2022-02-15-15:42:27,10.1.1.8,-61,0.080,0.080,0.080,0.000,0.000,0.000
1644939750489185024,2022-02-15-15:42:30,10.1.1.8,29,0.020,0.020,0.020,0.000,0.000,0.000
1644939750885960960,2022-02-15-15:42:30,10.1.1.8,19,-0.060,-0.060,-0.060,0.000,0.000,0.000
1644939751358201088,2022-02-15-15:42:31,10.1.1.8,-23,-0.060,-0.060,-0.060,0.000,0.000,0.000
1644939753879800064,2022-02-15-15:42:33,10.1.1.8,-79,0.060,0.060,0.060,0.000,0.000,0.000
1644939757258557952,2022-02-15-15:42:34,10.1.1.8,29,0.030,0.030,0.030,0.000,0.000,0.000
1644939758418614016,2022-02-15-15:42:38,10.1.1.8,39,-0.030,-0.030,-0.030,0.000,0.000,0.000
1644939761073678080,2022-02-15-15:42:39,10.1.1.8,29,0.090,0.090,0.090,0.000,0.000,0.000
1644939762952790016,2022-02-15-15:42:42,10.1.1.8,29,-0.100,-0.100,-0.100,0.000,0.000,0.000
1644939763146251008,2022-02-15-15:42:43,10.1.1.8,49,-0.080,-0.080,-0.080,0.000,0.000,0.000
1644939766198295040,2022-02-15-15:42:46,10.1.1.8,10,0.010,0.010,0.010,0.000,0.000,0.000
1644939769328797184,2022-02-15-15:42:47,10.1.1.8,10,0.010,0.010,0.010,0.000,0.000,0.000
1644939772050599936,2022-02-15-15:42:50,10.1.1.8,28,0.080,0.080,0.080,0.000,0.000,0.000
1644939775836584192,2022-02-15-15:42:54,10.1.1.8,39,-0.080,-0.080,-0.080,0.000,0.000,0.000
1644939776248357120,2022-02-15-15:42:56,10.1.1.8,38,-0.090,-0.090,-0.090,0.000,0.000,0.000
1644939776476408832,2022-02-15-15:42:56,10.1.1.8,10,-0.090,-0.090,-0.090,0.000,0.000,0.000
1644939776705478912,2022-02-15-15:42:56,10.1.1.8,29,-0.040,-0.040,-0.040,0.000,0.000,0.000
1644939777426000128,2022-02-15-15:42:57,10.1.1.8,38,0.100,0.100,0.100,0.000,0.000,0.000
1644939777849108992,2022-02-15-15:42:57,10.1.1.8,29,0.020,0.020,0.020,0.000,0.000,0.000
1644939777917541888,2022-02-15-15:42:57,10.1.1.8,39,0.010,0.010,0.010,0.000,0.000,0.000
1644939779066083840,2022-02-15-15:42:59,10.1.1.8,19,0.010,0.010,0.010,0.000,0.000,0.000
1644939779127083008,2022-02-15-15:42:59,10.1.1.8,29,0.020,0.020,0.020,0.000,0.000,0.000
1644939779963687936,2022-02-15-15:42:59,10.1.1.8,-35,0.020,0.020,0.020,0.000,0.000,0.000
1644939780186916096,2022-02-15-15:43:00,10.1.1.8,39,-0.020,-0.020,-0.020,0.000,0.000,0.000
1644939781007406080,2022-02-15-15:43:01,10.1.1.8,5,-0.020,-0.020,-0.020,0.000,0.000,0.000
1644939781126095104,2022-02-15-15:43:01,10.1.1.8,20,0.000,0.000,0.000,0.000,0.000,0.000
1644939781193126912,2022-02-15-15:43:01,10.1.1.8,29,0.010,0.010,0.010,0.000,0.000,0.000
1644939782420561920,2022-02-15-15:43:02,10.1.1.8,11,0.010,0.010,0.010,0.000,0.000,0.000
1644939783566222848,2022-02-15-15:43:03,10.1.1.8,39,-0.020,-0.020,-0.020,0.000,0.000,0.000
1644939784731059968,2022-02-15-15:43:04,10.1.1.8,24,0.030,0.030,0.030,0.000,0.000,0.000
1644939785127252224,2022-02-15-15:43:05,10.1.1.8,29,-0.030,-0.030,-0.030,0.000,0.000,0.000
1644939785705485056,2022-02-15-15:43:05,10.1.1.8,19,-0.060,-0.060,-0.060,0.000,0.000,0.000
1644939786546575104,2022-02-15-15:43:06,10.1.1.8,29,0.100,0.100,0.100,0.000,0.000,0.000
1644939786605812992,2022-02-15-15:43:06,10.1.1.8,39,0.090,0.090,0.090,0.000,0.000,0.000
1644939786865559040,2022-02-15-15:43:06,10.1.1.8,39,0.040,0.040,0.040,0.000,0.000,0.000
1644939786906483968,2022-02-15-15:43:06,10.1.1.8,28,0.030,0.030,0.030,0.000,0.000,0.000
1644939788274405888,2022-02-15-15:43:07,10.1.1.8,39,-0.060,-0.060,-0.060,0.000,0.000,0.000
1644939789874033920,2022-02-15-15:43:09,10.1.1.8,20,0.040,0.040,0.040,0.000,0.000,0.000
1644939790128772864,2022-02-15-15:43:10,10.1.1.8,21,0.010,0.010,0.010,0.000,0.000,0.000
1644939790546302976,2022-02-15-15:43:10,10.1.1.8,29,-0.070,-0.070,-0.070,0.000,0.000,0.000
1644939791840893952,2022-02-15-15:43:10,10.1.1.8,4,-0.070,-0.070,-0.070,0.000,0.000,0.000
1644939792309341952,2022-02-15-15:43:12,10.1.1.8,28,0.020,0.020,0.020,0.000,0.000,0.000
1644939795848819968,2022-02-15-15:43:13,10.1.1.8,20,0.040,0.040,0.040,0.000,0.000,0.000
1644939798241875968,2022-02-15-15:43:17,10.1.1.8,14,0.040,0.040,0.040,0.000,0.000,0.000
1644939799054691072,2022-02-15-15:43:19,10.1.1.8,5,0.040,0.040,0.040,0.000,0.000,0.000
1644939799126418176,2022-02-15-15:43:19,10.1.1.8,29,0.030,0.030,0.030,0.000,0.000,0.000
1644939800809040896,2022-02-15-15:43:20,10.1.1.8,10,0.030,0.030,0.030,0.000,0.000,0.000
1644939801026430976,2022-02-15-15:43:21,10.1.1.8,20,0.080,0.080,0.080,0.000,0.000,0.000
1644939801226334208,2022-02-15-15:43:21,10.1.1.8,11,0.080,0.080,0.080,0.000,0.000,0.000
1644939802898011904,2022-02-15-15:43:22,10.1.1.8,39,-0.010,-0.010,-0.010,0.000,0.000,0.000
1644939803445261056,2022-02-15-15:43:23,10.1.1.8,39,0.100,0.100,0.100,0.000,0.000,0.000
1644939804291346944,2022-02-15-15:43:24,10.1.1.8,30,-0.030,-0.030,-0.030,0.000,0.000,0.000
1644939804671240960,2022-02-15-15:43:24,10.1.1.8,39,-0.080,-0.080,-0.080,0.000,0.000,0.000
1644939804711639040,2022-02-15-15:43:24,10.1.1.8,28,-0.090,-0.090,-0.090,0.000,0.000,0.000
1644939804805975040,2022-02-15-15:43:24,10.1.1.8,22,-0.090,-0.090,-0.090,0.000,0.000,0.000
1644939807032903936,2022-02-15-15:43:26,10.1.1.8,21,-0.090,-0.090,-0.090,0.000,0.000,0.000
1644939807147505920,2022-02-15-15:43:27,10.1.1.8,16,-0.090,-0.090,-0.090,0.000,0.000,0.000
1644939809242789120,2022-02-15-15:43:29,10.1.1.8,29,-0.080,-0.080,-0.080,0.000,0.000,0.000
1644939809266470912,2022-02-15-15:43:29,10.1.1.8,28,-0.090,-0.090,-0.090,0.000,0.000,0.000
1644939809347129088,2022-02-15-15:43:29,10.1.1.8,6,-0.090,-0.090,-0.090,0.000,0.000,0.000
1644939809527524096,2022-02-15-15:43:29,10.1.1.8,20,-0.060,-0.060,-0.060,0.000,0.000,0.000
1644939810118138112,2022-02-15-15:43:30,10.1.1.8,20,0.050,0.050,0.050,0.000,0.000,0.000
1644939810174988032,2022-02-15-15:43:30,10.1.1.8,29,0.060,0.060,0.060,0.000,0.000,0.000
1644939810226725120,2022-02-15-15:43:30,10.1.1.8,38,0.070,0.070,0.070,0.000,0.000,0.000
1644939810510288896,2022-02-15-15:43:30,10.1.1.8,10,0.070,0.070,0.070,0.000,0.000,0.000
1644939810567491072,2022-02-15-15:43:30,10.1.1.8,20,0.060,0.060,0.060,0.000,0.000,0.000
1644939810807002112,2022-02-15-15:43:30,10.1.1.8,39,0.020,0.020,0.020,0.000,0.000,0.000
1644939810852670976,2022-02-15-15:43:30,10.1.1.8,29,0.010,0.010,0.010,0.000,0.000,0.000
1644939811016026112,2022-02-15-15:43:31,10.1.1.8,29,-0.020,-0.020,-0.020,0.000,0.000,0.000
1644939811387550208,2022-02-15-15:43:31,10.1.1.8,19,-0.090,-0.090,-0.090,0.000,0.000,0.000
1644939811487564032,2022-02-15-15:43:31,10.1.1.8,18,-0.090,-0.090,-0.090,0.000,0.000,0.000
1644939812597924096,2022-02-15-15:43:32,10.1.1.8,28,0.070,0.070,0.070,0.000,0.000,0.000
1644939812949681152,2022-02-15-15:43:32,10.1.1.8,5,0.070,0.070,0.070,0.000,0.000,0.000
1644939813230159872,2022-02-15-15:43:33,10.1.1.8,29,0.020,0.020,0.020,0.000,0.000,0.000
1644939813786663168,2022-02-15-15:43:33,10.1.1.8,28,-0.090,-0.090,-0.090,0.000,0.000,0.000
1644939813866504960,2022-02-15-15:43:33,10.1.1.8,7,-0.090,-0.090,-0.090,0.000,0.000,0.000
1644939814407213824,2022-02-15-15:43:34,10.1.1.8,39,0.010,0.010,0.010,0.000,0.000,0.000
1644939815110352128,2022-02-15-15:43:35,10.1.1.8,29,0.070,0.070,0.070,0.000,0.000,0.000
1644939815520965120,2022-02-15-15:43:35,10.1.1.8,39,-0.010,-0.010,-0.010,0.000,0.000,0.000
1644939815805655040,2022-02-15-15:43:35,10.1.1.8,29,-0.070,-0.070,-0.070,0.000,0.000,0.000
1644939816559956992,2022-02-15-15:43:35,10.1.1.8,30,-0.100,-0.100,-0.100,0.000,0.000,0.000
1644939816908098048,2022-02-15-15:43:36,10.1.1.8,29,-0.030,-0.030,-0.030,0.000,0.000,0.000
1644939817327444992,2022-02-15-15:43:37,10.1.1.8,29,0.050,0.050,0.050,0.000,0.000,0.000
1644939819743265024,2022-02-15-15:43:39,10.1.1.8,4,0.080,0.080,0.080,0.000,0.000,0.000
1644939820352431104,2022-02-15-15:43:40,10.1.1.8,-16,0.080,0.080,0.080,0.000,0.000,0.000
1644939820625985024,2022-02-15-15:43:40,10.1.1.8,-541,0.080,0.080,0.080,0.000,0.000,0.000
1644939820683582976,2022-02-15-15:43:40,10.1.1.8,30,0.060,0.060,0.060,0.000,0.000,0.000
1644939823055584000,2022-02-15-15:43:42,10.1.1.8,29,0.000,0.000,0.000,0.000,0.000,0.000
1644939824554619136,2022-02-15-15:43:44,10.1.1.8,12,0.000,0.000,0.000,0.000,0.000,0.000
1644939826086624000,2022-02-15-15:43:46,10.1.1.8,-18,0.000,0.000,0.000,0.000,0.000,0.000
1644939826708407040,2022-02-15-15:43:46,10.1.1.8,39,0.080,0.080,0.080,0.000,0.000,0.000
1644939831055251968,2022-02-15-15:43:47,10.1.1.8,29,-0.100,-0.100,-0.100,0.000,0.000,0.000
1644939833048185088,2022-02-15-15:43:51,10.1.1.8,39,-0.010,-0.010,-0.010,0.000,0.000,0.000
1644939834796720896,2022-02-15-15:43:54,10.1.1.8,10,-0.010,-0.010,-0.010,0.000,0.000,0.000
1644939835747083008,2022-02-15-15:43:55,10.1.1.8,13,-0.010,-0.010,-0.010,0.000,0.000,0.000
1644939836087254016,2022-02-15-15:43:56,10.1.1.8,20,0.050,0.050,0.050,0.000,0.000,0.000
1644939836862648064,2022-02-15-15:43:56,10.1.1.8,13,0.050,0.050,0.050,0.000,0.000,0.000
1644939837125729024,2022-02-15-15:43:57,10.1.1.8,39,0.000,0.000,0.000,0.000,0.000,0.000
1644939837466187008,2022-02-15-15:43:57,10.1.1.8,22,-0.070,-0.070,-0.070,0.000,0.000,0.000
1644939837766941184,2022-02-15-15:43:57,10.1.1.8,9,-0.070,-0.070,-0.070,0.000,0.000,0.000
1644939838140388864,2022-02-15-15:43:58,10.1.1.8,20,-0.010,-0.010,-0.010,0.000,0.000,0.000
1644939838405881856,2022-02-15-15:43:58,10.1.1.8,19,0.040,0.040,0.040,0.000,0.000,0.000
1644939838465938944,2022-02-15-15:43:58,10.1.1.8,29,0.050,0.050,0.050,0.000,0.000,0.000
1644939838968662016,2022-02-15-15:43:58,10.1.1.8,0,0.050,0.050,0.050,0.000,0.000,0.000
1644939839026528000,2022-02-15-15:43:59,10.1.1.8,29,0.040,0.040,0.040,0.000,0.000,0.000
1644939839446417152,2022-02-15-15:43:59,10.1.1.8,30,-0.040,-0.040,-0.040,0.000,0.000,0.000
1644939839907151872,2022-02-15-15:43:59,10.1.1.8,20,-0.070,-0.070,-0.070,0.000,0.000,0.000
1644939841706619904,2022-02-15-15:44:01,10.1.1.8,14,-0.070,-0.070,-0.070,0.000,0.000,0.000
1644939842025479168,2022-02-15-15:44:02,10.1.1.8,9,-0.070,-0.070,-0.070,0.000,0.000,0.000
1644939842106369024,2022-02-15-15:44:02,10.1.1.8,38,-0.060,-0.060,-0.060,0.000,0.000,0.000
1644939845729733888,2022-02-15-15:44:03,10.1.1.8,6,-0.060,-0.060,-0.060,0.000,0.000,0.000
1644939847259546880,2022-02-15-15:44:06,10.1.1.8,20,-0.060,-0.060,-0.060,0.000,0.000,0.000
1644939849183208960,2022-02-15-15:44:09,10.1.1.8,9,-0.060,-0.060,-0.060,0.000,0.000,0.000
1644939849346934016,2022-02-15-15:44:09,10.1.1.8,39,-0.090,-0.090,-0.090,0.000,0.000,0.000
1644939849426446848,2022-02-15-15:44:09,10.1.1.8,17,-0.090,-0.090,-0.090,0.000,0.000,0.000
1644939852906537984,2022-02-15-15:44:11,10.1.1.8,39,0.010,0.010,0.010,0.000,0.000,0.000
1644939860041856000,2022-02-15-15:44:18,10.1.1.8,20,0.080,0.080,0.080,0.000,0.000,0.000
1644939863524962048,2022-02-15-15:44:21,10.1.1.8,30,-0.030,-0.030,-0.030,0.000,0.000,0.000
1644939865522689024,2022-02-15-15:44:23,10.1.1.8,29,-0.060,-0.060,-0.060,0.000,0.000,0.000
1644939867177342976,2022-02-15-15:44:26,10.1.1.8,7,-0.060,-0.060,-0.060,0.000,0.000,0.000
1644939875746886912,2022-02-15-15:44:33,10.1.1.8,-61,-0.060,-0.060,-0.060,0.000,0.000,0.000
1644939877987312128,2022-02-15-15:44:37,10.1.1.8,-931,-0.060,-0.060,-0.060,0.000,0.000,0.000
1644939885518131968,2022-02-15-15:44:43,10.1.1.8,14,-0.060,-0.060,-0.060,0.000,0.000,0.000
1644939892500480000,2022-02-15-15:44:48,10.1.1.8,29,0.050,0.050,0.050,0.000,0.000,0.000
1644939915146833920,2022-02-15-15:45:11,10.1.1.8,-550,-0.090,-0.090,-0.090,0.000,0.000,0.000
1644939928734214144,2022-02-15-15:45:26,10.1.1.8,29,0.050,0.050,0.050,0.000,0.000,0.000
1644939944437975808,2022-02-15-15:45:30,10.1.1.8,15,0.050,0.050,0.050,0.000,0.000,0.000
1644939946406919936,2022-02-15-15:45:46,10.1.1.8,29,-0.100,-0.100,-0.100,0.000,0.000,0.000
1644939946546510848,2022-02-15-15:45:46,10.1.1.8,29,-0.080,-0.080,-0.080,0.000,0.000,0.000
1644939947106184960,2022-02-15-15:45:47,10.1.1.8,30,0.030,0.030,0.030,0.000,0.000,0.000
1644939947466684160,2022-02-15-15:45:47,10.1.1.8,29,0.100,0.100,0.100,0.000,0.000,0.000
1644939948406063104,2022-02-15-15:45:48,10.1.1.8,20,-0.070,-0.070,-0.070,0.000,0.000,0.000
1644939948706928128,2022-02-15-15:45:48,10.1.1.8,5,-0.070,-0.070,-0.070,0.000,0.000,0.000
1644939949085582848,2022-02-15-15:45:49,10.1.1.8,29,0.000,0.000,0.000,0.000,0.000,0.000
1644939949645862144,2022-02-15-15:45:49,10.1.1.8,29,0.090,0.090,0.090,0.000,0.000,0.000
1644939950688018176,2022-02-15-15:45:50,10.1.1.8,20,-0.090,-0.090,-0.090,0.000,0.000,0.000
1644939952086510848,2022-02-15-15:45:52,10.1.1.8,40,0.020,0.020,0.020,0.000,0.000,0.000
1644939952155635968,2022-02-15-15:45:52,10.1.1.8,28,0.010,0.010,0.010,0.000,0.000,0.000
1644939952306472960,2022-02-15-15:45:52,10.1.1.8,29,-0.020,-0.020,-0.020,0.000,0.000,0.000
1644939952367686912,2022-02-15-15:45:52,10.1.1.8,39,-0.030,-0.030,-0.030,0.000,0.000,0.000
1644939953066905088,2022-02-15-15:45:53,10.1.1.8,13,-0.030,-0.030,-0.030,0.000,0.000,0.000
1644939953666821888,2022-02-15-15:45:53,10.1.1.8,29,0.080,0.080,0.080,0.000,0.000,0.000
1644939953867290112,2022-02-15-15:45:53,10.1.1.8,21,0.080,0.080,0.080,0.000,0.000,0.000
1644939955905783040,2022-02-15-15:45:55,10.1.1.8,18,0.080,0.080,0.080,0.000,0.000,0.000
1644939956106493952,2022-02-15-15:45:56,10.1.1.8,13,0.080,0.080,0.080,0.000,0.000,0.000
1644939956805648128,2022-02-15-15:45:56,10.1.1.8,39,-0.040,-0.040,-0.040,0.000,0.000,0.000
1644939956846127872,2022-02-15-15:45:56,10.1.1.8,29,-0.050,-0.050,-0.050,0.000,0.000,0.000
1644939956906703104,2022-02-15-15:45:56,10.1.1.8,29,-0.060,-0.060,-0.060,0.000,0.000,0.000
1644939957359055872,2022-02-15-15:45:57,10.1.1.8,2,-0.060,-0.060,-0.060,0.000,0.000,0.000
1644939957536706816,2022-02-15-15:45:57,10.1.1.8,29,-0.030,-0.030,-0.030,0.000,0.000,0.000
1644939958925987840,2022-02-15-15:45:58,10.1.1.8,11,-0.030,-0.030,-0.030,0.000,0.000,0.000
1644939959646063104,2022-02-15-15:45:59,10.1.1.8,13,-0.030,-0.030,-0.030,0.000,0.000,0.000
1644939960726174976,2022-02-15-15:46:00,10.1.1.8,29,0.020,0.020,0.020,0.000,0.000,0.000
1644939962065748992,2022-02-15-15:46:02,10.1.1.8,10,0.020,0.020,0.020,0.000,0.000,0.000
1644939962886571008,2022-02-15-15:46:02,10.1.1.8,12,0.020,0.020,0.020,0.000,0.000,0.000
1644939963065892096,2022-02-15-15:46:03,10.1.1.8,39,-0.010,-0.010,-0.010,0.000,0.000,0.000
1644939963886653952,2022-02-15-15:46:03,10.1.1.8,39,-0.030,-0.030,-0.030,0.000,0.000,0.000
1644939964765803008,2022-02-15-15:46:04,10.1.1.8,29,0.060,0.060,0.060,0.000,0.000,0.000
1644939966005660160,2022-02-15-15:46:06,10.1.1.8,39,-0.020,-0.020,-0.020,0.000,0.000,0.000
1644939967125932032,2022-02-15-15:46:07,10.1.1.8,39,0.000,0.000,0.000,0.000,0.000,0.000
1644939967625865984,2022-02-15-15:46:07,10.1.1.8,29,-0.100,-0.100,-0.100,0.000,0.000,0.000
1644939967785427968,2022-02-15-15:46:07,10.1.1.8,29,-0.070,-0.070,-0.070,0.000,0.000,0.000
1644939968505827072,2022-02-15-15:46:08,10.1.1.8,29,0.070,0.070,0.070,0.000,0.000,0.000
1644939968805959936,2022-02-15-15:46:08,10.1.1.8,23,0.070,0.070,0.070,0.000,0.000,0.000
1644939969685487872,2022-02-15-15:46:09,10.1.1.8,29,-0.100,-0.100,-0.100,0.000,0.000,0.000
1644939971769133056,2022-02-15-15:46:11,10.1.1.8,3,-0.100,-0.100,-0.100,0.000,0.000,0.000
1644939972966592000,2022-02-15-15:46:12,10.1.1.8,20,0.070,0.070,0.070,0.000,0.000,0.000
1644939974007123968,2022-02-15-15:46:14,10.1.1.8,39,-0.070,-0.070,-0.070,0.000,0.000,0.000
1644939975326512128,2022-02-15-15:46:15,10.1.1.8,29,0.010,0.010,0.010,0.000,0.000,0.000
1644939976445681152,2022-02-15-15:46:16,10.1.1.8,23,0.010,0.010,0.010,0.000,0.000,0.000
1644939977348123136,2022-02-15-15:46:17,10.1.1.8,11,0.010,0.010,0.010,0.000,0.000,0.000
1644939978465682944,2022-02-15-15:46:18,10.1.1.8,14,0.010,0.010,0.010,0.000,0.000,0.000
1644939978886387200,2022-02-15-15:46:18,10.1.1.8,29,0.090,0.090,0.090,0.000,0.000,0.000
1644939978966166016,2022-02-15-15:46:18,10.1.1.8,8,0.090,0.090,0.090,0.000,0.000,0.000
1644939979606020864,2022-02-15-15:46:19,10.1.1.8,39,-0.030,-0.030,-0.030,0.000,0.000,0.000
1644939980286715136,2022-02-15-15:46:20,10.1.1.8,10,-0.030,-0.030,-0.030,0.000,0.000,0.000
1644939980345681920,2022-02-15-15:46:20,10.1.1.8,19,-0.020,-0.020,-0.020,0.000,0.000,0.000
1644939981564979968,2022-02-15-15:46:21,10.1.1.8,24,-0.020,-0.020,-0.020,0.000,0.000,0.000
1644939982367273984,2022-02-15-15:46:22,10.1.1.8,8,-0.020,-0.020,-0.020,0.000,0.000,0.000
1644939983045423872,2022-02-15-15:46:23,10.1.1.8,30,0.090,0.090,0.090,0.000,0.000,0.000
1644939983106228224,2022-02-15-15:46:23,10.1.1.8,39,0.080,0.080,0.080,0.000,0.000,0.000
1644939983765177088,2022-02-15-15:46:23,10.1.1.8,39,-0.050,-0.050,-0.050,0.000,0.000,0.000
1644939984247976960,2022-02-15-15:46:24,10.1.1.8,12,-0.050,-0.050,-0.050,0.000,0.000,0.000
1644939984505346048,2022-02-15-15:46:24,10.1.1.8,19,0.000,0.000,0.000,0.000,0.000,0.000
1644939985165481984,2022-02-15-15:46:25,10.1.1.8,19,0.070,0.070,0.070,0.000,0.000,0.000
1644939986146603008,2022-02-15-15:46:26,10.1.1.8,29,-0.080,-0.080,-0.080,0.000,0.000,0.000
1644939986206595072,2022-02-15-15:46:26,10.1.1.8,39,-0.070,-0.070,-0.070,0.000,0.000,0.000
1644939987405821184,2022-02-15-15:46:27,10.1.1.8,20,0.030,0.030,0.030,0.000,0.000,0.000
1644939987764892928,2022-02-15-15:46:27,10.1.1.8,19,-0.040,-0.040,-0.040,0.000,0.000,0.000
1644939988345894144,2022-02-15-15:46:28,10.1.1.8,39,-0.050,-0.050,-0.050,0.000,0.000,0.000
1644939989146270976,2022-02-15-15:46:29,10.1.1.8,29,0.090,0.090,0.090,0.000,0.000,0.000
1644939990526488064,2022-02-15-15:46:30,10.1.1.8,40,-0.020,-0.020,-0.020,0.000,0.000,0.000
1644939991166476032,2022-02-15-15:46:31,10.1.1.8,19,0.090,0.090,0.090,0.000,0.000,0.000
1644939991225921024,2022-02-15-15:46:31,10.1.1.8,29,0.080,0.080,0.080,0.000,0.000,0.000
1644939991928899072,2022-02-15-15:46:31,10.1.1.8,21,-0.060,-0.060,-0.060,0.000,0.000,0.000
1644939992329300992,2022-02-15-15:46:32,10.1.1.8,14,-0.060,-0.060,-0.060,0.000,0.000,0.000
1644939992786534144,2022-02-15-15:46:32,10.1.1.8,20,0.030,0.030,0.030,0.000,0.000,0.000
1644939992845916160,2022-02-15-15:46:32,10.1.1.8,29,0.040,0.040,0.040,0.000,0.000,0.000
1644939993445658880,2022-02-15-15:46:33,10.1.1.8,18,0.040,0.040,0.040,0.000,0.000,0.000
1644939994565933824,2022-02-15-15:46:34,10.1.1.8,19,-0.020,-0.020,-0.020,0.000,0.000,0.000
1644939994625278976,2022-02-15-15:46:34,10.1.1.8,28,-0.010,-0.010,-0.010,0.000,0.000,0.000
1644939995725148928,2022-02-15-15:46:35,10.1.1.8,15,-0.010,-0.010,-0.010,0.000,0.000,0.000
1644939996305629952,2022-02-15-15:46:36,10.1.1.8,39,-0.080,-0.080,-0.080,0.000,0.000,0.000
1644939997006820864,2022-02-15-15:46:37,10.1.1.8,29,0.060,0.060,0.060,0.000,0.000,0.000
1644939997405817088,2022-02-15-15:46:37,10.1.1.8,22,0.060,0.060,0.060,0.000,0.000,0.000
1644939998585355008,2022-02-15-15:46:38,10.1.1.8,21,-0.030,-0.030,-0.030,0.000,0.000,0.000
1644939999664998912,2022-02-15-15:46:39,10.1.1.8,29,0.020,0.020,0.020,0.000,0.000,0.000
1644939999726243072,2022-02-15-15:46:39,10.1.1.8,39,0.010,0.010,0.010,0.000,0.000,0.000
1644940000866321152,2022-02-15-15:46:40,10.1.1.8,10,0.010,0.010,0.010,0.000,0.000,0.000
1644940001785288192,2022-02-15-15:46:41,10.1.1.8,11,0.010,0.010,0.010,0.000,0.000,0.000
1644940002905669888,2022-02-15-15:46:42,10.1.1.8,15,0.010,0.010,0.010,0.000,0.000,0.000
1644940003826877952,2022-02-15-15:46:43,10.1.1.8,14,0.010,0.010,0.010,0.000,0.000,0.000
1644940004966535936,2022-02-15-15:46:44,10.1.1.8,20,0.010,0.010,0.010,0.000,0.000,0.000
1644940005685692928,2022-02-15-15:46:45,10.1.1.8,29,0.050,0.050,0.050,0.000,0.000,0.000
1644940005746457088,2022-02-15-15:46:45,10.1.1.8,38,0.040,0.040,0.040,0.000,0.000,0.000
1644940006286508032,2022-02-15-15:46:46,10.1.1.8,20,-0.070,-0.070,-0.070,0.000,0.000,0.000
1644940006585166848,2022-02-15-15:46:46,10.1.1.8,13,-0.070,-0.070,-0.070,0.000,0.000,0.000
1644940006810297088,2022-02-15-15:46:46,10.1.1.8,28,-0.030,-0.030,-0.030,0.000,0.000,0.000
1644940008090420992,2022-02-15-15:46:48,10.1.1.8,29,-0.020,-0.020,-0.020,0.000,0.000,0.000
1644940008968129024,2022-02-15-15:46:48,10.1.1.8,13,-0.020,-0.020,-0.020,0.000,0.000,0.000
1644940009188131072,2022-02-15-15:46:49,10.1.1.8,29,0.020,0.020,0.020,0.000,0.000,0.000
1644940009246244864,2022-02-15-15:46:49,10.1.1.8,38,0.030,0.030,0.030,0.000,0.000,0.000
1644940009948497152,2022-02-15-15:46:49,10.1.1.8,15,0.030,0.030,0.030,0.000,0.000,0.000
1644940011266465024,2022-02-15-15:46:51,10.1.1.8,9,0.030,0.030,0.030,0.000,0.000,0.000
1644940011986483968,2022-02-15-15:46:51,10.1.1.8,20,0.030,0.030,0.030,0.000,0.000,0.000
1644940013327202048,2022-02-15-15:46:53,10.1.1.8,14,0.030,0.030,0.030,0.000,0.000,0.000
1644940013645910016,2022-02-15-15:46:53,10.1.1.8,30,0.090,0.090,0.090,0.000,0.000,0.000
1644940013725442816,2022-02-15-15:46:53,10.1.1.8,7,0.090,0.090,0.090,0.000,0.000,0.000
1644940015666246912,2022-02-15-15:46:55,10.1.1.8,12,0.090,0.090,0.090,0.000,0.000,0.000
1644940015765814016,2022-02-15-15:46:55,10.1.1.8,11,0.090,0.090,0.090,0.000,0.000,0.000
1644940016406036992,2022-02-15-15:46:56,10.1.1.8,39,-0.030,-0.030,-0.030,0.000,0.000,0.000
1644940017106280192,2022-02-15-15:46:57,10.1.1.8,20,-0.030,-0.030,-0.030,0.000,0.000,0.000
1644940018106292992,2022-02-15-15:46:58,10.1.1.8,39,0.040,0.040,0.040,0.000,0.000,0.000
1644940019266231040,2022-02-15-15:46:59,10.1.1.8,30,-0.010,-0.010,-0.010,0.000,0.000,0.000
1644940019925137920,2022-02-15-15:46:59,10.1.1.8,29,0.080,0.080,0.080,0.000,0.000,0.000
1644940021205133056,2022-02-15-15:47:01,10.1.1.8,29,-0.030,-0.030,-0.030,0.000,0.000,0.000
1644940021825624832,2022-02-15-15:47:01,10.1.1.8,39,0.090,0.090,0.090,0.000,0.000,0.000
1644940021906588160,2022-02-15-15:47:01,10.1.1.8,17,0.090,0.090,0.090,0.000,0.000,0.000
1644940023845403904,2022-02-15-15:47:03,10.1.1.8,18,0.090,0.090,0.090,0.000,0.000,0.000
1644940023945841920,2022-02-15-15:47:03,10.1.1.8,13,0.090,0.090,0.090,0.000,0.000,0.000
1644940024066989056,2022-02-15-15:47:04,10.1.1.8,29,0.070,0.070,0.070,0.000,0.000,0.000
1644940024465993984,2022-02-15-15:47:04,10.1.1.8,19,-0.010,-0.010,-0.010,0.000,0.000,0.000
1644940024885682944,2022-02-15-15:47:04,10.1.1.8,29,-0.090,-0.090,-0.090,0.000,0.000,0.000
1644940024986370048,2022-02-15-15:47:04,10.1.1.8,24,-0.090,-0.090,-0.090,0.000,0.000,0.000
1644940025506486016,2022-02-15-15:47:05,10.1.1.8,29,0.010,0.010,0.010,0.000,0.000,0.000
1644940026407314944,2022-02-15-15:47:06,10.1.1.8,10,0.010,0.010,0.010,0.000,0.000,0.000
1644940026466435072,2022-02-15-15:47:06,10.1.1.8,20,0.000,0.000,0.000,0.000,0.000,0.000
1644940026526622976,2022-02-15-15:47:06,10.1.1.8,29,-0.010,-0.010,-0.010,0.000,0.000,0.000
1644940027425554944,2022-02-15-15:47:07,10.1.1.8,13,-0.010,-0.010,-0.010,0.000,0.000,0.000
1644940028546361856,2022-02-15-15:47:08,10.1.1.8,11,-0.010,-0.010,-0.010,0.000,0.000,0.000
1644940029465946880,2022-02-15-15:47:09,10.1.1.8,15,-0.010,-0.010,-0.010,0.000,0.000,0.000
1644940029785541888,2022-02-15-15:47:09,10.1.1.8,29,0.050,0.050,0.050,0.000,0.000,0.000
1644940030286317056,2022-02-15-15:47:10,10.1.1.8,21,0.050,0.050,0.050,0.000,0.000,0.000
1644940031806395136,2022-02-15-15:47:11,10.1.1.8,12,0.050,0.050,0.050,0.000,0.000,0.000
1644940032325728000,2022-02-15-15:47:12,10.1.1.8,23,0.050,0.050,0.050,0.000,0.000,0.000
1644940033606117120,2022-02-15-15:47:13,10.1.1.8,30,0.000,0.000,0.000,0.000,0.000,0.000
1644940034605839104,2022-02-15-15:47:14,10.1.1.8,9,0.000,0.000,0.000,0.000,0.000,0.000
1644940035625570048,2022-02-15-15:47:15,10.1.1.8,14,0.000,0.000,0.000,0.000,0.000,0.000
1644940036647182848,2022-02-15-15:47:16,10.1.1.8,10,0.000,0.000,0.000,0.000,0.000,0.000
1644940037686281984,2022-02-15-15:47:17,10.1.1.8,15,0.000,0.000,0.000,0.000,0.000,0.000
1644940038065241088,2022-02-15-15:47:18,10.1.1.8,39,0.070,0.070,0.070,0.000,0.000,0.000
1644940038347457792,2022-02-15-15:47:18,10.1.1.8,13,0.070,0.070,0.070,0.000,0.000,0.000
1644940038565574912,2022-02-15-15:47:18,10.1.1.8,29,0.030,0.030,0.030,0.000,0.000,0.000
1644940039585971200,2022-02-15-15:47:19,10.1.1.8,29,-0.030,-0.030,-0.030,0.000,0.000,0.000
1644940039645644800,2022-02-15-15:47:19,10.1.1.8,39,-0.020,-0.020,-0.020,0.000,0.000,0.000
1644940040846347008,2022-02-15-15:47:20,10.1.1.8,13,-0.020,-0.020,-0.020,0.000,0.000,0.000
1644940041126373120,2022-02-15-15:47:21,10.1.1.8,39,-0.070,-0.070,-0.070,0.000,0.000,0.000
1644940041406868992,2022-02-15-15:47:21,10.1.1.8,13,-0.070,-0.070,-0.070,0.000,0.000,0.000
1644940042148406016,2022-02-15-15:47:22,10.1.1.8,40,0.070,0.070,0.070,0.000,0.000,0.000
1644940042426733056,2022-02-15-15:47:22,10.1.1.8,10,0.070,0.070,0.070,0.000,0.000,0.000
1644940043786590208,2022-02-15-15:47:23,10.1.1.8,29,-0.010,-0.010,-0.010,0.000,0.000,0.000
1644940044085176832,2022-02-15-15:47:24,10.1.1.8,19,0.050,0.050,0.050,0.000,0.000,0.000
1644940044589750016,2022-02-15-15:47:24,10.1.1.8,10,0.050,0.050,0.050,0.000,0.000,0.000
1644940044865958912,2022-02-15-15:47:24,10.1.1.8,29,0.000,0.000,0.000,0.000,0.000,0.000
1644940045266030080,2022-02-15-15:47:25,10.1.1.8,20,-0.080,-0.080,-0.080,0.000,0.000,0.000
1644940045466204928,2022-02-15-15:47:25,10.1.1.8,17,-0.080,-0.080,-0.080,0.000,0.000,0.000
1644940046808784128,2022-02-15-15:47:26,10.1.1.8,21,0.020,0.020,0.020,0.000,0.000,0.000
1644940047885611008,2022-02-15-15:47:27,10.1.1.8,20,-0.010,-0.010,-0.010,0.000,0.000,0.000
1644940048405800192,2022-02-15-15:47:28,10.1.1.8,29,0.090,0.090,0.090,0.000,0.000,0.000
1644940048486265856,2022-02-15-15:47:28,10.1.1.8,7,0.090,0.090,0.090,0.000,0.000,0.000
1644940049986848000,2022-02-15-15:47:29,10.1.1.8,40,0.000,0.000,0.000,0.000,0.000,0.000
1644940050986670080,2022-02-15-15:47:30,10.1.1.8,24,0.000,0.000,0.000,0.000,0.000,0.000
1644940051386064896,2022-02-15-15:47:31,10.1.1.8,19,-0.080,-0.080,-0.080,0.000,0.000,0.000
1644940051585680896,2022-02-15-15:47:31,10.1.1.8,14,-0.080,-0.080,-0.080,0.000,0.000,0.000
1644940052525903872,2022-02-15-15:47:32,10.1.1.8,39,0.100,0.100,0.100,0.000,0.000,0.000
1644940054186638080,2022-02-15-15:47:34,10.1.1.8,21,0.030,0.030,0.030,0.000,0.000,0.000
1644940054285470976,2022-02-15-15:47:34,10.1.1.8,20,0.050,0.050,0.050,0.000,0.000,0.000
1644940054786080000,2022-02-15-15:47:34,10.1.1.8,10,0.050,0.050,0.050,0.000,0.000,0.000
1644940055225502976,2022-02-15-15:47:35,10.1.1.8,39,-0.030,-0.030,-0.030,0.000,0.000,0.000
1644940055826952960,2022-02-15-15:47:35,10.1.1.8,30,-0.050,-0.050,-0.050,0.000,0.000,0.000
1644940055886379008,2022-02-15-15:47:35,10.1.1.8,39,-0.040,-0.040,-0.040,0.000,0.000,0.000
1644940056745897984,2022-02-15-15:47:36,10.1.1.8,29,0.070,0.070,0.070,0.000,0.000,0.000
1644940057985640960,2022-02-15-15:47:37,10.1.1.8,30,-0.030,-0.030,-0.030,0.000,0.000,0.000
1644940058045968896,2022-02-15-15:47:38,10.1.1.8,39,-0.020,-0.020,-0.020,0.000,0.000,0.000
1644940059266066944,2022-02-15-15:47:39,10.1.1.8,19,-0.020,-0.020,-0.020,0.000,0.000,0.000
1644940060085462016,2022-02-15-15:47:40,10.1.1.8,17,-0.020,-0.020,-0.020,0.000,0.000,0.000
1644940061225632000,2022-02-15-15:47:41,10.1.1.8,40,0.000,0.000,0.000,0.000,0.000,0.000
1644940062206881024,2022-02-15-15:47:42,10.1.1.8,7,0.000,0.000,0.000,0.000,0.000,0.000
1644940062785691136,2022-02-15-15:47:42,10.1.1.8,30,0.090,0.090,0.090,0.000,0.000,0.000
1644940063606179840,2022-02-15-15:47:43,10.1.1.8,39,-0.070,-0.070,-0.070,0.000,0.000,0.000
1644940063886740992,2022-02-15-15:47:43,10.1.1.8,16,-0.070,-0.070,-0.070,0.000,0.000,0.000
1644940064605550080,2022-02-15-15:47:44,10.1.1.8,29,0.070,0.070,0.070,0.000,0.000,0.000
1644940064665793792,2022-02-15-15:47:44,10.1.1.8,39,0.080,0.080,0.080,0.000,0.000,0.000
1644940064845971200,2022-02-15-15:47:44,10.1.1.8,16,0.080,0.080,0.080,0.000,0.000,0.000
1644940065466033920,2022-02-15-15:47:45,10.1.1.8,30,-0.040,-0.040,-0.040,0.000,0.000,0.000
1644940066065596160,2022-02-15-15:47:46,10.1.1.8,21,-0.040,-0.040,-0.040,0.000,0.000,0.000
1644940066126287872,2022-02-15-15:47:46,10.1.1.8,30,-0.030,-0.030,-0.030,0.000,0.000,0.000
1644940066285871872,2022-02-15-15:47:46,10.1.1.8,39,0.000,0.000,0.000,0.000,0.000,0.000
1644940067287610880,2022-02-15-15:47:47,10.1.1.8,8,0.000,0.000,0.000,0.000,0.000,0.000
1644940068346466048,2022-02-15-15:47:48,10.1.1.8,12,0.000,0.000,0.000,0.000,0.000,0.000
1644940069365481984,2022-02-15-15:47:49,10.1.1.8,7,0.000,0.000,0.000,0.000,0.000,0.000
1644940069745160192,2022-02-15-15:47:49,10.1.1.8,29,-0.070,-0.070,-0.070,0.000,0.000,0.000
1644940070046132992,2022-02-15-15:47:50,10.1.1.8,20,-0.070,-0.070,-0.070,0.000,0.000,0.000
1644940070206543872,2022-02-15-15:47:50,10.1.1.8,20,-0.040,-0.040,-0.040,0.000,0.000,0.000
1644940071646102784,2022-02-15-15:47:51,10.1.1.8,21,-0.040,-0.040,-0.040,0.000,0.000,0.000
1644940072247581952,2022-02-15-15:47:52,10.1.1.8,13,-0.040,-0.040,-0.040,0.000,0.000,0.000
1644940072665602816,2022-02-15-15:47:52,10.1.1.8,29,0.040,0.040,0.040,0.000,0.000,0.000
1644940073265512960,2022-02-15-15:47:53,10.1.1.8,19,0.040,0.040,0.040,0.000,0.000,0.000
1644940073866226944,2022-02-15-15:47:53,10.1.1.8,39,-0.070,-0.070,-0.070,0.000,0.000,0.000
1644940074145613824,2022-02-15-15:47:54,10.1.1.8,14,-0.070,-0.070,-0.070,0.000,0.000,0.000
1644940074426418944,2022-02-15-15:47:54,10.1.1.8,39,-0.020,-0.020,-0.020,0.000,0.000,0.000
1644940075025978112,2022-02-15-15:47:55,10.1.1.8,29,0.100,0.100,0.100,0.000,0.000,0.000
1644940075585043968,2022-02-15-15:47:55,10.1.1.8,29,-0.010,-0.010,-0.010,0.000,0.000,0.000
1644940076485647872,2022-02-15-15:47:56,10.1.1.8,7,-0.010,-0.010,-0.010,0.000,0.000,0.000
1644940077606640128,2022-02-15-15:47:57,10.1.1.8,14,-0.010,-0.010,-0.010,0.000,0.000,0.000
1644940078026032896,2022-02-15-15:47:58,10.1.1.8,30,-0.090,-0.090,-0.090,0.000,0.000,0.000
1644940078107335168,2022-02-15-15:47:58,10.1.1.8,9,-0.090,-0.090,-0.090,0.000,0.000,0.000
1644940078633874944,2022-02-15-15:47:58,10.1.1.8,20,0.010,0.010,0.010,0.000,0.000,0.000
1644940079085668096,2022-02-15-15:47:59,10.1.1.8,21,0.100,0.100,0.100,0.000,0.000,0.000
1644940079407133952,2022-02-15-15:47:59,10.1.1.8,29,0.040,0.040,0.040,0.000,0.000,0.000
1644940080328054784,2022-02-15-15:48:00,10.1.1.8,8,-0.070,-0.070,-0.070,0.000,0.000,0.000
1644940081216013824,2022-02-15-15:48:01,10.1.1.8,19,0.100,0.100,0.100,0.000,0.000,0.000
1644940082347044096,2022-02-15-15:48:02,10.1.1.8,29,-0.080,-0.080,-0.080,0.000,0.000,0.000
1644940084045747968,2022-02-15-15:48:04,10.1.1.8,29,-0.030,-0.030,-0.030,0.000,0.000,0.000
1644940084744920064,2022-02-15-15:48:04,10.1.1.8,20,-0.030,-0.030,-0.030,0.000,0.000,0.000
1644940086066483968,2022-02-15-15:48:06,10.1.1.8,16,-0.030,-0.030,-0.030,0.000,0.000,0.000
1644940086792363008,2022-02-15-15:48:06,10.1.1.8,20,-0.030,-0.030,-0.030,0.000,0.000,0.000
1644940088126104064,2022-02-15-15:48:08,10.1.1.8,21,-0.030,-0.030,-0.030,0.000,0.000,0.000
1644940088845473024,2022-02-15-15:48:08,10.1.1.8,14,-0.030,-0.030,-0.030,0.000,0.000,0.000
1644940089005712896,2022-02-15-15:48:09,10.1.1.8,19,-0.000,-0.000,-0.000,0.000,0.000,0.000
1644940089885441024,2022-02-15-15:48:09,10.1.1.8,30,0.030,0.030,0.030,0.000,0.000,0.000
1644940091206054912,2022-02-15-15:48:11,10.1.1.8,20,0.030,0.030,0.030,0.000,0.000,0.000
1644940091925460224,2022-02-15-15:48:11,10.1.1.8,20,0.030,0.030,0.030,0.000,0.000,0.000
1644940093225532928,2022-02-15-15:48:13,10.1.1.8,39,0.020,0.020,0.020,0.000,0.000,0.000
1644940094025371136,2022-02-15-15:48:14,10.1.1.8,15,0.020,0.020,0.020,0.000,0.000,0.000
1644940095128556032,2022-02-15-15:48:15,10.1.1.8,39,-0.010,-0.010,-0.010,0.000,0.000,0.000
1644940095727490048,2022-02-15-15:48:15,10.1.1.8,29,0.090,0.090,0.090,0.000,0.000,0.000
1644940097345579008,2022-02-15-15:48:17,10.1.1.8,29,0.030,0.030,0.030,0.000,0.000,0.000
1644940098045555200,2022-02-15-15:48:18,10.1.1.8,19,0.030,0.030,0.030,0.000,0.000,0.000
1644940098624794880,2022-02-15-15:48:18,10.1.1.8,39,-0.080,-0.080,-0.080,0.000,0.000,0.000
1644940098805047040,2022-02-15-15:48:18,10.1.1.8,17,-0.080,-0.080,-0.080,0.000,0.000,0.000
1644940099985744896,2022-02-15-15:48:19,10.1.1.8,30,0.050,0.050,0.050,0.000,0.000,0.000
1644940100645939200,2022-02-15-15:48:20,10.1.1.8,29,-0.080,-0.080,-0.080,0.000,0.000,0.000
1644940100825762048,2022-02-15-15:48:20,10.1.1.8,7,-0.080,-0.080,-0.080,0.000,0.000,0.000
1644940102665291008,2022-02-15-15:48:22,10.1.1.8,22,-0.080,-0.080,-0.080,0.000,0.000,0.000
1644940102864883968,2022-02-15-15:48:22,10.1.1.8,20,-0.080,-0.080,-0.080,0.000,0.000,0.000
1644940102926095872,2022-02-15-15:48:22,10.1.1.8,29,-0.070,-0.070,-0.070,0.000,0.000,0.000
1644940103585776128,2022-02-15-15:48:23,10.1.1.8,29,0.060,0.060,0.060,0.000,0.000,0.000
1644940103985622016,2022-02-15-15:48:23,10.1.1.8,22,0.060,0.060,0.060,0.000,0.000,0.000
1644940105165661184,2022-02-15-15:48:25,10.1.1.8,29,-0.030,-0.030,-0.030,0.000,0.000,0.000
1644940105925321216,2022-02-15-15:48:25,10.1.1.8,29,0.080,0.080,0.080,0.000,0.000,0.000
1644940107745504000,2022-02-15-15:48:27,10.1.1.8,20,0.080,0.080,0.080,0.000,0.000,0.000
1644940107947442176,2022-02-15-15:48:27,10.1.1.8,17,0.080,0.080,0.080,0.000,0.000,0.000
1644940109806992128,2022-02-15-15:48:29,10.1.1.8,24,0.080,0.080,0.080,0.000,0.000,0.000
1644940110005635072,2022-02-15-15:48:30,10.1.1.8,20,0.080,0.080,0.080,0.000,0.000,0.000
1644940111645507072,2022-02-15-15:48:31,10.1.1.8,19,0.040,0.040,0.040,0.000,0.000,0.000
1644940112265978112,2022-02-15-15:48:32,10.1.1.8,24,0.040,0.040,0.040,0.000,0.000,0.000
1644940113305847040,2022-02-15-15:48:33,10.1.1.8,39,-0.040,-0.040,-0.040,0.000,0.000,0.000
1644940114067780864,2022-02-15-15:48:34,10.1.1.8,39,0.090,0.090,0.090,0.000,0.000,0.000
1644940115425928192,2022-02-15-15:48:35,10.1.1.8,29,-0.020,-0.020,-0.020,0.000,0.000,0.000
1644940116625672192,2022-02-15-15:48:36,10.1.1.8,8,-0.020,-0.020,-0.020,0.000,0.000,0.000
1644940117446739968,2022-02-15-15:48:37,10.1.1.8,8,-0.020,-0.020,-0.020,0.000,0.000,0.000
1644940118667678976,2022-02-15-15:48:38,10.1.1.8,7,-0.020,-0.020,-0.020,0.000,0.000,0.000
1644940119185551872,2022-02-15-15:48:39,10.1.1.8,20,-0.080,-0.080,-0.080,0.000,0.000,0.000
1644940120465740800,2022-02-15-15:48:40,10.1.1.8,30,0.030,0.030,0.030,0.000,0.000,0.000
1644940121165338112,2022-02-15-15:48:41,10.1.1.8,19,-0.090,-0.090,-0.090,0.000,0.000,0.000
1644940121726510080,2022-02-15-15:48:41,10.1.1.8,20,0.020,0.020,0.020,0.000,0.000,0.000
1644940122545725952,2022-02-15-15:48:42,10.1.1.8,24,0.020,0.020,0.020,0.000,0.000,0.000
1644940123766020096,2022-02-15-15:48:43,10.1.1.8,25,0.020,0.020,0.020,0.000,0.000,0.000
1644940124566048000,2022-02-15-15:48:44,10.1.1.8,15,0.020,0.020,0.020,0.000,0.000,0.000
1644940125686454016,2022-02-15-15:48:45,10.1.1.8,20,0.000,0.000,0.000,0.000,0.000,0.000
1644940126565097984,2022-02-15-15:48:46,10.1.1.8,39,0.030,0.030,0.030,0.000,0.000,0.000
1644940127366072064,2022-02-15-15:48:47,10.1.1.8,29,-0.070,-0.070,-0.070,0.000,0.000,0.000
1644940128166856960,2022-02-15-15:48:48,10.1.1.8,20,0.090,0.090,0.090,0.000,0.000,0.000
1644940128270629888,2022-02-15-15:48:48,10.1.1.8,18,0.090,0.090,0.090,0.000,0.000,0.000
1644940129166330112,2022-02-15-15:48:49,10.1.1.8,29,-0.080,-0.080,-0.080,0.000,0.000,0.000
1644940129367257088,2022-02-15-15:48:49,10.1.1.8,20,-0.080,-0.080,-0.080,0.000,0.000,0.000
1644940131226856960,2022-02-15-15:48:51,10.1.1.8,22,-0.080,-0.080,-0.080,0.000,0.000,0.000
1644940131427529216,2022-02-15-15:48:51,10.1.1.8,18,-0.080,-0.080,-0.080,0.000,0.000,0.000
1644940133287683072,2022-02-15-15:48:53,10.1.1.8,12,-0.080,-0.080,-0.080,0.000,0.000,0.000
1644940133487681024,2022-02-15-15:48:53,10.1.1.8,10,-0.080,-0.080,-0.080,0.000,0.000,0.000
1644940134684838912,2022-02-15-15:48:54,10.1.1.8,29,0.050,0.050,0.050,0.000,0.000,0.000
1644940134985393920,2022-02-15-15:48:54,10.1.1.8,21,-0.010,-0.010,-0.010,0.000,0.000,0.000
1644940135904794880,2022-02-15-15:48:55,10.1.1.8,23,-0.010,-0.010,-0.010,0.000,0.000,0.000
1644940136665977856,2022-02-15-15:48:56,10.1.1.8,20,0.060,0.060,0.060,0.000,0.000,0.000
1644940136784774144,2022-02-15-15:48:56,10.1.1.8,39,0.040,0.040,0.040,0.000,0.000,0.000
1644940137786770176,2022-02-15-15:48:57,10.1.1.8,19,-0.040,-0.040,-0.040,0.000,0.000,0.000
1644940138005723904,2022-02-15-15:48:58,10.1.1.8,30,0.000,0.000,0.000,0.000,0.000,0.000
1644940139067245056,2022-02-15-15:48:59,10.1.1.8,20,0.000,0.000,0.000,0.000,0.000,0.000
1644940140085822976,2022-02-15-15:49:00,10.1.1.8,18,0.000,0.000,0.000,0.000,0.000,0.000
1644940141105490944,2022-02-15-15:49:01,10.1.1.8,7,0.000,0.000,0.000,0.000,0.000,0.000
1644940142145979904,2022-02-15-15:49:02,10.1.1.8,20,0.000,0.000,0.000,0.000,0.000,0.000
1644940142765058048,2022-02-15-15:49:02,10.1.1.8,27,0.080,0.080,0.080,0.000,0.000,0.000
1644940144271555072,2022-02-15-15:49:04,10.1.1.8,19,0.010,0.010,0.010,0.000,0.000,0.000
1644940144645926912,2022-02-15-15:49:04,10.1.1.8,38,0.080,0.080,0.080,0.000,0.000,0.000
1644940144834065920,2022-02-15-15:49:04,10.1.1.8,15,0.080,0.080,0.080,0.000,0.000,0.000
1644940145145597952,2022-02-15-15:49:05,10.1.1.8,30,0.020,0.020,0.020,0.000,0.000,0.000
1644940145185395968,2022-02-15-15:49:05,10.1.1.8,20,0.010,0.010,0.010,0.000,0.000,0.000
1644940145966798080,2022-02-15-15:49:05,10.1.1.8,39,-0.060,-0.060,-0.060,0.000,0.000,0.000
1644940147566231040,2022-02-15-15:49:07,10.1.1.8,21,-0.060,-0.060,-0.060,0.000,0.000,0.000
1644940147664850944,2022-02-15-15:49:07,10.1.1.8,19,-0.080,-0.080,-0.080,0.000,0.000,0.000
1644940147726419968,2022-02-15-15:49:07,10.1.1.8,29,-0.090,-0.090,-0.090,0.000,0.000,0.000
1644940147807728128,2022-02-15-15:49:07,10.1.1.8,8,-0.090,-0.090,-0.090,0.000,0.000,0.000
1644940148285723904,2022-02-15-15:49:08,10.1.1.8,29,0.000,0.000,0.000,0.000,0.000,0.000
1644940148346180864,2022-02-15-15:49:08,10.1.1.8,39,0.010,0.010,0.010,0.000,0.000,0.000
1644940149244982016,2022-02-15-15:49:09,10.1.1.8,17,0.010,0.010,0.010,0.000,0.000,0.000
1644940150026559232,2022-02-15-15:49:10,10.1.1.8,29,-0.060,-0.060,-0.060,0.000,0.000,0.000
1644940151547296000,2022-02-15-15:49:11,10.1.1.8,20,-0.040,-0.040,-0.040,0.000,0.000,0.000
1644940152147172096,2022-02-15-15:49:12,10.1.1.8,12,-0.040,-0.040,-0.040,0.000,0.000,0.000
1644940152307593984,2022-02-15-15:49:12,10.1.1.8,20,-0.010,-0.010,-0.010,0.000,0.000,0.000
1644940153425144832,2022-02-15-15:49:13,10.1.1.8,17,-0.010,-0.010,-0.010,0.000,0.000,0.000
1644940153845467136,2022-02-15-15:49:13,10.1.1.8,30,-0.090,-0.090,-0.090,0.000,0.000,0.000
1644940153925900032,2022-02-15-15:49:13,10.1.1.8,9,-0.090,-0.090,-0.090,0.000,0.000,0.000
1644940154805111040,2022-02-15-15:49:14,10.1.1.8,29,0.080,0.080,0.080,0.000,0.000,0.000
1644940154986331904,2022-02-15-15:49:14,10.1.1.8,7,0.080,0.080,0.080,0.000,0.000,0.000
1644940156486216960,2022-02-15-15:49:16,10.1.1.8,29,0.010,0.010,0.010,0.000,0.000,0.000
1644940156984862976,2022-02-15-15:49:16,10.1.1.8,19,0.090,0.090,0.090,0.000,0.000,0.000
1644940157465261824,2022-02-15-15:49:17,10.1.1.8,39,0.000,0.000,0.000,0.000,0.000,0.000
1644940157925401088,2022-02-15-15:49:17,10.1.1.8,39,-0.090,-0.090,-0.090,0.000,0.000,0.000
1644940158010049024,2022-02-15-15:49:18,10.1.1.8,14,-0.090,-0.090,-0.090,0.000,0.000,0.000
1644940158785555968,2022-02-15-15:49:18,10.1.1.8,19,0.060,0.060,0.060,0.000,0.000,0.000
1644940159186860032,2022-02-15-15:49:19,10.1.1.8,8,0.060,0.060,0.060,0.000,0.000,0.000
1644940160385297152,2022-02-15-15:49:20,10.1.1.8,39,-0.030,-0.030,-0.030,0.000,0.000,0.000
1644940160926278144,2022-02-15-15:49:20,10.1.1.8,20,0.080,0.080,0.080,0.000,0.000,0.000
1644940161127699968,2022-02-15-15:49:21,10.1.1.8,17,0.080,0.080,0.080,0.000,0.000,0.000
1644940162047817984,2022-02-15-15:49:22,10.1.1.8,28,-0.100,-0.100,-0.100,0.000,0.000,0.000
1644940162865985024,2022-02-15-15:49:22,10.1.1.8,39,0.060,0.060,0.060,0.000,0.000,0.000
1644940163245320192,2022-02-15-15:49:23,10.1.1.8,15,0.060,0.060,0.060,0.000,0.000,0.000
1644940163665250048,2022-02-15-15:49:23,10.1.1.8,29,-0.020,-0.020,-0.020,0.000,0.000,0.000
1644940164386718976,2022-02-15-15:49:24,10.1.1.8,39,-0.040,-0.040,-0.040,0.000,0.000,0.000
1644940164988260864,2022-02-15-15:49:24,10.1.1.8,29,0.080,0.080,0.080,0.000,0.000,0.000
1644940165187396096,2022-02-15-15:49:25,10.1.1.8,20,0.080,0.080,0.080,0.000,0.000,0.000
1644940165805722112,2022-02-15-15:49:25,10.1.1.8,29,-0.040,-0.040,-0.040,0.000,0.000,0.000
1644940166407429888,2022-02-15-15:49:26,10.1.1.8,5,-0.040,-0.040,-0.040,0.000,0.000,0.000
1644940167244687104,2022-02-15-15:49:27,10.1.1.8,29,0.080,0.080,0.080,0.000,0.000,0.000
1644940167305561088,2022-02-15-15:49:27,10.1.1.8,39,0.070,0.070,0.070,0.000,0.000,0.000
1644940168205867008,2022-02-15-15:49:28,10.1.1.8,29,-0.090,-0.090,-0.090,0.000,0.000,0.000
1644940169006084864,2022-02-15-15:49:29,10.1.1.8,19,0.070,0.070,0.070,0.000,0.000,0.000
1644940169307454208,2022-02-15-15:49:29,10.1.1.8,14,0.070,0.070,0.070,0.000,0.000,0.000
1644940170385539072,2022-02-15-15:49:30,10.1.1.8,20,-0.060,-0.060,-0.060,0.000,0.000,0.000
1644940170445082880,2022-02-15-15:49:30,10.1.1.8,29,-0.050,-0.050,-0.050,0.000,0.000,0.000
1644940171946480128,2022-02-15-15:49:31,10.1.1.8,6,-0.050,-0.050,-0.050,0.000,0.000,0.000
1644940172465209856,2022-02-15-15:49:32,10.1.1.8,20,-0.050,-0.050,-0.050,0.000,0.000,0.000
1644940173085827072,2022-02-15-15:49:33,10.1.1.8,30,0.070,0.070,0.070,0.000,0.000,0.000
1644940173386464000,2022-02-15-15:49:33,10.1.1.8,18,0.070,0.070,0.070,0.000,0.000,0.000
1644940174464786176,2022-02-15-15:49:34,10.1.1.8,29,-0.060,-0.060,-0.060,0.000,0.000,0.000
1644940175485691136,2022-02-15-15:49:35,10.1.1.8,30,0.060,0.060,0.060,0.000,0.000,0.000
1644940177105809920,2022-02-15-15:49:37,10.1.1.8,18,0.060,0.060,0.060,0.000,0.000,0.000
1644940177507117056,2022-02-15-15:49:37,10.1.1.8,12,0.060,0.060,0.060,0.000,0.000,0.000
1644940178445123072,2022-02-15-15:49:38,10.1.1.8,39,-0.080,-0.080,-0.080,0.000,0.000,0.000
1644940179310496000,2022-02-15-15:49:39,10.1.1.8,30,0.090,0.090,0.090,0.000,0.000,0.000
1644940179387170048,2022-02-15-15:49:39,10.1.1.8,7,0.090,0.090,0.090,0.000,0.000,0.000
1644940180225560832,2022-02-15-15:49:40,10.1.1.8,29,-0.070,-0.070,-0.070,0.000,0.000,0.000
1644940180525392896,2022-02-15-15:49:40,10.1.1.8,20,-0.070,-0.070,-0.070,0.000,0.000,0.000
1644940180587073024,2022-02-15-15:49:40,10.1.1.8,29,-0.060,-0.060,-0.060,0.000,0.000,0.000
1644940181605232896,2022-02-15-15:49:41,10.1.1.8,29,0.060,0.060,0.060,0.000,0.000,0.000
1644940183224824064,2022-02-15-15:49:43,10.1.1.8,20,0.060,0.060,0.060,0.000,0.000,0.000
1644940183626295040,2022-02-15-15:49:43,10.1.1.8,15,0.060,0.060,0.060,0.000,0.000,0.000
1644940185209490944,2022-02-15-15:49:45,10.1.1.8,20,0.050,0.050,0.050,0.000,0.000,0.000
1644940185266351104,2022-02-15-15:49:45,10.1.1.8,29,0.060,0.060,0.060,0.000,0.000,0.000
1644940185652184064,2022-02-15-15:49:45,10.1.1.8,0,0.060,0.060,0.060,0.000,0.000,0.000
1644940187286472960,2022-02-15-15:49:47,10.1.1.8,8,0.060,0.060,0.060,0.000,0.000,0.000
1644940187705869824,2022-02-15-15:49:47,10.1.1.8,21,0.060,0.060,0.060,0.000,0.000,0.000
1644940187764765952,2022-02-15-15:49:47,10.1.1.8,30,0.050,0.050,0.050,0.000,0.000,0.000
1644940187825332992,2022-02-15-15:49:47,10.1.1.8,39,0.040,0.040,0.040,0.000,0.000,0.000
1644940188625158912,2022-02-15-15:49:48,10.1.1.8,29,-0.080,-0.080,-0.080,0.000,0.000,0.000
1644940190444956160,2022-02-15-15:49:50,10.1.1.8,16,-0.080,-0.080,-0.080,0.000,0.000,0.000
1644940190645412096,2022-02-15-15:49:50,10.1.1.8,10,-0.080,-0.080,-0.080,0.000,0.000,0.000
1644940192507070976,2022-02-15-15:49:52,10.1.1.8,17,-0.080,-0.080,-0.080,0.000,0.000,0.000
1644940192705914880,2022-02-15-15:49:52,10.1.1.8,12,-0.080,-0.080,-0.080,0.000,0.000,0.000
1644940194464775168,2022-02-15-15:49:54,10.1.1.8,29,-0.060,-0.060,-0.060,0.000,0.000,0.000
1644940194886568192,2022-02-15-15:49:54,10.1.1.8,21,-0.060,-0.060,-0.060,0.000,0.000,0.000
1644940194947889920,2022-02-15-15:49:54,10.1.1.8,29,-0.050,-0.050,-0.050,0.000,0.000,0.000
1644940196465357056,2022-02-15-15:49:56,10.1.1.8,16,-0.050,-0.050,-0.050,0.000,0.000,0.000
1644940196984968960,2022-02-15-15:49:56,10.1.1.8,25,-0.050,-0.050,-0.050,0.000,0.000,0.000
1644940198526007040,2022-02-15-15:49:58,10.1.1.8,14,-0.050,-0.050,-0.050,0.000,0.000,0.000
1644940199046163200,2022-02-15-15:49:59,10.1.1.8,21,-0.050,-0.050,-0.050,0.000,0.000,0.000
1644940200566433024,2022-02-15-15:50:00,10.1.1.8,10,-0.050,-0.050,-0.050,0.000,0.000,0.000
1644940201106000896,2022-02-15-15:50:01,10.1.1.8,7,-0.050,-0.050,-0.050,0.000,0.000,0.000
1644940202505822976,2022-02-15-15:50:02,10.1.1.8,30,-0.020,-0.020,-0.020,0.000,0.000,0.000
1644940203305312000,2022-02-15-15:50:03,10.1.1.8,20,-0.020,-0.020,-0.020,0.000,0.000,0.000
1644940204529902848,2022-02-15-15:50:04,10.1.1.8,17,-0.020,-0.020,-0.020,0.000,0.000,0.000
1644940204605523200,2022-02-15-15:50:04,10.1.1.8,39,-0.030,-0.030,-0.030,0.000,0.000,0.000
1644940205310369024,2022-02-15-15:50:05,10.1.1.8,22,-0.030,-0.030,-0.030,0.000,0.000,0.000
1644940205885196032,2022-02-15-15:50:05,10.1.1.8,29,0.080,0.080,0.080,0.000,0.000,0.000
1644940206084888064,2022-02-15-15:50:06,10.1.1.8,25,0.080,0.080,0.080,0.000,0.000,0.000
1644940206805387008,2022-02-15-15:50:06,10.1.1.8,29,-0.060,-0.060,-0.060,0.000,0.000,0.000
1644940207204998912,2022-02-15-15:50:07,10.1.1.8,21,-0.060,-0.060,-0.060,0.000,0.000,0.000
1644940208665530880,2022-02-15-15:50:08,10.1.1.8,39,-0.020,-0.020,-0.020,0.000,0.000,0.000
1644940209485093120,2022-02-15-15:50:09,10.1.1.8,24,-0.020,-0.020,-0.020,0.000,0.000,0.000
1644940210705266944,2022-02-15-15:50:10,10.1.1.8,12,-0.020,-0.020,-0.020,0.000,0.000,0.000
1644940211546844928,2022-02-15-15:50:11,10.1.1.8,24,-0.020,-0.020,-0.020,0.000,0.000,0.000
1644940212804709888,2022-02-15-15:50:12,10.1.1.8,26,-0.020,-0.020,-0.020,0.000,0.000,0.000
1644940213605794048,2022-02-15-15:50:13,10.1.1.8,10,-0.020,-0.020,-0.020,0.000,0.000,0.000
1644940214844948992,2022-02-15-15:50:14,10.1.1.8,20,-0.020,-0.020,-0.020,0.000,0.000,0.000
1644940214906383104,2022-02-15-15:50:14,10.1.1.8,29,-0.030,-0.030,-0.030,0.000,0.000,0.000
1644940215605159936,2022-02-15-15:50:15,10.1.1.8,18,-0.030,-0.030,-0.030,0.000,0.000,0.000
1644940216925508864,2022-02-15-15:50:16,10.1.1.8,23,-0.030,-0.030,-0.030,0.000,0.000,0.000
1644940217184654080,2022-02-15-15:50:17,10.1.1.8,29,-0.080,-0.080,-0.080,0.000,0.000,0.000
1644940217364972032,2022-02-15-15:50:17,10.1.1.8,7,-0.080,-0.080,-0.080,0.000,0.000,0.000
1644940219187089920,2022-02-15-15:50:19,10.1.1.8,6,-0.080,-0.080,-0.080,0.000,0.000,0.000
1644940219407813120,2022-02-15-15:50:19,10.1.1.8,24,-0.080,-0.080,-0.080,0.000,0.000,0.000
1644940221205511936,2022-02-15-15:50:21,10.1.1.8,40,-0.070,-0.070,-0.070,0.000,0.000,0.000
1644940221486697984,2022-02-15-15:50:21,10.1.1.8,15,-0.070,-0.070,-0.070,0.000,0.000,0.000
1644940223244619008,2022-02-15-15:50:23,10.1.1.8,21,-0.070,-0.070,-0.070,0.000,0.000,0.000
1644940223545033984,2022-02-15-15:50:23,10.1.1.8,14,-0.070,-0.070,-0.070,0.000,0.000,0.000
1644940223866110208,2022-02-15-15:50:23,10.1.1.8,29,-0.010,-0.010,-0.010,0.000,0.000,0.000
1644940224964726016,2022-02-15-15:50:24,10.1.1.8,11,-0.010,-0.010,-0.010,0.000,0.000,0.000
1644940225906064896,2022-02-15-15:50:25,10.1.1.8,18,-0.010,-0.010,-0.010,0.000,0.000,0.000
1644940226585911040,2022-02-15-15:50:26,10.1.1.8,29,0.080,0.080,0.080,0.000,0.000,0.000
1644940228426974976,2022-02-15-15:50:28,10.1.1.8,12,0.080,0.080,0.080,0.000,0.000,0.000
1644940228645260032,2022-02-15-15:50:28,10.1.1.8,27,0.080,0.080,0.080,0.000,0.000,0.000
1644940229206590976,2022-02-15-15:50:29,10.1.1.8,20,-0.030,-0.030,-0.030,0.000,0.000,0.000
1644940229265441024,2022-02-15-15:50:29,10.1.1.8,29,-0.040,-0.040,-0.040,0.000,0.000,0.000
1644940229826956032,2022-02-15-15:50:29,10.1.1.8,20,-0.050,-0.050,-0.050,0.000,0.000,0.000
1644940230184901888,2022-02-15-15:50:30,10.1.1.8,19,0.020,0.020,0.020,0.000,0.000,0.000
1644940231004910848,2022-02-15-15:50:31,10.1.1.8,24,0.020,0.020,0.020,0.000,0.000,0.000
1644940231225218048,2022-02-15-15:50:31,10.1.1.8,39,-0.020,-0.020,-0.020,0.000,0.000,0.000
1644940232025265920,2022-02-15-15:50:32,10.1.1.8,22,-0.020,-0.020,-0.020,0.000,0.000,0.000
1644940232844952064,2022-02-15-15:50:32,10.1.1.8,30,0.060,0.060,0.060,0.000,0.000,0.000
1644940234484986112,2022-02-15-15:50:34,10.1.1.8,24,0.060,0.060,0.060,0.000,0.000,0.000
1644940234885188096,2022-02-15-15:50:34,10.1.1.8,8,0.060,0.060,0.060,0.000,0.000,0.000
1644940236545762048,2022-02-15-15:50:36,10.1.1.8,21,0.060,0.060,0.060,0.000,0.000,0.000
1644940236946116096,2022-02-15-15:50:36,10.1.1.8,15,0.060,0.060,0.060,0.000,0.000,0.000
1644940237724466176,2022-02-15-15:50:37,10.1.1.8,29,-0.090,-0.090,-0.090,0.000,0.000,0.000
1644940237805572096,2022-02-15-15:50:37,10.1.1.8,8,-0.090,-0.090,-0.090,0.000,0.000,0.000
1644940239746091008,2022-02-15-15:50:39,10.1.1.8,14,-0.090,-0.090,-0.090,0.000,0.000,0.000
1644940239847379968,2022-02-15-15:50:39,10.1.1.8,12,-0.090,-0.090,-0.090,0.000,0.000,0.000
1644940240985636096,2022-02-15-15:50:40,10.1.1.8,29,0.070,0.070,0.070,0.000,0.000,0.000
1644940241585361920,2022-02-15-15:50:41,10.1.1.8,19,-0.050,-0.050,-0.050,0.000,0.000,0.000
1644940242085640960,2022-02-15-15:50:42,10.1.1.8,8,-0.050,-0.050,-0.050,0.000,0.000,0.000
1644940242985598208,2022-02-15-15:50:42,10.1.1.8,29,0.080,0.080,0.080,0.000,0.000,0.000
1644940244745254912,2022-02-15-15:50:44,10.1.1.8,39,0.050,0.050,0.050,0.000,0.000,0.000
1644940245226494976,2022-02-15-15:50:45,10.1.1.8,12,0.050,0.050,0.050,0.000,0.000,0.000
1644940245446119168,2022-02-15-15:50:45,10.1.1.8,30,0.010,0.010,0.010,0.000,0.000,0.000
1644940246545059840,2022-02-15-15:50:46,10.1.1.8,11,0.010,0.010,0.010,0.000,0.000,0.000
1644940247465993984,2022-02-15-15:50:47,10.1.1.8,16,0.010,0.010,0.010,0.000,0.000,0.000
1644940248586121984,2022-02-15-15:50:48,10.1.1.8,24,0.010,0.010,0.010,0.000,0.000,0.000
1644940249485716992,2022-02-15-15:50:49,10.1.1.8,10,0.010,0.010,0.010,0.000,0.000,0.000
1644940250606563072,2022-02-15-15:50:50,10.1.1.8,13,0.010,0.010,0.010,0.000,0.000,0.000
1644940251186393088,2022-02-15-15:50:51,10.1.1.8,29,0.080,0.080,0.080,0.000,0.000,0.000
1644940251745997824,2022-02-15-15:50:51,10.1.1.8,21,-0.030,-0.030,-0.030,0.000,0.000,0.000
1644940252466101760,2022-02-15-15:50:52,10.1.1.8,11,-0.030,-0.030,-0.030,0.000,0.000,0.000
1644940253806061056,2022-02-15-15:50:53,10.1.1.8,25,-0.030,-0.030,-0.030,0.000,0.000,0.000
1644940254526500096,2022-02-15-15:50:54,10.1.1.8,22,-0.030,-0.030,-0.030,0.000,0.000,0.000
1644940255867367936,2022-02-15-15:50:55,10.1.1.8,23,-0.030,-0.030,-0.030,0.000,0.000,0.000
1644940256026413824,2022-02-15-15:50:56,10.1.1.8,30,-0.060,-0.060,-0.060,0.000,0.000,0.000
1644940256425241088,2022-02-15-15:50:56,10.1.1.8,22,-0.060,-0.060,-0.060,0.000,0.000,0.000
1644940258045526016,2022-02-15-15:50:58,10.1.1.8,12,-0.060,-0.060,-0.060,0.000,0.000,0.000
1644940258465831936,2022-02-15-15:50:58,10.1.1.8,20,-0.060,-0.060,-0.060,0.000,0.000,0.000
1644940260085192960,2022-02-15-15:51:00,10.1.1.8,14,-0.060,-0.060,-0.060,0.000,0.000,0.000
1644940260485698816,2022-02-15-15:51:00,10.1.1.8,8,-0.060,-0.060,-0.060,0.000,0.000,0.000
1644940262125963008,2022-02-15-15:51:02,10.1.1.8,22,-0.060,-0.060,-0.060,0.000,0.000,0.000
1644940262524385024,2022-02-15-15:51:02,10.1.1.8,16,-0.060,-0.060,-0.060,0.000,0.000,0.000
1644940263365149952,2022-02-15-15:51:03,10.1.1.8,31,0.100,0.100,0.100,0.000,0.000,0.000
1644940263765460992,2022-02-15-15:51:03,10.1.1.8,20,0.020,0.020,0.020,0.000,0.000,0.000
1644940264185381888,2022-02-15-15:51:04,10.1.1.8,29,-0.060,-0.060,-0.060,0.000,0.000,0.000
1644940264585576960,2022-02-15-15:51:04,10.1.1.8,21,-0.060,-0.060,-0.060,0.000,0.000,0.000
1644940266254470144,2022-02-15-15:51:06,10.1.1.8,16,-0.060,-0.060,-0.060,0.000,0.000,0.000
1644940266645543168,2022-02-15-15:51:06,10.1.1.8,11,-0.060,-0.060,-0.060,0.000,0.000,0.000
1644940268266714112,2022-02-15-15:51:08,10.1.1.8,11,-0.060,-0.060,-0.060,0.000,0.000,0.000
1644940268686049024,2022-02-15-15:51:08,10.1.1.8,21,-0.060,-0.060,-0.060,0.000,0.000,0.000
1644940270327200768,2022-02-15-15:51:10,10.1.1.8,19,-0.060,-0.060,-0.060,0.000,0.000,0.000
1644940270726369024,2022-02-15-15:51:10,10.1.1.8,14,-0.060,-0.060,-0.060,0.000,0.000,0.000
1644940272346507008,2022-02-15-15:51:12,10.1.1.8,14,-0.060,-0.060,-0.060,0.000,0.000,0.000
1644940272745064960,2022-02-15-15:51:12,10.1.1.8,10,-0.060,-0.060,-0.060,0.000,0.000,0.000
1644940273525444864,2022-02-15-15:51:13,10.1.1.8,29,0.090,0.090,0.090,0.000,0.000,0.000
1644940273604825856,2022-02-15-15:51:13,10.1.1.8,7,0.090,0.090,0.090,0.000,0.000,0.000
1644940275485862144,2022-02-15-15:51:15,10.1.1.8,39,0.070,0.070,0.070,0.000,0.000,0.000
1644940275775068928,2022-02-15-15:51:15,10.1.1.8,14,0.070,0.070,0.070,0.000,0.000,0.000
1644940277505796864,2022-02-15-15:51:17,10.1.1.8,20,0.070,0.070,0.070,0.000,0.000,0.000
1644940277565818112,2022-02-15-15:51:17,10.1.1.8,29,0.080,0.080,0.080,0.000,0.000,0.000
1644940277747633920,2022-02-15-15:51:17,10.1.1.8,5,0.080,0.080,0.080,0.000,0.000,0.000
1644940278585732864,2022-02-15-15:51:18,10.1.1.8,20,-0.080,-0.080,-0.080,0.000,0.000,0.000
1644940278785069056,2022-02-15-15:51:18,10.1.1.8,17,-0.080,-0.080,-0.080,0.000,0.000,0.000
1644940280624360192,2022-02-15-15:51:20,10.1.1.8,10,-0.080,-0.080,-0.080,0.000,0.000,0.000
1644940280844726016,2022-02-15-15:51:20,10.1.1.8,22,-0.080,-0.080,-0.080,0.000,0.000,0.000
1644940282664761088,2022-02-15-15:51:22,10.1.1.8,12,-0.080,-0.080,-0.080,0.000,0.000,0.000
1644940282866390016,2022-02-15-15:51:22,10.1.1.8,10,-0.080,-0.080,-0.080,0.000,0.000,0.000
1644940284705967872,2022-02-15-15:51:24,10.1.1.8,18,-0.080,-0.080,-0.080,0.000,0.000,0.000
1644940284906812928,2022-02-15-15:51:24,10.1.1.8,16,-0.080,-0.080,-0.080,0.000,0.000,0.000
1644940286745224960,2022-02-15-15:51:26,10.1.1.8,16,-0.080,-0.080,-0.080,0.000,0.000,0.000
1644940286945972992,2022-02-15-15:51:26,10.1.1.8,13,-0.080,-0.080,-0.080,0.000,0.000,0.000
1644940288705513984,2022-02-15-15:51:28,10.1.1.8,29,-0.060,-0.060,-0.060,0.000,0.000,0.000
1644940289105540096,2022-02-15-15:51:29,10.1.1.8,21,-0.060,-0.060,-0.060,0.000,0.000,0.000
1644940289725811968,2022-02-15-15:51:29,10.1.1.8,29,0.060,0.060,0.060,0.000,0.000,0.000
1644940290126708992,2022-02-15-15:51:30,10.1.1.8,23,0.060,0.060,0.060,0.000,0.000,0.000
1644940291745904896,2022-02-15-15:51:31,10.1.1.8,10,0.060,0.060,0.060,0.000,0.000,0.000
1644940292164995840,2022-02-15-15:51:32,10.1.1.8,23,0.060,0.060,0.060,0.000,0.000,0.000
1644940292885543936,2022-02-15-15:51:32,10.1.1.8,29,-0.080,-0.080,-0.080,0.000,0.000,0.000
1644940293084929024,2022-02-15-15:51:33,10.1.1.8,22,-0.080,-0.080,-0.080,0.000,0.000,0.000
1644940294927890176,2022-02-15-15:51:34,10.1.1.8,22,-0.080,-0.080,-0.080,0.000,0.000,0.000
1644940295128227072,2022-02-15-15:51:35,10.1.1.8,18,-0.080,-0.080,-0.080,0.000,0.000,0.000
1644940296965953024,2022-02-15-15:51:36,10.1.1.8,6,-0.080,-0.080,-0.080,0.000,0.000,0.000
1644940297185703936,2022-02-15-15:51:37,10.1.1.8,23,-0.080,-0.080,-0.080,0.000,0.000,0.000
1644940297285882880,2022-02-15-15:51:37,10.1.1.8,21,-0.060,-0.060,-0.060,0.000,0.000,0.000
1644940298905442048,2022-02-15-15:51:38,10.1.1.8,8,-0.060,-0.060,-0.060,0.000,0.000,0.000
1644940299326947072,2022-02-15-15:51:39,10.1.1.8,19,-0.060,-0.060,-0.060,0.000,0.000,0.000
1644940300947303168,2022-02-15-15:51:40,10.1.1.8,10,-0.060,-0.060,-0.060,0.000,0.000,0.000
1644940301365904128,2022-02-15-15:51:41,10.1.1.8,23,-0.060,-0.060,-0.060,0.000,0.000,0.000
1644940302987353088,2022-02-15-15:51:42,10.1.1.8,6,-0.060,-0.060,-0.060,0.000,0.000,0.000
1644940303406225920,2022-02-15-15:51:43,10.1.1.8,20,-0.060,-0.060,-0.060,0.000,0.000,0.000
1644940305065926144,2022-02-15-15:51:45,10.1.1.8,11,-0.060,-0.060,-0.060,0.000,0.000,0.000
1644940305245120000,2022-02-15-15:51:45,10.1.1.8,39,-0.090,-0.090,-0.090,0.000,0.000,0.000
1644940305327862016,2022-02-15-15:51:45,10.1.1.8,17,-0.090,-0.090,-0.090,0.000,0.000,0.000
1644940306606028032,2022-02-15-15:51:46,10.1.1.8,29,0.040,0.040,0.040,0.000,0.000,0.000
1644940308009857024,2022-02-15-15:51:48,10.1.1.8,4,0.040,0.040,0.040,0.000,0.000,0.000
1644940308626060032,2022-02-15-15:51:48,10.1.1.8,15,0.040,0.040,0.040,0.000,0.000,0.000
1644940310045938944,2022-02-15-15:51:50,10.1.1.8,7,0.040,0.040,0.040,0.000,0.000,0.000
1644940310664643072,2022-02-15-15:51:50,10.1.1.8,19,0.040,0.040,0.040,0.000,0.000,0.000
1644940312084465920,2022-02-15-15:51:52,10.1.1.8,14,0.040,0.040,0.040,0.000,0.000,0.000
1644940312705390848,2022-02-15-15:51:52,10.1.1.8,24,0.040,0.040,0.040,0.000,0.000,0.000
1644940313826523136,2022-02-15-15:51:53,10.1.1.8,20,-0.020,-0.020,-0.020,0.000,0.000,0.000
1644940315045558016,2022-02-15-15:51:55,10.1.1.8,12,-0.020,-0.020,-0.020,0.000,0.000,0.000
1644940315864922112,2022-02-15-15:51:55,10.1.1.8,19,-0.020,-0.020,-0.020,0.000,0.000,0.000
1644940317047960064,2022-02-15-15:51:57,10.1.1.8,30,-0.010,-0.010,-0.010,0.000,0.000,0.000
1644940317966865920,2022-02-15-15:51:57,10.1.1.8,19,-0.010,-0.010,-0.010,0.000,0.000,0.000
1644940318584978944,2022-02-15-15:51:58,10.1.1.8,21,0.090,0.090,0.090,0.000,0.000,0.000
1644940318744928000,2022-02-15-15:51:58,10.1.1.8,29,0.060,0.060,0.060,0.000,0.000,0.000
1644940320364459008,2022-02-15-15:52:00,10.1.1.8,17,0.060,0.060,0.060,0.000,0.000,0.000
1644940320771801856,2022-02-15-15:52:00,10.1.1.8,9,0.060,0.060,0.060,0.000,0.000,0.000
1644940322406141952,2022-02-15-15:52:02,10.1.1.8,19,0.060,0.060,0.060,0.000,0.000,0.000
1644940322805282048,2022-02-15-15:52:02,10.1.1.8,14,0.060,0.060,0.060,0.000,0.000,0.000
1644940324265964032,2022-02-15-15:52:04,10.1.1.8,19,0.020,0.020,0.020,0.000,0.000,0.000
1644940324827023872,2022-02-15-15:52:04,10.1.1.8,20,0.070,0.070,0.070,0.000,0.000,0.000
1644940326546885120,2022-02-15-15:52:06,10.1.1.8,17,0.070,0.070,0.070,0.000,0.000,0.000
1644940326848946944,2022-02-15-15:52:06,10.1.1.8,13,0.070,0.070,0.070,0.000,0.000,0.000
1644940328606086912,2022-02-15-15:52:08,10.1.1.8,21,0.070,0.070,0.070,0.000,0.000,0.000
1644940328905953792,2022-02-15-15:52:08,10.1.1.8,13,0.070,0.070,0.070,0.000,0.000,0.000
1644940330632744960,2022-02-15-15:52:10,10.1.1.8,0,0.070,0.070,0.070,0.000,0.000,0.000
1644940330944380928,2022-02-15-15:52:10,10.1.1.8,13,0.070,0.070,0.070,0.000,0.000,0.000
1644940331166412032,2022-02-15-15:52:11,10.1.1.8,29,0.030,0.030,0.030,0.000,0.000,0.000
1644940332485897984,2022-02-15-15:52:12,10.1.1.8,19,0.030,0.030,0.030,0.000,0.000,0.000
1644940333210925056,2022-02-15-15:52:13,10.1.1.8,22,0.030,0.030,0.030,0.000,0.000,0.000
1644940334528283136,2022-02-15-15:52:14,10.1.1.8,23,0.030,0.030,0.030,0.000,0.000,0.000
1644940335225807872,2022-02-15-15:52:15,10.1.1.8,13,0.030,0.030,0.030,0.000,0.000,0.000
1644940336546375936,2022-02-15-15:52:16,10.1.1.8,9,0.030,0.030,0.030,0.000,0.000,0.000
1644940337264563968,2022-02-15-15:52:17,10.1.1.8,14,0.030,0.030,0.030,0.000,0.000,0.000
1644940338404546048,2022-02-15-15:52:18,10.1.1.8,29,-0.010,-0.010,-0.010,0.000,0.000,0.000
1644940339504303104,2022-02-15-15:52:19,10.1.1.8,13,-0.010,-0.010,-0.010,0.000,0.000,0.000
1644940340425946112,2022-02-15-15:52:20,10.1.1.8,19,-0.010,-0.010,-0.010,0.000,0.000,0.000
1644940341547449088,2022-02-15-15:52:21,10.1.1.8,16,-0.010,-0.010,-0.010,0.000,0.000,0.000
1644940342465010944,2022-02-15-15:52:22,10.1.1.8,17,-0.010,-0.010,-0.010,0.000,0.000,0.000
1644940343605555968,2022-02-15-15:52:23,10.1.1.8,22,-0.010,-0.010,-0.010,0.000,0.000,0.000
1644940344505897984,2022-02-15-15:52:24,10.1.1.8,12,-0.010,-0.010,-0.010,0.000,0.000,0.000
1644940344725844992,2022-02-15-15:52:24,10.1.1.8,30,0.030,0.030,0.030,0.000,0.000,0.000
1644940345425046016,2022-02-15-15:52:25,10.1.1.8,22,0.030,0.030,0.030,0.000,0.000,0.000
1644940346745667072,2022-02-15-15:52:26,10.1.1.8,23,0.030,0.030,0.030,0.000,0.000,0.000
1644940347446068992,2022-02-15-15:52:27,10.1.1.8,10,0.030,0.030,0.030,0.000,0.000,0.000
1644940348786531840,2022-02-15-15:52:28,10.1.1.8,20,0.030,0.030,0.030,0.000,0.000,0.000
1644940348844911104,2022-02-15-15:52:28,10.1.1.8,29,0.040,0.040,0.040,0.000,0.000,0.000
1644940349446248960,2022-02-15-15:52:29,10.1.1.8,15,0.040,0.040,0.040,0.000,0.000,0.000
1644940350886413056,2022-02-15-15:52:30,10.1.1.8,9,0.040,0.040,0.040,0.000,0.000,0.000
1644940351266351872,2022-02-15-15:52:31,10.1.1.8,20,0.090,0.090,0.090,0.000,0.000,0.000
1644940352046814976,2022-02-15-15:52:32,10.1.1.8,30,-0.060,-0.060,-0.060,0.000,0.000,0.000
1644940352451603968,2022-02-15-15:52:32,10.1.1.8,5,-0.060,-0.060,-0.060,0.000,0.000,0.000
1644940354105027840,2022-02-15-15:52:34,10.1.1.8,25,-0.060,-0.060,-0.060,0.000,0.000,0.000
1644940354505997056,2022-02-15-15:52:34,10.1.1.8,16,-0.060,-0.060,-0.060,0.000,0.000,0.000
1644940355809699072,2022-02-15-15:52:35,10.1.1.8,29,0.010,0.010,0.010,0.000,0.000,0.000
1644940356925230080,2022-02-15-15:52:36,10.1.1.8,20,0.010,0.010,0.010,0.000,0.000,0.000
1644940357845750016,2022-02-15-15:52:37,10.1.1.8,22,0.010,0.010,0.010,0.000,0.000,0.000
1644940358665277952,2022-02-15-15:52:38,10.1.1.8,29,-0.050,-0.050,-0.050,0.000,0.000,0.000
1644940360184653056,2022-02-15-15:52:40,10.1.1.8,25,-0.050,-0.050,-0.050,0.000,0.000,0.000
1644940360684935168,2022-02-15-15:52:40,10.1.1.8,20,-0.050,-0.050,-0.050,0.000,0.000,0.000
1644940362206088960,2022-02-15-15:52:42,10.1.1.8,18,-0.050,-0.050,-0.050,0.000,0.000,0.000
1644940362745650944,2022-02-15-15:52:42,10.1.1.8,26,-0.050,-0.050,-0.050,0.000,0.000,0.000
1644940363425082880,2022-02-15-15:52:43,10.1.1.8,29,0.080,0.080,0.080,0.000,0.000,0.000
1644940363624881152,2022-02-15-15:52:43,10.1.1.8,24,0.080,0.080,0.080,0.000,0.000,0.000
1644940365485110016,2022-02-15-15:52:45,10.1.1.8,17,0.080,0.080,0.080,0.000,0.000,0.000
1644940365684865024,2022-02-15-15:52:45,10.1.1.8,11,0.080,0.080,0.080,0.000,0.000,0.000
1644940367566174976,2022-02-15-15:52:47,10.1.1.8,20,0.080,0.080,0.080,0.000,0.000,0.000
1644940367765708032,2022-02-15-15:52:47,10.1.1.8,16,0.080,0.080,0.080,0.000,0.000,0.000
1644940369606065920,2022-02-15-15:52:49,10.1.1.8,18,0.080,0.080,0.080,0.000,0.000,0.000
1644940369806905088,2022-02-15-15:52:49,10.1.1.8,14,0.080,0.080,0.080,0.000,0.000,0.000
1644940371665754112,2022-02-15-15:52:51,10.1.1.8,20,0.080,0.080,0.080,0.000,0.000,0.000
1644940371865281024,2022-02-15-15:52:51,10.1.1.8,14,0.080,0.080,0.080,0.000,0.000,0.000
1644940372125680896,2022-02-15-15:52:52,10.1.1.8,20,0.030,0.030,0.030,0.000,0.000,0.000
1644940373447796992,2022-02-15-15:52:53,10.1.1.8,10,0.030,0.030,0.030,0.000,0.000,0.000
1644940374165963008,2022-02-15-15:52:54,10.1.1.8,9,0.030,0.030,0.030,0.000,0.000,0.000
1644940375507023104,2022-02-15-15:52:55,10.1.1.8,20,0.030,0.030,0.030,0.000,0.000,0.000
1644940376244960000,2022-02-15-15:52:56,10.1.1.8,23,0.030,0.030,0.030,0.000,0.000,0.000
1644940377605509120,2022-02-15-15:52:57,10.1.1.8,21,0.030,0.030,0.030,0.000,0.000,0.000
1644940378328731136,2022-02-15-15:52:58,10.1.1.8,27,0.030,0.030,0.030,0.000,0.000,0.000
1644940379625526016,2022-02-15-15:52:59,10.1.1.8,9,0.030,0.030,0.030,0.000,0.000,0.000
1644940380345257984,2022-02-15-15:53:00,10.1.1.8,19,0.030,0.030,0.030,0.000,0.000,0.000
1644940381665689856,2022-02-15-15:53:01,10.1.1.8,18,0.030,0.030,0.030,0.000,0.000,0.000
1644940382385665024,2022-02-15-15:53:02,10.1.1.8,17,0.030,0.030,0.030,0.000,0.000,0.000
1644940383706302976,2022-02-15-15:53:03,10.1.1.8,22,0.030,0.030,0.030,0.000,0.000,0.000
1644940383904393984,2022-02-15-15:53:03,10.1.1.8,19,0.070,0.070,0.070,0.000,0.000,0.000
1644940384204416000,2022-02-15-15:53:04,10.1.1.8,15,0.070,0.070,0.070,0.000,0.000,0.000
1644940385925682944,2022-02-15-15:53:05,10.1.1.8,15,0.070,0.070,0.070,0.000,0.000,0.000
1644940386224807936,2022-02-15-15:53:06,10.1.1.8,11,0.070,0.070,0.070,0.000,0.000,0.000
1644940387865699072,2022-02-15-15:53:07,10.1.1.8,29,0.050,0.050,0.050,0.000,0.000,0.000
1644940388365113856,2022-02-15-15:53:08,10.1.1.8,23,0.050,0.050,0.050,0.000,0.000,0.000
1644940389884427008,2022-02-15-15:53:09,10.1.1.8,12,0.050,0.050,0.050,0.000,0.000,0.000
1644940390406404864,2022-02-15-15:53:10,10.1.1.8,23,0.050,0.050,0.050,0.000,0.000,0.000
1644940391925644032,2022-02-15-15:53:11,10.1.1.8,26,0.050,0.050,0.050,0.000,0.000,0.000
1644940392424931072,2022-02-15-15:53:12,10.1.1.8,20,0.050,0.050,0.050,0.000,0.000,0.000
1644940393959099904,2022-02-15-15:53:13,10.1.1.8,23,0.050,0.050,0.050,0.000,0.000,0.000
1644940394446993152,2022-02-15-15:53:14,10.1.1.8,14,0.050,0.050,0.050,0.000,0.000,0.000
1644940395985080064,2022-02-15-15:53:15,10.1.1.8,14,0.050,0.050,0.050,0.000,0.000,0.000
1644940396504962048,2022-02-15-15:53:16,10.1.1.8,23,0.050,0.050,0.050,0.000,0.000,0.000
1644940398024510976,2022-02-15-15:53:18,10.1.1.8,12,0.050,0.050,0.050,0.000,0.000,0.000
1644940398545341952,2022-02-15-15:53:18,10.1.1.8,21,0.050,0.050,0.050,0.000,0.000,0.000
1644940400065270016,2022-02-15-15:53:20,10.1.1.8,20,0.050,0.050,0.050,0.000,0.000,0.000
1644940400566478080,2022-02-15-15:53:20,10.1.1.8,12,0.050,0.050,0.050,0.000,0.000,0.000
1644940402104420864,2022-02-15-15:53:22,10.1.1.8,25,0.050,0.050,0.050,0.000,0.000,0.000
1644940402604912896,2022-02-15-15:53:22,10.1.1.8,12,0.050,0.050,0.050,0.000,0.000,0.000
1644940403284694016,2022-02-15-15:53:23,10.1.1.8,30,-0.080,-0.080,-0.080,0.000,0.000,0.000
1644940403484404992,2022-02-15-15:53:23,10.1.1.8,25,-0.080,-0.080,-0.080,0.000,0.000,0.000
1644940405344824064,2022-02-15-15:53:25,10.1.1.8,23,-0.080,-0.080,-0.080,0.000,0.000,0.000
1644940405544733952,2022-02-15-15:53:25,10.1.1.8,18,-0.080,-0.080,-0.080,0.000,0.000,0.000
1644940407424814848,2022-02-15-15:53:27,10.1.1.8,21,-0.080,-0.080,-0.080,0.000,0.000,0.000
1644940407624555008,2022-02-15-15:53:27,10.1.1.8,16,-0.080,-0.080,-0.080,0.000,0.000,0.000
1644940409486157824,2022-02-15-15:53:29,10.1.1.8,7,-0.080,-0.080,-0.080,0.000,0.000,0.000
1644940409704633856,2022-02-15-15:53:29,10.1.1.8,25,-0.080,-0.080,-0.080,0.000,0.000,0.000
1644940411546843136,2022-02-15-15:53:31,10.1.1.8,17,-0.080,-0.080,-0.080,0.000,0.000,0.000
1644940411744822016,2022-02-15-15:53:31,10.1.1.8,15,-0.080,-0.080,-0.080,0.000,0.000,0.000
1644940413584736000,2022-02-15-15:53:33,10.1.1.8,8,-0.080,-0.080,-0.080,0.000,0.000,0.000
1644940413805406976,2022-02-15-15:53:33,10.1.1.8,26,-0.080,-0.080,-0.080,0.000,0.000,0.000
1644940415625787904,2022-02-15-15:53:35,10.1.1.8,17,-0.080,-0.080,-0.080,0.000,0.000,0.000
1644940415827284224,2022-02-15-15:53:35,10.1.1.8,14,-0.080,-0.080,-0.080,0.000,0.000,0.000
1644940417665265152,2022-02-15-15:53:37,10.1.1.8,25,-0.080,-0.080,-0.080,0.000,0.000,0.000
1644940417864103168,2022-02-15-15:53:37,10.1.1.8,21,-0.080,-0.080,-0.080,0.000,0.000,0.000
1644940419684787968,2022-02-15-15:53:39,10.1.1.8,17,-0.080,-0.080,-0.080,0.000,0.000,0.000
1644940419884754944,2022-02-15-15:53:39,10.1.1.8,14,-0.080,-0.080,-0.080,0.000,0.000,0.000
1644940421726222080,2022-02-15-15:53:41,10.1.1.8,22,-0.080,-0.080,-0.080,0.000,0.000,0.000
1644940421944947968,2022-02-15-15:53:41,10.1.1.8,17,-0.080,-0.080,-0.080,0.000,0.000,0.000
1644940423165520896,2022-02-15-15:53:43,10.1.1.8,19,0.040,0.040,0.040,0.000,0.000,0.000
1644940424586107904,2022-02-15-15:53:44,10.1.1.8,15,0.040,0.040,0.040,0.000,0.000,0.000
1644940424944068864,2022-02-15-15:53:44,10.1.1.8,19,0.090,0.090,0.090,0.000,0.000,0.000
1644940426864675072,2022-02-15-15:53:46,10.1.1.8,13,0.090,0.090,0.090,0.000,0.000,0.000
1644940426965254144,2022-02-15-15:53:46,10.1.1.8,12,0.090,0.090,0.090,0.000,0.000,0.000
1644940427126486016,2022-02-15-15:53:47,10.1.1.8,19,0.060,0.060,0.060,0.000,0.000,0.000
1644940428746110976,2022-02-15-15:53:48,10.1.1.8,16,0.060,0.060,0.060,0.000,0.000,0.000
1644940429146219008,2022-02-15-15:53:49,10.1.1.8,8,0.060,0.060,0.060,0.000,0.000,0.000
1644940430784761856,2022-02-15-15:53:50,10.1.1.8,8,0.060,0.060,0.060,0.000,0.000,0.000
1644940431206480128,2022-02-15-15:53:51,10.1.1.8,24,0.060,0.060,0.060,0.000,0.000,0.000
1644940432826423040,2022-02-15-15:53:52,10.1.1.8,9,0.060,0.060,0.060,0.000,0.000,0.000
1644940433244314880,2022-02-15-15:53:53,10.1.1.8,23,0.060,0.060,0.060,0.000,0.000,0.000
1644940434224656128,2022-02-15-15:53:54,10.1.1.8,32,-0.070,-0.070,-0.070,0.000,0.000,0.000
1644940435964631040,2022-02-15-15:53:55,10.1.1.8,12,-0.070,-0.070,-0.070,0.000,0.000,0.000
1644940436290808064,2022-02-15-15:53:56,10.1.1.8,27,-0.070,-0.070,-0.070,0.000,0.000,0.000
1644940438004617984,2022-02-15-15:53:58,10.1.1.8,9,-0.070,-0.070,-0.070,0.000,0.000,0.000
1644940438327735040,2022-02-15-15:53:58,10.1.1.8,22,-0.070,-0.070,-0.070,0.000,0.000,0.000
1644940440065843968,2022-02-15-15:54:00,10.1.1.8,20,-0.070,-0.070,-0.070,0.000,0.000,0.000
1644940440364700928,2022-02-15-15:54:00,10.1.1.8,15,-0.070,-0.070,-0.070,0.000,0.000,0.000
1644940442105598976,2022-02-15-15:54:02,10.1.1.8,16,-0.070,-0.070,-0.070,0.000,0.000,0.000
1644940442405914112,2022-02-15-15:54:02,10.1.1.8,11,-0.070,-0.070,-0.070,0.000,0.000,0.000
1644940443344542976,2022-02-15-15:54:03,10.1.1.8,33,0.090,0.090,0.090,0.000,0.000,0.000
1644940445287774976,2022-02-15-15:54:05,10.1.1.8,19,0.090,0.090,0.090,0.000,0.000,0.000
1644940445385850880,2022-02-15-15:54:05,10.1.1.8,17,0.090,0.090,0.090,0.000,0.000,0.000
1644940446726375936,2022-02-15-15:54:06,10.1.1.8,29,-0.030,-0.030,-0.030,0.000,0.000,0.000
1644940448067529984,2022-02-15-15:54:08,10.1.1.8,25,-0.030,-0.030,-0.030,0.000,0.000,0.000
1644940448765889024,2022-02-15-15:54:08,10.1.1.8,15,-0.030,-0.030,-0.030,0.000,0.000,0.000
1644940450104715008,2022-02-15-15:54:10,10.1.1.8,22,-0.030,-0.030,-0.030,0.000,0.000,0.000
1644940450205918976,2022-02-15-15:54:10,10.1.1.8,20,-0.050,-0.050,-0.050,0.000,0.000,0.000
1644940450706909952,2022-02-15-15:54:10,10.1.1.8,8,-0.050,-0.050,-0.050,0.000,0.000,0.000
1644940452287834880,2022-02-15-15:54:12,10.1.1.8,14,-0.050,-0.050,-0.050,0.000,0.000,0.000
1644940452805132032,2022-02-15-15:54:12,10.1.1.8,23,-0.050,-0.050,-0.050,0.000,0.000,0.000
1644940453944782080,2022-02-15-15:54:13,10.1.1.8,29,0.030,0.030,0.030,0.000,0.000,0.000
1644940455247920128,2022-02-15-15:54:15,10.1.1.8,10,0.030,0.030,0.030,0.000,0.000,0.000
1644940455985308928,2022-02-15-15:54:15,10.1.1.8,26,0.030,0.030,0.030,0.000,0.000,0.000
1644940457063890944,2022-02-15-15:54:17,10.1.1.8,29,-0.020,-0.020,-0.020,0.000,0.000,0.000
1644940458285294080,2022-02-15-15:54:18,10.1.1.8,20,-0.020,-0.020,-0.020,0.000,0.000,0.000
1644940459105675008,2022-02-15-15:54:19,10.1.1.8,16,-0.020,-0.020,-0.020,0.000,0.000,0.000
1644940460346031872,2022-02-15-15:54:20,10.1.1.8,24,-0.020,-0.020,-0.020,0.000,0.000,0.000
1644940461165998080,2022-02-15-15:54:21,10.1.1.8,21,-0.020,-0.020,-0.020,0.000,0.000,0.000
1644940462405366016,2022-02-15-15:54:22,10.1.1.8,12,-0.020,-0.020,-0.020,0.000,0.000,0.000
1644940463246382848,2022-02-15-15:54:23,10.1.1.8,24,-0.020,-0.020,-0.020,0.000,0.000,0.000
1644940464485908992,2022-02-15-15:54:24,10.1.1.8,21,-0.020,-0.020,-0.020,0.000,0.000,0.000
1644940465305116928,2022-02-15-15:54:25,10.1.1.8,24,-0.020,-0.020,-0.020,0.000,0.000,0.000
1644940466570870016,2022-02-15-15:54:26,10.1.1.8,26,-0.020,-0.020,-0.020,0.000,0.000,0.000
1644940467385337088,2022-02-15-15:54:27,10.1.1.8,24,-0.020,-0.020,-0.020,0.000,0.000,0.000
1644940468644414976,2022-02-15-15:54:28,10.1.1.8,15,-0.020,-0.020,-0.020,0.000,0.000,0.000
1644940469465049088,2022-02-15-15:54:29,10.1.1.8,19,-0.020,-0.020,-0.020,0.000,0.000,0.000
1644940470704158976,2022-02-15-15:54:30,10.1.1.8,24,-0.020,-0.020,-0.020,0.000,0.000,0.000
1644940471526603008,2022-02-15-15:54:31,10.1.1.8,20,-0.020,-0.020,-0.020,0.000,0.000,0.000
1644940471985688064,2022-02-15-15:54:31,10.1.1.8,20,0.070,0.070,0.070,0.000,0.000,0.000
1644940472285931008,2022-02-15-15:54:32,10.1.1.8,15,0.070,0.070,0.070,0.000,0.000,0.000
1644940474025378816,2022-02-15-15:54:34,10.1.1.8,19,0.070,0.070,0.070,0.000,0.000,0.000
1644940474326333952,2022-02-15-15:54:34,10.1.1.8,15,0.070,0.070,0.070,0.000,0.000,0.000
1644940476042243072,2022-02-15-15:54:36,10.1.1.8,-9,0.070,0.070,0.070,0.000,0.000,0.000
1644940476347814144,2022-02-15-15:54:36,10.1.1.8,7,0.070,0.070,0.070,0.000,0.000,0.000
1644940478084712960,2022-02-15-15:54:38,10.1.1.8,15,0.070,0.070,0.070,0.000,0.000,0.000
1644940478384428032,2022-02-15-15:54:38,10.1.1.8,11,0.070,0.070,0.070,0.000,0.000,0.000
1644940480165442816,2022-02-15-15:54:40,10.1.1.8,8,0.070,0.070,0.070,0.000,0.000,0.000
1644940480467183104,2022-02-15-15:54:40,10.1.1.8,18,0.070,0.070,0.070,0.000,0.000,0.000
1644940482204211968,2022-02-15-15:54:42,10.1.1.8,15,0.070,0.070,0.070,0.000,0.000,0.000
1644940482504604928,2022-02-15-15:54:42,10.1.1.8,10,0.070,0.070,0.070,0.000,0.000,0.000
1644940484124697856,2022-02-15-15:54:44,10.1.1.8,29,0.040,0.040,0.040,0.000,0.000,0.000
1644940484746552064,2022-02-15-15:54:44,10.1.1.8,23,0.040,0.040,0.040,0.000,0.000,0.000
1644940484973778944,2022-02-15-15:54:44,10.1.1.8,26,0.000,0.000,0.000,0.000,0.000,0.000
1644940486007004928,2022-02-15-15:54:46,10.1.1.8,23,0.000,0.000,0.000,0.000,0.000,0.000
1644940487025960960,2022-02-15-15:54:47,10.1.1.8,12,0.000,0.000,0.000,0.000,0.000,0.000
1644940488066176768,2022-02-15-15:54:48,10.1.1.8,21,0.000,0.000,0.000,0.000,0.000,0.000
1644940488124742144,2022-02-15-15:54:48,10.1.1.8,30,0.010,0.010,0.010,0.000,0.000,0.000
1644940489065694976,2022-02-15-15:54:49,10.1.1.8,11,0.010,0.010,0.010,0.000,0.000,0.000
1644940490204681984,2022-02-15-15:54:50,10.1.1.8,23,0.010,0.010,0.010,0.000,0.000,0.000
1644940491125299968,2022-02-15-15:54:51,10.1.1.8,10,0.010,0.010,0.010,0.000,0.000,0.000
