FedericoMungari/DigitalTwin_service/01_WiredScenario/Output/Output_script/script_rosapi_2_output_robots6_freq0_2.txt
timestamp,date,node,latency,joint_1,joint_2,joint_3,joint_4,joint_5,joint_6
1644347635955198976,2022-02-08-19:13:55,10.1.1.3,6,-0.100,-0.100,-0.100,-0.000,0.000,-0.000
1644347636076317184,2022-02-08-19:13:56,10.1.1.3,25,-0.090,-0.090,-0.090,0.000,0.000,0.000
1644347636176300032,2022-02-08-19:13:56,10.1.1.3,23,-0.080,-0.080,-0.080,0.000,0.000,0.000
1644347636279836928,2022-02-08-19:13:56,10.1.1.3,22,-0.070,-0.070,-0.070,0.000,0.000,0.000
1644347636376176128,2022-02-08-19:13:56,10.1.1.3,21,-0.060,-0.060,-0.060,0.000,0.000,0.000
1644347636475329024,2022-02-08-19:13:56,10.1.1.3,20,-0.050,-0.050,-0.050,0.000,0.000,0.000
1644347636576029952,2022-02-08-19:13:56,10.1.1.3,20,-0.040,-0.040,-0.040,0.000,0.000,0.000
1644347636676161024,2022-02-08-19:13:56,10.1.1.3,19,-0.030,-0.030,-0.030,0.000,0.000,0.000
1644347636795859200,2022-02-08-19:13:56,10.1.1.3,38,-0.020,-0.020,-0.020,0.000,0.000,0.000
1644347636896203008,2022-02-08-19:13:56,10.1.1.3,38,-0.010,-0.010,-0.010,0.000,0.000,0.000
1644347636995613184,2022-02-08-19:13:56,10.1.1.3,37,0.000,0.000,0.000,0.000,0.000,0.000
1644347637096672000,2022-02-08-19:13:57,10.1.1.3,36,0.010,0.010,0.010,0.000,0.000,0.000
1644347637195977984,2022-02-08-19:13:57,10.1.1.3,34,0.020,0.020,0.020,0.000,0.000,0.000
1644347637295700992,2022-02-08-19:13:57,10.1.1.3,33,0.030,0.030,0.030,0.000,0.000,0.000
1644347637395960064,2022-02-08-19:13:57,10.1.1.3,32,0.040,0.040,0.040,0.000,0.000,0.000
1644347637496304896,2022-02-08-19:13:57,10.1.1.3,31,0.050,0.050,0.050,0.000,0.000,0.000
1644347637596072960,2022-02-08-19:13:57,10.1.1.3,30,0.060,0.060,0.060,0.000,0.000,0.000
1644347637695840000,2022-02-08-19:13:57,10.1.1.3,28,0.070,0.070,0.070,0.000,0.000,0.000
1644347637796142080,2022-02-08-19:13:57,10.1.1.3,27,0.080,0.080,0.080,0.000,0.000,0.000
1644347637895757056,2022-02-08-19:13:57,10.1.1.3,26,0.090,0.090,0.090,0.000,0.000,0.000
1644347637996229888,2022-02-08-19:13:57,10.1.1.3,26,0.100,0.100,0.100,0.000,0.000,0.000
1644347638096056064,2022-02-08-19:13:58,10.1.1.3,25,0.090,0.090,0.090,0.000,0.000,0.000
1644347638195990016,2022-02-08-19:13:58,10.1.1.3,23,0.080,0.080,0.080,0.000,0.000,0.000
1644347638296015872,2022-02-08-19:13:58,10.1.1.3,22,0.070,0.070,0.070,0.000,0.000,0.000
1644347638396270080,2022-02-08-19:13:58,10.1.1.3,22,0.060,0.060,0.060,0.000,0.000,0.000
1644347638495867904,2022-02-08-19:13:58,10.1.1.3,21,0.050,0.050,0.050,0.000,0.000,0.000
1644347638595572992,2022-02-08-19:13:58,10.1.1.3,19,0.040,0.040,0.040,0.000,0.000,0.000
1644347638696247040,2022-02-08-19:13:58,10.1.1.3,19,0.031,0.031,0.031,0.000,0.000,0.000
1644347638815751936,2022-02-08-19:13:58,10.1.1.3,38,0.020,0.020,0.020,0.000,0.000,0.000
1644347638916263168,2022-02-08-19:13:58,10.1.1.3,37,0.010,0.010,0.010,0.000,0.000,0.000
1644347639015880960,2022-02-08-19:13:59,10.1.1.3,36,0.000,0.000,0.000,0.000,0.000,0.000
1644347639116566784,2022-02-08-19:13:59,10.1.1.3,36,-0.010,-0.010,-0.010,0.000,0.000,0.000
1644347639217595136,2022-02-08-19:13:59,10.1.1.3,35,-0.020,-0.020,-0.020,0.000,0.000,0.000
1644347639315932928,2022-02-08-19:13:59,10.1.1.3,34,-0.030,-0.030,-0.030,0.000,0.000,0.000
1644347639415961856,2022-02-08-19:13:59,10.1.1.3,33,-0.040,-0.040,-0.040,0.000,0.000,0.000
1644347639516184064,2022-02-08-19:13:59,10.1.1.3,32,-0.050,-0.050,-0.050,0.000,0.000,0.000
1644347639615771136,2022-02-08-19:13:59,10.1.1.3,31,-0.060,-0.060,-0.060,0.000,0.000,0.000
1644347639715982848,2022-02-08-19:13:59,10.1.1.3,31,-0.070,-0.070,-0.070,0.000,0.000,0.000
1644347639816206848,2022-02-08-19:13:59,10.1.1.3,30,-0.080,-0.080,-0.080,0.000,0.000,0.000
1644347639916201216,2022-02-08-19:13:59,10.1.1.3,29,-0.090,-0.090,-0.090,0.000,0.000,0.000
1644347640015703040,2022-02-08-19:14:00,10.1.1.3,28,-0.100,-0.100,-0.100,0.000,0.000,0.000
1644347640119725056,2022-02-08-19:14:00,10.1.1.3,26,-0.090,-0.090,-0.090,0.000,0.000,0.000
1644347640216706048,2022-02-08-19:14:00,10.1.1.3,26,-0.080,-0.080,-0.080,0.000,0.000,0.000
1644347640315279872,2022-02-08-19:14:00,10.1.1.3,22,-0.070,-0.070,-0.070,0.000,0.000,0.000
1644347640415854080,2022-02-08-19:14:00,10.1.1.3,22,-0.060,-0.060,-0.060,0.000,0.000,0.000
1644347640515988224,2022-02-08-19:14:00,10.1.1.3,21,-0.050,-0.050,-0.050,0.000,0.000,0.000
1644347640615439872,2022-02-08-19:14:00,10.1.1.3,21,-0.040,-0.040,-0.040,0.000,0.000,0.000
1644347640715394048,2022-02-08-19:14:00,10.1.1.3,20,-0.030,-0.030,-0.030,0.000,0.000,0.000
1644347640815812096,2022-02-08-19:14:00,10.1.1.3,19,-0.020,-0.020,-0.020,0.000,0.000,0.000
1644347640916030976,2022-02-08-19:14:00,10.1.1.3,19,-0.011,-0.011,-0.011,0.000,0.000,0.000
1644347641036286208,2022-02-08-19:14:01,10.1.1.3,37,0.000,0.000,0.000,0.000,0.000,0.000
1644347641136261888,2022-02-08-19:14:01,10.1.1.3,37,0.010,0.010,0.010,0.000,0.000,0.000
1644347641235843840,2022-02-08-19:14:01,10.1.1.3,35,0.020,0.020,0.020,0.000,0.000,0.000
1644347641335959040,2022-02-08-19:14:01,10.1.1.3,35,0.030,0.030,0.030,0.000,0.000,0.000
1644347641436327936,2022-02-08-19:14:01,10.1.1.3,32,0.040,0.040,0.040,0.000,0.000,0.000
1644347641536333056,2022-02-08-19:14:01,10.1.1.3,31,0.050,0.050,0.050,0.000,0.000,0.000
1644347641636008960,2022-02-08-19:14:01,10.1.1.3,30,0.060,0.060,0.060,0.000,0.000,0.000
1644347641735940864,2022-02-08-19:14:01,10.1.1.3,29,0.070,0.070,0.070,0.000,0.000,0.000
1644347641836312064,2022-02-08-19:14:01,10.1.1.3,28,0.080,0.080,0.080,0.000,0.000,0.000
1644347641936953088,2022-02-08-19:14:01,10.1.1.3,27,0.090,0.090,0.090,0.000,0.000,0.000
1644347642035644928,2022-02-08-19:14:02,10.1.1.3,26,0.100,0.100,0.100,0.000,0.000,0.000
1644347642135988992,2022-02-08-19:14:02,10.1.1.3,25,0.090,0.090,0.090,0.000,0.000,0.000
1644347642237063936,2022-02-08-19:14:02,10.1.1.3,22,0.080,0.080,0.080,0.000,0.000,0.000
1644347642336251904,2022-02-08-19:14:02,10.1.1.3,21,0.070,0.070,0.070,0.000,0.000,0.000
1644347642436101888,2022-02-08-19:14:02,10.1.1.3,20,0.060,0.060,0.060,0.000,0.000,0.000
1644347642535979008,2022-02-08-19:14:02,10.1.1.3,20,0.050,0.050,0.050,0.000,0.000,0.000
1644347642656389888,2022-02-08-19:14:02,10.1.1.3,38,0.040,0.040,0.040,0.000,0.000,0.000
1644347642756259840,2022-02-08-19:14:02,10.1.1.3,37,0.030,0.030,0.030,0.000,0.000,0.000
1644347642856105984,2022-02-08-19:14:02,10.1.1.3,36,0.020,0.020,0.020,0.000,0.000,0.000
1644347642955791872,2022-02-08-19:14:02,10.1.1.3,35,0.010,0.010,0.010,0.000,0.000,0.000
1644347643016505088,2022-02-08-19:14:03,10.1.1.3,-6,0.010,0.010,0.010,0.000,0.000,0.000
1644347643155545856,2022-02-08-19:14:03,10.1.1.3,34,-0.010,-0.010,-0.010,0.000,0.000,0.000
1644347643256694016,2022-02-08-19:14:03,10.1.1.3,32,-0.020,-0.020,-0.020,0.000,0.000,0.000
1644347643356146176,2022-02-08-19:14:03,10.1.1.3,31,-0.030,-0.030,-0.030,0.000,0.000,0.000
1644347643455956992,2022-02-08-19:14:03,10.1.1.3,30,-0.040,-0.040,-0.040,0.000,0.000,0.000
1644347643556153088,2022-02-08-19:14:03,10.1.1.3,30,-0.050,-0.050,-0.050,0.000,0.000,0.000
1644347643656257024,2022-02-08-19:14:03,10.1.1.3,29,-0.060,-0.060,-0.060,0.000,0.000,0.000
1644347643756395008,2022-02-08-19:14:03,10.1.1.3,28,-0.070,-0.070,-0.070,0.000,0.000,0.000
1644347643856395008,2022-02-08-19:14:03,10.1.1.3,28,-0.080,-0.080,-0.080,0.000,0.000,0.000
1644347643955854848,2022-02-08-19:14:03,10.1.1.3,27,-0.090,-0.090,-0.090,0.000,0.000,0.000
1644347644056200960,2022-02-08-19:14:04,10.1.1.3,26,-0.100,-0.100,-0.100,0.000,0.000,0.000
1644347644156346112,2022-02-08-19:14:04,10.1.1.3,25,-0.090,-0.090,-0.090,0.000,0.000,0.000
1644347644256418048,2022-02-08-19:14:04,10.1.1.3,22,-0.080,-0.080,-0.080,0.000,0.000,0.000
1644347644355950080,2022-02-08-19:14:04,10.1.1.3,21,-0.070,-0.070,-0.070,0.000,0.000,0.000
1644347644456125952,2022-02-08-19:14:04,10.1.1.3,20,-0.060,-0.060,-0.060,0.000,0.000,0.000
1644347644555635968,2022-02-08-19:14:04,10.1.1.3,19,-0.050,-0.050,-0.050,0.000,0.000,0.000
1644347644675939072,2022-02-08-19:14:04,10.1.1.3,38,-0.040,-0.040,-0.040,0.000,0.000,0.000
1644347644775585024,2022-02-08-19:14:04,10.1.1.3,37,-0.030,-0.030,-0.030,0.000,0.000,0.000
1644347644876340992,2022-02-08-19:14:04,10.1.1.3,36,-0.020,-0.020,-0.020,0.000,0.000,0.000
1644347644975933952,2022-02-08-19:14:04,10.1.1.3,36,-0.010,-0.010,-0.010,0.000,0.000,0.000
1644347645087837952,2022-02-08-19:14:05,10.1.1.3,35,0.000,0.000,0.000,0.000,0.000,0.000
1644347645176028928,2022-02-08-19:14:05,10.1.1.3,31,0.010,0.010,0.010,0.000,0.000,0.000
1644347645289082880,2022-02-08-19:14:05,10.1.1.3,23,0.020,0.020,0.020,0.000,0.000,0.000
1644347645396481024,2022-02-08-19:14:05,10.1.1.3,38,0.030,0.030,0.030,0.000,0.000,0.000
1644347645498567168,2022-02-08-19:14:05,10.1.1.3,37,0.040,0.040,0.040,0.000,0.000,0.000
1644347645595815936,2022-02-08-19:14:05,10.1.1.3,36,0.050,0.050,0.050,0.000,0.000,0.000
1644347645695744000,2022-02-08-19:14:05,10.1.1.3,36,0.060,0.060,0.060,0.000,0.000,0.000
1644347645800601088,2022-02-08-19:14:05,10.1.1.3,35,0.070,0.070,0.070,0.000,0.000,0.000
1644347645896167936,2022-02-08-19:14:05,10.1.1.3,30,0.080,0.080,0.080,0.000,0.000,0.000
1644347645996056064,2022-02-08-19:14:05,10.1.1.3,29,0.090,0.090,0.090,0.000,0.000,0.000
1644347646095730944,2022-02-08-19:14:06,10.1.1.3,28,0.100,0.100,0.100,0.000,0.000,0.000
1644347646195584000,2022-02-08-19:14:06,10.1.1.3,27,0.090,0.090,0.090,0.000,0.000,0.000
1644347646295947008,2022-02-08-19:14:06,10.1.1.3,27,0.080,0.080,0.080,0.000,0.000,0.000
1644347646396141056,2022-02-08-19:14:06,10.1.1.3,26,0.070,0.070,0.070,0.000,0.000,0.000
1644347646497950976,2022-02-08-19:14:06,10.1.1.3,25,0.060,0.060,0.060,0.000,0.000,0.000
1644347646596004096,2022-02-08-19:14:06,10.1.1.3,23,0.050,0.050,0.050,0.000,0.000,0.000
1644347646698353920,2022-02-08-19:14:06,10.1.1.3,22,0.040,0.040,0.040,0.000,0.000,0.000
1644347646796361984,2022-02-08-19:14:06,10.1.1.3,21,0.030,0.030,0.030,0.000,0.000,0.000
1644347646896634112,2022-02-08-19:14:06,10.1.1.3,20,0.020,0.020,0.020,0.000,0.000,0.000
1644347646995650048,2022-02-08-19:14:06,10.1.1.3,20,0.010,0.010,0.010,0.000,0.000,0.000
1644347647097063168,2022-02-08-19:14:07,10.1.1.3,19,0.001,0.001,0.001,0.000,0.000,0.000
1644347647218326016,2022-02-08-19:14:07,10.1.1.3,38,-0.010,-0.010,-0.010,0.000,0.000,0.000
1644347647315756032,2022-02-08-19:14:07,10.1.1.3,37,-0.020,-0.020,-0.020,0.000,0.000,0.000
1644347647416055808,2022-02-08-19:14:07,10.1.1.3,36,-0.030,-0.030,-0.030,0.000,0.000,0.000
1644347647515822848,2022-02-08-19:14:07,10.1.1.3,35,-0.040,-0.040,-0.040,0.000,0.000,0.000
1644347647615870976,2022-02-08-19:14:07,10.1.1.3,34,-0.050,-0.050,-0.050,0.000,0.000,0.000
1644347647716428032,2022-02-08-19:14:07,10.1.1.3,33,-0.060,-0.060,-0.060,0.000,0.000,0.000
1644347647815814912,2022-02-08-19:14:07,10.1.1.3,32,-0.070,-0.070,-0.070,0.000,0.000,0.000
1644347647916454912,2022-02-08-19:14:07,10.1.1.3,31,-0.080,-0.080,-0.080,0.000,0.000,0.000
1644347648015695104,2022-02-08-19:14:08,10.1.1.3,30,-0.090,-0.090,-0.090,0.000,0.000,0.000
1644347648116115968,2022-02-08-19:14:08,10.1.1.3,30,-0.100,-0.100,-0.100,0.000,0.000,0.000
1644347648215890944,2022-02-08-19:14:08,10.1.1.3,29,-0.090,-0.090,-0.090,0.000,0.000,0.000
1644347648316315904,2022-02-08-19:14:08,10.1.1.3,27,-0.080,-0.080,-0.080,0.000,0.000,0.000
1644347648416218112,2022-02-08-19:14:08,10.1.1.3,27,-0.070,-0.070,-0.070,0.000,0.000,0.000
1644347648515863808,2022-02-08-19:14:08,10.1.1.3,26,-0.060,-0.060,-0.060,0.000,0.000,0.000
1644347648616198912,2022-02-08-19:14:08,10.1.1.3,25,-0.050,-0.050,-0.050,0.000,0.000,0.000
1644347648716070912,2022-02-08-19:14:08,10.1.1.3,22,-0.040,-0.040,-0.040,0.000,0.000,0.000
1644347648816030976,2022-02-08-19:14:08,10.1.1.3,21,-0.030,-0.030,-0.030,0.000,0.000,0.000
1644347648916034816,2022-02-08-19:14:08,10.1.1.3,20,-0.020,-0.020,-0.020,0.000,0.000,0.000
1644347649015603968,2022-02-08-19:14:09,10.1.1.3,19,-0.011,-0.011,-0.011,0.000,0.000,0.000
1644347649135778816,2022-02-08-19:14:09,10.1.1.3,38,0.000,0.000,0.000,0.000,0.000,0.000
1644347649235479040,2022-02-08-19:14:09,10.1.1.3,38,0.010,0.010,0.010,0.000,0.000,0.000
1644347649336352000,2022-02-08-19:14:09,10.1.1.3,37,0.020,0.020,0.020,0.000,0.000,0.000
1644347649435623936,2022-02-08-19:14:09,10.1.1.3,36,0.030,0.030,0.030,0.000,0.000,0.000
1644347649535965952,2022-02-08-19:14:09,10.1.1.3,31,0.040,0.040,0.040,0.000,0.000,0.000
1644347649636007936,2022-02-08-19:14:09,10.1.1.3,30,0.050,0.050,0.050,0.000,0.000,0.000
1644347649736460032,2022-02-08-19:14:09,10.1.1.3,29,0.060,0.060,0.060,0.000,0.000,0.000
1644347649836055040,2022-02-08-19:14:09,10.1.1.3,29,0.070,0.070,0.070,0.000,0.000,0.000
1644347649936295936,2022-02-08-19:14:09,10.1.1.3,28,0.080,0.080,0.080,0.000,0.000,0.000
1644347650036526848,2022-02-08-19:14:10,10.1.1.3,27,0.090,0.090,0.090,0.000,0.000,0.000
1644347650135665920,2022-02-08-19:14:10,10.1.1.3,25,0.100,0.100,0.100,0.000,0.000,0.000
1644347650235825152,2022-02-08-19:14:10,10.1.1.3,24,0.090,0.090,0.090,0.000,0.000,0.000
1644347650335612160,2022-02-08-19:14:10,10.1.1.3,23,0.080,0.080,0.080,0.000,0.000,0.000
1644347650436145152,2022-02-08-19:14:10,10.1.1.3,23,0.070,0.070,0.070,0.000,0.000,0.000
1644347650535463168,2022-02-08-19:14:10,10.1.1.3,22,0.060,0.060,0.060,0.000,0.000,0.000
1644347650637509120,2022-02-08-19:14:10,10.1.1.3,20,0.050,0.050,0.050,0.000,0.000,0.000
1644347650764663808,2022-02-08-19:14:10,10.1.1.3,38,0.040,0.040,0.040,0.000,0.000,0.000
1644347650855838976,2022-02-08-19:14:10,10.1.1.3,37,0.030,0.030,0.030,0.000,0.000,0.000
1644347650955864064,2022-02-08-19:14:10,10.1.1.3,37,0.020,0.020,0.020,0.000,0.000,0.000
1644347651057192960,2022-02-08-19:14:11,10.1.1.3,36,0.010,0.010,0.010,0.000,0.000,0.000
1644347651155934208,2022-02-08-19:14:11,10.1.1.3,36,0.000,0.000,0.000,0.000,0.000,0.000
1644347651256829952,2022-02-08-19:14:11,10.1.1.3,35,-0.010,-0.010,-0.010,0.000,0.000,0.000
1644347651355782912,2022-02-08-19:14:11,10.1.1.3,35,-0.020,-0.020,-0.020,0.000,0.000,0.000
1644347651455835136,2022-02-08-19:14:11,10.1.1.3,34,-0.030,-0.030,-0.030,0.000,0.000,0.000
1644347651555819008,2022-02-08-19:14:11,10.1.1.3,32,-0.040,-0.040,-0.040,0.000,0.000,0.000
1644347651656066816,2022-02-08-19:14:11,10.1.1.3,32,-0.050,-0.050,-0.050,0.000,0.000,0.000
1644347651757433856,2022-02-08-19:14:11,10.1.1.3,31,-0.060,-0.060,-0.060,0.000,0.000,0.000
1644347651856587008,2022-02-08-19:14:11,10.1.1.3,30,-0.070,-0.070,-0.070,0.000,0.000,0.000
1644347651955371008,2022-02-08-19:14:11,10.1.1.3,29,-0.080,-0.080,-0.080,0.000,0.000,0.000
1644347652056675840,2022-02-08-19:14:12,10.1.1.3,28,-0.090,-0.090,-0.090,0.000,0.000,0.000
1644347652157046016,2022-02-08-19:14:12,10.1.1.3,26,-0.100,-0.100,-0.100,0.000,0.000,0.000
1644347652256441088,2022-02-08-19:14:12,10.1.1.3,25,-0.090,-0.090,-0.090,0.000,0.000,0.000
1644347652356004096,2022-02-08-19:14:12,10.1.1.3,23,-0.080,-0.080,-0.080,0.000,0.000,0.000
1644347652455725056,2022-02-08-19:14:12,10.1.1.3,23,-0.070,-0.070,-0.070,0.000,0.000,0.000
1644347652556080128,2022-02-08-19:14:12,10.1.1.3,21,-0.060,-0.060,-0.060,0.000,0.000,0.000
1644347652655851008,2022-02-08-19:14:12,10.1.1.3,20,-0.050,-0.050,-0.050,0.000,0.000,0.000
1644347652776180992,2022-02-08-19:14:12,10.1.1.3,38,-0.040,-0.040,-0.040,0.000,0.000,0.000
1644347652876414976,2022-02-08-19:14:12,10.1.1.3,37,-0.030,-0.030,-0.030,0.000,0.000,0.000
1644347652975776000,2022-02-08-19:14:12,10.1.1.3,36,-0.020,-0.020,-0.020,0.000,0.000,0.000
1644347653076824064,2022-02-08-19:14:13,10.1.1.3,36,-0.010,-0.010,-0.010,0.000,0.000,0.000
1644347653176626944,2022-02-08-19:14:13,10.1.1.3,35,0.000,0.000,0.000,0.000,0.000,0.000
1644347653275856128,2022-02-08-19:14:13,10.1.1.3,35,0.010,0.010,0.010,0.000,0.000,0.000
1644347653376455168,2022-02-08-19:14:13,10.1.1.3,33,0.020,0.020,0.020,0.000,0.000,0.000
1644347653475863808,2022-02-08-19:14:13,10.1.1.3,32,0.030,0.030,0.030,0.000,0.000,0.000
1644347653576340992,2022-02-08-19:14:13,10.1.1.3,32,0.040,0.040,0.040,0.000,0.000,0.000
1644347653676289024,2022-02-08-19:14:13,10.1.1.3,31,0.050,0.050,0.050,0.000,0.000,0.000
1644347653776694016,2022-02-08-19:14:13,10.1.1.3,30,0.060,0.060,0.060,0.000,0.000,0.000
1644347653875719168,2022-02-08-19:14:13,10.1.1.3,29,0.070,0.070,0.070,0.000,0.000,0.000
1644347653975719936,2022-02-08-19:14:13,10.1.1.3,28,0.080,0.080,0.080,0.000,0.000,0.000
1644347654077254912,2022-02-08-19:14:14,10.1.1.3,26,0.090,0.090,0.090,0.000,0.000,0.000
1644347654196204032,2022-02-08-19:14:14,10.1.1.3,38,0.100,0.100,0.100,0.000,0.000,0.000
1644347654295873024,2022-02-08-19:14:14,10.1.1.3,37,0.090,0.090,0.090,0.000,0.000,0.000
1644347654395657984,2022-02-08-19:14:14,10.1.1.3,36,0.080,0.080,0.080,0.000,0.000,0.000
1644347654495479040,2022-02-08-19:14:14,10.1.1.3,36,0.070,0.070,0.070,0.000,0.000,0.000
1644347654596092928,2022-02-08-19:14:14,10.1.1.3,35,0.060,0.060,0.060,0.000,0.000,0.000
1644347654695880960,2022-02-08-19:14:14,10.1.1.3,34,0.050,0.050,0.050,0.000,0.000,0.000
1644347654796220928,2022-02-08-19:14:14,10.1.1.3,33,0.040,0.040,0.040,0.000,0.000,0.000
1644347654896157952,2022-02-08-19:14:14,10.1.1.3,32,0.030,0.030,0.030,0.000,0.000,0.000
1644347654996414976,2022-02-08-19:14:14,10.1.1.3,32,0.020,0.020,0.020,0.000,0.000,0.000
1644347655099548928,2022-02-08-19:14:15,10.1.1.3,30,0.010,0.010,0.010,0.000,0.000,0.000
1644347655196464128,2022-02-08-19:14:15,10.1.1.3,29,0.000,0.000,0.000,0.000,0.000,0.000
1644347655296519168,2022-02-08-19:14:15,10.1.1.3,29,-0.010,-0.010,-0.010,0.000,0.000,0.000
1644347655395991040,2022-02-08-19:14:15,10.1.1.3,27,-0.020,-0.020,-0.020,0.000,0.000,0.000
1644347655495758080,2022-02-08-19:14:15,10.1.1.3,26,-0.030,-0.030,-0.030,0.000,0.000,0.000
1644347655595725056,2022-02-08-19:14:15,10.1.1.3,26,-0.040,-0.040,-0.040,0.000,0.000,0.000
1644347655696809984,2022-02-08-19:14:15,10.1.1.3,24,-0.050,-0.050,-0.050,0.000,0.000,0.000
1644347655796140032,2022-02-08-19:14:15,10.1.1.3,22,-0.060,-0.060,-0.060,0.000,0.000,0.000
1644347655895858176,2022-02-08-19:14:15,10.1.1.3,22,-0.070,-0.070,-0.070,0.000,0.000,0.000
1644347655995749120,2022-02-08-19:14:15,10.1.1.3,21,-0.080,-0.080,-0.080,0.000,0.000,0.000
1644347656097564928,2022-02-08-19:14:16,10.1.1.3,20,-0.090,-0.090,-0.090,0.000,0.000,0.000
1644347656196405760,2022-02-08-19:14:16,10.1.1.3,19,-0.100,-0.100,-0.100,0.000,0.000,0.000
1644347656297171968,2022-02-08-19:14:16,10.1.1.3,18,-0.091,-0.091,-0.091,0.000,0.000,0.000
1644347656415962880,2022-02-08-19:14:16,10.1.1.3,37,-0.080,-0.080,-0.080,0.000,0.000,0.000
1644347656516154112,2022-02-08-19:14:16,10.1.1.3,36,-0.070,-0.070,-0.070,0.000,0.000,0.000
1644347656615875840,2022-02-08-19:14:16,10.1.1.3,35,-0.060,-0.060,-0.060,0.000,0.000,0.000
1644347656715835136,2022-02-08-19:14:16,10.1.1.3,32,-0.050,-0.050,-0.050,0.000,0.000,0.000
1644347656815732992,2022-02-08-19:14:16,10.1.1.3,28,-0.040,-0.040,-0.040,0.000,0.000,0.000
1644347656915574016,2022-02-08-19:14:16,10.1.1.3,27,-0.030,-0.030,-0.030,0.000,0.000,0.000
1644347657016073984,2022-02-08-19:14:17,10.1.1.3,27,-0.020,-0.020,-0.020,0.000,0.000,0.000
1644347657116292864,2022-02-08-19:14:17,10.1.1.3,26,-0.010,-0.010,-0.010,0.000,0.000,0.000
1644347657216203008,2022-02-08-19:14:17,10.1.1.3,26,0.000,0.000,0.000,0.000,0.000,0.000
1644347657316024064,2022-02-08-19:14:17,10.1.1.3,25,0.010,0.010,0.010,0.000,0.000,0.000
1644347657416910848,2022-02-08-19:14:17,10.1.1.3,24,0.020,0.020,0.020,0.000,0.000,0.000
1644347657515707904,2022-02-08-19:14:17,10.1.1.3,23,0.030,0.030,0.030,0.000,0.000,0.000
1644347657616459008,2022-02-08-19:14:17,10.1.1.3,22,0.040,0.040,0.040,0.000,0.000,0.000
1644347657715976960,2022-02-08-19:14:17,10.1.1.3,21,0.050,0.050,0.050,0.000,0.000,0.000
1644347657815769856,2022-02-08-19:14:17,10.1.1.3,20,0.060,0.060,0.060,0.000,0.000,0.000
1644347657917231104,2022-02-08-19:14:17,10.1.1.3,20,0.070,0.070,0.070,0.000,0.000,0.000
1644347658016186880,2022-02-08-19:14:18,10.1.1.3,19,0.079,0.079,0.079,0.000,0.000,0.000
1644347658136102912,2022-02-08-19:14:18,10.1.1.3,38,0.090,0.090,0.090,0.000,0.000,0.000
1644347658235771904,2022-02-08-19:14:18,10.1.1.3,38,0.100,0.100,0.100,0.000,0.000,0.000
1644347658335975936,2022-02-08-19:14:18,10.1.1.3,37,0.090,0.090,0.090,0.000,0.000,0.000
1644347658435444992,2022-02-08-19:14:18,10.1.1.3,36,0.080,0.080,0.080,0.000,0.000,0.000
1644347658538048000,2022-02-08-19:14:18,10.1.1.3,35,0.070,0.070,0.070,0.000,0.000,0.000
1644347658636670208,2022-02-08-19:14:18,10.1.1.3,34,0.060,0.060,0.060,0.000,0.000,0.000
1644347658736183040,2022-02-08-19:14:18,10.1.1.3,34,0.050,0.050,0.050,0.000,0.000,0.000
1644347658835581184,2022-02-08-19:14:18,10.1.1.3,33,0.040,0.040,0.040,0.000,0.000,0.000
1644347658935569152,2022-02-08-19:14:18,10.1.1.3,32,0.030,0.030,0.030,0.000,0.000,0.000
1644347659036303104,2022-02-08-19:14:19,10.1.1.3,31,0.020,0.020,0.020,0.000,0.000,0.000
1644347659109189120,2022-02-08-19:14:19,10.1.1.3,-13,0.020,0.020,0.020,0.000,0.000,0.000
1644347659236009984,2022-02-08-19:14:19,10.1.1.3,26,0.000,0.000,0.000,0.000,0.000,0.000
1644347659335254784,2022-02-08-19:14:19,10.1.1.3,25,-0.010,-0.010,-0.010,0.000,0.000,0.000
1644347659436003840,2022-02-08-19:14:19,10.1.1.3,24,-0.020,-0.020,-0.020,0.000,0.000,0.000
1644347659535837952,2022-02-08-19:14:19,10.1.1.3,23,-0.030,-0.030,-0.030,0.000,0.000,0.000
1644347659635776000,2022-02-08-19:14:19,10.1.1.3,23,-0.040,-0.040,-0.040,0.000,0.000,0.000
1644347659735868928,2022-02-08-19:14:19,10.1.1.3,22,-0.050,-0.050,-0.050,0.000,0.000,0.000
1644347659835810816,2022-02-08-19:14:19,10.1.1.3,22,-0.060,-0.060,-0.060,0.000,0.000,0.000
1644347659936153856,2022-02-08-19:14:19,10.1.1.3,21,-0.070,-0.070,-0.070,0.000,0.000,0.000
1644347660035873024,2022-02-08-19:14:20,10.1.1.3,21,-0.080,-0.080,-0.080,0.000,0.000,0.000
1644347660155777024,2022-02-08-19:14:20,10.1.1.3,39,-0.090,-0.090,-0.090,0.000,0.000,0.000
1644347660256353024,2022-02-08-19:14:20,10.1.1.3,38,-0.100,-0.100,-0.100,0.000,0.000,0.000
1644347660356598016,2022-02-08-19:14:20,10.1.1.3,38,-0.090,-0.090,-0.090,0.000,0.000,0.000
1644347660457917952,2022-02-08-19:14:20,10.1.1.3,37,-0.080,-0.080,-0.080,0.000,0.000,0.000
1644347660555539968,2022-02-08-19:14:20,10.1.1.3,36,-0.070,-0.070,-0.070,0.000,0.000,0.000
1644347660659003904,2022-02-08-19:14:20,10.1.1.3,35,-0.060,-0.060,-0.060,0.000,0.000,0.000
1644347660759190016,2022-02-08-19:14:20,10.1.1.3,34,-0.050,-0.050,-0.050,0.000,0.000,0.000
1644347660855645952,2022-02-08-19:14:20,10.1.1.3,34,-0.040,-0.040,-0.040,0.000,0.000,0.000
1644347660955909120,2022-02-08-19:14:20,10.1.1.3,32,-0.030,-0.030,-0.030,0.000,0.000,0.000
1644347661056220160,2022-02-08-19:14:21,10.1.1.3,31,-0.020,-0.020,-0.020,0.000,0.000,0.000
1644347661156061952,2022-02-08-19:14:21,10.1.1.3,31,-0.010,-0.010,-0.010,0.000,0.000,0.000
1644347661257528064,2022-02-08-19:14:21,10.1.1.3,29,0.000,0.000,0.000,0.000,0.000,0.000
1644347661355891968,2022-02-08-19:14:21,10.1.1.3,28,0.010,0.010,0.010,0.000,0.000,0.000
1644347661456118016,2022-02-08-19:14:21,10.1.1.3,28,0.020,0.020,0.020,0.000,0.000,0.000
1644347661556041984,2022-02-08-19:14:21,10.1.1.3,26,0.030,0.030,0.030,0.000,0.000,0.000
1644347661657659904,2022-02-08-19:14:21,10.1.1.3,24,0.040,0.040,0.040,0.000,0.000,0.000
1644347661755598080,2022-02-08-19:14:21,10.1.1.3,23,0.050,0.050,0.050,0.000,0.000,0.000
1644347661856684800,2022-02-08-19:14:21,10.1.1.3,22,0.060,0.060,0.060,0.000,0.000,0.000
1644347661956332800,2022-02-08-19:14:21,10.1.1.3,21,0.070,0.070,0.070,0.000,0.000,0.000
1644347662055845120,2022-02-08-19:14:22,10.1.1.3,21,0.080,0.080,0.080,0.000,0.000,0.000
1644347662155909120,2022-02-08-19:14:22,10.1.1.3,20,0.090,0.090,0.090,0.000,0.000,0.000
1644347662256339200,2022-02-08-19:14:22,10.1.1.3,20,0.100,0.100,0.100,0.000,0.000,0.000
1644347662356733184,2022-02-08-19:14:22,10.1.1.3,19,0.091,0.091,0.091,0.000,0.000,0.000
1644347662476684032,2022-02-08-19:14:22,10.1.1.3,38,0.080,0.080,0.080,0.000,0.000,0.000
1644347662575963136,2022-02-08-19:14:22,10.1.1.3,37,0.070,0.070,0.070,0.000,0.000,0.000
1644347662676031232,2022-02-08-19:14:22,10.1.1.3,37,0.060,0.060,0.060,0.000,0.000,0.000
1644347662775856128,2022-02-08-19:14:22,10.1.1.3,36,0.050,0.050,0.050,0.000,0.000,0.000
1644347662876635904,2022-02-08-19:14:22,10.1.1.3,35,0.040,0.040,0.040,0.000,0.000,0.000
1644347663076468992,2022-02-08-19:14:23,10.1.1.3,24,0.020,0.020,0.020,0.000,0.000,0.000
1644347663175884032,2022-02-08-19:14:23,10.1.1.3,21,0.010,0.010,0.010,0.000,0.000,0.000
1644347663277478912,2022-02-08-19:14:23,10.1.1.3,20,0.000,0.000,0.000,0.000,0.000,0.000
1644347663375715072,2022-02-08-19:14:23,10.1.1.3,19,-0.009,-0.009,-0.009,0.000,0.000,0.000
1644347663496082176,2022-02-08-19:14:23,10.1.1.3,38,-0.020,-0.020,-0.020,0.000,0.000,0.000
1644347663595889152,2022-02-08-19:14:23,10.1.1.3,36,-0.030,-0.030,-0.030,0.000,0.000,0.000
1644347663656730880,2022-02-08-19:14:23,10.1.1.3,-6,-0.030,-0.030,-0.030,0.000,0.000,0.000
1644347663796561920,2022-02-08-19:14:23,10.1.1.3,32,-0.050,-0.050,-0.050,0.000,0.000,0.000
1644347663923234048,2022-02-08-19:14:23,10.1.1.3,31,-0.060,-0.060,-0.060,0.000,0.000,0.000
1644347663995648000,2022-02-08-19:14:23,10.1.1.3,30,-0.070,-0.070,-0.070,0.000,0.000,0.000
1644347664096556800,2022-02-08-19:14:24,10.1.1.3,29,-0.080,-0.080,-0.080,0.000,0.000,0.000
1644347664195852032,2022-02-08-19:14:24,10.1.1.3,27,-0.090,-0.090,-0.090,0.000,0.000,0.000
1644347664296094976,2022-02-08-19:14:24,10.1.1.3,26,-0.100,-0.100,-0.100,0.000,0.000,0.000
1644347664395782912,2022-02-08-19:14:24,10.1.1.3,25,-0.090,-0.090,-0.090,0.000,0.000,0.000
1644347664498036992,2022-02-08-19:14:24,10.1.1.3,24,-0.080,-0.080,-0.080,0.000,0.000,0.000
1644347664596168960,2022-02-08-19:14:24,10.1.1.3,22,-0.070,-0.070,-0.070,0.000,0.000,0.000
1644347664696261888,2022-02-08-19:14:24,10.1.1.3,22,-0.060,-0.060,-0.060,0.000,0.000,0.000
1644347664795783168,2022-02-08-19:14:24,10.1.1.3,21,-0.050,-0.050,-0.050,0.000,0.000,0.000
1644347664898678016,2022-02-08-19:14:24,10.1.1.3,21,-0.040,-0.040,-0.040,0.000,0.000,0.000
1644347664996640000,2022-02-08-19:14:24,10.1.1.3,20,-0.030,-0.030,-0.030,0.000,0.000,0.000
1644347665095776000,2022-02-08-19:14:25,10.1.1.3,19,-0.020,-0.020,-0.020,0.000,0.000,0.000
1644347665195911936,2022-02-08-19:14:25,10.1.1.3,19,-0.011,-0.011,-0.011,0.000,0.000,0.000
1644347665315994112,2022-02-08-19:14:25,10.1.1.3,39,0.000,0.000,0.000,0.000,0.000,0.000
1644347665415945984,2022-02-08-19:14:25,10.1.1.3,36,0.010,0.010,0.010,0.000,0.000,0.000
1644347665515821056,2022-02-08-19:14:25,10.1.1.3,36,0.020,0.020,0.020,0.000,0.000,0.000
1644347665615533056,2022-02-08-19:14:25,10.1.1.3,35,0.030,0.030,0.030,0.000,0.000,0.000
1644347665715665152,2022-02-08-19:14:25,10.1.1.3,34,0.040,0.040,0.040,0.000,0.000,0.000
1644347665815730176,2022-02-08-19:14:25,10.1.1.3,34,0.050,0.050,0.050,0.000,0.000,0.000
1644347665915782912,2022-02-08-19:14:25,10.1.1.3,33,0.060,0.060,0.060,0.000,0.000,0.000
1644347666018487808,2022-02-08-19:14:26,10.1.1.3,28,0.070,0.070,0.070,0.000,0.000,0.000
1644347666115313920,2022-02-08-19:14:26,10.1.1.3,26,0.080,0.080,0.080,0.000,0.000,0.000
1644347666215687936,2022-02-08-19:14:26,10.1.1.3,25,0.090,0.090,0.090,0.000,0.000,0.000
1644347666315397888,2022-02-08-19:14:26,10.1.1.3,24,0.100,0.100,0.100,0.000,0.000,0.000
1644347666415884032,2022-02-08-19:14:26,10.1.1.3,22,0.090,0.090,0.090,0.000,0.000,0.000
1644347666516037888,2022-02-08-19:14:26,10.1.1.3,21,0.080,0.080,0.080,0.000,0.000,0.000
1644347666616487936,2022-02-08-19:14:26,10.1.1.3,20,0.070,0.070,0.070,0.000,0.000,0.000
1644347666716148992,2022-02-08-19:14:26,10.1.1.3,19,0.060,0.060,0.060,0.000,0.000,0.000
1644347666815826944,2022-02-08-19:14:26,10.1.1.3,18,0.051,0.051,0.051,0.000,0.000,0.000
1644347666935309056,2022-02-08-19:14:26,10.1.1.3,36,0.040,0.040,0.040,0.000,0.000,0.000
1644347667035439872,2022-02-08-19:14:27,10.1.1.3,36,0.030,0.030,0.030,0.000,0.000,0.000
1644347667135756032,2022-02-08-19:14:27,10.1.1.3,35,0.020,0.020,0.020,0.000,0.000,0.000
1644347667235988992,2022-02-08-19:14:27,10.1.1.3,34,0.010,0.010,0.010,0.000,0.000,0.000
1644347667336433920,2022-02-08-19:14:27,10.1.1.3,33,0.000,0.000,0.000,0.000,0.000,0.000
1644347667454060032,2022-02-08-19:14:27,10.1.1.3,32,-0.010,-0.010,-0.010,0.000,0.000,0.000
1644347667536596992,2022-02-08-19:14:27,10.1.1.3,28,-0.020,-0.020,-0.020,0.000,0.000,0.000
1644347667635606016,2022-02-08-19:14:27,10.1.1.3,23,-0.030,-0.030,-0.030,0.000,0.000,0.000
1644347667737361920,2022-02-08-19:14:27,10.1.1.3,21,-0.040,-0.040,-0.040,0.000,0.000,0.000
1644347667835735040,2022-02-08-19:14:27,10.1.1.3,21,-0.050,-0.050,-0.050,0.000,0.000,0.000
1644347667935905024,2022-02-08-19:14:27,10.1.1.3,20,-0.060,-0.060,-0.060,0.000,0.000,0.000
1644347668036048896,2022-02-08-19:14:28,10.1.1.3,19,-0.069,-0.069,-0.069,0.000,0.000,0.000
1644347668155795968,2022-02-08-19:14:28,10.1.1.3,38,-0.080,-0.080,-0.080,0.000,0.000,0.000
1644347668256046080,2022-02-08-19:14:28,10.1.1.3,37,-0.090,-0.090,-0.090,0.000,0.000,0.000
1644347668356414976,2022-02-08-19:14:28,10.1.1.3,36,-0.100,-0.100,-0.100,0.000,0.000,0.000
1644347668455723008,2022-02-08-19:14:28,10.1.1.3,35,-0.090,-0.090,-0.090,0.000,0.000,0.000
1644347668521261056,2022-02-08-19:14:28,10.1.1.3,-6,-0.090,-0.090,-0.090,0.000,0.000,0.000
1644347668655851008,2022-02-08-19:14:28,10.1.1.3,31,-0.070,-0.070,-0.070,0.000,0.000,0.000
1644347668756412928,2022-02-08-19:14:28,10.1.1.3,29,-0.060,-0.060,-0.060,0.000,0.000,0.000
1644347668856616960,2022-02-08-19:14:28,10.1.1.3,28,-0.050,-0.050,-0.050,0.000,0.000,0.000
1644347668956324096,2022-02-08-19:14:28,10.1.1.3,27,-0.040,-0.040,-0.040,0.000,0.000,0.000
1644347669055852800,2022-02-08-19:14:29,10.1.1.3,26,-0.030,-0.030,-0.030,0.000,0.000,0.000
1644347669155915008,2022-02-08-19:14:29,10.1.1.3,25,-0.020,-0.020,-0.020,0.000,0.000,0.000
1644347669256717824,2022-02-08-19:14:29,10.1.1.3,24,-0.010,-0.010,-0.010,0.000,0.000,0.000
1644347669356216064,2022-02-08-19:14:29,10.1.1.3,23,0.000,0.000,0.000,0.000,0.000,0.000
1644347669456165120,2022-02-08-19:14:29,10.1.1.3,22,0.010,0.010,0.010,0.000,0.000,0.000
1644347669556091904,2022-02-08-19:14:29,10.1.1.3,21,0.020,0.020,0.020,0.000,0.000,0.000
1644347669657607936,2022-02-08-19:14:29,10.1.1.3,21,0.030,0.030,0.030,0.000,0.000,0.000
1644347669756457984,2022-02-08-19:14:29,10.1.1.3,20,0.040,0.040,0.040,0.000,0.000,0.000
1644347669856049920,2022-02-08-19:14:29,10.1.1.3,20,0.050,0.050,0.050,0.000,0.000,0.000
1644347669955673088,2022-02-08-19:14:29,10.1.1.3,19,0.059,0.059,0.059,0.000,0.000,0.000
1644347670076551936,2022-02-08-19:14:30,10.1.1.3,38,0.070,0.070,0.070,0.000,0.000,0.000
1644347670176166912,2022-02-08-19:14:30,10.1.1.3,38,0.080,0.080,0.080,0.000,0.000,0.000
1644347670276051968,2022-02-08-19:14:30,10.1.1.3,37,0.090,0.090,0.090,0.000,0.000,0.000
1644347670375952128,2022-02-08-19:14:30,10.1.1.3,36,0.100,0.100,0.100,0.000,0.000,0.000
1644347670476167936,2022-02-08-19:14:30,10.1.1.3,35,0.090,0.090,0.090,0.000,0.000,0.000
1644347670576129792,2022-02-08-19:14:30,10.1.1.3,34,0.080,0.080,0.080,0.000,0.000,0.000
1644347670676558080,2022-02-08-19:14:30,10.1.1.3,34,0.070,0.070,0.070,0.000,0.000,0.000
1644347670775755008,2022-02-08-19:14:30,10.1.1.3,33,0.060,0.060,0.060,0.000,0.000,0.000
1644347670876129024,2022-02-08-19:14:30,10.1.1.3,32,0.050,0.050,0.050,0.000,0.000,0.000
1644347670977689856,2022-02-08-19:14:30,10.1.1.3,32,0.040,0.040,0.040,0.000,0.000,0.000
1644347671076345088,2022-02-08-19:14:31,10.1.1.3,31,0.030,0.030,0.030,0.000,0.000,0.000
1644347671175949056,2022-02-08-19:14:31,10.1.1.3,30,0.020,0.020,0.020,0.000,0.000,0.000
1644347671276449024,2022-02-08-19:14:31,10.1.1.3,30,0.010,0.010,0.010,0.000,0.000,0.000
1644347671375812096,2022-02-08-19:14:31,10.1.1.3,29,0.000,0.000,0.000,0.000,0.000,0.000
1644347671475999232,2022-02-08-19:14:31,10.1.1.3,28,-0.010,-0.010,-0.010,0.000,0.000,0.000
1644347671576129792,2022-02-08-19:14:31,10.1.1.3,28,-0.020,-0.020,-0.020,0.000,0.000,0.000
1644347671676187904,2022-02-08-19:14:31,10.1.1.3,27,-0.030,-0.030,-0.030,0.000,0.000,0.000
1644347671777856000,2022-02-08-19:14:31,10.1.1.3,25,-0.040,-0.040,-0.040,0.000,0.000,0.000
1644347671876701184,2022-02-08-19:14:31,10.1.1.3,19,-0.050,-0.050,-0.050,0.000,0.000,0.000
1644347671996112128,2022-02-08-19:14:31,10.1.1.3,38,-0.060,-0.060,-0.060,0.000,0.000,0.000
1644347672096173056,2022-02-08-19:14:32,10.1.1.3,38,-0.070,-0.070,-0.070,0.000,0.000,0.000
1644347672196643072,2022-02-08-19:14:32,10.1.1.3,36,-0.080,-0.080,-0.080,0.000,0.000,0.000
1644347672298396160,2022-02-08-19:14:32,10.1.1.3,36,-0.090,-0.090,-0.090,0.000,0.000,0.000
1644347672396444160,2022-02-08-19:14:32,10.1.1.3,33,-0.100,-0.100,-0.100,0.000,0.000,0.000
1644347672495678976,2022-02-08-19:14:32,10.1.1.3,32,-0.090,-0.090,-0.090,0.000,0.000,0.000
1644347672595837184,2022-02-08-19:14:32,10.1.1.3,32,-0.080,-0.080,-0.080,0.000,0.000,0.000
1644347672699186944,2022-02-08-19:14:32,10.1.1.3,30,-0.070,-0.070,-0.070,0.000,0.000,0.000
1644347672798777088,2022-02-08-19:14:32,10.1.1.3,26,-0.060,-0.060,-0.060,0.000,0.000,0.000
1644347672911122944,2022-02-08-19:14:32,10.1.1.3,39,-0.050,-0.050,-0.050,0.000,0.000,0.000
1644347672997596928,2022-02-08-19:14:32,10.1.1.3,24,-0.040,-0.040,-0.040,0.000,0.000,0.000
1644347673095597056,2022-02-08-19:14:33,10.1.1.3,23,-0.030,-0.030,-0.030,0.000,0.000,0.000
1644347673195930880,2022-02-08-19:14:33,10.1.1.3,22,-0.020,-0.020,-0.020,0.000,0.000,0.000
1644347673296432128,2022-02-08-19:14:33,10.1.1.3,22,-0.010,-0.010,-0.010,0.000,0.000,0.000
1644347673397007872,2022-02-08-19:14:33,10.1.1.3,21,0.000,0.000,0.000,0.000,0.000,0.000
1644347673496908800,2022-02-08-19:14:33,10.1.1.3,20,0.010,0.010,0.010,0.000,0.000,0.000
1644347673598557952,2022-02-08-19:14:33,10.1.1.3,22,0.020,0.020,0.020,0.000,0.000,0.000
1644347673715814144,2022-02-08-19:14:33,10.1.1.3,38,0.030,0.030,0.030,0.000,0.000,0.000
1644347673816454912,2022-02-08-19:14:33,10.1.1.3,36,0.040,0.040,0.040,0.000,0.000,0.000
1644347673916614144,2022-02-08-19:14:33,10.1.1.3,36,0.050,0.050,0.050,0.000,0.000,0.000
1644347674015768064,2022-02-08-19:14:34,10.1.1.3,35,0.060,0.060,0.060,0.000,0.000,0.000
1644347674116462080,2022-02-08-19:14:34,10.1.1.3,35,0.070,0.070,0.070,0.000,0.000,0.000
1644347674216363008,2022-02-08-19:14:34,10.1.1.3,34,0.080,0.080,0.080,0.000,0.000,0.000
1644347674315713792,2022-02-08-19:14:34,10.1.1.3,34,0.090,0.090,0.090,0.000,0.000,0.000
1644347674415728128,2022-02-08-19:14:34,10.1.1.3,34,0.100,0.100,0.100,0.000,0.000,0.000
1644347674515959040,2022-02-08-19:14:34,10.1.1.3,33,0.090,0.090,0.090,0.000,0.000,0.000
1644347674615730944,2022-02-08-19:14:34,10.1.1.3,33,0.080,0.080,0.080,0.000,0.000,0.000
1644347674715981056,2022-02-08-19:14:34,10.1.1.3,32,0.070,0.070,0.070,0.000,0.000,0.000
1644347674815844096,2022-02-08-19:14:34,10.1.1.3,32,0.060,0.060,0.060,0.000,0.000,0.000
1644347674915633920,2022-02-08-19:14:34,10.1.1.3,31,0.050,0.050,0.050,0.000,0.000,0.000
1644347675016232960,2022-02-08-19:14:35,10.1.1.3,31,0.040,0.040,0.040,0.000,0.000,0.000
1644347675116492032,2022-02-08-19:14:35,10.1.1.3,30,0.030,0.030,0.030,0.000,0.000,0.000
1644347675217082880,2022-02-08-19:14:35,10.1.1.3,29,0.020,0.020,0.020,0.000,0.000,0.000
1644347675316009984,2022-02-08-19:14:35,10.1.1.3,25,0.010,0.010,0.010,0.000,0.000,0.000
1644347675416024064,2022-02-08-19:14:35,10.1.1.3,22,0.000,0.000,0.000,0.000,0.000,0.000
1644347675516164096,2022-02-08-19:14:35,10.1.1.3,22,-0.010,-0.010,-0.010,0.000,0.000,0.000
1644347675620273152,2022-02-08-19:14:35,10.1.1.3,22,-0.020,-0.020,-0.020,0.000,0.000,0.000
1644347675737061120,2022-02-08-19:14:35,10.1.1.3,38,-0.030,-0.030,-0.030,0.000,0.000,0.000
1644347675837024000,2022-02-08-19:14:35,10.1.1.3,38,-0.040,-0.040,-0.040,0.000,0.000,0.000
1644347675935895808,2022-02-08-19:14:35,10.1.1.3,36,-0.050,-0.050,-0.050,0.000,0.000,0.000
1644347676036240128,2022-02-08-19:14:36,10.1.1.3,36,-0.060,-0.060,-0.060,0.000,0.000,0.000
1644347676136680960,2022-02-08-19:14:36,10.1.1.3,35,-0.070,-0.070,-0.070,0.000,0.000,0.000
1644347676235984128,2022-02-08-19:14:36,10.1.1.3,35,-0.080,-0.080,-0.080,0.000,0.000,0.000
1644347676335969024,2022-02-08-19:14:36,10.1.1.3,34,-0.090,-0.090,-0.090,0.000,0.000,0.000
1644347676436232960,2022-02-08-19:14:36,10.1.1.3,34,-0.100,-0.100,-0.100,0.000,0.000,0.000
1644347676535767040,2022-02-08-19:14:36,10.1.1.3,33,-0.090,-0.090,-0.090,0.000,0.000,0.000
1644347676636188928,2022-02-08-19:14:36,10.1.1.3,32,-0.080,-0.080,-0.080,0.000,0.000,0.000
1644347676736110080,2022-02-08-19:14:36,10.1.1.3,32,-0.070,-0.070,-0.070,0.000,0.000,0.000
1644347676836030976,2022-02-08-19:14:36,10.1.1.3,31,-0.060,-0.060,-0.060,0.000,0.000,0.000
1644347676976523008,2022-02-08-19:14:36,10.1.1.3,28,-0.050,-0.050,-0.050,0.000,0.000,0.000
1644347677004329984,2022-02-08-19:14:37,10.1.1.3,-13,-0.050,-0.050,-0.050,0.000,0.000,0.000
1644347677138323968,2022-02-08-19:14:37,10.1.1.3,19,-0.030,-0.030,-0.030,0.000,0.000,0.000
1644347677256689152,2022-02-08-19:14:37,10.1.1.3,38,-0.020,-0.020,-0.020,0.000,0.000,0.000
1644347677356521984,2022-02-08-19:14:37,10.1.1.3,38,-0.010,-0.010,-0.010,0.000,0.000,0.000
1644347677455802880,2022-02-08-19:14:37,10.1.1.3,37,0.000,0.000,0.000,0.000,0.000,0.000
1644347677555900160,2022-02-08-19:14:37,10.1.1.3,37,0.010,0.010,0.010,0.000,0.000,0.000
1644347677655545856,2022-02-08-19:14:37,10.1.1.3,36,0.020,0.020,0.020,0.000,0.000,0.000
1644347677756162816,2022-02-08-19:14:37,10.1.1.3,35,0.030,0.030,0.030,0.000,0.000,0.000
1644347677855860992,2022-02-08-19:14:37,10.1.1.3,35,0.040,0.040,0.040,0.000,0.000,0.000
1644347677955426048,2022-02-08-19:14:37,10.1.1.3,34,0.050,0.050,0.050,0.000,0.000,0.000
1644347678055890176,2022-02-08-19:14:38,10.1.1.3,34,0.060,0.060,0.060,0.000,0.000,0.000
1644347678155831040,2022-02-08-19:14:38,10.1.1.3,33,0.070,0.070,0.070,0.000,0.000,0.000
1644347678256932864,2022-02-08-19:14:38,10.1.1.3,33,0.080,0.080,0.080,0.000,0.000,0.000
1644347678355758848,2022-02-08-19:14:38,10.1.1.3,32,0.090,0.090,0.090,0.000,0.000,0.000
1644347678455493888,2022-02-08-19:14:38,10.1.1.3,32,0.100,0.100,0.100,0.000,0.000,0.000
1644347678555560192,2022-02-08-19:14:38,10.1.1.3,32,0.090,0.090,0.090,0.000,0.000,0.000
1644347678656148992,2022-02-08-19:14:38,10.1.1.3,31,0.080,0.080,0.080,0.000,0.000,0.000
1644347678756332032,2022-02-08-19:14:38,10.1.1.3,31,0.070,0.070,0.070,0.000,0.000,0.000
1644347678857242112,2022-02-08-19:14:38,10.1.1.3,30,0.060,0.060,0.060,0.000,0.000,0.000
1644347678956227072,2022-02-08-19:14:38,10.1.1.3,29,0.050,0.050,0.050,0.000,0.000,0.000
1644347679056201984,2022-02-08-19:14:39,10.1.1.3,28,0.040,0.040,0.040,0.000,0.000,0.000
1644347679155597056,2022-02-08-19:14:39,10.1.1.3,28,0.030,0.030,0.030,0.000,0.000,0.000
1644347679256272128,2022-02-08-19:14:39,10.1.1.3,27,0.020,0.020,0.020,0.000,0.000,0.000
1644347679356180992,2022-02-08-19:14:39,10.1.1.3,27,0.010,0.010,0.010,0.000,0.000,0.000
1644347679455697152,2022-02-08-19:14:39,10.1.1.3,26,0.000,0.000,0.000,0.000,0.000,0.000
1644347679556440064,2022-02-08-19:14:39,10.1.1.3,25,-0.010,-0.010,-0.010,0.000,0.000,0.000
1644347679655482880,2022-02-08-19:14:39,10.1.1.3,24,-0.020,-0.020,-0.020,0.000,0.000,0.000
1644347679755418112,2022-02-08-19:14:39,10.1.1.3,24,-0.030,-0.030,-0.030,0.000,0.000,0.000
1644347679855900160,2022-02-08-19:14:39,10.1.1.3,23,-0.040,-0.040,-0.040,0.000,0.000,0.000
1644347679955232000,2022-02-08-19:14:39,10.1.1.3,23,-0.050,-0.050,-0.050,0.000,0.000,0.000
1644347680055887872,2022-02-08-19:14:40,10.1.1.3,22,-0.060,-0.060,-0.060,0.000,0.000,0.000
1644347680156069120,2022-02-08-19:14:40,10.1.1.3,22,-0.070,-0.070,-0.070,0.000,0.000,0.000
1644347680256314112,2022-02-08-19:14:40,10.1.1.3,21,-0.080,-0.080,-0.080,0.000,0.000,0.000
1644347680355581952,2022-02-08-19:14:40,10.1.1.3,21,-0.090,-0.090,-0.090,0.000,0.000,0.000
1644347680455918080,2022-02-08-19:14:40,10.1.1.3,21,-0.100,-0.100,-0.100,0.000,0.000,0.000
1644347680575751936,2022-02-08-19:14:40,10.1.1.3,37,-0.090,-0.090,-0.090,0.000,0.000,0.000
1644347680685005824,2022-02-08-19:14:40,10.1.1.3,37,-0.080,-0.080,-0.080,0.000,0.000,0.000
1644347680775662848,2022-02-08-19:14:40,10.1.1.3,36,-0.070,-0.070,-0.070,0.000,0.000,0.000
1644347680875134976,2022-02-08-19:14:40,10.1.1.3,36,-0.060,-0.060,-0.060,0.000,0.000,0.000
1644347680976120064,2022-02-08-19:14:40,10.1.1.3,36,-0.050,-0.050,-0.050,0.000,0.000,0.000
1644347681075721984,2022-02-08-19:14:41,10.1.1.3,35,-0.040,-0.040,-0.040,0.000,0.000,0.000
1644347681176084992,2022-02-08-19:14:41,10.1.1.3,34,-0.030,-0.030,-0.030,0.000,0.000,0.000
1644347681280539904,2022-02-08-19:14:41,10.1.1.3,34,-0.020,-0.020,-0.020,0.000,0.000,0.000
1644347681376653824,2022-02-08-19:14:41,10.1.1.3,32,-0.010,-0.010,-0.010,0.000,0.000,0.000
1644347681479949056,2022-02-08-19:14:41,10.1.1.3,32,0.000,0.000,0.000,0.000,0.000,0.000
1644347681575740160,2022-02-08-19:14:41,10.1.1.3,30,0.010,0.010,0.010,0.000,0.000,0.000
1644347681684130816,2022-02-08-19:14:41,10.1.1.3,27,0.020,0.020,0.020,0.000,0.000,0.000
1644347681776050176,2022-02-08-19:14:41,10.1.1.3,26,0.030,0.030,0.030,0.000,0.000,0.000
1644347681876537088,2022-02-08-19:14:41,10.1.1.3,20,0.040,0.040,0.040,0.000,0.000,0.000
1644347681982137856,2022-02-08-19:14:41,10.1.1.3,20,0.050,0.050,0.050,0.000,0.000,0.000
1644347682096086016,2022-02-08-19:14:42,10.1.1.3,34,0.060,0.060,0.060,0.000,0.000,0.000
1644347682196256000,2022-02-08-19:14:42,10.1.1.3,34,0.070,0.070,0.070,0.000,0.000,0.000
1644347682296075008,2022-02-08-19:14:42,10.1.1.3,34,0.080,0.080,0.080,0.000,0.000,0.000
1644347682396037120,2022-02-08-19:14:42,10.1.1.3,33,0.090,0.090,0.090,0.000,0.000,0.000
1644347682510972928,2022-02-08-19:14:42,10.1.1.3,33,0.100,0.100,0.100,0.000,0.000,0.000
1644347682596323840,2022-02-08-19:14:42,10.1.1.3,30,0.090,0.090,0.090,0.000,0.000,0.000
1644347682696218112,2022-02-08-19:14:42,10.1.1.3,30,0.080,0.080,0.080,0.000,0.000,0.000
1644347682795630848,2022-02-08-19:14:42,10.1.1.3,29,0.070,0.070,0.070,0.000,0.000,0.000
1644347682896663808,2022-02-08-19:14:42,10.1.1.3,28,0.060,0.060,0.060,0.000,0.000,0.000
1644347682996235008,2022-02-08-19:14:42,10.1.1.3,27,0.050,0.050,0.050,0.000,0.000,0.000
1644347683096071936,2022-02-08-19:14:43,10.1.1.3,25,0.040,0.040,0.040,0.000,0.000,0.000
1644347683316004096,2022-02-08-19:14:43,10.1.1.3,34,0.020,0.020,0.020,0.000,0.000,0.000
1644347683416024064,2022-02-08-19:14:43,10.1.1.3,33,0.010,0.010,0.010,0.000,0.000,0.000
1644347683515665152,2022-02-08-19:14:43,10.1.1.3,31,0.000,0.000,0.000,0.000,0.000,0.000
1644347683615900928,2022-02-08-19:14:43,10.1.1.3,31,-0.010,-0.010,-0.010,0.000,0.000,0.000
1644347683715704064,2022-02-08-19:14:43,10.1.1.3,31,-0.020,-0.020,-0.020,0.000,0.000,0.000
1644347683816819968,2022-02-08-19:14:43,10.1.1.3,30,-0.030,-0.030,-0.030,0.000,0.000,0.000
1644347683915927040,2022-02-08-19:14:43,10.1.1.3,29,-0.040,-0.040,-0.040,0.000,0.000,0.000
1644347684015625984,2022-02-08-19:14:44,10.1.1.3,27,-0.050,-0.050,-0.050,0.000,0.000,0.000
1644347684116051968,2022-02-08-19:14:44,10.1.1.3,26,-0.060,-0.060,-0.060,0.000,0.000,0.000
1644347684216980992,2022-02-08-19:14:44,10.1.1.3,26,-0.070,-0.070,-0.070,0.000,0.000,0.000
1644347684315824896,2022-02-08-19:14:44,10.1.1.3,25,-0.080,-0.080,-0.080,0.000,0.000,0.000
1644347684415659008,2022-02-08-19:14:44,10.1.1.3,23,-0.090,-0.090,-0.090,0.000,0.000,0.000
1644347684515388928,2022-02-08-19:14:44,10.1.1.3,22,-0.100,-0.100,-0.100,0.000,0.000,0.000
1644347684715639040,2022-02-08-19:14:44,10.1.1.3,21,-0.080,-0.080,-0.080,0.000,0.000,0.000
1644347684815627008,2022-02-08-19:14:44,10.1.1.3,21,-0.070,-0.070,-0.070,0.000,0.000,0.000
1644347684936376064,2022-02-08-19:14:44,10.1.1.3,38,-0.060,-0.060,-0.060,0.000,0.000,0.000
1644347685035699968,2022-02-08-19:14:45,10.1.1.3,37,-0.050,-0.050,-0.050,0.000,0.000,0.000
1644347685136205824,2022-02-08-19:14:45,10.1.1.3,37,-0.040,-0.040,-0.040,0.000,0.000,0.000
1644347685236290048,2022-02-08-19:14:45,10.1.1.3,36,-0.030,-0.030,-0.030,0.000,0.000,0.000
1644347685336459008,2022-02-08-19:14:45,10.1.1.3,35,-0.020,-0.020,-0.020,0.000,0.000,0.000
1644347685436510976,2022-02-08-19:14:45,10.1.1.3,34,-0.010,-0.010,-0.010,0.000,0.000,0.000
1644347685535972096,2022-02-08-19:14:45,10.1.1.3,32,0.000,0.000,0.000,0.000,0.000,0.000
1644347685635834880,2022-02-08-19:14:45,10.1.1.3,31,0.010,0.010,0.010,0.000,0.000,0.000
1644347685737889024,2022-02-08-19:14:45,10.1.1.3,30,0.020,0.020,0.020,0.000,0.000,0.000
1644347685836240896,2022-02-08-19:14:45,10.1.1.3,29,0.030,0.030,0.030,0.000,0.000,0.000
1644347685938714880,2022-02-08-19:14:45,10.1.1.3,22,0.040,0.040,0.040,0.000,0.000,0.000
1644347686039395072,2022-02-08-19:14:46,10.1.1.3,21,0.050,0.050,0.050,0.000,0.000,0.000
1644347686135646976,2022-02-08-19:14:46,10.1.1.3,20,0.060,0.060,0.060,0.000,0.000,0.000
1644347686236605952,2022-02-08-19:14:46,10.1.1.3,19,0.069,0.069,0.069,0.000,0.000,0.000
1644347686496423936,2022-02-08-19:14:46,10.1.1.3,32,0.090,0.090,0.090,0.000,0.000,0.000
1644347686595624960,2022-02-08-19:14:46,10.1.1.3,30,0.100,0.100,0.100,0.000,0.000,0.000
1644347686697975040,2022-02-08-19:14:46,10.1.1.3,28,0.090,0.090,0.090,0.000,0.000,0.000
1644347686795794944,2022-02-08-19:14:46,10.1.1.3,28,0.080,0.080,0.080,0.000,0.000,0.000
1644347686895955200,2022-02-08-19:14:46,10.1.1.3,27,0.070,0.070,0.070,0.000,0.000,0.000
1644347686995617024,2022-02-08-19:14:46,10.1.1.3,27,0.060,0.060,0.060,0.000,0.000,0.000
1644347687098114048,2022-02-08-19:14:47,10.1.1.3,26,0.050,0.050,0.050,0.000,0.000,0.000
1644347687195431936,2022-02-08-19:14:47,10.1.1.3,24,0.040,0.040,0.040,0.000,0.000,0.000
1644347687295990016,2022-02-08-19:14:47,10.1.1.3,22,0.030,0.030,0.030,0.000,0.000,0.000
1644347687418252032,2022-02-08-19:14:47,10.1.1.3,35,0.020,0.020,0.020,0.000,0.000,0.000
1644347687515947008,2022-02-08-19:14:47,10.1.1.3,28,0.010,0.010,0.010,0.000,0.000,0.000
1644347687616547072,2022-02-08-19:14:47,10.1.1.3,27,0.000,0.000,0.000,0.000,0.000,0.000
1644347687717035008,2022-02-08-19:14:47,10.1.1.3,26,-0.010,-0.010,-0.010,0.000,0.000,0.000
1644347687816346880,2022-02-08-19:14:47,10.1.1.3,21,-0.020,-0.020,-0.020,0.000,0.000,0.000
1644347687916260864,2022-02-08-19:14:47,10.1.1.3,20,-0.030,-0.030,-0.030,0.000,0.000,0.000
1644347688036941056,2022-02-08-19:14:48,10.1.1.3,38,-0.040,-0.040,-0.040,0.000,0.000,0.000
1644347688135965952,2022-02-08-19:14:48,10.1.1.3,36,-0.050,-0.050,-0.050,0.000,0.000,0.000
1644347688235950848,2022-02-08-19:14:48,10.1.1.3,34,-0.060,-0.060,-0.060,0.000,0.000,0.000
1644347688339037952,2022-02-08-19:14:48,10.1.1.3,33,-0.070,-0.070,-0.070,0.000,0.000,0.000
1644347688436295936,2022-02-08-19:14:48,10.1.1.3,31,-0.080,-0.080,-0.080,0.000,0.000,0.000
1644347688657022976,2022-02-08-19:14:48,10.1.1.3,36,-0.100,-0.100,-0.100,0.000,0.000,0.000
1644347688756328960,2022-02-08-19:14:48,10.1.1.3,33,-0.090,-0.090,-0.090,0.000,0.000,0.000
1644347688855773952,2022-02-08-19:14:48,10.1.1.3,31,-0.080,-0.080,-0.080,0.000,0.000,0.000
1644347688956249088,2022-02-08-19:14:48,10.1.1.3,30,-0.070,-0.070,-0.070,0.000,0.000,0.000
1644347689055890944,2022-02-08-19:14:49,10.1.1.3,28,-0.060,-0.060,-0.060,0.000,0.000,0.000
1644347689155950080,2022-02-08-19:14:49,10.1.1.3,27,-0.050,-0.050,-0.050,0.000,0.000,0.000
1644347689255908864,2022-02-08-19:14:49,10.1.1.3,26,-0.040,-0.040,-0.040,0.000,0.000,0.000
1644347689356610048,2022-02-08-19:14:49,10.1.1.3,26,-0.030,-0.030,-0.030,0.000,0.000,0.000
1644347689456129024,2022-02-08-19:14:49,10.1.1.3,25,-0.020,-0.020,-0.020,0.000,0.000,0.000
1644347689556029184,2022-02-08-19:14:49,10.1.1.3,22,-0.010,-0.010,-0.010,0.000,0.000,0.000
1644347689657260800,2022-02-08-19:14:49,10.1.1.3,21,-0.000,-0.000,-0.000,0.000,0.000,0.000
1644347689756797184,2022-02-08-19:14:49,10.1.1.3,20,0.010,0.010,0.010,0.000,0.000,0.000
1644347689857212160,2022-02-08-19:14:49,10.1.1.3,19,0.020,0.020,0.020,0.000,0.000,0.000
1644347689976684032,2022-02-08-19:14:49,10.1.1.3,38,0.030,0.030,0.030,0.000,0.000,0.000
1644347690093287936,2022-02-08-19:14:50,10.1.1.3,37,0.040,0.040,0.040,0.000,0.000,0.000
1644347690176392960,2022-02-08-19:14:50,10.1.1.3,36,0.050,0.050,0.050,0.000,0.000,0.000
1644347690281768960,2022-02-08-19:14:50,10.1.1.3,35,0.060,0.060,0.060,0.000,0.000,0.000
1644347690375574016,2022-02-08-19:14:50,10.1.1.3,24,0.070,0.070,0.070,0.000,0.000,0.000
1644347690475589120,2022-02-08-19:14:50,10.1.1.3,22,0.080,0.080,0.080,0.000,0.000,0.000
1644347690576664832,2022-02-08-19:14:50,10.1.1.3,21,0.090,0.090,0.090,0.000,0.000,0.000
1644347690690942976,2022-02-08-19:14:50,10.1.1.3,20,0.100,0.100,0.100,0.000,0.000,0.000
1644347690795627008,2022-02-08-19:14:50,10.1.1.3,36,0.090,0.090,0.090,0.000,0.000,0.000
1644347690896126976,2022-02-08-19:14:50,10.1.1.3,36,0.080,0.080,0.080,0.000,0.000,0.000
1644347690995888896,2022-02-08-19:14:50,10.1.1.3,35,0.070,0.070,0.070,0.000,0.000,0.000
1644347691097619968,2022-02-08-19:14:51,10.1.1.3,34,0.060,0.060,0.060,0.000,0.000,0.000
1644347691296436992,2022-02-08-19:14:51,10.1.1.3,25,0.040,0.040,0.040,0.000,0.000,0.000
1644347691396189952,2022-02-08-19:14:51,10.1.1.3,24,0.030,0.030,0.030,0.000,0.000,0.000
1644347691496428032,2022-02-08-19:14:51,10.1.1.3,22,0.020,0.020,0.020,0.000,0.000,0.000
1644347691596282112,2022-02-08-19:14:51,10.1.1.3,21,0.010,0.010,0.010,0.000,0.000,0.000
1644347691695970048,2022-02-08-19:14:51,10.1.1.3,21,0.000,0.000,0.000,0.000,0.000,0.000
1644347691796279808,2022-02-08-19:14:51,10.1.1.3,20,-0.010,-0.010,-0.010,0.000,0.000,0.000
1644347691895998976,2022-02-08-19:14:51,10.1.1.3,19,-0.020,-0.020,-0.020,0.000,0.000,0.000
1644347692015985920,2022-02-08-19:14:52,10.1.1.3,29,-0.030,-0.030,-0.030,0.000,0.000,0.000
1644347692115782144,2022-02-08-19:14:52,10.1.1.3,28,-0.040,-0.040,-0.040,0.000,0.000,0.000
1644347692216108032,2022-02-08-19:14:52,10.1.1.3,27,-0.050,-0.050,-0.050,0.000,0.000,0.000
1644347692315619840,2022-02-08-19:14:52,10.1.1.3,27,-0.060,-0.060,-0.060,0.000,0.000,0.000
1644347692415982080,2022-02-08-19:14:52,10.1.1.3,27,-0.070,-0.070,-0.070,0.000,0.000,0.000
1644347692515849216,2022-02-08-19:14:52,10.1.1.3,26,-0.080,-0.080,-0.080,0.000,0.000,0.000
1644347692615823104,2022-02-08-19:14:52,10.1.1.3,26,-0.090,-0.090,-0.090,0.000,0.000,0.000
1644347692716033024,2022-02-08-19:14:52,10.1.1.3,25,-0.100,-0.100,-0.100,0.000,0.000,0.000
1644347692815799040,2022-02-08-19:14:52,10.1.1.3,24,-0.090,-0.090,-0.090,0.000,0.000,0.000
1644347692916150016,2022-02-08-19:14:52,10.1.1.3,24,-0.080,-0.080,-0.080,0.000,0.000,0.000
1644347693015574016,2022-02-08-19:14:53,10.1.1.3,23,-0.070,-0.070,-0.070,0.000,0.000,0.000
1644347693115993088,2022-02-08-19:14:53,10.1.1.3,23,-0.060,-0.060,-0.060,0.000,0.000,0.000
1644347693215801856,2022-02-08-19:14:53,10.1.1.3,22,-0.050,-0.050,-0.050,0.000,0.000,0.000
1644347693315763968,2022-02-08-19:14:53,10.1.1.3,21,-0.040,-0.040,-0.040,0.000,0.000,0.000
1644347693415986944,2022-02-08-19:14:53,10.1.1.3,21,-0.030,-0.030,-0.030,0.000,0.000,0.000
1644347693516017920,2022-02-08-19:14:53,10.1.1.3,21,-0.020,-0.020,-0.020,0.000,0.000,0.000
1644347693615911936,2022-02-08-19:14:53,10.1.1.3,20,-0.010,-0.010,-0.010,0.000,0.000,0.000
1644347693715523840,2022-02-08-19:14:53,10.1.1.3,19,-0.000,-0.000,-0.000,0.000,0.000,0.000
1644347693815934976,2022-02-08-19:14:53,10.1.1.3,19,0.009,0.009,0.009,0.000,0.000,0.000
1644347693935776000,2022-02-08-19:14:53,10.1.1.3,38,0.020,0.020,0.020,0.000,0.000,0.000
1644347694035949056,2022-02-08-19:14:54,10.1.1.3,34,0.030,0.030,0.030,0.000,0.000,0.000
1644347694136275968,2022-02-08-19:14:54,10.1.1.3,34,0.040,0.040,0.040,0.000,0.000,0.000
1644347694235599104,2022-02-08-19:14:54,10.1.1.3,33,0.050,0.050,0.050,0.000,0.000,0.000
1644347694336077056,2022-02-08-19:14:54,10.1.1.3,32,0.060,0.060,0.060,0.000,0.000,0.000
1644347694435618048,2022-02-08-19:14:54,10.1.1.3,31,0.070,0.070,0.070,0.000,0.000,0.000
1644347694535984896,2022-02-08-19:14:54,10.1.1.3,31,0.080,0.080,0.080,0.000,0.000,0.000
1644347694636167168,2022-02-08-19:14:54,10.1.1.3,30,0.090,0.090,0.090,0.000,0.000,0.000
1644347694735842816,2022-02-08-19:14:54,10.1.1.3,30,0.100,0.100,0.100,0.000,0.000,0.000
1644347694835586048,2022-02-08-19:14:54,10.1.1.3,29,0.090,0.090,0.090,0.000,0.000,0.000
1644347694935848960,2022-02-08-19:14:54,10.1.1.3,28,0.080,0.080,0.080,0.000,0.000,0.000
1644347695035654912,2022-02-08-19:14:55,10.1.1.3,28,0.070,0.070,0.070,0.000,0.000,0.000
1644347695135937024,2022-02-08-19:14:55,10.1.1.3,27,0.060,0.060,0.060,0.000,0.000,0.000
1644347695235846144,2022-02-08-19:14:55,10.1.1.3,27,0.050,0.050,0.050,0.000,0.000,0.000
1644347695336108800,2022-02-08-19:14:55,10.1.1.3,26,0.040,0.040,0.040,0.000,0.000,0.000
1644347695436534016,2022-02-08-19:14:55,10.1.1.3,26,0.030,0.030,0.030,0.000,0.000,0.000
1644347695536040960,2022-02-08-19:14:55,10.1.1.3,25,0.020,0.020,0.020,0.000,0.000,0.000
1644347695635440128,2022-02-08-19:14:55,10.1.1.3,25,0.010,0.010,0.010,0.000,0.000,0.000
1644347695737304064,2022-02-08-19:14:55,10.1.1.3,24,0.000,0.000,0.000,0.000,0.000,0.000
1644347695837421824,2022-02-08-19:14:55,10.1.1.3,23,-0.010,-0.010,-0.010,0.000,0.000,0.000
1644347695936317952,2022-02-08-19:14:55,10.1.1.3,21,-0.020,-0.020,-0.020,0.000,0.000,0.000
1644347696036690944,2022-02-08-19:14:56,10.1.1.3,21,-0.030,-0.030,-0.030,0.000,0.000,0.000
1644347696136046848,2022-02-08-19:14:56,10.1.1.3,20,-0.040,-0.040,-0.040,0.000,0.000,0.000
1644347696236300032,2022-02-08-19:14:56,10.1.1.3,20,-0.050,-0.050,-0.050,0.000,0.000,0.000
1644347696356017152,2022-02-08-19:14:56,10.1.1.3,38,-0.060,-0.060,-0.060,0.000,0.000,0.000
1644347696456248064,2022-02-08-19:14:56,10.1.1.3,37,-0.070,-0.070,-0.070,0.000,0.000,0.000
1644347696555748096,2022-02-08-19:14:56,10.1.1.3,36,-0.080,-0.080,-0.080,0.000,0.000,0.000
1644347696655884032,2022-02-08-19:14:56,10.1.1.3,35,-0.090,-0.090,-0.090,0.000,0.000,0.000
1644347696756320000,2022-02-08-19:14:56,10.1.1.3,35,-0.100,-0.100,-0.100,0.000,0.000,0.000
1644347696855806976,2022-02-08-19:14:56,10.1.1.3,34,-0.090,-0.090,-0.090,0.000,0.000,0.000
1644347696956006912,2022-02-08-19:14:56,10.1.1.3,33,-0.080,-0.080,-0.080,0.000,0.000,0.000
1644347697056962048,2022-02-08-19:14:57,10.1.1.3,31,-0.070,-0.070,-0.070,0.000,0.000,0.000
1644347697156087040,2022-02-08-19:14:57,10.1.1.3,31,-0.060,-0.060,-0.060,0.000,0.000,0.000
1644347697256457216,2022-02-08-19:14:57,10.1.1.3,30,-0.050,-0.050,-0.050,0.000,0.000,0.000
1644347697356594176,2022-02-08-19:14:57,10.1.1.3,29,-0.040,-0.040,-0.040,0.000,0.000,0.000
1644347697456850176,2022-02-08-19:14:57,10.1.1.3,28,-0.030,-0.030,-0.030,0.000,0.000,0.000
1644347697556807168,2022-02-08-19:14:57,10.1.1.3,27,-0.020,-0.020,-0.020,0.000,0.000,0.000
1644347697656142848,2022-02-08-19:14:57,10.1.1.3,27,-0.010,-0.010,-0.010,0.000,0.000,0.000
1644347697756200192,2022-02-08-19:14:57,10.1.1.3,26,0.000,0.000,0.000,0.000,0.000,0.000
1644347697856441088,2022-02-08-19:14:57,10.1.1.3,25,0.010,0.010,0.010,0.000,0.000,0.000
1644347697956688896,2022-02-08-19:14:57,10.1.1.3,25,0.020,0.020,0.020,0.000,0.000,0.000
1644347698056507136,2022-02-08-19:14:58,10.1.1.3,24,0.030,0.030,0.030,0.000,0.000,0.000
1644347698156141056,2022-02-08-19:14:58,10.1.1.3,23,0.040,0.040,0.040,0.000,0.000,0.000
1644347698256691968,2022-02-08-19:14:58,10.1.1.3,22,0.050,0.050,0.050,0.000,0.000,0.000
1644347698356276992,2022-02-08-19:14:58,10.1.1.3,22,0.060,0.060,0.060,0.000,0.000,0.000
1644347698456425984,2022-02-08-19:14:58,10.1.1.3,21,0.070,0.070,0.070,0.000,0.000,0.000
1644347698555990016,2022-02-08-19:14:58,10.1.1.3,21,0.080,0.080,0.080,0.000,0.000,0.000
1644347698656348928,2022-02-08-19:14:58,10.1.1.3,20,0.090,0.090,0.090,0.000,0.000,0.000
1644347698756395008,2022-02-08-19:14:58,10.1.1.3,20,0.100,0.100,0.100,0.000,0.000,0.000
1644347698856425984,2022-02-08-19:14:58,10.1.1.3,19,0.091,0.091,0.091,0.000,0.000,0.000
1644347698976114944,2022-02-08-19:14:58,10.1.1.3,38,0.080,0.080,0.080,0.000,0.000,0.000
1644347699076489984,2022-02-08-19:14:59,10.1.1.3,37,0.070,0.070,0.070,0.000,0.000,0.000
1644347699176601856,2022-02-08-19:14:59,10.1.1.3,37,0.060,0.060,0.060,0.000,0.000,0.000
1644347699277041920,2022-02-08-19:14:59,10.1.1.3,36,0.050,0.050,0.050,0.000,0.000,0.000
1644347699376251904,2022-02-08-19:14:59,10.1.1.3,35,0.040,0.040,0.040,0.000,0.000,0.000
1644347699476587008,2022-02-08-19:14:59,10.1.1.3,35,0.030,0.030,0.030,0.000,0.000,0.000
1644347699576649984,2022-02-08-19:14:59,10.1.1.3,34,0.020,0.020,0.020,0.000,0.000,0.000
1644347699679873024,2022-02-08-19:14:59,10.1.1.3,31,0.010,0.010,0.010,0.000,0.000,0.000
1644347699776556032,2022-02-08-19:14:59,10.1.1.3,30,0.000,0.000,0.000,0.000,0.000,0.000
1644347699876065024,2022-02-08-19:14:59,10.1.1.3,30,-0.010,-0.010,-0.010,0.000,0.000,0.000
1644347699977650944,2022-02-08-19:14:59,10.1.1.3,29,-0.020,-0.020,-0.020,0.000,0.000,0.000
1644347700084595968,2022-02-08-19:15:00,10.1.1.3,28,-0.030,-0.030,-0.030,0.000,0.000,0.000
1644347700175741952,2022-02-08-19:15:00,10.1.1.3,27,-0.040,-0.040,-0.040,0.000,0.000,0.000
1644347700276451072,2022-02-08-19:15:00,10.1.1.3,26,-0.050,-0.050,-0.050,0.000,0.000,0.000
1644347700375778048,2022-02-08-19:15:00,10.1.1.3,25,-0.060,-0.060,-0.060,0.000,0.000,0.000
1644347700476280832,2022-02-08-19:15:00,10.1.1.3,25,-0.070,-0.070,-0.070,0.000,0.000,0.000
1644347700575976960,2022-02-08-19:15:00,10.1.1.3,24,-0.080,-0.080,-0.080,0.000,0.000,0.000
1644347700676603136,2022-02-08-19:15:00,10.1.1.3,22,-0.090,-0.090,-0.090,0.000,0.000,0.000
1644347700775915008,2022-02-08-19:15:00,10.1.1.3,21,-0.100,-0.100,-0.100,0.000,0.000,0.000
1644347700876126976,2022-02-08-19:15:00,10.1.1.3,21,-0.090,-0.090,-0.090,0.000,0.000,0.000
1644347700976571136,2022-02-08-19:15:00,10.1.1.3,20,-0.080,-0.080,-0.080,0.000,0.000,0.000
1644347701075977984,2022-02-08-19:15:01,10.1.1.3,20,-0.070,-0.070,-0.070,0.000,0.000,0.000
1644347701176760832,2022-02-08-19:15:01,10.1.1.3,19,-0.061,-0.061,-0.061,0.000,0.000,0.000
1644347701297072896,2022-02-08-19:15:01,10.1.1.3,38,-0.050,-0.050,-0.050,0.000,0.000,0.000
1644347701397281024,2022-02-08-19:15:01,10.1.1.3,37,-0.040,-0.040,-0.040,0.000,0.000,0.000
1644347701495467776,2022-02-08-19:15:01,10.1.1.3,37,-0.030,-0.030,-0.030,0.000,0.000,0.000
1644347701596736000,2022-02-08-19:15:01,10.1.1.3,34,-0.020,-0.020,-0.020,0.000,0.000,0.000
1644347701696963072,2022-02-08-19:15:01,10.1.1.3,34,-0.010,-0.010,-0.010,0.000,0.000,0.000
1644347701796275968,2022-02-08-19:15:01,10.1.1.3,33,0.000,0.000,0.000,0.000,0.000,0.000
1644347701897249024,2022-02-08-19:15:01,10.1.1.3,31,0.010,0.010,0.010,0.000,0.000,0.000
1644347701996112128,2022-02-08-19:15:01,10.1.1.3,31,0.020,0.020,0.020,0.000,0.000,0.000
1644347702096007168,2022-02-08-19:15:02,10.1.1.3,30,0.030,0.030,0.030,0.000,0.000,0.000
1644347702196322048,2022-02-08-19:15:02,10.1.1.3,29,0.040,0.040,0.040,0.000,0.000,0.000
1644347702301804032,2022-02-08-19:15:02,10.1.1.3,29,0.050,0.050,0.050,0.000,0.000,0.000
1644347702396267776,2022-02-08-19:15:02,10.1.1.3,28,0.060,0.060,0.060,0.000,0.000,0.000
1644347702497627904,2022-02-08-19:15:02,10.1.1.3,27,0.070,0.070,0.070,0.000,0.000,0.000
1644347702596015104,2022-02-08-19:15:02,10.1.1.3,26,0.080,0.080,0.080,0.000,0.000,0.000
1644347702698066944,2022-02-08-19:15:02,10.1.1.3,26,0.090,0.090,0.090,0.000,0.000,0.000
1644347702796276992,2022-02-08-19:15:02,10.1.1.3,25,0.100,0.100,0.100,0.000,0.000,0.000
1644347702897211904,2022-02-08-19:15:02,10.1.1.3,23,0.090,0.090,0.090,0.000,0.000,0.000
1644347702995795968,2022-02-08-19:15:02,10.1.1.3,22,0.080,0.080,0.080,0.000,0.000,0.000
1644347703095951104,2022-02-08-19:15:03,10.1.1.3,19,0.071,0.071,0.071,0.000,0.000,0.000
1644347703215923968,2022-02-08-19:15:03,10.1.1.3,38,0.060,0.060,0.060,0.000,0.000,0.000
1644347703316207872,2022-02-08-19:15:03,10.1.1.3,37,0.050,0.050,0.050,0.000,0.000,0.000
1644347703416479232,2022-02-08-19:15:03,10.1.1.3,36,0.040,0.040,0.040,0.000,0.000,0.000
1644347703515747072,2022-02-08-19:15:03,10.1.1.3,36,0.030,0.030,0.030,0.000,0.000,0.000
1644347703616452864,2022-02-08-19:15:03,10.1.1.3,35,0.020,0.020,0.020,0.000,0.000,0.000
1644347703716092160,2022-02-08-19:15:03,10.1.1.3,34,0.010,0.010,0.010,0.000,0.000,0.000
1644347703816137984,2022-02-08-19:15:03,10.1.1.3,33,0.000,0.000,0.000,0.000,0.000,0.000
1644347703916165120,2022-02-08-19:15:03,10.1.1.3,32,-0.010,-0.010,-0.010,0.000,0.000,0.000
1644347704016622080,2022-02-08-19:15:04,10.1.1.3,28,-0.020,-0.020,-0.020,0.000,0.000,0.000
1644347704116497152,2022-02-08-19:15:04,10.1.1.3,27,-0.030,-0.030,-0.030,0.000,0.000,0.000
1644347704216006144,2022-02-08-19:15:04,10.1.1.3,26,-0.040,-0.040,-0.040,0.000,0.000,0.000
1644347704316926976,2022-02-08-19:15:04,10.1.1.3,25,-0.050,-0.050,-0.050,0.000,0.000,0.000
1644347704416166144,2022-02-08-19:15:04,10.1.1.3,25,-0.060,-0.060,-0.060,0.000,0.000,0.000
1644347704516262144,2022-02-08-19:15:04,10.1.1.3,21,-0.070,-0.070,-0.070,0.000,0.000,0.000
1644347704616488960,2022-02-08-19:15:04,10.1.1.3,21,-0.080,-0.080,-0.080,0.000,0.000,0.000
1644347704716888064,2022-02-08-19:15:04,10.1.1.3,20,-0.090,-0.090,-0.090,0.000,0.000,0.000
1644347704836969984,2022-02-08-19:15:04,10.1.1.3,38,-0.100,-0.100,-0.100,0.000,0.000,0.000
1644347704936248064,2022-02-08-19:15:04,10.1.1.3,38,-0.090,-0.090,-0.090,0.000,0.000,0.000
1644347705036386048,2022-02-08-19:15:05,10.1.1.3,37,-0.080,-0.080,-0.080,0.000,0.000,0.000
1644347705136696064,2022-02-08-19:15:05,10.1.1.3,36,-0.070,-0.070,-0.070,0.000,0.000,0.000
1644347705236567040,2022-02-08-19:15:05,10.1.1.3,35,-0.060,-0.060,-0.060,0.000,0.000,0.000
1644347705336577024,2022-02-08-19:15:05,10.1.1.3,29,-0.050,-0.050,-0.050,0.000,0.000,0.000
1644347705435892224,2022-02-08-19:15:05,10.1.1.3,28,-0.040,-0.040,-0.040,0.000,0.000,0.000
1644347705535883776,2022-02-08-19:15:05,10.1.1.3,28,-0.030,-0.030,-0.030,0.000,0.000,0.000
1644347705635881984,2022-02-08-19:15:05,10.1.1.3,27,-0.020,-0.020,-0.020,0.000,0.000,0.000
1644347705736130048,2022-02-08-19:15:05,10.1.1.3,26,-0.010,-0.010,-0.010,0.000,0.000,0.000
1644347705836230144,2022-02-08-19:15:05,10.1.1.3,26,0.000,0.000,0.000,0.000,0.000,0.000
1644347705936076032,2022-02-08-19:15:05,10.1.1.3,25,0.010,0.010,0.010,0.000,0.000,0.000
1644347706036231936,2022-02-08-19:15:06,10.1.1.3,24,0.020,0.020,0.020,0.000,0.000,0.000
1644347706135996160,2022-02-08-19:15:06,10.1.1.3,23,0.030,0.030,0.030,0.000,0.000,0.000
1644347706235787008,2022-02-08-19:15:06,10.1.1.3,22,0.040,0.040,0.040,0.000,0.000,0.000
1644347706336635136,2022-02-08-19:15:06,10.1.1.3,22,0.050,0.050,0.050,0.000,0.000,0.000
1644347706436166144,2022-02-08-19:15:06,10.1.1.3,21,0.060,0.060,0.060,0.000,0.000,0.000
1644347706535831040,2022-02-08-19:15:06,10.1.1.3,20,0.070,0.070,0.070,0.000,0.000,0.000
1644347706635886848,2022-02-08-19:15:06,10.1.1.3,19,0.080,0.080,0.080,0.000,0.000,0.000
1644347706735735808,2022-02-08-19:15:06,10.1.1.3,19,0.089,0.089,0.089,0.000,0.000,0.000
1644347706856550912,2022-02-08-19:15:06,10.1.1.3,38,0.100,0.100,0.100,0.000,0.000,0.000
1644347706956147968,2022-02-08-19:15:06,10.1.1.3,38,0.090,0.090,0.090,0.000,0.000,0.000
1644347707056395008,2022-02-08-19:15:07,10.1.1.3,37,0.080,0.080,0.080,0.000,0.000,0.000
1644347707156326144,2022-02-08-19:15:07,10.1.1.3,37,0.070,0.070,0.070,0.000,0.000,0.000
1644347707256745216,2022-02-08-19:15:07,10.1.1.3,36,0.060,0.060,0.060,0.000,0.000,0.000
1644347707356419072,2022-02-08-19:15:07,10.1.1.3,35,0.050,0.050,0.050,0.000,0.000,0.000
1644347707456144128,2022-02-08-19:15:07,10.1.1.3,35,0.040,0.040,0.040,0.000,0.000,0.000
1644347707556324864,2022-02-08-19:15:07,10.1.1.3,34,0.030,0.030,0.030,0.000,0.000,0.000
1644347707656375808,2022-02-08-19:15:07,10.1.1.3,33,0.020,0.020,0.020,0.000,0.000,0.000
1644347707756777984,2022-02-08-19:15:07,10.1.1.3,31,0.010,0.010,0.010,0.000,0.000,0.000
1644347707856328960,2022-02-08-19:15:07,10.1.1.3,31,0.000,0.000,0.000,0.000,0.000,0.000
1644347707956054016,2022-02-08-19:15:07,10.1.1.3,29,-0.010,-0.010,-0.010,0.000,0.000,0.000
1644347708059534080,2022-02-08-19:15:08,10.1.1.3,29,-0.020,-0.020,-0.020,0.000,0.000,0.000
1644347708156198144,2022-02-08-19:15:08,10.1.1.3,28,-0.030,-0.030,-0.030,0.000,0.000,0.000
1644347708256946176,2022-02-08-19:15:08,10.1.1.3,27,-0.040,-0.040,-0.040,0.000,0.000,0.000
1644347708355961088,2022-02-08-19:15:08,10.1.1.3,26,-0.050,-0.050,-0.050,0.000,0.000,0.000
1644347708456077056,2022-02-08-19:15:08,10.1.1.3,26,-0.060,-0.060,-0.060,0.000,0.000,0.000
1644347708556222976,2022-02-08-19:15:08,10.1.1.3,25,-0.070,-0.070,-0.070,0.000,0.000,0.000
1644347708657069824,2022-02-08-19:15:08,10.1.1.3,24,-0.080,-0.080,-0.080,0.000,0.000,0.000
1644347708757075968,2022-02-08-19:15:08,10.1.1.3,23,-0.090,-0.090,-0.090,0.000,0.000,0.000
1644347708856115968,2022-02-08-19:15:08,10.1.1.3,22,-0.100,-0.100,-0.100,0.000,0.000,0.000
1644347709077169920,2022-02-08-19:15:09,10.1.1.3,28,-0.080,-0.080,-0.080,0.000,0.000,0.000
1644347709176132864,2022-02-08-19:15:09,10.1.1.3,23,-0.070,-0.070,-0.070,0.000,0.000,0.000
1644347709276328960,2022-02-08-19:15:09,10.1.1.3,22,-0.060,-0.060,-0.060,0.000,0.000,0.000
1644347709376194048,2022-02-08-19:15:09,10.1.1.3,21,-0.050,-0.050,-0.050,0.000,0.000,0.000
1644347709477456128,2022-02-08-19:15:09,10.1.1.3,21,-0.040,-0.040,-0.040,0.000,0.000,0.000
1644347709600979968,2022-02-08-19:15:09,10.1.1.3,40,-0.030,-0.030,-0.030,0.000,0.000,0.000
1644347709675782912,2022-02-08-19:15:09,10.1.1.3,19,-0.021,-0.021,-0.021,0.000,0.000,0.000
1644347709795986944,2022-02-08-19:15:09,10.1.1.3,38,-0.010,-0.010,-0.010,0.000,0.000,0.000
1644347709895961088,2022-02-08-19:15:09,10.1.1.3,37,0.000,0.000,0.000,0.000,0.000,0.000
1644347709995639040,2022-02-08-19:15:09,10.1.1.3,37,0.010,0.010,0.010,0.000,0.000,0.000
1644347710095653888,2022-02-08-19:15:10,10.1.1.3,36,0.020,0.020,0.020,0.000,0.000,0.000
1644347710195616000,2022-02-08-19:15:10,10.1.1.3,36,0.030,0.030,0.030,0.000,0.000,0.000
1644347710295727104,2022-02-08-19:15:10,10.1.1.3,35,0.040,0.040,0.040,0.000,0.000,0.000
1644347710395930112,2022-02-08-19:15:10,10.1.1.3,34,0.050,0.050,0.050,0.000,0.000,0.000
1644347710496224000,2022-02-08-19:15:10,10.1.1.3,33,0.060,0.060,0.060,0.000,0.000,0.000
1644347710595398912,2022-02-08-19:15:10,10.1.1.3,32,0.070,0.070,0.070,0.000,0.000,0.000
1644347710798894848,2022-02-08-19:15:10,10.1.1.3,28,0.090,0.090,0.090,0.000,0.000,0.000
1644347710916441856,2022-02-08-19:15:10,10.1.1.3,34,0.100,0.100,0.100,0.000,0.000,0.000
1644347711016336896,2022-02-08-19:15:11,10.1.1.3,29,0.090,0.090,0.090,0.000,0.000,0.000
1644347711116203008,2022-02-08-19:15:11,10.1.1.3,28,0.080,0.080,0.080,0.000,0.000,0.000
1644347711216175104,2022-02-08-19:15:11,10.1.1.3,27,0.070,0.070,0.070,0.000,0.000,0.000
1644347711315884032,2022-02-08-19:15:11,10.1.1.3,26,0.060,0.060,0.060,0.000,0.000,0.000
1644347711416552960,2022-02-08-19:15:11,10.1.1.3,25,0.050,0.050,0.050,0.000,0.000,0.000
1644347711516217088,2022-02-08-19:15:11,10.1.1.3,25,0.040,0.040,0.040,0.000,0.000,0.000
1644347711615788032,2022-02-08-19:15:11,10.1.1.3,20,0.030,0.030,0.030,0.000,0.000,0.000
1644347711716482048,2022-02-08-19:15:11,10.1.1.3,19,0.021,0.021,0.021,0.000,0.000,0.000
1644347711836233984,2022-02-08-19:15:11,10.1.1.3,38,0.010,0.010,0.010,0.000,0.000,0.000
1644347711936327936,2022-02-08-19:15:11,10.1.1.3,37,0.000,0.000,0.000,0.000,0.000,0.000
1644347712036264960,2022-02-08-19:15:12,10.1.1.3,36,-0.010,-0.010,-0.010,0.000,0.000,0.000
1644347712135667200,2022-02-08-19:15:12,10.1.1.3,34,-0.020,-0.020,-0.020,0.000,0.000,0.000
1644347712239721984,2022-02-08-19:15:12,10.1.1.3,33,-0.030,-0.030,-0.030,0.000,0.000,0.000
1644347712336888064,2022-02-08-19:15:12,10.1.1.3,28,-0.040,-0.040,-0.040,0.000,0.000,0.000
1644347712436281088,2022-02-08-19:15:12,10.1.1.3,28,-0.050,-0.050,-0.050,0.000,0.000,0.000
1644347712536233984,2022-02-08-19:15:12,10.1.1.3,27,-0.060,-0.060,-0.060,0.000,0.000,0.000
1644347712638915072,2022-02-08-19:15:12,10.1.1.3,25,-0.070,-0.070,-0.070,0.000,0.000,0.000
1644347712736079872,2022-02-08-19:15:12,10.1.1.3,24,-0.080,-0.080,-0.080,0.000,0.000,0.000
1644347712836553984,2022-02-08-19:15:12,10.1.1.3,22,-0.090,-0.090,-0.090,0.000,0.000,0.000
1644347712936346112,2022-02-08-19:15:12,10.1.1.3,21,-0.100,-0.100,-0.100,0.000,0.000,0.000
1644347713036798976,2022-02-08-19:15:13,10.1.1.3,19,-0.090,-0.090,-0.090,0.000,0.000,0.000
1644347713156208896,2022-02-08-19:15:13,10.1.1.3,38,-0.080,-0.080,-0.080,0.000,0.000,0.000
1644347713256644096,2022-02-08-19:15:13,10.1.1.3,37,-0.070,-0.070,-0.070,0.000,0.000,0.000
1644347713355947008,2022-02-08-19:15:13,10.1.1.3,35,-0.060,-0.060,-0.060,0.000,0.000,0.000
1644347713456224000,2022-02-08-19:15:13,10.1.1.3,34,-0.050,-0.050,-0.050,0.000,0.000,0.000
1644347713556175872,2022-02-08-19:15:13,10.1.1.3,32,-0.040,-0.040,-0.040,0.000,0.000,0.000
1644347713655597056,2022-02-08-19:15:13,10.1.1.3,31,-0.030,-0.030,-0.030,0.000,0.000,0.000
1644347713756592128,2022-02-08-19:15:13,10.1.1.3,31,-0.020,-0.020,-0.020,0.000,0.000,0.000
1644347713856493056,2022-02-08-19:15:13,10.1.1.3,29,-0.010,-0.010,-0.010,0.000,0.000,0.000
1644347713955887104,2022-02-08-19:15:13,10.1.1.3,28,0.000,0.000,0.000,0.000,0.000,0.000
1644347714056302080,2022-02-08-19:15:14,10.1.1.3,27,0.010,0.010,0.010,0.000,0.000,0.000
1644347714155791872,2022-02-08-19:15:14,10.1.1.3,27,0.020,0.020,0.020,0.000,0.000,0.000
1644347714257062912,2022-02-08-19:15:14,10.1.1.3,25,0.030,0.030,0.030,0.000,0.000,0.000
1644347714356521984,2022-02-08-19:15:14,10.1.1.3,24,0.040,0.040,0.040,0.000,0.000,0.000
1644347714457726976,2022-02-08-19:15:14,10.1.1.3,21,0.050,0.050,0.050,0.000,0.000,0.000
1644347714555710976,2022-02-08-19:15:14,10.1.1.3,21,0.060,0.060,0.060,0.000,0.000,0.000
1644347714655591936,2022-02-08-19:15:14,10.1.1.3,20,0.070,0.070,0.070,0.000,0.000,0.000
1644347714756002048,2022-02-08-19:15:14,10.1.1.3,19,0.080,0.080,0.080,0.000,0.000,0.000
1644347714876125184,2022-02-08-19:15:14,10.1.1.3,38,0.090,0.090,0.090,0.000,0.000,0.000
1644347714976640000,2022-02-08-19:15:14,10.1.1.3,37,0.100,0.100,0.100,0.000,0.000,0.000
1644347715075762944,2022-02-08-19:15:15,10.1.1.3,37,0.090,0.090,0.090,0.000,0.000,0.000
1644347715176366080,2022-02-08-19:15:15,10.1.1.3,36,0.080,0.080,0.080,0.000,0.000,0.000
1644347715276088832,2022-02-08-19:15:15,10.1.1.3,35,0.070,0.070,0.070,0.000,0.000,0.000
1644347715376174080,2022-02-08-19:15:15,10.1.1.3,34,0.060,0.060,0.060,0.000,0.000,0.000
1644347715475547904,2022-02-08-19:15:15,10.1.1.3,33,0.050,0.050,0.050,0.000,0.000,0.000
1644347715576072960,2022-02-08-19:15:15,10.1.1.3,32,0.040,0.040,0.040,0.000,0.000,0.000
1644347715679511040,2022-02-08-19:15:15,10.1.1.3,32,0.030,0.030,0.030,0.000,0.000,0.000
1644347715778177024,2022-02-08-19:15:15,10.1.1.3,31,0.020,0.020,0.020,0.000,0.000,0.000
1644347715876504064,2022-02-08-19:15:15,10.1.1.3,29,0.010,0.010,0.010,0.000,0.000,0.000
1644347715975927040,2022-02-08-19:15:15,10.1.1.3,28,0.000,0.000,0.000,0.000,0.000,0.000
1644347716078385152,2022-02-08-19:15:16,10.1.1.3,26,-0.010,-0.010,-0.010,0.000,0.000,0.000
1644347716175952896,2022-02-08-19:15:16,10.1.1.3,25,-0.020,-0.020,-0.020,0.000,0.000,0.000
1644347716276093952,2022-02-08-19:15:16,10.1.1.3,22,-0.030,-0.030,-0.030,0.000,0.000,0.000
1644347716376128000,2022-02-08-19:15:16,10.1.1.3,21,-0.040,-0.040,-0.040,0.000,0.000,0.000
1644347716476349952,2022-02-08-19:15:16,10.1.1.3,20,-0.050,-0.050,-0.050,0.000,0.000,0.000
1644347716576209920,2022-02-08-19:15:16,10.1.1.3,19,-0.059,-0.059,-0.059,0.000,0.000,0.000
1644347716696183040,2022-02-08-19:15:16,10.1.1.3,38,-0.070,-0.070,-0.070,0.000,0.000,0.000
1644347716796097024,2022-02-08-19:15:16,10.1.1.3,37,-0.080,-0.080,-0.080,0.000,0.000,0.000
1644347716896787968,2022-02-08-19:15:16,10.1.1.3,36,-0.090,-0.090,-0.090,0.000,0.000,0.000
1644347716996177920,2022-02-08-19:15:16,10.1.1.3,35,-0.100,-0.100,-0.100,0.000,0.000,0.000
1644347717097083136,2022-02-08-19:15:17,10.1.1.3,34,-0.090,-0.090,-0.090,0.000,0.000,0.000
1644347717196768000,2022-02-08-19:15:17,10.1.1.3,33,-0.080,-0.080,-0.080,0.000,0.000,0.000
1644347717298572032,2022-02-08-19:15:17,10.1.1.3,32,-0.070,-0.070,-0.070,0.000,0.000,0.000
1644347717396549888,2022-02-08-19:15:17,10.1.1.3,31,-0.060,-0.060,-0.060,0.000,0.000,0.000
1644347717497153024,2022-02-08-19:15:17,10.1.1.3,29,-0.050,-0.050,-0.050,0.000,0.000,0.000
1644347717595626240,2022-02-08-19:15:17,10.1.1.3,28,-0.040,-0.040,-0.040,0.000,0.000,0.000
1644347717696180224,2022-02-08-19:15:17,10.1.1.3,28,-0.030,-0.030,-0.030,0.000,0.000,0.000
1644347717795959040,2022-02-08-19:15:17,10.1.1.3,27,-0.020,-0.020,-0.020,0.000,0.000,0.000
1644347717895814912,2022-02-08-19:15:17,10.1.1.3,26,-0.010,-0.010,-0.010,0.000,0.000,0.000
1644347717996022016,2022-02-08-19:15:17,10.1.1.3,26,0.000,0.000,0.000,0.000,0.000,0.000
1644347718097118976,2022-02-08-19:15:18,10.1.1.3,24,0.010,0.010,0.010,0.000,0.000,0.000
1644347718196114176,2022-02-08-19:15:18,10.1.1.3,22,0.020,0.020,0.020,0.000,0.000,0.000
1644347718296980992,2022-02-08-19:15:18,10.1.1.3,21,0.030,0.030,0.030,0.000,0.000,0.000
1644347718396133888,2022-02-08-19:15:18,10.1.1.3,21,0.040,0.040,0.040,0.000,0.000,0.000
1644347718496910080,2022-02-08-19:15:18,10.1.1.3,20,0.050,0.050,0.050,0.000,0.000,0.000
1644347718595777024,2022-02-08-19:15:18,10.1.1.3,19,0.059,0.059,0.059,0.000,0.000,0.000
1644347718715698944,2022-02-08-19:15:18,10.1.1.3,38,0.070,0.070,0.070,0.000,0.000,0.000
1644347718816098048,2022-02-08-19:15:18,10.1.1.3,37,0.080,0.080,0.080,0.000,0.000,0.000
1644347718915664896,2022-02-08-19:15:18,10.1.1.3,36,0.090,0.090,0.090,0.000,0.000,0.000
1644347719015991808,2022-02-08-19:15:19,10.1.1.3,35,0.100,0.100,0.100,0.000,0.000,0.000
1644347719115771136,2022-02-08-19:15:19,10.1.1.3,34,0.090,0.090,0.090,0.000,0.000,0.000
1644347719216221952,2022-02-08-19:15:19,10.1.1.3,33,0.080,0.080,0.080,0.000,0.000,0.000
1644347719315841024,2022-02-08-19:15:19,10.1.1.3,32,0.070,0.070,0.070,0.000,0.000,0.000
1644347719415921920,2022-02-08-19:15:19,10.1.1.3,31,0.060,0.060,0.060,0.000,0.000,0.000
1644347719516254976,2022-02-08-19:15:19,10.1.1.3,30,0.050,0.050,0.050,0.000,0.000,0.000
1644347719615739136,2022-02-08-19:15:19,10.1.1.3,29,0.040,0.040,0.040,0.000,0.000,0.000
1644347719715747072,2022-02-08-19:15:19,10.1.1.3,29,0.030,0.030,0.030,0.000,0.000,0.000
1644347719816015104,2022-02-08-19:15:19,10.1.1.3,28,0.020,0.020,0.020,0.000,0.000,0.000
1644347719915723008,2022-02-08-19:15:19,10.1.1.3,27,0.010,0.010,0.010,0.000,0.000,0.000
1644347720015912960,2022-02-08-19:15:20,10.1.1.3,24,0.000,0.000,0.000,0.000,0.000,0.000
1644347720116374016,2022-02-08-19:15:20,10.1.1.3,21,-0.010,-0.010,-0.010,0.000,0.000,0.000
1644347720216464128,2022-02-08-19:15:20,10.1.1.3,20,-0.020,-0.020,-0.020,0.000,0.000,0.000
1644347720316186880,2022-02-08-19:15:20,10.1.1.3,20,-0.030,-0.030,-0.030,0.000,0.000,0.000
1644347720436086784,2022-02-08-19:15:20,10.1.1.3,38,-0.040,-0.040,-0.040,0.000,0.000,0.000
1644347720536027904,2022-02-08-19:15:20,10.1.1.3,36,-0.050,-0.050,-0.050,0.000,0.000,0.000
1644347720636274176,2022-02-08-19:15:20,10.1.1.3,35,-0.060,-0.060,-0.060,0.000,0.000,0.000
1644347720735922944,2022-02-08-19:15:20,10.1.1.3,34,-0.070,-0.070,-0.070,0.000,0.000,0.000
1644347720835875072,2022-02-08-19:15:20,10.1.1.3,33,-0.080,-0.080,-0.080,0.000,0.000,0.000
1644347720936002048,2022-02-08-19:15:20,10.1.1.3,32,-0.090,-0.090,-0.090,0.000,0.000,0.000
1644347721036342016,2022-02-08-19:15:21,10.1.1.3,32,-0.100,-0.100,-0.100,0.000,0.000,0.000
1644347721136058112,2022-02-08-19:15:21,10.1.1.3,31,-0.090,-0.090,-0.090,0.000,0.000,0.000
1644347721236131840,2022-02-08-19:15:21,10.1.1.3,31,-0.080,-0.080,-0.080,0.000,0.000,0.000
1644347721335745024,2022-02-08-19:15:21,10.1.1.3,29,-0.070,-0.070,-0.070,0.000,0.000,0.000
1644347721435890944,2022-02-08-19:15:21,10.1.1.3,28,-0.060,-0.060,-0.060,0.000,0.000,0.000
1644347721536084992,2022-02-08-19:15:21,10.1.1.3,27,-0.050,-0.050,-0.050,0.000,0.000,0.000
1644347721657464064,2022-02-08-19:15:21,10.1.1.3,25,-0.040,-0.040,-0.040,0.000,0.000,0.000
1644347721735887104,2022-02-08-19:15:21,10.1.1.3,23,-0.030,-0.030,-0.030,0.000,0.000,0.000
1644347721836173056,2022-02-08-19:15:21,10.1.1.3,22,-0.020,-0.020,-0.020,0.000,0.000,0.000
1644347721935944960,2022-02-08-19:15:21,10.1.1.3,21,-0.010,-0.010,-0.010,0.000,0.000,0.000
1644347722036043776,2022-02-08-19:15:22,10.1.1.3,21,0.000,0.000,0.000,0.000,0.000,0.000
1644347722135715072,2022-02-08-19:15:22,10.1.1.3,20,0.010,0.010,0.010,0.000,0.000,0.000
1644347722236180992,2022-02-08-19:15:22,10.1.1.3,19,0.020,0.020,0.020,0.000,0.000,0.000
1644347722356293888,2022-02-08-19:15:22,10.1.1.3,38,0.030,0.030,0.030,0.000,0.000,0.000
1644347722455784960,2022-02-08-19:15:22,10.1.1.3,38,0.040,0.040,0.040,0.000,0.000,0.000
1644347722556292096,2022-02-08-19:15:22,10.1.1.3,37,0.050,0.050,0.050,0.000,0.000,0.000
1644347722655814912,2022-02-08-19:15:22,10.1.1.3,37,0.060,0.060,0.060,0.000,0.000,0.000
1644347722756146944,2022-02-08-19:15:22,10.1.1.3,36,0.070,0.070,0.070,0.000,0.000,0.000
1644347722855851008,2022-02-08-19:15:22,10.1.1.3,35,0.080,0.080,0.080,0.000,0.000,0.000
1644347722956046080,2022-02-08-19:15:22,10.1.1.3,34,0.090,0.090,0.090,0.000,0.000,0.000
1644347723056257024,2022-02-08-19:15:23,10.1.1.3,33,0.100,0.100,0.100,0.000,0.000,0.000
1644347723155837184,2022-02-08-19:15:23,10.1.1.3,31,0.090,0.090,0.090,0.000,0.000,0.000
1644347723256802048,2022-02-08-19:15:23,10.1.1.3,30,0.080,0.080,0.080,0.000,0.000,0.000
1644347723355700992,2022-02-08-19:15:23,10.1.1.3,26,0.070,0.070,0.070,0.000,0.000,0.000
1644347723456598016,2022-02-08-19:15:23,10.1.1.3,25,0.060,0.060,0.060,0.000,0.000,0.000
1644347723558653184,2022-02-08-19:15:23,10.1.1.3,23,0.050,0.050,0.050,0.000,0.000,0.000
1644347723659145216,2022-02-08-19:15:23,10.1.1.3,21,0.040,0.040,0.040,0.000,0.000,0.000
1644347723755973120,2022-02-08-19:15:23,10.1.1.3,19,0.031,0.031,0.031,0.000,0.000,0.000
1644347723876143872,2022-02-08-19:15:23,10.1.1.3,37,0.020,0.020,0.020,0.000,0.000,0.000
1644347723976290816,2022-02-08-19:15:23,10.1.1.3,36,0.010,0.010,0.010,0.000,0.000,0.000
1644347724075988992,2022-02-08-19:15:24,10.1.1.3,34,0.000,0.000,0.000,0.000,0.000,0.000
1644347724176340224,2022-02-08-19:15:24,10.1.1.3,33,-0.010,-0.010,-0.010,0.000,0.000,0.000
1644347724276504064,2022-02-08-19:15:24,10.1.1.3,32,-0.020,-0.020,-0.020,0.000,0.000,0.000
1644347724376308992,2022-02-08-19:15:24,10.1.1.3,31,-0.030,-0.030,-0.030,0.000,0.000,0.000
1644347724476008960,2022-02-08-19:15:24,10.1.1.3,30,-0.040,-0.040,-0.040,0.000,0.000,0.000
1644347724575707904,2022-02-08-19:15:24,10.1.1.3,29,-0.050,-0.050,-0.050,0.000,0.000,0.000
1644347724676819200,2022-02-08-19:15:24,10.1.1.3,28,-0.060,-0.060,-0.060,0.000,0.000,0.000
1644347724775718912,2022-02-08-19:15:24,10.1.1.3,26,-0.070,-0.070,-0.070,0.000,0.000,0.000
1644347724875760128,2022-02-08-19:15:24,10.1.1.3,26,-0.080,-0.080,-0.080,0.000,0.000,0.000
1644347724975899904,2022-02-08-19:15:24,10.1.1.3,23,-0.090,-0.090,-0.090,0.000,0.000,0.000
1644347725076427008,2022-02-08-19:15:25,10.1.1.3,23,-0.100,-0.100,-0.100,0.000,0.000,0.000
1644347725176163072,2022-02-08-19:15:25,10.1.1.3,21,-0.090,-0.090,-0.090,0.000,0.000,0.000
1644347725298320128,2022-02-08-19:15:25,10.1.1.3,39,-0.080,-0.080,-0.080,0.000,0.000,0.000
1644347725396336128,2022-02-08-19:15:25,10.1.1.3,38,-0.070,-0.070,-0.070,0.000,0.000,0.000
1644347725495617024,2022-02-08-19:15:25,10.1.1.3,37,-0.060,-0.060,-0.060,0.000,0.000,0.000
1644347725596389888,2022-02-08-19:15:25,10.1.1.3,36,-0.050,-0.050,-0.050,0.000,0.000,0.000
1644347725697000960,2022-02-08-19:15:25,10.1.1.3,35,-0.040,-0.040,-0.040,0.000,0.000,0.000
1644347725796188160,2022-02-08-19:15:25,10.1.1.3,34,-0.030,-0.030,-0.030,0.000,0.000,0.000
1644347725898050048,2022-02-08-19:15:25,10.1.1.3,33,-0.020,-0.020,-0.020,0.000,0.000,0.000
1644347725995834112,2022-02-08-19:15:25,10.1.1.3,31,-0.010,-0.010,-0.010,0.000,0.000,0.000
1644347726095833088,2022-02-08-19:15:26,10.1.1.3,30,0.000,0.000,0.000,0.000,0.000,0.000
1644347726196471808,2022-02-08-19:15:26,10.1.1.3,29,0.010,0.010,0.010,0.000,0.000,0.000
1644347726297571840,2022-02-08-19:15:26,10.1.1.3,28,0.020,0.020,0.020,0.000,0.000,0.000
1644347726396502016,2022-02-08-19:15:26,10.1.1.3,26,0.030,0.030,0.030,0.000,0.000,0.000
1644347726495948032,2022-02-08-19:15:26,10.1.1.3,23,0.040,0.040,0.040,0.000,0.000,0.000
1644347726596174848,2022-02-08-19:15:26,10.1.1.3,21,0.050,0.050,0.050,0.000,0.000,0.000
1644347726696276992,2022-02-08-19:15:26,10.1.1.3,21,0.060,0.060,0.060,0.000,0.000,0.000
1644347726796673024,2022-02-08-19:15:26,10.1.1.3,19,0.069,0.069,0.069,0.000,0.000,0.000
1644347726916975872,2022-02-08-19:15:26,10.1.1.3,38,0.080,0.080,0.080,0.000,0.000,0.000
1644347727016325888,2022-02-08-19:15:27,10.1.1.3,37,0.090,0.090,0.090,0.000,0.000,0.000
1644347727116038144,2022-02-08-19:15:27,10.1.1.3,36,0.100,0.100,0.100,0.000,0.000,0.000
1644347727215655936,2022-02-08-19:15:27,10.1.1.3,35,0.090,0.090,0.090,0.000,0.000,0.000
1644347727316945152,2022-02-08-19:15:27,10.1.1.3,34,0.080,0.080,0.080,0.000,0.000,0.000
1644347727416468992,2022-02-08-19:15:27,10.1.1.3,30,0.070,0.070,0.070,0.000,0.000,0.000
1644347727518373888,2022-02-08-19:15:27,10.1.1.3,30,0.060,0.060,0.060,0.000,0.000,0.000
1644347727616486912,2022-02-08-19:15:27,10.1.1.3,29,0.050,0.050,0.050,0.000,0.000,0.000
1644347727716861952,2022-02-08-19:15:27,10.1.1.3,27,0.040,0.040,0.040,0.000,0.000,0.000
1644347727817116928,2022-02-08-19:15:27,10.1.1.3,21,0.030,0.030,0.030,0.000,0.000,0.000
1644347727916132864,2022-02-08-19:15:27,10.1.1.3,20,0.020,0.020,0.020,0.000,0.000,0.000
1644347728016616192,2022-02-08-19:15:28,10.1.1.3,19,0.010,0.010,0.010,0.000,0.000,0.000
1644347728116478976,2022-02-08-19:15:28,10.1.1.3,19,0.001,0.001,0.001,0.000,0.000,0.000
1644347728236376064,2022-02-08-19:15:28,10.1.1.3,38,-0.010,-0.010,-0.010,0.000,0.000,0.000
1644347728335895040,2022-02-08-19:15:28,10.1.1.3,37,-0.020,-0.020,-0.020,0.000,0.000,0.000
1644347728436487936,2022-02-08-19:15:28,10.1.1.3,36,-0.030,-0.030,-0.030,0.000,0.000,0.000
1644347728537384960,2022-02-08-19:15:28,10.1.1.3,35,-0.040,-0.040,-0.040,0.000,0.000,0.000
1644347728636180992,2022-02-08-19:15:28,10.1.1.3,34,-0.050,-0.050,-0.050,0.000,0.000,0.000
1644347728735915008,2022-02-08-19:15:28,10.1.1.3,32,-0.060,-0.060,-0.060,0.000,0.000,0.000
1644347728836230912,2022-02-08-19:15:28,10.1.1.3,31,-0.070,-0.070,-0.070,0.000,0.000,0.000
1644347728936147968,2022-02-08-19:15:28,10.1.1.3,30,-0.080,-0.080,-0.080,0.000,0.000,0.000
1644347729035772928,2022-02-08-19:15:29,10.1.1.3,29,-0.090,-0.090,-0.090,0.000,0.000,0.000
1644347729136163840,2022-02-08-19:15:29,10.1.1.3,28,-0.100,-0.100,-0.100,0.000,0.000,0.000
1644347729236061184,2022-02-08-19:15:29,10.1.1.3,27,-0.090,-0.090,-0.090,0.000,0.000,0.000
1644347729336376832,2022-02-08-19:15:29,10.1.1.3,27,-0.080,-0.080,-0.080,0.000,0.000,0.000
1644347729435899136,2022-02-08-19:15:29,10.1.1.3,26,-0.070,-0.070,-0.070,0.000,0.000,0.000
1644347729536390912,2022-02-08-19:15:29,10.1.1.3,25,-0.060,-0.060,-0.060,0.000,0.000,0.000
1644347729636601856,2022-02-08-19:15:29,10.1.1.3,23,-0.050,-0.050,-0.050,0.000,0.000,0.000
1644347729736427008,2022-02-08-19:15:29,10.1.1.3,22,-0.040,-0.040,-0.040,0.000,0.000,0.000
1644347729836133888,2022-02-08-19:15:29,10.1.1.3,22,-0.030,-0.030,-0.030,0.000,0.000,0.000
1644347729935911936,2022-02-08-19:15:29,10.1.1.3,20,-0.020,-0.020,-0.020,0.000,0.000,0.000
1644347730056952832,2022-02-08-19:15:30,10.1.1.3,37,-0.010,-0.010,-0.010,0.000,0.000,0.000
1644347730156060928,2022-02-08-19:15:30,10.1.1.3,36,0.000,0.000,0.000,0.000,0.000,0.000
1644347730256727040,2022-02-08-19:15:30,10.1.1.3,35,0.010,0.010,0.010,0.000,0.000,0.000
1644347730356801024,2022-02-08-19:15:30,10.1.1.3,34,0.020,0.020,0.020,0.000,0.000,0.000
1644347730456128000,2022-02-08-19:15:30,10.1.1.3,32,0.030,0.030,0.030,0.000,0.000,0.000
1644347730556428800,2022-02-08-19:15:30,10.1.1.3,31,0.040,0.040,0.040,0.000,0.000,0.000
1644347730656868864,2022-02-08-19:15:30,10.1.1.3,31,0.050,0.050,0.050,0.000,0.000,0.000
1644347730756540928,2022-02-08-19:15:30,10.1.1.3,30,0.060,0.060,0.060,0.000,0.000,0.000
1644347730856076032,2022-02-08-19:15:30,10.1.1.3,29,0.070,0.070,0.070,0.000,0.000,0.000
1644347730955919872,2022-02-08-19:15:30,10.1.1.3,28,0.080,0.080,0.080,0.000,0.000,0.000
1644347731055939840,2022-02-08-19:15:31,10.1.1.3,28,0.090,0.090,0.090,0.000,0.000,0.000
1644347731156132096,2022-02-08-19:15:31,10.1.1.3,27,0.100,0.100,0.100,0.000,0.000,0.000
1644347731256406016,2022-02-08-19:15:31,10.1.1.3,26,0.090,0.090,0.090,0.000,0.000,0.000
1644347731356446976,2022-02-08-19:15:31,10.1.1.3,26,0.080,0.080,0.080,0.000,0.000,0.000
1644347731456445952,2022-02-08-19:15:31,10.1.1.3,25,0.070,0.070,0.070,0.000,0.000,0.000
1644347731556514048,2022-02-08-19:15:31,10.1.1.3,25,0.060,0.060,0.060,0.000,0.000,0.000
1644347731656198912,2022-02-08-19:15:31,10.1.1.3,24,0.050,0.050,0.050,0.000,0.000,0.000
1644347731756849152,2022-02-08-19:15:31,10.1.1.3,23,0.040,0.040,0.040,0.000,0.000,0.000
1644347731856438016,2022-02-08-19:15:31,10.1.1.3,22,0.030,0.030,0.030,0.000,0.000,0.000
1644347731956473088,2022-02-08-19:15:31,10.1.1.3,21,0.020,0.020,0.020,0.000,0.000,0.000
1644347732056343040,2022-02-08-19:15:32,10.1.1.3,21,0.010,0.010,0.010,0.000,0.000,0.000
1644347732156521984,2022-02-08-19:15:32,10.1.1.3,20,0.000,0.000,0.000,0.000,0.000,0.000
1644347732256717056,2022-02-08-19:15:32,10.1.1.3,19,-0.010,-0.010,-0.010,0.000,0.000,0.000
1644347732356416000,2022-02-08-19:15:32,10.1.1.3,19,-0.020,-0.020,-0.020,0.000,0.000,0.000
1644347732476485888,2022-02-08-19:15:32,10.1.1.3,38,-0.030,-0.030,-0.030,0.000,0.000,0.000
1644347732575504896,2022-02-08-19:15:32,10.1.1.3,37,-0.040,-0.040,-0.040,0.000,0.000,0.000
1644347732676222208,2022-02-08-19:15:32,10.1.1.3,37,-0.050,-0.050,-0.050,0.000,0.000,0.000
1644347732776060160,2022-02-08-19:15:32,10.1.1.3,36,-0.060,-0.060,-0.060,0.000,0.000,0.000
1644347732875962112,2022-02-08-19:15:32,10.1.1.3,36,-0.070,-0.070,-0.070,0.000,0.000,0.000
1644347732976425984,2022-02-08-19:15:32,10.1.1.3,35,-0.080,-0.080,-0.080,0.000,0.000,0.000
1644347733076359936,2022-02-08-19:15:33,10.1.1.3,35,-0.090,-0.090,-0.090,0.000,0.000,0.000
1644347733176254976,2022-02-08-19:15:33,10.1.1.3,34,-0.100,-0.100,-0.100,0.000,0.000,0.000
1644347733275811840,2022-02-08-19:15:33,10.1.1.3,33,-0.090,-0.090,-0.090,0.000,0.000,0.000
1644347733376271872,2022-02-08-19:15:33,10.1.1.3,33,-0.080,-0.080,-0.080,0.000,0.000,0.000
1644347733475972864,2022-02-08-19:15:33,10.1.1.3,32,-0.070,-0.070,-0.070,0.000,0.000,0.000
1644347733582347008,2022-02-08-19:15:33,10.1.1.3,31,-0.060,-0.060,-0.060,0.000,0.000,0.000
1644347733676513024,2022-02-08-19:15:33,10.1.1.3,30,-0.050,-0.050,-0.050,0.000,0.000,0.000
1644347733803086080,2022-02-08-19:15:33,10.1.1.3,37,-0.040,-0.040,-0.040,0.000,0.000,0.000
1644347733909347072,2022-02-08-19:15:33,10.1.1.3,35,-0.030,-0.030,-0.030,0.000,0.000,0.000
1644347733996448000,2022-02-08-19:15:33,10.1.1.3,34,-0.020,-0.020,-0.020,0.000,0.000,0.000
1644347734095472128,2022-02-08-19:15:34,10.1.1.3,33,-0.010,-0.010,-0.010,0.000,0.000,0.000
1644347734195604992,2022-02-08-19:15:34,10.1.1.3,32,0.000,0.000,0.000,0.000,0.000,0.000
1644347734297492992,2022-02-08-19:15:34,10.1.1.3,32,0.010,0.010,0.010,0.000,0.000,0.000
1644347734398268928,2022-02-08-19:15:34,10.1.1.3,26,0.020,0.020,0.020,0.000,0.000,0.000
1644347734496481024,2022-02-08-19:15:34,10.1.1.3,25,0.030,0.030,0.030,0.000,0.000,0.000
1644347734596100096,2022-02-08-19:15:34,10.1.1.3,22,0.040,0.040,0.040,0.000,0.000,0.000
1644347734696118016,2022-02-08-19:15:34,10.1.1.3,21,0.050,0.050,0.050,0.000,0.000,0.000
1644347734796128000,2022-02-08-19:15:34,10.1.1.3,20,0.060,0.060,0.060,0.000,0.000,0.000
1644347734895956992,2022-02-08-19:15:34,10.1.1.3,19,0.070,0.070,0.070,0.000,0.000,0.000
1644347735016161792,2022-02-08-19:15:35,10.1.1.3,38,0.080,0.080,0.080,0.000,0.000,0.000
1644347735116295168,2022-02-08-19:15:35,10.1.1.3,38,0.090,0.090,0.090,0.000,0.000,0.000
1644347735216007936,2022-02-08-19:15:35,10.1.1.3,37,0.100,0.100,0.100,0.000,0.000,0.000
1644347735316097024,2022-02-08-19:15:35,10.1.1.3,36,0.090,0.090,0.090,0.000,0.000,0.000
1644347735416315136,2022-02-08-19:15:35,10.1.1.3,35,0.080,0.080,0.080,0.000,0.000,0.000
1644347735516143104,2022-02-08-19:15:35,10.1.1.3,34,0.070,0.070,0.070,0.000,0.000,0.000
1644347735616508928,2022-02-08-19:15:35,10.1.1.3,33,0.060,0.060,0.060,0.000,0.000,0.000
1644347735717315072,2022-02-08-19:15:35,10.1.1.3,28,0.050,0.050,0.050,0.000,0.000,0.000
1644347735816013056,2022-02-08-19:15:35,10.1.1.3,28,0.040,0.040,0.040,0.000,0.000,0.000
1644347735916531968,2022-02-08-19:15:35,10.1.1.3,27,0.030,0.030,0.030,0.000,0.000,0.000
1644347736016304128,2022-02-08-19:15:36,10.1.1.3,26,0.020,0.020,0.020,0.000,0.000,0.000
1644347736116195840,2022-02-08-19:15:36,10.1.1.3,25,0.010,0.010,0.010,0.000,0.000,0.000
1644347736216165120,2022-02-08-19:15:36,10.1.1.3,23,0.000,0.000,0.000,0.000,0.000,0.000
1644347736316163072,2022-02-08-19:15:36,10.1.1.3,22,-0.010,-0.010,-0.010,0.000,0.000,0.000
1644347736416130048,2022-02-08-19:15:36,10.1.1.3,21,-0.020,-0.020,-0.020,0.000,0.000,0.000
1644347736516163072,2022-02-08-19:15:36,10.1.1.3,20,-0.030,-0.030,-0.030,0.000,0.000,0.000
1644347736616039936,2022-02-08-19:15:36,10.1.1.3,19,-0.040,-0.040,-0.040,0.000,0.000,0.000
1644347736736217856,2022-02-08-19:15:36,10.1.1.3,38,-0.050,-0.050,-0.050,0.000,0.000,0.000
1644347736836896000,2022-02-08-19:15:36,10.1.1.3,38,-0.060,-0.060,-0.060,0.000,0.000,0.000
1644347736935719936,2022-02-08-19:15:36,10.1.1.3,37,-0.070,-0.070,-0.070,0.000,0.000,0.000
1644347737036139008,2022-02-08-19:15:37,10.1.1.3,36,-0.080,-0.080,-0.080,0.000,0.000,0.000
1644347737136483840,2022-02-08-19:15:37,10.1.1.3,35,-0.090,-0.090,-0.090,0.000,0.000,0.000
1644347737237193216,2022-02-08-19:15:37,10.1.1.3,34,-0.100,-0.100,-0.100,0.000,0.000,0.000
1644347737336925952,2022-02-08-19:15:37,10.1.1.3,32,-0.090,-0.090,-0.090,0.000,0.000,0.000
1644347737435881984,2022-02-08-19:15:37,10.1.1.3,30,-0.080,-0.080,-0.080,0.000,0.000,0.000
1644347737536353024,2022-02-08-19:15:37,10.1.1.3,28,-0.070,-0.070,-0.070,0.000,0.000,0.000
1644347737636730880,2022-02-08-19:15:37,10.1.1.3,26,-0.060,-0.060,-0.060,0.000,0.000,0.000
1644347737736974848,2022-02-08-19:15:37,10.1.1.3,26,-0.050,-0.050,-0.050,0.000,0.000,0.000
1644347737836781056,2022-02-08-19:15:37,10.1.1.3,21,-0.040,-0.040,-0.040,0.000,0.000,0.000
1644347737935813888,2022-02-08-19:15:37,10.1.1.3,20,-0.030,-0.030,-0.030,0.000,0.000,0.000
1644347738056414976,2022-02-08-19:15:38,10.1.1.3,38,-0.020,-0.020,-0.020,0.000,0.000,0.000
1644347738156333056,2022-02-08-19:15:38,10.1.1.3,36,-0.010,-0.010,-0.010,0.000,0.000,0.000
1644347738216801024,2022-02-08-19:15:38,10.1.1.3,-6,-0.010,-0.010,-0.010,0.000,0.000,0.000
1644347738359160832,2022-02-08-19:15:38,10.1.1.3,34,0.010,0.010,0.010,0.000,0.000,0.000
1644347738457434880,2022-02-08-19:15:38,10.1.1.3,31,0.020,0.020,0.020,0.000,0.000,0.000
1644347738556269824,2022-02-08-19:15:38,10.1.1.3,29,0.030,0.030,0.030,0.000,0.000,0.000
1644347738656184064,2022-02-08-19:15:38,10.1.1.3,28,0.040,0.040,0.040,0.000,0.000,0.000
1644347738756825856,2022-02-08-19:15:38,10.1.1.3,28,0.050,0.050,0.050,0.000,0.000,0.000
1644347738857122048,2022-02-08-19:15:38,10.1.1.3,27,0.060,0.060,0.060,0.000,0.000,0.000
1644347738955326208,2022-02-08-19:15:38,10.1.1.3,25,0.070,0.070,0.070,0.000,0.000,0.000
1644347739055767040,2022-02-08-19:15:39,10.1.1.3,25,0.080,0.080,0.080,0.000,0.000,0.000
1644347739157094912,2022-02-08-19:15:39,10.1.1.3,24,0.090,0.090,0.090,0.000,0.000,0.000
1644347739256823040,2022-02-08-19:15:39,10.1.1.3,21,0.100,0.100,0.100,0.000,0.000,0.000
1644347739356179968,2022-02-08-19:15:39,10.1.1.3,21,0.090,0.090,0.090,0.000,0.000,0.000
1644347739456148992,2022-02-08-19:15:39,10.1.1.3,20,0.080,0.080,0.080,0.000,0.000,0.000
1644347739556179968,2022-02-08-19:15:39,10.1.1.3,19,0.070,0.070,0.070,0.000,0.000,0.000
1644347739656465920,2022-02-08-19:15:39,10.1.1.3,19,0.061,0.061,0.061,0.000,0.000,0.000
1644347739778183936,2022-02-08-19:15:39,10.1.1.3,38,0.050,0.050,0.050,0.000,0.000,0.000
1644347739876928000,2022-02-08-19:15:39,10.1.1.3,37,0.040,0.040,0.040,0.000,0.000,0.000
1644347739977665792,2022-02-08-19:15:39,10.1.1.3,36,0.030,0.030,0.030,0.000,0.000,0.000
1644347740077827072,2022-02-08-19:15:40,10.1.1.3,35,0.020,0.020,0.020,0.000,0.000,0.000
1644347740176541952,2022-02-08-19:15:40,10.1.1.3,34,0.010,0.010,0.010,0.000,0.000,0.000
1644347740276715008,2022-02-08-19:15:40,10.1.1.3,33,0.000,0.000,0.000,0.000,0.000,0.000
1644347740375889920,2022-02-08-19:15:40,10.1.1.3,32,-0.010,-0.010,-0.010,0.000,0.000,0.000
1644347740476239872,2022-02-08-19:15:40,10.1.1.3,31,-0.020,-0.020,-0.020,0.000,0.000,0.000
1644347740576365824,2022-02-08-19:15:40,10.1.1.3,31,-0.030,-0.030,-0.030,0.000,0.000,0.000
1644347740676736000,2022-02-08-19:15:40,10.1.1.3,30,-0.040,-0.040,-0.040,0.000,0.000,0.000
1644347740775984128,2022-02-08-19:15:40,10.1.1.3,29,-0.050,-0.050,-0.050,0.000,0.000,0.000
1644347740875802880,2022-02-08-19:15:40,10.1.1.3,27,-0.060,-0.060,-0.060,0.000,0.000,0.000
1644347740975971072,2022-02-08-19:15:40,10.1.1.3,26,-0.070,-0.070,-0.070,0.000,0.000,0.000
1644347741076988928,2022-02-08-19:15:41,10.1.1.3,26,-0.080,-0.080,-0.080,0.000,0.000,0.000
1644347741176155136,2022-02-08-19:15:41,10.1.1.3,24,-0.090,-0.090,-0.090,0.000,0.000,0.000
1644347741276644096,2022-02-08-19:15:41,10.1.1.3,23,-0.100,-0.100,-0.100,0.000,0.000,0.000
1644347741377947136,2022-02-08-19:15:41,10.1.1.3,21,-0.090,-0.090,-0.090,0.000,0.000,0.000
1644347741476089856,2022-02-08-19:15:41,10.1.1.3,21,-0.080,-0.080,-0.080,0.000,0.000,0.000
1644347741576236032,2022-02-08-19:15:41,10.1.1.3,20,-0.070,-0.070,-0.070,0.000,0.000,0.000
1644347741676232960,2022-02-08-19:15:41,10.1.1.3,20,-0.060,-0.060,-0.060,0.000,0.000,0.000
1644347741776753920,2022-02-08-19:15:41,10.1.1.3,19,-0.051,-0.051,-0.051,0.000,0.000,0.000
1644347741896462848,2022-02-08-19:15:41,10.1.1.3,38,-0.040,-0.040,-0.040,0.000,0.000,0.000
1644347741996432896,2022-02-08-19:15:41,10.1.1.3,38,-0.030,-0.030,-0.030,0.000,0.000,0.000
1644347742096402944,2022-02-08-19:15:42,10.1.1.3,37,-0.020,-0.020,-0.020,0.000,0.000,0.000
1644347742196083968,2022-02-08-19:15:42,10.1.1.3,36,-0.010,-0.010,-0.010,0.000,0.000,0.000
1644347742298491904,2022-02-08-19:15:42,10.1.1.3,35,0.000,0.000,0.000,0.000,0.000,0.000
1644347742397934848,2022-02-08-19:15:42,10.1.1.3,34,0.010,0.010,0.010,0.000,0.000,0.000
1644347742496653056,2022-02-08-19:15:42,10.1.1.3,32,0.020,0.020,0.020,0.000,0.000,0.000
1644347742599691008,2022-02-08-19:15:42,10.1.1.3,31,0.030,0.030,0.030,0.000,0.000,0.000
1644347742696139008,2022-02-08-19:15:42,10.1.1.3,26,0.040,0.040,0.040,0.000,0.000,0.000
1644347742795828992,2022-02-08-19:15:42,10.1.1.3,24,0.050,0.050,0.050,0.000,0.000,0.000
1644347742895729152,2022-02-08-19:15:42,10.1.1.3,23,0.060,0.060,0.060,0.000,0.000,0.000
1644347742996432896,2022-02-08-19:15:42,10.1.1.3,22,0.070,0.070,0.070,0.000,0.000,0.000
1644347743121847040,2022-02-08-19:15:43,10.1.1.3,37,0.080,0.080,0.080,0.000,0.000,0.000
1644347743215773184,2022-02-08-19:15:43,10.1.1.3,36,0.090,0.090,0.090,0.000,0.000,0.000
1644347743316306944,2022-02-08-19:15:43,10.1.1.3,35,0.100,0.100,0.100,0.000,0.000,0.000
1644347743416999168,2022-02-08-19:15:43,10.1.1.3,34,0.090,0.090,0.090,0.000,0.000,0.000
1644347743517693952,2022-02-08-19:15:43,10.1.1.3,33,0.080,0.080,0.080,0.000,0.000,0.000
1644347743619878144,2022-02-08-19:15:43,10.1.1.3,31,0.070,0.070,0.070,0.000,0.000,0.000
1644347743718758144,2022-02-08-19:15:43,10.1.1.3,30,0.060,0.060,0.060,0.000,0.000,0.000
1644347743816695040,2022-02-08-19:15:43,10.1.1.3,29,0.050,0.050,0.050,0.000,0.000,0.000
1644347743916545024,2022-02-08-19:15:43,10.1.1.3,28,0.040,0.040,0.040,0.000,0.000,0.000
1644347744016304896,2022-02-08-19:15:44,10.1.1.3,27,0.030,0.030,0.030,0.000,0.000,0.000
1644347744116365056,2022-02-08-19:15:44,10.1.1.3,26,0.020,0.020,0.020,0.000,0.000,0.000
1644347744216364032,2022-02-08-19:15:44,10.1.1.3,24,0.010,0.010,0.010,0.000,0.000,0.000
1644347744316075008,2022-02-08-19:15:44,10.1.1.3,22,0.000,0.000,0.000,0.000,0.000,0.000
1644347744415802880,2022-02-08-19:15:44,10.1.1.3,21,-0.010,-0.010,-0.010,0.000,0.000,0.000
1644347744516567040,2022-02-08-19:15:44,10.1.1.3,20,-0.020,-0.020,-0.020,0.000,0.000,0.000
1644347744616660224,2022-02-08-19:15:44,10.1.1.3,20,-0.030,-0.030,-0.030,0.000,0.000,0.000
1644347744741489920,2022-02-08-19:15:44,10.1.1.3,19,-0.039,-0.039,-0.039,0.000,0.000,0.000
1644347745007993088,2022-02-08-19:15:44,10.1.1.3,38,-0.050,-0.050,-0.050,0.000,0.000,0.000
1644347745036272128,2022-02-08-19:15:45,10.1.1.3,22,-0.060,-0.060,-0.060,0.000,0.000,0.000
1644347745135767040,2022-02-08-19:15:45,10.1.1.3,21,-0.070,-0.070,-0.070,0.000,0.000,0.000
1644347745257742848,2022-02-08-19:15:45,10.1.1.3,33,-0.080,-0.080,-0.080,0.000,0.000,0.000
1644347745355897856,2022-02-08-19:15:45,10.1.1.3,33,-0.090,-0.090,-0.090,0.000,0.000,0.000
1644347745455857152,2022-02-08-19:15:45,10.1.1.3,32,-0.100,-0.100,-0.100,0.000,0.000,0.000
1644347745556071168,2022-02-08-19:15:45,10.1.1.3,31,-0.090,-0.090,-0.090,0.000,0.000,0.000
1644347745656109056,2022-02-08-19:15:45,10.1.1.3,30,-0.080,-0.080,-0.080,0.000,0.000,0.000
1644347745756283136,2022-02-08-19:15:45,10.1.1.3,29,-0.070,-0.070,-0.070,0.000,0.000,0.000
1644347745856004096,2022-02-08-19:15:45,10.1.1.3,29,-0.060,-0.060,-0.060,0.000,0.000,0.000
1644347745956199936,2022-02-08-19:15:45,10.1.1.3,28,-0.050,-0.050,-0.050,0.000,0.000,0.000
1644347746056253952,2022-02-08-19:15:46,10.1.1.3,27,-0.040,-0.040,-0.040,0.000,0.000,0.000
1644347746155819776,2022-02-08-19:15:46,10.1.1.3,27,-0.030,-0.030,-0.030,0.000,0.000,0.000
1644347746255968000,2022-02-08-19:15:46,10.1.1.3,26,-0.020,-0.020,-0.020,0.000,0.000,0.000
1644347746355698944,2022-02-08-19:15:46,10.1.1.3,26,-0.010,-0.010,-0.010,0.000,0.000,0.000
1644347746456157952,2022-02-08-19:15:46,10.1.1.3,25,0.000,0.000,0.000,0.000,0.000,0.000
1644347746555910144,2022-02-08-19:15:46,10.1.1.3,25,0.010,0.010,0.010,0.000,0.000,0.000
1644347746655846144,2022-02-08-19:15:46,10.1.1.3,24,0.020,0.020,0.020,0.000,0.000,0.000
1644347746756023808,2022-02-08-19:15:46,10.1.1.3,23,0.030,0.030,0.030,0.000,0.000,0.000
1644347746855848960,2022-02-08-19:15:46,10.1.1.3,21,0.040,0.040,0.040,0.000,0.000,0.000
1644347746955571968,2022-02-08-19:15:46,10.1.1.3,21,0.050,0.050,0.050,0.000,0.000,0.000
1644347747056099840,2022-02-08-19:15:47,10.1.1.3,21,0.060,0.060,0.060,0.000,0.000,0.000
1644347747155692032,2022-02-08-19:15:47,10.1.1.3,20,0.070,0.070,0.070,0.000,0.000,0.000
1644347747256279040,2022-02-08-19:15:47,10.1.1.3,19,0.079,0.079,0.079,0.000,0.000,0.000
1644347747375719168,2022-02-08-19:15:47,10.1.1.3,38,0.090,0.090,0.090,0.000,0.000,0.000
1644347747479695104,2022-02-08-19:15:47,10.1.1.3,37,0.100,0.100,0.100,0.000,0.000,0.000
1644347747575804928,2022-02-08-19:15:47,10.1.1.3,37,0.090,0.090,0.090,0.000,0.000,0.000
1644347747676091904,2022-02-08-19:15:47,10.1.1.3,36,0.080,0.080,0.080,0.000,0.000,0.000
1644347747775866880,2022-02-08-19:15:47,10.1.1.3,35,0.070,0.070,0.070,0.000,0.000,0.000
1644347747876188160,2022-02-08-19:15:47,10.1.1.3,34,0.060,0.060,0.060,0.000,0.000,0.000
1644347747975662080,2022-02-08-19:15:47,10.1.1.3,34,0.050,0.050,0.050,0.000,0.000,0.000
1644347748076056064,2022-02-08-19:15:48,10.1.1.3,33,0.040,0.040,0.040,0.000,0.000,0.000
1644347748177163008,2022-02-08-19:15:48,10.1.1.3,32,0.030,0.030,0.030,0.000,0.000,0.000
1644347748277780992,2022-02-08-19:15:48,10.1.1.3,31,0.020,0.020,0.020,0.000,0.000,0.000
1644347748375739136,2022-02-08-19:15:48,10.1.1.3,29,0.010,0.010,0.010,0.000,0.000,0.000
1644347748476242176,2022-02-08-19:15:48,10.1.1.3,24,0.000,0.000,0.000,0.000,0.000,0.000
1644347748576244224,2022-02-08-19:15:48,10.1.1.3,23,-0.010,-0.010,-0.010,0.000,0.000,0.000
1644347748676050944,2022-02-08-19:15:48,10.1.1.3,22,-0.020,-0.020,-0.020,0.000,0.000,0.000
