FedericoMungari/DigitalTwin_service/01_WiredScenario/Output/Output_script/script_rosapi_2_output_robots6_freq0_5.txt
timestamp,date,node,latency,joint_1,joint_2,joint_3,joint_4,joint_5,joint_6
1644905246308907008,2022-02-15-06:07:26,10.1.1.6,-8,-0.100,-0.100,-0.100,0.000,0.000,0.000
1644905246400881920,2022-02-15-06:07:26,10.1.1.6,22,-0.090,-0.090,-0.090,0.000,0.000,0.000
1644905246448827136,2022-02-15-06:07:26,10.1.1.6,30,-0.080,-0.080,-0.080,0.000,0.000,0.000
1644905246489876992,2022-02-15-06:07:26,10.1.1.6,19,-0.070,-0.070,-0.070,0.000,0.000,0.000
1644905246546574080,2022-02-15-06:07:26,10.1.1.6,29,-0.060,-0.060,-0.060,0.000,0.000,0.000
1644905246607633152,2022-02-15-06:07:26,10.1.1.6,39,-0.050,-0.050,-0.050,0.000,0.000,0.000
1644905246648505856,2022-02-15-06:07:26,10.1.1.6,28,-0.040,-0.040,-0.040,0.000,0.000,0.000
1644905246706971904,2022-02-15-06:07:26,10.1.1.6,38,-0.030,-0.030,-0.030,0.000,0.000,0.000
1644905246747170816,2022-02-15-06:07:26,10.1.1.6,27,-0.020,-0.020,-0.020,0.000,0.000,0.000
1644905246808718848,2022-02-15-06:07:26,10.1.1.6,37,-0.010,-0.010,-0.010,0.000,0.000,0.000
1644905246849370112,2022-02-15-06:07:26,10.1.1.6,26,0.000,0.000,0.000,0.000,0.000,0.000
1644905246907124992,2022-02-15-06:07:26,10.1.1.6,35,0.010,0.010,0.010,0.000,0.000,0.000
1644905246948343040,2022-02-15-06:07:26,10.1.1.6,25,0.020,0.020,0.020,0.000,0.000,0.000
1644905247008955904,2022-02-15-06:07:27,10.1.1.6,34,0.030,0.030,0.030,0.000,0.000,0.000
1644905247048062976,2022-02-15-06:07:27,10.1.1.6,24,0.040,0.040,0.040,0.000,0.000,0.000
1644905247107436032,2022-02-15-06:07:27,10.1.1.6,34,0.050,0.050,0.050,0.000,0.000,0.000
1644905247147352064,2022-02-15-06:07:27,10.1.1.6,23,0.060,0.060,0.060,0.000,0.000,0.000
1644905247206612224,2022-02-15-06:07:27,10.1.1.6,32,0.070,0.070,0.070,0.000,0.000,0.000
1644905247246130944,2022-02-15-06:07:27,10.1.1.6,22,0.080,0.080,0.080,0.000,0.000,0.000
1644905247306921984,2022-02-15-06:07:27,10.1.1.6,31,0.090,0.090,0.090,0.000,0.000,0.000
1644905247346873088,2022-02-15-06:07:27,10.1.1.6,20,0.100,0.100,0.100,0.000,0.000,0.000
1644905247406821120,2022-02-15-06:07:27,10.1.1.6,30,0.090,0.090,0.090,0.000,0.000,0.000
1644905247466619136,2022-02-15-06:07:27,10.1.1.6,38,0.080,0.080,0.080,0.000,0.000,0.000
1644905247507083776,2022-02-15-06:07:27,10.1.1.6,27,0.070,0.070,0.070,0.000,0.000,0.000
1644905247567011072,2022-02-15-06:07:27,10.1.1.6,36,0.060,0.060,0.060,0.000,0.000,0.000
1644905247607532032,2022-02-15-06:07:27,10.1.1.6,26,0.050,0.050,0.050,0.000,0.000,0.000
1644905247666804992,2022-02-15-06:07:27,10.1.1.6,34,0.040,0.040,0.040,0.000,0.000,0.000
1644905247708235008,2022-02-15-06:07:27,10.1.1.6,23,0.030,0.030,0.030,0.000,0.000,0.000
1644905247766430976,2022-02-15-06:07:27,10.1.1.6,32,0.020,0.020,0.020,0.000,0.000,0.000
1644905247807260160,2022-02-15-06:07:27,10.1.1.6,22,0.010,0.010,0.010,0.000,0.000,0.000
1644905247866366976,2022-02-15-06:07:27,10.1.1.6,31,0.000,0.000,0.000,0.000,0.000,0.000
1644905247906889984,2022-02-15-06:07:27,10.1.1.6,20,-0.010,-0.010,-0.010,0.000,0.000,0.000
1644905247966327808,2022-02-15-06:07:27,10.1.1.6,30,-0.020,-0.020,-0.020,0.000,0.000,0.000
1644905248028595968,2022-02-15-06:07:28,10.1.1.6,38,-0.030,-0.030,-0.030,0.000,0.000,0.000
1644905248068186880,2022-02-15-06:07:28,10.1.1.6,26,-0.040,-0.040,-0.040,0.000,0.000,0.000
1644905248126257920,2022-02-15-06:07:28,10.1.1.6,32,-0.050,-0.050,-0.050,0.000,0.000,0.000
1644905248167980032,2022-02-15-06:07:28,10.1.1.6,22,-0.060,-0.060,-0.060,0.000,0.000,0.000
1644905248227997184,2022-02-15-06:07:28,10.1.1.6,31,-0.070,-0.070,-0.070,0.000,0.000,0.000
1644905248267250944,2022-02-15-06:07:28,10.1.1.6,20,-0.080,-0.080,-0.080,0.000,0.000,0.000
1644905248319452928,2022-02-15-06:07:28,10.1.1.6,22,-0.090,-0.090,-0.090,0.000,0.000,0.000
1644905248367269888,2022-02-15-06:07:28,10.1.1.6,19,-0.100,-0.100,-0.100,0.000,0.000,0.000
1644905248427294976,2022-02-15-06:07:28,10.1.1.6,29,-0.090,-0.090,-0.090,0.000,0.000,0.000
1644905248489147904,2022-02-15-06:07:28,10.1.1.6,37,-0.080,-0.080,-0.080,0.000,0.000,0.000
1644905248527136000,2022-02-15-06:07:28,10.1.1.6,25,-0.070,-0.070,-0.070,0.000,0.000,0.000
1644905248588376064,2022-02-15-06:07:28,10.1.1.6,32,-0.060,-0.060,-0.060,0.000,0.000,0.000
1644905248646272000,2022-02-15-06:07:28,10.1.1.6,38,-0.050,-0.050,-0.050,0.000,0.000,0.000
1644905248686279936,2022-02-15-06:07:28,10.1.1.6,27,-0.040,-0.040,-0.040,0.000,0.000,0.000
1644905248746520064,2022-02-15-06:07:28,10.1.1.6,36,-0.030,-0.030,-0.030,0.000,0.000,0.000
1644905248787277824,2022-02-15-06:07:28,10.1.1.6,25,-0.020,-0.020,-0.020,0.000,0.000,0.000
1644905248847724032,2022-02-15-06:07:28,10.1.1.6,33,-0.010,-0.010,-0.010,0.000,0.000,0.000
1644905248886765056,2022-02-15-06:07:28,10.1.1.6,21,0.000,0.000,0.000,0.000,0.000,0.000
1644905248946932992,2022-02-15-06:07:28,10.1.1.6,31,0.010,0.010,0.010,0.000,0.000,0.000
1644905248986391040,2022-02-15-06:07:28,10.1.1.6,19,0.019,0.019,0.019,0.000,0.000,0.000
1644905249047086848,2022-02-15-06:07:29,10.1.1.6,29,0.030,0.030,0.030,0.000,0.000,0.000
1644905249108395008,2022-02-15-06:07:29,10.1.1.6,38,0.040,0.040,0.040,0.000,0.000,0.000
1644905249148668160,2022-02-15-06:07:29,10.1.1.6,26,0.050,0.050,0.050,0.000,0.000,0.000
1644905249208143872,2022-02-15-06:07:29,10.1.1.6,34,0.060,0.060,0.060,0.000,0.000,0.000
1644905249246572032,2022-02-15-06:07:29,10.1.1.6,23,0.070,0.070,0.070,0.000,0.000,0.000
1644905249306684928,2022-02-15-06:07:29,10.1.1.6,32,0.080,0.080,0.080,0.000,0.000,0.000
1644905249346681088,2022-02-15-06:07:29,10.1.1.6,22,0.090,0.090,0.090,0.000,0.000,0.000
1644905249407911936,2022-02-15-06:07:29,10.1.1.6,32,0.100,0.100,0.100,0.000,0.000,0.000
1644905249447077888,2022-02-15-06:07:29,10.1.1.6,22,0.090,0.090,0.090,0.000,0.000,0.000
1644905249506627072,2022-02-15-06:07:29,10.1.1.6,31,0.080,0.080,0.080,0.000,0.000,0.000
1644905249547003904,2022-02-15-06:07:29,10.1.1.6,20,0.070,0.070,0.070,0.000,0.000,0.000
1644905249606368000,2022-02-15-06:07:29,10.1.1.6,30,0.060,0.060,0.060,0.000,0.000,0.000
1644905249647526912,2022-02-15-06:07:29,10.1.1.6,18,0.051,0.051,0.051,0.000,0.000,0.000
1644905249708427008,2022-02-15-06:07:29,10.1.1.6,28,0.040,0.040,0.040,0.000,0.000,0.000
1644905249767540992,2022-02-15-06:07:29,10.1.1.6,38,0.030,0.030,0.030,0.000,0.000,0.000
1644905249808105984,2022-02-15-06:07:29,10.1.1.6,26,0.020,0.020,0.020,0.000,0.000,0.000
1644905249867055872,2022-02-15-06:07:29,10.1.1.6,35,0.010,0.010,0.010,0.000,0.000,0.000
1644905249907282176,2022-02-15-06:07:29,10.1.1.6,25,0.000,0.000,0.000,0.000,0.000,0.000
1644905249966771968,2022-02-15-06:07:29,10.1.1.6,34,-0.010,-0.010,-0.010,0.000,0.000,0.000
1644905250006597888,2022-02-15-06:07:30,10.1.1.6,22,-0.020,-0.020,-0.020,0.000,0.000,0.000
1644905250066166016,2022-02-15-06:07:30,10.1.1.6,31,-0.030,-0.030,-0.030,0.000,0.000,0.000
1644905250106477056,2022-02-15-06:07:30,10.1.1.6,21,-0.040,-0.040,-0.040,0.000,0.000,0.000
1644905250166353920,2022-02-15-06:07:30,10.1.1.6,30,-0.050,-0.050,-0.050,0.000,0.000,0.000
1644905250207200000,2022-02-15-06:07:30,10.1.1.6,20,-0.060,-0.060,-0.060,0.000,0.000,0.000
1644905250266285824,2022-02-15-06:07:30,10.1.1.6,30,-0.070,-0.070,-0.070,0.000,0.000,0.000
1644905250306019072,2022-02-15-06:07:30,10.1.1.6,19,-0.079,-0.079,-0.079,0.000,0.000,0.000
1644905250369498880,2022-02-15-06:07:30,10.1.1.6,28,-0.090,-0.090,-0.090,0.000,0.000,0.000
1644905250428616960,2022-02-15-06:07:30,10.1.1.6,37,-0.100,-0.100,-0.100,0.000,0.000,0.000
1644905250466921984,2022-02-15-06:07:30,10.1.1.6,26,-0.090,-0.090,-0.090,0.000,0.000,0.000
1644905250520115968,2022-02-15-06:07:30,10.1.1.6,27,-0.080,-0.080,-0.080,0.000,0.000,0.000
1644905250569120768,2022-02-15-06:07:30,10.1.1.6,24,-0.070,-0.070,-0.070,0.000,0.000,0.000
1644905250628555008,2022-02-15-06:07:30,10.1.1.6,33,-0.060,-0.060,-0.060,0.000,0.000,0.000
1644905250668965120,2022-02-15-06:07:30,10.1.1.6,22,-0.050,-0.050,-0.050,0.000,0.000,0.000
1644905250727982080,2022-02-15-06:07:30,10.1.1.6,31,-0.040,-0.040,-0.040,0.000,0.000,0.000
1644905250768137984,2022-02-15-06:07:30,10.1.1.6,20,-0.030,-0.030,-0.030,0.000,0.000,0.000
1644905250828546048,2022-02-15-06:07:30,10.1.1.6,29,-0.020,-0.020,-0.020,0.000,0.000,0.000
1644905250867163904,2022-02-15-06:07:30,10.1.1.6,19,-0.010,-0.010,-0.010,0.000,0.000,0.000
1644905250926961920,2022-02-15-06:07:30,10.1.1.6,28,0.000,0.000,0.000,0.000,0.000,0.000
1644905250986735104,2022-02-15-06:07:30,10.1.1.6,38,0.010,0.010,0.010,0.000,0.000,0.000
1644905251029164032,2022-02-15-06:07:31,10.1.1.6,26,0.020,0.020,0.020,0.000,0.000,0.000
1644905251089458944,2022-02-15-06:07:31,10.1.1.6,35,0.030,0.030,0.030,0.000,0.000,0.000
1644905251127749888,2022-02-15-06:07:31,10.1.1.6,23,0.040,0.040,0.040,0.000,0.000,0.000
1644905251187179008,2022-02-15-06:07:31,10.1.1.6,32,0.050,0.050,0.050,0.000,0.000,0.000
1644905251236015104,2022-02-15-06:07:31,10.1.1.6,22,0.060,0.060,0.060,0.000,0.000,0.000
1644905251288926976,2022-02-15-06:07:31,10.1.1.6,31,0.070,0.070,0.070,0.000,0.000,0.000
1644905251326833920,2022-02-15-06:07:31,10.1.1.6,19,0.079,0.079,0.079,0.000,0.000,0.000
1644905251387944960,2022-02-15-06:07:31,10.1.1.6,28,0.090,0.090,0.090,0.000,0.000,0.000
1644905251448152064,2022-02-15-06:07:31,10.1.1.6,38,0.100,0.100,0.100,0.000,0.000,0.000
1644905251489448960,2022-02-15-06:07:31,10.1.1.6,26,0.090,0.090,0.090,0.000,0.000,0.000
1644905251549618944,2022-02-15-06:07:31,10.1.1.6,34,0.080,0.080,0.080,0.000,0.000,0.000
1644905251587964928,2022-02-15-06:07:31,10.1.1.6,23,0.070,0.070,0.070,0.000,0.000,0.000
1644905251648057856,2022-02-15-06:07:31,10.1.1.6,31,0.060,0.060,0.060,0.000,0.000,0.000
1644905251690722048,2022-02-15-06:07:31,10.1.1.6,19,0.050,0.050,0.050,0.000,0.000,0.000
1644905251747868928,2022-02-15-06:07:31,10.1.1.6,27,0.040,0.040,0.040,0.000,0.000,0.000
1644905251808108032,2022-02-15-06:07:31,10.1.1.6,36,0.030,0.030,0.030,0.000,0.000,0.000
1644905251848681984,2022-02-15-06:07:31,10.1.1.6,24,0.020,0.020,0.020,0.000,0.000,0.000
1644905251912695040,2022-02-15-06:07:31,10.1.1.6,32,0.010,0.010,0.010,0.000,0.000,0.000
1644905251948285952,2022-02-15-06:07:31,10.1.1.6,22,0.000,0.000,0.000,0.000,0.000,0.000
1644905252011351040,2022-02-15-06:07:32,10.1.1.6,31,-0.010,-0.010,-0.010,0.000,0.000,0.000
1644905252049639936,2022-02-15-06:07:32,10.1.1.6,20,-0.020,-0.020,-0.020,0.000,0.000,0.000
1644905252107758080,2022-02-15-06:07:32,10.1.1.6,28,-0.030,-0.030,-0.030,0.000,0.000,0.000
1644905252167784960,2022-02-15-06:07:32,10.1.1.6,38,-0.040,-0.040,-0.040,0.000,0.000,0.000
1644905252208611840,2022-02-15-06:07:32,10.1.1.6,27,-0.050,-0.050,-0.050,0.000,0.000,0.000
1644905252268345088,2022-02-15-06:07:32,10.1.1.6,36,-0.060,-0.060,-0.060,0.000,0.000,0.000
1644905252306811136,2022-02-15-06:07:32,10.1.1.6,26,-0.070,-0.070,-0.070,0.000,0.000,0.000
1644905252368578048,2022-02-15-06:07:32,10.1.1.6,36,-0.080,-0.080,-0.080,0.000,0.000,0.000
1644905252411753984,2022-02-15-06:07:32,10.1.1.6,21,-0.090,-0.090,-0.090,0.000,0.000,0.000
1644905252471651072,2022-02-15-06:07:32,10.1.1.6,29,-0.100,-0.100,-0.100,0.000,0.000,0.000
1644905252526894080,2022-02-15-06:07:32,10.1.1.6,37,-0.090,-0.090,-0.090,0.000,0.000,0.000
1644905252572519936,2022-02-15-06:07:32,10.1.1.6,25,-0.080,-0.080,-0.080,0.000,0.000,0.000
1644905252629100032,2022-02-15-06:07:32,10.1.1.6,33,-0.070,-0.070,-0.070,0.000,0.000,0.000
1644905252696851968,2022-02-15-06:07:32,10.1.1.6,-15,-0.060,-0.060,-0.060,0.000,0.000,0.000
1644905252851276032,2022-02-15-06:07:32,10.1.1.6,36,-0.030,-0.030,-0.030,0.000,0.000,0.000
1644905252891744000,2022-02-15-06:07:32,10.1.1.6,23,-0.020,-0.020,-0.020,0.000,0.000,0.000
1644905252946966016,2022-02-15-06:07:32,10.1.1.6,29,-0.010,-0.010,-0.010,0.000,0.000,0.000
1644905253008503808,2022-02-15-06:07:33,10.1.1.6,37,0.000,0.000,0.000,0.000,0.000,0.000
1644905253048566016,2022-02-15-06:07:33,10.1.1.6,26,0.010,0.010,0.010,0.000,0.000,0.000
1644905253108338944,2022-02-15-06:07:33,10.1.1.6,36,0.020,0.020,0.020,0.000,0.000,0.000
1644905253147624960,2022-02-15-06:07:33,10.1.1.6,25,0.030,0.030,0.030,0.000,0.000,0.000
1644905253208792064,2022-02-15-06:07:33,10.1.1.6,31,0.040,0.040,0.040,0.000,0.000,0.000
1644905253247684096,2022-02-15-06:07:33,10.1.1.6,20,0.050,0.050,0.050,0.000,0.000,0.000
1644905253307749120,2022-02-15-06:07:33,10.1.1.6,29,0.060,0.060,0.060,0.000,0.000,0.000
1644905253368137984,2022-02-15-06:07:33,10.1.1.6,38,0.070,0.070,0.070,0.000,0.000,0.000
1644905253408797952,2022-02-15-06:07:33,10.1.1.6,27,0.080,0.080,0.080,0.000,0.000,0.000
1644905253467899136,2022-02-15-06:07:33,10.1.1.6,35,0.090,0.090,0.090,0.000,0.000,0.000
1644905253508171008,2022-02-15-06:07:33,10.1.1.6,25,0.100,0.100,0.100,0.000,0.000,0.000
1644905253568975872,2022-02-15-06:07:33,10.1.1.6,34,0.090,0.090,0.090,0.000,0.000,0.000
1644905253606693888,2022-02-15-06:07:33,10.1.1.6,23,0.080,0.080,0.080,0.000,0.000,0.000
1644905253668338944,2022-02-15-06:07:33,10.1.1.6,31,0.070,0.070,0.070,0.000,0.000,0.000
1644905253727811072,2022-02-15-06:07:33,10.1.1.6,36,0.060,0.060,0.060,0.000,0.000,0.000
1644905253768007936,2022-02-15-06:07:33,10.1.1.6,26,0.050,0.050,0.050,0.000,0.000,0.000
1644905253827645952,2022-02-15-06:07:33,10.1.1.6,35,0.040,0.040,0.040,0.000,0.000,0.000
1644905253870575872,2022-02-15-06:07:33,10.1.1.6,22,0.030,0.030,0.030,0.000,0.000,0.000
1644905253927970048,2022-02-15-06:07:33,10.1.1.6,29,0.020,0.020,0.020,0.000,0.000,0.000
1644905253987931136,2022-02-15-06:07:33,10.1.1.6,38,0.010,0.010,0.010,0.000,0.000,0.000
1644905254027363072,2022-02-15-06:07:34,10.1.1.6,27,0.000,0.000,0.000,0.000,0.000,0.000
1644905254088797184,2022-02-15-06:07:34,10.1.1.6,35,-0.010,-0.010,-0.010,0.000,0.000,0.000
1644905254127330048,2022-02-15-06:07:34,10.1.1.6,21,-0.020,-0.020,-0.020,0.000,0.000,0.000
1644905254187899136,2022-02-15-06:07:34,10.1.1.6,28,-0.030,-0.030,-0.030,0.000,0.000,0.000
1644905254246674944,2022-02-15-06:07:34,10.1.1.6,37,-0.040,-0.040,-0.040,0.000,0.000,0.000
1644905254287618048,2022-02-15-06:07:34,10.1.1.6,25,-0.050,-0.050,-0.050,0.000,0.000,0.000
1644905254346519040,2022-02-15-06:07:34,10.1.1.6,34,-0.060,-0.060,-0.060,0.000,0.000,0.000
1644905254387016960,2022-02-15-06:07:34,10.1.1.6,22,-0.070,-0.070,-0.070,0.000,0.000,0.000
1644905254446674176,2022-02-15-06:07:34,10.1.1.6,31,-0.080,-0.080,-0.080,0.000,0.000,0.000
1644905254506870016,2022-02-15-06:07:34,10.1.1.6,36,-0.090,-0.090,-0.090,0.000,0.000,0.000
1644905254546770944,2022-02-15-06:07:34,10.1.1.6,24,-0.100,-0.100,-0.100,0.000,0.000,0.000
1644905254609265920,2022-02-15-06:07:34,10.1.1.6,34,-0.090,-0.090,-0.090,0.000,0.000,0.000
1644905254647284992,2022-02-15-06:07:34,10.1.1.6,20,-0.080,-0.080,-0.080,0.000,0.000,0.000
1644905254799660032,2022-02-15-06:07:34,10.1.1.6,23,-0.060,-0.060,-0.060,0.000,0.000,0.000
1644905254847517952,2022-02-15-06:07:34,10.1.1.6,20,-0.050,-0.050,-0.050,0.000,0.000,0.000
1644905254908047872,2022-02-15-06:07:34,10.1.1.6,25,-0.040,-0.040,-0.040,0.000,0.000,0.000
1644905254971343104,2022-02-15-06:07:34,10.1.1.6,28,-0.030,-0.030,-0.030,0.000,0.000,0.000
1644905255069658880,2022-02-15-06:07:35,10.1.1.6,26,-0.010,-0.010,-0.010,0.000,0.000,0.000
1644905255132043008,2022-02-15-06:07:35,10.1.1.6,32,0.000,0.000,0.000,0.000,0.000,0.000
1644905255174298880,2022-02-15-06:07:35,10.1.1.6,21,0.010,0.010,0.010,0.000,0.000,0.000
1644905255229743104,2022-02-15-06:07:35,10.1.1.6,31,0.020,0.020,0.020,0.000,0.000,0.000
1644905255287974144,2022-02-15-06:07:35,10.1.1.6,37,0.030,0.030,0.030,0.000,0.000,0.000
1644905255330332160,2022-02-15-06:07:35,10.1.1.6,26,0.040,0.040,0.040,0.000,0.000,0.000
1644905255387991040,2022-02-15-06:07:35,10.1.1.6,34,0.050,0.050,0.050,0.000,0.000,0.000
1644905255431143936,2022-02-15-06:07:35,10.1.1.6,23,0.060,0.060,0.060,0.000,0.000,0.000
1644905255490446080,2022-02-15-06:07:35,10.1.1.6,31,0.070,0.070,0.070,0.000,0.000,0.000
1644905255527753216,2022-02-15-06:07:35,10.1.1.6,19,0.080,0.080,0.080,0.000,0.000,0.000
1644905255587246848,2022-02-15-06:07:35,10.1.1.6,28,0.090,0.090,0.090,0.000,0.000,0.000
1644905255648674048,2022-02-15-06:07:35,10.1.1.6,37,0.100,0.100,0.100,0.000,0.000,0.000
1644905255690025984,2022-02-15-06:07:35,10.1.1.6,25,0.090,0.090,0.090,0.000,0.000,0.000
1644905255749694976,2022-02-15-06:07:35,10.1.1.6,33,0.080,0.080,0.080,0.000,0.000,0.000
1644905255790080000,2022-02-15-06:07:35,10.1.1.6,20,0.070,0.070,0.070,0.000,0.000,0.000
1644905255848964864,2022-02-15-06:07:35,10.1.1.6,29,0.060,0.060,0.060,0.000,0.000,0.000
1644905255949544960,2022-02-15-06:07:35,10.1.1.6,25,0.040,0.040,0.040,0.000,0.000,0.000
1644905256007951872,2022-02-15-06:07:36,10.1.1.6,34,0.030,0.030,0.030,0.000,0.000,0.000
1644905256048506880,2022-02-15-06:07:36,10.1.1.6,23,0.020,0.020,0.020,0.000,0.000,0.000
1644905256107255040,2022-02-15-06:07:36,10.1.1.6,32,0.010,0.010,0.010,0.000,0.000,0.000
1644905256151915008,2022-02-15-06:07:36,10.1.1.6,21,0.000,0.000,0.000,0.000,0.000,0.000
1644905256216157952,2022-02-15-06:07:36,10.1.1.6,31,-0.010,-0.010,-0.010,0.000,0.000,0.000
1644905256269804032,2022-02-15-06:07:36,10.1.1.6,37,-0.020,-0.020,-0.020,0.000,0.000,0.000
1644905256317452800,2022-02-15-06:07:36,10.1.1.6,25,-0.030,-0.030,-0.030,0.000,0.000,0.000
1644905256367366912,2022-02-15-06:07:36,10.1.1.6,33,-0.040,-0.040,-0.040,0.000,0.000,0.000
1644905256412476928,2022-02-15-06:07:36,10.1.1.6,22,-0.050,-0.050,-0.050,0.000,0.000,0.000
1644905256467275008,2022-02-15-06:07:36,10.1.1.6,32,-0.060,-0.060,-0.060,0.000,0.000,0.000
1644905256506656000,2022-02-15-06:07:36,10.1.1.6,21,-0.070,-0.070,-0.070,0.000,0.000,0.000
1644905256561858816,2022-02-15-06:07:36,10.1.1.6,21,-0.079,-0.079,-0.079,0.000,0.000,0.000
1644905256628151808,2022-02-15-06:07:36,10.1.1.6,34,-0.090,-0.090,-0.090,0.000,0.000,0.000
1644905256667915008,2022-02-15-06:07:36,10.1.1.6,23,-0.100,-0.100,-0.100,0.000,0.000,0.000
1644905256726924800,2022-02-15-06:07:36,10.1.1.6,31,-0.090,-0.090,-0.090,0.000,0.000,0.000
1644905256769107200,2022-02-15-06:07:36,10.1.1.6,21,-0.080,-0.080,-0.080,0.000,0.000,0.000
1644905256827081984,2022-02-15-06:07:36,10.1.1.6,29,-0.070,-0.070,-0.070,0.000,0.000,0.000
1644905256866579968,2022-02-15-06:07:36,10.1.1.6,19,-0.061,-0.061,-0.061,0.000,0.000,0.000
1644905256927182848,2022-02-15-06:07:36,10.1.1.6,26,-0.050,-0.050,-0.050,0.000,0.000,0.000
1644905256987768832,2022-02-15-06:07:36,10.1.1.6,35,-0.040,-0.040,-0.040,0.000,0.000,0.000
1644905257026892032,2022-02-15-06:07:37,10.1.1.6,24,-0.030,-0.030,-0.030,0.000,0.000,0.000
1644905257086589952,2022-02-15-06:07:37,10.1.1.6,33,-0.020,-0.020,-0.020,0.000,0.000,0.000
1644905257128211968,2022-02-15-06:07:37,10.1.1.6,22,-0.010,-0.010,-0.010,0.000,0.000,0.000
1644905257187684096,2022-02-15-06:07:37,10.1.1.6,30,0.000,0.000,0.000,0.000,0.000,0.000
1644905257226877952,2022-02-15-06:07:37,10.1.1.6,19,0.010,0.010,0.010,0.000,0.000,0.000
1644905257287250944,2022-02-15-06:07:37,10.1.1.6,27,0.020,0.020,0.020,0.000,0.000,0.000
1644905257349411840,2022-02-15-06:07:37,10.1.1.6,35,0.030,0.030,0.030,0.000,0.000,0.000
1644905257449784064,2022-02-15-06:07:37,10.1.1.6,26,0.050,0.050,0.050,0.000,0.000,0.000
1644905257508545024,2022-02-15-06:07:37,10.1.1.6,35,0.060,0.060,0.060,0.000,0.000,0.000
1644905257550044160,2022-02-15-06:07:37,10.1.1.6,24,0.070,0.070,0.070,0.000,0.000,0.000
1644905257607547136,2022-02-15-06:07:37,10.1.1.6,33,0.080,0.080,0.080,0.000,0.000,0.000
1644905257648014080,2022-02-15-06:07:37,10.1.1.6,22,0.090,0.090,0.090,0.000,0.000,0.000
1644905257707066112,2022-02-15-06:07:37,10.1.1.6,31,0.100,0.100,0.100,0.000,0.000,0.000
1644905257747787008,2022-02-15-06:07:37,10.1.1.6,20,0.090,0.090,0.090,0.000,0.000,0.000
1644905257808155904,2022-02-15-06:07:37,10.1.1.6,29,0.080,0.080,0.080,0.000,0.000,0.000
1644905257868448000,2022-02-15-06:07:37,10.1.1.6,38,0.070,0.070,0.070,0.000,0.000,0.000
1644905257917462016,2022-02-15-06:07:37,10.1.1.6,27,0.060,0.060,0.060,0.000,0.000,0.000
1644905257968491008,2022-02-15-06:07:37,10.1.1.6,36,0.050,0.050,0.050,0.000,0.000,0.000
1644905258006236928,2022-02-15-06:07:38,10.1.1.6,26,0.040,0.040,0.040,0.000,0.000,0.000
1644905258066948864,2022-02-15-06:07:38,10.1.1.6,35,0.030,0.030,0.030,0.000,0.000,0.000
1644905258107450880,2022-02-15-06:07:38,10.1.1.6,24,0.020,0.020,0.020,0.000,0.000,0.000
1644905258128313088,2022-02-15-06:07:38,10.1.1.6,-7,0.020,0.020,0.020,0.000,0.000,0.000
1644905258208677888,2022-02-15-06:07:38,10.1.1.6,23,0.000,0.000,0.000,0.000,0.000,0.000
1644905258267153920,2022-02-15-06:07:38,10.1.1.6,31,-0.010,-0.010,-0.010,0.000,0.000,0.000
1644905258307058176,2022-02-15-06:07:38,10.1.1.6,19,-0.020,-0.020,-0.020,0.000,0.000,0.000
1644905258367502080,2022-02-15-06:07:38,10.1.1.6,29,-0.030,-0.030,-0.030,0.000,0.000,0.000
1644905258407622144,2022-02-15-06:07:38,10.1.1.6,18,-0.039,-0.039,-0.039,0.000,0.000,0.000
1644905258469172992,2022-02-15-06:07:38,10.1.1.6,28,-0.050,-0.050,-0.050,0.000,0.000,0.000
1644905258528465152,2022-02-15-06:07:38,10.1.1.6,38,-0.060,-0.060,-0.060,0.000,0.000,0.000
1644905258567423232,2022-02-15-06:07:38,10.1.1.6,27,-0.070,-0.070,-0.070,0.000,0.000,0.000
1644905258627346944,2022-02-15-06:07:38,10.1.1.6,36,-0.080,-0.080,-0.080,0.000,0.000,0.000
1644905258668570112,2022-02-15-06:07:38,10.1.1.6,26,-0.090,-0.090,-0.090,0.000,0.000,0.000
1644905258727843072,2022-02-15-06:07:38,10.1.1.6,35,-0.100,-0.100,-0.100,0.000,0.000,0.000
1644905258767708160,2022-02-15-06:07:38,10.1.1.6,25,-0.090,-0.090,-0.090,0.000,0.000,0.000
1644905258828833024,2022-02-15-06:07:38,10.1.1.6,35,-0.080,-0.080,-0.080,0.000,0.000,0.000
1644905258868634112,2022-02-15-06:07:38,10.1.1.6,24,-0.070,-0.070,-0.070,0.000,0.000,0.000
1644905258930320896,2022-02-15-06:07:38,10.1.1.6,34,-0.060,-0.060,-0.060,0.000,0.000,0.000
1644905258967740160,2022-02-15-06:07:38,10.1.1.6,22,-0.050,-0.050,-0.050,0.000,0.000,0.000
1644905259027065088,2022-02-15-06:07:39,10.1.1.6,32,-0.040,-0.040,-0.040,0.000,0.000,0.000
1644905259068249856,2022-02-15-06:07:39,10.1.1.6,21,-0.030,-0.030,-0.030,0.000,0.000,0.000
1644905259127969024,2022-02-15-06:07:39,10.1.1.6,31,-0.020,-0.020,-0.020,0.000,0.000,0.000
1644905259169230080,2022-02-15-06:07:39,10.1.1.6,20,-0.010,-0.010,-0.010,0.000,0.000,0.000
1644905259228416000,2022-02-15-06:07:39,10.1.1.6,30,0.000,0.000,0.000,0.000,0.000,0.000
1644905259267554048,2022-02-15-06:07:39,10.1.1.6,20,0.010,0.010,0.010,0.000,0.000,0.000
1644905259327639040,2022-02-15-06:07:39,10.1.1.6,29,0.020,0.020,0.020,0.000,0.000,0.000
1644905259389246976,2022-02-15-06:07:39,10.1.1.6,38,0.030,0.030,0.030,0.000,0.000,0.000
1644905259427716096,2022-02-15-06:07:39,10.1.1.6,28,0.040,0.040,0.040,0.000,0.000,0.000
1644905259487351808,2022-02-15-06:07:39,10.1.1.6,37,0.050,0.050,0.050,0.000,0.000,0.000
1644905259526451200,2022-02-15-06:07:39,10.1.1.6,27,0.060,0.060,0.060,0.000,0.000,0.000
1644905259586870784,2022-02-15-06:07:39,10.1.1.6,36,0.070,0.070,0.070,0.000,0.000,0.000
1644905259626749952,2022-02-15-06:07:39,10.1.1.6,26,0.080,0.080,0.080,0.000,0.000,0.000
1644905259687342848,2022-02-15-06:07:39,10.1.1.6,35,0.090,0.090,0.090,0.000,0.000,0.000
1644905259727363072,2022-02-15-06:07:39,10.1.1.6,23,0.100,0.100,0.100,0.000,0.000,0.000
1644905259787825152,2022-02-15-06:07:39,10.1.1.6,33,0.090,0.090,0.090,0.000,0.000,0.000
1644905259827343872,2022-02-15-06:07:39,10.1.1.6,23,0.080,0.080,0.080,0.000,0.000,0.000
1644905259886822912,2022-02-15-06:07:39,10.1.1.6,32,0.070,0.070,0.070,0.000,0.000,0.000
1644905259927216128,2022-02-15-06:07:39,10.1.1.6,22,0.060,0.060,0.060,0.000,0.000,0.000
1644905259986686976,2022-02-15-06:07:39,10.1.1.6,30,0.050,0.050,0.050,0.000,0.000,0.000
1644905260033678080,2022-02-15-06:07:40,10.1.1.6,19,0.041,0.041,0.041,0.000,0.000,0.000
1644905260060295168,2022-02-15-06:07:40,10.1.1.6,-16,0.040,0.040,0.040,0.000,0.000,0.000
1644905260147664896,2022-02-15-06:07:40,10.1.1.6,31,0.020,0.020,0.020,0.000,0.000,0.000
1644905260187022848,2022-02-15-06:07:40,10.1.1.6,20,0.010,0.010,0.010,0.000,0.000,0.000
1644905260247467008,2022-02-15-06:07:40,10.1.1.6,30,0.000,0.000,0.000,0.000,0.000,0.000
1644905260287784960,2022-02-15-06:07:40,10.1.1.6,19,-0.009,-0.009,-0.009,0.000,0.000,0.000
1644905260346584064,2022-02-15-06:07:40,10.1.1.6,28,-0.020,-0.020,-0.020,0.000,0.000,0.000
1644905260407291904,2022-02-15-06:07:40,10.1.1.6,37,-0.030,-0.030,-0.030,0.000,0.000,0.000
1644905260446134016,2022-02-15-06:07:40,10.1.1.6,27,-0.040,-0.040,-0.040,0.000,0.000,0.000
1644905260548612096,2022-02-15-06:07:40,10.1.1.6,23,-0.060,-0.060,-0.060,0.000,0.000,0.000
1644905260606899968,2022-02-15-06:07:40,10.1.1.6,31,-0.070,-0.070,-0.070,0.000,0.000,0.000
1644905260646529792,2022-02-15-06:07:40,10.1.1.6,20,-0.080,-0.080,-0.080,0.000,0.000,0.000
1644905260707911936,2022-02-15-06:07:40,10.1.1.6,29,-0.090,-0.090,-0.090,0.000,0.000,0.000
1644905260767631104,2022-02-15-06:07:40,10.1.1.6,38,-0.100,-0.100,-0.100,0.000,0.000,0.000
1644905260807667968,2022-02-15-06:07:40,10.1.1.6,26,-0.090,-0.090,-0.090,0.000,0.000,0.000
1644905260866662912,2022-02-15-06:07:40,10.1.1.6,34,-0.080,-0.080,-0.080,0.000,0.000,0.000
1644905260907212032,2022-02-15-06:07:40,10.1.1.6,23,-0.070,-0.070,-0.070,0.000,0.000,0.000
1644905260966539008,2022-02-15-06:07:40,10.1.1.6,32,-0.060,-0.060,-0.060,0.000,0.000,0.000
1644905261007148032,2022-02-15-06:07:41,10.1.1.6,22,-0.050,-0.050,-0.050,0.000,0.000,0.000
1644905261066888960,2022-02-15-06:07:41,10.1.1.6,30,-0.040,-0.040,-0.040,0.000,0.000,0.000
1644905261107112960,2022-02-15-06:07:41,10.1.1.6,19,-0.030,-0.030,-0.030,0.000,0.000,0.000
1644905261169347072,2022-02-15-06:07:41,10.1.1.6,27,-0.020,-0.020,-0.020,0.000,0.000,0.000
1644905261227226112,2022-02-15-06:07:41,10.1.1.6,36,-0.010,-0.010,-0.010,0.000,0.000,0.000
1644905261281601024,2022-02-15-06:07:41,10.1.1.6,25,0.000,0.000,0.000,0.000,0.000,0.000
1644905261348387072,2022-02-15-06:07:41,10.1.1.6,24,0.010,0.010,0.010,0.000,0.000,0.000
1644905261408363008,2022-02-15-06:07:41,10.1.1.6,33,0.020,0.020,0.020,0.000,0.000,0.000
1644905261448508928,2022-02-15-06:07:41,10.1.1.6,20,0.030,0.030,0.030,0.000,0.000,0.000
1644905261507841024,2022-02-15-06:07:41,10.1.1.6,29,0.040,0.040,0.040,0.000,0.000,0.000
1644905261548058112,2022-02-15-06:07:41,10.1.1.6,19,0.050,0.050,0.050,0.000,0.000,0.000
1644905261607707136,2022-02-15-06:07:41,10.1.1.6,27,0.060,0.060,0.060,0.000,0.000,0.000
1644905261666690048,2022-02-15-06:07:41,10.1.1.6,36,0.070,0.070,0.070,0.000,0.000,0.000
1644905261707376896,2022-02-15-06:07:41,10.1.1.6,25,0.080,0.080,0.080,0.000,0.000,0.000
1644905261767076864,2022-02-15-06:07:41,10.1.1.6,33,0.090,0.090,0.090,0.000,0.000,0.000
1644905261807072000,2022-02-15-06:07:41,10.1.1.6,22,0.100,0.100,0.100,0.000,0.000,0.000
1644905261866648832,2022-02-15-06:07:41,10.1.1.6,31,0.090,0.090,0.090,0.000,0.000,0.000
1644905261907067136,2022-02-15-06:07:41,10.1.1.6,20,0.080,0.080,0.080,0.000,0.000,0.000
1644905261966584832,2022-02-15-06:07:41,10.1.1.6,29,0.070,0.070,0.070,0.000,0.000,0.000
1644905262027188992,2022-02-15-06:07:42,10.1.1.6,37,0.060,0.060,0.060,0.000,0.000,0.000
1644905262067353856,2022-02-15-06:07:42,10.1.1.6,25,0.050,0.050,0.050,0.000,0.000,0.000
1644905262126189824,2022-02-15-06:07:42,10.1.1.6,34,0.040,0.040,0.040,0.000,0.000,0.000
1644905262167305984,2022-02-15-06:07:42,10.1.1.6,24,0.030,0.030,0.030,0.000,0.000,0.000
1644905262226638080,2022-02-15-06:07:42,10.1.1.6,32,0.020,0.020,0.020,0.000,0.000,0.000
1644905262266999040,2022-02-15-06:07:42,10.1.1.6,21,0.010,0.010,0.010,0.000,0.000,0.000
1644905262327111936,2022-02-15-06:07:42,10.1.1.6,30,0.000,0.000,0.000,0.000,0.000,0.000
1644905262367320064,2022-02-15-06:07:42,10.1.1.6,19,-0.010,-0.010,-0.010,0.000,0.000,0.000
1644905262428237824,2022-02-15-06:07:42,10.1.1.6,28,-0.020,-0.020,-0.020,0.000,0.000,0.000
1644905262491213056,2022-02-15-06:07:42,10.1.1.6,38,-0.030,-0.030,-0.030,0.000,0.000,0.000
1644905262527842048,2022-02-15-06:07:42,10.1.1.6,27,-0.040,-0.040,-0.040,0.000,0.000,0.000
1644905262577235968,2022-02-15-06:07:42,10.1.1.6,27,-0.050,-0.050,-0.050,0.000,0.000,0.000
1644905262627275008,2022-02-15-06:07:42,10.1.1.6,24,-0.060,-0.060,-0.060,0.000,0.000,0.000
1644905262686778112,2022-02-15-06:07:42,10.1.1.6,33,-0.070,-0.070,-0.070,0.000,0.000,0.000
1644905262726818048,2022-02-15-06:07:42,10.1.1.6,22,-0.080,-0.080,-0.080,0.000,0.000,0.000
1644905262786494976,2022-02-15-06:07:42,10.1.1.6,31,-0.090,-0.090,-0.090,0.000,0.000,0.000
1644905262846791936,2022-02-15-06:07:42,10.1.1.6,37,-0.100,-0.100,-0.100,0.000,0.000,0.000
1644905262886665984,2022-02-15-06:07:42,10.1.1.6,27,-0.090,-0.090,-0.090,0.000,0.000,0.000
1644905262946043904,2022-02-15-06:07:42,10.1.1.6,36,-0.080,-0.080,-0.080,0.000,0.000,0.000
1644905262986722048,2022-02-15-06:07:42,10.1.1.6,23,-0.070,-0.070,-0.070,0.000,0.000,0.000
1644905263046636032,2022-02-15-06:07:43,10.1.1.6,32,-0.060,-0.060,-0.060,0.000,0.000,0.000
1644905263086502912,2022-02-15-06:07:43,10.1.1.6,21,-0.050,-0.050,-0.050,0.000,0.000,0.000
1644905263147459072,2022-02-15-06:07:43,10.1.1.6,31,-0.040,-0.040,-0.040,0.000,0.000,0.000
1644905263186167040,2022-02-15-06:07:43,10.1.1.6,20,-0.030,-0.030,-0.030,0.000,0.000,0.000
1644905263246483968,2022-02-15-06:07:43,10.1.1.6,29,-0.020,-0.020,-0.020,0.000,0.000,0.000
1644905263307527168,2022-02-15-06:07:43,10.1.1.6,37,-0.010,-0.010,-0.010,0.000,0.000,0.000
1644905263346607872,2022-02-15-06:07:43,10.1.1.6,27,0.000,0.000,0.000,0.000,0.000,0.000
1644905263406349056,2022-02-15-06:07:43,10.1.1.6,36,0.010,0.010,0.010,0.000,0.000,0.000
1644905263446154240,2022-02-15-06:07:43,10.1.1.6,26,0.020,0.020,0.020,0.000,0.000,0.000
1644905263506737920,2022-02-15-06:07:43,10.1.1.6,35,0.030,0.030,0.030,0.000,0.000,0.000
1644905263546731008,2022-02-15-06:07:43,10.1.1.6,25,0.040,0.040,0.040,0.000,0.000,0.000
1644905263608599040,2022-02-15-06:07:43,10.1.1.6,34,0.050,0.050,0.050,0.000,0.000,0.000
1644905263648147968,2022-02-15-06:07:43,10.1.1.6,23,0.060,0.060,0.060,0.000,0.000,0.000
1644905263707250176,2022-02-15-06:07:43,10.1.1.6,32,0.070,0.070,0.070,0.000,0.000,0.000
1644905263746882816,2022-02-15-06:07:43,10.1.1.6,21,0.080,0.080,0.080,0.000,0.000,0.000
1644905263816039936,2022-02-15-06:07:43,10.1.1.6,29,0.090,0.090,0.090,0.000,0.000,0.000
1644905263866832896,2022-02-15-06:07:43,10.1.1.6,38,0.100,0.100,0.100,0.000,0.000,0.000
1644905263911943936,2022-02-15-06:07:43,10.1.1.6,27,0.090,0.090,0.090,0.000,0.000,0.000
1644905263968349952,2022-02-15-06:07:43,10.1.1.6,36,0.080,0.080,0.080,0.000,0.000,0.000
1644905264008241920,2022-02-15-06:07:44,10.1.1.6,25,0.070,0.070,0.070,0.000,0.000,0.000
1644905264068622080,2022-02-15-06:07:44,10.1.1.6,34,0.060,0.060,0.060,0.000,0.000,0.000
1644905264108870144,2022-02-15-06:07:44,10.1.1.6,21,0.050,0.050,0.050,0.000,0.000,0.000
1644905264172177152,2022-02-15-06:07:44,10.1.1.6,29,0.040,0.040,0.040,0.000,0.000,0.000
1644905264228773120,2022-02-15-06:07:44,10.1.1.6,35,0.030,0.030,0.030,0.000,0.000,0.000
1644905264267857152,2022-02-15-06:07:44,10.1.1.6,22,0.020,0.020,0.020,0.000,0.000,0.000
1644905264326633984,2022-02-15-06:07:44,10.1.1.6,29,0.010,0.010,0.010,0.000,0.000,0.000
1644905264388403968,2022-02-15-06:07:44,10.1.1.6,37,0.000,0.000,0.000,0.000,0.000,0.000
1644905264428569088,2022-02-15-06:07:44,10.1.1.6,25,-0.010,-0.010,-0.010,0.000,0.000,0.000
1644905264488153088,2022-02-15-06:07:44,10.1.1.6,32,-0.020,-0.020,-0.020,0.000,0.000,0.000
1644905264546478080,2022-02-15-06:07:44,10.1.1.6,38,-0.030,-0.030,-0.030,0.000,0.000,0.000
1644905264586929152,2022-02-15-06:07:44,10.1.1.6,26,-0.040,-0.040,-0.040,0.000,0.000,0.000
1644905264648296192,2022-02-15-06:07:44,10.1.1.6,35,-0.050,-0.050,-0.050,0.000,0.000,0.000
1644905264687258112,2022-02-15-06:07:44,10.1.1.6,24,-0.060,-0.060,-0.060,0.000,0.000,0.000
1644905264747143936,2022-02-15-06:07:44,10.1.1.6,33,-0.070,-0.070,-0.070,0.000,0.000,0.000
1644905264786925056,2022-02-15-06:07:44,10.1.1.6,22,-0.080,-0.080,-0.080,0.000,0.000,0.000
1644905264846996992,2022-02-15-06:07:44,10.1.1.6,31,-0.090,-0.090,-0.090,0.000,0.000,0.000
1644905264888835840,2022-02-15-06:07:44,10.1.1.6,21,-0.100,-0.100,-0.100,0.000,0.000,0.000
1644905264947877888,2022-02-15-06:07:44,10.1.1.6,29,-0.090,-0.090,-0.090,0.000,0.000,0.000
1644905265007604992,2022-02-15-06:07:45,10.1.1.6,38,-0.080,-0.080,-0.080,0.000,0.000,0.000
1644905265047528960,2022-02-15-06:07:45,10.1.1.6,24,-0.070,-0.070,-0.070,0.000,0.000,0.000
1644905265109488896,2022-02-15-06:07:45,10.1.1.6,32,-0.060,-0.060,-0.060,0.000,0.000,0.000
1644905265159333888,2022-02-15-06:07:45,10.1.1.6,21,-0.050,-0.050,-0.050,0.000,0.000,0.000
1644905265267834880,2022-02-15-06:07:45,10.1.1.6,24,-0.030,-0.030,-0.030,0.000,0.000,0.000
1644905265328569856,2022-02-15-06:07:45,10.1.1.6,31,-0.020,-0.020,-0.020,0.000,0.000,0.000
1644905265378063872,2022-02-15-06:07:45,10.1.1.6,20,-0.010,-0.010,-0.010,0.000,0.000,0.000
1644905265448695040,2022-02-15-06:07:45,10.1.1.6,24,0.000,0.000,0.000,0.000,0.000,0.000
1644905265489464064,2022-02-15-06:07:45,10.1.1.6,25,0.010,0.010,0.010,0.000,0.000,0.000
1644905265549990912,2022-02-15-06:07:45,10.1.1.6,34,0.020,0.020,0.020,0.000,0.000,0.000
1644905265588012032,2022-02-15-06:07:45,10.1.1.6,20,0.030,0.030,0.030,0.000,0.000,0.000
1644905265655799040,2022-02-15-06:07:45,10.1.1.6,29,0.040,0.040,0.040,0.000,0.000,0.000
1644905265713296896,2022-02-15-06:07:45,10.1.1.6,37,0.050,0.050,0.050,0.000,0.000,0.000
1644905265749326848,2022-02-15-06:07:45,10.1.1.6,25,0.060,0.060,0.060,0.000,0.000,0.000
1644905265810094080,2022-02-15-06:07:45,10.1.1.6,34,0.070,0.070,0.070,0.000,0.000,0.000
1644905265868554240,2022-02-15-06:07:45,10.1.1.6,36,0.080,0.080,0.080,0.000,0.000,0.000
1644905265915735040,2022-02-15-06:07:45,10.1.1.6,24,0.090,0.090,0.090,0.000,0.000,0.000
1644905265968499968,2022-02-15-06:07:45,10.1.1.6,33,0.100,0.100,0.100,0.000,0.000,0.000
1644905266008178944,2022-02-15-06:07:46,10.1.1.6,20,0.090,0.090,0.090,0.000,0.000,0.000
1644905266069314048,2022-02-15-06:07:46,10.1.1.6,29,0.080,0.080,0.080,0.000,0.000,0.000
1644905266128236032,2022-02-15-06:07:46,10.1.1.6,38,0.070,0.070,0.070,0.000,0.000,0.000
1644905266170667776,2022-02-15-06:07:46,10.1.1.6,27,0.060,0.060,0.060,0.000,0.000,0.000
1644905266228538112,2022-02-15-06:07:46,10.1.1.6,35,0.050,0.050,0.050,0.000,0.000,0.000
1644905266271698944,2022-02-15-06:07:46,10.1.1.6,24,0.040,0.040,0.040,0.000,0.000,0.000
1644905266328988160,2022-02-15-06:07:46,10.1.1.6,30,0.030,0.030,0.030,0.000,0.000,0.000
1644905266368338176,2022-02-15-06:07:46,10.1.1.6,19,0.020,0.020,0.020,0.000,0.000,0.000
1644905266430206976,2022-02-15-06:07:46,10.1.1.6,29,0.010,0.010,0.010,0.000,0.000,0.000
1644905266492893952,2022-02-15-06:07:46,10.1.1.6,38,0.000,0.000,0.000,0.000,0.000,0.000
1644905266528734976,2022-02-15-06:07:46,10.1.1.6,28,-0.010,-0.010,-0.010,0.000,0.000,0.000
1644905266588125952,2022-02-15-06:07:46,10.1.1.6,37,-0.020,-0.020,-0.020,0.000,0.000,0.000
1644905266628904960,2022-02-15-06:07:46,10.1.1.6,26,-0.030,-0.030,-0.030,0.000,0.000,0.000
1644905266687105024,2022-02-15-06:07:46,10.1.1.6,35,-0.040,-0.040,-0.040,0.000,0.000,0.000
1644905266726779904,2022-02-15-06:07:46,10.1.1.6,24,-0.050,-0.050,-0.050,0.000,0.000,0.000
1644905266787198976,2022-02-15-06:07:46,10.1.1.6,33,-0.060,-0.060,-0.060,0.000,0.000,0.000
1644905266828419072,2022-02-15-06:07:46,10.1.1.6,22,-0.070,-0.070,-0.070,0.000,0.000,0.000
1644905266889777920,2022-02-15-06:07:46,10.1.1.6,31,-0.080,-0.080,-0.080,0.000,0.000,0.000
1644905266927252992,2022-02-15-06:07:46,10.1.1.6,21,-0.090,-0.090,-0.090,0.000,0.000,0.000
1644905266988903936,2022-02-15-06:07:46,10.1.1.6,29,-0.100,-0.100,-0.100,0.000,0.000,0.000
1644905267048113152,2022-02-15-06:07:47,10.1.1.6,37,-0.090,-0.090,-0.090,0.000,0.000,0.000
1644905267092742912,2022-02-15-06:07:47,10.1.1.6,25,-0.080,-0.080,-0.080,0.000,0.000,0.000
1644905267148112896,2022-02-15-06:07:47,10.1.1.6,29,-0.070,-0.070,-0.070,0.000,0.000,0.000
1644905267209153792,2022-02-15-06:07:47,10.1.1.6,36,-0.060,-0.060,-0.060,0.000,0.000,0.000
1644905267247992064,2022-02-15-06:07:47,10.1.1.6,25,-0.050,-0.050,-0.050,0.000,0.000,0.000
1644905267309294848,2022-02-15-06:07:47,10.1.1.6,34,-0.040,-0.040,-0.040,0.000,0.000,0.000
1644905267355101952,2022-02-15-06:07:47,10.1.1.6,22,-0.030,-0.030,-0.030,0.000,0.000,0.000
1644905267409029120,2022-02-15-06:07:47,10.1.1.6,29,-0.020,-0.020,-0.020,0.000,0.000,0.000
1644905267467003136,2022-02-15-06:07:47,10.1.1.6,38,-0.010,-0.010,-0.010,0.000,0.000,0.000
1644905267509936128,2022-02-15-06:07:47,10.1.1.6,24,0.000,0.000,0.000,0.000,0.000,0.000
1644905267568582144,2022-02-15-06:07:47,10.1.1.6,33,0.010,0.010,0.010,0.000,0.000,0.000
1644905267609740032,2022-02-15-06:07:47,10.1.1.6,21,0.020,0.020,0.020,0.000,0.000,0.000
1644905267669490944,2022-02-15-06:07:47,10.1.1.6,29,0.030,0.030,0.030,0.000,0.000,0.000
1644905267726591232,2022-02-15-06:07:47,10.1.1.6,38,0.040,0.040,0.040,0.000,0.000,0.000
1644905267767374080,2022-02-15-06:07:47,10.1.1.6,26,0.050,0.050,0.050,0.000,0.000,0.000
1644905267827961088,2022-02-15-06:07:47,10.1.1.6,34,0.060,0.060,0.060,0.000,0.000,0.000
1644905267868185088,2022-02-15-06:07:47,10.1.1.6,23,0.070,0.070,0.070,0.000,0.000,0.000
1644905267927401984,2022-02-15-06:07:47,10.1.1.6,30,0.080,0.080,0.080,0.000,0.000,0.000
1644905267969351936,2022-02-15-06:07:47,10.1.1.6,20,0.090,0.090,0.090,0.000,0.000,0.000
1644905268028343808,2022-02-15-06:07:48,10.1.1.6,30,0.100,0.100,0.100,0.000,0.000,0.000
1644905268091852032,2022-02-15-06:07:48,10.1.1.6,36,0.090,0.090,0.090,0.000,0.000,0.000
1644905268129348096,2022-02-15-06:07:48,10.1.1.6,25,0.080,0.080,0.080,0.000,0.000,0.000
1644905268188601088,2022-02-15-06:07:48,10.1.1.6,32,0.070,0.070,0.070,0.000,0.000,0.000
1644905268227281152,2022-02-15-06:07:48,10.1.1.6,21,0.060,0.060,0.060,0.000,0.000,0.000
1644905268286863104,2022-02-15-06:07:48,10.1.1.6,30,0.050,0.050,0.050,0.000,0.000,0.000
1644905268328069888,2022-02-15-06:07:48,10.1.1.6,19,0.040,0.040,0.040,0.000,0.000,0.000
1644905268387350016,2022-02-15-06:07:48,10.1.1.6,29,0.030,0.030,0.030,0.000,0.000,0.000
1644905268447688192,2022-02-15-06:07:48,10.1.1.6,36,0.020,0.020,0.020,0.000,0.000,0.000
1644905268496157952,2022-02-15-06:07:48,10.1.1.6,26,0.010,0.010,0.010,0.000,0.000,0.000
1644905268549502976,2022-02-15-06:07:48,10.1.1.6,33,0.000,0.000,0.000,0.000,0.000,0.000
1644905268587645952,2022-02-15-06:07:48,10.1.1.6,21,-0.010,-0.010,-0.010,0.000,0.000,0.000
1644905268648553984,2022-02-15-06:07:48,10.1.1.6,29,-0.020,-0.020,-0.020,0.000,0.000,0.000
1644905268707972096,2022-02-15-06:07:48,10.1.1.6,37,-0.030,-0.030,-0.030,0.000,0.000,0.000
1644905268749468928,2022-02-15-06:07:48,10.1.1.6,25,-0.040,-0.040,-0.040,0.000,0.000,0.000
1644905268806662144,2022-02-15-06:07:48,10.1.1.6,33,-0.050,-0.050,-0.050,0.000,0.000,0.000
1644905268846659840,2022-02-15-06:07:48,10.1.1.6,22,-0.060,-0.060,-0.060,0.000,0.000,0.000
1644905268907776000,2022-02-15-06:07:48,10.1.1.6,30,-0.070,-0.070,-0.070,0.000,0.000,0.000
1644905268947464960,2022-02-15-06:07:48,10.1.1.6,18,-0.079,-0.079,-0.079,0.000,0.000,0.000
1644905269007389184,2022-02-15-06:07:49,10.1.1.6,28,-0.090,-0.090,-0.090,0.000,0.000,0.000
1644905269068217088,2022-02-15-06:07:49,10.1.1.6,37,-0.100,-0.100,-0.100,0.000,0.000,0.000
1644905269108535040,2022-02-15-06:07:49,10.1.1.6,25,-0.090,-0.090,-0.090,0.000,0.000,0.000
1644905269167598080,2022-02-15-06:07:49,10.1.1.6,34,-0.080,-0.080,-0.080,0.000,0.000,0.000
1644905269207307008,2022-02-15-06:07:49,10.1.1.6,22,-0.070,-0.070,-0.070,0.000,0.000,0.000
1644905269267049984,2022-02-15-06:07:49,10.1.1.6,31,-0.060,-0.060,-0.060,0.000,0.000,0.000
1644905269307718912,2022-02-15-06:07:49,10.1.1.6,20,-0.050,-0.050,-0.050,0.000,0.000,0.000
1644905269367539968,2022-02-15-06:07:49,10.1.1.6,29,-0.040,-0.040,-0.040,0.000,0.000,0.000
1644905269431653120,2022-02-15-06:07:49,10.1.1.6,38,-0.030,-0.030,-0.030,0.000,0.000,0.000
1644905269466624000,2022-02-15-06:07:49,10.1.1.6,24,-0.020,-0.020,-0.020,0.000,0.000,0.000
1644905269529285888,2022-02-15-06:07:49,10.1.1.6,32,-0.010,-0.010,-0.010,0.000,0.000,0.000
1644905269568824064,2022-02-15-06:07:49,10.1.1.6,20,0.000,0.000,0.000,0.000,0.000,0.000
1644905269631000064,2022-02-15-06:07:49,10.1.1.6,28,0.010,0.010,0.010,0.000,0.000,0.000
1644905269690938880,2022-02-15-06:07:49,10.1.1.6,36,0.020,0.020,0.020,0.000,0.000,0.000
1644905269727549952,2022-02-15-06:07:49,10.1.1.6,25,0.030,0.030,0.030,0.000,0.000,0.000
1644905269787892992,2022-02-15-06:07:49,10.1.1.6,34,0.040,0.040,0.040,0.000,0.000,0.000
1644905269827049984,2022-02-15-06:07:49,10.1.1.6,23,0.050,0.050,0.050,0.000,0.000,0.000
1644905269888699904,2022-02-15-06:07:49,10.1.1.6,32,0.060,0.060,0.060,0.000,0.000,0.000
1644905269928710912,2022-02-15-06:07:49,10.1.1.6,22,0.070,0.070,0.070,0.000,0.000,0.000
1644905269987596032,2022-02-15-06:07:49,10.1.1.6,31,0.080,0.080,0.080,0.000,0.000,0.000
1644905270030888960,2022-02-15-06:07:50,10.1.1.6,19,0.090,0.090,0.090,0.000,0.000,0.000
1644905270088131072,2022-02-15-06:07:50,10.1.1.6,29,0.100,0.100,0.100,0.000,0.000,0.000
1644905270147687936,2022-02-15-06:07:50,10.1.1.6,37,0.090,0.090,0.090,0.000,0.000,0.000
1644905270189024000,2022-02-15-06:07:50,10.1.1.6,26,0.080,0.080,0.080,0.000,0.000,0.000
1644905270247400960,2022-02-15-06:07:50,10.1.1.6,35,0.070,0.070,0.070,0.000,0.000,0.000
1644905270287745024,2022-02-15-06:07:50,10.1.1.6,24,0.060,0.060,0.060,0.000,0.000,0.000
1644905270348044032,2022-02-15-06:07:50,10.1.1.6,32,0.050,0.050,0.050,0.000,0.000,0.000
1644905270390639104,2022-02-15-06:07:50,10.1.1.6,21,0.040,0.040,0.040,0.000,0.000,0.000
1644905270446838016,2022-02-15-06:07:50,10.1.1.6,29,0.030,0.030,0.030,0.000,0.000,0.000
1644905270488510976,2022-02-15-06:07:50,10.1.1.6,19,0.021,0.021,0.021,0.000,0.000,0.000
1644905270550142976,2022-02-15-06:07:50,10.1.1.6,28,0.010,0.010,0.010,0.000,0.000,0.000
1644905270607353088,2022-02-15-06:07:50,10.1.1.6,37,0.000,0.000,0.000,0.000,0.000,0.000
1644905270649192960,2022-02-15-06:07:50,10.1.1.6,26,-0.010,-0.010,-0.010,0.000,0.000,0.000
1644905270707900160,2022-02-15-06:07:50,10.1.1.6,32,-0.020,-0.020,-0.020,0.000,0.000,0.000
1644905270748250112,2022-02-15-06:07:50,10.1.1.6,21,-0.030,-0.030,-0.030,0.000,0.000,0.000
1644905270809304832,2022-02-15-06:07:50,10.1.1.6,30,-0.040,-0.040,-0.040,0.000,0.000,0.000
1644905270867099136,2022-02-15-06:07:50,10.1.1.6,38,-0.050,-0.050,-0.050,0.000,0.000,0.000
1644905270910147072,2022-02-15-06:07:50,10.1.1.6,26,-0.060,-0.060,-0.060,0.000,0.000,0.000
1644905270968559872,2022-02-15-06:07:50,10.1.1.6,34,-0.070,-0.070,-0.070,0.000,0.000,0.000
1644905271012708864,2022-02-15-06:07:51,10.1.1.6,21,-0.080,-0.080,-0.080,0.000,0.000,0.000
1644905271068212992,2022-02-15-06:07:51,10.1.1.6,29,-0.090,-0.090,-0.090,0.000,0.000,0.000
1644905271128393984,2022-02-15-06:07:51,10.1.1.6,37,-0.100,-0.100,-0.100,0.000,0.000,0.000
1644905271169420032,2022-02-15-06:07:51,10.1.1.6,26,-0.090,-0.090,-0.090,0.000,0.000,0.000
1644905271228332032,2022-02-15-06:07:51,10.1.1.6,34,-0.080,-0.080,-0.080,0.000,0.000,0.000
1644905271268218880,2022-02-15-06:07:51,10.1.1.6,22,-0.070,-0.070,-0.070,0.000,0.000,0.000
1644905271328859136,2022-02-15-06:07:51,10.1.1.6,31,-0.060,-0.060,-0.060,0.000,0.000,0.000
1644905271368352768,2022-02-15-06:07:51,10.1.1.6,20,-0.050,-0.050,-0.050,0.000,0.000,0.000
1644905271428212992,2022-02-15-06:07:51,10.1.1.6,29,-0.040,-0.040,-0.040,0.000,0.000,0.000
1644905271488717056,2022-02-15-06:07:51,10.1.1.6,36,-0.030,-0.030,-0.030,0.000,0.000,0.000
1644905271590213120,2022-02-15-06:07:51,10.1.1.6,32,-0.010,-0.010,-0.010,0.000,0.000,0.000
1644905271628556032,2022-02-15-06:07:51,10.1.1.6,20,0.000,0.000,0.000,0.000,0.000,0.000
1644905271689556992,2022-02-15-06:07:51,10.1.1.6,27,0.010,0.010,0.010,0.000,0.000,0.000
1644905271746639104,2022-02-15-06:07:51,10.1.1.6,37,0.020,0.020,0.020,0.000,0.000,0.000
1644905271787100928,2022-02-15-06:07:51,10.1.1.6,25,0.030,0.030,0.030,0.000,0.000,0.000
1644905271848571136,2022-02-15-06:07:51,10.1.1.6,33,0.040,0.040,0.040,0.000,0.000,0.000
1644905271913382144,2022-02-15-06:07:51,10.1.1.6,36,0.050,0.050,0.050,0.000,0.000,0.000
1644905271952068096,2022-02-15-06:07:51,10.1.1.6,25,0.060,0.060,0.060,0.000,0.000,0.000
1644905272007401984,2022-02-15-06:07:52,10.1.1.6,35,0.070,0.070,0.070,0.000,0.000,0.000
1644905272047971072,2022-02-15-06:07:52,10.1.1.6,24,0.080,0.080,0.080,0.000,0.000,0.000
1644905272107084032,2022-02-15-06:07:52,10.1.1.6,32,0.090,0.090,0.090,0.000,0.000,0.000
1644905272149140992,2022-02-15-06:07:52,10.1.1.6,20,0.100,0.100,0.100,0.000,0.000,0.000
1644905272208625152,2022-02-15-06:07:52,10.1.1.6,29,0.090,0.090,0.090,0.000,0.000,0.000
1644905272266993152,2022-02-15-06:07:52,10.1.1.6,38,0.080,0.080,0.080,0.000,0.000,0.000
1644905272307687168,2022-02-15-06:07:52,10.1.1.6,24,0.070,0.070,0.070,0.000,0.000,0.000
1644905272369940992,2022-02-15-06:07:52,10.1.1.6,33,0.060,0.060,0.060,0.000,0.000,0.000
1644905272407224832,2022-02-15-06:07:52,10.1.1.6,22,0.050,0.050,0.050,0.000,0.000,0.000
1644905272471691008,2022-02-15-06:07:52,10.1.1.6,31,0.040,0.040,0.040,0.000,0.000,0.000
1644905272506555136,2022-02-15-06:07:52,10.1.1.6,20,0.030,0.030,0.030,0.000,0.000,0.000
1644905272568685056,2022-02-15-06:07:52,10.1.1.6,29,0.020,0.020,0.020,0.000,0.000,0.000
1644905272627616000,2022-02-15-06:07:52,10.1.1.6,37,0.010,0.010,0.010,0.000,0.000,0.000
1644905272666832896,2022-02-15-06:07:52,10.1.1.6,24,0.000,0.000,0.000,0.000,0.000,0.000
1644905272728340992,2022-02-15-06:07:52,10.1.1.6,31,-0.010,-0.010,-0.010,0.000,0.000,0.000
1644905272766947072,2022-02-15-06:07:52,10.1.1.6,20,-0.020,-0.020,-0.020,0.000,0.000,0.000
1644905272827086848,2022-02-15-06:07:52,10.1.1.6,29,-0.030,-0.030,-0.030,0.000,0.000,0.000
1644905272888657920,2022-02-15-06:07:52,10.1.1.6,38,-0.040,-0.040,-0.040,0.000,0.000,0.000
1644905272928926976,2022-02-15-06:07:52,10.1.1.6,27,-0.050,-0.050,-0.050,0.000,0.000,0.000
1644905272988097024,2022-02-15-06:07:52,10.1.1.6,36,-0.060,-0.060,-0.060,0.000,0.000,0.000
1644905273028578048,2022-02-15-06:07:53,10.1.1.6,25,-0.070,-0.070,-0.070,0.000,0.000,0.000
1644905273089940992,2022-02-15-06:07:53,10.1.1.6,33,-0.080,-0.080,-0.080,0.000,0.000,0.000
1644905273129602816,2022-02-15-06:07:53,10.1.1.6,22,-0.090,-0.090,-0.090,0.000,0.000,0.000
1644905273192210944,2022-02-15-06:07:53,10.1.1.6,31,-0.100,-0.100,-0.100,0.000,0.000,0.000
1644905273229250816,2022-02-15-06:07:53,10.1.1.6,20,-0.090,-0.090,-0.090,0.000,0.000,0.000
1644905273290494976,2022-02-15-06:07:53,10.1.1.6,30,-0.080,-0.080,-0.080,0.000,0.000,0.000
1644905273327575808,2022-02-15-06:07:53,10.1.1.6,19,-0.070,-0.070,-0.070,0.000,0.000,0.000
1644905273386882048,2022-02-15-06:07:53,10.1.1.6,28,-0.060,-0.060,-0.060,0.000,0.000,0.000
1644905273449376000,2022-02-15-06:07:53,10.1.1.6,38,-0.050,-0.050,-0.050,0.000,0.000,0.000
1644905273490870016,2022-02-15-06:07:53,10.1.1.6,27,-0.040,-0.040,-0.040,0.000,0.000,0.000
1644905273546953984,2022-02-15-06:07:53,10.1.1.6,36,-0.030,-0.030,-0.030,0.000,0.000,0.000
1644905273588238848,2022-02-15-06:07:53,10.1.1.6,25,-0.020,-0.020,-0.020,0.000,0.000,0.000
1644905273646472960,2022-02-15-06:07:53,10.1.1.6,33,-0.010,-0.010,-0.010,0.000,0.000,0.000
1644905273687937024,2022-02-15-06:07:53,10.1.1.6,23,0.000,0.000,0.000,0.000,0.000,0.000
1644905273747875840,2022-02-15-06:07:53,10.1.1.6,32,0.010,0.010,0.010,0.000,0.000,0.000
1644905273786569216,2022-02-15-06:07:53,10.1.1.6,22,0.020,0.020,0.020,0.000,0.000,0.000
1644905273846318848,2022-02-15-06:07:53,10.1.1.6,31,0.030,0.030,0.030,0.000,0.000,0.000
1644905273886688000,2022-02-15-06:07:53,10.1.1.6,21,0.040,0.040,0.040,0.000,0.000,0.000
1644905273946681088,2022-02-15-06:07:53,10.1.1.6,30,0.050,0.050,0.050,0.000,0.000,0.000
1644905273987481088,2022-02-15-06:07:53,10.1.1.6,19,0.060,0.060,0.060,0.000,0.000,0.000
1644905274046821120,2022-02-15-06:07:54,10.1.1.6,28,0.070,0.070,0.070,0.000,0.000,0.000
1644905274107209984,2022-02-15-06:07:54,10.1.1.6,38,0.080,0.080,0.080,0.000,0.000,0.000
1644905274146533120,2022-02-15-06:07:54,10.1.1.6,27,0.090,0.090,0.090,0.000,0.000,0.000
1644905274206699008,2022-02-15-06:07:54,10.1.1.6,36,0.100,0.100,0.100,0.000,0.000,0.000
1644905274246424064,2022-02-15-06:07:54,10.1.1.6,26,0.090,0.090,0.090,0.000,0.000,0.000
1644905274306513920,2022-02-15-06:07:54,10.1.1.6,35,0.080,0.080,0.080,0.000,0.000,0.000
1644905274346630144,2022-02-15-06:07:54,10.1.1.6,25,0.070,0.070,0.070,0.000,0.000,0.000
1644905274406269184,2022-02-15-06:07:54,10.1.1.6,34,0.060,0.060,0.060,0.000,0.000,0.000
1644905274446796800,2022-02-15-06:07:54,10.1.1.6,24,0.050,0.050,0.050,0.000,0.000,0.000
1644905274506649856,2022-02-15-06:07:54,10.1.1.6,34,0.040,0.040,0.040,0.000,0.000,0.000
1644905274546746880,2022-02-15-06:07:54,10.1.1.6,23,0.030,0.030,0.030,0.000,0.000,0.000
1644905274608851968,2022-02-15-06:07:54,10.1.1.6,32,0.020,0.020,0.020,0.000,0.000,0.000
1644905274652812032,2022-02-15-06:07:54,10.1.1.6,21,0.010,0.010,0.010,0.000,0.000,0.000
1644905274706993152,2022-02-15-06:07:54,10.1.1.6,30,0.000,0.000,0.000,0.000,0.000,0.000
1644905274766033920,2022-02-15-06:07:54,10.1.1.6,38,-0.010,-0.010,-0.010,0.000,0.000,0.000
1644905274806176000,2022-02-15-06:07:54,10.1.1.6,28,-0.020,-0.020,-0.020,0.000,0.000,0.000
1644905274866780928,2022-02-15-06:07:54,10.1.1.6,38,-0.030,-0.030,-0.030,0.000,0.000,0.000
1644905274907013888,2022-02-15-06:07:54,10.1.1.6,27,-0.040,-0.040,-0.040,0.000,0.000,0.000
1644905274968094208,2022-02-15-06:07:54,10.1.1.6,37,-0.050,-0.050,-0.050,0.000,0.000,0.000
1644905275006942976,2022-02-15-06:07:55,10.1.1.6,26,-0.060,-0.060,-0.060,0.000,0.000,0.000
1644905275066402816,2022-02-15-06:07:55,10.1.1.6,35,-0.070,-0.070,-0.070,0.000,0.000,0.000
1644905275107738880,2022-02-15-06:07:55,10.1.1.6,24,-0.080,-0.080,-0.080,0.000,0.000,0.000
1644905275166721024,2022-02-15-06:07:55,10.1.1.6,34,-0.090,-0.090,-0.090,0.000,0.000,0.000
1644905275207273984,2022-02-15-06:07:55,10.1.1.6,23,-0.100,-0.100,-0.100,0.000,0.000,0.000
1644905275266841856,2022-02-15-06:07:55,10.1.1.6,32,-0.090,-0.090,-0.090,0.000,0.000,0.000
1644905275307346176,2022-02-15-06:07:55,10.1.1.6,21,-0.080,-0.080,-0.080,0.000,0.000,0.000
1644905275367502848,2022-02-15-06:07:55,10.1.1.6,30,-0.070,-0.070,-0.070,0.000,0.000,0.000
1644905275407077120,2022-02-15-06:07:55,10.1.1.6,20,-0.060,-0.060,-0.060,0.000,0.000,0.000
1644905275466612224,2022-02-15-06:07:55,10.1.1.6,29,-0.050,-0.050,-0.050,0.000,0.000,0.000
1644905275528286976,2022-02-15-06:07:55,10.1.1.6,38,-0.040,-0.040,-0.040,0.000,0.000,0.000
1644905275567694848,2022-02-15-06:07:55,10.1.1.6,27,-0.030,-0.030,-0.030,0.000,0.000,0.000
1644905275626993920,2022-02-15-06:07:55,10.1.1.6,36,-0.020,-0.020,-0.020,0.000,0.000,0.000
1644905275666169856,2022-02-15-06:07:55,10.1.1.6,25,-0.010,-0.010,-0.010,0.000,0.000,0.000
1644905275726520064,2022-02-15-06:07:55,10.1.1.6,34,0.000,0.000,0.000,0.000,0.000,0.000
1644905275767002112,2022-02-15-06:07:55,10.1.1.6,24,0.010,0.010,0.010,0.000,0.000,0.000
1644905275827238912,2022-02-15-06:07:55,10.1.1.6,33,0.020,0.020,0.020,0.000,0.000,0.000
1644905275866614016,2022-02-15-06:07:55,10.1.1.6,23,0.030,0.030,0.030,0.000,0.000,0.000
1644905275919881216,2022-02-15-06:07:55,10.1.1.6,25,0.040,0.040,0.040,0.000,0.000,0.000
1644905275968601856,2022-02-15-06:07:55,10.1.1.6,22,0.050,0.050,0.050,0.000,0.000,0.000
1644905276027939072,2022-02-15-06:07:56,10.1.1.6,31,0.060,0.060,0.060,0.000,0.000,0.000
1644905276067724032,2022-02-15-06:07:56,10.1.1.6,21,0.070,0.070,0.070,0.000,0.000,0.000
1644905276127109888,2022-02-15-06:07:56,10.1.1.6,30,0.080,0.080,0.080,0.000,0.000,0.000
1644905276167937024,2022-02-15-06:07:56,10.1.1.6,20,0.090,0.090,0.090,0.000,0.000,0.000
1644905276227057920,2022-02-15-06:07:56,10.1.1.6,28,0.100,0.100,0.100,0.000,0.000,0.000
1644905276290900992,2022-02-15-06:07:56,10.1.1.6,38,0.090,0.090,0.090,0.000,0.000,0.000
1644905276338066176,2022-02-15-06:07:56,10.1.1.6,24,0.080,0.080,0.080,0.000,0.000,0.000
1644905276391872768,2022-02-15-06:07:56,10.1.1.6,31,0.070,0.070,0.070,0.000,0.000,0.000
1644905276447910144,2022-02-15-06:07:56,10.1.1.6,37,0.060,0.060,0.060,0.000,0.000,0.000
1644905276486712832,2022-02-15-06:07:56,10.1.1.6,21,0.050,0.050,0.050,0.000,0.000,0.000
1644905276548072192,2022-02-15-06:07:56,10.1.1.6,29,0.040,0.040,0.040,0.000,0.000,0.000
1644905276608361984,2022-02-15-06:07:56,10.1.1.6,37,0.030,0.030,0.030,0.000,0.000,0.000
1644905276648515840,2022-02-15-06:07:56,10.1.1.6,26,0.020,0.020,0.020,0.000,0.000,0.000
1644905276706733056,2022-02-15-06:07:56,10.1.1.6,35,0.010,0.010,0.010,0.000,0.000,0.000
1644905276746521856,2022-02-15-06:07:56,10.1.1.6,21,0.000,0.000,0.000,0.000,0.000,0.000
1644905276808542976,2022-02-15-06:07:56,10.1.1.6,29,-0.010,-0.010,-0.010,0.000,0.000,0.000
1644905276866508032,2022-02-15-06:07:56,10.1.1.6,37,-0.020,-0.020,-0.020,0.000,0.000,0.000
1644905276911684096,2022-02-15-06:07:56,10.1.1.6,25,-0.030,-0.030,-0.030,0.000,0.000,0.000
1644905276967941888,2022-02-15-06:07:56,10.1.1.6,33,-0.040,-0.040,-0.040,0.000,0.000,0.000
1644905277011322112,2022-02-15-06:07:57,10.1.1.6,22,-0.050,-0.050,-0.050,0.000,0.000,0.000
1644905277068325888,2022-02-15-06:07:57,10.1.1.6,31,-0.060,-0.060,-0.060,0.000,0.000,0.000
1644905277107582208,2022-02-15-06:07:57,10.1.1.6,21,-0.070,-0.070,-0.070,0.000,0.000,0.000
1644905277168045056,2022-02-15-06:07:57,10.1.1.6,30,-0.080,-0.080,-0.080,0.000,0.000,0.000
1644905277208681216,2022-02-15-06:07:57,10.1.1.6,19,-0.090,-0.090,-0.090,0.000,0.000,0.000
1644905277267537152,2022-02-15-06:07:57,10.1.1.6,29,-0.100,-0.100,-0.100,0.000,0.000,0.000
1644905277327013120,2022-02-15-06:07:57,10.1.1.6,38,-0.090,-0.090,-0.090,0.000,0.000,0.000
1644905277368727040,2022-02-15-06:07:57,10.1.1.6,26,-0.080,-0.080,-0.080,0.000,0.000,0.000
1644905277429052160,2022-02-15-06:07:57,10.1.1.6,34,-0.070,-0.070,-0.070,0.000,0.000,0.000
1644905277470052864,2022-02-15-06:07:57,10.1.1.6,24,-0.060,-0.060,-0.060,0.000,0.000,0.000
1644905277528933120,2022-02-15-06:07:57,10.1.1.6,31,-0.050,-0.050,-0.050,0.000,0.000,0.000
1644905277567539968,2022-02-15-06:07:57,10.1.1.6,20,-0.040,-0.040,-0.040,0.000,0.000,0.000
1644905277627635968,2022-02-15-06:07:57,10.1.1.6,28,-0.030,-0.030,-0.030,0.000,0.000,0.000
1644905277688676096,2022-02-15-06:07:57,10.1.1.6,37,-0.020,-0.020,-0.020,0.000,0.000,0.000
1644905277726530048,2022-02-15-06:07:57,10.1.1.6,26,-0.010,-0.010,-0.010,0.000,0.000,0.000
1644905277788561152,2022-02-15-06:07:57,10.1.1.6,35,0.000,0.000,0.000,0.000,0.000,0.000
1644905277829262848,2022-02-15-06:07:57,10.1.1.6,23,0.010,0.010,0.010,0.000,0.000,0.000
1644905277888653056,2022-02-15-06:07:57,10.1.1.6,33,0.020,0.020,0.020,0.000,0.000,0.000
1644905277927141888,2022-02-15-06:07:57,10.1.1.6,22,0.030,0.030,0.030,0.000,0.000,0.000
1644905278047971072,2022-02-15-06:07:58,10.1.1.6,29,0.050,0.050,0.050,0.000,0.000,0.000
1644905278108237056,2022-02-15-06:07:58,10.1.1.6,39,0.060,0.060,0.060,0.000,0.000,0.000
1644905278148057856,2022-02-15-06:07:58,10.1.1.6,28,0.070,0.070,0.070,0.000,0.000,0.000
1644905278209694976,2022-02-15-06:07:58,10.1.1.6,37,0.080,0.080,0.080,0.000,0.000,0.000
1644905278308073984,2022-02-15-06:07:58,10.1.1.6,32,0.100,0.100,0.100,0.000,0.000,0.000
1644905278367448064,2022-02-15-06:07:58,10.1.1.6,41,0.090,0.090,0.090,0.000,0.000,0.000
1644905278406621952,2022-02-15-06:07:58,10.1.1.6,30,0.080,0.080,0.080,0.000,0.000,0.000
1644905278464782080,2022-02-15-06:07:58,10.1.1.6,34,0.070,0.070,0.070,0.000,0.000,0.000
1644905278522303232,2022-02-15-06:07:58,10.1.1.6,41,0.060,0.060,0.060,0.000,0.000,0.000
1644905278572299008,2022-02-15-06:07:58,10.1.1.6,41,0.050,0.050,0.050,0.000,0.000,0.000
1644905278617476096,2022-02-15-06:07:58,10.1.1.6,34,0.040,0.040,0.040,0.000,0.000,0.000
1644905278667851008,2022-02-15-06:07:58,10.1.1.6,36,0.030,0.030,0.030,0.000,0.000,0.000
1644905278707593984,2022-02-15-06:07:58,10.1.1.6,25,0.020,0.020,0.020,0.000,0.000,0.000
1644905278759017984,2022-02-15-06:07:58,10.1.1.6,27,0.010,0.010,0.010,0.000,0.000,0.000
1644905278906800896,2022-02-15-06:07:58,10.1.1.6,23,-0.020,-0.020,-0.020,0.000,0.000,0.000
1644905278968728064,2022-02-15-06:07:58,10.1.1.6,32,-0.030,-0.030,-0.030,0.000,0.000,0.000
1644905279007503872,2022-02-15-06:07:59,10.1.1.6,22,-0.040,-0.040,-0.040,0.000,0.000,0.000
1644905279067888128,2022-02-15-06:07:59,10.1.1.6,32,-0.050,-0.050,-0.050,0.000,0.000,0.000
1644905279128400128,2022-02-15-06:07:59,10.1.1.6,38,-0.060,-0.060,-0.060,0.000,0.000,0.000
1644905279168390912,2022-02-15-06:07:59,10.1.1.6,27,-0.070,-0.070,-0.070,0.000,0.000,0.000
1644905279266592000,2022-02-15-06:07:59,10.1.1.6,24,-0.090,-0.090,-0.090,0.000,0.000,0.000
1644905279327405056,2022-02-15-06:07:59,10.1.1.6,34,-0.100,-0.100,-0.100,0.000,0.000,0.000
1644905279370373888,2022-02-15-06:07:59,10.1.1.6,27,-0.090,-0.090,-0.090,0.000,0.000,0.000
1644905279431014144,2022-02-15-06:07:59,10.1.1.6,33,-0.080,-0.080,-0.080,0.000,0.000,0.000
1644905279467048960,2022-02-15-06:07:59,10.1.1.6,22,-0.070,-0.070,-0.070,0.000,0.000,0.000
1644905279526973952,2022-02-15-06:07:59,10.1.1.6,32,-0.060,-0.060,-0.060,0.000,0.000,0.000
1644905279568225024,2022-02-15-06:07:59,10.1.1.6,21,-0.050,-0.050,-0.050,0.000,0.000,0.000
1644905279628961024,2022-02-15-06:07:59,10.1.1.6,30,-0.040,-0.040,-0.040,0.000,0.000,0.000
1644905279671220992,2022-02-15-06:07:59,10.1.1.6,20,-0.030,-0.030,-0.030,0.000,0.000,0.000
1644905279728736000,2022-02-15-06:07:59,10.1.1.6,29,-0.020,-0.020,-0.020,0.000,0.000,0.000
1644905279788433152,2022-02-15-06:07:59,10.1.1.6,38,-0.010,-0.010,-0.010,0.000,0.000,0.000
1644905279829672192,2022-02-15-06:07:59,10.1.1.6,26,0.000,0.000,0.000,0.000,0.000,0.000
1644905279887057920,2022-02-15-06:07:59,10.1.1.6,35,0.010,0.010,0.010,0.000,0.000,0.000
1644905279929789184,2022-02-15-06:07:59,10.1.1.6,25,0.020,0.020,0.020,0.000,0.000,0.000
1644905279986768128,2022-02-15-06:07:59,10.1.1.6,34,0.030,0.030,0.030,0.000,0.000,0.000
1644905280028534016,2022-02-15-06:08:00,10.1.1.6,24,0.040,0.040,0.040,0.000,0.000,0.000
1644905280088797184,2022-02-15-06:08:00,10.1.1.6,33,0.050,0.050,0.050,0.000,0.000,0.000
1644905280128236032,2022-02-15-06:08:00,10.1.1.6,19,0.060,0.060,0.060,0.000,0.000,0.000
1644905280187258112,2022-02-15-06:08:00,10.1.1.6,28,0.070,0.070,0.070,0.000,0.000,0.000
1644905280246861824,2022-02-15-06:08:00,10.1.1.6,37,0.080,0.080,0.080,0.000,0.000,0.000
1644905280287419136,2022-02-15-06:08:00,10.1.1.6,25,0.090,0.090,0.090,0.000,0.000,0.000
1644905280346374144,2022-02-15-06:08:00,10.1.1.6,34,0.100,0.100,0.100,0.000,0.000,0.000
1644905280387973120,2022-02-15-06:08:00,10.1.1.6,24,0.090,0.090,0.090,0.000,0.000,0.000
1644905280446746112,2022-02-15-06:08:00,10.1.1.6,33,0.080,0.080,0.080,0.000,0.000,0.000
1644905280491429120,2022-02-15-06:08:00,10.1.1.6,21,0.070,0.070,0.070,0.000,0.000,0.000
1644905280548229888,2022-02-15-06:08:00,10.1.1.6,25,0.060,0.060,0.060,0.000,0.000,0.000
1644905280607718912,2022-02-15-06:08:00,10.1.1.6,33,0.050,0.050,0.050,0.000,0.000,0.000
1644905280667593984,2022-02-15-06:08:00,10.1.1.6,38,0.040,0.040,0.040,0.000,0.000,0.000
1644905280708327936,2022-02-15-06:08:00,10.1.1.6,28,0.030,0.030,0.030,0.000,0.000,0.000
1644905280767798784,2022-02-15-06:08:00,10.1.1.6,37,0.020,0.020,0.020,0.000,0.000,0.000
1644905280809401088,2022-02-15-06:08:00,10.1.1.6,26,0.010,0.010,0.010,0.000,0.000,0.000
1644905280867589888,2022-02-15-06:08:00,10.1.1.6,36,0.000,0.000,0.000,0.000,0.000,0.000
1644905280919641856,2022-02-15-06:08:00,10.1.1.6,24,-0.010,-0.010,-0.010,0.000,0.000,0.000
1644905280967457024,2022-02-15-06:08:00,10.1.1.6,28,-0.020,-0.020,-0.020,0.000,0.000,0.000
1644905281027206912,2022-02-15-06:08:01,10.1.1.6,37,-0.030,-0.030,-0.030,0.000,0.000,0.000
1644905281069017856,2022-02-15-06:08:01,10.1.1.6,27,-0.040,-0.040,-0.040,0.000,0.000,0.000
1644905281186852864,2022-02-15-06:08:01,10.1.1.6,32,-0.060,-0.060,-0.060,0.000,0.000,0.000
1644905281229638144,2022-02-15-06:08:01,10.1.1.6,21,-0.070,-0.070,-0.070,0.000,0.000,0.000
1644905281288081920,2022-02-15-06:08:01,10.1.1.6,31,-0.080,-0.080,-0.080,0.000,0.000,0.000
1644905281326864896,2022-02-15-06:08:01,10.1.1.6,20,-0.090,-0.090,-0.090,0.000,0.000,0.000
1644905281388020992,2022-02-15-06:08:01,10.1.1.6,29,-0.100,-0.100,-0.100,0.000,0.000,0.000
1644905281449047040,2022-02-15-06:08:01,10.1.1.6,37,-0.090,-0.090,-0.090,0.000,0.000,0.000
1644905281489682944,2022-02-15-06:08:01,10.1.1.6,26,-0.080,-0.080,-0.080,0.000,0.000,0.000
1644905281545916928,2022-02-15-06:08:01,10.1.1.6,35,-0.070,-0.070,-0.070,0.000,0.000,0.000
1644905281586541824,2022-02-15-06:08:01,10.1.1.6,22,-0.060,-0.060,-0.060,0.000,0.000,0.000
1644905281646328064,2022-02-15-06:08:01,10.1.1.6,31,-0.050,-0.050,-0.050,0.000,0.000,0.000
1644905281687316992,2022-02-15-06:08:01,10.1.1.6,21,-0.040,-0.040,-0.040,0.000,0.000,0.000
1644905281827404032,2022-02-15-06:08:01,10.1.1.6,32,-0.020,-0.020,-0.020,0.000,0.000,0.000
1644905281867312896,2022-02-15-06:08:01,10.1.1.6,22,-0.010,-0.010,-0.010,0.000,0.000,0.000
1644905281926853888,2022-02-15-06:08:01,10.1.1.6,30,0.000,0.000,0.000,0.000,0.000,0.000
1644905281968395008,2022-02-15-06:08:01,10.1.1.6,19,0.010,0.010,0.010,0.000,0.000,0.000
1644905282026277120,2022-02-15-06:08:02,10.1.1.6,26,0.020,0.020,0.020,0.000,0.000,0.000
1644905282087053056,2022-02-15-06:08:02,10.1.1.6,35,0.030,0.030,0.030,0.000,0.000,0.000
1644905282126437888,2022-02-15-06:08:02,10.1.1.6,22,0.040,0.040,0.040,0.000,0.000,0.000
1644905282186714880,2022-02-15-06:08:02,10.1.1.6,32,0.050,0.050,0.050,0.000,0.000,0.000
1644905282227010048,2022-02-15-06:08:02,10.1.1.6,21,0.060,0.060,0.060,0.000,0.000,0.000
1644905282286264832,2022-02-15-06:08:02,10.1.1.6,31,0.070,0.070,0.070,0.000,0.000,0.000
1644905282326728192,2022-02-15-06:08:02,10.1.1.6,20,0.080,0.080,0.080,0.000,0.000,0.000
1644905282387064832,2022-02-15-06:08:02,10.1.1.6,30,0.090,0.090,0.090,0.000,0.000,0.000
1644905282427873024,2022-02-15-06:08:02,10.1.1.6,19,0.100,0.100,0.100,0.000,0.000,0.000
1644905282486563072,2022-02-15-06:08:02,10.1.1.6,29,0.090,0.090,0.090,0.000,0.000,0.000
1644905282548562944,2022-02-15-06:08:02,10.1.1.6,37,0.080,0.080,0.080,0.000,0.000,0.000
1644905282586808832,2022-02-15-06:08:02,10.1.1.6,27,0.070,0.070,0.070,0.000,0.000,0.000
1644905282646810112,2022-02-15-06:08:02,10.1.1.6,36,0.060,0.060,0.060,0.000,0.000,0.000
1644905282686638080,2022-02-15-06:08:02,10.1.1.6,26,0.050,0.050,0.050,0.000,0.000,0.000
1644905282747826944,2022-02-15-06:08:02,10.1.1.6,34,0.040,0.040,0.040,0.000,0.000,0.000
1644905282788590080,2022-02-15-06:08:02,10.1.1.6,23,0.030,0.030,0.030,0.000,0.000,0.000
1644905282846835968,2022-02-15-06:08:02,10.1.1.6,32,0.020,0.020,0.020,0.000,0.000,0.000
1644905282888762880,2022-02-15-06:08:02,10.1.1.6,21,0.010,0.010,0.010,0.000,0.000,0.000
1644905282947917056,2022-02-15-06:08:02,10.1.1.6,28,0.000,0.000,0.000,0.000,0.000,0.000
1644905283007169024,2022-02-15-06:08:03,10.1.1.6,37,-0.010,-0.010,-0.010,0.000,0.000,0.000
1644905283048048896,2022-02-15-06:08:03,10.1.1.6,26,-0.020,-0.020,-0.020,0.000,0.000,0.000
1644905283108659968,2022-02-15-06:08:03,10.1.1.6,35,-0.030,-0.030,-0.030,0.000,0.000,0.000
1644905283146426880,2022-02-15-06:08:03,10.1.1.6,24,-0.040,-0.040,-0.040,0.000,0.000,0.000
1644905283206672896,2022-02-15-06:08:03,10.1.1.6,34,-0.050,-0.050,-0.050,0.000,0.000,0.000
1644905283246849024,2022-02-15-06:08:03,10.1.1.6,23,-0.060,-0.060,-0.060,0.000,0.000,0.000
1644905283307645952,2022-02-15-06:08:03,10.1.1.6,33,-0.070,-0.070,-0.070,0.000,0.000,0.000
1644905283347734016,2022-02-15-06:08:03,10.1.1.6,22,-0.080,-0.080,-0.080,0.000,0.000,0.000
1644905283408154112,2022-02-15-06:08:03,10.1.1.6,31,-0.090,-0.090,-0.090,0.000,0.000,0.000
1644905283447992064,2022-02-15-06:08:03,10.1.1.6,20,-0.100,-0.100,-0.100,0.000,0.000,0.000
1644905283510092032,2022-02-15-06:08:03,10.1.1.6,29,-0.090,-0.090,-0.090,0.000,0.000,0.000
1644905283551356160,2022-02-15-06:08:03,10.1.1.6,19,-0.080,-0.080,-0.080,0.000,0.000,0.000
1644905283608790016,2022-02-15-06:08:03,10.1.1.6,29,-0.070,-0.070,-0.070,0.000,0.000,0.000
1644905283666806016,2022-02-15-06:08:03,10.1.1.6,37,-0.060,-0.060,-0.060,0.000,0.000,0.000
1644905283706864128,2022-02-15-06:08:03,10.1.1.6,26,-0.050,-0.050,-0.050,0.000,0.000,0.000
1644905283767034112,2022-02-15-06:08:03,10.1.1.6,32,-0.040,-0.040,-0.040,0.000,0.000,0.000
1644905283806484992,2022-02-15-06:08:03,10.1.1.6,22,-0.030,-0.030,-0.030,0.000,0.000,0.000
1644905283866605056,2022-02-15-06:08:03,10.1.1.6,28,-0.020,-0.020,-0.020,0.000,0.000,0.000
1644905283926515200,2022-02-15-06:08:03,10.1.1.6,37,-0.010,-0.010,-0.010,0.000,0.000,0.000
1644905283966827008,2022-02-15-06:08:03,10.1.1.6,27,0.000,0.000,0.000,0.000,0.000,0.000
1644905284027650048,2022-02-15-06:08:04,10.1.1.6,36,0.010,0.010,0.010,0.000,0.000,0.000
1644905284066608896,2022-02-15-06:08:04,10.1.1.6,25,0.020,0.020,0.020,0.000,0.000,0.000
1644905284127057152,2022-02-15-06:08:04,10.1.1.6,35,0.030,0.030,0.030,0.000,0.000,0.000
1644905284168431872,2022-02-15-06:08:04,10.1.1.6,21,0.040,0.040,0.040,0.000,0.000,0.000
1644905284227073792,2022-02-15-06:08:04,10.1.1.6,27,0.050,0.050,0.050,0.000,0.000,0.000
1644905284288441856,2022-02-15-06:08:04,10.1.1.6,35,0.060,0.060,0.060,0.000,0.000,0.000
1644905284328263936,2022-02-15-06:08:04,10.1.1.6,23,0.070,0.070,0.070,0.000,0.000,0.000
1644905284388391936,2022-02-15-06:08:04,10.1.1.6,33,0.080,0.080,0.080,0.000,0.000,0.000
1644905284428026880,2022-02-15-06:08:04,10.1.1.6,22,0.090,0.090,0.090,0.000,0.000,0.000
1644905284488425984,2022-02-15-06:08:04,10.1.1.6,31,0.100,0.100,0.100,0.000,0.000,0.000
1644905284527021824,2022-02-15-06:08:04,10.1.1.6,19,0.090,0.090,0.090,0.000,0.000,0.000
1644905284588196096,2022-02-15-06:08:04,10.1.1.6,28,0.080,0.080,0.080,0.000,0.000,0.000
1644905284647897088,2022-02-15-06:08:04,10.1.1.6,37,0.070,0.070,0.070,0.000,0.000,0.000
1644905284687601920,2022-02-15-06:08:04,10.1.1.6,27,0.060,0.060,0.060,0.000,0.000,0.000
1644905284828860160,2022-02-15-06:08:04,10.1.1.6,28,0.040,0.040,0.040,0.000,0.000,0.000
1644905284888880896,2022-02-15-06:08:04,10.1.1.6,37,0.030,0.030,0.030,0.000,0.000,0.000
1644905284929379072,2022-02-15-06:08:04,10.1.1.6,27,0.020,0.020,0.020,0.000,0.000,0.000
1644905284986860032,2022-02-15-06:08:04,10.1.1.6,36,0.010,0.010,0.010,0.000,0.000,0.000
1644905285029153024,2022-02-15-06:08:05,10.1.1.6,26,0.000,0.000,0.000,0.000,0.000,0.000
1644905285088131840,2022-02-15-06:08:05,10.1.1.6,35,-0.010,-0.010,-0.010,0.000,0.000,0.000
1644905285126542080,2022-02-15-06:08:05,10.1.1.6,25,-0.020,-0.020,-0.020,0.000,0.000,0.000
1644905285241345792,2022-02-15-06:08:05,10.1.1.6,23,-0.040,-0.040,-0.040,0.000,0.000,0.000
1644905285289284096,2022-02-15-06:08:05,10.1.1.6,32,-0.050,-0.050,-0.050,0.000,0.000,0.000
1644905285329207808,2022-02-15-06:08:05,10.1.1.6,21,-0.060,-0.060,-0.060,0.000,0.000,0.000
1644905285387266048,2022-02-15-06:08:05,10.1.1.6,31,-0.070,-0.070,-0.070,0.000,0.000,0.000
1644905285448465152,2022-02-15-06:08:05,10.1.1.6,36,-0.080,-0.080,-0.080,0.000,0.000,0.000
1644905285489239808,2022-02-15-06:08:05,10.1.1.6,22,-0.090,-0.090,-0.090,0.000,0.000,0.000
1644905285548069888,2022-02-15-06:08:05,10.1.1.6,28,-0.100,-0.100,-0.100,0.000,0.000,0.000
1644905285607428096,2022-02-15-06:08:05,10.1.1.6,37,-0.090,-0.090,-0.090,0.000,0.000,0.000
1644905285649005824,2022-02-15-06:08:05,10.1.1.6,27,-0.080,-0.080,-0.080,0.000,0.000,0.000
1644905285706809088,2022-02-15-06:08:05,10.1.1.6,31,-0.070,-0.070,-0.070,0.000,0.000,0.000
1644905285748084992,2022-02-15-06:08:05,10.1.1.6,21,-0.060,-0.060,-0.060,0.000,0.000,0.000
1644905285807801088,2022-02-15-06:08:05,10.1.1.6,31,-0.050,-0.050,-0.050,0.000,0.000,0.000
1644905285869206784,2022-02-15-06:08:05,10.1.1.6,40,-0.040,-0.040,-0.040,0.000,0.000,0.000
1644905285909254144,2022-02-15-06:08:05,10.1.1.6,29,-0.030,-0.030,-0.030,0.000,0.000,0.000
1644905285968308992,2022-02-15-06:08:05,10.1.1.6,38,-0.020,-0.020,-0.020,0.000,0.000,0.000
1644905286007277056,2022-02-15-06:08:06,10.1.1.6,26,-0.010,-0.010,-0.010,0.000,0.000,0.000
1644905286067773952,2022-02-15-06:08:06,10.1.1.6,35,0.000,0.000,0.000,0.000,0.000,0.000
1644905286106458880,2022-02-15-06:08:06,10.1.1.6,25,0.010,0.010,0.010,0.000,0.000,0.000
1644905286169667072,2022-02-15-06:08:06,10.1.1.6,34,0.020,0.020,0.020,0.000,0.000,0.000
1644905286206792192,2022-02-15-06:08:06,10.1.1.6,21,0.030,0.030,0.030,0.000,0.000,0.000
1644905286268584960,2022-02-15-06:08:06,10.1.1.6,30,0.040,0.040,0.040,0.000,0.000,0.000
1644905286307399936,2022-02-15-06:08:06,10.1.1.6,20,0.050,0.050,0.050,0.000,0.000,0.000
1644905286367744000,2022-02-15-06:08:06,10.1.1.6,29,0.060,0.060,0.060,0.000,0.000,0.000
1644905286408685824,2022-02-15-06:08:06,10.1.1.6,19,0.070,0.070,0.070,0.000,0.000,0.000
1644905286467629056,2022-02-15-06:08:06,10.1.1.6,29,0.080,0.080,0.080,0.000,0.000,0.000
1644905286527641088,2022-02-15-06:08:06,10.1.1.6,38,0.090,0.090,0.090,0.000,0.000,0.000
1644905286567529984,2022-02-15-06:08:06,10.1.1.6,28,0.100,0.100,0.100,0.000,0.000,0.000
1644905286628068096,2022-02-15-06:08:06,10.1.1.6,38,0.090,0.090,0.090,0.000,0.000,0.000
1644905286668203008,2022-02-15-06:08:06,10.1.1.6,27,0.080,0.080,0.080,0.000,0.000,0.000
1644905286730130944,2022-02-15-06:08:06,10.1.1.6,37,0.070,0.070,0.070,0.000,0.000,0.000
1644905286769438976,2022-02-15-06:08:06,10.1.1.6,26,0.060,0.060,0.060,0.000,0.000,0.000
1644905286826920960,2022-02-15-06:08:06,10.1.1.6,36,0.050,0.050,0.050,0.000,0.000,0.000
1644905286868943872,2022-02-15-06:08:06,10.1.1.6,25,0.040,0.040,0.040,0.000,0.000,0.000
1644905286928150016,2022-02-15-06:08:06,10.1.1.6,34,0.030,0.030,0.030,0.000,0.000,0.000
1644905286968518144,2022-02-15-06:08:06,10.1.1.6,22,0.020,0.020,0.020,0.000,0.000,0.000
1644905287030919168,2022-02-15-06:08:07,10.1.1.6,32,0.010,0.010,0.010,0.000,0.000,0.000
1644905287126385920,2022-02-15-06:08:07,10.1.1.6,25,0.000,0.000,0.000,0.000,0.000,0.000
1644905287187091200,2022-02-15-06:08:07,10.1.1.6,34,-0.010,-0.010,-0.010,0.000,0.000,0.000
1644905287227243008,2022-02-15-06:08:07,10.1.1.6,22,-0.020,-0.020,-0.020,0.000,0.000,0.000
1644905287287062784,2022-02-15-06:08:07,10.1.1.6,32,-0.030,-0.030,-0.030,0.000,0.000,0.000
1644905287327783936,2022-02-15-06:08:07,10.1.1.6,20,-0.040,-0.040,-0.040,0.000,0.000,0.000
1644905287387574784,2022-02-15-06:08:07,10.1.1.6,29,-0.050,-0.050,-0.050,0.000,0.000,0.000
1644905287446445824,2022-02-15-06:08:07,10.1.1.6,37,-0.060,-0.060,-0.060,0.000,0.000,0.000
1644905287488680960,2022-02-15-06:08:07,10.1.1.6,26,-0.070,-0.070,-0.070,0.000,0.000,0.000
1644905287549690112,2022-02-15-06:08:07,10.1.1.6,35,-0.080,-0.080,-0.080,0.000,0.000,0.000
1644905287620371968,2022-02-15-06:08:07,10.1.1.6,28,-0.090,-0.090,-0.090,0.000,0.000,0.000
1644905287670696960,2022-02-15-06:08:07,10.1.1.6,29,-0.100,-0.100,-0.100,0.000,0.000,0.000
1644905287727428864,2022-02-15-06:08:07,10.1.1.6,30,-0.090,-0.090,-0.090,0.000,0.000,0.000
1644905287792882944,2022-02-15-06:08:07,10.1.1.6,37,-0.080,-0.080,-0.080,0.000,0.000,0.000
1644905287826611968,2022-02-15-06:08:07,10.1.1.6,26,-0.070,-0.070,-0.070,0.000,0.000,0.000
1644905287886957824,2022-02-15-06:08:07,10.1.1.6,35,-0.060,-0.060,-0.060,0.000,0.000,0.000
1644905287926959872,2022-02-15-06:08:07,10.1.1.6,23,-0.050,-0.050,-0.050,0.000,0.000,0.000
1644905287986404864,2022-02-15-06:08:07,10.1.1.6,31,-0.040,-0.040,-0.040,0.000,0.000,0.000
1644905288026451200,2022-02-15-06:08:08,10.1.1.6,21,-0.030,-0.030,-0.030,0.000,0.000,0.000
1644905288087668992,2022-02-15-06:08:08,10.1.1.6,28,-0.020,-0.020,-0.020,0.000,0.000,0.000
1644905288147931136,2022-02-15-06:08:08,10.1.1.6,36,-0.010,-0.010,-0.010,0.000,0.000,0.000
1644905288187761920,2022-02-15-06:08:08,10.1.1.6,24,0.000,0.000,0.000,0.000,0.000,0.000
1644905288246439936,2022-02-15-06:08:08,10.1.1.6,33,0.010,0.010,0.010,0.000,0.000,0.000
1644905288286534912,2022-02-15-06:08:08,10.1.1.6,22,0.020,0.020,0.020,0.000,0.000,0.000
1644905288347557120,2022-02-15-06:08:08,10.1.1.6,32,0.030,0.030,0.030,0.000,0.000,0.000
1644905288386548992,2022-02-15-06:08:08,10.1.1.6,21,0.040,0.040,0.040,0.000,0.000,0.000
1644905288446044928,2022-02-15-06:08:08,10.1.1.6,29,0.050,0.050,0.050,0.000,0.000,0.000
1644905288486362880,2022-02-15-06:08:08,10.1.1.6,19,0.059,0.059,0.059,0.000,0.000,0.000
1644905288605537792,2022-02-15-06:08:08,10.1.1.6,29,0.070,0.070,0.070,0.000,0.000,0.000
1644905288669067008,2022-02-15-06:08:08,10.1.1.6,37,0.080,0.080,0.080,0.000,0.000,0.000
1644905288707017984,2022-02-15-06:08:08,10.1.1.6,27,0.090,0.090,0.090,0.000,0.000,0.000
1644905288767683072,2022-02-15-06:08:08,10.1.1.6,33,0.100,0.100,0.100,0.000,0.000,0.000
1644905288808072960,2022-02-15-06:08:08,10.1.1.6,22,0.090,0.090,0.090,0.000,0.000,0.000
1644905288867182080,2022-02-15-06:08:08,10.1.1.6,31,0.080,0.080,0.080,0.000,0.000,0.000
1644905289067267840,2022-02-15-06:08:09,10.1.1.6,25,0.040,0.040,0.040,0.000,0.000,0.000
1644905289127120128,2022-02-15-06:08:09,10.1.1.6,34,0.030,0.030,0.030,0.000,0.000,0.000
1644905289167802112,2022-02-15-06:08:09,10.1.1.6,23,0.020,0.020,0.020,0.000,0.000,0.000
1644905289228441088,2022-02-15-06:08:09,10.1.1.6,33,0.010,0.010,0.010,0.000,0.000,0.000
1644905289270817024,2022-02-15-06:08:09,10.1.1.6,22,0.000,0.000,0.000,0.000,0.000,0.000
1644905289328126976,2022-02-15-06:08:09,10.1.1.6,31,-0.010,-0.010,-0.010,0.000,0.000,0.000
1644905289367512832,2022-02-15-06:08:09,10.1.1.6,20,-0.020,-0.020,-0.020,0.000,0.000,0.000
1644905289427622912,2022-02-15-06:08:09,10.1.1.6,29,-0.030,-0.030,-0.030,0.000,0.000,0.000
1644905289489031168,2022-02-15-06:08:09,10.1.1.6,38,-0.040,-0.040,-0.040,0.000,0.000,0.000
1644905289527798784,2022-02-15-06:08:09,10.1.1.6,26,-0.050,-0.050,-0.050,0.000,0.000,0.000
1644905289587076864,2022-02-15-06:08:09,10.1.1.6,36,-0.060,-0.060,-0.060,0.000,0.000,0.000
1644905289628356096,2022-02-15-06:08:09,10.1.1.6,25,-0.070,-0.070,-0.070,0.000,0.000,0.000
1644905289688771840,2022-02-15-06:08:09,10.1.1.6,27,-0.080,-0.080,-0.080,0.000,0.000,0.000
1644905289747952896,2022-02-15-06:08:09,10.1.1.6,36,-0.090,-0.090,-0.090,0.000,0.000,0.000
1644905289786947072,2022-02-15-06:08:09,10.1.1.6,26,-0.100,-0.100,-0.100,0.000,0.000,0.000
1644905289846884864,2022-02-15-06:08:09,10.1.1.6,36,-0.090,-0.090,-0.090,0.000,0.000,0.000
1644905289908237824,2022-02-15-06:08:09,10.1.1.6,36,-0.080,-0.080,-0.080,0.000,0.000,0.000
1644905289947298048,2022-02-15-06:08:09,10.1.1.6,26,-0.070,-0.070,-0.070,0.000,0.000,0.000
1644905290008836864,2022-02-15-06:08:10,10.1.1.6,35,-0.060,-0.060,-0.060,0.000,0.000,0.000
1644905290048232960,2022-02-15-06:08:10,10.1.1.6,25,-0.050,-0.050,-0.050,0.000,0.000,0.000
1644905290108429824,2022-02-15-06:08:10,10.1.1.6,32,-0.040,-0.040,-0.040,0.000,0.000,0.000
1644905290147970816,2022-02-15-06:08:10,10.1.1.6,21,-0.030,-0.030,-0.030,0.000,0.000,0.000
1644905290210158080,2022-02-15-06:08:10,10.1.1.6,31,-0.020,-0.020,-0.020,0.000,0.000,0.000
1644905290248248064,2022-02-15-06:08:10,10.1.1.6,20,-0.010,-0.010,-0.010,0.000,0.000,0.000
1644905290306492928,2022-02-15-06:08:10,10.1.1.6,30,0.000,0.000,0.000,0.000,0.000,0.000
1644905290347840000,2022-02-15-06:08:10,10.1.1.6,19,0.009,0.009,0.009,0.000,0.000,0.000
1644905290407779072,2022-02-15-06:08:10,10.1.1.6,28,0.020,0.020,0.020,0.000,0.000,0.000
1644905290467153152,2022-02-15-06:08:10,10.1.1.6,38,0.030,0.030,0.030,0.000,0.000,0.000
1644905290507375872,2022-02-15-06:08:10,10.1.1.6,27,0.040,0.040,0.040,0.000,0.000,0.000
1644905290568228096,2022-02-15-06:08:10,10.1.1.6,36,0.050,0.050,0.050,0.000,0.000,0.000
1644905290607083008,2022-02-15-06:08:10,10.1.1.6,25,0.060,0.060,0.060,0.000,0.000,0.000
1644905290668862976,2022-02-15-06:08:10,10.1.1.6,34,0.070,0.070,0.070,0.000,0.000,0.000
1644905290707872000,2022-02-15-06:08:10,10.1.1.6,23,0.080,0.080,0.080,0.000,0.000,0.000
1644905290769000960,2022-02-15-06:08:10,10.1.1.6,32,0.090,0.090,0.090,0.000,0.000,0.000
1644905290815494144,2022-02-15-06:08:10,10.1.1.6,20,0.100,0.100,0.100,0.000,0.000,0.000
1644905290928658944,2022-02-15-06:08:10,10.1.1.6,29,0.080,0.080,0.080,0.000,0.000,0.000
1644905290986952960,2022-02-15-06:08:10,10.1.1.6,37,0.070,0.070,0.070,0.000,0.000,0.000
1644905291026163968,2022-02-15-06:08:11,10.1.1.6,26,0.060,0.060,0.060,0.000,0.000,0.000
1644905291087902976,2022-02-15-06:08:11,10.1.1.6,35,0.050,0.050,0.050,0.000,0.000,0.000
1644905291128211968,2022-02-15-06:08:11,10.1.1.6,25,0.040,0.040,0.040,0.000,0.000,0.000
1644905291187997184,2022-02-15-06:08:11,10.1.1.6,34,0.030,0.030,0.030,0.000,0.000,0.000
1644905291228300032,2022-02-15-06:08:11,10.1.1.6,23,0.020,0.020,0.020,0.000,0.000,0.000
1644905291288989952,2022-02-15-06:08:11,10.1.1.6,32,0.010,0.010,0.010,0.000,0.000,0.000
1644905291327766784,2022-02-15-06:08:11,10.1.1.6,22,0.000,0.000,0.000,0.000,0.000,0.000
1644905291390985984,2022-02-15-06:08:11,10.1.1.6,31,-0.010,-0.010,-0.010,0.000,0.000,0.000
1644905291433669120,2022-02-15-06:08:11,10.1.1.6,21,-0.020,-0.020,-0.020,0.000,0.000,0.000
1644905291489820928,2022-02-15-06:08:11,10.1.1.6,30,-0.030,-0.030,-0.030,0.000,0.000,0.000
1644905291526961152,2022-02-15-06:08:11,10.1.1.6,19,-0.039,-0.039,-0.039,0.000,0.000,0.000
1644905291587286016,2022-02-15-06:08:11,10.1.1.6,28,-0.050,-0.050,-0.050,0.000,0.000,0.000
1644905291647198976,2022-02-15-06:08:11,10.1.1.6,36,-0.060,-0.060,-0.060,0.000,0.000,0.000
1644905291687990784,2022-02-15-06:08:11,10.1.1.6,25,-0.070,-0.070,-0.070,0.000,0.000,0.000
1644905291746931200,2022-02-15-06:08:11,10.1.1.6,33,-0.080,-0.080,-0.080,0.000,0.000,0.000
1644905291787388160,2022-02-15-06:08:11,10.1.1.6,22,-0.090,-0.090,-0.090,0.000,0.000,0.000
1644905291846457856,2022-02-15-06:08:11,10.1.1.6,31,-0.100,-0.100,-0.100,0.000,0.000,0.000
1644905291889821952,2022-02-15-06:08:11,10.1.1.6,21,-0.090,-0.090,-0.090,0.000,0.000,0.000
1644905292007299840,2022-02-15-06:08:12,10.1.1.6,31,-0.070,-0.070,-0.070,0.000,0.000,0.000
1644905292046782976,2022-02-15-06:08:12,10.1.1.6,20,-0.060,-0.060,-0.060,0.000,0.000,0.000
1644905292106396928,2022-02-15-06:08:12,10.1.1.6,29,-0.050,-0.050,-0.050,0.000,0.000,0.000
1644905292167227904,2022-02-15-06:08:12,10.1.1.6,37,-0.040,-0.040,-0.040,0.000,0.000,0.000
1644905292207212032,2022-02-15-06:08:12,10.1.1.6,26,-0.030,-0.030,-0.030,0.000,0.000,0.000
1644905292266590208,2022-02-15-06:08:12,10.1.1.6,34,-0.020,-0.020,-0.020,0.000,0.000,0.000
1644905292307142912,2022-02-15-06:08:12,10.1.1.6,24,-0.010,-0.010,-0.010,0.000,0.000,0.000
1644905292366363136,2022-02-15-06:08:12,10.1.1.6,33,0.000,0.000,0.000,0.000,0.000,0.000
1644905292408049152,2022-02-15-06:08:12,10.1.1.6,23,0.010,0.010,0.010,0.000,0.000,0.000
1644905292467066112,2022-02-15-06:08:12,10.1.1.6,32,0.020,0.020,0.020,0.000,0.000,0.000
1644905292507121152,2022-02-15-06:08:12,10.1.1.6,22,0.030,0.030,0.030,0.000,0.000,0.000
1644905292566292992,2022-02-15-06:08:12,10.1.1.6,31,0.040,0.040,0.040,0.000,0.000,0.000
1644905292606694912,2022-02-15-06:08:12,10.1.1.6,20,0.050,0.050,0.050,0.000,0.000,0.000
1644905292666755840,2022-02-15-06:08:12,10.1.1.6,29,0.060,0.060,0.060,0.000,0.000,0.000
1644905292726833152,2022-02-15-06:08:12,10.1.1.6,38,0.070,0.070,0.070,0.000,0.000,0.000
1644905292769239040,2022-02-15-06:08:12,10.1.1.6,26,0.080,0.080,0.080,0.000,0.000,0.000
1644905292826308864,2022-02-15-06:08:12,10.1.1.6,36,0.090,0.090,0.090,0.000,0.000,0.000
1644905292866877184,2022-02-15-06:08:12,10.1.1.6,25,0.100,0.100,0.100,0.000,0.000,0.000
1644905292926259968,2022-02-15-06:08:12,10.1.1.6,32,0.090,0.090,0.090,0.000,0.000,0.000
1644905292967665920,2022-02-15-06:08:12,10.1.1.6,22,0.080,0.080,0.080,0.000,0.000,0.000
1644905293028768000,2022-02-15-06:08:13,10.1.1.6,32,0.070,0.070,0.070,0.000,0.000,0.000
1644905293067995136,2022-02-15-06:08:13,10.1.1.6,20,0.060,0.060,0.060,0.000,0.000,0.000
1644905293129434112,2022-02-15-06:08:13,10.1.1.6,30,0.050,0.050,0.050,0.000,0.000,0.000
1644905293169550848,2022-02-15-06:08:13,10.1.1.6,19,0.040,0.040,0.040,0.000,0.000,0.000
1644905293236086016,2022-02-15-06:08:13,10.1.1.6,29,0.030,0.030,0.030,0.000,0.000,0.000
1644905293295937024,2022-02-15-06:08:13,10.1.1.6,34,0.020,0.020,0.020,0.000,0.000,0.000
1644905293350366208,2022-02-15-06:08:13,10.1.1.6,38,0.010,0.010,0.010,0.000,0.000,0.000
1644905293386739968,2022-02-15-06:08:13,10.1.1.6,26,0.000,0.000,0.000,0.000,0.000,0.000
1644905293447431168,2022-02-15-06:08:13,10.1.1.6,35,-0.010,-0.010,-0.010,0.000,0.000,0.000
1644905293489309184,2022-02-15-06:08:13,10.1.1.6,24,-0.020,-0.020,-0.020,0.000,0.000,0.000
1644905293547930112,2022-02-15-06:08:13,10.1.1.6,34,-0.030,-0.030,-0.030,0.000,0.000,0.000
1644905293589412864,2022-02-15-06:08:13,10.1.1.6,22,-0.040,-0.040,-0.040,0.000,0.000,0.000
1644905293658082048,2022-02-15-06:08:13,10.1.1.6,29,-0.050,-0.050,-0.050,0.000,0.000,0.000
1644905293710059776,2022-02-15-06:08:13,10.1.1.6,38,-0.060,-0.060,-0.060,0.000,0.000,0.000
1644905293748155136,2022-02-15-06:08:13,10.1.1.6,28,-0.070,-0.070,-0.070,0.000,0.000,0.000
1644905293808521984,2022-02-15-06:08:13,10.1.1.6,37,-0.080,-0.080,-0.080,0.000,0.000,0.000
1644905293909832960,2022-02-15-06:08:13,10.1.1.6,37,-0.100,-0.100,-0.100,0.000,0.000,0.000
1644905293946532096,2022-02-15-06:08:13,10.1.1.6,26,-0.090,-0.090,-0.090,0.000,0.000,0.000
1644905294007072000,2022-02-15-06:08:14,10.1.1.6,36,-0.080,-0.080,-0.080,0.000,0.000,0.000
1644905294046832128,2022-02-15-06:08:14,10.1.1.6,25,-0.070,-0.070,-0.070,0.000,0.000,0.000
1644905294107005952,2022-02-15-06:08:14,10.1.1.6,35,-0.060,-0.060,-0.060,0.000,0.000,0.000
1644905294147603968,2022-02-15-06:08:14,10.1.1.6,24,-0.050,-0.050,-0.050,0.000,0.000,0.000
1644905294211301120,2022-02-15-06:08:14,10.1.1.6,34,-0.040,-0.040,-0.040,0.000,0.000,0.000
1644905294246746112,2022-02-15-06:08:14,10.1.1.6,23,-0.030,-0.030,-0.030,0.000,0.000,0.000
1644905294307051776,2022-02-15-06:08:14,10.1.1.6,28,-0.020,-0.020,-0.020,0.000,0.000,0.000
1644905294366379008,2022-02-15-06:08:14,10.1.1.6,35,-0.010,-0.010,-0.010,0.000,0.000,0.000
1644905294406812928,2022-02-15-06:08:14,10.1.1.6,24,0.000,0.000,0.000,0.000,0.000,0.000
1644905294467727872,2022-02-15-06:08:14,10.1.1.6,31,0.010,0.010,0.010,0.000,0.000,0.000
1644905294506441216,2022-02-15-06:08:14,10.1.1.6,20,0.020,0.020,0.020,0.000,0.000,0.000
1644905294581246976,2022-02-15-06:08:14,10.1.1.6,29,0.030,0.030,0.030,0.000,0.000,0.000
1644905294623936000,2022-02-15-06:08:14,10.1.1.6,19,0.039,0.039,0.039,0.000,0.000,0.000
1644905294666946816,2022-02-15-06:08:14,10.1.1.6,28,0.050,0.050,0.050,0.000,0.000,0.000
1644905294727616000,2022-02-15-06:08:14,10.1.1.6,37,0.060,0.060,0.060,0.000,0.000,0.000
1644905294767170048,2022-02-15-06:08:14,10.1.1.6,25,0.070,0.070,0.070,0.000,0.000,0.000
1644905294828386048,2022-02-15-06:08:14,10.1.1.6,35,0.080,0.080,0.080,0.000,0.000,0.000
1644905294867016192,2022-02-15-06:08:14,10.1.1.6,23,0.090,0.090,0.090,0.000,0.000,0.000
1644905294926690048,2022-02-15-06:08:14,10.1.1.6,32,0.100,0.100,0.100,0.000,0.000,0.000
1644905294967959040,2022-02-15-06:08:14,10.1.1.6,21,0.090,0.090,0.090,0.000,0.000,0.000
1644905295031614976,2022-02-15-06:08:15,10.1.1.6,29,0.080,0.080,0.080,0.000,0.000,0.000
1644905295090296064,2022-02-15-06:08:15,10.1.1.6,38,0.070,0.070,0.070,0.000,0.000,0.000
1644905295127741184,2022-02-15-06:08:15,10.1.1.6,26,0.060,0.060,0.060,0.000,0.000,0.000
1644905295186949120,2022-02-15-06:08:15,10.1.1.6,32,0.050,0.050,0.050,0.000,0.000,0.000
1644905295227516928,2022-02-15-06:08:15,10.1.1.6,21,0.040,0.040,0.040,0.000,0.000,0.000
1644905295286843136,2022-02-15-06:08:15,10.1.1.6,31,0.030,0.030,0.030,0.000,0.000,0.000
1644905295328294144,2022-02-15-06:08:15,10.1.1.6,20,0.020,0.020,0.020,0.000,0.000,0.000
1644905295386368000,2022-02-15-06:08:15,10.1.1.6,29,0.010,0.010,0.010,0.000,0.000,0.000
1644905295427032064,2022-02-15-06:08:15,10.1.1.6,19,0.000,0.000,0.000,0.000,0.000,0.000
1644905295488822016,2022-02-15-06:08:15,10.1.1.6,28,-0.010,-0.010,-0.010,0.000,0.000,0.000
1644905295548318976,2022-02-15-06:08:15,10.1.1.6,36,-0.020,-0.020,-0.020,0.000,0.000,0.000
1644905295591231232,2022-02-15-06:08:15,10.1.1.6,25,-0.030,-0.030,-0.030,0.000,0.000,0.000
1644905295648766976,2022-02-15-06:08:15,10.1.1.6,34,-0.040,-0.040,-0.040,0.000,0.000,0.000
1644905295689248000,2022-02-15-06:08:15,10.1.1.6,22,-0.050,-0.050,-0.050,0.000,0.000,0.000
1644905295746531840,2022-02-15-06:08:15,10.1.1.6,30,-0.060,-0.060,-0.060,0.000,0.000,0.000
1644905295809429760,2022-02-15-06:08:15,10.1.1.6,36,-0.070,-0.070,-0.070,0.000,0.000,0.000
1644905295848172032,2022-02-15-06:08:15,10.1.1.6,25,-0.080,-0.080,-0.080,0.000,0.000,0.000
1644905295908640000,2022-02-15-06:08:15,10.1.1.6,31,-0.090,-0.090,-0.090,0.000,0.000,0.000
1644905295967823872,2022-02-15-06:08:15,10.1.1.6,37,-0.100,-0.100,-0.100,0.000,0.000,0.000
1644905296007380992,2022-02-15-06:08:16,10.1.1.6,25,-0.090,-0.090,-0.090,0.000,0.000,0.000
1644905296066639872,2022-02-15-06:08:16,10.1.1.6,31,-0.080,-0.080,-0.080,0.000,0.000,0.000
1644905296107177984,2022-02-15-06:08:16,10.1.1.6,20,-0.070,-0.070,-0.070,0.000,0.000,0.000
1644905296169488896,2022-02-15-06:08:16,10.1.1.6,29,-0.060,-0.060,-0.060,0.000,0.000,0.000
1644905296227790080,2022-02-15-06:08:16,10.1.1.6,38,-0.050,-0.050,-0.050,0.000,0.000,0.000
1644905296267822080,2022-02-15-06:08:16,10.1.1.6,24,-0.040,-0.040,-0.040,0.000,0.000,0.000
1644905296388078080,2022-02-15-06:08:16,10.1.1.6,32,-0.020,-0.020,-0.020,0.000,0.000,0.000
1644905296429230848,2022-02-15-06:08:16,10.1.1.6,21,-0.010,-0.010,-0.010,0.000,0.000,0.000
1644905296489605888,2022-02-15-06:08:16,10.1.1.6,30,0.000,0.000,0.000,0.000,0.000,0.000
1644905296531452928,2022-02-15-06:08:16,10.1.1.6,19,0.009,0.009,0.009,0.000,0.000,0.000
1644905296588634880,2022-02-15-06:08:16,10.1.1.6,28,0.020,0.020,0.020,0.000,0.000,0.000
1644905296648523008,2022-02-15-06:08:16,10.1.1.6,36,0.030,0.030,0.030,0.000,0.000,0.000
1644905296690299904,2022-02-15-06:08:16,10.1.1.6,25,0.040,0.040,0.040,0.000,0.000,0.000
1644905296751287040,2022-02-15-06:08:16,10.1.1.6,33,0.050,0.050,0.050,0.000,0.000,0.000
1644905296788649984,2022-02-15-06:08:16,10.1.1.6,22,0.060,0.060,0.060,0.000,0.000,0.000
1644905296848527872,2022-02-15-06:08:16,10.1.1.6,31,0.070,0.070,0.070,0.000,0.000,0.000
1644905296890208000,2022-02-15-06:08:16,10.1.1.6,19,0.080,0.080,0.080,0.000,0.000,0.000
1644905296954850816,2022-02-15-06:08:16,10.1.1.6,26,0.090,0.090,0.090,0.000,0.000,0.000
1644905297032115968,2022-02-15-06:08:17,10.1.1.6,0,0.090,0.090,0.090,0.000,0.000,0.000
1644905297109131008,2022-02-15-06:08:17,10.1.1.6,29,0.080,0.080,0.080,0.000,0.000,0.000
1644905297167634944,2022-02-15-06:08:17,10.1.1.6,38,0.070,0.070,0.070,0.000,0.000,0.000
1644905297209395968,2022-02-15-06:08:17,10.1.1.6,27,0.060,0.060,0.060,0.000,0.000,0.000
1644905297266941184,2022-02-15-06:08:17,10.1.1.6,35,0.050,0.050,0.050,0.000,0.000,0.000
1644905297312505856,2022-02-15-06:08:17,10.1.1.6,22,0.040,0.040,0.040,0.000,0.000,0.000
1644905297366697984,2022-02-15-06:08:17,10.1.1.6,29,0.030,0.030,0.030,0.000,0.000,0.000
1644905297406414080,2022-02-15-06:08:17,10.1.1.6,19,0.021,0.021,0.021,0.000,0.000,0.000
1644905297466299904,2022-02-15-06:08:17,10.1.1.6,28,0.010,0.010,0.010,0.000,0.000,0.000
1644905297527225856,2022-02-15-06:08:17,10.1.1.6,38,0.000,0.000,0.000,0.000,0.000,0.000
1644905297568156928,2022-02-15-06:08:17,10.1.1.6,26,-0.010,-0.010,-0.010,0.000,0.000,0.000
1644905297628199168,2022-02-15-06:08:17,10.1.1.6,34,-0.020,-0.020,-0.020,0.000,0.000,0.000
1644905297668736000,2022-02-15-06:08:17,10.1.1.6,22,-0.030,-0.030,-0.030,0.000,0.000,0.000
1644905297726966016,2022-02-15-06:08:17,10.1.1.6,29,-0.040,-0.040,-0.040,0.000,0.000,0.000
1644905297787867136,2022-02-15-06:08:17,10.1.1.6,38,-0.050,-0.050,-0.050,0.000,0.000,0.000
1644905297832724992,2022-02-15-06:08:17,10.1.1.6,26,-0.060,-0.060,-0.060,0.000,0.000,0.000
1644905297892080896,2022-02-15-06:08:17,10.1.1.6,36,-0.070,-0.070,-0.070,0.000,0.000,0.000
1644905297946688768,2022-02-15-06:08:17,10.1.1.6,39,-0.080,-0.080,-0.080,0.000,0.000,0.000
1644905297986635008,2022-02-15-06:08:17,10.1.1.6,25,-0.090,-0.090,-0.090,0.000,0.000,0.000
1644905298047003136,2022-02-15-06:08:18,10.1.1.6,34,-0.100,-0.100,-0.100,0.000,0.000,0.000
1644905298097697024,2022-02-15-06:08:18,10.1.1.6,24,-0.090,-0.090,-0.090,0.000,0.000,0.000
1644905298148952064,2022-02-15-06:08:18,10.1.1.6,23,-0.080,-0.080,-0.080,0.000,0.000,0.000
1644905298210978048,2022-02-15-06:08:18,10.1.1.6,32,-0.070,-0.070,-0.070,0.000,0.000,0.000
1644905298248385024,2022-02-15-06:08:18,10.1.1.6,21,-0.060,-0.060,-0.060,0.000,0.000,0.000
1644905298307947008,2022-02-15-06:08:18,10.1.1.6,31,-0.050,-0.050,-0.050,0.000,0.000,0.000
1644905298367537920,2022-02-15-06:08:18,10.1.1.6,38,-0.040,-0.040,-0.040,0.000,0.000,0.000
1644905298408417024,2022-02-15-06:08:18,10.1.1.6,27,-0.030,-0.030,-0.030,0.000,0.000,0.000
1644905298466638080,2022-02-15-06:08:18,10.1.1.6,32,-0.020,-0.020,-0.020,0.000,0.000,0.000
1644905298507052800,2022-02-15-06:08:18,10.1.1.6,19,-0.010,-0.010,-0.010,0.000,0.000,0.000
1644905298568952064,2022-02-15-06:08:18,10.1.1.6,28,0.000,0.000,0.000,0.000,0.000,0.000
1644905298628869888,2022-02-15-06:08:18,10.1.1.6,37,0.010,0.010,0.010,0.000,0.000,0.000
1644905298670112000,2022-02-15-06:08:18,10.1.1.6,25,0.020,0.020,0.020,0.000,0.000,0.000
1644905298728174080,2022-02-15-06:08:18,10.1.1.6,33,0.030,0.030,0.030,0.000,0.000,0.000
1644905298848371968,2022-02-15-06:08:18,10.1.1.6,27,0.050,0.050,0.050,0.000,0.000,0.000
1644905298907435776,2022-02-15-06:08:18,10.1.1.6,34,0.060,0.060,0.060,0.000,0.000,0.000
1644905298948124928,2022-02-15-06:08:18,10.1.1.6,23,0.070,0.070,0.070,0.000,0.000,0.000
1644905299006484992,2022-02-15-06:08:19,10.1.1.6,32,0.080,0.080,0.080,0.000,0.000,0.000
1644905299046531840,2022-02-15-06:08:19,10.1.1.6,21,0.090,0.090,0.090,0.000,0.000,0.000
1644905299112553984,2022-02-15-06:08:19,10.1.1.6,30,0.100,0.100,0.100,0.000,0.000,0.000
1644905299148258816,2022-02-15-06:08:19,10.1.1.6,19,0.090,0.090,0.090,0.000,0.000,0.000
1644905299208648960,2022-02-15-06:08:19,10.1.1.6,28,0.080,0.080,0.080,0.000,0.000,0.000
1644905299268795136,2022-02-15-06:08:19,10.1.1.6,37,0.070,0.070,0.070,0.000,0.000,0.000
1644905299308646912,2022-02-15-06:08:19,10.1.1.6,26,0.060,0.060,0.060,0.000,0.000,0.000
1644905299370902016,2022-02-15-06:08:19,10.1.1.6,36,0.050,0.050,0.050,0.000,0.000,0.000
1644905299413660160,2022-02-15-06:08:19,10.1.1.6,25,0.040,0.040,0.040,0.000,0.000,0.000
1644905299469163008,2022-02-15-06:08:19,10.1.1.6,34,0.030,0.030,0.030,0.000,0.000,0.000
1644905299509443072,2022-02-15-06:08:19,10.1.1.6,23,0.020,0.020,0.020,0.000,0.000,0.000
1644905299570440960,2022-02-15-06:08:19,10.1.1.6,32,0.010,0.010,0.010,0.000,0.000,0.000
1644905299608382976,2022-02-15-06:08:19,10.1.1.6,22,0.000,0.000,0.000,0.000,0.000,0.000
1644905299668961024,2022-02-15-06:08:19,10.1.1.6,29,-0.010,-0.010,-0.010,0.000,0.000,0.000
1644905299726648064,2022-02-15-06:08:19,10.1.1.6,38,-0.020,-0.020,-0.020,0.000,0.000,0.000
1644905299768690176,2022-02-15-06:08:19,10.1.1.6,27,-0.030,-0.030,-0.030,0.000,0.000,0.000
1644905299826853120,2022-02-15-06:08:19,10.1.1.6,34,-0.040,-0.040,-0.040,0.000,0.000,0.000
1644905299868812032,2022-02-15-06:08:19,10.1.1.6,22,-0.050,-0.050,-0.050,0.000,0.000,0.000
1644905299926477824,2022-02-15-06:08:19,10.1.1.6,31,-0.060,-0.060,-0.060,0.000,0.000,0.000
1644905299969344000,2022-02-15-06:08:19,10.1.1.6,20,-0.070,-0.070,-0.070,0.000,0.000,0.000
1644905300028168960,2022-02-15-06:08:20,10.1.1.6,29,-0.080,-0.080,-0.080,0.000,0.000,0.000
1644905300090019072,2022-02-15-06:08:20,10.1.1.6,37,-0.090,-0.090,-0.090,0.000,0.000,0.000
1644905300127290880,2022-02-15-06:08:20,10.1.1.6,25,-0.100,-0.100,-0.100,0.000,0.000,0.000
1644905300207254784,2022-02-15-06:08:20,10.1.1.6,36,-0.090,-0.090,-0.090,0.000,0.000,0.000
1644905300247248896,2022-02-15-06:08:20,10.1.1.6,23,-0.080,-0.080,-0.080,0.000,0.000,0.000
1644905300308310016,2022-02-15-06:08:20,10.1.1.6,32,-0.070,-0.070,-0.070,0.000,0.000,0.000
1644905300348220160,2022-02-15-06:08:20,10.1.1.6,22,-0.060,-0.060,-0.060,0.000,0.000,0.000
1644905300409456896,2022-02-15-06:08:20,10.1.1.6,31,-0.050,-0.050,-0.050,0.000,0.000,0.000
1644905300448832000,2022-02-15-06:08:20,10.1.1.6,20,-0.040,-0.040,-0.040,0.000,0.000,0.000
1644905300508793088,2022-02-15-06:08:20,10.1.1.6,29,-0.030,-0.030,-0.030,0.000,0.000,0.000
1644905300568894976,2022-02-15-06:08:20,10.1.1.6,38,-0.020,-0.020,-0.020,0.000,0.000,0.000
1644905300610585856,2022-02-15-06:08:20,10.1.1.6,27,-0.010,-0.010,-0.010,0.000,0.000,0.000
1644905300669843968,2022-02-15-06:08:20,10.1.1.6,31,0.000,0.000,0.000,0.000,0.000,0.000
1644905300709126912,2022-02-15-06:08:20,10.1.1.6,20,0.010,0.010,0.010,0.000,0.000,0.000
1644905300769475072,2022-02-15-06:08:20,10.1.1.6,29,0.020,0.020,0.020,0.000,0.000,0.000
1644905300827776000,2022-02-15-06:08:20,10.1.1.6,37,0.030,0.030,0.030,0.000,0.000,0.000
1644905300869235968,2022-02-15-06:08:20,10.1.1.6,27,0.040,0.040,0.040,0.000,0.000,0.000
1644905300929037056,2022-02-15-06:08:20,10.1.1.6,31,0.050,0.050,0.050,0.000,0.000,0.000
1644905300966671104,2022-02-15-06:08:20,10.1.1.6,20,0.060,0.060,0.060,0.000,0.000,0.000
1644905301027996928,2022-02-15-06:08:21,10.1.1.6,28,0.070,0.070,0.070,0.000,0.000,0.000
1644905301088568832,2022-02-15-06:08:21,10.1.1.6,37,0.080,0.080,0.080,0.000,0.000,0.000
1644905301128679936,2022-02-15-06:08:21,10.1.1.6,27,0.090,0.090,0.090,0.000,0.000,0.000
1644905301188353024,2022-02-15-06:08:21,10.1.1.6,36,0.100,0.100,0.100,0.000,0.000,0.000
1644905301228152064,2022-02-15-06:08:21,10.1.1.6,25,0.090,0.090,0.090,0.000,0.000,0.000
1644905301290215936,2022-02-15-06:08:21,10.1.1.6,34,0.080,0.080,0.080,0.000,0.000,0.000
1644905301329260032,2022-02-15-06:08:21,10.1.1.6,21,0.070,0.070,0.070,0.000,0.000,0.000
1644905301387240960,2022-02-15-06:08:21,10.1.1.6,30,0.060,0.060,0.060,0.000,0.000,0.000
1644905301429598976,2022-02-15-06:08:21,10.1.1.6,20,0.050,0.050,0.050,0.000,0.000,0.000
1644905301489869056,2022-02-15-06:08:21,10.1.1.6,28,0.040,0.040,0.040,0.000,0.000,0.000
1644905301548451840,2022-02-15-06:08:21,10.1.1.6,37,0.030,0.030,0.030,0.000,0.000,0.000
1644905301588507904,2022-02-15-06:08:21,10.1.1.6,26,0.020,0.020,0.020,0.000,0.000,0.000
1644905301648570112,2022-02-15-06:08:21,10.1.1.6,35,0.010,0.010,0.010,0.000,0.000,0.000
1644905301688983808,2022-02-15-06:08:21,10.1.1.6,25,-0.000,-0.000,-0.000,0.000,0.000,0.000
1644905301749412096,2022-02-15-06:08:21,10.1.1.6,34,-0.010,-0.010,-0.010,0.000,0.000,0.000
1644905301809641984,2022-02-15-06:08:21,10.1.1.6,38,-0.020,-0.020,-0.020,0.000,0.000,0.000
1644905301849798912,2022-02-15-06:08:21,10.1.1.6,25,-0.030,-0.030,-0.030,0.000,0.000,0.000
1644905301907998976,2022-02-15-06:08:21,10.1.1.6,34,-0.040,-0.040,-0.040,0.000,0.000,0.000
1644905301968848896,2022-02-15-06:08:21,10.1.1.6,37,-0.050,-0.050,-0.050,0.000,0.000,0.000
1644905302011008000,2022-02-15-06:08:22,10.1.1.6,26,-0.060,-0.060,-0.060,0.000,0.000,0.000
1644905302068336128,2022-02-15-06:08:22,10.1.1.6,34,-0.070,-0.070,-0.070,0.000,0.000,0.000
1644905302132206080,2022-02-15-06:08:22,10.1.1.6,38,-0.080,-0.080,-0.080,0.000,0.000,0.000
1644905302169712896,2022-02-15-06:08:22,10.1.1.6,26,-0.090,-0.090,-0.090,0.000,0.000,0.000
1644905302229611008,2022-02-15-06:08:22,10.1.1.6,33,-0.100,-0.100,-0.100,0.000,0.000,0.000
1644905302268603136,2022-02-15-06:08:22,10.1.1.6,19,-0.090,-0.090,-0.090,0.000,0.000,0.000
1644905302332201984,2022-02-15-06:08:22,10.1.1.6,25,-0.080,-0.080,-0.080,0.000,0.000,0.000
1644905302389157888,2022-02-15-06:08:22,10.1.1.6,32,-0.070,-0.070,-0.070,0.000,0.000,0.000
1644905302429139968,2022-02-15-06:08:22,10.1.1.6,22,-0.060,-0.060,-0.060,0.000,0.000,0.000
1644905302489079040,2022-02-15-06:08:22,10.1.1.6,31,-0.050,-0.050,-0.050,0.000,0.000,0.000
1644905302528204800,2022-02-15-06:08:22,10.1.1.6,20,-0.040,-0.040,-0.040,0.000,0.000,0.000
1644905302593019904,2022-02-15-06:08:22,10.1.1.6,29,-0.030,-0.030,-0.030,0.000,0.000,0.000
1644905302647994880,2022-02-15-06:08:22,10.1.1.6,37,-0.020,-0.020,-0.020,0.000,0.000,0.000
1644905302688601088,2022-02-15-06:08:22,10.1.1.6,25,-0.010,-0.010,-0.010,0.000,0.000,0.000
1644905302748363008,2022-02-15-06:08:22,10.1.1.6,29,0.000,0.000,0.000,0.000,0.000,0.000
1644905302812077056,2022-02-15-06:08:22,10.1.1.6,37,0.010,0.010,0.010,0.000,0.000,0.000
1644905302848691968,2022-02-15-06:08:22,10.1.1.6,25,0.020,0.020,0.020,0.000,0.000,0.000
1644905302906800128,2022-02-15-06:08:22,10.1.1.6,32,0.030,0.030,0.030,0.000,0.000,0.000
1644905302949938944,2022-02-15-06:08:22,10.1.1.6,21,0.040,0.040,0.040,0.000,0.000,0.000
1644905303007497984,2022-02-15-06:08:23,10.1.1.6,29,0.050,0.050,0.050,0.000,0.000,0.000
1644905303066870016,2022-02-15-06:08:23,10.1.1.6,38,0.060,0.060,0.060,0.000,0.000,0.000
1644905303106683136,2022-02-15-06:08:23,10.1.1.6,26,0.070,0.070,0.070,0.000,0.000,0.000
1644905303169352960,2022-02-15-06:08:23,10.1.1.6,35,0.080,0.080,0.080,0.000,0.000,0.000
1644905303207376896,2022-02-15-06:08:23,10.1.1.6,24,0.090,0.090,0.090,0.000,0.000,0.000
1644905303268620032,2022-02-15-06:08:23,10.1.1.6,31,0.100,0.100,0.100,0.000,0.000,0.000
1644905303327506176,2022-02-15-06:08:23,10.1.1.6,37,0.090,0.090,0.090,0.000,0.000,0.000
1644905303367089920,2022-02-15-06:08:23,10.1.1.6,25,0.080,0.080,0.080,0.000,0.000,0.000
1644905303427963904,2022-02-15-06:08:23,10.1.1.6,31,0.070,0.070,0.070,0.000,0.000,0.000
1644905303468427008,2022-02-15-06:08:23,10.1.1.6,21,0.060,0.060,0.060,0.000,0.000,0.000
1644905303527482880,2022-02-15-06:08:23,10.1.1.6,29,0.050,0.050,0.050,0.000,0.000,0.000
1644905303588033792,2022-02-15-06:08:23,10.1.1.6,36,0.040,0.040,0.040,0.000,0.000,0.000
1644905303628453120,2022-02-15-06:08:23,10.1.1.6,25,0.030,0.030,0.030,0.000,0.000,0.000
1644905303689409024,2022-02-15-06:08:23,10.1.1.6,34,0.020,0.020,0.020,0.000,0.000,0.000
1644905303728899072,2022-02-15-06:08:23,10.1.1.6,22,0.010,0.010,0.010,0.000,0.000,0.000
1644905303798151936,2022-02-15-06:08:23,10.1.1.6,32,0.000,0.000,0.000,0.000,0.000,0.000
1644905303907171840,2022-02-15-06:08:23,10.1.1.6,34,-0.020,-0.020,-0.020,0.000,0.000,0.000
1644905303946610944,2022-02-15-06:08:23,10.1.1.6,23,-0.030,-0.030,-0.030,0.000,0.000,0.000
1644905304027960064,2022-02-15-06:08:24,10.1.1.6,37,-0.040,-0.040,-0.040,0.000,0.000,0.000
1644905304069238784,2022-02-15-06:08:24,10.1.1.6,25,-0.050,-0.050,-0.050,0.000,0.000,0.000
1644905304127563008,2022-02-15-06:08:24,10.1.1.6,31,-0.060,-0.060,-0.060,0.000,0.000,0.000
1644905304187681792,2022-02-15-06:08:24,10.1.1.6,38,-0.070,-0.070,-0.070,0.000,0.000,0.000
1644905304227200000,2022-02-15-06:08:24,10.1.1.6,28,-0.080,-0.080,-0.080,0.000,0.000,0.000
1644905304289110016,2022-02-15-06:08:24,10.1.1.6,21,-0.090,-0.090,-0.090,0.000,0.000,0.000
1644905304347681024,2022-02-15-06:08:24,10.1.1.6,29,-0.100,-0.100,-0.100,0.000,0.000,0.000
1644905304406652928,2022-02-15-06:08:24,10.1.1.6,38,-0.090,-0.090,-0.090,0.000,0.000,0.000
1644905304446845952,2022-02-15-06:08:24,10.1.1.6,28,-0.080,-0.080,-0.080,0.000,0.000,0.000
1644905304508738048,2022-02-15-06:08:24,10.1.1.6,38,-0.070,-0.070,-0.070,0.000,0.000,0.000
1644905304547055104,2022-02-15-06:08:24,10.1.1.6,24,-0.060,-0.060,-0.060,0.000,0.000,0.000
1644905304606676992,2022-02-15-06:08:24,10.1.1.6,34,-0.050,-0.050,-0.050,0.000,0.000,0.000
1644905304649904128,2022-02-15-06:08:24,10.1.1.6,22,-0.040,-0.040,-0.040,0.000,0.000,0.000
1644905304707474944,2022-02-15-06:08:24,10.1.1.6,30,-0.030,-0.030,-0.030,0.000,0.000,0.000
1644905304746500864,2022-02-15-06:08:24,10.1.1.6,19,-0.020,-0.020,-0.020,0.000,0.000,0.000
1644905304806802944,2022-02-15-06:08:24,10.1.1.6,26,-0.010,-0.010,-0.010,0.000,0.000,0.000
1644905304867444992,2022-02-15-06:08:24,10.1.1.6,34,0.000,0.000,0.000,0.000,0.000,0.000
1644905304907212032,2022-02-15-06:08:24,10.1.1.6,23,0.010,0.010,0.010,0.000,0.000,0.000
