FedericoMungari/DigitalTwin_service/01_WiredScenario/Output/Output_script/script_rosapi_2_output_robots6_freq0_4.txt
timestamp,date,node,latency,joint_1,joint_2,joint_3,joint_4,joint_5,joint_6
1644905246731139072,2022-02-15-06:07:26,10.1.1.5,1,-0.100,-0.100,-0.100,0.000,0.000,0.000
1644905246810679040,2022-02-15-06:07:26,10.1.1.5,30,-0.090,-0.090,-0.090,0.000,0.000,0.000
1644905246851111936,2022-02-15-06:07:26,10.1.1.5,19,-0.080,-0.080,-0.080,0.000,0.000,0.000
1644905246910955008,2022-02-15-06:07:26,10.1.1.5,29,-0.070,-0.070,-0.070,0.000,0.000,0.000
1644905246971635968,2022-02-15-06:07:26,10.1.1.5,38,-0.060,-0.060,-0.060,0.000,0.000,0.000
1644905247010881792,2022-02-15-06:07:27,10.1.1.5,26,-0.050,-0.050,-0.050,0.000,0.000,0.000
1644905247071196928,2022-02-15-06:07:27,10.1.1.5,34,-0.040,-0.040,-0.040,0.000,0.000,0.000
1644905247112492032,2022-02-15-06:07:27,10.1.1.5,25,-0.030,-0.030,-0.030,0.000,0.000,0.000
1644905247171604992,2022-02-15-06:07:27,10.1.1.5,32,-0.020,-0.020,-0.020,0.000,0.000,0.000
1644905247211864064,2022-02-15-06:07:27,10.1.1.5,22,-0.010,-0.010,-0.010,0.000,0.000,0.000
1644905247271269120,2022-02-15-06:07:27,10.1.1.5,30,0.000,0.000,0.000,0.000,0.000,0.000
1644905247331578112,2022-02-15-06:07:27,10.1.1.5,38,0.010,0.010,0.010,0.000,0.000,0.000
1644905247371529984,2022-02-15-06:07:27,10.1.1.5,26,0.020,0.020,0.020,0.000,0.000,0.000
1644905247431351040,2022-02-15-06:07:27,10.1.1.5,36,0.030,0.030,0.030,0.000,0.000,0.000
1644905247472129024,2022-02-15-06:07:27,10.1.1.5,25,0.040,0.040,0.040,0.000,0.000,0.000
1644905247531493888,2022-02-15-06:07:27,10.1.1.5,34,0.050,0.050,0.050,0.000,0.000,0.000
1644905247571759104,2022-02-15-06:07:27,10.1.1.5,22,0.060,0.060,0.060,0.000,0.000,0.000
1644905247631581184,2022-02-15-06:07:27,10.1.1.5,32,0.070,0.070,0.070,0.000,0.000,0.000
1644905247672243200,2022-02-15-06:07:27,10.1.1.5,21,0.080,0.080,0.080,0.000,0.000,0.000
1644905247731048192,2022-02-15-06:07:27,10.1.1.5,31,0.090,0.090,0.090,0.000,0.000,0.000
1644905247771284224,2022-02-15-06:07:27,10.1.1.5,20,0.100,0.100,0.100,0.000,0.000,0.000
1644905247831040000,2022-02-15-06:07:27,10.1.1.5,30,0.090,0.090,0.090,0.000,0.000,0.000
1644905247870937088,2022-02-15-06:07:27,10.1.1.5,19,0.080,0.080,0.080,0.000,0.000,0.000
1644905247931560960,2022-02-15-06:07:27,10.1.1.5,29,0.070,0.070,0.070,0.000,0.000,0.000
1644905247991475200,2022-02-15-06:07:27,10.1.1.5,38,0.060,0.060,0.060,0.000,0.000,0.000
1644905248031181056,2022-02-15-06:07:28,10.1.1.5,26,0.050,0.050,0.050,0.000,0.000,0.000
1644905248090990080,2022-02-15-06:07:28,10.1.1.5,36,0.040,0.040,0.040,0.000,0.000,0.000
1644905248131436032,2022-02-15-06:07:28,10.1.1.5,26,0.030,0.030,0.030,0.000,0.000,0.000
1644905248190604800,2022-02-15-06:07:28,10.1.1.5,35,0.020,0.020,0.020,0.000,0.000,0.000
1644905248231358976,2022-02-15-06:07:28,10.1.1.5,24,0.010,0.010,0.010,0.000,0.000,0.000
1644905248291512064,2022-02-15-06:07:28,10.1.1.5,31,0.000,0.000,0.000,0.000,0.000,0.000
1644905248331336960,2022-02-15-06:07:28,10.1.1.5,21,-0.010,-0.010,-0.010,0.000,0.000,0.000
1644905248390552064,2022-02-15-06:07:28,10.1.1.5,30,-0.020,-0.020,-0.020,0.000,0.000,0.000
1644905248431200000,2022-02-15-06:07:28,10.1.1.5,19,-0.030,-0.030,-0.030,0.000,0.000,0.000
1644905248491015936,2022-02-15-06:07:28,10.1.1.5,29,-0.040,-0.040,-0.040,0.000,0.000,0.000
1644905248551117056,2022-02-15-06:07:28,10.1.1.5,38,-0.050,-0.050,-0.050,0.000,0.000,0.000
1644905248591662848,2022-02-15-06:07:28,10.1.1.5,28,-0.060,-0.060,-0.060,0.000,0.000,0.000
1644905248651237120,2022-02-15-06:07:28,10.1.1.5,37,-0.070,-0.070,-0.070,0.000,0.000,0.000
1644905248691088896,2022-02-15-06:07:28,10.1.1.5,27,-0.080,-0.080,-0.080,0.000,0.000,0.000
1644905248751362048,2022-02-15-06:07:28,10.1.1.5,36,-0.090,-0.090,-0.090,0.000,0.000,0.000
1644905248791213056,2022-02-15-06:07:28,10.1.1.5,26,-0.100,-0.100,-0.100,0.000,0.000,0.000
1644905248851585024,2022-02-15-06:07:28,10.1.1.5,35,-0.090,-0.090,-0.090,0.000,0.000,0.000
1644905248891163136,2022-02-15-06:07:28,10.1.1.5,25,-0.080,-0.080,-0.080,0.000,0.000,0.000
1644905248951464960,2022-02-15-06:07:28,10.1.1.5,34,-0.070,-0.070,-0.070,0.000,0.000,0.000
1644905248990676992,2022-02-15-06:07:28,10.1.1.5,24,-0.060,-0.060,-0.060,0.000,0.000,0.000
1644905249050970112,2022-02-15-06:07:29,10.1.1.5,34,-0.050,-0.050,-0.050,0.000,0.000,0.000
1644905249091403008,2022-02-15-06:07:29,10.1.1.5,23,-0.040,-0.040,-0.040,0.000,0.000,0.000
1644905249161305856,2022-02-15-06:07:29,10.1.1.5,30,-0.030,-0.030,-0.030,0.000,0.000,0.000
1644905249215277056,2022-02-15-06:07:29,10.1.1.5,32,-0.020,-0.020,-0.020,0.000,0.000,0.000
1644905249250861824,2022-02-15-06:07:29,10.1.1.5,22,-0.010,-0.010,-0.010,0.000,0.000,0.000
1644905249310930944,2022-02-15-06:07:29,10.1.1.5,31,0.000,0.000,0.000,0.000,0.000,0.000
1644905249351216128,2022-02-15-06:07:29,10.1.1.5,21,0.010,0.010,0.010,0.000,0.000,0.000
1644905249411083008,2022-02-15-06:07:29,10.1.1.5,31,0.020,0.020,0.020,0.000,0.000,0.000
1644905249451155968,2022-02-15-06:07:29,10.1.1.5,19,0.030,0.030,0.030,0.000,0.000,0.000
1644905249510961920,2022-02-15-06:07:29,10.1.1.5,29,0.040,0.040,0.040,0.000,0.000,0.000
1644905249571259904,2022-02-15-06:07:29,10.1.1.5,38,0.050,0.050,0.050,0.000,0.000,0.000
1644905249611080960,2022-02-15-06:07:29,10.1.1.5,26,0.060,0.060,0.060,0.000,0.000,0.000
1644905249671747072,2022-02-15-06:07:29,10.1.1.5,36,0.070,0.070,0.070,0.000,0.000,0.000
1644905249712065024,2022-02-15-06:07:29,10.1.1.5,23,0.080,0.080,0.080,0.000,0.000,0.000
1644905249771460096,2022-02-15-06:07:29,10.1.1.5,32,0.090,0.090,0.090,0.000,0.000,0.000
1644905249811543040,2022-02-15-06:07:29,10.1.1.5,21,0.100,0.100,0.100,0.000,0.000,0.000
1644905249871439872,2022-02-15-06:07:29,10.1.1.5,30,0.090,0.090,0.090,0.000,0.000,0.000
1644905249912018944,2022-02-15-06:07:29,10.1.1.5,21,0.080,0.080,0.080,0.000,0.000,0.000
1644905249971354880,2022-02-15-06:07:29,10.1.1.5,29,0.070,0.070,0.070,0.000,0.000,0.000
1644905250010970112,2022-02-15-06:07:30,10.1.1.5,19,0.060,0.060,0.060,0.000,0.000,0.000
1644905250071102976,2022-02-15-06:07:30,10.1.1.5,29,0.050,0.050,0.050,0.000,0.000,0.000
1644905250131268864,2022-02-15-06:07:30,10.1.1.5,38,0.040,0.040,0.040,0.000,0.000,0.000
1644905250171585024,2022-02-15-06:07:30,10.1.1.5,26,0.030,0.030,0.030,0.000,0.000,0.000
1644905250230715904,2022-02-15-06:07:30,10.1.1.5,34,0.020,0.020,0.020,0.000,0.000,0.000
1644905250270968832,2022-02-15-06:07:30,10.1.1.5,23,0.010,0.010,0.010,0.000,0.000,0.000
1644905250331998208,2022-02-15-06:07:30,10.1.1.5,31,0.000,0.000,0.000,0.000,0.000,0.000
1644905250391619840,2022-02-15-06:07:30,10.1.1.5,38,-0.010,-0.010,-0.010,0.000,0.000,0.000
1644905250431204096,2022-02-15-06:07:30,10.1.1.5,27,-0.020,-0.020,-0.020,0.000,0.000,0.000
1644905250491156224,2022-02-15-06:07:30,10.1.1.5,37,-0.030,-0.030,-0.030,0.000,0.000,0.000
1644905250530568960,2022-02-15-06:07:30,10.1.1.5,25,-0.040,-0.040,-0.040,0.000,0.000,0.000
1644905250591111936,2022-02-15-06:07:30,10.1.1.5,34,-0.050,-0.050,-0.050,0.000,0.000,0.000
1644905250631292160,2022-02-15-06:07:30,10.1.1.5,24,-0.060,-0.060,-0.060,0.000,0.000,0.000
1644905250690802176,2022-02-15-06:07:30,10.1.1.5,33,-0.070,-0.070,-0.070,0.000,0.000,0.000
1644905250731100928,2022-02-15-06:07:30,10.1.1.5,22,-0.080,-0.080,-0.080,0.000,0.000,0.000
1644905250791731968,2022-02-15-06:07:30,10.1.1.5,30,-0.090,-0.090,-0.090,0.000,0.000,0.000
1644905250831057920,2022-02-15-06:07:30,10.1.1.5,20,-0.100,-0.100,-0.100,0.000,0.000,0.000
1644905250890980096,2022-02-15-06:07:30,10.1.1.5,28,-0.090,-0.090,-0.090,0.000,0.000,0.000
1644905250950953984,2022-02-15-06:07:30,10.1.1.5,37,-0.080,-0.080,-0.080,0.000,0.000,0.000
1644905250990708992,2022-02-15-06:07:30,10.1.1.5,27,-0.070,-0.070,-0.070,0.000,0.000,0.000
1644905251054359040,2022-02-15-06:07:31,10.1.1.5,39,-0.060,-0.060,-0.060,0.000,0.000,0.000
1644905251091769856,2022-02-15-06:07:31,10.1.1.5,25,-0.050,-0.050,-0.050,0.000,0.000,0.000
1644905251151574016,2022-02-15-06:07:31,10.1.1.5,34,-0.040,-0.040,-0.040,0.000,0.000,0.000
1644905251190486016,2022-02-15-06:07:31,10.1.1.5,22,-0.030,-0.030,-0.030,0.000,0.000,0.000
1644905251250637056,2022-02-15-06:07:31,10.1.1.5,31,-0.020,-0.020,-0.020,0.000,0.000,0.000
1644905251291856128,2022-02-15-06:07:31,10.1.1.5,21,-0.010,-0.010,-0.010,0.000,0.000,0.000
1644905251350728960,2022-02-15-06:07:31,10.1.1.5,30,0.000,0.000,0.000,0.000,0.000,0.000
1644905251391144960,2022-02-15-06:07:31,10.1.1.5,19,0.009,0.009,0.009,0.000,0.000,0.000
1644905251451212032,2022-02-15-06:07:31,10.1.1.5,27,0.020,0.020,0.020,0.000,0.000,0.000
1644905251511346176,2022-02-15-06:07:31,10.1.1.5,36,0.030,0.030,0.030,0.000,0.000,0.000
1644905251551357952,2022-02-15-06:07:31,10.1.1.5,25,0.040,0.040,0.040,0.000,0.000,0.000
1644905251616160000,2022-02-15-06:07:31,10.1.1.5,38,0.050,0.050,0.050,0.000,0.000,0.000
1644905251650968064,2022-02-15-06:07:31,10.1.1.5,24,0.060,0.060,0.060,0.000,0.000,0.000
1644905251712011008,2022-02-15-06:07:31,10.1.1.5,33,0.070,0.070,0.070,0.000,0.000,0.000
1644905251751037952,2022-02-15-06:07:31,10.1.1.5,22,0.080,0.080,0.080,0.000,0.000,0.000
1644905251810740992,2022-02-15-06:07:31,10.1.1.5,30,0.090,0.090,0.090,0.000,0.000,0.000
1644905251850800128,2022-02-15-06:07:31,10.1.1.5,19,0.100,0.100,0.100,0.000,0.000,0.000
1644905251911397888,2022-02-15-06:07:31,10.1.1.5,26,0.090,0.090,0.090,0.000,0.000,0.000
1644905251971302912,2022-02-15-06:07:31,10.1.1.5,35,0.080,0.080,0.080,0.000,0.000,0.000
1644905252010849024,2022-02-15-06:07:32,10.1.1.5,23,0.070,0.070,0.070,0.000,0.000,0.000
1644905252071048960,2022-02-15-06:07:32,10.1.1.5,32,0.060,0.060,0.060,0.000,0.000,0.000
1644905252111329024,2022-02-15-06:07:32,10.1.1.5,21,0.050,0.050,0.050,0.000,0.000,0.000
1644905252171341824,2022-02-15-06:07:32,10.1.1.5,30,0.040,0.040,0.040,0.000,0.000,0.000
1644905252211052800,2022-02-15-06:07:32,10.1.1.5,19,0.031,0.031,0.031,0.000,0.000,0.000
1644905252271532032,2022-02-15-06:07:32,10.1.1.5,28,0.020,0.020,0.020,0.000,0.000,0.000
1644905252332145920,2022-02-15-06:07:32,10.1.1.5,34,0.010,0.010,0.010,0.000,0.000,0.000
1644905252370968064,2022-02-15-06:07:32,10.1.1.5,22,0.000,0.000,0.000,0.000,0.000,0.000
1644905252431191808,2022-02-15-06:07:32,10.1.1.5,31,-0.010,-0.010,-0.010,0.000,0.000,0.000
1644905252470910976,2022-02-15-06:07:32,10.1.1.5,20,-0.020,-0.020,-0.020,0.000,0.000,0.000
1644905252530745088,2022-02-15-06:07:32,10.1.1.5,29,-0.030,-0.030,-0.030,0.000,0.000,0.000
1644905252591352064,2022-02-15-06:07:32,10.1.1.5,38,-0.040,-0.040,-0.040,0.000,0.000,0.000
1644905252631043072,2022-02-15-06:07:32,10.1.1.5,27,-0.050,-0.050,-0.050,0.000,0.000,0.000
1644905252690939904,2022-02-15-06:07:32,10.1.1.5,35,-0.060,-0.060,-0.060,0.000,0.000,0.000
1644905252730979072,2022-02-15-06:07:32,10.1.1.5,24,-0.070,-0.070,-0.070,0.000,0.000,0.000
1644905252791689984,2022-02-15-06:07:32,10.1.1.5,33,-0.080,-0.080,-0.080,0.000,0.000,0.000
1644905252833260032,2022-02-15-06:07:32,10.1.1.5,21,-0.090,-0.090,-0.090,0.000,0.000,0.000
1644905252891417856,2022-02-15-06:07:32,10.1.1.5,30,-0.100,-0.100,-0.100,0.000,0.000,0.000
1644905252951183104,2022-02-15-06:07:32,10.1.1.5,30,-0.090,-0.090,-0.090,0.000,0.000,0.000
1644905252991017984,2022-02-15-06:07:32,10.1.1.5,19,-0.081,-0.081,-0.081,0.000,0.000,0.000
1644905253050721024,2022-02-15-06:07:33,10.1.1.5,26,-0.070,-0.070,-0.070,0.000,0.000,0.000
1644905253111048960,2022-02-15-06:07:33,10.1.1.5,35,-0.060,-0.060,-0.060,0.000,0.000,0.000
1644905253151328000,2022-02-15-06:07:33,10.1.1.5,22,-0.050,-0.050,-0.050,0.000,0.000,0.000
1644905253211463936,2022-02-15-06:07:33,10.1.1.5,32,-0.040,-0.040,-0.040,0.000,0.000,0.000
1644905253251000832,2022-02-15-06:07:33,10.1.1.5,21,-0.030,-0.030,-0.030,0.000,0.000,0.000
1644905253311330048,2022-02-15-06:07:33,10.1.1.5,30,-0.020,-0.020,-0.020,0.000,0.000,0.000
1644905253350960896,2022-02-15-06:07:33,10.1.1.5,19,-0.011,-0.011,-0.011,0.000,0.000,0.000
1644905253410921984,2022-02-15-06:07:33,10.1.1.5,25,0.000,0.000,0.000,0.000,0.000,0.000
1644905253471024896,2022-02-15-06:07:33,10.1.1.5,34,0.010,0.010,0.010,0.000,0.000,0.000
1644905253510888192,2022-02-15-06:07:33,10.1.1.5,23,0.020,0.020,0.020,0.000,0.000,0.000
1644905253571806976,2022-02-15-06:07:33,10.1.1.5,31,0.030,0.030,0.030,0.000,0.000,0.000
1644905253611342848,2022-02-15-06:07:33,10.1.1.5,21,0.040,0.040,0.040,0.000,0.000,0.000
1644905253671124992,2022-02-15-06:07:33,10.1.1.5,29,0.050,0.050,0.050,0.000,0.000,0.000
1644905253731607040,2022-02-15-06:07:33,10.1.1.5,38,0.060,0.060,0.060,0.000,0.000,0.000
1644905253771159040,2022-02-15-06:07:33,10.1.1.5,27,0.070,0.070,0.070,0.000,0.000,0.000
1644905253831325952,2022-02-15-06:07:33,10.1.1.5,37,0.080,0.080,0.080,0.000,0.000,0.000
1644905253871661824,2022-02-15-06:07:33,10.1.1.5,26,0.090,0.090,0.090,0.000,0.000,0.000
1644905253931420160,2022-02-15-06:07:33,10.1.1.5,33,0.100,0.100,0.100,0.000,0.000,0.000
1644905253971321088,2022-02-15-06:07:33,10.1.1.5,22,0.090,0.090,0.090,0.000,0.000,0.000
1644905254031100160,2022-02-15-06:07:34,10.1.1.5,30,0.080,0.080,0.080,0.000,0.000,0.000
1644905254090904832,2022-02-15-06:07:34,10.1.1.5,39,0.070,0.070,0.070,0.000,0.000,0.000
1644905254131244032,2022-02-15-06:07:34,10.1.1.5,27,0.060,0.060,0.060,0.000,0.000,0.000
1644905254191080192,2022-02-15-06:07:34,10.1.1.5,36,0.050,0.050,0.050,0.000,0.000,0.000
1644905254231395072,2022-02-15-06:07:34,10.1.1.5,24,0.040,0.040,0.040,0.000,0.000,0.000
1644905254291064064,2022-02-15-06:07:34,10.1.1.5,31,0.030,0.030,0.030,0.000,0.000,0.000
1644905254351030016,2022-02-15-06:07:34,10.1.1.5,35,0.020,0.020,0.020,0.000,0.000,0.000
1644905254391036160,2022-02-15-06:07:34,10.1.1.5,24,0.010,0.010,0.010,0.000,0.000,0.000
1644905254451250176,2022-02-15-06:07:34,10.1.1.5,32,0.000,0.000,0.000,0.000,0.000,0.000
1644905254491461888,2022-02-15-06:07:34,10.1.1.5,22,-0.010,-0.010,-0.010,0.000,0.000,0.000
1644905254550910976,2022-02-15-06:07:34,10.1.1.5,28,-0.020,-0.020,-0.020,0.000,0.000,0.000
1644905254611213056,2022-02-15-06:07:34,10.1.1.5,37,-0.030,-0.030,-0.030,0.000,0.000,0.000
1644905254650957056,2022-02-15-06:07:34,10.1.1.5,25,-0.040,-0.040,-0.040,0.000,0.000,0.000
1644905254712805120,2022-02-15-06:07:34,10.1.1.5,34,-0.050,-0.050,-0.050,0.000,0.000,0.000
1644905254751094016,2022-02-15-06:07:34,10.1.1.5,22,-0.060,-0.060,-0.060,0.000,0.000,0.000
1644905254811158016,2022-02-15-06:07:34,10.1.1.5,31,-0.070,-0.070,-0.070,0.000,0.000,0.000
1644905254850923008,2022-02-15-06:07:34,10.1.1.5,20,-0.080,-0.080,-0.080,0.000,0.000,0.000
1644905254910860032,2022-02-15-06:07:34,10.1.1.5,29,-0.090,-0.090,-0.090,0.000,0.000,0.000
1644905254971138048,2022-02-15-06:07:34,10.1.1.5,36,-0.100,-0.100,-0.100,0.000,0.000,0.000
1644905255012065024,2022-02-15-06:07:35,10.1.1.5,25,-0.090,-0.090,-0.090,0.000,0.000,0.000
1644905255071158784,2022-02-15-06:07:35,10.1.1.5,34,-0.080,-0.080,-0.080,0.000,0.000,0.000
1644905255111066112,2022-02-15-06:07:35,10.1.1.5,22,-0.070,-0.070,-0.070,0.000,0.000,0.000
1644905255171247872,2022-02-15-06:07:35,10.1.1.5,31,-0.060,-0.060,-0.060,0.000,0.000,0.000
1644905255211015936,2022-02-15-06:07:35,10.1.1.5,20,-0.050,-0.050,-0.050,0.000,0.000,0.000
1644905255270923008,2022-02-15-06:07:35,10.1.1.5,28,-0.040,-0.040,-0.040,0.000,0.000,0.000
1644905255331584000,2022-02-15-06:07:35,10.1.1.5,37,-0.030,-0.030,-0.030,0.000,0.000,0.000
1644905255371059968,2022-02-15-06:07:35,10.1.1.5,26,-0.020,-0.020,-0.020,0.000,0.000,0.000
1644905255430605056,2022-02-15-06:07:35,10.1.1.5,33,-0.010,-0.010,-0.010,0.000,0.000,0.000
1644905255471024128,2022-02-15-06:07:35,10.1.1.5,22,0.000,0.000,0.000,0.000,0.000,0.000
1644905255531058944,2022-02-15-06:07:35,10.1.1.5,31,0.010,0.010,0.010,0.000,0.000,0.000
1644905255570810112,2022-02-15-06:07:35,10.1.1.5,20,0.020,0.020,0.020,0.000,0.000,0.000
1644905255631588864,2022-02-15-06:07:35,10.1.1.5,30,0.030,0.030,0.030,0.000,0.000,0.000
1644905255671142144,2022-02-15-06:07:35,10.1.1.5,19,0.039,0.039,0.039,0.000,0.000,0.000
1644905255731395072,2022-02-15-06:07:35,10.1.1.5,27,0.050,0.050,0.050,0.000,0.000,0.000
1644905255791328000,2022-02-15-06:07:35,10.1.1.5,37,0.060,0.060,0.060,0.000,0.000,0.000
1644905255831428096,2022-02-15-06:07:35,10.1.1.5,23,0.070,0.070,0.070,0.000,0.000,0.000
1644905255891395072,2022-02-15-06:07:35,10.1.1.5,31,0.080,0.080,0.080,0.000,0.000,0.000
1644905255930962176,2022-02-15-06:07:35,10.1.1.5,21,0.090,0.090,0.090,0.000,0.000,0.000
1644905255991336960,2022-02-15-06:07:35,10.1.1.5,30,0.100,0.100,0.100,0.000,0.000,0.000
1644905256050697984,2022-02-15-06:07:36,10.1.1.5,38,0.090,0.090,0.090,0.000,0.000,0.000
1644905256091041024,2022-02-15-06:07:36,10.1.1.5,27,0.080,0.080,0.080,0.000,0.000,0.000
1644905256150720000,2022-02-15-06:07:36,10.1.1.5,37,0.070,0.070,0.070,0.000,0.000,0.000
1644905256191081984,2022-02-15-06:07:36,10.1.1.5,26,0.060,0.060,0.060,0.000,0.000,0.000
1644905256251576064,2022-02-15-06:07:36,10.1.1.5,34,0.050,0.050,0.050,0.000,0.000,0.000
1644905256291065856,2022-02-15-06:07:36,10.1.1.5,22,0.040,0.040,0.040,0.000,0.000,0.000
1644905256351075840,2022-02-15-06:07:36,10.1.1.5,31,0.030,0.030,0.030,0.000,0.000,0.000
1644905256412151040,2022-02-15-06:07:36,10.1.1.5,37,0.020,0.020,0.020,0.000,0.000,0.000
1644905256451227904,2022-02-15-06:07:36,10.1.1.5,25,0.010,0.010,0.010,0.000,0.000,0.000
1644905256511894016,2022-02-15-06:07:36,10.1.1.5,35,0.000,0.000,0.000,0.000,0.000,0.000
1644905256553181952,2022-02-15-06:07:36,10.1.1.5,23,-0.010,-0.010,-0.010,0.000,0.000,0.000
1644905256612103936,2022-02-15-06:07:36,10.1.1.5,31,-0.020,-0.020,-0.020,0.000,0.000,0.000
1644905256651576064,2022-02-15-06:07:36,10.1.1.5,19,-0.030,-0.030,-0.030,0.000,0.000,0.000
1644905256712238080,2022-02-15-06:07:36,10.1.1.5,29,-0.040,-0.040,-0.040,0.000,0.000,0.000
1644905256771513856,2022-02-15-06:07:36,10.1.1.5,38,-0.050,-0.050,-0.050,0.000,0.000,0.000
1644905256811330048,2022-02-15-06:07:36,10.1.1.5,27,-0.060,-0.060,-0.060,0.000,0.000,0.000
1644905256871098880,2022-02-15-06:07:36,10.1.1.5,36,-0.070,-0.070,-0.070,0.000,0.000,0.000
1644905256911778048,2022-02-15-06:07:36,10.1.1.5,25,-0.080,-0.080,-0.080,0.000,0.000,0.000
1644905256971521024,2022-02-15-06:07:36,10.1.1.5,35,-0.090,-0.090,-0.090,0.000,0.000,0.000
1644905257011348992,2022-02-15-06:07:37,10.1.1.5,23,-0.100,-0.100,-0.100,0.000,0.000,0.000
1644905257070621952,2022-02-15-06:07:37,10.1.1.5,32,-0.090,-0.090,-0.090,0.000,0.000,0.000
1644905257111418880,2022-02-15-06:07:37,10.1.1.5,22,-0.080,-0.080,-0.080,0.000,0.000,0.000
1644905257171314944,2022-02-15-06:07:37,10.1.1.5,30,-0.070,-0.070,-0.070,0.000,0.000,0.000
1644905257211590912,2022-02-15-06:07:37,10.1.1.5,18,-0.061,-0.061,-0.061,0.000,0.000,0.000
1644905257270936064,2022-02-15-06:07:37,10.1.1.5,28,-0.050,-0.050,-0.050,0.000,0.000,0.000
1644905257330918144,2022-02-15-06:07:37,10.1.1.5,37,-0.040,-0.040,-0.040,0.000,0.000,0.000
1644905257371422976,2022-02-15-06:07:37,10.1.1.5,26,-0.030,-0.030,-0.030,0.000,0.000,0.000
1644905257431688192,2022-02-15-06:07:37,10.1.1.5,34,-0.020,-0.020,-0.020,0.000,0.000,0.000
1644905257471333120,2022-02-15-06:07:37,10.1.1.5,21,-0.010,-0.010,-0.010,0.000,0.000,0.000
1644905257532150016,2022-02-15-06:07:37,10.1.1.5,30,0.000,0.000,0.000,0.000,0.000,0.000
1644905257571238912,2022-02-15-06:07:37,10.1.1.5,20,0.010,0.010,0.010,0.000,0.000,0.000
1644905257631456000,2022-02-15-06:07:37,10.1.1.5,28,0.020,0.020,0.020,0.000,0.000,0.000
1644905257690872064,2022-02-15-06:07:37,10.1.1.5,37,0.030,0.030,0.030,0.000,0.000,0.000
1644905257731239168,2022-02-15-06:07:37,10.1.1.5,27,0.040,0.040,0.040,0.000,0.000,0.000
1644905257790950144,2022-02-15-06:07:37,10.1.1.5,36,0.050,0.050,0.050,0.000,0.000,0.000
1644905257831453952,2022-02-15-06:07:37,10.1.1.5,25,0.060,0.060,0.060,0.000,0.000,0.000
1644905257891288064,2022-02-15-06:07:37,10.1.1.5,34,0.070,0.070,0.070,0.000,0.000,0.000
1644905257931305984,2022-02-15-06:07:37,10.1.1.5,22,0.080,0.080,0.080,0.000,0.000,0.000
1644905257991767808,2022-02-15-06:07:37,10.1.1.5,28,0.090,0.090,0.090,0.000,0.000,0.000
1644905258051048960,2022-02-15-06:07:38,10.1.1.5,33,0.100,0.100,0.100,0.000,0.000,0.000
1644905258090956800,2022-02-15-06:07:38,10.1.1.5,22,0.090,0.090,0.090,0.000,0.000,0.000
1644905258151174912,2022-02-15-06:07:38,10.1.1.5,31,0.080,0.080,0.080,0.000,0.000,0.000
1644905258190983168,2022-02-15-06:07:38,10.1.1.5,20,0.070,0.070,0.070,0.000,0.000,0.000
1644905258251066880,2022-02-15-06:07:38,10.1.1.5,30,0.060,0.060,0.060,0.000,0.000,0.000
1644905258311096832,2022-02-15-06:07:38,10.1.1.5,38,0.050,0.050,0.050,0.000,0.000,0.000
1644905258351188992,2022-02-15-06:07:38,10.1.1.5,24,0.040,0.040,0.040,0.000,0.000,0.000
1644905258411215104,2022-02-15-06:07:38,10.1.1.5,32,0.030,0.030,0.030,0.000,0.000,0.000
1644905258450420992,2022-02-15-06:07:38,10.1.1.5,21,0.020,0.020,0.020,0.000,0.000,0.000
1644905258510596864,2022-02-15-06:07:38,10.1.1.5,29,0.010,0.010,0.010,0.000,0.000,0.000
1644905258551072000,2022-02-15-06:07:38,10.1.1.5,19,0.001,0.001,0.001,0.000,0.000,0.000
1644905258611067904,2022-02-15-06:07:38,10.1.1.5,28,-0.010,-0.010,-0.010,0.000,0.000,0.000
1644905258670838016,2022-02-15-06:07:38,10.1.1.5,37,-0.020,-0.020,-0.020,0.000,0.000,0.000
1644905258711126016,2022-02-15-06:07:38,10.1.1.5,27,-0.030,-0.030,-0.030,0.000,0.000,0.000
1644905258771014912,2022-02-15-06:07:38,10.1.1.5,36,-0.040,-0.040,-0.040,0.000,0.000,0.000
1644905258811155200,2022-02-15-06:07:38,10.1.1.5,26,-0.050,-0.050,-0.050,0.000,0.000,0.000
1644905258870880000,2022-02-15-06:07:38,10.1.1.5,35,-0.060,-0.060,-0.060,0.000,0.000,0.000
1644905258911104000,2022-02-15-06:07:38,10.1.1.5,25,-0.070,-0.070,-0.070,0.000,0.000,0.000
1644905258971097088,2022-02-15-06:07:38,10.1.1.5,34,-0.080,-0.080,-0.080,0.000,0.000,0.000
1644905259011118848,2022-02-15-06:07:39,10.1.1.5,24,-0.090,-0.090,-0.090,0.000,0.000,0.000
1644905259071319040,2022-02-15-06:07:39,10.1.1.5,33,-0.100,-0.100,-0.100,0.000,0.000,0.000
1644905259111012096,2022-02-15-06:07:39,10.1.1.5,22,-0.090,-0.090,-0.090,0.000,0.000,0.000
1644905259170682880,2022-02-15-06:07:39,10.1.1.5,31,-0.080,-0.080,-0.080,0.000,0.000,0.000
1644905259211252992,2022-02-15-06:07:39,10.1.1.5,20,-0.070,-0.070,-0.070,0.000,0.000,0.000
1644905259271164928,2022-02-15-06:07:39,10.1.1.5,30,-0.060,-0.060,-0.060,0.000,0.000,0.000
1644905259331429120,2022-02-15-06:07:39,10.1.1.5,39,-0.050,-0.050,-0.050,0.000,0.000,0.000
1644905259371382016,2022-02-15-06:07:39,10.1.1.5,28,-0.040,-0.040,-0.040,0.000,0.000,0.000
1644905259432045824,2022-02-15-06:07:39,10.1.1.5,37,-0.030,-0.030,-0.030,0.000,0.000,0.000
1644905259471332096,2022-02-15-06:07:39,10.1.1.5,26,-0.020,-0.020,-0.020,0.000,0.000,0.000
1644905259530953984,2022-02-15-06:07:39,10.1.1.5,35,-0.010,-0.010,-0.010,0.000,0.000,0.000
1644905259571033856,2022-02-15-06:07:39,10.1.1.5,24,0.000,0.000,0.000,0.000,0.000,0.000
1644905259631248896,2022-02-15-06:07:39,10.1.1.5,34,0.010,0.010,0.010,0.000,0.000,0.000
1644905259670937088,2022-02-15-06:07:39,10.1.1.5,23,0.020,0.020,0.020,0.000,0.000,0.000
1644905259731147008,2022-02-15-06:07:39,10.1.1.5,32,0.030,0.030,0.030,0.000,0.000,0.000
1644905259771152896,2022-02-15-06:07:39,10.1.1.5,22,0.040,0.040,0.040,0.000,0.000,0.000
1644905259830925824,2022-02-15-06:07:39,10.1.1.5,31,0.050,0.050,0.050,0.000,0.000,0.000
1644905259871226112,2022-02-15-06:07:39,10.1.1.5,20,0.060,0.060,0.060,0.000,0.000,0.000
1644905259930840064,2022-02-15-06:07:39,10.1.1.5,30,0.070,0.070,0.070,0.000,0.000,0.000
1644905259970767104,2022-02-15-06:07:39,10.1.1.5,19,0.080,0.080,0.080,0.000,0.000,0.000
1644905260032043008,2022-02-15-06:07:40,10.1.1.5,29,0.090,0.090,0.090,0.000,0.000,0.000
1644905260093291008,2022-02-15-06:07:40,10.1.1.5,37,0.100,0.100,0.100,0.000,0.000,0.000
1644905260130775808,2022-02-15-06:07:40,10.1.1.5,26,0.090,0.090,0.090,0.000,0.000,0.000
1644905260191660032,2022-02-15-06:07:40,10.1.1.5,36,0.080,0.080,0.080,0.000,0.000,0.000
1644905260230590976,2022-02-15-06:07:40,10.1.1.5,25,0.070,0.070,0.070,0.000,0.000,0.000
1644905260291131904,2022-02-15-06:07:40,10.1.1.5,34,0.060,0.060,0.060,0.000,0.000,0.000
1644905260330734848,2022-02-15-06:07:40,10.1.1.5,23,0.050,0.050,0.050,0.000,0.000,0.000
1644905260391531008,2022-02-15-06:07:40,10.1.1.5,33,0.040,0.040,0.040,0.000,0.000,0.000
1644905260431785216,2022-02-15-06:07:40,10.1.1.5,22,0.030,0.030,0.030,0.000,0.000,0.000
1644905260490905088,2022-02-15-06:07:40,10.1.1.5,31,0.020,0.020,0.020,0.000,0.000,0.000
1644905260532306944,2022-02-15-06:07:40,10.1.1.5,20,0.010,0.010,0.010,0.000,0.000,0.000
1644905260591990016,2022-02-15-06:07:40,10.1.1.5,29,0.000,0.000,0.000,0.000,0.000,0.000
1644905260651299072,2022-02-15-06:07:40,10.1.1.5,38,-0.010,-0.010,-0.010,0.000,0.000,0.000
1644905260690736896,2022-02-15-06:07:40,10.1.1.5,26,-0.020,-0.020,-0.020,0.000,0.000,0.000
1644905260751190784,2022-02-15-06:07:40,10.1.1.5,36,-0.030,-0.030,-0.030,0.000,0.000,0.000
1644905260790769152,2022-02-15-06:07:40,10.1.1.5,25,-0.040,-0.040,-0.040,0.000,0.000,0.000
1644905260851212032,2022-02-15-06:07:40,10.1.1.5,34,-0.050,-0.050,-0.050,0.000,0.000,0.000
1644905260891279104,2022-02-15-06:07:40,10.1.1.5,22,-0.060,-0.060,-0.060,0.000,0.000,0.000
1644905260950848000,2022-02-15-06:07:40,10.1.1.5,32,-0.070,-0.070,-0.070,0.000,0.000,0.000
1644905260991580928,2022-02-15-06:07:40,10.1.1.5,22,-0.080,-0.080,-0.080,0.000,0.000,0.000
1644905261050995200,2022-02-15-06:07:41,10.1.1.5,30,-0.090,-0.090,-0.090,0.000,0.000,0.000
1644905261090547200,2022-02-15-06:07:41,10.1.1.5,19,-0.100,-0.100,-0.100,0.000,0.000,0.000
1644905261150902016,2022-02-15-06:07:41,10.1.1.5,28,-0.090,-0.090,-0.090,0.000,0.000,0.000
1644905261211281920,2022-02-15-06:07:41,10.1.1.5,37,-0.080,-0.080,-0.080,0.000,0.000,0.000
1644905261251107072,2022-02-15-06:07:41,10.1.1.5,25,-0.070,-0.070,-0.070,0.000,0.000,0.000
1644905261412478976,2022-02-15-06:07:41,10.1.1.5,31,-0.040,-0.040,-0.040,0.000,0.000,0.000
1644905261451627008,2022-02-15-06:07:41,10.1.1.5,20,-0.030,-0.030,-0.030,0.000,0.000,0.000
1644905261511609088,2022-02-15-06:07:41,10.1.1.5,30,-0.020,-0.020,-0.020,0.000,0.000,0.000
1644905261551181056,2022-02-15-06:07:41,10.1.1.5,19,-0.010,-0.010,-0.010,0.000,0.000,0.000
1644905261611460096,2022-02-15-06:07:41,10.1.1.5,28,0.000,0.000,0.000,0.000,0.000,0.000
1644905261671289856,2022-02-15-06:07:41,10.1.1.5,37,0.010,0.010,0.010,0.000,0.000,0.000
1644905261710974976,2022-02-15-06:07:41,10.1.1.5,26,0.020,0.020,0.020,0.000,0.000,0.000
1644905261811397120,2022-02-15-06:07:41,10.1.1.5,25,0.040,0.040,0.040,0.000,0.000,0.000
1644905261872023040,2022-02-15-06:07:41,10.1.1.5,34,0.050,0.050,0.050,0.000,0.000,0.000
1644905261911016960,2022-02-15-06:07:41,10.1.1.5,24,0.060,0.060,0.060,0.000,0.000,0.000
1644905261971286016,2022-02-15-06:07:41,10.1.1.5,33,0.070,0.070,0.070,0.000,0.000,0.000
1644905262010608896,2022-02-15-06:07:42,10.1.1.5,22,0.080,0.080,0.080,0.000,0.000,0.000
1644905262071862016,2022-02-15-06:07:42,10.1.1.5,32,0.090,0.090,0.090,0.000,0.000,0.000
1644905262110896128,2022-02-15-06:07:42,10.1.1.5,21,0.100,0.100,0.100,0.000,0.000,0.000
1644905262171041024,2022-02-15-06:07:42,10.1.1.5,30,0.090,0.090,0.090,0.000,0.000,0.000
1644905262210691840,2022-02-15-06:07:42,10.1.1.5,20,0.080,0.080,0.080,0.000,0.000,0.000
1644905262270812928,2022-02-15-06:07:42,10.1.1.5,29,0.070,0.070,0.070,0.000,0.000,0.000
1644905262330856960,2022-02-15-06:07:42,10.1.1.5,38,0.060,0.060,0.060,0.000,0.000,0.000
1644905262371771136,2022-02-15-06:07:42,10.1.1.5,28,0.050,0.050,0.050,0.000,0.000,0.000
1644905262431324928,2022-02-15-06:07:42,10.1.1.5,37,0.040,0.040,0.040,0.000,0.000,0.000
1644905262471115008,2022-02-15-06:07:42,10.1.1.5,27,0.030,0.030,0.030,0.000,0.000,0.000
1644905262531214080,2022-02-15-06:07:42,10.1.1.5,36,0.020,0.020,0.020,0.000,0.000,0.000
1644905262570915072,2022-02-15-06:07:42,10.1.1.5,26,0.010,0.010,0.010,0.000,0.000,0.000
1644905262631561984,2022-02-15-06:07:42,10.1.1.5,35,0.000,0.000,0.000,0.000,0.000,0.000
1644905262670778880,2022-02-15-06:07:42,10.1.1.5,24,-0.010,-0.010,-0.010,0.000,0.000,0.000
1644905262731581952,2022-02-15-06:07:42,10.1.1.5,33,-0.020,-0.020,-0.020,0.000,0.000,0.000
1644905262770930944,2022-02-15-06:07:42,10.1.1.5,23,-0.030,-0.030,-0.030,0.000,0.000,0.000
1644905262830891008,2022-02-15-06:07:42,10.1.1.5,31,-0.040,-0.040,-0.040,0.000,0.000,0.000
1644905262871763968,2022-02-15-06:07:42,10.1.1.5,21,-0.050,-0.050,-0.050,0.000,0.000,0.000
1644905262931485952,2022-02-15-06:07:42,10.1.1.5,30,-0.060,-0.060,-0.060,0.000,0.000,0.000
1644905262971164928,2022-02-15-06:07:42,10.1.1.5,20,-0.070,-0.070,-0.070,0.000,0.000,0.000
1644905263030936832,2022-02-15-06:07:43,10.1.1.5,29,-0.080,-0.080,-0.080,0.000,0.000,0.000
1644905263090704896,2022-02-15-06:07:43,10.1.1.5,38,-0.090,-0.090,-0.090,0.000,0.000,0.000
1644905263130820096,2022-02-15-06:07:43,10.1.1.5,27,-0.100,-0.100,-0.100,0.000,0.000,0.000
1644905263190921984,2022-02-15-06:07:43,10.1.1.5,37,-0.090,-0.090,-0.090,0.000,0.000,0.000
1644905263231333888,2022-02-15-06:07:43,10.1.1.5,27,-0.080,-0.080,-0.080,0.000,0.000,0.000
1644905263291047168,2022-02-15-06:07:43,10.1.1.5,35,-0.070,-0.070,-0.070,0.000,0.000,0.000
1644905263331409920,2022-02-15-06:07:43,10.1.1.5,23,-0.060,-0.060,-0.060,0.000,0.000,0.000
1644905263391808000,2022-02-15-06:07:43,10.1.1.5,31,-0.050,-0.050,-0.050,0.000,0.000,0.000
1644905263431348992,2022-02-15-06:07:43,10.1.1.5,20,-0.040,-0.040,-0.040,0.000,0.000,0.000
1644905263491274240,2022-02-15-06:07:43,10.1.1.5,26,-0.030,-0.030,-0.030,0.000,0.000,0.000
1644905263550978048,2022-02-15-06:07:43,10.1.1.5,34,-0.020,-0.020,-0.020,0.000,0.000,0.000
1644905263592313088,2022-02-15-06:07:43,10.1.1.5,22,-0.010,-0.010,-0.010,0.000,0.000,0.000
1644905263651770112,2022-02-15-06:07:43,10.1.1.5,32,0.000,0.000,0.000,0.000,0.000,0.000
1644905263691513088,2022-02-15-06:07:43,10.1.1.5,21,0.010,0.010,0.010,0.000,0.000,0.000
1644905263751132928,2022-02-15-06:07:43,10.1.1.5,30,0.020,0.020,0.020,0.000,0.000,0.000
1644905263911020032,2022-02-15-06:07:43,10.1.1.5,21,0.050,0.050,0.050,0.000,0.000,0.000
1644905263970829056,2022-02-15-06:07:43,10.1.1.5,30,0.060,0.060,0.060,0.000,0.000,0.000
1644905264010886912,2022-02-15-06:07:44,10.1.1.5,19,0.069,0.069,0.069,0.000,0.000,0.000
1644905264071276800,2022-02-15-06:07:44,10.1.1.5,26,0.080,0.080,0.080,0.000,0.000,0.000
1644905264130991104,2022-02-15-06:07:44,10.1.1.5,35,0.090,0.090,0.090,0.000,0.000,0.000
1644905264171062016,2022-02-15-06:07:44,10.1.1.5,25,0.100,0.100,0.100,0.000,0.000,0.000
1644905264230870016,2022-02-15-06:07:44,10.1.1.5,34,0.090,0.090,0.090,0.000,0.000,0.000
1644905264270876928,2022-02-15-06:07:44,10.1.1.5,22,0.080,0.080,0.080,0.000,0.000,0.000
1644905264331130112,2022-02-15-06:07:44,10.1.1.5,31,0.070,0.070,0.070,0.000,0.000,0.000
1644905264370728960,2022-02-15-06:07:44,10.1.1.5,20,0.060,0.060,0.060,0.000,0.000,0.000
1644905264430864128,2022-02-15-06:07:44,10.1.1.5,29,0.050,0.050,0.050,0.000,0.000,0.000
1644905264491173120,2022-02-15-06:07:44,10.1.1.5,38,0.040,0.040,0.040,0.000,0.000,0.000
1644905264530985216,2022-02-15-06:07:44,10.1.1.5,24,0.030,0.030,0.030,0.000,0.000,0.000
1644905264590996992,2022-02-15-06:07:44,10.1.1.5,30,0.020,0.020,0.020,0.000,0.000,0.000
1644905264631022848,2022-02-15-06:07:44,10.1.1.5,19,0.011,0.011,0.011,0.000,0.000,0.000
1644905264691559936,2022-02-15-06:07:44,10.1.1.5,28,0.000,0.000,0.000,0.000,0.000,0.000
1644905264750793984,2022-02-15-06:07:44,10.1.1.5,36,-0.010,-0.010,-0.010,0.000,0.000,0.000
1644905264791166976,2022-02-15-06:07:44,10.1.1.5,25,-0.020,-0.020,-0.020,0.000,0.000,0.000
1644905264851052032,2022-02-15-06:07:44,10.1.1.5,34,-0.030,-0.030,-0.030,0.000,0.000,0.000
1644905264890999040,2022-02-15-06:07:44,10.1.1.5,23,-0.040,-0.040,-0.040,0.000,0.000,0.000
1644905264951101184,2022-02-15-06:07:44,10.1.1.5,32,-0.050,-0.050,-0.050,0.000,0.000,0.000
1644905264990909184,2022-02-15-06:07:44,10.1.1.5,22,-0.060,-0.060,-0.060,0.000,0.000,0.000
1644905265050673920,2022-02-15-06:07:45,10.1.1.5,31,-0.070,-0.070,-0.070,0.000,0.000,0.000
1644905265090981888,2022-02-15-06:07:45,10.1.1.5,20,-0.080,-0.080,-0.080,0.000,0.000,0.000
1644905265152813056,2022-02-15-06:07:45,10.1.1.5,28,-0.090,-0.090,-0.090,0.000,0.000,0.000
1644905265210881024,2022-02-15-06:07:45,10.1.1.5,36,-0.100,-0.100,-0.100,0.000,0.000,0.000
1644905265250852096,2022-02-15-06:07:45,10.1.1.5,25,-0.090,-0.090,-0.090,0.000,0.000,0.000
1644905265310942976,2022-02-15-06:07:45,10.1.1.5,34,-0.080,-0.080,-0.080,0.000,0.000,0.000
1644905265350821888,2022-02-15-06:07:45,10.1.1.5,23,-0.070,-0.070,-0.070,0.000,0.000,0.000
1644905265412035072,2022-02-15-06:07:45,10.1.1.5,32,-0.060,-0.060,-0.060,0.000,0.000,0.000
1644905265471823872,2022-02-15-06:07:45,10.1.1.5,38,-0.050,-0.050,-0.050,0.000,0.000,0.000
1644905265511183104,2022-02-15-06:07:45,10.1.1.5,27,-0.040,-0.040,-0.040,0.000,0.000,0.000
1644905265570967040,2022-02-15-06:07:45,10.1.1.5,36,-0.030,-0.030,-0.030,0.000,0.000,0.000
1644905265611720960,2022-02-15-06:07:45,10.1.1.5,26,-0.020,-0.020,-0.020,0.000,0.000,0.000
1644905265670802944,2022-02-15-06:07:45,10.1.1.5,35,-0.010,-0.010,-0.010,0.000,0.000,0.000
1644905265711432960,2022-02-15-06:07:45,10.1.1.5,24,0.000,0.000,0.000,0.000,0.000,0.000
1644905265771898112,2022-02-15-06:07:45,10.1.1.5,33,0.010,0.010,0.010,0.000,0.000,0.000
1644905265811098112,2022-02-15-06:07:45,10.1.1.5,21,0.020,0.020,0.020,0.000,0.000,0.000
1644905265871543808,2022-02-15-06:07:45,10.1.1.5,31,0.030,0.030,0.030,0.000,0.000,0.000
1644905265911459072,2022-02-15-06:07:45,10.1.1.5,20,0.040,0.040,0.040,0.000,0.000,0.000
1644905265971144960,2022-02-15-06:07:45,10.1.1.5,28,0.050,0.050,0.050,0.000,0.000,0.000
1644905266031454208,2022-02-15-06:07:46,10.1.1.5,37,0.060,0.060,0.060,0.000,0.000,0.000
1644905266071369984,2022-02-15-06:07:46,10.1.1.5,26,0.070,0.070,0.070,0.000,0.000,0.000
1644905266131340032,2022-02-15-06:07:46,10.1.1.5,36,0.080,0.080,0.080,0.000,0.000,0.000
1644905266172299008,2022-02-15-06:07:46,10.1.1.5,25,0.090,0.090,0.090,0.000,0.000,0.000
1644905266230983936,2022-02-15-06:07:46,10.1.1.5,34,0.100,0.100,0.100,0.000,0.000,0.000
1644905266271414016,2022-02-15-06:07:46,10.1.1.5,23,0.090,0.090,0.090,0.000,0.000,0.000
1644905266331444992,2022-02-15-06:07:46,10.1.1.5,32,0.080,0.080,0.080,0.000,0.000,0.000
1644905266371762944,2022-02-15-06:07:46,10.1.1.5,21,0.070,0.070,0.070,0.000,0.000,0.000
1644905266431341056,2022-02-15-06:07:46,10.1.1.5,31,0.060,0.060,0.060,0.000,0.000,0.000
1644905266471090176,2022-02-15-06:07:46,10.1.1.5,20,0.050,0.050,0.050,0.000,0.000,0.000
1644905266531266816,2022-02-15-06:07:46,10.1.1.5,29,0.040,0.040,0.040,0.000,0.000,0.000
1644905266591307008,2022-02-15-06:07:46,10.1.1.5,38,0.030,0.030,0.030,0.000,0.000,0.000
1644905266631454976,2022-02-15-06:07:46,10.1.1.5,27,0.020,0.020,0.020,0.000,0.000,0.000
1644905266691031040,2022-02-15-06:07:46,10.1.1.5,36,0.010,0.010,0.010,0.000,0.000,0.000
1644905266731084032,2022-02-15-06:07:46,10.1.1.5,26,0.000,0.000,0.000,0.000,0.000,0.000
1644905266790999040,2022-02-15-06:07:46,10.1.1.5,35,-0.010,-0.010,-0.010,0.000,0.000,0.000
1644905266831408128,2022-02-15-06:07:46,10.1.1.5,24,-0.020,-0.020,-0.020,0.000,0.000,0.000
1644905266891130880,2022-02-15-06:07:46,10.1.1.5,33,-0.030,-0.030,-0.030,0.000,0.000,0.000
1644905266931217920,2022-02-15-06:07:46,10.1.1.5,23,-0.040,-0.040,-0.040,0.000,0.000,0.000
1644905266991105024,2022-02-15-06:07:46,10.1.1.5,32,-0.050,-0.050,-0.050,0.000,0.000,0.000
1644905267031764992,2022-02-15-06:07:47,10.1.1.5,21,-0.060,-0.060,-0.060,0.000,0.000,0.000
1644905267091783936,2022-02-15-06:07:47,10.1.1.5,30,-0.070,-0.070,-0.070,0.000,0.000,0.000
1644905267151364096,2022-02-15-06:07:47,10.1.1.5,37,-0.080,-0.080,-0.080,0.000,0.000,0.000
1644905267191222016,2022-02-15-06:07:47,10.1.1.5,26,-0.090,-0.090,-0.090,0.000,0.000,0.000
1644905267251300096,2022-02-15-06:07:47,10.1.1.5,36,-0.100,-0.100,-0.100,0.000,0.000,0.000
1644905267291912960,2022-02-15-06:07:47,10.1.1.5,24,-0.090,-0.090,-0.090,0.000,0.000,0.000
1644905267351566080,2022-02-15-06:07:47,10.1.1.5,32,-0.080,-0.080,-0.080,0.000,0.000,0.000
1644905267392054016,2022-02-15-06:07:47,10.1.1.5,19,-0.070,-0.070,-0.070,0.000,0.000,0.000
1644905267452289024,2022-02-15-06:07:47,10.1.1.5,28,-0.060,-0.060,-0.060,0.000,0.000,0.000
1644905267511607040,2022-02-15-06:07:47,10.1.1.5,37,-0.050,-0.050,-0.050,0.000,0.000,0.000
1644905267552172032,2022-02-15-06:07:47,10.1.1.5,27,-0.040,-0.040,-0.040,0.000,0.000,0.000
1644905267611176960,2022-02-15-06:07:47,10.1.1.5,35,-0.030,-0.030,-0.030,0.000,0.000,0.000
1644905267652113920,2022-02-15-06:07:47,10.1.1.5,24,-0.020,-0.020,-0.020,0.000,0.000,0.000
1644905267712479232,2022-02-15-06:07:47,10.1.1.5,33,-0.010,-0.010,-0.010,0.000,0.000,0.000
1644905267753214976,2022-02-15-06:07:47,10.1.1.5,22,0.000,0.000,0.000,0.000,0.000,0.000
1644905267811482880,2022-02-15-06:07:47,10.1.1.5,30,0.010,0.010,0.010,0.000,0.000,0.000
1644905267851817984,2022-02-15-06:07:47,10.1.1.5,20,0.020,0.020,0.020,0.000,0.000,0.000
1644905267912476928,2022-02-15-06:07:47,10.1.1.5,29,0.030,0.030,0.030,0.000,0.000,0.000
1644905267971874048,2022-02-15-06:07:47,10.1.1.5,37,0.040,0.040,0.040,0.000,0.000,0.000
1644905268012454144,2022-02-15-06:07:48,10.1.1.5,25,0.050,0.050,0.050,0.000,0.000,0.000
1644905268071245056,2022-02-15-06:07:48,10.1.1.5,35,0.060,0.060,0.060,0.000,0.000,0.000
1644905268111001856,2022-02-15-06:07:48,10.1.1.5,24,0.070,0.070,0.070,0.000,0.000,0.000
1644905268171190016,2022-02-15-06:07:48,10.1.1.5,33,0.080,0.080,0.080,0.000,0.000,0.000
1644905268211947008,2022-02-15-06:07:48,10.1.1.5,21,0.090,0.090,0.090,0.000,0.000,0.000
1644905268271549952,2022-02-15-06:07:48,10.1.1.5,30,0.100,0.100,0.100,0.000,0.000,0.000
1644905268330750976,2022-02-15-06:07:48,10.1.1.5,37,0.090,0.090,0.090,0.000,0.000,0.000
1644905268371064064,2022-02-15-06:07:48,10.1.1.5,27,0.080,0.080,0.080,0.000,0.000,0.000
1644905268430932992,2022-02-15-06:07:48,10.1.1.5,36,0.070,0.070,0.070,0.000,0.000,0.000
1644905268472089088,2022-02-15-06:07:48,10.1.1.5,25,0.060,0.060,0.060,0.000,0.000,0.000
1644905268531158016,2022-02-15-06:07:48,10.1.1.5,34,0.050,0.050,0.050,0.000,0.000,0.000
1644905268571933952,2022-02-15-06:07:48,10.1.1.5,24,0.040,0.040,0.040,0.000,0.000,0.000
1644905268631083008,2022-02-15-06:07:48,10.1.1.5,32,0.030,0.030,0.030,0.000,0.000,0.000
1644905268671195136,2022-02-15-06:07:48,10.1.1.5,20,0.020,0.020,0.020,0.000,0.000,0.000
1644905268730986240,2022-02-15-06:07:48,10.1.1.5,29,0.010,0.010,0.010,0.000,0.000,0.000
1644905268791808000,2022-02-15-06:07:48,10.1.1.5,38,0.000,0.000,0.000,0.000,0.000,0.000
1644905268831411968,2022-02-15-06:07:48,10.1.1.5,27,-0.010,-0.010,-0.010,0.000,0.000,0.000
1644905268891240960,2022-02-15-06:07:48,10.1.1.5,36,-0.020,-0.020,-0.020,0.000,0.000,0.000
1644905268931324928,2022-02-15-06:07:48,10.1.1.5,25,-0.030,-0.030,-0.030,0.000,0.000,0.000
1644905268991906816,2022-02-15-06:07:48,10.1.1.5,34,-0.040,-0.040,-0.040,0.000,0.000,0.000
1644905269030884096,2022-02-15-06:07:49,10.1.1.5,22,-0.050,-0.050,-0.050,0.000,0.000,0.000
1644905269091394048,2022-02-15-06:07:49,10.1.1.5,31,-0.060,-0.060,-0.060,0.000,0.000,0.000
1644905269131852032,2022-02-15-06:07:49,10.1.1.5,20,-0.070,-0.070,-0.070,0.000,0.000,0.000
1644905269191361792,2022-02-15-06:07:49,10.1.1.5,29,-0.080,-0.080,-0.080,0.000,0.000,0.000
1644905269251218944,2022-02-15-06:07:49,10.1.1.5,38,-0.090,-0.090,-0.090,0.000,0.000,0.000
1644905269290874112,2022-02-15-06:07:49,10.1.1.5,27,-0.100,-0.100,-0.100,0.000,0.000,0.000
1644905269351531008,2022-02-15-06:07:49,10.1.1.5,36,-0.090,-0.090,-0.090,0.000,0.000,0.000
1644905269391101952,2022-02-15-06:07:49,10.1.1.5,25,-0.080,-0.080,-0.080,0.000,0.000,0.000
1644905269450688000,2022-02-15-06:07:49,10.1.1.5,35,-0.070,-0.070,-0.070,0.000,0.000,0.000
1644905269491099136,2022-02-15-06:07:49,10.1.1.5,24,-0.060,-0.060,-0.060,0.000,0.000,0.000
1644905269551966976,2022-02-15-06:07:49,10.1.1.5,34,-0.050,-0.050,-0.050,0.000,0.000,0.000
1644905269592004096,2022-02-15-06:07:49,10.1.1.5,23,-0.040,-0.040,-0.040,0.000,0.000,0.000
1644905269651849984,2022-02-15-06:07:49,10.1.1.5,32,-0.030,-0.030,-0.030,0.000,0.000,0.000
1644905269711657984,2022-02-15-06:07:49,10.1.1.5,39,-0.020,-0.020,-0.020,0.000,0.000,0.000
1644905269751702016,2022-02-15-06:07:49,10.1.1.5,27,-0.010,-0.010,-0.010,0.000,0.000,0.000
1644905269811811072,2022-02-15-06:07:49,10.1.1.5,37,0.000,0.000,0.000,0.000,0.000,0.000
1644905269851663104,2022-02-15-06:07:49,10.1.1.5,25,0.010,0.010,0.010,0.000,0.000,0.000
1644905269911407872,2022-02-15-06:07:49,10.1.1.5,34,0.020,0.020,0.020,0.000,0.000,0.000
1644905269952009984,2022-02-15-06:07:49,10.1.1.5,22,0.030,0.030,0.030,0.000,0.000,0.000
1644905270011084032,2022-02-15-06:07:50,10.1.1.5,31,0.040,0.040,0.040,0.000,0.000,0.000
1644905270051673856,2022-02-15-06:07:50,10.1.1.5,18,0.049,0.049,0.049,0.000,0.000,0.000
1644905270111313152,2022-02-15-06:07:50,10.1.1.5,26,0.060,0.060,0.060,0.000,0.000,0.000
1644905270171549952,2022-02-15-06:07:50,10.1.1.5,35,0.070,0.070,0.070,0.000,0.000,0.000
1644905270211736064,2022-02-15-06:07:50,10.1.1.5,23,0.080,0.080,0.080,0.000,0.000,0.000
1644905270271433216,2022-02-15-06:07:50,10.1.1.5,32,0.090,0.090,0.090,0.000,0.000,0.000
1644905270311482880,2022-02-15-06:07:50,10.1.1.5,22,0.100,0.100,0.100,0.000,0.000,0.000
1644905270371557120,2022-02-15-06:07:50,10.1.1.5,30,0.090,0.090,0.090,0.000,0.000,0.000
1644905270431073792,2022-02-15-06:07:50,10.1.1.5,38,0.080,0.080,0.080,0.000,0.000,0.000
1644905270471096064,2022-02-15-06:07:50,10.1.1.5,26,0.070,0.070,0.070,0.000,0.000,0.000
1644905270531550976,2022-02-15-06:07:50,10.1.1.5,35,0.060,0.060,0.060,0.000,0.000,0.000
1644905270571079936,2022-02-15-06:07:50,10.1.1.5,25,0.050,0.050,0.050,0.000,0.000,0.000
1644905270631450880,2022-02-15-06:07:50,10.1.1.5,33,0.040,0.040,0.040,0.000,0.000,0.000
1644905270671119872,2022-02-15-06:07:50,10.1.1.5,22,0.030,0.030,0.030,0.000,0.000,0.000
1644905270731080960,2022-02-15-06:07:50,10.1.1.5,31,0.020,0.020,0.020,0.000,0.000,0.000
1644905270771248128,2022-02-15-06:07:50,10.1.1.5,20,0.010,0.010,0.010,0.000,0.000,0.000
1644905270831191040,2022-02-15-06:07:50,10.1.1.5,28,0.000,0.000,0.000,0.000,0.000,0.000
1644905270891421952,2022-02-15-06:07:50,10.1.1.5,37,-0.010,-0.010,-0.010,0.000,0.000,0.000
1644905270931297024,2022-02-15-06:07:50,10.1.1.5,27,-0.020,-0.020,-0.020,0.000,0.000,0.000
1644905270992332032,2022-02-15-06:07:50,10.1.1.5,36,-0.030,-0.030,-0.030,0.000,0.000,0.000
1644905271031620864,2022-02-15-06:07:51,10.1.1.5,24,-0.040,-0.040,-0.040,0.000,0.000,0.000
1644905271091368960,2022-02-15-06:07:51,10.1.1.5,34,-0.050,-0.050,-0.050,0.000,0.000,0.000
1644905271131083008,2022-02-15-06:07:51,10.1.1.5,22,-0.060,-0.060,-0.060,0.000,0.000,0.000
1644905271191200000,2022-02-15-06:07:51,10.1.1.5,31,-0.070,-0.070,-0.070,0.000,0.000,0.000
1644905271231390976,2022-02-15-06:07:51,10.1.1.5,20,-0.080,-0.080,-0.080,0.000,0.000,0.000
1644905271291517952,2022-02-15-06:07:51,10.1.1.5,29,-0.090,-0.090,-0.090,0.000,0.000,0.000
1644905271351241984,2022-02-15-06:07:51,10.1.1.5,38,-0.100,-0.100,-0.100,0.000,0.000,0.000
1644905271391060992,2022-02-15-06:07:51,10.1.1.5,27,-0.090,-0.090,-0.090,0.000,0.000,0.000
1644905271451781888,2022-02-15-06:07:51,10.1.1.5,35,-0.080,-0.080,-0.080,0.000,0.000,0.000
1644905271491454976,2022-02-15-06:07:51,10.1.1.5,25,-0.070,-0.070,-0.070,0.000,0.000,0.000
1644905271512275968,2022-02-15-06:07:51,10.1.1.5,-6,-0.070,-0.070,-0.070,0.000,0.000,0.000
1644905271591159040,2022-02-15-06:07:51,10.1.1.5,23,-0.050,-0.050,-0.050,0.000,0.000,0.000
1644905271651685888,2022-02-15-06:07:51,10.1.1.5,31,-0.040,-0.040,-0.040,0.000,0.000,0.000
1644905271691772928,2022-02-15-06:07:51,10.1.1.5,20,-0.030,-0.030,-0.030,0.000,0.000,0.000
1644905271752270080,2022-02-15-06:07:51,10.1.1.5,28,-0.020,-0.020,-0.020,0.000,0.000,0.000
1644905271811544064,2022-02-15-06:07:51,10.1.1.5,37,-0.010,-0.010,-0.010,0.000,0.000,0.000
1644905271851252992,2022-02-15-06:07:51,10.1.1.5,24,0.000,0.000,0.000,0.000,0.000,0.000
1644905271911393792,2022-02-15-06:07:51,10.1.1.5,33,0.010,0.010,0.010,0.000,0.000,0.000
1644905271951422976,2022-02-15-06:07:51,10.1.1.5,23,0.020,0.020,0.020,0.000,0.000,0.000
1644905272011238144,2022-02-15-06:07:52,10.1.1.5,31,0.030,0.030,0.030,0.000,0.000,0.000
1644905272051460864,2022-02-15-06:07:52,10.1.1.5,20,0.040,0.040,0.040,0.000,0.000,0.000
1644905272111036160,2022-02-15-06:07:52,10.1.1.5,29,0.050,0.050,0.050,0.000,0.000,0.000
1644905272171369984,2022-02-15-06:07:52,10.1.1.5,38,0.060,0.060,0.060,0.000,0.000,0.000
1644905272211251968,2022-02-15-06:07:52,10.1.1.5,28,0.070,0.070,0.070,0.000,0.000,0.000
1644905272271558144,2022-02-15-06:07:52,10.1.1.5,36,0.080,0.080,0.080,0.000,0.000,0.000
1644905272310985216,2022-02-15-06:07:52,10.1.1.5,25,0.090,0.090,0.090,0.000,0.000,0.000
1644905272371557888,2022-02-15-06:07:52,10.1.1.5,34,0.100,0.100,0.100,0.000,0.000,0.000
1644905272411724032,2022-02-15-06:07:52,10.1.1.5,23,0.090,0.090,0.090,0.000,0.000,0.000
1644905272471030016,2022-02-15-06:07:52,10.1.1.5,33,0.080,0.080,0.080,0.000,0.000,0.000
1644905272512094976,2022-02-15-06:07:52,10.1.1.5,21,0.070,0.070,0.070,0.000,0.000,0.000
1644905272571975936,2022-02-15-06:07:52,10.1.1.5,30,0.060,0.060,0.060,0.000,0.000,0.000
1644905272631629056,2022-02-15-06:07:52,10.1.1.5,38,0.050,0.050,0.050,0.000,0.000,0.000
1644905272671475968,2022-02-15-06:07:52,10.1.1.5,26,0.040,0.040,0.040,0.000,0.000,0.000
1644905272731252992,2022-02-15-06:07:52,10.1.1.5,34,0.030,0.030,0.030,0.000,0.000,0.000
1644905272770995968,2022-02-15-06:07:52,10.1.1.5,22,0.020,0.020,0.020,0.000,0.000,0.000
1644905272831075840,2022-02-15-06:07:52,10.1.1.5,32,0.010,0.010,0.010,0.000,0.000,0.000
1644905272872838912,2022-02-15-06:07:52,10.1.1.5,20,0.000,0.000,0.000,0.000,0.000,0.000
1644905272931320064,2022-02-15-06:07:52,10.1.1.5,29,-0.010,-0.010,-0.010,0.000,0.000,0.000
1644905272991628800,2022-02-15-06:07:52,10.1.1.5,37,-0.020,-0.020,-0.020,0.000,0.000,0.000
1644905273030801152,2022-02-15-06:07:53,10.1.1.5,26,-0.030,-0.030,-0.030,0.000,0.000,0.000
1644905273091793920,2022-02-15-06:07:53,10.1.1.5,35,-0.040,-0.040,-0.040,0.000,0.000,0.000
1644905273130884864,2022-02-15-06:07:53,10.1.1.5,24,-0.050,-0.050,-0.050,0.000,0.000,0.000
1644905273191138048,2022-02-15-06:07:53,10.1.1.5,33,-0.060,-0.060,-0.060,0.000,0.000,0.000
1644905273231401984,2022-02-15-06:07:53,10.1.1.5,20,-0.070,-0.070,-0.070,0.000,0.000,0.000
1644905273292304896,2022-02-15-06:07:53,10.1.1.5,28,-0.080,-0.080,-0.080,0.000,0.000,0.000
1644905273352056064,2022-02-15-06:07:53,10.1.1.5,35,-0.090,-0.090,-0.090,0.000,0.000,0.000
1644905273391546880,2022-02-15-06:07:53,10.1.1.5,24,-0.100,-0.100,-0.100,0.000,0.000,0.000
1644905273452480000,2022-02-15-06:07:53,10.1.1.5,34,-0.090,-0.090,-0.090,0.000,0.000,0.000
1644905273496252160,2022-02-15-06:07:53,10.1.1.5,22,-0.080,-0.080,-0.080,0.000,0.000,0.000
1644905273560067840,2022-02-15-06:07:53,10.1.1.5,28,-0.070,-0.070,-0.070,0.000,0.000,0.000
1644905273651462912,2022-02-15-06:07:53,10.1.1.5,24,-0.050,-0.050,-0.050,0.000,0.000,0.000
1644905273711668992,2022-02-15-06:07:53,10.1.1.5,34,-0.040,-0.040,-0.040,0.000,0.000,0.000
1644905273751116032,2022-02-15-06:07:53,10.1.1.5,23,-0.030,-0.030,-0.030,0.000,0.000,0.000
1644905273811328000,2022-02-15-06:07:53,10.1.1.5,33,-0.020,-0.020,-0.020,0.000,0.000,0.000
1644905273851437056,2022-02-15-06:07:53,10.1.1.5,23,-0.010,-0.010,-0.010,0.000,0.000,0.000
1644905273912306944,2022-02-15-06:07:53,10.1.1.5,32,0.000,0.000,0.000,0.000,0.000,0.000
1644905273950882816,2022-02-15-06:07:53,10.1.1.5,22,0.010,0.010,0.010,0.000,0.000,0.000
1644905274010667008,2022-02-15-06:07:54,10.1.1.5,31,0.020,0.020,0.020,0.000,0.000,0.000
1644905274051223040,2022-02-15-06:07:54,10.1.1.5,21,0.030,0.030,0.030,0.000,0.000,0.000
1644905274111320064,2022-02-15-06:07:54,10.1.1.5,30,0.040,0.040,0.040,0.000,0.000,0.000
1644905274150990080,2022-02-15-06:07:54,10.1.1.5,20,0.050,0.050,0.050,0.000,0.000,0.000
1644905274211616000,2022-02-15-06:07:54,10.1.1.5,30,0.060,0.060,0.060,0.000,0.000,0.000
1644905274250878208,2022-02-15-06:07:54,10.1.1.5,19,0.070,0.070,0.070,0.000,0.000,0.000
1644905274310870784,2022-02-15-06:07:54,10.1.1.5,29,0.080,0.080,0.080,0.000,0.000,0.000
1644905274370882048,2022-02-15-06:07:54,10.1.1.5,38,0.090,0.090,0.090,0.000,0.000,0.000
1644905274411063040,2022-02-15-06:07:54,10.1.1.5,27,0.100,0.100,0.100,0.000,0.000,0.000
1644905274471461888,2022-02-15-06:07:54,10.1.1.5,36,0.090,0.090,0.090,0.000,0.000,0.000
1644905274512370944,2022-02-15-06:07:54,10.1.1.5,26,0.080,0.080,0.080,0.000,0.000,0.000
1644905274571683840,2022-02-15-06:07:54,10.1.1.5,36,0.070,0.070,0.070,0.000,0.000,0.000
1644905274617233152,2022-02-15-06:07:54,10.1.1.5,24,0.060,0.060,0.060,0.000,0.000,0.000
1644905274678725120,2022-02-15-06:07:54,10.1.1.5,21,0.050,0.050,0.050,0.000,0.000,0.000
1644905274730961920,2022-02-15-06:07:54,10.1.1.5,29,0.040,0.040,0.040,0.000,0.000,0.000
1644905274791407104,2022-02-15-06:07:54,10.1.1.5,37,0.030,0.030,0.030,0.000,0.000,0.000
1644905274831651072,2022-02-15-06:07:54,10.1.1.5,27,0.020,0.020,0.020,0.000,0.000,0.000
1644905274891043072,2022-02-15-06:07:54,10.1.1.5,37,0.010,0.010,0.010,0.000,0.000,0.000
1644905274931344896,2022-02-15-06:07:54,10.1.1.5,26,0.000,0.000,0.000,0.000,0.000,0.000
1644905274991333888,2022-02-15-06:07:54,10.1.1.5,35,-0.010,-0.010,-0.010,0.000,0.000,0.000
1644905275031096064,2022-02-15-06:07:55,10.1.1.5,23,-0.020,-0.020,-0.020,0.000,0.000,0.000
1644905275091674112,2022-02-15-06:07:55,10.1.1.5,33,-0.030,-0.030,-0.030,0.000,0.000,0.000
1644905275130775040,2022-02-15-06:07:55,10.1.1.5,22,-0.040,-0.040,-0.040,0.000,0.000,0.000
1644905275191073024,2022-02-15-06:07:55,10.1.1.5,31,-0.050,-0.050,-0.050,0.000,0.000,0.000
1644905275231086080,2022-02-15-06:07:55,10.1.1.5,20,-0.060,-0.060,-0.060,0.000,0.000,0.000
1644905275291209984,2022-02-15-06:07:55,10.1.1.5,30,-0.070,-0.070,-0.070,0.000,0.000,0.000
1644905275331238912,2022-02-15-06:07:55,10.1.1.5,19,-0.080,-0.080,-0.080,0.000,0.000,0.000
1644905275391150080,2022-02-15-06:07:55,10.1.1.5,29,-0.090,-0.090,-0.090,0.000,0.000,0.000
1644905275450941184,2022-02-15-06:07:55,10.1.1.5,38,-0.100,-0.100,-0.100,0.000,0.000,0.000
1644905275491055872,2022-02-15-06:07:55,10.1.1.5,27,-0.090,-0.090,-0.090,0.000,0.000,0.000
1644905275551229952,2022-02-15-06:07:55,10.1.1.5,36,-0.080,-0.080,-0.080,0.000,0.000,0.000
1644905275591567104,2022-02-15-06:07:55,10.1.1.5,26,-0.070,-0.070,-0.070,0.000,0.000,0.000
1644905275651627008,2022-02-15-06:07:55,10.1.1.5,35,-0.060,-0.060,-0.060,0.000,0.000,0.000
1644905275691611136,2022-02-15-06:07:55,10.1.1.5,23,-0.050,-0.050,-0.050,0.000,0.000,0.000
1644905275750960128,2022-02-15-06:07:55,10.1.1.5,32,-0.040,-0.040,-0.040,0.000,0.000,0.000
1644905275791349760,2022-02-15-06:07:55,10.1.1.5,22,-0.030,-0.030,-0.030,0.000,0.000,0.000
1644905275851664896,2022-02-15-06:07:55,10.1.1.5,31,-0.020,-0.020,-0.020,0.000,0.000,0.000
1644905275891475968,2022-02-15-06:07:55,10.1.1.5,19,-0.010,-0.010,-0.010,0.000,0.000,0.000
1644905275951313920,2022-02-15-06:07:55,10.1.1.5,29,0.000,0.000,0.000,0.000,0.000,0.000
1644905276011197952,2022-02-15-06:07:56,10.1.1.5,38,0.010,0.010,0.010,0.000,0.000,0.000
1644905276051660032,2022-02-15-06:07:56,10.1.1.5,27,0.020,0.020,0.020,0.000,0.000,0.000
1644905276111236096,2022-02-15-06:07:56,10.1.1.5,37,0.030,0.030,0.030,0.000,0.000,0.000
1644905276151746048,2022-02-15-06:07:56,10.1.1.5,26,0.040,0.040,0.040,0.000,0.000,0.000
1644905276211476992,2022-02-15-06:07:56,10.1.1.5,35,0.050,0.050,0.050,0.000,0.000,0.000
1644905276250930176,2022-02-15-06:07:56,10.1.1.5,24,0.060,0.060,0.060,0.000,0.000,0.000
1644905276313044992,2022-02-15-06:07:56,10.1.1.5,33,0.070,0.070,0.070,0.000,0.000,0.000
1644905276355133952,2022-02-15-06:07:56,10.1.1.5,21,0.080,0.080,0.080,0.000,0.000,0.000
1644905276411848960,2022-02-15-06:07:56,10.1.1.5,28,0.090,0.090,0.090,0.000,0.000,0.000
1644905276471426048,2022-02-15-06:07:56,10.1.1.5,36,0.100,0.100,0.100,0.000,0.000,0.000
1644905276511440896,2022-02-15-06:07:56,10.1.1.5,25,0.090,0.090,0.090,0.000,0.000,0.000
1644905276571688960,2022-02-15-06:07:56,10.1.1.5,35,0.080,0.080,0.080,0.000,0.000,0.000
1644905276611823104,2022-02-15-06:07:56,10.1.1.5,24,0.070,0.070,0.070,0.000,0.000,0.000
1644905276671664896,2022-02-15-06:07:56,10.1.1.5,34,0.060,0.060,0.060,0.000,0.000,0.000
1644905276712295168,2022-02-15-06:07:56,10.1.1.5,22,0.050,0.050,0.050,0.000,0.000,0.000
1644905276771284992,2022-02-15-06:07:56,10.1.1.5,31,0.040,0.040,0.040,0.000,0.000,0.000
1644905276811346944,2022-02-15-06:07:56,10.1.1.5,20,0.030,0.030,0.030,0.000,0.000,0.000
1644905276871428864,2022-02-15-06:07:56,10.1.1.5,29,0.020,0.020,0.020,0.000,0.000,0.000
1644905276931073024,2022-02-15-06:07:56,10.1.1.5,35,0.010,0.010,0.010,0.000,0.000,0.000
1644905276970807040,2022-02-15-06:07:56,10.1.1.5,24,0.000,0.000,0.000,0.000,0.000,0.000
1644905277030895872,2022-02-15-06:07:57,10.1.1.5,33,-0.010,-0.010,-0.010,0.000,0.000,0.000
1644905277071069952,2022-02-15-06:07:57,10.1.1.5,21,-0.020,-0.020,-0.020,0.000,0.000,0.000
1644905277130780928,2022-02-15-06:07:57,10.1.1.5,28,-0.030,-0.030,-0.030,0.000,0.000,0.000
1644905277191145984,2022-02-15-06:07:57,10.1.1.5,37,-0.040,-0.040,-0.040,0.000,0.000,0.000
1644905277231822080,2022-02-15-06:07:57,10.1.1.5,27,-0.050,-0.050,-0.050,0.000,0.000,0.000
1644905277291099904,2022-02-15-06:07:57,10.1.1.5,36,-0.060,-0.060,-0.060,0.000,0.000,0.000
1644905277331249920,2022-02-15-06:07:57,10.1.1.5,24,-0.070,-0.070,-0.070,0.000,0.000,0.000
1644905277390876928,2022-02-15-06:07:57,10.1.1.5,33,-0.080,-0.080,-0.080,0.000,0.000,0.000
1644905277431493888,2022-02-15-06:07:57,10.1.1.5,22,-0.090,-0.090,-0.090,0.000,0.000,0.000
1644905277491104000,2022-02-15-06:07:57,10.1.1.5,31,-0.100,-0.100,-0.100,0.000,0.000,0.000
1644905277532068096,2022-02-15-06:07:57,10.1.1.5,21,-0.090,-0.090,-0.090,0.000,0.000,0.000
1644905277591538944,2022-02-15-06:07:57,10.1.1.5,30,-0.080,-0.080,-0.080,0.000,0.000,0.000
1644905277631462144,2022-02-15-06:07:57,10.1.1.5,19,-0.070,-0.070,-0.070,0.000,0.000,0.000
1644905277691073024,2022-02-15-06:07:57,10.1.1.5,28,-0.060,-0.060,-0.060,0.000,0.000,0.000
1644905277751745024,2022-02-15-06:07:57,10.1.1.5,37,-0.050,-0.050,-0.050,0.000,0.000,0.000
1644905277791152896,2022-02-15-06:07:57,10.1.1.5,26,-0.040,-0.040,-0.040,0.000,0.000,0.000
1644905277851609088,2022-02-15-06:07:57,10.1.1.5,35,-0.030,-0.030,-0.030,0.000,0.000,0.000
1644905277891112192,2022-02-15-06:07:57,10.1.1.5,24,-0.020,-0.020,-0.020,0.000,0.000,0.000
1644905278059062016,2022-02-15-06:07:58,10.1.1.5,30,0.010,0.010,0.010,0.000,0.000,0.000
1644905278117341952,2022-02-15-06:07:58,10.1.1.5,42,0.020,0.020,0.020,0.000,0.000,0.000
1644905278151387904,2022-02-15-06:07:58,10.1.1.5,28,0.030,0.030,0.030,0.000,0.000,0.000
1644905278210984960,2022-02-15-06:07:58,10.1.1.5,37,0.040,0.040,0.040,0.000,0.000,0.000
1644905278266857984,2022-02-15-06:07:58,10.1.1.5,32,0.050,0.050,0.050,0.000,0.000,0.000
1644905278314832896,2022-02-15-06:07:58,10.1.1.5,39,0.060,0.060,0.060,0.000,0.000,0.000
1644905278350765824,2022-02-15-06:07:58,10.1.1.5,25,0.070,0.070,0.070,0.000,0.000,0.000
1644905278413069056,2022-02-15-06:07:58,10.1.1.5,37,0.080,0.080,0.080,0.000,0.000,0.000
1644905278462942976,2022-02-15-06:07:58,10.1.1.5,35,0.090,0.090,0.090,0.000,0.000,0.000
1644905278518942976,2022-02-15-06:07:58,10.1.1.5,41,0.100,0.100,0.100,0.000,0.000,0.000
1644905278552598016,2022-02-15-06:07:58,10.1.1.5,23,0.090,0.090,0.090,0.000,0.000,0.000
1644905278615021824,2022-02-15-06:07:58,10.1.1.5,36,0.080,0.080,0.080,0.000,0.000,0.000
1644905278651880960,2022-02-15-06:07:58,10.1.1.5,21,0.070,0.070,0.070,0.000,0.000,0.000
1644905278711007232,2022-02-15-06:07:58,10.1.1.5,31,0.060,0.060,0.060,0.000,0.000,0.000
1644905278751746816,2022-02-15-06:07:58,10.1.1.5,21,0.050,0.050,0.050,0.000,0.000,0.000
1644905278826980096,2022-02-15-06:07:58,10.1.1.5,44,0.040,0.040,0.040,0.000,0.000,0.000
1644905278911887872,2022-02-15-06:07:58,10.1.1.5,27,0.020,0.020,0.020,0.000,0.000,0.000
1644905278978311168,2022-02-15-06:07:58,10.1.1.5,36,0.010,0.010,0.010,0.000,0.000,0.000
1644905279011513856,2022-02-15-06:07:59,10.1.1.5,25,0.000,0.000,0.000,0.000,0.000,0.000
1644905279071405824,2022-02-15-06:07:59,10.1.1.5,35,-0.010,-0.010,-0.010,0.000,0.000,0.000
1644905279113745920,2022-02-15-06:07:59,10.1.1.5,23,-0.020,-0.020,-0.020,0.000,0.000,0.000
1644905279170900992,2022-02-15-06:07:59,10.1.1.5,32,-0.030,-0.030,-0.030,0.000,0.000,0.000
1644905279211426048,2022-02-15-06:07:59,10.1.1.5,20,-0.040,-0.040,-0.040,0.000,0.000,0.000
1644905279271452928,2022-02-15-06:07:59,10.1.1.5,29,-0.050,-0.050,-0.050,0.000,0.000,0.000
1644905279312624896,2022-02-15-06:07:59,10.1.1.5,17,-0.060,-0.060,-0.060,0.000,0.000,0.000
1644905279371066112,2022-02-15-06:07:59,10.1.1.5,26,-0.070,-0.070,-0.070,0.000,0.000,0.000
1644905279431617024,2022-02-15-06:07:59,10.1.1.5,35,-0.080,-0.080,-0.080,0.000,0.000,0.000
1644905279471209984,2022-02-15-06:07:59,10.1.1.5,25,-0.090,-0.090,-0.090,0.000,0.000,0.000
1644905279531362048,2022-02-15-06:07:59,10.1.1.5,33,-0.100,-0.100,-0.100,0.000,0.000,0.000
1644905279571024896,2022-02-15-06:07:59,10.1.1.5,23,-0.090,-0.090,-0.090,0.000,0.000,0.000
1644905279631392000,2022-02-15-06:07:59,10.1.1.5,32,-0.080,-0.080,-0.080,0.000,0.000,0.000
1644905279671677184,2022-02-15-06:07:59,10.1.1.5,22,-0.070,-0.070,-0.070,0.000,0.000,0.000
1644905279732609024,2022-02-15-06:07:59,10.1.1.5,31,-0.060,-0.060,-0.060,0.000,0.000,0.000
1644905279792026880,2022-02-15-06:07:59,10.1.1.5,39,-0.050,-0.050,-0.050,0.000,0.000,0.000
1644905279831856896,2022-02-15-06:07:59,10.1.1.5,23,-0.040,-0.040,-0.040,0.000,0.000,0.000
1644905279891902976,2022-02-15-06:07:59,10.1.1.5,33,-0.030,-0.030,-0.030,0.000,0.000,0.000
1644905279931358208,2022-02-15-06:07:59,10.1.1.5,22,-0.020,-0.020,-0.020,0.000,0.000,0.000
1644905279991689984,2022-02-15-06:07:59,10.1.1.5,29,-0.010,-0.010,-0.010,0.000,0.000,0.000
1644905280051677952,2022-02-15-06:08:00,10.1.1.5,37,0.000,0.000,0.000,0.000,0.000,0.000
1644905280091392000,2022-02-15-06:08:00,10.1.1.5,25,0.010,0.010,0.010,0.000,0.000,0.000
1644905280151894016,2022-02-15-06:08:00,10.1.1.5,33,0.020,0.020,0.020,0.000,0.000,0.000
1644905280191702016,2022-02-15-06:08:00,10.1.1.5,22,0.030,0.030,0.030,0.000,0.000,0.000
1644905280250953984,2022-02-15-06:08:00,10.1.1.5,31,0.040,0.040,0.040,0.000,0.000,0.000
1644905280291341056,2022-02-15-06:08:00,10.1.1.5,19,0.049,0.049,0.049,0.000,0.000,0.000
1644905280351700992,2022-02-15-06:08:00,10.1.1.5,27,0.060,0.060,0.060,0.000,0.000,0.000
1644905280410775808,2022-02-15-06:08:00,10.1.1.5,37,0.070,0.070,0.070,0.000,0.000,0.000
1644905280451405056,2022-02-15-06:08:00,10.1.1.5,26,0.080,0.080,0.080,0.000,0.000,0.000
1644905280520147200,2022-02-15-06:08:00,10.1.1.5,34,0.090,0.090,0.090,0.000,0.000,0.000
1644905280556576000,2022-02-15-06:08:00,10.1.1.5,21,0.100,0.100,0.100,0.000,0.000,0.000
1644905280611136000,2022-02-15-06:08:00,10.1.1.5,29,0.090,0.090,0.090,0.000,0.000,0.000
1644905280671438080,2022-02-15-06:08:00,10.1.1.5,37,0.080,0.080,0.080,0.000,0.000,0.000
1644905280712454144,2022-02-15-06:08:00,10.1.1.5,27,0.070,0.070,0.070,0.000,0.000,0.000
1644905280771659008,2022-02-15-06:08:00,10.1.1.5,36,0.060,0.060,0.060,0.000,0.000,0.000
1644905280811450880,2022-02-15-06:08:00,10.1.1.5,25,0.050,0.050,0.050,0.000,0.000,0.000
1644905281038119168,2022-02-15-06:08:01,10.1.1.5,35,0.020,0.020,0.020,0.000,0.000,0.000
1644905281151593984,2022-02-15-06:08:01,10.1.1.5,26,0.000,0.000,0.000,0.000,0.000,0.000
1644905281212389888,2022-02-15-06:08:01,10.1.1.5,33,-0.010,-0.010,-0.010,0.000,0.000,0.000
1644905281252239104,2022-02-15-06:08:01,10.1.1.5,22,-0.020,-0.020,-0.020,0.000,0.000,0.000
1644905281312130048,2022-02-15-06:08:01,10.1.1.5,31,-0.030,-0.030,-0.030,0.000,0.000,0.000
1644905281351464960,2022-02-15-06:08:01,10.1.1.5,21,-0.040,-0.040,-0.040,0.000,0.000,0.000
1644905281411565056,2022-02-15-06:08:01,10.1.1.5,30,-0.050,-0.050,-0.050,0.000,0.000,0.000
1644905281451576064,2022-02-15-06:08:01,10.1.1.5,19,-0.060,-0.060,-0.060,0.000,0.000,0.000
1644905281512676096,2022-02-15-06:08:01,10.1.1.5,27,-0.070,-0.070,-0.070,0.000,0.000,0.000
1644905281571929088,2022-02-15-06:08:01,10.1.1.5,37,-0.080,-0.080,-0.080,0.000,0.000,0.000
1644905281611493120,2022-02-15-06:08:01,10.1.1.5,26,-0.090,-0.090,-0.090,0.000,0.000,0.000
1644905281671663872,2022-02-15-06:08:01,10.1.1.5,34,-0.100,-0.100,-0.100,0.000,0.000,0.000
1644905281715938048,2022-02-15-06:08:01,10.1.1.5,23,-0.090,-0.090,-0.090,0.000,0.000,0.000
1644905281774723072,2022-02-15-06:08:01,10.1.1.5,32,-0.080,-0.080,-0.080,0.000,0.000,0.000
1644905281811012864,2022-02-15-06:08:01,10.1.1.5,20,-0.070,-0.070,-0.070,0.000,0.000,0.000
1644905281871666944,2022-02-15-06:08:01,10.1.1.5,29,-0.060,-0.060,-0.060,0.000,0.000,0.000
1644905281930983168,2022-02-15-06:08:01,10.1.1.5,38,-0.050,-0.050,-0.050,0.000,0.000,0.000
1644905281971184128,2022-02-15-06:08:01,10.1.1.5,27,-0.040,-0.040,-0.040,0.000,0.000,0.000
1644905282031360000,2022-02-15-06:08:02,10.1.1.5,37,-0.030,-0.030,-0.030,0.000,0.000,0.000
1644905282071574016,2022-02-15-06:08:02,10.1.1.5,27,-0.020,-0.020,-0.020,0.000,0.000,0.000
1644905282131450880,2022-02-15-06:08:02,10.1.1.5,36,-0.010,-0.010,-0.010,0.000,0.000,0.000
1644905282171076096,2022-02-15-06:08:02,10.1.1.5,26,0.000,0.000,0.000,0.000,0.000,0.000
1644905282231142912,2022-02-15-06:08:02,10.1.1.5,35,0.010,0.010,0.010,0.000,0.000,0.000
1644905282271804928,2022-02-15-06:08:02,10.1.1.5,25,0.020,0.020,0.020,0.000,0.000,0.000
1644905282331571968,2022-02-15-06:08:02,10.1.1.5,34,0.030,0.030,0.030,0.000,0.000,0.000
1644905282372293888,2022-02-15-06:08:02,10.1.1.5,23,0.040,0.040,0.040,0.000,0.000,0.000
1644905282431759104,2022-02-15-06:08:02,10.1.1.5,33,0.050,0.050,0.050,0.000,0.000,0.000
1644905282472419072,2022-02-15-06:08:02,10.1.1.5,23,0.060,0.060,0.060,0.000,0.000,0.000
1644905282531483904,2022-02-15-06:08:02,10.1.1.5,32,0.070,0.070,0.070,0.000,0.000,0.000
1644905282571252992,2022-02-15-06:08:02,10.1.1.5,20,0.080,0.080,0.080,0.000,0.000,0.000
1644905282631660032,2022-02-15-06:08:02,10.1.1.5,30,0.090,0.090,0.090,0.000,0.000,0.000
1644905282671627008,2022-02-15-06:08:02,10.1.1.5,20,0.100,0.100,0.100,0.000,0.000,0.000
1644905282731558144,2022-02-15-06:08:02,10.1.1.5,29,0.090,0.090,0.090,0.000,0.000,0.000
1644905282771603968,2022-02-15-06:08:02,10.1.1.5,19,0.081,0.081,0.081,0.000,0.000,0.000
1644905282831793152,2022-02-15-06:08:02,10.1.1.5,28,0.070,0.070,0.070,0.000,0.000,0.000
1644905282891185920,2022-02-15-06:08:02,10.1.1.5,38,0.060,0.060,0.060,0.000,0.000,0.000
1644905282931226112,2022-02-15-06:08:02,10.1.1.5,27,0.050,0.050,0.050,0.000,0.000,0.000
1644905282991218176,2022-02-15-06:08:02,10.1.1.5,36,0.040,0.040,0.040,0.000,0.000,0.000
1644905283031686912,2022-02-15-06:08:03,10.1.1.5,26,0.030,0.030,0.030,0.000,0.000,0.000
1644905283091280896,2022-02-15-06:08:03,10.1.1.5,36,0.020,0.020,0.020,0.000,0.000,0.000
1644905283130966784,2022-02-15-06:08:03,10.1.1.5,25,0.010,0.010,0.010,0.000,0.000,0.000
1644905283190803968,2022-02-15-06:08:03,10.1.1.5,35,0.000,0.000,0.000,0.000,0.000,0.000
1644905283231149824,2022-02-15-06:08:03,10.1.1.5,25,-0.010,-0.010,-0.010,0.000,0.000,0.000
1644905283290978816,2022-02-15-06:08:03,10.1.1.5,34,-0.020,-0.020,-0.020,0.000,0.000,0.000
1644905283331060992,2022-02-15-06:08:03,10.1.1.5,24,-0.030,-0.030,-0.030,0.000,0.000,0.000
1644905283391049984,2022-02-15-06:08:03,10.1.1.5,33,-0.040,-0.040,-0.040,0.000,0.000,0.000
1644905283431390976,2022-02-15-06:08:03,10.1.1.5,22,-0.050,-0.050,-0.050,0.000,0.000,0.000
1644905283497203968,2022-02-15-06:08:03,10.1.1.5,32,-0.060,-0.060,-0.060,0.000,0.000,0.000
1644905283530893056,2022-02-15-06:08:03,10.1.1.5,21,-0.070,-0.070,-0.070,0.000,0.000,0.000
1644905283590886144,2022-02-15-06:08:03,10.1.1.5,30,-0.080,-0.080,-0.080,0.000,0.000,0.000
1644905283630913024,2022-02-15-06:08:03,10.1.1.5,20,-0.090,-0.090,-0.090,0.000,0.000,0.000
1644905283690964992,2022-02-15-06:08:03,10.1.1.5,29,-0.100,-0.100,-0.100,0.000,0.000,0.000
1644905283750798080,2022-02-15-06:08:03,10.1.1.5,38,-0.090,-0.090,-0.090,0.000,0.000,0.000
1644905283791088128,2022-02-15-06:08:03,10.1.1.5,27,-0.080,-0.080,-0.080,0.000,0.000,0.000
1644905283851689984,2022-02-15-06:08:03,10.1.1.5,36,-0.070,-0.070,-0.070,0.000,0.000,0.000
1644905283891088128,2022-02-15-06:08:03,10.1.1.5,26,-0.060,-0.060,-0.060,0.000,0.000,0.000
1644905283951892992,2022-02-15-06:08:03,10.1.1.5,36,-0.050,-0.050,-0.050,0.000,0.000,0.000
1644905283991569152,2022-02-15-06:08:03,10.1.1.5,26,-0.040,-0.040,-0.040,0.000,0.000,0.000
1644905284051499008,2022-02-15-06:08:04,10.1.1.5,35,-0.030,-0.030,-0.030,0.000,0.000,0.000
1644905284091649024,2022-02-15-06:08:04,10.1.1.5,24,-0.020,-0.020,-0.020,0.000,0.000,0.000
1644905284111866112,2022-02-15-06:08:04,10.1.1.5,-6,-0.020,-0.020,-0.020,0.000,0.000,0.000
1644905284193149184,2022-02-15-06:08:04,10.1.1.5,23,0.000,0.000,0.000,0.000,0.000,0.000
1644905284251472896,2022-02-15-06:08:04,10.1.1.5,32,0.010,0.010,0.010,0.000,0.000,0.000
1644905284291693056,2022-02-15-06:08:04,10.1.1.5,22,0.020,0.020,0.020,0.000,0.000,0.000
1644905284351918080,2022-02-15-06:08:04,10.1.1.5,32,0.030,0.030,0.030,0.000,0.000,0.000
1644905284392101120,2022-02-15-06:08:04,10.1.1.5,21,0.040,0.040,0.040,0.000,0.000,0.000
1644905284451403008,2022-02-15-06:08:04,10.1.1.5,31,0.050,0.050,0.050,0.000,0.000,0.000
1644905284491278848,2022-02-15-06:08:04,10.1.1.5,20,0.060,0.060,0.060,0.000,0.000,0.000
1644905284551022080,2022-02-15-06:08:04,10.1.1.5,30,0.070,0.070,0.070,0.000,0.000,0.000
1644905284590969088,2022-02-15-06:08:04,10.1.1.5,20,0.080,0.080,0.080,0.000,0.000,0.000
1644905284651484928,2022-02-15-06:08:04,10.1.1.5,29,0.090,0.090,0.090,0.000,0.000,0.000
1644905284754287872,2022-02-15-06:08:04,10.1.1.5,27,0.090,0.090,0.090,0.000,0.000,0.000
1644905284812052992,2022-02-15-06:08:04,10.1.1.5,36,0.080,0.080,0.080,0.000,0.000,0.000
1644905284851193856,2022-02-15-06:08:04,10.1.1.5,25,0.070,0.070,0.070,0.000,0.000,0.000
1644905284911289088,2022-02-15-06:08:04,10.1.1.5,34,0.060,0.060,0.060,0.000,0.000,0.000
1644905284951062016,2022-02-15-06:08:04,10.1.1.5,24,0.050,0.050,0.050,0.000,0.000,0.000
1644905285011596800,2022-02-15-06:08:05,10.1.1.5,33,0.040,0.040,0.040,0.000,0.000,0.000
1644905285051495168,2022-02-15-06:08:05,10.1.1.5,23,0.030,0.030,0.030,0.000,0.000,0.000
1644905285110739968,2022-02-15-06:08:05,10.1.1.5,32,0.020,0.020,0.020,0.000,0.000,0.000
1644905285151942912,2022-02-15-06:08:05,10.1.1.5,22,0.010,0.010,0.010,0.000,0.000,0.000
1644905285212706048,2022-02-15-06:08:05,10.1.1.5,31,0.000,0.000,0.000,0.000,0.000,0.000
1644905285251776000,2022-02-15-06:08:05,10.1.1.5,19,-0.010,-0.010,-0.010,0.000,0.000,0.000
1644905285311450880,2022-02-15-06:08:05,10.1.1.5,28,-0.020,-0.020,-0.020,0.000,0.000,0.000
1644905285371745024,2022-02-15-06:08:05,10.1.1.5,37,-0.030,-0.030,-0.030,0.000,0.000,0.000
1644905285411623936,2022-02-15-06:08:05,10.1.1.5,26,-0.040,-0.040,-0.040,0.000,0.000,0.000
1644905285471366912,2022-02-15-06:08:05,10.1.1.5,35,-0.050,-0.050,-0.050,0.000,0.000,0.000
1644905285511909120,2022-02-15-06:08:05,10.1.1.5,25,-0.060,-0.060,-0.060,0.000,0.000,0.000
1644905285571538944,2022-02-15-06:08:05,10.1.1.5,34,-0.070,-0.070,-0.070,0.000,0.000,0.000
1644905285611074816,2022-02-15-06:08:05,10.1.1.5,24,-0.080,-0.080,-0.080,0.000,0.000,0.000
1644905285671497984,2022-02-15-06:08:05,10.1.1.5,33,-0.090,-0.090,-0.090,0.000,0.000,0.000
1644905285711442944,2022-02-15-06:08:05,10.1.1.5,23,-0.100,-0.100,-0.100,0.000,0.000,0.000
1644905285771641856,2022-02-15-06:08:05,10.1.1.5,31,-0.090,-0.090,-0.090,0.000,0.000,0.000
1644905285811449088,2022-02-15-06:08:05,10.1.1.5,21,-0.080,-0.080,-0.080,0.000,0.000,0.000
1644905285871632128,2022-02-15-06:08:05,10.1.1.5,30,-0.070,-0.070,-0.070,0.000,0.000,0.000
1644905285931516928,2022-02-15-06:08:05,10.1.1.5,39,-0.060,-0.060,-0.060,0.000,0.000,0.000
1644905285971762944,2022-02-15-06:08:05,10.1.1.5,28,-0.050,-0.050,-0.050,0.000,0.000,0.000
1644905286031064064,2022-02-15-06:08:06,10.1.1.5,37,-0.040,-0.040,-0.040,0.000,0.000,0.000
1644905286071911168,2022-02-15-06:08:06,10.1.1.5,26,-0.030,-0.030,-0.030,0.000,0.000,0.000
1644905286131162880,2022-02-15-06:08:06,10.1.1.5,36,-0.020,-0.020,-0.020,0.000,0.000,0.000
1644905286170993920,2022-02-15-06:08:06,10.1.1.5,25,-0.010,-0.010,-0.010,0.000,0.000,0.000
1644905286231363072,2022-02-15-06:08:06,10.1.1.5,35,0.000,0.000,0.000,0.000,0.000,0.000
1644905286270912768,2022-02-15-06:08:06,10.1.1.5,24,0.010,0.010,0.010,0.000,0.000,0.000
1644905286330936064,2022-02-15-06:08:06,10.1.1.5,33,0.020,0.020,0.020,0.000,0.000,0.000
1644905286371301888,2022-02-15-06:08:06,10.1.1.5,23,0.030,0.030,0.030,0.000,0.000,0.000
1644905286431226112,2022-02-15-06:08:06,10.1.1.5,32,0.040,0.040,0.040,0.000,0.000,0.000
1644905286471362048,2022-02-15-06:08:06,10.1.1.5,21,0.050,0.050,0.050,0.000,0.000,0.000
1644905286533879040,2022-02-15-06:08:06,10.1.1.5,28,0.060,0.060,0.060,0.000,0.000,0.000
1644905286590969088,2022-02-15-06:08:06,10.1.1.5,37,0.070,0.070,0.070,0.000,0.000,0.000
1644905286630912000,2022-02-15-06:08:06,10.1.1.5,26,0.080,0.080,0.080,0.000,0.000,0.000
1644905286690974976,2022-02-15-06:08:06,10.1.1.5,34,0.090,0.090,0.090,0.000,0.000,0.000
1644905286731319040,2022-02-15-06:08:06,10.1.1.5,23,0.100,0.100,0.100,0.000,0.000,0.000
1644905286793863936,2022-02-15-06:08:06,10.1.1.5,30,0.090,0.090,0.090,0.000,0.000,0.000
1644905286831564032,2022-02-15-06:08:06,10.1.1.5,20,0.080,0.080,0.080,0.000,0.000,0.000
1644905286899759104,2022-02-15-06:08:06,10.1.1.5,29,0.070,0.070,0.070,0.000,0.000,0.000
1644905286951307008,2022-02-15-06:08:06,10.1.1.5,30,0.060,0.060,0.060,0.000,0.000,0.000
1644905286990937088,2022-02-15-06:08:06,10.1.1.5,19,0.051,0.051,0.051,0.000,0.000,0.000
1644905287191206912,2022-02-15-06:08:07,10.1.1.5,36,0.020,0.020,0.020,0.000,0.000,0.000
1644905287231450112,2022-02-15-06:08:07,10.1.1.5,26,0.010,0.010,0.010,0.000,0.000,0.000
1644905287291301888,2022-02-15-06:08:07,10.1.1.5,35,0.000,0.000,0.000,0.000,0.000,0.000
1644905287331495936,2022-02-15-06:08:07,10.1.1.5,25,-0.010,-0.010,-0.010,0.000,0.000,0.000
1644905287391692032,2022-02-15-06:08:07,10.1.1.5,35,-0.020,-0.020,-0.020,0.000,0.000,0.000
1644905287431309056,2022-02-15-06:08:07,10.1.1.5,24,-0.030,-0.030,-0.030,0.000,0.000,0.000
1644905287490886912,2022-02-15-06:08:07,10.1.1.5,34,-0.040,-0.040,-0.040,0.000,0.000,0.000
1644905287531388160,2022-02-15-06:08:07,10.1.1.5,23,-0.050,-0.050,-0.050,0.000,0.000,0.000
1644905287696034816,2022-02-15-06:08:07,10.1.1.5,29,-0.080,-0.080,-0.080,0.000,0.000,0.000
1644905287751446016,2022-02-15-06:08:07,10.1.1.5,37,-0.090,-0.090,-0.090,0.000,0.000,0.000
1644905287793548032,2022-02-15-06:08:07,10.1.1.5,21,-0.100,-0.100,-0.100,0.000,0.000,0.000
1644905287851584000,2022-02-15-06:08:07,10.1.1.5,30,-0.090,-0.090,-0.090,0.000,0.000,0.000
1644905287890945024,2022-02-15-06:08:07,10.1.1.5,19,-0.081,-0.081,-0.081,0.000,0.000,0.000
1644905287951587840,2022-02-15-06:08:07,10.1.1.5,28,-0.070,-0.070,-0.070,0.000,0.000,0.000
1644905288010870016,2022-02-15-06:08:08,10.1.1.5,38,-0.060,-0.060,-0.060,0.000,0.000,0.000
1644905288052268032,2022-02-15-06:08:08,10.1.1.5,27,-0.050,-0.050,-0.050,0.000,0.000,0.000
1644905288114412032,2022-02-15-06:08:08,10.1.1.5,35,-0.040,-0.040,-0.040,0.000,0.000,0.000
1644905288152534016,2022-02-15-06:08:08,10.1.1.5,24,-0.030,-0.030,-0.030,0.000,0.000,0.000
1644905288270915072,2022-02-15-06:08:08,10.1.1.5,20,-0.010,-0.010,-0.010,0.000,0.000,0.000
1644905288331175936,2022-02-15-06:08:08,10.1.1.5,29,-0.000,-0.000,-0.000,0.000,0.000,0.000
1644905288370810112,2022-02-15-06:08:08,10.1.1.5,19,0.009,0.009,0.009,0.000,0.000,0.000
1644905288431375104,2022-02-15-06:08:08,10.1.1.5,28,0.020,0.020,0.020,0.000,0.000,0.000
1644905288530729984,2022-02-15-06:08:08,10.1.1.5,27,0.040,0.040,0.040,0.000,0.000,0.000
1644905288601229056,2022-02-15-06:08:08,10.1.1.5,36,0.050,0.050,0.050,0.000,0.000,0.000
1644905288691400960,2022-02-15-06:08:08,10.1.1.5,26,0.070,0.070,0.070,0.000,0.000,0.000
1644905288751215872,2022-02-15-06:08:08,10.1.1.5,36,0.080,0.080,0.080,0.000,0.000,0.000
1644905288791606016,2022-02-15-06:08:08,10.1.1.5,25,0.090,0.090,0.090,0.000,0.000,0.000
1644905288851443968,2022-02-15-06:08:08,10.1.1.5,34,0.100,0.100,0.100,0.000,0.000,0.000
1644905288891680000,2022-02-15-06:08:08,10.1.1.5,24,0.090,0.090,0.090,0.000,0.000,0.000
1644905288951086080,2022-02-15-06:08:08,10.1.1.5,34,0.080,0.080,0.080,0.000,0.000,0.000
1644905288993285888,2022-02-15-06:08:08,10.1.1.5,23,0.070,0.070,0.070,0.000,0.000,0.000
1644905289051409920,2022-02-15-06:08:09,10.1.1.5,32,0.060,0.060,0.060,0.000,0.000,0.000
1644905289091321088,2022-02-15-06:08:09,10.1.1.5,21,0.050,0.050,0.050,0.000,0.000,0.000
1644905289151521024,2022-02-15-06:08:09,10.1.1.5,31,0.040,0.040,0.040,0.000,0.000,0.000
1644905289192359936,2022-02-15-06:08:09,10.1.1.5,21,0.030,0.030,0.030,0.000,0.000,0.000
1644905289251542016,2022-02-15-06:08:09,10.1.1.5,30,0.020,0.020,0.020,0.000,0.000,0.000
1644905289291446016,2022-02-15-06:08:09,10.1.1.5,19,0.010,0.010,0.010,0.000,0.000,0.000
1644905289351588096,2022-02-15-06:08:09,10.1.1.5,28,0.000,0.000,0.000,0.000,0.000,0.000
1644905289411921920,2022-02-15-06:08:09,10.1.1.5,38,-0.010,-0.010,-0.010,0.000,0.000,0.000
1644905289451652096,2022-02-15-06:08:09,10.1.1.5,27,-0.020,-0.020,-0.020,0.000,0.000,0.000
1644905289511681024,2022-02-15-06:08:09,10.1.1.5,37,-0.030,-0.030,-0.030,0.000,0.000,0.000
1644905289551635968,2022-02-15-06:08:09,10.1.1.5,26,-0.040,-0.040,-0.040,0.000,0.000,0.000
1644905289610776064,2022-02-15-06:08:09,10.1.1.5,35,-0.050,-0.050,-0.050,0.000,0.000,0.000
1644905289651952896,2022-02-15-06:08:09,10.1.1.5,25,-0.060,-0.060,-0.060,0.000,0.000,0.000
1644905289710978048,2022-02-15-06:08:09,10.1.1.5,34,-0.070,-0.070,-0.070,0.000,0.000,0.000
1644905289751346176,2022-02-15-06:08:09,10.1.1.5,24,-0.080,-0.080,-0.080,0.000,0.000,0.000
1644905289811822848,2022-02-15-06:08:09,10.1.1.5,32,-0.090,-0.090,-0.090,0.000,0.000,0.000
1644905289851073024,2022-02-15-06:08:09,10.1.1.5,22,-0.100,-0.100,-0.100,0.000,0.000,0.000
1644905289911739136,2022-02-15-06:08:09,10.1.1.5,31,-0.090,-0.090,-0.090,0.000,0.000,0.000
1644905289951138048,2022-02-15-06:08:09,10.1.1.5,20,-0.080,-0.080,-0.080,0.000,0.000,0.000
1644905290013011968,2022-02-15-06:08:10,10.1.1.5,30,-0.070,-0.070,-0.070,0.000,0.000,0.000
1644905290052248832,2022-02-15-06:08:10,10.1.1.5,19,-0.060,-0.060,-0.060,0.000,0.000,0.000
1644905290111970816,2022-02-15-06:08:10,10.1.1.5,28,-0.050,-0.050,-0.050,0.000,0.000,0.000
1644905290171890944,2022-02-15-06:08:10,10.1.1.5,38,-0.040,-0.040,-0.040,0.000,0.000,0.000
1644905290211208192,2022-02-15-06:08:10,10.1.1.5,26,-0.030,-0.030,-0.030,0.000,0.000,0.000
1644905290271920896,2022-02-15-06:08:10,10.1.1.5,36,-0.020,-0.020,-0.020,0.000,0.000,0.000
1644905290311224832,2022-02-15-06:08:10,10.1.1.5,23,-0.010,-0.010,-0.010,0.000,0.000,0.000
1644905290371695104,2022-02-15-06:08:10,10.1.1.5,32,0.000,0.000,0.000,0.000,0.000,0.000
1644905290411627008,2022-02-15-06:08:10,10.1.1.5,22,0.010,0.010,0.010,0.000,0.000,0.000
1644905290471707136,2022-02-15-06:08:10,10.1.1.5,31,0.020,0.020,0.020,0.000,0.000,0.000
1644905290531385856,2022-02-15-06:08:10,10.1.1.5,37,0.030,0.030,0.030,0.000,0.000,0.000
1644905290571337984,2022-02-15-06:08:10,10.1.1.5,26,0.040,0.040,0.040,0.000,0.000,0.000
1644905290631286016,2022-02-15-06:08:10,10.1.1.5,35,0.050,0.050,0.050,0.000,0.000,0.000
1644905290671099904,2022-02-15-06:08:10,10.1.1.5,24,0.060,0.060,0.060,0.000,0.000,0.000
1644905290731062016,2022-02-15-06:08:10,10.1.1.5,33,0.070,0.070,0.070,0.000,0.000,0.000
1644905290772227072,2022-02-15-06:08:10,10.1.1.5,21,0.080,0.080,0.080,0.000,0.000,0.000
1644905290835088896,2022-02-15-06:08:10,10.1.1.5,30,0.090,0.090,0.090,0.000,0.000,0.000
1644905290892786944,2022-02-15-06:08:10,10.1.1.5,39,0.100,0.100,0.100,0.000,0.000,0.000
1644905290931042048,2022-02-15-06:08:10,10.1.1.5,25,0.090,0.090,0.090,0.000,0.000,0.000
1644905290991395840,2022-02-15-06:08:10,10.1.1.5,34,0.080,0.080,0.080,0.000,0.000,0.000
1644905291031424000,2022-02-15-06:08:11,10.1.1.5,23,0.070,0.070,0.070,0.000,0.000,0.000
1644905291090989056,2022-02-15-06:08:11,10.1.1.5,32,0.060,0.060,0.060,0.000,0.000,0.000
1644905291131674112,2022-02-15-06:08:11,10.1.1.5,21,0.050,0.050,0.050,0.000,0.000,0.000
1644905291192419072,2022-02-15-06:08:11,10.1.1.5,30,0.040,0.040,0.040,0.000,0.000,0.000
1644905291231616000,2022-02-15-06:08:11,10.1.1.5,19,0.030,0.030,0.030,0.000,0.000,0.000
1644905291293210112,2022-02-15-06:08:11,10.1.1.5,28,0.020,0.020,0.020,0.000,0.000,0.000
1644905291352448000,2022-02-15-06:08:11,10.1.1.5,37,0.010,0.010,0.010,0.000,0.000,0.000
1644905291391958016,2022-02-15-06:08:11,10.1.1.5,26,0.000,0.000,0.000,0.000,0.000,0.000
1644905291451590144,2022-02-15-06:08:11,10.1.1.5,36,-0.010,-0.010,-0.010,0.000,0.000,0.000
1644905291492214016,2022-02-15-06:08:11,10.1.1.5,21,-0.020,-0.020,-0.020,0.000,0.000,0.000
1644905291552336896,2022-02-15-06:08:11,10.1.1.5,31,-0.030,-0.030,-0.030,0.000,0.000,0.000
1644905291591658240,2022-02-15-06:08:11,10.1.1.5,19,-0.039,-0.039,-0.039,0.000,0.000,0.000
1644905291651741952,2022-02-15-06:08:11,10.1.1.5,28,-0.050,-0.050,-0.050,0.000,0.000,0.000
1644905291711625984,2022-02-15-06:08:11,10.1.1.5,38,-0.060,-0.060,-0.060,0.000,0.000,0.000
1644905291751919872,2022-02-15-06:08:11,10.1.1.5,27,-0.070,-0.070,-0.070,0.000,0.000,0.000
1644905291811862016,2022-02-15-06:08:11,10.1.1.5,36,-0.080,-0.080,-0.080,0.000,0.000,0.000
1644905291851783936,2022-02-15-06:08:11,10.1.1.5,22,-0.090,-0.090,-0.090,0.000,0.000,0.000
1644905291917524992,2022-02-15-06:08:11,10.1.1.5,32,-0.100,-0.100,-0.100,0.000,0.000,0.000
1644905291952331008,2022-02-15-06:08:11,10.1.1.5,20,-0.090,-0.090,-0.090,0.000,0.000,0.000
1644905292010951168,2022-02-15-06:08:12,10.1.1.5,29,-0.080,-0.080,-0.080,0.000,0.000,0.000
1644905292071738112,2022-02-15-06:08:12,10.1.1.5,38,-0.070,-0.070,-0.070,0.000,0.000,0.000
1644905292111428096,2022-02-15-06:08:12,10.1.1.5,28,-0.060,-0.060,-0.060,0.000,0.000,0.000
1644905292170931200,2022-02-15-06:08:12,10.1.1.5,37,-0.050,-0.050,-0.050,0.000,0.000,0.000
1644905292210951936,2022-02-15-06:08:12,10.1.1.5,27,-0.040,-0.040,-0.040,0.000,0.000,0.000
1644905292271040000,2022-02-15-06:08:12,10.1.1.5,36,-0.030,-0.030,-0.030,0.000,0.000,0.000
1644905292310839040,2022-02-15-06:08:12,10.1.1.5,26,-0.020,-0.020,-0.020,0.000,0.000,0.000
1644905292371951104,2022-02-15-06:08:12,10.1.1.5,36,-0.010,-0.010,-0.010,0.000,0.000,0.000
1644905292411275008,2022-02-15-06:08:12,10.1.1.5,25,0.000,0.000,0.000,0.000,0.000,0.000
1644905292470969856,2022-02-15-06:08:12,10.1.1.5,35,0.010,0.010,0.010,0.000,0.000,0.000
1644905292510977024,2022-02-15-06:08:12,10.1.1.5,24,0.020,0.020,0.020,0.000,0.000,0.000
1644905292570768128,2022-02-15-06:08:12,10.1.1.5,34,0.030,0.030,0.030,0.000,0.000,0.000
1644905292611071232,2022-02-15-06:08:12,10.1.1.5,23,0.040,0.040,0.040,0.000,0.000,0.000
1644905292671015936,2022-02-15-06:08:12,10.1.1.5,33,0.050,0.050,0.050,0.000,0.000,0.000
1644905292711283968,2022-02-15-06:08:12,10.1.1.5,22,0.060,0.060,0.060,0.000,0.000,0.000
1644905292770721024,2022-02-15-06:08:12,10.1.1.5,31,0.070,0.070,0.070,0.000,0.000,0.000
1644905292811156992,2022-02-15-06:08:12,10.1.1.5,21,0.080,0.080,0.080,0.000,0.000,0.000
1644905292870786048,2022-02-15-06:08:12,10.1.1.5,30,0.090,0.090,0.090,0.000,0.000,0.000
1644905292911168000,2022-02-15-06:08:12,10.1.1.5,18,0.099,0.099,0.099,0.000,0.000,0.000
1644905292970753792,2022-02-15-06:08:12,10.1.1.5,28,0.090,0.090,0.090,0.000,0.000,0.000
1644905293031655936,2022-02-15-06:08:13,10.1.1.5,37,0.080,0.080,0.080,0.000,0.000,0.000
1644905293071211008,2022-02-15-06:08:13,10.1.1.5,26,0.070,0.070,0.070,0.000,0.000,0.000
1644905293130775040,2022-02-15-06:08:13,10.1.1.5,36,0.060,0.060,0.060,0.000,0.000,0.000
1644905293170917120,2022-02-15-06:08:13,10.1.1.5,25,0.050,0.050,0.050,0.000,0.000,0.000
1644905293231201024,2022-02-15-06:08:13,10.1.1.5,35,0.040,0.040,0.040,0.000,0.000,0.000
1644905293277769984,2022-02-15-06:08:13,10.1.1.5,24,0.030,0.030,0.030,0.000,0.000,0.000
1644905293391247104,2022-02-15-06:08:13,10.1.1.5,36,0.010,0.010,0.010,0.000,0.000,0.000
1644905293431056896,2022-02-15-06:08:13,10.1.1.5,26,0.000,0.000,0.000,0.000,0.000,0.000
1644905293491236096,2022-02-15-06:08:13,10.1.1.5,36,-0.010,-0.010,-0.010,0.000,0.000,0.000
1644905293531409920,2022-02-15-06:08:13,10.1.1.5,25,-0.020,-0.020,-0.020,0.000,0.000,0.000
1644905293591737088,2022-02-15-06:08:13,10.1.1.5,34,-0.030,-0.030,-0.030,0.000,0.000,0.000
1644905293630855168,2022-02-15-06:08:13,10.1.1.5,23,-0.040,-0.040,-0.040,0.000,0.000,0.000
1644905293697259008,2022-02-15-06:08:13,10.1.1.5,29,-0.050,-0.050,-0.050,0.000,0.000,0.000
1644905293731098880,2022-02-15-06:08:13,10.1.1.5,19,-0.059,-0.059,-0.059,0.000,0.000,0.000
1644905293791048960,2022-02-15-06:08:13,10.1.1.5,29,-0.070,-0.070,-0.070,0.000,0.000,0.000
1644905293851584000,2022-02-15-06:08:13,10.1.1.5,38,-0.080,-0.080,-0.080,0.000,0.000,0.000
1644905293891681792,2022-02-15-06:08:13,10.1.1.5,27,-0.090,-0.090,-0.090,0.000,0.000,0.000
1644905293951592960,2022-02-15-06:08:13,10.1.1.5,35,-0.100,-0.100,-0.100,0.000,0.000,0.000
1644905293991034112,2022-02-15-06:08:13,10.1.1.5,24,-0.090,-0.090,-0.090,0.000,0.000,0.000
1644905294051489024,2022-02-15-06:08:14,10.1.1.5,33,-0.080,-0.080,-0.080,0.000,0.000,0.000
1644905294091021056,2022-02-15-06:08:14,10.1.1.5,22,-0.070,-0.070,-0.070,0.000,0.000,0.000
1644905294151689984,2022-02-15-06:08:14,10.1.1.5,32,-0.060,-0.060,-0.060,0.000,0.000,0.000
1644905294193049856,2022-02-15-06:08:14,10.1.1.5,21,-0.050,-0.050,-0.050,0.000,0.000,0.000
1644905294252864000,2022-02-15-06:08:14,10.1.1.5,31,-0.040,-0.040,-0.040,0.000,0.000,0.000
1644905294311405824,2022-02-15-06:08:14,10.1.1.5,35,-0.030,-0.030,-0.030,0.000,0.000,0.000
1644905294358656768,2022-02-15-06:08:14,10.1.1.5,21,-0.020,-0.020,-0.020,0.000,0.000,0.000
1644905294411005952,2022-02-15-06:08:14,10.1.1.5,30,-0.010,-0.010,-0.010,0.000,0.000,0.000
1644905294451075072,2022-02-15-06:08:14,10.1.1.5,20,0.000,0.000,0.000,0.000,0.000,0.000
1644905294511516928,2022-02-15-06:08:14,10.1.1.5,29,0.010,0.010,0.010,0.000,0.000,0.000
1644905294552099840,2022-02-15-06:08:14,10.1.1.5,18,0.019,0.019,0.019,0.000,0.000,0.000
1644905294612102912,2022-02-15-06:08:14,10.1.1.5,27,0.030,0.030,0.030,0.000,0.000,0.000
1644905294671127040,2022-02-15-06:08:14,10.1.1.5,36,0.040,0.040,0.040,0.000,0.000,0.000
1644905294711731968,2022-02-15-06:08:14,10.1.1.5,25,0.050,0.050,0.050,0.000,0.000,0.000
1644905294771596032,2022-02-15-06:08:14,10.1.1.5,34,0.060,0.060,0.060,0.000,0.000,0.000
1644905294811372032,2022-02-15-06:08:14,10.1.1.5,23,0.070,0.070,0.070,0.000,0.000,0.000
1644905294872230912,2022-02-15-06:08:14,10.1.1.5,32,0.080,0.080,0.080,0.000,0.000,0.000
1644905294910926080,2022-02-15-06:08:14,10.1.1.5,22,0.090,0.090,0.090,0.000,0.000,0.000
1644905294971527168,2022-02-15-06:08:14,10.1.1.5,31,0.100,0.100,0.100,0.000,0.000,0.000
1644905295012419072,2022-02-15-06:08:15,10.1.1.5,20,0.090,0.090,0.090,0.000,0.000,0.000
1644905295070748928,2022-02-15-06:08:15,10.1.1.5,29,0.080,0.080,0.080,0.000,0.000,0.000
1644905295111699200,2022-02-15-06:08:15,10.1.1.5,18,0.071,0.071,0.071,0.000,0.000,0.000
1644905295171287040,2022-02-15-06:08:15,10.1.1.5,27,0.060,0.060,0.060,0.000,0.000,0.000
1644905295231826176,2022-02-15-06:08:15,10.1.1.5,36,0.050,0.050,0.050,0.000,0.000,0.000
1644905295271572224,2022-02-15-06:08:15,10.1.1.5,25,0.040,0.040,0.040,0.000,0.000,0.000
1644905295331170048,2022-02-15-06:08:15,10.1.1.5,34,0.030,0.030,0.030,0.000,0.000,0.000
1644905295371642112,2022-02-15-06:08:15,10.1.1.5,24,0.020,0.020,0.020,0.000,0.000,0.000
1644905295431447040,2022-02-15-06:08:15,10.1.1.5,33,0.010,0.010,0.010,0.000,0.000,0.000
1644905295552786176,2022-02-15-06:08:15,10.1.1.5,32,-0.010,-0.010,-0.010,0.000,0.000,0.000
1644905295611270912,2022-02-15-06:08:15,10.1.1.5,30,-0.020,-0.020,-0.020,0.000,0.000,0.000
1644905295671390976,2022-02-15-06:08:15,10.1.1.5,36,-0.030,-0.030,-0.030,0.000,0.000,0.000
1644905295712672000,2022-02-15-06:08:15,10.1.1.5,25,-0.040,-0.040,-0.040,0.000,0.000,0.000
1644905295771574016,2022-02-15-06:08:15,10.1.1.5,35,-0.050,-0.050,-0.050,0.000,0.000,0.000
1644905295811793152,2022-02-15-06:08:15,10.1.1.5,22,-0.060,-0.060,-0.060,0.000,0.000,0.000
1644905295871830016,2022-02-15-06:08:15,10.1.1.5,31,-0.070,-0.070,-0.070,0.000,0.000,0.000
1644905295912270080,2022-02-15-06:08:15,10.1.1.5,21,-0.080,-0.080,-0.080,0.000,0.000,0.000
1644905295971080192,2022-02-15-06:08:15,10.1.1.5,30,-0.090,-0.090,-0.090,0.000,0.000,0.000
1644905296011516160,2022-02-15-06:08:16,10.1.1.5,19,-0.100,-0.100,-0.100,0.000,0.000,0.000
1644905296071356928,2022-02-15-06:08:16,10.1.1.5,27,-0.090,-0.090,-0.090,0.000,0.000,0.000
1644905296131514112,2022-02-15-06:08:16,10.1.1.5,35,-0.080,-0.080,-0.080,0.000,0.000,0.000
1644905296171117056,2022-02-15-06:08:16,10.1.1.5,23,-0.070,-0.070,-0.070,0.000,0.000,0.000
1644905296231382016,2022-02-15-06:08:16,10.1.1.5,31,-0.060,-0.060,-0.060,0.000,0.000,0.000
1644905296291024896,2022-02-15-06:08:16,10.1.1.5,36,-0.050,-0.050,-0.050,0.000,0.000,0.000
1644905296332233984,2022-02-15-06:08:16,10.1.1.5,26,-0.040,-0.040,-0.040,0.000,0.000,0.000
1644905296390935808,2022-02-15-06:08:16,10.1.1.5,34,-0.030,-0.030,-0.030,0.000,0.000,0.000
1644905296431678976,2022-02-15-06:08:16,10.1.1.5,22,-0.020,-0.020,-0.020,0.000,0.000,0.000
1644905296492270848,2022-02-15-06:08:16,10.1.1.5,30,-0.010,-0.010,-0.010,0.000,0.000,0.000
1644905296551842048,2022-02-15-06:08:16,10.1.1.5,32,0.000,0.000,0.000,0.000,0.000,0.000
1644905296591586048,2022-02-15-06:08:16,10.1.1.5,22,0.010,0.010,0.010,0.000,0.000,0.000
1644905296651339008,2022-02-15-06:08:16,10.1.1.5,30,0.020,0.020,0.020,0.000,0.000,0.000
1644905296711191040,2022-02-15-06:08:16,10.1.1.5,37,0.030,0.030,0.030,0.000,0.000,0.000
1644905296751427840,2022-02-15-06:08:16,10.1.1.5,26,0.040,0.040,0.040,0.000,0.000,0.000
1644905296811768064,2022-02-15-06:08:16,10.1.1.5,36,0.050,0.050,0.050,0.000,0.000,0.000
1644905296851807232,2022-02-15-06:08:16,10.1.1.5,24,0.060,0.060,0.060,0.000,0.000,0.000
1644905296911387904,2022-02-15-06:08:16,10.1.1.5,33,0.070,0.070,0.070,0.000,0.000,0.000
1644905296951670784,2022-02-15-06:08:16,10.1.1.5,22,0.080,0.080,0.080,0.000,0.000,0.000
1644905297011356160,2022-02-15-06:08:17,10.1.1.5,30,0.090,0.090,0.090,0.000,0.000,0.000
1644905297052081152,2022-02-15-06:08:17,10.1.1.5,19,0.099,0.099,0.099,0.000,0.000,0.000
1644905297110977792,2022-02-15-06:08:17,10.1.1.5,27,0.090,0.090,0.090,0.000,0.000,0.000
1644905297171644928,2022-02-15-06:08:17,10.1.1.5,37,0.080,0.080,0.080,0.000,0.000,0.000
1644905297211867136,2022-02-15-06:08:17,10.1.1.5,26,0.070,0.070,0.070,0.000,0.000,0.000
1644905297271256832,2022-02-15-06:08:17,10.1.1.5,34,0.060,0.060,0.060,0.000,0.000,0.000
1644905297312071936,2022-02-15-06:08:17,10.1.1.5,23,0.050,0.050,0.050,0.000,0.000,0.000
1644905297370842880,2022-02-15-06:08:17,10.1.1.5,32,0.040,0.040,0.040,0.000,0.000,0.000
1644905297410921984,2022-02-15-06:08:17,10.1.1.5,21,0.030,0.030,0.030,0.000,0.000,0.000
1644905297471496960,2022-02-15-06:08:17,10.1.1.5,31,0.020,0.020,0.020,0.000,0.000,0.000
1644905297510983936,2022-02-15-06:08:17,10.1.1.5,20,0.010,0.010,0.010,0.000,0.000,0.000
1644905297570964992,2022-02-15-06:08:17,10.1.1.5,30,0.000,0.000,0.000,0.000,0.000,0.000
1644905297636427008,2022-02-15-06:08:17,10.1.1.5,39,-0.010,-0.010,-0.010,0.000,0.000,0.000
1644905297672815104,2022-02-15-06:08:17,10.1.1.5,27,-0.020,-0.020,-0.020,0.000,0.000,0.000
1644905297731394048,2022-02-15-06:08:17,10.1.1.5,36,-0.030,-0.030,-0.030,0.000,0.000,0.000
1644905297771473920,2022-02-15-06:08:17,10.1.1.5,25,-0.040,-0.040,-0.040,0.000,0.000,0.000
1644905297831878912,2022-02-15-06:08:17,10.1.1.5,35,-0.050,-0.050,-0.050,0.000,0.000,0.000
1644905297879589120,2022-02-15-06:08:17,10.1.1.5,23,-0.060,-0.060,-0.060,0.000,0.000,0.000
1644905297991276032,2022-02-15-06:08:17,10.1.1.5,19,-0.079,-0.079,-0.079,0.000,0.000,0.000
1644905298051492096,2022-02-15-06:08:18,10.1.1.5,28,-0.090,-0.090,-0.090,0.000,0.000,0.000
1644905298153475072,2022-02-15-06:08:18,10.1.1.5,24,-0.090,-0.090,-0.090,0.000,0.000,0.000
1644905298211670016,2022-02-15-06:08:18,10.1.1.5,32,-0.080,-0.080,-0.080,0.000,0.000,0.000
1644905298251787008,2022-02-15-06:08:18,10.1.1.5,22,-0.070,-0.070,-0.070,0.000,0.000,0.000
1644905298312359936,2022-02-15-06:08:18,10.1.1.5,31,-0.060,-0.060,-0.060,0.000,0.000,0.000
1644905298351508992,2022-02-15-06:08:18,10.1.1.5,20,-0.050,-0.050,-0.050,0.000,0.000,0.000
1644905298411590144,2022-02-15-06:08:18,10.1.1.5,30,-0.040,-0.040,-0.040,0.000,0.000,0.000
1644905298471142912,2022-02-15-06:08:18,10.1.1.5,37,-0.030,-0.030,-0.030,0.000,0.000,0.000
1644905298511538944,2022-02-15-06:08:18,10.1.1.5,26,-0.020,-0.020,-0.020,0.000,0.000,0.000
1644905298571717888,2022-02-15-06:08:18,10.1.1.5,34,-0.010,-0.010,-0.010,0.000,0.000,0.000
1644905298611553792,2022-02-15-06:08:18,10.1.1.5,23,0.000,0.000,0.000,0.000,0.000,0.000
1644905298671942912,2022-02-15-06:08:18,10.1.1.5,32,0.010,0.010,0.010,0.000,0.000,0.000
1644905298712312064,2022-02-15-06:08:18,10.1.1.5,21,0.020,0.020,0.020,0.000,0.000,0.000
1644905298774457856,2022-02-15-06:08:18,10.1.1.5,30,0.030,0.030,0.030,0.000,0.000,0.000
1644905298832998912,2022-02-15-06:08:18,10.1.1.5,37,0.040,0.040,0.040,0.000,0.000,0.000
1644905298871571968,2022-02-15-06:08:18,10.1.1.5,22,0.050,0.050,0.050,0.000,0.000,0.000
1644905298931465984,2022-02-15-06:08:18,10.1.1.5,32,0.060,0.060,0.060,0.000,0.000,0.000
1644905298971368192,2022-02-15-06:08:18,10.1.1.5,19,0.070,0.070,0.070,0.000,0.000,0.000
1644905299031704832,2022-02-15-06:08:19,10.1.1.5,28,0.080,0.080,0.080,0.000,0.000,0.000
1644905299091160064,2022-02-15-06:08:19,10.1.1.5,37,0.090,0.090,0.090,0.000,0.000,0.000
1644905299131640064,2022-02-15-06:08:19,10.1.1.5,26,0.100,0.100,0.100,0.000,0.000,0.000
1644905299191400960,2022-02-15-06:08:19,10.1.1.5,34,0.090,0.090,0.090,0.000,0.000,0.000
1644905299231401984,2022-02-15-06:08:19,10.1.1.5,23,0.080,0.080,0.080,0.000,0.000,0.000
1644905299291281920,2022-02-15-06:08:19,10.1.1.5,32,0.070,0.070,0.070,0.000,0.000,0.000
1644905299331737088,2022-02-15-06:08:19,10.1.1.5,22,0.060,0.060,0.060,0.000,0.000,0.000
1644905299391788032,2022-02-15-06:08:19,10.1.1.5,31,0.050,0.050,0.050,0.000,0.000,0.000
1644905299431133952,2022-02-15-06:08:19,10.1.1.5,20,0.040,0.040,0.040,0.000,0.000,0.000
1644905299492033024,2022-02-15-06:08:19,10.1.1.5,29,0.030,0.030,0.030,0.000,0.000,0.000
1644905299551376128,2022-02-15-06:08:19,10.1.1.5,38,0.020,0.020,0.020,0.000,0.000,0.000
1644905299591294976,2022-02-15-06:08:19,10.1.1.5,27,0.010,0.010,0.010,0.000,0.000,0.000
1644905299651667968,2022-02-15-06:08:19,10.1.1.5,36,0.000,0.000,0.000,0.000,0.000,0.000
1644905299691283968,2022-02-15-06:08:19,10.1.1.5,25,-0.010,-0.010,-0.010,0.000,0.000,0.000
1644905299751645952,2022-02-15-06:08:19,10.1.1.5,34,-0.020,-0.020,-0.020,0.000,0.000,0.000
1644905299791441920,2022-02-15-06:08:19,10.1.1.5,24,-0.030,-0.030,-0.030,0.000,0.000,0.000
1644905299851429888,2022-02-15-06:08:19,10.1.1.5,33,-0.040,-0.040,-0.040,0.000,0.000,0.000
1644905299891812096,2022-02-15-06:08:19,10.1.1.5,22,-0.050,-0.050,-0.050,0.000,0.000,0.000
1644905299952193024,2022-02-15-06:08:19,10.1.1.5,31,-0.060,-0.060,-0.060,0.000,0.000,0.000
1644905299991367168,2022-02-15-06:08:19,10.1.1.5,20,-0.070,-0.070,-0.070,0.000,0.000,0.000
1644905300052136960,2022-02-15-06:08:20,10.1.1.5,29,-0.080,-0.080,-0.080,0.000,0.000,0.000
1644905300111700992,2022-02-15-06:08:20,10.1.1.5,38,-0.090,-0.090,-0.090,0.000,0.000,0.000
1644905300154736128,2022-02-15-06:08:20,10.1.1.5,27,-0.100,-0.100,-0.100,0.000,0.000,0.000
1644905300211601920,2022-02-15-06:08:20,10.1.1.5,36,-0.090,-0.090,-0.090,0.000,0.000,0.000
1644905300251315968,2022-02-15-06:08:20,10.1.1.5,22,-0.080,-0.080,-0.080,0.000,0.000,0.000
1644905300311335168,2022-02-15-06:08:20,10.1.1.5,32,-0.070,-0.070,-0.070,0.000,0.000,0.000
1644905300351494144,2022-02-15-06:08:20,10.1.1.5,21,-0.060,-0.060,-0.060,0.000,0.000,0.000
1644905300412406016,2022-02-15-06:08:20,10.1.1.5,30,-0.050,-0.050,-0.050,0.000,0.000,0.000
1644905300471340800,2022-02-15-06:08:20,10.1.1.5,37,-0.040,-0.040,-0.040,0.000,0.000,0.000
1644905300511207936,2022-02-15-06:08:20,10.1.1.5,26,-0.030,-0.030,-0.030,0.000,0.000,0.000
1644905300535689216,2022-02-15-06:08:20,10.1.1.5,-7,-0.030,-0.030,-0.030,0.000,0.000,0.000
1644905300611411968,2022-02-15-06:08:20,10.1.1.5,20,-0.010,-0.010,-0.010,0.000,0.000,0.000
1644905300671936000,2022-02-15-06:08:20,10.1.1.5,30,0.000,0.000,0.000,0.000,0.000,0.000
1644905300732187904,2022-02-15-06:08:20,10.1.1.5,35,0.010,0.010,0.010,0.000,0.000,0.000
1644905300772026112,2022-02-15-06:08:20,10.1.1.5,24,0.020,0.020,0.020,0.000,0.000,0.000
1644905300831610880,2022-02-15-06:08:20,10.1.1.5,34,0.030,0.030,0.030,0.000,0.000,0.000
1644905300871485952,2022-02-15-06:08:20,10.1.1.5,23,0.040,0.040,0.040,0.000,0.000,0.000
1644905300931801088,2022-02-15-06:08:20,10.1.1.5,32,0.050,0.050,0.050,0.000,0.000,0.000
1644905300972034816,2022-02-15-06:08:20,10.1.1.5,19,0.059,0.059,0.059,0.000,0.000,0.000
1644905301031148800,2022-02-15-06:08:21,10.1.1.5,28,0.070,0.070,0.070,0.000,0.000,0.000
1644905301092012032,2022-02-15-06:08:21,10.1.1.5,37,0.080,0.080,0.080,0.000,0.000,0.000
1644905301132615936,2022-02-15-06:08:21,10.1.1.5,26,0.090,0.090,0.090,0.000,0.000,0.000
1644905301191621120,2022-02-15-06:08:21,10.1.1.5,35,0.100,0.100,0.100,0.000,0.000,0.000
1644905301230968064,2022-02-15-06:08:21,10.1.1.5,24,0.090,0.090,0.090,0.000,0.000,0.000
1644905301291276032,2022-02-15-06:08:21,10.1.1.5,33,0.080,0.080,0.080,0.000,0.000,0.000
1644905301331403008,2022-02-15-06:08:21,10.1.1.5,23,0.070,0.070,0.070,0.000,0.000,0.000
1644905301391537920,2022-02-15-06:08:21,10.1.1.5,32,0.060,0.060,0.060,0.000,0.000,0.000
1644905301451656192,2022-02-15-06:08:21,10.1.1.5,38,0.050,0.050,0.050,0.000,0.000,0.000
1644905301491708928,2022-02-15-06:08:21,10.1.1.5,27,0.040,0.040,0.040,0.000,0.000,0.000
1644905301551419904,2022-02-15-06:08:21,10.1.1.5,36,0.030,0.030,0.030,0.000,0.000,0.000
1644905301591855104,2022-02-15-06:08:21,10.1.1.5,25,0.020,0.020,0.020,0.000,0.000,0.000
1644905301652175872,2022-02-15-06:08:21,10.1.1.5,34,0.010,0.010,0.010,0.000,0.000,0.000
1644905301692250880,2022-02-15-06:08:21,10.1.1.5,22,0.000,0.000,0.000,0.000,0.000,0.000
1644905301751636992,2022-02-15-06:08:21,10.1.1.5,30,-0.010,-0.010,-0.010,0.000,0.000,0.000
1644905301811488000,2022-02-15-06:08:21,10.1.1.5,38,-0.020,-0.020,-0.020,0.000,0.000,0.000
1644905301851725056,2022-02-15-06:08:21,10.1.1.5,27,-0.030,-0.030,-0.030,0.000,0.000,0.000
1644905301912089088,2022-02-15-06:08:21,10.1.1.5,36,-0.040,-0.040,-0.040,0.000,0.000,0.000
1644905301951305984,2022-02-15-06:08:21,10.1.1.5,25,-0.050,-0.050,-0.050,0.000,0.000,0.000
1644905302012046080,2022-02-15-06:08:22,10.1.1.5,34,-0.060,-0.060,-0.060,0.000,0.000,0.000
1644905302051575808,2022-02-15-06:08:22,10.1.1.5,22,-0.070,-0.070,-0.070,0.000,0.000,0.000
1644905302111876096,2022-02-15-06:08:22,10.1.1.5,31,-0.080,-0.080,-0.080,0.000,0.000,0.000
1644905302151933952,2022-02-15-06:08:22,10.1.1.5,20,-0.090,-0.090,-0.090,0.000,0.000,0.000
1644905302211802112,2022-02-15-06:08:22,10.1.1.5,26,-0.100,-0.100,-0.100,0.000,0.000,0.000
1644905302271642880,2022-02-15-06:08:22,10.1.1.5,35,-0.090,-0.090,-0.090,0.000,0.000,0.000
1644905302311954944,2022-02-15-06:08:22,10.1.1.5,25,-0.080,-0.080,-0.080,0.000,0.000,0.000
1644905302371607040,2022-02-15-06:08:22,10.1.1.5,34,-0.070,-0.070,-0.070,0.000,0.000,0.000
1644905302411486976,2022-02-15-06:08:22,10.1.1.5,23,-0.060,-0.060,-0.060,0.000,0.000,0.000
1644905302472000000,2022-02-15-06:08:22,10.1.1.5,32,-0.050,-0.050,-0.050,0.000,0.000,0.000
1644905302512011008,2022-02-15-06:08:22,10.1.1.5,21,-0.040,-0.040,-0.040,0.000,0.000,0.000
1644905302571866112,2022-02-15-06:08:22,10.1.1.5,30,-0.030,-0.030,-0.030,0.000,0.000,0.000
1644905302611678976,2022-02-15-06:08:22,10.1.1.5,19,-0.021,-0.021,-0.021,0.000,0.000,0.000
1644905302671250944,2022-02-15-06:08:22,10.1.1.5,27,-0.010,-0.010,-0.010,0.000,0.000,0.000
1644905302731899904,2022-02-15-06:08:22,10.1.1.5,36,0.000,0.000,0.000,0.000,0.000,0.000
1644905302771759872,2022-02-15-06:08:22,10.1.1.5,26,0.010,0.010,0.010,0.000,0.000,0.000
1644905302831332096,2022-02-15-06:08:22,10.1.1.5,35,0.020,0.020,0.020,0.000,0.000,0.000
1644905302871855872,2022-02-15-06:08:22,10.1.1.5,25,0.030,0.030,0.030,0.000,0.000,0.000
1644905302931374080,2022-02-15-06:08:22,10.1.1.5,34,0.040,0.040,0.040,0.000,0.000,0.000
1644905302971558144,2022-02-15-06:08:22,10.1.1.5,22,0.050,0.050,0.050,0.000,0.000,0.000
1644905303031738880,2022-02-15-06:08:23,10.1.1.5,31,0.060,0.060,0.060,0.000,0.000,0.000
1644905303072264960,2022-02-15-06:08:23,10.1.1.5,20,0.070,0.070,0.070,0.000,0.000,0.000
1644905303131934976,2022-02-15-06:08:23,10.1.1.5,29,0.080,0.080,0.080,0.000,0.000,0.000
1644905303192542976,2022-02-15-06:08:23,10.1.1.5,38,0.090,0.090,0.090,0.000,0.000,0.000
1644905303231784192,2022-02-15-06:08:23,10.1.1.5,27,0.100,0.100,0.100,0.000,0.000,0.000
1644905303295259904,2022-02-15-06:08:23,10.1.1.5,40,0.090,0.090,0.090,0.000,0.000,0.000
1644905303331457024,2022-02-15-06:08:23,10.1.1.5,25,0.080,0.080,0.080,0.000,0.000,0.000
1644905303392064000,2022-02-15-06:08:23,10.1.1.5,34,0.070,0.070,0.070,0.000,0.000,0.000
1644905303431469056,2022-02-15-06:08:23,10.1.1.5,24,0.060,0.060,0.060,0.000,0.000,0.000
1644905303491859968,2022-02-15-06:08:23,10.1.1.5,33,0.050,0.050,0.050,0.000,0.000,0.000
1644905303531363840,2022-02-15-06:08:23,10.1.1.5,22,0.040,0.040,0.040,0.000,0.000,0.000
1644905303591222016,2022-02-15-06:08:23,10.1.1.5,32,0.030,0.030,0.030,0.000,0.000,0.000
1644905303631314944,2022-02-15-06:08:23,10.1.1.5,21,0.020,0.020,0.020,0.000,0.000,0.000
1644905303691358208,2022-02-15-06:08:23,10.1.1.5,30,0.010,0.010,0.010,0.000,0.000,0.000
1644905303731968000,2022-02-15-06:08:23,10.1.1.5,20,0.000,0.000,0.000,0.000,0.000,0.000
1644905303796421120,2022-02-15-06:08:23,10.1.1.5,30,-0.010,-0.010,-0.010,0.000,0.000,0.000
1644905303853019904,2022-02-15-06:08:23,10.1.1.5,35,-0.020,-0.020,-0.020,0.000,0.000,0.000
1644905303891454976,2022-02-15-06:08:23,10.1.1.5,25,-0.030,-0.030,-0.030,0.000,0.000,0.000
1644905304016271104,2022-02-15-06:08:24,10.1.1.5,23,-0.050,-0.050,-0.050,0.000,0.000,0.000
1644905304071488000,2022-02-15-06:08:24,10.1.1.5,31,-0.060,-0.060,-0.060,0.000,0.000,0.000
1644905304111383040,2022-02-15-06:08:24,10.1.1.5,21,-0.070,-0.070,-0.070,0.000,0.000,0.000
1644905304171446016,2022-02-15-06:08:24,10.1.1.5,30,-0.080,-0.080,-0.080,0.000,0.000,0.000
1644905304212093184,2022-02-15-06:08:24,10.1.1.5,19,-0.089,-0.089,-0.089,0.000,0.000,0.000
1644905304273178112,2022-02-15-06:08:24,10.1.1.5,28,-0.100,-0.100,-0.100,0.000,0.000,0.000
1644905304332307200,2022-02-15-06:08:24,10.1.1.5,31,-0.090,-0.090,-0.090,0.000,0.000,0.000
1644905304391944960,2022-02-15-06:08:24,10.1.1.5,39,-0.080,-0.080,-0.080,0.000,0.000,0.000
1644905304431651072,2022-02-15-06:08:24,10.1.1.5,27,-0.070,-0.070,-0.070,0.000,0.000,0.000
1644905304491513856,2022-02-15-06:08:24,10.1.1.5,36,-0.060,-0.060,-0.060,0.000,0.000,0.000
1644905304531502080,2022-02-15-06:08:24,10.1.1.5,25,-0.050,-0.050,-0.050,0.000,0.000,0.000
1644905304591938048,2022-02-15-06:08:24,10.1.1.5,34,-0.040,-0.040,-0.040,0.000,0.000,0.000
1644905304631803904,2022-02-15-06:08:24,10.1.1.5,22,-0.030,-0.030,-0.030,0.000,0.000,0.000
1644905304694247936,2022-02-15-06:08:24,10.1.1.5,29,-0.020,-0.020,-0.020,0.000,0.000,0.000
