FedericoMungari/DigitalTwin_service/01_WiredScenario/Output/Output_script/script_rosapi_2_output_robots10_freq0_10.txt
timestamp,date,node,latency,joint_1,joint_2,joint_3,joint_4,joint_5,joint_6
1644362088460269056,2022-02-08-23:14:48,10.1.1.11,17,-0.100,-0.100,-0.100,0.000,0.000,0.000
1644362089081298176,2022-02-08-23:14:49,10.1.1.11,30,-0.040,-0.040,-0.040,0.000,0.000,0.000
1644362089180581120,2022-02-08-23:14:49,10.1.1.11,29,-0.030,-0.030,-0.030,0.000,0.000,0.000
1644362089280939008,2022-02-08-23:14:49,10.1.1.11,28,-0.020,-0.020,-0.020,0.000,0.000,0.000
1644362089380659968,2022-02-08-23:14:49,10.1.1.11,27,-0.010,-0.010,-0.010,0.000,0.000,0.000
1644362089482039808,2022-02-08-23:14:49,10.1.1.11,26,0.000,0.000,0.000,0.000,0.000,0.000
1644362089580594176,2022-02-08-23:14:49,10.1.1.11,26,0.010,0.010,0.010,0.000,0.000,0.000
1644362089680504064,2022-02-08-23:14:49,10.1.1.11,24,0.020,0.020,0.020,0.000,0.000,0.000
1644362090300726784,2022-02-08-23:14:50,10.1.1.11,39,0.080,0.080,0.080,0.000,0.000,0.000
1644362090400839936,2022-02-08-23:14:50,10.1.1.11,39,0.090,0.090,0.090,0.000,0.000,0.000
1644362090579768832,2022-02-08-23:14:50,10.1.1.11,17,0.090,0.090,0.090,0.000,0.000,0.000
1644362090700380928,2022-02-08-23:14:50,10.1.1.11,37,0.080,0.080,0.080,0.000,0.000,0.000
1644362090800878080,2022-02-08-23:14:50,10.1.1.11,36,0.070,0.070,0.070,0.000,0.000,0.000
1644362090901211136,2022-02-08-23:14:50,10.1.1.11,36,0.060,0.060,0.060,0.000,0.000,0.000
1644362091600536064,2022-02-08-23:14:51,10.1.1.11,29,-0.010,-0.010,-0.010,0.000,0.000,0.000
1644362091699735040,2022-02-08-23:14:51,10.1.1.11,28,-0.020,-0.020,-0.020,0.000,0.000,0.000
1644362091800800000,2022-02-08-23:14:51,10.1.1.11,28,-0.030,-0.030,-0.030,0.000,0.000,0.000
1644362091899454208,2022-02-08-23:14:51,10.1.1.11,27,-0.040,-0.040,-0.040,0.000,0.000,0.000
1644362091999862016,2022-02-08-23:14:51,10.1.1.11,26,-0.050,-0.050,-0.050,0.000,0.000,0.000
1644362092100080896,2022-02-08-23:14:52,10.1.1.11,26,-0.060,-0.060,-0.060,0.000,0.000,0.000
1644362092199789056,2022-02-08-23:14:52,10.1.1.11,25,-0.070,-0.070,-0.070,0.000,0.000,0.000
1644362092299973888,2022-02-08-23:14:52,10.1.1.11,25,-0.080,-0.080,-0.080,0.000,0.000,0.000
1644362092699489024,2022-02-08-23:14:52,10.1.1.11,19,-0.080,-0.080,-0.080,0.000,0.000,0.000
1644362092820615936,2022-02-08-23:14:52,10.1.1.11,39,-0.070,-0.070,-0.070,0.000,0.000,0.000
1644362092919635968,2022-02-08-23:14:52,10.1.1.11,39,-0.060,-0.060,-0.060,0.000,0.000,0.000
1644362093020070912,2022-02-08-23:14:53,10.1.1.11,38,-0.050,-0.050,-0.050,0.000,0.000,0.000
1644362093119926016,2022-02-08-23:14:53,10.1.1.11,37,-0.040,-0.040,-0.040,0.000,0.000,0.000
1644362093221353984,2022-02-08-23:14:53,10.1.1.11,35,-0.030,-0.030,-0.030,0.000,0.000,0.000
1644362093820497152,2022-02-08-23:14:53,10.1.1.11,30,0.030,0.030,0.030,0.000,0.000,0.000
1644362093919905024,2022-02-08-23:14:53,10.1.1.11,28,0.040,0.040,0.040,0.000,0.000,0.000
1644362094019897856,2022-02-08-23:14:54,10.1.1.11,27,0.050,0.050,0.050,0.000,0.000,0.000
1644362094120069120,2022-02-08-23:14:54,10.1.1.11,27,0.060,0.060,0.060,0.000,0.000,0.000
1644362094220051968,2022-02-08-23:14:54,10.1.1.11,26,0.070,0.070,0.070,0.000,0.000,0.000
1644362094321080064,2022-02-08-23:14:54,10.1.1.11,24,0.080,0.080,0.080,0.000,0.000,0.000
1644362094701155072,2022-02-08-23:14:54,10.1.1.11,2,0.080,0.080,0.080,0.000,0.000,0.000
1644362095121246976,2022-02-08-23:14:55,10.1.1.11,20,0.040,0.040,0.040,0.000,0.000,0.000
1644362095240005120,2022-02-08-23:14:55,10.1.1.11,39,0.030,0.030,0.030,0.000,0.000,0.000
1644362095340780032,2022-02-08-23:14:55,10.1.1.11,39,0.020,0.020,0.020,0.000,0.000,0.000
1644362095440146944,2022-02-08-23:14:55,10.1.1.11,38,0.010,0.010,0.010,0.000,0.000,0.000
1644362095540549120,2022-02-08-23:14:55,10.1.1.11,37,0.000,0.000,0.000,0.000,0.000,0.000
1644362095639894016,2022-02-08-23:14:55,10.1.1.11,37,-0.010,-0.010,-0.010,0.000,0.000,0.000
1644362095740192768,2022-02-08-23:14:55,10.1.1.11,36,-0.020,-0.020,-0.020,0.000,0.000,0.000
1644362095840572160,2022-02-08-23:14:55,10.1.1.11,35,-0.030,-0.030,-0.030,0.000,0.000,0.000
1644362096540504064,2022-02-08-23:14:56,10.1.1.11,29,-0.100,-0.100,-0.100,0.000,0.000,0.000
1644362096639444224,2022-02-08-23:14:56,10.1.1.11,28,-0.090,-0.090,-0.090,0.000,0.000,0.000
1644362096739602944,2022-02-08-23:14:56,10.1.1.11,28,-0.080,-0.080,-0.080,0.000,0.000,0.000
1644362096841350912,2022-02-08-23:14:56,10.1.1.11,-37,-0.080,-0.080,-0.080,0.000,0.000,0.000
1644362097283691776,2022-02-08-23:14:57,10.1.1.11,39,-0.030,-0.030,-0.030,0.000,0.000,0.000
1644362097380346112,2022-02-08-23:14:57,10.1.1.11,38,-0.020,-0.020,-0.020,0.000,0.000,0.000
1644362097480960000,2022-02-08-23:14:57,10.1.1.11,37,-0.010,-0.010,-0.010,0.000,0.000,0.000
1644362097580500992,2022-02-08-23:14:57,10.1.1.11,37,0.000,0.000,0.000,0.000,0.000,0.000
1644362097681435136,2022-02-08-23:14:57,10.1.1.11,36,0.010,0.010,0.010,0.000,0.000,0.000
1644362097780143104,2022-02-08-23:14:57,10.1.1.11,35,0.020,0.020,0.020,0.000,0.000,0.000
1644362097872193024,2022-02-08-23:14:57,10.1.1.11,-70,0.020,0.020,0.020,0.000,0.000,0.000
1644362098101545984,2022-02-08-23:14:58,10.1.1.11,29,0.050,0.050,0.050,0.000,0.000,0.000
1644362098200161024,2022-02-08-23:14:58,10.1.1.11,29,0.060,0.060,0.060,0.000,0.000,0.000
1644362098299910912,2022-02-08-23:14:58,10.1.1.11,28,0.070,0.070,0.070,0.000,0.000,0.000
1644362098400562944,2022-02-08-23:14:58,10.1.1.11,27,0.080,0.080,0.080,0.000,0.000,0.000
1644362098501494016,2022-02-08-23:14:58,10.1.1.11,27,0.090,0.090,0.090,0.000,0.000,0.000
1644362098600497920,2022-02-08-23:14:58,10.1.1.11,26,0.100,0.100,0.100,0.000,0.000,0.000
1644362098700865024,2022-02-08-23:14:58,10.1.1.11,25,0.090,0.090,0.090,0.000,0.000,0.000
1644362098800195840,2022-02-08-23:14:58,10.1.1.11,25,0.080,0.080,0.080,0.000,0.000,0.000
1644362099599659008,2022-02-08-23:14:59,10.1.1.11,19,0.000,0.000,0.000,0.000,0.000,0.000
1644362099820431104,2022-02-08-23:14:59,10.1.1.11,38,-0.020,-0.020,-0.020,0.000,0.000,0.000
1644362099920331008,2022-02-08-23:14:59,10.1.1.11,37,-0.030,-0.030,-0.030,0.000,0.000,0.000
1644362100022247168,2022-02-08-23:15:00,10.1.1.11,37,-0.040,-0.040,-0.040,0.000,0.000,0.000
1644362100120328960,2022-02-08-23:15:00,10.1.1.11,27,-0.050,-0.050,-0.050,0.000,0.000,0.000
1644362100219866112,2022-02-08-23:15:00,10.1.1.11,26,-0.060,-0.060,-0.060,0.000,0.000,0.000
1644362100319700992,2022-02-08-23:15:00,10.1.1.11,25,-0.070,-0.070,-0.070,0.000,0.000,0.000
1644362100720254976,2022-02-08-23:15:00,10.1.1.11,19,-0.090,-0.090,-0.090,0.000,0.000,0.000
1644362100847235840,2022-02-08-23:15:00,10.1.1.11,38,-0.080,-0.080,-0.080,0.000,0.000,0.000
1644362100940814080,2022-02-08-23:15:00,10.1.1.11,33,-0.070,-0.070,-0.070,0.000,0.000,0.000
1644362101843324928,2022-02-08-23:15:01,10.1.1.11,22,0.020,0.020,0.020,0.000,0.000,0.000
1644362101960880128,2022-02-08-23:15:01,10.1.1.11,38,0.030,0.030,0.030,0.000,0.000,0.000
1644362102061629184,2022-02-08-23:15:02,10.1.1.11,29,0.040,0.040,0.040,0.000,0.000,0.000
1644362102161363968,2022-02-08-23:15:02,10.1.1.11,29,0.050,0.050,0.050,0.000,0.000,0.000
1644362102260374016,2022-02-08-23:15:02,10.1.1.11,28,0.060,0.060,0.060,0.000,0.000,0.000
1644362102360302848,2022-02-08-23:15:02,10.1.1.11,27,0.070,0.070,0.070,0.000,0.000,0.000
1644362102461179904,2022-02-08-23:15:02,10.1.1.11,25,0.080,0.080,0.080,0.000,0.000,0.000
1644362102860601856,2022-02-08-23:15:02,10.1.1.11,20,0.080,0.080,0.080,0.000,0.000,0.000
1644362102980644096,2022-02-08-23:15:02,10.1.1.11,39,0.070,0.070,0.070,0.000,0.000,0.000
1644362103080502016,2022-02-08-23:15:03,10.1.1.11,39,0.060,0.060,0.060,0.000,0.000,0.000
1644362103180360192,2022-02-08-23:15:03,10.1.1.11,39,0.050,0.050,0.050,0.000,0.000,0.000
1644362103280356864,2022-02-08-23:15:03,10.1.1.11,37,0.040,0.040,0.040,0.000,0.000,0.000
1644362103380589056,2022-02-08-23:15:03,10.1.1.11,37,0.030,0.030,0.030,0.000,0.000,0.000
1644362103504157952,2022-02-08-23:15:03,10.1.1.11,36,0.020,0.020,0.020,0.000,0.000,0.000
1644362103579992064,2022-02-08-23:15:03,10.1.1.11,35,0.010,0.010,0.010,0.000,0.000,0.000
1644362104380157952,2022-02-08-23:15:04,10.1.1.11,29,-0.070,-0.070,-0.070,0.000,0.000,0.000
1644362104480624896,2022-02-08-23:15:04,10.1.1.11,28,-0.080,-0.080,-0.080,0.000,0.000,0.000
1644362104580516096,2022-02-08-23:15:04,10.1.1.11,28,-0.090,-0.090,-0.090,0.000,0.000,0.000
1644362104679971840,2022-02-08-23:15:04,10.1.1.11,27,-0.100,-0.100,-0.100,0.000,0.000,0.000
1644362104780443904,2022-02-08-23:15:04,10.1.1.11,25,-0.090,-0.090,-0.090,0.000,0.000,0.000
1644362104881287168,2022-02-08-23:15:04,10.1.1.11,25,-0.080,-0.080,-0.080,0.000,0.000,0.000
1644362105100594944,2022-02-08-23:15:05,10.1.1.11,36,-0.060,-0.060,-0.060,0.000,0.000,0.000
1644362105200211968,2022-02-08-23:15:05,10.1.1.11,35,-0.050,-0.050,-0.050,0.000,0.000,0.000
1644362105415334912,2022-02-08-23:15:05,10.1.1.11,34,-0.030,-0.030,-0.030,0.000,0.000,0.000
1644362106100157952,2022-02-08-23:15:06,10.1.1.11,28,0.040,0.040,0.040,0.000,0.000,0.000
1644362106200002048,2022-02-08-23:15:06,10.1.1.11,27,0.050,0.050,0.050,0.000,0.000,0.000
1644362106299990784,2022-02-08-23:15:06,10.1.1.11,26,0.060,0.060,0.060,0.000,0.000,0.000
1644362106400258048,2022-02-08-23:15:06,10.1.1.11,25,0.070,0.070,0.070,0.000,0.000,0.000
1644362106800136192,2022-02-08-23:15:06,10.1.1.11,20,0.090,0.090,0.090,0.000,0.000,0.000
1644362106920427008,2022-02-08-23:15:06,10.1.1.11,40,0.080,0.080,0.080,0.000,0.000,0.000
1644362107020195072,2022-02-08-23:15:07,10.1.1.11,38,0.070,0.070,0.070,0.000,0.000,0.000
1644362107120136960,2022-02-08-23:15:07,10.1.1.11,38,0.060,0.060,0.060,0.000,0.000,0.000
1644362107219950848,2022-02-08-23:15:07,10.1.1.11,38,0.050,0.050,0.050,0.000,0.000,0.000
1644362107320497920,2022-02-08-23:15:07,10.1.1.11,37,0.040,0.040,0.040,0.000,0.000,0.000
1644362107419825152,2022-02-08-23:15:07,10.1.1.11,36,0.030,0.030,0.030,0.000,0.000,0.000
1644362107520445952,2022-02-08-23:15:07,10.1.1.11,35,0.020,0.020,0.020,0.000,0.000,0.000
1644362107920169216,2022-02-08-23:15:07,10.1.1.11,28,-0.020,-0.020,-0.020,0.000,0.000,0.000
1644362108020155904,2022-02-08-23:15:08,10.1.1.11,27,-0.030,-0.030,-0.030,0.000,0.000,0.000
1644362108120102912,2022-02-08-23:15:08,10.1.1.11,26,-0.040,-0.040,-0.040,0.000,0.000,0.000
1644362108220305920,2022-02-08-23:15:08,10.1.1.11,25,-0.050,-0.050,-0.050,0.000,0.000,0.000
1644362108320025088,2022-02-08-23:15:08,10.1.1.11,25,-0.060,-0.060,-0.060,0.000,0.000,0.000
1644362108920763904,2022-02-08-23:15:08,10.1.1.11,19,-0.080,-0.080,-0.080,0.000,0.000,0.000
1644362109040456960,2022-02-08-23:15:09,10.1.1.11,39,-0.070,-0.070,-0.070,0.000,0.000,0.000
1644362109140249088,2022-02-08-23:15:09,10.1.1.11,38,-0.060,-0.060,-0.060,0.000,0.000,0.000
1644362109240077056,2022-02-08-23:15:09,10.1.1.11,38,-0.050,-0.050,-0.050,0.000,0.000,0.000
1644362109340401920,2022-02-08-23:15:09,10.1.1.11,37,-0.040,-0.040,-0.040,0.000,0.000,0.000
1644362109440615936,2022-02-08-23:15:09,10.1.1.11,37,-0.030,-0.030,-0.030,0.000,0.000,0.000
1644362109540451072,2022-02-08-23:15:09,10.1.1.11,36,-0.020,-0.020,-0.020,0.000,0.000,0.000
1644362109640155904,2022-02-08-23:15:09,10.1.1.11,36,-0.010,-0.010,-0.010,0.000,0.000,0.000
1644362110140711936,2022-02-08-23:15:10,10.1.1.11,30,0.040,0.040,0.040,0.000,0.000,0.000
1644362110239665152,2022-02-08-23:15:10,10.1.1.11,28,0.050,0.050,0.050,0.000,0.000,0.000
1644362110440043008,2022-02-08-23:15:10,10.1.1.11,25,0.070,0.070,0.070,0.000,0.000,0.000
1644362110860084992,2022-02-08-23:15:10,10.1.1.11,39,0.090,0.090,0.090,0.000,0.000,0.000
1644362110959800832,2022-02-08-23:15:10,10.1.1.11,39,0.080,0.080,0.080,0.000,0.000,0.000
1644362111059845888,2022-02-08-23:15:11,10.1.1.11,38,0.070,0.070,0.070,0.000,0.000,0.000
1644362111159905792,2022-02-08-23:15:11,10.1.1.11,37,0.060,0.060,0.060,0.000,0.000,0.000
1644362111260718080,2022-02-08-23:15:11,10.1.1.11,36,0.050,0.050,0.050,0.000,0.000,0.000
1644362111860403968,2022-02-08-23:15:11,10.1.1.11,29,-0.010,-0.010,-0.010,0.000,0.000,0.000
1644362111960210944,2022-02-08-23:15:11,10.1.1.11,27,-0.020,-0.020,-0.020,0.000,0.000,0.000
1644362112060249088,2022-02-08-23:15:12,10.1.1.11,27,-0.030,-0.030,-0.030,0.000,0.000,0.000
1644362112160530944,2022-02-08-23:15:12,10.1.1.11,25,-0.040,-0.040,-0.040,0.000,0.000,0.000
1644362112259855104,2022-02-08-23:15:12,10.1.1.11,24,-0.050,-0.050,-0.050,0.000,0.000,0.000
1644362112980571136,2022-02-08-23:15:12,10.1.1.11,39,-0.080,-0.080,-0.080,0.000,0.000,0.000
1644362113080092928,2022-02-08-23:15:13,10.1.1.11,38,-0.070,-0.070,-0.070,0.000,0.000,0.000
1644362113180044800,2022-02-08-23:15:13,10.1.1.11,37,-0.060,-0.060,-0.060,0.000,0.000,0.000
1644362113279921152,2022-02-08-23:15:13,10.1.1.11,37,-0.050,-0.050,-0.050,0.000,0.000,0.000
1644362114079816960,2022-02-08-23:15:14,10.1.1.11,29,0.030,0.030,0.030,0.000,0.000,0.000
1644362114180020992,2022-02-08-23:15:14,10.1.1.11,28,0.040,0.040,0.040,0.000,0.000,0.000
1644362114280195072,2022-02-08-23:15:14,10.1.1.11,27,0.050,0.050,0.050,0.000,0.000,0.000
1644362114380398080,2022-02-08-23:15:14,10.1.1.11,27,0.060,0.060,0.060,0.000,0.000,0.000
1644362114480151040,2022-02-08-23:15:14,10.1.1.11,25,0.070,0.070,0.070,0.000,0.000,0.000
1644362114580302848,2022-02-08-23:15:14,10.1.1.11,25,0.080,0.080,0.080,0.000,0.000,0.000
1644362114960227840,2022-02-08-23:15:14,10.1.1.11,2,0.080,0.080,0.080,0.000,0.000,0.000
1644362115480060160,2022-02-08-23:15:15,10.1.1.11,20,0.030,0.030,0.030,0.000,0.000,0.000
1644362115600344832,2022-02-08-23:15:15,10.1.1.11,39,0.020,0.020,0.020,0.000,0.000,0.000
1644362115700581120,2022-02-08-23:15:15,10.1.1.11,38,0.010,0.010,0.010,0.000,0.000,0.000
1644362115800497152,2022-02-08-23:15:15,10.1.1.11,38,0.000,0.000,0.000,0.000,0.000,0.000
1644362115900994048,2022-02-08-23:15:15,10.1.1.11,37,-0.010,-0.010,-0.010,0.000,0.000,0.000
1644362115999737856,2022-02-08-23:15:15,10.1.1.11,36,-0.020,-0.020,-0.020,0.000,0.000,0.000
1644362116099756032,2022-02-08-23:15:16,10.1.1.11,25,-0.030,-0.030,-0.030,0.000,0.000,0.000
1644362116428386048,2022-02-08-23:15:16,10.1.1.11,28,-0.060,-0.060,-0.060,0.000,0.000,0.000
1644362116520183040,2022-02-08-23:15:16,10.1.1.11,27,-0.070,-0.070,-0.070,0.000,0.000,0.000
1644362116620727040,2022-02-08-23:15:16,10.1.1.11,26,-0.080,-0.080,-0.080,0.000,0.000,0.000
1644362116720016896,2022-02-08-23:15:16,10.1.1.11,26,-0.090,-0.090,-0.090,0.000,0.000,0.000
1644362116820558080,2022-02-08-23:15:16,10.1.1.11,25,-0.100,-0.100,-0.100,0.000,0.000,0.000
1644362117420192000,2022-02-08-23:15:17,10.1.1.11,19,-0.040,-0.040,-0.040,0.000,0.000,0.000
1644362117540440064,2022-02-08-23:15:17,10.1.1.11,39,-0.030,-0.030,-0.030,0.000,0.000,0.000
1644362117640166144,2022-02-08-23:15:17,10.1.1.11,38,-0.020,-0.020,-0.020,0.000,0.000,0.000
1644362117739967232,2022-02-08-23:15:17,10.1.1.11,38,-0.010,-0.010,-0.010,0.000,0.000,0.000
1644362118539459072,2022-02-08-23:15:18,10.1.1.11,29,0.070,0.070,0.070,0.000,0.000,0.000
1644362118639983872,2022-02-08-23:15:18,10.1.1.11,28,0.080,0.080,0.080,0.000,0.000,0.000
1644362118739439104,2022-02-08-23:15:18,10.1.1.11,28,0.090,0.090,0.090,0.000,0.000,0.000
1644362118840045824,2022-02-08-23:15:18,10.1.1.11,27,0.100,0.100,0.100,0.000,0.000,0.000
1644362118940056064,2022-02-08-23:15:18,10.1.1.11,26,0.090,0.090,0.090,0.000,0.000,0.000
1644362119359703040,2022-02-08-23:15:19,10.1.1.11,37,0.050,0.050,0.050,0.000,0.000,0.000
1644362119459936000,2022-02-08-23:15:19,10.1.1.11,37,0.040,0.040,0.040,0.000,0.000,0.000
1644362119560261888,2022-02-08-23:15:19,10.1.1.11,36,0.030,0.030,0.030,0.000,0.000,0.000
1644362119660615936,2022-02-08-23:15:19,10.1.1.11,35,0.020,0.020,0.020,0.000,0.000,0.000
1644362119979624960,2022-02-08-23:15:19,10.1.1.11,38,-0.010,-0.010,-0.010,0.000,0.000,0.000
1644362120080104960,2022-02-08-23:15:20,10.1.1.11,37,-0.020,-0.020,-0.020,0.000,0.000,0.000
1644362120279555072,2022-02-08-23:15:20,10.1.1.11,35,-0.040,-0.040,-0.040,0.000,0.000,0.000
1644362120681679104,2022-02-08-23:15:20,10.1.1.11,29,-0.080,-0.080,-0.080,0.000,0.000,0.000
1644362120780574976,2022-02-08-23:15:20,10.1.1.11,28,-0.090,-0.090,-0.090,0.000,0.000,0.000
1644362120881859072,2022-02-08-23:15:20,10.1.1.11,28,-0.100,-0.100,-0.100,0.000,0.000,0.000
1644362120980823040,2022-02-08-23:15:20,10.1.1.11,27,-0.090,-0.090,-0.090,0.000,0.000,0.000
1644362121080861952,2022-02-08-23:15:21,10.1.1.11,26,-0.080,-0.080,-0.080,0.000,0.000,0.000
1644362121181224960,2022-02-08-23:15:21,10.1.1.11,25,-0.070,-0.070,-0.070,0.000,0.000,0.000
1644362121281618944,2022-02-08-23:15:21,10.1.1.11,25,-0.060,-0.060,-0.060,0.000,0.000,0.000
1644362121700422912,2022-02-08-23:15:21,10.1.1.11,39,-0.020,-0.020,-0.020,0.000,0.000,0.000
1644362121799902976,2022-02-08-23:15:21,10.1.1.11,38,-0.010,-0.010,-0.010,0.000,0.000,0.000
1644362121932388096,2022-02-08-23:15:21,10.1.1.11,30,0.000,0.000,0.000,0.000,0.000,0.000
1644362122000884992,2022-02-08-23:15:22,10.1.1.11,29,0.010,0.010,0.010,0.000,0.000,0.000
1644362122101690112,2022-02-08-23:15:22,10.1.1.11,28,0.020,0.020,0.020,0.000,0.000,0.000
1644362122200130816,2022-02-08-23:15:22,10.1.1.11,28,0.030,0.030,0.030,0.000,0.000,0.000
1644362122300193024,2022-02-08-23:15:22,10.1.1.11,27,0.040,0.040,0.040,0.000,0.000,0.000
1644362122399878144,2022-02-08-23:15:22,10.1.1.11,26,0.050,0.050,0.050,0.000,0.000,0.000
1644362122500247040,2022-02-08-23:15:22,10.1.1.11,26,0.060,0.060,0.060,0.000,0.000,0.000
1644362122600989184,2022-02-08-23:15:22,10.1.1.11,26,0.070,0.070,0.070,0.000,0.000,0.000
1644362122700519168,2022-02-08-23:15:22,10.1.1.11,25,0.080,0.080,0.080,0.000,0.000,0.000
1644362123081492992,2022-02-08-23:15:23,10.1.1.11,3,0.080,0.080,0.080,0.000,0.000,0.000
1644362123720345856,2022-02-08-23:15:23,10.1.1.11,40,0.020,0.020,0.020,0.000,0.000,0.000
1644362123820389888,2022-02-08-23:15:23,10.1.1.11,39,0.010,0.010,0.010,0.000,0.000,0.000
1644362123919421952,2022-02-08-23:15:23,10.1.1.11,39,0.000,0.000,0.000,0.000,0.000,0.000
1644362124020172032,2022-02-08-23:15:24,10.1.1.11,38,-0.010,-0.010,-0.010,0.000,0.000,0.000
1644362124120003072,2022-02-08-23:15:24,10.1.1.11,37,-0.020,-0.020,-0.020,0.000,0.000,0.000
1644362124220508160,2022-02-08-23:15:24,10.1.1.11,37,-0.030,-0.030,-0.030,0.000,0.000,0.000
1644362124321865984,2022-02-08-23:15:24,10.1.1.11,37,-0.040,-0.040,-0.040,0.000,0.000,0.000
1644362124420221952,2022-02-08-23:15:24,10.1.1.11,36,-0.050,-0.050,-0.050,0.000,0.000,0.000
1644362124519951104,2022-02-08-23:15:24,10.1.1.11,35,-0.060,-0.060,-0.060,0.000,0.000,0.000
1644362124720614912,2022-02-08-23:15:24,10.1.1.11,29,-0.080,-0.080,-0.080,0.000,0.000,0.000
1644362124820175872,2022-02-08-23:15:24,10.1.1.11,28,-0.090,-0.090,-0.090,0.000,0.000,0.000
1644362124919961856,2022-02-08-23:15:24,10.1.1.11,27,-0.100,-0.100,-0.100,0.000,0.000,0.000
1644362125021655040,2022-02-08-23:15:25,10.1.1.11,26,-0.090,-0.090,-0.090,0.000,0.000,0.000
1644362125119653888,2022-02-08-23:15:25,10.1.1.11,26,-0.080,-0.080,-0.080,0.000,0.000,0.000
1644362125220187904,2022-02-08-23:15:25,10.1.1.11,25,-0.070,-0.070,-0.070,0.000,0.000,0.000
1644362125940485120,2022-02-08-23:15:25,10.1.1.11,38,0.000,0.000,0.000,0.000,0.000,0.000
1644362126040374016,2022-02-08-23:15:26,10.1.1.11,37,0.010,0.010,0.010,0.000,0.000,0.000
1644362126140168960,2022-02-08-23:15:26,10.1.1.11,36,0.020,0.020,0.020,0.000,0.000,0.000
1644362126239641856,2022-02-08-23:15:26,10.1.1.11,35,0.030,0.030,0.030,0.000,0.000,0.000
1644362127039920128,2022-02-08-23:15:27,10.1.1.11,29,0.090,0.090,0.090,0.000,0.000,0.000
1644362127140253952,2022-02-08-23:15:27,10.1.1.11,29,0.080,0.080,0.080,0.000,0.000,0.000
1644362127239804928,2022-02-08-23:15:27,10.1.1.11,29,0.070,0.070,0.070,0.000,0.000,0.000
1644362127341135104,2022-02-08-23:15:27,10.1.1.11,28,0.060,0.060,0.060,0.000,0.000,0.000
1644362127440459008,2022-02-08-23:15:27,10.1.1.11,28,0.050,0.050,0.050,0.000,0.000,0.000
1644362127539390208,2022-02-08-23:15:27,10.1.1.11,27,0.040,0.040,0.040,0.000,0.000,0.000
1644362127639998976,2022-02-08-23:15:27,10.1.1.11,27,0.030,0.030,0.030,0.000,0.000,0.000
1644362127740417024,2022-02-08-23:15:27,10.1.1.11,26,0.020,0.020,0.020,0.000,0.000,0.000
1644362127839760128,2022-02-08-23:15:27,10.1.1.11,26,0.010,0.010,0.010,0.000,0.000,0.000
1644362127959745024,2022-02-08-23:15:27,10.1.1.11,45,0.000,0.000,0.000,0.000,0.000,0.000
1644362128559951104,2022-02-08-23:15:28,10.1.1.11,40,-0.060,-0.060,-0.060,0.000,0.000,0.000
1644362128660173824,2022-02-08-23:15:28,10.1.1.11,39,-0.070,-0.070,-0.070,0.000,0.000,0.000
1644362128765408000,2022-02-08-23:15:28,10.1.1.11,39,-0.080,-0.080,-0.080,0.000,0.000,0.000
1644362128863241984,2022-02-08-23:15:28,10.1.1.11,38,-0.090,-0.090,-0.090,0.000,0.000,0.000
1644362128959950080,2022-02-08-23:15:28,10.1.1.11,37,-0.100,-0.100,-0.100,0.000,0.000,0.000
1644362129059761152,2022-02-08-23:15:29,10.1.1.11,36,-0.090,-0.090,-0.090,0.000,0.000,0.000
1644362129161648896,2022-02-08-23:15:29,10.1.1.11,35,-0.080,-0.080,-0.080,0.000,0.000,0.000
1644362129959918080,2022-02-08-23:15:29,10.1.1.11,28,0.000,0.000,0.000,0.000,0.000,0.000
1644362130059771904,2022-02-08-23:15:30,10.1.1.11,27,0.010,0.010,0.010,0.000,0.000,0.000
1644362130159955968,2022-02-08-23:15:30,10.1.1.11,27,0.020,0.020,0.020,0.000,0.000,0.000
1644362130259740160,2022-02-08-23:15:30,10.1.1.11,27,0.030,0.030,0.030,0.000,0.000,0.000
1644362130360024832,2022-02-08-23:15:30,10.1.1.11,26,0.040,0.040,0.040,0.000,0.000,0.000
1644362130460077056,2022-02-08-23:15:30,10.1.1.11,25,0.050,0.050,0.050,0.000,0.000,0.000
1644362131411793920,2022-02-08-23:15:31,10.1.1.11,38,0.060,0.060,0.060,0.000,0.000,0.000
1644362131479481088,2022-02-08-23:15:31,10.1.1.11,37,0.050,0.050,0.050,0.000,0.000,0.000
1644362131580112896,2022-02-08-23:15:31,10.1.1.11,36,0.040,0.040,0.040,0.000,0.000,0.000
1644362131680025088,2022-02-08-23:15:31,10.1.1.11,36,0.030,0.030,0.030,0.000,0.000,0.000
1644362131783006976,2022-02-08-23:15:31,10.1.1.11,35,0.020,0.020,0.020,0.000,0.000,0.000
1644362131880251904,2022-02-08-23:15:31,10.1.1.11,34,0.010,0.010,0.010,0.000,0.000,0.000
1644362132680443136,2022-02-08-23:15:32,10.1.1.11,28,-0.070,-0.070,-0.070,0.000,0.000,0.000
1644362132780369152,2022-02-08-23:15:32,10.1.1.11,28,-0.080,-0.080,-0.080,0.000,0.000,0.000
1644362132880173824,2022-02-08-23:15:32,10.1.1.11,27,-0.090,-0.090,-0.090,0.000,0.000,0.000
1644362133000111104,2022-02-08-23:15:33,10.1.1.11,47,-0.100,-0.100,-0.100,0.000,0.000,0.000
1644362133080537088,2022-02-08-23:15:33,10.1.1.11,26,-0.090,-0.090,-0.090,0.000,0.000,0.000
1644362133180047872,2022-02-08-23:15:33,10.1.1.11,26,-0.080,-0.080,-0.080,0.000,0.000,0.000
1644362133280148992,2022-02-08-23:15:33,10.1.1.11,25,-0.070,-0.070,-0.070,0.000,0.000,0.000
1644362133380692992,2022-02-08-23:15:33,10.1.1.11,25,-0.060,-0.060,-0.060,0.000,0.000,0.000
1644362134179795968,2022-02-08-23:15:34,10.1.1.11,19,0.020,0.020,0.020,0.000,0.000,0.000
1644362134300060928,2022-02-08-23:15:34,10.1.1.11,39,0.030,0.030,0.030,0.000,0.000,0.000
1644362134399763200,2022-02-08-23:15:34,10.1.1.11,38,0.040,0.040,0.040,0.000,0.000,0.000
1644362134500532992,2022-02-08-23:15:34,10.1.1.11,37,0.050,0.050,0.050,0.000,0.000,0.000
1644362134600614912,2022-02-08-23:15:34,10.1.1.11,37,0.060,0.060,0.060,0.000,0.000,0.000
1644362134700741120,2022-02-08-23:15:34,10.1.1.11,37,0.070,0.070,0.070,0.000,0.000,0.000
1644362134799819008,2022-02-08-23:15:34,10.1.1.11,36,0.080,0.080,0.080,0.000,0.000,0.000
1644362134900548864,2022-02-08-23:15:34,10.1.1.11,36,0.090,0.090,0.090,0.000,0.000,0.000
1644362135000768000,2022-02-08-23:15:35,10.1.1.11,35,0.100,0.100,0.100,0.000,0.000,0.000
1644362135100584960,2022-02-08-23:15:35,10.1.1.11,35,0.090,0.090,0.090,0.000,0.000,0.000
1644362135400756992,2022-02-08-23:15:35,10.1.1.11,33,0.060,0.060,0.060,0.000,0.000,0.000
1644362136199619072,2022-02-08-23:15:36,10.1.1.11,29,-0.020,-0.020,-0.020,0.000,0.000,0.000
1644362136300502016,2022-02-08-23:15:36,10.1.1.11,28,-0.030,-0.030,-0.030,0.000,0.000,0.000
1644362136399833088,2022-02-08-23:15:36,10.1.1.11,27,-0.040,-0.040,-0.040,0.000,0.000,0.000
1644362136503927040,2022-02-08-23:15:36,10.1.1.11,27,-0.050,-0.050,-0.050,0.000,0.000,0.000
1644362136599705856,2022-02-08-23:15:36,10.1.1.11,26,-0.060,-0.060,-0.060,0.000,0.000,0.000
1644362136699908864,2022-02-08-23:15:36,10.1.1.11,26,-0.070,-0.070,-0.070,0.000,0.000,0.000
1644362137219356160,2022-02-08-23:15:37,10.1.1.11,39,-0.080,-0.080,-0.080,0.000,0.000,0.000
1644362137320421888,2022-02-08-23:15:37,10.1.1.11,39,-0.070,-0.070,-0.070,0.000,0.000,0.000
1644362137420109056,2022-02-08-23:15:37,10.1.1.11,38,-0.060,-0.060,-0.060,0.000,0.000,0.000
1644362137520221952,2022-02-08-23:15:37,10.1.1.11,38,-0.050,-0.050,-0.050,0.000,0.000,0.000
1644362137619859968,2022-02-08-23:15:37,10.1.1.11,37,-0.040,-0.040,-0.040,0.000,0.000,0.000
1644362137719557888,2022-02-08-23:15:37,10.1.1.11,36,-0.030,-0.030,-0.030,0.000,0.000,0.000
1644362137820465920,2022-02-08-23:15:37,10.1.1.11,36,-0.020,-0.020,-0.020,0.000,0.000,0.000
1644362137919902208,2022-02-08-23:15:37,10.1.1.11,35,-0.010,-0.010,-0.010,0.000,0.000,0.000
1644362138819962112,2022-02-08-23:15:38,10.1.1.11,29,0.080,0.080,0.080,0.000,0.000,0.000
1644362138920237056,2022-02-08-23:15:38,10.1.1.11,29,0.090,0.090,0.090,0.000,0.000,0.000
1644362139019741952,2022-02-08-23:15:39,10.1.1.11,28,0.100,0.100,0.100,0.000,0.000,0.000
1644362139119677184,2022-02-08-23:15:39,10.1.1.11,27,0.090,0.090,0.090,0.000,0.000,0.000
1644362139219964928,2022-02-08-23:15:39,10.1.1.11,27,0.080,0.080,0.080,0.000,0.000,0.000
1644362139319476992,2022-02-08-23:15:39,10.1.1.11,25,0.070,0.070,0.070,0.000,0.000,0.000
1644362139420325888,2022-02-08-23:15:39,10.1.1.11,25,0.060,0.060,0.060,0.000,0.000,0.000
1644362140239625984,2022-02-08-23:15:40,10.1.1.11,39,-0.020,-0.020,-0.020,0.000,0.000,0.000
1644362140341617152,2022-02-08-23:15:40,10.1.1.11,38,-0.030,-0.030,-0.030,0.000,0.000,0.000
1644362140439599104,2022-02-08-23:15:40,10.1.1.11,37,-0.040,-0.040,-0.040,0.000,0.000,0.000
1644362140539490048,2022-02-08-23:15:40,10.1.1.11,36,-0.050,-0.050,-0.050,0.000,0.000,0.000
1644362141539864064,2022-02-08-23:15:41,10.1.1.11,20,-0.050,-0.050,-0.050,0.000,0.000,0.000
1644362141660178944,2022-02-08-23:15:41,10.1.1.11,39,-0.040,-0.040,-0.040,0.000,0.000,0.000
1644362141760603904,2022-02-08-23:15:41,10.1.1.11,39,-0.030,-0.030,-0.030,0.000,0.000,0.000
1644362141860371968,2022-02-08-23:15:41,10.1.1.11,38,-0.020,-0.020,-0.020,0.000,0.000,0.000
1644362141959820032,2022-02-08-23:15:41,10.1.1.11,38,-0.010,-0.010,-0.010,0.000,0.000,0.000
1644362142060368896,2022-02-08-23:15:42,10.1.1.11,38,0.000,0.000,0.000,0.000,0.000,0.000
1644362142159676160,2022-02-08-23:15:42,10.1.1.11,37,0.010,0.010,0.010,0.000,0.000,0.000
1644362142259728896,2022-02-08-23:15:42,10.1.1.11,36,0.020,0.020,0.020,0.000,0.000,0.000
1644362142359972096,2022-02-08-23:15:42,10.1.1.11,36,0.030,0.030,0.030,0.000,0.000,0.000
1644362142460231168,2022-02-08-23:15:42,10.1.1.11,35,0.040,0.040,0.040,0.000,0.000,0.000
1644362142559916032,2022-02-08-23:15:42,10.1.1.11,34,0.050,0.050,0.050,0.000,0.000,0.000
1644362143460077056,2022-02-08-23:15:43,10.1.1.11,29,0.060,0.060,0.060,0.000,0.000,0.000
1644362143559956992,2022-02-08-23:15:43,10.1.1.11,29,0.050,0.050,0.050,0.000,0.000,0.000
1644362143659694080,2022-02-08-23:15:43,10.1.1.11,26,0.040,0.040,0.040,0.000,0.000,0.000
1644362143759852800,2022-02-08-23:15:43,10.1.1.11,26,0.030,0.030,0.030,0.000,0.000,0.000
1644362143860135936,2022-02-08-23:15:43,10.1.1.11,25,0.020,0.020,0.020,0.000,0.000,0.000
1644362143963316992,2022-02-08-23:15:43,10.1.1.11,25,0.010,0.010,0.010,0.000,0.000,0.000
1644362144779558912,2022-02-08-23:15:44,10.1.1.11,39,-0.070,-0.070,-0.070,0.000,0.000,0.000
1644362144880000000,2022-02-08-23:15:44,10.1.1.11,39,-0.080,-0.080,-0.080,0.000,0.000,0.000
1644362144980684032,2022-02-08-23:15:44,10.1.1.11,38,-0.090,-0.090,-0.090,0.000,0.000,0.000
1644362145080066816,2022-02-08-23:15:45,10.1.1.11,38,-0.100,-0.100,-0.100,0.000,0.000,0.000
1644362145179613952,2022-02-08-23:15:45,10.1.1.11,37,-0.090,-0.090,-0.090,0.000,0.000,0.000
1644362145279982080,2022-02-08-23:15:45,10.1.1.11,36,-0.080,-0.080,-0.080,0.000,0.000,0.000
1644362145379728128,2022-02-08-23:15:45,10.1.1.11,36,-0.070,-0.070,-0.070,0.000,0.000,0.000
1644362145479964928,2022-02-08-23:15:45,10.1.1.11,35,-0.060,-0.060,-0.060,0.000,0.000,0.000
1644362145579611904,2022-02-08-23:15:45,10.1.1.11,34,-0.050,-0.050,-0.050,0.000,0.000,0.000
1644362145879511040,2022-02-08-23:15:45,10.1.1.11,33,-0.020,-0.020,-0.020,0.000,0.000,0.000
1644362146480227072,2022-02-08-23:15:46,10.1.1.11,27,0.040,0.040,0.040,0.000,0.000,0.000
1644362146580002048,2022-02-08-23:15:46,10.1.1.11,26,0.050,0.050,0.050,0.000,0.000,0.000
1644362146680552960,2022-02-08-23:15:46,10.1.1.11,25,0.060,0.060,0.060,0.000,0.000,0.000
1644362147480637952,2022-02-08-23:15:47,10.1.1.11,10,0.060,0.060,0.060,0.000,0.000,0.000
1644362147600111104,2022-02-08-23:15:47,10.1.1.11,28,0.050,0.050,0.050,0.000,0.000,0.000
1644362147699678976,2022-02-08-23:15:47,10.1.1.11,25,0.040,0.040,0.040,0.000,0.000,0.000
1644362147800015872,2022-02-08-23:15:47,10.1.1.11,25,0.030,0.030,0.030,0.000,0.000,0.000
1644362148100090112,2022-02-08-23:15:48,10.1.1.11,20,0.000,0.000,0.000,0.000,0.000,0.000
1644362148200304896,2022-02-08-23:15:48,10.1.1.11,19,-0.010,-0.010,-0.010,0.000,0.000,0.000
1644362148427685120,2022-02-08-23:15:48,10.1.1.11,29,-0.030,-0.030,-0.030,0.000,0.000,0.000
1644362148520034048,2022-02-08-23:15:48,10.1.1.11,29,-0.040,-0.040,-0.040,0.000,0.000,0.000
1644362148639840000,2022-02-08-23:15:48,10.1.1.11,27,-0.050,-0.050,-0.050,0.000,0.000,0.000
1644362148739682048,2022-02-08-23:15:48,10.1.1.11,26,-0.060,-0.060,-0.060,0.000,0.000,0.000
1644362148839757056,2022-02-08-23:15:48,10.1.1.11,26,-0.070,-0.070,-0.070,0.000,0.000,0.000
1644362149421811968,2022-02-08-23:15:49,10.1.1.11,3,-0.070,-0.070,-0.070,0.000,0.000,0.000
1644362149660297984,2022-02-08-23:15:49,10.1.1.11,39,-0.050,-0.050,-0.050,0.000,0.000,0.000
1644362149762449920,2022-02-08-23:15:49,10.1.1.11,38,-0.040,-0.040,-0.040,0.000,0.000,0.000
1644362149893980928,2022-02-08-23:15:49,10.1.1.11,37,-0.030,-0.030,-0.030,0.000,0.000,0.000
1644362149960241152,2022-02-08-23:15:49,10.1.1.11,37,-0.020,-0.020,-0.020,0.000,0.000,0.000
1644362150059638016,2022-02-08-23:15:50,10.1.1.11,36,-0.010,-0.010,-0.010,0.000,0.000,0.000
1644362150159683840,2022-02-08-23:15:50,10.1.1.11,35,0.000,0.000,0.000,0.000,0.000,0.000
1644362150260015104,2022-02-08-23:15:50,10.1.1.11,35,0.010,0.010,0.010,0.000,0.000,0.000
1644362150360454144,2022-02-08-23:15:50,10.1.1.11,34,0.020,0.020,0.020,0.000,0.000,0.000
1644362150960044032,2022-02-08-23:15:50,10.1.1.11,29,0.080,0.080,0.080,0.000,0.000,0.000
1644362151060858112,2022-02-08-23:15:51,10.1.1.11,28,0.090,0.090,0.090,0.000,0.000,0.000
1644362151159940864,2022-02-08-23:15:51,10.1.1.11,27,0.100,0.100,0.100,0.000,0.000,0.000
1644362151260327936,2022-02-08-23:15:51,10.1.1.11,26,0.090,0.090,0.090,0.000,0.000,0.000
1644362151360753152,2022-02-08-23:15:51,10.1.1.11,25,0.080,0.080,0.080,0.000,0.000,0.000
1644362151461270016,2022-02-08-23:15:51,10.1.1.11,25,0.070,0.070,0.070,0.000,0.000,0.000
1644362151999464960,2022-02-08-23:15:51,10.1.1.11,28,0.020,0.020,0.020,0.000,0.000,0.000
1644362152100101120,2022-02-08-23:15:52,10.1.1.11,28,0.010,0.010,0.010,0.000,0.000,0.000
1644362152200444928,2022-02-08-23:15:52,10.1.1.11,27,0.000,0.000,0.000,0.000,0.000,0.000
1644362152301518848,2022-02-08-23:15:52,10.1.1.11,27,-0.010,-0.010,-0.010,0.000,0.000,0.000
1644362152400867072,2022-02-08-23:15:52,10.1.1.11,27,-0.020,-0.020,-0.020,0.000,0.000,0.000
1644362152500339968,2022-02-08-23:15:52,10.1.1.11,26,-0.030,-0.030,-0.030,0.000,0.000,0.000
1644362152599912960,2022-02-08-23:15:52,10.1.1.11,26,-0.040,-0.040,-0.040,0.000,0.000,0.000
1644362152700336896,2022-02-08-23:15:52,10.1.1.11,25,-0.050,-0.050,-0.050,0.000,0.000,0.000
1644362153740890880,2022-02-08-23:15:53,10.1.1.11,21,-0.050,-0.050,-0.050,0.000,0.000,0.000
1644362154159756032,2022-02-08-23:15:54,10.1.1.11,37,-0.010,-0.010,-0.010,0.000,0.000,0.000
1644362154260428800,2022-02-08-23:15:54,10.1.1.11,37,0.000,0.000,0.000,0.000,0.000,0.000
1644362154359447040,2022-02-08-23:15:54,10.1.1.11,36,0.010,0.010,0.010,0.000,0.000,0.000
1644362154459979008,2022-02-08-23:15:54,10.1.1.11,36,0.020,0.020,0.020,0.000,0.000,0.000
1644362155360070912,2022-02-08-23:15:55,10.1.1.11,28,0.090,0.090,0.090,0.000,0.000,0.000
1644362155460349184,2022-02-08-23:15:55,10.1.1.11,25,0.080,0.080,0.080,0.000,0.000,0.000
1644362156580084992,2022-02-08-23:15:56,10.1.1.11,39,-0.030,-0.030,-0.030,0.000,0.000,0.000
1644362156680224768,2022-02-08-23:15:56,10.1.1.11,38,-0.040,-0.040,-0.040,0.000,0.000,0.000
1644362156779465984,2022-02-08-23:15:56,10.1.1.11,37,-0.050,-0.050,-0.050,0.000,0.000,0.000
1644362156879360000,2022-02-08-23:15:56,10.1.1.11,37,-0.060,-0.060,-0.060,0.000,0.000,0.000
1644362156980133888,2022-02-08-23:15:56,10.1.1.11,36,-0.070,-0.070,-0.070,0.000,0.000,0.000
1644362157079592960,2022-02-08-23:15:57,10.1.1.11,35,-0.080,-0.080,-0.080,0.000,0.000,0.000
1644362157460092928,2022-02-08-23:15:57,10.1.1.11,11,-0.080,-0.080,-0.080,0.000,0.000,0.000
1644362157879769088,2022-02-08-23:15:57,10.1.1.11,29,-0.040,-0.040,-0.040,0.000,0.000,0.000
1644362157979744000,2022-02-08-23:15:57,10.1.1.11,28,-0.030,-0.030,-0.030,0.000,0.000,0.000
1644362158079542016,2022-02-08-23:15:58,10.1.1.11,28,-0.020,-0.020,-0.020,0.000,0.000,0.000
1644362158179568896,2022-02-08-23:15:58,10.1.1.11,27,-0.010,-0.010,-0.010,0.000,0.000,0.000
1644362158279876096,2022-02-08-23:15:58,10.1.1.11,27,0.000,0.000,0.000,0.000,0.000,0.000
1644362158379923968,2022-02-08-23:15:58,10.1.1.11,27,0.010,0.010,0.010,0.000,0.000,0.000
1644362158480495104,2022-02-08-23:15:58,10.1.1.11,26,0.020,0.020,0.020,0.000,0.000,0.000
1644362158579699968,2022-02-08-23:15:58,10.1.1.11,25,0.030,0.030,0.030,0.000,0.000,0.000
1644362158679907072,2022-02-08-23:15:58,10.1.1.11,25,0.040,0.040,0.040,0.000,0.000,0.000
1644362158779570944,2022-02-08-23:15:58,10.1.1.11,24,0.050,0.050,0.050,0.000,0.000,0.000
1644362159579844864,2022-02-08-23:15:59,10.1.1.11,20,0.070,0.070,0.070,0.000,0.000,0.000
1644362159679835136,2022-02-08-23:15:59,10.1.1.11,19,0.060,0.060,0.060,0.000,0.000,0.000
1644362159799597056,2022-02-08-23:15:59,10.1.1.11,39,0.050,0.050,0.050,0.000,0.000,0.000
1644362159900585984,2022-02-08-23:15:59,10.1.1.11,39,0.040,0.040,0.040,0.000,0.000,0.000
1644362159999411200,2022-02-08-23:15:59,10.1.1.11,38,0.030,0.030,0.030,0.000,0.000,0.000
1644362160099720960,2022-02-08-23:16:00,10.1.1.11,38,0.020,0.020,0.020,0.000,0.000,0.000
1644362160200041984,2022-02-08-23:16:00,10.1.1.11,37,0.010,0.010,0.010,0.000,0.000,0.000
1644362160299568896,2022-02-08-23:16:00,10.1.1.11,37,0.000,0.000,0.000,0.000,0.000,0.000
1644362160400227072,2022-02-08-23:16:00,10.1.1.11,36,-0.010,-0.010,-0.010,0.000,0.000,0.000
1644362160500754944,2022-02-08-23:16:00,10.1.1.11,36,-0.020,-0.020,-0.020,0.000,0.000,0.000
1644362160600090112,2022-02-08-23:16:00,10.1.1.11,35,-0.030,-0.030,-0.030,0.000,0.000,0.000
1644362160699380992,2022-02-08-23:16:00,10.1.1.11,35,-0.040,-0.040,-0.040,0.000,0.000,0.000
1644362161600336128,2022-02-08-23:16:01,10.1.1.11,29,-0.070,-0.070,-0.070,0.000,0.000,0.000
1644362161699505920,2022-02-08-23:16:01,10.1.1.11,27,-0.060,-0.060,-0.060,0.000,0.000,0.000
1644362161799449856,2022-02-08-23:16:01,10.1.1.11,27,-0.050,-0.050,-0.050,0.000,0.000,0.000
1644362161899817984,2022-02-08-23:16:01,10.1.1.11,27,-0.040,-0.040,-0.040,0.000,0.000,0.000
1644362161999713792,2022-02-08-23:16:01,10.1.1.11,26,-0.030,-0.030,-0.030,0.000,0.000,0.000
1644362162100691968,2022-02-08-23:16:02,10.1.1.11,26,-0.020,-0.020,-0.020,0.000,0.000,0.000
1644362162200231168,2022-02-08-23:16:02,10.1.1.11,25,-0.010,-0.010,-0.010,0.000,0.000,0.000
1644362162899406080,2022-02-08-23:16:02,10.1.1.11,19,0.060,0.060,0.060,0.000,0.000,0.000
1644362163019437056,2022-02-08-23:16:03,10.1.1.11,38,0.070,0.070,0.070,0.000,0.000,0.000
1644362163119739136,2022-02-08-23:16:03,10.1.1.11,37,0.080,0.080,0.080,0.000,0.000,0.000
1644362163220195072,2022-02-08-23:16:03,10.1.1.11,37,0.090,0.090,0.090,0.000,0.000,0.000
1644362163319823872,2022-02-08-23:16:03,10.1.1.11,36,0.100,0.100,0.100,0.000,0.000,0.000
1644362163420449024,2022-02-08-23:16:03,10.1.1.11,36,0.090,0.090,0.090,0.000,0.000,0.000
1644362163520699904,2022-02-08-23:16:03,10.1.1.11,35,0.080,0.080,0.080,0.000,0.000,0.000
1644362164520477952,2022-02-08-23:16:04,10.1.1.11,30,-0.020,-0.020,-0.020,0.000,0.000,0.000
1644362164720146944,2022-02-08-23:16:04,10.1.1.11,28,-0.040,-0.040,-0.040,0.000,0.000,0.000
1644362164820000768,2022-02-08-23:16:04,10.1.1.11,28,-0.050,-0.050,-0.050,0.000,0.000,0.000
1644362164919565824,2022-02-08-23:16:04,10.1.1.11,27,-0.060,-0.060,-0.060,0.000,0.000,0.000
1644362165019740160,2022-02-08-23:16:05,10.1.1.11,26,-0.070,-0.070,-0.070,0.000,0.000,0.000
1644362165119582976,2022-02-08-23:16:05,10.1.1.11,26,-0.080,-0.080,-0.080,0.000,0.000,0.000
1644362165219911168,2022-02-08-23:16:05,10.1.1.11,25,-0.090,-0.090,-0.090,0.000,0.000,0.000
1644362165399840000,2022-02-08-23:16:05,10.1.1.11,4,-0.090,-0.090,-0.090,0.000,0.000,0.000
1644362166239682816,2022-02-08-23:16:06,10.1.1.11,40,-0.010,-0.010,-0.010,0.000,0.000,0.000
1644362166339742976,2022-02-08-23:16:06,10.1.1.11,39,-0.000,-0.000,-0.000,0.000,0.000,0.000
1644362166440139008,2022-02-08-23:16:06,10.1.1.11,38,0.010,0.010,0.010,0.000,0.000,0.000
1644362166539565056,2022-02-08-23:16:06,10.1.1.11,37,0.020,0.020,0.020,0.000,0.000,0.000
1644362166640214016,2022-02-08-23:16:06,10.1.1.11,37,0.030,0.030,0.030,0.000,0.000,0.000
1644362166840781056,2022-02-08-23:16:06,10.1.1.11,36,0.050,0.050,0.050,0.000,0.000,0.000
1644362167239456768,2022-02-08-23:16:07,10.1.1.11,32,0.090,0.090,0.090,0.000,0.000,0.000
1644362167420450048,2022-02-08-23:16:07,10.1.1.11,11,0.090,0.090,0.090,0.000,0.000,0.000
1644362167639969024,2022-02-08-23:16:07,10.1.1.11,29,0.070,0.070,0.070,0.000,0.000,0.000
1644362167739473152,2022-02-08-23:16:07,10.1.1.11,29,0.060,0.060,0.060,0.000,0.000,0.000
1644362167839844096,2022-02-08-23:16:07,10.1.1.11,28,0.050,0.050,0.050,0.000,0.000,0.000
1644362167939857920,2022-02-08-23:16:07,10.1.1.11,28,0.040,0.040,0.040,0.000,0.000,0.000
1644362168040289024,2022-02-08-23:16:08,10.1.1.11,26,0.030,0.030,0.030,0.000,0.000,0.000
1644362168139518976,2022-02-08-23:16:08,10.1.1.11,25,0.020,0.020,0.020,0.000,0.000,0.000
1644362169159900928,2022-02-08-23:16:09,10.1.1.11,40,-0.080,-0.080,-0.080,0.000,0.000,0.000
1644362169260381952,2022-02-08-23:16:09,10.1.1.11,39,-0.090,-0.090,-0.090,0.000,0.000,0.000
1644362169359985152,2022-02-08-23:16:09,10.1.1.11,38,-0.100,-0.100,-0.100,0.000,0.000,0.000
1644362169459502080,2022-02-08-23:16:09,10.1.1.11,37,-0.090,-0.090,-0.090,0.000,0.000,0.000
1644362169559516928,2022-02-08-23:16:09,10.1.1.11,36,-0.080,-0.080,-0.080,0.000,0.000,0.000
1644362169660468224,2022-02-08-23:16:09,10.1.1.11,35,-0.070,-0.070,-0.070,0.000,0.000,0.000
1644362169759564032,2022-02-08-23:16:09,10.1.1.11,35,-0.060,-0.060,-0.060,0.000,0.000,0.000
1644362170759610880,2022-02-08-23:16:10,10.1.1.11,30,0.040,0.040,0.040,0.000,0.000,0.000
1644362170860038912,2022-02-08-23:16:10,10.1.1.11,30,0.050,0.050,0.050,0.000,0.000,0.000
1644362170960033792,2022-02-08-23:16:10,10.1.1.11,29,0.060,0.060,0.060,0.000,0.000,0.000
1644362171060141056,2022-02-08-23:16:11,10.1.1.11,29,0.070,0.070,0.070,0.000,0.000,0.000
1644362171159981056,2022-02-08-23:16:11,10.1.1.11,28,0.080,0.080,0.080,0.000,0.000,0.000
1644362171260466176,2022-02-08-23:16:11,10.1.1.11,27,0.090,0.090,0.090,0.000,0.000,0.000
1644362171359646976,2022-02-08-23:16:11,10.1.1.11,26,0.100,0.100,0.100,0.000,0.000,0.000
1644362171459534848,2022-02-08-23:16:11,10.1.1.11,26,0.090,0.090,0.090,0.000,0.000,0.000
1644362171560017152,2022-02-08-23:16:11,10.1.1.11,25,0.080,0.080,0.080,0.000,0.000,0.000
1644362171659784192,2022-02-08-23:16:11,10.1.1.11,25,0.070,0.070,0.070,0.000,0.000,0.000
1644362171759772160,2022-02-08-23:16:11,10.1.1.11,25,0.060,0.060,0.060,0.000,0.000,0.000
1644362172779932928,2022-02-08-23:16:12,10.1.1.11,39,-0.040,-0.040,-0.040,0.000,0.000,0.000
1644362172879677952,2022-02-08-23:16:12,10.1.1.11,38,-0.050,-0.050,-0.050,0.000,0.000,0.000
1644362172980203008,2022-02-08-23:16:12,10.1.1.11,37,-0.060,-0.060,-0.060,0.000,0.000,0.000
1644362173079699968,2022-02-08-23:16:13,10.1.1.11,37,-0.070,-0.070,-0.070,0.000,0.000,0.000
1644362173179625984,2022-02-08-23:16:13,10.1.1.11,36,-0.080,-0.080,-0.080,0.000,0.000,0.000
1644362173284903936,2022-02-08-23:16:13,10.1.1.11,36,-0.090,-0.090,-0.090,0.000,0.000,0.000
1644362173380285952,2022-02-08-23:16:13,10.1.1.11,35,-0.100,-0.100,-0.100,0.000,0.000,0.000
1644362174279588864,2022-02-08-23:16:14,10.1.1.11,29,-0.010,-0.010,-0.010,0.000,0.000,0.000
1644362174380361984,2022-02-08-23:16:14,10.1.1.11,29,0.000,0.000,0.000,0.000,0.000,0.000
1644362174479894016,2022-02-08-23:16:14,10.1.1.11,28,0.010,0.010,0.010,0.000,0.000,0.000
1644362174580486144,2022-02-08-23:16:14,10.1.1.11,28,0.020,0.020,0.020,0.000,0.000,0.000
1644362174680049920,2022-02-08-23:16:14,10.1.1.11,27,0.030,0.030,0.030,0.000,0.000,0.000
1644362174780226048,2022-02-08-23:16:14,10.1.1.11,27,0.040,0.040,0.040,0.000,0.000,0.000
1644362174879568128,2022-02-08-23:16:14,10.1.1.11,26,0.050,0.050,0.050,0.000,0.000,0.000
1644362174979554048,2022-02-08-23:16:14,10.1.1.11,26,0.060,0.060,0.060,0.000,0.000,0.000
1644362175080032000,2022-02-08-23:16:15,10.1.1.11,26,0.070,0.070,0.070,0.000,0.000,0.000
1644362175181255168,2022-02-08-23:16:15,10.1.1.11,25,0.080,0.080,0.080,0.000,0.000,0.000
1644362175579822080,2022-02-08-23:16:15,10.1.1.11,20,0.080,0.080,0.080,0.000,0.000,0.000
1644362175680077056,2022-02-08-23:16:15,10.1.1.11,19,0.070,0.070,0.070,0.000,0.000,0.000
1644362175799838976,2022-02-08-23:16:15,10.1.1.11,39,0.060,0.060,0.060,0.000,0.000,0.000
1644362175899899904,2022-02-08-23:16:15,10.1.1.11,38,0.050,0.050,0.050,0.000,0.000,0.000
1644362176000452096,2022-02-08-23:16:16,10.1.1.11,38,0.040,0.040,0.040,0.000,0.000,0.000
1644362176100003840,2022-02-08-23:16:16,10.1.1.11,37,0.030,0.030,0.030,0.000,0.000,0.000
1644362176200562944,2022-02-08-23:16:16,10.1.1.11,37,0.020,0.020,0.020,0.000,0.000,0.000
1644362176299505920,2022-02-08-23:16:16,10.1.1.11,36,0.010,0.010,0.010,0.000,0.000,0.000
1644362176400148992,2022-02-08-23:16:16,10.1.1.11,35,0.000,0.000,0.000,0.000,0.000,0.000
1644362176500047872,2022-02-08-23:16:16,10.1.1.11,35,-0.010,-0.010,-0.010,0.000,0.000,0.000
1644362177401022976,2022-02-08-23:16:17,10.1.1.11,29,-0.100,-0.100,-0.100,0.000,0.000,0.000
1644362177500560896,2022-02-08-23:16:17,10.1.1.11,29,-0.090,-0.090,-0.090,0.000,0.000,0.000
1644362177600474112,2022-02-08-23:16:17,10.1.1.11,28,-0.080,-0.080,-0.080,0.000,0.000,0.000
1644362177699493888,2022-02-08-23:16:17,10.1.1.11,27,-0.070,-0.070,-0.070,0.000,0.000,0.000
1644362177799827968,2022-02-08-23:16:17,10.1.1.11,26,-0.060,-0.060,-0.060,0.000,0.000,0.000
1644362177899676160,2022-02-08-23:16:17,10.1.1.11,26,-0.050,-0.050,-0.050,0.000,0.000,0.000
1644362177999453184,2022-02-08-23:16:17,10.1.1.11,25,-0.040,-0.040,-0.040,0.000,0.000,0.000
1644362178999250944,2022-02-08-23:16:18,10.1.1.11,20,0.060,0.060,0.060,0.000,0.000,0.000
1644362179120118016,2022-02-08-23:16:19,10.1.1.11,39,0.070,0.070,0.070,0.000,0.000,0.000
1644362179219439104,2022-02-08-23:16:19,10.1.1.11,38,0.080,0.080,0.080,0.000,0.000,0.000
1644362179319582976,2022-02-08-23:16:19,10.1.1.11,37,0.090,0.090,0.090,0.000,0.000,0.000
1644362179420461056,2022-02-08-23:16:19,10.1.1.11,37,0.100,0.100,0.100,0.000,0.000,0.000
1644362179519601152,2022-02-08-23:16:19,10.1.1.11,35,0.090,0.090,0.090,0.000,0.000,0.000
1644362180619670016,2022-02-08-23:16:20,10.1.1.11,29,-0.020,-0.020,-0.020,0.000,0.000,0.000
1644362180719504128,2022-02-08-23:16:20,10.1.1.11,29,-0.030,-0.030,-0.030,0.000,0.000,0.000
1644362180819680000,2022-02-08-23:16:20,10.1.1.11,28,-0.040,-0.040,-0.040,0.000,0.000,0.000
1644362180919419136,2022-02-08-23:16:20,10.1.1.11,28,-0.050,-0.050,-0.050,0.000,0.000,0.000
1644362181019813120,2022-02-08-23:16:21,10.1.1.11,27,-0.060,-0.060,-0.060,0.000,0.000,0.000
1644362181119544064,2022-02-08-23:16:21,10.1.1.11,26,-0.070,-0.070,-0.070,0.000,0.000,0.000
1644362181219544832,2022-02-08-23:16:21,10.1.1.11,26,-0.080,-0.080,-0.080,0.000,0.000,0.000
1644362181319598848,2022-02-08-23:16:21,10.1.1.11,26,-0.090,-0.090,-0.090,0.000,0.000,0.000
1644362181420593920,2022-02-08-23:16:21,10.1.1.11,26,-0.100,-0.100,-0.100,0.000,0.000,0.000
1644362181519664896,2022-02-08-23:16:21,10.1.1.11,25,-0.090,-0.090,-0.090,0.000,0.000,0.000
1644362182620126976,2022-02-08-23:16:22,10.1.1.11,20,0.020,0.020,0.020,0.000,0.000,0.000
1644362182739758848,2022-02-08-23:16:22,10.1.1.11,39,0.030,0.030,0.030,0.000,0.000,0.000
1644362182839667968,2022-02-08-23:16:22,10.1.1.11,39,0.040,0.040,0.040,0.000,0.000,0.000
1644362182939431936,2022-02-08-23:16:22,10.1.1.11,38,0.050,0.050,0.050,0.000,0.000,0.000
1644362183039753984,2022-02-08-23:16:23,10.1.1.11,37,0.060,0.060,0.060,0.000,0.000,0.000
1644362183139970048,2022-02-08-23:16:23,10.1.1.11,37,0.070,0.070,0.070,0.000,0.000,0.000
1644362183239608064,2022-02-08-23:16:23,10.1.1.11,36,0.080,0.080,0.080,0.000,0.000,0.000
1644362183340152064,2022-02-08-23:16:23,10.1.1.11,36,0.090,0.090,0.090,0.000,0.000,0.000
1644362183439681024,2022-02-08-23:16:23,10.1.1.11,35,0.100,0.100,0.100,0.000,0.000,0.000
1644362184239661824,2022-02-08-23:16:24,10.1.1.11,28,0.020,0.020,0.020,0.000,0.000,0.000
1644362184340231936,2022-02-08-23:16:24,10.1.1.11,28,0.010,0.010,0.010,0.000,0.000,0.000
1644362184439681024,2022-02-08-23:16:24,10.1.1.11,28,0.000,0.000,0.000,0.000,0.000,0.000
1644362184539484928,2022-02-08-23:16:24,10.1.1.11,27,-0.010,-0.010,-0.010,0.000,0.000,0.000
1644362184639878912,2022-02-08-23:16:24,10.1.1.11,27,-0.020,-0.020,-0.020,0.000,0.000,0.000
1644362184740205056,2022-02-08-23:16:24,10.1.1.11,26,-0.030,-0.030,-0.030,0.000,0.000,0.000
1644362184839608064,2022-02-08-23:16:24,10.1.1.11,26,-0.040,-0.040,-0.040,0.000,0.000,0.000
1644362184939981056,2022-02-08-23:16:24,10.1.1.11,25,-0.050,-0.050,-0.050,0.000,0.000,0.000
1644362185039372800,2022-02-08-23:16:25,10.1.1.11,25,-0.060,-0.060,-0.060,0.000,0.000,0.000
1644362185139681024,2022-02-08-23:16:25,10.1.1.11,24,-0.070,-0.070,-0.070,0.000,0.000,0.000
1644362185739272192,2022-02-08-23:16:25,10.1.1.11,21,-0.070,-0.070,-0.070,0.000,0.000,0.000
1644362186039429888,2022-02-08-23:16:26,10.1.1.11,20,-0.040,-0.040,-0.040,0.000,0.000,0.000
1644362186140068096,2022-02-08-23:16:26,10.1.1.11,19,-0.031,-0.031,-0.031,0.000,0.000,0.000
1644362186259407872,2022-02-08-23:16:26,10.1.1.11,39,-0.020,-0.020,-0.020,0.000,0.000,0.000
1644362186359321088,2022-02-08-23:16:26,10.1.1.11,38,-0.010,-0.010,-0.010,0.000,0.000,0.000
1644362186459382016,2022-02-08-23:16:26,10.1.1.11,38,0.000,0.000,0.000,0.000,0.000,0.000
1644362186559446016,2022-02-08-23:16:26,10.1.1.11,37,0.010,0.010,0.010,0.000,0.000,0.000
1644362186659672064,2022-02-08-23:16:26,10.1.1.11,37,0.020,0.020,0.020,0.000,0.000,0.000
1644362186759446016,2022-02-08-23:16:26,10.1.1.11,36,0.030,0.030,0.030,0.000,0.000,0.000
1644362186865046016,2022-02-08-23:16:26,10.1.1.11,36,0.040,0.040,0.040,0.000,0.000,0.000
1644362186959686144,2022-02-08-23:16:26,10.1.1.11,35,0.050,0.050,0.050,0.000,0.000,0.000
1644362187759591168,2022-02-08-23:16:27,10.1.1.11,29,0.070,0.070,0.070,0.000,0.000,0.000
1644362187860073216,2022-02-08-23:16:27,10.1.1.11,29,0.060,0.060,0.060,0.000,0.000,0.000
1644362187959570944,2022-02-08-23:16:27,10.1.1.11,28,0.050,0.050,0.050,0.000,0.000,0.000
1644362188059428864,2022-02-08-23:16:28,10.1.1.11,28,0.040,0.040,0.040,0.000,0.000,0.000
1644362188159642880,2022-02-08-23:16:28,10.1.1.11,27,0.030,0.030,0.030,0.000,0.000,0.000
1644362188259869184,2022-02-08-23:16:28,10.1.1.11,27,0.020,0.020,0.020,0.000,0.000,0.000
1644362188359535872,2022-02-08-23:16:28,10.1.1.11,26,0.010,0.010,0.010,0.000,0.000,0.000
1644362188460102144,2022-02-08-23:16:28,10.1.1.11,26,0.000,0.000,0.000,0.000,0.000,0.000
1644362188560656128,2022-02-08-23:16:28,10.1.1.11,25,-0.010,-0.010,-0.010,0.000,0.000,0.000
1644362189179403008,2022-02-08-23:16:29,10.1.1.11,39,-0.070,-0.070,-0.070,0.000,0.000,0.000
1644362189280977920,2022-02-08-23:16:29,10.1.1.11,39,-0.080,-0.080,-0.080,0.000,0.000,0.000
1644362189379784192,2022-02-08-23:16:29,10.1.1.11,38,-0.090,-0.090,-0.090,0.000,0.000,0.000
1644362189480300800,2022-02-08-23:16:29,10.1.1.11,37,-0.100,-0.100,-0.100,0.000,0.000,0.000
1644362189580115200,2022-02-08-23:16:29,10.1.1.11,37,-0.090,-0.090,-0.090,0.000,0.000,0.000
1644362189679910912,2022-02-08-23:16:29,10.1.1.11,37,-0.080,-0.080,-0.080,0.000,0.000,0.000
1644362189779682048,2022-02-08-23:16:29,10.1.1.11,36,-0.070,-0.070,-0.070,0.000,0.000,0.000
1644362189880705024,2022-02-08-23:16:29,10.1.1.11,36,-0.060,-0.060,-0.060,0.000,0.000,0.000
1644362189979911936,2022-02-08-23:16:29,10.1.1.11,35,-0.050,-0.050,-0.050,0.000,0.000,0.000
1644362190979558912,2022-02-08-23:16:30,10.1.1.11,29,0.050,0.050,0.050,0.000,0.000,0.000
1644362191080172032,2022-02-08-23:16:31,10.1.1.11,28,0.060,0.060,0.060,0.000,0.000,0.000
1644362191179379968,2022-02-08-23:16:31,10.1.1.11,28,0.070,0.070,0.070,0.000,0.000,0.000
1644362191279787008,2022-02-08-23:16:31,10.1.1.11,27,0.080,0.080,0.080,0.000,0.000,0.000
1644362191379995136,2022-02-08-23:16:31,10.1.1.11,26,0.090,0.090,0.090,0.000,0.000,0.000
1644362191480129024,2022-02-08-23:16:31,10.1.1.11,26,0.100,0.100,0.100,0.000,0.000,0.000
1644362191579830016,2022-02-08-23:16:31,10.1.1.11,25,0.090,0.090,0.090,0.000,0.000,0.000
1644362192899612928,2022-02-08-23:16:32,10.1.1.11,29,-0.040,-0.040,-0.040,0.000,0.000,0.000
1644362193000176896,2022-02-08-23:16:33,10.1.1.11,28,-0.050,-0.050,-0.050,0.000,0.000,0.000
1644362193100451072,2022-02-08-23:16:33,10.1.1.11,27,-0.060,-0.060,-0.060,0.000,0.000,0.000
1644362193200321024,2022-02-08-23:16:33,10.1.1.11,26,-0.070,-0.070,-0.070,0.000,0.000,0.000
1644362193300327168,2022-02-08-23:16:33,10.1.1.11,26,-0.080,-0.080,-0.080,0.000,0.000,0.000
1644362193400325888,2022-02-08-23:16:33,10.1.1.11,25,-0.090,-0.090,-0.090,0.000,0.000,0.000
1644362193599994880,2022-02-08-23:16:33,10.1.1.11,22,-0.090,-0.090,-0.090,0.000,0.000,0.000
1644362194019827968,2022-02-08-23:16:34,10.1.1.11,39,-0.050,-0.050,-0.050,0.000,0.000,0.000
1644362194119718144,2022-02-08-23:16:34,10.1.1.11,38,-0.040,-0.040,-0.040,0.000,0.000,0.000
1644362194220272896,2022-02-08-23:16:34,10.1.1.11,38,-0.030,-0.030,-0.030,0.000,0.000,0.000
1644362194319570176,2022-02-08-23:16:34,10.1.1.11,37,-0.020,-0.020,-0.020,0.000,0.000,0.000
1644362194419894016,2022-02-08-23:16:34,10.1.1.11,36,-0.010,-0.010,-0.010,0.000,0.000,0.000
1644362194519810048,2022-02-08-23:16:34,10.1.1.11,36,0.000,0.000,0.000,0.000,0.000,0.000
1644362194620361216,2022-02-08-23:16:34,10.1.1.11,35,0.010,0.010,0.010,0.000,0.000,0.000
1644362194719822848,2022-02-08-23:16:34,10.1.1.11,34,0.020,0.020,0.020,0.000,0.000,0.000
1644362195320271872,2022-02-08-23:16:35,10.1.1.11,29,0.080,0.080,0.080,0.000,0.000,0.000
1644362195419899904,2022-02-08-23:16:35,10.1.1.11,28,0.090,0.090,0.090,0.000,0.000,0.000
1644362195519675136,2022-02-08-23:16:35,10.1.1.11,27,0.100,0.100,0.100,0.000,0.000,0.000
1644362195620332032,2022-02-08-23:16:35,10.1.1.11,27,0.090,0.090,0.090,0.000,0.000,0.000
1644362195720408064,2022-02-08-23:16:35,10.1.1.11,25,0.080,0.080,0.080,0.000,0.000,0.000
1644362196140091904,2022-02-08-23:16:36,10.1.1.11,39,0.040,0.040,0.040,0.000,0.000,0.000
1644362196239890176,2022-02-08-23:16:36,10.1.1.11,38,0.030,0.030,0.030,0.000,0.000,0.000
1644362196339756032,2022-02-08-23:16:36,10.1.1.11,37,0.020,0.020,0.020,0.000,0.000,0.000
1644362196439953152,2022-02-08-23:16:36,10.1.1.11,37,0.010,0.010,0.010,0.000,0.000,0.000
1644362196539534080,2022-02-08-23:16:36,10.1.1.11,36,0.000,0.000,0.000,0.000,0.000,0.000
1644362196639570944,2022-02-08-23:16:36,10.1.1.11,35,-0.010,-0.010,-0.010,0.000,0.000,0.000
1644362197439831040,2022-02-08-23:16:37,10.1.1.11,28,-0.090,-0.090,-0.090,0.000,0.000,0.000
1644362197539920128,2022-02-08-23:16:37,10.1.1.11,27,-0.100,-0.100,-0.100,0.000,0.000,0.000
1644362197639493888,2022-02-08-23:16:37,10.1.1.11,26,-0.090,-0.090,-0.090,0.000,0.000,0.000
1644362197739720960,2022-02-08-23:16:37,10.1.1.11,26,-0.080,-0.080,-0.080,0.000,0.000,0.000
1644362197839979008,2022-02-08-23:16:37,10.1.1.11,25,-0.070,-0.070,-0.070,0.000,0.000,0.000
1644362198659982080,2022-02-08-23:16:38,10.1.1.11,39,0.010,0.010,0.010,0.000,0.000,0.000
1644362198759448064,2022-02-08-23:16:38,10.1.1.11,38,0.020,0.020,0.020,0.000,0.000,0.000
1644362198859833856,2022-02-08-23:16:38,10.1.1.11,37,0.030,0.030,0.030,0.000,0.000,0.000
1644362198960052992,2022-02-08-23:16:38,10.1.1.11,37,0.040,0.040,0.040,0.000,0.000,0.000
1644362199159708928,2022-02-08-23:16:39,10.1.1.11,36,0.060,0.060,0.060,0.000,0.000,0.000
1644362199260761856,2022-02-08-23:16:39,10.1.1.11,35,0.070,0.070,0.070,0.000,0.000,0.000
1644362199359653120,2022-02-08-23:16:39,10.1.1.11,34,0.080,0.080,0.080,0.000,0.000,0.000
1644362199740397824,2022-02-08-23:16:39,10.1.1.11,11,0.080,0.080,0.080,0.000,0.000,0.000
1644362200159870976,2022-02-08-23:16:40,10.1.1.11,28,0.040,0.040,0.040,0.000,0.000,0.000
1644362200259512064,2022-02-08-23:16:40,10.1.1.11,27,0.030,0.030,0.030,0.000,0.000,0.000
1644362200359369984,2022-02-08-23:16:40,10.1.1.11,26,0.020,0.020,0.020,0.000,0.000,0.000
1644362200459891200,2022-02-08-23:16:40,10.1.1.11,25,0.010,0.010,0.010,0.000,0.000,0.000
1644362200559760128,2022-02-08-23:16:40,10.1.1.11,25,0.000,0.000,0.000,0.000,0.000,0.000
1644362201480093952,2022-02-08-23:16:41,10.1.1.11,39,-0.090,-0.090,-0.090,0.000,0.000,0.000
1644362201580051968,2022-02-08-23:16:41,10.1.1.11,38,-0.100,-0.100,-0.100,0.000,0.000,0.000
1644362201679710976,2022-02-08-23:16:41,10.1.1.11,37,-0.090,-0.090,-0.090,0.000,0.000,0.000
1644362201779419904,2022-02-08-23:16:41,10.1.1.11,36,-0.080,-0.080,-0.080,0.000,0.000,0.000
1644362201880062208,2022-02-08-23:16:41,10.1.1.11,36,-0.070,-0.070,-0.070,0.000,0.000,0.000
1644362202680339968,2022-02-08-23:16:42,10.1.1.11,29,0.010,0.010,0.010,0.000,0.000,0.000
1644362202780334080,2022-02-08-23:16:42,10.1.1.11,28,0.020,0.020,0.020,0.000,0.000,0.000
1644362202879998976,2022-02-08-23:16:42,10.1.1.11,28,0.030,0.030,0.030,0.000,0.000,0.000
1644362202979908864,2022-02-08-23:16:42,10.1.1.11,27,0.040,0.040,0.040,0.000,0.000,0.000
1644362203079956992,2022-02-08-23:16:43,10.1.1.11,26,0.050,0.050,0.050,0.000,0.000,0.000
1644362203180221184,2022-02-08-23:16:43,10.1.1.11,25,0.060,0.060,0.060,0.000,0.000,0.000
1644362203280078848,2022-02-08-23:16:43,10.1.1.11,24,0.070,0.070,0.070,0.000,0.000,0.000
1644362203880346112,2022-02-08-23:16:43,10.1.1.11,19,0.070,0.070,0.070,0.000,0.000,0.000
1644362203999404032,2022-02-08-23:16:43,10.1.1.11,39,0.060,0.060,0.060,0.000,0.000,0.000
1644362204099433984,2022-02-08-23:16:44,10.1.1.11,38,0.050,0.050,0.050,0.000,0.000,0.000
1644362204199144960,2022-02-08-23:16:44,10.1.1.11,36,0.040,0.040,0.040,0.000,0.000,0.000
1644362204299977984,2022-02-08-23:16:44,10.1.1.11,36,0.030,0.030,0.030,0.000,0.000,0.000
1644362204400265984,2022-02-08-23:16:44,10.1.1.11,35,0.020,0.020,0.020,0.000,0.000,0.000
1644362204500442112,2022-02-08-23:16:44,10.1.1.11,35,0.010,0.010,0.010,0.000,0.000,0.000
1644362205199995904,2022-02-08-23:16:45,10.1.1.11,28,-0.060,-0.060,-0.060,0.000,0.000,0.000
1644362205300389888,2022-02-08-23:16:45,10.1.1.11,27,-0.070,-0.070,-0.070,0.000,0.000,0.000
1644362205400468224,2022-02-08-23:16:45,10.1.1.11,27,-0.080,-0.080,-0.080,0.000,0.000,0.000
1644362205499619840,2022-02-08-23:16:45,10.1.1.11,26,-0.090,-0.090,-0.090,0.000,0.000,0.000
1644362205600302848,2022-02-08-23:16:45,10.1.1.11,26,-0.100,-0.100,-0.100,0.000,0.000,0.000
1644362205700057856,2022-02-08-23:16:45,10.1.1.11,25,-0.090,-0.090,-0.090,0.000,0.000,0.000
1644362206119366912,2022-02-08-23:16:46,10.1.1.11,39,-0.050,-0.050,-0.050,0.000,0.000,0.000
1644362206220037888,2022-02-08-23:16:46,10.1.1.11,39,-0.040,-0.040,-0.040,0.000,0.000,0.000
1644362206319452160,2022-02-08-23:16:46,10.1.1.11,38,-0.030,-0.030,-0.030,0.000,0.000,0.000
1644362207219718912,2022-02-08-23:16:47,10.1.1.11,29,0.060,0.060,0.060,0.000,0.000,0.000
1644362207321156096,2022-02-08-23:16:47,10.1.1.11,29,0.070,0.070,0.070,0.000,0.000,0.000
1644362207420082944,2022-02-08-23:16:47,10.1.1.11,27,0.080,0.080,0.080,0.000,0.000,0.000
1644362207519488000,2022-02-08-23:16:47,10.1.1.11,27,0.090,0.090,0.090,0.000,0.000,0.000
1644362207619739904,2022-02-08-23:16:47,10.1.1.11,26,0.100,0.100,0.100,0.000,0.000,0.000
1644362207719480064,2022-02-08-23:16:47,10.1.1.11,26,0.090,0.090,0.090,0.000,0.000,0.000
1644362207819969024,2022-02-08-23:16:47,10.1.1.11,25,0.080,0.080,0.080,0.000,0.000,0.000
1644362208540118016,2022-02-08-23:16:48,10.1.1.11,39,0.010,0.010,0.010,0.000,0.000,0.000
1644362208639576832,2022-02-08-23:16:48,10.1.1.11,38,0.000,0.000,0.000,0.000,0.000,0.000
1644362208739792128,2022-02-08-23:16:48,10.1.1.11,36,-0.010,-0.010,-0.010,0.000,0.000,0.000
1644362208839544064,2022-02-08-23:16:48,10.1.1.11,36,-0.020,-0.020,-0.020,0.000,0.000,0.000
1644362209239245824,2022-02-08-23:16:49,10.1.1.11,29,-0.060,-0.060,-0.060,0.000,0.000,0.000
1644362209340094208,2022-02-08-23:16:49,10.1.1.11,29,-0.070,-0.070,-0.070,0.000,0.000,0.000
1644362209440124928,2022-02-08-23:16:49,10.1.1.11,28,-0.080,-0.080,-0.080,0.000,0.000,0.000
1644362209539670016,2022-02-08-23:16:49,10.1.1.11,28,-0.090,-0.090,-0.090,0.000,0.000,0.000
1644362209640613120,2022-02-08-23:16:49,10.1.1.11,28,-0.100,-0.100,-0.100,0.000,0.000,0.000
1644362209739962112,2022-02-08-23:16:49,10.1.1.11,27,-0.090,-0.090,-0.090,0.000,0.000,0.000
1644362209842727936,2022-02-08-23:16:49,10.1.1.11,27,-0.080,-0.080,-0.080,0.000,0.000,0.000
1644362209939534848,2022-02-08-23:16:49,10.1.1.11,26,-0.070,-0.070,-0.070,0.000,0.000,0.000
1644362210759640832,2022-02-08-23:16:50,10.1.1.11,39,0.010,0.010,0.010,0.000,0.000,0.000
1644362210859472896,2022-02-08-23:16:50,10.1.1.11,39,0.020,0.020,0.020,0.000,0.000,0.000
1644362210959526144,2022-02-08-23:16:50,10.1.1.11,38,0.030,0.030,0.030,0.000,0.000,0.000
1644362211059997952,2022-02-08-23:16:51,10.1.1.11,37,0.040,0.040,0.040,0.000,0.000,0.000
1644362211159949056,2022-02-08-23:16:51,10.1.1.11,37,0.050,0.050,0.050,0.000,0.000,0.000
1644362211259906048,2022-02-08-23:16:51,10.1.1.11,36,0.060,0.060,0.060,0.000,0.000,0.000
1644362211359602944,2022-02-08-23:16:51,10.1.1.11,36,0.070,0.070,0.070,0.000,0.000,0.000
1644362211459984128,2022-02-08-23:16:51,10.1.1.11,35,0.080,0.080,0.080,0.000,0.000,0.000
1644362211559659008,2022-02-08-23:16:51,10.1.1.11,34,0.090,0.090,0.090,0.000,0.000,0.000
1644362211740406016,2022-02-08-23:16:51,10.1.1.11,14,0.090,0.090,0.090,0.000,0.000,0.000
1644362212559439872,2022-02-08-23:16:52,10.1.1.11,29,0.010,0.010,0.010,0.000,0.000,0.000
1644362212660604928,2022-02-08-23:16:52,10.1.1.11,29,0.000,0.000,0.000,0.000,0.000,0.000
1644362212760668928,2022-02-08-23:16:52,10.1.1.11,28,-0.010,-0.010,-0.010,0.000,0.000,0.000
1644362212859648000,2022-02-08-23:16:52,10.1.1.11,27,-0.020,-0.020,-0.020,0.000,0.000,0.000
1644362212960485888,2022-02-08-23:16:52,10.1.1.11,27,-0.030,-0.030,-0.030,0.000,0.000,0.000
1644362213060611072,2022-02-08-23:16:53,10.1.1.11,25,-0.040,-0.040,-0.040,0.000,0.000,0.000
1644362213159662080,2022-02-08-23:16:53,10.1.1.11,25,-0.050,-0.050,-0.050,0.000,0.000,0.000
1644362213879825152,2022-02-08-23:16:53,10.1.1.11,39,-0.080,-0.080,-0.080,0.000,0.000,0.000
1644362213979793152,2022-02-08-23:16:53,10.1.1.11,37,-0.070,-0.070,-0.070,0.000,0.000,0.000
1644362214079646208,2022-02-08-23:16:54,10.1.1.11,37,-0.060,-0.060,-0.060,0.000,0.000,0.000
1644362214179145216,2022-02-08-23:16:54,10.1.1.11,36,-0.050,-0.050,-0.050,0.000,0.000,0.000
1644362214280198144,2022-02-08-23:16:54,10.1.1.11,36,-0.040,-0.040,-0.040,0.000,0.000,0.000
1644362214379628800,2022-02-08-23:16:54,10.1.1.11,35,-0.030,-0.030,-0.030,0.000,0.000,0.000
1644362214479911936,2022-02-08-23:16:54,10.1.1.11,35,-0.020,-0.020,-0.020,0.000,0.000,0.000
1644362215279449856,2022-02-08-23:16:55,10.1.1.11,29,0.060,0.060,0.060,0.000,0.000,0.000
1644362215380034816,2022-02-08-23:16:55,10.1.1.11,29,0.070,0.070,0.070,0.000,0.000,0.000
1644362215479801856,2022-02-08-23:16:55,10.1.1.11,28,0.080,0.080,0.080,0.000,0.000,0.000
1644362215580125952,2022-02-08-23:16:55,10.1.1.11,28,0.090,0.090,0.090,0.000,0.000,0.000
1644362215679329024,2022-02-08-23:16:55,10.1.1.11,25,0.100,0.100,0.100,0.000,0.000,0.000
1644362215779597056,2022-02-08-23:16:55,10.1.1.11,25,0.090,0.090,0.090,0.000,0.000,0.000
1644362215879656192,2022-02-08-23:16:55,10.1.1.11,24,0.080,0.080,0.080,0.000,0.000,0.000
1644362216799542784,2022-02-08-23:16:56,10.1.1.11,39,-0.010,-0.010,-0.010,0.000,0.000,0.000
1644362217000003072,2022-02-08-23:16:56,10.1.1.11,37,-0.030,-0.030,-0.030,0.000,0.000,0.000
1644362217100421888,2022-02-08-23:16:57,10.1.1.11,36,-0.040,-0.040,-0.040,0.000,0.000,0.000
1644362217201117952,2022-02-08-23:16:57,10.1.1.11,36,-0.050,-0.050,-0.050,0.000,0.000,0.000
1644362217299900160,2022-02-08-23:16:57,10.1.1.11,35,-0.060,-0.060,-0.060,0.000,0.000,0.000
1644362218080148992,2022-02-08-23:16:58,10.1.1.11,10,-0.060,-0.060,-0.060,0.000,0.000,0.000
1644362218199954944,2022-02-08-23:16:58,10.1.1.11,29,-0.050,-0.050,-0.050,0.000,0.000,0.000
1644362218300044032,2022-02-08-23:16:58,10.1.1.11,29,-0.040,-0.040,-0.040,0.000,0.000,0.000
1644362218399854848,2022-02-08-23:16:58,10.1.1.11,28,-0.030,-0.030,-0.030,0.000,0.000,0.000
1644362218500397824,2022-02-08-23:16:58,10.1.1.11,27,-0.020,-0.020,-0.020,0.000,0.000,0.000
1644362218600012032,2022-02-08-23:16:58,10.1.1.11,27,-0.010,-0.010,-0.010,0.000,0.000,0.000
1644362218700020992,2022-02-08-23:16:58,10.1.1.11,26,0.000,0.000,0.000,0.000,0.000,0.000
1644362218800347136,2022-02-08-23:16:58,10.1.1.11,24,0.010,0.010,0.010,0.000,0.000,0.000
1644362219220016896,2022-02-08-23:16:59,10.1.1.11,38,0.050,0.050,0.050,0.000,0.000,0.000
1644362219320164864,2022-02-08-23:16:59,10.1.1.11,36,0.060,0.060,0.060,0.000,0.000,0.000
1644362219420012032,2022-02-08-23:16:59,10.1.1.11,35,0.070,0.070,0.070,0.000,0.000,0.000
1644362219520032000,2022-02-08-23:16:59,10.1.1.11,35,0.080,0.080,0.080,0.000,0.000,0.000
1644362219620165120,2022-02-08-23:16:59,10.1.1.11,34,0.090,0.090,0.090,0.000,0.000,0.000
1644362219800600064,2022-02-08-23:16:59,10.1.1.11,12,0.090,0.090,0.090,0.000,0.000,0.000
1644362220319853056,2022-02-08-23:17:00,10.1.1.11,29,0.040,0.040,0.040,0.000,0.000,0.000
1644362220420380160,2022-02-08-23:17:00,10.1.1.11,29,0.030,0.030,0.030,0.000,0.000,0.000
1644362220520620032,2022-02-08-23:17:00,10.1.1.11,28,0.020,0.020,0.020,0.000,0.000,0.000
1644362220620523008,2022-02-08-23:17:00,10.1.1.11,28,0.010,0.010,0.010,0.000,0.000,0.000
1644362220720352000,2022-02-08-23:17:00,10.1.1.11,27,0.000,0.000,0.000,0.000,0.000,0.000
1644362220820509952,2022-02-08-23:17:00,10.1.1.11,27,-0.010,-0.010,-0.010,0.000,0.000,0.000
1644362220920324096,2022-02-08-23:17:00,10.1.1.11,26,-0.020,-0.020,-0.020,0.000,0.000,0.000
1644362221019965952,2022-02-08-23:17:01,10.1.1.11,25,-0.030,-0.030,-0.030,0.000,0.000,0.000
1644362221120335104,2022-02-08-23:17:01,10.1.1.11,25,-0.040,-0.040,-0.040,0.000,0.000,0.000
1644362222141161984,2022-02-08-23:17:02,10.1.1.11,39,-0.060,-0.060,-0.060,0.000,0.000,0.000
1644362222240022784,2022-02-08-23:17:02,10.1.1.11,37,-0.050,-0.050,-0.050,0.000,0.000,0.000
1644362222340783104,2022-02-08-23:17:02,10.1.1.11,36,-0.040,-0.040,-0.040,0.000,0.000,0.000
1644362222440947968,2022-02-08-23:17:02,10.1.1.11,35,-0.030,-0.030,-0.030,0.000,0.000,0.000
1644362223240092160,2022-02-08-23:17:03,10.1.1.11,30,0.050,0.050,0.050,0.000,0.000,0.000
1644362223341388032,2022-02-08-23:17:03,10.1.1.11,29,0.060,0.060,0.060,0.000,0.000,0.000
1644362223456032000,2022-02-08-23:17:03,10.1.1.11,29,0.070,0.070,0.070,0.000,0.000,0.000
1644362223541236992,2022-02-08-23:17:03,10.1.1.11,27,0.080,0.080,0.080,0.000,0.000,0.000
1644362223640037888,2022-02-08-23:17:03,10.1.1.11,27,0.090,0.090,0.090,0.000,0.000,0.000
1644362223749184000,2022-02-08-23:17:03,10.1.1.11,26,0.100,0.100,0.100,0.000,0.000,0.000
1644362223839972096,2022-02-08-23:17:03,10.1.1.11,25,0.090,0.090,0.090,0.000,0.000,0.000
1644362223940870144,2022-02-08-23:17:03,10.1.1.11,25,0.080,0.080,0.080,0.000,0.000,0.000
1644362224040435968,2022-02-08-23:17:04,10.1.1.11,24,0.070,0.070,0.070,0.000,0.000,0.000
1644362225040379904,2022-02-08-23:17:05,10.1.1.11,19,-0.030,-0.030,-0.030,0.000,0.000,0.000
1644362225160128000,2022-02-08-23:17:05,10.1.1.11,39,-0.040,-0.040,-0.040,0.000,0.000,0.000
1644362225260364032,2022-02-08-23:17:05,10.1.1.11,38,-0.050,-0.050,-0.050,0.000,0.000,0.000
1644362225360267008,2022-02-08-23:17:05,10.1.1.11,38,-0.060,-0.060,-0.060,0.000,0.000,0.000
1644362225459918848,2022-02-08-23:17:05,10.1.1.11,37,-0.070,-0.070,-0.070,0.000,0.000,0.000
1644362225560229120,2022-02-08-23:17:05,10.1.1.11,37,-0.080,-0.080,-0.080,0.000,0.000,0.000
1644362225660376064,2022-02-08-23:17:05,10.1.1.11,34,-0.090,-0.090,-0.090,0.000,0.000,0.000
1644362225840805888,2022-02-08-23:17:05,10.1.1.11,13,-0.090,-0.090,-0.090,0.000,0.000,0.000
1644362226460877056,2022-02-08-23:17:06,10.1.1.11,30,-0.030,-0.030,-0.030,0.000,0.000,0.000
1644362226560601856,2022-02-08-23:17:06,10.1.1.11,28,-0.020,-0.020,-0.020,0.000,0.000,0.000
1644362226662194944,2022-02-08-23:17:06,10.1.1.11,28,-0.010,-0.010,-0.010,0.000,0.000,0.000
1644362226760616960,2022-02-08-23:17:06,10.1.1.11,28,0.000,0.000,0.000,0.000,0.000,0.000
1644362227900374016,2022-02-08-23:17:07,10.1.1.11,39,0.090,0.090,0.090,0.000,0.000,0.000
1644362228000588800,2022-02-08-23:17:08,10.1.1.11,39,0.080,0.080,0.080,0.000,0.000,0.000
1644362228099896064,2022-02-08-23:17:08,10.1.1.11,38,0.070,0.070,0.070,0.000,0.000,0.000
1644362228200673024,2022-02-08-23:17:08,10.1.1.11,38,0.060,0.060,0.060,0.000,0.000,0.000
1644362228300470016,2022-02-08-23:17:08,10.1.1.11,37,0.050,0.050,0.050,0.000,0.000,0.000
1644362228400304128,2022-02-08-23:17:08,10.1.1.11,36,0.040,0.040,0.040,0.000,0.000,0.000
1644362228501019904,2022-02-08-23:17:08,10.1.1.11,35,0.030,0.030,0.030,0.000,0.000,0.000
1644362228601166848,2022-02-08-23:17:08,10.1.1.11,35,0.020,0.020,0.020,0.000,0.000,0.000
1644362229401681920,2022-02-08-23:17:09,10.1.1.11,30,-0.060,-0.060,-0.060,0.000,0.000,0.000
1644362229500953856,2022-02-08-23:17:09,10.1.1.11,29,-0.070,-0.070,-0.070,0.000,0.000,0.000
1644362229600184064,2022-02-08-23:17:09,10.1.1.11,28,-0.080,-0.080,-0.080,0.000,0.000,0.000
1644362229700807168,2022-02-08-23:17:09,10.1.1.11,28,-0.090,-0.090,-0.090,0.000,0.000,0.000
1644362229800359936,2022-02-08-23:17:09,10.1.1.11,27,-0.100,-0.100,-0.100,0.000,0.000,0.000
1644362229900926976,2022-02-08-23:17:09,10.1.1.11,27,-0.090,-0.090,-0.090,0.000,0.000,0.000
1644362230001315072,2022-02-08-23:17:10,10.1.1.11,26,-0.080,-0.080,-0.080,0.000,0.000,0.000
1644362230101254912,2022-02-08-23:17:10,10.1.1.11,26,-0.070,-0.070,-0.070,0.000,0.000,0.000
1644362230201160960,2022-02-08-23:17:10,10.1.1.11,25,-0.060,-0.060,-0.060,0.000,0.000,0.000
1644362230301271040,2022-02-08-23:17:10,10.1.1.11,25,-0.050,-0.050,-0.050,0.000,0.000,0.000
1644362231320327168,2022-02-08-23:17:11,10.1.1.11,39,0.050,0.050,0.050,0.000,0.000,0.000
1644362231420110080,2022-02-08-23:17:11,10.1.1.11,38,0.060,0.060,0.060,0.000,0.000,0.000
1644362231520474880,2022-02-08-23:17:11,10.1.1.11,38,0.070,0.070,0.070,0.000,0.000,0.000
1644362231622548992,2022-02-08-23:17:11,10.1.1.11,36,0.080,0.080,0.080,0.000,0.000,0.000
1644362231721369856,2022-02-08-23:17:11,10.1.1.11,35,0.090,0.090,0.090,0.000,0.000,0.000
1644362231821041152,2022-02-08-23:17:11,10.1.1.11,34,0.100,0.100,0.100,0.000,0.000,0.000
1644362231921135872,2022-02-08-23:17:11,10.1.1.11,34,0.090,0.090,0.090,0.000,0.000,0.000
1644362232721265152,2022-02-08-23:17:12,10.1.1.11,29,0.010,0.010,0.010,0.000,0.000,0.000
1644362232820656896,2022-02-08-23:17:12,10.1.1.11,29,0.000,0.000,0.000,0.000,0.000,0.000
1644362232921415936,2022-02-08-23:17:12,10.1.1.11,28,-0.010,-0.010,-0.010,0.000,0.000,0.000
1644362233020833024,2022-02-08-23:17:13,10.1.1.11,28,-0.020,-0.020,-0.020,0.000,0.000,0.000
1644362233120932096,2022-02-08-23:17:13,10.1.1.11,27,-0.030,-0.030,-0.030,0.000,0.000,0.000
1644362233220750080,2022-02-08-23:17:13,10.1.1.11,26,-0.040,-0.040,-0.040,0.000,0.000,0.000
1644362233320498944,2022-02-08-23:17:13,10.1.1.11,26,-0.050,-0.050,-0.050,0.000,0.000,0.000
1644362233420540928,2022-02-08-23:17:13,10.1.1.11,26,-0.060,-0.060,-0.060,0.000,0.000,0.000
1644362233520636928,2022-02-08-23:17:13,10.1.1.11,25,-0.070,-0.070,-0.070,0.000,0.000,0.000
1644362233620408064,2022-02-08-23:17:13,10.1.1.11,24,-0.080,-0.080,-0.080,0.000,0.000,0.000
1644362233720457984,2022-02-08-23:17:13,10.1.1.11,24,-0.090,-0.090,-0.090,0.000,0.000,0.000
1644362233901057024,2022-02-08-23:17:13,10.1.1.11,2,-0.090,-0.090,-0.090,0.000,0.000,0.000
1644362234069794816,2022-02-08-23:17:14,10.1.1.11,39,-0.080,-0.080,-0.080,0.000,0.000,0.000
1644362234141500928,2022-02-08-23:17:14,10.1.1.11,38,-0.070,-0.070,-0.070,0.000,0.000,0.000
1644362234240325888,2022-02-08-23:17:14,10.1.1.11,37,-0.060,-0.060,-0.060,0.000,0.000,0.000
1644362234340504832,2022-02-08-23:17:14,10.1.1.11,37,-0.050,-0.050,-0.050,0.000,0.000,0.000
1644362234440454912,2022-02-08-23:17:14,10.1.1.11,36,-0.040,-0.040,-0.040,0.000,0.000,0.000
1644362234541321984,2022-02-08-23:17:14,10.1.1.11,35,-0.030,-0.030,-0.030,0.000,0.000,0.000
1644362234642942976,2022-02-08-23:17:14,10.1.1.11,35,-0.020,-0.020,-0.020,0.000,0.000,0.000
1644362234740713984,2022-02-08-23:17:14,10.1.1.11,34,-0.010,-0.010,-0.010,0.000,0.000,0.000
1644362235540704000,2022-02-08-23:17:15,10.1.1.11,29,0.070,0.070,0.070,0.000,0.000,0.000
1644362235641294080,2022-02-08-23:17:15,10.1.1.11,29,0.080,0.080,0.080,0.000,0.000,0.000
1644362235840820992,2022-02-08-23:17:15,10.1.1.11,27,0.100,0.100,0.100,0.000,0.000,0.000
1644362235941651968,2022-02-08-23:17:15,10.1.1.11,26,0.090,0.090,0.090,0.000,0.000,0.000
1644362236042023936,2022-02-08-23:17:16,10.1.1.11,26,0.080,0.080,0.080,0.000,0.000,0.000
1644362236142313984,2022-02-08-23:17:16,10.1.1.11,26,0.070,0.070,0.070,0.000,0.000,0.000
1644362236460613888,2022-02-08-23:17:16,10.1.1.11,37,0.040,0.040,0.040,0.000,0.000,0.000
1644362236561174016,2022-02-08-23:17:16,10.1.1.11,36,0.030,0.030,0.030,0.000,0.000,0.000
1644362236661128960,2022-02-08-23:17:16,10.1.1.11,36,0.020,0.020,0.020,0.000,0.000,0.000
1644362236760710912,2022-02-08-23:17:16,10.1.1.11,35,0.010,0.010,0.010,0.000,0.000,0.000
1644362236861552896,2022-02-08-23:17:16,10.1.1.11,35,0.000,0.000,0.000,0.000,0.000,0.000
1644362236960535040,2022-02-08-23:17:16,10.1.1.11,34,-0.010,-0.010,-0.010,0.000,0.000,0.000
1644362237061363968,2022-02-08-23:17:17,10.1.1.11,34,-0.020,-0.020,-0.020,0.000,0.000,0.000
1644362237160933120,2022-02-08-23:17:17,10.1.1.11,33,-0.030,-0.030,-0.030,0.000,0.000,0.000
1644362237661295872,2022-02-08-23:17:17,10.1.1.11,30,-0.080,-0.080,-0.080,0.000,0.000,0.000
1644362237808979968,2022-02-08-23:17:17,10.1.1.11,28,-0.090,-0.090,-0.090,0.000,0.000,0.000
1644362237861408000,2022-02-08-23:17:17,10.1.1.11,26,-0.100,-0.100,-0.100,0.000,0.000,0.000
1644362237960353024,2022-02-08-23:17:17,10.1.1.11,24,-0.090,-0.090,-0.090,0.000,0.000,0.000
1644362238060828928,2022-02-08-23:17:18,10.1.1.11,24,-0.080,-0.080,-0.080,0.000,0.000,0.000
1644362238980685056,2022-02-08-23:17:18,10.1.1.11,39,0.010,0.010,0.010,0.000,0.000,0.000
1644362239080631040,2022-02-08-23:17:19,10.1.1.11,38,0.020,0.020,0.020,0.000,0.000,0.000
1644362239181189888,2022-02-08-23:17:19,10.1.1.11,38,0.030,0.030,0.030,0.000,0.000,0.000
1644362239280992000,2022-02-08-23:17:19,10.1.1.11,38,0.040,0.040,0.040,0.000,0.000,0.000
1644362239381373952,2022-02-08-23:17:19,10.1.1.11,37,0.050,0.050,0.050,0.000,0.000,0.000
1644362239480814848,2022-02-08-23:17:19,10.1.1.11,36,0.060,0.060,0.060,0.000,0.000,0.000
1644362239580638976,2022-02-08-23:17:19,10.1.1.11,36,0.070,0.070,0.070,0.000,0.000,0.000
1644362239680934912,2022-02-08-23:17:19,10.1.1.11,36,0.080,0.080,0.080,0.000,0.000,0.000
1644362239780741888,2022-02-08-23:17:19,10.1.1.11,35,0.090,0.090,0.090,0.000,0.000,0.000
1644362239881298176,2022-02-08-23:17:19,10.1.1.11,34,0.100,0.100,0.100,0.000,0.000,0.000
1644362239981071104,2022-02-08-23:17:19,10.1.1.11,34,0.090,0.090,0.090,0.000,0.000,0.000
1644362240880965120,2022-02-08-23:17:20,10.1.1.11,29,0.000,0.000,0.000,0.000,0.000,0.000
1644362240981089024,2022-02-08-23:17:20,10.1.1.11,29,-0.010,-0.010,-0.010,0.000,0.000,0.000
1644362241080769024,2022-02-08-23:17:21,10.1.1.11,29,-0.020,-0.020,-0.020,0.000,0.000,0.000
1644362241180599040,2022-02-08-23:17:21,10.1.1.11,28,-0.030,-0.030,-0.030,0.000,0.000,0.000
1644362241280410880,2022-02-08-23:17:21,10.1.1.11,27,-0.040,-0.040,-0.040,0.000,0.000,0.000
1644362241380551168,2022-02-08-23:17:21,10.1.1.11,27,-0.050,-0.050,-0.050,0.000,0.000,0.000
1644362241481043968,2022-02-08-23:17:21,10.1.1.11,26,-0.060,-0.060,-0.060,0.000,0.000,0.000
1644362241581053952,2022-02-08-23:17:21,10.1.1.11,26,-0.070,-0.070,-0.070,0.000,0.000,0.000
1644362241681489920,2022-02-08-23:17:21,10.1.1.11,24,-0.080,-0.080,-0.080,0.000,0.000,0.000
1644362241780963072,2022-02-08-23:17:21,10.1.1.11,24,-0.090,-0.090,-0.090,0.000,0.000,0.000
1644362241961165824,2022-02-08-23:17:21,10.1.1.11,2,-0.090,-0.090,-0.090,0.000,0.000,0.000
1644362242581696000,2022-02-08-23:17:22,10.1.1.11,20,-0.030,-0.030,-0.030,0.000,0.000,0.000
1644362242700876032,2022-02-08-23:17:22,10.1.1.11,39,-0.020,-0.020,-0.020,0.000,0.000,0.000
1644362242800664832,2022-02-08-23:17:22,10.1.1.11,39,-0.010,-0.010,-0.010,0.000,0.000,0.000
1644362242900962048,2022-02-08-23:17:22,10.1.1.11,38,0.000,0.000,0.000,0.000,0.000,0.000
1644362243001574144,2022-02-08-23:17:23,10.1.1.11,37,0.010,0.010,0.010,0.000,0.000,0.000
1644362243102194176,2022-02-08-23:17:23,10.1.1.11,37,0.020,0.020,0.020,0.000,0.000,0.000
1644362243201036032,2022-02-08-23:17:23,10.1.1.11,36,0.030,0.030,0.030,0.000,0.000,0.000
1644362243300862976,2022-02-08-23:17:23,10.1.1.11,35,0.040,0.040,0.040,0.000,0.000,0.000
1644362243401349120,2022-02-08-23:17:23,10.1.1.11,35,0.050,0.050,0.050,0.000,0.000,0.000
1644362243501199872,2022-02-08-23:17:23,10.1.1.11,34,0.060,0.060,0.060,0.000,0.000,0.000
1644362243601164032,2022-02-08-23:17:23,10.1.1.11,34,0.070,0.070,0.070,0.000,0.000,0.000
1644362243700828160,2022-02-08-23:17:23,10.1.1.11,33,0.080,0.080,0.080,0.000,0.000,0.000
1644362243907151104,2022-02-08-23:17:23,10.1.1.11,20,0.100,0.100,0.100,0.000,0.000,0.000
1644362244121140992,2022-02-08-23:17:24,10.1.1.11,38,0.080,0.080,0.080,0.000,0.000,0.000
1644362244221213952,2022-02-08-23:17:24,10.1.1.11,38,0.070,0.070,0.070,0.000,0.000,0.000
1644362244320715008,2022-02-08-23:17:24,10.1.1.11,38,0.060,0.060,0.060,0.000,0.000,0.000
1644362244621592064,2022-02-08-23:17:24,10.1.1.11,30,0.030,0.030,0.030,0.000,0.000,0.000
1644362244721113088,2022-02-08-23:17:24,10.1.1.11,29,0.020,0.020,0.020,0.000,0.000,0.000
1644362244821222912,2022-02-08-23:17:24,10.1.1.11,29,0.010,0.010,0.010,0.000,0.000,0.000
1644362244921650944,2022-02-08-23:17:24,10.1.1.11,28,0.000,0.000,0.000,0.000,0.000,0.000
1644362245020865024,2022-02-08-23:17:25,10.1.1.11,27,-0.010,-0.010,-0.010,0.000,0.000,0.000
1644362245121189120,2022-02-08-23:17:25,10.1.1.11,24,-0.020,-0.020,-0.020,0.000,0.000,0.000
1644362245221744896,2022-02-08-23:17:25,10.1.1.11,23,-0.030,-0.030,-0.030,0.000,0.000,0.000
1644362245381359104,2022-02-08-23:17:25,10.1.1.11,29,-0.040,-0.040,-0.040,0.000,0.000,0.000
1644362245480829952,2022-02-08-23:17:25,10.1.1.11,27,-0.050,-0.050,-0.050,0.000,0.000,0.000
1644362245581780992,2022-02-08-23:17:25,10.1.1.11,27,-0.060,-0.060,-0.060,0.000,0.000,0.000
1644362245681169920,2022-02-08-23:17:25,10.1.1.11,26,-0.070,-0.070,-0.070,0.000,0.000,0.000
1644362245781132032,2022-02-08-23:17:25,10.1.1.11,26,-0.080,-0.080,-0.080,0.000,0.000,0.000
1644362245882428928,2022-02-08-23:17:25,10.1.1.11,25,-0.090,-0.090,-0.090,0.000,0.000,0.000
1644362245981234176,2022-02-08-23:17:25,10.1.1.11,24,-0.100,-0.100,-0.100,0.000,0.000,0.000
1644362246080989952,2022-02-08-23:17:26,10.1.1.11,23,-0.090,-0.090,-0.090,0.000,0.000,0.000
1644362246602405120,2022-02-08-23:17:26,10.1.1.11,39,-0.040,-0.040,-0.040,0.000,0.000,0.000
1644362246701262848,2022-02-08-23:17:26,10.1.1.11,38,-0.030,-0.030,-0.030,0.000,0.000,0.000
1644362246801808128,2022-02-08-23:17:26,10.1.1.11,38,-0.020,-0.020,-0.020,0.000,0.000,0.000
1644362246900580864,2022-02-08-23:17:26,10.1.1.11,37,-0.010,-0.010,-0.010,0.000,0.000,0.000
1644362247001088000,2022-02-08-23:17:27,10.1.1.11,37,0.000,0.000,0.000,0.000,0.000,0.000
1644362247101531136,2022-02-08-23:17:27,10.1.1.11,36,0.010,0.010,0.010,0.000,0.000,0.000
1644362247200660992,2022-02-08-23:17:27,10.1.1.11,36,0.020,0.020,0.020,0.000,0.000,0.000
1644362247300864000,2022-02-08-23:17:27,10.1.1.11,36,0.030,0.030,0.030,0.000,0.000,0.000
1644362247401572096,2022-02-08-23:17:27,10.1.1.11,35,0.040,0.040,0.040,0.000,0.000,0.000
1644362247501704960,2022-02-08-23:17:27,10.1.1.11,35,0.050,0.050,0.050,0.000,0.000,0.000
1644362247603313920,2022-02-08-23:17:27,10.1.1.11,33,0.060,0.060,0.060,0.000,0.000,0.000
1644362248301404928,2022-02-08-23:17:28,10.1.1.11,29,0.070,0.070,0.070,0.000,0.000,0.000
1644362248401477120,2022-02-08-23:17:28,10.1.1.11,29,0.060,0.060,0.060,0.000,0.000,0.000
1644362248501198080,2022-02-08-23:17:28,10.1.1.11,29,0.050,0.050,0.050,0.000,0.000,0.000
1644362248601778944,2022-02-08-23:17:28,10.1.1.11,28,0.040,0.040,0.040,0.000,0.000,0.000
1644362248701318144,2022-02-08-23:17:28,10.1.1.11,28,0.030,0.030,0.030,0.000,0.000,0.000
1644362248801682944,2022-02-08-23:17:28,10.1.1.11,27,0.020,0.020,0.020,0.000,0.000,0.000
1644362248901499136,2022-02-08-23:17:28,10.1.1.11,27,0.010,0.010,0.010,0.000,0.000,0.000
1644362249001729024,2022-02-08-23:17:29,10.1.1.11,26,0.000,0.000,0.000,0.000,0.000,0.000
1644362249102963968,2022-02-08-23:17:29,10.1.1.11,26,-0.010,-0.010,-0.010,0.000,0.000,0.000
1644362249201404928,2022-02-08-23:17:29,10.1.1.11,25,-0.020,-0.020,-0.020,0.000,0.000,0.000
1644362249301268224,2022-02-08-23:17:29,10.1.1.11,24,-0.030,-0.030,-0.030,0.000,0.000,0.000
1644362249402395136,2022-02-08-23:17:29,10.1.1.11,24,-0.040,-0.040,-0.040,0.000,0.000,0.000
1644362249500677120,2022-02-08-23:17:29,10.1.1.11,23,-0.050,-0.050,-0.050,0.000,0.000,0.000
1644362250121374976,2022-02-08-23:17:30,10.1.1.11,39,-0.090,-0.090,-0.090,0.000,0.000,0.000
1644362250221050112,2022-02-08-23:17:30,10.1.1.11,38,-0.080,-0.080,-0.080,0.000,0.000,0.000
1644362250321355008,2022-02-08-23:17:30,10.1.1.11,37,-0.070,-0.070,-0.070,0.000,0.000,0.000
1644362250420780800,2022-02-08-23:17:30,10.1.1.11,37,-0.060,-0.060,-0.060,0.000,0.000,0.000
1644362250521390080,2022-02-08-23:17:30,10.1.1.11,36,-0.050,-0.050,-0.050,0.000,0.000,0.000
1644362250621315840,2022-02-08-23:17:30,10.1.1.11,35,-0.040,-0.040,-0.040,0.000,0.000,0.000
1644362250712652032,2022-02-08-23:17:30,10.1.1.11,26,-0.030,-0.030,-0.030,0.000,0.000,0.000
1644362250921408000,2022-02-08-23:17:30,10.1.1.11,33,-0.010,-0.010,-0.010,0.000,0.000,0.000
1644362251621336064,2022-02-08-23:17:31,10.1.1.11,28,0.060,0.060,0.060,0.000,0.000,0.000
1644362251721004032,2022-02-08-23:17:31,10.1.1.11,28,0.070,0.070,0.070,0.000,0.000,0.000
1644362251821396992,2022-02-08-23:17:31,10.1.1.11,28,0.080,0.080,0.080,0.000,0.000,0.000
1644362251921191936,2022-02-08-23:17:31,10.1.1.11,27,0.090,0.090,0.090,0.000,0.000,0.000
1644362252021490944,2022-02-08-23:17:32,10.1.1.11,27,0.100,0.100,0.100,0.000,0.000,0.000
1644362252121774848,2022-02-08-23:17:32,10.1.1.11,26,0.090,0.090,0.090,0.000,0.000,0.000
1644362252221880832,2022-02-08-23:17:32,10.1.1.11,26,0.080,0.080,0.080,0.000,0.000,0.000
1644362252321772032,2022-02-08-23:17:32,10.1.1.11,25,0.070,0.070,0.070,0.000,0.000,0.000
1644362252421295872,2022-02-08-23:17:32,10.1.1.11,23,0.060,0.060,0.060,0.000,0.000,0.000
1644362253021392128,2022-02-08-23:17:33,10.1.1.11,20,0.000,0.000,0.000,0.000,0.000,0.000
1644362253141504000,2022-02-08-23:17:33,10.1.1.11,39,-0.010,-0.010,-0.010,0.000,0.000,0.000
1644362253240914944,2022-02-08-23:17:33,10.1.1.11,39,-0.020,-0.020,-0.020,0.000,0.000,0.000
1644362253342331904,2022-02-08-23:17:33,10.1.1.11,38,-0.030,-0.030,-0.030,0.000,0.000,0.000
1644362253441917952,2022-02-08-23:17:33,10.1.1.11,38,-0.040,-0.040,-0.040,0.000,0.000,0.000
1644362253543068928,2022-02-08-23:17:33,10.1.1.11,38,-0.050,-0.050,-0.050,0.000,0.000,0.000
1644362253641757952,2022-02-08-23:17:33,10.1.1.11,37,-0.060,-0.060,-0.060,0.000,0.000,0.000
1644362253742893824,2022-02-08-23:17:33,10.1.1.11,36,-0.070,-0.070,-0.070,0.000,0.000,0.000
1644362253841670144,2022-02-08-23:17:33,10.1.1.11,36,-0.080,-0.080,-0.080,0.000,0.000,0.000
1644362253934804992,2022-02-08-23:17:33,10.1.1.11,28,-0.090,-0.090,-0.090,0.000,0.000,0.000
1644362254041816832,2022-02-08-23:17:34,10.1.1.11,35,-0.100,-0.100,-0.100,0.000,0.000,0.000
1644362254141933056,2022-02-08-23:17:34,10.1.1.11,34,-0.090,-0.090,-0.090,0.000,0.000,0.000
1644362254481265920,2022-02-08-23:17:34,10.1.1.11,30,-0.060,-0.060,-0.060,0.000,0.000,0.000
1644362254582402048,2022-02-08-23:17:34,10.1.1.11,29,-0.050,-0.050,-0.050,0.000,0.000,0.000
1644362254682487040,2022-02-08-23:17:34,10.1.1.11,29,-0.040,-0.040,-0.040,0.000,0.000,0.000
1644362254782560000,2022-02-08-23:17:34,10.1.1.11,28,-0.030,-0.030,-0.030,0.000,0.000,0.000
1644362254882589952,2022-02-08-23:17:34,10.1.1.11,28,-0.020,-0.020,-0.020,0.000,0.000,0.000
1644362254982137088,2022-02-08-23:17:34,10.1.1.11,27,-0.010,-0.010,-0.010,0.000,0.000,0.000
1644362255081295872,2022-02-08-23:17:35,10.1.1.11,26,0.000,0.000,0.000,0.000,0.000,0.000
1644362255182140160,2022-02-08-23:17:35,10.1.1.11,26,0.010,0.010,0.010,0.000,0.000,0.000
1644362255281349888,2022-02-08-23:17:35,10.1.1.11,26,0.020,0.020,0.020,0.000,0.000,0.000
1644362255381319168,2022-02-08-23:17:35,10.1.1.11,25,0.030,0.030,0.030,0.000,0.000,0.000
1644362255481367040,2022-02-08-23:17:35,10.1.1.11,25,0.040,0.040,0.040,0.000,0.000,0.000
1644362255581980928,2022-02-08-23:17:35,10.1.1.11,24,0.050,0.050,0.050,0.000,0.000,0.000
1644362255681494016,2022-02-08-23:17:35,10.1.1.11,24,0.060,0.060,0.060,0.000,0.000,0.000
1644362255781689856,2022-02-08-23:17:35,10.1.1.11,23,0.070,0.070,0.070,0.000,0.000,0.000
1644362256201244160,2022-02-08-23:17:36,10.1.1.11,38,0.090,0.090,0.090,0.000,0.000,0.000
1644362256301230080,2022-02-08-23:17:36,10.1.1.11,38,0.080,0.080,0.080,0.000,0.000,0.000
1644362256402301952,2022-02-08-23:17:36,10.1.1.11,37,0.070,0.070,0.070,0.000,0.000,0.000
1644362256501502976,2022-02-08-23:17:36,10.1.1.11,37,0.060,0.060,0.060,0.000,0.000,0.000
1644362256602256128,2022-02-08-23:17:36,10.1.1.11,37,0.050,0.050,0.050,0.000,0.000,0.000
1644362256703318016,2022-02-08-23:17:36,10.1.1.11,37,0.040,0.040,0.040,0.000,0.000,0.000
1644362256803507200,2022-02-08-23:17:36,10.1.1.11,35,0.030,0.030,0.030,0.000,0.000,0.000
1644362256901515008,2022-02-08-23:17:36,10.1.1.11,34,0.020,0.020,0.020,0.000,0.000,0.000
1644362257402641152,2022-02-08-23:17:37,10.1.1.11,27,-0.030,-0.030,-0.030,0.000,0.000,0.000
1644362257501132032,2022-02-08-23:17:37,10.1.1.11,26,-0.040,-0.040,-0.040,0.000,0.000,0.000
1644362257602724096,2022-02-08-23:17:37,10.1.1.11,25,-0.050,-0.050,-0.050,0.000,0.000,0.000
1644362257921363200,2022-02-08-23:17:37,10.1.1.11,19,-0.079,-0.079,-0.079,0.000,0.000,0.000
1644362258041714944,2022-02-08-23:17:38,10.1.1.11,39,-0.090,-0.090,-0.090,0.000,0.000,0.000
1644362258142665984,2022-02-08-23:17:38,10.1.1.11,38,-0.100,-0.100,-0.100,0.000,0.000,0.000
1644362258242419968,2022-02-08-23:17:38,10.1.1.11,38,-0.090,-0.090,-0.090,0.000,0.000,0.000
1644362258341551104,2022-02-08-23:17:38,10.1.1.11,37,-0.080,-0.080,-0.080,0.000,0.000,0.000
1644362258442174976,2022-02-08-23:17:38,10.1.1.11,37,-0.070,-0.070,-0.070,0.000,0.000,0.000
1644362258542068992,2022-02-08-23:17:38,10.1.1.11,37,-0.060,-0.060,-0.060,0.000,0.000,0.000
1644362258641888000,2022-02-08-23:17:38,10.1.1.11,35,-0.050,-0.050,-0.050,0.000,0.000,0.000
1644362258742145024,2022-02-08-23:17:38,10.1.1.11,35,-0.040,-0.040,-0.040,0.000,0.000,0.000
1644362258842820864,2022-02-08-23:17:38,10.1.1.11,34,-0.030,-0.030,-0.030,0.000,0.000,0.000
1644362258942956032,2022-02-08-23:17:38,10.1.1.11,34,-0.020,-0.020,-0.020,0.000,0.000,0.000
1644362259041702144,2022-02-08-23:17:39,10.1.1.11,33,-0.010,-0.010,-0.010,0.000,0.000,0.000
1644362259742605056,2022-02-08-23:17:39,10.1.1.11,28,0.060,0.060,0.060,0.000,0.000,0.000
1644362259843019008,2022-02-08-23:17:39,10.1.1.11,26,0.070,0.070,0.070,0.000,0.000,0.000
1644362259942867968,2022-02-08-23:17:39,10.1.1.11,25,0.080,0.080,0.080,0.000,0.000,0.000
1644362260041934848,2022-02-08-23:17:40,10.1.1.11,25,0.090,0.090,0.090,0.000,0.000,0.000
1644362260143380992,2022-02-08-23:17:40,10.1.1.11,25,0.100,0.100,0.100,0.000,0.000,0.000
1644362260242588160,2022-02-08-23:17:40,10.1.1.11,24,0.090,0.090,0.090,0.000,0.000,0.000
1644362260442081024,2022-02-08-23:17:40,10.1.1.11,23,0.070,0.070,0.070,0.000,0.000,0.000
1644362260741908992,2022-02-08-23:17:40,10.1.1.11,20,0.040,0.040,0.040,0.000,0.000,0.000
1644362260918510848,2022-02-08-23:17:40,10.1.1.11,39,0.030,0.030,0.030,0.000,0.000,0.000
1644362260961435136,2022-02-08-23:17:40,10.1.1.11,39,0.020,0.020,0.020,0.000,0.000,0.000
1644362261041657088,2022-02-08-23:17:41,10.1.1.11,19,0.010,0.010,0.010,0.000,0.000,0.000
1644362261161572096,2022-02-08-23:17:41,10.1.1.11,38,0.000,0.000,0.000,0.000,0.000,0.000
1644362261261743104,2022-02-08-23:17:41,10.1.1.11,37,-0.010,-0.010,-0.010,0.000,0.000,0.000
1644362261362555904,2022-02-08-23:17:41,10.1.1.11,36,-0.020,-0.020,-0.020,0.000,0.000,0.000
1644362261462862080,2022-02-08-23:17:41,10.1.1.11,36,-0.030,-0.030,-0.030,0.000,0.000,0.000
1644362261563110144,2022-02-08-23:17:41,10.1.1.11,35,-0.040,-0.040,-0.040,0.000,0.000,0.000
1644362261662648064,2022-02-08-23:17:41,10.1.1.11,34,-0.050,-0.050,-0.050,0.000,0.000,0.000
1644362261763740160,2022-02-08-23:17:41,10.1.1.11,34,-0.060,-0.060,-0.060,0.000,0.000,0.000
1644362261862850048,2022-02-08-23:17:41,10.1.1.11,33,-0.070,-0.070,-0.070,0.000,0.000,0.000
1644362262362893056,2022-02-08-23:17:42,10.1.1.11,29,-0.080,-0.080,-0.080,0.000,0.000,0.000
1644362262562452992,2022-02-08-23:17:42,10.1.1.11,27,-0.060,-0.060,-0.060,0.000,0.000,0.000
1644362262662082816,2022-02-08-23:17:42,10.1.1.11,26,-0.050,-0.050,-0.050,0.000,0.000,0.000
1644362262763042816,2022-02-08-23:17:42,10.1.1.11,26,-0.040,-0.040,-0.040,0.000,0.000,0.000
1644362262862228992,2022-02-08-23:17:42,10.1.1.11,26,-0.030,-0.030,-0.030,0.000,0.000,0.000
1644362262963958016,2022-02-08-23:17:42,10.1.1.11,25,-0.020,-0.020,-0.020,0.000,0.000,0.000
1644362263064198912,2022-02-08-23:17:43,10.1.1.11,24,-0.010,-0.010,-0.010,0.000,0.000,0.000
1644362263562448128,2022-02-08-23:17:43,10.1.1.11,20,0.040,0.040,0.040,0.000,0.000,0.000
1644362263682002944,2022-02-08-23:17:43,10.1.1.11,39,0.050,0.050,0.050,0.000,0.000,0.000
1644362263782743040,2022-02-08-23:17:43,10.1.1.11,38,0.060,0.060,0.060,0.000,0.000,0.000
1644362263875438848,2022-02-08-23:17:43,10.1.1.11,29,0.070,0.070,0.070,0.000,0.000,0.000
1644362263982566144,2022-02-08-23:17:43,10.1.1.11,37,0.080,0.080,0.080,0.000,0.000,0.000
1644362264082465792,2022-02-08-23:17:44,10.1.1.11,36,0.090,0.090,0.090,0.000,0.000,0.000
1644362264182477824,2022-02-08-23:17:44,10.1.1.11,36,0.100,0.100,0.100,0.000,0.000,0.000
1644362264282394880,2022-02-08-23:17:44,10.1.1.11,35,0.090,0.090,0.090,0.000,0.000,0.000
1644362264382371072,2022-02-08-23:17:44,10.1.1.11,35,0.080,0.080,0.080,0.000,0.000,0.000
1644362264481939200,2022-02-08-23:17:44,10.1.1.11,33,0.070,0.070,0.070,0.000,0.000,0.000
1644362264682349056,2022-02-08-23:17:44,10.1.1.11,29,0.050,0.050,0.050,0.000,0.000,0.000
1644362264782290944,2022-02-08-23:17:44,10.1.1.11,29,0.040,0.040,0.040,0.000,0.000,0.000
1644362264882110976,2022-02-08-23:17:44,10.1.1.11,28,0.030,0.030,0.030,0.000,0.000,0.000
1644362264982649088,2022-02-08-23:17:44,10.1.1.11,28,0.020,0.020,0.020,0.000,0.000,0.000
1644362265082284032,2022-02-08-23:17:45,10.1.1.11,27,0.010,0.010,0.010,0.000,0.000,0.000
1644362265182795008,2022-02-08-23:17:45,10.1.1.11,27,0.000,0.000,0.000,0.000,0.000,0.000
1644362265282511872,2022-02-08-23:17:45,10.1.1.11,26,-0.010,-0.010,-0.010,0.000,0.000,0.000
1644362265383197952,2022-02-08-23:17:45,10.1.1.11,25,-0.020,-0.020,-0.020,0.000,0.000,0.000
1644362265483777024,2022-02-08-23:17:45,10.1.1.11,25,-0.030,-0.030,-0.030,0.000,0.000,0.000
1644362265582658048,2022-02-08-23:17:45,10.1.1.11,24,-0.040,-0.040,-0.040,0.000,0.000,0.000
1644362265683995136,2022-02-08-23:17:45,10.1.1.11,23,-0.050,-0.050,-0.050,0.000,0.000,0.000
1644362265781851904,2022-02-08-23:17:45,10.1.1.11,23,-0.060,-0.060,-0.060,0.000,0.000,0.000
1644362265882276096,2022-02-08-23:17:45,10.1.1.11,23,-0.070,-0.070,-0.070,0.000,0.000,0.000
1644362266463213056,2022-02-08-23:17:46,10.1.1.11,0,-0.070,-0.070,-0.070,0.000,0.000,0.000
1644362266603704064,2022-02-08-23:17:46,10.1.1.11,40,-0.060,-0.060,-0.060,0.000,0.000,0.000
1644362266702310912,2022-02-08-23:17:46,10.1.1.11,39,-0.050,-0.050,-0.050,0.000,0.000,0.000
1644362266803412992,2022-02-08-23:17:46,10.1.1.11,38,-0.040,-0.040,-0.040,0.000,0.000,0.000
1644362266902821120,2022-02-08-23:17:46,10.1.1.11,38,-0.030,-0.030,-0.030,0.000,0.000,0.000
1644362267003433984,2022-02-08-23:17:47,10.1.1.11,38,-0.020,-0.020,-0.020,0.000,0.000,0.000
1644362267102441984,2022-02-08-23:17:47,10.1.1.11,37,-0.010,-0.010,-0.010,0.000,0.000,0.000
1644362267203363840,2022-02-08-23:17:47,10.1.1.11,37,0.000,0.000,0.000,0.000,0.000,0.000
1644362267302792192,2022-02-08-23:17:47,10.1.1.11,36,0.010,0.010,0.010,0.000,0.000,0.000
1644362267396704000,2022-02-08-23:17:47,10.1.1.11,28,0.020,0.020,0.020,0.000,0.000,0.000
1644362267503035904,2022-02-08-23:17:47,10.1.1.11,34,0.030,0.030,0.030,0.000,0.000,0.000
1644362268003355904,2022-02-08-23:17:48,10.1.1.11,29,0.080,0.080,0.080,0.000,0.000,0.000
1644362268203300864,2022-02-08-23:17:48,10.1.1.11,28,0.100,0.100,0.100,0.000,0.000,0.000
1644362268302859008,2022-02-08-23:17:48,10.1.1.11,28,0.090,0.090,0.090,0.000,0.000,0.000
1644362268402572032,2022-02-08-23:17:48,10.1.1.11,27,0.080,0.080,0.080,0.000,0.000,0.000
1644362268502540032,2022-02-08-23:17:48,10.1.1.11,26,0.070,0.070,0.070,0.000,0.000,0.000
1644362268603234048,2022-02-08-23:17:48,10.1.1.11,25,0.060,0.060,0.060,0.000,0.000,0.000
1644362268702161920,2022-02-08-23:17:48,10.1.1.11,25,0.050,0.050,0.050,0.000,0.000,0.000
1644362268802917120,2022-02-08-23:17:48,10.1.1.11,24,0.040,0.040,0.040,0.000,0.000,0.000
1644362268903318016,2022-02-08-23:17:48,10.1.1.11,24,0.030,0.030,0.030,0.000,0.000,0.000
1644362269007136000,2022-02-08-23:17:49,10.1.1.11,23,0.020,0.020,0.020,0.000,0.000,0.000
1644362269502831872,2022-02-08-23:17:49,10.1.1.11,20,-0.030,-0.030,-0.030,0.000,0.000,0.000
1644362269622189056,2022-02-08-23:17:49,10.1.1.11,39,-0.040,-0.040,-0.040,0.000,0.000,0.000
1644362269723557120,2022-02-08-23:17:49,10.1.1.11,39,-0.050,-0.050,-0.050,0.000,0.000,0.000
1644362269922532096,2022-02-08-23:17:49,10.1.1.11,38,-0.070,-0.070,-0.070,0.000,0.000,0.000
1644362270022695936,2022-02-08-23:17:50,10.1.1.11,38,-0.080,-0.080,-0.080,0.000,0.000,0.000
1644362270123584000,2022-02-08-23:17:50,10.1.1.11,37,-0.090,-0.090,-0.090,0.000,0.000,0.000
1644362270222265088,2022-02-08-23:17:50,10.1.1.11,37,-0.100,-0.100,-0.100,0.000,0.000,0.000
1644362270322630912,2022-02-08-23:17:50,10.1.1.11,35,-0.090,-0.090,-0.090,0.000,0.000,0.000
1644362270422756864,2022-02-08-23:17:50,10.1.1.11,35,-0.080,-0.080,-0.080,0.000,0.000,0.000
1644362270523554048,2022-02-08-23:17:50,10.1.1.11,34,-0.070,-0.070,-0.070,0.000,0.000,0.000
1644362270822413824,2022-02-08-23:17:50,10.1.1.11,20,-0.040,-0.040,-0.040,0.000,0.000,0.000
1644362270943731968,2022-02-08-23:17:50,10.1.1.11,38,-0.030,-0.030,-0.030,0.000,0.000,0.000
1644362271042618880,2022-02-08-23:17:51,10.1.1.11,38,-0.020,-0.020,-0.020,0.000,0.000,0.000
1644362271142728192,2022-02-08-23:17:51,10.1.1.11,38,-0.010,-0.010,-0.010,0.000,0.000,0.000
1644362271242636032,2022-02-08-23:17:51,10.1.1.11,37,0.000,0.000,0.000,0.000,0.000,0.000
1644362271342641152,2022-02-08-23:17:51,10.1.1.11,37,0.010,0.010,0.010,0.000,0.000,0.000
1644362271442486016,2022-02-08-23:17:51,10.1.1.11,36,0.020,0.020,0.020,0.000,0.000,0.000
1644362271543174912,2022-02-08-23:17:51,10.1.1.11,35,0.030,0.030,0.030,0.000,0.000,0.000
1644362271642144000,2022-02-08-23:17:51,10.1.1.11,35,0.040,0.040,0.040,0.000,0.000,0.000
1644362271742849024,2022-02-08-23:17:51,10.1.1.11,34,0.050,0.050,0.050,0.000,0.000,0.000
1644362271842073088,2022-02-08-23:17:51,10.1.1.11,33,0.060,0.060,0.060,0.000,0.000,0.000
1644362271942740992,2022-02-08-23:17:51,10.1.1.11,33,0.070,0.070,0.070,0.000,0.000,0.000
1644362272042510080,2022-02-08-23:17:52,10.1.1.11,32,0.080,0.080,0.080,0.000,0.000,0.000
1644362272422799104,2022-02-08-23:17:52,10.1.1.11,10,0.080,0.080,0.080,0.000,0.000,0.000
1644362272543510016,2022-02-08-23:17:52,10.1.1.11,29,0.070,0.070,0.070,0.000,0.000,0.000
1644362272642620928,2022-02-08-23:17:52,10.1.1.11,29,0.060,0.060,0.060,0.000,0.000,0.000
1644362272743032064,2022-02-08-23:17:52,10.1.1.11,28,0.050,0.050,0.050,0.000,0.000,0.000
1644362272842722048,2022-02-08-23:17:52,10.1.1.11,28,0.040,0.040,0.040,0.000,0.000,0.000
1644362272943288064,2022-02-08-23:17:52,10.1.1.11,27,0.030,0.030,0.030,0.000,0.000,0.000
1644362273042854912,2022-02-08-23:17:53,10.1.1.11,27,0.020,0.020,0.020,0.000,0.000,0.000
1644362273142454016,2022-02-08-23:17:53,10.1.1.11,27,0.010,0.010,0.010,0.000,0.000,0.000
1644362273242301952,2022-02-08-23:17:53,10.1.1.11,26,0.000,0.000,0.000,0.000,0.000,0.000
1644362273342173184,2022-02-08-23:17:53,10.1.1.11,26,-0.010,-0.010,-0.010,0.000,0.000,0.000
1644362273442603008,2022-02-08-23:17:53,10.1.1.11,26,-0.020,-0.020,-0.020,0.000,0.000,0.000
1644362273544635136,2022-02-08-23:17:53,10.1.1.11,24,-0.030,-0.030,-0.030,0.000,0.000,0.000
1644362273643132928,2022-02-08-23:17:53,10.1.1.11,24,-0.040,-0.040,-0.040,0.000,0.000,0.000
1644362273742897920,2022-02-08-23:17:53,10.1.1.11,23,-0.050,-0.050,-0.050,0.000,0.000,0.000
1644362274463066112,2022-02-08-23:17:54,10.1.1.11,39,-0.080,-0.080,-0.080,0.000,0.000,0.000
1644362274563298048,2022-02-08-23:17:54,10.1.1.11,39,-0.070,-0.070,-0.070,0.000,0.000,0.000
1644362274663425024,2022-02-08-23:17:54,10.1.1.11,38,-0.060,-0.060,-0.060,0.000,0.000,0.000
1644362274763026944,2022-02-08-23:17:54,10.1.1.11,36,-0.050,-0.050,-0.050,0.000,0.000,0.000
1644362274862567936,2022-02-08-23:17:54,10.1.1.11,36,-0.040,-0.040,-0.040,0.000,0.000,0.000
1644362274962401024,2022-02-08-23:17:54,10.1.1.11,35,-0.030,-0.030,-0.030,0.000,0.000,0.000
1644362275062542080,2022-02-08-23:17:55,10.1.1.11,34,-0.020,-0.020,-0.020,0.000,0.000,0.000
1644362275162448896,2022-02-08-23:17:55,10.1.1.11,34,-0.010,-0.010,-0.010,0.000,0.000,0.000
1644362275262659072,2022-02-08-23:17:55,10.1.1.11,34,0.000,0.000,0.000,0.000,0.000,0.000
1644362275363451904,2022-02-08-23:17:55,10.1.1.11,33,0.010,0.010,0.010,0.000,0.000,0.000
1644362275462877952,2022-02-08-23:17:55,10.1.1.11,32,0.020,0.020,0.020,0.000,0.000,0.000
1644362275562515968,2022-02-08-23:17:55,10.1.1.11,32,0.030,0.030,0.030,0.000,0.000,0.000
1644362275962461952,2022-02-08-23:17:55,10.1.1.11,30,0.070,0.070,0.070,0.000,0.000,0.000
1644362276062941952,2022-02-08-23:17:56,10.1.1.11,29,0.080,0.080,0.080,0.000,0.000,0.000
1644362276163057920,2022-02-08-23:17:56,10.1.1.11,29,0.090,0.090,0.090,0.000,0.000,0.000
1644362276263124992,2022-02-08-23:17:56,10.1.1.11,28,0.100,0.100,0.100,0.000,0.000,0.000
1644362276362785024,2022-02-08-23:17:56,10.1.1.11,28,0.090,0.090,0.090,0.000,0.000,0.000
1644362276463032064,2022-02-08-23:17:56,10.1.1.11,27,0.080,0.080,0.080,0.000,0.000,0.000
1644362276562318080,2022-02-08-23:17:56,10.1.1.11,27,0.070,0.070,0.070,0.000,0.000,0.000
1644362276662457856,2022-02-08-23:17:56,10.1.1.11,26,0.060,0.060,0.060,0.000,0.000,0.000
1644362276762521088,2022-02-08-23:17:56,10.1.1.11,26,0.050,0.050,0.050,0.000,0.000,0.000
1644362276862643968,2022-02-08-23:17:56,10.1.1.11,25,0.040,0.040,0.040,0.000,0.000,0.000
1644362276962536192,2022-02-08-23:17:56,10.1.1.11,25,0.030,0.030,0.030,0.000,0.000,0.000
1644362277062778112,2022-02-08-23:17:57,10.1.1.11,25,0.020,0.020,0.020,0.000,0.000,0.000
1644362277162887168,2022-02-08-23:17:57,10.1.1.11,24,0.010,0.010,0.010,0.000,0.000,0.000
1644362277263058944,2022-02-08-23:17:57,10.1.1.11,23,0.000,0.000,0.000,0.000,0.000,0.000
1644362277362903040,2022-02-08-23:17:57,10.1.1.11,23,-0.010,-0.010,-0.010,0.000,0.000,0.000
1644362277462342912,2022-02-08-23:17:57,10.1.1.11,22,-0.020,-0.020,-0.020,0.000,0.000,0.000
1644362277563035136,2022-02-08-23:17:57,10.1.1.11,22,-0.030,-0.030,-0.030,0.000,0.000,0.000
1644362278082736896,2022-02-08-23:17:58,10.1.1.11,39,-0.080,-0.080,-0.080,0.000,0.000,0.000
1644362278182658048,2022-02-08-23:17:58,10.1.1.11,38,-0.090,-0.090,-0.090,0.000,0.000,0.000
1644362278282740992,2022-02-08-23:17:58,10.1.1.11,38,-0.100,-0.100,-0.100,0.000,0.000,0.000
1644362278382200064,2022-02-08-23:17:58,10.1.1.11,37,-0.090,-0.090,-0.090,0.000,0.000,0.000
1644362278482803200,2022-02-08-23:17:58,10.1.1.11,37,-0.080,-0.080,-0.080,0.000,0.000,0.000
1644362278582590208,2022-02-08-23:17:58,10.1.1.11,36,-0.070,-0.070,-0.070,0.000,0.000,0.000
1644362278682184960,2022-02-08-23:17:58,10.1.1.11,35,-0.060,-0.060,-0.060,0.000,0.000,0.000
1644362278782608128,2022-02-08-23:17:58,10.1.1.11,35,-0.050,-0.050,-0.050,0.000,0.000,0.000
1644362278882899968,2022-02-08-23:17:58,10.1.1.11,34,-0.040,-0.040,-0.040,0.000,0.000,0.000
1644362278982525184,2022-02-08-23:17:58,10.1.1.11,34,-0.030,-0.030,-0.030,0.000,0.000,0.000
1644362279082836992,2022-02-08-23:17:59,10.1.1.11,34,-0.020,-0.020,-0.020,0.000,0.000,0.000
1644362279182562048,2022-02-08-23:17:59,10.1.1.11,33,-0.010,-0.010,-0.010,0.000,0.000,0.000
1644362279282556928,2022-02-08-23:17:59,10.1.1.11,32,0.000,0.000,0.000,0.000,0.000,0.000
1644362279682650112,2022-02-08-23:17:59,10.1.1.11,29,0.040,0.040,0.040,0.000,0.000,0.000
1644362279882788864,2022-02-08-23:17:59,10.1.1.11,28,0.060,0.060,0.060,0.000,0.000,0.000
1644362279982891008,2022-02-08-23:17:59,10.1.1.11,28,0.070,0.070,0.070,0.000,0.000,0.000
1644362280083201024,2022-02-08-23:18:00,10.1.1.11,28,0.080,0.080,0.080,0.000,0.000,0.000
1644362280183526144,2022-02-08-23:18:00,10.1.1.11,28,0.090,0.090,0.090,0.000,0.000,0.000
1644362280282369024,2022-02-08-23:18:00,10.1.1.11,27,0.100,0.100,0.100,0.000,0.000,0.000
1644362280382318848,2022-02-08-23:18:00,10.1.1.11,26,0.090,0.090,0.090,0.000,0.000,0.000
1644362280482779136,2022-02-08-23:18:00,10.1.1.11,26,0.080,0.080,0.080,0.000,0.000,0.000
1644362280582876928,2022-02-08-23:18:00,10.1.1.11,26,0.070,0.070,0.070,0.000,0.000,0.000
1644362280682700032,2022-02-08-23:18:00,10.1.1.11,25,0.060,0.060,0.060,0.000,0.000,0.000
1644362280782872064,2022-02-08-23:18:00,10.1.1.11,24,0.050,0.050,0.050,0.000,0.000,0.000
1644362280882458880,2022-02-08-23:18:00,10.1.1.11,24,0.040,0.040,0.040,0.000,0.000,0.000
1644362280983691008,2022-02-08-23:18:00,10.1.1.11,24,0.030,0.030,0.030,0.000,0.000,0.000
1644362281083832064,2022-02-08-23:18:01,10.1.1.11,23,0.020,0.020,0.020,0.000,0.000,0.000
1644362281183305984,2022-02-08-23:18:01,10.1.1.11,22,0.010,0.010,0.010,0.000,0.000,0.000
1644362281682737152,2022-02-08-23:18:01,10.1.1.11,19,-0.040,-0.040,-0.040,0.000,0.000,0.000
1644362281802615040,2022-02-08-23:18:01,10.1.1.11,39,-0.050,-0.050,-0.050,0.000,0.000,0.000
1644362281902148096,2022-02-08-23:18:01,10.1.1.11,38,-0.060,-0.060,-0.060,0.000,0.000,0.000
