FedericoMungari/DigitalTwin_service/01_WiredScenario/Output/Output_script/script_rosapi_2_output_robots4_freq0_2.txt
timestamp,date,node,latency,joint_1,joint_2,joint_3,joint_4,joint_5,joint_6
1644344711394792192,2022-02-08-18:25:11,10.1.1.3,2,-0.100,-0.100,-0.100,0.000,-0.000,-0.000
1644344711514596864,2022-02-08-18:25:11,10.1.1.3,21,-0.090,-0.090,-0.090,0.000,0.000,0.000
1644344711613496064,2022-02-08-18:25:11,10.1.1.3,20,-0.080,-0.080,-0.080,0.000,0.000,0.000
1644344711714895872,2022-02-08-18:25:11,10.1.1.3,20,-0.070,-0.070,-0.070,0.000,0.000,0.000
1644344711834039040,2022-02-08-18:25:11,10.1.1.3,39,-0.060,-0.060,-0.060,0.000,0.000,0.000
1644344711935225088,2022-02-08-18:25:11,10.1.1.3,38,-0.050,-0.050,-0.050,0.000,0.000,0.000
1644344712134594048,2022-02-08-18:25:12,10.1.1.3,32,-0.030,-0.030,-0.030,0.000,0.000,0.000
1644344712232732928,2022-02-08-18:25:12,10.1.1.3,31,-0.020,-0.020,-0.020,0.000,0.000,0.000
1644344712335091968,2022-02-08-18:25:12,10.1.1.3,30,-0.010,-0.010,-0.010,0.000,0.000,0.000
1644344712434084864,2022-02-08-18:25:12,10.1.1.3,30,0.000,0.000,0.000,0.000,0.000,0.000
1644344712535790080,2022-02-08-18:25:12,10.1.1.3,28,0.010,0.010,0.010,0.000,0.000,0.000
1644344712633651968,2022-02-08-18:25:12,10.1.1.3,27,0.020,0.020,0.020,0.000,0.000,0.000
1644344712735851008,2022-02-08-18:25:12,10.1.1.3,27,0.030,0.030,0.030,0.000,0.000,0.000
1644344712835781120,2022-02-08-18:25:12,10.1.1.3,25,0.040,0.040,0.040,0.000,0.000,0.000
1644344712935611136,2022-02-08-18:25:12,10.1.1.3,24,0.050,0.050,0.050,0.000,0.000,0.000
1644344713035036160,2022-02-08-18:25:13,10.1.1.3,23,0.060,0.060,0.060,0.000,0.000,0.000
1644344713134833152,2022-02-08-18:25:13,10.1.1.3,22,0.070,0.070,0.070,0.000,0.000,0.000
1644344713235022080,2022-02-08-18:25:13,10.1.1.3,21,0.080,0.080,0.080,0.000,0.000,0.000
1644344713334449152,2022-02-08-18:25:13,10.1.1.3,20,0.090,0.090,0.090,0.000,0.000,0.000
1644344713433211136,2022-02-08-18:25:13,10.1.1.3,19,0.099,0.099,0.099,0.000,0.000,0.000
1644344713555507968,2022-02-08-18:25:13,10.1.1.3,37,0.090,0.090,0.090,0.000,0.000,0.000
1644344713653011968,2022-02-08-18:25:13,10.1.1.3,37,0.080,0.080,0.080,0.000,0.000,0.000
1644344713754487040,2022-02-08-18:25:13,10.1.1.3,36,0.070,0.070,0.070,0.000,0.000,0.000
1644344713857067008,2022-02-08-18:25:13,10.1.1.3,33,0.060,0.060,0.060,0.000,0.000,0.000
1644344713955672064,2022-02-08-18:25:13,10.1.1.3,32,0.050,0.050,0.050,0.000,0.000,0.000
1644344714055777024,2022-02-08-18:25:14,10.1.1.3,30,0.040,0.040,0.040,0.000,0.000,0.000
1644344714155044096,2022-02-08-18:25:14,10.1.1.3,23,0.030,0.030,0.030,0.000,0.000,0.000
1644344714255002112,2022-02-08-18:25:14,10.1.1.3,22,0.020,0.020,0.020,0.000,0.000,0.000
1644344714353771008,2022-02-08-18:25:14,10.1.1.3,20,0.010,0.010,0.010,0.000,0.000,0.000
1644344714473505024,2022-02-08-18:25:14,10.1.1.3,39,0.000,0.000,0.000,0.000,0.000,0.000
1644344714578729984,2022-02-08-18:25:14,10.1.1.3,38,-0.010,-0.010,-0.010,0.000,0.000,0.000
1644344714673441024,2022-02-08-18:25:14,10.1.1.3,32,-0.020,-0.020,-0.020,0.000,0.000,0.000
1644344714774554880,2022-02-08-18:25:14,10.1.1.3,31,-0.030,-0.030,-0.030,0.000,0.000,0.000
1644344714878379008,2022-02-08-18:25:14,10.1.1.3,30,-0.040,-0.040,-0.040,0.000,0.000,0.000
1644344714976358912,2022-02-08-18:25:14,10.1.1.3,24,-0.050,-0.050,-0.050,0.000,0.000,0.000
1644344715171276032,2022-02-08-18:25:15,10.1.1.3,20,-0.070,-0.070,-0.070,0.000,0.000,0.000
1644344715291548928,2022-02-08-18:25:15,10.1.1.3,38,-0.080,-0.080,-0.080,0.000,0.000,0.000
1644344715393187072,2022-02-08-18:25:15,10.1.1.3,37,-0.090,-0.090,-0.090,0.000,0.000,0.000
1644344715492819968,2022-02-08-18:25:15,10.1.1.3,34,-0.100,-0.100,-0.100,0.000,0.000,0.000
1644344715595115008,2022-02-08-18:25:15,10.1.1.3,33,-0.090,-0.090,-0.090,0.000,0.000,0.000
1644344715693722112,2022-02-08-18:25:15,10.1.1.3,31,-0.080,-0.080,-0.080,0.000,0.000,0.000
1644344715793942016,2022-02-08-18:25:15,10.1.1.3,30,-0.070,-0.070,-0.070,0.000,0.000,0.000
1644344715893230080,2022-02-08-18:25:15,10.1.1.3,30,-0.060,-0.060,-0.060,0.000,0.000,0.000
1644344715991503872,2022-02-08-18:25:15,10.1.1.3,29,-0.050,-0.050,-0.050,0.000,0.000,0.000
1644344716094181120,2022-02-08-18:25:16,10.1.1.3,29,-0.040,-0.040,-0.040,0.000,0.000,0.000
1644344716194593024,2022-02-08-18:25:16,10.1.1.3,27,-0.030,-0.030,-0.030,0.000,0.000,0.000
1644344716291709952,2022-02-08-18:25:16,10.1.1.3,27,-0.020,-0.020,-0.020,0.000,0.000,0.000
1644344716391362816,2022-02-08-18:25:16,10.1.1.3,25,-0.010,-0.010,-0.010,0.000,0.000,0.000
1644344716492319232,2022-02-08-18:25:16,10.1.1.3,24,0.000,0.000,0.000,0.000,0.000,0.000
1644344716591633152,2022-02-08-18:25:16,10.1.1.3,22,0.010,0.010,0.010,0.000,0.000,0.000
1644344716694596096,2022-02-08-18:25:16,10.1.1.3,21,0.020,0.020,0.020,0.000,0.000,0.000
1644344716792992000,2022-02-08-18:25:16,10.1.1.3,19,0.030,0.030,0.030,0.000,0.000,0.000
1644344716895944192,2022-02-08-18:25:16,10.1.1.3,23,0.040,0.040,0.040,0.000,0.000,0.000
1644344717016668160,2022-02-08-18:25:17,10.1.1.3,38,0.050,0.050,0.050,0.000,0.000,0.000
1644344717113795072,2022-02-08-18:25:17,10.1.1.3,37,0.060,0.060,0.060,0.000,0.000,0.000
1644344717213463040,2022-02-08-18:25:17,10.1.1.3,36,0.070,0.070,0.070,0.000,0.000,0.000
1644344717314277888,2022-02-08-18:25:17,10.1.1.3,33,0.080,0.080,0.080,0.000,0.000,0.000
1644344717414097152,2022-02-08-18:25:17,10.1.1.3,31,0.090,0.090,0.090,0.000,0.000,0.000
1644344717515863040,2022-02-08-18:25:17,10.1.1.3,30,0.100,0.100,0.100,0.000,0.000,0.000
1644344717616709888,2022-02-08-18:25:17,10.1.1.3,28,0.090,0.090,0.090,0.000,0.000,0.000
1644344717713040128,2022-02-08-18:25:17,10.1.1.3,26,0.080,0.080,0.080,0.000,0.000,0.000
1644344717815380992,2022-02-08-18:25:17,10.1.1.3,23,0.070,0.070,0.070,0.000,0.000,0.000
1644344717914577920,2022-02-08-18:25:17,10.1.1.3,22,0.060,0.060,0.060,0.000,0.000,0.000
1644344718012434944,2022-02-08-18:25:18,10.1.1.3,20,0.050,0.050,0.050,0.000,0.000,0.000
1644344718114414080,2022-02-08-18:25:18,10.1.1.3,20,0.040,0.040,0.040,0.000,0.000,0.000
1644344718231682048,2022-02-08-18:25:18,10.1.1.3,39,0.030,0.030,0.030,0.000,0.000,0.000
1644344718332286976,2022-02-08-18:25:18,10.1.1.3,38,0.020,0.020,0.020,0.000,0.000,0.000
1644344718435971072,2022-02-08-18:25:18,10.1.1.3,34,0.010,0.010,0.010,0.000,0.000,0.000
1644344718534057984,2022-02-08-18:25:18,10.1.1.3,32,0.000,0.000,0.000,0.000,0.000,0.000
1644344718632155904,2022-02-08-18:25:18,10.1.1.3,31,-0.010,-0.010,-0.010,0.000,0.000,0.000
1644344718731468032,2022-02-08-18:25:18,10.1.1.3,30,-0.020,-0.020,-0.020,0.000,0.000,0.000
1644344718831341056,2022-02-08-18:25:18,10.1.1.3,29,-0.030,-0.030,-0.030,0.000,0.000,0.000
1644344718931942912,2022-02-08-18:25:18,10.1.1.3,28,-0.040,-0.040,-0.040,0.000,0.000,0.000
1644344719033284864,2022-02-08-18:25:19,10.1.1.3,28,-0.050,-0.050,-0.050,0.000,0.000,0.000
1644344719131973120,2022-02-08-18:25:19,10.1.1.3,27,-0.060,-0.060,-0.060,0.000,0.000,0.000
1644344719231827968,2022-02-08-18:25:19,10.1.1.3,25,-0.070,-0.070,-0.070,0.000,0.000,0.000
1644344719334091776,2022-02-08-18:25:19,10.1.1.3,24,-0.080,-0.080,-0.080,0.000,0.000,0.000
1644344719439100928,2022-02-08-18:25:19,10.1.1.3,23,-0.090,-0.090,-0.090,0.000,0.000,0.000
1644344719534789120,2022-02-08-18:25:19,10.1.1.3,22,-0.100,-0.100,-0.100,0.000,0.000,0.000
1644344719635112960,2022-02-08-18:25:19,10.1.1.3,20,-0.090,-0.090,-0.090,0.000,0.000,0.000
1644344719734492928,2022-02-08-18:25:19,10.1.1.3,19,-0.081,-0.081,-0.081,0.000,0.000,0.000
1644344719857908992,2022-02-08-18:25:19,10.1.1.3,38,-0.070,-0.070,-0.070,0.000,0.000,0.000
1644344719954601984,2022-02-08-18:25:19,10.1.1.3,36,-0.060,-0.060,-0.060,0.000,0.000,0.000
1644344720052500992,2022-02-08-18:25:20,10.1.1.3,30,-0.050,-0.050,-0.050,0.000,0.000,0.000
1644344720152995072,2022-02-08-18:25:20,10.1.1.3,29,-0.040,-0.040,-0.040,0.000,0.000,0.000
1644344720252791808,2022-02-08-18:25:20,10.1.1.3,26,-0.030,-0.030,-0.030,0.000,0.000,0.000
1644344720352168960,2022-02-08-18:25:20,10.1.1.3,25,-0.020,-0.020,-0.020,0.000,0.000,0.000
1644344720453012992,2022-02-08-18:25:20,10.1.1.3,23,-0.010,-0.010,-0.010,0.000,0.000,0.000
1644344720554779136,2022-02-08-18:25:20,10.1.1.3,22,0.000,0.000,0.000,0.000,0.000,0.000
1644344720653920000,2022-02-08-18:25:20,10.1.1.3,21,0.010,0.010,0.010,0.000,0.000,0.000
1644344720751622912,2022-02-08-18:25:20,10.1.1.3,20,0.020,0.020,0.020,0.000,0.000,0.000
1644344720871890944,2022-02-08-18:25:20,10.1.1.3,39,0.030,0.030,0.030,0.000,0.000,0.000
1644344720974265088,2022-02-08-18:25:20,10.1.1.3,37,0.040,0.040,0.040,0.000,0.000,0.000
1644344721073399040,2022-02-08-18:25:21,10.1.1.3,33,0.050,0.050,0.050,0.000,0.000,0.000
1644344721174374144,2022-02-08-18:25:21,10.1.1.3,32,0.060,0.060,0.060,0.000,0.000,0.000
1644344721272606976,2022-02-08-18:25:21,10.1.1.3,31,0.070,0.070,0.070,0.000,0.000,0.000
1644344721373203968,2022-02-08-18:25:21,10.1.1.3,30,0.080,0.080,0.080,0.000,0.000,0.000
1644344721473197824,2022-02-08-18:25:21,10.1.1.3,29,0.090,0.090,0.090,0.000,0.000,0.000
1644344721572909056,2022-02-08-18:25:21,10.1.1.3,28,0.100,0.100,0.100,0.000,0.000,0.000
1644344721672622848,2022-02-08-18:25:21,10.1.1.3,27,0.090,0.090,0.090,0.000,0.000,0.000
1644344721771972864,2022-02-08-18:25:21,10.1.1.3,25,0.080,0.080,0.080,0.000,0.000,0.000
1644344721872272896,2022-02-08-18:25:21,10.1.1.3,24,0.070,0.070,0.070,0.000,0.000,0.000
1644344721974369024,2022-02-08-18:25:21,10.1.1.3,24,0.060,0.060,0.060,0.000,0.000,0.000
1644344722074508800,2022-02-08-18:25:22,10.1.1.3,23,0.050,0.050,0.050,0.000,0.000,0.000
1644344722173410816,2022-02-08-18:25:22,10.1.1.3,20,0.040,0.040,0.040,0.000,0.000,0.000
1644344722271982848,2022-02-08-18:25:22,10.1.1.3,20,0.030,0.030,0.030,0.000,0.000,0.000
1644344722392023040,2022-02-08-18:25:22,10.1.1.3,39,0.020,0.020,0.020,0.000,0.000,0.000
1644344722493176832,2022-02-08-18:25:22,10.1.1.3,38,0.010,0.010,0.010,0.000,0.000,0.000
1644344722593189888,2022-02-08-18:25:22,10.1.1.3,35,0.000,0.000,0.000,0.000,0.000,0.000
1644344722692451840,2022-02-08-18:25:22,10.1.1.3,33,-0.010,-0.010,-0.010,0.000,0.000,0.000
1644344722792538880,2022-02-08-18:25:22,10.1.1.3,33,-0.020,-0.020,-0.020,0.000,0.000,0.000
1644344722892541952,2022-02-08-18:25:22,10.1.1.3,32,-0.030,-0.030,-0.030,0.000,0.000,0.000
1644344722991462912,2022-02-08-18:25:22,10.1.1.3,30,-0.040,-0.040,-0.040,0.000,0.000,0.000
1644344723093192192,2022-02-08-18:25:23,10.1.1.3,29,-0.050,-0.050,-0.050,0.000,0.000,0.000
1644344723193809152,2022-02-08-18:25:23,10.1.1.3,28,-0.060,-0.060,-0.060,0.000,0.000,0.000
1644344723291520000,2022-02-08-18:25:23,10.1.1.3,26,-0.070,-0.070,-0.070,0.000,0.000,0.000
1644344723394556160,2022-02-08-18:25:23,10.1.1.3,25,-0.080,-0.080,-0.080,0.000,0.000,0.000
1644344723492357120,2022-02-08-18:25:23,10.1.1.3,24,-0.090,-0.090,-0.090,0.000,0.000,0.000
1644344723593012992,2022-02-08-18:25:23,10.1.1.3,24,-0.100,-0.100,-0.100,0.000,0.000,0.000
1644344723691117056,2022-02-08-18:25:23,10.1.1.3,23,-0.090,-0.090,-0.090,0.000,0.000,0.000
1644344723794054144,2022-02-08-18:25:23,10.1.1.3,22,-0.080,-0.080,-0.080,0.000,0.000,0.000
1644344723892046080,2022-02-08-18:25:23,10.1.1.3,21,-0.070,-0.070,-0.070,0.000,0.000,0.000
1644344723994138112,2022-02-08-18:25:23,10.1.1.3,21,-0.060,-0.060,-0.060,0.000,0.000,0.000
1644344724092546816,2022-02-08-18:25:24,10.1.1.3,20,-0.050,-0.050,-0.050,0.000,0.000,0.000
1644344724212955904,2022-02-08-18:25:24,10.1.1.3,39,-0.040,-0.040,-0.040,0.000,0.000,0.000
1644344724311820032,2022-02-08-18:25:24,10.1.1.3,38,-0.030,-0.030,-0.030,0.000,0.000,0.000
1644344724412657920,2022-02-08-18:25:24,10.1.1.3,37,-0.020,-0.020,-0.020,0.000,0.000,0.000
1644344724511872000,2022-02-08-18:25:24,10.1.1.3,36,-0.010,-0.010,-0.010,0.000,0.000,0.000
1644344724613423104,2022-02-08-18:25:24,10.1.1.3,34,0.000,0.000,0.000,0.000,0.000,0.000
1644344724714071040,2022-02-08-18:25:24,10.1.1.3,32,0.010,0.010,0.010,0.000,0.000,0.000
1644344724814444032,2022-02-08-18:25:24,10.1.1.3,30,0.020,0.020,0.020,0.000,0.000,0.000
1644344724913137920,2022-02-08-18:25:24,10.1.1.3,28,0.030,0.030,0.030,0.000,0.000,0.000
1644344725015218944,2022-02-08-18:25:25,10.1.1.3,26,0.040,0.040,0.040,0.000,0.000,0.000
1644344725114383872,2022-02-08-18:25:25,10.1.1.3,25,0.050,0.050,0.050,0.000,0.000,0.000
1644344725211446016,2022-02-08-18:25:25,10.1.1.3,24,0.060,0.060,0.060,0.000,0.000,0.000
1644344725311878912,2022-02-08-18:25:25,10.1.1.3,23,0.070,0.070,0.070,0.000,0.000,0.000
1644344725413234944,2022-02-08-18:25:25,10.1.1.3,21,0.080,0.080,0.080,0.000,0.000,0.000
1644344725511271936,2022-02-08-18:25:25,10.1.1.3,20,0.090,0.090,0.090,0.000,0.000,0.000
1644344725632641024,2022-02-08-18:25:25,10.1.1.3,39,0.100,0.100,0.100,0.000,0.000,0.000
1644344725734606080,2022-02-08-18:25:25,10.1.1.3,21,0.090,0.090,0.090,0.000,0.000,0.000
1644344725854198016,2022-02-08-18:25:25,10.1.1.3,31,0.080,0.080,0.080,0.000,0.000,0.000
1644344725952892928,2022-02-08-18:25:25,10.1.1.3,29,0.070,0.070,0.070,0.000,0.000,0.000
1644344726054233088,2022-02-08-18:25:26,10.1.1.3,28,0.060,0.060,0.060,0.000,0.000,0.000
1644344726154759936,2022-02-08-18:25:26,10.1.1.3,27,0.050,0.050,0.050,0.000,0.000,0.000
1644344726254106880,2022-02-08-18:25:26,10.1.1.3,24,0.040,0.040,0.040,0.000,0.000,0.000
1644344726354312960,2022-02-08-18:25:26,10.1.1.3,23,0.030,0.030,0.030,0.000,0.000,0.000
1644344726455572992,2022-02-08-18:25:26,10.1.1.3,22,0.020,0.020,0.020,0.000,0.000,0.000
1644344726554627840,2022-02-08-18:25:26,10.1.1.3,20,0.010,0.010,0.010,0.000,0.000,0.000
1644344726675059200,2022-02-08-18:25:26,10.1.1.3,39,0.000,0.000,0.000,0.000,0.000,0.000
1644344726774526976,2022-02-08-18:25:26,10.1.1.3,34,-0.010,-0.010,-0.010,0.000,0.000,0.000
1644344726872901888,2022-02-08-18:25:26,10.1.1.3,32,-0.020,-0.020,-0.020,0.000,0.000,0.000
1644344726972141056,2022-02-08-18:25:26,10.1.1.3,31,-0.030,-0.030,-0.030,0.000,0.000,0.000
1644344727071550976,2022-02-08-18:25:27,10.1.1.3,30,-0.040,-0.040,-0.040,0.000,0.000,0.000
1644344727174722816,2022-02-08-18:25:27,10.1.1.3,29,-0.050,-0.050,-0.050,0.000,0.000,0.000
1644344727275687936,2022-02-08-18:25:27,10.1.1.3,27,-0.060,-0.060,-0.060,0.000,0.000,0.000
1644344727373018880,2022-02-08-18:25:27,10.1.1.3,26,-0.070,-0.070,-0.070,0.000,0.000,0.000
1644344727471960064,2022-02-08-18:25:27,10.1.1.3,25,-0.080,-0.080,-0.080,0.000,0.000,0.000
1644344727574685184,2022-02-08-18:25:27,10.1.1.3,23,-0.090,-0.090,-0.090,0.000,0.000,0.000
1644344727672056832,2022-02-08-18:25:27,10.1.1.3,22,-0.100,-0.100,-0.100,0.000,0.000,0.000
1644344727772977152,2022-02-08-18:25:27,10.1.1.3,22,-0.090,-0.090,-0.090,0.000,0.000,0.000
1644344727873233152,2022-02-08-18:25:27,10.1.1.3,21,-0.080,-0.080,-0.080,0.000,0.000,0.000
1644344727992077056,2022-02-08-18:25:27,10.1.1.3,39,-0.070,-0.070,-0.070,0.000,0.000,0.000
1644344728093393920,2022-02-08-18:25:28,10.1.1.3,38,-0.060,-0.060,-0.060,0.000,0.000,0.000
1644344728195756032,2022-02-08-18:25:28,10.1.1.3,35,-0.050,-0.050,-0.050,0.000,0.000,0.000
1644344728294445056,2022-02-08-18:25:28,10.1.1.3,33,-0.040,-0.040,-0.040,0.000,0.000,0.000
1644344728394688000,2022-02-08-18:25:28,10.1.1.3,32,-0.030,-0.030,-0.030,0.000,0.000,0.000
1644344728459252224,2022-02-08-18:25:28,10.1.1.3,-9,-0.030,-0.030,-0.030,0.000,0.000,0.000
1644344728591809024,2022-02-08-18:25:28,10.1.1.3,30,-0.010,-0.010,-0.010,0.000,0.000,0.000
1644344728696124928,2022-02-08-18:25:28,10.1.1.3,28,0.000,0.000,0.000,0.000,0.000,0.000
1644344728793731840,2022-02-08-18:25:28,10.1.1.3,26,0.010,0.010,0.010,0.000,0.000,0.000
1644344728892409088,2022-02-08-18:25:28,10.1.1.3,24,0.020,0.020,0.020,0.000,0.000,0.000
1644344728993113088,2022-02-08-18:25:28,10.1.1.3,22,0.030,0.030,0.030,0.000,0.000,0.000
1644344729092474880,2022-02-08-18:25:29,10.1.1.3,22,0.040,0.040,0.040,0.000,0.000,0.000
1644344729194836992,2022-02-08-18:25:29,10.1.1.3,21,0.050,0.050,0.050,0.000,0.000,0.000
1644344729294817024,2022-02-08-18:25:29,10.1.1.3,20,0.060,0.060,0.060,0.000,0.000,0.000
1644344729412858880,2022-02-08-18:25:29,10.1.1.3,38,0.070,0.070,0.070,0.000,0.000,0.000
1644344729512051200,2022-02-08-18:25:29,10.1.1.3,33,0.080,0.080,0.080,0.000,0.000,0.000
1644344729612186880,2022-02-08-18:25:29,10.1.1.3,31,0.090,0.090,0.090,0.000,0.000,0.000
1644344729713095936,2022-02-08-18:25:29,10.1.1.3,30,0.100,0.100,0.100,0.000,0.000,0.000
1644344729812444928,2022-02-08-18:25:29,10.1.1.3,29,0.090,0.090,0.090,0.000,0.000,0.000
1644344729912497920,2022-02-08-18:25:29,10.1.1.3,28,0.080,0.080,0.080,0.000,0.000,0.000
1644344730014481152,2022-02-08-18:25:30,10.1.1.3,27,0.070,0.070,0.070,0.000,0.000,0.000
1644344730112773888,2022-02-08-18:25:30,10.1.1.3,27,0.060,0.060,0.060,0.000,0.000,0.000
1644344730212440064,2022-02-08-18:25:30,10.1.1.3,26,0.050,0.050,0.050,0.000,0.000,0.000
1644344730311922944,2022-02-08-18:25:30,10.1.1.3,24,0.040,0.040,0.040,0.000,0.000,0.000
1644344730412000000,2022-02-08-18:25:30,10.1.1.3,23,0.030,0.030,0.030,0.000,0.000,0.000
1644344730512432128,2022-02-08-18:25:30,10.1.1.3,21,0.020,0.020,0.020,0.000,0.000,0.000
1644344730731534080,2022-02-08-18:25:30,10.1.1.3,37,0.000,0.000,0.000,0.000,0.000,0.000
1644344730831365120,2022-02-08-18:25:30,10.1.1.3,34,-0.010,-0.010,-0.010,0.000,0.000,0.000
1644344730934461952,2022-02-08-18:25:30,10.1.1.3,33,-0.020,-0.020,-0.020,0.000,0.000,0.000
1644344731032576000,2022-02-08-18:25:31,10.1.1.3,32,-0.030,-0.030,-0.030,0.000,0.000,0.000
1644344731132883968,2022-02-08-18:25:31,10.1.1.3,31,-0.040,-0.040,-0.040,0.000,0.000,0.000
1644344731231791104,2022-02-08-18:25:31,10.1.1.3,30,-0.050,-0.050,-0.050,0.000,0.000,0.000
1644344731333832960,2022-02-08-18:25:31,10.1.1.3,30,-0.060,-0.060,-0.060,0.000,0.000,0.000
1644344731434388992,2022-02-08-18:25:31,10.1.1.3,28,-0.070,-0.070,-0.070,0.000,0.000,0.000
1644344731533283840,2022-02-08-18:25:31,10.1.1.3,27,-0.080,-0.080,-0.080,0.000,0.000,0.000
1644344731634717952,2022-02-08-18:25:31,10.1.1.3,25,-0.090,-0.090,-0.090,0.000,0.000,0.000
1644344731735481088,2022-02-08-18:25:31,10.1.1.3,24,-0.100,-0.100,-0.100,0.000,0.000,0.000
1644344731832034048,2022-02-08-18:25:31,10.1.1.3,23,-0.090,-0.090,-0.090,0.000,0.000,0.000
1644344731933857792,2022-02-08-18:25:31,10.1.1.3,20,-0.080,-0.080,-0.080,0.000,0.000,0.000
1644344732054210048,2022-02-08-18:25:32,10.1.1.3,35,-0.070,-0.070,-0.070,0.000,0.000,0.000
1644344732153381120,2022-02-08-18:25:32,10.1.1.3,32,-0.060,-0.060,-0.060,0.000,0.000,0.000
1644344732252749056,2022-02-08-18:25:32,10.1.1.3,32,-0.050,-0.050,-0.050,0.000,0.000,0.000
1644344732354290944,2022-02-08-18:25:32,10.1.1.3,30,-0.040,-0.040,-0.040,0.000,0.000,0.000
1644344732452120064,2022-02-08-18:25:32,10.1.1.3,29,-0.030,-0.030,-0.030,0.000,0.000,0.000
1644344732554765824,2022-02-08-18:25:32,10.1.1.3,27,-0.020,-0.020,-0.020,0.000,0.000,0.000
1644344732655675904,2022-02-08-18:25:32,10.1.1.3,24,-0.010,-0.010,-0.010,0.000,0.000,0.000
1644344732752145152,2022-02-08-18:25:32,10.1.1.3,22,0.000,0.000,0.000,0.000,0.000,0.000
1644344732853976064,2022-02-08-18:25:32,10.1.1.3,21,0.010,0.010,0.010,0.000,0.000,0.000
1644344732955610880,2022-02-08-18:25:32,10.1.1.3,20,0.020,0.020,0.020,0.000,0.000,0.000
1644344733072930048,2022-02-08-18:25:33,10.1.1.3,39,0.030,0.030,0.030,0.000,0.000,0.000
1644344733171924992,2022-02-08-18:25:33,10.1.1.3,36,0.040,0.040,0.040,0.000,0.000,0.000
1644344733275121920,2022-02-08-18:25:33,10.1.1.3,33,0.050,0.050,0.050,0.000,0.000,0.000
1644344733373178880,2022-02-08-18:25:33,10.1.1.3,32,0.060,0.060,0.060,0.000,0.000,0.000
1644344733472040960,2022-02-08-18:25:33,10.1.1.3,30,0.070,0.070,0.070,0.000,0.000,0.000
1644344733573003008,2022-02-08-18:25:33,10.1.1.3,28,0.080,0.080,0.080,0.000,0.000,0.000
1644344733675525888,2022-02-08-18:25:33,10.1.1.3,27,0.090,0.090,0.090,0.000,0.000,0.000
1644344733775590912,2022-02-08-18:25:33,10.1.1.3,25,0.100,0.100,0.100,0.000,0.000,0.000
1644344733872235008,2022-02-08-18:25:33,10.1.1.3,24,0.090,0.090,0.090,0.000,0.000,0.000
1644344733975025920,2022-02-08-18:25:33,10.1.1.3,22,0.080,0.080,0.080,0.000,0.000,0.000
1644344734076183040,2022-02-08-18:25:34,10.1.1.3,21,0.070,0.070,0.070,0.000,0.000,0.000
1644344734172745984,2022-02-08-18:25:34,10.1.1.3,20,0.060,0.060,0.060,0.000,0.000,0.000
1644344734293734144,2022-02-08-18:25:34,10.1.1.3,38,0.050,0.050,0.050,0.000,0.000,0.000
1644344734392386048,2022-02-08-18:25:34,10.1.1.3,37,0.040,0.040,0.040,0.000,0.000,0.000
1644344734492704000,2022-02-08-18:25:34,10.1.1.3,32,0.030,0.030,0.030,0.000,0.000,0.000
1644344734595091200,2022-02-08-18:25:34,10.1.1.3,31,0.020,0.020,0.020,0.000,0.000,0.000
1644344734691992064,2022-02-08-18:25:34,10.1.1.3,30,0.010,0.010,0.010,0.000,0.000,0.000
1644344734792186880,2022-02-08-18:25:34,10.1.1.3,29,0.000,0.000,0.000,0.000,0.000,0.000
1644344734893650176,2022-02-08-18:25:34,10.1.1.3,28,-0.010,-0.010,-0.010,0.000,0.000,0.000
1644344734994508032,2022-02-08-18:25:34,10.1.1.3,27,-0.020,-0.020,-0.020,0.000,0.000,0.000
1644344735094306048,2022-02-08-18:25:35,10.1.1.3,25,-0.030,-0.030,-0.030,0.000,0.000,0.000
1644344735194267136,2022-02-08-18:25:35,10.1.1.3,24,-0.040,-0.040,-0.040,0.000,0.000,0.000
1644344735295474944,2022-02-08-18:25:35,10.1.1.3,23,-0.050,-0.050,-0.050,0.000,0.000,0.000
1644344735393271040,2022-02-08-18:25:35,10.1.1.3,21,-0.060,-0.060,-0.060,0.000,0.000,0.000
1644344735494245120,2022-02-08-18:25:35,10.1.1.3,21,-0.070,-0.070,-0.070,0.000,0.000,0.000
1644344735612652032,2022-02-08-18:25:35,10.1.1.3,38,-0.080,-0.080,-0.080,0.000,0.000,0.000
1644344735712667904,2022-02-08-18:25:35,10.1.1.3,35,-0.090,-0.090,-0.090,0.000,0.000,0.000
1644344735811762176,2022-02-08-18:25:35,10.1.1.3,34,-0.100,-0.100,-0.100,0.000,0.000,0.000
1644344735911789824,2022-02-08-18:25:35,10.1.1.3,30,-0.090,-0.090,-0.090,0.000,0.000,0.000
1644344736012782080,2022-02-08-18:25:36,10.1.1.3,30,-0.080,-0.080,-0.080,0.000,0.000,0.000
1644344736114080000,2022-02-08-18:25:36,10.1.1.3,29,-0.070,-0.070,-0.070,0.000,0.000,0.000
1644344736211493888,2022-02-08-18:25:36,10.1.1.3,28,-0.060,-0.060,-0.060,0.000,0.000,0.000
1644344736313779200,2022-02-08-18:25:36,10.1.1.3,27,-0.050,-0.050,-0.050,0.000,0.000,0.000
1644344736412990976,2022-02-08-18:25:36,10.1.1.3,26,-0.040,-0.040,-0.040,0.000,0.000,0.000
1644344736512155904,2022-02-08-18:25:36,10.1.1.3,24,-0.030,-0.030,-0.030,0.000,0.000,0.000
1644344736613259008,2022-02-08-18:25:36,10.1.1.3,23,-0.020,-0.020,-0.020,0.000,0.000,0.000
1644344736713527040,2022-02-08-18:25:36,10.1.1.3,22,-0.010,-0.010,-0.010,0.000,0.000,0.000
1644344736814135040,2022-02-08-18:25:36,10.1.1.3,21,0.000,0.000,0.000,0.000,0.000,0.000
1644344736912334080,2022-02-08-18:25:36,10.1.1.3,20,0.010,0.010,0.010,0.000,0.000,0.000
1644344737012499200,2022-02-08-18:25:37,10.1.1.3,19,0.020,0.020,0.020,0.000,0.000,0.000
1644344737132702976,2022-02-08-18:25:37,10.1.1.3,39,0.030,0.030,0.030,0.000,0.000,0.000
1644344737231561984,2022-02-08-18:25:37,10.1.1.3,38,0.040,0.040,0.040,0.000,0.000,0.000
1644344737332453120,2022-02-08-18:25:37,10.1.1.3,37,0.050,0.050,0.050,0.000,0.000,0.000
1644344737435764992,2022-02-08-18:25:37,10.1.1.3,36,0.060,0.060,0.060,0.000,0.000,0.000
1644344737533639936,2022-02-08-18:25:37,10.1.1.3,33,0.070,0.070,0.070,0.000,0.000,0.000
1644344737634938880,2022-02-08-18:25:37,10.1.1.3,32,0.080,0.080,0.080,0.000,0.000,0.000
1644344737734941952,2022-02-08-18:25:37,10.1.1.3,31,0.090,0.090,0.090,0.000,0.000,0.000
1644344737835187968,2022-02-08-18:25:37,10.1.1.3,30,0.100,0.100,0.100,0.000,0.000,0.000
1644344737935520000,2022-02-08-18:25:37,10.1.1.3,28,0.090,0.090,0.090,0.000,0.000,0.000
1644344738033971968,2022-02-08-18:25:38,10.1.1.3,27,0.080,0.080,0.080,0.000,0.000,0.000
1644344738132777984,2022-02-08-18:25:38,10.1.1.3,26,0.070,0.070,0.070,0.000,0.000,0.000
1644344738232013824,2022-02-08-18:25:38,10.1.1.3,25,0.060,0.060,0.060,0.000,0.000,0.000
1644344738332199168,2022-02-08-18:25:38,10.1.1.3,24,0.050,0.050,0.050,0.000,0.000,0.000
1644344738433306880,2022-02-08-18:25:38,10.1.1.3,24,0.040,0.040,0.040,0.000,0.000,0.000
1644344738533297920,2022-02-08-18:25:38,10.1.1.3,23,0.030,0.030,0.030,0.000,0.000,0.000
1644344738633143040,2022-02-08-18:25:38,10.1.1.3,22,0.020,0.020,0.020,0.000,0.000,0.000
1644344738734991104,2022-02-08-18:25:38,10.1.1.3,21,0.010,0.010,0.010,0.000,0.000,0.000
1644344738834276864,2022-02-08-18:25:38,10.1.1.3,20,0.000,0.000,0.000,0.000,0.000,0.000
1644344738933771008,2022-02-08-18:25:38,10.1.1.3,20,-0.010,-0.010,-0.010,0.000,0.000,0.000
1644344739034382080,2022-02-08-18:25:39,10.1.1.3,19,-0.019,-0.019,-0.019,0.000,0.000,0.000
1644344739155168000,2022-02-08-18:25:39,10.1.1.3,38,-0.030,-0.030,-0.030,0.000,0.000,0.000
1644344739255335936,2022-02-08-18:25:39,10.1.1.3,37,-0.040,-0.040,-0.040,0.000,0.000,0.000
1644344739355011072,2022-02-08-18:25:39,10.1.1.3,37,-0.050,-0.050,-0.050,0.000,0.000,0.000
1644344739453701888,2022-02-08-18:25:39,10.1.1.3,35,-0.060,-0.060,-0.060,0.000,0.000,0.000
1644344739551571968,2022-02-08-18:25:39,10.1.1.3,31,-0.070,-0.070,-0.070,0.000,0.000,0.000
1644344739654797056,2022-02-08-18:25:39,10.1.1.3,30,-0.080,-0.080,-0.080,0.000,0.000,0.000
1644344739854254848,2022-02-08-18:25:39,10.1.1.3,28,-0.100,-0.100,-0.100,0.000,0.000,0.000
1644344739951666176,2022-02-08-18:25:39,10.1.1.3,27,-0.090,-0.090,-0.090,0.000,0.000,0.000
1644344740054878976,2022-02-08-18:25:40,10.1.1.3,27,-0.080,-0.080,-0.080,0.000,0.000,0.000
1644344740153405952,2022-02-08-18:25:40,10.1.1.3,24,-0.070,-0.070,-0.070,0.000,0.000,0.000
1644344740253812992,2022-02-08-18:25:40,10.1.1.3,23,-0.060,-0.060,-0.060,0.000,0.000,0.000
1644344740351887872,2022-02-08-18:25:40,10.1.1.3,22,-0.050,-0.050,-0.050,0.000,0.000,0.000
1644344740455674880,2022-02-08-18:25:40,10.1.1.3,22,-0.040,-0.040,-0.040,0.000,0.000,0.000
1644344740553644032,2022-02-08-18:25:40,10.1.1.3,20,-0.030,-0.030,-0.030,0.000,0.000,0.000
1644344740675260928,2022-02-08-18:25:40,10.1.1.3,39,-0.020,-0.020,-0.020,0.000,0.000,0.000
1644344740774601984,2022-02-08-18:25:40,10.1.1.3,36,-0.010,-0.010,-0.010,0.000,0.000,0.000
1644344740873008128,2022-02-08-18:25:40,10.1.1.3,34,0.000,0.000,0.000,0.000,0.000,0.000
1644344740974203136,2022-02-08-18:25:40,10.1.1.3,32,0.010,0.010,0.010,0.000,0.000,0.000
1644344741080365824,2022-02-08-18:25:41,10.1.1.3,29,0.020,0.020,0.020,0.000,0.000,0.000
1644344741174272000,2022-02-08-18:25:41,10.1.1.3,27,0.030,0.030,0.030,0.000,0.000,0.000
1644344741278441984,2022-02-08-18:25:41,10.1.1.3,24,0.040,0.040,0.040,0.000,0.000,0.000
1644344741373320192,2022-02-08-18:25:41,10.1.1.3,23,0.050,0.050,0.050,0.000,0.000,0.000
1644344741475350016,2022-02-08-18:25:41,10.1.1.3,22,0.060,0.060,0.060,0.000,0.000,0.000
1644344741572011008,2022-02-08-18:25:41,10.1.1.3,19,0.070,0.070,0.070,0.000,0.000,0.000
1644344741697444864,2022-02-08-18:25:41,10.1.1.3,37,0.080,0.080,0.080,0.000,0.000,0.000
1644344741796168960,2022-02-08-18:25:41,10.1.1.3,33,0.090,0.090,0.090,0.000,0.000,0.000
1644344741893049088,2022-02-08-18:25:41,10.1.1.3,30,0.100,0.100,0.100,0.000,0.000,0.000
1644344741996388864,2022-02-08-18:25:41,10.1.1.3,29,0.090,0.090,0.090,0.000,0.000,0.000
1644344742095355904,2022-02-08-18:25:42,10.1.1.3,28,0.080,0.080,0.080,0.000,0.000,0.000
1644344742195528960,2022-02-08-18:25:42,10.1.1.3,28,0.070,0.070,0.070,0.000,0.000,0.000
1644344742293436928,2022-02-08-18:25:42,10.1.1.3,26,0.060,0.060,0.060,0.000,0.000,0.000
1644344742394256128,2022-02-08-18:25:42,10.1.1.3,22,0.050,0.050,0.050,0.000,0.000,0.000
1644344742712891136,2022-02-08-18:25:42,10.1.1.3,38,0.020,0.020,0.020,0.000,0.000,0.000
1644344742813692928,2022-02-08-18:25:42,10.1.1.3,37,0.010,0.010,0.010,0.000,0.000,0.000
1644344742913854976,2022-02-08-18:25:42,10.1.1.3,33,0.000,0.000,0.000,0.000,0.000,0.000
1644344743014540032,2022-02-08-18:25:43,10.1.1.3,30,-0.010,-0.010,-0.010,0.000,0.000,0.000
1644344743115641088,2022-02-08-18:25:43,10.1.1.3,28,-0.020,-0.020,-0.020,0.000,0.000,0.000
1644344743216486912,2022-02-08-18:25:43,10.1.1.3,27,-0.030,-0.030,-0.030,0.000,0.000,0.000
1644344743312491776,2022-02-08-18:25:43,10.1.1.3,24,-0.040,-0.040,-0.040,0.000,0.000,0.000
1644344743413692928,2022-02-08-18:25:43,10.1.1.3,23,-0.050,-0.050,-0.050,0.000,0.000,0.000
1644344743513349120,2022-02-08-18:25:43,10.1.1.3,20,-0.060,-0.060,-0.060,0.000,0.000,0.000
1644344743634643968,2022-02-08-18:25:43,10.1.1.3,38,-0.070,-0.070,-0.070,0.000,0.000,0.000
1644344743735269120,2022-02-08-18:25:43,10.1.1.3,34,-0.080,-0.080,-0.080,0.000,0.000,0.000
1644344743832335104,2022-02-08-18:25:43,10.1.1.3,32,-0.090,-0.090,-0.090,0.000,0.000,0.000
1644344743935527936,2022-02-08-18:25:43,10.1.1.3,31,-0.100,-0.100,-0.100,0.000,0.000,0.000
1644344744033233920,2022-02-08-18:25:44,10.1.1.3,28,-0.090,-0.090,-0.090,0.000,0.000,0.000
1644344744133384960,2022-02-08-18:25:44,10.1.1.3,27,-0.080,-0.080,-0.080,0.000,0.000,0.000
1644344744234925056,2022-02-08-18:25:44,10.1.1.3,26,-0.070,-0.070,-0.070,0.000,0.000,0.000
1644344744334664192,2022-02-08-18:25:44,10.1.1.3,24,-0.060,-0.060,-0.060,0.000,0.000,0.000
1644344744436773888,2022-02-08-18:25:44,10.1.1.3,23,-0.050,-0.050,-0.050,0.000,0.000,0.000
1644344744532238848,2022-02-08-18:25:44,10.1.1.3,22,-0.040,-0.040,-0.040,0.000,0.000,0.000
1644344744634995968,2022-02-08-18:25:44,10.1.1.3,21,-0.030,-0.030,-0.030,0.000,0.000,0.000
1644344744739627008,2022-02-08-18:25:44,10.1.1.3,20,-0.020,-0.020,-0.020,0.000,0.000,0.000
1644344744852374016,2022-02-08-18:25:44,10.1.1.3,36,-0.010,-0.010,-0.010,0.000,0.000,0.000
1644344744954166784,2022-02-08-18:25:44,10.1.1.3,34,0.000,0.000,0.000,0.000,0.000,0.000
1644344745058157056,2022-02-08-18:25:45,10.1.1.3,32,0.010,0.010,0.010,0.000,0.000,0.000
1644344745154597120,2022-02-08-18:25:45,10.1.1.3,30,0.020,0.020,0.020,0.000,0.000,0.000
1644344745254454016,2022-02-08-18:25:45,10.1.1.3,29,0.030,0.030,0.030,0.000,0.000,0.000
1644344745351890176,2022-02-08-18:25:45,10.1.1.3,26,0.040,0.040,0.040,0.000,0.000,0.000
1644344745453995008,2022-02-08-18:25:45,10.1.1.3,23,0.050,0.050,0.050,0.000,0.000,0.000
1644344745554563072,2022-02-08-18:25:45,10.1.1.3,22,0.060,0.060,0.060,0.000,0.000,0.000
1644344745754045952,2022-02-08-18:25:45,10.1.1.3,19,0.079,0.079,0.079,0.000,0.000,0.000
1644344745874646016,2022-02-08-18:25:45,10.1.1.3,38,0.090,0.090,0.090,0.000,0.000,0.000
1644344745972364032,2022-02-08-18:25:45,10.1.1.3,37,0.100,0.100,0.100,0.000,0.000,0.000
1644344746073764096,2022-02-08-18:25:46,10.1.1.3,35,0.090,0.090,0.090,0.000,0.000,0.000
1644344746174483968,2022-02-08-18:25:46,10.1.1.3,33,0.080,0.080,0.080,0.000,0.000,0.000
1644344746273885952,2022-02-08-18:25:46,10.1.1.3,32,0.070,0.070,0.070,0.000,0.000,0.000
1644344746372955136,2022-02-08-18:25:46,10.1.1.3,30,0.060,0.060,0.060,0.000,0.000,0.000
1644344746472521984,2022-02-08-18:25:46,10.1.1.3,29,0.050,0.050,0.050,0.000,0.000,0.000
1644344746574156032,2022-02-08-18:25:46,10.1.1.3,28,0.040,0.040,0.040,0.000,0.000,0.000
1644344746674673920,2022-02-08-18:25:46,10.1.1.3,26,0.030,0.030,0.030,0.000,0.000,0.000
1644344746772406016,2022-02-08-18:25:46,10.1.1.3,24,0.020,0.020,0.020,0.000,0.000,0.000
1644344746873223168,2022-02-08-18:25:46,10.1.1.3,23,0.010,0.010,0.010,0.000,0.000,0.000
1644344746973812992,2022-02-08-18:25:46,10.1.1.3,22,0.000,0.000,0.000,0.000,0.000,0.000
1644344747077006080,2022-02-08-18:25:47,10.1.1.3,20,-0.010,-0.010,-0.010,0.000,0.000,0.000
1644344747192482048,2022-02-08-18:25:47,10.1.1.3,39,-0.020,-0.020,-0.020,0.000,0.000,0.000
1644344747293168896,2022-02-08-18:25:47,10.1.1.3,38,-0.030,-0.030,-0.030,0.000,0.000,0.000
1644344747393792000,2022-02-08-18:25:47,10.1.1.3,34,-0.040,-0.040,-0.040,0.000,0.000,0.000
1644344747493129984,2022-02-08-18:25:47,10.1.1.3,33,-0.050,-0.050,-0.050,0.000,0.000,0.000
1644344747594202880,2022-02-08-18:25:47,10.1.1.3,32,-0.060,-0.060,-0.060,0.000,0.000,0.000
1644344747692508928,2022-02-08-18:25:47,10.1.1.3,31,-0.070,-0.070,-0.070,0.000,0.000,0.000
1644344747794096896,2022-02-08-18:25:47,10.1.1.3,31,-0.080,-0.080,-0.080,0.000,0.000,0.000
1644344747895160064,2022-02-08-18:25:47,10.1.1.3,29,-0.090,-0.090,-0.090,0.000,0.000,0.000
1644344747994311168,2022-02-08-18:25:47,10.1.1.3,28,-0.100,-0.100,-0.100,0.000,0.000,0.000
1644344748092064000,2022-02-08-18:25:48,10.1.1.3,27,-0.090,-0.090,-0.090,0.000,0.000,0.000
1644344748193368064,2022-02-08-18:25:48,10.1.1.3,25,-0.080,-0.080,-0.080,0.000,0.000,0.000
1644344748291830016,2022-02-08-18:25:48,10.1.1.3,24,-0.070,-0.070,-0.070,0.000,0.000,0.000
1644344748392152064,2022-02-08-18:25:48,10.1.1.3,23,-0.060,-0.060,-0.060,0.000,0.000,0.000
1644344748491693056,2022-02-08-18:25:48,10.1.1.3,20,-0.050,-0.050,-0.050,0.000,0.000,0.000
1644344748612286208,2022-02-08-18:25:48,10.1.1.3,39,-0.040,-0.040,-0.040,0.000,0.000,0.000
1644344748713203968,2022-02-08-18:25:48,10.1.1.3,38,-0.030,-0.030,-0.030,0.000,0.000,0.000
1644344748811853824,2022-02-08-18:25:48,10.1.1.3,37,-0.020,-0.020,-0.020,0.000,0.000,0.000
1644344748911022848,2022-02-08-18:25:48,10.1.1.3,34,-0.010,-0.010,-0.010,0.000,0.000,0.000
1644344749012103168,2022-02-08-18:25:49,10.1.1.3,34,0.000,0.000,0.000,0.000,0.000,0.000
1644344749111574016,2022-02-08-18:25:49,10.1.1.3,33,0.010,0.010,0.010,0.000,0.000,0.000
1644344749212215040,2022-02-08-18:25:49,10.1.1.3,32,0.020,0.020,0.020,0.000,0.000,0.000
1644344749311774976,2022-02-08-18:25:49,10.1.1.3,31,0.030,0.030,0.030,0.000,0.000,0.000
1644344749411473152,2022-02-08-18:25:49,10.1.1.3,30,0.040,0.040,0.040,0.000,0.000,0.000
1644344749511614208,2022-02-08-18:25:49,10.1.1.3,28,0.050,0.050,0.050,0.000,0.000,0.000
1644344749612679936,2022-02-08-18:25:49,10.1.1.3,27,0.060,0.060,0.060,0.000,0.000,0.000
1644344749711354880,2022-02-08-18:25:49,10.1.1.3,25,0.070,0.070,0.070,0.000,0.000,0.000
1644344749813192960,2022-02-08-18:25:49,10.1.1.3,24,0.080,0.080,0.080,0.000,0.000,0.000
1644344749911148032,2022-02-08-18:25:49,10.1.1.3,23,0.090,0.090,0.090,0.000,0.000,0.000
1644344750012088064,2022-02-08-18:25:50,10.1.1.3,22,0.100,0.100,0.100,0.000,0.000,0.000
1644344750112286208,2022-02-08-18:25:50,10.1.1.3,21,0.090,0.090,0.090,0.000,0.000,0.000
1644344750212210944,2022-02-08-18:25:50,10.1.1.3,20,0.080,0.080,0.080,0.000,0.000,0.000
1644344750332788992,2022-02-08-18:25:50,10.1.1.3,39,0.070,0.070,0.070,0.000,0.000,0.000
1644344750434045952,2022-02-08-18:25:50,10.1.1.3,38,0.060,0.060,0.060,0.000,0.000,0.000
1644344750533104896,2022-02-08-18:25:50,10.1.1.3,35,0.050,0.050,0.050,0.000,0.000,0.000
1644344750631586048,2022-02-08-18:25:50,10.1.1.3,34,0.040,0.040,0.040,0.000,0.000,0.000
1644344750733947136,2022-02-08-18:25:50,10.1.1.3,32,0.030,0.030,0.030,0.000,0.000,0.000
1644344750834379008,2022-02-08-18:25:50,10.1.1.3,31,0.020,0.020,0.020,0.000,0.000,0.000
1644344750934513920,2022-02-08-18:25:50,10.1.1.3,30,0.010,0.010,0.010,0.000,0.000,0.000
1644344751034696192,2022-02-08-18:25:51,10.1.1.3,29,0.000,0.000,0.000,0.000,0.000,0.000
1644344751135545856,2022-02-08-18:25:51,10.1.1.3,28,-0.010,-0.010,-0.010,0.000,0.000,0.000
1644344751234044160,2022-02-08-18:25:51,10.1.1.3,22,-0.020,-0.020,-0.020,0.000,0.000,0.000
1644344751332453120,2022-02-08-18:25:51,10.1.1.3,22,-0.030,-0.030,-0.030,0.000,0.000,0.000
1644344751435564032,2022-02-08-18:25:51,10.1.1.3,20,-0.040,-0.040,-0.040,0.000,0.000,0.000
1644344751555788032,2022-02-08-18:25:51,10.1.1.3,38,-0.050,-0.050,-0.050,0.000,0.000,0.000
1644344751656467968,2022-02-08-18:25:51,10.1.1.3,34,-0.060,-0.060,-0.060,0.000,0.000,0.000
1644344751758793984,2022-02-08-18:25:51,10.1.1.3,33,-0.070,-0.070,-0.070,0.000,0.000,0.000
1644344751854279168,2022-02-08-18:25:51,10.1.1.3,31,-0.080,-0.080,-0.080,0.000,0.000,0.000
1644344751955346944,2022-02-08-18:25:51,10.1.1.3,28,-0.090,-0.090,-0.090,0.000,0.000,0.000
1644344752058420992,2022-02-08-18:25:52,10.1.1.3,27,-0.100,-0.100,-0.100,0.000,0.000,0.000
1644344752152698112,2022-02-08-18:25:52,10.1.1.3,25,-0.090,-0.090,-0.090,0.000,0.000,0.000
1644344752256593920,2022-02-08-18:25:52,10.1.1.3,23,-0.080,-0.080,-0.080,0.000,0.000,0.000
1644344752354311936,2022-02-08-18:25:52,10.1.1.3,22,-0.070,-0.070,-0.070,0.000,0.000,0.000
1644344752456957952,2022-02-08-18:25:52,10.1.1.3,21,-0.060,-0.060,-0.060,0.000,0.000,0.000
1644344752554321920,2022-02-08-18:25:52,10.1.1.3,20,-0.050,-0.050,-0.050,0.000,0.000,0.000
1644344752671590144,2022-02-08-18:25:52,10.1.1.3,39,-0.040,-0.040,-0.040,0.000,0.000,0.000
1644344752775546112,2022-02-08-18:25:52,10.1.1.3,38,-0.030,-0.030,-0.030,0.000,0.000,0.000
1644344752874643200,2022-02-08-18:25:52,10.1.1.3,35,-0.020,-0.020,-0.020,0.000,0.000,0.000
1644344752976080896,2022-02-08-18:25:52,10.1.1.3,31,-0.010,-0.010,-0.010,0.000,0.000,0.000
1644344753078358016,2022-02-08-18:25:53,10.1.1.3,30,-0.000,-0.000,-0.000,0.000,0.000,0.000
1644344753174189056,2022-02-08-18:25:53,10.1.1.3,29,0.010,0.010,0.010,0.000,0.000,0.000
1644344753273657088,2022-02-08-18:25:53,10.1.1.3,27,0.020,0.020,0.020,0.000,0.000,0.000
1644344753376826880,2022-02-08-18:25:53,10.1.1.3,25,0.030,0.030,0.030,0.000,0.000,0.000
1644344753475344896,2022-02-08-18:25:53,10.1.1.3,24,0.040,0.040,0.040,0.000,0.000,0.000
1644344753576680960,2022-02-08-18:25:53,10.1.1.3,23,0.050,0.050,0.050,0.000,0.000,0.000
1644344753673235968,2022-02-08-18:25:53,10.1.1.3,22,0.060,0.060,0.060,0.000,0.000,0.000
1644344753774327040,2022-02-08-18:25:53,10.1.1.3,21,0.070,0.070,0.070,0.000,0.000,0.000
1644344753872185088,2022-02-08-18:25:53,10.1.1.3,20,0.080,0.080,0.080,0.000,0.000,0.000
1644344753975610112,2022-02-08-18:25:53,10.1.1.3,19,0.089,0.089,0.089,0.000,0.000,0.000
1644344754093709056,2022-02-08-18:25:54,10.1.1.3,36,0.100,0.100,0.100,0.000,0.000,0.000
1644344754194808832,2022-02-08-18:25:54,10.1.1.3,34,0.090,0.090,0.090,0.000,0.000,0.000
1644344754291540992,2022-02-08-18:25:54,10.1.1.3,33,0.080,0.080,0.080,0.000,0.000,0.000
1644344754393116928,2022-02-08-18:25:54,10.1.1.3,32,0.070,0.070,0.070,0.000,0.000,0.000
1644344754493221888,2022-02-08-18:25:54,10.1.1.3,31,0.060,0.060,0.060,0.000,0.000,0.000
1644344754595256064,2022-02-08-18:25:54,10.1.1.3,28,0.050,0.050,0.050,0.000,0.000,0.000
1644344754695377152,2022-02-08-18:25:54,10.1.1.3,27,0.040,0.040,0.040,0.000,0.000,0.000
1644344754793778944,2022-02-08-18:25:54,10.1.1.3,24,0.030,0.030,0.030,0.000,0.000,0.000
1644344754895493120,2022-02-08-18:25:54,10.1.1.3,23,0.020,0.020,0.020,0.000,0.000,0.000
1644344754993959936,2022-02-08-18:25:54,10.1.1.3,21,0.010,0.010,0.010,0.000,0.000,0.000
1644344755113782784,2022-02-08-18:25:55,10.1.1.3,38,0.000,0.000,0.000,0.000,0.000,0.000
1644344755213277952,2022-02-08-18:25:55,10.1.1.3,37,-0.010,-0.010,-0.010,0.000,0.000,0.000
1644344755311768064,2022-02-08-18:25:55,10.1.1.3,35,-0.020,-0.020,-0.020,0.000,0.000,0.000
1644344755412291072,2022-02-08-18:25:55,10.1.1.3,34,-0.030,-0.030,-0.030,0.000,0.000,0.000
1644344755514252032,2022-02-08-18:25:55,10.1.1.3,32,-0.040,-0.040,-0.040,0.000,0.000,0.000
1644344755615730944,2022-02-08-18:25:55,10.1.1.3,30,-0.050,-0.050,-0.050,0.000,0.000,0.000
1644344755711993088,2022-02-08-18:25:55,10.1.1.3,29,-0.060,-0.060,-0.060,0.000,0.000,0.000
1644344755814435840,2022-02-08-18:25:55,10.1.1.3,28,-0.070,-0.070,-0.070,0.000,0.000,0.000
1644344755912005888,2022-02-08-18:25:55,10.1.1.3,26,-0.080,-0.080,-0.080,0.000,0.000,0.000
1644344756012006144,2022-02-08-18:25:56,10.1.1.3,25,-0.090,-0.090,-0.090,0.000,0.000,0.000
1644344756112525056,2022-02-08-18:25:56,10.1.1.3,23,-0.100,-0.100,-0.100,0.000,0.000,0.000
1644344756212427008,2022-02-08-18:25:56,10.1.1.3,22,-0.090,-0.090,-0.090,0.000,0.000,0.000
1644344756312238848,2022-02-08-18:25:56,10.1.1.3,21,-0.080,-0.080,-0.080,0.000,0.000,0.000
1644344756414135040,2022-02-08-18:25:56,10.1.1.3,20,-0.070,-0.070,-0.070,0.000,0.000,0.000
1644344756534599936,2022-02-08-18:25:56,10.1.1.3,39,-0.060,-0.060,-0.060,0.000,0.000,0.000
1644344756634479104,2022-02-08-18:25:56,10.1.1.3,37,-0.050,-0.050,-0.050,0.000,0.000,0.000
1644344756732404992,2022-02-08-18:25:56,10.1.1.3,33,-0.040,-0.040,-0.040,0.000,0.000,0.000
1644344756834105856,2022-02-08-18:25:56,10.1.1.3,32,-0.030,-0.030,-0.030,0.000,0.000,0.000
1644344756934139904,2022-02-08-18:25:56,10.1.1.3,31,-0.020,-0.020,-0.020,0.000,0.000,0.000
1644344757034585856,2022-02-08-18:25:57,10.1.1.3,28,-0.010,-0.010,-0.010,0.000,0.000,0.000
1644344757252953088,2022-02-08-18:25:57,10.1.1.3,21,0.010,0.010,0.010,0.000,0.000,0.000
1644344757352472064,2022-02-08-18:25:57,10.1.1.3,20,0.020,0.020,0.020,0.000,0.000,0.000
1644344757451329024,2022-02-08-18:25:57,10.1.1.3,19,0.029,0.029,0.029,0.000,0.000,0.000
1644344757569076992,2022-02-08-18:25:57,10.1.1.3,35,0.040,0.040,0.040,0.000,0.000,0.000
1644344757672295168,2022-02-08-18:25:57,10.1.1.3,34,0.050,0.050,0.050,0.000,0.000,0.000
1644344757772068096,2022-02-08-18:25:57,10.1.1.3,33,0.060,0.060,0.060,0.000,0.000,0.000
1644344757874424832,2022-02-08-18:25:57,10.1.1.3,33,0.070,0.070,0.070,0.000,0.000,0.000
1644344757980477184,2022-02-08-18:25:57,10.1.1.3,29,0.080,0.080,0.080,0.000,0.000,0.000
1644344758073291008,2022-02-08-18:25:58,10.1.1.3,26,0.090,0.090,0.090,0.000,0.000,0.000
1644344758253714944,2022-02-08-18:25:58,10.1.1.3,-5,0.090,0.090,0.090,0.000,0.000,0.000
1644344758391803904,2022-02-08-18:25:58,10.1.1.3,34,0.080,0.080,0.080,0.000,0.000,0.000
1644344758492964864,2022-02-08-18:25:58,10.1.1.3,33,0.070,0.070,0.070,0.000,0.000,0.000
1644344758591356160,2022-02-08-18:25:58,10.1.1.3,32,0.060,0.060,0.060,0.000,0.000,0.000
1644344758690902016,2022-02-08-18:25:58,10.1.1.3,31,0.050,0.050,0.050,0.000,0.000,0.000
1644344758792380928,2022-02-08-18:25:58,10.1.1.3,31,0.040,0.040,0.040,0.000,0.000,0.000
1644344758891128064,2022-02-08-18:25:58,10.1.1.3,30,0.030,0.030,0.030,0.000,0.000,0.000
1644344758990878208,2022-02-08-18:25:58,10.1.1.3,30,0.020,0.020,0.020,0.000,0.000,0.000
1644344759091525120,2022-02-08-18:25:59,10.1.1.3,29,0.010,0.010,0.010,0.000,0.000,0.000
1644344759191433984,2022-02-08-18:25:59,10.1.1.3,28,0.000,0.000,0.000,0.000,0.000,0.000
1644344759291019008,2022-02-08-18:25:59,10.1.1.3,28,-0.010,-0.010,-0.010,0.000,0.000,0.000
1644344759390724864,2022-02-08-18:25:59,10.1.1.3,27,-0.020,-0.020,-0.020,0.000,0.000,0.000
1644344759492208128,2022-02-08-18:25:59,10.1.1.3,27,-0.030,-0.030,-0.030,0.000,0.000,0.000
1644344759592947968,2022-02-08-18:25:59,10.1.1.3,20,-0.040,-0.040,-0.040,0.000,0.000,0.000
1644344759691659008,2022-02-08-18:25:59,10.1.1.3,20,-0.050,-0.050,-0.050,0.000,0.000,0.000
1644344759791499008,2022-02-08-18:25:59,10.1.1.3,19,-0.060,-0.060,-0.060,0.000,0.000,0.000
1644344759911181824,2022-02-08-18:25:59,10.1.1.3,37,-0.070,-0.070,-0.070,0.000,0.000,0.000
1644344760013573888,2022-02-08-18:26:00,10.1.1.3,34,-0.080,-0.080,-0.080,0.000,0.000,0.000
1644344760111219968,2022-02-08-18:26:00,10.1.1.3,33,-0.090,-0.090,-0.090,0.000,0.000,0.000
1644344760211555840,2022-02-08-18:26:00,10.1.1.3,32,-0.100,-0.100,-0.100,0.000,0.000,0.000
1644344760311806976,2022-02-08-18:26:00,10.1.1.3,31,-0.090,-0.090,-0.090,0.000,0.000,0.000
1644344760431318016,2022-02-08-18:26:00,10.1.1.3,36,-0.080,-0.080,-0.080,0.000,0.000,0.000
1644344760533277952,2022-02-08-18:26:00,10.1.1.3,35,-0.070,-0.070,-0.070,0.000,0.000,0.000
1644344760631005952,2022-02-08-18:26:00,10.1.1.3,35,-0.060,-0.060,-0.060,0.000,0.000,0.000
1644344760731107072,2022-02-08-18:26:00,10.1.1.3,34,-0.050,-0.050,-0.050,0.000,0.000,0.000
1644344760832357888,2022-02-08-18:26:00,10.1.1.3,34,-0.040,-0.040,-0.040,0.000,0.000,0.000
1644344760932156928,2022-02-08-18:26:00,10.1.1.3,34,-0.030,-0.030,-0.030,0.000,0.000,0.000
1644344761032121856,2022-02-08-18:26:01,10.1.1.3,32,-0.020,-0.020,-0.020,0.000,0.000,0.000
1644344761133526016,2022-02-08-18:26:01,10.1.1.3,32,-0.010,-0.010,-0.010,0.000,0.000,0.000
1644344761233155072,2022-02-08-18:26:01,10.1.1.3,31,0.000,0.000,0.000,0.000,0.000,0.000
1644344761334822912,2022-02-08-18:26:01,10.1.1.3,29,0.010,0.010,0.010,0.000,0.000,0.000
1644344761434545152,2022-02-08-18:26:01,10.1.1.3,28,0.020,0.020,0.020,0.000,0.000,0.000
1644344761531522048,2022-02-08-18:26:01,10.1.1.3,21,0.030,0.030,0.030,0.000,0.000,0.000
1644344761645971968,2022-02-08-18:26:01,10.1.1.3,20,0.040,0.040,0.040,0.000,0.000,0.000
1644344761730791936,2022-02-08-18:26:01,10.1.1.3,19,0.050,0.050,0.050,0.000,0.000,0.000
1644344761852066048,2022-02-08-18:26:01,10.1.1.3,35,0.060,0.060,0.060,0.000,0.000,0.000
1644344761951878912,2022-02-08-18:26:01,10.1.1.3,32,0.070,0.070,0.070,0.000,0.000,0.000
1644344762051497984,2022-02-08-18:26:02,10.1.1.3,31,0.080,0.080,0.080,0.000,0.000,0.000
1644344762155712000,2022-02-08-18:26:02,10.1.1.3,30,0.090,0.090,0.090,0.000,0.000,0.000
1644344762256748800,2022-02-08-18:26:02,10.1.1.3,29,0.100,0.100,0.100,0.000,0.000,0.000
1644344762356131072,2022-02-08-18:26:02,10.1.1.3,28,0.090,0.090,0.090,0.000,0.000,0.000
1644344762460598016,2022-02-08-18:26:02,10.1.1.3,24,0.080,0.080,0.080,0.000,0.000,0.000
1644344762554297856,2022-02-08-18:26:02,10.1.1.3,22,0.070,0.070,0.070,0.000,0.000,0.000
1644344762662683136,2022-02-08-18:26:02,10.1.1.3,21,0.060,0.060,0.060,0.000,0.000,0.000
1644344762754110976,2022-02-08-18:26:02,10.1.1.3,20,0.050,0.050,0.050,0.000,0.000,0.000
1644344762853299968,2022-02-08-18:26:02,10.1.1.3,20,0.040,0.040,0.040,0.000,0.000,0.000
1644344762973953024,2022-02-08-18:26:02,10.1.1.3,38,0.030,0.030,0.030,0.000,0.000,0.000
1644344763074053120,2022-02-08-18:26:03,10.1.1.3,37,0.020,0.020,0.020,0.000,0.000,0.000
1644344763174150912,2022-02-08-18:26:03,10.1.1.3,36,0.010,0.010,0.010,0.000,0.000,0.000
1644344763273238784,2022-02-08-18:26:03,10.1.1.3,35,0.000,0.000,0.000,0.000,0.000,0.000
1644344763371555072,2022-02-08-18:26:03,10.1.1.3,35,-0.010,-0.010,-0.010,0.000,0.000,0.000
1644344763471563008,2022-02-08-18:26:03,10.1.1.3,34,-0.020,-0.020,-0.020,0.000,0.000,0.000
1644344763570987008,2022-02-08-18:26:03,10.1.1.3,26,-0.030,-0.030,-0.030,0.000,0.000,0.000
1644344763671308032,2022-02-08-18:26:03,10.1.1.3,25,-0.040,-0.040,-0.040,0.000,0.000,0.000
1644344763771267840,2022-02-08-18:26:03,10.1.1.3,24,-0.050,-0.050,-0.050,0.000,0.000,0.000
1644344763871824128,2022-02-08-18:26:03,10.1.1.3,24,-0.060,-0.060,-0.060,0.000,0.000,0.000
1644344763971120128,2022-02-08-18:26:03,10.1.1.3,22,-0.070,-0.070,-0.070,0.000,0.000,0.000
1644344764072495872,2022-02-08-18:26:04,10.1.1.3,21,-0.080,-0.080,-0.080,0.000,0.000,0.000
1644344764177218816,2022-02-08-18:26:04,10.1.1.3,20,-0.090,-0.090,-0.090,0.000,0.000,0.000
1644344764271270144,2022-02-08-18:26:04,10.1.1.3,19,-0.100,-0.100,-0.100,0.000,0.000,0.000
1644344764393188864,2022-02-08-18:26:04,10.1.1.3,38,-0.090,-0.090,-0.090,0.000,0.000,0.000
1644344764493104896,2022-02-08-18:26:04,10.1.1.3,38,-0.080,-0.080,-0.080,0.000,0.000,0.000
1644344764590955008,2022-02-08-18:26:04,10.1.1.3,37,-0.070,-0.070,-0.070,0.000,0.000,0.000
1644344764691837952,2022-02-08-18:26:04,10.1.1.3,37,-0.060,-0.060,-0.060,0.000,0.000,0.000
1644344764806381056,2022-02-08-18:26:04,10.1.1.3,33,-0.050,-0.050,-0.050,0.000,0.000,0.000
1644344764891535872,2022-02-08-18:26:04,10.1.1.3,31,-0.040,-0.040,-0.040,0.000,0.000,0.000
1644344764991204096,2022-02-08-18:26:04,10.1.1.3,28,-0.030,-0.030,-0.030,0.000,0.000,0.000
1644344765091526912,2022-02-08-18:26:05,10.1.1.3,27,-0.020,-0.020,-0.020,0.000,0.000,0.000
1644344765191156992,2022-02-08-18:26:05,10.1.1.3,26,-0.010,-0.010,-0.010,0.000,0.000,0.000
1644344765291117056,2022-02-08-18:26:05,10.1.1.3,25,0.000,0.000,0.000,0.000,0.000,0.000
1644344765391782912,2022-02-08-18:26:05,10.1.1.3,24,0.010,0.010,0.010,0.000,0.000,0.000
1644344765491547136,2022-02-08-18:26:05,10.1.1.3,24,0.020,0.020,0.020,0.000,0.000,0.000
1644344765591137792,2022-02-08-18:26:05,10.1.1.3,24,0.030,0.030,0.030,0.000,0.000,0.000
1644344765691847936,2022-02-08-18:26:05,10.1.1.3,23,0.040,0.040,0.040,0.000,0.000,0.000
1644344765791277824,2022-02-08-18:26:05,10.1.1.3,23,0.050,0.050,0.050,0.000,0.000,0.000
1644344765893719040,2022-02-08-18:26:05,10.1.1.3,22,0.060,0.060,0.060,0.000,0.000,0.000
1644344766013926912,2022-02-08-18:26:06,10.1.1.3,33,0.070,0.070,0.070,0.000,0.000,0.000
1644344766111571968,2022-02-08-18:26:06,10.1.1.3,32,0.080,0.080,0.080,0.000,0.000,0.000
1644344766213893888,2022-02-08-18:26:06,10.1.1.3,31,0.090,0.090,0.090,0.000,0.000,0.000
1644344766315269120,2022-02-08-18:26:06,10.1.1.3,30,0.100,0.100,0.100,0.000,0.000,0.000
1644344766411570944,2022-02-08-18:26:06,10.1.1.3,29,0.090,0.090,0.090,0.000,0.000,0.000
1644344766512851968,2022-02-08-18:26:06,10.1.1.3,28,0.080,0.080,0.080,0.000,0.000,0.000
1644344766613985024,2022-02-08-18:26:06,10.1.1.3,27,0.070,0.070,0.070,0.000,0.000,0.000
1644344766710796032,2022-02-08-18:26:06,10.1.1.3,26,0.060,0.060,0.060,0.000,0.000,0.000
1644344766811078912,2022-02-08-18:26:06,10.1.1.3,25,0.050,0.050,0.050,0.000,0.000,0.000
1644344766911449856,2022-02-08-18:26:06,10.1.1.3,24,0.040,0.040,0.040,0.000,0.000,0.000
1644344767011917056,2022-02-08-18:26:07,10.1.1.3,23,0.030,0.030,0.030,0.000,0.000,0.000
1644344767111467008,2022-02-08-18:26:07,10.1.1.3,22,0.020,0.020,0.020,0.000,0.000,0.000
1644344767211281920,2022-02-08-18:26:07,10.1.1.3,21,0.010,0.010,0.010,0.000,0.000,0.000
1644344767331507968,2022-02-08-18:26:07,10.1.1.3,38,0.000,0.000,0.000,0.000,0.000,0.000
1644344767431579136,2022-02-08-18:26:07,10.1.1.3,33,-0.010,-0.010,-0.010,0.000,0.000,0.000
1644344767531343104,2022-02-08-18:26:07,10.1.1.3,32,-0.020,-0.020,-0.020,0.000,0.000,0.000
1644344767631596032,2022-02-08-18:26:07,10.1.1.3,32,-0.030,-0.030,-0.030,0.000,0.000,0.000
1644344767731550976,2022-02-08-18:26:07,10.1.1.3,31,-0.040,-0.040,-0.040,0.000,0.000,0.000
1644344767831792128,2022-02-08-18:26:07,10.1.1.3,31,-0.050,-0.050,-0.050,0.000,0.000,0.000
1644344767931696896,2022-02-08-18:26:07,10.1.1.3,30,-0.060,-0.060,-0.060,0.000,0.000,0.000
1644344768031522048,2022-02-08-18:26:08,10.1.1.3,30,-0.070,-0.070,-0.070,0.000,0.000,0.000
1644344768131928832,2022-02-08-18:26:08,10.1.1.3,29,-0.080,-0.080,-0.080,0.000,0.000,0.000
1644344768231143936,2022-02-08-18:26:08,10.1.1.3,28,-0.090,-0.090,-0.090,0.000,0.000,0.000
1644344768331352832,2022-02-08-18:26:08,10.1.1.3,27,-0.100,-0.100,-0.100,0.000,0.000,0.000
1644344768431794944,2022-02-08-18:26:08,10.1.1.3,27,-0.090,-0.090,-0.090,0.000,0.000,0.000
1644344768531704832,2022-02-08-18:26:08,10.1.1.3,25,-0.080,-0.080,-0.080,0.000,0.000,0.000
1644344768631015168,2022-02-08-18:26:08,10.1.1.3,24,-0.070,-0.070,-0.070,0.000,0.000,0.000
1644344768731762944,2022-02-08-18:26:08,10.1.1.3,21,-0.060,-0.060,-0.060,0.000,0.000,0.000
1644344768832549120,2022-02-08-18:26:08,10.1.1.3,19,-0.050,-0.050,-0.050,0.000,0.000,0.000
1644344768954923008,2022-02-08-18:26:08,10.1.1.3,38,-0.040,-0.040,-0.040,0.000,0.000,0.000
1644344769052104960,2022-02-08-18:26:09,10.1.1.3,37,-0.030,-0.030,-0.030,0.000,0.000,0.000
1644344769156233984,2022-02-08-18:26:09,10.1.1.3,36,-0.020,-0.020,-0.020,0.000,0.000,0.000
1644344769253180928,2022-02-08-18:26:09,10.1.1.3,36,-0.010,-0.010,-0.010,0.000,0.000,0.000
1644344769354774016,2022-02-08-18:26:09,10.1.1.3,31,0.000,0.000,0.000,0.000,0.000,0.000
1644344769458163968,2022-02-08-18:26:09,10.1.1.3,31,0.010,0.010,0.010,0.000,0.000,0.000
1644344769554904064,2022-02-08-18:26:09,10.1.1.3,29,0.020,0.020,0.020,0.000,0.000,0.000
1644344769653844224,2022-02-08-18:26:09,10.1.1.3,23,0.030,0.030,0.030,0.000,0.000,0.000
1644344769755070976,2022-02-08-18:26:09,10.1.1.3,21,0.040,0.040,0.040,0.000,0.000,0.000
1644344769871673088,2022-02-08-18:26:09,10.1.1.3,36,0.050,0.050,0.050,0.000,0.000,0.000
1644344769974391040,2022-02-08-18:26:09,10.1.1.3,30,0.060,0.060,0.060,0.000,0.000,0.000
1644344770171798016,2022-02-08-18:26:10,10.1.1.3,27,0.080,0.080,0.080,0.000,0.000,0.000
1644344770274267904,2022-02-08-18:26:10,10.1.1.3,24,0.090,0.090,0.090,0.000,0.000,0.000
1644344770372296960,2022-02-08-18:26:10,10.1.1.3,23,0.100,0.100,0.100,0.000,0.000,0.000
1644344770473536000,2022-02-08-18:26:10,10.1.1.3,20,0.090,0.090,0.090,0.000,0.000,0.000
1644344770570750976,2022-02-08-18:26:10,10.1.1.3,20,0.080,0.080,0.080,0.000,0.000,0.000
1644344770696567040,2022-02-08-18:26:10,10.1.1.3,38,0.070,0.070,0.070,0.000,0.000,0.000
1644344770791752192,2022-02-08-18:26:10,10.1.1.3,31,0.060,0.060,0.060,0.000,0.000,0.000
1644344770892775168,2022-02-08-18:26:10,10.1.1.3,31,0.050,0.050,0.050,0.000,0.000,0.000
1644344770993252096,2022-02-08-18:26:10,10.1.1.3,30,0.040,0.040,0.040,0.000,0.000,0.000
1644344771094721024,2022-02-08-18:26:11,10.1.1.3,29,0.030,0.030,0.030,0.000,0.000,0.000
1644344771192385792,2022-02-08-18:26:11,10.1.1.3,28,0.020,0.020,0.020,0.000,0.000,0.000
1644344771291954944,2022-02-08-18:26:11,10.1.1.3,27,0.010,0.010,0.010,0.000,0.000,0.000
1644344771392567040,2022-02-08-18:26:11,10.1.1.3,25,0.000,0.000,0.000,0.000,0.000,0.000
1644344771496551936,2022-02-08-18:26:11,10.1.1.3,23,-0.010,-0.010,-0.010,0.000,0.000,0.000
1644344771595169024,2022-02-08-18:26:11,10.1.1.3,22,-0.020,-0.020,-0.020,0.000,0.000,0.000
1644344771691049984,2022-02-08-18:26:11,10.1.1.3,22,-0.030,-0.030,-0.030,0.000,0.000,0.000
1644344771791686144,2022-02-08-18:26:11,10.1.1.3,21,-0.040,-0.040,-0.040,0.000,0.000,0.000
1644344771891446016,2022-02-08-18:26:11,10.1.1.3,20,-0.050,-0.050,-0.050,0.000,0.000,0.000
1644344771994183936,2022-02-08-18:26:11,10.1.1.3,19,-0.059,-0.059,-0.059,0.000,0.000,0.000
1644344772114664960,2022-02-08-18:26:12,10.1.1.3,38,-0.070,-0.070,-0.070,0.000,0.000,0.000
1644344772211409152,2022-02-08-18:26:12,10.1.1.3,37,-0.080,-0.080,-0.080,0.000,0.000,0.000
1644344772312206080,2022-02-08-18:26:12,10.1.1.3,37,-0.090,-0.090,-0.090,0.000,0.000,0.000
1644344772414555904,2022-02-08-18:26:12,10.1.1.3,36,-0.100,-0.100,-0.100,0.000,0.000,0.000
1644344772514599936,2022-02-08-18:26:12,10.1.1.3,32,-0.090,-0.090,-0.090,0.000,0.000,0.000
1644344772615489024,2022-02-08-18:26:12,10.1.1.3,29,-0.080,-0.080,-0.080,0.000,0.000,0.000
1644344772714574080,2022-02-08-18:26:12,10.1.1.3,29,-0.070,-0.070,-0.070,0.000,0.000,0.000
1644344772814224896,2022-02-08-18:26:12,10.1.1.3,28,-0.060,-0.060,-0.060,0.000,0.000,0.000
1644344772914566912,2022-02-08-18:26:12,10.1.1.3,27,-0.050,-0.050,-0.050,0.000,0.000,0.000
1644344773014432000,2022-02-08-18:26:13,10.1.1.3,27,-0.040,-0.040,-0.040,0.000,0.000,0.000
1644344773114520064,2022-02-08-18:26:13,10.1.1.3,26,-0.030,-0.030,-0.030,0.000,0.000,0.000
1644344773215512064,2022-02-08-18:26:13,10.1.1.3,24,-0.020,-0.020,-0.020,0.000,0.000,0.000
1644344773313893120,2022-02-08-18:26:13,10.1.1.3,23,-0.010,-0.010,-0.010,0.000,0.000,0.000
1644344773415899904,2022-02-08-18:26:13,10.1.1.3,22,0.000,0.000,0.000,0.000,0.000,0.000
1644344773513787136,2022-02-08-18:26:13,10.1.1.3,21,0.010,0.010,0.010,0.000,0.000,0.000
1644344773613963008,2022-02-08-18:26:13,10.1.1.3,20,0.020,0.020,0.020,0.000,0.000,0.000
1644344773714961920,2022-02-08-18:26:13,10.1.1.3,19,0.030,0.030,0.030,0.000,0.000,0.000
1644344773832498944,2022-02-08-18:26:13,10.1.1.3,38,0.040,0.040,0.040,0.000,0.000,0.000
1644344773934699008,2022-02-08-18:26:13,10.1.1.3,38,0.050,0.050,0.050,0.000,0.000,0.000
1644344774035825920,2022-02-08-18:26:14,10.1.1.3,37,0.060,0.060,0.060,0.000,0.000,0.000
1644344774132942080,2022-02-08-18:26:14,10.1.1.3,36,0.070,0.070,0.070,0.000,0.000,0.000
1644344774234927872,2022-02-08-18:26:14,10.1.1.3,31,0.080,0.080,0.080,0.000,0.000,0.000
1644344774336838912,2022-02-08-18:26:14,10.1.1.3,29,0.090,0.090,0.090,0.000,0.000,0.000
1644344774434990848,2022-02-08-18:26:14,10.1.1.3,28,0.100,0.100,0.100,0.000,0.000,0.000
1644344774536099072,2022-02-08-18:26:14,10.1.1.3,27,0.090,0.090,0.090,0.000,0.000,0.000
1644344774634552064,2022-02-08-18:26:14,10.1.1.3,25,0.080,0.080,0.080,0.000,0.000,0.000
1644344774737538048,2022-02-08-18:26:14,10.1.1.3,23,0.070,0.070,0.070,0.000,0.000,0.000
1644344774834136064,2022-02-08-18:26:14,10.1.1.3,22,0.060,0.060,0.060,0.000,0.000,0.000
1644344774935388928,2022-02-08-18:26:14,10.1.1.3,20,0.050,0.050,0.050,0.000,0.000,0.000
1644344775054297088,2022-02-08-18:26:15,10.1.1.3,38,0.040,0.040,0.040,0.000,0.000,0.000
1644344775154535936,2022-02-08-18:26:15,10.1.1.3,37,0.030,0.030,0.030,0.000,0.000,0.000
1644344775254537984,2022-02-08-18:26:15,10.1.1.3,34,0.020,0.020,0.020,0.000,0.000,0.000
1644344775352235008,2022-02-08-18:26:15,10.1.1.3,30,0.010,0.010,0.010,0.000,0.000,0.000
1644344775465459200,2022-02-08-18:26:15,10.1.1.3,29,0.000,0.000,0.000,0.000,0.000,0.000
1644344775555409920,2022-02-08-18:26:15,10.1.1.3,28,-0.010,-0.010,-0.010,0.000,0.000,0.000
1644344775654583040,2022-02-08-18:26:15,10.1.1.3,27,-0.020,-0.020,-0.020,0.000,0.000,0.000
1644344775756017920,2022-02-08-18:26:15,10.1.1.3,27,-0.030,-0.030,-0.030,0.000,0.000,0.000
1644344775852226048,2022-02-08-18:26:15,10.1.1.3,23,-0.040,-0.040,-0.040,0.000,0.000,0.000
1644344775956551168,2022-02-08-18:26:15,10.1.1.3,22,-0.050,-0.050,-0.050,0.000,0.000,0.000
1644344776056727808,2022-02-08-18:26:16,10.1.1.3,21,-0.060,-0.060,-0.060,0.000,0.000,0.000
1644344776155247872,2022-02-08-18:26:16,10.1.1.3,20,-0.070,-0.070,-0.070,0.000,0.000,0.000
1644344776253891840,2022-02-08-18:26:16,10.1.1.3,19,-0.080,-0.080,-0.080,0.000,0.000,0.000
1644344776374555136,2022-02-08-18:26:16,10.1.1.3,38,-0.090,-0.090,-0.090,0.000,0.000,0.000
1644344776474201856,2022-02-08-18:26:16,10.1.1.3,37,-0.100,-0.100,-0.100,0.000,0.000,0.000
1644344776574048000,2022-02-08-18:26:16,10.1.1.3,36,-0.090,-0.090,-0.090,0.000,0.000,0.000
1644344776635406848,2022-02-08-18:26:16,10.1.1.3,-7,-0.090,-0.090,-0.090,0.000,0.000,0.000
1644344776772291840,2022-02-08-18:26:16,10.1.1.3,32,-0.070,-0.070,-0.070,0.000,0.000,0.000
1644344776874582016,2022-02-08-18:26:16,10.1.1.3,31,-0.060,-0.060,-0.060,0.000,0.000,0.000
1644344776974904064,2022-02-08-18:26:16,10.1.1.3,30,-0.050,-0.050,-0.050,0.000,0.000,0.000
1644344777074636032,2022-02-08-18:26:17,10.1.1.3,29,-0.040,-0.040,-0.040,0.000,0.000,0.000
1644344777173656832,2022-02-08-18:26:17,10.1.1.3,25,-0.030,-0.030,-0.030,0.000,0.000,0.000
1644344777271509760,2022-02-08-18:26:17,10.1.1.3,24,-0.020,-0.020,-0.020,0.000,0.000,0.000
1644344777372093952,2022-02-08-18:26:17,10.1.1.3,20,-0.010,-0.010,-0.010,0.000,0.000,0.000
1644344777476980992,2022-02-08-18:26:17,10.1.1.3,19,0.000,0.000,0.000,0.000,0.000,0.000
1644344777594320896,2022-02-08-18:26:17,10.1.1.3,39,0.010,0.010,0.010,0.000,0.000,0.000
1644344777691767040,2022-02-08-18:26:17,10.1.1.3,38,0.020,0.020,0.020,0.000,0.000,0.000
1644344777794605056,2022-02-08-18:26:17,10.1.1.3,37,0.030,0.030,0.030,0.000,0.000,0.000
1644344777893827072,2022-02-08-18:26:17,10.1.1.3,36,0.040,0.040,0.040,0.000,0.000,0.000
1644344777994638080,2022-02-08-18:26:17,10.1.1.3,35,0.050,0.050,0.050,0.000,0.000,0.000
1644344778094535168,2022-02-08-18:26:18,10.1.1.3,30,0.060,0.060,0.060,0.000,0.000,0.000
1644344778194992896,2022-02-08-18:26:18,10.1.1.3,30,0.070,0.070,0.070,0.000,0.000,0.000
1644344778291795968,2022-02-08-18:26:18,10.1.1.3,28,0.080,0.080,0.080,0.000,0.000,0.000
1644344778391678208,2022-02-08-18:26:18,10.1.1.3,28,0.090,0.090,0.090,0.000,0.000,0.000
1644344778496304896,2022-02-08-18:26:18,10.1.1.3,27,0.100,0.100,0.100,0.000,0.000,0.000
1644344778613508096,2022-02-08-18:26:18,10.1.1.3,19,0.090,0.090,0.090,0.000,0.000,0.000
1644344778734909184,2022-02-08-18:26:18,10.1.1.3,38,0.080,0.080,0.080,0.000,0.000,0.000
1644344778850348032,2022-02-08-18:26:18,10.1.1.3,38,0.070,0.070,0.070,0.000,0.000,0.000
1644344778933286912,2022-02-08-18:26:18,10.1.1.3,37,0.060,0.060,0.060,0.000,0.000,0.000
1644344779031676928,2022-02-08-18:26:19,10.1.1.3,36,0.050,0.050,0.050,0.000,0.000,0.000
1644344779134665984,2022-02-08-18:26:19,10.1.1.3,35,0.040,0.040,0.040,0.000,0.000,0.000
1644344779235728128,2022-02-08-18:26:19,10.1.1.3,30,0.030,0.030,0.030,0.000,0.000,0.000
1644344779335056128,2022-02-08-18:26:19,10.1.1.3,29,0.020,0.020,0.020,0.000,0.000,0.000
1644344779434438912,2022-02-08-18:26:19,10.1.1.3,28,0.010,0.010,0.010,0.000,0.000,0.000
1644344779534772992,2022-02-08-18:26:19,10.1.1.3,27,0.000,0.000,0.000,0.000,0.000,0.000
1644344779634681088,2022-02-08-18:26:19,10.1.1.3,22,-0.010,-0.010,-0.010,0.000,0.000,0.000
1644344779734992896,2022-02-08-18:26:19,10.1.1.3,21,-0.020,-0.020,-0.020,0.000,0.000,0.000
1644344779955452928,2022-02-08-18:26:19,10.1.1.3,37,-0.040,-0.040,-0.040,0.000,0.000,0.000
1644344780052595968,2022-02-08-18:26:20,10.1.1.3,36,-0.050,-0.050,-0.050,0.000,0.000,0.000
1644344780153945856,2022-02-08-18:26:20,10.1.1.3,34,-0.060,-0.060,-0.060,0.000,0.000,0.000
1644344780254309888,2022-02-08-18:26:20,10.1.1.3,34,-0.070,-0.070,-0.070,0.000,0.000,0.000
1644344780356790016,2022-02-08-18:26:20,10.1.1.3,33,-0.080,-0.080,-0.080,0.000,0.000,0.000
1644344780454793984,2022-02-08-18:26:20,10.1.1.3,31,-0.090,-0.090,-0.090,0.000,0.000,0.000
1644344780555403008,2022-02-08-18:26:20,10.1.1.3,29,-0.100,-0.100,-0.100,0.000,0.000,0.000
1644344780653904896,2022-02-08-18:26:20,10.1.1.3,28,-0.090,-0.090,-0.090,0.000,0.000,0.000
1644344780755707136,2022-02-08-18:26:20,10.1.1.3,25,-0.080,-0.080,-0.080,0.000,0.000,0.000
1644344780856073984,2022-02-08-18:26:20,10.1.1.3,22,-0.070,-0.070,-0.070,0.000,0.000,0.000
1644344780954966016,2022-02-08-18:26:20,10.1.1.3,21,-0.060,-0.060,-0.060,0.000,0.000,0.000
1644344781055484928,2022-02-08-18:26:21,10.1.1.3,19,-0.050,-0.050,-0.050,0.000,0.000,0.000
1644344781174516992,2022-02-08-18:26:21,10.1.1.3,37,-0.040,-0.040,-0.040,0.000,0.000,0.000
1644344781274971136,2022-02-08-18:26:21,10.1.1.3,32,-0.030,-0.030,-0.030,0.000,0.000,0.000
1644344781375493120,2022-02-08-18:26:21,10.1.1.3,31,-0.020,-0.020,-0.020,0.000,0.000,0.000
1644344781473921024,2022-02-08-18:26:21,10.1.1.3,30,-0.010,-0.010,-0.010,0.000,0.000,0.000
1644344781571643136,2022-02-08-18:26:21,10.1.1.3,29,0.000,0.000,0.000,0.000,0.000,0.000
1644344781674659072,2022-02-08-18:26:21,10.1.1.3,27,0.010,0.010,0.010,0.000,0.000,0.000
1644344781771894016,2022-02-08-18:26:21,10.1.1.3,26,0.020,0.020,0.020,0.000,0.000,0.000
1644344781872163072,2022-02-08-18:26:21,10.1.1.3,25,0.030,0.030,0.030,0.000,0.000,0.000
1644344781973933056,2022-02-08-18:26:21,10.1.1.3,24,0.040,0.040,0.040,0.000,0.000,0.000
1644344782072603904,2022-02-08-18:26:22,10.1.1.3,22,0.050,0.050,0.050,0.000,0.000,0.000
1644344782173906944,2022-02-08-18:26:22,10.1.1.3,21,0.060,0.060,0.060,0.000,0.000,0.000
1644344782276217856,2022-02-08-18:26:22,10.1.1.3,20,0.070,0.070,0.070,0.000,0.000,0.000
1644344782395941120,2022-02-08-18:26:22,10.1.1.3,38,0.080,0.080,0.080,0.000,0.000,0.000
1644344782493896960,2022-02-08-18:26:22,10.1.1.3,35,0.090,0.090,0.090,0.000,0.000,0.000
1644344782594480896,2022-02-08-18:26:22,10.1.1.3,33,0.100,0.100,0.100,0.000,0.000,0.000
1644344782691521024,2022-02-08-18:26:22,10.1.1.3,32,0.090,0.090,0.090,0.000,0.000,0.000
1644344782794512896,2022-02-08-18:26:22,10.1.1.3,31,0.080,0.080,0.080,0.000,0.000,0.000
1644344782897504000,2022-02-08-18:26:22,10.1.1.3,30,0.070,0.070,0.070,0.000,0.000,0.000
1644344782995217152,2022-02-08-18:26:22,10.1.1.3,30,0.060,0.060,0.060,0.000,0.000,0.000
1644344783095801088,2022-02-08-18:26:23,10.1.1.3,28,0.050,0.050,0.050,0.000,0.000,0.000
1644344783197809920,2022-02-08-18:26:23,10.1.1.3,26,0.040,0.040,0.040,0.000,0.000,0.000
1644344783295380224,2022-02-08-18:26:23,10.1.1.3,23,0.030,0.030,0.030,0.000,0.000,0.000
1644344783396739840,2022-02-08-18:26:23,10.1.1.3,22,0.020,0.020,0.020,0.000,0.000,0.000
1644344783491687936,2022-02-08-18:26:23,10.1.1.3,19,0.010,0.010,0.010,0.000,0.000,0.000
1644344783616393984,2022-02-08-18:26:23,10.1.1.3,37,0.000,0.000,0.000,0.000,0.000,0.000
1644344783711993856,2022-02-08-18:26:23,10.1.1.3,37,-0.010,-0.010,-0.010,0.000,0.000,0.000
1644344783812275968,2022-02-08-18:26:23,10.1.1.3,33,-0.020,-0.020,-0.020,0.000,0.000,0.000
1644344783911928832,2022-02-08-18:26:23,10.1.1.3,32,-0.030,-0.030,-0.030,0.000,0.000,0.000
1644344784015208960,2022-02-08-18:26:24,10.1.1.3,30,-0.040,-0.040,-0.040,0.000,0.000,0.000
1644344784113596928,2022-02-08-18:26:24,10.1.1.3,28,-0.050,-0.050,-0.050,0.000,0.000,0.000
1644344784215190016,2022-02-08-18:26:24,10.1.1.3,26,-0.060,-0.060,-0.060,0.000,0.000,0.000
1644344784315184128,2022-02-08-18:26:24,10.1.1.3,24,-0.070,-0.070,-0.070,0.000,0.000,0.000
1644344784415003904,2022-02-08-18:26:24,10.1.1.3,22,-0.080,-0.080,-0.080,0.000,0.000,0.000
1644344784516036864,2022-02-08-18:26:24,10.1.1.3,21,-0.090,-0.090,-0.090,0.000,0.000,0.000
1644344784614289152,2022-02-08-18:26:24,10.1.1.3,20,-0.100,-0.100,-0.100,0.000,0.000,0.000
1644344784713722112,2022-02-08-18:26:24,10.1.1.3,19,-0.090,-0.090,-0.090,0.000,0.000,0.000
1644344784834747136,2022-02-08-18:26:24,10.1.1.3,38,-0.080,-0.080,-0.080,0.000,0.000,0.000
1644344784934658048,2022-02-08-18:26:24,10.1.1.3,38,-0.070,-0.070,-0.070,0.000,0.000,0.000
1644344785034854912,2022-02-08-18:26:25,10.1.1.3,37,-0.060,-0.060,-0.060,0.000,0.000,0.000
1644344785135719936,2022-02-08-18:26:25,10.1.1.3,34,-0.050,-0.050,-0.050,0.000,0.000,0.000
1644344785234541056,2022-02-08-18:26:25,10.1.1.3,33,-0.040,-0.040,-0.040,0.000,0.000,0.000
1644344785335256064,2022-02-08-18:26:25,10.1.1.3,32,-0.030,-0.030,-0.030,0.000,0.000,0.000
1644344785432410880,2022-02-08-18:26:25,10.1.1.3,31,-0.020,-0.020,-0.020,0.000,0.000,0.000
1644344785537287936,2022-02-08-18:26:25,10.1.1.3,29,-0.010,-0.010,-0.010,0.000,0.000,0.000
1644344785639864064,2022-02-08-18:26:25,10.1.1.3,29,0.000,0.000,0.000,0.000,0.000,0.000
1644344785734695936,2022-02-08-18:26:25,10.1.1.3,28,0.010,0.010,0.010,0.000,0.000,0.000
1644344785836018176,2022-02-08-18:26:25,10.1.1.3,27,0.020,0.020,0.020,0.000,0.000,0.000
1644344785934554112,2022-02-08-18:26:25,10.1.1.3,26,0.030,0.030,0.030,0.000,0.000,0.000
1644344786034727936,2022-02-08-18:26:26,10.1.1.3,25,0.040,0.040,0.040,0.000,0.000,0.000
1644344786135469056,2022-02-08-18:26:26,10.1.1.3,24,0.050,0.050,0.050,0.000,0.000,0.000
1644344786235393024,2022-02-08-18:26:26,10.1.1.3,23,0.060,0.060,0.060,0.000,0.000,0.000
1644344786336529920,2022-02-08-18:26:26,10.1.1.3,22,0.070,0.070,0.070,0.000,0.000,0.000
1644344786435321088,2022-02-08-18:26:26,10.1.1.3,21,0.080,0.080,0.080,0.000,0.000,0.000
1644344786555824896,2022-02-08-18:26:26,10.1.1.3,38,0.090,0.090,0.090,0.000,0.000,0.000
1644344786655937792,2022-02-08-18:26:26,10.1.1.3,38,0.100,0.100,0.100,0.000,0.000,0.000
1644344786754277888,2022-02-08-18:26:26,10.1.1.3,37,0.090,0.090,0.090,0.000,0.000,0.000
1644344786859447040,2022-02-08-18:26:26,10.1.1.3,36,0.080,0.080,0.080,0.000,0.000,0.000
1644344786954466048,2022-02-08-18:26:26,10.1.1.3,34,0.070,0.070,0.070,0.000,0.000,0.000
1644344787057456896,2022-02-08-18:26:27,10.1.1.3,32,0.060,0.060,0.060,0.000,0.000,0.000
1644344787156243968,2022-02-08-18:26:27,10.1.1.3,32,0.050,0.050,0.050,0.000,0.000,0.000
1644344787258793216,2022-02-08-18:26:27,10.1.1.3,31,0.040,0.040,0.040,0.000,0.000,0.000
1644344787356777984,2022-02-08-18:26:27,10.1.1.3,30,0.030,0.030,0.030,0.000,0.000,0.000
1644344787457261056,2022-02-08-18:26:27,10.1.1.3,29,0.020,0.020,0.020,0.000,0.000,0.000
1644344787554595072,2022-02-08-18:26:27,10.1.1.3,28,0.010,0.010,0.010,0.000,0.000,0.000
1644344787655025920,2022-02-08-18:26:27,10.1.1.3,27,0.000,0.000,0.000,0.000,0.000,0.000
1644344787754295040,2022-02-08-18:26:27,10.1.1.3,27,-0.010,-0.010,-0.010,0.000,0.000,0.000
1644344787855778816,2022-02-08-18:26:27,10.1.1.3,25,-0.020,-0.020,-0.020,0.000,0.000,0.000
1644344787954621952,2022-02-08-18:26:27,10.1.1.3,23,-0.030,-0.030,-0.030,0.000,0.000,0.000
1644344788057744896,2022-02-08-18:26:28,10.1.1.3,22,-0.040,-0.040,-0.040,0.000,0.000,0.000
1644344788156003072,2022-02-08-18:26:28,10.1.1.3,21,-0.050,-0.050,-0.050,0.000,0.000,0.000
1644344788260039168,2022-02-08-18:26:28,10.1.1.3,20,-0.060,-0.060,-0.060,0.000,0.000,0.000
1644344788356240896,2022-02-08-18:26:28,10.1.1.3,19,-0.070,-0.070,-0.070,0.000,0.000,0.000
1644344788476366080,2022-02-08-18:26:28,10.1.1.3,38,-0.080,-0.080,-0.080,0.000,0.000,0.000
1644344788575372032,2022-02-08-18:26:28,10.1.1.3,37,-0.090,-0.090,-0.090,0.000,0.000,0.000
1644344788678608896,2022-02-08-18:26:28,10.1.1.3,37,-0.100,-0.100,-0.100,0.000,0.000,0.000
1644344788777658112,2022-02-08-18:26:28,10.1.1.3,34,-0.090,-0.090,-0.090,0.000,0.000,0.000
1644344788877859072,2022-02-08-18:26:28,10.1.1.3,32,-0.080,-0.080,-0.080,0.000,0.000,0.000
1644344788977765120,2022-02-08-18:26:28,10.1.1.3,30,-0.070,-0.070,-0.070,0.000,0.000,0.000
1644344789078318080,2022-02-08-18:26:29,10.1.1.3,29,-0.060,-0.060,-0.060,0.000,0.000,0.000
1644344789174455040,2022-02-08-18:26:29,10.1.1.3,26,-0.050,-0.050,-0.050,0.000,0.000,0.000
1644344789274972928,2022-02-08-18:26:29,10.1.1.3,25,-0.040,-0.040,-0.040,0.000,0.000,0.000
1644344789374182912,2022-02-08-18:26:29,10.1.1.3,24,-0.030,-0.030,-0.030,0.000,0.000,0.000
1644344789474877184,2022-02-08-18:26:29,10.1.1.3,23,-0.020,-0.020,-0.020,0.000,0.000,0.000
1644344789576657152,2022-02-08-18:26:29,10.1.1.3,22,-0.010,-0.010,-0.010,0.000,0.000,0.000
1644344789675739904,2022-02-08-18:26:29,10.1.1.3,21,0.000,0.000,0.000,0.000,0.000,0.000
1644344789776614912,2022-02-08-18:26:29,10.1.1.3,20,0.010,0.010,0.010,0.000,0.000,0.000
1644344789875732992,2022-02-08-18:26:29,10.1.1.3,19,0.020,0.020,0.020,0.000,0.000,0.000
1644344789994478080,2022-02-08-18:26:29,10.1.1.3,38,0.030,0.030,0.030,0.000,0.000,0.000
1644344790093592832,2022-02-08-18:26:30,10.1.1.3,38,0.040,0.040,0.040,0.000,0.000,0.000
1644344790194454784,2022-02-08-18:26:30,10.1.1.3,37,0.050,0.050,0.050,0.000,0.000,0.000
1644344790294700032,2022-02-08-18:26:30,10.1.1.3,36,0.060,0.060,0.060,0.000,0.000,0.000
1644344790394938880,2022-02-08-18:26:30,10.1.1.3,34,0.070,0.070,0.070,0.000,0.000,0.000
1644344790494797056,2022-02-08-18:26:30,10.1.1.3,32,0.080,0.080,0.080,0.000,0.000,0.000
1644344790595572992,2022-02-08-18:26:30,10.1.1.3,32,0.090,0.090,0.090,0.000,0.000,0.000
1644344790696659968,2022-02-08-18:26:30,10.1.1.3,31,0.100,0.100,0.100,0.000,0.000,0.000
1644344790796009984,2022-02-08-18:26:30,10.1.1.3,30,0.090,0.090,0.090,0.000,0.000,0.000
1644344790895356928,2022-02-08-18:26:30,10.1.1.3,29,0.080,0.080,0.080,0.000,0.000,0.000
1644344790996153088,2022-02-08-18:26:30,10.1.1.3,28,0.070,0.070,0.070,0.000,0.000,0.000
1644344791094213120,2022-02-08-18:26:31,10.1.1.3,27,0.060,0.060,0.060,0.000,0.000,0.000
1644344791194428928,2022-02-08-18:26:31,10.1.1.3,26,0.050,0.050,0.050,0.000,0.000,0.000
1644344791300363008,2022-02-08-18:26:31,10.1.1.3,25,0.040,0.040,0.040,0.000,0.000,0.000
1644344791393826048,2022-02-08-18:26:31,10.1.1.3,25,0.030,0.030,0.030,0.000,0.000,0.000
1644344791496643072,2022-02-08-18:26:31,10.1.1.3,24,0.020,0.020,0.020,0.000,0.000,0.000
1644344791594608128,2022-02-08-18:26:31,10.1.1.3,23,0.010,0.010,0.010,0.000,0.000,0.000
1644344791695101952,2022-02-08-18:26:31,10.1.1.3,22,0.000,0.000,0.000,0.000,0.000,0.000
1644344791795059968,2022-02-08-18:26:31,10.1.1.3,21,-0.010,-0.010,-0.010,0.000,0.000,0.000
1644344791894501888,2022-02-08-18:26:31,10.1.1.3,20,-0.020,-0.020,-0.020,0.000,0.000,0.000
1644344791994543104,2022-02-08-18:26:31,10.1.1.3,19,-0.030,-0.030,-0.030,0.000,0.000,0.000
1644344792112884992,2022-02-08-18:26:32,10.1.1.3,39,-0.040,-0.040,-0.040,0.000,0.000,0.000
1644344792212182016,2022-02-08-18:26:32,10.1.1.3,37,-0.050,-0.050,-0.050,0.000,0.000,0.000
1644344792315277056,2022-02-08-18:26:32,10.1.1.3,36,-0.060,-0.060,-0.060,0.000,0.000,0.000
1644344792416323072,2022-02-08-18:26:32,10.1.1.3,35,-0.070,-0.070,-0.070,0.000,0.000,0.000
1644344792515419904,2022-02-08-18:26:32,10.1.1.3,33,-0.080,-0.080,-0.080,0.000,0.000,0.000
1644344792614094848,2022-02-08-18:26:32,10.1.1.3,32,-0.090,-0.090,-0.090,0.000,0.000,0.000
1644344792713926912,2022-02-08-18:26:32,10.1.1.3,31,-0.100,-0.100,-0.100,0.000,0.000,0.000
1644344792814374912,2022-02-08-18:26:32,10.1.1.3,30,-0.090,-0.090,-0.090,0.000,0.000,0.000
1644344792915139072,2022-02-08-18:26:32,10.1.1.3,29,-0.080,-0.080,-0.080,0.000,0.000,0.000
1644344793015717888,2022-02-08-18:26:33,10.1.1.3,28,-0.070,-0.070,-0.070,0.000,0.000,0.000
1644344793115302144,2022-02-08-18:26:33,10.1.1.3,28,-0.060,-0.060,-0.060,0.000,0.000,0.000
1644344793212812800,2022-02-08-18:26:33,10.1.1.3,27,-0.050,-0.050,-0.050,0.000,0.000,0.000
1644344793312391936,2022-02-08-18:26:33,10.1.1.3,26,-0.040,-0.040,-0.040,0.000,0.000,0.000
1644344793414661888,2022-02-08-18:26:33,10.1.1.3,25,-0.030,-0.030,-0.030,0.000,0.000,0.000
1644344793512579840,2022-02-08-18:26:33,10.1.1.3,24,-0.020,-0.020,-0.020,0.000,0.000,0.000
1644344793615906048,2022-02-08-18:26:33,10.1.1.3,23,-0.010,-0.010,-0.010,0.000,0.000,0.000
1644344793715020032,2022-02-08-18:26:33,10.1.1.3,22,0.000,0.000,0.000,0.000,0.000,0.000
1644344793812241920,2022-02-08-18:26:33,10.1.1.3,22,0.010,0.010,0.010,0.000,0.000,0.000
1644344793916390912,2022-02-08-18:26:33,10.1.1.3,20,0.020,0.020,0.020,0.000,0.000,0.000
1644344794013526016,2022-02-08-18:26:34,10.1.1.3,19,0.030,0.030,0.030,0.000,0.000,0.000
1644344794133654016,2022-02-08-18:26:34,10.1.1.3,39,0.040,0.040,0.040,0.000,0.000,0.000
1644344794234249984,2022-02-08-18:26:34,10.1.1.3,38,0.050,0.050,0.050,0.000,0.000,0.000
1644344794331929088,2022-02-08-18:26:34,10.1.1.3,37,0.060,0.060,0.060,0.000,0.000,0.000
1644344794433764096,2022-02-08-18:26:34,10.1.1.3,34,0.070,0.070,0.070,0.000,0.000,0.000
1644344794534055936,2022-02-08-18:26:34,10.1.1.3,33,0.080,0.080,0.080,0.000,0.000,0.000
1644344794633040896,2022-02-08-18:26:34,10.1.1.3,32,0.090,0.090,0.090,0.000,0.000,0.000
1644344794733719040,2022-02-08-18:26:34,10.1.1.3,30,0.100,0.100,0.100,0.000,0.000,0.000
1644344794833395968,2022-02-08-18:26:34,10.1.1.3,29,0.090,0.090,0.090,0.000,0.000,0.000
1644344794933675008,2022-02-08-18:26:34,10.1.1.3,29,0.080,0.080,0.080,0.000,0.000,0.000
1644344795034274048,2022-02-08-18:26:35,10.1.1.3,28,0.070,0.070,0.070,0.000,0.000,0.000
1644344795134358784,2022-02-08-18:26:35,10.1.1.3,27,0.060,0.060,0.060,0.000,0.000,0.000
1644344795232584960,2022-02-08-18:26:35,10.1.1.3,26,0.050,0.050,0.050,0.000,0.000,0.000
1644344795332918784,2022-02-08-18:26:35,10.1.1.3,25,0.040,0.040,0.040,0.000,0.000,0.000
1644344795434269952,2022-02-08-18:26:35,10.1.1.3,24,0.030,0.030,0.030,0.000,0.000,0.000
1644344795532288000,2022-02-08-18:26:35,10.1.1.3,23,0.020,0.020,0.020,0.000,0.000,0.000
1644344795632161024,2022-02-08-18:26:35,10.1.1.3,22,0.010,0.010,0.010,0.000,0.000,0.000
1644344795734841088,2022-02-08-18:26:35,10.1.1.3,22,0.000,0.000,0.000,0.000,0.000,0.000
1644344795831851008,2022-02-08-18:26:35,10.1.1.3,20,-0.010,-0.010,-0.010,0.000,0.000,0.000
1644344795931885056,2022-02-08-18:26:35,10.1.1.3,19,-0.020,-0.020,-0.020,0.000,0.000,0.000
1644344796052081152,2022-02-08-18:26:36,10.1.1.3,38,-0.030,-0.030,-0.030,0.000,0.000,0.000
1644344796151878144,2022-02-08-18:26:36,10.1.1.3,38,-0.040,-0.040,-0.040,0.000,0.000,0.000
1644344796252370176,2022-02-08-18:26:36,10.1.1.3,37,-0.050,-0.050,-0.050,0.000,0.000,0.000
1644344796352441088,2022-02-08-18:26:36,10.1.1.3,36,-0.060,-0.060,-0.060,0.000,0.000,0.000
1644344796456763136,2022-02-08-18:26:36,10.1.1.3,35,-0.070,-0.070,-0.070,0.000,0.000,0.000
1644344796554321152,2022-02-08-18:26:36,10.1.1.3,34,-0.080,-0.080,-0.080,0.000,0.000,0.000
1644344796656125184,2022-02-08-18:26:36,10.1.1.3,33,-0.090,-0.090,-0.090,0.000,0.000,0.000
1644344796757991936,2022-02-08-18:26:36,10.1.1.3,31,-0.100,-0.100,-0.100,0.000,0.000,0.000
1644344796855272960,2022-02-08-18:26:36,10.1.1.3,30,-0.090,-0.090,-0.090,0.000,0.000,0.000
1644344796955969024,2022-02-08-18:26:36,10.1.1.3,29,-0.080,-0.080,-0.080,0.000,0.000,0.000
1644344797055951104,2022-02-08-18:26:37,10.1.1.3,28,-0.070,-0.070,-0.070,0.000,0.000,0.000
1644344797155550976,2022-02-08-18:26:37,10.1.1.3,27,-0.060,-0.060,-0.060,0.000,0.000,0.000
1644344797254371840,2022-02-08-18:26:37,10.1.1.3,26,-0.050,-0.050,-0.050,0.000,0.000,0.000
1644344797355689984,2022-02-08-18:26:37,10.1.1.3,23,-0.040,-0.040,-0.040,0.000,0.000,0.000
1644344797452436992,2022-02-08-18:26:37,10.1.1.3,19,-0.030,-0.030,-0.030,0.000,0.000,0.000
1644344797576096000,2022-02-08-18:26:37,10.1.1.3,38,-0.020,-0.020,-0.020,0.000,0.000,0.000
1644344797672537088,2022-02-08-18:26:37,10.1.1.3,38,-0.010,-0.010,-0.010,0.000,0.000,0.000
1644344797775115008,2022-02-08-18:26:37,10.1.1.3,36,0.000,0.000,0.000,0.000,0.000,0.000
1644344797876229888,2022-02-08-18:26:37,10.1.1.3,33,0.010,0.010,0.010,0.000,0.000,0.000
1644344797975409152,2022-02-08-18:26:37,10.1.1.3,31,0.020,0.020,0.020,0.000,0.000,0.000
1644344798075742976,2022-02-08-18:26:38,10.1.1.3,30,0.030,0.030,0.030,0.000,0.000,0.000
1644344798178936832,2022-02-08-18:26:38,10.1.1.3,29,0.040,0.040,0.040,0.000,0.000,0.000
1644344798278928896,2022-02-08-18:26:38,10.1.1.3,28,0.050,0.050,0.050,0.000,0.000,0.000
1644344798377520128,2022-02-08-18:26:38,10.1.1.3,25,0.060,0.060,0.060,0.000,0.000,0.000
1644344798476147968,2022-02-08-18:26:38,10.1.1.3,24,0.070,0.070,0.070,0.000,0.000,0.000
1644344798575848960,2022-02-08-18:26:38,10.1.1.3,23,0.080,0.080,0.080,0.000,0.000,0.000
1644344798676536064,2022-02-08-18:26:38,10.1.1.3,22,0.090,0.090,0.090,0.000,0.000,0.000
1644344798778354944,2022-02-08-18:26:38,10.1.1.3,21,0.100,0.100,0.100,0.000,0.000,0.000
1644344798876538880,2022-02-08-18:26:38,10.1.1.3,20,0.090,0.090,0.090,0.000,0.000,0.000
1644344798994482944,2022-02-08-18:26:38,10.1.1.3,39,0.080,0.080,0.080,0.000,0.000,0.000
1644344799097356032,2022-02-08-18:26:39,10.1.1.3,37,0.070,0.070,0.070,0.000,0.000,0.000
1644344799196103168,2022-02-08-18:26:39,10.1.1.3,33,0.060,0.060,0.060,0.000,0.000,0.000
1644344799395840000,2022-02-08-18:26:39,10.1.1.3,26,0.040,0.040,0.040,0.000,0.000,0.000
1644344799494765056,2022-02-08-18:26:39,10.1.1.3,24,0.030,0.030,0.030,0.000,0.000,0.000
1644344799596707072,2022-02-08-18:26:39,10.1.1.3,23,0.020,0.020,0.020,0.000,0.000,0.000
1644344799692337152,2022-02-08-18:26:39,10.1.1.3,21,0.010,0.010,0.010,0.000,0.000,0.000
1644344799793139968,2022-02-08-18:26:39,10.1.1.3,20,0.000,0.000,0.000,0.000,0.000,0.000
1644344799891865856,2022-02-08-18:26:39,10.1.1.3,19,-0.009,-0.009,-0.009,0.000,0.000,0.000
1644344800013346048,2022-02-08-18:26:40,10.1.1.3,38,-0.020,-0.020,-0.020,0.000,0.000,0.000
1644344800111937024,2022-02-08-18:26:40,10.1.1.3,37,-0.030,-0.030,-0.030,0.000,0.000,0.000
1644344800214363136,2022-02-08-18:26:40,10.1.1.3,37,-0.040,-0.040,-0.040,0.000,0.000,0.000
1644344800314394880,2022-02-08-18:26:40,10.1.1.3,34,-0.050,-0.050,-0.050,0.000,0.000,0.000
1644344800411971072,2022-02-08-18:26:40,10.1.1.3,33,-0.060,-0.060,-0.060,0.000,0.000,0.000
1644344800515134208,2022-02-08-18:26:40,10.1.1.3,32,-0.070,-0.070,-0.070,0.000,0.000,0.000
1644344800613842944,2022-02-08-18:26:40,10.1.1.3,31,-0.080,-0.080,-0.080,0.000,0.000,0.000
1644344800715292928,2022-02-08-18:26:40,10.1.1.3,30,-0.090,-0.090,-0.090,0.000,0.000,0.000
1644344800815095040,2022-02-08-18:26:40,10.1.1.3,29,-0.100,-0.100,-0.100,0.000,0.000,0.000
1644344800914587136,2022-02-08-18:26:40,10.1.1.3,28,-0.090,-0.090,-0.090,0.000,0.000,0.000
1644344801014825984,2022-02-08-18:26:41,10.1.1.3,27,-0.080,-0.080,-0.080,0.000,0.000,0.000
1644344801115019008,2022-02-08-18:26:41,10.1.1.3,27,-0.070,-0.070,-0.070,0.000,0.000,0.000
1644344801215301888,2022-02-08-18:26:41,10.1.1.3,25,-0.060,-0.060,-0.060,0.000,0.000,0.000
1644344801313996032,2022-02-08-18:26:41,10.1.1.3,24,-0.050,-0.050,-0.050,0.000,0.000,0.000
1644344801415132160,2022-02-08-18:26:41,10.1.1.3,23,-0.040,-0.040,-0.040,0.000,0.000,0.000
1644344801518642944,2022-02-08-18:26:41,10.1.1.3,22,-0.030,-0.030,-0.030,0.000,0.000,0.000
1644344801615502080,2022-02-08-18:26:41,10.1.1.3,22,-0.020,-0.020,-0.020,0.000,0.000,0.000
1644344801715398144,2022-02-08-18:26:41,10.1.1.3,21,-0.010,-0.010,-0.010,0.000,0.000,0.000
1644344801816852992,2022-02-08-18:26:41,10.1.1.3,20,0.000,0.000,0.000,0.000,0.000,0.000
1644344801934923008,2022-02-08-18:26:41,10.1.1.3,38,0.010,0.010,0.010,0.000,0.000,0.000
1644344802035718912,2022-02-08-18:26:42,10.1.1.3,38,0.020,0.020,0.020,0.000,0.000,0.000
1644344802133448960,2022-02-08-18:26:42,10.1.1.3,35,0.030,0.030,0.030,0.000,0.000,0.000
1644344802232899072,2022-02-08-18:26:42,10.1.1.3,31,0.040,0.040,0.040,0.000,0.000,0.000
1644344802333463808,2022-02-08-18:26:42,10.1.1.3,29,0.050,0.050,0.050,0.000,0.000,0.000
1644344802433038080,2022-02-08-18:26:42,10.1.1.3,28,0.060,0.060,0.060,0.000,0.000,0.000
1644344802533587968,2022-02-08-18:26:42,10.1.1.3,27,0.070,0.070,0.070,0.000,0.000,0.000
1644344802634022912,2022-02-08-18:26:42,10.1.1.3,27,0.080,0.080,0.080,0.000,0.000,0.000
1644344802733875968,2022-02-08-18:26:42,10.1.1.3,26,0.090,0.090,0.090,0.000,0.000,0.000
1644344802837798144,2022-02-08-18:26:42,10.1.1.3,23,0.100,0.100,0.100,0.000,0.000,0.000
1644344802935085056,2022-02-08-18:26:42,10.1.1.3,21,0.090,0.090,0.090,0.000,0.000,0.000
1644344803035449856,2022-02-08-18:26:43,10.1.1.3,20,0.080,0.080,0.080,0.000,0.000,0.000
1644344803154774016,2022-02-08-18:26:43,10.1.1.3,38,0.070,0.070,0.070,0.000,0.000,0.000
1644344803255645952,2022-02-08-18:26:43,10.1.1.3,37,0.060,0.060,0.060,0.000,0.000,0.000
1644344803354771968,2022-02-08-18:26:43,10.1.1.3,35,0.050,0.050,0.050,0.000,0.000,0.000
1644344803453948928,2022-02-08-18:26:43,10.1.1.3,31,0.040,0.040,0.040,0.000,0.000,0.000
1644344803554598144,2022-02-08-18:26:43,10.1.1.3,29,0.030,0.030,0.030,0.000,0.000,0.000
1644344803651901952,2022-02-08-18:26:43,10.1.1.3,25,0.020,0.020,0.020,0.000,0.000,0.000
1644344803753562880,2022-02-08-18:26:43,10.1.1.3,24,0.010,0.010,0.010,0.000,0.000,0.000
1644344803855792128,2022-02-08-18:26:43,10.1.1.3,24,0.000,0.000,0.000,0.000,0.000,0.000
1644344803954247936,2022-02-08-18:26:43,10.1.1.3,22,-0.010,-0.010,-0.010,0.000,0.000,0.000
1644344804077558016,2022-02-08-18:26:44,10.1.1.3,38,-0.020,-0.020,-0.020,0.000,0.000,0.000
1644344804175753216,2022-02-08-18:26:44,10.1.1.3,37,-0.030,-0.030,-0.030,0.000,0.000,0.000
1644344804274450944,2022-02-08-18:26:44,10.1.1.3,36,-0.040,-0.040,-0.040,0.000,0.000,0.000
1644344804374296064,2022-02-08-18:26:44,10.1.1.3,34,-0.050,-0.050,-0.050,0.000,0.000,0.000
1644344804476145152,2022-02-08-18:26:44,10.1.1.3,32,-0.060,-0.060,-0.060,0.000,0.000,0.000
1644344804574494976,2022-02-08-18:26:44,10.1.1.3,31,-0.070,-0.070,-0.070,0.000,0.000,0.000
1644344804674701824,2022-02-08-18:26:44,10.1.1.3,30,-0.080,-0.080,-0.080,0.000,0.000,0.000
1644344804774683904,2022-02-08-18:26:44,10.1.1.3,29,-0.090,-0.090,-0.090,0.000,0.000,0.000
1644344804874676992,2022-02-08-18:26:44,10.1.1.3,26,-0.100,-0.100,-0.100,0.000,0.000,0.000
1644344804977188096,2022-02-08-18:26:44,10.1.1.3,25,-0.090,-0.090,-0.090,0.000,0.000,0.000
1644344805074223872,2022-02-08-18:26:45,10.1.1.3,24,-0.080,-0.080,-0.080,0.000,0.000,0.000
1644344805174402048,2022-02-08-18:26:45,10.1.1.3,23,-0.070,-0.070,-0.070,0.000,0.000,0.000
1644344805275814912,2022-02-08-18:26:45,10.1.1.3,22,-0.060,-0.060,-0.060,0.000,0.000,0.000
1644344805373660160,2022-02-08-18:26:45,10.1.1.3,19,-0.051,-0.051,-0.051,0.000,0.000,0.000
1644344805496019968,2022-02-08-18:26:45,10.1.1.3,36,-0.040,-0.040,-0.040,0.000,0.000,0.000
1644344805597292032,2022-02-08-18:26:45,10.1.1.3,35,-0.030,-0.030,-0.030,0.000,0.000,0.000
1644344805694701824,2022-02-08-18:26:45,10.1.1.3,31,-0.020,-0.020,-0.020,0.000,0.000,0.000
1644344805796758784,2022-02-08-18:26:45,10.1.1.3,30,-0.010,-0.010,-0.010,0.000,0.000,0.000
1644344805893474048,2022-02-08-18:26:45,10.1.1.3,28,0.000,0.000,0.000,0.000,0.000,0.000
1644344805991964160,2022-02-08-18:26:45,10.1.1.3,27,0.010,0.010,0.010,0.000,0.000,0.000
1644344806094651904,2022-02-08-18:26:46,10.1.1.3,26,0.020,0.020,0.020,0.000,0.000,0.000
1644344806191742976,2022-02-08-18:26:46,10.1.1.3,25,0.030,0.030,0.030,0.000,0.000,0.000
1644344806292279040,2022-02-08-18:26:46,10.1.1.3,24,0.040,0.040,0.040,0.000,0.000,0.000
1644344806392355072,2022-02-08-18:26:46,10.1.1.3,23,0.050,0.050,0.050,0.000,0.000,0.000
1644344806494281984,2022-02-08-18:26:46,10.1.1.3,22,0.060,0.060,0.060,0.000,0.000,0.000
1644344806594055936,2022-02-08-18:26:46,10.1.1.3,21,0.070,0.070,0.070,0.000,0.000,0.000
1644344806713355008,2022-02-08-18:26:46,10.1.1.3,34,0.080,0.080,0.080,0.000,0.000,0.000
1644344806815910144,2022-02-08-18:26:46,10.1.1.3,32,0.090,0.090,0.090,0.000,0.000,0.000
1644344806913878016,2022-02-08-18:26:46,10.1.1.3,30,0.100,0.100,0.100,0.000,0.000,0.000
1644344807014681088,2022-02-08-18:26:47,10.1.1.3,30,0.090,0.090,0.090,0.000,0.000,0.000
1644344807114339072,2022-02-08-18:26:47,10.1.1.3,29,0.080,0.080,0.080,0.000,0.000,0.000
1644344807215187200,2022-02-08-18:26:47,10.1.1.3,28,0.070,0.070,0.070,0.000,0.000,0.000
1644344807314482944,2022-02-08-18:26:47,10.1.1.3,28,0.060,0.060,0.060,0.000,0.000,0.000
1644344807414622976,2022-02-08-18:26:47,10.1.1.3,27,0.050,0.050,0.050,0.000,0.000,0.000
1644344807516477952,2022-02-08-18:26:47,10.1.1.3,26,0.040,0.040,0.040,0.000,0.000,0.000
1644344807615917056,2022-02-08-18:26:47,10.1.1.3,24,0.030,0.030,0.030,0.000,0.000,0.000
1644344807718022144,2022-02-08-18:26:47,10.1.1.3,23,0.020,0.020,0.020,0.000,0.000,0.000
1644344807827825152,2022-02-08-18:26:47,10.1.1.3,22,0.010,0.010,0.010,0.000,0.000,0.000
1644344807913067008,2022-02-08-18:26:47,10.1.1.3,21,0.000,0.000,0.000,0.000,0.000,0.000
1644344808016290048,2022-02-08-18:26:48,10.1.1.3,20,-0.010,-0.010,-0.010,0.000,0.000,0.000
1644344808139457024,2022-02-08-18:26:48,10.1.1.3,38,-0.020,-0.020,-0.020,0.000,0.000,0.000
1644344808236054016,2022-02-08-18:26:48,10.1.1.3,34,-0.030,-0.030,-0.030,0.000,0.000,0.000
1644344808337570048,2022-02-08-18:26:48,10.1.1.3,29,-0.040,-0.040,-0.040,0.000,0.000,0.000
1644344808434045184,2022-02-08-18:26:48,10.1.1.3,28,-0.050,-0.050,-0.050,0.000,0.000,0.000
1644344808533412096,2022-02-08-18:26:48,10.1.1.3,27,-0.060,-0.060,-0.060,0.000,0.000,0.000
1644344808634520064,2022-02-08-18:26:48,10.1.1.3,24,-0.070,-0.070,-0.070,0.000,0.000,0.000
1644344808734461952,2022-02-08-18:26:48,10.1.1.3,23,-0.080,-0.080,-0.080,0.000,0.000,0.000
1644344808833986048,2022-02-08-18:26:48,10.1.1.3,22,-0.090,-0.090,-0.090,0.000,0.000,0.000
1644344809011440128,2022-02-08-18:26:49,10.1.1.3,-1,-0.090,-0.090,-0.090,0.000,0.000,0.000
1644344809151931136,2022-02-08-18:26:49,10.1.1.3,38,-0.080,-0.080,-0.080,0.000,0.000,0.000
1644344809253607936,2022-02-08-18:26:49,10.1.1.3,36,-0.070,-0.070,-0.070,0.000,0.000,0.000
1644344809352030976,2022-02-08-18:26:49,10.1.1.3,33,-0.060,-0.060,-0.060,0.000,0.000,0.000
1644344809452431872,2022-02-08-18:26:49,10.1.1.3,33,-0.050,-0.050,-0.050,0.000,0.000,0.000
1644344809551424000,2022-02-08-18:26:49,10.1.1.3,33,-0.040,-0.040,-0.040,0.000,0.000,0.000
1644344809651924992,2022-02-08-18:26:49,10.1.1.3,32,-0.030,-0.030,-0.030,0.000,0.000,0.000
1644344809751401984,2022-02-08-18:26:49,10.1.1.3,32,-0.020,-0.020,-0.020,0.000,0.000,0.000
1644344809853626112,2022-02-08-18:26:49,10.1.1.3,31,-0.010,-0.010,-0.010,0.000,0.000,0.000
1644344809951517952,2022-02-08-18:26:49,10.1.1.3,31,0.000,0.000,0.000,0.000,0.000,0.000
1644344810054484992,2022-02-08-18:26:50,10.1.1.3,30,0.010,0.010,0.010,0.000,0.000,0.000
1644344810154082048,2022-02-08-18:26:50,10.1.1.3,29,0.020,0.020,0.020,0.000,0.000,0.000
1644344810256727808,2022-02-08-18:26:50,10.1.1.3,26,0.030,0.030,0.030,0.000,0.000,0.000
1644344810354504960,2022-02-08-18:26:50,10.1.1.3,22,0.040,0.040,0.040,0.000,0.000,0.000
1644344810455168000,2022-02-08-18:26:50,10.1.1.3,21,0.050,0.050,0.050,0.000,0.000,0.000
1644344810554580992,2022-02-08-18:26:50,10.1.1.3,20,0.060,0.060,0.060,0.000,0.000,0.000
1644344810672399104,2022-02-08-18:26:50,10.1.1.3,38,0.070,0.070,0.070,0.000,0.000,0.000
1644344810774715904,2022-02-08-18:26:50,10.1.1.3,33,0.080,0.080,0.080,0.000,0.000,0.000
1644344810838788096,2022-02-08-18:26:50,10.1.1.3,-9,0.080,0.080,0.080,0.000,0.000,0.000
1644344810974510080,2022-02-08-18:26:50,10.1.1.3,30,0.100,0.100,0.100,0.000,0.000,0.000
1644344811083388928,2022-02-08-18:26:51,10.1.1.3,28,0.090,0.090,0.090,0.000,0.000,0.000
1644344811175316992,2022-02-08-18:26:51,10.1.1.3,27,0.080,0.080,0.080,0.000,0.000,0.000
1644344811274720000,2022-02-08-18:26:51,10.1.1.3,26,0.070,0.070,0.070,0.000,0.000,0.000
1644344811375063808,2022-02-08-18:26:51,10.1.1.3,24,0.060,0.060,0.060,0.000,0.000,0.000
1644344811475113984,2022-02-08-18:26:51,10.1.1.3,20,0.050,0.050,0.050,0.000,0.000,0.000
1644344811572400128,2022-02-08-18:26:51,10.1.1.3,20,0.040,0.040,0.040,0.000,0.000,0.000
1644344811695302912,2022-02-08-18:26:51,10.1.1.3,38,0.030,0.030,0.030,0.000,0.000,0.000
1644344811794843904,2022-02-08-18:26:51,10.1.1.3,34,0.020,0.020,0.020,0.000,0.000,0.000
1644344811893541120,2022-02-08-18:26:51,10.1.1.3,31,0.010,0.010,0.010,0.000,0.000,0.000
1644344811992500992,2022-02-08-18:26:51,10.1.1.3,29,0.000,0.000,0.000,0.000,0.000,0.000
1644344812093561856,2022-02-08-18:26:52,10.1.1.3,28,-0.010,-0.010,-0.010,0.000,0.000,0.000
1644344812197587968,2022-02-08-18:26:52,10.1.1.3,26,-0.020,-0.020,-0.020,0.000,0.000,0.000
1644344812291785984,2022-02-08-18:26:52,10.1.1.3,23,-0.030,-0.030,-0.030,0.000,0.000,0.000
1644344812394555136,2022-02-08-18:26:52,10.1.1.3,23,-0.040,-0.040,-0.040,0.000,0.000,0.000
1644344812492047104,2022-02-08-18:26:52,10.1.1.3,22,-0.050,-0.050,-0.050,0.000,0.000,0.000
1644344812597046016,2022-02-08-18:26:52,10.1.1.3,20,-0.060,-0.060,-0.060,0.000,0.000,0.000
1644344812694849024,2022-02-08-18:26:52,10.1.1.3,20,-0.070,-0.070,-0.070,0.000,0.000,0.000
1644344812795571968,2022-02-08-18:26:52,10.1.1.3,19,-0.079,-0.079,-0.079,0.000,0.000,0.000
1644344812916721152,2022-02-08-18:26:52,10.1.1.3,38,-0.090,-0.090,-0.090,0.000,0.000,0.000
1644344813014030848,2022-02-08-18:26:53,10.1.1.3,37,-0.100,-0.100,-0.100,0.000,0.000,0.000
1644344813114445056,2022-02-08-18:26:53,10.1.1.3,36,-0.090,-0.090,-0.090,0.000,0.000,0.000
1644344813213259008,2022-02-08-18:26:53,10.1.1.3,33,-0.080,-0.080,-0.080,0.000,0.000,0.000
1644344813315025152,2022-02-08-18:26:53,10.1.1.3,31,-0.070,-0.070,-0.070,0.000,0.000,0.000
1644344813417113088,2022-02-08-18:26:53,10.1.1.3,30,-0.060,-0.060,-0.060,0.000,0.000,0.000
1644344813514946048,2022-02-08-18:26:53,10.1.1.3,29,-0.050,-0.050,-0.050,0.000,0.000,0.000
1644344813614723840,2022-02-08-18:26:53,10.1.1.3,28,-0.040,-0.040,-0.040,0.000,0.000,0.000
1644344813715006976,2022-02-08-18:26:53,10.1.1.3,27,-0.030,-0.030,-0.030,0.000,0.000,0.000
1644344813815969024,2022-02-08-18:26:53,10.1.1.3,27,-0.020,-0.020,-0.020,0.000,0.000,0.000
1644344813915743232,2022-02-08-18:26:53,10.1.1.3,25,-0.010,-0.010,-0.010,0.000,0.000,0.000
1644344814015080960,2022-02-08-18:26:54,10.1.1.3,23,0.000,0.000,0.000,0.000,0.000,0.000
1644344814114202112,2022-02-08-18:26:54,10.1.1.3,22,0.010,0.010,0.010,0.000,0.000,0.000
1644344814213910016,2022-02-08-18:26:54,10.1.1.3,21,0.020,0.020,0.020,0.000,0.000,0.000
1644344814334161920,2022-02-08-18:26:54,10.1.1.3,38,0.030,0.030,0.030,0.000,0.000,0.000
1644344814434989056,2022-02-08-18:26:54,10.1.1.3,37,0.040,0.040,0.040,0.000,0.000,0.000
1644344814535159040,2022-02-08-18:26:54,10.1.1.3,36,0.050,0.050,0.050,0.000,0.000,0.000
1644344814634377984,2022-02-08-18:26:54,10.1.1.3,32,0.060,0.060,0.060,0.000,0.000,0.000
1644344814733742848,2022-02-08-18:26:54,10.1.1.3,31,0.070,0.070,0.070,0.000,0.000,0.000
1644344814839561984,2022-02-08-18:26:54,10.1.1.3,32,0.080,0.080,0.080,0.000,0.000,0.000
1644344814934998016,2022-02-08-18:26:54,10.1.1.3,30,0.090,0.090,0.090,0.000,0.000,0.000
1644344815035689216,2022-02-08-18:26:55,10.1.1.3,29,0.100,0.100,0.100,0.000,0.000,0.000
1644344815132049920,2022-02-08-18:26:55,10.1.1.3,28,0.090,0.090,0.090,0.000,0.000,0.000
1644344815234023936,2022-02-08-18:26:55,10.1.1.3,27,0.080,0.080,0.080,0.000,0.000,0.000
1644344815335258880,2022-02-08-18:26:55,10.1.1.3,23,0.070,0.070,0.070,0.000,0.000,0.000
1644344815432619008,2022-02-08-18:26:55,10.1.1.3,22,0.060,0.060,0.060,0.000,0.000,0.000
1644344815534311168,2022-02-08-18:26:55,10.1.1.3,21,0.050,0.050,0.050,0.000,0.000,0.000
1644344815634764032,2022-02-08-18:26:55,10.1.1.3,20,0.040,0.040,0.040,0.000,0.000,0.000
1644344815734828032,2022-02-08-18:26:55,10.1.1.3,19,0.030,0.030,0.030,0.000,0.000,0.000
1644344815853507072,2022-02-08-18:26:55,10.1.1.3,38,0.020,0.020,0.020,0.000,0.000,0.000
1644344815953771008,2022-02-08-18:26:55,10.1.1.3,38,0.010,0.010,0.010,0.000,0.000,0.000
1644344816054950912,2022-02-08-18:26:56,10.1.1.3,37,0.000,0.000,0.000,0.000,0.000,0.000
1644344816151745024,2022-02-08-18:26:56,10.1.1.3,35,-0.010,-0.010,-0.010,0.000,0.000,0.000
1644344816255585024,2022-02-08-18:26:56,10.1.1.3,34,-0.020,-0.020,-0.020,0.000,0.000,0.000
1644344816354511872,2022-02-08-18:26:56,10.1.1.3,33,-0.030,-0.030,-0.030,0.000,0.000,0.000
1644344816454299904,2022-02-08-18:26:56,10.1.1.3,33,-0.040,-0.040,-0.040,0.000,0.000,0.000
1644344816554855936,2022-02-08-18:26:56,10.1.1.3,32,-0.050,-0.050,-0.050,0.000,0.000,0.000
1644344816654872064,2022-02-08-18:26:56,10.1.1.3,31,-0.060,-0.060,-0.060,0.000,0.000,0.000
1644344816754131200,2022-02-08-18:26:56,10.1.1.3,30,-0.070,-0.070,-0.070,0.000,0.000,0.000
1644344816854099968,2022-02-08-18:26:56,10.1.1.3,28,-0.080,-0.080,-0.080,0.000,0.000,0.000
1644344816956986880,2022-02-08-18:26:56,10.1.1.3,27,-0.090,-0.090,-0.090,0.000,0.000,0.000
1644344817059219968,2022-02-08-18:26:57,10.1.1.3,26,-0.100,-0.100,-0.100,0.000,0.000,0.000
1644344817155378176,2022-02-08-18:26:57,10.1.1.3,25,-0.090,-0.090,-0.090,0.000,0.000,0.000
1644344817254496000,2022-02-08-18:26:57,10.1.1.3,24,-0.080,-0.080,-0.080,0.000,0.000,0.000
1644344817354753024,2022-02-08-18:26:57,10.1.1.3,22,-0.070,-0.070,-0.070,0.000,0.000,0.000
1644344817453434880,2022-02-08-18:26:57,10.1.1.3,21,-0.060,-0.060,-0.060,0.000,0.000,0.000
1644344817554425088,2022-02-08-18:26:57,10.1.1.3,21,-0.050,-0.050,-0.050,0.000,0.000,0.000
1644344817656316928,2022-02-08-18:26:57,10.1.1.3,20,-0.040,-0.040,-0.040,0.000,0.000,0.000
1644344817775196928,2022-02-08-18:26:57,10.1.1.3,38,-0.030,-0.030,-0.030,0.000,0.000,0.000
1644344817874582016,2022-02-08-18:26:57,10.1.1.3,37,-0.020,-0.020,-0.020,0.000,0.000,0.000
1644344817974071040,2022-02-08-18:26:57,10.1.1.3,36,-0.010,-0.010,-0.010,0.000,0.000,0.000
1644344818072032000,2022-02-08-18:26:58,10.1.1.3,33,0.000,0.000,0.000,0.000,0.000,0.000
1644344818174053888,2022-02-08-18:26:58,10.1.1.3,33,0.010,0.010,0.010,0.000,0.000,0.000
1644344818274200832,2022-02-08-18:26:58,10.1.1.3,32,0.020,0.020,0.020,0.000,0.000,0.000
1644344818375272960,2022-02-08-18:26:58,10.1.1.3,30,0.030,0.030,0.030,0.000,0.000,0.000
1644344818474567936,2022-02-08-18:26:58,10.1.1.3,29,0.040,0.040,0.040,0.000,0.000,0.000
1644344818574008064,2022-02-08-18:26:58,10.1.1.3,28,0.050,0.050,0.050,0.000,0.000,0.000
1644344818674084864,2022-02-08-18:26:58,10.1.1.3,24,0.060,0.060,0.060,0.000,0.000,0.000
1644344818779617024,2022-02-08-18:26:58,10.1.1.3,23,0.070,0.070,0.070,0.000,0.000,0.000
1644344818874504960,2022-02-08-18:26:58,10.1.1.3,21,0.080,0.080,0.080,0.000,0.000,0.000
1644344818974153984,2022-02-08-18:26:58,10.1.1.3,20,0.090,0.090,0.090,0.000,0.000,0.000
1644344819153358848,2022-02-08-18:26:59,10.1.1.3,-3,0.090,0.090,0.090,0.000,0.000,0.000
1644344819293282048,2022-02-08-18:26:59,10.1.1.3,36,0.080,0.080,0.080,0.000,0.000,0.000
1644344819393212160,2022-02-08-18:26:59,10.1.1.3,34,0.070,0.070,0.070,0.000,0.000,0.000
1644344819491720960,2022-02-08-18:26:59,10.1.1.3,33,0.060,0.060,0.060,0.000,0.000,0.000
1644344819595202816,2022-02-08-18:26:59,10.1.1.3,32,0.050,0.050,0.050,0.000,0.000,0.000
1644344819698402816,2022-02-08-18:26:59,10.1.1.3,31,0.040,0.040,0.040,0.000,0.000,0.000
1644344819795168000,2022-02-08-18:26:59,10.1.1.3,29,0.030,0.030,0.030,0.000,0.000,0.000
1644344819897699072,2022-02-08-18:26:59,10.1.1.3,28,0.020,0.020,0.020,0.000,0.000,0.000
1644344819993505024,2022-02-08-18:26:59,10.1.1.3,26,0.010,0.010,0.010,0.000,0.000,0.000
1644344820093635072,2022-02-08-18:27:00,10.1.1.3,24,0.000,0.000,0.000,0.000,0.000,0.000
1644344820194208000,2022-02-08-18:27:00,10.1.1.3,23,-0.010,-0.010,-0.010,0.000,0.000,0.000
1644344820292068096,2022-02-08-18:27:00,10.1.1.3,22,-0.020,-0.020,-0.020,0.000,0.000,0.000
1644344820392594944,2022-02-08-18:27:00,10.1.1.3,21,-0.030,-0.030,-0.030,0.000,0.000,0.000
1644344820493350144,2022-02-08-18:27:00,10.1.1.3,20,-0.040,-0.040,-0.040,0.000,0.000,0.000
1644344820597623040,2022-02-08-18:27:00,10.1.1.3,20,-0.050,-0.050,-0.050,0.000,0.000,0.000
1644344820712832000,2022-02-08-18:27:00,10.1.1.3,38,-0.060,-0.060,-0.060,0.000,0.000,0.000
1644344820814434048,2022-02-08-18:27:00,10.1.1.3,37,-0.070,-0.070,-0.070,0.000,0.000,0.000
1644344820912177152,2022-02-08-18:27:00,10.1.1.3,31,-0.080,-0.080,-0.080,0.000,0.000,0.000
1644344821011954176,2022-02-08-18:27:01,10.1.1.3,29,-0.090,-0.090,-0.090,0.000,0.000,0.000
1644344821114042112,2022-02-08-18:27:01,10.1.1.3,28,-0.100,-0.100,-0.100,0.000,0.000,0.000
1644344821215118848,2022-02-08-18:27:01,10.1.1.3,27,-0.090,-0.090,-0.090,0.000,0.000,0.000
1644344821313380864,2022-02-08-18:27:01,10.1.1.3,25,-0.080,-0.080,-0.080,0.000,0.000,0.000
1644344821414181120,2022-02-08-18:27:01,10.1.1.3,23,-0.070,-0.070,-0.070,0.000,0.000,0.000
1644344821515371008,2022-02-08-18:27:01,10.1.1.3,22,-0.060,-0.060,-0.060,0.000,0.000,0.000
1644344821611803904,2022-02-08-18:27:01,10.1.1.3,20,-0.050,-0.050,-0.050,0.000,0.000,0.000
1644344821712316928,2022-02-08-18:27:01,10.1.1.3,19,-0.040,-0.040,-0.040,0.000,0.000,0.000
1644344821834528000,2022-02-08-18:27:01,10.1.1.3,37,-0.030,-0.030,-0.030,0.000,0.000,0.000
1644344821934561024,2022-02-08-18:27:01,10.1.1.3,36,-0.020,-0.020,-0.020,0.000,0.000,0.000
1644344822034164992,2022-02-08-18:27:02,10.1.1.3,34,-0.010,-0.010,-0.010,0.000,0.000,0.000
1644344822135449856,2022-02-08-18:27:02,10.1.1.3,33,0.000,0.000,0.000,0.000,0.000,0.000
1644344822234181888,2022-02-08-18:27:02,10.1.1.3,32,0.010,0.010,0.010,0.000,0.000,0.000
1644344822336118016,2022-02-08-18:27:02,10.1.1.3,31,0.020,0.020,0.020,0.000,0.000,0.000
1644344822436676864,2022-02-08-18:27:02,10.1.1.3,30,0.030,0.030,0.030,0.000,0.000,0.000
1644344822535036928,2022-02-08-18:27:02,10.1.1.3,28,0.040,0.040,0.040,0.000,0.000,0.000
1644344822635469056,2022-02-08-18:27:02,10.1.1.3,27,0.050,0.050,0.050,0.000,0.000,0.000
1644344822735117056,2022-02-08-18:27:02,10.1.1.3,26,0.060,0.060,0.060,0.000,0.000,0.000
1644344822834551040,2022-02-08-18:27:02,10.1.1.3,24,0.070,0.070,0.070,0.000,0.000,0.000
1644344822935030016,2022-02-08-18:27:02,10.1.1.3,23,0.080,0.080,0.080,0.000,0.000,0.000
1644344823036009984,2022-02-08-18:27:03,10.1.1.3,22,0.090,0.090,0.090,0.000,0.000,0.000
1644344823132903168,2022-02-08-18:27:03,10.1.1.3,22,0.100,0.100,0.100,0.000,0.000,0.000
1644344823234590976,2022-02-08-18:27:03,10.1.1.3,21,0.090,0.090,0.090,0.000,0.000,0.000
1644344823333831936,2022-02-08-18:27:03,10.1.1.3,20,0.080,0.080,0.080,0.000,0.000,0.000
1644344823453979136,2022-02-08-18:27:03,10.1.1.3,38,0.070,0.070,0.070,0.000,0.000,0.000
1644344823554369024,2022-02-08-18:27:03,10.1.1.3,38,0.060,0.060,0.060,0.000,0.000,0.000
1644344823654405120,2022-02-08-18:27:03,10.1.1.3,37,0.050,0.050,0.050,0.000,0.000,0.000
1644344823754205952,2022-02-08-18:27:03,10.1.1.3,36,0.040,0.040,0.040,0.000,0.000,0.000
1644344823855005952,2022-02-08-18:27:03,10.1.1.3,32,0.030,0.030,0.030,0.000,0.000,0.000
1644344823952389120,2022-02-08-18:27:03,10.1.1.3,31,0.020,0.020,0.020,0.000,0.000,0.000
1644344824053694976,2022-02-08-18:27:04,10.1.1.3,30,0.010,0.010,0.010,0.000,0.000,0.000
1644344824154288896,2022-02-08-18:27:04,10.1.1.3,30,0.000,0.000,0.000,0.000,0.000,0.000
1644344824252300032,2022-02-08-18:27:04,10.1.1.3,29,-0.010,-0.010,-0.010,0.000,0.000,0.000
1644344824355015936,2022-02-08-18:27:04,10.1.1.3,28,-0.020,-0.020,-0.020,0.000,0.000,0.000
1644344824456034816,2022-02-08-18:27:04,10.1.1.3,26,-0.030,-0.030,-0.030,0.000,0.000,0.000
1644344824552345088,2022-02-08-18:27:04,10.1.1.3,25,-0.040,-0.040,-0.040,0.000,0.000,0.000
1644344824654903040,2022-02-08-18:27:04,10.1.1.3,24,-0.050,-0.050,-0.050,0.000,0.000,0.000
1644344824754836992,2022-02-08-18:27:04,10.1.1.3,21,-0.060,-0.060,-0.060,0.000,0.000,0.000
1644344824851732992,2022-02-08-18:27:04,10.1.1.3,21,-0.070,-0.070,-0.070,0.000,0.000,0.000
