FedericoMungari/DigitalTwin_service/01_WiredScenario/Output/Output_script/script_rosapi_2_output_robots10_freq0_8.txt
timestamp,date,node,latency,joint_1,joint_2,joint_3,joint_4,joint_5,joint_6
1644362089481170944,2022-02-08-23:14:49,10.1.1.9,2,-0.100,-0.100,-0.100,-0.000,0.000,0.000
1644362089900630016,2022-02-08-23:14:49,10.1.1.9,19,-0.060,-0.060,-0.060,0.000,0.000,0.000
1644362090019974912,2022-02-08-23:14:50,10.1.1.9,39,-0.050,-0.050,-0.050,0.000,0.000,0.000
1644362090120361216,2022-02-08-23:14:50,10.1.1.9,39,-0.040,-0.040,-0.040,0.000,0.000,0.000
1644362090220907008,2022-02-08-23:14:50,10.1.1.9,38,-0.030,-0.030,-0.030,0.000,0.000,0.000
1644362090320944128,2022-02-08-23:14:50,10.1.1.9,37,-0.020,-0.020,-0.020,0.000,0.000,0.000
1644362090420540928,2022-02-08-23:14:50,10.1.1.9,36,-0.010,-0.010,-0.010,0.000,0.000,0.000
1644362090522558976,2022-02-08-23:14:50,10.1.1.9,36,0.000,0.000,0.000,0.000,0.000,0.000
1644362090920866048,2022-02-08-23:14:50,10.1.1.9,31,0.040,0.040,0.040,0.000,0.000,0.000
1644362091020780032,2022-02-08-23:14:51,10.1.1.9,30,0.050,0.050,0.050,0.000,0.000,0.000
1644362091840807936,2022-02-08-23:14:51,10.1.1.9,39,0.070,0.070,0.070,0.000,0.000,0.000
1644362091940578816,2022-02-08-23:14:51,10.1.1.9,38,0.060,0.060,0.060,0.000,0.000,0.000
1644362092040342016,2022-02-08-23:14:52,10.1.1.9,37,0.050,0.050,0.050,0.000,0.000,0.000
1644362092140267008,2022-02-08-23:14:52,10.1.1.9,37,0.040,0.040,0.040,0.000,0.000,0.000
1644362092240552960,2022-02-08-23:14:52,10.1.1.9,35,0.030,0.030,0.030,0.000,0.000,0.000
1644362092640006912,2022-02-08-23:14:52,10.1.1.9,29,-0.010,-0.010,-0.010,0.000,0.000,0.000
1644362092740035072,2022-02-08-23:14:52,10.1.1.9,29,-0.020,-0.020,-0.020,0.000,0.000,0.000
1644362092840142848,2022-02-08-23:14:52,10.1.1.9,28,-0.030,-0.030,-0.030,0.000,0.000,0.000
1644362092940592896,2022-02-08-23:14:52,10.1.1.9,27,-0.040,-0.040,-0.040,0.000,0.000,0.000
1644362093040185856,2022-02-08-23:14:53,10.1.1.9,27,-0.050,-0.050,-0.050,0.000,0.000,0.000
1644362093160707072,2022-02-08-23:14:53,10.1.1.9,47,-0.060,-0.060,-0.060,0.000,0.000,0.000
1644362093240689920,2022-02-08-23:14:53,10.1.1.9,26,-0.070,-0.070,-0.070,0.000,0.000,0.000
1644362093339930112,2022-02-08-23:14:53,10.1.1.9,25,-0.080,-0.080,-0.080,0.000,0.000,0.000
1644362093741345024,2022-02-08-23:14:53,10.1.1.9,21,-0.080,-0.080,-0.080,0.000,0.000,0.000
1644362093960758016,2022-02-08-23:14:53,10.1.1.9,39,-0.060,-0.060,-0.060,0.000,0.000,0.000
1644362094060452096,2022-02-08-23:14:54,10.1.1.9,38,-0.050,-0.050,-0.050,0.000,0.000,0.000
1644362094160775936,2022-02-08-23:14:54,10.1.1.9,37,-0.040,-0.040,-0.040,0.000,0.000,0.000
1644362094260641024,2022-02-08-23:14:54,10.1.1.9,37,-0.030,-0.030,-0.030,0.000,0.000,0.000
1644362094360804096,2022-02-08-23:14:54,10.1.1.9,35,-0.020,-0.020,-0.020,0.000,0.000,0.000
1644362095260276992,2022-02-08-23:14:55,10.1.1.9,30,0.070,0.070,0.070,0.000,0.000,0.000
1644362095360039936,2022-02-08-23:14:55,10.1.1.9,29,0.080,0.080,0.080,0.000,0.000,0.000
1644362095461126144,2022-02-08-23:14:55,10.1.1.9,29,0.090,0.090,0.090,0.000,0.000,0.000
1644362095640648960,2022-02-08-23:14:55,10.1.1.9,7,0.090,0.090,0.090,0.000,0.000,0.000
1644362095759656960,2022-02-08-23:14:55,10.1.1.9,27,0.080,0.080,0.080,0.000,0.000,0.000
1644362095859930880,2022-02-08-23:14:55,10.1.1.9,27,0.070,0.070,0.070,0.000,0.000,0.000
1644362095959584000,2022-02-08-23:14:55,10.1.1.9,26,0.060,0.060,0.060,0.000,0.000,0.000
1644362096059775232,2022-02-08-23:14:56,10.1.1.9,26,0.050,0.050,0.050,0.000,0.000,0.000
1644362096760548096,2022-02-08-23:14:56,10.1.1.9,20,-0.020,-0.020,-0.020,0.000,0.000,0.000
1644362096880417024,2022-02-08-23:14:56,10.1.1.9,39,-0.030,-0.030,-0.030,0.000,0.000,0.000
1644362096979627008,2022-02-08-23:14:56,10.1.1.9,38,-0.040,-0.040,-0.040,0.000,0.000,0.000
1644362097080236032,2022-02-08-23:14:57,10.1.1.9,38,-0.050,-0.050,-0.050,0.000,0.000,0.000
1644362097180912128,2022-02-08-23:14:57,10.1.1.9,37,-0.060,-0.060,-0.060,0.000,0.000,0.000
1644362097280733952,2022-02-08-23:14:57,10.1.1.9,36,-0.070,-0.070,-0.070,0.000,0.000,0.000
1644362097382328064,2022-02-08-23:14:57,10.1.1.9,36,-0.080,-0.080,-0.080,0.000,0.000,0.000
1644362097760570112,2022-02-08-23:14:57,10.1.1.9,10,-0.080,-0.080,-0.080,0.000,0.000,0.000
1644362097880824064,2022-02-08-23:14:57,10.1.1.9,29,-0.070,-0.070,-0.070,0.000,0.000,0.000
1644362097980613888,2022-02-08-23:14:57,10.1.1.9,27,-0.060,-0.060,-0.060,0.000,0.000,0.000
1644362098080764160,2022-02-08-23:14:58,10.1.1.9,25,-0.050,-0.050,-0.050,0.000,0.000,0.000
1644362098380737024,2022-02-08-23:14:58,10.1.1.9,19,-0.020,-0.020,-0.020,0.000,0.000,0.000
1644362098500526848,2022-02-08-23:14:58,10.1.1.9,39,-0.010,-0.010,-0.010,0.000,0.000,0.000
1644362099000914944,2022-02-08-23:14:59,10.1.1.9,28,0.040,0.040,0.040,0.000,0.000,0.000
1644362099400585984,2022-02-08-23:14:59,10.1.1.9,19,0.080,0.080,0.080,0.000,0.000,0.000
1644362099520875008,2022-02-08-23:14:59,10.1.1.9,39,0.090,0.090,0.090,0.000,0.000,0.000
1644362099620946944,2022-02-08-23:14:59,10.1.1.9,37,0.100,0.100,0.100,0.000,0.000,0.000
1644362099721232896,2022-02-08-23:14:59,10.1.1.9,35,0.090,0.090,0.090,0.000,0.000,0.000
1644362100120342016,2022-02-08-23:15:00,10.1.1.9,26,0.050,0.050,0.050,0.000,0.000,0.000
1644362100520817920,2022-02-08-23:15:00,10.1.1.9,20,0.010,0.010,0.010,0.000,0.000,0.000
1644362100640683776,2022-02-08-23:15:00,10.1.1.9,38,0.000,0.000,0.000,0.000,0.000,0.000
1644362100741720064,2022-02-08-23:15:00,10.1.1.9,37,-0.010,-0.010,-0.010,0.000,0.000,0.000
1644362101052793856,2022-02-08-23:15:01,10.1.1.9,30,-0.040,-0.040,-0.040,0.000,0.000,0.000
1644362101154501888,2022-02-08-23:15:01,10.1.1.9,26,-0.050,-0.050,-0.050,0.000,0.000,0.000
1644362101352732928,2022-02-08-23:15:01,10.1.1.9,39,-0.070,-0.070,-0.070,0.000,0.000,0.000
1644362101433472000,2022-02-08-23:15:01,10.1.1.9,19,-0.080,-0.080,-0.080,0.000,0.000,0.000
1644362101753148160,2022-02-08-23:15:01,10.1.1.9,35,-0.090,-0.090,-0.090,0.000,0.000,0.000
1644362101853286144,2022-02-08-23:15:01,10.1.1.9,34,-0.080,-0.080,-0.080,0.000,0.000,0.000
1644362102087652864,2022-02-08-23:15:02,10.1.1.9,35,-0.060,-0.060,-0.060,0.000,0.000,0.000
1644362102373133824,2022-02-08-23:15:02,10.1.1.9,27,-0.030,-0.030,-0.030,0.000,0.000,0.000
1644362102473308160,2022-02-08-23:15:02,10.1.1.9,26,-0.020,-0.020,-0.020,0.000,0.000,0.000
1644362102573133056,2022-02-08-23:15:02,10.1.1.9,25,-0.010,-0.010,-0.010,0.000,0.000,0.000
1644362103293127936,2022-02-08-23:15:03,10.1.1.9,39,0.060,0.060,0.060,0.000,0.000,0.000
1644362103392955904,2022-02-08-23:15:03,10.1.1.9,39,0.070,0.070,0.070,0.000,0.000,0.000
1644362103500820992,2022-02-08-23:15:03,10.1.1.9,38,0.080,0.080,0.080,0.000,0.000,0.000
1644362103593285120,2022-02-08-23:15:03,10.1.1.9,37,0.090,0.090,0.090,0.000,0.000,0.000
1644362103693489920,2022-02-08-23:15:03,10.1.1.9,37,0.100,0.100,0.100,0.000,0.000,0.000
1644362103793025024,2022-02-08-23:15:03,10.1.1.9,35,0.090,0.090,0.090,0.000,0.000,0.000
1644362103893323008,2022-02-08-23:15:03,10.1.1.9,34,0.080,0.080,0.080,0.000,0.000,0.000
1644362104694486016,2022-02-08-23:15:04,10.1.1.9,29,0.000,0.000,0.000,0.000,0.000,0.000
1644362104794086912,2022-02-08-23:15:04,10.1.1.9,27,-0.010,-0.010,-0.010,0.000,0.000,0.000
1644362104893364992,2022-02-08-23:15:04,10.1.1.9,26,-0.020,-0.020,-0.020,0.000,0.000,0.000
1644362105413520128,2022-02-08-23:15:05,10.1.1.9,39,-0.070,-0.070,-0.070,0.000,0.000,0.000
1644362105513158144,2022-02-08-23:15:05,10.1.1.9,38,-0.080,-0.080,-0.080,0.000,0.000,0.000
1644362105613524992,2022-02-08-23:15:05,10.1.1.9,37,-0.090,-0.090,-0.090,0.000,0.000,0.000
1644362105712982784,2022-02-08-23:15:05,10.1.1.9,36,-0.100,-0.100,-0.100,0.000,0.000,0.000
1644362106313009920,2022-02-08-23:15:06,10.1.1.9,28,-0.040,-0.040,-0.040,0.000,0.000,0.000
1644362106413052928,2022-02-08-23:15:06,10.1.1.9,27,-0.030,-0.030,-0.030,0.000,0.000,0.000
1644362107033196800,2022-02-08-23:15:07,10.1.1.9,39,0.030,0.030,0.030,0.000,0.000,0.000
1644362107133790976,2022-02-08-23:15:07,10.1.1.9,36,0.040,0.040,0.040,0.000,0.000,0.000
1644362107234018048,2022-02-08-23:15:07,10.1.1.9,35,0.050,0.050,0.050,0.000,0.000,0.000
1644362107733081088,2022-02-08-23:15:07,10.1.1.9,30,0.100,0.100,0.100,0.000,0.000,0.000
1644362107933260032,2022-02-08-23:15:07,10.1.1.9,26,0.080,0.080,0.080,0.000,0.000,0.000
1644362108032950016,2022-02-08-23:15:08,10.1.1.9,25,0.070,0.070,0.070,0.000,0.000,0.000
1644362108952864768,2022-02-08-23:15:08,10.1.1.9,39,-0.020,-0.020,-0.020,0.000,0.000,0.000
1644362109053270016,2022-02-08-23:15:09,10.1.1.9,39,-0.030,-0.030,-0.030,0.000,0.000,0.000
1644362109153291008,2022-02-08-23:15:09,10.1.1.9,38,-0.040,-0.040,-0.040,0.000,0.000,0.000
1644362109253012992,2022-02-08-23:15:09,10.1.1.9,37,-0.050,-0.050,-0.050,0.000,0.000,0.000
1644362109352833024,2022-02-08-23:15:09,10.1.1.9,36,-0.060,-0.060,-0.060,0.000,0.000,0.000
1644362109453569792,2022-02-08-23:15:09,10.1.1.9,35,-0.070,-0.070,-0.070,0.000,0.000,0.000
1644362110033137920,2022-02-08-23:15:10,10.1.1.9,10,-0.070,-0.070,-0.070,0.000,0.000,0.000
1644362110175730944,2022-02-08-23:15:10,10.1.1.9,29,-0.060,-0.060,-0.060,0.000,0.000,0.000
1644362110252708864,2022-02-08-23:15:10,10.1.1.9,29,-0.050,-0.050,-0.050,0.000,0.000,0.000
1644362110353584128,2022-02-08-23:15:10,10.1.1.9,28,-0.040,-0.040,-0.040,0.000,0.000,0.000
1644362110453016064,2022-02-08-23:15:10,10.1.1.9,27,-0.030,-0.030,-0.030,0.000,0.000,0.000
1644362110552557824,2022-02-08-23:15:10,10.1.1.9,24,-0.020,-0.020,-0.020,0.000,0.000,0.000
1644362110653181184,2022-02-08-23:15:10,10.1.1.9,24,-0.010,-0.010,-0.010,0.000,0.000,0.000
1644362111373111040,2022-02-08-23:15:11,10.1.1.9,39,0.060,0.060,0.060,0.000,0.000,0.000
1644362111473081088,2022-02-08-23:15:11,10.1.1.9,39,0.070,0.070,0.070,0.000,0.000,0.000
1644362111572918784,2022-02-08-23:15:11,10.1.1.9,37,0.080,0.080,0.080,0.000,0.000,0.000
1644362111672822016,2022-02-08-23:15:11,10.1.1.9,36,0.090,0.090,0.090,0.000,0.000,0.000
1644362111853540864,2022-02-08-23:15:11,10.1.1.9,13,0.090,0.090,0.090,0.000,0.000,0.000
1644362112372751104,2022-02-08-23:15:12,10.1.1.9,29,0.040,0.040,0.040,0.000,0.000,0.000
1644362112472794112,2022-02-08-23:15:12,10.1.1.9,28,0.030,0.030,0.030,0.000,0.000,0.000
1644362112574081024,2022-02-08-23:15:12,10.1.1.9,26,0.020,0.020,0.020,0.000,0.000,0.000
1644362112673826816,2022-02-08-23:15:12,10.1.1.9,25,0.010,0.010,0.010,0.000,0.000,0.000
1644362113392935936,2022-02-08-23:15:13,10.1.1.9,38,-0.060,-0.060,-0.060,0.000,0.000,0.000
1644362113492695040,2022-02-08-23:15:13,10.1.1.9,38,-0.070,-0.070,-0.070,0.000,0.000,0.000
1644362113593118976,2022-02-08-23:15:13,10.1.1.9,36,-0.080,-0.080,-0.080,0.000,0.000,0.000
1644362113692850176,2022-02-08-23:15:13,10.1.1.9,35,-0.090,-0.090,-0.090,0.000,0.000,0.000
1644362113792759808,2022-02-08-23:15:13,10.1.1.9,35,-0.100,-0.100,-0.100,0.000,0.000,0.000
1644362114393434112,2022-02-08-23:15:14,10.1.1.9,29,-0.040,-0.040,-0.040,0.000,0.000,0.000
1644362114498923008,2022-02-08-23:15:14,10.1.1.9,28,-0.030,-0.030,-0.030,0.000,0.000,0.000
1644362114593132032,2022-02-08-23:15:14,10.1.1.9,27,-0.020,-0.020,-0.020,0.000,0.000,0.000
1644362114692812800,2022-02-08-23:15:14,10.1.1.9,26,-0.010,-0.010,-0.010,0.000,0.000,0.000
1644362114793144832,2022-02-08-23:15:14,10.1.1.9,26,0.000,0.000,0.000,0.000,0.000,0.000
1644362115613751808,2022-02-08-23:15:15,10.1.1.9,39,0.080,0.080,0.080,0.000,0.000,0.000
1644362115713673984,2022-02-08-23:15:15,10.1.1.9,38,0.090,0.090,0.090,0.000,0.000,0.000
1644362115812868096,2022-02-08-23:15:15,10.1.1.9,36,0.100,0.100,0.100,0.000,0.000,0.000
1644362115912754944,2022-02-08-23:15:15,10.1.1.9,36,0.090,0.090,0.090,0.000,0.000,0.000
1644362116012903936,2022-02-08-23:15:16,10.1.1.9,35,0.080,0.080,0.080,0.000,0.000,0.000
1644362116213177856,2022-02-08-23:15:16,10.1.1.9,26,0.060,0.060,0.060,0.000,0.000,0.000
1644362116313091072,2022-02-08-23:15:16,10.1.1.9,25,0.050,0.050,0.050,0.000,0.000,0.000
1644362117033064960,2022-02-08-23:15:17,10.1.1.9,29,-0.020,-0.020,-0.020,0.000,0.000,0.000
1644362117133560064,2022-02-08-23:15:17,10.1.1.9,29,-0.030,-0.030,-0.030,0.000,0.000,0.000
1644362117232739072,2022-02-08-23:15:17,10.1.1.9,28,-0.040,-0.040,-0.040,0.000,0.000,0.000
1644362117332446976,2022-02-08-23:15:17,10.1.1.9,28,-0.050,-0.050,-0.050,0.000,0.000,0.000
1644362117432960000,2022-02-08-23:15:17,10.1.1.9,27,-0.060,-0.060,-0.060,0.000,0.000,0.000
1644362117533176832,2022-02-08-23:15:17,10.1.1.9,27,-0.070,-0.070,-0.070,0.000,0.000,0.000
1644362117633099008,2022-02-08-23:15:17,10.1.1.9,26,-0.080,-0.080,-0.080,0.000,0.000,0.000
1644362117733221888,2022-02-08-23:15:17,10.1.1.9,25,-0.090,-0.090,-0.090,0.000,0.000,0.000
1644362117833288960,2022-02-08-23:15:17,10.1.1.9,25,-0.100,-0.100,-0.100,0.000,0.000,0.000
1644362118953403904,2022-02-08-23:15:18,10.1.1.9,38,0.010,0.010,0.010,0.000,0.000,0.000
1644362119053057024,2022-02-08-23:15:19,10.1.1.9,37,0.020,0.020,0.020,0.000,0.000,0.000
1644362119952976896,2022-02-08-23:15:19,10.1.1.9,25,0.090,0.090,0.090,0.000,0.000,0.000
1644362120053366784,2022-02-08-23:15:20,10.1.1.9,25,0.080,0.080,0.080,0.000,0.000,0.000
1644362120173657856,2022-02-08-23:15:20,10.1.1.9,39,0.070,0.070,0.070,0.000,0.000,0.000
1644362120273766144,2022-02-08-23:15:20,10.1.1.9,36,0.060,0.060,0.060,0.000,0.000,0.000
1644362120373019904,2022-02-08-23:15:20,10.1.1.9,36,0.050,0.050,0.050,0.000,0.000,0.000
1644362120473208832,2022-02-08-23:15:20,10.1.1.9,35,0.040,0.040,0.040,0.000,0.000,0.000
1644362120572696832,2022-02-08-23:15:20,10.1.1.9,35,0.030,0.030,0.030,0.000,0.000,0.000
1644362120673000192,2022-02-08-23:15:20,10.1.1.9,35,0.020,0.020,0.020,0.000,0.000,0.000
1644362120873417984,2022-02-08-23:15:20,10.1.1.9,34,0.000,0.000,0.000,0.000,0.000,0.000
1644362121672977920,2022-02-08-23:15:21,10.1.1.9,28,-0.080,-0.080,-0.080,0.000,0.000,0.000
1644362121772974080,2022-02-08-23:15:21,10.1.1.9,28,-0.090,-0.090,-0.090,0.000,0.000,0.000
1644362121884603904,2022-02-08-23:15:21,10.1.1.9,27,-0.100,-0.100,-0.100,0.000,0.000,0.000
1644362121972807936,2022-02-08-23:15:21,10.1.1.9,27,-0.090,-0.090,-0.090,0.000,0.000,0.000
1644362122074132992,2022-02-08-23:15:22,10.1.1.9,26,-0.080,-0.080,-0.080,0.000,0.000,0.000
1644362122172728064,2022-02-08-23:15:22,10.1.1.9,26,-0.070,-0.070,-0.070,0.000,0.000,0.000
1644362122273080064,2022-02-08-23:15:22,10.1.1.9,25,-0.060,-0.060,-0.060,0.000,0.000,0.000
1644362122373339904,2022-02-08-23:15:22,10.1.1.9,25,-0.050,-0.050,-0.050,0.000,0.000,0.000
1644362122873025792,2022-02-08-23:15:22,10.1.1.9,20,0.000,0.000,0.000,0.000,0.000,0.000
1644362122994284032,2022-02-08-23:15:22,10.1.1.9,39,0.010,0.010,0.010,0.000,0.000,0.000
1644362123092948992,2022-02-08-23:15:23,10.1.1.9,39,0.020,0.020,0.020,0.000,0.000,0.000
1644362123192922112,2022-02-08-23:15:23,10.1.1.9,38,0.030,0.030,0.030,0.000,0.000,0.000
1644362123293068032,2022-02-08-23:15:23,10.1.1.9,38,0.040,0.040,0.040,0.000,0.000,0.000
1644362123393172992,2022-02-08-23:15:23,10.1.1.9,37,0.050,0.050,0.050,0.000,0.000,0.000
1644362123492899840,2022-02-08-23:15:23,10.1.1.9,37,0.060,0.060,0.060,0.000,0.000,0.000
1644362123593436928,2022-02-08-23:15:23,10.1.1.9,36,0.070,0.070,0.070,0.000,0.000,0.000
1644362123693264128,2022-02-08-23:15:23,10.1.1.9,36,0.080,0.080,0.080,0.000,0.000,0.000
1644362123793744128,2022-02-08-23:15:23,10.1.1.9,35,0.090,0.090,0.090,0.000,0.000,0.000
1644362123973118976,2022-02-08-23:15:23,10.1.1.9,13,0.090,0.090,0.090,0.000,0.000,0.000
1644362124702297856,2022-02-08-23:15:24,10.1.1.9,27,0.020,0.020,0.020,0.000,0.000,0.000
1644362124794312960,2022-02-08-23:15:24,10.1.1.9,26,0.010,0.010,0.010,0.000,0.000,0.000
1644362124894278144,2022-02-08-23:15:24,10.1.1.9,25,0.000,0.000,0.000,0.000,0.000,0.000
1644362124993957120,2022-02-08-23:15:24,10.1.1.9,25,-0.010,-0.010,-0.010,0.000,0.000,0.000
1644362125093324800,2022-02-08-23:15:25,10.1.1.9,25,-0.020,-0.020,-0.020,0.000,0.000,0.000
1644362126114336000,2022-02-08-23:15:26,10.1.1.9,34,-0.080,-0.080,-0.080,0.000,0.000,0.000
1644362127214648064,2022-02-08-23:15:27,10.1.1.9,29,0.030,0.030,0.030,0.000,0.000,0.000
1644362127312720128,2022-02-08-23:15:27,10.1.1.9,28,0.040,0.040,0.040,0.000,0.000,0.000
1644362127412988928,2022-02-08-23:15:27,10.1.1.9,28,0.050,0.050,0.050,0.000,0.000,0.000
1644362127513190912,2022-02-08-23:15:27,10.1.1.9,27,0.060,0.060,0.060,0.000,0.000,0.000
1644362127612585984,2022-02-08-23:15:27,10.1.1.9,26,0.070,0.070,0.070,0.000,0.000,0.000
1644362127713255936,2022-02-08-23:15:27,10.1.1.9,26,0.080,0.080,0.080,0.000,0.000,0.000
1644362127813390080,2022-02-08-23:15:27,10.1.1.9,25,0.090,0.090,0.090,0.000,0.000,0.000
1644362127913356032,2022-02-08-23:15:27,10.1.1.9,25,0.100,0.100,0.100,0.000,0.000,0.000
1644362128733627136,2022-02-08-23:15:28,10.1.1.9,40,0.020,0.020,0.020,0.000,0.000,0.000
1644362128833018112,2022-02-08-23:15:28,10.1.1.9,39,0.010,0.010,0.010,0.000,0.000,0.000
1644362128932873984,2022-02-08-23:15:28,10.1.1.9,38,0.000,0.000,0.000,0.000,0.000,0.000
1644362129033166848,2022-02-08-23:15:29,10.1.1.9,38,-0.010,-0.010,-0.010,0.000,0.000,0.000
1644362129132643840,2022-02-08-23:15:29,10.1.1.9,37,-0.020,-0.020,-0.020,0.000,0.000,0.000
1644362129233052928,2022-02-08-23:15:29,10.1.1.9,36,-0.030,-0.030,-0.030,0.000,0.000,0.000
1644362129332742912,2022-02-08-23:15:29,10.1.1.9,36,-0.040,-0.040,-0.040,0.000,0.000,0.000
1644362129433095936,2022-02-08-23:15:29,10.1.1.9,36,-0.050,-0.050,-0.050,0.000,0.000,0.000
1644362129533288960,2022-02-08-23:15:29,10.1.1.9,35,-0.060,-0.060,-0.060,0.000,0.000,0.000
1644362129632837120,2022-02-08-23:15:29,10.1.1.9,34,-0.070,-0.070,-0.070,0.000,0.000,0.000
1644362130212860160,2022-02-08-23:15:30,10.1.1.9,11,-0.070,-0.070,-0.070,0.000,0.000,0.000
1644362130733223936,2022-02-08-23:15:30,10.1.1.9,29,-0.020,-0.020,-0.020,0.000,0.000,0.000
1644362130833633024,2022-02-08-23:15:30,10.1.1.9,29,-0.010,-0.010,-0.010,0.000,0.000,0.000
1644362130933083904,2022-02-08-23:15:30,10.1.1.9,28,0.000,0.000,0.000,0.000,0.000,0.000
1644362131033193216,2022-02-08-23:15:31,10.1.1.9,28,0.010,0.010,0.010,0.000,0.000,0.000
1644362131132994816,2022-02-08-23:15:31,10.1.1.9,27,0.020,0.020,0.020,0.000,0.000,0.000
1644362131233019136,2022-02-08-23:15:31,10.1.1.9,26,0.030,0.030,0.030,0.000,0.000,0.000
1644362131333317888,2022-02-08-23:15:31,10.1.1.9,26,0.040,0.040,0.040,0.000,0.000,0.000
1644362131632893952,2022-02-08-23:15:31,10.1.1.9,20,0.070,0.070,0.070,0.000,0.000,0.000
1644362131753971200,2022-02-08-23:15:31,10.1.1.9,39,0.080,0.080,0.080,0.000,0.000,0.000
1644362132133167872,2022-02-08-23:15:32,10.1.1.9,12,0.080,0.080,0.080,0.000,0.000,0.000
1644362132952913920,2022-02-08-23:15:32,10.1.1.9,29,0.000,0.000,0.000,0.000,0.000,0.000
1644362133052745216,2022-02-08-23:15:33,10.1.1.9,29,-0.010,-0.010,-0.010,0.000,0.000,0.000
1644362133153356032,2022-02-08-23:15:33,10.1.1.9,28,-0.020,-0.020,-0.020,0.000,0.000,0.000
1644362133252954880,2022-02-08-23:15:33,10.1.1.9,27,-0.030,-0.030,-0.030,0.000,0.000,0.000
1644362133352911872,2022-02-08-23:15:33,10.1.1.9,27,-0.040,-0.040,-0.040,0.000,0.000,0.000
1644362133452822016,2022-02-08-23:15:33,10.1.1.9,27,-0.050,-0.050,-0.050,0.000,0.000,0.000
1644362133553089024,2022-02-08-23:15:33,10.1.1.9,26,-0.060,-0.060,-0.060,0.000,0.000,0.000
1644362133653125888,2022-02-08-23:15:33,10.1.1.9,26,-0.070,-0.070,-0.070,0.000,0.000,0.000
1644362133753010944,2022-02-08-23:15:33,10.1.1.9,25,-0.080,-0.080,-0.080,0.000,0.000,0.000
1644362133853604096,2022-02-08-23:15:33,10.1.1.9,25,-0.090,-0.090,-0.090,0.000,0.000,0.000
1644362134035630848,2022-02-08-23:15:34,10.1.1.9,4,-0.090,-0.090,-0.090,0.000,0.000,0.000
1644362134272724992,2022-02-08-23:15:34,10.1.1.9,40,-0.070,-0.070,-0.070,0.000,0.000,0.000
1644362134373126912,2022-02-08-23:15:34,10.1.1.9,38,-0.060,-0.060,-0.060,0.000,0.000,0.000
1644362134473201152,2022-02-08-23:15:34,10.1.1.9,38,-0.050,-0.050,-0.050,0.000,0.000,0.000
1644362134573209088,2022-02-08-23:15:34,10.1.1.9,37,-0.040,-0.040,-0.040,0.000,0.000,0.000
1644362134672785920,2022-02-08-23:15:34,10.1.1.9,25,-0.030,-0.030,-0.030,0.000,0.000,0.000
1644362134773523200,2022-02-08-23:15:34,10.1.1.9,25,-0.020,-0.020,-0.020,0.000,0.000,0.000
1644362134872642048,2022-02-08-23:15:34,10.1.1.9,24,-0.010,-0.010,-0.010,0.000,0.000,0.000
1644362135493565184,2022-02-08-23:15:35,10.1.1.9,39,0.050,0.050,0.050,0.000,0.000,0.000
1644362135594008064,2022-02-08-23:15:35,10.1.1.9,38,0.060,0.060,0.060,0.000,0.000,0.000
1644362135692665088,2022-02-08-23:15:35,10.1.1.9,38,0.070,0.070,0.070,0.000,0.000,0.000
1644362135793566976,2022-02-08-23:15:35,10.1.1.9,37,0.080,0.080,0.080,0.000,0.000,0.000
1644362135893361152,2022-02-08-23:15:35,10.1.1.9,36,0.090,0.090,0.090,0.000,0.000,0.000
1644362135993457152,2022-02-08-23:15:35,10.1.1.9,36,0.100,0.100,0.100,0.000,0.000,0.000
1644362136092512000,2022-02-08-23:15:36,10.1.1.9,35,0.090,0.090,0.090,0.000,0.000,0.000
1644362136192805888,2022-02-08-23:15:36,10.1.1.9,34,0.080,0.080,0.080,0.000,0.000,0.000
1644362136693487872,2022-02-08-23:15:36,10.1.1.9,30,0.030,0.030,0.030,0.000,0.000,0.000
1644362136872654080,2022-02-08-23:15:36,10.1.1.9,27,0.020,0.020,0.020,0.000,0.000,0.000
1644362137212665088,2022-02-08-23:15:37,10.1.1.9,39,-0.020,-0.020,-0.020,0.000,0.000,0.000
1644362137312403968,2022-02-08-23:15:37,10.1.1.9,38,-0.030,-0.030,-0.030,0.000,0.000,0.000
1644362137413764096,2022-02-08-23:15:37,10.1.1.9,37,-0.040,-0.040,-0.040,0.000,0.000,0.000
1644362137513634048,2022-02-08-23:15:37,10.1.1.9,36,-0.050,-0.050,-0.050,0.000,0.000,0.000
1644362137613532160,2022-02-08-23:15:37,10.1.1.9,35,-0.060,-0.060,-0.060,0.000,0.000,0.000
1644362138113320192,2022-02-08-23:15:38,10.1.1.9,29,-0.090,-0.090,-0.090,0.000,0.000,0.000
1644362138213278976,2022-02-08-23:15:38,10.1.1.9,29,-0.080,-0.080,-0.080,0.000,0.000,0.000
1644362138313142016,2022-02-08-23:15:38,10.1.1.9,28,-0.070,-0.070,-0.070,0.000,0.000,0.000
1644362138412882176,2022-02-08-23:15:38,10.1.1.9,27,-0.060,-0.060,-0.060,0.000,0.000,0.000
1644362138513134848,2022-02-08-23:15:38,10.1.1.9,26,-0.050,-0.050,-0.050,0.000,0.000,0.000
1644362138612713216,2022-02-08-23:15:38,10.1.1.9,26,-0.040,-0.040,-0.040,0.000,0.000,0.000
1644362138713005056,2022-02-08-23:15:38,10.1.1.9,25,-0.030,-0.030,-0.030,0.000,0.000,0.000
1644362138813214976,2022-02-08-23:15:38,10.1.1.9,24,-0.020,-0.020,-0.020,0.000,0.000,0.000
1644362139433166080,2022-02-08-23:15:39,10.1.1.9,39,0.040,0.040,0.040,0.000,0.000,0.000
1644362139534249984,2022-02-08-23:15:39,10.1.1.9,38,0.050,0.050,0.050,0.000,0.000,0.000
1644362139633361152,2022-02-08-23:15:39,10.1.1.9,38,0.060,0.060,0.060,0.000,0.000,0.000
1644362139735529984,2022-02-08-23:15:39,10.1.1.9,37,0.070,0.070,0.070,0.000,0.000,0.000
1644362139833197056,2022-02-08-23:15:39,10.1.1.9,35,0.080,0.080,0.080,0.000,0.000,0.000
1644362139933121792,2022-02-08-23:15:39,10.1.1.9,35,0.090,0.090,0.090,0.000,0.000,0.000
1644362140033302016,2022-02-08-23:15:40,10.1.1.9,34,0.100,0.100,0.100,0.000,0.000,0.000
1644362140651761152,2022-02-08-23:15:40,10.1.1.9,28,0.040,0.040,0.040,0.000,0.000,0.000
1644362140734589184,2022-02-08-23:15:40,10.1.1.9,27,0.030,0.030,0.030,0.000,0.000,0.000
1644362140833590016,2022-02-08-23:15:40,10.1.1.9,26,0.020,0.020,0.020,0.000,0.000,0.000
1644362140933170176,2022-02-08-23:15:40,10.1.1.9,25,0.010,0.010,0.010,0.000,0.000,0.000
1644362141033464064,2022-02-08-23:15:41,10.1.1.9,24,0.000,0.000,0.000,0.000,0.000,0.000
1644362142053585920,2022-02-08-23:15:42,10.1.1.9,39,-0.100,-0.100,-0.100,0.000,0.000,0.000
1644362142153160960,2022-02-08-23:15:42,10.1.1.9,38,-0.090,-0.090,-0.090,0.000,0.000,0.000
1644362142252796928,2022-02-08-23:15:42,10.1.1.9,38,-0.080,-0.080,-0.080,0.000,0.000,0.000
1644362142353147904,2022-02-08-23:15:42,10.1.1.9,38,-0.070,-0.070,-0.070,0.000,0.000,0.000
1644362142452680960,2022-02-08-23:15:42,10.1.1.9,37,-0.060,-0.060,-0.060,0.000,0.000,0.000
1644362142552851968,2022-02-08-23:15:42,10.1.1.9,37,-0.050,-0.050,-0.050,0.000,0.000,0.000
1644362142652910848,2022-02-08-23:15:42,10.1.1.9,36,-0.040,-0.040,-0.040,0.000,0.000,0.000
1644362142753947136,2022-02-08-23:15:42,10.1.1.9,36,-0.030,-0.030,-0.030,0.000,0.000,0.000
1644362142853741824,2022-02-08-23:15:42,10.1.1.9,35,-0.020,-0.020,-0.020,0.000,0.000,0.000
1644362143853289984,2022-02-08-23:15:43,10.1.1.9,29,0.080,0.080,0.080,0.000,0.000,0.000
1644362143953166080,2022-02-08-23:15:43,10.1.1.9,29,0.090,0.090,0.090,0.000,0.000,0.000
1644362144053302016,2022-02-08-23:15:44,10.1.1.9,28,0.100,0.100,0.100,0.000,0.000,0.000
1644362144153227008,2022-02-08-23:15:44,10.1.1.9,27,0.090,0.090,0.090,0.000,0.000,0.000
1644362144253058048,2022-02-08-23:15:44,10.1.1.9,26,0.080,0.080,0.080,0.000,0.000,0.000
1644362144972872960,2022-02-08-23:15:44,10.1.1.9,39,0.010,0.010,0.010,0.000,0.000,0.000
1644362145073542144,2022-02-08-23:15:45,10.1.1.9,38,0.000,0.000,0.000,0.000,0.000,0.000
1644362145273106944,2022-02-08-23:15:45,10.1.1.9,34,-0.020,-0.020,-0.020,0.000,0.000,0.000
1644362145974141952,2022-02-08-23:15:45,10.1.1.9,30,-0.090,-0.090,-0.090,0.000,0.000,0.000
1644362146074300160,2022-02-08-23:15:46,10.1.1.9,29,-0.100,-0.100,-0.100,0.000,0.000,0.000
1644362146173347840,2022-02-08-23:15:46,10.1.1.9,29,-0.090,-0.090,-0.090,0.000,0.000,0.000
1644362146273228032,2022-02-08-23:15:46,10.1.1.9,28,-0.080,-0.080,-0.080,0.000,0.000,0.000
1644362146375528960,2022-02-08-23:15:46,10.1.1.9,26,-0.070,-0.070,-0.070,0.000,0.000,0.000
1644362147612924928,2022-02-08-23:15:47,10.1.1.9,38,0.040,0.040,0.040,0.000,0.000,0.000
1644362148234590976,2022-02-08-23:15:48,10.1.1.9,37,0.100,0.100,0.100,0.000,0.000,0.000
1644362148333444096,2022-02-08-23:15:48,10.1.1.9,36,0.090,0.090,0.090,0.000,0.000,0.000
1644362148634021120,2022-02-08-23:15:48,10.1.1.9,28,0.060,0.060,0.060,0.000,0.000,0.000
1644362148733780992,2022-02-08-23:15:48,10.1.1.9,26,0.050,0.050,0.050,0.000,0.000,0.000
1644362148833075968,2022-02-08-23:15:48,10.1.1.9,26,0.040,0.040,0.040,0.000,0.000,0.000
1644362148933479168,2022-02-08-23:15:48,10.1.1.9,25,0.030,0.030,0.030,0.000,0.000,0.000
1644362149553617920,2022-02-08-23:15:49,10.1.1.9,36,-0.030,-0.030,-0.030,0.000,0.000,0.000
1644362150253528064,2022-02-08-23:15:50,10.1.1.9,29,-0.100,-0.100,-0.100,0.000,0.000,0.000
1644362150353859840,2022-02-08-23:15:50,10.1.1.9,28,-0.090,-0.090,-0.090,0.000,0.000,0.000
1644362150452977920,2022-02-08-23:15:50,10.1.1.9,27,-0.080,-0.080,-0.080,0.000,0.000,0.000
1644362150553436160,2022-02-08-23:15:50,10.1.1.9,26,-0.070,-0.070,-0.070,0.000,0.000,0.000
1644362150652743936,2022-02-08-23:15:50,10.1.1.9,26,-0.060,-0.060,-0.060,0.000,0.000,0.000
1644362150754009856,2022-02-08-23:15:50,10.1.1.9,25,-0.050,-0.050,-0.050,0.000,0.000,0.000
1644362151353147904,2022-02-08-23:15:51,10.1.1.9,20,0.010,0.010,0.010,0.000,0.000,0.000
1644362151472999168,2022-02-08-23:15:51,10.1.1.9,39,0.020,0.020,0.020,0.000,0.000,0.000
1644362153112571904,2022-02-08-23:15:53,10.1.1.9,-57,0.020,0.020,0.020,0.000,0.000,0.000
1644362153453944064,2022-02-08-23:15:53,10.1.1.9,38,-0.010,-0.010,-0.010,0.000,0.000,0.000
1644362153553010944,2022-02-08-23:15:53,10.1.1.9,37,-0.020,-0.020,-0.020,0.000,0.000,0.000
1644362154173038080,2022-02-08-23:15:54,10.1.1.9,39,-0.080,-0.080,-0.080,0.000,0.000,0.000
1644362154273101056,2022-02-08-23:15:54,10.1.1.9,38,-0.090,-0.090,-0.090,0.000,0.000,0.000
1644362154373640960,2022-02-08-23:15:54,10.1.1.9,38,-0.100,-0.100,-0.100,0.000,0.000,0.000
1644362154472775936,2022-02-08-23:15:54,10.1.1.9,38,-0.090,-0.090,-0.090,0.000,0.000,0.000
1644362154573200896,2022-02-08-23:15:54,10.1.1.9,37,-0.080,-0.080,-0.080,0.000,0.000,0.000
1644362155573108992,2022-02-08-23:15:55,10.1.1.9,29,0.020,0.020,0.020,0.000,0.000,0.000
1644362155672925952,2022-02-08-23:15:55,10.1.1.9,29,0.030,0.030,0.030,0.000,0.000,0.000
1644362155772604928,2022-02-08-23:15:55,10.1.1.9,28,0.040,0.040,0.040,0.000,0.000,0.000
1644362155873300992,2022-02-08-23:15:55,10.1.1.9,27,0.050,0.050,0.050,0.000,0.000,0.000
1644362155972971008,2022-02-08-23:15:55,10.1.1.9,27,0.060,0.060,0.060,0.000,0.000,0.000
1644362156073337088,2022-02-08-23:15:56,10.1.1.9,26,0.070,0.070,0.070,0.000,0.000,0.000
1644362156272624128,2022-02-08-23:15:56,10.1.1.9,25,0.090,0.090,0.090,0.000,0.000,0.000
1644362156373138944,2022-02-08-23:15:56,10.1.1.9,25,0.100,0.100,0.100,0.000,0.000,0.000
1644362156473248000,2022-02-08-23:15:56,10.1.1.9,24,0.090,0.090,0.090,0.000,0.000,0.000
1644362157292660992,2022-02-08-23:15:57,10.1.1.9,39,0.010,0.010,0.010,0.000,0.000,0.000
1644362157393064960,2022-02-08-23:15:57,10.1.1.9,39,0.000,0.000,0.000,0.000,0.000,0.000
1644362157492772096,2022-02-08-23:15:57,10.1.1.9,38,-0.010,-0.010,-0.010,0.000,0.000,0.000
1644362157592786176,2022-02-08-23:15:57,10.1.1.9,38,-0.020,-0.020,-0.020,0.000,0.000,0.000
1644362157692418048,2022-02-08-23:15:57,10.1.1.9,38,-0.030,-0.030,-0.030,0.000,0.000,0.000
1644362157792589056,2022-02-08-23:15:57,10.1.1.9,36,-0.040,-0.040,-0.040,0.000,0.000,0.000
1644362157892793856,2022-02-08-23:15:57,10.1.1.9,36,-0.050,-0.050,-0.050,0.000,0.000,0.000
1644362157992911104,2022-02-08-23:15:57,10.1.1.9,36,-0.060,-0.060,-0.060,0.000,0.000,0.000
1644362158093065984,2022-02-08-23:15:58,10.1.1.9,35,-0.070,-0.070,-0.070,0.000,0.000,0.000
1644362158192698112,2022-02-08-23:15:58,10.1.1.9,34,-0.080,-0.080,-0.080,0.000,0.000,0.000
1644362158573008896,2022-02-08-23:15:58,10.1.1.9,13,-0.080,-0.080,-0.080,0.000,0.000,0.000
1644362159392894976,2022-02-08-23:15:59,10.1.1.9,29,0.000,0.000,0.000,0.000,0.000,0.000
1644362159492923136,2022-02-08-23:15:59,10.1.1.9,27,0.010,0.010,0.010,0.000,0.000,0.000
1644362159593065984,2022-02-08-23:15:59,10.1.1.9,27,0.020,0.020,0.020,0.000,0.000,0.000
1644362159692766976,2022-02-08-23:15:59,10.1.1.9,26,0.030,0.030,0.030,0.000,0.000,0.000
1644362159792578816,2022-02-08-23:15:59,10.1.1.9,25,0.040,0.040,0.040,0.000,0.000,0.000
1644362159892494848,2022-02-08-23:15:59,10.1.1.9,24,0.050,0.050,0.050,0.000,0.000,0.000
1644362160792826880,2022-02-08-23:16:00,10.1.1.9,21,0.060,0.060,0.060,0.000,0.000,0.000
1644362161012717056,2022-02-08-23:16:01,10.1.1.9,38,0.040,0.040,0.040,0.000,0.000,0.000
1644362161112636160,2022-02-08-23:16:01,10.1.1.9,37,0.030,0.030,0.030,0.000,0.000,0.000
1644362161212923904,2022-02-08-23:16:01,10.1.1.9,36,0.020,0.020,0.020,0.000,0.000,0.000
1644362161312779776,2022-02-08-23:16:01,10.1.1.9,35,0.010,0.010,0.010,0.000,0.000,0.000
1644362161413147904,2022-02-08-23:16:01,10.1.1.9,35,0.000,0.000,0.000,0.000,0.000,0.000
1644362161513071104,2022-02-08-23:16:01,10.1.1.9,34,-0.010,-0.010,-0.010,0.000,0.000,0.000
1644362162313039104,2022-02-08-23:16:02,10.1.1.9,29,-0.090,-0.090,-0.090,0.000,0.000,0.000
1644362162413212160,2022-02-08-23:16:02,10.1.1.9,28,-0.100,-0.100,-0.100,0.000,0.000,0.000
1644362162512844032,2022-02-08-23:16:02,10.1.1.9,27,-0.090,-0.090,-0.090,0.000,0.000,0.000
1644362162613564928,2022-02-08-23:16:02,10.1.1.9,27,-0.080,-0.080,-0.080,0.000,0.000,0.000
1644362162713174016,2022-02-08-23:16:02,10.1.1.9,26,-0.070,-0.070,-0.070,0.000,0.000,0.000
1644362162812673024,2022-02-08-23:16:02,10.1.1.9,26,-0.060,-0.060,-0.060,0.000,0.000,0.000
1644362162912605952,2022-02-08-23:16:02,10.1.1.9,25,-0.050,-0.050,-0.050,0.000,0.000,0.000
1644362164133723904,2022-02-08-23:16:04,10.1.1.9,29,0.070,0.070,0.070,0.000,0.000,0.000
1644362164233297152,2022-02-08-23:16:04,10.1.1.9,28,0.080,0.080,0.080,0.000,0.000,0.000
1644362164332588032,2022-02-08-23:16:04,10.1.1.9,26,0.090,0.090,0.090,0.000,0.000,0.000
1644362164432908032,2022-02-08-23:16:04,10.1.1.9,25,0.100,0.100,0.100,0.000,0.000,0.000
1644362164533097984,2022-02-08-23:16:04,10.1.1.9,25,0.090,0.090,0.090,0.000,0.000,0.000
1644362164633164032,2022-02-08-23:16:04,10.1.1.9,24,0.080,0.080,0.080,0.000,0.000,0.000
1644362165252769024,2022-02-08-23:16:05,10.1.1.9,39,0.020,0.020,0.020,0.000,0.000,0.000
1644362165352752896,2022-02-08-23:16:05,10.1.1.9,38,0.010,0.010,0.010,0.000,0.000,0.000
1644362165452950016,2022-02-08-23:16:05,10.1.1.9,38,0.000,0.000,0.000,0.000,0.000,0.000
1644362165552911104,2022-02-08-23:16:05,10.1.1.9,38,-0.010,-0.010,-0.010,0.000,0.000,0.000
1644362165652848128,2022-02-08-23:16:05,10.1.1.9,37,-0.020,-0.020,-0.020,0.000,0.000,0.000
1644362165753707776,2022-02-08-23:16:05,10.1.1.9,37,-0.030,-0.030,-0.030,0.000,0.000,0.000
1644362165853501184,2022-02-08-23:16:05,10.1.1.9,36,-0.040,-0.040,-0.040,0.000,0.000,0.000
1644362165952823040,2022-02-08-23:16:05,10.1.1.9,35,-0.050,-0.050,-0.050,0.000,0.000,0.000
1644362166052525056,2022-02-08-23:16:06,10.1.1.9,34,-0.060,-0.060,-0.060,0.000,0.000,0.000
1644362166752857856,2022-02-08-23:16:06,10.1.1.9,29,-0.070,-0.070,-0.070,0.000,0.000,0.000
1644362166853121024,2022-02-08-23:16:06,10.1.1.9,29,-0.060,-0.060,-0.060,0.000,0.000,0.000
1644362166952558080,2022-02-08-23:16:06,10.1.1.9,29,-0.050,-0.050,-0.050,0.000,0.000,0.000
1644362167053030912,2022-02-08-23:16:07,10.1.1.9,28,-0.040,-0.040,-0.040,0.000,0.000,0.000
1644362167153150976,2022-02-08-23:16:07,10.1.1.9,27,-0.030,-0.030,-0.030,0.000,0.000,0.000
1644362167252763904,2022-02-08-23:16:07,10.1.1.9,27,-0.020,-0.020,-0.020,0.000,0.000,0.000
1644362167352734976,2022-02-08-23:16:07,10.1.1.9,27,-0.010,-0.010,-0.010,0.000,0.000,0.000
1644362167454541824,2022-02-08-23:16:07,10.1.1.9,26,0.000,0.000,0.000,0.000,0.000,0.000
1644362167552814080,2022-02-08-23:16:07,10.1.1.9,25,0.010,0.010,0.010,0.000,0.000,0.000
1644362167652886016,2022-02-08-23:16:07,10.1.1.9,25,0.020,0.020,0.020,0.000,0.000,0.000
1644362168173758976,2022-02-08-23:16:08,10.1.1.9,39,0.070,0.070,0.070,0.000,0.000,0.000
1644362168272589056,2022-02-08-23:16:08,10.1.1.9,38,0.080,0.080,0.080,0.000,0.000,0.000
1644362168372622848,2022-02-08-23:16:08,10.1.1.9,38,0.090,0.090,0.090,0.000,0.000,0.000
1644362168472666112,2022-02-08-23:16:08,10.1.1.9,37,0.100,0.100,0.100,0.000,0.000,0.000
1644362168572852992,2022-02-08-23:16:08,10.1.1.9,37,0.090,0.090,0.090,0.000,0.000,0.000
1644362168672635136,2022-02-08-23:16:08,10.1.1.9,36,0.080,0.080,0.080,0.000,0.000,0.000
1644362168772901120,2022-02-08-23:16:08,10.1.1.9,35,0.070,0.070,0.070,0.000,0.000,0.000
1644362168872768000,2022-02-08-23:16:08,10.1.1.9,35,0.060,0.060,0.060,0.000,0.000,0.000
1644362168972827904,2022-02-08-23:16:08,10.1.1.9,34,0.050,0.050,0.050,0.000,0.000,0.000
1644362169873356032,2022-02-08-23:16:09,10.1.1.9,30,-0.040,-0.040,-0.040,0.000,0.000,0.000
1644362169972589056,2022-02-08-23:16:09,10.1.1.9,29,-0.050,-0.050,-0.050,0.000,0.000,0.000
1644362170073283072,2022-02-08-23:16:10,10.1.1.9,29,-0.060,-0.060,-0.060,0.000,0.000,0.000
1644362170173630976,2022-02-08-23:16:10,10.1.1.9,28,-0.070,-0.070,-0.070,0.000,0.000,0.000
1644362170272666880,2022-02-08-23:16:10,10.1.1.9,27,-0.080,-0.080,-0.080,0.000,0.000,0.000
1644362170373181184,2022-02-08-23:16:10,10.1.1.9,27,-0.090,-0.090,-0.090,0.000,0.000,0.000
1644362170472729856,2022-02-08-23:16:10,10.1.1.9,26,-0.100,-0.100,-0.100,0.000,0.000,0.000
1644362170573816064,2022-02-08-23:16:10,10.1.1.9,26,-0.090,-0.090,-0.090,0.000,0.000,0.000
1644362170672509952,2022-02-08-23:16:10,10.1.1.9,25,-0.080,-0.080,-0.080,0.000,0.000,0.000
1644362170772782080,2022-02-08-23:16:10,10.1.1.9,25,-0.070,-0.070,-0.070,0.000,0.000,0.000
1644362171493124096,2022-02-08-23:16:11,10.1.1.9,39,0.000,0.000,0.000,0.000,0.000,0.000
1644362171592939008,2022-02-08-23:16:11,10.1.1.9,39,0.010,0.010,0.010,0.000,0.000,0.000
1644362171692747008,2022-02-08-23:16:11,10.1.1.9,38,0.020,0.020,0.020,0.000,0.000,0.000
1644362171793359104,2022-02-08-23:16:11,10.1.1.9,37,0.030,0.030,0.030,0.000,0.000,0.000
1644362171893313792,2022-02-08-23:16:11,10.1.1.9,36,0.040,0.040,0.040,0.000,0.000,0.000
1644362171992805120,2022-02-08-23:16:11,10.1.1.9,36,0.050,0.050,0.050,0.000,0.000,0.000
1644362172097709056,2022-02-08-23:16:12,10.1.1.9,35,0.060,0.060,0.060,0.000,0.000,0.000
1644362172193340160,2022-02-08-23:16:12,10.1.1.9,35,0.070,0.070,0.070,0.000,0.000,0.000
1644362172293302016,2022-02-08-23:16:12,10.1.1.9,35,0.080,0.080,0.080,0.000,0.000,0.000
1644362172672801024,2022-02-08-23:16:12,10.1.1.9,10,0.080,0.080,0.080,0.000,0.000,0.000
1644362172892712192,2022-02-08-23:16:12,10.1.1.9,29,0.060,0.060,0.060,0.000,0.000,0.000
1644362172992445952,2022-02-08-23:16:12,10.1.1.9,29,0.050,0.050,0.050,0.000,0.000,0.000
1644362173093193984,2022-02-08-23:16:13,10.1.1.9,28,0.040,0.040,0.040,0.000,0.000,0.000
1644362173192358144,2022-02-08-23:16:13,10.1.1.9,27,0.030,0.030,0.030,0.000,0.000,0.000
1644362174012942080,2022-02-08-23:16:14,10.1.1.9,29,-0.050,-0.050,-0.050,0.000,0.000,0.000
1644362174113254144,2022-02-08-23:16:14,10.1.1.9,29,-0.060,-0.060,-0.060,0.000,0.000,0.000
1644362174213017088,2022-02-08-23:16:14,10.1.1.9,28,-0.070,-0.070,-0.070,0.000,0.000,0.000
1644362174413063936,2022-02-08-23:16:14,10.1.1.9,27,-0.090,-0.090,-0.090,0.000,0.000,0.000
1644362174513637120,2022-02-08-23:16:14,10.1.1.9,26,-0.100,-0.100,-0.100,0.000,0.000,0.000
1644362174613167104,2022-02-08-23:16:14,10.1.1.9,26,-0.090,-0.090,-0.090,0.000,0.000,0.000
1644362174712665088,2022-02-08-23:16:14,10.1.1.9,24,-0.080,-0.080,-0.080,0.000,0.000,0.000
1644362175633313024,2022-02-08-23:16:15,10.1.1.9,39,0.010,0.010,0.010,0.000,0.000,0.000
1644362175733472000,2022-02-08-23:16:15,10.1.1.9,38,0.020,0.020,0.020,0.000,0.000,0.000
1644362175833096960,2022-02-08-23:16:15,10.1.1.9,38,0.030,0.030,0.030,0.000,0.000,0.000
1644362175933323008,2022-02-08-23:16:15,10.1.1.9,36,0.040,0.040,0.040,0.000,0.000,0.000
1644362176033078784,2022-02-08-23:16:16,10.1.1.9,35,0.050,0.050,0.050,0.000,0.000,0.000
1644362176133723136,2022-02-08-23:16:16,10.1.1.9,35,0.060,0.060,0.060,0.000,0.000,0.000
1644362176913250048,2022-02-08-23:16:16,10.1.1.9,10,0.060,0.060,0.060,0.000,0.000,0.000
1644362177232451840,2022-02-08-23:16:17,10.1.1.9,29,0.030,0.030,0.030,0.000,0.000,0.000
1644362177332556032,2022-02-08-23:16:17,10.1.1.9,29,0.020,0.020,0.020,0.000,0.000,0.000
1644362177433257984,2022-02-08-23:16:17,10.1.1.9,28,0.010,0.010,0.010,0.000,0.000,0.000
1644362177533648896,2022-02-08-23:16:17,10.1.1.9,28,0.000,0.000,0.000,0.000,0.000,0.000
1644362177633157120,2022-02-08-23:16:17,10.1.1.9,27,-0.010,-0.010,-0.010,0.000,0.000,0.000
1644362177733496832,2022-02-08-23:16:17,10.1.1.9,27,-0.020,-0.020,-0.020,0.000,0.000,0.000
1644362177832413952,2022-02-08-23:16:17,10.1.1.9,26,-0.030,-0.030,-0.030,0.000,0.000,0.000
1644362177932456960,2022-02-08-23:16:17,10.1.1.9,25,-0.040,-0.040,-0.040,0.000,0.000,0.000
1644362178032850944,2022-02-08-23:16:18,10.1.1.9,24,-0.050,-0.050,-0.050,0.000,0.000,0.000
1644362179033010944,2022-02-08-23:16:19,10.1.1.9,19,-0.050,-0.050,-0.050,0.000,0.000,0.000
1644362179152894976,2022-02-08-23:16:19,10.1.1.9,39,-0.040,-0.040,-0.040,0.000,0.000,0.000
1644362179252902144,2022-02-08-23:16:19,10.1.1.9,38,-0.030,-0.030,-0.030,0.000,0.000,0.000
1644362179352977152,2022-02-08-23:16:19,10.1.1.9,38,-0.020,-0.020,-0.020,0.000,0.000,0.000
1644362179452920832,2022-02-08-23:16:19,10.1.1.9,37,-0.010,-0.010,-0.010,0.000,0.000,0.000
1644362179553092864,2022-02-08-23:16:19,10.1.1.9,36,0.000,0.000,0.000,0.000,0.000,0.000
1644362179653321984,2022-02-08-23:16:19,10.1.1.9,35,0.010,0.010,0.010,0.000,0.000,0.000
1644362179753160960,2022-02-08-23:16:19,10.1.1.9,35,0.020,0.020,0.020,0.000,0.000,0.000
1644362180753952000,2022-02-08-23:16:20,10.1.1.9,29,0.080,0.080,0.080,0.000,0.000,0.000
1644362180852814080,2022-02-08-23:16:20,10.1.1.9,29,0.070,0.070,0.070,0.000,0.000,0.000
1644362180952964096,2022-02-08-23:16:20,10.1.1.9,28,0.060,0.060,0.060,0.000,0.000,0.000
1644362181052755968,2022-02-08-23:16:21,10.1.1.9,28,0.050,0.050,0.050,0.000,0.000,0.000
1644362181152539904,2022-02-08-23:16:21,10.1.1.9,27,0.040,0.040,0.040,0.000,0.000,0.000
1644362181252749824,2022-02-08-23:16:21,10.1.1.9,26,0.030,0.030,0.030,0.000,0.000,0.000
1644362181352889088,2022-02-08-23:16:21,10.1.1.9,26,0.020,0.020,0.020,0.000,0.000,0.000
1644362181452702976,2022-02-08-23:16:21,10.1.1.9,26,0.010,0.010,0.010,0.000,0.000,0.000
1644362181553002240,2022-02-08-23:16:21,10.1.1.9,25,0.000,0.000,0.000,0.000,0.000,0.000
1644362181653076992,2022-02-08-23:16:21,10.1.1.9,24,-0.010,-0.010,-0.010,0.000,0.000,0.000
1644362182572782080,2022-02-08-23:16:22,10.1.1.9,39,-0.100,-0.100,-0.100,0.000,0.000,0.000
1644362182673803008,2022-02-08-23:16:22,10.1.1.9,39,-0.090,-0.090,-0.090,0.000,0.000,0.000
1644362182772932096,2022-02-08-23:16:22,10.1.1.9,38,-0.080,-0.080,-0.080,0.000,0.000,0.000
1644362182872692224,2022-02-08-23:16:22,10.1.1.9,38,-0.070,-0.070,-0.070,0.000,0.000,0.000
1644362182972871168,2022-02-08-23:16:22,10.1.1.9,37,-0.060,-0.060,-0.060,0.000,0.000,0.000
1644362183073496064,2022-02-08-23:16:23,10.1.1.9,36,-0.050,-0.050,-0.050,0.000,0.000,0.000
1644362183173966848,2022-02-08-23:16:23,10.1.1.9,36,-0.040,-0.040,-0.040,0.000,0.000,0.000
1644362183273231872,2022-02-08-23:16:23,10.1.1.9,35,-0.030,-0.030,-0.030,0.000,0.000,0.000
1644362183572760064,2022-02-08-23:16:23,10.1.1.9,29,0.000,0.000,0.000,0.000,0.000,0.000
1644362183672615168,2022-02-08-23:16:23,10.1.1.9,28,0.010,0.010,0.010,0.000,0.000,0.000
1644362183772676096,2022-02-08-23:16:23,10.1.1.9,28,0.020,0.020,0.020,0.000,0.000,0.000
1644362183872507136,2022-02-08-23:16:23,10.1.1.9,27,0.030,0.030,0.030,0.000,0.000,0.000
1644362183972785920,2022-02-08-23:16:23,10.1.1.9,26,0.040,0.040,0.040,0.000,0.000,0.000
1644362184072817920,2022-02-08-23:16:24,10.1.1.9,26,0.050,0.050,0.050,0.000,0.000,0.000
1644362184172656128,2022-02-08-23:16:24,10.1.1.9,25,0.060,0.060,0.060,0.000,0.000,0.000
1644362184272627200,2022-02-08-23:16:24,10.1.1.9,25,0.070,0.070,0.070,0.000,0.000,0.000
1644362184853210880,2022-02-08-23:16:24,10.1.1.9,2,0.070,0.070,0.070,0.000,0.000,0.000
1644362185392712192,2022-02-08-23:16:25,10.1.1.9,39,0.020,0.020,0.020,0.000,0.000,0.000
1644362185492409088,2022-02-08-23:16:25,10.1.1.9,38,0.010,0.010,0.010,0.000,0.000,0.000
1644362185593217024,2022-02-08-23:16:25,10.1.1.9,38,0.000,0.000,0.000,0.000,0.000,0.000
1644362185692379904,2022-02-08-23:16:25,10.1.1.9,37,-0.010,-0.010,-0.010,0.000,0.000,0.000
1644362185793327104,2022-02-08-23:16:25,10.1.1.9,36,-0.020,-0.020,-0.020,0.000,0.000,0.000
1644362186592888064,2022-02-08-23:16:26,10.1.1.9,29,-0.100,-0.100,-0.100,0.000,0.000,0.000
1644362186692497920,2022-02-08-23:16:26,10.1.1.9,29,-0.090,-0.090,-0.090,0.000,0.000,0.000
1644362186804002048,2022-02-08-23:16:26,10.1.1.9,28,-0.080,-0.080,-0.080,0.000,0.000,0.000
1644362186893553920,2022-02-08-23:16:26,10.1.1.9,27,-0.070,-0.070,-0.070,0.000,0.000,0.000
1644362186993168128,2022-02-08-23:16:26,10.1.1.9,27,-0.060,-0.060,-0.060,0.000,0.000,0.000
1644362187092493056,2022-02-08-23:16:27,10.1.1.9,26,-0.050,-0.050,-0.050,0.000,0.000,0.000
1644362187192728064,2022-02-08-23:16:27,10.1.1.9,26,-0.040,-0.040,-0.040,0.000,0.000,0.000
1644362187292846848,2022-02-08-23:16:27,10.1.1.9,25,-0.030,-0.030,-0.030,0.000,0.000,0.000
1644362188293303040,2022-02-08-23:16:28,10.1.1.9,20,0.070,0.070,0.070,0.000,0.000,0.000
1644362188412497152,2022-02-08-23:16:28,10.1.1.9,38,0.080,0.080,0.080,0.000,0.000,0.000
1644362188512718080,2022-02-08-23:16:28,10.1.1.9,38,0.090,0.090,0.090,0.000,0.000,0.000
1644362188612580096,2022-02-08-23:16:28,10.1.1.9,37,0.100,0.100,0.100,0.000,0.000,0.000
1644362188712905984,2022-02-08-23:16:28,10.1.1.9,36,0.090,0.090,0.090,0.000,0.000,0.000
1644362188812793856,2022-02-08-23:16:28,10.1.1.9,35,0.080,0.080,0.080,0.000,0.000,0.000
1644362188912393216,2022-02-08-23:16:28,10.1.1.9,35,0.070,0.070,0.070,0.000,0.000,0.000
1644362189012919808,2022-02-08-23:16:29,10.1.1.9,34,0.060,0.060,0.060,0.000,0.000,0.000
1644362190012844032,2022-02-08-23:16:30,10.1.1.9,29,-0.040,-0.040,-0.040,0.000,0.000,0.000
1644362190112849920,2022-02-08-23:16:30,10.1.1.9,29,-0.050,-0.050,-0.050,0.000,0.000,0.000
1644362190212647936,2022-02-08-23:16:30,10.1.1.9,28,-0.060,-0.060,-0.060,0.000,0.000,0.000
1644362190313381888,2022-02-08-23:16:30,10.1.1.9,28,-0.070,-0.070,-0.070,0.000,0.000,0.000
1644362190412251904,2022-02-08-23:16:30,10.1.1.9,27,-0.080,-0.080,-0.080,0.000,0.000,0.000
1644362190513710848,2022-02-08-23:16:30,10.1.1.9,27,-0.090,-0.090,-0.090,0.000,0.000,0.000
1644362190612963072,2022-02-08-23:16:30,10.1.1.9,26,-0.100,-0.100,-0.100,0.000,0.000,0.000
1644362190712814080,2022-02-08-23:16:30,10.1.1.9,26,-0.090,-0.090,-0.090,0.000,0.000,0.000
1644362190812941056,2022-02-08-23:16:30,10.1.1.9,25,-0.080,-0.080,-0.080,0.000,0.000,0.000
1644362190912328960,2022-02-08-23:16:30,10.1.1.9,24,-0.070,-0.070,-0.070,0.000,0.000,0.000
1644362191840680960,2022-02-08-23:16:31,10.1.1.9,39,0.020,0.020,0.020,0.000,0.000,0.000
1644362191933415936,2022-02-08-23:16:31,10.1.1.9,38,0.030,0.030,0.030,0.000,0.000,0.000
1644362192032952064,2022-02-08-23:16:32,10.1.1.9,37,0.040,0.040,0.040,0.000,0.000,0.000
1644362192133106944,2022-02-08-23:16:32,10.1.1.9,36,0.050,0.050,0.050,0.000,0.000,0.000
1644362192232659968,2022-02-08-23:16:32,10.1.1.9,35,0.060,0.060,0.060,0.000,0.000,0.000
1644362192332974848,2022-02-08-23:16:32,10.1.1.9,35,0.070,0.070,0.070,0.000,0.000,0.000
1644362192913129984,2022-02-08-23:16:32,10.1.1.9,12,0.070,0.070,0.070,0.000,0.000,0.000
1644362193533453056,2022-02-08-23:16:33,10.1.1.9,28,0.010,0.010,0.010,0.000,0.000,0.000
1644362193633424896,2022-02-08-23:16:33,10.1.1.9,28,0.000,0.000,0.000,0.000,0.000,0.000
1644362193732924928,2022-02-08-23:16:33,10.1.1.9,26,-0.010,-0.010,-0.010,0.000,0.000,0.000
1644362193832755200,2022-02-08-23:16:33,10.1.1.9,26,-0.020,-0.020,-0.020,0.000,0.000,0.000
1644362193933206016,2022-02-08-23:16:33,10.1.1.9,25,-0.030,-0.030,-0.030,0.000,0.000,0.000
1644362194853118976,2022-02-08-23:16:34,10.1.1.9,40,-0.080,-0.080,-0.080,0.000,0.000,0.000
1644362194953149952,2022-02-08-23:16:34,10.1.1.9,39,-0.070,-0.070,-0.070,0.000,0.000,0.000
1644362195053216000,2022-02-08-23:16:35,10.1.1.9,39,-0.060,-0.060,-0.060,0.000,0.000,0.000
1644362195153562112,2022-02-08-23:16:35,10.1.1.9,38,-0.050,-0.050,-0.050,0.000,0.000,0.000
1644362195252652032,2022-02-08-23:16:35,10.1.1.9,38,-0.040,-0.040,-0.040,0.000,0.000,0.000
1644362195352663040,2022-02-08-23:16:35,10.1.1.9,38,-0.030,-0.030,-0.030,0.000,0.000,0.000
1644362195453038848,2022-02-08-23:16:35,10.1.1.9,37,-0.020,-0.020,-0.020,0.000,0.000,0.000
1644362195553009152,2022-02-08-23:16:35,10.1.1.9,36,-0.010,-0.010,-0.010,0.000,0.000,0.000
1644362195653139200,2022-02-08-23:16:35,10.1.1.9,36,0.000,0.000,0.000,0.000,0.000,0.000
1644362195753200896,2022-02-08-23:16:35,10.1.1.9,35,0.010,0.010,0.010,0.000,0.000,0.000
1644362195853146112,2022-02-08-23:16:35,10.1.1.9,35,0.020,0.020,0.020,0.000,0.000,0.000
1644362195953572096,2022-02-08-23:16:35,10.1.1.9,34,0.030,0.030,0.030,0.000,0.000,0.000
1644362196653122048,2022-02-08-23:16:36,10.1.1.9,29,0.100,0.100,0.100,0.000,0.000,0.000
1644362196752491008,2022-02-08-23:16:36,10.1.1.9,29,0.090,0.090,0.090,0.000,0.000,0.000
1644362196853063168,2022-02-08-23:16:36,10.1.1.9,27,0.080,0.080,0.080,0.000,0.000,0.000
1644362196953033984,2022-02-08-23:16:36,10.1.1.9,27,0.070,0.070,0.070,0.000,0.000,0.000
1644362197053276160,2022-02-08-23:16:37,10.1.1.9,27,0.060,0.060,0.060,0.000,0.000,0.000
1644362197152815104,2022-02-08-23:16:37,10.1.1.9,26,0.050,0.050,0.050,0.000,0.000,0.000
1644362197253143040,2022-02-08-23:16:37,10.1.1.9,26,0.040,0.040,0.040,0.000,0.000,0.000
1644362197353348864,2022-02-08-23:16:37,10.1.1.9,25,0.030,0.030,0.030,0.000,0.000,0.000
1644362197453481984,2022-02-08-23:16:37,10.1.1.9,25,0.020,0.020,0.020,0.000,0.000,0.000
1644362197553217024,2022-02-08-23:16:37,10.1.1.9,25,0.010,0.010,0.010,0.000,0.000,0.000
1644362197652674048,2022-02-08-23:16:37,10.1.1.9,24,0.000,0.000,0.000,0.000,0.000,0.000
1644362198372525824,2022-02-08-23:16:38,10.1.1.9,39,-0.070,-0.070,-0.070,0.000,0.000,0.000
1644362198472642816,2022-02-08-23:16:38,10.1.1.9,39,-0.080,-0.080,-0.080,0.000,0.000,0.000
1644362198573191936,2022-02-08-23:16:38,10.1.1.9,38,-0.090,-0.090,-0.090,0.000,0.000,0.000
1644362198672865024,2022-02-08-23:16:38,10.1.1.9,38,-0.100,-0.100,-0.100,0.000,0.000,0.000
1644362198773144064,2022-02-08-23:16:38,10.1.1.9,37,-0.090,-0.090,-0.090,0.000,0.000,0.000
1644362198873042176,2022-02-08-23:16:38,10.1.1.9,37,-0.080,-0.080,-0.080,0.000,0.000,0.000
1644362199273257984,2022-02-08-23:16:39,10.1.1.9,33,-0.040,-0.040,-0.040,0.000,0.000,0.000
1644362199872791040,2022-02-08-23:16:39,10.1.1.9,29,0.020,0.020,0.020,0.000,0.000,0.000
1644362199972934912,2022-02-08-23:16:39,10.1.1.9,29,0.030,0.030,0.030,0.000,0.000,0.000
1644362200072520960,2022-02-08-23:16:40,10.1.1.9,28,0.040,0.040,0.040,0.000,0.000,0.000
1644362200172646144,2022-02-08-23:16:40,10.1.1.9,27,0.050,0.050,0.050,0.000,0.000,0.000
1644362200273158912,2022-02-08-23:16:40,10.1.1.9,27,0.060,0.060,0.060,0.000,0.000,0.000
1644362200372873984,2022-02-08-23:16:40,10.1.1.9,26,0.070,0.070,0.070,0.000,0.000,0.000
1644362200472545024,2022-02-08-23:16:40,10.1.1.9,26,0.080,0.080,0.080,0.000,0.000,0.000
1644362200572862976,2022-02-08-23:16:40,10.1.1.9,26,0.090,0.090,0.090,0.000,0.000,0.000
1644362200673268992,2022-02-08-23:16:40,10.1.1.9,25,0.100,0.100,0.100,0.000,0.000,0.000
1644362201792879104,2022-02-08-23:16:41,10.1.1.9,39,-0.010,-0.010,-0.010,0.000,0.000,0.000
1644362201892651008,2022-02-08-23:16:41,10.1.1.9,38,-0.020,-0.020,-0.020,0.000,0.000,0.000
1644362201992964096,2022-02-08-23:16:41,10.1.1.9,37,-0.030,-0.030,-0.030,0.000,0.000,0.000
1644362202092705024,2022-02-08-23:16:42,10.1.1.9,37,-0.040,-0.040,-0.040,0.000,0.000,0.000
1644362202193416960,2022-02-08-23:16:42,10.1.1.9,36,-0.050,-0.050,-0.050,0.000,0.000,0.000
1644362202292836864,2022-02-08-23:16:42,10.1.1.9,35,-0.060,-0.060,-0.060,0.000,0.000,0.000
1644362202392611072,2022-02-08-23:16:42,10.1.1.9,35,-0.070,-0.070,-0.070,0.000,0.000,0.000
1644362202972744960,2022-02-08-23:16:42,10.1.1.9,10,-0.070,-0.070,-0.070,0.000,0.000,0.000
1644362203092531968,2022-02-08-23:16:43,10.1.1.9,29,-0.060,-0.060,-0.060,0.000,0.000,0.000
1644362203192764928,2022-02-08-23:16:43,10.1.1.9,28,-0.050,-0.050,-0.050,0.000,0.000,0.000
1644362203292946944,2022-02-08-23:16:43,10.1.1.9,28,-0.040,-0.040,-0.040,0.000,0.000,0.000
1644362203393644032,2022-02-08-23:16:43,10.1.1.9,27,-0.030,-0.030,-0.030,0.000,0.000,0.000
1644362203492598016,2022-02-08-23:16:43,10.1.1.9,27,-0.020,-0.020,-0.020,0.000,0.000,0.000
1644362203592859136,2022-02-08-23:16:43,10.1.1.9,26,-0.010,-0.010,-0.010,0.000,0.000,0.000
1644362203692722944,2022-02-08-23:16:43,10.1.1.9,26,0.000,0.000,0.000,0.000,0.000,0.000
1644362204612817920,2022-02-08-23:16:44,10.1.1.9,39,0.090,0.090,0.090,0.000,0.000,0.000
1644362204713037056,2022-02-08-23:16:44,10.1.1.9,39,0.100,0.100,0.100,0.000,0.000,0.000
1644362204812876032,2022-02-08-23:16:44,10.1.1.9,38,0.090,0.090,0.090,0.000,0.000,0.000
1644362204913001984,2022-02-08-23:16:44,10.1.1.9,38,0.080,0.080,0.080,0.000,0.000,0.000
1644362205013513216,2022-02-08-23:16:45,10.1.1.9,37,0.070,0.070,0.070,0.000,0.000,0.000
1644362205113404928,2022-02-08-23:16:45,10.1.1.9,36,0.060,0.060,0.060,0.000,0.000,0.000
1644362205213215232,2022-02-08-23:16:45,10.1.1.9,35,0.050,0.050,0.050,0.000,0.000,0.000
1644362205312915968,2022-02-08-23:16:45,10.1.1.9,35,0.040,0.040,0.040,0.000,0.000,0.000
1644362205413657856,2022-02-08-23:16:45,10.1.1.9,35,0.030,0.030,0.030,0.000,0.000,0.000
1644362206312781056,2022-02-08-23:16:46,10.1.1.9,29,-0.060,-0.060,-0.060,0.000,0.000,0.000
1644362206412954112,2022-02-08-23:16:46,10.1.1.9,27,-0.070,-0.070,-0.070,0.000,0.000,0.000
1644362206512715008,2022-02-08-23:16:46,10.1.1.9,26,-0.080,-0.080,-0.080,0.000,0.000,0.000
1644362206613464064,2022-02-08-23:16:46,10.1.1.9,26,-0.090,-0.090,-0.090,0.000,0.000,0.000
1644362206713126912,2022-02-08-23:16:46,10.1.1.9,25,-0.100,-0.100,-0.100,0.000,0.000,0.000
1644362207533453056,2022-02-08-23:16:47,10.1.1.9,39,-0.020,-0.020,-0.020,0.000,0.000,0.000
1644362207732697856,2022-02-08-23:16:47,10.1.1.9,38,0.000,0.000,0.000,0.000,0.000,0.000
1644362207832624896,2022-02-08-23:16:47,10.1.1.9,38,0.010,0.010,0.010,0.000,0.000,0.000
1644362207933396224,2022-02-08-23:16:47,10.1.1.9,37,0.020,0.020,0.020,0.000,0.000,0.000
1644362208033291008,2022-02-08-23:16:48,10.1.1.9,36,0.030,0.030,0.030,0.000,0.000,0.000
1644362208133708032,2022-02-08-23:16:48,10.1.1.9,35,0.040,0.040,0.040,0.000,0.000,0.000
1644362208944183040,2022-02-08-23:16:48,10.1.1.9,27,0.080,0.080,0.080,0.000,0.000,0.000
1644362209033401856,2022-02-08-23:16:49,10.1.1.9,26,0.070,0.070,0.070,0.000,0.000,0.000
1644362209132950016,2022-02-08-23:16:49,10.1.1.9,26,0.060,0.060,0.060,0.000,0.000,0.000
1644362209233659136,2022-02-08-23:16:49,10.1.1.9,25,0.050,0.050,0.050,0.000,0.000,0.000
1644362209332901120,2022-02-08-23:16:49,10.1.1.9,24,0.040,0.040,0.040,0.000,0.000,0.000
1644362210054457856,2022-02-08-23:16:50,10.1.1.9,39,-0.030,-0.030,-0.030,0.000,0.000,0.000
1644362210153278208,2022-02-08-23:16:50,10.1.1.9,38,-0.040,-0.040,-0.040,0.000,0.000,0.000
1644362210254771968,2022-02-08-23:16:50,10.1.1.9,36,-0.050,-0.050,-0.050,0.000,0.000,0.000
1644362210952916992,2022-02-08-23:16:50,10.1.1.9,29,-0.080,-0.080,-0.080,0.000,0.000,0.000
1644362211052984832,2022-02-08-23:16:51,10.1.1.9,29,-0.070,-0.070,-0.070,0.000,0.000,0.000
1644362211152851968,2022-02-08-23:16:51,10.1.1.9,28,-0.060,-0.060,-0.060,0.000,0.000,0.000
1644362211253272064,2022-02-08-23:16:51,10.1.1.9,27,-0.050,-0.050,-0.050,0.000,0.000,0.000
1644362211353108992,2022-02-08-23:16:51,10.1.1.9,26,-0.040,-0.040,-0.040,0.000,0.000,0.000
1644362211454051072,2022-02-08-23:16:51,10.1.1.9,26,-0.030,-0.030,-0.030,0.000,0.000,0.000
1644362211553683968,2022-02-08-23:16:51,10.1.1.9,25,-0.020,-0.020,-0.020,0.000,0.000,0.000
1644362212273814016,2022-02-08-23:16:52,10.1.1.9,38,0.050,0.050,0.050,0.000,0.000,0.000
1644362212372808960,2022-02-08-23:16:52,10.1.1.9,37,0.060,0.060,0.060,0.000,0.000,0.000
1644362212473072128,2022-02-08-23:16:52,10.1.1.9,36,0.070,0.070,0.070,0.000,0.000,0.000
1644362212573043200,2022-02-08-23:16:52,10.1.1.9,35,0.080,0.080,0.080,0.000,0.000,0.000
1644362212673163008,2022-02-08-23:16:52,10.1.1.9,35,0.090,0.090,0.090,0.000,0.000,0.000
1644362212853070080,2022-02-08-23:16:52,10.1.1.9,13,0.090,0.090,0.090,0.000,0.000,0.000
1644362213273668096,2022-02-08-23:16:53,10.1.1.9,29,0.050,0.050,0.050,0.000,0.000,0.000
1644362213372546048,2022-02-08-23:16:53,10.1.1.9,28,0.040,0.040,0.040,0.000,0.000,0.000
1644362213472562944,2022-02-08-23:16:53,10.1.1.9,28,0.030,0.030,0.030,0.000,0.000,0.000
1644362213573199872,2022-02-08-23:16:53,10.1.1.9,26,0.020,0.020,0.020,0.000,0.000,0.000
1644362213672635136,2022-02-08-23:16:53,10.1.1.9,25,0.010,0.010,0.010,0.000,0.000,0.000
1644362214393374976,2022-02-08-23:16:54,10.1.1.9,39,-0.060,-0.060,-0.060,0.000,0.000,0.000
1644362214493499904,2022-02-08-23:16:54,10.1.1.9,39,-0.070,-0.070,-0.070,0.000,0.000,0.000
1644362214593671168,2022-02-08-23:16:54,10.1.1.9,38,-0.080,-0.080,-0.080,0.000,0.000,0.000
1644362214693440000,2022-02-08-23:16:54,10.1.1.9,37,-0.090,-0.090,-0.090,0.000,0.000,0.000
1644362214793438976,2022-02-08-23:16:54,10.1.1.9,37,-0.100,-0.100,-0.100,0.000,0.000,0.000
1644362214892809984,2022-02-08-23:16:54,10.1.1.9,36,-0.090,-0.090,-0.090,0.000,0.000,0.000
1644362214993298176,2022-02-08-23:16:54,10.1.1.9,35,-0.080,-0.080,-0.080,0.000,0.000,0.000
1644362215093259008,2022-02-08-23:16:55,10.1.1.9,34,-0.070,-0.070,-0.070,0.000,0.000,0.000
1644362215793526784,2022-02-08-23:16:55,10.1.1.9,29,0.000,0.000,0.000,0.000,0.000,0.000
1644362215894195968,2022-02-08-23:16:55,10.1.1.9,26,0.010,0.010,0.010,0.000,0.000,0.000
1644362215995074048,2022-02-08-23:16:55,10.1.1.9,26,0.020,0.020,0.020,0.000,0.000,0.000
1644362216713666816,2022-02-08-23:16:56,10.1.1.9,39,0.090,0.090,0.090,0.000,0.000,0.000
1644362216813313024,2022-02-08-23:16:56,10.1.1.9,39,0.100,0.100,0.100,0.000,0.000,0.000
1644362216913570048,2022-02-08-23:16:56,10.1.1.9,37,0.090,0.090,0.090,0.000,0.000,0.000
1644362217013123072,2022-02-08-23:16:57,10.1.1.9,36,0.080,0.080,0.080,0.000,0.000,0.000
1644362217412869888,2022-02-08-23:16:57,10.1.1.9,28,0.040,0.040,0.040,0.000,0.000,0.000
1644362217512764928,2022-02-08-23:16:57,10.1.1.9,28,0.030,0.030,0.030,0.000,0.000,0.000
1644362217612664064,2022-02-08-23:16:57,10.1.1.9,27,0.020,0.020,0.020,0.000,0.000,0.000
1644362217713288192,2022-02-08-23:16:57,10.1.1.9,26,0.010,0.010,0.010,0.000,0.000,0.000
1644362217812634880,2022-02-08-23:16:57,10.1.1.9,26,0.000,0.000,0.000,0.000,0.000,0.000
1644362218533405184,2022-02-08-23:16:58,10.1.1.9,39,-0.070,-0.070,-0.070,0.000,0.000,0.000
1644362218633775872,2022-02-08-23:16:58,10.1.1.9,38,-0.080,-0.080,-0.080,0.000,0.000,0.000
1644362218733314048,2022-02-08-23:16:58,10.1.1.9,37,-0.090,-0.090,-0.090,0.000,0.000,0.000
1644362218833208064,2022-02-08-23:16:58,10.1.1.9,36,-0.100,-0.100,-0.100,0.000,0.000,0.000
1644362218933398016,2022-02-08-23:16:58,10.1.1.9,36,-0.090,-0.090,-0.090,0.000,0.000,0.000
1644362219034648832,2022-02-08-23:16:59,10.1.1.9,35,-0.080,-0.080,-0.080,0.000,0.000,0.000
1644362219633552128,2022-02-08-23:16:59,10.1.1.9,29,-0.020,-0.020,-0.020,0.000,0.000,0.000
1644362219733571072,2022-02-08-23:16:59,10.1.1.9,29,-0.010,-0.010,-0.010,0.000,0.000,0.000
1644362219833587968,2022-02-08-23:16:59,10.1.1.9,28,0.000,0.000,0.000,0.000,0.000,0.000
1644362219933011968,2022-02-08-23:16:59,10.1.1.9,27,0.010,0.010,0.010,0.000,0.000,0.000
1644362220033472000,2022-02-08-23:17:00,10.1.1.9,27,0.020,0.020,0.020,0.000,0.000,0.000
1644362220132968960,2022-02-08-23:17:00,10.1.1.9,26,0.030,0.030,0.030,0.000,0.000,0.000
1644362220233451008,2022-02-08-23:17:00,10.1.1.9,26,0.040,0.040,0.040,0.000,0.000,0.000
1644362220333161984,2022-02-08-23:17:00,10.1.1.9,25,0.050,0.050,0.050,0.000,0.000,0.000
1644362220933385984,2022-02-08-23:17:00,10.1.1.9,20,0.090,0.090,0.090,0.000,0.000,0.000
1644362221053667072,2022-02-08-23:17:01,10.1.1.9,39,0.080,0.080,0.080,0.000,0.000,0.000
1644362221153400064,2022-02-08-23:17:01,10.1.1.9,38,0.070,0.070,0.070,0.000,0.000,0.000
1644362221253043968,2022-02-08-23:17:01,10.1.1.9,38,0.060,0.060,0.060,0.000,0.000,0.000
1644362221353316096,2022-02-08-23:17:01,10.1.1.9,37,0.050,0.050,0.050,0.000,0.000,0.000
1644362221453903872,2022-02-08-23:17:01,10.1.1.9,36,0.040,0.040,0.040,0.000,0.000,0.000
1644362221553981184,2022-02-08-23:17:01,10.1.1.9,35,0.030,0.030,0.030,0.000,0.000,0.000
1644362221653959936,2022-02-08-23:17:01,10.1.1.9,35,0.020,0.020,0.020,0.000,0.000,0.000
1644362221753772032,2022-02-08-23:17:01,10.1.1.9,34,0.010,0.010,0.010,0.000,0.000,0.000
1644362222353658880,2022-02-08-23:17:02,10.1.1.9,28,-0.050,-0.050,-0.050,0.000,0.000,0.000
1644362222453389824,2022-02-08-23:17:02,10.1.1.9,28,-0.060,-0.060,-0.060,0.000,0.000,0.000
1644362222554265856,2022-02-08-23:17:02,10.1.1.9,27,-0.070,-0.070,-0.070,0.000,0.000,0.000
1644362222653580800,2022-02-08-23:17:02,10.1.1.9,26,-0.080,-0.080,-0.080,0.000,0.000,0.000
1644362222753014016,2022-02-08-23:17:02,10.1.1.9,25,-0.090,-0.090,-0.090,0.000,0.000,0.000
1644362222853773056,2022-02-08-23:17:02,10.1.1.9,24,-0.100,-0.100,-0.100,0.000,0.000,0.000
1644362223491534848,2022-02-08-23:17:03,10.1.1.9,38,-0.040,-0.040,-0.040,0.000,0.000,0.000
1644362223815565056,2022-02-08-23:17:03,10.1.1.9,29,-0.010,-0.010,-0.010,0.000,0.000,0.000
1644362223873532928,2022-02-08-23:17:03,10.1.1.9,28,0.000,0.000,0.000,0.000,0.000,0.000
1644362223973064960,2022-02-08-23:17:03,10.1.1.9,27,0.010,0.010,0.010,0.000,0.000,0.000
1644362224073508864,2022-02-08-23:17:04,10.1.1.9,24,0.020,0.020,0.020,0.000,0.000,0.000
1644362224773381120,2022-02-08-23:17:04,10.1.1.9,20,0.090,0.090,0.090,0.000,0.000,0.000
1644362224893511168,2022-02-08-23:17:04,10.1.1.9,39,0.100,0.100,0.100,0.000,0.000,0.000
1644362224994999808,2022-02-08-23:17:04,10.1.1.9,38,0.090,0.090,0.090,0.000,0.000,0.000
1644362225094313984,2022-02-08-23:17:05,10.1.1.9,38,0.080,0.080,0.080,0.000,0.000,0.000
1644362225196222976,2022-02-08-23:17:05,10.1.1.9,37,0.070,0.070,0.070,0.000,0.000,0.000
1644362225293505792,2022-02-08-23:17:05,10.1.1.9,37,0.060,0.060,0.060,0.000,0.000,0.000
1644362225893446912,2022-02-08-23:17:05,10.1.1.9,29,-0.000,-0.000,-0.000,0.000,0.000,0.000
1644362225993892864,2022-02-08-23:17:05,10.1.1.9,29,-0.010,-0.010,-0.010,0.000,0.000,0.000
1644362226093660160,2022-02-08-23:17:06,10.1.1.9,28,-0.020,-0.020,-0.020,0.000,0.000,0.000
1644362226194853120,2022-02-08-23:17:06,10.1.1.9,28,-0.030,-0.030,-0.030,0.000,0.000,0.000
1644362226293536000,2022-02-08-23:17:06,10.1.1.9,27,-0.040,-0.040,-0.040,0.000,0.000,0.000
1644362226396030976,2022-02-08-23:17:06,10.1.1.9,26,-0.050,-0.050,-0.050,0.000,0.000,0.000
1644362226493649920,2022-02-08-23:17:06,10.1.1.9,26,-0.060,-0.060,-0.060,0.000,0.000,0.000
1644362226593734912,2022-02-08-23:17:06,10.1.1.9,25,-0.070,-0.070,-0.070,0.000,0.000,0.000
1644362226693250048,2022-02-08-23:17:06,10.1.1.9,24,-0.080,-0.080,-0.080,0.000,0.000,0.000
1644362226793979904,2022-02-08-23:17:06,10.1.1.9,24,-0.090,-0.090,-0.090,0.000,0.000,0.000
1644362226993979904,2022-02-08-23:17:06,10.1.1.9,10,-0.090,-0.090,-0.090,0.000,0.000,0.000
1644362227114048000,2022-02-08-23:17:07,10.1.1.9,30,-0.080,-0.080,-0.080,0.000,0.000,0.000
1644362227213656064,2022-02-08-23:17:07,10.1.1.9,28,-0.070,-0.070,-0.070,0.000,0.000,0.000
1644362227313835008,2022-02-08-23:17:07,10.1.1.9,28,-0.060,-0.060,-0.060,0.000,0.000,0.000
1644362227413639936,2022-02-08-23:17:07,10.1.1.9,27,-0.050,-0.050,-0.050,0.000,0.000,0.000
1644362227513223936,2022-02-08-23:17:07,10.1.1.9,26,-0.040,-0.040,-0.040,0.000,0.000,0.000
1644362227613254144,2022-02-08-23:17:07,10.1.1.9,25,-0.030,-0.030,-0.030,0.000,0.000,0.000
1644362227713646848,2022-02-08-23:17:07,10.1.1.9,24,-0.020,-0.020,-0.020,0.000,0.000,0.000
1644362228534248960,2022-02-08-23:17:08,10.1.1.9,39,0.060,0.060,0.060,0.000,0.000,0.000
1644362228634045952,2022-02-08-23:17:08,10.1.1.9,37,0.070,0.070,0.070,0.000,0.000,0.000
1644362228734266112,2022-02-08-23:17:08,10.1.1.9,37,0.080,0.080,0.080,0.000,0.000,0.000
1644362228833905920,2022-02-08-23:17:08,10.1.1.9,36,0.090,0.090,0.090,0.000,0.000,0.000
1644362228935416832,2022-02-08-23:17:08,10.1.1.9,35,0.100,0.100,0.100,0.000,0.000,0.000
1644362229534418176,2022-02-08-23:17:09,10.1.1.9,29,0.040,0.040,0.040,0.000,0.000,0.000
1644362229633580800,2022-02-08-23:17:09,10.1.1.9,27,0.030,0.030,0.030,0.000,0.000,0.000
1644362229734062848,2022-02-08-23:17:09,10.1.1.9,27,0.020,0.020,0.020,0.000,0.000,0.000
1644362229833645056,2022-02-08-23:17:09,10.1.1.9,26,0.010,0.010,0.010,0.000,0.000,0.000
1644362229934068992,2022-02-08-23:17:09,10.1.1.9,26,0.000,0.000,0.000,0.000,0.000,0.000
1644362230033955072,2022-02-08-23:17:10,10.1.1.9,24,-0.010,-0.010,-0.010,0.000,0.000,0.000
1644362230133618176,2022-02-08-23:17:10,10.1.1.9,24,-0.020,-0.020,-0.020,0.000,0.000,0.000
1644362231154653952,2022-02-08-23:17:11,10.1.1.9,39,-0.080,-0.080,-0.080,0.000,0.000,0.000
1644362231253788928,2022-02-08-23:17:11,10.1.1.9,39,-0.070,-0.070,-0.070,0.000,0.000,0.000
1644362231353586944,2022-02-08-23:17:11,10.1.1.9,37,-0.060,-0.060,-0.060,0.000,0.000,0.000
1644362231453942016,2022-02-08-23:17:11,10.1.1.9,37,-0.050,-0.050,-0.050,0.000,0.000,0.000
1644362231853456128,2022-02-08-23:17:11,10.1.1.9,30,-0.010,-0.010,-0.010,0.000,0.000,0.000
1644362231953743104,2022-02-08-23:17:11,10.1.1.9,29,0.000,0.000,0.000,0.000,0.000,0.000
1644362232053843968,2022-02-08-23:17:12,10.1.1.9,29,0.010,0.010,0.010,0.000,0.000,0.000
1644362232153947136,2022-02-08-23:17:12,10.1.1.9,29,0.020,0.020,0.020,0.000,0.000,0.000
1644362232254388992,2022-02-08-23:17:12,10.1.1.9,27,0.030,0.030,0.030,0.000,0.000,0.000
1644362232353949184,2022-02-08-23:17:12,10.1.1.9,27,0.040,0.040,0.040,0.000,0.000,0.000
1644362232454245120,2022-02-08-23:17:12,10.1.1.9,26,0.050,0.050,0.050,0.000,0.000,0.000
1644362232554270976,2022-02-08-23:17:12,10.1.1.9,25,0.060,0.060,0.060,0.000,0.000,0.000
1644362233353822976,2022-02-08-23:17:13,10.1.1.9,20,0.060,0.060,0.060,0.000,0.000,0.000
1644362233474166016,2022-02-08-23:17:13,10.1.1.9,39,0.050,0.050,0.050,0.000,0.000,0.000
1644362233574162944,2022-02-08-23:17:13,10.1.1.9,39,0.040,0.040,0.040,0.000,0.000,0.000
1644362233673851904,2022-02-08-23:17:13,10.1.1.9,38,0.030,0.030,0.030,0.000,0.000,0.000
1644362233774766080,2022-02-08-23:17:13,10.1.1.9,29,0.020,0.020,0.020,0.000,0.000,0.000
1644362233874636032,2022-02-08-23:17:13,10.1.1.9,28,0.010,0.010,0.010,0.000,0.000,0.000
1644362233973509120,2022-02-08-23:17:13,10.1.1.9,27,0.000,0.000,0.000,0.000,0.000,0.000
1644362234113588992,2022-02-08-23:17:14,10.1.1.9,39,-0.010,-0.010,-0.010,0.000,0.000,0.000
1644362234213565952,2022-02-08-23:17:14,10.1.1.9,39,-0.020,-0.020,-0.020,0.000,0.000,0.000
1644362234313489920,2022-02-08-23:17:14,10.1.1.9,38,-0.030,-0.030,-0.030,0.000,0.000,0.000
1644362234413980928,2022-02-08-23:17:14,10.1.1.9,37,-0.040,-0.040,-0.040,0.000,0.000,0.000
1644362234513355008,2022-02-08-23:17:14,10.1.1.9,36,-0.050,-0.050,-0.050,0.000,0.000,0.000
1644362234614944000,2022-02-08-23:17:14,10.1.1.9,35,-0.060,-0.060,-0.060,0.000,0.000,0.000
1644362234713753856,2022-02-08-23:17:14,10.1.1.9,34,-0.070,-0.070,-0.070,0.000,0.000,0.000
1644362234813394176,2022-02-08-23:17:14,10.1.1.9,34,-0.080,-0.080,-0.080,0.000,0.000,0.000
1644362235194624000,2022-02-08-23:17:15,10.1.1.9,10,-0.080,-0.080,-0.080,0.000,0.000,0.000
1644362235315212032,2022-02-08-23:17:15,10.1.1.9,30,-0.070,-0.070,-0.070,0.000,0.000,0.000
1644362235414840064,2022-02-08-23:17:15,10.1.1.9,29,-0.060,-0.060,-0.060,0.000,0.000,0.000
1644362235515559936,2022-02-08-23:17:15,10.1.1.9,26,-0.050,-0.050,-0.050,0.000,0.000,0.000
1644362236134799872,2022-02-08-23:17:16,10.1.1.9,37,0.010,0.010,0.010,0.000,0.000,0.000
1644362236234545920,2022-02-08-23:17:16,10.1.1.9,37,0.020,0.020,0.020,0.000,0.000,0.000
1644362236333835008,2022-02-08-23:17:16,10.1.1.9,34,0.030,0.030,0.030,0.000,0.000,0.000
1644362236473846016,2022-02-08-23:17:16,10.1.1.9,28,0.040,0.040,0.040,0.000,0.000,0.000
1644362237095649024,2022-02-08-23:17:17,10.1.1.9,39,0.100,0.100,0.100,0.000,0.000,0.000
1644362237194916096,2022-02-08-23:17:17,10.1.1.9,39,0.090,0.090,0.090,0.000,0.000,0.000
1644362237296325888,2022-02-08-23:17:17,10.1.1.9,38,0.080,0.080,0.080,0.000,0.000,0.000
1644362237394958848,2022-02-08-23:17:17,10.1.1.9,38,0.070,0.070,0.070,0.000,0.000,0.000
1644362237495042048,2022-02-08-23:17:17,10.1.1.9,37,0.060,0.060,0.060,0.000,0.000,0.000
1644362237595156992,2022-02-08-23:17:17,10.1.1.9,36,0.050,0.050,0.050,0.000,0.000,0.000
1644362237694381056,2022-02-08-23:17:17,10.1.1.9,34,0.040,0.040,0.040,0.000,0.000,0.000
1644362238554898944,2022-02-08-23:17:18,10.1.1.9,38,-0.040,-0.040,-0.040,0.000,0.000,0.000
1644362238653758976,2022-02-08-23:17:18,10.1.1.9,37,-0.050,-0.050,-0.050,0.000,0.000,0.000
1644362239255158016,2022-02-08-23:17:19,10.1.1.9,29,-0.090,-0.090,-0.090,0.000,0.000,0.000
1644362239355084800,2022-02-08-23:17:19,10.1.1.9,28,-0.080,-0.080,-0.080,0.000,0.000,0.000
1644362239454776064,2022-02-08-23:17:19,10.1.1.9,27,-0.070,-0.070,-0.070,0.000,0.000,0.000
1644362239554195968,2022-02-08-23:17:19,10.1.1.9,24,-0.060,-0.060,-0.060,0.000,0.000,0.000
1644362240173826048,2022-02-08-23:17:20,10.1.1.9,39,0.000,0.000,0.000,0.000,0.000,0.000
1644362240274262784,2022-02-08-23:17:20,10.1.1.9,38,0.010,0.010,0.010,0.000,0.000,0.000
1644362240374650112,2022-02-08-23:17:20,10.1.1.9,37,0.020,0.020,0.020,0.000,0.000,0.000
1644362240475055872,2022-02-08-23:17:20,10.1.1.9,35,0.030,0.030,0.030,0.000,0.000,0.000
1644362241074081792,2022-02-08-23:17:21,10.1.1.9,29,0.090,0.090,0.090,0.000,0.000,0.000
1644362241174622976,2022-02-08-23:17:21,10.1.1.9,29,0.100,0.100,0.100,0.000,0.000,0.000
1644362241274262016,2022-02-08-23:17:21,10.1.1.9,28,0.090,0.090,0.090,0.000,0.000,0.000
1644362241374615040,2022-02-08-23:17:21,10.1.1.9,24,0.080,0.080,0.080,0.000,0.000,0.000
1644362242194078976,2022-02-08-23:17:22,10.1.1.9,39,0.000,0.000,0.000,0.000,0.000,0.000
1644362242293920000,2022-02-08-23:17:22,10.1.1.9,38,-0.010,-0.010,-0.010,0.000,0.000,0.000
1644362242394899968,2022-02-08-23:17:22,10.1.1.9,37,-0.020,-0.020,-0.020,0.000,0.000,0.000
1644362242494679040,2022-02-08-23:17:22,10.1.1.9,36,-0.030,-0.030,-0.030,0.000,0.000,0.000
1644362242594865920,2022-02-08-23:17:22,10.1.1.9,34,-0.040,-0.040,-0.040,0.000,0.000,0.000
1644362243194884096,2022-02-08-23:17:23,10.1.1.9,29,-0.100,-0.100,-0.100,0.000,0.000,0.000
1644362243294516992,2022-02-08-23:17:23,10.1.1.9,29,-0.090,-0.090,-0.090,0.000,0.000,0.000
1644362243394576128,2022-02-08-23:17:23,10.1.1.9,28,-0.080,-0.080,-0.080,0.000,0.000,0.000
1644362243494345984,2022-02-08-23:17:23,10.1.1.9,27,-0.070,-0.070,-0.070,0.000,0.000,0.000
1644362243594044928,2022-02-08-23:17:23,10.1.1.9,26,-0.060,-0.060,-0.060,0.000,0.000,0.000
1644362243934701056,2022-02-08-23:17:23,10.1.1.9,34,-0.030,-0.030,-0.030,0.000,0.000,0.000
1644362244334322944,2022-02-08-23:17:24,10.1.1.9,29,0.010,0.010,0.010,0.000,0.000,0.000
1644362244534727936,2022-02-08-23:17:24,10.1.1.9,26,0.030,0.030,0.030,0.000,0.000,0.000
1644362244634686976,2022-02-08-23:17:24,10.1.1.9,25,0.040,0.040,0.040,0.000,0.000,0.000
1644362244734515968,2022-02-08-23:17:24,10.1.1.9,24,0.050,0.050,0.050,0.000,0.000,0.000
1644362244833953024,2022-02-08-23:17:24,10.1.1.9,23,0.060,0.060,0.060,0.000,0.000,0.000
1644362245474309888,2022-02-08-23:17:25,10.1.1.9,36,0.080,0.080,0.080,0.000,0.000,0.000
1644362245574637056,2022-02-08-23:17:25,10.1.1.9,36,0.070,0.070,0.070,0.000,0.000,0.000
1644362245674562048,2022-02-08-23:17:25,10.1.1.9,35,0.060,0.060,0.060,0.000,0.000,0.000
1644362245774064896,2022-02-08-23:17:25,10.1.1.9,34,0.050,0.050,0.050,0.000,0.000,0.000
1644362245874710016,2022-02-08-23:17:25,10.1.1.9,34,0.040,0.040,0.040,0.000,0.000,0.000
1644362246574392064,2022-02-08-23:17:26,10.1.1.9,29,-0.030,-0.030,-0.030,0.000,0.000,0.000
1644362246674725888,2022-02-08-23:17:26,10.1.1.9,29,-0.040,-0.040,-0.040,0.000,0.000,0.000
1644362246774311936,2022-02-08-23:17:26,10.1.1.9,27,-0.050,-0.050,-0.050,0.000,0.000,0.000
1644362246874253056,2022-02-08-23:17:26,10.1.1.9,26,-0.060,-0.060,-0.060,0.000,0.000,0.000
1644362246974524928,2022-02-08-23:17:26,10.1.1.9,25,-0.070,-0.070,-0.070,0.000,0.000,0.000
1644362247074546176,2022-02-08-23:17:27,10.1.1.9,24,-0.080,-0.080,-0.080,0.000,0.000,0.000
1644362247455409152,2022-02-08-23:17:27,10.1.1.9,0,-0.080,-0.080,-0.080,0.000,0.000,0.000
1644362247694269952,2022-02-08-23:17:27,10.1.1.9,40,-0.060,-0.060,-0.060,0.000,0.000,0.000
1644362247794280960,2022-02-08-23:17:27,10.1.1.9,39,-0.050,-0.050,-0.050,0.000,0.000,0.000
1644362247894756096,2022-02-08-23:17:27,10.1.1.9,38,-0.040,-0.040,-0.040,0.000,0.000,0.000
1644362247994529024,2022-02-08-23:17:27,10.1.1.9,37,-0.030,-0.030,-0.030,0.000,0.000,0.000
1644362248094254848,2022-02-08-23:17:28,10.1.1.9,37,-0.020,-0.020,-0.020,0.000,0.000,0.000
1644362248194812928,2022-02-08-23:17:28,10.1.1.9,36,-0.010,-0.010,-0.010,0.000,0.000,0.000
1644362248294426880,2022-02-08-23:17:28,10.1.1.9,35,0.000,0.000,0.000,0.000,0.000,0.000
1644362248395011072,2022-02-08-23:17:28,10.1.1.9,35,0.010,0.010,0.010,0.000,0.000,0.000
1644362248494472960,2022-02-08-23:17:28,10.1.1.9,33,0.020,0.020,0.020,0.000,0.000,0.000
1644362249294608128,2022-02-08-23:17:29,10.1.1.9,28,0.100,0.100,0.100,0.000,0.000,0.000
1644362249394497024,2022-02-08-23:17:29,10.1.1.9,28,0.090,0.090,0.090,0.000,0.000,0.000
1644362249494259968,2022-02-08-23:17:29,10.1.1.9,27,0.080,0.080,0.080,0.000,0.000,0.000
1644362249595460864,2022-02-08-23:17:29,10.1.1.9,25,0.070,0.070,0.070,0.000,0.000,0.000
1644362249694607104,2022-02-08-23:17:29,10.1.1.9,25,0.060,0.060,0.060,0.000,0.000,0.000
1644362249794820096,2022-02-08-23:17:29,10.1.1.9,24,0.050,0.050,0.050,0.000,0.000,0.000
1644362250414618880,2022-02-08-23:17:30,10.1.1.9,39,-0.010,-0.010,-0.010,0.000,0.000,0.000
1644362250514938112,2022-02-08-23:17:30,10.1.1.9,38,-0.020,-0.020,-0.020,0.000,0.000,0.000
1644362250614665984,2022-02-08-23:17:30,10.1.1.9,37,-0.030,-0.030,-0.030,0.000,0.000,0.000
1644362250714822144,2022-02-08-23:17:30,10.1.1.9,36,-0.040,-0.040,-0.040,0.000,0.000,0.000
1644362250814043136,2022-02-08-23:17:30,10.1.1.9,35,-0.050,-0.050,-0.050,0.000,0.000,0.000
1644362250914660864,2022-02-08-23:17:30,10.1.1.9,34,-0.060,-0.060,-0.060,0.000,0.000,0.000
1644362251514408192,2022-02-08-23:17:31,10.1.1.9,29,-0.080,-0.080,-0.080,0.000,0.000,0.000
1644362251614782208,2022-02-08-23:17:31,10.1.1.9,29,-0.070,-0.070,-0.070,0.000,0.000,0.000
1644362251715398912,2022-02-08-23:17:31,10.1.1.9,28,-0.060,-0.060,-0.060,0.000,0.000,0.000
1644362251815784960,2022-02-08-23:17:31,10.1.1.9,27,-0.050,-0.050,-0.050,0.000,0.000,0.000
1644362251914586112,2022-02-08-23:17:31,10.1.1.9,27,-0.040,-0.040,-0.040,0.000,0.000,0.000
1644362252014971904,2022-02-08-23:17:32,10.1.1.9,26,-0.030,-0.030,-0.030,0.000,0.000,0.000
1644362252114914048,2022-02-08-23:17:32,10.1.1.9,24,-0.020,-0.020,-0.020,0.000,0.000,0.000
1644362252634277120,2022-02-08-23:17:32,10.1.1.9,26,0.030,0.030,0.030,0.000,0.000,0.000
1644362252955024896,2022-02-08-23:17:32,10.1.1.9,39,0.060,0.060,0.060,0.000,0.000,0.000
1644362253054863104,2022-02-08-23:17:33,10.1.1.9,38,0.070,0.070,0.070,0.000,0.000,0.000
1644362253154339072,2022-02-08-23:17:33,10.1.1.9,37,0.080,0.080,0.080,0.000,0.000,0.000
1644362253254569984,2022-02-08-23:17:33,10.1.1.9,34,0.090,0.090,0.090,0.000,0.000,0.000
1644362253354916096,2022-02-08-23:17:33,10.1.1.9,34,0.100,0.100,0.100,0.000,0.000,0.000
1644362253954366976,2022-02-08-23:17:33,10.1.1.9,29,0.040,0.040,0.040,0.000,0.000,0.000
1644362254054814976,2022-02-08-23:17:34,10.1.1.9,28,0.030,0.030,0.030,0.000,0.000,0.000
1644362254154525952,2022-02-08-23:17:34,10.1.1.9,27,0.020,0.020,0.020,0.000,0.000,0.000
1644362254254117120,2022-02-08-23:17:34,10.1.1.9,26,0.010,0.010,0.010,0.000,0.000,0.000
1644362254474551040,2022-02-08-23:17:34,10.1.1.9,37,-0.010,-0.010,-0.010,0.000,0.000,0.000
1644362254574680064,2022-02-08-23:17:34,10.1.1.9,36,-0.020,-0.020,-0.020,0.000,0.000,0.000
1644362254674816000,2022-02-08-23:17:34,10.1.1.9,35,-0.030,-0.030,-0.030,0.000,0.000,0.000
1644362254773940992,2022-02-08-23:17:34,10.1.1.9,33,-0.040,-0.040,-0.040,0.000,0.000,0.000
1644362254874387968,2022-02-08-23:17:34,10.1.1.9,33,-0.050,-0.050,-0.050,0.000,0.000,0.000
1644362255374893056,2022-02-08-23:17:35,10.1.1.9,28,-0.100,-0.100,-0.100,0.000,0.000,0.000
1644362255475009024,2022-02-08-23:17:35,10.1.1.9,28,-0.090,-0.090,-0.090,0.000,0.000,0.000
1644362255574610944,2022-02-08-23:17:35,10.1.1.9,27,-0.080,-0.080,-0.080,0.000,0.000,0.000
1644362255675030016,2022-02-08-23:17:35,10.1.1.9,27,-0.070,-0.070,-0.070,0.000,0.000,0.000
1644362255774681088,2022-02-08-23:17:35,10.1.1.9,25,-0.060,-0.060,-0.060,0.000,0.000,0.000
1644362255874952192,2022-02-08-23:17:35,10.1.1.9,24,-0.050,-0.050,-0.050,0.000,0.000,0.000
1644362256374394880,2022-02-08-23:17:36,10.1.1.9,19,0.000,0.000,0.000,0.000,0.000,0.000
1644362256495492096,2022-02-08-23:17:36,10.1.1.9,39,0.010,0.010,0.010,0.000,0.000,0.000
1644362256594564864,2022-02-08-23:17:36,10.1.1.9,38,0.020,0.020,0.020,0.000,0.000,0.000
1644362256694758912,2022-02-08-23:17:36,10.1.1.9,37,0.030,0.030,0.030,0.000,0.000,0.000
1644362256794778112,2022-02-08-23:17:36,10.1.1.9,36,0.040,0.040,0.040,0.000,0.000,0.000
1644362256894775040,2022-02-08-23:17:36,10.1.1.9,35,0.050,0.050,0.050,0.000,0.000,0.000
1644362256994646016,2022-02-08-23:17:36,10.1.1.9,34,0.060,0.060,0.060,0.000,0.000,0.000
1644362257094532096,2022-02-08-23:17:37,10.1.1.9,34,0.070,0.070,0.070,0.000,0.000,0.000
1644362257515144960,2022-02-08-23:17:37,10.1.1.9,36,0.090,0.090,0.090,0.000,0.000,0.000
1644362257616535040,2022-02-08-23:17:37,10.1.1.9,33,0.080,0.080,0.080,0.000,0.000,0.000
1644362257715141888,2022-02-08-23:17:37,10.1.1.9,27,0.070,0.070,0.070,0.000,0.000,0.000
1644362257815083008,2022-02-08-23:17:37,10.1.1.9,26,0.060,0.060,0.060,0.000,0.000,0.000
1644362258634872064,2022-02-08-23:17:38,10.1.1.9,39,-0.020,-0.020,-0.020,0.000,0.000,0.000
1644362258735972864,2022-02-08-23:17:38,10.1.1.9,39,-0.030,-0.030,-0.030,0.000,0.000,0.000
1644362258834409984,2022-02-08-23:17:38,10.1.1.9,37,-0.040,-0.040,-0.040,0.000,0.000,0.000
1644362258935337984,2022-02-08-23:17:38,10.1.1.9,36,-0.050,-0.050,-0.050,0.000,0.000,0.000
1644362259034493952,2022-02-08-23:17:39,10.1.1.9,36,-0.060,-0.060,-0.060,0.000,0.000,0.000
1644362259135620096,2022-02-08-23:17:39,10.1.1.9,35,-0.070,-0.070,-0.070,0.000,0.000,0.000
1644362259234804992,2022-02-08-23:17:39,10.1.1.9,34,-0.080,-0.080,-0.080,0.000,0.000,0.000
1644362259335202816,2022-02-08-23:17:39,10.1.1.9,34,-0.090,-0.090,-0.090,0.000,0.000,0.000
1644362259435251968,2022-02-08-23:17:39,10.1.1.9,33,-0.100,-0.100,-0.100,0.000,0.000,0.000
1644362260036267008,2022-02-08-23:17:40,10.1.1.9,29,-0.040,-0.040,-0.040,0.000,0.000,0.000
1644362260134275072,2022-02-08-23:17:40,10.1.1.9,27,-0.030,-0.030,-0.030,0.000,0.000,0.000
1644362260235312896,2022-02-08-23:17:40,10.1.1.9,26,-0.020,-0.020,-0.020,0.000,0.000,0.000
1644362260335056128,2022-02-08-23:17:40,10.1.1.9,25,-0.010,-0.010,-0.010,0.000,0.000,0.000
1644362260435256832,2022-02-08-23:17:40,10.1.1.9,23,0.000,0.000,0.000,0.000,0.000,0.000
1644362260534807040,2022-02-08-23:17:40,10.1.1.9,23,0.010,0.010,0.010,0.000,0.000,0.000
1644362260955741952,2022-02-08-23:17:40,10.1.1.9,39,0.050,0.050,0.050,0.000,0.000,0.000
1644362261054800128,2022-02-08-23:17:41,10.1.1.9,38,0.060,0.060,0.060,0.000,0.000,0.000
1644362261155410176,2022-02-08-23:17:41,10.1.1.9,38,0.070,0.070,0.070,0.000,0.000,0.000
1644362261254429184,2022-02-08-23:17:41,10.1.1.9,37,0.080,0.080,0.080,0.000,0.000,0.000
1644362261354639104,2022-02-08-23:17:41,10.1.1.9,35,0.090,0.090,0.090,0.000,0.000,0.000
1644362261455105024,2022-02-08-23:17:41,10.1.1.9,35,0.100,0.100,0.100,0.000,0.000,0.000
1644362261554547968,2022-02-08-23:17:41,10.1.1.9,34,0.090,0.090,0.090,0.000,0.000,0.000
1644362261654923008,2022-02-08-23:17:41,10.1.1.9,33,0.080,0.080,0.080,0.000,0.000,0.000
1644362261754959104,2022-02-08-23:17:41,10.1.1.9,32,0.070,0.070,0.070,0.000,0.000,0.000
1644362262354870016,2022-02-08-23:17:42,10.1.1.9,29,0.010,0.010,0.010,0.000,0.000,0.000
1644362262454839040,2022-02-08-23:17:42,10.1.1.9,28,0.000,0.000,0.000,0.000,0.000,0.000
1644362262554735872,2022-02-08-23:17:42,10.1.1.9,27,-0.010,-0.010,-0.010,0.000,0.000,0.000
1644362262654743808,2022-02-08-23:17:42,10.1.1.9,26,-0.020,-0.020,-0.020,0.000,0.000,0.000
1644362262754664960,2022-02-08-23:17:42,10.1.1.9,26,-0.030,-0.030,-0.030,0.000,0.000,0.000
1644362262854752000,2022-02-08-23:17:42,10.1.1.9,25,-0.040,-0.040,-0.040,0.000,0.000,0.000
1644362262954667008,2022-02-08-23:17:42,10.1.1.9,23,-0.050,-0.050,-0.050,0.000,0.000,0.000
1644362263374548992,2022-02-08-23:17:43,10.1.1.9,39,-0.090,-0.090,-0.090,0.000,0.000,0.000
1644362263474516992,2022-02-08-23:17:43,10.1.1.9,38,-0.100,-0.100,-0.100,0.000,0.000,0.000
1644362263574732032,2022-02-08-23:17:43,10.1.1.9,38,-0.090,-0.090,-0.090,0.000,0.000,0.000
1644362263674604032,2022-02-08-23:17:43,10.1.1.9,37,-0.080,-0.080,-0.080,0.000,0.000,0.000
1644362263774558976,2022-02-08-23:17:43,10.1.1.9,35,-0.070,-0.070,-0.070,0.000,0.000,0.000
1644362263874927104,2022-02-08-23:17:43,10.1.1.9,34,-0.060,-0.060,-0.060,0.000,0.000,0.000
1644362263974373120,2022-02-08-23:17:43,10.1.1.9,34,-0.050,-0.050,-0.050,0.000,0.000,0.000
1644362264075004928,2022-02-08-23:17:44,10.1.1.9,33,-0.040,-0.040,-0.040,0.000,0.000,0.000
1644362264575117056,2022-02-08-23:17:44,10.1.1.9,28,0.010,0.010,0.010,0.000,0.000,0.000
1644362264674985984,2022-02-08-23:17:44,10.1.1.9,27,0.020,0.020,0.020,0.000,0.000,0.000
1644362264774554880,2022-02-08-23:17:44,10.1.1.9,27,0.030,0.030,0.030,0.000,0.000,0.000
1644362264874893824,2022-02-08-23:17:44,10.1.1.9,26,0.040,0.040,0.040,0.000,0.000,0.000
1644362264974597888,2022-02-08-23:17:44,10.1.1.9,25,0.050,0.050,0.050,0.000,0.000,0.000
1644362265074649088,2022-02-08-23:17:45,10.1.1.9,24,0.060,0.060,0.060,0.000,0.000,0.000
1644362265594803200,2022-02-08-23:17:45,10.1.1.9,39,0.090,0.090,0.090,0.000,0.000,0.000
1644362265694927104,2022-02-08-23:17:45,10.1.1.9,38,0.080,0.080,0.080,0.000,0.000,0.000
1644362265794564096,2022-02-08-23:17:45,10.1.1.9,37,0.070,0.070,0.070,0.000,0.000,0.000
1644362265895855872,2022-02-08-23:17:45,10.1.1.9,36,0.060,0.060,0.060,0.000,0.000,0.000
1644362265995872000,2022-02-08-23:17:45,10.1.1.9,34,0.050,0.050,0.050,0.000,0.000,0.000
1644362266095454976,2022-02-08-23:17:46,10.1.1.9,34,0.040,0.040,0.040,0.000,0.000,0.000
1644362266194962944,2022-02-08-23:17:46,10.1.1.9,33,0.030,0.030,0.030,0.000,0.000,0.000
1644362266795192832,2022-02-08-23:17:46,10.1.1.9,29,-0.030,-0.030,-0.030,0.000,0.000,0.000
1644362266894732032,2022-02-08-23:17:46,10.1.1.9,28,-0.040,-0.040,-0.040,0.000,0.000,0.000
1644362266994780928,2022-02-08-23:17:46,10.1.1.9,27,-0.050,-0.050,-0.050,0.000,0.000,0.000
1644362267094845184,2022-02-08-23:17:47,10.1.1.9,26,-0.060,-0.060,-0.060,0.000,0.000,0.000
1644362267195491072,2022-02-08-23:17:47,10.1.1.9,26,-0.070,-0.070,-0.070,0.000,0.000,0.000
1644362267294661888,2022-02-08-23:17:47,10.1.1.9,25,-0.080,-0.080,-0.080,0.000,0.000,0.000
1644362267395593984,2022-02-08-23:17:47,10.1.1.9,24,-0.090,-0.090,-0.090,0.000,0.000,0.000
1644362267495200000,2022-02-08-23:17:47,10.1.1.9,23,-0.100,-0.100,-0.100,0.000,0.000,0.000
1644362267596019968,2022-02-08-23:17:47,10.1.1.9,23,-0.090,-0.090,-0.090,0.000,0.000,0.000
1644362268314806016,2022-02-08-23:17:48,10.1.1.9,39,-0.020,-0.020,-0.020,0.000,0.000,0.000
1644362268415194112,2022-02-08-23:17:48,10.1.1.9,38,-0.010,-0.010,-0.010,0.000,0.000,0.000
1644362268515418112,2022-02-08-23:17:48,10.1.1.9,38,0.000,0.000,0.000,0.000,0.000,0.000
1644362268615428864,2022-02-08-23:17:48,10.1.1.9,37,0.010,0.010,0.010,0.000,0.000,0.000
1644362268714950144,2022-02-08-23:17:48,10.1.1.9,36,0.020,0.020,0.020,0.000,0.000,0.000
1644362268814969088,2022-02-08-23:17:48,10.1.1.9,34,0.030,0.030,0.030,0.000,0.000,0.000
1644362269015094016,2022-02-08-23:17:49,10.1.1.9,33,0.050,0.050,0.050,0.000,0.000,0.000
1644362269615053056,2022-02-08-23:17:49,10.1.1.9,29,0.090,0.090,0.090,0.000,0.000,0.000
1644362269715017984,2022-02-08-23:17:49,10.1.1.9,28,0.080,0.080,0.080,0.000,0.000,0.000
1644362269915335936,2022-02-08-23:17:49,10.1.1.9,26,0.060,0.060,0.060,0.000,0.000,0.000
1644362270014621952,2022-02-08-23:17:50,10.1.1.9,25,0.050,0.050,0.050,0.000,0.000,0.000
1644362270115237888,2022-02-08-23:17:50,10.1.1.9,24,0.040,0.040,0.040,0.000,0.000,0.000
1644362270215138048,2022-02-08-23:17:50,10.1.1.9,24,0.030,0.030,0.030,0.000,0.000,0.000
1644362270314969088,2022-02-08-23:17:50,10.1.1.9,23,0.020,0.020,0.020,0.000,0.000,0.000
1644362270415005952,2022-02-08-23:17:50,10.1.1.9,22,0.010,0.010,0.010,0.000,0.000,0.000
1644362270514877184,2022-02-08-23:17:50,10.1.1.9,22,0.000,0.000,0.000,0.000,0.000,0.000
1644362270754766080,2022-02-08-23:17:50,10.1.1.9,34,-0.020,-0.020,-0.020,0.000,0.000,0.000
1644362270855186944,2022-02-08-23:17:50,10.1.1.9,33,-0.030,-0.030,-0.030,0.000,0.000,0.000
1644362270954771968,2022-02-08-23:17:50,10.1.1.9,32,-0.040,-0.040,-0.040,0.000,0.000,0.000
1644362271155162112,2022-02-08-23:17:51,10.1.1.9,24,-0.060,-0.060,-0.060,0.000,0.000,0.000
1644362271255482880,2022-02-08-23:17:51,10.1.1.9,23,-0.070,-0.070,-0.070,0.000,0.000,0.000
1644362271674795008,2022-02-08-23:17:51,10.1.1.9,39,-0.090,-0.090,-0.090,0.000,0.000,0.000
1644362271775456000,2022-02-08-23:17:51,10.1.1.9,38,-0.080,-0.080,-0.080,0.000,0.000,0.000
1644362271875646976,2022-02-08-23:17:51,10.1.1.9,38,-0.070,-0.070,-0.070,0.000,0.000,0.000
1644362271975826944,2022-02-08-23:17:51,10.1.1.9,37,-0.060,-0.060,-0.060,0.000,0.000,0.000
1644362272075440896,2022-02-08-23:17:52,10.1.1.9,36,-0.050,-0.050,-0.050,0.000,0.000,0.000
1644362272175529984,2022-02-08-23:17:52,10.1.1.9,34,-0.040,-0.040,-0.040,0.000,0.000,0.000
1644362272275599104,2022-02-08-23:17:52,10.1.1.9,33,-0.030,-0.030,-0.030,0.000,0.000,0.000
1644362272775300864,2022-02-08-23:17:52,10.1.1.9,29,0.020,0.020,0.020,0.000,0.000,0.000
1644362272876241920,2022-02-08-23:17:52,10.1.1.9,28,0.030,0.030,0.030,0.000,0.000,0.000
1644362272975454976,2022-02-08-23:17:52,10.1.1.9,26,0.040,0.040,0.040,0.000,0.000,0.000
1644362273075314944,2022-02-08-23:17:53,10.1.1.9,26,0.050,0.050,0.050,0.000,0.000,0.000
1644362273175144960,2022-02-08-23:17:53,10.1.1.9,25,0.060,0.060,0.060,0.000,0.000,0.000
1644362273275281920,2022-02-08-23:17:53,10.1.1.9,24,0.070,0.070,0.070,0.000,0.000,0.000
1644362273375448064,2022-02-08-23:17:53,10.1.1.9,22,0.080,0.080,0.080,0.000,0.000,0.000
1644362273775760896,2022-02-08-23:17:53,10.1.1.9,1,0.080,0.080,0.080,0.000,0.000,0.000
1644362274015540992,2022-02-08-23:17:54,10.1.1.9,39,0.060,0.060,0.060,0.000,0.000,0.000
1644362274115289856,2022-02-08-23:17:54,10.1.1.9,38,0.050,0.050,0.050,0.000,0.000,0.000
1644362274215154944,2022-02-08-23:17:54,10.1.1.9,38,0.040,0.040,0.040,0.000,0.000,0.000
1644362274315422976,2022-02-08-23:17:54,10.1.1.9,37,0.030,0.030,0.030,0.000,0.000,0.000
1644362274415628032,2022-02-08-23:17:54,10.1.1.9,36,0.020,0.020,0.020,0.000,0.000,0.000
1644362274515529984,2022-02-08-23:17:54,10.1.1.9,35,0.010,0.010,0.010,0.000,0.000,0.000
1644362274639122944,2022-02-08-23:17:54,10.1.1.9,34,0.000,0.000,0.000,0.000,0.000,0.000
1644362274716020992,2022-02-08-23:17:54,10.1.1.9,33,-0.010,-0.010,-0.010,0.000,0.000,0.000
1644362274815853056,2022-02-08-23:17:54,10.1.1.9,32,-0.020,-0.020,-0.020,0.000,0.000,0.000
1644362275115585024,2022-02-08-23:17:55,10.1.1.9,29,-0.050,-0.050,-0.050,0.000,0.000,0.000
1644362275215174912,2022-02-08-23:17:55,10.1.1.9,27,-0.060,-0.060,-0.060,0.000,0.000,0.000
1644362275315001856,2022-02-08-23:17:55,10.1.1.9,27,-0.070,-0.070,-0.070,0.000,0.000,0.000
1644362275415420928,2022-02-08-23:17:55,10.1.1.9,26,-0.080,-0.080,-0.080,0.000,0.000,0.000
1644362275515717888,2022-02-08-23:17:55,10.1.1.9,23,-0.090,-0.090,-0.090,0.000,0.000,0.000
1644362275695784192,2022-02-08-23:17:55,10.1.1.9,1,-0.090,-0.090,-0.090,0.000,0.000,0.000
1644362276035887872,2022-02-08-23:17:56,10.1.1.9,39,-0.060,-0.060,-0.060,0.000,0.000,0.000
1644362276135200000,2022-02-08-23:17:56,10.1.1.9,39,-0.050,-0.050,-0.050,0.000,0.000,0.000
1644362276235969024,2022-02-08-23:17:56,10.1.1.9,39,-0.040,-0.040,-0.040,0.000,0.000,0.000
1644362276335625984,2022-02-08-23:17:56,10.1.1.9,38,-0.030,-0.030,-0.030,0.000,0.000,0.000
1644362276436286976,2022-02-08-23:17:56,10.1.1.9,37,-0.020,-0.020,-0.020,0.000,0.000,0.000
1644362276536224000,2022-02-08-23:17:56,10.1.1.9,35,-0.010,-0.010,-0.010,0.000,0.000,0.000
1644362276636846080,2022-02-08-23:17:56,10.1.1.9,35,0.000,0.000,0.000,0.000,0.000,0.000
1644362276735630080,2022-02-08-23:17:56,10.1.1.9,34,0.010,0.010,0.010,0.000,0.000,0.000
1644362276835379968,2022-02-08-23:17:56,10.1.1.9,33,0.020,0.020,0.020,0.000,0.000,0.000
1644362277435673088,2022-02-08-23:17:57,10.1.1.9,28,0.080,0.080,0.080,0.000,0.000,0.000
1644362277535279104,2022-02-08-23:17:57,10.1.1.9,27,0.090,0.090,0.090,0.000,0.000,0.000
1644362277635622912,2022-02-08-23:17:57,10.1.1.9,26,0.100,0.100,0.100,0.000,0.000,0.000
1644362277735729920,2022-02-08-23:17:57,10.1.1.9,24,0.090,0.090,0.090,0.000,0.000,0.000
1644362277835294976,2022-02-08-23:17:57,10.1.1.9,24,0.080,0.080,0.080,0.000,0.000,0.000
1644362277935975168,2022-02-08-23:17:57,10.1.1.9,23,0.070,0.070,0.070,0.000,0.000,0.000
1644362278355278080,2022-02-08-23:17:58,10.1.1.9,38,0.030,0.030,0.030,0.000,0.000,0.000
1644362278455333120,2022-02-08-23:17:58,10.1.1.9,38,0.020,0.020,0.020,0.000,0.000,0.000
1644362278555648000,2022-02-08-23:17:58,10.1.1.9,37,0.010,0.010,0.010,0.000,0.000,0.000
1644362278655680768,2022-02-08-23:17:58,10.1.1.9,34,0.000,0.000,0.000,0.000,0.000,0.000
1644362279055692032,2022-02-08-23:17:59,10.1.1.9,29,-0.040,-0.040,-0.040,0.000,0.000,0.000
1644362279155239168,2022-02-08-23:17:59,10.1.1.9,27,-0.050,-0.050,-0.050,0.000,0.000,0.000
1644362279255933952,2022-02-08-23:17:59,10.1.1.9,27,-0.060,-0.060,-0.060,0.000,0.000,0.000
1644362279355705856,2022-02-08-23:17:59,10.1.1.9,27,-0.070,-0.070,-0.070,0.000,0.000,0.000
1644362279455208960,2022-02-08-23:17:59,10.1.1.9,24,-0.080,-0.080,-0.080,0.000,0.000,0.000
1644362279555564032,2022-02-08-23:17:59,10.1.1.9,23,-0.090,-0.090,-0.090,0.000,0.000,0.000
1644362279654984960,2022-02-08-23:17:59,10.1.1.9,22,-0.100,-0.100,-0.100,0.000,0.000,0.000
1644362279755250944,2022-02-08-23:17:59,10.1.1.9,22,-0.090,-0.090,-0.090,0.000,0.000,0.000
1644362280175795968,2022-02-08-23:18:00,10.1.1.9,39,-0.050,-0.050,-0.050,0.000,0.000,0.000
1644362280275427072,2022-02-08-23:18:00,10.1.1.9,38,-0.040,-0.040,-0.040,0.000,0.000,0.000
1644362280375677952,2022-02-08-23:18:00,10.1.1.9,38,-0.030,-0.030,-0.030,0.000,0.000,0.000
1644362280475086848,2022-02-08-23:18:00,10.1.1.9,38,-0.020,-0.020,-0.020,0.000,0.000,0.000
1644362280575443968,2022-02-08-23:18:00,10.1.1.9,37,-0.010,-0.010,-0.010,0.000,0.000,0.000
1644362280675388160,2022-02-08-23:18:00,10.1.1.9,36,0.000,0.000,0.000,0.000,0.000,0.000
1644362280775552000,2022-02-08-23:18:00,10.1.1.9,36,0.010,0.010,0.010,0.000,0.000,0.000
1644362280875702016,2022-02-08-23:18:00,10.1.1.9,35,0.020,0.020,0.020,0.000,0.000,0.000
1644362280975540992,2022-02-08-23:18:00,10.1.1.9,33,0.030,0.030,0.030,0.000,0.000,0.000
1644362281075412992,2022-02-08-23:18:01,10.1.1.9,33,0.040,0.040,0.040,0.000,0.000,0.000
1644362281675707136,2022-02-08-23:18:01,10.1.1.9,29,0.100,0.100,0.100,0.000,0.000,0.000
1644362281775430912,2022-02-08-23:18:01,10.1.1.9,28,0.090,0.090,0.090,0.000,0.000,0.000
1644362281877454080,2022-02-08-23:18:01,10.1.1.9,28,0.080,0.080,0.080,0.000,0.000,0.000
1644362281975796992,2022-02-08-23:18:01,10.1.1.9,27,0.070,0.070,0.070,0.000,0.000,0.000
1644362282075655936,2022-02-08-23:18:02,10.1.1.9,25,0.060,0.060,0.060,0.000,0.000,0.000
1644362282175246080,2022-02-08-23:18:02,10.1.1.9,23,0.050,0.050,0.050,0.000,0.000,0.000
1644362282275577088,2022-02-08-23:18:02,10.1.1.9,22,0.040,0.040,0.040,0.000,0.000,0.000
1644362282375202816,2022-02-08-23:18:02,10.1.1.9,22,0.030,0.030,0.030,0.000,0.000,0.000
1644362282896044032,2022-02-08-23:18:02,10.1.1.9,38,-0.020,-0.020,-0.020,0.000,0.000,0.000
1644362282995655936,2022-02-08-23:18:02,10.1.1.9,38,-0.030,-0.030,-0.030,0.000,0.000,0.000
1644362283095798016,2022-02-08-23:18:03,10.1.1.9,38,-0.040,-0.040,-0.040,0.000,0.000,0.000
1644362283195781120,2022-02-08-23:18:03,10.1.1.9,37,-0.050,-0.050,-0.050,0.000,0.000,0.000
1644362283295344128,2022-02-08-23:18:03,10.1.1.9,36,-0.060,-0.060,-0.060,0.000,0.000,0.000
1644362283395476992,2022-02-08-23:18:03,10.1.1.9,36,-0.070,-0.070,-0.070,0.000,0.000,0.000
1644362283495497984,2022-02-08-23:18:03,10.1.1.9,35,-0.080,-0.080,-0.080,0.000,0.000,0.000
1644362283595415040,2022-02-08-23:18:03,10.1.1.9,35,-0.090,-0.090,-0.090,0.000,0.000,0.000
1644362283695426816,2022-02-08-23:18:03,10.1.1.9,34,-0.100,-0.100,-0.100,0.000,0.000,0.000
1644362284496035072,2022-02-08-23:18:04,10.1.1.9,29,-0.020,-0.020,-0.020,0.000,0.000,0.000
1644362284596187136,2022-02-08-23:18:04,10.1.1.9,28,-0.010,-0.010,-0.010,0.000,0.000,0.000
1644362284695621120,2022-02-08-23:18:04,10.1.1.9,27,-0.000,-0.000,-0.000,0.000,0.000,0.000
1644362284796215040,2022-02-08-23:18:04,10.1.1.9,27,0.010,0.010,0.010,0.000,0.000,0.000
1644362284895724032,2022-02-08-23:18:04,10.1.1.9,27,0.020,0.020,0.020,0.000,0.000,0.000
1644362284995492864,2022-02-08-23:18:04,10.1.1.9,25,0.030,0.030,0.030,0.000,0.000,0.000
1644362285095526912,2022-02-08-23:18:05,10.1.1.9,24,0.040,0.040,0.040,0.000,0.000,0.000
1644362285195823872,2022-02-08-23:18:05,10.1.1.9,24,0.050,0.050,0.050,0.000,0.000,0.000
1644362285296148992,2022-02-08-23:18:05,10.1.1.9,24,0.060,0.060,0.060,0.000,0.000,0.000
1644362285395955200,2022-02-08-23:18:05,10.1.1.9,23,0.070,0.070,0.070,0.000,0.000,0.000
1644362285615878144,2022-02-08-23:18:05,10.1.1.9,28,0.090,0.090,0.090,0.000,0.000,0.000
1644362285715672064,2022-02-08-23:18:05,10.1.1.9,27,0.100,0.100,0.100,0.000,0.000,0.000
1644362285815661056,2022-02-08-23:18:05,10.1.1.9,27,0.090,0.090,0.090,0.000,0.000,0.000
1644362285915292928,2022-02-08-23:18:05,10.1.1.9,26,0.080,0.080,0.080,0.000,0.000,0.000
1644362286015755776,2022-02-08-23:18:06,10.1.1.9,25,0.070,0.070,0.070,0.000,0.000,0.000
1644362286116152064,2022-02-08-23:18:06,10.1.1.9,22,0.060,0.060,0.060,0.000,0.000,0.000
1644362286215851008,2022-02-08-23:18:06,10.1.1.9,22,0.050,0.050,0.050,0.000,0.000,0.000
1644362286536829952,2022-02-08-23:18:06,10.1.1.9,39,0.020,0.020,0.020,0.000,0.000,0.000
1644362286635672064,2022-02-08-23:18:06,10.1.1.9,39,0.010,0.010,0.010,0.000,0.000,0.000
1644362286735697920,2022-02-08-23:18:06,10.1.1.9,38,0.000,0.000,0.000,0.000,0.000,0.000
1644362286835475968,2022-02-08-23:18:06,10.1.1.9,38,-0.010,-0.010,-0.010,0.000,0.000,0.000
1644362286935982848,2022-02-08-23:18:06,10.1.1.9,37,-0.020,-0.020,-0.020,0.000,0.000,0.000
1644362287035614976,2022-02-08-23:18:07,10.1.1.9,36,-0.030,-0.030,-0.030,0.000,0.000,0.000
1644362287135971072,2022-02-08-23:18:07,10.1.1.9,36,-0.040,-0.040,-0.040,0.000,0.000,0.000
1644362287236128000,2022-02-08-23:18:07,10.1.1.9,34,-0.050,-0.050,-0.050,0.000,0.000,0.000
1644362287335792128,2022-02-08-23:18:07,10.1.1.9,33,-0.060,-0.060,-0.060,0.000,0.000,0.000
1644362287936041216,2022-02-08-23:18:07,10.1.1.9,28,-0.080,-0.080,-0.080,0.000,0.000,0.000
1644362288036186880,2022-02-08-23:18:08,10.1.1.9,28,-0.070,-0.070,-0.070,0.000,0.000,0.000
1644362288135751936,2022-02-08-23:18:08,10.1.1.9,27,-0.060,-0.060,-0.060,0.000,0.000,0.000
1644362288236112128,2022-02-08-23:18:08,10.1.1.9,27,-0.050,-0.050,-0.050,0.000,0.000,0.000
1644362288335709184,2022-02-08-23:18:08,10.1.1.9,26,-0.040,-0.040,-0.040,0.000,0.000,0.000
1644362288436228096,2022-02-08-23:18:08,10.1.1.9,26,-0.030,-0.030,-0.030,0.000,0.000,0.000
1644362288536116992,2022-02-08-23:18:08,10.1.1.9,25,-0.020,-0.020,-0.020,0.000,0.000,0.000
1644362288635653888,2022-02-08-23:18:08,10.1.1.9,25,-0.010,-0.010,-0.010,0.000,0.000,0.000
1644362288735820032,2022-02-08-23:18:08,10.1.1.9,25,0.000,0.000,0.000,0.000,0.000,0.000
1644362288836431872,2022-02-08-23:18:08,10.1.1.9,24,0.010,0.010,0.010,0.000,0.000,0.000
1644362288935553024,2022-02-08-23:18:08,10.1.1.9,23,0.020,0.020,0.020,0.000,0.000,0.000
1644362289036344064,2022-02-08-23:18:09,10.1.1.9,22,0.030,0.030,0.030,0.000,0.000,0.000
1644362289136195072,2022-02-08-23:18:09,10.1.1.9,22,0.040,0.040,0.040,0.000,0.000,0.000
1644362289655546880,2022-02-08-23:18:09,10.1.1.9,38,0.090,0.090,0.090,0.000,0.000,0.000
1644362289756017920,2022-02-08-23:18:09,10.1.1.9,38,0.100,0.100,0.100,0.000,0.000,0.000
1644362289856043008,2022-02-08-23:18:09,10.1.1.9,38,0.090,0.090,0.090,0.000,0.000,0.000
1644362289956110080,2022-02-08-23:18:09,10.1.1.9,37,0.080,0.080,0.080,0.000,0.000,0.000
1644362290056169984,2022-02-08-23:18:10,10.1.1.9,37,0.070,0.070,0.070,0.000,0.000,0.000
1644362290155878144,2022-02-08-23:18:10,10.1.1.9,37,0.060,0.060,0.060,0.000,0.000,0.000
1644362290255752960,2022-02-08-23:18:10,10.1.1.9,36,0.050,0.050,0.050,0.000,0.000,0.000
1644362290355534080,2022-02-08-23:18:10,10.1.1.9,35,0.040,0.040,0.040,0.000,0.000,0.000
1644362290456072960,2022-02-08-23:18:10,10.1.1.9,35,0.030,0.030,0.030,0.000,0.000,0.000
1644362290555668224,2022-02-08-23:18:10,10.1.1.9,34,0.020,0.020,0.020,0.000,0.000,0.000
1644362290656097024,2022-02-08-23:18:10,10.1.1.9,34,0.010,0.010,0.010,0.000,0.000,0.000
1644362290755368960,2022-02-08-23:18:10,10.1.1.9,33,0.000,0.000,0.000,0.000,0.000,0.000
1644362290855931136,2022-02-08-23:18:10,10.1.1.9,32,-0.010,-0.010,-0.010,0.000,0.000,0.000
1644362290955902976,2022-02-08-23:18:10,10.1.1.9,32,-0.020,-0.020,-0.020,0.000,0.000,0.000
1644362291055793152,2022-02-08-23:18:11,10.1.1.9,31,-0.030,-0.030,-0.030,0.000,0.000,0.000
1644362291156116992,2022-02-08-23:18:11,10.1.1.9,29,-0.040,-0.040,-0.040,0.000,0.000,0.000
1644362291255846912,2022-02-08-23:18:11,10.1.1.9,28,-0.050,-0.050,-0.050,0.000,0.000,0.000
1644362291355632128,2022-02-08-23:18:11,10.1.1.9,27,-0.060,-0.060,-0.060,0.000,0.000,0.000
1644362291455491072,2022-02-08-23:18:11,10.1.1.9,27,-0.070,-0.070,-0.070,0.000,0.000,0.000
1644362291555757056,2022-02-08-23:18:11,10.1.1.9,26,-0.080,-0.080,-0.080,0.000,0.000,0.000
1644362291656267776,2022-02-08-23:18:11,10.1.1.9,26,-0.090,-0.090,-0.090,0.000,0.000,0.000
1644362291755944960,2022-02-08-23:18:11,10.1.1.9,25,-0.100,-0.100,-0.100,0.000,0.000,0.000
1644362291856101120,2022-02-08-23:18:11,10.1.1.9,25,-0.090,-0.090,-0.090,0.000,0.000,0.000
1644362291957291008,2022-02-08-23:18:11,10.1.1.9,24,-0.080,-0.080,-0.080,0.000,0.000,0.000
1644362292055991808,2022-02-08-23:18:12,10.1.1.9,24,-0.070,-0.070,-0.070,0.000,0.000,0.000
1644362292155937024,2022-02-08-23:18:12,10.1.1.9,24,-0.060,-0.060,-0.060,0.000,0.000,0.000
1644362292255453184,2022-02-08-23:18:12,10.1.1.9,23,-0.050,-0.050,-0.050,0.000,0.000,0.000
1644362292355886080,2022-02-08-23:18:12,10.1.1.9,22,-0.040,-0.040,-0.040,0.000,0.000,0.000
1644362292776220928,2022-02-08-23:18:12,10.1.1.9,39,0.000,0.000,0.000,0.000,0.000,0.000
1644362292875965952,2022-02-08-23:18:12,10.1.1.9,39,0.010,0.010,0.010,0.000,0.000,0.000
1644362292976392960,2022-02-08-23:18:12,10.1.1.9,39,0.020,0.020,0.020,0.000,0.000,0.000
1644362293075793920,2022-02-08-23:18:13,10.1.1.9,38,0.030,0.030,0.030,0.000,0.000,0.000
1644362293176343040,2022-02-08-23:18:13,10.1.1.9,37,0.040,0.040,0.040,0.000,0.000,0.000
1644362293276067072,2022-02-08-23:18:13,10.1.1.9,37,0.050,0.050,0.050,0.000,0.000,0.000
1644362293376004864,2022-02-08-23:18:13,10.1.1.9,36,0.060,0.060,0.060,0.000,0.000,0.000
1644362293476201984,2022-02-08-23:18:13,10.1.1.9,34,0.070,0.070,0.070,0.000,0.000,0.000
1644362293576102144,2022-02-08-23:18:13,10.1.1.9,34,0.080,0.080,0.080,0.000,0.000,0.000
1644362293676357888,2022-02-08-23:18:13,10.1.1.9,33,0.090,0.090,0.090,0.000,0.000,0.000
1644362293775963904,2022-02-08-23:18:13,10.1.1.9,33,0.100,0.100,0.100,0.000,0.000,0.000
1644362293876089088,2022-02-08-23:18:13,10.1.1.9,32,0.090,0.090,0.090,0.000,0.000,0.000
1644362293976179968,2022-02-08-23:18:13,10.1.1.9,32,0.080,0.080,0.080,0.000,0.000,0.000
1644362294075969024,2022-02-08-23:18:14,10.1.1.9,32,0.070,0.070,0.070,0.000,0.000,0.000
1644362294576539904,2022-02-08-23:18:14,10.1.1.9,29,0.020,0.020,0.020,0.000,0.000,0.000
1644362294675714048,2022-02-08-23:18:14,10.1.1.9,28,0.010,0.010,0.010,0.000,0.000,0.000
1644362294776425984,2022-02-08-23:18:14,10.1.1.9,28,0.000,0.000,0.000,0.000,0.000,0.000
1644362294876985088,2022-02-08-23:18:14,10.1.1.9,27,-0.010,-0.010,-0.010,0.000,0.000,0.000
1644362294976971008,2022-02-08-23:18:14,10.1.1.9,24,-0.020,-0.020,-0.020,0.000,0.000,0.000
1644362295077004800,2022-02-08-23:18:15,10.1.1.9,22,-0.030,-0.030,-0.030,0.000,0.000,0.000
1644362295176187904,2022-02-08-23:18:15,10.1.1.9,22,-0.040,-0.040,-0.040,0.000,0.000,0.000
1644362295276058880,2022-02-08-23:18:15,10.1.1.9,21,-0.050,-0.050,-0.050,0.000,0.000,0.000
1644362295395927808,2022-02-08-23:18:15,10.1.1.9,25,-0.060,-0.060,-0.060,0.000,0.000,0.000
1644362295495913984,2022-02-08-23:18:15,10.1.1.9,24,-0.070,-0.070,-0.070,0.000,0.000,0.000
1644362295596625920,2022-02-08-23:18:15,10.1.1.9,23,-0.080,-0.080,-0.080,0.000,0.000,0.000
1644362295696016128,2022-02-08-23:18:15,10.1.1.9,23,-0.090,-0.090,-0.090,0.000,0.000,0.000
1644362295796196864,2022-02-08-23:18:15,10.1.1.9,22,-0.100,-0.100,-0.100,0.000,0.000,0.000
1644362295895961088,2022-02-08-23:18:15,10.1.1.9,21,-0.090,-0.090,-0.090,0.000,0.000,0.000
1644362295996130816,2022-02-08-23:18:15,10.1.1.9,21,-0.080,-0.080,-0.080,0.000,0.000,0.000
1644362296415660032,2022-02-08-23:18:16,10.1.1.9,37,-0.040,-0.040,-0.040,0.000,0.000,0.000
1644362296515736064,2022-02-08-23:18:16,10.1.1.9,37,-0.030,-0.030,-0.030,0.000,0.000,0.000
1644362296615668992,2022-02-08-23:18:16,10.1.1.9,36,-0.020,-0.020,-0.020,0.000,0.000,0.000
1644362296715864064,2022-02-08-23:18:16,10.1.1.9,36,-0.010,-0.010,-0.010,0.000,0.000,0.000
1644362296816123136,2022-02-08-23:18:16,10.1.1.9,35,0.000,0.000,0.000,0.000,0.000,0.000
