FedericoMungari/DigitalTwin_service/01_WiredScenario/Output/Output_script/script_rosapi_2_output_robots6_freq0_3.txt
timestamp,date,node,latency,joint_1,joint_2,joint_3,joint_4,joint_5,joint_6
1644905246688509952,2022-02-15-06:07:26,10.1.1.4,8,-0.100,-0.100,-0.100,0.000,-0.000,0.000
1644905246767811072,2022-02-15-06:07:26,10.1.1.4,38,-0.090,-0.090,-0.090,0.000,0.000,0.000
1644905246807728896,2022-02-15-06:07:26,10.1.1.4,27,-0.080,-0.080,-0.080,0.000,0.000,0.000
1644905246867845120,2022-02-15-06:07:26,10.1.1.4,37,-0.070,-0.070,-0.070,0.000,0.000,0.000
1644905246907874048,2022-02-15-06:07:26,10.1.1.4,25,-0.060,-0.060,-0.060,0.000,0.000,0.000
1644905246967474944,2022-02-15-06:07:26,10.1.1.4,33,-0.050,-0.050,-0.050,0.000,0.000,0.000
1644905247007392000,2022-02-15-06:07:27,10.1.1.4,22,-0.040,-0.040,-0.040,0.000,0.000,0.000
1644905247067919872,2022-02-15-06:07:27,10.1.1.4,30,-0.030,-0.030,-0.030,0.000,0.000,0.000
1644905247128077056,2022-02-15-06:07:27,10.1.1.4,38,-0.020,-0.020,-0.020,0.000,0.000,0.000
1644905247169108992,2022-02-15-06:07:27,10.1.1.4,28,-0.010,-0.010,-0.010,0.000,0.000,0.000
1644905247227847168,2022-02-15-06:07:27,10.1.1.4,36,0.000,0.000,0.000,0.000,0.000,0.000
1644905247267611136,2022-02-15-06:07:27,10.1.1.4,25,0.010,0.010,0.010,0.000,0.000,0.000
1644905247327622912,2022-02-15-06:07:27,10.1.1.4,33,0.020,0.020,0.020,0.000,0.000,0.000
1644905247368350976,2022-02-15-06:07:27,10.1.1.4,22,0.030,0.030,0.030,0.000,0.000,0.000
1644905247427661056,2022-02-15-06:07:27,10.1.1.4,31,0.040,0.040,0.040,0.000,0.000,0.000
1644905247468000000,2022-02-15-06:07:27,10.1.1.4,20,0.050,0.050,0.050,0.000,0.000,0.000
1644905247528083968,2022-02-15-06:07:27,10.1.1.4,30,0.060,0.060,0.060,0.000,0.000,0.000
1644905247567603968,2022-02-15-06:07:27,10.1.1.4,19,0.070,0.070,0.070,0.000,0.000,0.000
1644905247628271104,2022-02-15-06:07:27,10.1.1.4,29,0.080,0.080,0.080,0.000,0.000,0.000
1644905247687475968,2022-02-15-06:07:27,10.1.1.4,38,0.090,0.090,0.090,0.000,0.000,0.000
1644905247728147968,2022-02-15-06:07:27,10.1.1.4,28,0.100,0.100,0.100,0.000,0.000,0.000
1644905247787867136,2022-02-15-06:07:27,10.1.1.4,37,0.090,0.090,0.090,0.000,0.000,0.000
1644905247827896064,2022-02-15-06:07:27,10.1.1.4,26,0.080,0.080,0.080,0.000,0.000,0.000
1644905247888499968,2022-02-15-06:07:27,10.1.1.4,35,0.070,0.070,0.070,0.000,0.000,0.000
1644905247927793920,2022-02-15-06:07:27,10.1.1.4,25,0.060,0.060,0.060,0.000,0.000,0.000
1644905247988210944,2022-02-15-06:07:27,10.1.1.4,34,0.050,0.050,0.050,0.000,0.000,0.000
1644905248028240896,2022-02-15-06:07:28,10.1.1.4,22,0.040,0.040,0.040,0.000,0.000,0.000
1644905248087852032,2022-02-15-06:07:28,10.1.1.4,31,0.030,0.030,0.030,0.000,0.000,0.000
1644905248127437056,2022-02-15-06:07:28,10.1.1.4,19,0.020,0.020,0.020,0.000,0.000,0.000
1644905248188092928,2022-02-15-06:07:28,10.1.1.4,27,0.010,0.010,0.010,0.000,0.000,0.000
1644905248247752960,2022-02-15-06:07:28,10.1.1.4,36,0.000,0.000,0.000,0.000,0.000,0.000
1644905248289378816,2022-02-15-06:07:28,10.1.1.4,25,-0.010,-0.010,-0.010,0.000,0.000,0.000
1644905248349425920,2022-02-15-06:07:28,10.1.1.4,35,-0.020,-0.020,-0.020,0.000,0.000,0.000
1644905248388067840,2022-02-15-06:07:28,10.1.1.4,24,-0.030,-0.030,-0.030,0.000,0.000,0.000
1644905248448669952,2022-02-15-06:07:28,10.1.1.4,32,-0.040,-0.040,-0.040,0.000,0.000,0.000
1644905248488632832,2022-02-15-06:07:28,10.1.1.4,19,-0.049,-0.049,-0.049,0.000,0.000,0.000
1644905248547853056,2022-02-15-06:07:28,10.1.1.4,28,-0.060,-0.060,-0.060,0.000,0.000,0.000
1644905248608241152,2022-02-15-06:07:28,10.1.1.4,37,-0.070,-0.070,-0.070,0.000,0.000,0.000
1644905248647191040,2022-02-15-06:07:28,10.1.1.4,27,-0.080,-0.080,-0.080,0.000,0.000,0.000
1644905248708136192,2022-02-15-06:07:28,10.1.1.4,35,-0.090,-0.090,-0.090,0.000,0.000,0.000
1644905248747948800,2022-02-15-06:07:28,10.1.1.4,24,-0.100,-0.100,-0.100,0.000,0.000,0.000
1644905248807464960,2022-02-15-06:07:28,10.1.1.4,33,-0.090,-0.090,-0.090,0.000,0.000,0.000
1644905248848004096,2022-02-15-06:07:28,10.1.1.4,22,-0.080,-0.080,-0.080,0.000,0.000,0.000
1644905248907522816,2022-02-15-06:07:28,10.1.1.4,32,-0.070,-0.070,-0.070,0.000,0.000,0.000
1644905248948066048,2022-02-15-06:07:28,10.1.1.4,20,-0.060,-0.060,-0.060,0.000,0.000,0.000
1644905249007672064,2022-02-15-06:07:29,10.1.1.4,29,-0.050,-0.050,-0.050,0.000,0.000,0.000
1644905249067601920,2022-02-15-06:07:29,10.1.1.4,38,-0.040,-0.040,-0.040,0.000,0.000,0.000
1644905249119642112,2022-02-15-06:07:29,10.1.1.4,27,-0.030,-0.030,-0.030,0.000,0.000,0.000
1644905249170212096,2022-02-15-06:07:29,10.1.1.4,36,-0.020,-0.020,-0.020,0.000,0.000,0.000
1644905249212020992,2022-02-15-06:07:29,10.1.1.4,25,-0.010,-0.010,-0.010,0.000,0.000,0.000
1644905249268163072,2022-02-15-06:07:29,10.1.1.4,33,0.000,0.000,0.000,0.000,0.000,0.000
1644905249307974144,2022-02-15-06:07:29,10.1.1.4,22,0.010,0.010,0.010,0.000,0.000,0.000
1644905249367767040,2022-02-15-06:07:29,10.1.1.4,31,0.020,0.020,0.020,0.000,0.000,0.000
1644905249408893184,2022-02-15-06:07:29,10.1.1.4,21,0.030,0.030,0.030,0.000,0.000,0.000
1644905249467646976,2022-02-15-06:07:29,10.1.1.4,30,0.040,0.040,0.040,0.000,0.000,0.000
1644905249507731968,2022-02-15-06:07:29,10.1.1.4,20,0.050,0.050,0.050,0.000,0.000,0.000
1644905249568180992,2022-02-15-06:07:29,10.1.1.4,30,0.060,0.060,0.060,0.000,0.000,0.000
1644905249607637760,2022-02-15-06:07:29,10.1.1.4,19,0.070,0.070,0.070,0.000,0.000,0.000
1644905249667744000,2022-02-15-06:07:29,10.1.1.4,29,0.080,0.080,0.080,0.000,0.000,0.000
1644905249727809024,2022-02-15-06:07:29,10.1.1.4,38,0.090,0.090,0.090,0.000,0.000,0.000
1644905249768248064,2022-02-15-06:07:29,10.1.1.4,28,0.100,0.100,0.100,0.000,0.000,0.000
1644905249827565824,2022-02-15-06:07:29,10.1.1.4,37,0.090,0.090,0.090,0.000,0.000,0.000
1644905249867787008,2022-02-15-06:07:29,10.1.1.4,26,0.080,0.080,0.080,0.000,0.000,0.000
1644905249928030976,2022-02-15-06:07:29,10.1.1.4,33,0.070,0.070,0.070,0.000,0.000,0.000
1644905249968221952,2022-02-15-06:07:29,10.1.1.4,23,0.060,0.060,0.060,0.000,0.000,0.000
1644905250027766016,2022-02-15-06:07:30,10.1.1.4,32,0.050,0.050,0.050,0.000,0.000,0.000
1644905250067881216,2022-02-15-06:07:30,10.1.1.4,22,0.040,0.040,0.040,0.000,0.000,0.000
1644905250127950080,2022-02-15-06:07:30,10.1.1.4,31,0.030,0.030,0.030,0.000,0.000,0.000
1644905250168620032,2022-02-15-06:07:30,10.1.1.4,20,0.020,0.020,0.020,0.000,0.000,0.000
1644905250228009984,2022-02-15-06:07:30,10.1.1.4,29,0.010,0.010,0.010,0.000,0.000,0.000
1644905250288491008,2022-02-15-06:07:30,10.1.1.4,38,0.000,0.000,0.000,0.000,0.000,0.000
1644905250488118016,2022-02-15-06:07:30,10.1.1.4,32,-0.030,-0.030,-0.030,0.000,0.000,0.000
1644905250527582976,2022-02-15-06:07:30,10.1.1.4,21,-0.040,-0.040,-0.040,0.000,0.000,0.000
1644905250588172032,2022-02-15-06:07:30,10.1.1.4,29,-0.050,-0.050,-0.050,0.000,0.000,0.000
1644905250647718912,2022-02-15-06:07:30,10.1.1.4,38,-0.060,-0.060,-0.060,0.000,0.000,0.000
1644905250688409088,2022-02-15-06:07:30,10.1.1.4,27,-0.070,-0.070,-0.070,0.000,0.000,0.000
1644905250748923904,2022-02-15-06:07:30,10.1.1.4,27,-0.080,-0.080,-0.080,0.000,0.000,0.000
1644905250808623104,2022-02-15-06:07:30,10.1.1.4,33,-0.090,-0.090,-0.090,0.000,0.000,0.000
1644905250848043008,2022-02-15-06:07:30,10.1.1.4,20,-0.100,-0.100,-0.100,0.000,0.000,0.000
1644905250908642048,2022-02-15-06:07:30,10.1.1.4,28,-0.090,-0.090,-0.090,0.000,0.000,0.000
1644905250967784960,2022-02-15-06:07:30,10.1.1.4,34,-0.080,-0.080,-0.080,0.000,0.000,0.000
1644905251028819200,2022-02-15-06:07:31,10.1.1.4,38,-0.070,-0.070,-0.070,0.000,0.000,0.000
1644905251068110848,2022-02-15-06:07:31,10.1.1.4,27,-0.060,-0.060,-0.060,0.000,0.000,0.000
1644905251128703232,2022-02-15-06:07:31,10.1.1.4,36,-0.050,-0.050,-0.050,0.000,0.000,0.000
1644905251167923968,2022-02-15-06:07:31,10.1.1.4,25,-0.040,-0.040,-0.040,0.000,0.000,0.000
1644905251231313920,2022-02-15-06:07:31,10.1.1.4,34,-0.030,-0.030,-0.030,0.000,0.000,0.000
1644905251268711936,2022-02-15-06:07:31,10.1.1.4,23,-0.020,-0.020,-0.020,0.000,0.000,0.000
1644905251328356096,2022-02-15-06:07:31,10.1.1.4,29,-0.010,-0.010,-0.010,0.000,0.000,0.000
1644905251387386112,2022-02-15-06:07:31,10.1.1.4,38,0.000,0.000,0.000,0.000,0.000,0.000
1644905251428452864,2022-02-15-06:07:31,10.1.1.4,28,0.010,0.010,0.010,0.000,0.000,0.000
1644905251493040128,2022-02-15-06:07:31,10.1.1.4,37,0.020,0.020,0.020,0.000,0.000,0.000
1644905251527489024,2022-02-15-06:07:31,10.1.1.4,26,0.030,0.030,0.030,0.000,0.000,0.000
1644905251587604992,2022-02-15-06:07:31,10.1.1.4,35,0.040,0.040,0.040,0.000,0.000,0.000
1644905251627918080,2022-02-15-06:07:31,10.1.1.4,24,0.050,0.050,0.050,0.000,0.000,0.000
1644905251688559104,2022-02-15-06:07:31,10.1.1.4,33,0.060,0.060,0.060,0.000,0.000,0.000
1644905251727960064,2022-02-15-06:07:31,10.1.1.4,22,0.070,0.070,0.070,0.000,0.000,0.000
1644905251788944128,2022-02-15-06:07:31,10.1.1.4,32,0.080,0.080,0.080,0.000,0.000,0.000
1644905251828655872,2022-02-15-06:07:31,10.1.1.4,21,0.090,0.090,0.090,0.000,0.000,0.000
1644905251888248832,2022-02-15-06:07:31,10.1.1.4,29,0.100,0.100,0.100,0.000,0.000,0.000
1644905251927964928,2022-02-15-06:07:31,10.1.1.4,19,0.091,0.091,0.091,0.000,0.000,0.000
1644905251987762944,2022-02-15-06:07:31,10.1.1.4,27,0.080,0.080,0.080,0.000,0.000,0.000
1644905252048079872,2022-02-15-06:07:32,10.1.1.4,37,0.070,0.070,0.070,0.000,0.000,0.000
1644905252091342080,2022-02-15-06:07:32,10.1.1.4,26,0.060,0.060,0.060,0.000,0.000,0.000
1644905252147919872,2022-02-15-06:07:32,10.1.1.4,34,0.050,0.050,0.050,0.000,0.000,0.000
1644905252188047872,2022-02-15-06:07:32,10.1.1.4,23,0.040,0.040,0.040,0.000,0.000,0.000
1644905252247515904,2022-02-15-06:07:32,10.1.1.4,32,0.030,0.030,0.030,0.000,0.000,0.000
1644905252293255936,2022-02-15-06:07:32,10.1.1.4,22,0.020,0.020,0.020,0.000,0.000,0.000
1644905252348558848,2022-02-15-06:07:32,10.1.1.4,31,0.010,0.010,0.010,0.000,0.000,0.000
1644905252388101120,2022-02-15-06:07:32,10.1.1.4,20,0.000,0.000,0.000,0.000,0.000,0.000
1644905252448980992,2022-02-15-06:07:32,10.1.1.4,29,-0.010,-0.010,-0.010,0.000,0.000,0.000
1644905252508367104,2022-02-15-06:07:32,10.1.1.4,38,-0.020,-0.020,-0.020,0.000,0.000,0.000
1644905252548707840,2022-02-15-06:07:32,10.1.1.4,28,-0.030,-0.030,-0.030,0.000,0.000,0.000
1644905252607964928,2022-02-15-06:07:32,10.1.1.4,37,-0.040,-0.040,-0.040,0.000,0.000,0.000
1644905252648802048,2022-02-15-06:07:32,10.1.1.4,26,-0.050,-0.050,-0.050,0.000,0.000,0.000
1644905252708662016,2022-02-15-06:07:32,10.1.1.4,36,-0.060,-0.060,-0.060,0.000,0.000,0.000
1644905252748236800,2022-02-15-06:07:32,10.1.1.4,25,-0.070,-0.070,-0.070,0.000,0.000,0.000
1644905252809387008,2022-02-15-06:07:32,10.1.1.4,34,-0.080,-0.080,-0.080,0.000,0.000,0.000
1644905252847831040,2022-02-15-06:07:32,10.1.1.4,24,-0.090,-0.090,-0.090,0.000,0.000,0.000
1644905252909091840,2022-02-15-06:07:32,10.1.1.4,33,-0.100,-0.100,-0.100,0.000,0.000,0.000
1644905252948878080,2022-02-15-06:07:32,10.1.1.4,22,-0.090,-0.090,-0.090,0.000,0.000,0.000
1644905253008343808,2022-02-15-06:07:33,10.1.1.4,31,-0.080,-0.080,-0.080,0.000,0.000,0.000
1644905253048232192,2022-02-15-06:07:33,10.1.1.4,21,-0.070,-0.070,-0.070,0.000,0.000,0.000
1644905253108082176,2022-02-15-06:07:33,10.1.1.4,30,-0.060,-0.060,-0.060,0.000,0.000,0.000
1644905253148342016,2022-02-15-06:07:33,10.1.1.4,19,-0.050,-0.050,-0.050,0.000,0.000,0.000
1644905253208240896,2022-02-15-06:07:33,10.1.1.4,28,-0.040,-0.040,-0.040,0.000,0.000,0.000
1644905253268037120,2022-02-15-06:07:33,10.1.1.4,38,-0.030,-0.030,-0.030,0.000,0.000,0.000
1644905253308877056,2022-02-15-06:07:33,10.1.1.4,27,-0.020,-0.020,-0.020,0.000,0.000,0.000
1644905253368797952,2022-02-15-06:07:33,10.1.1.4,36,-0.010,-0.010,-0.010,0.000,0.000,0.000
1644905253408636160,2022-02-15-06:07:33,10.1.1.4,24,0.000,0.000,0.000,0.000,0.000,0.000
1644905253468878080,2022-02-15-06:07:33,10.1.1.4,34,0.010,0.010,0.010,0.000,0.000,0.000
1644905253508802048,2022-02-15-06:07:33,10.1.1.4,23,0.020,0.020,0.020,0.000,0.000,0.000
1644905253568103936,2022-02-15-06:07:33,10.1.1.4,32,0.030,0.030,0.030,0.000,0.000,0.000
1644905253608033024,2022-02-15-06:07:33,10.1.1.4,21,0.040,0.040,0.040,0.000,0.000,0.000
1644905253669555968,2022-02-15-06:07:33,10.1.1.4,31,0.050,0.050,0.050,0.000,0.000,0.000
1644905253728208128,2022-02-15-06:07:33,10.1.1.4,39,0.060,0.060,0.060,0.000,0.000,0.000
1644905253768572160,2022-02-15-06:07:33,10.1.1.4,28,0.070,0.070,0.070,0.000,0.000,0.000
1644905253828192000,2022-02-15-06:07:33,10.1.1.4,37,0.080,0.080,0.080,0.000,0.000,0.000
1644905253868467968,2022-02-15-06:07:33,10.1.1.4,26,0.090,0.090,0.090,0.000,0.000,0.000
1644905253928332032,2022-02-15-06:07:33,10.1.1.4,35,0.100,0.100,0.100,0.000,0.000,0.000
1644905253968308992,2022-02-15-06:07:33,10.1.1.4,23,0.090,0.090,0.090,0.000,0.000,0.000
1644905254028208128,2022-02-15-06:07:34,10.1.1.4,33,0.080,0.080,0.080,0.000,0.000,0.000
1644905254068814080,2022-02-15-06:07:34,10.1.1.4,21,0.070,0.070,0.070,0.000,0.000,0.000
1644905254128158208,2022-02-15-06:07:34,10.1.1.4,30,0.060,0.060,0.060,0.000,0.000,0.000
1644905254188903168,2022-02-15-06:07:34,10.1.1.4,38,0.050,0.050,0.050,0.000,0.000,0.000
1644905254228939008,2022-02-15-06:07:34,10.1.1.4,26,0.040,0.040,0.040,0.000,0.000,0.000
1644905254291610112,2022-02-15-06:07:34,10.1.1.4,34,0.030,0.030,0.030,0.000,0.000,0.000
1644905254331908864,2022-02-15-06:07:34,10.1.1.4,22,0.020,0.020,0.020,0.000,0.000,0.000
1644905254389223936,2022-02-15-06:07:34,10.1.1.4,29,0.010,0.010,0.010,0.000,0.000,0.000
1644905254449299968,2022-02-15-06:07:34,10.1.1.4,38,0.000,0.000,0.000,0.000,0.000,0.000
1644905254489784832,2022-02-15-06:07:34,10.1.1.4,27,-0.010,-0.010,-0.010,0.000,0.000,0.000
1644905254548701952,2022-02-15-06:07:34,10.1.1.4,33,-0.020,-0.020,-0.020,0.000,0.000,0.000
1644905254588419840,2022-02-15-06:07:34,10.1.1.4,19,-0.029,-0.029,-0.029,0.000,0.000,0.000
1644905254648516864,2022-02-15-06:07:34,10.1.1.4,27,-0.040,-0.040,-0.040,0.000,0.000,0.000
1644905254807985920,2022-02-15-06:07:34,10.1.1.4,34,-0.060,-0.060,-0.060,0.000,0.000,0.000
1644905254847927040,2022-02-15-06:07:34,10.1.1.4,23,-0.070,-0.070,-0.070,0.000,0.000,0.000
1644905254908001792,2022-02-15-06:07:34,10.1.1.4,33,-0.080,-0.080,-0.080,0.000,0.000,0.000
1644905254948674048,2022-02-15-06:07:34,10.1.1.4,21,-0.090,-0.090,-0.090,0.000,0.000,0.000
1644905255008564992,2022-02-15-06:07:35,10.1.1.4,30,-0.100,-0.100,-0.100,0.000,0.000,0.000
1644905255068101888,2022-02-15-06:07:35,10.1.1.4,38,-0.090,-0.090,-0.090,0.000,0.000,0.000
1644905255108807936,2022-02-15-06:07:35,10.1.1.4,27,-0.080,-0.080,-0.080,0.000,0.000,0.000
1644905255169705984,2022-02-15-06:07:35,10.1.1.4,35,-0.070,-0.070,-0.070,0.000,0.000,0.000
1644905255208223232,2022-02-15-06:07:35,10.1.1.4,23,-0.060,-0.060,-0.060,0.000,0.000,0.000
1644905255267920896,2022-02-15-06:07:35,10.1.1.4,30,-0.050,-0.050,-0.050,0.000,0.000,0.000
1644905255308836864,2022-02-15-06:07:35,10.1.1.4,19,-0.040,-0.040,-0.040,0.000,0.000,0.000
1644905255368283904,2022-02-15-06:07:35,10.1.1.4,28,-0.030,-0.030,-0.030,0.000,0.000,0.000
1644905255428536064,2022-02-15-06:07:35,10.1.1.4,37,-0.020,-0.020,-0.020,0.000,0.000,0.000
1644905255467973888,2022-02-15-06:07:35,10.1.1.4,26,-0.010,-0.010,-0.010,0.000,0.000,0.000
1644905255527885824,2022-02-15-06:07:35,10.1.1.4,35,0.000,0.000,0.000,0.000,0.000,0.000
1644905255568242176,2022-02-15-06:07:35,10.1.1.4,23,0.010,0.010,0.010,0.000,0.000,0.000
1644905255628305920,2022-02-15-06:07:35,10.1.1.4,32,0.020,0.020,0.020,0.000,0.000,0.000
1644905255667941120,2022-02-15-06:07:35,10.1.1.4,21,0.030,0.030,0.030,0.000,0.000,0.000
1644905255728222976,2022-02-15-06:07:35,10.1.1.4,31,0.040,0.040,0.040,0.000,0.000,0.000
1644905255768343040,2022-02-15-06:07:35,10.1.1.4,19,0.049,0.049,0.049,0.000,0.000,0.000
1644905255829693184,2022-02-15-06:07:35,10.1.1.4,29,0.060,0.060,0.060,0.000,0.000,0.000
1644905255888163072,2022-02-15-06:07:35,10.1.1.4,36,0.070,0.070,0.070,0.000,0.000,0.000
1644905255928694016,2022-02-15-06:07:35,10.1.1.4,25,0.080,0.080,0.080,0.000,0.000,0.000
1644905255988240896,2022-02-15-06:07:35,10.1.1.4,33,0.090,0.090,0.090,0.000,0.000,0.000
1644905256027896832,2022-02-15-06:07:36,10.1.1.4,21,0.100,0.100,0.100,0.000,0.000,0.000
1644905256088009984,2022-02-15-06:07:36,10.1.1.4,31,0.090,0.090,0.090,0.000,0.000,0.000
1644905256127769088,2022-02-15-06:07:36,10.1.1.4,19,0.080,0.080,0.080,0.000,0.000,0.000
1644905256188337920,2022-02-15-06:07:36,10.1.1.4,27,0.070,0.070,0.070,0.000,0.000,0.000
1644905256248205824,2022-02-15-06:07:36,10.1.1.4,34,0.060,0.060,0.060,0.000,0.000,0.000
1644905256308300032,2022-02-15-06:07:36,10.1.1.4,38,0.050,0.050,0.050,0.000,0.000,0.000
1644905256351894016,2022-02-15-06:07:36,10.1.1.4,27,0.040,0.040,0.040,0.000,0.000,0.000
1644905256409050880,2022-02-15-06:07:36,10.1.1.4,35,0.030,0.030,0.030,0.000,0.000,0.000
1644905256447841024,2022-02-15-06:07:36,10.1.1.4,23,0.020,0.020,0.020,0.000,0.000,0.000
1644905256508071936,2022-02-15-06:07:36,10.1.1.4,32,0.010,0.010,0.010,0.000,0.000,0.000
1644905256569236992,2022-02-15-06:07:36,10.1.1.4,19,0.001,0.001,0.001,0.000,0.000,0.000
1644905256628592128,2022-02-15-06:07:36,10.1.1.4,35,-0.010,-0.010,-0.010,0.000,0.000,0.000
1644905256669967872,2022-02-15-06:07:36,10.1.1.4,24,-0.020,-0.020,-0.020,0.000,0.000,0.000
1644905256728291072,2022-02-15-06:07:36,10.1.1.4,33,-0.030,-0.030,-0.030,0.000,0.000,0.000
1644905256768829952,2022-02-15-06:07:36,10.1.1.4,23,-0.040,-0.040,-0.040,0.000,0.000,0.000
1644905256827940864,2022-02-15-06:07:36,10.1.1.4,33,-0.050,-0.050,-0.050,0.000,0.000,0.000
1644905256867438080,2022-02-15-06:07:36,10.1.1.4,22,-0.060,-0.060,-0.060,0.000,0.000,0.000
1644905256927753984,2022-02-15-06:07:36,10.1.1.4,32,-0.070,-0.070,-0.070,0.000,0.000,0.000
1644905256967474944,2022-02-15-06:07:36,10.1.1.4,21,-0.080,-0.080,-0.080,0.000,0.000,0.000
1644905257028100096,2022-02-15-06:07:37,10.1.1.4,31,-0.090,-0.090,-0.090,0.000,0.000,0.000
1644905257067774976,2022-02-15-06:07:37,10.1.1.4,19,-0.099,-0.099,-0.099,0.000,0.000,0.000
1644905257127540224,2022-02-15-06:07:37,10.1.1.4,28,-0.090,-0.090,-0.090,0.000,0.000,0.000
1644905257188546816,2022-02-15-06:07:37,10.1.1.4,38,-0.080,-0.080,-0.080,0.000,0.000,0.000
1644905257228577024,2022-02-15-06:07:37,10.1.1.4,27,-0.070,-0.070,-0.070,0.000,0.000,0.000
1644905257288333824,2022-02-15-06:07:37,10.1.1.4,37,-0.060,-0.060,-0.060,0.000,0.000,0.000
1644905257327426048,2022-02-15-06:07:37,10.1.1.4,26,-0.050,-0.050,-0.050,0.000,0.000,0.000
1644905257428453888,2022-02-15-06:07:37,10.1.1.4,25,-0.030,-0.030,-0.030,0.000,0.000,0.000
1644905257491149824,2022-02-15-06:07:37,10.1.1.4,34,-0.020,-0.020,-0.020,0.000,0.000,0.000
1644905257528260864,2022-02-15-06:07:37,10.1.1.4,23,-0.010,-0.010,-0.010,0.000,0.000,0.000
1644905257588288000,2022-02-15-06:07:37,10.1.1.4,32,0.000,0.000,0.000,0.000,0.000,0.000
1644905257628574976,2022-02-15-06:07:37,10.1.1.4,21,0.010,0.010,0.010,0.000,0.000,0.000
1644905257688530944,2022-02-15-06:07:37,10.1.1.4,30,0.020,0.020,0.020,0.000,0.000,0.000
1644905257728247040,2022-02-15-06:07:37,10.1.1.4,20,0.030,0.030,0.030,0.000,0.000,0.000
1644905257789724160,2022-02-15-06:07:37,10.1.1.4,29,0.040,0.040,0.040,0.000,0.000,0.000
1644905257848023808,2022-02-15-06:07:37,10.1.1.4,37,0.050,0.050,0.050,0.000,0.000,0.000
1644905257888513024,2022-02-15-06:07:37,10.1.1.4,26,0.060,0.060,0.060,0.000,0.000,0.000
1644905257957097984,2022-02-15-06:07:37,10.1.1.4,39,0.070,0.070,0.070,0.000,0.000,0.000
1644905257988274176,2022-02-15-06:07:37,10.1.1.4,24,0.080,0.080,0.080,0.000,0.000,0.000
1644905258048584960,2022-02-15-06:07:38,10.1.1.4,33,0.090,0.090,0.090,0.000,0.000,0.000
1644905258087918080,2022-02-15-06:07:38,10.1.1.4,23,0.100,0.100,0.100,0.000,0.000,0.000
1644905258147531008,2022-02-15-06:07:38,10.1.1.4,33,0.090,0.090,0.090,0.000,0.000,0.000
1644905258187581184,2022-02-15-06:07:38,10.1.1.4,21,0.080,0.080,0.080,0.000,0.000,0.000
1644905258247243008,2022-02-15-06:07:38,10.1.1.4,30,0.070,0.070,0.070,0.000,0.000,0.000
1644905258288824064,2022-02-15-06:07:38,10.1.1.4,19,0.060,0.060,0.060,0.000,0.000,0.000
1644905258348472064,2022-02-15-06:07:38,10.1.1.4,29,0.050,0.050,0.050,0.000,0.000,0.000
1644905258408304896,2022-02-15-06:07:38,10.1.1.4,38,0.040,0.040,0.040,0.000,0.000,0.000
1644905258448160768,2022-02-15-06:07:38,10.1.1.4,28,0.030,0.030,0.030,0.000,0.000,0.000
1644905258508125952,2022-02-15-06:07:38,10.1.1.4,35,0.020,0.020,0.020,0.000,0.000,0.000
1644905258548219904,2022-02-15-06:07:38,10.1.1.4,23,0.010,0.010,0.010,0.000,0.000,0.000
1644905258608120832,2022-02-15-06:07:38,10.1.1.4,33,0.000,0.000,0.000,0.000,0.000,0.000
1644905258647501824,2022-02-15-06:07:38,10.1.1.4,20,-0.010,-0.010,-0.010,0.000,0.000,0.000
1644905258707756032,2022-02-15-06:07:38,10.1.1.4,29,-0.020,-0.020,-0.020,0.000,0.000,0.000
1644905258767944192,2022-02-15-06:07:38,10.1.1.4,37,-0.030,-0.030,-0.030,0.000,0.000,0.000
1644905258807483904,2022-02-15-06:07:38,10.1.1.4,26,-0.040,-0.040,-0.040,0.000,0.000,0.000
1644905258867799040,2022-02-15-06:07:38,10.1.1.4,35,-0.050,-0.050,-0.050,0.000,0.000,0.000
1644905258908523008,2022-02-15-06:07:38,10.1.1.4,24,-0.060,-0.060,-0.060,0.000,0.000,0.000
1644905258968000000,2022-02-15-06:07:38,10.1.1.4,33,-0.070,-0.070,-0.070,0.000,0.000,0.000
1644905259008119040,2022-02-15-06:07:39,10.1.1.4,22,-0.080,-0.080,-0.080,0.000,0.000,0.000
1644905259067693824,2022-02-15-06:07:39,10.1.1.4,30,-0.090,-0.090,-0.090,0.000,0.000,0.000
1644905259107950080,2022-02-15-06:07:39,10.1.1.4,20,-0.100,-0.100,-0.100,0.000,0.000,0.000
1644905259167942144,2022-02-15-06:07:39,10.1.1.4,29,-0.090,-0.090,-0.090,0.000,0.000,0.000
1644905259227716864,2022-02-15-06:07:39,10.1.1.4,37,-0.080,-0.080,-0.080,0.000,0.000,0.000
1644905259267422976,2022-02-15-06:07:39,10.1.1.4,26,-0.070,-0.070,-0.070,0.000,0.000,0.000
1644905259328030976,2022-02-15-06:07:39,10.1.1.4,34,-0.060,-0.060,-0.060,0.000,0.000,0.000
1644905259367748864,2022-02-15-06:07:39,10.1.1.4,23,-0.050,-0.050,-0.050,0.000,0.000,0.000
1644905259428154880,2022-02-15-06:07:39,10.1.1.4,32,-0.040,-0.040,-0.040,0.000,0.000,0.000
1644905259467539200,2022-02-15-06:07:39,10.1.1.4,21,-0.030,-0.030,-0.030,0.000,0.000,0.000
1644905259527732992,2022-02-15-06:07:39,10.1.1.4,30,-0.020,-0.020,-0.020,0.000,0.000,0.000
1644905259567534848,2022-02-15-06:07:39,10.1.1.4,19,-0.011,-0.011,-0.011,0.000,0.000,0.000
1644905259627852800,2022-02-15-06:07:39,10.1.1.4,28,0.000,0.000,0.000,0.000,0.000,0.000
1644905259687865088,2022-02-15-06:07:39,10.1.1.4,37,0.010,0.010,0.010,0.000,0.000,0.000
1644905259727913984,2022-02-15-06:07:39,10.1.1.4,25,0.020,0.020,0.020,0.000,0.000,0.000
1644905259789089792,2022-02-15-06:07:39,10.1.1.4,34,0.030,0.030,0.030,0.000,0.000,0.000
1644905259828382976,2022-02-15-06:07:39,10.1.1.4,23,0.040,0.040,0.040,0.000,0.000,0.000
1644905259889144832,2022-02-15-06:07:39,10.1.1.4,32,0.050,0.050,0.050,0.000,0.000,0.000
1644905259928421120,2022-02-15-06:07:39,10.1.1.4,19,0.059,0.059,0.059,0.000,0.000,0.000
1644905259987906816,2022-02-15-06:07:39,10.1.1.4,27,0.070,0.070,0.070,0.000,0.000,0.000
1644905260054951936,2022-02-15-06:07:40,10.1.1.4,36,0.080,0.080,0.080,0.000,0.000,0.000
1644905260091547136,2022-02-15-06:07:40,10.1.1.4,25,0.090,0.090,0.090,0.000,0.000,0.000
1644905260147459072,2022-02-15-06:07:40,10.1.1.4,28,0.100,0.100,0.100,0.000,0.000,0.000
1644905260208157952,2022-02-15-06:07:40,10.1.1.4,38,0.090,0.090,0.090,0.000,0.000,0.000
1644905260248711936,2022-02-15-06:07:40,10.1.1.4,27,0.080,0.080,0.080,0.000,0.000,0.000
1644905260307884032,2022-02-15-06:07:40,10.1.1.4,37,0.070,0.070,0.070,0.000,0.000,0.000
1644905260347760896,2022-02-15-06:07:40,10.1.1.4,25,0.060,0.060,0.060,0.000,0.000,0.000
1644905260407939840,2022-02-15-06:07:40,10.1.1.4,34,0.050,0.050,0.050,0.000,0.000,0.000
1644905260447987200,2022-02-15-06:07:40,10.1.1.4,22,0.040,0.040,0.040,0.000,0.000,0.000
1644905260572313088,2022-02-15-06:07:40,10.1.1.4,33,0.020,0.020,0.020,0.000,0.000,0.000
1644905260628369920,2022-02-15-06:07:40,10.1.1.4,36,0.010,0.010,0.010,0.000,0.000,0.000
1644905260668293120,2022-02-15-06:07:40,10.1.1.4,25,0.000,0.000,0.000,0.000,0.000,0.000
1644905260728416000,2022-02-15-06:07:40,10.1.1.4,34,-0.010,-0.010,-0.010,0.000,0.000,0.000
1644905260768601856,2022-02-15-06:07:40,10.1.1.4,22,-0.020,-0.020,-0.020,0.000,0.000,0.000
1644905260827881216,2022-02-15-06:07:40,10.1.1.4,32,-0.030,-0.030,-0.030,0.000,0.000,0.000
1644905260867582208,2022-02-15-06:07:40,10.1.1.4,20,-0.040,-0.040,-0.040,0.000,0.000,0.000
1644905260928742912,2022-02-15-06:07:40,10.1.1.4,30,-0.050,-0.050,-0.050,0.000,0.000,0.000
1644905260968292864,2022-02-15-06:07:40,10.1.1.4,19,-0.059,-0.059,-0.059,0.000,0.000,0.000
1644905261029680896,2022-02-15-06:07:41,10.1.1.4,28,-0.070,-0.070,-0.070,0.000,0.000,0.000
1644905261091097088,2022-02-15-06:07:41,10.1.1.4,38,-0.080,-0.080,-0.080,0.000,0.000,0.000
1644905261128193024,2022-02-15-06:07:41,10.1.1.4,26,-0.090,-0.090,-0.090,0.000,0.000,0.000
1644905261188476928,2022-02-15-06:07:41,10.1.1.4,36,-0.100,-0.100,-0.100,0.000,0.000,0.000
1644905261228001024,2022-02-15-06:07:41,10.1.1.4,25,-0.090,-0.090,-0.090,0.000,0.000,0.000
1644905261290835968,2022-02-15-06:07:41,10.1.1.4,34,-0.080,-0.080,-0.080,0.000,0.000,0.000
1644905261387849984,2022-02-15-06:07:41,10.1.1.4,32,-0.060,-0.060,-0.060,0.000,0.000,0.000
1644905261428430080,2022-02-15-06:07:41,10.1.1.4,22,-0.050,-0.050,-0.050,0.000,0.000,0.000
1644905261487696896,2022-02-15-06:07:41,10.1.1.4,30,-0.040,-0.040,-0.040,0.000,0.000,0.000
1644905261527923200,2022-02-15-06:07:41,10.1.1.4,19,-0.030,-0.030,-0.030,0.000,0.000,0.000
1644905261588096000,2022-02-15-06:07:41,10.1.1.4,28,-0.020,-0.020,-0.020,0.000,0.000,0.000
1644905261648001024,2022-02-15-06:07:41,10.1.1.4,38,-0.010,-0.010,-0.010,0.000,0.000,0.000
1644905261687472128,2022-02-15-06:07:41,10.1.1.4,27,0.000,0.000,0.000,0.000,0.000,0.000
1644905261749555200,2022-02-15-06:07:41,10.1.1.4,37,0.010,0.010,0.010,0.000,0.000,0.000
1644905261788122880,2022-02-15-06:07:41,10.1.1.4,26,0.020,0.020,0.020,0.000,0.000,0.000
1644905261847311872,2022-02-15-06:07:41,10.1.1.4,36,0.030,0.030,0.030,0.000,0.000,0.000
1644905261887363840,2022-02-15-06:07:41,10.1.1.4,25,0.040,0.040,0.040,0.000,0.000,0.000
1644905261947575040,2022-02-15-06:07:41,10.1.1.4,35,0.050,0.050,0.050,0.000,0.000,0.000
1644905261988142080,2022-02-15-06:07:41,10.1.1.4,24,0.060,0.060,0.060,0.000,0.000,0.000
1644905262047419904,2022-02-15-06:07:42,10.1.1.4,33,0.070,0.070,0.070,0.000,0.000,0.000
1644905262087666944,2022-02-15-06:07:42,10.1.1.4,23,0.080,0.080,0.080,0.000,0.000,0.000
1644905262147623936,2022-02-15-06:07:42,10.1.1.4,30,0.090,0.090,0.090,0.000,0.000,0.000
1644905262188563968,2022-02-15-06:07:42,10.1.1.4,20,0.100,0.100,0.100,0.000,0.000,0.000
1644905262248580864,2022-02-15-06:07:42,10.1.1.4,27,0.090,0.090,0.090,0.000,0.000,0.000
1644905262308011008,2022-02-15-06:07:42,10.1.1.4,36,0.080,0.080,0.080,0.000,0.000,0.000
1644905262347380992,2022-02-15-06:07:42,10.1.1.4,24,0.070,0.070,0.070,0.000,0.000,0.000
1644905262407361024,2022-02-15-06:07:42,10.1.1.4,33,0.060,0.060,0.060,0.000,0.000,0.000
1644905262447834880,2022-02-15-06:07:42,10.1.1.4,22,0.050,0.050,0.050,0.000,0.000,0.000
1644905262507527168,2022-02-15-06:07:42,10.1.1.4,30,0.040,0.040,0.040,0.000,0.000,0.000
1644905262548009984,2022-02-15-06:07:42,10.1.1.4,20,0.030,0.030,0.030,0.000,0.000,0.000
1644905262607877120,2022-02-15-06:07:42,10.1.1.4,29,0.020,0.020,0.020,0.000,0.000,0.000
1644905262667951104,2022-02-15-06:07:42,10.1.1.4,35,0.010,0.010,0.010,0.000,0.000,0.000
1644905262707757824,2022-02-15-06:07:42,10.1.1.4,24,-0.000,-0.000,-0.000,0.000,0.000,0.000
1644905262767581952,2022-02-15-06:07:42,10.1.1.4,34,-0.010,-0.010,-0.010,0.000,0.000,0.000
1644905262806936064,2022-02-15-06:07:42,10.1.1.4,23,-0.020,-0.020,-0.020,0.000,0.000,0.000
1644905262868134144,2022-02-15-06:07:42,10.1.1.4,32,-0.030,-0.030,-0.030,0.000,0.000,0.000
1644905262907849984,2022-02-15-06:07:42,10.1.1.4,21,-0.040,-0.040,-0.040,0.000,0.000,0.000
1644905262967334144,2022-02-15-06:07:42,10.1.1.4,30,-0.050,-0.050,-0.050,0.000,0.000,0.000
1644905263027506944,2022-02-15-06:07:43,10.1.1.4,38,-0.060,-0.060,-0.060,0.000,0.000,0.000
1644905263067187968,2022-02-15-06:07:43,10.1.1.4,27,-0.070,-0.070,-0.070,0.000,0.000,0.000
1644905263127141120,2022-02-15-06:07:43,10.1.1.4,36,-0.080,-0.080,-0.080,0.000,0.000,0.000
1644905263167407104,2022-02-15-06:07:43,10.1.1.4,23,-0.090,-0.090,-0.090,0.000,0.000,0.000
1644905263226969856,2022-02-15-06:07:43,10.1.1.4,33,-0.100,-0.100,-0.100,0.000,0.000,0.000
1644905263267486976,2022-02-15-06:07:43,10.1.1.4,22,-0.090,-0.090,-0.090,0.000,0.000,0.000
1644905263328093952,2022-02-15-06:07:43,10.1.1.4,31,-0.080,-0.080,-0.080,0.000,0.000,0.000
1644905263367928064,2022-02-15-06:07:43,10.1.1.4,18,-0.071,-0.071,-0.071,0.000,0.000,0.000
1644905263427855872,2022-02-15-06:07:43,10.1.1.4,27,-0.060,-0.060,-0.060,0.000,0.000,0.000
1644905263488018944,2022-02-15-06:07:43,10.1.1.4,37,-0.050,-0.050,-0.050,0.000,0.000,0.000
1644905263527744000,2022-02-15-06:07:43,10.1.1.4,26,-0.040,-0.040,-0.040,0.000,0.000,0.000
1644905263587683072,2022-02-15-06:07:43,10.1.1.4,36,-0.030,-0.030,-0.030,0.000,0.000,0.000
1644905263627379968,2022-02-15-06:07:43,10.1.1.4,25,-0.020,-0.020,-0.020,0.000,0.000,0.000
1644905263687280896,2022-02-15-06:07:43,10.1.1.4,35,-0.010,-0.010,-0.010,0.000,0.000,0.000
1644905263727719936,2022-02-15-06:07:43,10.1.1.4,24,0.000,0.000,0.000,0.000,0.000,0.000
1644905263790884864,2022-02-15-06:07:43,10.1.1.4,34,0.010,0.010,0.010,0.000,0.000,0.000
1644905263828602112,2022-02-15-06:07:43,10.1.1.4,23,0.020,0.020,0.020,0.000,0.000,0.000
1644905263887774976,2022-02-15-06:07:43,10.1.1.4,31,0.030,0.030,0.030,0.000,0.000,0.000
1644905263928289024,2022-02-15-06:07:43,10.1.1.4,21,0.040,0.040,0.040,0.000,0.000,0.000
1644905263988556032,2022-02-15-06:07:43,10.1.1.4,30,0.050,0.050,0.050,0.000,0.000,0.000
1644905264028320000,2022-02-15-06:07:44,10.1.1.4,20,0.060,0.060,0.060,0.000,0.000,0.000
1644905264087870976,2022-02-15-06:07:44,10.1.1.4,28,0.070,0.070,0.070,0.000,0.000,0.000
1644905264147744768,2022-02-15-06:07:44,10.1.1.4,37,0.080,0.080,0.080,0.000,0.000,0.000
1644905264187653120,2022-02-15-06:07:44,10.1.1.4,27,0.090,0.090,0.090,0.000,0.000,0.000
1644905264247980032,2022-02-15-06:07:44,10.1.1.4,36,0.100,0.100,0.100,0.000,0.000,0.000
1644905264288299008,2022-02-15-06:07:44,10.1.1.4,26,0.090,0.090,0.090,0.000,0.000,0.000
1644905264348282112,2022-02-15-06:07:44,10.1.1.4,35,0.080,0.080,0.080,0.000,0.000,0.000
1644905264387623168,2022-02-15-06:07:44,10.1.1.4,24,0.070,0.070,0.070,0.000,0.000,0.000
1644905264447411968,2022-02-15-06:07:44,10.1.1.4,33,0.060,0.060,0.060,0.000,0.000,0.000
1644905264487823872,2022-02-15-06:07:44,10.1.1.4,19,0.051,0.051,0.051,0.000,0.000,0.000
1644905264548044800,2022-02-15-06:07:44,10.1.1.4,27,0.040,0.040,0.040,0.000,0.000,0.000
1644905264608783872,2022-02-15-06:07:44,10.1.1.4,37,0.030,0.030,0.030,0.000,0.000,0.000
1644905264648111104,2022-02-15-06:07:44,10.1.1.4,25,0.020,0.020,0.020,0.000,0.000,0.000
1644905264716811008,2022-02-15-06:07:44,10.1.1.4,34,0.010,0.010,0.010,0.000,0.000,0.000
1644905264748920832,2022-02-15-06:07:44,10.1.1.4,22,0.000,0.000,0.000,0.000,0.000,0.000
1644905264807600896,2022-02-15-06:07:44,10.1.1.4,32,-0.010,-0.010,-0.010,0.000,0.000,0.000
1644905264848187904,2022-02-15-06:07:44,10.1.1.4,21,-0.020,-0.020,-0.020,0.000,0.000,0.000
1644905264907934976,2022-02-15-06:07:44,10.1.1.4,31,-0.030,-0.030,-0.030,0.000,0.000,0.000
1644905264948131072,2022-02-15-06:07:44,10.1.1.4,19,-0.039,-0.039,-0.039,0.000,0.000,0.000
1644905265007704064,2022-02-15-06:07:45,10.1.1.4,28,-0.050,-0.050,-0.050,0.000,0.000,0.000
1644905265067717120,2022-02-15-06:07:45,10.1.1.4,35,-0.060,-0.060,-0.060,0.000,0.000,0.000
1644905265109127168,2022-02-15-06:07:45,10.1.1.4,23,-0.070,-0.070,-0.070,0.000,0.000,0.000
1644905265169449216,2022-02-15-06:07:45,10.1.1.4,33,-0.080,-0.080,-0.080,0.000,0.000,0.000
1644905265207526912,2022-02-15-06:07:45,10.1.1.4,21,-0.090,-0.090,-0.090,0.000,0.000,0.000
1644905265267479040,2022-02-15-06:07:45,10.1.1.4,30,-0.100,-0.100,-0.100,0.000,0.000,0.000
1644905265307549952,2022-02-15-06:07:45,10.1.1.4,19,-0.090,-0.090,-0.090,0.000,0.000,0.000
1644905265368726016,2022-02-15-06:07:45,10.1.1.4,29,-0.080,-0.080,-0.080,0.000,0.000,0.000
1644905265429174016,2022-02-15-06:07:45,10.1.1.4,37,-0.070,-0.070,-0.070,0.000,0.000,0.000
1644905265527990016,2022-02-15-06:07:45,10.1.1.4,24,-0.050,-0.050,-0.050,0.000,0.000,0.000
1644905265587591936,2022-02-15-06:07:45,10.1.1.4,33,-0.040,-0.040,-0.040,0.000,0.000,0.000
1644905265628773888,2022-02-15-06:07:45,10.1.1.4,20,-0.030,-0.030,-0.030,0.000,0.000,0.000
1644905265687887872,2022-02-15-06:07:45,10.1.1.4,29,-0.020,-0.020,-0.020,0.000,0.000,0.000
1644905265727905024,2022-02-15-06:07:45,10.1.1.4,18,-0.011,-0.011,-0.011,0.000,0.000,0.000
1644905265788124160,2022-02-15-06:07:45,10.1.1.4,27,0.000,0.000,0.000,0.000,0.000,0.000
1644905265848207104,2022-02-15-06:07:45,10.1.1.4,37,0.010,0.010,0.010,0.000,0.000,0.000
1644905265888530944,2022-02-15-06:07:45,10.1.1.4,26,0.020,0.020,0.020,0.000,0.000,0.000
1644905265947951104,2022-02-15-06:07:45,10.1.1.4,35,0.030,0.030,0.030,0.000,0.000,0.000
1644905265988182016,2022-02-15-06:07:45,10.1.1.4,23,0.040,0.040,0.040,0.000,0.000,0.000
1644905266048145920,2022-02-15-06:07:46,10.1.1.4,30,0.050,0.050,0.050,0.000,0.000,0.000
1644905266088310016,2022-02-15-06:07:46,10.1.1.4,19,0.059,0.059,0.059,0.000,0.000,0.000
1644905266148803840,2022-02-15-06:07:46,10.1.1.4,28,0.070,0.070,0.070,0.000,0.000,0.000
1644905266208326144,2022-02-15-06:07:46,10.1.1.4,37,0.080,0.080,0.080,0.000,0.000,0.000
1644905266248153088,2022-02-15-06:07:46,10.1.1.4,26,0.090,0.090,0.090,0.000,0.000,0.000
1644905266308700928,2022-02-15-06:07:46,10.1.1.4,35,0.100,0.100,0.100,0.000,0.000,0.000
1644905266348582144,2022-02-15-06:07:46,10.1.1.4,23,0.090,0.090,0.090,0.000,0.000,0.000
1644905266408477952,2022-02-15-06:07:46,10.1.1.4,31,0.080,0.080,0.080,0.000,0.000,0.000
1644905266448094976,2022-02-15-06:07:46,10.1.1.4,21,0.070,0.070,0.070,0.000,0.000,0.000
1644905266507667968,2022-02-15-06:07:46,10.1.1.4,30,0.060,0.060,0.060,0.000,0.000,0.000
1644905266569359104,2022-02-15-06:07:46,10.1.1.4,39,0.050,0.050,0.050,0.000,0.000,0.000
1644905266608315904,2022-02-15-06:07:46,10.1.1.4,28,0.040,0.040,0.040,0.000,0.000,0.000
1644905266669368064,2022-02-15-06:07:46,10.1.1.4,32,0.030,0.030,0.030,0.000,0.000,0.000
1644905266708731904,2022-02-15-06:07:46,10.1.1.4,21,0.020,0.020,0.020,0.000,0.000,0.000
1644905266772070912,2022-02-15-06:07:46,10.1.1.4,29,0.010,0.010,0.010,0.000,0.000,0.000
1644905266829698048,2022-02-15-06:07:46,10.1.1.4,37,0.000,0.000,0.000,0.000,0.000,0.000
1644905266869496064,2022-02-15-06:07:46,10.1.1.4,26,-0.010,-0.010,-0.010,0.000,0.000,0.000
1644905266928009984,2022-02-15-06:07:46,10.1.1.4,31,-0.020,-0.020,-0.020,0.000,0.000,0.000
1644905266972620032,2022-02-15-06:07:46,10.1.1.4,20,-0.030,-0.030,-0.030,0.000,0.000,0.000
1644905267028014848,2022-02-15-06:07:47,10.1.1.4,30,-0.040,-0.040,-0.040,0.000,0.000,0.000
1644905267068129024,2022-02-15-06:07:47,10.1.1.4,19,-0.049,-0.049,-0.049,0.000,0.000,0.000
1644905267127966976,2022-02-15-06:07:47,10.1.1.4,29,-0.060,-0.060,-0.060,0.000,0.000,0.000
1644905267188134912,2022-02-15-06:07:47,10.1.1.4,36,-0.070,-0.070,-0.070,0.000,0.000,0.000
1644905267228977920,2022-02-15-06:07:47,10.1.1.4,22,-0.080,-0.080,-0.080,0.000,0.000,0.000
1644905267292269056,2022-02-15-06:07:47,10.1.1.4,29,-0.090,-0.090,-0.090,0.000,0.000,0.000
1644905267349118976,2022-02-15-06:07:47,10.1.1.4,36,-0.100,-0.100,-0.100,0.000,0.000,0.000
1644905267388231936,2022-02-15-06:07:47,10.1.1.4,21,-0.090,-0.090,-0.090,0.000,0.000,0.000
1644905267448894976,2022-02-15-06:07:47,10.1.1.4,30,-0.080,-0.080,-0.080,0.000,0.000,0.000
1644905267489352960,2022-02-15-06:07:47,10.1.1.4,19,-0.071,-0.071,-0.071,0.000,0.000,0.000
1644905267548694016,2022-02-15-06:07:47,10.1.1.4,28,-0.060,-0.060,-0.060,0.000,0.000,0.000
1644905267608568832,2022-02-15-06:07:47,10.1.1.4,37,-0.050,-0.050,-0.050,0.000,0.000,0.000
1644905267648321024,2022-02-15-06:07:47,10.1.1.4,24,-0.040,-0.040,-0.040,0.000,0.000,0.000
1644905267708311040,2022-02-15-06:07:47,10.1.1.4,33,-0.030,-0.030,-0.030,0.000,0.000,0.000
1644905267748253184,2022-02-15-06:07:47,10.1.1.4,22,-0.020,-0.020,-0.020,0.000,0.000,0.000
1644905267808573952,2022-02-15-06:07:47,10.1.1.4,31,-0.010,-0.010,-0.010,0.000,0.000,0.000
1644905267848459008,2022-02-15-06:07:47,10.1.1.4,20,0.000,0.000,0.000,0.000,0.000,0.000
1644905267908677120,2022-02-15-06:07:47,10.1.1.4,30,0.010,0.010,0.010,0.000,0.000,0.000
1644905267969327872,2022-02-15-06:07:47,10.1.1.4,38,0.020,0.020,0.020,0.000,0.000,0.000
1644905268008577024,2022-02-15-06:07:48,10.1.1.4,27,0.030,0.030,0.030,0.000,0.000,0.000
1644905268067707904,2022-02-15-06:07:48,10.1.1.4,36,0.040,0.040,0.040,0.000,0.000,0.000
1644905268108046080,2022-02-15-06:07:48,10.1.1.4,25,0.050,0.050,0.050,0.000,0.000,0.000
1644905268168566016,2022-02-15-06:07:48,10.1.1.4,34,0.060,0.060,0.060,0.000,0.000,0.000
1644905268207553024,2022-02-15-06:07:48,10.1.1.4,23,0.070,0.070,0.070,0.000,0.000,0.000
1644905268268950016,2022-02-15-06:07:48,10.1.1.4,32,0.080,0.080,0.080,0.000,0.000,0.000
1644905268312057088,2022-02-15-06:07:48,10.1.1.4,20,0.090,0.090,0.090,0.000,0.000,0.000
1644905268369115136,2022-02-15-06:07:48,10.1.1.4,29,0.100,0.100,0.100,0.000,0.000,0.000
1644905268427890176,2022-02-15-06:07:48,10.1.1.4,37,0.090,0.090,0.090,0.000,0.000,0.000
1644905268468386816,2022-02-15-06:07:48,10.1.1.4,25,0.080,0.080,0.080,0.000,0.000,0.000
1644905268527992064,2022-02-15-06:07:48,10.1.1.4,33,0.070,0.070,0.070,0.000,0.000,0.000
1644905268568404992,2022-02-15-06:07:48,10.1.1.4,22,0.060,0.060,0.060,0.000,0.000,0.000
1644905268629657856,2022-02-15-06:07:48,10.1.1.4,30,0.050,0.050,0.050,0.000,0.000,0.000
1644905268671688192,2022-02-15-06:07:48,10.1.1.4,19,0.040,0.040,0.040,0.000,0.000,0.000
1644905268728431104,2022-02-15-06:07:48,10.1.1.4,26,0.030,0.030,0.030,0.000,0.000,0.000
1644905268788404992,2022-02-15-06:07:48,10.1.1.4,30,0.020,0.020,0.020,0.000,0.000,0.000
1644905268848068096,2022-02-15-06:07:48,10.1.1.4,38,0.010,0.010,0.010,0.000,0.000,0.000
1644905268889544960,2022-02-15-06:07:48,10.1.1.4,26,0.000,0.000,0.000,0.000,0.000,0.000
1644905268948232960,2022-02-15-06:07:48,10.1.1.4,33,-0.010,-0.010,-0.010,0.000,0.000,0.000
1644905268987966976,2022-02-15-06:07:48,10.1.1.4,19,-0.020,-0.020,-0.020,0.000,0.000,0.000
1644905269049446144,2022-02-15-06:07:49,10.1.1.4,27,-0.030,-0.030,-0.030,0.000,0.000,0.000
1644905269110234880,2022-02-15-06:07:49,10.1.1.4,35,-0.040,-0.040,-0.040,0.000,0.000,0.000
1644905269148241152,2022-02-15-06:07:49,10.1.1.4,20,-0.050,-0.050,-0.050,0.000,0.000,0.000
1644905269207858944,2022-02-15-06:07:49,10.1.1.4,30,-0.060,-0.060,-0.060,0.000,0.000,0.000
1644905269268263936,2022-02-15-06:07:49,10.1.1.4,39,-0.070,-0.070,-0.070,0.000,0.000,0.000
1644905269307706112,2022-02-15-06:07:49,10.1.1.4,27,-0.080,-0.080,-0.080,0.000,0.000,0.000
1644905269367980032,2022-02-15-06:07:49,10.1.1.4,34,-0.090,-0.090,-0.090,0.000,0.000,0.000
1644905269408337152,2022-02-15-06:07:49,10.1.1.4,23,-0.100,-0.100,-0.100,0.000,0.000,0.000
1644905269467900928,2022-02-15-06:07:49,10.1.1.4,32,-0.090,-0.090,-0.090,0.000,0.000,0.000
1644905269509020928,2022-02-15-06:07:49,10.1.1.4,21,-0.080,-0.080,-0.080,0.000,0.000,0.000
1644905269568098048,2022-02-15-06:07:49,10.1.1.4,30,-0.070,-0.070,-0.070,0.000,0.000,0.000
1644905269608203008,2022-02-15-06:07:49,10.1.1.4,19,-0.060,-0.060,-0.060,0.000,0.000,0.000
1644905269669815040,2022-02-15-06:07:49,10.1.1.4,29,-0.050,-0.050,-0.050,0.000,0.000,0.000
1644905269728315136,2022-02-15-06:07:49,10.1.1.4,37,-0.040,-0.040,-0.040,0.000,0.000,0.000
1644905269768166144,2022-02-15-06:07:49,10.1.1.4,26,-0.030,-0.030,-0.030,0.000,0.000,0.000
1644905269827790080,2022-02-15-06:07:49,10.1.1.4,35,-0.020,-0.020,-0.020,0.000,0.000,0.000
1644905269868182016,2022-02-15-06:07:49,10.1.1.4,25,-0.010,-0.010,-0.010,0.000,0.000,0.000
1644905269933188864,2022-02-15-06:07:49,10.1.1.4,29,0.000,0.000,0.000,0.000,0.000,0.000
1644905269988153856,2022-02-15-06:07:49,10.1.1.4,37,0.010,0.010,0.010,0.000,0.000,0.000
1644905270028368896,2022-02-15-06:07:50,10.1.1.4,27,0.020,0.020,0.020,0.000,0.000,0.000
1644905270089474048,2022-02-15-06:07:50,10.1.1.4,36,0.030,0.030,0.030,0.000,0.000,0.000
1644905270128776192,2022-02-15-06:07:50,10.1.1.4,25,0.040,0.040,0.040,0.000,0.000,0.000
1644905270188251904,2022-02-15-06:07:50,10.1.1.4,34,0.050,0.050,0.050,0.000,0.000,0.000
1644905270227493888,2022-02-15-06:07:50,10.1.1.4,23,0.060,0.060,0.060,0.000,0.000,0.000
1644905270288587008,2022-02-15-06:07:50,10.1.1.4,33,0.070,0.070,0.070,0.000,0.000,0.000
1644905270327699968,2022-02-15-06:07:50,10.1.1.4,22,0.080,0.080,0.080,0.000,0.000,0.000
1644905270388717056,2022-02-15-06:07:50,10.1.1.4,31,0.090,0.090,0.090,0.000,0.000,0.000
1644905270428443904,2022-02-15-06:07:50,10.1.1.4,20,0.100,0.100,0.100,0.000,0.000,0.000
1644905270488208896,2022-02-15-06:07:50,10.1.1.4,29,0.090,0.090,0.090,0.000,0.000,0.000
1644905270549631232,2022-02-15-06:07:50,10.1.1.4,38,0.080,0.080,0.080,0.000,0.000,0.000
1644905270588067072,2022-02-15-06:07:50,10.1.1.4,28,0.070,0.070,0.070,0.000,0.000,0.000
1644905270648704000,2022-02-15-06:07:50,10.1.1.4,37,0.060,0.060,0.060,0.000,0.000,0.000
1644905270688107008,2022-02-15-06:07:50,10.1.1.4,26,0.050,0.050,0.050,0.000,0.000,0.000
1644905270747767040,2022-02-15-06:07:50,10.1.1.4,36,0.040,0.040,0.040,0.000,0.000,0.000
1644905270787689984,2022-02-15-06:07:50,10.1.1.4,24,0.030,0.030,0.030,0.000,0.000,0.000
1644905270847682048,2022-02-15-06:07:50,10.1.1.4,32,0.020,0.020,0.020,0.000,0.000,0.000
1644905270888029184,2022-02-15-06:07:50,10.1.1.4,21,0.010,0.010,0.010,0.000,0.000,0.000
1644905270947627008,2022-02-15-06:07:50,10.1.1.4,31,0.000,0.000,0.000,0.000,0.000,0.000
1644905270988007936,2022-02-15-06:07:50,10.1.1.4,20,-0.010,-0.010,-0.010,0.000,0.000,0.000
1644905271047401984,2022-02-15-06:07:51,10.1.1.4,30,-0.020,-0.020,-0.020,0.000,0.000,0.000
1644905271087874048,2022-02-15-06:07:51,10.1.1.4,19,-0.029,-0.029,-0.029,0.000,0.000,0.000
1644905271148317184,2022-02-15-06:07:51,10.1.1.4,28,-0.040,-0.040,-0.040,0.000,0.000,0.000
1644905271208098816,2022-02-15-06:07:51,10.1.1.4,37,-0.050,-0.050,-0.050,0.000,0.000,0.000
1644905271247570944,2022-02-15-06:07:51,10.1.1.4,27,-0.060,-0.060,-0.060,0.000,0.000,0.000
1644905271309847040,2022-02-15-06:07:51,10.1.1.4,36,-0.070,-0.070,-0.070,0.000,0.000,0.000
1644905271348471040,2022-02-15-06:07:51,10.1.1.4,24,-0.080,-0.080,-0.080,0.000,0.000,0.000
1644905271408466944,2022-02-15-06:07:51,10.1.1.4,33,-0.090,-0.090,-0.090,0.000,0.000,0.000
1644905271448088832,2022-02-15-06:07:51,10.1.1.4,20,-0.100,-0.100,-0.100,0.000,0.000,0.000
1644905271507859968,2022-02-15-06:07:51,10.1.1.4,29,-0.090,-0.090,-0.090,0.000,0.000,0.000
1644905271548008960,2022-02-15-06:07:51,10.1.1.4,19,-0.081,-0.081,-0.081,0.000,0.000,0.000
1644905271608206080,2022-02-15-06:07:51,10.1.1.4,28,-0.070,-0.070,-0.070,0.000,0.000,0.000
1644905271669865984,2022-02-15-06:07:51,10.1.1.4,37,-0.060,-0.060,-0.060,0.000,0.000,0.000
1644905271708875008,2022-02-15-06:07:51,10.1.1.4,27,-0.050,-0.050,-0.050,0.000,0.000,0.000
1644905271769880064,2022-02-15-06:07:51,10.1.1.4,36,-0.040,-0.040,-0.040,0.000,0.000,0.000
1644905271808584960,2022-02-15-06:07:51,10.1.1.4,26,-0.030,-0.030,-0.030,0.000,0.000,0.000
1644905271868977920,2022-02-15-06:07:51,10.1.1.4,34,-0.020,-0.020,-0.020,0.000,0.000,0.000
1644905271912185856,2022-02-15-06:07:51,10.1.1.4,23,-0.010,-0.010,-0.010,0.000,0.000,0.000
1644905271968094208,2022-02-15-06:07:51,10.1.1.4,32,0.000,0.000,0.000,0.000,0.000,0.000
1644905272009421056,2022-02-15-06:07:52,10.1.1.4,21,0.010,0.010,0.010,0.000,0.000,0.000
1644905272068207872,2022-02-15-06:07:52,10.1.1.4,30,0.020,0.020,0.020,0.000,0.000,0.000
1644905272107867904,2022-02-15-06:07:52,10.1.1.4,19,0.029,0.029,0.029,0.000,0.000,0.000
1644905272168327936,2022-02-15-06:07:52,10.1.1.4,28,0.040,0.040,0.040,0.000,0.000,0.000
1644905272232249088,2022-02-15-06:07:52,10.1.1.4,38,0.050,0.050,0.050,0.000,0.000,0.000
1644905272267748096,2022-02-15-06:07:52,10.1.1.4,26,0.060,0.060,0.060,0.000,0.000,0.000
1644905272328110848,2022-02-15-06:07:52,10.1.1.4,35,0.070,0.070,0.070,0.000,0.000,0.000
1644905272368633088,2022-02-15-06:07:52,10.1.1.4,24,0.080,0.080,0.080,0.000,0.000,0.000
1644905272427740928,2022-02-15-06:07:52,10.1.1.4,33,0.090,0.090,0.090,0.000,0.000,0.000
1644905272468452096,2022-02-15-06:07:52,10.1.1.4,23,0.100,0.100,0.100,0.000,0.000,0.000
1644905272528333056,2022-02-15-06:07:52,10.1.1.4,32,0.090,0.090,0.090,0.000,0.000,0.000
1644905272568667904,2022-02-15-06:07:52,10.1.1.4,22,0.080,0.080,0.080,0.000,0.000,0.000
1644905272628572928,2022-02-15-06:07:52,10.1.1.4,31,0.070,0.070,0.070,0.000,0.000,0.000
1644905272668165888,2022-02-15-06:07:52,10.1.1.4,20,0.060,0.060,0.060,0.000,0.000,0.000
1644905272727809024,2022-02-15-06:07:52,10.1.1.4,29,0.050,0.050,0.050,0.000,0.000,0.000
1644905272788505088,2022-02-15-06:07:52,10.1.1.4,38,0.040,0.040,0.040,0.000,0.000,0.000
1644905272827661056,2022-02-15-06:07:52,10.1.1.4,26,0.030,0.030,0.030,0.000,0.000,0.000
1644905272887864064,2022-02-15-06:07:52,10.1.1.4,36,0.020,0.020,0.020,0.000,0.000,0.000
1644905272928538112,2022-02-15-06:07:52,10.1.1.4,25,0.010,0.010,0.010,0.000,0.000,0.000
1644905272987688192,2022-02-15-06:07:52,10.1.1.4,33,0.000,0.000,0.000,0.000,0.000,0.000
1644905273027930880,2022-02-15-06:07:53,10.1.1.4,23,-0.010,-0.010,-0.010,0.000,0.000,0.000
1644905273088435968,2022-02-15-06:07:53,10.1.1.4,32,-0.020,-0.020,-0.020,0.000,0.000,0.000
1644905273128685824,2022-02-15-06:07:53,10.1.1.4,22,-0.030,-0.030,-0.030,0.000,0.000,0.000
1644905273187838976,2022-02-15-06:07:53,10.1.1.4,31,-0.040,-0.040,-0.040,0.000,0.000,0.000
1644905273228262912,2022-02-15-06:07:53,10.1.1.4,20,-0.050,-0.050,-0.050,0.000,0.000,0.000
1644905273288468992,2022-02-15-06:07:53,10.1.1.4,29,-0.060,-0.060,-0.060,0.000,0.000,0.000
1644905273348356864,2022-02-15-06:07:53,10.1.1.4,38,-0.070,-0.070,-0.070,0.000,0.000,0.000
1644905273387929088,2022-02-15-06:07:53,10.1.1.4,28,-0.080,-0.080,-0.080,0.000,0.000,0.000
1644905273448129792,2022-02-15-06:07:53,10.1.1.4,36,-0.090,-0.090,-0.090,0.000,0.000,0.000
1644905273488171008,2022-02-15-06:07:53,10.1.1.4,26,-0.100,-0.100,-0.100,0.000,0.000,0.000
1644905273549259776,2022-02-15-06:07:53,10.1.1.4,35,-0.090,-0.090,-0.090,0.000,0.000,0.000
1644905273597652992,2022-02-15-06:07:53,10.1.1.4,23,-0.080,-0.080,-0.080,0.000,0.000,0.000
1644905273647348992,2022-02-15-06:07:53,10.1.1.4,27,-0.070,-0.070,-0.070,0.000,0.000,0.000
1644905273708103936,2022-02-15-06:07:53,10.1.1.4,34,-0.060,-0.060,-0.060,0.000,0.000,0.000
1644905273747806976,2022-02-15-06:07:53,10.1.1.4,24,-0.050,-0.050,-0.050,0.000,0.000,0.000
1644905273807856128,2022-02-15-06:07:53,10.1.1.4,33,-0.040,-0.040,-0.040,0.000,0.000,0.000
1644905273847440896,2022-02-15-06:07:53,10.1.1.4,22,-0.030,-0.030,-0.030,0.000,0.000,0.000
1644905273908516864,2022-02-15-06:07:53,10.1.1.4,32,-0.020,-0.020,-0.020,0.000,0.000,0.000
1644905273947535872,2022-02-15-06:07:53,10.1.1.4,22,-0.010,-0.010,-0.010,0.000,0.000,0.000
1644905274008737024,2022-02-15-06:07:54,10.1.1.4,31,0.000,0.000,0.000,0.000,0.000,0.000
1644905274047830016,2022-02-15-06:07:54,10.1.1.4,19,0.009,0.009,0.009,0.000,0.000,0.000
1644905274107121920,2022-02-15-06:07:54,10.1.1.4,28,0.020,0.020,0.020,0.000,0.000,0.000
1644905274168015104,2022-02-15-06:07:54,10.1.1.4,38,0.030,0.030,0.030,0.000,0.000,0.000
1644905274207782144,2022-02-15-06:07:54,10.1.1.4,28,0.040,0.040,0.040,0.000,0.000,0.000
1644905274267416064,2022-02-15-06:07:54,10.1.1.4,37,0.050,0.050,0.050,0.000,0.000,0.000
1644905274307311104,2022-02-15-06:07:54,10.1.1.4,27,0.060,0.060,0.060,0.000,0.000,0.000
1644905274368184064,2022-02-15-06:07:54,10.1.1.4,37,0.070,0.070,0.070,0.000,0.000,0.000
1644905274407576064,2022-02-15-06:07:54,10.1.1.4,24,0.080,0.080,0.080,0.000,0.000,0.000
1644905274468107008,2022-02-15-06:07:54,10.1.1.4,34,0.090,0.090,0.090,0.000,0.000,0.000
1644905274507940096,2022-02-15-06:07:54,10.1.1.4,23,0.100,0.100,0.100,0.000,0.000,0.000
1644905274568137984,2022-02-15-06:07:54,10.1.1.4,33,0.090,0.090,0.090,0.000,0.000,0.000
1644905274608915968,2022-02-15-06:07:54,10.1.1.4,22,0.080,0.080,0.080,0.000,0.000,0.000
1644905274675762944,2022-02-15-06:07:54,10.1.1.4,31,0.070,0.070,0.070,0.000,0.000,0.000
1644905274727545856,2022-02-15-06:07:54,10.1.1.4,39,0.060,0.060,0.060,0.000,0.000,0.000
1644905274768708096,2022-02-15-06:07:54,10.1.1.4,27,0.050,0.050,0.050,0.000,0.000,0.000
1644905274828403968,2022-02-15-06:07:54,10.1.1.4,35,0.040,0.040,0.040,0.000,0.000,0.000
1644905274868611072,2022-02-15-06:07:54,10.1.1.4,25,0.030,0.030,0.030,0.000,0.000,0.000
1644905274928504832,2022-02-15-06:07:54,10.1.1.4,35,0.020,0.020,0.020,0.000,0.000,0.000
1644905274968051968,2022-02-15-06:07:54,10.1.1.4,24,0.010,0.010,0.010,0.000,0.000,0.000
1644905275028350976,2022-02-15-06:07:55,10.1.1.4,33,0.000,0.000,0.000,0.000,0.000,0.000
1644905275068169984,2022-02-15-06:07:55,10.1.1.4,23,-0.010,-0.010,-0.010,0.000,0.000,0.000
1644905275128353024,2022-02-15-06:07:55,10.1.1.4,33,-0.020,-0.020,-0.020,0.000,0.000,0.000
1644905275168823040,2022-02-15-06:07:55,10.1.1.4,22,-0.030,-0.030,-0.030,0.000,0.000,0.000
1644905275227837952,2022-02-15-06:07:55,10.1.1.4,31,-0.040,-0.040,-0.040,0.000,0.000,0.000
1644905275268068096,2022-02-15-06:07:55,10.1.1.4,20,-0.050,-0.050,-0.050,0.000,0.000,0.000
1644905275327784960,2022-02-15-06:07:55,10.1.1.4,30,-0.060,-0.060,-0.060,0.000,0.000,0.000
1644905275368240128,2022-02-15-06:07:55,10.1.1.4,19,-0.069,-0.069,-0.069,0.000,0.000,0.000
1644905275428133888,2022-02-15-06:07:55,10.1.1.4,29,-0.080,-0.080,-0.080,0.000,0.000,0.000
1644905275488672000,2022-02-15-06:07:55,10.1.1.4,38,-0.090,-0.090,-0.090,0.000,0.000,0.000
1644905275528183040,2022-02-15-06:07:55,10.1.1.4,27,-0.100,-0.100,-0.100,0.000,0.000,0.000
1644905275588466944,2022-02-15-06:07:55,10.1.1.4,37,-0.090,-0.090,-0.090,0.000,0.000,0.000
1644905275627758080,2022-02-15-06:07:55,10.1.1.4,27,-0.080,-0.080,-0.080,0.000,0.000,0.000
1644905275687486976,2022-02-15-06:07:55,10.1.1.4,36,-0.070,-0.070,-0.070,0.000,0.000,0.000
1644905275728084992,2022-02-15-06:07:55,10.1.1.4,26,-0.060,-0.060,-0.060,0.000,0.000,0.000
1644905275788363008,2022-02-15-06:07:55,10.1.1.4,35,-0.050,-0.050,-0.050,0.000,0.000,0.000
1644905275828953856,2022-02-15-06:07:55,10.1.1.4,22,-0.040,-0.040,-0.040,0.000,0.000,0.000
1644905275887845120,2022-02-15-06:07:55,10.1.1.4,31,-0.030,-0.030,-0.030,0.000,0.000,0.000
1644905275927725056,2022-02-15-06:07:55,10.1.1.4,18,-0.020,-0.020,-0.020,0.000,0.000,0.000
1644905275987788032,2022-02-15-06:07:55,10.1.1.4,28,-0.010,-0.010,-0.010,0.000,0.000,0.000
1644905276047962880,2022-02-15-06:07:56,10.1.1.4,37,0.000,0.000,0.000,0.000,0.000,0.000
1644905276088468992,2022-02-15-06:07:56,10.1.1.4,26,0.010,0.010,0.010,0.000,0.000,0.000
1644905276147959040,2022-02-15-06:07:56,10.1.1.4,35,0.020,0.020,0.020,0.000,0.000,0.000
1644905276187952896,2022-02-15-06:07:56,10.1.1.4,24,0.030,0.030,0.030,0.000,0.000,0.000
1644905276247440128,2022-02-15-06:07:56,10.1.1.4,33,0.040,0.040,0.040,0.000,0.000,0.000
1644905276292113920,2022-02-15-06:07:56,10.1.1.4,23,0.050,0.050,0.050,0.000,0.000,0.000
1644905276349577984,2022-02-15-06:07:56,10.1.1.4,27,0.060,0.060,0.060,0.000,0.000,0.000
1644905276407636992,2022-02-15-06:07:56,10.1.1.4,26,0.070,0.070,0.070,0.000,0.000,0.000
1644905276467449856,2022-02-15-06:07:56,10.1.1.4,35,0.080,0.080,0.080,0.000,0.000,0.000
1644905276507291136,2022-02-15-06:07:56,10.1.1.4,22,0.090,0.090,0.090,0.000,0.000,0.000
1644905276568096000,2022-02-15-06:07:56,10.1.1.4,32,0.100,0.100,0.100,0.000,0.000,0.000
1644905276607809024,2022-02-15-06:07:56,10.1.1.4,22,0.090,0.090,0.090,0.000,0.000,0.000
1644905276668672000,2022-02-15-06:07:56,10.1.1.4,30,0.080,0.080,0.080,0.000,0.000,0.000
1644905276708242944,2022-02-15-06:07:56,10.1.1.4,20,0.070,0.070,0.070,0.000,0.000,0.000
1644905276768347136,2022-02-15-06:07:56,10.1.1.4,29,0.060,0.060,0.060,0.000,0.000,0.000
1644905276808430848,2022-02-15-06:07:56,10.1.1.4,18,0.051,0.051,0.051,0.000,0.000,0.000
1644905276867851008,2022-02-15-06:07:56,10.1.1.4,25,0.040,0.040,0.040,0.000,0.000,0.000
1644905276928198144,2022-02-15-06:07:56,10.1.1.4,35,0.030,0.030,0.030,0.000,0.000,0.000
1644905276967859968,2022-02-15-06:07:56,10.1.1.4,22,0.020,0.020,0.020,0.000,0.000,0.000
1644905277028128000,2022-02-15-06:07:57,10.1.1.4,30,0.010,0.010,0.010,0.000,0.000,0.000
1644905277068436992,2022-02-15-06:07:57,10.1.1.4,19,0.001,0.001,0.001,0.000,0.000,0.000
1644905277127896064,2022-02-15-06:07:57,10.1.1.4,26,-0.010,-0.010,-0.010,0.000,0.000,0.000
1644905277187574016,2022-02-15-06:07:57,10.1.1.4,36,-0.020,-0.020,-0.020,0.000,0.000,0.000
1644905277227979776,2022-02-15-06:07:57,10.1.1.4,25,-0.030,-0.030,-0.030,0.000,0.000,0.000
1644905277288256000,2022-02-15-06:07:57,10.1.1.4,34,-0.040,-0.040,-0.040,0.000,0.000,0.000
1644905277327922944,2022-02-15-06:07:57,10.1.1.4,23,-0.050,-0.050,-0.050,0.000,0.000,0.000
1644905277388293120,2022-02-15-06:07:57,10.1.1.4,32,-0.060,-0.060,-0.060,0.000,0.000,0.000
1644905277428558080,2022-02-15-06:07:57,10.1.1.4,22,-0.070,-0.070,-0.070,0.000,0.000,0.000
1644905277488416000,2022-02-15-06:07:57,10.1.1.4,30,-0.080,-0.080,-0.080,0.000,0.000,0.000
1644905277548073984,2022-02-15-06:07:57,10.1.1.4,39,-0.090,-0.090,-0.090,0.000,0.000,0.000
1644905277588125952,2022-02-15-06:07:57,10.1.1.4,28,-0.100,-0.100,-0.100,0.000,0.000,0.000
1644905277647841024,2022-02-15-06:07:57,10.1.1.4,37,-0.090,-0.090,-0.090,0.000,0.000,0.000
1644905277688477952,2022-02-15-06:07:57,10.1.1.4,26,-0.080,-0.080,-0.080,0.000,0.000,0.000
1644905277748120064,2022-02-15-06:07:57,10.1.1.4,35,-0.070,-0.070,-0.070,0.000,0.000,0.000
1644905277788020992,2022-02-15-06:07:57,10.1.1.4,25,-0.060,-0.060,-0.060,0.000,0.000,0.000
1644905277847644928,2022-02-15-06:07:57,10.1.1.4,34,-0.050,-0.050,-0.050,0.000,0.000,0.000
1644905277887892992,2022-02-15-06:07:57,10.1.1.4,23,-0.040,-0.040,-0.040,0.000,0.000,0.000
1644905278049363968,2022-02-15-06:07:58,10.1.1.4,30,-0.010,-0.010,-0.010,0.000,0.000,0.000
1644905278091758848,2022-02-15-06:07:58,10.1.1.4,20,0.000,0.000,0.000,0.000,0.000,0.000
1644905278148078848,2022-02-15-06:07:58,10.1.1.4,27,0.010,0.010,0.010,0.000,0.000,0.000
1644905278209059840,2022-02-15-06:07:58,10.1.1.4,36,0.020,0.020,0.020,0.000,0.000,0.000
1644905278266202880,2022-02-15-06:07:58,10.1.1.4,34,0.030,0.030,0.030,0.000,0.000,0.000
1644905278309434880,2022-02-15-06:07:58,10.1.1.4,34,0.040,0.040,0.040,0.000,0.000,0.000
1644905278347984128,2022-02-15-06:07:58,10.1.1.4,23,0.050,0.050,0.050,0.000,0.000,0.000
1644905278409452032,2022-02-15-06:07:58,10.1.1.4,33,0.060,0.060,0.060,0.000,0.000,0.000
1644905278463494144,2022-02-15-06:07:58,10.1.1.4,34,0.070,0.070,0.070,0.000,0.000,0.000
1644905278520390912,2022-02-15-06:07:58,10.1.1.4,40,0.080,0.080,0.080,0.000,0.000,0.000
1644905278547780864,2022-02-15-06:07:58,10.1.1.4,19,0.090,0.090,0.090,0.000,0.000,0.000
1644905278616719872,2022-02-15-06:07:58,10.1.1.4,35,0.100,0.100,0.100,0.000,0.000,0.000
1644905278669740800,2022-02-15-06:07:58,10.1.1.4,38,0.090,0.090,0.090,0.000,0.000,0.000
1644905278709840896,2022-02-15-06:07:58,10.1.1.4,27,0.080,0.080,0.080,0.000,0.000,0.000
1644905278767512064,2022-02-15-06:07:58,10.1.1.4,37,0.070,0.070,0.070,0.000,0.000,0.000
1644905278807486976,2022-02-15-06:07:58,10.1.1.4,26,0.060,0.060,0.060,0.000,0.000,0.000
1644905278907873024,2022-02-15-06:07:58,10.1.1.4,24,0.040,0.040,0.040,0.000,0.000,0.000
1644905278968020992,2022-02-15-06:07:58,10.1.1.4,33,0.030,0.030,0.030,0.000,0.000,0.000
1644905279008632064,2022-02-15-06:07:59,10.1.1.4,23,0.020,0.020,0.020,0.000,0.000,0.000
1644905279068427008,2022-02-15-06:07:59,10.1.1.4,32,0.010,0.010,0.010,0.000,0.000,0.000
1644905279108011008,2022-02-15-06:07:59,10.1.1.4,20,0.000,0.000,0.000,0.000,0.000,0.000
1644905279170511104,2022-02-15-06:07:59,10.1.1.4,31,-0.010,-0.010,-0.010,0.000,0.000,0.000
1644905279207951104,2022-02-15-06:07:59,10.1.1.4,18,-0.019,-0.019,-0.019,0.000,0.000,0.000
1644905279267996928,2022-02-15-06:07:59,10.1.1.4,27,-0.030,-0.030,-0.030,0.000,0.000,0.000
1644905279328387072,2022-02-15-06:07:59,10.1.1.4,37,-0.040,-0.040,-0.040,0.000,0.000,0.000
1644905279370659072,2022-02-15-06:07:59,10.1.1.4,28,-0.050,-0.050,-0.050,0.000,0.000,0.000
1644905279430372096,2022-02-15-06:07:59,10.1.1.4,36,-0.060,-0.060,-0.060,0.000,0.000,0.000
1644905279469422080,2022-02-15-06:07:59,10.1.1.4,24,-0.070,-0.070,-0.070,0.000,0.000,0.000
1644905279528930048,2022-02-15-06:07:59,10.1.1.4,34,-0.080,-0.080,-0.080,0.000,0.000,0.000
1644905279567881984,2022-02-15-06:07:59,10.1.1.4,23,-0.090,-0.090,-0.090,0.000,0.000,0.000
1644905279628396032,2022-02-15-06:07:59,10.1.1.4,32,-0.100,-0.100,-0.100,0.000,0.000,0.000
1644905279668675072,2022-02-15-06:07:59,10.1.1.4,21,-0.090,-0.090,-0.090,0.000,0.000,0.000
1644905279727899136,2022-02-15-06:07:59,10.1.1.4,30,-0.080,-0.080,-0.080,0.000,0.000,0.000
1644905279769274880,2022-02-15-06:07:59,10.1.1.4,19,-0.071,-0.071,-0.071,0.000,0.000,0.000
1644905279828506880,2022-02-15-06:07:59,10.1.1.4,27,-0.060,-0.060,-0.060,0.000,0.000,0.000
1644905279888753920,2022-02-15-06:07:59,10.1.1.4,37,-0.050,-0.050,-0.050,0.000,0.000,0.000
1644905279928872192,2022-02-15-06:07:59,10.1.1.4,26,-0.040,-0.040,-0.040,0.000,0.000,0.000
1644905279988115200,2022-02-15-06:07:59,10.1.1.4,35,-0.030,-0.030,-0.030,0.000,0.000,0.000
1644905280028489216,2022-02-15-06:08:00,10.1.1.4,25,-0.020,-0.020,-0.020,0.000,0.000,0.000
1644905280090236928,2022-02-15-06:08:00,10.1.1.4,34,-0.010,-0.010,-0.010,0.000,0.000,0.000
1644905280127887104,2022-02-15-06:08:00,10.1.1.4,22,0.000,0.000,0.000,0.000,0.000,0.000
1644905280187897856,2022-02-15-06:08:00,10.1.1.4,31,0.010,0.010,0.010,0.000,0.000,0.000
1644905280228502016,2022-02-15-06:08:00,10.1.1.4,20,0.020,0.020,0.020,0.000,0.000,0.000
1644905280288430848,2022-02-15-06:08:00,10.1.1.4,27,0.030,0.030,0.030,0.000,0.000,0.000
1644905280347384832,2022-02-15-06:08:00,10.1.1.4,35,0.040,0.040,0.040,0.000,0.000,0.000
1644905280387328000,2022-02-15-06:08:00,10.1.1.4,24,0.050,0.050,0.050,0.000,0.000,0.000
1644905280447833088,2022-02-15-06:08:00,10.1.1.4,33,0.060,0.060,0.060,0.000,0.000,0.000
1644905280488982016,2022-02-15-06:08:00,10.1.1.4,22,0.070,0.070,0.070,0.000,0.000,0.000
1644905280550082816,2022-02-15-06:08:00,10.1.1.4,30,0.080,0.080,0.080,0.000,0.000,0.000
1644905280608176896,2022-02-15-06:08:00,10.1.1.4,38,0.090,0.090,0.090,0.000,0.000,0.000
1644905280648297984,2022-02-15-06:08:00,10.1.1.4,27,0.100,0.100,0.100,0.000,0.000,0.000
1644905280709083136,2022-02-15-06:08:00,10.1.1.4,36,0.090,0.090,0.090,0.000,0.000,0.000
1644905280748403200,2022-02-15-06:08:00,10.1.1.4,24,0.080,0.080,0.080,0.000,0.000,0.000
1644905280807752960,2022-02-15-06:08:00,10.1.1.4,34,0.070,0.070,0.070,0.000,0.000,0.000
1644905280848137984,2022-02-15-06:08:00,10.1.1.4,21,0.060,0.060,0.060,0.000,0.000,0.000
1644905280968027136,2022-02-15-06:08:00,10.1.1.4,38,0.040,0.040,0.040,0.000,0.000,0.000
1644905281007968000,2022-02-15-06:08:01,10.1.1.4,21,0.030,0.030,0.030,0.000,0.000,0.000
1644905281068936960,2022-02-15-06:08:01,10.1.1.4,30,0.020,0.020,0.020,0.000,0.000,0.000
1644905281111479040,2022-02-15-06:08:01,10.1.1.4,19,0.010,0.010,0.010,0.000,0.000,0.000
1644905281168504064,2022-02-15-06:08:01,10.1.1.4,27,0.000,0.000,0.000,0.000,0.000,0.000
1644905281229420800,2022-02-15-06:08:01,10.1.1.4,35,-0.010,-0.010,-0.010,0.000,0.000,0.000
1644905281268152064,2022-02-15-06:08:01,10.1.1.4,23,-0.020,-0.020,-0.020,0.000,0.000,0.000
1644905281328491008,2022-02-15-06:08:01,10.1.1.4,31,-0.030,-0.030,-0.030,0.000,0.000,0.000
1644905281368833024,2022-02-15-06:08:01,10.1.1.4,20,-0.040,-0.040,-0.040,0.000,0.000,0.000
1644905281428966912,2022-02-15-06:08:01,10.1.1.4,27,-0.050,-0.050,-0.050,0.000,0.000,0.000
1644905281489314048,2022-02-15-06:08:01,10.1.1.4,35,-0.060,-0.060,-0.060,0.000,0.000,0.000
1644905281527964160,2022-02-15-06:08:01,10.1.1.4,23,-0.070,-0.070,-0.070,0.000,0.000,0.000
1644905281587940864,2022-02-15-06:08:01,10.1.1.4,32,-0.080,-0.080,-0.080,0.000,0.000,0.000
1644905281628472064,2022-02-15-06:08:01,10.1.1.4,21,-0.090,-0.090,-0.090,0.000,0.000,0.000
1644905281687782144,2022-02-15-06:08:01,10.1.1.4,29,-0.100,-0.100,-0.100,0.000,0.000,0.000
1644905281752625920,2022-02-15-06:08:01,10.1.1.4,38,-0.090,-0.090,-0.090,0.000,0.000,0.000
1644905281789700864,2022-02-15-06:08:01,10.1.1.4,19,-0.080,-0.080,-0.080,0.000,0.000,0.000
1644905281847737088,2022-02-15-06:08:01,10.1.1.4,28,-0.070,-0.070,-0.070,0.000,0.000,0.000
1644905281907666944,2022-02-15-06:08:01,10.1.1.4,37,-0.060,-0.060,-0.060,0.000,0.000,0.000
1644905281948532992,2022-02-15-06:08:01,10.1.1.4,27,-0.050,-0.050,-0.050,0.000,0.000,0.000
1644905282008265984,2022-02-15-06:08:02,10.1.1.4,35,-0.040,-0.040,-0.040,0.000,0.000,0.000
1644905282049516032,2022-02-15-06:08:02,10.1.1.4,24,-0.030,-0.030,-0.030,0.000,0.000,0.000
1644905282114733824,2022-02-15-06:08:02,10.1.1.4,33,-0.020,-0.020,-0.020,0.000,0.000,0.000
1644905282147960832,2022-02-15-06:08:02,10.1.1.4,22,-0.010,-0.010,-0.010,0.000,0.000,0.000
1644905282207465984,2022-02-15-06:08:02,10.1.1.4,32,0.000,0.000,0.000,0.000,0.000,0.000
1644905282247426048,2022-02-15-06:08:02,10.1.1.4,21,0.010,0.010,0.010,0.000,0.000,0.000
1644905282307232000,2022-02-15-06:08:02,10.1.1.4,31,0.020,0.020,0.020,0.000,0.000,0.000
1644905282347625984,2022-02-15-06:08:02,10.1.1.4,19,0.030,0.030,0.030,0.000,0.000,0.000
1644905282407655936,2022-02-15-06:08:02,10.1.1.4,27,0.040,0.040,0.040,0.000,0.000,0.000
1644905282467479040,2022-02-15-06:08:02,10.1.1.4,35,0.050,0.050,0.050,0.000,0.000,0.000
1644905282507673856,2022-02-15-06:08:02,10.1.1.4,24,0.060,0.060,0.060,0.000,0.000,0.000
1644905282567440896,2022-02-15-06:08:02,10.1.1.4,33,0.070,0.070,0.070,0.000,0.000,0.000
1644905282607320064,2022-02-15-06:08:02,10.1.1.4,22,0.080,0.080,0.080,0.000,0.000,0.000
1644905282667851008,2022-02-15-06:08:02,10.1.1.4,32,0.090,0.090,0.090,0.000,0.000,0.000
1644905282708025856,2022-02-15-06:08:02,10.1.1.4,20,0.100,0.100,0.100,0.000,0.000,0.000
1644905282767628032,2022-02-15-06:08:02,10.1.1.4,30,0.090,0.090,0.090,0.000,0.000,0.000
1644905282808610048,2022-02-15-06:08:02,10.1.1.4,19,0.081,0.081,0.081,0.000,0.000,0.000
1644905282867863040,2022-02-15-06:08:02,10.1.1.4,28,0.070,0.070,0.070,0.000,0.000,0.000
1644905282928440064,2022-02-15-06:08:02,10.1.1.4,38,0.060,0.060,0.060,0.000,0.000,0.000
1644905282967990016,2022-02-15-06:08:02,10.1.1.4,27,0.050,0.050,0.050,0.000,0.000,0.000
1644905283027712000,2022-02-15-06:08:03,10.1.1.4,37,0.040,0.040,0.040,0.000,0.000,0.000
1644905283068219904,2022-02-15-06:08:03,10.1.1.4,26,0.030,0.030,0.030,0.000,0.000,0.000
1644905283127877120,2022-02-15-06:08:03,10.1.1.4,36,0.020,0.020,0.020,0.000,0.000,0.000
1644905283168456192,2022-02-15-06:08:03,10.1.1.4,25,0.010,0.010,0.010,0.000,0.000,0.000
1644905283228050944,2022-02-15-06:08:03,10.1.1.4,35,0.000,0.000,0.000,0.000,0.000,0.000
1644905283267429120,2022-02-15-06:08:03,10.1.1.4,24,-0.010,-0.010,-0.010,0.000,0.000,0.000
1644905283327738112,2022-02-15-06:08:03,10.1.1.4,34,-0.020,-0.020,-0.020,0.000,0.000,0.000
1644905283367742976,2022-02-15-06:08:03,10.1.1.4,23,-0.030,-0.030,-0.030,0.000,0.000,0.000
1644905283427834112,2022-02-15-06:08:03,10.1.1.4,33,-0.040,-0.040,-0.040,0.000,0.000,0.000
1644905283467681024,2022-02-15-06:08:03,10.1.1.4,22,-0.050,-0.050,-0.050,0.000,0.000,0.000
1644905283528100864,2022-02-15-06:08:03,10.1.1.4,27,-0.060,-0.060,-0.060,0.000,0.000,0.000
1644905283587505152,2022-02-15-06:08:03,10.1.1.4,36,-0.070,-0.070,-0.070,0.000,0.000,0.000
1644905283627517952,2022-02-15-06:08:03,10.1.1.4,26,-0.080,-0.080,-0.080,0.000,0.000,0.000
1644905283687459072,2022-02-15-06:08:03,10.1.1.4,35,-0.090,-0.090,-0.090,0.000,0.000,0.000
1644905283728176128,2022-02-15-06:08:03,10.1.1.4,25,-0.100,-0.100,-0.100,0.000,0.000,0.000
1644905283787345920,2022-02-15-06:08:03,10.1.1.4,34,-0.090,-0.090,-0.090,0.000,0.000,0.000
1644905283827634944,2022-02-15-06:08:03,10.1.1.4,21,-0.080,-0.080,-0.080,0.000,0.000,0.000
1644905283887276800,2022-02-15-06:08:03,10.1.1.4,31,-0.070,-0.070,-0.070,0.000,0.000,0.000
1644905283927758848,2022-02-15-06:08:03,10.1.1.4,20,-0.060,-0.060,-0.060,0.000,0.000,0.000
1644905283988084992,2022-02-15-06:08:03,10.1.1.4,30,-0.050,-0.050,-0.050,0.000,0.000,0.000
1644905284027220992,2022-02-15-06:08:04,10.1.1.4,19,-0.040,-0.040,-0.040,0.000,0.000,0.000
1644905284087425024,2022-02-15-06:08:04,10.1.1.4,29,-0.030,-0.030,-0.030,0.000,0.000,0.000
1644905284147728896,2022-02-15-06:08:04,10.1.1.4,38,-0.020,-0.020,-0.020,0.000,0.000,0.000
1644905284187165952,2022-02-15-06:08:04,10.1.1.4,28,-0.010,-0.010,-0.010,0.000,0.000,0.000
1644905284247406848,2022-02-15-06:08:04,10.1.1.4,37,0.000,0.000,0.000,0.000,0.000,0.000
1644905284287782912,2022-02-15-06:08:04,10.1.1.4,27,0.010,0.010,0.010,0.000,0.000,0.000
1644905284347471104,2022-02-15-06:08:04,10.1.1.4,37,0.020,0.020,0.020,0.000,0.000,0.000
1644905284387860992,2022-02-15-06:08:04,10.1.1.4,26,0.030,0.030,0.030,0.000,0.000,0.000
1644905284447415040,2022-02-15-06:08:04,10.1.1.4,35,0.040,0.040,0.040,0.000,0.000,0.000
1644905284488370944,2022-02-15-06:08:04,10.1.1.4,24,0.050,0.050,0.050,0.000,0.000,0.000
1644905284547947008,2022-02-15-06:08:04,10.1.1.4,34,0.060,0.060,0.060,0.000,0.000,0.000
1644905284587117056,2022-02-15-06:08:04,10.1.1.4,23,0.070,0.070,0.070,0.000,0.000,0.000
1644905284647214848,2022-02-15-06:08:04,10.1.1.4,33,0.080,0.080,0.080,0.000,0.000,0.000
1644905284688449024,2022-02-15-06:08:04,10.1.1.4,22,0.090,0.090,0.090,0.000,0.000,0.000
1644905284775012096,2022-02-15-06:08:04,10.1.1.4,23,0.100,0.100,0.100,0.000,0.000,0.000
1644905284868029184,2022-02-15-06:08:04,10.1.1.4,21,0.080,0.080,0.080,0.000,0.000,0.000
1644905284927997952,2022-02-15-06:08:04,10.1.1.4,30,0.070,0.070,0.070,0.000,0.000,0.000
1644905284967968000,2022-02-15-06:08:04,10.1.1.4,20,0.060,0.060,0.060,0.000,0.000,0.000
1644905285027982848,2022-02-15-06:08:05,10.1.1.4,29,0.050,0.050,0.050,0.000,0.000,0.000
1644905285067752960,2022-02-15-06:08:05,10.1.1.4,19,0.041,0.041,0.041,0.000,0.000,0.000
1644905285128568832,2022-02-15-06:08:05,10.1.1.4,28,0.030,0.030,0.030,0.000,0.000,0.000
1644905285229810944,2022-02-15-06:08:05,10.1.1.4,27,0.010,0.010,0.010,0.000,0.000,0.000
1644905285288311040,2022-02-15-06:08:05,10.1.1.4,36,0.000,0.000,0.000,0.000,0.000,0.000
1644905285328325888,2022-02-15-06:08:05,10.1.1.4,25,-0.010,-0.010,-0.010,0.000,0.000,0.000
1644905285387512832,2022-02-15-06:08:05,10.1.1.4,34,-0.020,-0.020,-0.020,0.000,0.000,0.000
1644905285427975936,2022-02-15-06:08:05,10.1.1.4,22,-0.030,-0.030,-0.030,0.000,0.000,0.000
1644905285488403200,2022-02-15-06:08:05,10.1.1.4,31,-0.040,-0.040,-0.040,0.000,0.000,0.000
1644905285547864064,2022-02-15-06:08:05,10.1.1.4,38,-0.050,-0.050,-0.050,0.000,0.000,0.000
1644905285587950848,2022-02-15-06:08:05,10.1.1.4,28,-0.060,-0.060,-0.060,0.000,0.000,0.000
1644905285647998208,2022-02-15-06:08:05,10.1.1.4,37,-0.070,-0.070,-0.070,0.000,0.000,0.000
1644905285688649984,2022-02-15-06:08:05,10.1.1.4,26,-0.080,-0.080,-0.080,0.000,0.000,0.000
1644905285748943104,2022-02-15-06:08:05,10.1.1.4,35,-0.090,-0.090,-0.090,0.000,0.000,0.000
1644905285788711168,2022-02-15-06:08:05,10.1.1.4,24,-0.100,-0.100,-0.100,0.000,0.000,0.000
1644905285847474176,2022-02-15-06:08:05,10.1.1.4,33,-0.090,-0.090,-0.090,0.000,0.000,0.000
1644905285888005888,2022-02-15-06:08:05,10.1.1.4,21,-0.080,-0.080,-0.080,0.000,0.000,0.000
1644905285948549120,2022-02-15-06:08:05,10.1.1.4,31,-0.070,-0.070,-0.070,0.000,0.000,0.000
1644905285988156928,2022-02-15-06:08:05,10.1.1.4,19,-0.061,-0.061,-0.061,0.000,0.000,0.000
1644905286047686144,2022-02-15-06:08:06,10.1.1.4,28,-0.050,-0.050,-0.050,0.000,0.000,0.000
1644905286107948032,2022-02-15-06:08:06,10.1.1.4,37,-0.040,-0.040,-0.040,0.000,0.000,0.000
1644905286147634944,2022-02-15-06:08:06,10.1.1.4,27,-0.030,-0.030,-0.030,0.000,0.000,0.000
1644905286207784960,2022-02-15-06:08:06,10.1.1.4,36,-0.020,-0.020,-0.020,0.000,0.000,0.000
1644905286248246016,2022-02-15-06:08:06,10.1.1.4,25,-0.010,-0.010,-0.010,0.000,0.000,0.000
1644905286308992000,2022-02-15-06:08:06,10.1.1.4,35,0.000,0.000,0.000,0.000,0.000,0.000
1644905286348267008,2022-02-15-06:08:06,10.1.1.4,24,0.010,0.010,0.010,0.000,0.000,0.000
1644905286408118016,2022-02-15-06:08:06,10.1.1.4,34,0.020,0.020,0.020,0.000,0.000,0.000
1644905286448318976,2022-02-15-06:08:06,10.1.1.4,22,0.030,0.030,0.030,0.000,0.000,0.000
1644905286507447040,2022-02-15-06:08:06,10.1.1.4,30,0.040,0.040,0.040,0.000,0.000,0.000
1644905286549786112,2022-02-15-06:08:06,10.1.1.4,19,0.050,0.050,0.050,0.000,0.000,0.000
1644905286607728128,2022-02-15-06:08:06,10.1.1.4,29,0.060,0.060,0.060,0.000,0.000,0.000
1644905286668658944,2022-02-15-06:08:06,10.1.1.4,38,0.070,0.070,0.070,0.000,0.000,0.000
1644905286707809024,2022-02-15-06:08:06,10.1.1.4,27,0.080,0.080,0.080,0.000,0.000,0.000
1644905286767873024,2022-02-15-06:08:06,10.1.1.4,35,0.090,0.090,0.090,0.000,0.000,0.000
1644905286809388032,2022-02-15-06:08:06,10.1.1.4,24,0.100,0.100,0.100,0.000,0.000,0.000
1644905286867801856,2022-02-15-06:08:06,10.1.1.4,34,0.090,0.090,0.090,0.000,0.000,0.000
1644905286912115968,2022-02-15-06:08:06,10.1.1.4,23,0.080,0.080,0.080,0.000,0.000,0.000
1644905286968190976,2022-02-15-06:08:06,10.1.1.4,33,0.070,0.070,0.070,0.000,0.000,0.000
1644905287008711936,2022-02-15-06:08:07,10.1.1.4,22,0.060,0.060,0.060,0.000,0.000,0.000
1644905287128395008,2022-02-15-06:08:07,10.1.1.4,25,0.040,0.040,0.040,0.000,0.000,0.000
1644905287188569088,2022-02-15-06:08:07,10.1.1.4,35,0.030,0.030,0.030,0.000,0.000,0.000
1644905287227996160,2022-02-15-06:08:07,10.1.1.4,23,0.020,0.020,0.020,0.000,0.000,0.000
1644905287288431872,2022-02-15-06:08:07,10.1.1.4,33,0.010,0.010,0.010,0.000,0.000,0.000
1644905287328500992,2022-02-15-06:08:07,10.1.1.4,23,0.000,0.000,0.000,0.000,0.000,0.000
1644905287388151808,2022-02-15-06:08:07,10.1.1.4,32,-0.010,-0.010,-0.010,0.000,0.000,0.000
1644905287428636160,2022-02-15-06:08:07,10.1.1.4,22,-0.020,-0.020,-0.020,0.000,0.000,0.000
1644905287487948800,2022-02-15-06:08:07,10.1.1.4,31,-0.030,-0.030,-0.030,0.000,0.000,0.000
1644905287527782912,2022-02-15-06:08:07,10.1.1.4,21,-0.040,-0.040,-0.040,0.000,0.000,0.000
1644905287650525952,2022-02-15-06:08:07,10.1.1.4,39,-0.060,-0.060,-0.060,0.000,0.000,0.000
1644905287718665984,2022-02-15-06:08:07,10.1.1.4,27,-0.070,-0.070,-0.070,0.000,0.000,0.000
1644905287749754880,2022-02-15-06:08:07,10.1.1.4,22,-0.080,-0.080,-0.080,0.000,0.000,0.000
1644905287810688000,2022-02-15-06:08:07,10.1.1.4,31,-0.090,-0.090,-0.090,0.000,0.000,0.000
1644905287847779072,2022-02-15-06:08:07,10.1.1.4,20,-0.100,-0.100,-0.100,0.000,0.000,0.000
1644905287908061952,2022-02-15-06:08:07,10.1.1.4,29,-0.090,-0.090,-0.090,0.000,0.000,0.000
1644905287947942912,2022-02-15-06:08:07,10.1.1.4,19,-0.081,-0.081,-0.081,0.000,0.000,0.000
1644905288008104960,2022-02-15-06:08:08,10.1.1.4,27,-0.070,-0.070,-0.070,0.000,0.000,0.000
1644905288068707072,2022-02-15-06:08:08,10.1.1.4,37,-0.060,-0.060,-0.060,0.000,0.000,0.000
1644905288119985152,2022-02-15-06:08:08,10.1.1.4,26,-0.050,-0.050,-0.050,0.000,0.000,0.000
1644905288172422912,2022-02-15-06:08:08,10.1.1.4,34,-0.040,-0.040,-0.040,0.000,0.000,0.000
1644905288207784960,2022-02-15-06:08:08,10.1.1.4,22,-0.030,-0.030,-0.030,0.000,0.000,0.000
1644905288267895040,2022-02-15-06:08:08,10.1.1.4,32,-0.020,-0.020,-0.020,0.000,0.000,0.000
1644905288308201984,2022-02-15-06:08:08,10.1.1.4,21,-0.010,-0.010,-0.010,0.000,0.000,0.000
1644905288368161792,2022-02-15-06:08:08,10.1.1.4,30,0.000,0.000,0.000,0.000,0.000,0.000
1644905288408055040,2022-02-15-06:08:08,10.1.1.4,20,0.010,0.010,0.010,0.000,0.000,0.000
1644905288468235008,2022-02-15-06:08:08,10.1.1.4,30,0.020,0.020,0.020,0.000,0.000,0.000
1644905288508188928,2022-02-15-06:08:08,10.1.1.4,19,0.030,0.030,0.030,0.000,0.000,0.000
1644905288577106944,2022-02-15-06:08:08,10.1.1.4,28,0.040,0.040,0.040,0.000,0.000,0.000
1644905288668192000,2022-02-15-06:08:08,10.1.1.4,26,0.060,0.060,0.060,0.000,0.000,0.000
1644905288727894016,2022-02-15-06:08:08,10.1.1.4,36,0.070,0.070,0.070,0.000,0.000,0.000
1644905288767409152,2022-02-15-06:08:08,10.1.1.4,25,0.080,0.080,0.080,0.000,0.000,0.000
1644905288827943936,2022-02-15-06:08:08,10.1.1.4,34,0.090,0.090,0.090,0.000,0.000,0.000
1644905288868244992,2022-02-15-06:08:08,10.1.1.4,24,0.100,0.100,0.100,0.000,0.000,0.000
1644905288938291968,2022-02-15-06:08:08,10.1.1.4,33,0.090,0.090,0.090,0.000,0.000,0.000
1644905288967587840,2022-02-15-06:08:08,10.1.1.4,19,0.081,0.081,0.081,0.000,0.000,0.000
1644905289036265984,2022-02-15-06:08:09,10.1.1.4,27,0.070,0.070,0.070,0.000,0.000,0.000
1644905289088371968,2022-02-15-06:08:09,10.1.1.4,34,0.060,0.060,0.060,0.000,0.000,0.000
1644905289128088832,2022-02-15-06:08:09,10.1.1.4,23,0.050,0.050,0.050,0.000,0.000,0.000
1644905289187831040,2022-02-15-06:08:09,10.1.1.4,33,0.040,0.040,0.040,0.000,0.000,0.000
1644905289228848896,2022-02-15-06:08:09,10.1.1.4,22,0.030,0.030,0.030,0.000,0.000,0.000
1644905289287920896,2022-02-15-06:08:09,10.1.1.4,30,0.020,0.020,0.020,0.000,0.000,0.000
1644905289328553984,2022-02-15-06:08:09,10.1.1.4,19,0.010,0.010,0.010,0.000,0.000,0.000
1644905289388102912,2022-02-15-06:08:09,10.1.1.4,29,0.000,0.000,0.000,0.000,0.000,0.000
1644905289428577792,2022-02-15-06:08:09,10.1.1.4,19,-0.009,-0.009,-0.009,0.000,0.000,0.000
1644905289488380928,2022-02-15-06:08:09,10.1.1.4,28,-0.020,-0.020,-0.020,0.000,0.000,0.000
1644905289548327936,2022-02-15-06:08:09,10.1.1.4,37,-0.030,-0.030,-0.030,0.000,0.000,0.000
1644905289588238080,2022-02-15-06:08:09,10.1.1.4,27,-0.040,-0.040,-0.040,0.000,0.000,0.000
1644905289652156160,2022-02-15-06:08:09,10.1.1.4,36,-0.050,-0.050,-0.050,0.000,0.000,0.000
1644905289687675904,2022-02-15-06:08:09,10.1.1.4,26,-0.060,-0.060,-0.060,0.000,0.000,0.000
1644905289747622912,2022-02-15-06:08:09,10.1.1.4,36,-0.070,-0.070,-0.070,0.000,0.000,0.000
1644905289787651072,2022-02-15-06:08:09,10.1.1.4,25,-0.080,-0.080,-0.080,0.000,0.000,0.000
1644905289847105024,2022-02-15-06:08:09,10.1.1.4,34,-0.090,-0.090,-0.090,0.000,0.000,0.000
1644905289887667968,2022-02-15-06:08:09,10.1.1.4,23,-0.100,-0.100,-0.100,0.000,0.000,0.000
1644905289947933952,2022-02-15-06:08:09,10.1.1.4,32,-0.090,-0.090,-0.090,0.000,0.000,0.000
1644905289987848960,2022-02-15-06:08:09,10.1.1.4,22,-0.080,-0.080,-0.080,0.000,0.000,0.000
1644905290053519872,2022-02-15-06:08:10,10.1.1.4,31,-0.070,-0.070,-0.070,0.000,0.000,0.000
1644905290097501952,2022-02-15-06:08:10,10.1.1.4,19,-0.060,-0.060,-0.060,0.000,0.000,0.000
1644905290149202944,2022-02-15-06:08:10,10.1.1.4,29,-0.050,-0.050,-0.050,0.000,0.000,0.000
1644905290209309952,2022-02-15-06:08:10,10.1.1.4,38,-0.040,-0.040,-0.040,0.000,0.000,0.000
1644905290249196032,2022-02-15-06:08:10,10.1.1.4,27,-0.030,-0.030,-0.030,0.000,0.000,0.000
1644905290308770816,2022-02-15-06:08:10,10.1.1.4,36,-0.020,-0.020,-0.020,0.000,0.000,0.000
1644905290349462016,2022-02-15-06:08:10,10.1.1.4,24,-0.010,-0.010,-0.010,0.000,0.000,0.000
1644905290409053184,2022-02-15-06:08:10,10.1.1.4,33,0.000,0.000,0.000,0.000,0.000,0.000
1644905290448272896,2022-02-15-06:08:10,10.1.1.4,22,0.010,0.010,0.010,0.000,0.000,0.000
1644905290508694016,2022-02-15-06:08:10,10.1.1.4,31,0.020,0.020,0.020,0.000,0.000,0.000
1644905290548299008,2022-02-15-06:08:10,10.1.1.4,19,0.029,0.029,0.029,0.000,0.000,0.000
1644905290608817152,2022-02-15-06:08:10,10.1.1.4,27,0.040,0.040,0.040,0.000,0.000,0.000
1644905290668595968,2022-02-15-06:08:10,10.1.1.4,36,0.050,0.050,0.050,0.000,0.000,0.000
1644905290708481024,2022-02-15-06:08:10,10.1.1.4,25,0.060,0.060,0.060,0.000,0.000,0.000
1644905290768940800,2022-02-15-06:08:10,10.1.1.4,34,0.070,0.070,0.070,0.000,0.000,0.000
1644905290808555008,2022-02-15-06:08:10,10.1.1.4,23,0.080,0.080,0.080,0.000,0.000,0.000
1644905290869046016,2022-02-15-06:08:10,10.1.1.4,24,0.090,0.090,0.090,0.000,0.000,0.000
1644905290928273920,2022-02-15-06:08:10,10.1.1.4,33,0.100,0.100,0.100,0.000,0.000,0.000
1644905290967802880,2022-02-15-06:08:10,10.1.1.4,20,0.090,0.090,0.090,0.000,0.000,0.000
1644905291028088064,2022-02-15-06:08:11,10.1.1.4,28,0.080,0.080,0.080,0.000,0.000,0.000
1644905291088974080,2022-02-15-06:08:11,10.1.1.4,37,0.070,0.070,0.070,0.000,0.000,0.000
1644905291127890944,2022-02-15-06:08:11,10.1.1.4,26,0.060,0.060,0.060,0.000,0.000,0.000
1644905291187928832,2022-02-15-06:08:11,10.1.1.4,36,0.050,0.050,0.050,0.000,0.000,0.000
1644905291228379904,2022-02-15-06:08:11,10.1.1.4,24,0.040,0.040,0.040,0.000,0.000,0.000
1644905291287900928,2022-02-15-06:08:11,10.1.1.4,34,0.030,0.030,0.030,0.000,0.000,0.000
1644905291329231872,2022-02-15-06:08:11,10.1.1.4,23,0.020,0.020,0.020,0.000,0.000,0.000
1644905291388904960,2022-02-15-06:08:11,10.1.1.4,32,0.010,0.010,0.010,0.000,0.000,0.000
1644905291428282112,2022-02-15-06:08:11,10.1.1.4,21,0.000,0.000,0.000,0.000,0.000,0.000
1644905291488809984,2022-02-15-06:08:11,10.1.1.4,30,-0.010,-0.010,-0.010,0.000,0.000,0.000
1644905291549464832,2022-02-15-06:08:11,10.1.1.4,38,-0.020,-0.020,-0.020,0.000,0.000,0.000
1644905291588072960,2022-02-15-06:08:11,10.1.1.4,27,-0.030,-0.030,-0.030,0.000,0.000,0.000
1644905291647921920,2022-02-15-06:08:11,10.1.1.4,36,-0.040,-0.040,-0.040,0.000,0.000,0.000
1644905291689225984,2022-02-15-06:08:11,10.1.1.4,26,-0.050,-0.050,-0.050,0.000,0.000,0.000
1644905291748333824,2022-02-15-06:08:11,10.1.1.4,33,-0.060,-0.060,-0.060,0.000,0.000,0.000
1644905291787961088,2022-02-15-06:08:11,10.1.1.4,23,-0.070,-0.070,-0.070,0.000,0.000,0.000
1644905291847853056,2022-02-15-06:08:11,10.1.1.4,32,-0.080,-0.080,-0.080,0.000,0.000,0.000
1644905291888539904,2022-02-15-06:08:11,10.1.1.4,21,-0.090,-0.090,-0.090,0.000,0.000,0.000
1644905291948334080,2022-02-15-06:08:11,10.1.1.4,25,-0.100,-0.100,-0.100,0.000,0.000,0.000
1644905292008112896,2022-02-15-06:08:12,10.1.1.4,35,-0.090,-0.090,-0.090,0.000,0.000,0.000
1644905292047764992,2022-02-15-06:08:12,10.1.1.4,24,-0.080,-0.080,-0.080,0.000,0.000,0.000
1644905292107461888,2022-02-15-06:08:12,10.1.1.4,32,-0.070,-0.070,-0.070,0.000,0.000,0.000
1644905292147392000,2022-02-15-06:08:12,10.1.1.4,22,-0.060,-0.060,-0.060,0.000,0.000,0.000
1644905292207617024,2022-02-15-06:08:12,10.1.1.4,31,-0.050,-0.050,-0.050,0.000,0.000,0.000
1644905292247629824,2022-02-15-06:08:12,10.1.1.4,20,-0.040,-0.040,-0.040,0.000,0.000,0.000
1644905292308425984,2022-02-15-06:08:12,10.1.1.4,31,-0.030,-0.030,-0.030,0.000,0.000,0.000
1644905292347717888,2022-02-15-06:08:12,10.1.1.4,19,-0.020,-0.020,-0.020,0.000,0.000,0.000
1644905292407942912,2022-02-15-06:08:12,10.1.1.4,25,-0.010,-0.010,-0.010,0.000,0.000,0.000
1644905292468368128,2022-02-15-06:08:12,10.1.1.4,34,0.000,0.000,0.000,0.000,0.000,0.000
1644905292507653120,2022-02-15-06:08:12,10.1.1.4,24,0.010,0.010,0.010,0.000,0.000,0.000
1644905292567507968,2022-02-15-06:08:12,10.1.1.4,33,0.020,0.020,0.020,0.000,0.000,0.000
1644905292607825920,2022-02-15-06:08:12,10.1.1.4,22,0.030,0.030,0.030,0.000,0.000,0.000
1644905292668251904,2022-02-15-06:08:12,10.1.1.4,32,0.040,0.040,0.040,0.000,0.000,0.000
1644905292707685888,2022-02-15-06:08:12,10.1.1.4,20,0.050,0.050,0.050,0.000,0.000,0.000
1644905292768672000,2022-02-15-06:08:12,10.1.1.4,29,0.060,0.060,0.060,0.000,0.000,0.000
1644905292827862016,2022-02-15-06:08:12,10.1.1.4,38,0.070,0.070,0.070,0.000,0.000,0.000
1644905292867981824,2022-02-15-06:08:12,10.1.1.4,27,0.080,0.080,0.080,0.000,0.000,0.000
1644905292927879936,2022-02-15-06:08:12,10.1.1.4,36,0.090,0.090,0.090,0.000,0.000,0.000
1644905292967418880,2022-02-15-06:08:12,10.1.1.4,25,0.100,0.100,0.100,0.000,0.000,0.000
1644905293028318976,2022-02-15-06:08:13,10.1.1.4,34,0.090,0.090,0.090,0.000,0.000,0.000
1644905293067329792,2022-02-15-06:08:13,10.1.1.4,23,0.080,0.080,0.080,0.000,0.000,0.000
1644905293128401152,2022-02-15-06:08:13,10.1.1.4,33,0.070,0.070,0.070,0.000,0.000,0.000
1644905293168257024,2022-02-15-06:08:13,10.1.1.4,23,0.060,0.060,0.060,0.000,0.000,0.000
1644905293229464064,2022-02-15-06:08:13,10.1.1.4,32,0.050,0.050,0.050,0.000,0.000,0.000
1644905293269265920,2022-02-15-06:08:13,10.1.1.4,22,0.040,0.040,0.040,0.000,0.000,0.000
1644905293327707136,2022-02-15-06:08:13,10.1.1.4,25,0.030,0.030,0.030,0.000,0.000,0.000
1644905293387762176,2022-02-15-06:08:13,10.1.1.4,34,0.020,0.020,0.020,0.000,0.000,0.000
1644905293427875072,2022-02-15-06:08:13,10.1.1.4,24,0.010,0.010,0.010,0.000,0.000,0.000
1644905293488955136,2022-02-15-06:08:13,10.1.1.4,33,0.000,0.000,0.000,0.000,0.000,0.000
1644905293527756032,2022-02-15-06:08:13,10.1.1.4,23,-0.010,-0.010,-0.010,0.000,0.000,0.000
1644905293588563968,2022-02-15-06:08:13,10.1.1.4,31,-0.020,-0.020,-0.020,0.000,0.000,0.000
1644905293627796992,2022-02-15-06:08:13,10.1.1.4,20,-0.030,-0.030,-0.030,0.000,0.000,0.000
1644905293687496960,2022-02-15-06:08:13,10.1.1.4,27,-0.040,-0.040,-0.040,0.000,0.000,0.000
1644905293747876864,2022-02-15-06:08:13,10.1.1.4,36,-0.050,-0.050,-0.050,0.000,0.000,0.000
1644905293787949056,2022-02-15-06:08:13,10.1.1.4,26,-0.060,-0.060,-0.060,0.000,0.000,0.000
1644905293848643072,2022-02-15-06:08:13,10.1.1.4,35,-0.070,-0.070,-0.070,0.000,0.000,0.000
1644905293888087040,2022-02-15-06:08:13,10.1.1.4,24,-0.080,-0.080,-0.080,0.000,0.000,0.000
1644905293948113920,2022-02-15-06:08:13,10.1.1.4,34,-0.090,-0.090,-0.090,0.000,0.000,0.000
1644905293988066048,2022-02-15-06:08:13,10.1.1.4,20,-0.100,-0.100,-0.100,0.000,0.000,0.000
1644905294049122048,2022-02-15-06:08:14,10.1.1.4,29,-0.090,-0.090,-0.090,0.000,0.000,0.000
1644905294087794944,2022-02-15-06:08:14,10.1.1.4,18,-0.081,-0.081,-0.081,0.000,0.000,0.000
1644905294148001792,2022-02-15-06:08:14,10.1.1.4,27,-0.070,-0.070,-0.070,0.000,0.000,0.000
1644905294208122880,2022-02-15-06:08:14,10.1.1.4,37,-0.060,-0.060,-0.060,0.000,0.000,0.000
1644905294247910912,2022-02-15-06:08:14,10.1.1.4,26,-0.050,-0.050,-0.050,0.000,0.000,0.000
1644905294308538880,2022-02-15-06:08:14,10.1.1.4,32,-0.040,-0.040,-0.040,0.000,0.000,0.000
1644905294367990016,2022-02-15-06:08:14,10.1.1.4,35,-0.030,-0.030,-0.030,0.000,0.000,0.000
1644905294407489024,2022-02-15-06:08:14,10.1.1.4,23,-0.020,-0.020,-0.020,0.000,0.000,0.000
1644905294470305792,2022-02-15-06:08:14,10.1.1.4,30,-0.010,-0.010,-0.010,0.000,0.000,0.000
1644905294507816192,2022-02-15-06:08:14,10.1.1.4,20,0.000,0.000,0.000,0.000,0.000,0.000
1644905294574647808,2022-02-15-06:08:14,10.1.1.4,27,0.010,0.010,0.010,0.000,0.000,0.000
1644905294687949056,2022-02-15-06:08:14,10.1.1.4,38,0.030,0.030,0.030,0.000,0.000,0.000
1644905294727165952,2022-02-15-06:08:14,10.1.1.4,27,0.040,0.040,0.040,0.000,0.000,0.000
1644905294787120128,2022-02-15-06:08:14,10.1.1.4,36,0.050,0.050,0.050,0.000,0.000,0.000
1644905294827986944,2022-02-15-06:08:14,10.1.1.4,22,0.060,0.060,0.060,0.000,0.000,0.000
1644905294887912960,2022-02-15-06:08:14,10.1.1.4,31,0.070,0.070,0.070,0.000,0.000,0.000
1644905294929244928,2022-02-15-06:08:14,10.1.1.4,21,0.080,0.080,0.080,0.000,0.000,0.000
1644905294987927808,2022-02-15-06:08:14,10.1.1.4,31,0.090,0.090,0.090,0.000,0.000,0.000
1644905295029784064,2022-02-15-06:08:15,10.1.1.4,20,0.100,0.100,0.100,0.000,0.000,0.000
1644905295088844032,2022-02-15-06:08:15,10.1.1.4,29,0.090,0.090,0.090,0.000,0.000,0.000
1644905295147897856,2022-02-15-06:08:15,10.1.1.4,39,0.080,0.080,0.080,0.000,0.000,0.000
1644905295187916032,2022-02-15-06:08:15,10.1.1.4,25,0.070,0.070,0.070,0.000,0.000,0.000
1644905295248043008,2022-02-15-06:08:15,10.1.1.4,33,0.060,0.060,0.060,0.000,0.000,0.000
1644905295288434944,2022-02-15-06:08:15,10.1.1.4,22,0.050,0.050,0.050,0.000,0.000,0.000
1644905295347758080,2022-02-15-06:08:15,10.1.1.4,31,0.040,0.040,0.040,0.000,0.000,0.000
1644905295388003072,2022-02-15-06:08:15,10.1.1.4,21,0.030,0.030,0.030,0.000,0.000,0.000
1644905295449673984,2022-02-15-06:08:15,10.1.1.4,30,0.020,0.020,0.020,0.000,0.000,0.000
1644905295496887808,2022-02-15-06:08:15,10.1.1.4,19,0.011,0.011,0.011,0.000,0.000,0.000
1644905295556595200,2022-02-15-06:08:15,10.1.1.4,26,0.000,0.000,0.000,0.000,0.000,0.000
1644905295611805952,2022-02-15-06:08:15,10.1.1.4,25,-0.010,-0.010,-0.010,0.000,0.000,0.000
1644905295669469952,2022-02-15-06:08:15,10.1.1.4,35,-0.020,-0.020,-0.020,0.000,0.000,0.000
1644905295707955968,2022-02-15-06:08:15,10.1.1.4,23,-0.030,-0.030,-0.030,0.000,0.000,0.000
1644905295768196096,2022-02-15-06:08:15,10.1.1.4,33,-0.040,-0.040,-0.040,0.000,0.000,0.000
1644905295808780800,2022-02-15-06:08:15,10.1.1.4,22,-0.050,-0.050,-0.050,0.000,0.000,0.000
1644905295869159936,2022-02-15-06:08:15,10.1.1.4,31,-0.060,-0.060,-0.060,0.000,0.000,0.000
1644905295907942144,2022-02-15-06:08:15,10.1.1.4,21,-0.070,-0.070,-0.070,0.000,0.000,0.000
1644905295967538176,2022-02-15-06:08:15,10.1.1.4,30,-0.080,-0.080,-0.080,0.000,0.000,0.000
1644905296028676096,2022-02-15-06:08:16,10.1.1.4,38,-0.090,-0.090,-0.090,0.000,0.000,0.000
1644905296068198912,2022-02-15-06:08:16,10.1.1.4,25,-0.100,-0.100,-0.100,0.000,0.000,0.000
1644905296128435968,2022-02-15-06:08:16,10.1.1.4,34,-0.090,-0.090,-0.090,0.000,0.000,0.000
1644905296168590080,2022-02-15-06:08:16,10.1.1.4,23,-0.080,-0.080,-0.080,0.000,0.000,0.000
1644905296228056064,2022-02-15-06:08:16,10.1.1.4,32,-0.070,-0.070,-0.070,0.000,0.000,0.000
1644905296268118016,2022-02-15-06:08:16,10.1.1.4,21,-0.060,-0.060,-0.060,0.000,0.000,0.000
1644905296327738112,2022-02-15-06:08:16,10.1.1.4,31,-0.050,-0.050,-0.050,0.000,0.000,0.000
1644905296368726016,2022-02-15-06:08:16,10.1.1.4,20,-0.040,-0.040,-0.040,0.000,0.000,0.000
1644905296432399104,2022-02-15-06:08:16,10.1.1.4,30,-0.030,-0.030,-0.030,0.000,0.000,0.000
1644905296489605888,2022-02-15-06:08:16,10.1.1.4,37,-0.020,-0.020,-0.020,0.000,0.000,0.000
1644905296528603136,2022-02-15-06:08:16,10.1.1.4,26,-0.010,-0.010,-0.010,0.000,0.000,0.000
1644905296588408832,2022-02-15-06:08:16,10.1.1.4,34,0.000,0.000,0.000,0.000,0.000,0.000
1644905296628344064,2022-02-15-06:08:16,10.1.1.4,23,0.010,0.010,0.010,0.000,0.000,0.000
1644905296689932032,2022-02-15-06:08:16,10.1.1.4,30,0.020,0.020,0.020,0.000,0.000,0.000
1644905296727885056,2022-02-15-06:08:16,10.1.1.4,19,0.029,0.029,0.029,0.000,0.000,0.000
1644905296787827968,2022-02-15-06:08:16,10.1.1.4,27,0.040,0.040,0.040,0.000,0.000,0.000
1644905296848404992,2022-02-15-06:08:16,10.1.1.4,36,0.050,0.050,0.050,0.000,0.000,0.000
1644905296891949056,2022-02-15-06:08:16,10.1.1.4,21,0.060,0.060,0.060,0.000,0.000,0.000
1644905296950142976,2022-02-15-06:08:16,10.1.1.4,30,0.070,0.070,0.070,0.000,0.000,0.000
1644905296990392832,2022-02-15-06:08:16,10.1.1.4,18,0.079,0.079,0.079,0.000,0.000,0.000
1644905297059751936,2022-02-15-06:08:17,10.1.1.4,27,0.090,0.090,0.090,0.000,0.000,0.000
1644905297107897088,2022-02-15-06:08:17,10.1.1.4,37,0.100,0.100,0.100,0.000,0.000,0.000
1644905297147666944,2022-02-15-06:08:17,10.1.1.4,26,0.090,0.090,0.090,0.000,0.000,0.000
1644905297208225024,2022-02-15-06:08:17,10.1.1.4,35,0.080,0.080,0.080,0.000,0.000,0.000
1644905297268152832,2022-02-15-06:08:17,10.1.1.4,38,0.070,0.070,0.070,0.000,0.000,0.000
1644905297308416000,2022-02-15-06:08:17,10.1.1.4,27,0.060,0.060,0.060,0.000,0.000,0.000
1644905297367831040,2022-02-15-06:08:17,10.1.1.4,36,0.050,0.050,0.050,0.000,0.000,0.000
1644905297407699200,2022-02-15-06:08:17,10.1.1.4,25,0.040,0.040,0.040,0.000,0.000,0.000
1644905297469999104,2022-02-15-06:08:17,10.1.1.4,34,0.030,0.030,0.030,0.000,0.000,0.000
1644905297508076800,2022-02-15-06:08:17,10.1.1.4,23,0.020,0.020,0.020,0.000,0.000,0.000
1644905297568156928,2022-02-15-06:08:17,10.1.1.4,33,0.010,0.010,0.010,0.000,0.000,0.000
1644905297608328960,2022-02-15-06:08:17,10.1.1.4,22,0.000,0.000,0.000,0.000,0.000,0.000
1644905297668464896,2022-02-15-06:08:17,10.1.1.4,24,-0.010,-0.010,-0.010,0.000,0.000,0.000
1644905297727400192,2022-02-15-06:08:17,10.1.1.4,32,-0.020,-0.020,-0.020,0.000,0.000,0.000
1644905297767362048,2022-02-15-06:08:17,10.1.1.4,21,-0.030,-0.030,-0.030,0.000,0.000,0.000
1644905297830226944,2022-02-15-06:08:17,10.1.1.4,30,-0.040,-0.040,-0.040,0.000,0.000,0.000
1644905297885530880,2022-02-15-06:08:17,10.1.1.4,20,-0.050,-0.050,-0.050,0.000,0.000,0.000
1644905297928786944,2022-02-15-06:08:17,10.1.1.4,29,-0.060,-0.060,-0.060,0.000,0.000,0.000
1644905297987844864,2022-02-15-06:08:17,10.1.1.4,37,-0.070,-0.070,-0.070,0.000,0.000,0.000
1644905298027681024,2022-02-15-06:08:18,10.1.1.4,27,-0.080,-0.080,-0.080,0.000,0.000,0.000
1644905298088402944,2022-02-15-06:08:18,10.1.1.4,36,-0.090,-0.090,-0.090,0.000,0.000,0.000
1644905298129163008,2022-02-15-06:08:18,10.1.1.4,24,-0.100,-0.100,-0.100,0.000,0.000,0.000
1644905298189332992,2022-02-15-06:08:18,10.1.1.4,33,-0.090,-0.090,-0.090,0.000,0.000,0.000
1644905298231836928,2022-02-15-06:08:18,10.1.1.4,22,-0.080,-0.080,-0.080,0.000,0.000,0.000
1644905298288531968,2022-02-15-06:08:18,10.1.1.4,32,-0.070,-0.070,-0.070,0.000,0.000,0.000
1644905298328155136,2022-02-15-06:08:18,10.1.1.4,21,-0.060,-0.060,-0.060,0.000,0.000,0.000
1644905298388116992,2022-02-15-06:08:18,10.1.1.4,30,-0.050,-0.050,-0.050,0.000,0.000,0.000
1644905298429050880,2022-02-15-06:08:18,10.1.1.4,20,-0.040,-0.040,-0.040,0.000,0.000,0.000
1644905298489104128,2022-02-15-06:08:18,10.1.1.4,29,-0.030,-0.030,-0.030,0.000,0.000,0.000
1644905298548218112,2022-02-15-06:08:18,10.1.1.4,38,-0.020,-0.020,-0.020,0.000,0.000,0.000
1644905298587986944,2022-02-15-06:08:18,10.1.1.4,27,-0.010,-0.010,-0.010,0.000,0.000,0.000
1644905298648741120,2022-02-15-06:08:18,10.1.1.4,37,0.000,0.000,0.000,0.000,0.000,0.000
1644905298688462848,2022-02-15-06:08:18,10.1.1.4,26,0.010,0.010,0.010,0.000,0.000,0.000
1644905298748857088,2022-02-15-06:08:18,10.1.1.4,34,0.020,0.020,0.020,0.000,0.000,0.000
1644905298788670976,2022-02-15-06:08:18,10.1.1.4,23,0.030,0.030,0.030,0.000,0.000,0.000
1644905298847860992,2022-02-15-06:08:18,10.1.1.4,32,0.040,0.040,0.040,0.000,0.000,0.000
1644905298887955968,2022-02-15-06:08:18,10.1.1.4,21,0.050,0.050,0.050,0.000,0.000,0.000
1644905298947835904,2022-02-15-06:08:18,10.1.1.4,30,0.060,0.060,0.060,0.000,0.000,0.000
1644905298987793920,2022-02-15-06:08:18,10.1.1.4,20,0.070,0.070,0.070,0.000,0.000,0.000
1644905299048228864,2022-02-15-06:08:19,10.1.1.4,29,0.080,0.080,0.080,0.000,0.000,0.000
1644905299107810048,2022-02-15-06:08:19,10.1.1.4,38,0.090,0.090,0.090,0.000,0.000,0.000
1644905299147792128,2022-02-15-06:08:19,10.1.1.4,27,0.100,0.100,0.100,0.000,0.000,0.000
1644905299207653888,2022-02-15-06:08:19,10.1.1.4,35,0.090,0.090,0.090,0.000,0.000,0.000
1644905299247848960,2022-02-15-06:08:19,10.1.1.4,23,0.080,0.080,0.080,0.000,0.000,0.000
1644905299308625920,2022-02-15-06:08:19,10.1.1.4,31,0.070,0.070,0.070,0.000,0.000,0.000
1644905299348268032,2022-02-15-06:08:19,10.1.1.4,20,0.060,0.060,0.060,0.000,0.000,0.000
1644905299409560832,2022-02-15-06:08:19,10.1.1.4,30,0.050,0.050,0.050,0.000,0.000,0.000
1644905299468226048,2022-02-15-06:08:19,10.1.1.4,38,0.040,0.040,0.040,0.000,0.000,0.000
1644905299509256960,2022-02-15-06:08:19,10.1.1.4,27,0.030,0.030,0.030,0.000,0.000,0.000
1644905299568566016,2022-02-15-06:08:19,10.1.1.4,37,0.020,0.020,0.020,0.000,0.000,0.000
1644905299608068864,2022-02-15-06:08:19,10.1.1.4,25,0.010,0.010,0.010,0.000,0.000,0.000
1644905299668410112,2022-02-15-06:08:19,10.1.1.4,34,0.000,0.000,0.000,0.000,0.000,0.000
1644905299707820800,2022-02-15-06:08:19,10.1.1.4,23,-0.010,-0.010,-0.010,0.000,0.000,0.000
1644905299768239872,2022-02-15-06:08:19,10.1.1.4,32,-0.020,-0.020,-0.020,0.000,0.000,0.000
1644905299808242176,2022-02-15-06:08:19,10.1.1.4,22,-0.030,-0.030,-0.030,0.000,0.000,0.000
1644905299867974912,2022-02-15-06:08:19,10.1.1.4,29,-0.040,-0.040,-0.040,0.000,0.000,0.000
1644905299928342016,2022-02-15-06:08:19,10.1.1.4,39,-0.050,-0.050,-0.050,0.000,0.000,0.000
1644905299968699904,2022-02-15-06:08:19,10.1.1.4,26,-0.060,-0.060,-0.060,0.000,0.000,0.000
1644905300027607040,2022-02-15-06:08:20,10.1.1.4,35,-0.070,-0.070,-0.070,0.000,0.000,0.000
1644905300068506880,2022-02-15-06:08:20,10.1.1.4,24,-0.080,-0.080,-0.080,0.000,0.000,0.000
1644905300127746048,2022-02-15-06:08:20,10.1.1.4,33,-0.090,-0.090,-0.090,0.000,0.000,0.000
1644905300187747072,2022-02-15-06:08:20,10.1.1.4,26,-0.100,-0.100,-0.100,0.000,0.000,0.000
1644905300248662016,2022-02-15-06:08:20,10.1.1.4,35,-0.090,-0.090,-0.090,0.000,0.000,0.000
1644905300291027968,2022-02-15-06:08:20,10.1.1.4,24,-0.080,-0.080,-0.080,0.000,0.000,0.000
1644905300348392960,2022-02-15-06:08:20,10.1.1.4,33,-0.070,-0.070,-0.070,0.000,0.000,0.000
1644905300388331776,2022-02-15-06:08:20,10.1.1.4,22,-0.060,-0.060,-0.060,0.000,0.000,0.000
1644905300447506944,2022-02-15-06:08:20,10.1.1.4,30,-0.050,-0.050,-0.050,0.000,0.000,0.000
1644905300488879872,2022-02-15-06:08:20,10.1.1.4,20,-0.040,-0.040,-0.040,0.000,0.000,0.000
1644905300548018944,2022-02-15-06:08:20,10.1.1.4,29,-0.030,-0.030,-0.030,0.000,0.000,0.000
1644905300588550144,2022-02-15-06:08:20,10.1.1.4,18,-0.021,-0.021,-0.021,0.000,0.000,0.000
1644905300647821056,2022-02-15-06:08:20,10.1.1.4,27,-0.010,-0.010,-0.010,0.000,0.000,0.000
1644905300707959808,2022-02-15-06:08:20,10.1.1.4,37,0.000,0.000,0.000,0.000,0.000,0.000
1644905300747873024,2022-02-15-06:08:20,10.1.1.4,26,0.010,0.010,0.010,0.000,0.000,0.000
1644905300808157952,2022-02-15-06:08:20,10.1.1.4,36,0.020,0.020,0.020,0.000,0.000,0.000
1644905300849672960,2022-02-15-06:08:20,10.1.1.4,25,0.030,0.030,0.030,0.000,0.000,0.000
1644905300908102912,2022-02-15-06:08:20,10.1.1.4,34,0.040,0.040,0.040,0.000,0.000,0.000
1644905300948247808,2022-02-15-06:08:20,10.1.1.4,24,0.050,0.050,0.050,0.000,0.000,0.000
1644905301008158976,2022-02-15-06:08:21,10.1.1.4,33,0.060,0.060,0.060,0.000,0.000,0.000
1644905301048032000,2022-02-15-06:08:21,10.1.1.4,22,0.070,0.070,0.070,0.000,0.000,0.000
1644905301108395008,2022-02-15-06:08:21,10.1.1.4,31,0.080,0.080,0.080,0.000,0.000,0.000
1644905301148176896,2022-02-15-06:08:21,10.1.1.4,20,0.090,0.090,0.090,0.000,0.000,0.000
1644905301208055040,2022-02-15-06:08:21,10.1.1.4,30,0.100,0.100,0.100,0.000,0.000,0.000
1644905301248392960,2022-02-15-06:08:21,10.1.1.4,19,0.091,0.091,0.091,0.000,0.000,0.000
1644905301308023040,2022-02-15-06:08:21,10.1.1.4,28,0.080,0.080,0.080,0.000,0.000,0.000
1644905301367705088,2022-02-15-06:08:21,10.1.1.4,37,0.070,0.070,0.070,0.000,0.000,0.000
1644905301408265984,2022-02-15-06:08:21,10.1.1.4,26,0.060,0.060,0.060,0.000,0.000,0.000
1644905301467536896,2022-02-15-06:08:21,10.1.1.4,36,0.050,0.050,0.050,0.000,0.000,0.000
1644905301508389888,2022-02-15-06:08:21,10.1.1.4,25,0.040,0.040,0.040,0.000,0.000,0.000
1644905301567770112,2022-02-15-06:08:21,10.1.1.4,34,0.030,0.030,0.030,0.000,0.000,0.000
1644905301608272128,2022-02-15-06:08:21,10.1.1.4,23,0.020,0.020,0.020,0.000,0.000,0.000
1644905301668685056,2022-02-15-06:08:21,10.1.1.4,32,0.010,0.010,0.010,0.000,0.000,0.000
1644905301708544000,2022-02-15-06:08:21,10.1.1.4,22,0.000,0.000,0.000,0.000,0.000,0.000
1644905301768918016,2022-02-15-06:08:21,10.1.1.4,31,-0.010,-0.010,-0.010,0.000,0.000,0.000
1644905301808233984,2022-02-15-06:08:21,10.1.1.4,21,-0.020,-0.020,-0.020,0.000,0.000,0.000
1644905301868154112,2022-02-15-06:08:21,10.1.1.4,30,-0.030,-0.030,-0.030,0.000,0.000,0.000
1644905301908299008,2022-02-15-06:08:21,10.1.1.4,19,-0.040,-0.040,-0.040,0.000,0.000,0.000
1644905301968203008,2022-02-15-06:08:21,10.1.1.4,28,-0.050,-0.050,-0.050,0.000,0.000,0.000
1644905302029124864,2022-02-15-06:08:22,10.1.1.4,37,-0.060,-0.060,-0.060,0.000,0.000,0.000
1644905302067512064,2022-02-15-06:08:22,10.1.1.4,26,-0.070,-0.070,-0.070,0.000,0.000,0.000
1644905302128313088,2022-02-15-06:08:22,10.1.1.4,35,-0.080,-0.080,-0.080,0.000,0.000,0.000
1644905302168559104,2022-02-15-06:08:22,10.1.1.4,23,-0.090,-0.090,-0.090,0.000,0.000,0.000
1644905302228504832,2022-02-15-06:08:22,10.1.1.4,32,-0.100,-0.100,-0.100,0.000,0.000,0.000
1644905302267892992,2022-02-15-06:08:22,10.1.1.4,21,-0.090,-0.090,-0.090,0.000,0.000,0.000
1644905302327655168,2022-02-15-06:08:22,10.1.1.4,30,-0.080,-0.080,-0.080,0.000,0.000,0.000
1644905302368446976,2022-02-15-06:08:22,10.1.1.4,19,-0.071,-0.071,-0.071,0.000,0.000,0.000
1644905302427905024,2022-02-15-06:08:22,10.1.1.4,28,-0.060,-0.060,-0.060,0.000,0.000,0.000
1644905302488655104,2022-02-15-06:08:22,10.1.1.4,37,-0.050,-0.050,-0.050,0.000,0.000,0.000
1644905302527954944,2022-02-15-06:08:22,10.1.1.4,26,-0.040,-0.040,-0.040,0.000,0.000,0.000
1644905302588742144,2022-02-15-06:08:22,10.1.1.4,34,-0.030,-0.030,-0.030,0.000,0.000,0.000
1644905302627873792,2022-02-15-06:08:22,10.1.1.4,23,-0.020,-0.020,-0.020,0.000,0.000,0.000
1644905302688192000,2022-02-15-06:08:22,10.1.1.4,31,-0.010,-0.010,-0.010,0.000,0.000,0.000
1644905302728083968,2022-02-15-06:08:22,10.1.1.4,19,-0.001,-0.001,-0.001,0.000,0.000,0.000
1644905302788440832,2022-02-15-06:08:22,10.1.1.4,27,0.010,0.010,0.010,0.000,0.000,0.000
1644905302848046080,2022-02-15-06:08:22,10.1.1.4,35,0.020,0.020,0.020,0.000,0.000,0.000
1644905302888119808,2022-02-15-06:08:22,10.1.1.4,24,0.030,0.030,0.030,0.000,0.000,0.000
1644905302948579072,2022-02-15-06:08:22,10.1.1.4,33,0.040,0.040,0.040,0.000,0.000,0.000
1644905302988621056,2022-02-15-06:08:22,10.1.1.4,22,0.050,0.050,0.050,0.000,0.000,0.000
1644905303049000960,2022-02-15-06:08:23,10.1.1.4,32,0.060,0.060,0.060,0.000,0.000,0.000
1644905303088282112,2022-02-15-06:08:23,10.1.1.4,19,0.069,0.069,0.069,0.000,0.000,0.000
1644905303148386048,2022-02-15-06:08:23,10.1.1.4,28,0.080,0.080,0.080,0.000,0.000,0.000
1644905303208393984,2022-02-15-06:08:23,10.1.1.4,37,0.090,0.090,0.090,0.000,0.000,0.000
1644905303248297984,2022-02-15-06:08:23,10.1.1.4,26,0.100,0.100,0.100,0.000,0.000,0.000
1644905303308461824,2022-02-15-06:08:23,10.1.1.4,36,0.090,0.090,0.090,0.000,0.000,0.000
1644905303349363968,2022-02-15-06:08:23,10.1.1.4,25,0.080,0.080,0.080,0.000,0.000,0.000
1644905303407855872,2022-02-15-06:08:23,10.1.1.4,33,0.070,0.070,0.070,0.000,0.000,0.000
1644905303448559872,2022-02-15-06:08:23,10.1.1.4,22,0.060,0.060,0.060,0.000,0.000,0.000
1644905303508730880,2022-02-15-06:08:23,10.1.1.4,31,0.050,0.050,0.050,0.000,0.000,0.000
1644905303547911936,2022-02-15-06:08:23,10.1.1.4,19,0.041,0.041,0.041,0.000,0.000,0.000
1644905303608517888,2022-02-15-06:08:23,10.1.1.4,28,0.030,0.030,0.030,0.000,0.000,0.000
1644905303667939072,2022-02-15-06:08:23,10.1.1.4,37,0.020,0.020,0.020,0.000,0.000,0.000
1644905303707787008,2022-02-15-06:08:23,10.1.1.4,27,0.010,0.010,0.010,0.000,0.000,0.000
1644905303768112896,2022-02-15-06:08:23,10.1.1.4,36,0.000,0.000,0.000,0.000,0.000,0.000
1644905303813116160,2022-02-15-06:08:23,10.1.1.4,25,-0.010,-0.010,-0.010,0.000,0.000,0.000
1644905303873152000,2022-02-15-06:08:23,10.1.1.4,28,-0.020,-0.020,-0.020,0.000,0.000,0.000
1644905303937905152,2022-02-15-06:08:23,10.1.1.4,33,-0.030,-0.030,-0.030,0.000,0.000,0.000
1644905303967983872,2022-02-15-06:08:23,10.1.1.4,22,-0.040,-0.040,-0.040,0.000,0.000,0.000
1644905304029125888,2022-02-15-06:08:24,10.1.1.4,31,-0.050,-0.050,-0.050,0.000,0.000,0.000
1644905304070123008,2022-02-15-06:08:24,10.1.1.4,20,-0.060,-0.060,-0.060,0.000,0.000,0.000
1644905304128849152,2022-02-15-06:08:24,10.1.1.4,29,-0.070,-0.070,-0.070,0.000,0.000,0.000
1644905304188453888,2022-02-15-06:08:24,10.1.1.4,38,-0.080,-0.080,-0.080,0.000,0.000,0.000
1644905304227582976,2022-02-15-06:08:24,10.1.1.4,27,-0.090,-0.090,-0.090,0.000,0.000,0.000
1644905304287843072,2022-02-15-06:08:24,10.1.1.4,35,-0.100,-0.100,-0.100,0.000,0.000,0.000
