FedericoMungari/DigitalTwin_service/01_WiredScenario/Output/Output_script/script_rosapi_2_output_robots4_freq0_1.txt
timestamp,date,node,latency,joint_1,joint_2,joint_3,joint_4,joint_5,joint_6
1644344711175395072,2022-02-08-18:25:11,10.1.1.2,2,-0.100,-0.100,-0.100,0.000,0.000,0.000
1644344711292756992,2022-02-08-18:25:11,10.1.1.2,20,-0.090,-0.090,-0.090,0.000,0.000,0.000
1644344711411897856,2022-02-08-18:25:11,10.1.1.2,39,-0.080,-0.080,-0.080,0.000,0.000,0.000
1644344711512905984,2022-02-08-18:25:11,10.1.1.2,38,-0.070,-0.070,-0.070,0.000,0.000,0.000
1644344711613667072,2022-02-08-18:25:11,10.1.1.2,37,-0.060,-0.060,-0.060,0.000,0.000,0.000
1644344711713031936,2022-02-08-18:25:11,10.1.1.2,35,-0.050,-0.050,-0.050,0.000,0.000,0.000
1644344711814043136,2022-02-08-18:25:11,10.1.1.2,32,-0.040,-0.040,-0.040,0.000,0.000,0.000
1644344711914418944,2022-02-08-18:25:11,10.1.1.2,30,-0.030,-0.030,-0.030,0.000,0.000,0.000
1644344712014822912,2022-02-08-18:25:12,10.1.1.2,30,-0.020,-0.020,-0.020,0.000,0.000,0.000
1644344712114192128,2022-02-08-18:25:12,10.1.1.2,29,-0.010,-0.010,-0.010,0.000,0.000,0.000
1644344712212968192,2022-02-08-18:25:12,10.1.1.2,28,0.000,0.000,0.000,0.000,0.000,0.000
1644344712313872128,2022-02-08-18:25:12,10.1.1.2,24,0.010,0.010,0.010,0.000,0.000,0.000
1644344712412691968,2022-02-08-18:25:12,10.1.1.2,22,0.020,0.020,0.020,0.000,0.000,0.000
1644344712512921088,2022-02-08-18:25:12,10.1.1.2,22,0.030,0.030,0.030,0.000,0.000,0.000
1644344712612723200,2022-02-08-18:25:12,10.1.1.2,20,0.040,0.040,0.040,0.000,0.000,0.000
1644344712715918080,2022-02-08-18:25:12,10.1.1.2,20,0.050,0.050,0.050,0.000,0.000,0.000
1644344712833078016,2022-02-08-18:25:12,10.1.1.2,39,0.060,0.060,0.060,0.000,0.000,0.000
1644344712933262080,2022-02-08-18:25:12,10.1.1.2,36,0.070,0.070,0.070,0.000,0.000,0.000
1644344713035229952,2022-02-08-18:25:13,10.1.1.2,34,0.080,0.080,0.080,0.000,0.000,0.000
1644344713132978944,2022-02-08-18:25:13,10.1.1.2,32,0.090,0.090,0.090,0.000,0.000,0.000
1644344713234116096,2022-02-08-18:25:13,10.1.1.2,31,0.100,0.100,0.100,0.000,0.000,0.000
1644344713334027008,2022-02-08-18:25:13,10.1.1.2,29,0.090,0.090,0.090,0.000,0.000,0.000
1644344713434073088,2022-02-08-18:25:13,10.1.1.2,26,0.080,0.080,0.080,0.000,0.000,0.000
1644344713535051008,2022-02-08-18:25:13,10.1.1.2,24,0.070,0.070,0.070,0.000,0.000,0.000
1644344713634012928,2022-02-08-18:25:13,10.1.1.2,24,0.060,0.060,0.060,0.000,0.000,0.000
1644344713753251072,2022-02-08-18:25:13,10.1.1.2,37,0.050,0.050,0.050,0.000,0.000,0.000
1644344713855279872,2022-02-08-18:25:13,10.1.1.2,32,0.040,0.040,0.040,0.000,0.000,0.000
1644344713954317056,2022-02-08-18:25:13,10.1.1.2,30,0.030,0.030,0.030,0.000,0.000,0.000
1644344714056288000,2022-02-08-18:25:14,10.1.1.2,29,0.020,0.020,0.020,0.000,0.000,0.000
1644344714152303872,2022-02-08-18:25:14,10.1.1.2,28,0.010,0.010,0.010,0.000,0.000,0.000
1644344714254714880,2022-02-08-18:25:14,10.1.1.2,26,0.000,0.000,0.000,0.000,0.000,0.000
1644344714353542144,2022-02-08-18:25:14,10.1.1.2,25,-0.010,-0.010,-0.010,0.000,0.000,0.000
1644344714452296960,2022-02-08-18:25:14,10.1.1.2,24,-0.020,-0.020,-0.020,0.000,0.000,0.000
1644344714552679168,2022-02-08-18:25:14,10.1.1.2,23,-0.030,-0.030,-0.030,0.000,0.000,0.000
1644344714654427904,2022-02-08-18:25:14,10.1.1.2,20,-0.040,-0.040,-0.040,0.000,0.000,0.000
1644344714774915840,2022-02-08-18:25:14,10.1.1.2,38,-0.050,-0.050,-0.050,0.000,0.000,0.000
1644344714877347072,2022-02-08-18:25:14,10.1.1.2,31,-0.060,-0.060,-0.060,0.000,0.000,0.000
1644344714973438976,2022-02-08-18:25:14,10.1.1.2,29,-0.070,-0.070,-0.070,0.000,0.000,0.000
1644344715072215040,2022-02-08-18:25:15,10.1.1.2,29,-0.080,-0.080,-0.080,0.000,0.000,0.000
1644344715172590080,2022-02-08-18:25:15,10.1.1.2,29,-0.090,-0.090,-0.090,0.000,0.000,0.000
1644344715271476992,2022-02-08-18:25:15,10.1.1.2,27,-0.100,-0.100,-0.100,0.000,0.000,0.000
1644344715371664128,2022-02-08-18:25:15,10.1.1.2,26,-0.090,-0.090,-0.090,0.000,0.000,0.000
1644344715471941888,2022-02-08-18:25:15,10.1.1.2,26,-0.080,-0.080,-0.080,0.000,0.000,0.000
1644344715573193984,2022-02-08-18:25:15,10.1.1.2,25,-0.070,-0.070,-0.070,0.000,0.000,0.000
1644344715673062912,2022-02-08-18:25:15,10.1.1.2,24,-0.060,-0.060,-0.060,0.000,0.000,0.000
1644344715772504064,2022-02-08-18:25:15,10.1.1.2,23,-0.050,-0.050,-0.050,0.000,0.000,0.000
1644344715872006912,2022-02-08-18:25:15,10.1.1.2,21,-0.040,-0.040,-0.040,0.000,0.000,0.000
1644344715972676096,2022-02-08-18:25:15,10.1.1.2,20,-0.030,-0.030,-0.030,0.000,0.000,0.000
1644344716073231872,2022-02-08-18:25:16,10.1.1.2,19,-0.020,-0.020,-0.020,0.000,0.000,0.000
1644344716192763136,2022-02-08-18:25:16,10.1.1.2,39,-0.010,-0.010,-0.010,0.000,0.000,0.000
1644344716292476928,2022-02-08-18:25:16,10.1.1.2,37,0.000,0.000,0.000,0.000,0.000,0.000
1644344716392097024,2022-02-08-18:25:16,10.1.1.2,36,0.010,0.010,0.010,0.000,0.000,0.000
1644344716492064000,2022-02-08-18:25:16,10.1.1.2,34,0.020,0.020,0.020,0.000,0.000,0.000
1644344716592446208,2022-02-08-18:25:16,10.1.1.2,32,0.030,0.030,0.030,0.000,0.000,0.000
1644344716692400896,2022-02-08-18:25:16,10.1.1.2,30,0.040,0.040,0.040,0.000,0.000,0.000
1644344716793138944,2022-02-08-18:25:16,10.1.1.2,28,0.050,0.050,0.050,0.000,0.000,0.000
1644344716895972864,2022-02-08-18:25:16,10.1.1.2,29,0.060,0.060,0.060,0.000,0.000,0.000
1644344716993530112,2022-02-08-18:25:16,10.1.1.2,25,0.070,0.070,0.070,0.000,0.000,0.000
1644344717093338112,2022-02-08-18:25:17,10.1.1.2,25,0.080,0.080,0.080,0.000,0.000,0.000
1644344717194758912,2022-02-08-18:25:17,10.1.1.2,24,0.090,0.090,0.090,0.000,0.000,0.000
1644344717293586944,2022-02-08-18:25:17,10.1.1.2,23,0.100,0.100,0.100,0.000,0.000,0.000
1644344717393101824,2022-02-08-18:25:17,10.1.1.2,21,0.090,0.090,0.090,0.000,0.000,0.000
1644344717512852992,2022-02-08-18:25:17,10.1.1.2,40,0.080,0.080,0.080,0.000,0.000,0.000
1644344717613720064,2022-02-08-18:25:17,10.1.1.2,38,0.070,0.070,0.070,0.000,0.000,0.000
1644344717714593792,2022-02-08-18:25:17,10.1.1.2,29,0.060,0.060,0.060,0.000,0.000,0.000
1644344717816046848,2022-02-08-18:25:17,10.1.1.2,26,0.050,0.050,0.050,0.000,0.000,0.000
1644344717913299200,2022-02-08-18:25:17,10.1.1.2,20,0.040,0.040,0.040,0.000,0.000,0.000
1644344718033948928,2022-02-08-18:25:18,10.1.1.2,39,0.030,0.030,0.030,0.000,0.000,0.000
1644344718134808064,2022-02-08-18:25:18,10.1.1.2,37,0.020,0.020,0.020,0.000,0.000,0.000
1644344718237009920,2022-02-08-18:25:18,10.1.1.2,35,0.010,0.010,0.010,0.000,0.000,0.000
1644344718333401856,2022-02-08-18:25:18,10.1.1.2,31,0.000,0.000,0.000,0.000,0.000,0.000
1644344718433186048,2022-02-08-18:25:18,10.1.1.2,29,-0.010,-0.010,-0.010,0.000,0.000,0.000
1644344718531787008,2022-02-08-18:25:18,10.1.1.2,28,-0.020,-0.020,-0.020,0.000,0.000,0.000
1644344718633084928,2022-02-08-18:25:18,10.1.1.2,26,-0.030,-0.030,-0.030,0.000,0.000,0.000
1644344718733052928,2022-02-08-18:25:18,10.1.1.2,25,-0.040,-0.040,-0.040,0.000,0.000,0.000
1644344718832251904,2022-02-08-18:25:18,10.1.1.2,24,-0.050,-0.050,-0.050,0.000,0.000,0.000
1644344718933373952,2022-02-08-18:25:18,10.1.1.2,23,-0.060,-0.060,-0.060,0.000,0.000,0.000
1644344719032294144,2022-02-08-18:25:19,10.1.1.2,22,-0.070,-0.070,-0.070,0.000,0.000,0.000
1644344719132946944,2022-02-08-18:25:19,10.1.1.2,21,-0.080,-0.080,-0.080,0.000,0.000,0.000
1644344719233576960,2022-02-08-18:25:19,10.1.1.2,20,-0.090,-0.090,-0.090,0.000,0.000,0.000
1644344719355480832,2022-02-08-18:25:19,10.1.1.2,39,-0.100,-0.100,-0.100,0.000,0.000,0.000
1644344719454129920,2022-02-08-18:25:19,10.1.1.2,37,-0.090,-0.090,-0.090,0.000,0.000,0.000
1644344719554599936,2022-02-08-18:25:19,10.1.1.2,35,-0.080,-0.080,-0.080,0.000,0.000,0.000
1644344719653073920,2022-02-08-18:25:19,10.1.1.2,34,-0.070,-0.070,-0.070,0.000,0.000,0.000
1644344719755217920,2022-02-08-18:25:19,10.1.1.2,33,-0.060,-0.060,-0.060,0.000,0.000,0.000
1644344719854355200,2022-02-08-18:25:19,10.1.1.2,29,-0.050,-0.050,-0.050,0.000,0.000,0.000
1644344719952730880,2022-02-08-18:25:19,10.1.1.2,22,-0.040,-0.040,-0.040,0.000,0.000,0.000
1644344720055809024,2022-02-08-18:25:20,10.1.1.2,22,-0.030,-0.030,-0.030,0.000,0.000,0.000
1644344720173703936,2022-02-08-18:25:20,10.1.1.2,38,-0.020,-0.020,-0.020,0.000,0.000,0.000
1644344720272823040,2022-02-08-18:25:20,10.1.1.2,30,-0.010,-0.010,-0.010,0.000,0.000,0.000
1644344720374033920,2022-02-08-18:25:20,10.1.1.2,29,0.000,0.000,0.000,0.000,0.000,0.000
1644344720472328960,2022-02-08-18:25:20,10.1.1.2,25,0.010,0.010,0.010,0.000,0.000,0.000
1644344720572977152,2022-02-08-18:25:20,10.1.1.2,25,0.020,0.020,0.020,0.000,0.000,0.000
1644344720672451072,2022-02-08-18:25:20,10.1.1.2,24,0.030,0.030,0.030,0.000,0.000,0.000
1644344720776038912,2022-02-08-18:25:20,10.1.1.2,22,0.040,0.040,0.040,0.000,0.000,0.000
1644344720892837120,2022-02-08-18:25:20,10.1.1.2,37,0.050,0.050,0.050,0.000,0.000,0.000
1644344720993624064,2022-02-08-18:25:20,10.1.1.2,36,0.060,0.060,0.060,0.000,0.000,0.000
1644344721093142016,2022-02-08-18:25:21,10.1.1.2,33,0.070,0.070,0.070,0.000,0.000,0.000
1644344721193708032,2022-02-08-18:25:21,10.1.1.2,32,0.080,0.080,0.080,0.000,0.000,0.000
1644344721294073088,2022-02-08-18:25:21,10.1.1.2,31,0.090,0.090,0.090,0.000,0.000,0.000
1644344721393342976,2022-02-08-18:25:21,10.1.1.2,31,0.100,0.100,0.100,0.000,0.000,0.000
1644344721494515968,2022-02-08-18:25:21,10.1.1.2,25,0.090,0.090,0.090,0.000,0.000,0.000
1644344721593524992,2022-02-08-18:25:21,10.1.1.2,23,0.080,0.080,0.080,0.000,0.000,0.000
1644344721694848000,2022-02-08-18:25:21,10.1.1.2,22,0.070,0.070,0.070,0.000,0.000,0.000
1644344721793704960,2022-02-08-18:25:21,10.1.1.2,21,0.060,0.060,0.060,0.000,0.000,0.000
1644344721913385984,2022-02-08-18:25:21,10.1.1.2,38,0.050,0.050,0.050,0.000,0.000,0.000
1644344722013457152,2022-02-08-18:25:22,10.1.1.2,35,0.040,0.040,0.040,0.000,0.000,0.000
1644344722113522944,2022-02-08-18:25:22,10.1.1.2,31,0.030,0.030,0.030,0.000,0.000,0.000
1644344722212582144,2022-02-08-18:25:22,10.1.1.2,30,0.020,0.020,0.020,0.000,0.000,0.000
1644344722314310144,2022-02-08-18:25:22,10.1.1.2,29,0.010,0.010,0.010,0.000,0.000,0.000
1644344722413392896,2022-02-08-18:25:22,10.1.1.2,28,0.000,0.000,0.000,0.000,0.000,0.000
1644344722513437952,2022-02-08-18:25:22,10.1.1.2,27,-0.010,-0.010,-0.010,0.000,0.000,0.000
1644344722613336064,2022-02-08-18:25:22,10.1.1.2,25,-0.020,-0.020,-0.020,0.000,0.000,0.000
1644344722714113024,2022-02-08-18:25:22,10.1.1.2,24,-0.030,-0.030,-0.030,0.000,0.000,0.000
1644344722812691968,2022-02-08-18:25:22,10.1.1.2,23,-0.040,-0.040,-0.040,0.000,0.000,0.000
1644344722913490176,2022-02-08-18:25:22,10.1.1.2,22,-0.050,-0.050,-0.050,0.000,0.000,0.000
1644344723014683904,2022-02-08-18:25:23,10.1.1.2,21,-0.060,-0.060,-0.060,0.000,0.000,0.000
1644344723112967936,2022-02-08-18:25:23,10.1.1.2,20,-0.070,-0.070,-0.070,0.000,0.000,0.000
1644344723234076928,2022-02-08-18:25:23,10.1.1.2,38,-0.080,-0.080,-0.080,0.000,0.000,0.000
1644344723333655040,2022-02-08-18:25:23,10.1.1.2,32,-0.090,-0.090,-0.090,0.000,0.000,0.000
1644344723433295104,2022-02-08-18:25:23,10.1.1.2,32,-0.100,-0.100,-0.100,0.000,0.000,0.000
1644344723533056000,2022-02-08-18:25:23,10.1.1.2,30,-0.090,-0.090,-0.090,0.000,0.000,0.000
1644344723633601024,2022-02-08-18:25:23,10.1.1.2,29,-0.080,-0.080,-0.080,0.000,0.000,0.000
1644344723734417920,2022-02-08-18:25:23,10.1.1.2,28,-0.070,-0.070,-0.070,0.000,0.000,0.000
1644344723832659968,2022-02-08-18:25:23,10.1.1.2,27,-0.060,-0.060,-0.060,0.000,0.000,0.000
1644344723932934912,2022-02-08-18:25:23,10.1.1.2,25,-0.050,-0.050,-0.050,0.000,0.000,0.000
1644344724032979968,2022-02-08-18:25:24,10.1.1.2,24,-0.040,-0.040,-0.040,0.000,0.000,0.000
1644344724133891072,2022-02-08-18:25:24,10.1.1.2,22,-0.030,-0.030,-0.030,0.000,0.000,0.000
1644344724232601856,2022-02-08-18:25:24,10.1.1.2,22,-0.020,-0.020,-0.020,0.000,0.000,0.000
1644344724333502976,2022-02-08-18:25:24,10.1.1.2,21,-0.010,-0.010,-0.010,0.000,0.000,0.000
1644344724433219072,2022-02-08-18:25:24,10.1.1.2,20,-0.000,-0.000,-0.000,0.000,0.000,0.000
1644344724533587968,2022-02-08-18:25:24,10.1.1.2,19,0.010,0.010,0.010,0.000,0.000,0.000
1644344724653103104,2022-02-08-18:25:24,10.1.1.2,38,0.020,0.020,0.020,0.000,0.000,0.000
1644344724754290944,2022-02-08-18:25:24,10.1.1.2,36,0.030,0.030,0.030,0.000,0.000,0.000
1644344724853957888,2022-02-08-18:25:24,10.1.1.2,30,0.040,0.040,0.040,0.000,0.000,0.000
1644344724954808064,2022-02-08-18:25:24,10.1.1.2,29,0.050,0.050,0.050,0.000,0.000,0.000
1644344725055552000,2022-02-08-18:25:25,10.1.1.2,26,0.060,0.060,0.060,0.000,0.000,0.000
1644344725153744896,2022-02-08-18:25:25,10.1.1.2,25,0.070,0.070,0.070,0.000,0.000,0.000
1644344725257036800,2022-02-08-18:25:25,10.1.1.2,22,0.080,0.080,0.080,0.000,0.000,0.000
1644344725355259904,2022-02-08-18:25:25,10.1.1.2,21,0.090,0.090,0.090,0.000,0.000,0.000
1644344725472993024,2022-02-08-18:25:25,10.1.1.2,39,0.100,0.100,0.100,0.000,0.000,0.000
1644344725573939200,2022-02-08-18:25:25,10.1.1.2,38,0.090,0.090,0.090,0.000,0.000,0.000
1644344725673970944,2022-02-08-18:25:25,10.1.1.2,37,0.080,0.080,0.080,0.000,0.000,0.000
1644344725778971904,2022-02-08-18:25:25,10.1.1.2,33,0.070,0.070,0.070,0.000,0.000,0.000
1644344725871918080,2022-02-08-18:25:25,10.1.1.2,30,0.060,0.060,0.060,0.000,0.000,0.000
1644344725975384064,2022-02-08-18:25:25,10.1.1.2,30,0.050,0.050,0.050,0.000,0.000,0.000
1644344726073498112,2022-02-08-18:25:26,10.1.1.2,29,0.040,0.040,0.040,0.000,0.000,0.000
1644344726279930112,2022-02-08-18:25:26,10.1.1.2,26,0.020,0.020,0.020,0.000,0.000,0.000
1644344726374598912,2022-02-08-18:25:26,10.1.1.2,25,0.010,0.010,0.010,0.000,0.000,0.000
1644344726473200128,2022-02-08-18:25:26,10.1.1.2,24,0.000,0.000,0.000,0.000,0.000,0.000
1644344726573499904,2022-02-08-18:25:26,10.1.1.2,23,-0.010,-0.010,-0.010,0.000,0.000,0.000
1644344726674163968,2022-02-08-18:25:26,10.1.1.2,22,-0.020,-0.020,-0.020,0.000,0.000,0.000
1644344726774396928,2022-02-08-18:25:26,10.1.1.2,21,-0.030,-0.030,-0.030,0.000,0.000,0.000
1644344726876434944,2022-02-08-18:25:26,10.1.1.2,20,-0.040,-0.040,-0.040,0.000,0.000,0.000
1644344727095980800,2022-02-08-18:25:27,10.1.1.2,39,-0.060,-0.060,-0.060,0.000,0.000,0.000
1644344727196084992,2022-02-08-18:25:27,10.1.1.2,38,-0.070,-0.070,-0.070,0.000,0.000,0.000
1644344727293175808,2022-02-08-18:25:27,10.1.1.2,35,-0.080,-0.080,-0.080,0.000,0.000,0.000
1644344727395986944,2022-02-08-18:25:27,10.1.1.2,34,-0.090,-0.090,-0.090,0.000,0.000,0.000
1644344727493345024,2022-02-08-18:25:27,10.1.1.2,32,-0.100,-0.100,-0.100,0.000,0.000,0.000
1644344727597078016,2022-02-08-18:25:27,10.1.1.2,31,-0.090,-0.090,-0.090,0.000,0.000,0.000
1644344727695153920,2022-02-08-18:25:27,10.1.1.2,30,-0.080,-0.080,-0.080,0.000,0.000,0.000
1644344727793137920,2022-02-08-18:25:27,10.1.1.2,29,-0.070,-0.070,-0.070,0.000,0.000,0.000
1644344727892759040,2022-02-08-18:25:27,10.1.1.2,24,-0.060,-0.060,-0.060,0.000,0.000,0.000
1644344727995512064,2022-02-08-18:25:27,10.1.1.2,23,-0.050,-0.050,-0.050,0.000,0.000,0.000
1644344728097199872,2022-02-08-18:25:28,10.1.1.2,21,-0.040,-0.040,-0.040,0.000,0.000,0.000
1644344728314091008,2022-02-08-18:25:28,10.1.1.2,38,-0.020,-0.020,-0.020,0.000,0.000,0.000
1644344728412500992,2022-02-08-18:25:28,10.1.1.2,38,-0.010,-0.010,-0.010,0.000,0.000,0.000
1644344728513050112,2022-02-08-18:25:28,10.1.1.2,36,0.000,0.000,0.000,0.000,0.000,0.000
1644344728612143104,2022-02-08-18:25:28,10.1.1.2,33,0.010,0.010,0.010,0.000,0.000,0.000
1644344728712093952,2022-02-08-18:25:28,10.1.1.2,31,0.020,0.020,0.020,0.000,0.000,0.000
1644344728812838144,2022-02-08-18:25:28,10.1.1.2,30,0.030,0.030,0.030,0.000,0.000,0.000
1644344728913072128,2022-02-08-18:25:28,10.1.1.2,28,0.040,0.040,0.040,0.000,0.000,0.000
1644344729014103808,2022-02-08-18:25:29,10.1.1.2,26,0.050,0.050,0.050,0.000,0.000,0.000
1644344729115469056,2022-02-08-18:25:29,10.1.1.2,25,0.060,0.060,0.060,0.000,0.000,0.000
1644344729213555968,2022-02-08-18:25:29,10.1.1.2,23,0.070,0.070,0.070,0.000,0.000,0.000
1644344729314932224,2022-02-08-18:25:29,10.1.1.2,22,0.080,0.080,0.080,0.000,0.000,0.000
1644344729414240000,2022-02-08-18:25:29,10.1.1.2,21,0.090,0.090,0.090,0.000,0.000,0.000
1644344729515523072,2022-02-08-18:25:29,10.1.1.2,21,0.100,0.100,0.100,0.000,0.000,0.000
1644344729612200960,2022-02-08-18:25:29,10.1.1.2,19,0.090,0.090,0.090,0.000,0.000,0.000
1644344729734253056,2022-02-08-18:25:29,10.1.1.2,38,0.080,0.080,0.080,0.000,0.000,0.000
1644344729833859072,2022-02-08-18:25:29,10.1.1.2,37,0.070,0.070,0.070,0.000,0.000,0.000
1644344729932934912,2022-02-08-18:25:29,10.1.1.2,36,0.060,0.060,0.060,0.000,0.000,0.000
1644344730032915200,2022-02-08-18:25:30,10.1.1.2,35,0.050,0.050,0.050,0.000,0.000,0.000
1644344730132411904,2022-02-08-18:25:30,10.1.1.2,34,0.040,0.040,0.040,0.000,0.000,0.000
1644344730233037056,2022-02-08-18:25:30,10.1.1.2,32,0.030,0.030,0.030,0.000,0.000,0.000
1644344730332928768,2022-02-08-18:25:30,10.1.1.2,31,0.020,0.020,0.020,0.000,0.000,0.000
1644344730433568000,2022-02-08-18:25:30,10.1.1.2,30,0.010,0.010,0.010,0.000,0.000,0.000
1644344730534338048,2022-02-08-18:25:30,10.1.1.2,29,0.000,0.000,0.000,0.000,0.000,0.000
1644344730632488960,2022-02-08-18:25:30,10.1.1.2,28,-0.010,-0.010,-0.010,0.000,0.000,0.000
1644344730731864064,2022-02-08-18:25:30,10.1.1.2,27,-0.020,-0.020,-0.020,0.000,0.000,0.000
1644344730834702848,2022-02-08-18:25:30,10.1.1.2,27,-0.030,-0.030,-0.030,0.000,0.000,0.000
1644344730933432064,2022-02-08-18:25:30,10.1.1.2,23,-0.040,-0.040,-0.040,0.000,0.000,0.000
1644344731032588032,2022-02-08-18:25:31,10.1.1.2,21,-0.050,-0.050,-0.050,0.000,0.000,0.000
1644344731132736000,2022-02-08-18:25:31,10.1.1.2,19,-0.060,-0.060,-0.060,0.000,0.000,0.000
1644344731254585088,2022-02-08-18:25:31,10.1.1.2,35,-0.070,-0.070,-0.070,0.000,0.000,0.000
1644344731352945920,2022-02-08-18:25:31,10.1.1.2,32,-0.080,-0.080,-0.080,0.000,0.000,0.000
1644344731453191168,2022-02-08-18:25:31,10.1.1.2,31,-0.090,-0.090,-0.090,0.000,0.000,0.000
1644344731553822976,2022-02-08-18:25:31,10.1.1.2,29,-0.100,-0.100,-0.100,0.000,0.000,0.000
1644344731652121088,2022-02-08-18:25:31,10.1.1.2,24,-0.090,-0.090,-0.090,0.000,0.000,0.000
1644344731753743872,2022-02-08-18:25:31,10.1.1.2,22,-0.080,-0.080,-0.080,0.000,0.000,0.000
1644344731853455104,2022-02-08-18:25:31,10.1.1.2,20,-0.070,-0.070,-0.070,0.000,0.000,0.000
1644344731952729856,2022-02-08-18:25:31,10.1.1.2,19,-0.060,-0.060,-0.060,0.000,0.000,0.000
1644344732075539200,2022-02-08-18:25:32,10.1.1.2,36,-0.050,-0.050,-0.050,0.000,0.000,0.000
1644344732172982016,2022-02-08-18:25:32,10.1.1.2,35,-0.040,-0.040,-0.040,0.000,0.000,0.000
1644344732275136000,2022-02-08-18:25:32,10.1.1.2,34,-0.030,-0.030,-0.030,0.000,0.000,0.000
1644344732373233152,2022-02-08-18:25:32,10.1.1.2,33,-0.020,-0.020,-0.020,0.000,0.000,0.000
1644344732476461056,2022-02-08-18:25:32,10.1.1.2,32,-0.010,-0.010,-0.010,0.000,0.000,0.000
1644344732574351104,2022-02-08-18:25:32,10.1.1.2,30,0.000,0.000,0.000,0.000,0.000,0.000
1644344732673083136,2022-02-08-18:25:32,10.1.1.2,29,0.010,0.010,0.010,0.000,0.000,0.000
1644344732776345856,2022-02-08-18:25:32,10.1.1.2,28,0.020,0.020,0.020,0.000,0.000,0.000
1644344732873061888,2022-02-08-18:25:32,10.1.1.2,28,0.030,0.030,0.030,0.000,0.000,0.000
1644344732974666240,2022-02-08-18:25:32,10.1.1.2,26,0.040,0.040,0.040,0.000,0.000,0.000
1644344733072932864,2022-02-08-18:25:33,10.1.1.2,25,0.050,0.050,0.050,0.000,0.000,0.000
1644344733173945856,2022-02-08-18:25:33,10.1.1.2,22,0.060,0.060,0.060,0.000,0.000,0.000
1644344733274276864,2022-02-08-18:25:33,10.1.1.2,21,0.070,0.070,0.070,0.000,0.000,0.000
1644344733374809856,2022-02-08-18:25:33,10.1.1.2,19,0.080,0.080,0.080,0.000,0.000,0.000
1644344733492804096,2022-02-08-18:25:33,10.1.1.2,38,0.090,0.090,0.090,0.000,0.000,0.000
1644344733593473024,2022-02-08-18:25:33,10.1.1.2,34,0.100,0.100,0.100,0.000,0.000,0.000
1644344733693195008,2022-02-08-18:25:33,10.1.1.2,33,0.090,0.090,0.090,0.000,0.000,0.000
1644344733793189888,2022-02-08-18:25:33,10.1.1.2,31,0.080,0.080,0.080,0.000,0.000,0.000
1644344733893671936,2022-02-08-18:25:33,10.1.1.2,30,0.070,0.070,0.070,0.000,0.000,0.000
1644344733992548864,2022-02-08-18:25:33,10.1.1.2,29,0.060,0.060,0.060,0.000,0.000,0.000
1644344734092920064,2022-02-08-18:25:34,10.1.1.2,28,0.050,0.050,0.050,0.000,0.000,0.000
1644344734293003008,2022-02-08-18:25:34,10.1.1.2,26,0.030,0.030,0.030,0.000,0.000,0.000
1644344734393809920,2022-02-08-18:25:34,10.1.1.2,23,0.020,0.020,0.020,0.000,0.000,0.000
1644344734492727040,2022-02-08-18:25:34,10.1.1.2,21,0.010,0.010,0.010,0.000,0.000,0.000
1644344734593210880,2022-02-08-18:25:34,10.1.1.2,20,0.000,0.000,0.000,0.000,0.000,0.000
1644344734713406208,2022-02-08-18:25:34,10.1.1.2,35,-0.010,-0.010,-0.010,0.000,0.000,0.000
1644344734811857920,2022-02-08-18:25:34,10.1.1.2,33,-0.020,-0.020,-0.020,0.000,0.000,0.000
1644344734911894016,2022-02-08-18:25:34,10.1.1.2,33,-0.030,-0.030,-0.030,0.000,0.000,0.000
1644344735013103872,2022-02-08-18:25:35,10.1.1.2,32,-0.040,-0.040,-0.040,0.000,0.000,0.000
1644344735112653056,2022-02-08-18:25:35,10.1.1.2,31,-0.050,-0.050,-0.050,0.000,0.000,0.000
1644344735213097984,2022-02-08-18:25:35,10.1.1.2,29,-0.060,-0.060,-0.060,0.000,0.000,0.000
1644344735315045120,2022-02-08-18:25:35,10.1.1.2,27,-0.070,-0.070,-0.070,0.000,0.000,0.000
1644344735412632832,2022-02-08-18:25:35,10.1.1.2,26,-0.080,-0.080,-0.080,0.000,0.000,0.000
1644344735614966016,2022-02-08-18:25:35,10.1.1.2,24,-0.100,-0.100,-0.100,0.000,0.000,0.000
1644344735714292992,2022-02-08-18:25:35,10.1.1.2,23,-0.090,-0.090,-0.090,0.000,0.000,0.000
1644344735812851968,2022-02-08-18:25:35,10.1.1.2,22,-0.080,-0.080,-0.080,0.000,0.000,0.000
1644344735913964032,2022-02-08-18:25:35,10.1.1.2,22,-0.070,-0.070,-0.070,0.000,0.000,0.000
1644344736014151168,2022-02-08-18:25:36,10.1.1.2,21,-0.060,-0.060,-0.060,0.000,0.000,0.000
1644344736112880896,2022-02-08-18:25:36,10.1.1.2,20,-0.050,-0.050,-0.050,0.000,0.000,0.000
1644344736232798976,2022-02-08-18:25:36,10.1.1.2,39,-0.040,-0.040,-0.040,0.000,0.000,0.000
1644344736334427136,2022-02-08-18:25:36,10.1.1.2,38,-0.030,-0.030,-0.030,0.000,0.000,0.000
1644344736434139904,2022-02-08-18:25:36,10.1.1.2,36,-0.020,-0.020,-0.020,0.000,0.000,0.000
1644344736532697856,2022-02-08-18:25:36,10.1.1.2,34,-0.010,-0.010,-0.010,0.000,0.000,0.000
1644344736633506048,2022-02-08-18:25:36,10.1.1.2,33,0.000,0.000,0.000,0.000,0.000,0.000
1644344736732774144,2022-02-08-18:25:36,10.1.1.2,33,0.010,0.010,0.010,0.000,0.000,0.000
1644344736833099008,2022-02-08-18:25:36,10.1.1.2,32,0.020,0.020,0.020,0.000,0.000,0.000
1644344736934670848,2022-02-08-18:25:36,10.1.1.2,31,0.030,0.030,0.030,0.000,0.000,0.000
1644344737034434048,2022-02-08-18:25:37,10.1.1.2,29,0.040,0.040,0.040,0.000,0.000,0.000
1644344737133763072,2022-02-08-18:25:37,10.1.1.2,29,0.050,0.050,0.050,0.000,0.000,0.000
1644344737233089024,2022-02-08-18:25:37,10.1.1.2,28,0.060,0.060,0.060,0.000,0.000,0.000
1644344737333785088,2022-02-08-18:25:37,10.1.1.2,26,0.070,0.070,0.070,0.000,0.000,0.000
1644344737433739008,2022-02-08-18:25:37,10.1.1.2,23,0.080,0.080,0.080,0.000,0.000,0.000
1644344737532738048,2022-02-08-18:25:37,10.1.1.2,23,0.090,0.090,0.090,0.000,0.000,0.000
1644344737632381952,2022-02-08-18:25:37,10.1.1.2,21,0.100,0.100,0.100,0.000,0.000,0.000
1644344737734455040,2022-02-08-18:25:37,10.1.1.2,20,0.090,0.090,0.090,0.000,0.000,0.000
1644344737854547968,2022-02-08-18:25:37,10.1.1.2,39,0.080,0.080,0.080,0.000,0.000,0.000
1644344737954112000,2022-02-08-18:25:37,10.1.1.2,37,0.070,0.070,0.070,0.000,0.000,0.000
1644344738054918144,2022-02-08-18:25:38,10.1.1.2,35,0.060,0.060,0.060,0.000,0.000,0.000
1644344738153677056,2022-02-08-18:25:38,10.1.1.2,33,0.050,0.050,0.050,0.000,0.000,0.000
1644344738255912192,2022-02-08-18:25:38,10.1.1.2,33,0.040,0.040,0.040,0.000,0.000,0.000
1644344738353296128,2022-02-08-18:25:38,10.1.1.2,32,0.030,0.030,0.030,0.000,0.000,0.000
1644344738454121216,2022-02-08-18:25:38,10.1.1.2,32,0.020,0.020,0.020,0.000,0.000,0.000
1644344738552658176,2022-02-08-18:25:38,10.1.1.2,30,0.010,0.010,0.010,0.000,0.000,0.000
1644344738654292224,2022-02-08-18:25:38,10.1.1.2,29,0.000,0.000,0.000,0.000,0.000,0.000
1644344738753516800,2022-02-08-18:25:38,10.1.1.2,28,-0.010,-0.010,-0.010,0.000,0.000,0.000
1644344738855683072,2022-02-08-18:25:38,10.1.1.2,26,-0.020,-0.020,-0.020,0.000,0.000,0.000
1644344738952476928,2022-02-08-18:25:38,10.1.1.2,24,-0.030,-0.030,-0.030,0.000,0.000,0.000
1644344739053489920,2022-02-08-18:25:39,10.1.1.2,24,-0.040,-0.040,-0.040,0.000,0.000,0.000
1644344739153528832,2022-02-08-18:25:39,10.1.1.2,22,-0.050,-0.050,-0.050,0.000,0.000,0.000
1644344739254106112,2022-02-08-18:25:39,10.1.1.2,21,-0.060,-0.060,-0.060,0.000,0.000,0.000
1644344739353751040,2022-02-08-18:25:39,10.1.1.2,20,-0.070,-0.070,-0.070,0.000,0.000,0.000
1644344739474326016,2022-02-08-18:25:39,10.1.1.2,39,-0.080,-0.080,-0.080,0.000,0.000,0.000
1644344739572366848,2022-02-08-18:25:39,10.1.1.2,37,-0.090,-0.090,-0.090,0.000,0.000,0.000
1644344739672825088,2022-02-08-18:25:39,10.1.1.2,36,-0.100,-0.100,-0.100,0.000,0.000,0.000
1644344739772772096,2022-02-08-18:25:39,10.1.1.2,34,-0.090,-0.090,-0.090,0.000,0.000,0.000
1644344739873355008,2022-02-08-18:25:39,10.1.1.2,34,-0.080,-0.080,-0.080,0.000,0.000,0.000
1644344739975034112,2022-02-08-18:25:39,10.1.1.2,33,-0.070,-0.070,-0.070,0.000,0.000,0.000
1644344740072228864,2022-02-08-18:25:40,10.1.1.2,32,-0.060,-0.060,-0.060,0.000,0.000,0.000
1644344740173234944,2022-02-08-18:25:40,10.1.1.2,31,-0.050,-0.050,-0.050,0.000,0.000,0.000
1644344740273027840,2022-02-08-18:25:40,10.1.1.2,30,-0.040,-0.040,-0.040,0.000,0.000,0.000
1644344740374550016,2022-02-08-18:25:40,10.1.1.2,29,-0.030,-0.030,-0.030,0.000,0.000,0.000
1644344740473316864,2022-02-08-18:25:40,10.1.1.2,28,-0.020,-0.020,-0.020,0.000,0.000,0.000
1644344740574008832,2022-02-08-18:25:40,10.1.1.2,27,-0.010,-0.010,-0.010,0.000,0.000,0.000
1644344740673707008,2022-02-08-18:25:40,10.1.1.2,26,0.000,0.000,0.000,0.000,0.000,0.000
1644344740774661120,2022-02-08-18:25:40,10.1.1.2,25,0.010,0.010,0.010,0.000,0.000,0.000
1644344740874244864,2022-02-08-18:25:40,10.1.1.2,24,0.020,0.020,0.020,0.000,0.000,0.000
1644344740972683008,2022-02-08-18:25:40,10.1.1.2,23,0.030,0.030,0.030,0.000,0.000,0.000
1644344741078618112,2022-02-08-18:25:41,10.1.1.2,22,0.040,0.040,0.040,0.000,0.000,0.000
1644344741174291968,2022-02-08-18:25:41,10.1.1.2,21,0.050,0.050,0.050,0.000,0.000,0.000
1644344741293742848,2022-02-08-18:25:41,10.1.1.2,39,0.060,0.060,0.060,0.000,0.000,0.000
1644344741394470912,2022-02-08-18:25:41,10.1.1.2,36,0.070,0.070,0.070,0.000,0.000,0.000
1644344741494301184,2022-02-08-18:25:41,10.1.1.2,33,0.080,0.080,0.080,0.000,0.000,0.000
1644344741594412032,2022-02-08-18:25:41,10.1.1.2,33,0.090,0.090,0.090,0.000,0.000,0.000
1644344741693486080,2022-02-08-18:25:41,10.1.1.2,32,0.100,0.100,0.100,0.000,0.000,0.000
1644344741795123200,2022-02-08-18:25:41,10.1.1.2,31,0.090,0.090,0.090,0.000,0.000,0.000
1644344741896609024,2022-02-08-18:25:41,10.1.1.2,29,0.080,0.080,0.080,0.000,0.000,0.000
1644344741994385920,2022-02-08-18:25:41,10.1.1.2,28,0.070,0.070,0.070,0.000,0.000,0.000
1644344742092328192,2022-02-08-18:25:42,10.1.1.2,26,0.060,0.060,0.060,0.000,0.000,0.000
1644344742194340864,2022-02-08-18:25:42,10.1.1.2,25,0.050,0.050,0.050,0.000,0.000,0.000
1644344742293235968,2022-02-08-18:25:42,10.1.1.2,24,0.040,0.040,0.040,0.000,0.000,0.000
1644344742393060096,2022-02-08-18:25:42,10.1.1.2,23,0.030,0.030,0.030,0.000,0.000,0.000
1644344742493093888,2022-02-08-18:25:42,10.1.1.2,20,0.020,0.020,0.020,0.000,0.000,0.000
1644344742592679936,2022-02-08-18:25:42,10.1.1.2,19,0.010,0.010,0.010,0.000,0.000,0.000
1644344742714106112,2022-02-08-18:25:42,10.1.1.2,38,0.000,0.000,0.000,0.000,0.000,0.000
1644344742814734080,2022-02-08-18:25:42,10.1.1.2,35,-0.010,-0.010,-0.010,0.000,0.000,0.000
1644344742912749056,2022-02-08-18:25:42,10.1.1.2,33,-0.020,-0.020,-0.020,0.000,0.000,0.000
1644344743013304832,2022-02-08-18:25:43,10.1.1.2,33,-0.030,-0.030,-0.030,0.000,0.000,0.000
1644344743112911872,2022-02-08-18:25:43,10.1.1.2,32,-0.040,-0.040,-0.040,0.000,0.000,0.000
1644344743213534976,2022-02-08-18:25:43,10.1.1.2,31,-0.050,-0.050,-0.050,0.000,0.000,0.000
1644344743314842880,2022-02-08-18:25:43,10.1.1.2,30,-0.060,-0.060,-0.060,0.000,0.000,0.000
1644344743413080064,2022-02-08-18:25:43,10.1.1.2,29,-0.070,-0.070,-0.070,0.000,0.000,0.000
1644344743514779136,2022-02-08-18:25:43,10.1.1.2,28,-0.080,-0.080,-0.080,0.000,0.000,0.000
1644344743613092864,2022-02-08-18:25:43,10.1.1.2,27,-0.090,-0.090,-0.090,0.000,0.000,0.000
1644344743715589888,2022-02-08-18:25:43,10.1.1.2,25,-0.100,-0.100,-0.100,0.000,0.000,0.000
1644344743815409920,2022-02-08-18:25:43,10.1.1.2,24,-0.090,-0.090,-0.090,0.000,0.000,0.000
1644344743913788928,2022-02-08-18:25:43,10.1.1.2,23,-0.080,-0.080,-0.080,0.000,0.000,0.000
1644344744013906944,2022-02-08-18:25:44,10.1.1.2,21,-0.070,-0.070,-0.070,0.000,0.000,0.000
1644344744113105920,2022-02-08-18:25:44,10.1.1.2,20,-0.060,-0.060,-0.060,0.000,0.000,0.000
1644344744232683776,2022-02-08-18:25:44,10.1.1.2,39,-0.050,-0.050,-0.050,0.000,0.000,0.000
1644344744333612032,2022-02-08-18:25:44,10.1.1.2,38,-0.040,-0.040,-0.040,0.000,0.000,0.000
1644344744434531840,2022-02-08-18:25:44,10.1.1.2,34,-0.030,-0.030,-0.030,0.000,0.000,0.000
1644344744534481920,2022-02-08-18:25:44,10.1.1.2,32,-0.020,-0.020,-0.020,0.000,0.000,0.000
1644344744732569856,2022-02-08-18:25:44,10.1.1.2,28,0.000,0.000,0.000,0.000,0.000,0.000
1644344744834661120,2022-02-08-18:25:44,10.1.1.2,25,0.010,0.010,0.010,0.000,0.000,0.000
1644344744934649088,2022-02-08-18:25:44,10.1.1.2,24,0.020,0.020,0.020,0.000,0.000,0.000
1644344745032393984,2022-02-08-18:25:45,10.1.1.2,23,0.030,0.030,0.030,0.000,0.000,0.000
1644344745133233152,2022-02-08-18:25:45,10.1.1.2,22,0.040,0.040,0.040,0.000,0.000,0.000
1644344745233982976,2022-02-08-18:25:45,10.1.1.2,21,0.050,0.050,0.050,0.000,0.000,0.000
1644344745332551936,2022-02-08-18:25:45,10.1.1.2,19,0.060,0.060,0.060,0.000,0.000,0.000
1644344745454607872,2022-02-08-18:25:45,10.1.1.2,38,0.070,0.070,0.070,0.000,0.000,0.000
1644344745553040128,2022-02-08-18:25:45,10.1.1.2,37,0.080,0.080,0.080,0.000,0.000,0.000
1644344745652972032,2022-02-08-18:25:45,10.1.1.2,35,0.090,0.090,0.090,0.000,0.000,0.000
1644344745752971776,2022-02-08-18:25:45,10.1.1.2,33,0.100,0.100,0.100,0.000,0.000,0.000
1644344745854585856,2022-02-08-18:25:45,10.1.1.2,32,0.090,0.090,0.090,0.000,0.000,0.000
1644344745954437888,2022-02-08-18:25:45,10.1.1.2,24,0.080,0.080,0.080,0.000,0.000,0.000
1644344746056483072,2022-02-08-18:25:46,10.1.1.2,23,0.070,0.070,0.070,0.000,0.000,0.000
1644344746153788928,2022-02-08-18:25:46,10.1.1.2,22,0.060,0.060,0.060,0.000,0.000,0.000
1644344746255976960,2022-02-08-18:25:46,10.1.1.2,22,0.050,0.050,0.050,0.000,0.000,0.000
1644344746353897984,2022-02-08-18:25:46,10.1.1.2,21,0.040,0.040,0.040,0.000,0.000,0.000
1644344746474087936,2022-02-08-18:25:46,10.1.1.2,39,0.030,0.030,0.030,0.000,0.000,0.000
1644344746573988864,2022-02-08-18:25:46,10.1.1.2,37,0.020,0.020,0.020,0.000,0.000,0.000
1644344746672823808,2022-02-08-18:25:46,10.1.1.2,36,0.010,0.010,0.010,0.000,0.000,0.000
1644344746774033920,2022-02-08-18:25:46,10.1.1.2,35,0.000,0.000,0.000,0.000,0.000,0.000
1644344746873374976,2022-02-08-18:25:46,10.1.1.2,33,-0.010,-0.010,-0.010,0.000,0.000,0.000
1644344746974592000,2022-02-08-18:25:46,10.1.1.2,32,-0.020,-0.020,-0.020,0.000,0.000,0.000
1644344747075254016,2022-02-08-18:25:47,10.1.1.2,30,-0.030,-0.030,-0.030,0.000,0.000,0.000
1644344747173445888,2022-02-08-18:25:47,10.1.1.2,29,-0.040,-0.040,-0.040,0.000,0.000,0.000
1644344747275665920,2022-02-08-18:25:47,10.1.1.2,28,-0.050,-0.050,-0.050,0.000,0.000,0.000
1644344747375139840,2022-02-08-18:25:47,10.1.1.2,28,-0.060,-0.060,-0.060,0.000,0.000,0.000
1644344747473436160,2022-02-08-18:25:47,10.1.1.2,25,-0.070,-0.070,-0.070,0.000,0.000,0.000
1644344747572787968,2022-02-08-18:25:47,10.1.1.2,24,-0.080,-0.080,-0.080,0.000,0.000,0.000
1644344747674343936,2022-02-08-18:25:47,10.1.1.2,23,-0.090,-0.090,-0.090,0.000,0.000,0.000
1644344747777477888,2022-02-08-18:25:47,10.1.1.2,22,-0.100,-0.100,-0.100,0.000,0.000,0.000
1644344747993587968,2022-02-08-18:25:47,10.1.1.2,38,-0.080,-0.080,-0.080,0.000,0.000,0.000
1644344748095209984,2022-02-08-18:25:48,10.1.1.2,35,-0.070,-0.070,-0.070,0.000,0.000,0.000
1644344748193360128,2022-02-08-18:25:48,10.1.1.2,34,-0.060,-0.060,-0.060,0.000,0.000,0.000
1644344748293395968,2022-02-08-18:25:48,10.1.1.2,32,-0.050,-0.050,-0.050,0.000,0.000,0.000
1644344748392455168,2022-02-08-18:25:48,10.1.1.2,31,-0.040,-0.040,-0.040,0.000,0.000,0.000
1644344748492281856,2022-02-08-18:25:48,10.1.1.2,28,-0.030,-0.030,-0.030,0.000,0.000,0.000
1644344748593223168,2022-02-08-18:25:48,10.1.1.2,27,-0.020,-0.020,-0.020,0.000,0.000,0.000
1644344748693444864,2022-02-08-18:25:48,10.1.1.2,25,-0.010,-0.010,-0.010,0.000,0.000,0.000
1644344748792741888,2022-02-08-18:25:48,10.1.1.2,24,0.000,0.000,0.000,0.000,0.000,0.000
1644344748892174080,2022-02-08-18:25:48,10.1.1.2,23,0.010,0.010,0.010,0.000,0.000,0.000
1644344748992746240,2022-02-08-18:25:48,10.1.1.2,23,0.020,0.020,0.020,0.000,0.000,0.000
1644344749092680960,2022-02-08-18:25:49,10.1.1.2,22,0.030,0.030,0.030,0.000,0.000,0.000
1644344749192136960,2022-02-08-18:25:49,10.1.1.2,21,0.040,0.040,0.040,0.000,0.000,0.000
1644344749292596992,2022-02-08-18:25:49,10.1.1.2,20,0.050,0.050,0.050,0.000,0.000,0.000
1644344749393431808,2022-02-08-18:25:49,10.1.1.2,19,0.060,0.060,0.060,0.000,0.000,0.000
1644344749512687872,2022-02-08-18:25:49,10.1.1.2,38,0.070,0.070,0.070,0.000,0.000,0.000
1644344749613756928,2022-02-08-18:25:49,10.1.1.2,38,0.080,0.080,0.080,0.000,0.000,0.000
1644344749713617920,2022-02-08-18:25:49,10.1.1.2,37,0.090,0.090,0.090,0.000,0.000,0.000
1644344749814498048,2022-02-08-18:25:49,10.1.1.2,36,0.100,0.100,0.100,0.000,0.000,0.000
1644344749913465856,2022-02-08-18:25:49,10.1.1.2,33,0.090,0.090,0.090,0.000,0.000,0.000
1644344750014499840,2022-02-08-18:25:50,10.1.1.2,33,0.080,0.080,0.080,0.000,0.000,0.000
1644344750112834048,2022-02-08-18:25:50,10.1.1.2,32,0.070,0.070,0.070,0.000,0.000,0.000
1644344750212441088,2022-02-08-18:25:50,10.1.1.2,31,0.060,0.060,0.060,0.000,0.000,0.000
1644344750312146944,2022-02-08-18:25:50,10.1.1.2,31,0.050,0.050,0.050,0.000,0.000,0.000
1644344750412215040,2022-02-08-18:25:50,10.1.1.2,30,0.040,0.040,0.040,0.000,0.000,0.000
1644344750512006144,2022-02-08-18:25:50,10.1.1.2,29,0.030,0.030,0.030,0.000,0.000,0.000
1644344750611987200,2022-02-08-18:25:50,10.1.1.2,29,0.020,0.020,0.020,0.000,0.000,0.000
1644344750713524224,2022-02-08-18:25:50,10.1.1.2,28,0.010,0.010,0.010,0.000,0.000,0.000
1644344750815457024,2022-02-08-18:25:50,10.1.1.2,27,0.000,0.000,0.000,0.000,0.000,0.000
1644344750914535168,2022-02-08-18:25:50,10.1.1.2,25,-0.010,-0.010,-0.010,0.000,0.000,0.000
1644344751012525056,2022-02-08-18:25:51,10.1.1.2,24,-0.020,-0.020,-0.020,0.000,0.000,0.000
1644344751112972032,2022-02-08-18:25:51,10.1.1.2,22,-0.030,-0.030,-0.030,0.000,0.000,0.000
1644344751213128192,2022-02-08-18:25:51,10.1.1.2,21,-0.040,-0.040,-0.040,0.000,0.000,0.000
1644344751313704960,2022-02-08-18:25:51,10.1.1.2,19,-0.050,-0.050,-0.050,0.000,0.000,0.000
1644344751435200000,2022-02-08-18:25:51,10.1.1.2,36,-0.060,-0.060,-0.060,0.000,0.000,0.000
1644344751532558080,2022-02-08-18:25:51,10.1.1.2,35,-0.070,-0.070,-0.070,0.000,0.000,0.000
1644344751633692928,2022-02-08-18:25:51,10.1.1.2,33,-0.080,-0.080,-0.080,0.000,0.000,0.000
1644344751732649984,2022-02-08-18:25:51,10.1.1.2,31,-0.090,-0.090,-0.090,0.000,0.000,0.000
1644344751833882112,2022-02-08-18:25:51,10.1.1.2,31,-0.100,-0.100,-0.100,0.000,0.000,0.000
1644344751934638080,2022-02-08-18:25:51,10.1.1.2,30,-0.090,-0.090,-0.090,0.000,0.000,0.000
1644344752032912128,2022-02-08-18:25:52,10.1.1.2,27,-0.080,-0.080,-0.080,0.000,0.000,0.000
1644344752133541120,2022-02-08-18:25:52,10.1.1.2,24,-0.070,-0.070,-0.070,0.000,0.000,0.000
1644344752234059008,2022-02-08-18:25:52,10.1.1.2,22,-0.060,-0.060,-0.060,0.000,0.000,0.000
1644344752332477952,2022-02-08-18:25:52,10.1.1.2,20,-0.050,-0.050,-0.050,0.000,0.000,0.000
1644344752432760832,2022-02-08-18:25:52,10.1.1.2,19,-0.040,-0.040,-0.040,0.000,0.000,0.000
1644344752552356864,2022-02-08-18:25:52,10.1.1.2,34,-0.030,-0.030,-0.030,0.000,0.000,0.000
1644344752654118912,2022-02-08-18:25:52,10.1.1.2,32,-0.020,-0.020,-0.020,0.000,0.000,0.000
1644344752754596096,2022-02-08-18:25:52,10.1.1.2,31,-0.010,-0.010,-0.010,0.000,0.000,0.000
1644344752856271104,2022-02-08-18:25:52,10.1.1.2,30,0.000,0.000,0.000,0.000,0.000,0.000
1644344752955259136,2022-02-08-18:25:52,10.1.1.2,25,0.010,0.010,0.010,0.000,0.000,0.000
1644344753053211904,2022-02-08-18:25:53,10.1.1.2,24,0.020,0.020,0.020,0.000,0.000,0.000
1644344753154987008,2022-02-08-18:25:53,10.1.1.2,22,0.030,0.030,0.030,0.000,0.000,0.000
1644344753374407168,2022-02-08-18:25:53,10.1.1.2,32,0.050,0.050,0.050,0.000,0.000,0.000
1644344753475433984,2022-02-08-18:25:53,10.1.1.2,30,0.060,0.060,0.060,0.000,0.000,0.000
1644344753575197952,2022-02-08-18:25:53,10.1.1.2,28,0.070,0.070,0.070,0.000,0.000,0.000
1644344753673243904,2022-02-08-18:25:53,10.1.1.2,26,0.080,0.080,0.080,0.000,0.000,0.000
1644344753773547008,2022-02-08-18:25:53,10.1.1.2,25,0.090,0.090,0.090,0.000,0.000,0.000
1644344753874562048,2022-02-08-18:25:53,10.1.1.2,23,0.100,0.100,0.100,0.000,0.000,0.000
1644344753971961856,2022-02-08-18:25:53,10.1.1.2,21,0.090,0.090,0.090,0.000,0.000,0.000
1644344754072101120,2022-02-08-18:25:54,10.1.1.2,20,0.080,0.080,0.080,0.000,0.000,0.000
1644344754173158912,2022-02-08-18:25:54,10.1.1.2,19,0.070,0.070,0.070,0.000,0.000,0.000
1644344754293026816,2022-02-08-18:25:54,10.1.1.2,38,0.060,0.060,0.060,0.000,0.000,0.000
1644344754393445888,2022-02-08-18:25:54,10.1.1.2,37,0.050,0.050,0.050,0.000,0.000,0.000
1644344754493274880,2022-02-08-18:25:54,10.1.1.2,30,0.040,0.040,0.040,0.000,0.000,0.000
1644344754592581888,2022-02-08-18:25:54,10.1.1.2,29,0.030,0.030,0.030,0.000,0.000,0.000
1644344754692528128,2022-02-08-18:25:54,10.1.1.2,28,0.020,0.020,0.020,0.000,0.000,0.000
1644344754793161984,2022-02-08-18:25:54,10.1.1.2,27,0.010,0.010,0.010,0.000,0.000,0.000
1644344754895149056,2022-02-08-18:25:54,10.1.1.2,27,0.000,0.000,0.000,0.000,0.000,0.000
1644344754993895168,2022-02-08-18:25:54,10.1.1.2,24,-0.010,-0.010,-0.010,0.000,0.000,0.000
1644344755093527040,2022-02-08-18:25:55,10.1.1.2,23,-0.020,-0.020,-0.020,0.000,0.000,0.000
1644344755193754880,2022-02-08-18:25:55,10.1.1.2,22,-0.030,-0.030,-0.030,0.000,0.000,0.000
1644344755294689024,2022-02-08-18:25:55,10.1.1.2,21,-0.040,-0.040,-0.040,0.000,0.000,0.000
1644344755392707072,2022-02-08-18:25:55,10.1.1.2,19,-0.050,-0.050,-0.050,0.000,0.000,0.000
1644344755514375936,2022-02-08-18:25:55,10.1.1.2,38,-0.060,-0.060,-0.060,0.000,0.000,0.000
1644344755613573120,2022-02-08-18:25:55,10.1.1.2,36,-0.070,-0.070,-0.070,0.000,0.000,0.000
1644344755713568000,2022-02-08-18:25:55,10.1.1.2,34,-0.080,-0.080,-0.080,0.000,0.000,0.000
1644344755813579008,2022-02-08-18:25:55,10.1.1.2,33,-0.090,-0.090,-0.090,0.000,0.000,0.000
1644344755913542912,2022-02-08-18:25:55,10.1.1.2,32,-0.100,-0.100,-0.100,0.000,0.000,0.000
1644344756012006912,2022-02-08-18:25:56,10.1.1.2,31,-0.090,-0.090,-0.090,0.000,0.000,0.000
1644344756112953856,2022-02-08-18:25:56,10.1.1.2,30,-0.080,-0.080,-0.080,0.000,0.000,0.000
1644344756213819136,2022-02-08-18:25:56,10.1.1.2,29,-0.070,-0.070,-0.070,0.000,0.000,0.000
1644344756313758976,2022-02-08-18:25:56,10.1.1.2,29,-0.060,-0.060,-0.060,0.000,0.000,0.000
1644344756413950976,2022-02-08-18:25:56,10.1.1.2,28,-0.050,-0.050,-0.050,0.000,0.000,0.000
1644344756513381120,2022-02-08-18:25:56,10.1.1.2,27,-0.040,-0.040,-0.040,0.000,0.000,0.000
1644344756613148928,2022-02-08-18:25:56,10.1.1.2,26,-0.030,-0.030,-0.030,0.000,0.000,0.000
1644344756714292992,2022-02-08-18:25:56,10.1.1.2,25,-0.020,-0.020,-0.020,0.000,0.000,0.000
1644344756813805056,2022-02-08-18:25:56,10.1.1.2,24,-0.010,-0.010,-0.010,0.000,0.000,0.000
1644344756913274112,2022-02-08-18:25:56,10.1.1.2,22,0.000,0.000,0.000,0.000,0.000,0.000
1644344757012391168,2022-02-08-18:25:57,10.1.1.2,21,0.010,0.010,0.010,0.000,0.000,0.000
1644344757233812992,2022-02-08-18:25:57,10.1.1.2,21,0.030,0.030,0.030,0.000,0.000,0.000
1644344757333592832,2022-02-08-18:25:57,10.1.1.2,21,0.040,0.040,0.040,0.000,0.000,0.000
1644344757432527104,2022-02-08-18:25:57,10.1.1.2,20,0.050,0.050,0.050,0.000,0.000,0.000
1644344757552576000,2022-02-08-18:25:57,10.1.1.2,39,0.060,0.060,0.060,0.000,0.000,0.000
1644344757654490880,2022-02-08-18:25:57,10.1.1.2,39,0.070,0.070,0.070,0.000,0.000,0.000
1644344757760709888,2022-02-08-18:25:57,10.1.1.2,44,0.080,0.080,0.080,0.000,0.000,0.000
1644344757866152960,2022-02-08-18:25:57,10.1.1.2,48,0.090,0.090,0.090,0.000,0.000,0.000
1644344758033626112,2022-02-08-18:25:58,10.1.1.2,13,0.090,0.090,0.090,0.000,0.000,0.000
1644344758154467072,2022-02-08-18:25:58,10.1.1.2,32,0.080,0.080,0.080,0.000,0.000,0.000
1644344758253468160,2022-02-08-18:25:58,10.1.1.2,32,0.070,0.070,0.070,0.000,0.000,0.000
1644344758453609984,2022-02-08-18:25:58,10.1.1.2,30,0.050,0.050,0.050,0.000,0.000,0.000
1644344758554516992,2022-02-08-18:25:58,10.1.1.2,26,0.040,0.040,0.040,0.000,0.000,0.000
1644344758651808000,2022-02-08-18:25:58,10.1.1.2,25,0.030,0.030,0.030,0.000,0.000,0.000
1644344758751266048,2022-02-08-18:25:58,10.1.1.2,24,0.020,0.020,0.020,0.000,0.000,0.000
1644344758853199104,2022-02-08-18:25:58,10.1.1.2,23,0.010,0.010,0.010,0.000,0.000,0.000
1644344758972220928,2022-02-08-18:25:58,10.1.1.2,38,0.000,0.000,0.000,0.000,0.000,0.000
1644344759072619008,2022-02-08-18:25:59,10.1.1.2,35,-0.010,-0.010,-0.010,0.000,0.000,0.000
1644344759172998912,2022-02-08-18:25:59,10.1.1.2,33,-0.020,-0.020,-0.020,0.000,0.000,0.000
1644344759272547072,2022-02-08-18:25:59,10.1.1.2,32,-0.030,-0.030,-0.030,0.000,0.000,0.000
1644344759372884992,2022-02-08-18:25:59,10.1.1.2,31,-0.040,-0.040,-0.040,0.000,0.000,0.000
1644344759472083200,2022-02-08-18:25:59,10.1.1.2,30,-0.050,-0.050,-0.050,0.000,0.000,0.000
1644344759572841984,2022-02-08-18:25:59,10.1.1.2,30,-0.060,-0.060,-0.060,0.000,0.000,0.000
1644344759671971072,2022-02-08-18:25:59,10.1.1.2,29,-0.070,-0.070,-0.070,0.000,0.000,0.000
1644344759772530176,2022-02-08-18:25:59,10.1.1.2,29,-0.080,-0.080,-0.080,0.000,0.000,0.000
1644344759873883136,2022-02-08-18:25:59,10.1.1.2,26,-0.090,-0.090,-0.090,0.000,0.000,0.000
1644344759974704128,2022-02-08-18:25:59,10.1.1.2,24,-0.100,-0.100,-0.100,0.000,0.000,0.000
1644344760073085184,2022-02-08-18:26:00,10.1.1.2,23,-0.090,-0.090,-0.090,0.000,0.000,0.000
1644344760172826112,2022-02-08-18:26:00,10.1.1.2,23,-0.080,-0.080,-0.080,0.000,0.000,0.000
1644344760272967936,2022-02-08-18:26:00,10.1.1.2,22,-0.070,-0.070,-0.070,0.000,0.000,0.000
1644344760373639936,2022-02-08-18:26:00,10.1.1.2,21,-0.060,-0.060,-0.060,0.000,0.000,0.000
1644344760472897024,2022-02-08-18:26:00,10.1.1.2,21,-0.050,-0.050,-0.050,0.000,0.000,0.000
1644344760572638976,2022-02-08-18:26:00,10.1.1.2,21,-0.040,-0.040,-0.040,0.000,0.000,0.000
1644344760693056000,2022-02-08-18:26:00,10.1.1.2,39,-0.030,-0.030,-0.030,0.000,0.000,0.000
1644344760791945984,2022-02-08-18:26:00,10.1.1.2,38,-0.020,-0.020,-0.020,0.000,0.000,0.000
1644344760892374016,2022-02-08-18:26:00,10.1.1.2,38,-0.010,-0.010,-0.010,0.000,0.000,0.000
1644344760993585152,2022-02-08-18:26:00,10.1.1.2,33,0.000,0.000,0.000,0.000,0.000,0.000
1644344761193430784,2022-02-08-18:26:01,10.1.1.2,29,0.020,0.020,0.020,0.000,0.000,0.000
1644344761294255104,2022-02-08-18:26:01,10.1.1.2,27,0.030,0.030,0.030,0.000,0.000,0.000
1644344761397025024,2022-02-08-18:26:01,10.1.1.2,26,0.040,0.040,0.040,0.000,0.000,0.000
1644344761637788160,2022-02-08-18:26:01,10.1.1.2,24,0.060,0.060,0.060,0.000,0.000,0.000
1644344761731617024,2022-02-08-18:26:01,10.1.1.2,22,0.070,0.070,0.070,0.000,0.000,0.000
1644344761833479936,2022-02-08-18:26:01,10.1.1.2,21,0.080,0.080,0.080,0.000,0.000,0.000
1644344761953085952,2022-02-08-18:26:01,10.1.1.2,39,0.090,0.090,0.090,0.000,0.000,0.000
1644344762053700864,2022-02-08-18:26:02,10.1.1.2,30,0.100,0.100,0.100,0.000,0.000,0.000
1644344762153111040,2022-02-08-18:26:02,10.1.1.2,27,0.090,0.090,0.090,0.000,0.000,0.000
1644344762253988864,2022-02-08-18:26:02,10.1.1.2,24,0.080,0.080,0.080,0.000,0.000,0.000
1644344762375403008,2022-02-08-18:26:02,10.1.1.2,38,0.070,0.070,0.070,0.000,0.000,0.000
1644344762477318144,2022-02-08-18:26:02,10.1.1.2,35,0.060,0.060,0.060,0.000,0.000,0.000
1644344762576992000,2022-02-08-18:26:02,10.1.1.2,34,0.050,0.050,0.050,0.000,0.000,0.000
1644344762675919104,2022-02-08-18:26:02,10.1.1.2,34,0.040,0.040,0.040,0.000,0.000,0.000
1644344762777043200,2022-02-08-18:26:02,10.1.1.2,31,0.030,0.030,0.030,0.000,0.000,0.000
1644344762871918848,2022-02-08-18:26:02,10.1.1.2,31,0.020,0.020,0.020,0.000,0.000,0.000
1644344762973668096,2022-02-08-18:26:02,10.1.1.2,31,0.010,0.010,0.010,0.000,0.000,0.000
1644344763073859840,2022-02-08-18:26:03,10.1.1.2,30,0.000,0.000,0.000,0.000,0.000,0.000
1644344763173612032,2022-02-08-18:26:03,10.1.1.2,29,-0.010,-0.010,-0.010,0.000,0.000,0.000
1644344763272528896,2022-02-08-18:26:03,10.1.1.2,29,-0.020,-0.020,-0.020,0.000,0.000,0.000
1644344763372477952,2022-02-08-18:26:03,10.1.1.2,28,-0.030,-0.030,-0.030,0.000,0.000,0.000
1644344763472147968,2022-02-08-18:26:03,10.1.1.2,26,-0.040,-0.040,-0.040,0.000,0.000,0.000
1644344763571729920,2022-02-08-18:26:03,10.1.1.2,26,-0.050,-0.050,-0.050,0.000,0.000,0.000
1644344763672270080,2022-02-08-18:26:03,10.1.1.2,25,-0.060,-0.060,-0.060,0.000,0.000,0.000
1644344763772190208,2022-02-08-18:26:03,10.1.1.2,24,-0.070,-0.070,-0.070,0.000,0.000,0.000
1644344763872570112,2022-02-08-18:26:03,10.1.1.2,23,-0.080,-0.080,-0.080,0.000,0.000,0.000
1644344763972662016,2022-02-08-18:26:03,10.1.1.2,23,-0.090,-0.090,-0.090,0.000,0.000,0.000
1644344764074233088,2022-02-08-18:26:04,10.1.1.2,21,-0.100,-0.100,-0.100,0.000,0.000,0.000
1644344764178062080,2022-02-08-18:26:04,10.1.1.2,21,-0.090,-0.090,-0.090,0.000,0.000,0.000
1644344764272192000,2022-02-08-18:26:04,10.1.1.2,20,-0.080,-0.080,-0.080,0.000,0.000,0.000
1644344764392446976,2022-02-08-18:26:04,10.1.1.2,39,-0.070,-0.070,-0.070,0.000,0.000,0.000
1644344764492495104,2022-02-08-18:26:04,10.1.1.2,38,-0.060,-0.060,-0.060,0.000,0.000,0.000
1644344764592098048,2022-02-08-18:26:04,10.1.1.2,34,-0.050,-0.050,-0.050,0.000,0.000,0.000
1644344764692587008,2022-02-08-18:26:04,10.1.1.2,34,-0.040,-0.040,-0.040,0.000,0.000,0.000
1644344764804779008,2022-02-08-18:26:04,10.1.1.2,31,-0.030,-0.030,-0.030,0.000,0.000,0.000
1644344764892209920,2022-02-08-18:26:04,10.1.1.2,26,-0.020,-0.020,-0.020,0.000,0.000,0.000
1644344764992860160,2022-02-08-18:26:04,10.1.1.2,25,-0.010,-0.010,-0.010,0.000,0.000,0.000
1644344765092303104,2022-02-08-18:26:05,10.1.1.2,25,0.000,0.000,0.000,0.000,0.000,0.000
1644344765191983104,2022-02-08-18:26:05,10.1.1.2,24,0.010,0.010,0.010,0.000,0.000,0.000
1644344765292336896,2022-02-08-18:26:05,10.1.1.2,23,0.020,0.020,0.020,0.000,0.000,0.000
1644344765392646144,2022-02-08-18:26:05,10.1.1.2,23,0.030,0.030,0.030,0.000,0.000,0.000
1644344765492396032,2022-02-08-18:26:05,10.1.1.2,23,0.040,0.040,0.040,0.000,0.000,0.000
1644344765592066048,2022-02-08-18:26:05,10.1.1.2,22,0.050,0.050,0.050,0.000,0.000,0.000
1644344765692922112,2022-02-08-18:26:05,10.1.1.2,21,0.060,0.060,0.060,0.000,0.000,0.000
1644344765792189952,2022-02-08-18:26:05,10.1.1.2,21,0.070,0.070,0.070,0.000,0.000,0.000
1644344765893000960,2022-02-08-18:26:05,10.1.1.2,20,0.080,0.080,0.080,0.000,0.000,0.000
1644344766013561088,2022-02-08-18:26:06,10.1.1.2,38,0.090,0.090,0.090,0.000,0.000,0.000
1644344766113728000,2022-02-08-18:26:06,10.1.1.2,35,0.100,0.100,0.100,0.000,0.000,0.000
1644344766212805888,2022-02-08-18:26:06,10.1.1.2,27,0.090,0.090,0.090,0.000,0.000,0.000
1644344766314452992,2022-02-08-18:26:06,10.1.1.2,25,0.080,0.080,0.080,0.000,0.000,0.000
1644344766413135104,2022-02-08-18:26:06,10.1.1.2,24,0.070,0.070,0.070,0.000,0.000,0.000
1644344766514537216,2022-02-08-18:26:06,10.1.1.2,23,0.060,0.060,0.060,0.000,0.000,0.000
1644344766612900096,2022-02-08-18:26:06,10.1.1.2,19,0.051,0.051,0.051,0.000,0.000,0.000
1644344766731851008,2022-02-08-18:26:06,10.1.1.2,37,0.040,0.040,0.040,0.000,0.000,0.000
1644344766836062976,2022-02-08-18:26:06,10.1.1.2,36,0.030,0.030,0.030,0.000,0.000,0.000
1644344766932670208,2022-02-08-18:26:06,10.1.1.2,33,0.020,0.020,0.020,0.000,0.000,0.000
1644344767031938048,2022-02-08-18:26:07,10.1.1.2,32,0.010,0.010,0.010,0.000,0.000,0.000
1644344767133166080,2022-02-08-18:26:07,10.1.1.2,31,0.000,0.000,0.000,0.000,0.000,0.000
1644344767232692992,2022-02-08-18:26:07,10.1.1.2,30,-0.010,-0.010,-0.010,0.000,0.000,0.000
1644344767332566016,2022-02-08-18:26:07,10.1.1.2,26,-0.020,-0.020,-0.020,0.000,0.000,0.000
1644344767432795136,2022-02-08-18:26:07,10.1.1.2,25,-0.030,-0.030,-0.030,0.000,0.000,0.000
1644344767532378880,2022-02-08-18:26:07,10.1.1.2,24,-0.040,-0.040,-0.040,0.000,0.000,0.000
1644344767632820992,2022-02-08-18:26:07,10.1.1.2,23,-0.050,-0.050,-0.050,0.000,0.000,0.000
1644344767732244992,2022-02-08-18:26:07,10.1.1.2,23,-0.060,-0.060,-0.060,0.000,0.000,0.000
1644344767833102080,2022-02-08-18:26:07,10.1.1.2,22,-0.070,-0.070,-0.070,0.000,0.000,0.000
1644344767932651008,2022-02-08-18:26:07,10.1.1.2,21,-0.080,-0.080,-0.080,0.000,0.000,0.000
1644344768053105152,2022-02-08-18:26:08,10.1.1.2,36,-0.090,-0.090,-0.090,0.000,0.000,0.000
1644344768152473088,2022-02-08-18:26:08,10.1.1.2,33,-0.100,-0.100,-0.100,0.000,0.000,0.000
1644344768251915008,2022-02-08-18:26:08,10.1.1.2,33,-0.090,-0.090,-0.090,0.000,0.000,0.000
1644344768353684992,2022-02-08-18:26:08,10.1.1.2,32,-0.080,-0.080,-0.080,0.000,0.000,0.000
1644344768453312000,2022-02-08-18:26:08,10.1.1.2,28,-0.070,-0.070,-0.070,0.000,0.000,0.000
1644344768553155840,2022-02-08-18:26:08,10.1.1.2,27,-0.060,-0.060,-0.060,0.000,0.000,0.000
1644344768652122880,2022-02-08-18:26:08,10.1.1.2,25,-0.050,-0.050,-0.050,0.000,0.000,0.000
1644344768757193216,2022-02-08-18:26:08,10.1.1.2,22,-0.040,-0.040,-0.040,0.000,0.000,0.000
1644344768854171136,2022-02-08-18:26:08,10.1.1.2,20,-0.030,-0.030,-0.030,0.000,0.000,0.000
1644344768954238976,2022-02-08-18:26:08,10.1.1.2,19,-0.021,-0.021,-0.021,0.000,0.000,0.000
1644344769073379072,2022-02-08-18:26:09,10.1.1.2,38,-0.010,-0.010,-0.010,0.000,0.000,0.000
1644344769173810944,2022-02-08-18:26:09,10.1.1.2,35,0.000,0.000,0.000,0.000,0.000,0.000
1644344769277005056,2022-02-08-18:26:09,10.1.1.2,36,0.010,0.010,0.010,0.000,0.000,0.000
1644344769374553088,2022-02-08-18:26:09,10.1.1.2,32,0.020,0.020,0.020,0.000,0.000,0.000
1644344769473054976,2022-02-08-18:26:09,10.1.1.2,30,0.030,0.030,0.030,0.000,0.000,0.000
1644344769573473024,2022-02-08-18:26:09,10.1.1.2,28,0.040,0.040,0.040,0.000,0.000,0.000
1644344769674694144,2022-02-08-18:26:09,10.1.1.2,25,0.050,0.050,0.050,0.000,0.000,0.000
1644344769773413888,2022-02-08-18:26:09,10.1.1.2,24,0.060,0.060,0.060,0.000,0.000,0.000
1644344769875070976,2022-02-08-18:26:09,10.1.1.2,23,0.070,0.070,0.070,0.000,0.000,0.000
1644344769973444096,2022-02-08-18:26:09,10.1.1.2,21,0.080,0.080,0.080,0.000,0.000,0.000
1644344770073036800,2022-02-08-18:26:10,10.1.1.2,20,0.090,0.090,0.090,0.000,0.000,0.000
1644344770173849088,2022-02-08-18:26:10,10.1.1.2,19,0.099,0.099,0.099,0.000,0.000,0.000
1644344770293368064,2022-02-08-18:26:10,10.1.1.2,32,0.090,0.090,0.090,0.000,0.000,0.000
1644344770394256128,2022-02-08-18:26:10,10.1.1.2,31,0.080,0.080,0.080,0.000,0.000,0.000
1644344770492724992,2022-02-08-18:26:10,10.1.1.2,29,0.070,0.070,0.070,0.000,0.000,0.000
1644344770592448000,2022-02-08-18:26:10,10.1.1.2,27,0.060,0.060,0.060,0.000,0.000,0.000
1644344770697220096,2022-02-08-18:26:10,10.1.1.2,25,0.050,0.050,0.050,0.000,0.000,0.000
1644344770793633024,2022-02-08-18:26:10,10.1.1.2,24,0.040,0.040,0.040,0.000,0.000,0.000
1644344770895492096,2022-02-08-18:26:10,10.1.1.2,21,0.030,0.030,0.030,0.000,0.000,0.000
1644344771014621952,2022-02-08-18:26:11,10.1.1.2,39,0.020,0.020,0.020,0.000,0.000,0.000
1644344771113772032,2022-02-08-18:26:11,10.1.1.2,38,0.010,0.010,0.010,0.000,0.000,0.000
1644344771213701888,2022-02-08-18:26:11,10.1.1.2,35,0.000,0.000,0.000,0.000,0.000,0.000
1644344771315001088,2022-02-08-18:26:11,10.1.1.2,32,-0.010,-0.010,-0.010,0.000,0.000,0.000
1644344771413434112,2022-02-08-18:26:11,10.1.1.2,31,-0.020,-0.020,-0.020,0.000,0.000,0.000
1644344771512558080,2022-02-08-18:26:11,10.1.1.2,30,-0.030,-0.030,-0.030,0.000,0.000,0.000
1644344771631683072,2022-02-08-18:26:11,10.1.1.2,32,-0.040,-0.040,-0.040,0.000,0.000,0.000
1644344771732251904,2022-02-08-18:26:11,10.1.1.2,29,-0.050,-0.050,-0.050,0.000,0.000,0.000
1644344771832253952,2022-02-08-18:26:11,10.1.1.2,26,-0.060,-0.060,-0.060,0.000,0.000,0.000
1644344771932758016,2022-02-08-18:26:11,10.1.1.2,24,-0.070,-0.070,-0.070,0.000,0.000,0.000
1644344772032494080,2022-02-08-18:26:12,10.1.1.2,23,-0.080,-0.080,-0.080,0.000,0.000,0.000
1644344772132112896,2022-02-08-18:26:12,10.1.1.2,22,-0.090,-0.090,-0.090,0.000,0.000,0.000
1644344772232366080,2022-02-08-18:26:12,10.1.1.2,21,-0.100,-0.100,-0.100,0.000,0.000,0.000
1644344772334438144,2022-02-08-18:26:12,10.1.1.2,20,-0.090,-0.090,-0.090,0.000,0.000,0.000
1644344772433410048,2022-02-08-18:26:12,10.1.1.2,19,-0.081,-0.081,-0.081,0.000,0.000,0.000
1644344772553602048,2022-02-08-18:26:12,10.1.1.2,38,-0.070,-0.070,-0.070,0.000,0.000,0.000
1644344772652941056,2022-02-08-18:26:12,10.1.1.2,33,-0.060,-0.060,-0.060,0.000,0.000,0.000
1644344772753936128,2022-02-08-18:26:12,10.1.1.2,32,-0.050,-0.050,-0.050,0.000,0.000,0.000
1644344772852564992,2022-02-08-18:26:12,10.1.1.2,31,-0.040,-0.040,-0.040,0.000,0.000,0.000
1644344772952939008,2022-02-08-18:26:12,10.1.1.2,30,-0.030,-0.030,-0.030,0.000,0.000,0.000
1644344773053529856,2022-02-08-18:26:13,10.1.1.2,28,-0.020,-0.020,-0.020,0.000,0.000,0.000
1644344773153449984,2022-02-08-18:26:13,10.1.1.2,26,-0.010,-0.010,-0.010,0.000,0.000,0.000
1644344773252322048,2022-02-08-18:26:13,10.1.1.2,24,0.000,0.000,0.000,0.000,0.000,0.000
1644344773353533952,2022-02-08-18:26:13,10.1.1.2,24,0.010,0.010,0.010,0.000,0.000,0.000
1644344773453250816,2022-02-08-18:26:13,10.1.1.2,23,0.020,0.020,0.020,0.000,0.000,0.000
1644344773554014976,2022-02-08-18:26:13,10.1.1.2,22,0.030,0.030,0.030,0.000,0.000,0.000
1644344773653417984,2022-02-08-18:26:13,10.1.1.2,21,0.040,0.040,0.040,0.000,0.000,0.000
1644344773775724032,2022-02-08-18:26:13,10.1.1.2,37,0.050,0.050,0.050,0.000,0.000,0.000
1644344773873342976,2022-02-08-18:26:13,10.1.1.2,35,0.060,0.060,0.060,0.000,0.000,0.000
1644344773973756160,2022-02-08-18:26:13,10.1.1.2,34,0.070,0.070,0.070,0.000,0.000,0.000
1644344774075170048,2022-02-08-18:26:14,10.1.1.2,32,0.080,0.080,0.080,0.000,0.000,0.000
1644344774174305024,2022-02-08-18:26:14,10.1.1.2,30,0.090,0.090,0.090,0.000,0.000,0.000
1644344774275659008,2022-02-08-18:26:14,10.1.1.2,26,0.100,0.100,0.100,0.000,0.000,0.000
1644344774373420032,2022-02-08-18:26:14,10.1.1.2,24,0.090,0.090,0.090,0.000,0.000,0.000
1644344774475468032,2022-02-08-18:26:14,10.1.1.2,23,0.080,0.080,0.080,0.000,0.000,0.000
1644344774574871040,2022-02-08-18:26:14,10.1.1.2,22,0.070,0.070,0.070,0.000,0.000,0.000
1644344774674340864,2022-02-08-18:26:14,10.1.1.2,21,0.060,0.060,0.060,0.000,0.000,0.000
1644344774774350848,2022-02-08-18:26:14,10.1.1.2,20,0.050,0.050,0.050,0.000,0.000,0.000
1644344774893914112,2022-02-08-18:26:14,10.1.1.2,38,0.040,0.040,0.040,0.000,0.000,0.000
1644344774994475008,2022-02-08-18:26:14,10.1.1.2,33,0.030,0.030,0.030,0.000,0.000,0.000
1644344775096265984,2022-02-08-18:26:15,10.1.1.2,29,0.020,0.020,0.020,0.000,0.000,0.000
1644344775194434816,2022-02-08-18:26:15,10.1.1.2,28,0.010,0.010,0.010,0.000,0.000,0.000
1644344775293977088,2022-02-08-18:26:15,10.1.1.2,25,0.000,0.000,0.000,0.000,0.000,0.000
1644344775395382016,2022-02-08-18:26:15,10.1.1.2,24,-0.010,-0.010,-0.010,0.000,0.000,0.000
1644344775493146880,2022-02-08-18:26:15,10.1.1.2,23,-0.020,-0.020,-0.020,0.000,0.000,0.000
1644344775593584896,2022-02-08-18:26:15,10.1.1.2,22,-0.030,-0.030,-0.030,0.000,0.000,0.000
1644344775693496064,2022-02-08-18:26:15,10.1.1.2,21,-0.040,-0.040,-0.040,0.000,0.000,0.000
1644344775794738176,2022-02-08-18:26:15,10.1.1.2,20,-0.050,-0.050,-0.050,0.000,0.000,0.000
1644344775914283008,2022-02-08-18:26:15,10.1.1.2,38,-0.060,-0.060,-0.060,0.000,0.000,0.000
1644344776018333952,2022-02-08-18:26:16,10.1.1.2,37,-0.070,-0.070,-0.070,0.000,0.000,0.000
1644344776114635008,2022-02-08-18:26:16,10.1.1.2,33,-0.080,-0.080,-0.080,0.000,0.000,0.000
1644344776214104832,2022-02-08-18:26:16,10.1.1.2,30,-0.090,-0.090,-0.090,0.000,0.000,0.000
1644344776314450944,2022-02-08-18:26:16,10.1.1.2,26,-0.100,-0.100,-0.100,0.000,0.000,0.000
1644344776413687040,2022-02-08-18:26:16,10.1.1.2,25,-0.090,-0.090,-0.090,0.000,0.000,0.000
1644344776514394880,2022-02-08-18:26:16,10.1.1.2,25,-0.080,-0.080,-0.080,0.000,0.000,0.000
1644344776612766976,2022-02-08-18:26:16,10.1.1.2,22,-0.070,-0.070,-0.070,0.000,0.000,0.000
1644344776712815104,2022-02-08-18:26:16,10.1.1.2,20,-0.060,-0.060,-0.060,0.000,0.000,0.000
1644344776812798976,2022-02-08-18:26:16,10.1.1.2,20,-0.050,-0.050,-0.050,0.000,0.000,0.000
1644344776934632960,2022-02-08-18:26:16,10.1.1.2,39,-0.040,-0.040,-0.040,0.000,0.000,0.000
1644344777032808960,2022-02-08-18:26:17,10.1.1.2,36,-0.030,-0.030,-0.030,0.000,0.000,0.000
1644344777134521856,2022-02-08-18:26:17,10.1.1.2,33,-0.020,-0.020,-0.020,0.000,0.000,0.000
1644344777232603136,2022-02-08-18:26:17,10.1.1.2,31,-0.010,-0.010,-0.010,0.000,0.000,0.000
1644344777334865920,2022-02-08-18:26:17,10.1.1.2,30,0.000,0.000,0.000,0.000,0.000,0.000
1644344777434459904,2022-02-08-18:26:17,10.1.1.2,29,0.010,0.010,0.010,0.000,0.000,0.000
1644344777533648896,2022-02-08-18:26:17,10.1.1.2,28,0.020,0.020,0.020,0.000,0.000,0.000
1644344777634243840,2022-02-08-18:26:17,10.1.1.2,27,0.030,0.030,0.030,0.000,0.000,0.000
1644344777733102080,2022-02-08-18:26:17,10.1.1.2,25,0.040,0.040,0.040,0.000,0.000,0.000
1644344777837220864,2022-02-08-18:26:17,10.1.1.2,24,0.050,0.050,0.050,0.000,0.000,0.000
1644344777933750016,2022-02-08-18:26:17,10.1.1.2,23,0.060,0.060,0.060,0.000,0.000,0.000
1644344778035331072,2022-02-08-18:26:18,10.1.1.2,21,0.070,0.070,0.070,0.000,0.000,0.000
1644344778133702912,2022-02-08-18:26:18,10.1.1.2,20,0.080,0.080,0.080,0.000,0.000,0.000
1644344778253982976,2022-02-08-18:26:18,10.1.1.2,38,0.090,0.090,0.090,0.000,0.000,0.000
1644344778353399040,2022-02-08-18:26:18,10.1.1.2,37,0.100,0.100,0.100,0.000,0.000,0.000
1644344778453603072,2022-02-08-18:26:18,10.1.1.2,34,0.090,0.090,0.090,0.000,0.000,0.000
1644344778587044096,2022-02-08-18:26:18,10.1.1.2,33,0.080,0.080,0.080,0.000,0.000,0.000
1644344778653255936,2022-02-08-18:26:18,10.1.1.2,32,0.070,0.070,0.070,0.000,0.000,0.000
1644344778754296064,2022-02-08-18:26:18,10.1.1.2,31,0.060,0.060,0.060,0.000,0.000,0.000
1644344778854414848,2022-02-08-18:26:18,10.1.1.2,29,0.050,0.050,0.050,0.000,0.000,0.000
1644344778952850944,2022-02-08-18:26:18,10.1.1.2,29,0.040,0.040,0.040,0.000,0.000,0.000
1644344779062446080,2022-02-08-18:26:19,10.1.1.2,28,0.030,0.030,0.030,0.000,0.000,0.000
1644344779153974016,2022-02-08-18:26:19,10.1.1.2,27,0.020,0.020,0.020,0.000,0.000,0.000
1644344779255129088,2022-02-08-18:26:19,10.1.1.2,25,0.010,0.010,0.010,0.000,0.000,0.000
1644344779354428160,2022-02-08-18:26:19,10.1.1.2,23,0.000,0.000,0.000,0.000,0.000,0.000
1644344779454801152,2022-02-08-18:26:19,10.1.1.2,22,-0.010,-0.010,-0.010,0.000,0.000,0.000
1644344779554061056,2022-02-08-18:26:19,10.1.1.2,20,-0.020,-0.020,-0.020,0.000,0.000,0.000
1644344779674542848,2022-02-08-18:26:19,10.1.1.2,39,-0.030,-0.030,-0.030,0.000,0.000,0.000
1644344779773485824,2022-02-08-18:26:19,10.1.1.2,38,-0.040,-0.040,-0.040,0.000,0.000,0.000
1644344779873355008,2022-02-08-18:26:19,10.1.1.2,34,-0.050,-0.050,-0.050,0.000,0.000,0.000
1644344779974379008,2022-02-08-18:26:19,10.1.1.2,33,-0.060,-0.060,-0.060,0.000,0.000,0.000
1644344780072078080,2022-02-08-18:26:20,10.1.1.2,31,-0.070,-0.070,-0.070,0.000,0.000,0.000
1644344780172715776,2022-02-08-18:26:20,10.1.1.2,29,-0.080,-0.080,-0.080,0.000,0.000,0.000
1644344780272104960,2022-02-08-18:26:20,10.1.1.2,29,-0.090,-0.090,-0.090,0.000,0.000,0.000
1644344780374001920,2022-02-08-18:26:20,10.1.1.2,28,-0.100,-0.100,-0.100,0.000,0.000,0.000
1644344780473708032,2022-02-08-18:26:20,10.1.1.2,25,-0.090,-0.090,-0.090,0.000,0.000,0.000
1644344780573767936,2022-02-08-18:26:20,10.1.1.2,24,-0.080,-0.080,-0.080,0.000,0.000,0.000
1644344780675260160,2022-02-08-18:26:20,10.1.1.2,22,-0.070,-0.070,-0.070,0.000,0.000,0.000
1644344780773780992,2022-02-08-18:26:20,10.1.1.2,21,-0.060,-0.060,-0.060,0.000,0.000,0.000
1644344780893986048,2022-02-08-18:26:20,10.1.1.2,38,-0.050,-0.050,-0.050,0.000,0.000,0.000
1644344780995522048,2022-02-08-18:26:20,10.1.1.2,37,-0.040,-0.040,-0.040,0.000,0.000,0.000
1644344781096931072,2022-02-08-18:26:21,10.1.1.2,34,-0.030,-0.030,-0.030,0.000,0.000,0.000
1644344781194770176,2022-02-08-18:26:21,10.1.1.2,32,-0.020,-0.020,-0.020,0.000,0.000,0.000
1644344781293092864,2022-02-08-18:26:21,10.1.1.2,29,-0.010,-0.010,-0.010,0.000,0.000,0.000
1644344781394267136,2022-02-08-18:26:21,10.1.1.2,28,0.000,0.000,0.000,0.000,0.000,0.000
1644344781493629952,2022-02-08-18:26:21,10.1.1.2,26,0.010,0.010,0.010,0.000,0.000,0.000
1644344781593565952,2022-02-08-18:26:21,10.1.1.2,24,0.020,0.020,0.020,0.000,0.000,0.000
1644344781694195968,2022-02-08-18:26:21,10.1.1.2,23,0.030,0.030,0.030,0.000,0.000,0.000
1644344781793891840,2022-02-08-18:26:21,10.1.1.2,22,0.040,0.040,0.040,0.000,0.000,0.000
1644344781893268992,2022-02-08-18:26:21,10.1.1.2,20,0.050,0.050,0.050,0.000,0.000,0.000
1644344781994385920,2022-02-08-18:26:21,10.1.1.2,19,0.060,0.060,0.060,0.000,0.000,0.000
1644344782096227840,2022-02-08-18:26:22,10.1.1.2,19,0.069,0.069,0.069,0.000,0.000,0.000
1644344782214484992,2022-02-08-18:26:22,10.1.1.2,38,0.080,0.080,0.080,0.000,0.000,0.000
1644344782314507008,2022-02-08-18:26:22,10.1.1.2,37,0.090,0.090,0.090,0.000,0.000,0.000
1644344782414608896,2022-02-08-18:26:22,10.1.1.2,33,0.100,0.100,0.100,0.000,0.000,0.000
1644344782514753024,2022-02-08-18:26:22,10.1.1.2,32,0.090,0.090,0.090,0.000,0.000,0.000
1644344782613831936,2022-02-08-18:26:22,10.1.1.2,27,0.080,0.080,0.080,0.000,0.000,0.000
1644344782713948928,2022-02-08-18:26:22,10.1.1.2,25,0.070,0.070,0.070,0.000,0.000,0.000
1644344782812422912,2022-02-08-18:26:22,10.1.1.2,24,0.060,0.060,0.060,0.000,0.000,0.000
1644344782912965120,2022-02-08-18:26:22,10.1.1.2,24,0.050,0.050,0.050,0.000,0.000,0.000
1644344783013741056,2022-02-08-18:26:23,10.1.1.2,22,0.040,0.040,0.040,0.000,0.000,0.000
1644344783113308928,2022-02-08-18:26:23,10.1.1.2,21,0.030,0.030,0.030,0.000,0.000,0.000
1644344783218866176,2022-02-08-18:26:23,10.1.1.2,24,0.020,0.020,0.020,0.000,0.000,0.000
1644344783335944960,2022-02-08-18:26:23,10.1.1.2,39,0.010,0.010,0.010,0.000,0.000,0.000
1644344783434134016,2022-02-08-18:26:23,10.1.1.2,38,0.000,0.000,0.000,0.000,0.000,0.000
1644344783532960768,2022-02-08-18:26:23,10.1.1.2,35,-0.010,-0.010,-0.010,0.000,0.000,0.000
1644344783634473984,2022-02-08-18:26:23,10.1.1.2,33,-0.020,-0.020,-0.020,0.000,0.000,0.000
1644344783733664000,2022-02-08-18:26:23,10.1.1.2,28,-0.030,-0.030,-0.030,0.000,0.000,0.000
1644344783832987904,2022-02-08-18:26:23,10.1.1.2,24,-0.040,-0.040,-0.040,0.000,0.000,0.000
1644344783933826048,2022-02-08-18:26:23,10.1.1.2,23,-0.050,-0.050,-0.050,0.000,0.000,0.000
1644344784034056960,2022-02-08-18:26:24,10.1.1.2,22,-0.060,-0.060,-0.060,0.000,0.000,0.000
1644344784133841152,2022-02-08-18:26:24,10.1.1.2,21,-0.070,-0.070,-0.070,0.000,0.000,0.000
1644344784232615936,2022-02-08-18:26:24,10.1.1.2,20,-0.080,-0.080,-0.080,0.000,0.000,0.000
1644344784334888960,2022-02-08-18:26:24,10.1.1.2,19,-0.089,-0.089,-0.089,0.000,0.000,0.000
1644344784452562944,2022-02-08-18:26:24,10.1.1.2,36,-0.100,-0.100,-0.100,0.000,0.000,0.000
1644344784552963072,2022-02-08-18:26:24,10.1.1.2,31,-0.090,-0.090,-0.090,0.000,0.000,0.000
1644344784653358848,2022-02-08-18:26:24,10.1.1.2,30,-0.080,-0.080,-0.080,0.000,0.000,0.000
1644344784753467136,2022-02-08-18:26:24,10.1.1.2,29,-0.070,-0.070,-0.070,0.000,0.000,0.000
1644344784853734912,2022-02-08-18:26:24,10.1.1.2,26,-0.060,-0.060,-0.060,0.000,0.000,0.000
1644344784955802880,2022-02-08-18:26:24,10.1.1.2,25,-0.050,-0.050,-0.050,0.000,0.000,0.000
1644344785055210240,2022-02-08-18:26:25,10.1.1.2,24,-0.040,-0.040,-0.040,0.000,0.000,0.000
1644344785153558016,2022-02-08-18:26:25,10.1.1.2,23,-0.030,-0.030,-0.030,0.000,0.000,0.000
1644344785258284032,2022-02-08-18:26:25,10.1.1.2,22,-0.020,-0.020,-0.020,0.000,0.000,0.000
1644344785353760000,2022-02-08-18:26:25,10.1.1.2,20,-0.010,-0.010,-0.010,0.000,0.000,0.000
1644344785477628928,2022-02-08-18:26:25,10.1.1.2,38,0.000,0.000,0.000,0.000,0.000,0.000
1644344785575321856,2022-02-08-18:26:25,10.1.1.2,34,0.010,0.010,0.010,0.000,0.000,0.000
1644344785675172096,2022-02-08-18:26:25,10.1.1.2,33,0.020,0.020,0.020,0.000,0.000,0.000
1644344785773742848,2022-02-08-18:26:25,10.1.1.2,32,0.030,0.030,0.030,0.000,0.000,0.000
1644344785875163136,2022-02-08-18:26:25,10.1.1.2,31,0.040,0.040,0.040,0.000,0.000,0.000
1644344785974966016,2022-02-08-18:26:25,10.1.1.2,29,0.050,0.050,0.050,0.000,0.000,0.000
1644344786074609152,2022-02-08-18:26:26,10.1.1.2,29,0.060,0.060,0.060,0.000,0.000,0.000
1644344786173466880,2022-02-08-18:26:26,10.1.1.2,25,0.070,0.070,0.070,0.000,0.000,0.000
1644344786275948032,2022-02-08-18:26:26,10.1.1.2,24,0.080,0.080,0.080,0.000,0.000,0.000
1644344786374664192,2022-02-08-18:26:26,10.1.1.2,24,0.090,0.090,0.090,0.000,0.000,0.000
1644344786473777152,2022-02-08-18:26:26,10.1.1.2,23,0.100,0.100,0.100,0.000,0.000,0.000
1644344786574330112,2022-02-08-18:26:26,10.1.1.2,22,0.090,0.090,0.090,0.000,0.000,0.000
1644344786674736896,2022-02-08-18:26:26,10.1.1.2,21,0.080,0.080,0.080,0.000,0.000,0.000
1644344786773803008,2022-02-08-18:26:26,10.1.1.2,19,0.070,0.070,0.070,0.000,0.000,0.000
1644344786895486208,2022-02-08-18:26:26,10.1.1.2,37,0.060,0.060,0.060,0.000,0.000,0.000
1644344786995617024,2022-02-08-18:26:26,10.1.1.2,28,0.050,0.050,0.050,0.000,0.000,0.000
1644344787099410176,2022-02-08-18:26:27,10.1.1.2,26,0.040,0.040,0.040,0.000,0.000,0.000
1644344787193555968,2022-02-08-18:26:27,10.1.1.2,25,0.030,0.030,0.030,0.000,0.000,0.000
1644344787294928128,2022-02-08-18:26:27,10.1.1.2,24,0.020,0.020,0.020,0.000,0.000,0.000
1644344787398441984,2022-02-08-18:26:27,10.1.1.2,25,0.010,0.010,0.010,0.000,0.000,0.000
1644344787494168064,2022-02-08-18:26:27,10.1.1.2,22,0.000,0.000,0.000,0.000,0.000,0.000
1644344787594288128,2022-02-08-18:26:27,10.1.1.2,21,-0.010,-0.010,-0.010,0.000,0.000,0.000
1644344787694695936,2022-02-08-18:26:27,10.1.1.2,20,-0.020,-0.020,-0.020,0.000,0.000,0.000
1644344787794526976,2022-02-08-18:26:27,10.1.1.2,20,-0.030,-0.030,-0.030,0.000,0.000,0.000
1644344787894992128,2022-02-08-18:26:27,10.1.1.2,19,-0.039,-0.039,-0.039,0.000,0.000,0.000
1644344788014344960,2022-02-08-18:26:28,10.1.1.2,38,-0.050,-0.050,-0.050,0.000,0.000,0.000
1644344788116226048,2022-02-08-18:26:28,10.1.1.2,36,-0.060,-0.060,-0.060,0.000,0.000,0.000
1644344788213473024,2022-02-08-18:26:28,10.1.1.2,33,-0.070,-0.070,-0.070,0.000,0.000,0.000
1644344788313564160,2022-02-08-18:26:28,10.1.1.2,32,-0.080,-0.080,-0.080,0.000,0.000,0.000
1644344788416225792,2022-02-08-18:26:28,10.1.1.2,29,-0.090,-0.090,-0.090,0.000,0.000,0.000
1644344788516047872,2022-02-08-18:26:28,10.1.1.2,25,-0.100,-0.100,-0.100,0.000,0.000,0.000
1644344788614624000,2022-02-08-18:26:28,10.1.1.2,24,-0.090,-0.090,-0.090,0.000,0.000,0.000
1644344788713881856,2022-02-08-18:26:28,10.1.1.2,22,-0.080,-0.080,-0.080,0.000,0.000,0.000
1644344788816436992,2022-02-08-18:26:28,10.1.1.2,20,-0.070,-0.070,-0.070,0.000,0.000,0.000
1644344788932238080,2022-02-08-18:26:28,10.1.1.2,39,-0.060,-0.060,-0.060,0.000,0.000,0.000
1644344789034781952,2022-02-08-18:26:29,10.1.1.2,36,-0.050,-0.050,-0.050,0.000,0.000,0.000
1644344789134056960,2022-02-08-18:26:29,10.1.1.2,30,-0.040,-0.040,-0.040,0.000,0.000,0.000
1644344789235686144,2022-02-08-18:26:29,10.1.1.2,28,-0.030,-0.030,-0.030,0.000,0.000,0.000
1644344789337582080,2022-02-08-18:26:29,10.1.1.2,28,-0.020,-0.020,-0.020,0.000,0.000,0.000
1644344789434838016,2022-02-08-18:26:29,10.1.1.2,27,-0.010,-0.010,-0.010,0.000,0.000,0.000
1644344789533665792,2022-02-08-18:26:29,10.1.1.2,24,0.000,0.000,0.000,0.000,0.000,0.000
1644344789633084160,2022-02-08-18:26:29,10.1.1.2,22,0.010,0.010,0.010,0.000,0.000,0.000
1644344789733568000,2022-02-08-18:26:29,10.1.1.2,21,0.020,0.020,0.020,0.000,0.000,0.000
1644344789833944064,2022-02-08-18:26:29,10.1.1.2,20,0.030,0.030,0.030,0.000,0.000,0.000
1644344789954945024,2022-02-08-18:26:29,10.1.1.2,39,0.040,0.040,0.040,0.000,0.000,0.000
1644344790055260928,2022-02-08-18:26:30,10.1.1.2,38,0.050,0.050,0.050,0.000,0.000,0.000
1644344790153651968,2022-02-08-18:26:30,10.1.1.2,36,0.060,0.060,0.060,0.000,0.000,0.000
1644344790256130816,2022-02-08-18:26:30,10.1.1.2,35,0.070,0.070,0.070,0.000,0.000,0.000
1644344790353859840,2022-02-08-18:26:30,10.1.1.2,34,0.080,0.080,0.080,0.000,0.000,0.000
1644344790455904000,2022-02-08-18:26:30,10.1.1.2,33,0.090,0.090,0.090,0.000,0.000,0.000
1644344790553883136,2022-02-08-18:26:30,10.1.1.2,32,0.100,0.100,0.100,0.000,0.000,0.000
1644344790654557952,2022-02-08-18:26:30,10.1.1.2,31,0.090,0.090,0.090,0.000,0.000,0.000
1644344790754038016,2022-02-08-18:26:30,10.1.1.2,30,0.080,0.080,0.080,0.000,0.000,0.000
1644344790853692160,2022-02-08-18:26:30,10.1.1.2,29,0.070,0.070,0.070,0.000,0.000,0.000
1644344790954253824,2022-02-08-18:26:30,10.1.1.2,28,0.060,0.060,0.060,0.000,0.000,0.000
1644344791055665920,2022-02-08-18:26:31,10.1.1.2,27,0.050,0.050,0.050,0.000,0.000,0.000
1644344791153820928,2022-02-08-18:26:31,10.1.1.2,25,0.040,0.040,0.040,0.000,0.000,0.000
1644344791255369984,2022-02-08-18:26:31,10.1.1.2,24,0.030,0.030,0.030,0.000,0.000,0.000
1644344791353776896,2022-02-08-18:26:31,10.1.1.2,22,0.020,0.020,0.020,0.000,0.000,0.000
1644344791455048960,2022-02-08-18:26:31,10.1.1.2,21,0.010,0.010,0.010,0.000,0.000,0.000
1644344791553836032,2022-02-08-18:26:31,10.1.1.2,20,0.000,0.000,0.000,0.000,0.000,0.000
1644344791674483968,2022-02-08-18:26:31,10.1.1.2,39,-0.010,-0.010,-0.010,0.000,0.000,0.000
1644344791774234112,2022-02-08-18:26:31,10.1.1.2,37,-0.020,-0.020,-0.020,0.000,0.000,0.000
1644344791875150080,2022-02-08-18:26:31,10.1.1.2,34,-0.030,-0.030,-0.030,0.000,0.000,0.000
1644344791974209024,2022-02-08-18:26:31,10.1.1.2,33,-0.040,-0.040,-0.040,0.000,0.000,0.000
1644344792073009920,2022-02-08-18:26:32,10.1.1.2,32,-0.050,-0.050,-0.050,0.000,0.000,0.000
1644344792174187008,2022-02-08-18:26:32,10.1.1.2,31,-0.060,-0.060,-0.060,0.000,0.000,0.000
1644344792277741824,2022-02-08-18:26:32,10.1.1.2,30,-0.070,-0.070,-0.070,0.000,0.000,0.000
1644344792373955072,2022-02-08-18:26:32,10.1.1.2,30,-0.080,-0.080,-0.080,0.000,0.000,0.000
1644344792475145984,2022-02-08-18:26:32,10.1.1.2,28,-0.090,-0.090,-0.090,0.000,0.000,0.000
1644344792573368064,2022-02-08-18:26:32,10.1.1.2,25,-0.100,-0.100,-0.100,0.000,0.000,0.000
1644344792672574976,2022-02-08-18:26:32,10.1.1.2,24,-0.090,-0.090,-0.090,0.000,0.000,0.000
1644344792774484992,2022-02-08-18:26:32,10.1.1.2,24,-0.080,-0.080,-0.080,0.000,0.000,0.000
1644344792874850048,2022-02-08-18:26:32,10.1.1.2,22,-0.070,-0.070,-0.070,0.000,0.000,0.000
1644344792971985152,2022-02-08-18:26:32,10.1.1.2,21,-0.060,-0.060,-0.060,0.000,0.000,0.000
1644344793073158144,2022-02-08-18:26:33,10.1.1.2,20,-0.050,-0.050,-0.050,0.000,0.000,0.000
1644344793175237888,2022-02-08-18:26:33,10.1.1.2,20,-0.040,-0.040,-0.040,0.000,0.000,0.000
1644344793297287936,2022-02-08-18:26:33,10.1.1.2,32,-0.030,-0.030,-0.030,0.000,0.000,0.000
1644344793393671936,2022-02-08-18:26:33,10.1.1.2,30,-0.020,-0.020,-0.020,0.000,0.000,0.000
1644344793493320960,2022-02-08-18:26:33,10.1.1.2,28,-0.010,-0.010,-0.010,0.000,0.000,0.000
1644344793593830144,2022-02-08-18:26:33,10.1.1.2,26,0.000,0.000,0.000,0.000,0.000,0.000
1644344793694283008,2022-02-08-18:26:33,10.1.1.2,25,0.010,0.010,0.010,0.000,0.000,0.000
1644344793792295936,2022-02-08-18:26:33,10.1.1.2,24,0.020,0.020,0.020,0.000,0.000,0.000
1644344793893448960,2022-02-08-18:26:33,10.1.1.2,24,0.030,0.030,0.030,0.000,0.000,0.000
1644344793992211200,2022-02-08-18:26:33,10.1.1.2,23,0.040,0.040,0.040,0.000,0.000,0.000
1644344794097906176,2022-02-08-18:26:34,10.1.1.2,21,0.050,0.050,0.050,0.000,0.000,0.000
1644344794193741056,2022-02-08-18:26:34,10.1.1.2,21,0.060,0.060,0.060,0.000,0.000,0.000
1644344794294213120,2022-02-08-18:26:34,10.1.1.2,20,0.070,0.070,0.070,0.000,0.000,0.000
1644344794395052032,2022-02-08-18:26:34,10.1.1.2,19,0.080,0.080,0.080,0.000,0.000,0.000
1644344794514596864,2022-02-08-18:26:34,10.1.1.2,38,0.090,0.090,0.090,0.000,0.000,0.000
1644344794613390848,2022-02-08-18:26:34,10.1.1.2,37,0.100,0.100,0.100,0.000,0.000,0.000
1644344794713181952,2022-02-08-18:26:34,10.1.1.2,33,0.090,0.090,0.090,0.000,0.000,0.000
1644344794814203904,2022-02-08-18:26:34,10.1.1.2,32,0.080,0.080,0.080,0.000,0.000,0.000
1644344794913847040,2022-02-08-18:26:34,10.1.1.2,31,0.070,0.070,0.070,0.000,0.000,0.000
1644344795113313024,2022-02-08-18:26:35,10.1.1.2,27,0.050,0.050,0.050,0.000,0.000,0.000
1644344795214680064,2022-02-08-18:26:35,10.1.1.2,25,0.040,0.040,0.040,0.000,0.000,0.000
1644344795315960832,2022-02-08-18:26:35,10.1.1.2,21,0.030,0.030,0.030,0.000,0.000,0.000
1644344795415472128,2022-02-08-18:26:35,10.1.1.2,21,0.020,0.020,0.020,0.000,0.000,0.000
1644344795513867008,2022-02-08-18:26:35,10.1.1.2,20,0.010,0.010,0.010,0.000,0.000,0.000
1644344795634500096,2022-02-08-18:26:35,10.1.1.2,39,0.000,0.000,0.000,0.000,0.000,0.000
1644344795733938944,2022-02-08-18:26:35,10.1.1.2,38,-0.010,-0.010,-0.010,0.000,0.000,0.000
1644344795833806080,2022-02-08-18:26:35,10.1.1.2,37,-0.020,-0.020,-0.020,0.000,0.000,0.000
1644344795933178880,2022-02-08-18:26:35,10.1.1.2,35,-0.030,-0.030,-0.030,0.000,0.000,0.000
1644344796034012928,2022-02-08-18:26:36,10.1.1.2,34,-0.040,-0.040,-0.040,0.000,0.000,0.000
1644344796135471104,2022-02-08-18:26:36,10.1.1.2,33,-0.050,-0.050,-0.050,0.000,0.000,0.000
1644344796233233920,2022-02-08-18:26:36,10.1.1.2,33,-0.060,-0.060,-0.060,0.000,0.000,0.000
1644344796334678784,2022-02-08-18:26:36,10.1.1.2,32,-0.070,-0.070,-0.070,0.000,0.000,0.000
1644344796434536960,2022-02-08-18:26:36,10.1.1.2,31,-0.080,-0.080,-0.080,0.000,0.000,0.000
1644344796534210816,2022-02-08-18:26:36,10.1.1.2,28,-0.090,-0.090,-0.090,0.000,0.000,0.000
1644344796633067008,2022-02-08-18:26:36,10.1.1.2,27,-0.100,-0.100,-0.100,0.000,0.000,0.000
1644344796733542912,2022-02-08-18:26:36,10.1.1.2,24,-0.090,-0.090,-0.090,0.000,0.000,0.000
1644344796835238912,2022-02-08-18:26:36,10.1.1.2,22,-0.080,-0.080,-0.080,0.000,0.000,0.000
1644344796932628992,2022-02-08-18:26:36,10.1.1.2,20,-0.070,-0.070,-0.070,0.000,0.000,0.000
1644344797036201984,2022-02-08-18:26:37,10.1.1.2,19,-0.060,-0.060,-0.060,0.000,0.000,0.000
1644344797154244864,2022-02-08-18:26:37,10.1.1.2,37,-0.050,-0.050,-0.050,0.000,0.000,0.000
1644344797253022976,2022-02-08-18:26:37,10.1.1.2,33,-0.040,-0.040,-0.040,0.000,0.000,0.000
1644344797354352896,2022-02-08-18:26:37,10.1.1.2,32,-0.030,-0.030,-0.030,0.000,0.000,0.000
1644344797457790976,2022-02-08-18:26:37,10.1.1.2,30,-0.020,-0.020,-0.020,0.000,0.000,0.000
1644344797554846976,2022-02-08-18:26:37,10.1.1.2,29,-0.010,-0.010,-0.010,0.000,0.000,0.000
1644344797653896960,2022-02-08-18:26:37,10.1.1.2,27,0.000,0.000,0.000,0.000,0.000,0.000
1644344797753819904,2022-02-08-18:26:37,10.1.1.2,24,0.010,0.010,0.010,0.000,0.000,0.000
1644344797854569984,2022-02-08-18:26:37,10.1.1.2,22,0.020,0.020,0.020,0.000,0.000,0.000
1644344797955543040,2022-02-08-18:26:37,10.1.1.2,21,0.030,0.030,0.030,0.000,0.000,0.000
1644344798057847040,2022-02-08-18:26:38,10.1.1.2,20,0.040,0.040,0.040,0.000,0.000,0.000
1644344798174566144,2022-02-08-18:26:38,10.1.1.2,39,0.050,0.050,0.050,0.000,0.000,0.000
1644344798274763008,2022-02-08-18:26:38,10.1.1.2,37,0.060,0.060,0.060,0.000,0.000,0.000
1644344798372983808,2022-02-08-18:26:38,10.1.1.2,34,0.070,0.070,0.070,0.000,0.000,0.000
1644344798475070976,2022-02-08-18:26:38,10.1.1.2,33,0.080,0.080,0.080,0.000,0.000,0.000
1644344798573565952,2022-02-08-18:26:38,10.1.1.2,33,0.090,0.090,0.090,0.000,0.000,0.000
1644344798675323904,2022-02-08-18:26:38,10.1.1.2,31,0.100,0.100,0.100,0.000,0.000,0.000
1644344798775606016,2022-02-08-18:26:38,10.1.1.2,30,0.090,0.090,0.090,0.000,0.000,0.000
1644344798875538176,2022-02-08-18:26:38,10.1.1.2,28,0.080,0.080,0.080,0.000,0.000,0.000
1644344798974423808,2022-02-08-18:26:38,10.1.1.2,25,0.070,0.070,0.070,0.000,0.000,0.000
1644344799075965952,2022-02-08-18:26:39,10.1.1.2,24,0.060,0.060,0.060,0.000,0.000,0.000
1644344799174112000,2022-02-08-18:26:39,10.1.1.2,23,0.050,0.050,0.050,0.000,0.000,0.000
1644344799276279808,2022-02-08-18:26:39,10.1.1.2,23,0.040,0.040,0.040,0.000,0.000,0.000
1644344799377718016,2022-02-08-18:26:39,10.1.1.2,21,0.030,0.030,0.030,0.000,0.000,0.000
1644344799476787968,2022-02-08-18:26:39,10.1.1.2,20,0.020,0.020,0.020,0.000,0.000,0.000
1644344799598808064,2022-02-08-18:26:39,10.1.1.2,33,0.010,0.010,0.010,0.000,0.000,0.000
1644344799693840896,2022-02-08-18:26:39,10.1.1.2,33,0.000,0.000,0.000,0.000,0.000,0.000
1644344799794048000,2022-02-08-18:26:39,10.1.1.2,32,-0.010,-0.010,-0.010,0.000,0.000,0.000
1644344799891805952,2022-02-08-18:26:39,10.1.1.2,31,-0.020,-0.020,-0.020,0.000,0.000,0.000
1644344799995431936,2022-02-08-18:26:39,10.1.1.2,30,-0.030,-0.030,-0.030,0.000,0.000,0.000
1644344800095182848,2022-02-08-18:26:40,10.1.1.2,28,-0.040,-0.040,-0.040,0.000,0.000,0.000
1644344800193885184,2022-02-08-18:26:40,10.1.1.2,27,-0.050,-0.050,-0.050,0.000,0.000,0.000
1644344800293409024,2022-02-08-18:26:40,10.1.1.2,27,-0.060,-0.060,-0.060,0.000,0.000,0.000
1644344800394248960,2022-02-08-18:26:40,10.1.1.2,25,-0.070,-0.070,-0.070,0.000,0.000,0.000
1644344800494051072,2022-02-08-18:26:40,10.1.1.2,25,-0.080,-0.080,-0.080,0.000,0.000,0.000
1644344800598146816,2022-02-08-18:26:40,10.1.1.2,24,-0.090,-0.090,-0.090,0.000,0.000,0.000
1644344800693187840,2022-02-08-18:26:40,10.1.1.2,22,-0.100,-0.100,-0.100,0.000,0.000,0.000
1644344800794310144,2022-02-08-18:26:40,10.1.1.2,21,-0.090,-0.090,-0.090,0.000,0.000,0.000
1644344800894608128,2022-02-08-18:26:40,10.1.1.2,20,-0.080,-0.080,-0.080,0.000,0.000,0.000
1644344800993367808,2022-02-08-18:26:40,10.1.1.2,19,-0.070,-0.070,-0.070,0.000,0.000,0.000
1644344801112827136,2022-02-08-18:26:41,10.1.1.2,38,-0.060,-0.060,-0.060,0.000,0.000,0.000
1644344801213818112,2022-02-08-18:26:41,10.1.1.2,36,-0.050,-0.050,-0.050,0.000,0.000,0.000
1644344801275450112,2022-02-08-18:26:41,10.1.1.2,-6,-0.050,-0.050,-0.050,0.000,0.000,0.000
1644344801413105920,2022-02-08-18:26:41,10.1.1.2,33,-0.030,-0.030,-0.030,0.000,0.000,0.000
1644344801513457152,2022-02-08-18:26:41,10.1.1.2,32,-0.020,-0.020,-0.020,0.000,0.000,0.000
1644344801613053184,2022-02-08-18:26:41,10.1.1.2,31,-0.010,-0.010,-0.010,0.000,0.000,0.000
1644344801713371904,2022-02-08-18:26:41,10.1.1.2,30,0.000,0.000,0.000,0.000,0.000,0.000
1644344801815373056,2022-02-08-18:26:41,10.1.1.2,29,0.010,0.010,0.010,0.000,0.000,0.000
1644344801913227008,2022-02-08-18:26:41,10.1.1.2,29,0.020,0.020,0.020,0.000,0.000,0.000
1644344802013672192,2022-02-08-18:26:42,10.1.1.2,27,0.030,0.030,0.030,0.000,0.000,0.000
1644344802113251840,2022-02-08-18:26:42,10.1.1.2,25,0.040,0.040,0.040,0.000,0.000,0.000
1644344802213475840,2022-02-08-18:26:42,10.1.1.2,24,0.050,0.050,0.050,0.000,0.000,0.000
1644344802313505792,2022-02-08-18:26:42,10.1.1.2,22,0.060,0.060,0.060,0.000,0.000,0.000
1644344802413387008,2022-02-08-18:26:42,10.1.1.2,21,0.070,0.070,0.070,0.000,0.000,0.000
1644344802513089792,2022-02-08-18:26:42,10.1.1.2,19,0.080,0.080,0.080,0.000,0.000,0.000
1644344802633488896,2022-02-08-18:26:42,10.1.1.2,38,0.090,0.090,0.090,0.000,0.000,0.000
1644344802733872896,2022-02-08-18:26:42,10.1.1.2,37,0.100,0.100,0.100,0.000,0.000,0.000
1644344802838536960,2022-02-08-18:26:42,10.1.1.2,34,0.090,0.090,0.090,0.000,0.000,0.000
1644344802933491968,2022-02-08-18:26:42,10.1.1.2,33,0.080,0.080,0.080,0.000,0.000,0.000
1644344803033827072,2022-02-08-18:26:43,10.1.1.2,31,0.070,0.070,0.070,0.000,0.000,0.000
1644344803134747904,2022-02-08-18:26:43,10.1.1.2,27,0.060,0.060,0.060,0.000,0.000,0.000
1644344803234000896,2022-02-08-18:26:43,10.1.1.2,25,0.050,0.050,0.050,0.000,0.000,0.000
1644344803334664960,2022-02-08-18:26:43,10.1.1.2,24,0.040,0.040,0.040,0.000,0.000,0.000
1644344803436788992,2022-02-08-18:26:43,10.1.1.2,24,0.030,0.030,0.030,0.000,0.000,0.000
1644344803535197952,2022-02-08-18:26:43,10.1.1.2,22,0.020,0.020,0.020,0.000,0.000,0.000
1644344803653256960,2022-02-08-18:26:43,10.1.1.2,37,0.010,0.010,0.010,0.000,0.000,0.000
1644344803753179904,2022-02-08-18:26:43,10.1.1.2,35,0.000,0.000,0.000,0.000,0.000,0.000
1644344803853809152,2022-02-08-18:26:43,10.1.1.2,34,-0.010,-0.010,-0.010,0.000,0.000,0.000
1644344803953213952,2022-02-08-18:26:43,10.1.1.2,31,-0.020,-0.020,-0.020,0.000,0.000,0.000
1644344804055346944,2022-02-08-18:26:44,10.1.1.2,29,-0.030,-0.030,-0.030,0.000,0.000,0.000
1644344804154342912,2022-02-08-18:26:44,10.1.1.2,28,-0.040,-0.040,-0.040,0.000,0.000,0.000
1644344804255453952,2022-02-08-18:26:44,10.1.1.2,28,-0.050,-0.050,-0.050,0.000,0.000,0.000
1644344804355086080,2022-02-08-18:26:44,10.1.1.2,25,-0.060,-0.060,-0.060,0.000,0.000,0.000
1644344804456239104,2022-02-08-18:26:44,10.1.1.2,24,-0.070,-0.070,-0.070,0.000,0.000,0.000
1644344804556092928,2022-02-08-18:26:44,10.1.1.2,23,-0.080,-0.080,-0.080,0.000,0.000,0.000
1644344804655313920,2022-02-08-18:26:44,10.1.1.2,20,-0.090,-0.090,-0.090,0.000,0.000,0.000
1644344804774700032,2022-02-08-18:26:44,10.1.1.2,33,-0.100,-0.100,-0.100,0.000,0.000,0.000
1644344804873981952,2022-02-08-18:26:44,10.1.1.2,29,-0.090,-0.090,-0.090,0.000,0.000,0.000
1644344804975279104,2022-02-08-18:26:44,10.1.1.2,27,-0.080,-0.080,-0.080,0.000,0.000,0.000
1644344805074171904,2022-02-08-18:26:45,10.1.1.2,26,-0.070,-0.070,-0.070,0.000,0.000,0.000
1644344805174401024,2022-02-08-18:26:45,10.1.1.2,25,-0.060,-0.060,-0.060,0.000,0.000,0.000
1644344805277084160,2022-02-08-18:26:45,10.1.1.2,24,-0.050,-0.050,-0.050,0.000,0.000,0.000
1644344805373848832,2022-02-08-18:26:45,10.1.1.2,21,-0.040,-0.040,-0.040,0.000,0.000,0.000
1644344805475963136,2022-02-08-18:26:45,10.1.1.2,20,-0.030,-0.030,-0.030,0.000,0.000,0.000
1644344805596730880,2022-02-08-18:26:45,10.1.1.2,39,-0.020,-0.020,-0.020,0.000,0.000,0.000
1644344805697475072,2022-02-08-18:26:45,10.1.1.2,38,-0.010,-0.010,-0.010,0.000,0.000,0.000
1644344805795717888,2022-02-08-18:26:45,10.1.1.2,33,0.000,0.000,0.000,0.000,0.000,0.000
1644344805895045888,2022-02-08-18:26:45,10.1.1.2,33,0.010,0.010,0.010,0.000,0.000,0.000
1644344805994808832,2022-02-08-18:26:45,10.1.1.2,32,0.020,0.020,0.020,0.000,0.000,0.000
1644344806098438912,2022-02-08-18:26:46,10.1.1.2,31,0.030,0.030,0.030,0.000,0.000,0.000
1644344806193757952,2022-02-08-18:26:46,10.1.1.2,30,0.040,0.040,0.040,0.000,0.000,0.000
1644344806295186944,2022-02-08-18:26:46,10.1.1.2,29,0.050,0.050,0.050,0.000,0.000,0.000
1644344806394938880,2022-02-08-18:26:46,10.1.1.2,27,0.060,0.060,0.060,0.000,0.000,0.000
1644344806495538944,2022-02-08-18:26:46,10.1.1.2,25,0.070,0.070,0.070,0.000,0.000,0.000
1644344806597134080,2022-02-08-18:26:46,10.1.1.2,25,0.080,0.080,0.080,0.000,0.000,0.000
1644344806698287104,2022-02-08-18:26:46,10.1.1.2,22,0.090,0.090,0.090,0.000,0.000,0.000
1644344806793035008,2022-02-08-18:26:46,10.1.1.2,20,0.100,0.100,0.100,0.000,0.000,0.000
1644344806915133952,2022-02-08-18:26:46,10.1.1.2,38,0.090,0.090,0.090,0.000,0.000,0.000
1644344807015310080,2022-02-08-18:26:47,10.1.1.2,36,0.080,0.080,0.080,0.000,0.000,0.000
1644344807112855040,2022-02-08-18:26:47,10.1.1.2,33,0.070,0.070,0.070,0.000,0.000,0.000
1644344807214925056,2022-02-08-18:26:47,10.1.1.2,33,0.060,0.060,0.060,0.000,0.000,0.000
1644344807312325888,2022-02-08-18:26:47,10.1.1.2,32,0.050,0.050,0.050,0.000,0.000,0.000
1644344807414048000,2022-02-08-18:26:47,10.1.1.2,31,0.040,0.040,0.040,0.000,0.000,0.000
1644344807516040960,2022-02-08-18:26:47,10.1.1.2,30,0.030,0.030,0.030,0.000,0.000,0.000
1644344807613112832,2022-02-08-18:26:47,10.1.1.2,29,0.020,0.020,0.020,0.000,0.000,0.000
1644344807713160960,2022-02-08-18:26:47,10.1.1.2,28,0.010,0.010,0.010,0.000,0.000,0.000
1644344807814369024,2022-02-08-18:26:47,10.1.1.2,27,0.000,0.000,0.000,0.000,0.000,0.000
1644344807913249024,2022-02-08-18:26:47,10.1.1.2,25,-0.010,-0.010,-0.010,0.000,0.000,0.000
1644344808013729024,2022-02-08-18:26:48,10.1.1.2,24,-0.020,-0.020,-0.020,0.000,0.000,0.000
1644344808113095168,2022-02-08-18:26:48,10.1.1.2,23,-0.030,-0.030,-0.030,0.000,0.000,0.000
1644344808234262016,2022-02-08-18:26:48,10.1.1.2,38,-0.040,-0.040,-0.040,0.000,0.000,0.000
1644344808335581952,2022-02-08-18:26:48,10.1.1.2,35,-0.050,-0.050,-0.050,0.000,0.000,0.000
1644344808436743936,2022-02-08-18:26:48,10.1.1.2,31,-0.060,-0.060,-0.060,0.000,0.000,0.000
1644344808535366912,2022-02-08-18:26:48,10.1.1.2,29,-0.070,-0.070,-0.070,0.000,0.000,0.000
1644344808635976192,2022-02-08-18:26:48,10.1.1.2,26,-0.080,-0.080,-0.080,0.000,0.000,0.000
1644344808735323904,2022-02-08-18:26:48,10.1.1.2,24,-0.090,-0.090,-0.090,0.000,0.000,0.000
1644344808835213824,2022-02-08-18:26:48,10.1.1.2,22,-0.100,-0.100,-0.100,0.000,0.000,0.000
1644344808954913024,2022-02-08-18:26:48,10.1.1.2,36,-0.090,-0.090,-0.090,0.000,0.000,0.000
1644344809052962048,2022-02-08-18:26:49,10.1.1.2,31,-0.080,-0.080,-0.080,0.000,0.000,0.000
1644344809152137984,2022-02-08-18:26:49,10.1.1.2,30,-0.070,-0.070,-0.070,0.000,0.000,0.000
1644344809252912128,2022-02-08-18:26:49,10.1.1.2,29,-0.060,-0.060,-0.060,0.000,0.000,0.000
1644344809353164800,2022-02-08-18:26:49,10.1.1.2,28,-0.050,-0.050,-0.050,0.000,0.000,0.000
1644344809453468160,2022-02-08-18:26:49,10.1.1.2,27,-0.040,-0.040,-0.040,0.000,0.000,0.000
1644344809552608000,2022-02-08-18:26:49,10.1.1.2,26,-0.030,-0.030,-0.030,0.000,0.000,0.000
1644344809652108800,2022-02-08-18:26:49,10.1.1.2,25,-0.020,-0.020,-0.020,0.000,0.000,0.000
1644344809751753216,2022-02-08-18:26:49,10.1.1.2,24,-0.010,-0.010,-0.010,0.000,0.000,0.000
1644344809853202944,2022-02-08-18:26:49,10.1.1.2,23,0.000,0.000,0.000,0.000,0.000,0.000
1644344809953799936,2022-02-08-18:26:49,10.1.1.2,22,0.010,0.010,0.010,0.000,0.000,0.000
1644344810054703104,2022-02-08-18:26:50,10.1.1.2,21,0.020,0.020,0.020,0.000,0.000,0.000
1644344810154115072,2022-02-08-18:26:50,10.1.1.2,20,0.030,0.030,0.030,0.000,0.000,0.000
1644344810256856064,2022-02-08-18:26:50,10.1.1.2,19,0.040,0.040,0.040,0.000,0.000,0.000
1644344810374454016,2022-02-08-18:26:50,10.1.1.2,38,0.050,0.050,0.050,0.000,0.000,0.000
1644344810475838976,2022-02-08-18:26:50,10.1.1.2,36,0.060,0.060,0.060,0.000,0.000,0.000
1644344810576208128,2022-02-08-18:26:50,10.1.1.2,33,0.070,0.070,0.070,0.000,0.000,0.000
1644344810672576000,2022-02-08-18:26:50,10.1.1.2,31,0.080,0.080,0.080,0.000,0.000,0.000
1644344810773076992,2022-02-08-18:26:50,10.1.1.2,28,0.090,0.090,0.090,0.000,0.000,0.000
1644344810872896000,2022-02-08-18:26:50,10.1.1.2,26,0.100,0.100,0.100,0.000,0.000,0.000
1644344810973329920,2022-02-08-18:26:50,10.1.1.2,24,0.090,0.090,0.090,0.000,0.000,0.000
1644344811076014080,2022-02-08-18:26:51,10.1.1.2,23,0.080,0.080,0.080,0.000,0.000,0.000
1644344811174441984,2022-02-08-18:26:51,10.1.1.2,22,0.070,0.070,0.070,0.000,0.000,0.000
1644344811272940032,2022-02-08-18:26:51,10.1.1.2,21,0.060,0.060,0.060,0.000,0.000,0.000
1644344811375931904,2022-02-08-18:26:51,10.1.1.2,19,0.051,0.051,0.051,0.000,0.000,0.000
1644344811496807936,2022-02-08-18:26:51,10.1.1.2,32,0.040,0.040,0.040,0.000,0.000,0.000
1644344811593146112,2022-02-08-18:26:51,10.1.1.2,24,0.030,0.030,0.030,0.000,0.000,0.000
1644344811692795904,2022-02-08-18:26:51,10.1.1.2,23,0.020,0.020,0.020,0.000,0.000,0.000
1644344811793227008,2022-02-08-18:26:51,10.1.1.2,22,0.010,0.010,0.010,0.000,0.000,0.000
1644344811895187968,2022-02-08-18:26:51,10.1.1.2,19,0.000,0.000,0.000,0.000,0.000,0.000
1644344812017637120,2022-02-08-18:26:52,10.1.1.2,36,-0.010,-0.010,-0.010,0.000,0.000,0.000
1644344812114617088,2022-02-08-18:26:52,10.1.1.2,32,-0.020,-0.020,-0.020,0.000,0.000,0.000
1644344812213371136,2022-02-08-18:26:52,10.1.1.2,30,-0.030,-0.030,-0.030,0.000,0.000,0.000
1644344812315809024,2022-02-08-18:26:52,10.1.1.2,29,-0.040,-0.040,-0.040,0.000,0.000,0.000
1644344812412656128,2022-02-08-18:26:52,10.1.1.2,28,-0.050,-0.050,-0.050,0.000,0.000,0.000
1644344812514017024,2022-02-08-18:26:52,10.1.1.2,27,-0.060,-0.060,-0.060,0.000,0.000,0.000
1644344812612932864,2022-02-08-18:26:52,10.1.1.2,25,-0.070,-0.070,-0.070,0.000,0.000,0.000
1644344812713326080,2022-02-08-18:26:52,10.1.1.2,21,-0.080,-0.080,-0.080,0.000,0.000,0.000
1644344812814351104,2022-02-08-18:26:52,10.1.1.2,21,-0.090,-0.090,-0.090,0.000,0.000,0.000
1644344812914330880,2022-02-08-18:26:52,10.1.1.2,20,-0.100,-0.100,-0.100,0.000,0.000,0.000
1644344813034009856,2022-02-08-18:26:53,10.1.1.2,38,-0.090,-0.090,-0.090,0.000,0.000,0.000
1644344813132951040,2022-02-08-18:26:53,10.1.1.2,33,-0.080,-0.080,-0.080,0.000,0.000,0.000
1644344813232712960,2022-02-08-18:26:53,10.1.1.2,33,-0.070,-0.070,-0.070,0.000,0.000,0.000
1644344813333950976,2022-02-08-18:26:53,10.1.1.2,31,-0.060,-0.060,-0.060,0.000,0.000,0.000
1644344813433722880,2022-02-08-18:26:53,10.1.1.2,30,-0.050,-0.050,-0.050,0.000,0.000,0.000
1644344813532569856,2022-02-08-18:26:53,10.1.1.2,29,-0.040,-0.040,-0.040,0.000,0.000,0.000
1644344813633171200,2022-02-08-18:26:53,10.1.1.2,27,-0.030,-0.030,-0.030,0.000,0.000,0.000
1644344813733583872,2022-02-08-18:26:53,10.1.1.2,25,-0.020,-0.020,-0.020,0.000,0.000,0.000
1644344813833692160,2022-02-08-18:26:53,10.1.1.2,24,-0.010,-0.010,-0.010,0.000,0.000,0.000
1644344813933590016,2022-02-08-18:26:53,10.1.1.2,24,0.000,0.000,0.000,0.000,0.000,0.000
1644344814034641152,2022-02-08-18:26:54,10.1.1.2,23,0.010,0.010,0.010,0.000,0.000,0.000
1644344814133723904,2022-02-08-18:26:54,10.1.1.2,22,0.020,0.020,0.020,0.000,0.000,0.000
1644344814233746944,2022-02-08-18:26:54,10.1.1.2,22,0.030,0.030,0.030,0.000,0.000,0.000
1644344814332839936,2022-02-08-18:26:54,10.1.1.2,21,0.040,0.040,0.040,0.000,0.000,0.000
1644344814433060864,2022-02-08-18:26:54,10.1.1.2,20,0.050,0.050,0.050,0.000,0.000,0.000
1644344814553622016,2022-02-08-18:26:54,10.1.1.2,38,0.060,0.060,0.060,0.000,0.000,0.000
1644344814653475072,2022-02-08-18:26:54,10.1.1.2,37,0.070,0.070,0.070,0.000,0.000,0.000
1644344814753308928,2022-02-08-18:26:54,10.1.1.2,36,0.080,0.080,0.080,0.000,0.000,0.000
1644344814855802112,2022-02-08-18:26:54,10.1.1.2,34,0.090,0.090,0.090,0.000,0.000,0.000
1644344814954690048,2022-02-08-18:26:54,10.1.1.2,32,0.100,0.100,0.100,0.000,0.000,0.000
1644344815056355840,2022-02-08-18:26:55,10.1.1.2,31,0.090,0.090,0.090,0.000,0.000,0.000
1644344815155136000,2022-02-08-18:26:55,10.1.1.2,30,0.080,0.080,0.080,0.000,0.000,0.000
1644344815254016000,2022-02-08-18:26:55,10.1.1.2,29,0.070,0.070,0.070,0.000,0.000,0.000
1644344815353997824,2022-02-08-18:26:55,10.1.1.2,28,0.060,0.060,0.060,0.000,0.000,0.000
1644344815454777088,2022-02-08-18:26:55,10.1.1.2,27,0.050,0.050,0.050,0.000,0.000,0.000
1644344815555066112,2022-02-08-18:26:55,10.1.1.2,27,0.040,0.040,0.040,0.000,0.000,0.000
1644344815653580800,2022-02-08-18:26:55,10.1.1.2,26,0.030,0.030,0.030,0.000,0.000,0.000
1644344815754556928,2022-02-08-18:26:55,10.1.1.2,25,0.020,0.020,0.020,0.000,0.000,0.000
1644344815853910016,2022-02-08-18:26:55,10.1.1.2,24,0.010,0.010,0.010,0.000,0.000,0.000
1644344815954545920,2022-02-08-18:26:55,10.1.1.2,23,0.000,0.000,0.000,0.000,0.000,0.000
1644344816057494016,2022-02-08-18:26:56,10.1.1.2,22,-0.010,-0.010,-0.010,0.000,0.000,0.000
1644344816154544128,2022-02-08-18:26:56,10.1.1.2,21,-0.020,-0.020,-0.020,0.000,0.000,0.000
1644344816254653952,2022-02-08-18:26:56,10.1.1.2,20,-0.030,-0.030,-0.030,0.000,0.000,0.000
1644344816354546176,2022-02-08-18:26:56,10.1.1.2,19,-0.039,-0.039,-0.039,0.000,0.000,0.000
1644344816476877824,2022-02-08-18:26:56,10.1.1.2,38,-0.050,-0.050,-0.050,0.000,0.000,0.000
1644344816574992896,2022-02-08-18:26:56,10.1.1.2,37,-0.060,-0.060,-0.060,0.000,0.000,0.000
1644344816676136960,2022-02-08-18:26:56,10.1.1.2,36,-0.070,-0.070,-0.070,0.000,0.000,0.000
1644344816773473024,2022-02-08-18:26:56,10.1.1.2,35,-0.080,-0.080,-0.080,0.000,0.000,0.000
1644344816874887936,2022-02-08-18:26:56,10.1.1.2,34,-0.090,-0.090,-0.090,0.000,0.000,0.000
1644344816972410880,2022-02-08-18:26:56,10.1.1.2,33,-0.100,-0.100,-0.100,0.000,0.000,0.000
1644344817074842880,2022-02-08-18:26:57,10.1.1.2,32,-0.090,-0.090,-0.090,0.000,0.000,0.000
1644344817174500864,2022-02-08-18:26:57,10.1.1.2,31,-0.080,-0.080,-0.080,0.000,0.000,0.000
1644344817273263872,2022-02-08-18:26:57,10.1.1.2,30,-0.070,-0.070,-0.070,0.000,0.000,0.000
1644344817373518080,2022-02-08-18:26:57,10.1.1.2,29,-0.060,-0.060,-0.060,0.000,0.000,0.000
1644344817473576960,2022-02-08-18:26:57,10.1.1.2,27,-0.050,-0.050,-0.050,0.000,0.000,0.000
1644344817572439808,2022-02-08-18:26:57,10.1.1.2,26,-0.040,-0.040,-0.040,0.000,0.000,0.000
1644344817673698048,2022-02-08-18:26:57,10.1.1.2,25,-0.030,-0.030,-0.030,0.000,0.000,0.000
1644344817772232960,2022-02-08-18:26:57,10.1.1.2,24,-0.020,-0.020,-0.020,0.000,0.000,0.000
1644344817873634048,2022-02-08-18:26:57,10.1.1.2,23,-0.010,-0.010,-0.010,0.000,0.000,0.000
1644344817973603840,2022-02-08-18:26:57,10.1.1.2,22,0.000,0.000,0.000,0.000,0.000,0.000
1644344818074324992,2022-02-08-18:26:58,10.1.1.2,21,0.010,0.010,0.010,0.000,0.000,0.000
1644344818174170880,2022-02-08-18:26:58,10.1.1.2,21,0.020,0.020,0.020,0.000,0.000,0.000
1644344818275216128,2022-02-08-18:26:58,10.1.1.2,19,0.029,0.029,0.029,0.000,0.000,0.000
1644344818394961152,2022-02-08-18:26:58,10.1.1.2,37,0.040,0.040,0.040,0.000,0.000,0.000
1644344818494160896,2022-02-08-18:26:58,10.1.1.2,36,0.050,0.050,0.050,0.000,0.000,0.000
1644344818596535808,2022-02-08-18:26:58,10.1.1.2,34,0.060,0.060,0.060,0.000,0.000,0.000
1644344818693888000,2022-02-08-18:26:58,10.1.1.2,32,0.070,0.070,0.070,0.000,0.000,0.000
1644344818794200064,2022-02-08-18:26:58,10.1.1.2,30,0.080,0.080,0.080,0.000,0.000,0.000
1644344818895747072,2022-02-08-18:26:58,10.1.1.2,29,0.090,0.090,0.090,0.000,0.000,0.000
1644344818994950912,2022-02-08-18:26:58,10.1.1.2,28,0.100,0.100,0.100,0.000,0.000,0.000
1644344819096914944,2022-02-08-18:26:59,10.1.1.2,26,0.090,0.090,0.090,0.000,0.000,0.000
1644344819193516032,2022-02-08-18:26:59,10.1.1.2,25,0.080,0.080,0.080,0.000,0.000,0.000
1644344819293443840,2022-02-08-18:26:59,10.1.1.2,24,0.070,0.070,0.070,0.000,0.000,0.000
1644344819391880960,2022-02-08-18:26:59,10.1.1.2,23,0.060,0.060,0.060,0.000,0.000,0.000
1644344819493199104,2022-02-08-18:26:59,10.1.1.2,23,0.050,0.050,0.050,0.000,0.000,0.000
1644344819597950976,2022-02-08-18:26:59,10.1.1.2,22,0.040,0.040,0.040,0.000,0.000,0.000
1644344819692523008,2022-02-08-18:26:59,10.1.1.2,21,0.030,0.030,0.030,0.000,0.000,0.000
1644344819792850944,2022-02-08-18:26:59,10.1.1.2,19,0.020,0.020,0.020,0.000,0.000,0.000
1644344819913304064,2022-02-08-18:26:59,10.1.1.2,38,0.010,0.010,0.010,0.000,0.000,0.000
1644344820014653952,2022-02-08-18:27:00,10.1.1.2,36,0.000,0.000,0.000,0.000,0.000,0.000
1644344820113841152,2022-02-08-18:27:00,10.1.1.2,35,-0.010,-0.010,-0.010,0.000,0.000,0.000
1644344820213010944,2022-02-08-18:27:00,10.1.1.2,33,-0.020,-0.020,-0.020,0.000,0.000,0.000
1644344820312943872,2022-02-08-18:27:00,10.1.1.2,32,-0.030,-0.030,-0.030,0.000,0.000,0.000
1644344820413682944,2022-02-08-18:27:00,10.1.1.2,31,-0.040,-0.040,-0.040,0.000,0.000,0.000
1644344820514775040,2022-02-08-18:27:00,10.1.1.2,29,-0.050,-0.050,-0.050,0.000,0.000,0.000
1644344820614993152,2022-02-08-18:27:00,10.1.1.2,28,-0.060,-0.060,-0.060,0.000,0.000,0.000
1644344820715806976,2022-02-08-18:27:00,10.1.1.2,27,-0.070,-0.070,-0.070,0.000,0.000,0.000
1644344820814580992,2022-02-08-18:27:00,10.1.1.2,26,-0.080,-0.080,-0.080,0.000,0.000,0.000
1644344820914988032,2022-02-08-18:27:00,10.1.1.2,24,-0.090,-0.090,-0.090,0.000,0.000,0.000
1644344821014682112,2022-02-08-18:27:01,10.1.1.2,23,-0.100,-0.100,-0.100,0.000,0.000,0.000
1644344821115330816,2022-02-08-18:27:01,10.1.1.2,22,-0.090,-0.090,-0.090,0.000,0.000,0.000
1644344821215348992,2022-02-08-18:27:01,10.1.1.2,21,-0.080,-0.080,-0.080,0.000,0.000,0.000
1644344821315796992,2022-02-08-18:27:01,10.1.1.2,20,-0.070,-0.070,-0.070,0.000,0.000,0.000
1644344821414196992,2022-02-08-18:27:01,10.1.1.2,19,-0.060,-0.060,-0.060,0.000,0.000,0.000
1644344821534097920,2022-02-08-18:27:01,10.1.1.2,38,-0.050,-0.050,-0.050,0.000,0.000,0.000
1644344821635268096,2022-02-08-18:27:01,10.1.1.2,37,-0.040,-0.040,-0.040,0.000,0.000,0.000
1644344821732263168,2022-02-08-18:27:01,10.1.1.2,36,-0.030,-0.030,-0.030,0.000,0.000,0.000
1644344821795227904,2022-02-08-18:27:01,10.1.1.2,-5,-0.030,-0.030,-0.030,0.000,0.000,0.000
1644344821933849088,2022-02-08-18:27:01,10.1.1.2,33,-0.010,-0.010,-0.010,0.000,0.000,0.000
1644344822034347008,2022-02-08-18:27:02,10.1.1.2,32,0.000,0.000,0.000,0.000,0.000,0.000
1644344822134155008,2022-02-08-18:27:02,10.1.1.2,31,0.010,0.010,0.010,0.000,0.000,0.000
1644344822233107968,2022-02-08-18:27:02,10.1.1.2,30,0.020,0.020,0.020,0.000,0.000,0.000
1644344822333376768,2022-02-08-18:27:02,10.1.1.2,29,0.030,0.030,0.030,0.000,0.000,0.000
1644344822433306880,2022-02-08-18:27:02,10.1.1.2,26,0.040,0.040,0.040,0.000,0.000,0.000
1644344822534359040,2022-02-08-18:27:02,10.1.1.2,23,0.050,0.050,0.050,0.000,0.000,0.000
1644344822632580096,2022-02-08-18:27:02,10.1.1.2,22,0.060,0.060,0.060,0.000,0.000,0.000
1644344822732916992,2022-02-08-18:27:02,10.1.1.2,20,0.070,0.070,0.070,0.000,0.000,0.000
1644344822854050048,2022-02-08-18:27:02,10.1.1.2,38,0.080,0.080,0.080,0.000,0.000,0.000
1644344822953229824,2022-02-08-18:27:02,10.1.1.2,38,0.090,0.090,0.090,0.000,0.000,0.000
1644344823053262080,2022-02-08-18:27:03,10.1.1.2,36,0.100,0.100,0.100,0.000,0.000,0.000
1644344823152625920,2022-02-08-18:27:03,10.1.1.2,33,0.090,0.090,0.090,0.000,0.000,0.000
1644344823253987072,2022-02-08-18:27:03,10.1.1.2,32,0.080,0.080,0.080,0.000,0.000,0.000
1644344823356017152,2022-02-08-18:27:03,10.1.1.2,31,0.070,0.070,0.070,0.000,0.000,0.000
1644344823455952896,2022-02-08-18:27:03,10.1.1.2,30,0.060,0.060,0.060,0.000,0.000,0.000
1644344823554086912,2022-02-08-18:27:03,10.1.1.2,29,0.050,0.050,0.050,0.000,0.000,0.000
1644344823655529984,2022-02-08-18:27:03,10.1.1.2,28,0.040,0.040,0.040,0.000,0.000,0.000
1644344823753925120,2022-02-08-18:27:03,10.1.1.2,26,0.030,0.030,0.030,0.000,0.000,0.000
1644344823855612160,2022-02-08-18:27:03,10.1.1.2,25,0.020,0.020,0.020,0.000,0.000,0.000
1644344823954915072,2022-02-08-18:27:03,10.1.1.2,21,0.010,0.010,0.010,0.000,0.000,0.000
1644344824053547008,2022-02-08-18:27:04,10.1.1.2,21,-0.000,-0.000,-0.000,0.000,0.000,0.000
1644344824153857024,2022-02-08-18:27:04,10.1.1.2,19,-0.010,-0.010,-0.010,0.000,0.000,0.000
1644344824273669120,2022-02-08-18:27:04,10.1.1.2,36,-0.020,-0.020,-0.020,0.000,0.000,0.000
1644344824373403904,2022-02-08-18:27:04,10.1.1.2,33,-0.030,-0.030,-0.030,0.000,0.000,0.000
1644344824474490880,2022-02-08-18:27:04,10.1.1.2,31,-0.040,-0.040,-0.040,0.000,0.000,0.000
1644344824574203904,2022-02-08-18:27:04,10.1.1.2,30,-0.050,-0.050,-0.050,0.000,0.000,0.000
1644344824675885056,2022-02-08-18:27:04,10.1.1.2,29,-0.060,-0.060,-0.060,0.000,0.000,0.000
1644344824773620992,2022-02-08-18:27:04,10.1.1.2,27,-0.070,-0.070,-0.070,0.000,0.000,0.000
