FedericoMungari/DigitalTwin_service/01_WiredScenario/Output/Output_script/script_rosapi_2_output_robots12_freq0_10.txt
timestamp,date,node,latency,joint_1,joint_2,joint_3,joint_4,joint_5,joint_6
1644939944438081024,2022-02-15-15:45:31,10.1.1.11,15,0.070,0.070,0.070,0.000,0.000,0.000
1644939947222151168,2022-02-15-15:45:47,10.1.1.11,19,0.070,0.070,0.070,0.000,0.000,0.000
1644939948982913024,2022-02-15-15:45:48,10.1.1.11,10,0.070,0.070,0.070,0.000,0.000,0.000
1644939949303993088,2022-02-15-15:45:49,10.1.1.11,19,0.070,0.070,0.070,0.000,0.000,0.000
1644939949841984000,2022-02-15-15:45:49,10.1.1.11,29,-0.030,-0.030,-0.030,0.000,0.000,0.000
1644939949903409920,2022-02-15-15:45:49,10.1.1.11,39,-0.040,-0.040,-0.040,0.000,0.000,0.000
1644939949947983872,2022-02-15-15:45:49,10.1.1.11,30,-0.050,-0.050,-0.050,0.000,0.000,0.000
1644939950441955072,2022-02-15-15:45:50,10.1.1.11,20,-0.050,-0.050,-0.050,0.000,0.000,0.000
1644939950603120128,2022-02-15-15:45:50,10.1.1.11,29,-0.020,-0.020,-0.020,0.000,0.000,0.000
1644939950963217920,2022-02-15-15:45:50,10.1.1.11,30,0.050,0.050,0.050,0.000,0.000,0.000
1644939951463241216,2022-02-15-15:45:51,10.1.1.11,10,0.050,0.050,0.050,0.000,0.000,0.000
1644939951546025984,2022-02-15-15:45:51,10.1.1.11,29,0.040,0.040,0.040,0.000,0.000,0.000
1644939952003511040,2022-02-15-15:45:52,10.1.1.11,29,-0.050,-0.050,-0.050,0.000,0.000,0.000
1644939952563433984,2022-02-15-15:45:52,10.1.1.11,21,-0.050,-0.050,-0.050,0.000,0.000,0.000
1644939953254973952,2022-02-15-15:45:53,10.1.1.11,29,0.080,0.080,0.080,0.000,0.000,0.000
1644939953441870080,2022-02-15-15:45:53,10.1.1.11,-1,0.080,0.080,0.080,0.000,0.000,0.000
1644939954922447872,2022-02-15-15:45:54,10.1.1.11,20,-0.040,-0.040,-0.040,0.000,0.000,0.000
1644939956403510016,2022-02-15-15:45:56,10.1.1.11,23,-0.040,-0.040,-0.040,0.000,0.000,0.000
1644939956863192064,2022-02-15-15:45:56,10.1.1.11,29,-0.080,-0.080,-0.080,0.000,0.000,0.000
1644939957022594816,2022-02-15-15:45:57,10.1.1.11,29,-0.050,-0.050,-0.050,0.000,0.000,0.000
1644939957082664960,2022-02-15-15:45:57,10.1.1.11,39,-0.040,-0.040,-0.040,0.000,0.000,0.000
1644939958085280000,2022-02-15-15:45:58,10.1.1.11,29,0.070,0.070,0.070,0.000,0.000,0.000
1644939959187571968,2022-02-15-15:45:59,10.1.1.11,29,-0.080,-0.080,-0.080,0.000,0.000,0.000
1644939961128300800,2022-02-15-15:46:01,10.1.1.11,-27,-0.080,-0.080,-0.080,0.000,0.000,0.000
1644939961341150976,2022-02-15-15:46:01,10.1.1.11,-8,-0.080,-0.080,-0.080,0.000,0.000,0.000
1644939962322194176,2022-02-15-15:46:02,10.1.1.11,39,0.090,0.090,0.090,0.000,0.000,0.000
1644939962402151936,2022-02-15-15:46:02,10.1.1.11,17,0.090,0.090,0.090,0.000,0.000,0.000
1644939962822587904,2022-02-15-15:46:02,10.1.1.11,29,0.010,0.010,0.010,0.000,0.000,0.000
1644939963662065920,2022-02-15-15:46:03,10.1.1.11,29,-0.050,-0.050,-0.050,0.000,0.000,0.000
1644939964922390016,2022-02-15-15:46:04,10.1.1.11,39,0.010,0.010,0.010,0.000,0.000,0.000
1644939964962595840,2022-02-15-15:46:04,10.1.1.11,28,0.000,0.000,0.000,0.000,0.000,0.000
1644939965931913984,2022-02-15-15:46:05,10.1.1.11,19,-0.010,-0.010,-0.010,0.000,0.000,0.000
1644939966902960128,2022-02-15-15:46:06,10.1.1.11,29,0.020,0.020,0.020,0.000,0.000,0.000
1644939967366811136,2022-02-15-15:46:07,10.1.1.11,29,-0.070,-0.070,-0.070,0.000,0.000,0.000
1644939967665692928,2022-02-15-15:46:07,10.1.1.11,23,-0.070,-0.070,-0.070,0.000,0.000,0.000
1644939968742504960,2022-02-15-15:46:08,10.1.1.11,29,0.060,0.060,0.060,0.000,0.000,0.000
1644939969262671872,2022-02-15-15:46:09,10.1.1.11,39,-0.040,-0.040,-0.040,0.000,0.000,0.000
1644939969883618048,2022-02-15-15:46:09,10.1.1.11,17,-0.040,-0.040,-0.040,0.000,0.000,0.000
1644939970105211904,2022-02-15-15:46:10,10.1.1.11,29,0.000,0.000,0.000,0.000,0.000,0.000
1644939970923518976,2022-02-15-15:46:10,10.1.1.11,20,0.040,0.040,0.040,0.000,0.000,0.000
1644939970983886080,2022-02-15-15:46:10,10.1.1.11,29,0.030,0.030,0.030,0.000,0.000,0.000
1644939971463494144,2022-02-15-15:46:11,10.1.1.11,39,-0.060,-0.060,-0.060,0.000,0.000,0.000
1644939971929580032,2022-02-15-15:46:11,10.1.1.11,6,-0.060,-0.060,-0.060,0.000,0.000,0.000
1644939972862075136,2022-02-15-15:46:12,10.1.1.11,29,0.080,0.080,0.080,0.000,0.000,0.000
1644939972922537984,2022-02-15-15:46:12,10.1.1.11,39,0.070,0.070,0.070,0.000,0.000,0.000
1644939973883475968,2022-02-15-15:46:13,10.1.1.11,30,-0.080,-0.080,-0.080,0.000,0.000,0.000
1644939974643261952,2022-02-15-15:46:14,10.1.1.11,30,0.070,0.070,0.070,0.000,0.000,0.000
1644939974924642048,2022-02-15-15:46:14,10.1.1.11,4,0.070,0.070,0.070,0.000,0.000,0.000
1644939976002490112,2022-02-15-15:46:16,10.1.1.11,20,-0.060,-0.060,-0.060,0.000,0.000,0.000
1644939976062141952,2022-02-15-15:46:16,10.1.1.11,29,-0.050,-0.050,-0.050,0.000,0.000,0.000
1644939976124090880,2022-02-15-15:46:16,10.1.1.11,40,-0.040,-0.040,-0.040,0.000,0.000,0.000
1644939976923365120,2022-02-15-15:46:16,10.1.1.11,29,0.080,0.080,0.080,0.000,0.000,0.000
1644939977485425920,2022-02-15-15:46:17,10.1.1.11,28,-0.030,-0.030,-0.030,0.000,0.000,0.000
1644939978182356992,2022-02-15-15:46:18,10.1.1.11,17,-0.030,-0.030,-0.030,0.000,0.000,0.000
1644939979502235904,2022-02-15-15:46:19,10.1.1.11,14,-0.030,-0.030,-0.030,0.000,0.000,0.000
1644939980022320896,2022-02-15-15:46:20,10.1.1.11,28,-0.070,-0.070,-0.070,0.000,0.000,0.000
1644939980682681088,2022-02-15-15:46:20,10.1.1.11,30,0.060,0.060,0.060,0.000,0.000,0.000
1644939981082168064,2022-02-15-15:46:21,10.1.1.11,25,0.060,0.060,0.060,0.000,0.000,0.000
1644939981642249216,2022-02-15-15:46:21,10.1.1.11,29,-0.050,-0.050,-0.050,0.000,0.000,0.000
1644939982142323968,2022-02-15-15:46:22,10.1.1.11,21,-0.050,-0.050,-0.050,0.000,0.000,0.000
1644939982303363072,2022-02-15-15:46:22,10.1.1.11,29,-0.020,-0.020,-0.020,0.000,0.000,0.000
1644939982347383040,2022-02-15-15:46:22,10.1.1.11,18,-0.010,-0.010,-0.010,0.000,0.000,0.000
1644939982969602048,2022-02-15-15:46:22,10.1.1.11,29,0.090,0.090,0.090,0.000,0.000,0.000
1644939984243380992,2022-02-15-15:46:24,10.1.1.11,29,-0.040,-0.040,-0.040,0.000,0.000,0.000
1644939985664659968,2022-02-15-15:46:25,10.1.1.11,11,-0.040,-0.040,-0.040,0.000,0.000,0.000
1644939985842859008,2022-02-15-15:46:25,10.1.1.11,39,-0.070,-0.070,-0.070,0.000,0.000,0.000
1644939986123863040,2022-02-15-15:46:26,10.1.1.11,15,-0.070,-0.070,-0.070,0.000,0.000,0.000
1644939986243580160,2022-02-15-15:46:26,10.1.1.11,29,-0.050,-0.050,-0.050,0.000,0.000,0.000
1644939986702550016,2022-02-15-15:46:26,10.1.1.11,29,0.040,0.040,0.040,0.000,0.000,0.000
1644939987302098944,2022-02-15-15:46:27,10.1.1.11,19,0.040,0.040,0.040,0.000,0.000,0.000
1644939987362095104,2022-02-15-15:46:27,10.1.1.11,29,0.030,0.030,0.030,0.000,0.000,0.000
1644939988543442944,2022-02-15-15:46:28,10.1.1.11,29,0.000,0.000,0.000,0.000,0.000,0.000
1644939989542059776,2022-02-15-15:46:29,10.1.1.11,11,0.000,0.000,0.000,0.000,0.000,0.000
1644939989622113024,2022-02-15-15:46:29,10.1.1.11,39,-0.010,-0.010,-0.010,0.000,0.000,0.000
1644939990123837952,2022-02-15-15:46:30,10.1.1.11,29,-0.090,-0.090,-0.090,0.000,0.000,0.000
1644939990683006976,2022-02-15-15:46:30,10.1.1.11,29,0.020,0.020,0.020,0.000,0.000,0.000
1644939991142971904,2022-02-15-15:46:31,10.1.1.11,29,0.090,0.090,0.090,0.000,0.000,0.000
1644939991602551040,2022-02-15-15:46:31,10.1.1.11,29,0.000,0.000,0.000,0.000,0.000,0.000
1644939992065543936,2022-02-15-15:46:32,10.1.1.11,30,-0.090,-0.090,-0.090,0.000,0.000,0.000
1644939992126041856,2022-02-15-15:46:32,10.1.1.11,39,-0.100,-0.100,-0.100,0.000,0.000,0.000
1644939992722279168,2022-02-15-15:46:32,10.1.1.11,29,0.020,0.020,0.020,0.000,0.000,0.000
1644939992782571008,2022-02-15-15:46:32,10.1.1.11,39,0.030,0.030,0.030,0.000,0.000,0.000
1644939993382749952,2022-02-15-15:46:33,10.1.1.11,28,0.050,0.050,0.050,0.000,0.000,0.000
1644939994002441984,2022-02-15-15:46:34,10.1.1.11,39,-0.070,-0.070,-0.070,0.000,0.000,0.000
1644939994286601984,2022-02-15-15:46:34,10.1.1.11,14,-0.070,-0.070,-0.070,0.000,0.000,0.000
1644939994661988096,2022-02-15-15:46:34,10.1.1.11,39,0.000,0.000,0.000,0.000,0.000,0.000
1644939994702307072,2022-02-15-15:46:34,10.1.1.11,28,0.010,0.010,0.010,0.000,0.000,0.000
1644939995162206976,2022-02-15-15:46:35,10.1.1.11,29,0.100,0.100,0.100,0.000,0.000,0.000
1644939995221419008,2022-02-15-15:46:35,10.1.1.11,39,0.090,0.090,0.090,0.000,0.000,0.000
1644939995784480000,2022-02-15-15:46:35,10.1.1.11,39,-0.020,-0.020,-0.020,0.000,0.000,0.000
1644939996283045888,2022-02-15-15:46:36,10.1.1.11,29,-0.080,-0.080,-0.080,0.000,0.000,0.000
1644939996942289152,2022-02-15-15:46:36,10.1.1.11,29,0.050,0.050,0.050,0.000,0.000,0.000
1644939997001648896,2022-02-15-15:46:37,10.1.1.11,39,0.060,0.060,0.060,0.000,0.000,0.000
1644939997381916928,2022-02-15-15:46:37,10.1.1.11,13,0.060,0.060,0.060,0.000,0.000,0.000
1644939997642018048,2022-02-15-15:46:37,10.1.1.11,20,0.010,0.010,0.010,0.000,0.000,0.000
1644939998524491008,2022-02-15-15:46:38,10.1.1.11,37,-0.040,-0.040,-0.040,0.000,0.000,0.000
1644940000546192896,2022-02-15-15:46:40,10.1.1.11,19,-0.040,-0.040,-0.040,0.000,0.000,0.000
1644940000601819904,2022-02-15-15:46:40,10.1.1.11,29,-0.030,-0.030,-0.030,0.000,0.000,0.000
1644940001062757120,2022-02-15-15:46:41,10.1.1.11,29,0.060,0.060,0.060,0.000,0.000,0.000
1644940001461588992,2022-02-15-15:46:41,10.1.1.11,23,0.060,0.060,0.060,0.000,0.000,0.000
1644940001721995008,2022-02-15-15:46:41,10.1.1.11,30,0.010,0.010,0.010,0.000,0.000,0.000
1644940002182727936,2022-02-15-15:46:42,10.1.1.11,29,-0.080,-0.080,-0.080,0.000,0.000,0.000
1644940002362504960,2022-02-15-15:46:42,10.1.1.11,6,-0.080,-0.080,-0.080,0.000,0.000,0.000
1644940003405803008,2022-02-15-15:46:43,10.1.1.11,29,0.080,0.080,0.080,0.000,0.000,0.000
1644940004024622848,2022-02-15-15:46:44,10.1.1.11,30,-0.040,-0.040,-0.040,0.000,0.000,0.000
1644940004626887168,2022-02-15-15:46:44,10.1.1.11,18,-0.040,-0.040,-0.040,0.000,0.000,0.000
1644940005503120896,2022-02-15-15:46:45,10.1.1.11,19,0.070,0.070,0.070,0.000,0.000,0.000
1644940006182564864,2022-02-15-15:46:46,10.1.1.11,29,-0.060,-0.060,-0.060,0.000,0.000,0.000
1644940006582732032,2022-02-15-15:46:46,10.1.1.11,23,-0.060,-0.060,-0.060,0.000,0.000,0.000
1644940007622757888,2022-02-15-15:46:47,10.1.1.11,29,0.060,0.060,0.060,0.000,0.000,0.000
1644940008621725952,2022-02-15-15:46:48,10.1.1.11,29,-0.070,-0.070,-0.070,0.000,0.000,0.000
1644940008683090944,2022-02-15-15:46:48,10.1.1.11,39,-0.060,-0.060,-0.060,0.000,0.000,0.000
1644940009242425856,2022-02-15-15:46:49,10.1.1.11,39,0.050,0.050,0.050,0.000,0.000,0.000
1644940009282087168,2022-02-15-15:46:49,10.1.1.11,29,0.060,0.060,0.060,0.000,0.000,0.000
1644940009341788928,2022-02-15-15:46:49,10.1.1.11,38,0.070,0.070,0.070,0.000,0.000,0.000
1644940009623544064,2022-02-15-15:46:49,10.1.1.11,15,0.070,0.070,0.070,0.000,0.000,0.000
1644940010201883904,2022-02-15-15:46:50,10.1.1.11,39,-0.040,-0.040,-0.040,0.000,0.000,0.000
1644940010782792960,2022-02-15-15:46:50,10.1.1.11,10,-0.040,-0.040,-0.040,0.000,0.000,0.000
1644940010862129920,2022-02-15-15:46:50,10.1.1.11,39,-0.030,-0.030,-0.030,0.000,0.000,0.000
1644940010902512128,2022-02-15-15:46:50,10.1.1.11,29,-0.020,-0.020,-0.020,0.000,0.000,0.000
1644940011761858048,2022-02-15-15:46:51,10.1.1.11,29,0.050,0.050,0.050,0.000,0.000,0.000
1644940011822524928,2022-02-15-15:46:51,10.1.1.11,39,0.040,0.040,0.040,0.000,0.000,0.000
1644940012362277120,2022-02-15-15:46:52,10.1.1.11,20,-0.070,-0.070,-0.070,0.000,0.000,0.000
1644940012421811968,2022-02-15-15:46:52,10.1.1.11,29,-0.080,-0.080,-0.080,0.000,0.000,0.000
1644940012601896960,2022-02-15-15:46:52,10.1.1.11,7,-0.080,-0.080,-0.080,0.000,0.000,0.000
1644940013283874048,2022-02-15-15:46:53,10.1.1.11,29,0.050,0.050,0.050,0.000,0.000,0.000
1644940013341975040,2022-02-15-15:46:53,10.1.1.11,39,0.060,0.060,0.060,0.000,0.000,0.000
1644940013722604032,2022-02-15-15:46:53,10.1.1.11,13,0.060,0.060,0.060,0.000,0.000,0.000
1644940014002496000,2022-02-15-15:46:54,10.1.1.11,39,0.010,0.010,0.010,0.000,0.000,0.000
1644940014043252992,2022-02-15-15:46:54,10.1.1.11,29,0.000,0.000,0.000,0.000,0.000,0.000
1644940014542264064,2022-02-15-15:46:54,10.1.1.11,20,-0.100,-0.100,-0.100,0.000,0.000,0.000
1644940014602458112,2022-02-15-15:46:54,10.1.1.11,29,-0.090,-0.090,-0.090,0.000,0.000,0.000
1644940015841686016,2022-02-15-15:46:55,10.1.1.11,39,0.050,0.050,0.050,0.000,0.000,0.000
1644940015887587072,2022-02-15-15:46:55,10.1.1.11,29,0.040,0.040,0.040,0.000,0.000,0.000
1644940016402131968,2022-02-15-15:46:56,10.1.1.11,40,-0.060,-0.060,-0.060,0.000,0.000,0.000
1644940016441899008,2022-02-15-15:46:56,10.1.1.11,29,-0.070,-0.070,-0.070,0.000,0.000,0.000
1644940016752051968,2022-02-15-15:46:56,10.1.1.11,24,-0.070,-0.070,-0.070,0.000,0.000,0.000
1644940017126898944,2022-02-15-15:46:57,10.1.1.11,38,0.000,0.000,0.000,0.000,0.000,0.000
1644940017582416128,2022-02-15-15:46:57,10.1.1.11,29,0.090,0.090,0.090,0.000,0.000,0.000
1644940017681734912,2022-02-15-15:46:57,10.1.1.11,24,0.090,0.090,0.090,0.000,0.000,0.000
1644940019642034176,2022-02-15-15:46:59,10.1.1.11,18,0.090,0.090,0.090,0.000,0.000,0.000
1644940019744442880,2022-02-15-15:46:59,10.1.1.11,9,0.090,0.090,0.090,0.000,0.000,0.000
1644940020942078976,2022-02-15-15:47:00,10.1.1.11,29,-0.060,-0.060,-0.060,0.000,0.000,0.000
1644940021601913856,2022-02-15-15:47:01,10.1.1.11,29,0.070,0.070,0.070,0.000,0.000,0.000
1644940021903158016,2022-02-15-15:47:01,10.1.1.11,24,0.070,0.070,0.070,0.000,0.000,0.000
1644940022362187008,2022-02-15-15:47:02,10.1.1.11,29,-0.020,-0.020,-0.020,0.000,0.000,0.000
1644940023163216128,2022-02-15-15:47:03,10.1.1.11,16,-0.020,-0.020,-0.020,0.000,0.000,0.000
1644940024382276096,2022-02-15-15:47:04,10.1.1.11,10,-0.020,-0.020,-0.020,0.000,0.000,0.000
1644940024463036160,2022-02-15-15:47:04,10.1.1.11,40,-0.030,-0.030,-0.030,0.000,0.000,0.000
1644940025162790144,2022-02-15-15:47:05,10.1.1.11,21,-0.030,-0.030,-0.030,0.000,0.000,0.000
1644940025281800960,2022-02-15-15:47:05,10.1.1.11,39,-0.010,-0.010,-0.010,0.000,0.000,0.000
1644940025883266816,2022-02-15-15:47:05,10.1.1.11,29,0.090,0.090,0.090,0.000,0.000,0.000
1644940027002549760,2022-02-15-15:47:07,10.1.1.11,29,-0.070,-0.070,-0.070,0.000,0.000,0.000
1644940027902377984,2022-02-15-15:47:07,10.1.1.11,39,0.100,0.100,0.100,0.000,0.000,0.000
1644940027946060800,2022-02-15-15:47:07,10.1.1.11,29,0.090,0.090,0.090,0.000,0.000,0.000
1644940028562042112,2022-02-15-15:47:08,10.1.1.11,39,-0.030,-0.030,-0.030,0.000,0.000,0.000
1644940028921686016,2022-02-15-15:47:08,10.1.1.11,39,-0.100,-0.100,-0.100,0.000,0.000,0.000
1644940029481857024,2022-02-15-15:47:09,10.1.1.11,39,0.010,0.010,0.010,0.000,0.000,0.000
1644940029522240000,2022-02-15-15:47:09,10.1.1.11,29,0.020,0.020,0.020,0.000,0.000,0.000
1644940030322609920,2022-02-15-15:47:10,10.1.1.11,10,0.020,0.020,0.020,0.000,0.000,0.000
1644940030404247040,2022-02-15-15:47:10,10.1.1.11,39,0.010,0.010,0.010,0.000,0.000,0.000
1644940030902228224,2022-02-15-15:47:10,10.1.1.11,29,-0.090,-0.090,-0.090,0.000,0.000,0.000
1644940030982213120,2022-02-15-15:47:10,10.1.1.11,8,-0.090,-0.090,-0.090,0.000,0.000,0.000
1644940031562347776,2022-02-15-15:47:11,10.1.1.11,29,0.020,0.020,0.020,0.000,0.000,0.000
1644940032362430208,2022-02-15-15:47:12,10.1.1.11,14,0.020,0.020,0.020,0.000,0.000,0.000
1644940032741953024,2022-02-15-15:47:12,10.1.1.11,39,-0.050,-0.050,-0.050,0.000,0.000,0.000
1644940033221897984,2022-02-15-15:47:13,10.1.1.11,10,-0.050,-0.050,-0.050,0.000,0.000,0.000
1644940033342336000,2022-02-15-15:47:13,10.1.1.11,29,-0.030,-0.030,-0.030,0.000,0.000,0.000
1644940034008017920,2022-02-15-15:47:14,10.1.1.11,29,0.100,0.100,0.100,0.000,0.000,0.000
1644940034961541888,2022-02-15-15:47:14,10.1.1.11,22,-0.090,-0.090,-0.090,0.000,0.000,0.000
1644940035066003200,2022-02-15-15:47:15,10.1.1.11,21,-0.090,-0.090,-0.090,0.000,0.000,0.000
1644940035681965056,2022-02-15-15:47:15,10.1.1.11,29,0.030,0.030,0.030,0.000,0.000,0.000
1644940036382621952,2022-02-15-15:47:16,10.1.1.11,9,0.030,0.030,0.030,0.000,0.000,0.000
1644940036730658048,2022-02-15-15:47:16,10.1.1.11,40,-0.030,-0.030,-0.030,0.000,0.000,0.000
1644940037382651136,2022-02-15-15:47:17,10.1.1.11,29,-0.040,-0.040,-0.040,0.000,0.000,0.000
1644940038527972096,2022-02-15-15:47:18,10.1.1.11,39,0.020,0.020,0.020,0.000,0.000,0.000
1644940039722824192,2022-02-15-15:47:19,10.1.1.11,20,0.020,0.020,0.020,0.000,0.000,0.000
1644940040523278848,2022-02-15-15:47:20,10.1.1.11,9,0.020,0.020,0.020,0.000,0.000,0.000
1644940040601592064,2022-02-15-15:47:20,10.1.1.11,38,0.010,0.010,0.010,0.000,0.000,0.000
1644940041203736064,2022-02-15-15:47:21,10.1.1.11,29,-0.090,-0.090,-0.090,0.000,0.000,0.000
1644940041824253952,2022-02-15-15:47:21,10.1.1.11,39,0.030,0.030,0.030,0.000,0.000,0.000
1644940042524281088,2022-02-15-15:47:22,10.1.1.11,23,0.030,0.030,0.030,0.000,0.000,0.000
1644940043442994176,2022-02-15-15:47:23,10.1.1.11,29,-0.050,-0.050,-0.050,0.000,0.000,0.000
1644940044001719040,2022-02-15-15:47:24,10.1.1.11,29,0.060,0.060,0.060,0.000,0.000,0.000
1644940044402582784,2022-02-15-15:47:24,10.1.1.11,21,0.060,0.060,0.060,0.000,0.000,0.000
1644940045443566080,2022-02-15-15:47:25,10.1.1.11,39,-0.060,-0.060,-0.060,0.000,0.000,0.000
1644940046102688000,2022-02-15-15:47:26,10.1.1.11,39,0.070,0.070,0.070,0.000,0.000,0.000
1644940046383329024,2022-02-15-15:47:26,10.1.1.11,14,0.070,0.070,0.070,0.000,0.000,0.000
1644940047582612992,2022-02-15-15:47:27,10.1.1.11,29,-0.040,-0.040,-0.040,0.000,0.000,0.000
1644940049001928192,2022-02-15-15:47:29,10.1.1.11,11,-0.040,-0.040,-0.040,0.000,0.000,0.000
1644940049123089152,2022-02-15-15:47:29,10.1.1.11,29,-0.060,-0.060,-0.060,0.000,0.000,0.000
1644940049522814976,2022-02-15-15:47:29,10.1.1.11,20,-0.060,-0.060,-0.060,0.000,0.000,0.000
1644940049644653056,2022-02-15-15:47:29,10.1.1.11,40,-0.040,-0.040,-0.040,0.000,0.000,0.000
1644940050142777856,2022-02-15-15:47:30,10.1.1.11,29,0.060,0.060,0.060,0.000,0.000,0.000
1644940050545704960,2022-02-15-15:47:30,10.1.1.11,11,0.060,0.060,0.060,0.000,0.000,0.000
1644940050662761984,2022-02-15-15:47:30,10.1.1.11,29,0.040,0.040,0.040,0.000,0.000,0.000
1644940051762697984,2022-02-15-15:47:31,10.1.1.11,30,-0.030,-0.030,-0.030,0.000,0.000,0.000
1644940053126568960,2022-02-15-15:47:33,10.1.1.11,26,-0.030,-0.030,-0.030,0.000,0.000,0.000
1644940053821870080,2022-02-15-15:47:33,10.1.1.11,10,-0.030,-0.030,-0.030,0.000,0.000,0.000
1644940054566976000,2022-02-15-15:47:34,10.1.1.11,30,0.090,0.090,0.090,0.000,0.000,0.000
1644940054624630016,2022-02-15-15:47:34,10.1.1.11,39,0.080,0.080,0.080,0.000,0.000,0.000
1644940055086029056,2022-02-15-15:47:35,10.1.1.11,39,-0.010,-0.010,-0.010,0.000,0.000,0.000
1644940056005502976,2022-02-15-15:47:36,10.1.1.11,13,-0.010,-0.010,-0.010,0.000,0.000,0.000
1644940056566312960,2022-02-15-15:47:36,10.1.1.11,29,0.090,0.090,0.090,0.000,0.000,0.000
1644940056642127872,2022-02-15-15:47:36,10.1.1.11,8,0.090,0.090,0.090,0.000,0.000,0.000
1644940057383255040,2022-02-15-15:47:37,10.1.1.11,29,-0.050,-0.050,-0.050,0.000,0.000,0.000
1644940057869467136,2022-02-15-15:47:37,10.1.1.11,1,-0.050,-0.050,-0.050,0.000,0.000,0.000
1644940059421971200,2022-02-15-15:47:39,10.1.1.11,22,-0.050,-0.050,-0.050,0.000,0.000,0.000
1644940059927553024,2022-02-15-15:47:39,10.1.1.11,10,-0.050,-0.050,-0.050,0.000,0.000,0.000
1644940060101833216,2022-02-15-15:47:40,10.1.1.11,29,-0.020,-0.020,-0.020,0.000,0.000,0.000
1644940060562117120,2022-02-15-15:47:40,10.1.1.11,29,0.070,0.070,0.070,0.000,0.000,0.000
1644940060862248960,2022-02-15-15:47:40,10.1.1.11,22,0.070,0.070,0.070,0.000,0.000,0.000
1644940061062446080,2022-02-15-15:47:41,10.1.1.11,19,0.030,0.030,0.030,0.000,0.000,0.000
1644940061422667008,2022-02-15-15:47:41,10.1.1.11,19,-0.040,-0.040,-0.040,0.000,0.000,0.000
1644940061842566912,2022-02-15-15:47:41,10.1.1.11,29,-0.080,-0.080,-0.080,0.000,0.000,0.000
1644940062983383808,2022-02-15-15:47:42,10.1.1.11,29,0.060,0.060,0.060,0.000,0.000,0.000
1644940063501508096,2022-02-15-15:47:43,10.1.1.11,29,-0.040,-0.040,-0.040,0.000,0.000,0.000
1644940064101854976,2022-02-15-15:47:44,10.1.1.11,17,-0.040,-0.040,-0.040,0.000,0.000,0.000
1644940064522710016,2022-02-15-15:47:44,10.1.1.11,29,0.040,0.040,0.040,0.000,0.000,0.000
1644940064883030016,2022-02-15-15:47:44,10.1.1.11,30,0.090,0.090,0.090,0.000,0.000,0.000
1644940064941704960,2022-02-15-15:47:44,10.1.1.11,39,0.080,0.080,0.080,0.000,0.000,0.000
1644940065443737856,2022-02-15-15:47:45,10.1.1.11,29,-0.020,-0.020,-0.020,0.000,0.000,0.000
1644940065502784000,2022-02-15-15:47:45,10.1.1.11,39,-0.030,-0.030,-0.030,0.000,0.000,0.000
1644940066201625088,2022-02-15-15:47:46,10.1.1.11,23,-0.030,-0.030,-0.030,0.000,0.000,0.000
1644940066782188800,2022-02-15-15:47:46,10.1.1.11,39,0.080,0.080,0.080,0.000,0.000,0.000
1644940066822786048,2022-02-15-15:47:46,10.1.1.11,29,0.090,0.090,0.090,0.000,0.000,0.000
1644940066903162112,2022-02-15-15:47:46,10.1.1.11,6,0.090,0.090,0.090,0.000,0.000,0.000
1644940067383002880,2022-02-15-15:47:47,10.1.1.11,29,0.000,0.000,0.000,0.000,0.000,0.000
1644940068302486016,2022-02-15-15:47:48,10.1.1.11,29,-0.020,-0.020,-0.020,0.000,0.000,0.000
1644940068923280128,2022-02-15-15:47:48,10.1.1.11,39,0.100,0.100,0.100,0.000,0.000,0.000
1644940070562021120,2022-02-15-15:47:50,10.1.1.11,39,0.020,0.020,0.020,0.000,0.000,0.000
1644940071362898176,2022-02-15-15:47:51,10.1.1.11,21,0.020,0.020,0.020,0.000,0.000,0.000
1644940072083126016,2022-02-15-15:47:52,10.1.1.11,29,-0.080,-0.080,-0.080,0.000,0.000,0.000
1644940072683314176,2022-02-15-15:47:52,10.1.1.11,19,0.040,0.040,0.040,0.000,0.000,0.000
1644940073282747904,2022-02-15-15:47:53,10.1.1.11,11,0.040,0.040,0.040,0.000,0.000,0.000
1644940073722827008,2022-02-15-15:47:53,10.1.1.11,29,-0.040,-0.040,-0.040,0.000,0.000,0.000
1644940074342940160,2022-02-15-15:47:54,10.1.1.11,24,-0.040,-0.040,-0.040,0.000,0.000,0.000
1644940074821860096,2022-02-15-15:47:54,10.1.1.11,39,0.050,0.050,0.050,0.000,0.000,0.000
1644940075334449920,2022-02-15-15:47:55,10.1.1.11,10,0.050,0.050,0.050,0.000,0.000,0.000
1644940076863161088,2022-02-15-15:47:56,10.1.1.11,11,0.050,0.050,0.050,0.000,0.000,0.000
1644940076982628096,2022-02-15-15:47:56,10.1.1.11,30,0.070,0.070,0.070,0.000,0.000,0.000
1644940077022462976,2022-02-15-15:47:57,10.1.1.11,19,0.080,0.080,0.080,0.000,0.000,0.000
1644940077081458944,2022-02-15-15:47:57,10.1.1.11,29,0.090,0.090,0.090,0.000,0.000,0.000
1644940077162841088,2022-02-15-15:47:57,10.1.1.11,7,0.090,0.090,0.090,0.000,0.000,0.000
1644940077544658944,2022-02-15-15:47:57,10.1.1.11,29,0.020,0.020,0.020,0.000,0.000,0.000
1644940078210329088,2022-02-15-15:47:58,10.1.1.11,29,-0.090,-0.090,-0.090,0.000,0.000,0.000
1644940078562050048,2022-02-15-15:47:58,10.1.1.11,29,-0.020,-0.020,-0.020,0.000,0.000,0.000
1644940078921869056,2022-02-15-15:47:58,10.1.1.11,29,0.050,0.050,0.050,0.000,0.000,0.000
1644940079284822016,2022-02-15-15:47:59,10.1.1.11,29,0.080,0.080,0.080,0.000,0.000,0.000
1644940080643183872,2022-02-15-15:48:00,10.1.1.11,30,-0.050,-0.050,-0.050,0.000,0.000,0.000
1644940080703515904,2022-02-15-15:48:00,10.1.1.11,39,-0.040,-0.040,-0.040,0.000,0.000,0.000
1644940081562806016,2022-02-15-15:48:01,10.1.1.11,29,0.070,0.070,0.070,0.000,0.000,0.000
1644940083241977088,2022-02-15-15:48:03,10.1.1.11,29,0.050,0.050,0.050,0.000,0.000,0.000
1644940083742971904,2022-02-15-15:48:03,10.1.1.11,10,0.050,0.050,0.050,0.000,0.000,0.000
1644940084784424960,2022-02-15-15:48:04,10.1.1.11,29,-0.050,-0.050,-0.050,0.000,0.000,0.000
1644940085342454016,2022-02-15-15:48:05,10.1.1.11,30,0.060,0.060,0.060,0.000,0.000,0.000
1644940085742532864,2022-02-15-15:48:05,10.1.1.11,19,0.060,0.060,0.060,0.000,0.000,0.000
1644940086688386816,2022-02-15-15:48:06,10.1.1.11,30,-0.080,-0.080,-0.080,0.000,0.000,0.000
1644940087101968128,2022-02-15-15:48:07,10.1.1.11,39,0.000,0.000,0.000,0.000,0.000,0.000
1644940087462928128,2022-02-15-15:48:07,10.1.1.11,39,0.070,0.070,0.070,0.000,0.000,0.000
1644940087742141952,2022-02-15-15:48:07,10.1.1.11,10,0.070,0.070,0.070,0.000,0.000,0.000
1644940088081862912,2022-02-15-15:48:08,10.1.1.11,39,0.010,0.010,0.010,0.000,0.000,0.000
1644940088542737920,2022-02-15-15:48:08,10.1.1.11,39,-0.080,-0.080,-0.080,0.000,0.000,0.000
1644940088702393088,2022-02-15-15:48:08,10.1.1.11,29,-0.090,-0.090,-0.090,0.000,0.000,0.000
1644940090642509056,2022-02-15-15:48:10,10.1.1.11,14,-0.090,-0.090,-0.090,0.000,0.000,0.000
1644940090742465024,2022-02-15-15:48:10,10.1.1.11,11,-0.090,-0.090,-0.090,0.000,0.000,0.000
1644940090862448896,2022-02-15-15:48:10,10.1.1.11,29,-0.070,-0.070,-0.070,0.000,0.000,0.000
1644940092143534848,2022-02-15-15:48:12,10.1.1.11,29,0.020,0.020,0.020,0.000,0.000,0.000
1644940092561888000,2022-02-15-15:48:12,10.1.1.11,39,-0.060,-0.060,-0.060,0.000,0.000,0.000
1644940092961692160,2022-02-15-15:48:12,10.1.1.11,22,-0.060,-0.060,-0.060,0.000,0.000,0.000
1644940094623954944,2022-02-15-15:48:14,10.1.1.11,21,-0.060,-0.060,-0.060,0.000,0.000,0.000
1644940094742342912,2022-02-15-15:48:14,10.1.1.11,39,-0.080,-0.080,-0.080,0.000,0.000,0.000
1644940094936634112,2022-02-15-15:48:14,10.1.1.11,13,-0.080,-0.080,-0.080,0.000,0.000,0.000
1644940095102157056,2022-02-15-15:48:15,10.1.1.11,39,-0.050,-0.050,-0.050,0.000,0.000,0.000
1644940095982247168,2022-02-15-15:48:15,10.1.1.11,29,0.080,0.080,0.080,0.000,0.000,0.000
1644940097082391040,2022-02-15-15:48:17,10.1.1.11,29,-0.070,-0.070,-0.070,0.000,0.000,0.000
1644940097442561024,2022-02-15-15:48:17,10.1.1.11,29,0.000,0.000,0.000,0.000,0.000,0.000
1644940097742461952,2022-02-15-15:48:17,10.1.1.11,20,0.060,0.060,0.060,0.000,0.000,0.000
1644940098021893888,2022-02-15-15:48:18,10.1.1.11,39,0.090,0.090,0.090,0.000,0.000,0.000
1644940098521827072,2022-02-15-15:48:18,10.1.1.11,29,-0.010,-0.010,-0.010,0.000,0.000,0.000
1644940099442529024,2022-02-15-15:48:19,10.1.1.11,24,-0.010,-0.010,-0.010,0.000,0.000,0.000
1644940100222324992,2022-02-15-15:48:20,10.1.1.11,29,0.060,0.060,0.060,0.000,0.000,0.000
1644940100641566976,2022-02-15-15:48:20,10.1.1.11,39,-0.020,-0.020,-0.020,0.000,0.000,0.000
1644940101262625024,2022-02-15-15:48:21,10.1.1.11,40,-0.060,-0.060,-0.060,0.000,0.000,0.000
1644940102082209024,2022-02-15-15:48:22,10.1.1.11,39,0.100,0.100,0.100,0.000,0.000,0.000
1644940103581551104,2022-02-15-15:48:23,10.1.1.11,29,-0.010,-0.010,-0.010,0.000,0.000,0.000
1644940103841998080,2022-02-15-15:48:23,10.1.1.11,29,0.040,0.040,0.040,0.000,0.000,0.000
1644940104462333952,2022-02-15-15:48:24,10.1.1.11,26,0.040,0.040,0.040,0.000,0.000,0.000
1644940105144252928,2022-02-15-15:48:25,10.1.1.11,29,-0.090,-0.090,-0.090,0.000,0.000,0.000
1644940105224420096,2022-02-15-15:48:25,10.1.1.11,6,-0.090,-0.090,-0.090,0.000,0.000,0.000
1644940106025284096,2022-02-15-15:48:26,10.1.1.11,29,0.060,0.060,0.060,0.000,0.000,0.000
1644940106443145984,2022-02-15-15:48:26,10.1.1.11,24,0.060,0.060,0.060,0.000,0.000,0.000
1644940106604499200,2022-02-15-15:48:26,10.1.1.11,29,0.030,0.030,0.030,0.000,0.000,0.000
1644940107745757184,2022-02-15-15:48:27,10.1.1.11,30,-0.010,-0.010,-0.010,0.000,0.000,0.000
1644940108862433792,2022-02-15-15:48:28,10.1.1.11,13,-0.010,-0.010,-0.010,0.000,0.000,0.000
1644940109441492992,2022-02-15-15:48:29,10.1.1.11,30,-0.080,-0.080,-0.080,0.000,0.000,0.000
1644940110006201856,2022-02-15-15:48:30,10.1.1.11,29,0.030,0.030,0.030,0.000,0.000,0.000
1644940110423113984,2022-02-15-15:48:30,10.1.1.11,39,0.090,0.090,0.090,0.000,0.000,0.000
1644940110464433920,2022-02-15-15:48:30,10.1.1.11,29,0.080,0.080,0.080,0.000,0.000,0.000
1644940111602976000,2022-02-15-15:48:31,10.1.1.11,39,-0.060,-0.060,-0.060,0.000,0.000,0.000
1644940113264669952,2022-02-15-15:48:33,10.1.1.11,10,-0.060,-0.060,-0.060,0.000,0.000,0.000
1644940113623212032,2022-02-15-15:48:33,10.1.1.11,10,-0.070,-0.070,-0.070,0.000,0.000,0.000
1644940114563229952,2022-02-15-15:48:34,10.1.1.11,32,0.090,0.090,0.090,0.000,0.000,0.000
1644940116482917120,2022-02-15-15:48:36,10.1.1.11,19,0.090,0.090,0.090,0.000,0.000,0.000
1644940116581500928,2022-02-15-15:48:36,10.1.1.11,17,0.090,0.090,0.090,0.000,0.000,0.000
1644940117202013952,2022-02-15-15:48:37,10.1.1.11,29,-0.030,-0.030,-0.030,0.000,0.000,0.000
1644940117901908992,2022-02-15-15:48:37,10.1.1.11,18,-0.030,-0.030,-0.030,0.000,0.000,0.000
1644940119222006016,2022-02-15-15:48:39,10.1.1.11,15,-0.030,-0.030,-0.030,0.000,0.000,0.000
1644940119942243072,2022-02-15-15:48:39,10.1.1.11,20,-0.030,-0.030,-0.030,0.000,0.000,0.000
1644940120001408000,2022-02-15-15:48:40,10.1.1.11,29,-0.020,-0.020,-0.020,0.000,0.000,0.000
1644940121224111104,2022-02-15-15:48:41,10.1.1.11,17,-0.020,-0.020,-0.020,0.000,0.000,0.000
1644940122063386880,2022-02-15-15:48:42,10.1.1.11,24,-0.020,-0.020,-0.020,0.000,0.000,0.000
1644940122422204928,2022-02-15-15:48:42,10.1.1.11,30,0.050,0.050,0.050,0.000,0.000,0.000
1644940122481435136,2022-02-15-15:48:42,10.1.1.11,39,0.060,0.060,0.060,0.000,0.000,0.000
1644940122524017152,2022-02-15-15:48:42,10.1.1.11,29,0.070,0.070,0.070,0.000,0.000,0.000
1644940122823120128,2022-02-15-15:48:42,10.1.1.11,24,0.070,0.070,0.070,0.000,0.000,0.000
1644940124563636992,2022-02-15-15:48:44,10.1.1.11,22,0.070,0.070,0.070,0.000,0.000,0.000
1644940124863491072,2022-02-15-15:48:44,10.1.1.11,15,0.070,0.070,0.070,0.000,0.000,0.000
1644940125141446144,2022-02-15-15:48:45,10.1.1.11,30,0.020,0.020,0.020,0.000,0.000,0.000
1644940126283224064,2022-02-15-15:48:46,10.1.1.11,30,0.000,0.000,0.000,0.000,0.000,0.000
1644940126706136832,2022-02-15-15:48:46,10.1.1.11,39,0.080,0.080,0.080,0.000,0.000,0.000
1644940126882178048,2022-02-15-15:48:46,10.1.1.11,13,0.080,0.080,0.080,0.000,0.000,0.000
1644940128727299072,2022-02-15-15:48:48,10.1.1.11,20,0.080,0.080,0.080,0.000,0.000,0.000
1644940128931559168,2022-02-15-15:48:48,10.1.1.11,15,0.080,0.080,0.080,0.000,0.000,0.000
1644940129441709056,2022-02-15-15:48:49,10.1.1.11,30,-0.020,-0.020,-0.020,0.000,0.000,0.000
1644940129502383872,2022-02-15-15:48:49,10.1.1.11,39,-0.030,-0.030,-0.030,0.000,0.000,0.000
1644940130182280960,2022-02-15-15:48:50,10.1.1.11,10,-0.030,-0.030,-0.030,0.000,0.000,0.000
1644940131502140928,2022-02-15-15:48:51,10.1.1.11,14,-0.030,-0.030,-0.030,0.000,0.000,0.000
1644940131982393856,2022-02-15-15:48:51,10.1.1.11,39,-0.080,-0.080,-0.080,0.000,0.000,0.000
1644940132022413056,2022-02-15-15:48:52,10.1.1.11,29,-0.070,-0.070,-0.070,0.000,0.000,0.000
1644940132842029056,2022-02-15-15:48:52,10.1.1.11,39,0.090,0.090,0.090,0.000,0.000,0.000
1644940132881658112,2022-02-15-15:48:52,10.1.1.11,29,0.100,0.100,0.100,0.000,0.000,0.000
1644940133544847104,2022-02-15-15:48:53,10.1.1.11,29,-0.030,-0.030,-0.030,0.000,0.000,0.000
1644940134202768128,2022-02-15-15:48:54,10.1.1.11,29,-0.040,-0.040,-0.040,0.000,0.000,0.000
1644940135601886976,2022-02-15-15:48:55,10.1.1.11,12,-0.040,-0.040,-0.040,0.000,0.000,0.000
1644940135925097984,2022-02-15-15:48:55,10.1.1.11,29,-0.100,-0.100,-0.100,0.000,0.000,0.000
1644940137062056192,2022-02-15-15:48:57,10.1.1.11,39,0.080,0.080,0.080,0.000,0.000,0.000
1644940137461852160,2022-02-15-15:48:57,10.1.1.11,29,0.000,0.000,0.000,0.000,0.000,0.000
1644940137801660928,2022-02-15-15:48:57,10.1.1.11,29,-0.060,-0.060,-0.060,0.000,0.000,0.000
1644940138222744832,2022-02-15-15:48:58,10.1.1.11,7,-0.060,-0.060,-0.060,0.000,0.000,0.000
1644940138822237952,2022-02-15-15:48:58,10.1.1.11,29,0.050,0.050,0.050,0.000,0.000,0.000
1644940138981473024,2022-02-15-15:48:58,10.1.1.11,29,0.080,0.080,0.080,0.000,0.000,0.000
1644940139190754048,2022-02-15-15:48:59,10.1.1.11,22,0.080,0.080,0.080,0.000,0.000,0.000
1644940141046309888,2022-02-15-15:49:01,10.1.1.11,10,0.080,0.080,0.080,0.000,0.000,0.000
1644940141267823104,2022-02-15-15:49:01,10.1.1.11,25,0.080,0.080,0.080,0.000,0.000,0.000
1644940142683067136,2022-02-15-15:49:02,10.1.1.11,29,-0.010,-0.010,-0.010,0.000,0.000,0.000
1644940143804930816,2022-02-15-15:49:03,10.1.1.11,10,-0.010,-0.010,-0.010,0.000,0.000,0.000
1644940144742424064,2022-02-15-15:49:04,10.1.1.11,21,-0.010,-0.010,-0.010,0.000,0.000,0.000
1644940145727389952,2022-02-15-15:49:05,10.1.1.11,30,0.020,0.020,0.020,0.000,0.000,0.000
1644940146927852032,2022-02-15-15:49:06,10.1.1.11,12,0.020,0.020,0.020,0.000,0.000,0.000
1644940147303116032,2022-02-15-15:49:07,10.1.1.11,29,0.090,0.090,0.090,0.000,0.000,0.000
1644940147405391872,2022-02-15-15:49:07,10.1.1.11,21,0.090,0.090,0.090,0.000,0.000,0.000
1644940148804846080,2022-02-15-15:49:08,10.1.1.11,29,-0.020,-0.020,-0.020,0.000,0.000,0.000
1644940149925816064,2022-02-15-15:49:09,10.1.1.11,20,0.000,0.000,0.000,0.000,0.000,0.000
1644940150962701056,2022-02-15-15:49:10,10.1.1.11,18,0.000,0.000,0.000,0.000,0.000,0.000
1644940151982323968,2022-02-15-15:49:11,10.1.1.11,7,0.000,0.000,0.000,0.000,0.000,0.000
1644940152324098048,2022-02-15-15:49:12,10.1.1.11,39,-0.060,-0.060,-0.060,0.000,0.000,0.000
1644940152708596992,2022-02-15-15:49:12,10.1.1.11,8,-0.060,-0.060,-0.060,0.000,0.000,0.000
1644940153462656000,2022-02-15-15:49:13,10.1.1.11,29,0.080,0.080,0.080,0.000,0.000,0.000
1644940153642865920,2022-02-15-15:49:13,10.1.1.11,5,0.080,0.080,0.080,0.000,0.000,0.000
1644940154082509056,2022-02-15-15:49:14,10.1.1.11,29,0.000,0.000,0.000,0.000,0.000,0.000
1644940155102138112,2022-02-15-15:49:15,10.1.1.11,21,0.000,0.000,0.000,0.000,0.000,0.000
1644940155724185088,2022-02-15-15:49:15,10.1.1.11,29,0.080,0.080,0.080,0.000,0.000,0.000
1644940156081862912,2022-02-15-15:49:16,10.1.1.11,30,0.010,0.010,0.010,0.000,0.000,0.000
1644940156142841088,2022-02-15-15:49:16,10.1.1.11,39,0.000,0.000,0.000,0.000,0.000,0.000
1644940156941891072,2022-02-15-15:49:16,10.1.1.11,29,-0.040,-0.040,-0.040,0.000,0.000,0.000
1644940157203651072,2022-02-15-15:49:17,10.1.1.11,30,0.010,0.010,0.010,0.000,0.000,0.000
1644940158125613056,2022-02-15-15:49:18,10.1.1.11,13,0.010,0.010,0.010,0.000,0.000,0.000
1644940159021593088,2022-02-15-15:49:19,10.1.1.11,39,-0.040,-0.040,-0.040,0.000,0.000,0.000
1644940160441446144,2022-02-15-15:49:20,10.1.1.11,10,-0.040,-0.040,-0.040,0.000,0.000,0.000
1644940160521858048,2022-02-15-15:49:20,10.1.1.11,40,-0.050,-0.050,-0.050,0.000,0.000,0.000
1644940160983988992,2022-02-15-15:49:20,10.1.1.11,30,-0.060,-0.060,-0.060,0.000,0.000,0.000
1644940161503969024,2022-02-15-15:49:21,10.1.1.11,39,0.040,0.040,0.040,0.000,0.000,0.000
1644940162103035904,2022-02-15-15:49:22,10.1.1.11,24,0.040,0.040,0.040,0.000,0.000,0.000
1644940162366539008,2022-02-15-15:49:22,10.1.1.11,30,-0.010,-0.010,-0.010,0.000,0.000,0.000
1644940163101840896,2022-02-15-15:49:23,10.1.1.11,39,-0.050,-0.050,-0.050,0.000,0.000,0.000
1644940164622109952,2022-02-15-15:49:24,10.1.1.11,7,-0.050,-0.050,-0.050,0.000,0.000,0.000
1644940165142117120,2022-02-15-15:49:25,10.1.1.11,10,-0.050,-0.050,-0.050,0.000,0.000,0.000
1644940165901645824,2022-02-15-15:49:25,10.1.1.11,29,0.090,0.090,0.090,0.000,0.000,0.000
1644940165982772224,2022-02-15-15:49:25,10.1.1.11,8,0.090,0.090,0.090,0.000,0.000,0.000
1644940167282712832,2022-02-15-15:49:27,10.1.1.11,29,-0.040,-0.040,-0.040,0.000,0.000,0.000
1644940168682334976,2022-02-15-15:49:28,10.1.1.11,12,-0.040,-0.040,-0.040,0.000,0.000,0.000
1644940169303512064,2022-02-15-15:49:29,10.1.1.11,21,-0.040,-0.040,-0.040,0.000,0.000,0.000
1644940170723744000,2022-02-15-15:49:30,10.1.1.11,15,-0.040,-0.040,-0.040,0.000,0.000,0.000
1644940171347453952,2022-02-15-15:49:31,10.1.1.11,19,-0.040,-0.040,-0.040,0.000,0.000,0.000
1644940172682460928,2022-02-15-15:49:32,10.1.1.11,30,-0.020,-0.020,-0.020,0.000,0.000,0.000
1644940173484857088,2022-02-15-15:49:33,10.1.1.11,6,-0.020,-0.020,-0.020,0.000,0.000,0.000
1644940173821751040,2022-02-15-15:49:33,10.1.1.11,39,0.040,0.040,0.040,0.000,0.000,0.000
1644940174405508096,2022-02-15-15:49:34,10.1.1.11,8,0.040,0.040,0.040,0.000,0.000,0.000
1644940175861754880,2022-02-15-15:49:35,10.1.1.11,20,0.040,0.040,0.040,0.000,0.000,0.000
1644940176489592064,2022-02-15-15:49:36,10.1.1.11,0,0.040,0.040,0.040,0.000,0.000,0.000
1644940177960707840,2022-02-15-15:49:37,10.1.1.11,19,0.040,0.040,0.040,0.000,0.000,0.000
1644940178104119040,2022-02-15-15:49:38,10.1.1.11,19,0.070,0.070,0.070,0.000,0.000,0.000
1644940178401474048,2022-02-15-15:49:38,10.1.1.11,12,0.070,0.070,0.070,0.000,0.000,0.000
1644940180163569920,2022-02-15-15:49:40,10.1.1.11,10,0.070,0.070,0.070,0.000,0.000,0.000
1644940180482479104,2022-02-15-15:49:40,10.1.1.11,18,0.070,0.070,0.070,0.000,0.000,0.000
1644940181744507136,2022-02-15-15:49:41,10.1.1.11,29,-0.030,-0.030,-0.030,0.000,0.000,0.000
1644940182736562944,2022-02-15-15:49:42,10.1.1.11,29,0.040,0.040,0.040,0.000,0.000,0.000
1644940183803312128,2022-02-15-15:49:43,10.1.1.11,20,-0.030,-0.030,-0.030,0.000,0.000,0.000
1644940185129894912,2022-02-15-15:49:45,10.1.1.11,29,-0.020,-0.020,-0.020,0.000,0.000,0.000
1644940185952649216,2022-02-15-15:49:45,10.1.1.11,24,-0.020,-0.020,-0.020,0.000,0.000,0.000
1644940186521648896,2022-02-15-15:49:46,10.1.1.11,39,0.090,0.090,0.090,0.000,0.000,0.000
1644940186604298240,2022-02-15-15:49:46,10.1.1.11,18,0.090,0.090,0.090,0.000,0.000,0.000
1644940186982935808,2022-02-15-15:49:46,10.1.1.11,39,0.020,0.020,0.020,0.000,0.000,0.000
1644940187747502080,2022-02-15-15:49:47,10.1.1.11,27,-0.070,-0.070,-0.070,0.000,0.000,0.000
1644940189504525824,2022-02-15-15:49:49,10.1.1.11,14,-0.070,-0.070,-0.070,0.000,0.000,0.000
1644940189822458880,2022-02-15-15:49:49,10.1.1.11,17,-0.070,-0.070,-0.070,0.000,0.000,0.000
1644940191610614016,2022-02-15-15:49:51,10.1.1.11,16,-0.070,-0.070,-0.070,0.000,0.000,0.000
1644940191926856960,2022-02-15-15:49:51,10.1.1.11,24,-0.070,-0.070,-0.070,0.000,0.000,0.000
1644940193641522944,2022-02-15-15:49:53,10.1.1.11,30,-0.060,-0.060,-0.060,0.000,0.000,0.000
1644940194041991936,2022-02-15-15:49:54,10.1.1.11,22,-0.060,-0.060,-0.060,0.000,0.000,0.000
1644940194241905920,2022-02-15-15:49:54,10.1.1.11,19,-0.020,-0.020,-0.020,0.000,0.000,0.000
1644940194961880064,2022-02-15-15:49:54,10.1.1.11,29,0.080,0.080,0.080,0.000,0.000,0.000
1644940195941668864,2022-02-15-15:49:55,10.1.1.11,39,-0.090,-0.090,-0.090,0.000,0.000,0.000
1644940197841526016,2022-02-15-15:49:57,10.1.1.11,14,-0.090,-0.090,-0.090,0.000,0.000,0.000
1644940197941432832,2022-02-15-15:49:57,10.1.1.11,12,-0.090,-0.090,-0.090,0.000,0.000,0.000
1644940198061449984,2022-02-15-15:49:58,10.1.1.11,29,-0.070,-0.070,-0.070,0.000,0.000,0.000
1644940198861572864,2022-02-15-15:49:58,10.1.1.11,20,0.090,0.090,0.090,0.000,0.000,0.000
1644940198921381888,2022-02-15-15:49:58,10.1.1.11,29,0.100,0.100,0.100,0.000,0.000,0.000
1644940200942265088,2022-02-15-15:50:00,10.1.1.11,14,0.100,0.100,0.100,0.000,0.000,0.000
1644940201022254848,2022-02-15-15:50:01,10.1.1.11,39,0.090,0.090,0.090,0.000,0.000,0.000
1644940201362960128,2022-02-15-15:50:01,10.1.1.11,19,0.020,0.020,0.020,0.000,0.000,0.000
1644940202583770880,2022-02-15-15:50:02,10.1.1.11,11,0.020,0.020,0.020,0.000,0.000,0.000
1644940203401580032,2022-02-15-15:50:03,10.1.1.11,14,0.020,0.020,0.020,0.000,0.000,0.000
1644940204651667968,2022-02-15-15:50:04,10.1.1.11,17,0.020,0.020,0.020,0.000,0.000,0.000
1644940205461325056,2022-02-15-15:50:05,10.1.1.11,23,0.020,0.020,0.020,0.000,0.000,0.000
1644940206682699008,2022-02-15-15:50:06,10.1.1.11,25,0.020,0.020,0.020,0.000,0.000,0.000
1644940207462447872,2022-02-15-15:50:07,10.1.1.11,29,0.030,0.030,0.030,0.000,0.000,0.000
1644940208783535104,2022-02-15-15:50:08,10.1.1.11,11,0.030,0.030,0.030,0.000,0.000,0.000
1644940208942302976,2022-02-15-15:50:08,10.1.1.11,20,0.060,0.060,0.060,0.000,0.000,0.000
1644940209341747968,2022-02-15-15:50:09,10.1.1.11,14,0.060,0.060,0.060,0.000,0.000,0.000
1644940210941472000,2022-02-15-15:50:10,10.1.1.11,20,0.050,0.050,0.050,0.000,0.000,0.000
1644940211441634816,2022-02-15-15:50:11,10.1.1.11,13,0.050,0.050,0.050,0.000,0.000,0.000
1644940212882987008,2022-02-15-15:50:12,10.1.1.11,29,0.030,0.030,0.030,0.000,0.000,0.000
1644940213581553920,2022-02-15-15:50:13,10.1.1.11,17,0.030,0.030,0.030,0.000,0.000,0.000
1644940214522049024,2022-02-15-15:50:14,10.1.1.11,29,-0.050,-0.050,-0.050,0.000,0.000,0.000
1644940214722022144,2022-02-15-15:50:14,10.1.1.11,20,-0.010,-0.010,-0.010,0.000,0.000,0.000
1644940215843745024,2022-02-15-15:50:15,10.1.1.11,14,-0.010,-0.010,-0.010,0.000,0.000,0.000
1644940216761710848,2022-02-15-15:50:16,10.1.1.11,15,-0.010,-0.010,-0.010,0.000,0.000,0.000
1644940217041837824,2022-02-15-15:50:17,10.1.1.11,39,0.040,0.040,0.040,0.000,0.000,0.000
1644940217621458944,2022-02-15-15:50:17,10.1.1.11,10,0.040,0.040,0.040,0.000,0.000,0.000
1644940219051860992,2022-02-15-15:50:19,10.1.1.11,11,0.040,0.040,0.040,0.000,0.000,0.000
1644940219662269952,2022-02-15-15:50:19,10.1.1.11,20,0.040,0.040,0.040,0.000,0.000,0.000
1644940221101368832,2022-02-15-15:50:21,10.1.1.11,21,0.040,0.040,0.040,0.000,0.000,0.000
1644940221736747008,2022-02-15-15:50:21,10.1.1.11,18,0.040,0.040,0.040,0.000,0.000,0.000
1644940223188075008,2022-02-15-15:50:23,10.1.1.11,7,0.040,0.040,0.040,0.000,0.000,0.000
1644940223367000064,2022-02-15-15:50:23,10.1.1.11,29,0.070,0.070,0.070,0.000,0.000,0.000
1644940223663919872,2022-02-15-15:50:23,10.1.1.11,11,0.070,0.070,0.070,0.000,0.000,0.000
1644940225142690048,2022-02-15-15:50:25,10.1.1.11,29,0.010,0.010,0.010,0.000,0.000,0.000
1644940226086039040,2022-02-15-15:50:26,10.1.1.11,25,0.010,0.010,0.010,0.000,0.000,0.000
1644940227202184960,2022-02-15-15:50:27,10.1.1.11,22,0.010,0.010,0.010,0.000,0.000,0.000
1644940228121440768,2022-02-15-15:50:28,10.1.1.11,20,0.010,0.010,0.010,0.000,0.000,0.000
1644940229222539776,2022-02-15-15:50:29,10.1.1.11,8,0.010,0.010,0.010,0.000,0.000,0.000
1644940230143141120,2022-02-15-15:50:30,10.1.1.11,13,0.010,0.010,0.010,0.000,0.000,0.000
1644940231263601152,2022-02-15-15:50:31,10.1.1.11,20,0.010,0.010,0.010,0.000,0.000,0.000
1644940231331325952,2022-02-15-15:50:31,10.1.1.11,30,0.020,0.020,0.020,0.000,0.000,0.000
1644940231782711040,2022-02-15-15:50:31,10.1.1.11,30,0.090,0.090,0.090,0.000,0.000,0.000
1644940233702088192,2022-02-15-15:50:33,10.1.1.11,6,0.090,0.090,0.090,0.000,0.000,0.000
1644940233804452864,2022-02-15-15:50:33,10.1.1.11,5,0.090,0.090,0.090,0.000,0.000,0.000
1644940234342344960,2022-02-15-15:50:34,10.1.1.11,30,-0.010,-0.010,-0.010,0.000,0.000,0.000
1644940235002959872,2022-02-15-15:50:35,10.1.1.11,29,-0.060,-0.060,-0.060,0.000,0.000,0.000
1644940236662439168,2022-02-15-15:50:36,10.1.1.11,20,-0.060,-0.060,-0.060,0.000,0.000,0.000
1644940237062700032,2022-02-15-15:50:37,10.1.1.11,12,-0.060,-0.060,-0.060,0.000,0.000,0.000
1644940237542398976,2022-02-15-15:50:37,10.1.1.11,29,0.030,0.030,0.030,0.000,0.000,0.000
1644940238242979072,2022-02-15-15:50:38,10.1.1.11,7,0.030,0.030,0.030,0.000,0.000,0.000
1644940239601609984,2022-02-15-15:50:39,10.1.1.11,10,0.030,0.030,0.030,0.000,0.000,0.000
1644940239681894144,2022-02-15-15:50:39,10.1.1.11,39,0.040,0.040,0.040,0.000,0.000,0.000
1644940239822358016,2022-02-15-15:50:39,10.1.1.11,27,0.070,0.070,0.070,0.000,0.000,0.000
1644940239983293184,2022-02-15-15:50:39,10.1.1.11,29,0.100,0.100,0.100,0.000,0.000,0.000
1644940242001460992,2022-02-15-15:50:42,10.1.1.11,19,0.090,0.090,0.090,0.000,0.000,0.000
1644940242101396992,2022-02-15-15:50:42,10.1.1.11,18,0.090,0.090,0.090,0.000,0.000,0.000
1644940243703123200,2022-02-15-15:50:43,10.1.1.11,39,0.020,0.020,0.020,0.000,0.000,0.000
1644940244523776000,2022-02-15-15:50:44,10.1.1.11,26,0.020,0.020,0.020,0.000,0.000,0.000
1644940244801767168,2022-02-15-15:50:44,10.1.1.11,29,-0.020,-0.020,-0.020,0.000,0.000,0.000
1644940245622044160,2022-02-15-15:50:45,10.1.1.11,22,-0.020,-0.020,-0.020,0.000,0.000,0.000
1644940246863460096,2022-02-15-15:50:46,10.1.1.11,6,-0.020,-0.020,-0.020,0.000,0.000,0.000
1644940247701457920,2022-02-15-15:50:47,10.1.1.11,19,-0.020,-0.020,-0.020,0.000,0.000,0.000
1644940248642159872,2022-02-15-15:50:48,10.1.1.11,30,0.040,0.040,0.040,0.000,0.000,0.000
1644940249543420160,2022-02-15-15:50:49,10.1.1.11,39,-0.070,-0.070,-0.070,0.000,0.000,0.000
1644940249861393920,2022-02-15-15:50:49,10.1.1.11,30,-0.010,-0.010,-0.010,0.000,0.000,0.000
1644940250262587136,2022-02-15-15:50:50,10.1.1.11,19,0.070,0.070,0.070,0.000,0.000,0.000
1644940250607254016,2022-02-15-15:50:50,10.1.1.11,11,0.070,0.070,0.070,0.000,0.000,0.000
1644940252363580928,2022-02-15-15:50:52,10.1.1.11,18,0.070,0.070,0.070,0.000,0.000,0.000
1644940252661108992,2022-02-15-15:50:52,10.1.1.11,14,0.070,0.070,0.070,0.000,0.000,0.000
1644940253547897088,2022-02-15-15:50:53,10.1.1.11,29,-0.100,-0.100,-0.100,0.000,0.000,0.000
1644940255561506048,2022-02-15-15:50:55,10.1.1.11,15,-0.100,-0.100,-0.100,0.000,0.000,0.000
1644940256501821952,2022-02-15-15:50:56,10.1.1.11,39,0.080,0.080,0.080,0.000,0.000,0.000
1644940256681307136,2022-02-15-15:50:56,10.1.1.11,14,0.080,0.080,0.080,0.000,0.000,0.000
1644940257883182080,2022-02-15-15:50:57,10.1.1.11,29,-0.050,-0.050,-0.050,0.000,0.000,0.000
1644940258841697024,2022-02-15-15:50:58,10.1.1.11,40,0.070,0.070,0.070,0.000,0.000,0.000
1644940259383874816,2022-02-15-15:50:59,10.1.1.11,19,-0.040,-0.040,-0.040,0.000,0.000,0.000
1644940259444008192,2022-02-15-15:50:59,10.1.1.11,29,-0.050,-0.050,-0.050,0.000,0.000,0.000
1644940259942928128,2022-02-15-15:50:59,10.1.1.11,16,-0.050,-0.050,-0.050,0.000,0.000,0.000
1644940259983520000,2022-02-15-15:50:59,10.1.1.11,5,-0.050,-0.050,-0.050,0.000,0.000,0.000
1644940261508152064,2022-02-15-15:51:01,10.1.1.11,13,-0.050,-0.050,-0.050,0.000,0.000,0.000
1644940262042827008,2022-02-15-15:51:02,10.1.1.11,22,-0.050,-0.050,-0.050,0.000,0.000,0.000
1644940263625509888,2022-02-15-15:51:03,10.1.1.11,18,-0.050,-0.050,-0.050,0.000,0.000,0.000
1644940264139560960,2022-02-15-15:51:04,10.1.1.11,-10,-0.050,-0.050,-0.050,0.000,0.000,0.000
1644940267021014016,2022-02-15-15:51:07,10.1.1.11,13,0.080,0.080,0.080,0.000,0.000,0.000
1644940267221579008,2022-02-15-15:51:07,10.1.1.11,8,0.080,0.080,0.080,0.000,0.000,0.000
1644940267767191808,2022-02-15-15:51:07,10.1.1.11,39,-0.020,-0.020,-0.020,0.000,0.000,0.000
1644940268550766848,2022-02-15-15:51:08,10.1.1.11,3,-0.020,-0.020,-0.020,0.000,0.000,0.000
1644940269765335040,2022-02-15-15:51:09,10.1.1.11,3,-0.020,-0.020,-0.020,0.000,0.000,0.000
1644940270582268928,2022-02-15-15:51:10,10.1.1.11,11,-0.020,-0.020,-0.020,0.000,0.000,0.000
1644940271062774784,2022-02-15-15:51:11,10.1.1.11,30,0.070,0.070,0.070,0.000,0.000,0.000
1644940271362281984,2022-02-15-15:51:11,10.1.1.11,21,0.070,0.070,0.070,0.000,0.000,0.000
1644940271982911232,2022-02-15-15:51:11,10.1.1.11,30,-0.050,-0.050,-0.050,0.000,0.000,0.000
1644940272481583104,2022-02-15-15:51:12,10.1.1.11,22,-0.050,-0.050,-0.050,0.000,0.000,0.000
1644940272681304832,2022-02-15-15:51:12,10.1.1.11,20,-0.010,-0.010,-0.010,0.000,0.000,0.000
1644940272741341952,2022-02-15-15:51:12,10.1.1.11,29,0.000,0.000,0.000,0.000,0.000,0.000
1644940273401580032,2022-02-15-15:51:13,10.1.1.11,30,0.070,0.070,0.070,0.000,0.000,0.000
1644940273461420032,2022-02-15-15:51:13,10.1.1.11,39,0.060,0.060,0.060,0.000,0.000,0.000
1644940274262449920,2022-02-15-15:51:14,10.1.1.11,29,-0.100,-0.100,-0.100,0.000,0.000,0.000
1644940276281842944,2022-02-15-15:51:16,10.1.1.11,19,-0.100,-0.100,-0.100,0.000,0.000,0.000
1644940276801980928,2022-02-15-15:51:16,10.1.1.11,29,0.000,0.000,0.000,0.000,0.000,0.000
1644940277822402048,2022-02-15-15:51:17,10.1.1.11,20,0.000,0.000,0.000,0.000,0.000,0.000
1644940277881985024,2022-02-15-15:51:17,10.1.1.11,29,-0.010,-0.010,-0.010,0.000,0.000,0.000
1644940278801520128,2022-02-15-15:51:18,10.1.1.11,21,-0.010,-0.010,-0.010,0.000,0.000,0.000
1644940279922910976,2022-02-15-15:51:19,10.1.1.11,17,-0.010,-0.010,-0.010,0.000,0.000,0.000
1644940280840899840,2022-02-15-15:51:20,10.1.1.11,11,-0.010,-0.010,-0.010,0.000,0.000,0.000
1644940281987301120,2022-02-15-15:51:21,10.1.1.11,9,-0.010,-0.010,-0.010,0.000,0.000,0.000
1644940282942269184,2022-02-15-15:51:22,10.1.1.11,13,-0.010,-0.010,-0.010,0.000,0.000,0.000
1644940284062957056,2022-02-15-15:51:24,10.1.1.11,18,-0.010,-0.010,-0.010,0.000,0.000,0.000
1644940284983379968,2022-02-15-15:51:24,10.1.1.11,16,-0.010,-0.010,-0.010,0.000,0.000,0.000
1644940286107026176,2022-02-15-15:51:26,10.1.1.11,12,-0.010,-0.010,-0.010,0.000,0.000,0.000
1644940287021506048,2022-02-15-15:51:27,10.1.1.11,15,-0.010,-0.010,-0.010,0.000,0.000,0.000
1644940287502119936,2022-02-15-15:51:27,10.1.1.11,30,0.080,0.080,0.080,0.000,0.000,0.000
1644940287686341888,2022-02-15-15:51:27,10.1.1.11,2,0.080,0.080,0.080,0.000,0.000,0.000
1644940289566916096,2022-02-15-15:51:29,10.1.1.11,11,0.080,0.080,0.080,0.000,0.000,0.000
1644940289782139904,2022-02-15-15:51:29,10.1.1.11,25,0.080,0.080,0.080,0.000,0.000,0.000
1644940291622241024,2022-02-15-15:51:31,10.1.1.11,12,0.080,0.080,0.080,0.000,0.000,0.000
1644940291822880000,2022-02-15-15:51:31,10.1.1.11,10,0.080,0.080,0.080,0.000,0.000,0.000
1644940292262187008,2022-02-15-15:51:32,10.1.1.11,39,0.000,0.000,0.000,0.000,0.000,0.000
1644940293261702144,2022-02-15-15:51:33,10.1.1.11,17,0.000,0.000,0.000,0.000,0.000,0.000
1644940293641652992,2022-02-15-15:51:33,10.1.1.11,39,0.070,0.070,0.070,0.000,0.000,0.000
1644940293923037952,2022-02-15-15:51:33,10.1.1.11,12,0.070,0.070,0.070,0.000,0.000,0.000
1644940294041366016,2022-02-15-15:51:34,10.1.1.11,30,0.050,0.050,0.050,0.000,0.000,0.000
1644940295423712000,2022-02-15-15:51:35,10.1.1.11,30,0.020,0.020,0.020,0.000,0.000,0.000
1644940296267021824,2022-02-15-15:51:36,10.1.1.11,22,0.020,0.020,0.020,0.000,0.000,0.000
1644940297484034048,2022-02-15-15:51:37,10.1.1.11,19,0.020,0.020,0.020,0.000,0.000,0.000
1644940297901712896,2022-02-15-15:51:37,10.1.1.11,29,0.100,0.100,0.100,0.000,0.000,0.000
1644940299950774784,2022-02-15-15:51:39,10.1.1.11,1,0.100,0.100,0.100,0.000,0.000,0.000
1644940300442113024,2022-02-15-15:51:40,10.1.1.11,30,0.010,0.010,0.010,0.000,0.000,0.000
1644940301422433024,2022-02-15-15:51:41,10.1.1.11,29,-0.020,-0.020,-0.020,0.000,0.000,0.000
1644940302501662976,2022-02-15-15:51:42,10.1.1.11,29,0.010,0.010,0.010,0.000,0.000,0.000
1644940303601946112,2022-02-15-15:51:43,10.1.1.11,9,0.010,0.010,0.010,0.000,0.000,0.000
1644940304542007040,2022-02-15-15:51:44,10.1.1.11,22,0.010,0.010,0.010,0.000,0.000,0.000
1644940305661579008,2022-02-15-15:51:45,10.1.1.11,25,0.010,0.010,0.010,0.000,0.000,0.000
1644940306582944000,2022-02-15-15:51:46,10.1.1.11,26,0.010,0.010,0.010,0.000,0.000,0.000
1644940307746129920,2022-02-15-15:51:47,10.1.1.11,13,0.010,0.010,0.010,0.000,0.000,0.000
1644940308666290944,2022-02-15-15:51:48,10.1.1.11,7,0.010,0.010,0.010,0.000,0.000,0.000
1644940309661329920,2022-02-15-15:51:49,10.1.1.11,30,-0.020,-0.020,-0.020,0.000,0.000,0.000
1644940310373094912,2022-02-15-15:51:50,10.1.1.11,29,0.090,0.090,0.090,0.000,0.000,0.000
1644940310584065024,2022-02-15-15:51:50,10.1.1.11,39,0.050,0.050,0.050,0.000,0.000,0.000
1644940311642164992,2022-02-15-15:51:51,10.1.1.11,30,-0.040,-0.040,-0.040,0.000,0.000,0.000
1644940313061605888,2022-02-15-15:51:53,10.1.1.11,13,-0.040,-0.040,-0.040,0.000,0.000,0.000
1644940313681696000,2022-02-15-15:51:53,10.1.1.11,16,-0.040,-0.040,-0.040,0.000,0.000,0.000
1644940315161757952,2022-02-15-15:51:55,10.1.1.11,17,-0.040,-0.040,-0.040,0.000,0.000,0.000
1644940315783020032,2022-02-15-15:51:55,10.1.1.11,19,-0.040,-0.040,-0.040,0.000,0.000,0.000
1644940317206754048,2022-02-15-15:51:57,10.1.1.11,20,-0.040,-0.040,-0.040,0.000,0.000,0.000
1644940317806160896,2022-02-15-15:51:57,10.1.1.11,11,-0.040,-0.040,-0.040,0.000,0.000,0.000
1644940318681612032,2022-02-15-15:51:58,10.1.1.11,29,0.070,0.070,0.070,0.000,0.000,0.000
1644940319641395968,2022-02-15-15:51:59,10.1.1.11,30,-0.080,-0.080,-0.080,0.000,0.000,0.000
1644940321450215168,2022-02-15-15:52:01,10.1.1.11,5,-0.080,-0.080,-0.080,0.000,0.000,0.000
1644940321661199104,2022-02-15-15:52:01,10.1.1.11,21,-0.080,-0.080,-0.080,0.000,0.000,0.000
1644940321723112192,2022-02-15-15:52:01,10.1.1.11,30,-0.070,-0.070,-0.070,0.000,0.000,0.000
1644940323526920960,2022-02-15-15:52:03,10.1.1.11,18,-0.070,-0.070,-0.070,0.000,0.000,0.000
1644940323844664064,2022-02-15-15:52:03,10.1.1.11,9,-0.070,-0.070,-0.070,0.000,0.000,0.000
1644940325621840128,2022-02-15-15:52:05,10.1.1.11,21,-0.070,-0.070,-0.070,0.000,0.000,0.000
1644940325934685952,2022-02-15-15:52:05,10.1.1.11,8,-0.070,-0.070,-0.070,0.000,0.000,0.000
1644940327721477120,2022-02-15-15:52:07,10.1.1.11,11,-0.070,-0.070,-0.070,0.000,0.000,0.000
1644940328043806976,2022-02-15-15:52:08,10.1.1.11,22,-0.070,-0.070,-0.070,0.000,0.000,0.000
1644940329761492992,2022-02-15-15:52:09,10.1.1.11,19,-0.070,-0.070,-0.070,0.000,0.000,0.000
1644940330061805056,2022-02-15-15:52:10,10.1.1.11,11,-0.070,-0.070,-0.070,0.000,0.000,0.000
1644940331862371840,2022-02-15-15:52:11,10.1.1.11,7,-0.070,-0.070,-0.070,0.000,0.000,0.000
1644940332183262976,2022-02-15-15:52:12,10.1.1.11,20,-0.070,-0.070,-0.070,0.000,0.000,0.000
1644940333841010176,2022-02-15-15:52:13,10.1.1.11,29,-0.050,-0.050,-0.050,0.000,0.000,0.000
1644940334203726080,2022-02-15-15:52:14,10.1.1.11,29,-0.080,-0.080,-0.080,0.000,0.000,0.000
1644940336041886976,2022-02-15-15:52:16,10.1.1.11,23,-0.080,-0.080,-0.080,0.000,0.000,0.000
1644940336243299840,2022-02-15-15:52:16,10.1.1.11,13,-0.080,-0.080,-0.080,0.000,0.000,0.000
1644940338062326784,2022-02-15-15:52:18,10.1.1.11,7,-0.080,-0.080,-0.080,0.000,0.000,0.000
1644940338282468096,2022-02-15-15:52:18,10.1.1.11,24,-0.080,-0.080,-0.080,0.000,0.000,0.000
1644940338701026816,2022-02-15-15:52:18,10.1.1.11,39,0.000,0.000,0.000,0.000,0.000,0.000
1644940339363379968,2022-02-15-15:52:19,10.1.1.11,40,0.070,0.070,0.070,0.000,0.000,0.000
1644940341066840832,2022-02-15-15:52:21,10.1.1.11,6,0.070,0.070,0.070,0.000,0.000,0.000
1644940341387398912,2022-02-15-15:52:21,10.1.1.11,19,0.070,0.070,0.070,0.000,0.000,0.000
1644940343145378048,2022-02-15-15:52:23,10.1.1.11,20,0.070,0.070,0.070,0.000,0.000,0.000
1644940343444643072,2022-02-15-15:52:23,10.1.1.11,10,0.070,0.070,0.070,0.000,0.000,0.000
1644940345284079104,2022-02-15-15:52:25,10.1.1.11,14,0.070,0.070,0.070,0.000,0.000,0.000
1644940345581497856,2022-02-15-15:52:25,10.1.1.11,8,0.070,0.070,0.070,0.000,0.000,0.000
1644940346421811968,2022-02-15-15:52:26,10.1.1.11,29,-0.090,-0.090,-0.090,0.000,0.000,0.000
1644940346502789120,2022-02-15-15:52:26,10.1.1.11,8,-0.090,-0.090,-0.090,0.000,0.000,0.000
1644940346922612992,2022-02-15-15:52:26,10.1.1.11,20,-0.010,-0.010,-0.010,0.000,0.000,0.000
1644940348041364992,2022-02-15-15:52:28,10.1.1.11,12,-0.010,-0.010,-0.010,0.000,0.000,0.000
1644940348961748992,2022-02-15-15:52:28,10.1.1.11,12,-0.010,-0.010,-0.010,0.000,0.000,0.000
1644940349341523968,2022-02-15-15:52:29,10.1.1.11,29,0.060,0.060,0.060,0.000,0.000,0.000
1644940349747939072,2022-02-15-15:52:29,10.1.1.11,18,0.060,0.060,0.060,0.000,0.000,0.000
1644940351361583104,2022-02-15-15:52:31,10.1.1.11,8,0.060,0.060,0.060,0.000,0.000,0.000
1644940351791729920,2022-02-15-15:52:31,10.1.1.11,22,0.060,0.060,0.060,0.000,0.000,0.000
1644940353422653952,2022-02-15-15:52:33,10.1.1.11,16,0.060,0.060,0.060,0.000,0.000,0.000
1644940353744150016,2022-02-15-15:52:33,10.1.1.11,30,0.080,0.080,0.080,0.000,0.000,0.000
1644940355605540864,2022-02-15-15:52:35,10.1.1.11,17,0.080,0.080,0.080,0.000,0.000,0.000
1644940355821469184,2022-02-15-15:52:35,10.1.1.11,14,0.080,0.080,0.080,0.000,0.000,0.000
1644940357701980160,2022-02-15-15:52:37,10.1.1.11,25,0.080,0.080,0.080,0.000,0.000,0.000
1644940357901577984,2022-02-15-15:52:37,10.1.1.11,21,0.080,0.080,0.080,0.000,0.000,0.000
1644940359764271104,2022-02-15-15:52:39,10.1.1.11,21,0.080,0.080,0.080,0.000,0.000,0.000
1644940359973330944,2022-02-15-15:52:39,10.1.1.11,18,0.080,0.080,0.080,0.000,0.000,0.000
1644940361222280960,2022-02-15-15:52:41,10.1.1.11,30,-0.040,-0.040,-0.040,0.000,0.000,0.000
1644940362642234112,2022-02-15-15:52:42,10.1.1.11,21,-0.040,-0.040,-0.040,0.000,0.000,0.000
1644940363282658048,2022-02-15-15:52:43,10.1.1.11,11,-0.040,-0.040,-0.040,0.000,0.000,0.000
1644940364742491904,2022-02-15-15:52:44,10.1.1.11,21,-0.040,-0.040,-0.040,0.000,0.000,0.000
1644940365361963008,2022-02-15-15:52:45,10.1.1.11,10,-0.040,-0.040,-0.040,0.000,0.000,0.000
1644940366624336128,2022-02-15-15:52:46,10.1.1.11,39,0.000,0.000,0.000,0.000,0.000,0.000
1644940367663678976,2022-02-15-15:52:47,10.1.1.11,11,0.000,0.000,0.000,0.000,0.000,0.000
1644940368702075904,2022-02-15-15:52:48,10.1.1.11,8,0.000,0.000,0.000,0.000,0.000,0.000
1644940369781896192,2022-02-15-15:52:49,10.1.1.11,11,0.000,0.000,0.000,0.000,0.000,0.000
1644940369901303040,2022-02-15-15:52:49,10.1.1.11,29,0.020,0.020,0.020,0.000,0.000,0.000
1644940370322132992,2022-02-15-15:52:50,10.1.1.11,30,0.100,0.100,0.100,0.000,0.000,0.000
1644940372362240000,2022-02-15-15:52:52,10.1.1.11,10,0.100,0.100,0.100,0.000,0.000,0.000
1644940374441616128,2022-02-15-15:52:54,10.1.1.11,25,0.100,0.100,0.100,0.000,0.000,0.000
1644940376502056960,2022-02-15-15:52:56,10.1.1.11,23,0.100,0.100,0.100,0.000,0.000,0.000
1644940378523257856,2022-02-15-15:52:58,10.1.1.11,7,0.100,0.100,0.100,0.000,0.000,0.000
1644940380621084928,2022-02-15-15:53:00,10.1.1.11,22,0.100,0.100,0.100,0.000,0.000,0.000
1644940382181344000,2022-02-15-15:53:02,10.1.1.11,39,0.000,0.000,0.000,0.000,0.000,0.000
1644940383181560064,2022-02-15-15:53:03,10.1.1.11,21,0.000,0.000,0.000,0.000,0.000,0.000
1644940384221862144,2022-02-15-15:53:04,10.1.1.11,20,0.000,0.000,0.000,0.000,0.000,0.000
1644940385062084864,2022-02-15-15:53:05,10.1.1.11,30,0.040,0.040,0.040,0.000,0.000,0.000
1644940386341208064,2022-02-15-15:53:06,10.1.1.11,31,0.010,0.010,0.010,0.000,0.000,0.000
1644940387241873920,2022-02-15-15:53:07,10.1.1.11,7,0.010,0.010,0.010,0.000,0.000,0.000
1644940388381134080,2022-02-15-15:53:08,10.1.1.11,17,0.010,0.010,0.010,0.000,0.000,0.000
1644940389297980928,2022-02-15-15:53:09,10.1.1.11,12,0.010,0.010,0.010,0.000,0.000,0.000
1644940389621649920,2022-02-15-15:53:09,10.1.1.11,30,-0.050,-0.050,-0.050,0.000,0.000,0.000
1644940390121396992,2022-02-15-15:53:10,10.1.1.11,19,-0.050,-0.050,-0.050,0.000,0.000,0.000
1644940390703422976,2022-02-15-15:53:10,10.1.1.11,28,0.060,0.060,0.060,0.000,0.000,0.000
1644940391105854976,2022-02-15-15:53:11,10.1.1.11,12,0.060,0.060,0.060,0.000,0.000,0.000
1644940392782587136,2022-02-15-15:53:12,10.1.1.11,18,0.060,0.060,0.060,0.000,0.000,0.000
1644940393181089024,2022-02-15-15:53:13,10.1.1.11,10,0.060,0.060,0.060,0.000,0.000,0.000
1644940394586543104,2022-02-15-15:53:14,10.1.1.11,30,0.010,0.010,0.010,0.000,0.000,0.000
1644940395501400064,2022-02-15-15:53:15,10.1.1.11,21,0.010,0.010,0.010,0.000,0.000,0.000
1644940395982001152,2022-02-15-15:53:15,10.1.1.11,40,-0.080,-0.080,-0.080,0.000,0.000,0.000
1644940396161417984,2022-02-15-15:53:16,10.1.1.11,16,-0.080,-0.080,-0.080,0.000,0.000,0.000
1644940396642996992,2022-02-15-15:53:16,10.1.1.11,30,0.010,0.010,0.010,0.000,0.000,0.000
1644940397551209984,2022-02-15-15:53:17,10.1.1.11,7,0.010,0.010,0.010,0.000,0.000,0.000
1644940398681660928,2022-02-15-15:53:18,10.1.1.11,14,0.010,0.010,0.010,0.000,0.000,0.000
1644940399602032896,2022-02-15-15:53:19,10.1.1.11,22,0.010,0.010,0.010,0.000,0.000,0.000
1644940400721527040,2022-02-15-15:53:20,10.1.1.11,23,0.010,0.010,0.010,0.000,0.000,0.000
1644940401481286912,2022-02-15-15:53:21,10.1.1.11,20,0.040,0.040,0.040,0.000,0.000,0.000
1644940401542540032,2022-02-15-15:53:21,10.1.1.11,30,0.030,0.030,0.030,0.000,0.000,0.000
1644940402502615808,2022-02-15-15:53:22,10.1.1.11,30,-0.040,-0.040,-0.040,0.000,0.000,0.000
1644940403905762816,2022-02-15-15:53:23,10.1.1.11,11,-0.040,-0.040,-0.040,0.000,0.000,0.000
1644940404522366976,2022-02-15-15:53:24,10.1.1.11,16,-0.040,-0.040,-0.040,0.000,0.000,0.000
1644940405982996992,2022-02-15-15:53:25,10.1.1.11,23,-0.040,-0.040,-0.040,0.000,0.000,0.000
1644940406621869056,2022-02-15-15:53:26,10.1.1.11,25,-0.040,-0.040,-0.040,0.000,0.000,0.000
1644940407786392064,2022-02-15-15:53:27,10.1.1.11,30,0.020,0.020,0.020,0.000,0.000,0.000
1644940409023776000,2022-02-15-15:53:29,10.1.1.11,18,0.020,0.020,0.020,0.000,0.000,0.000
1644940409901756160,2022-02-15-15:53:29,10.1.1.11,8,0.020,0.020,0.020,0.000,0.000,0.000
1644940411202128896,2022-02-15-15:53:31,10.1.1.11,14,0.020,0.020,0.020,0.000,0.000,0.000
1644940412022290944,2022-02-15-15:53:32,10.1.1.11,24,0.020,0.020,0.020,0.000,0.000,0.000
1644940413241741824,2022-02-15-15:53:33,10.1.1.11,7,0.020,0.020,0.020,0.000,0.000,0.000
1644940414060830976,2022-02-15-15:53:34,10.1.1.11,11,0.020,0.020,0.020,0.000,0.000,0.000
1644940415313033984,2022-02-15-15:53:35,10.1.1.11,14,0.020,0.020,0.020,0.000,0.000,0.000
1644940416150456064,2022-02-15-15:53:36,10.1.1.11,-1,0.020,0.020,0.020,0.000,0.000,0.000
1644940417382379008,2022-02-15-15:53:37,10.1.1.11,15,0.020,0.020,0.020,0.000,0.000,0.000
1644940418203387136,2022-02-15-15:53:38,10.1.1.11,20,0.020,0.020,0.020,0.000,0.000,0.000
1644940419441459968,2022-02-15-15:53:39,10.1.1.11,21,0.020,0.020,0.020,0.000,0.000,0.000
1644940420242290944,2022-02-15-15:53:40,10.1.1.11,10,0.020,0.020,0.020,0.000,0.000,0.000
1644940421161106176,2022-02-15-15:53:41,10.1.1.11,20,-0.040,-0.040,-0.040,0.000,0.000,0.000
1644940422640994048,2022-02-15-15:53:42,10.1.1.11,12,-0.040,-0.040,-0.040,0.000,0.000,0.000
1644940423260798976,2022-02-15-15:53:43,10.1.1.11,25,-0.040,-0.040,-0.040,0.000,0.000,0.000
1644940424701176832,2022-02-15-15:53:44,10.1.1.11,8,-0.040,-0.040,-0.040,0.000,0.000,0.000
1644940425322051072,2022-02-15-15:53:45,10.1.1.11,11,-0.040,-0.040,-0.040,0.000,0.000,0.000
1644940426781594880,2022-02-15-15:53:46,10.1.1.11,26,-0.040,-0.040,-0.040,0.000,0.000,0.000
1644940427440834048,2022-02-15-15:53:47,10.1.1.11,11,-0.040,-0.040,-0.040,0.000,0.000,0.000
1644940428881797120,2022-02-15-15:53:48,10.1.1.11,11,-0.040,-0.040,-0.040,0.000,0.000,0.000
1644940429501019904,2022-02-15-15:53:49,10.1.1.11,14,-0.040,-0.040,-0.040,0.000,0.000,0.000
1644940429862277888,2022-02-15-15:53:49,10.1.1.11,29,0.020,0.020,0.020,0.000,0.000,0.000
1644940430562001920,2022-02-15-15:53:50,10.1.1.11,29,0.050,0.050,0.050,0.000,0.000,0.000
1644940432081763072,2022-02-15-15:53:52,10.1.1.11,24,0.050,0.050,0.050,0.000,0.000,0.000
1644940432581990912,2022-02-15-15:53:52,10.1.1.11,14,0.050,0.050,0.050,0.000,0.000,0.000
1644940434142476032,2022-02-15-15:53:54,10.1.1.11,12,0.050,0.050,0.050,0.000,0.000,0.000
1644940434668843008,2022-02-15-15:53:54,10.1.1.11,1,0.050,0.050,0.050,0.000,0.000,0.000
1644940436220641024,2022-02-15-15:53:56,10.1.1.11,13,0.050,0.050,0.050,0.000,0.000,0.000
1644940436741904128,2022-02-15-15:53:56,10.1.1.11,25,0.050,0.050,0.050,0.000,0.000,0.000
1644940438261723136,2022-02-15-15:53:58,10.1.1.11,15,0.050,0.050,0.050,0.000,0.000,0.000
1644940438761261824,2022-02-15-15:53:58,10.1.1.11,8,0.050,0.050,0.050,0.000,0.000,0.000
1644940440301410048,2022-02-15-15:54:00,10.1.1.11,12,0.050,0.050,0.050,0.000,0.000,0.000
1644940440821634048,2022-02-15-15:54:00,10.1.1.11,10,0.050,0.050,0.050,0.000,0.000,0.000
1644940441562148096,2022-02-15-15:54:01,10.1.1.11,39,-0.090,-0.090,-0.090,0.000,0.000,0.000
1644940441645648896,2022-02-15-15:54:01,10.1.1.11,18,-0.090,-0.090,-0.090,0.000,0.000,0.000
1644940442181783808,2022-02-15-15:54:02,10.1.1.11,30,0.010,0.010,0.010,0.000,0.000,0.000
1644940442381243904,2022-02-15-15:54:02,10.1.1.11,27,0.050,0.050,0.050,0.000,0.000,0.000
1644940442882203136,2022-02-15-15:54:02,10.1.1.11,19,0.050,0.050,0.050,0.000,0.000,0.000
1644940444402195968,2022-02-15-15:54:04,10.1.1.11,13,0.050,0.050,0.050,0.000,0.000,0.000
1644940444922554112,2022-02-15-15:54:04,10.1.1.11,24,0.050,0.050,0.050,0.000,0.000,0.000
1644940445181981952,2022-02-15-15:54:05,10.1.1.11,30,0.000,0.000,0.000,0.000,0.000,0.000
1644940446206044928,2022-02-15-15:54:06,10.1.1.11,24,0.000,0.000,0.000,0.000,0.000,0.000
1644940447201477120,2022-02-15-15:54:07,10.1.1.11,12,0.000,0.000,0.000,0.000,0.000,0.000
1644940447442625024,2022-02-15-15:54:07,10.1.1.11,30,-0.040,-0.040,-0.040,0.000,0.000,0.000
1644940448021116928,2022-02-15-15:54:08,10.1.1.11,20,-0.040,-0.040,-0.040,0.000,0.000,0.000
1644940449442094080,2022-02-15-15:54:09,10.1.1.11,12,-0.040,-0.040,-0.040,0.000,0.000,0.000
1644940450062799104,2022-02-15-15:54:10,10.1.1.11,23,-0.040,-0.040,-0.040,0.000,0.000,0.000
1644940451481203968,2022-02-15-15:54:11,10.1.1.11,8,-0.040,-0.040,-0.040,0.000,0.000,0.000
1644940452121412096,2022-02-15-15:54:12,10.1.1.11,11,-0.040,-0.040,-0.040,0.000,0.000,0.000
1644940453631150848,2022-02-15-15:54:13,10.1.1.11,18,-0.040,-0.040,-0.040,0.000,0.000,0.000
1644940454242316032,2022-02-15-15:54:14,10.1.1.11,17,-0.040,-0.040,-0.040,0.000,0.000,0.000
1644940455722948096,2022-02-15-15:54:15,10.1.1.11,11,-0.040,-0.040,-0.040,0.000,0.000,0.000
1644940456342713088,2022-02-15-15:54:16,10.1.1.11,20,-0.040,-0.040,-0.040,0.000,0.000,0.000
1644940457821593088,2022-02-15-15:54:17,10.1.1.11,11,-0.040,-0.040,-0.040,0.000,0.000,0.000
1644940458463048960,2022-02-15-15:54:18,10.1.1.11,20,-0.040,-0.040,-0.040,0.000,0.000,0.000
1644940459880889856,2022-02-15-15:54:19,10.1.1.11,10,-0.040,-0.040,-0.040,0.000,0.000,0.000
1644940460503896832,2022-02-15-15:54:20,10.1.1.11,18,-0.040,-0.040,-0.040,0.000,0.000,0.000
1644940461921827072,2022-02-15-15:54:21,10.1.1.11,10,-0.040,-0.040,-0.040,0.000,0.000,0.000
1644940462541732096,2022-02-15-15:54:22,10.1.1.11,21,-0.040,-0.040,-0.040,0.000,0.000,0.000
1644940463961797120,2022-02-15-15:54:23,10.1.1.11,14,-0.040,-0.040,-0.040,0.000,0.000,0.000
1644940464582055168,2022-02-15-15:54:24,10.1.1.11,20,-0.040,-0.040,-0.040,0.000,0.000,0.000
1644940466021364992,2022-02-15-15:54:26,10.1.1.11,19,-0.040,-0.040,-0.040,0.000,0.000,0.000
1644940466638152960,2022-02-15-15:54:26,10.1.1.11,4,-0.040,-0.040,-0.040,0.000,0.000,0.000
1644940468062119936,2022-02-15-15:54:28,10.1.1.11,8,-0.040,-0.040,-0.040,0.000,0.000,0.000
1644940468683293184,2022-02-15-15:54:28,10.1.1.11,17,-0.040,-0.040,-0.040,0.000,0.000,0.000
1644940470102725888,2022-02-15-15:54:30,10.1.1.11,11,-0.040,-0.040,-0.040,0.000,0.000,0.000
1644940470721890048,2022-02-15-15:54:30,10.1.1.11,18,-0.040,-0.040,-0.040,0.000,0.000,0.000
1644940472161149952,2022-02-15-15:54:32,10.1.1.11,11,-0.040,-0.040,-0.040,0.000,0.000,0.000
1644940472806999808,2022-02-15-15:54:32,10.1.1.11,18,-0.040,-0.040,-0.040,0.000,0.000,0.000
1644940474243115776,2022-02-15-15:54:34,10.1.1.11,9,-0.040,-0.040,-0.040,0.000,0.000,0.000
1644940474904154112,2022-02-15-15:54:34,10.1.1.11,24,-0.040,-0.040,-0.040,0.000,0.000,0.000
1644940475161811200,2022-02-15-15:54:35,10.1.1.11,22,0.010,0.010,0.010,0.000,0.000,0.000
1644940476082170112,2022-02-15-15:54:36,10.1.1.11,8,0.010,0.010,0.010,0.000,0.000,0.000
1644940477127901184,2022-02-15-15:54:37,10.1.1.11,30,-0.010,-0.010,-0.010,0.000,0.000,0.000
1644940478221517056,2022-02-15-15:54:38,10.1.1.11,11,-0.010,-0.010,-0.010,0.000,0.000,0.000
1644940479141796096,2022-02-15-15:54:39,10.1.1.11,7,-0.010,-0.010,-0.010,0.000,0.000,0.000
1644940479701339904,2022-02-15-15:54:39,10.1.1.11,20,0.090,0.090,0.090,0.000,0.000,0.000
1644940479806096128,2022-02-15-15:54:39,10.1.1.11,19,0.090,0.090,0.090,0.000,0.000,0.000
1644940480521568000,2022-02-15-15:54:40,10.1.1.11,29,-0.050,-0.050,-0.050,0.000,0.000,0.000
1644940481021417984,2022-02-15-15:54:41,10.1.1.11,22,-0.050,-0.050,-0.050,0.000,0.000,0.000
1644940482558417920,2022-02-15-15:54:42,10.1.1.11,22,-0.050,-0.050,-0.050,0.000,0.000,0.000
1644940483063927808,2022-02-15-15:54:43,10.1.1.11,9,-0.050,-0.050,-0.050,0.000,0.000,0.000
1644940484625658880,2022-02-15-15:54:44,10.1.1.11,24,-0.050,-0.050,-0.050,0.000,0.000,0.000
1644940485124481792,2022-02-15-15:54:45,10.1.1.11,15,-0.050,-0.050,-0.050,0.000,0.000,0.000
1644940486662242048,2022-02-15-15:54:46,10.1.1.11,23,-0.050,-0.050,-0.050,0.000,0.000,0.000
1644940487162153984,2022-02-15-15:54:47,10.1.1.11,17,-0.050,-0.050,-0.050,0.000,0.000,0.000
1644940487421068032,2022-02-15-15:54:47,10.1.1.11,21,0.000,0.000,0.000,0.000,0.000,0.000
1644940488042074880,2022-02-15-15:54:48,10.1.1.11,31,0.080,0.080,0.080,0.000,0.000,0.000
1644940488701401088,2022-02-15-15:54:48,10.1.1.11,29,-0.050,-0.050,-0.050,0.000,0.000,0.000
1644940489201863936,2022-02-15-15:54:49,10.1.1.11,12,-0.050,-0.050,-0.050,0.000,0.000,0.000
1644940490740880896,2022-02-15-15:54:50,10.1.1.11,25,-0.050,-0.050,-0.050,0.000,0.000,0.000
1644940491240939008,2022-02-15-15:54:51,10.1.1.11,17,-0.050,-0.050,-0.050,0.000,0.000,0.000
1644940492782124032,2022-02-15-15:54:52,10.1.1.11,21,-0.050,-0.050,-0.050,0.000,0.000,0.000
1644940493280858112,2022-02-15-15:54:53,10.1.1.11,14,-0.050,-0.050,-0.050,0.000,0.000,0.000
1644940493500804864,2022-02-15-15:54:53,10.1.1.11,29,-0.010,-0.010,-0.010,0.000,0.000,0.000
1644940494421155840,2022-02-15-15:54:54,10.1.1.11,39,0.030,0.030,0.030,0.000,0.000,0.000
1644940495722161920,2022-02-15-15:54:55,10.1.1.11,23,0.030,0.030,0.030,0.000,0.000,0.000
1644940496421210112,2022-02-15-15:54:56,10.1.1.11,9,0.030,0.030,0.030,0.000,0.000,0.000
1644940497761331200,2022-02-15-15:54:57,10.1.1.11,21,0.030,0.030,0.030,0.000,0.000,0.000
1644940498460855040,2022-02-15-15:54:58,10.1.1.11,11,0.030,0.030,0.030,0.000,0.000,0.000
1644940499781271040,2022-02-15-15:54:59,10.1.1.11,16,0.030,0.030,0.030,0.000,0.000,0.000
1644940500500720128,2022-02-15-15:55:00,10.1.1.11,26,0.030,0.030,0.030,0.000,0.000,0.000
1644940501804636928,2022-02-15-15:55:01,10.1.1.11,8,0.030,0.030,0.030,0.000,0.000,0.000
1644940502520956928,2022-02-15-15:55:02,10.1.1.11,17,0.030,0.030,0.030,0.000,0.000,0.000
1644940503841425920,2022-02-15-15:55:03,10.1.1.11,20,0.030,0.030,0.030,0.000,0.000,0.000
1644940504561144064,2022-02-15-15:55:04,10.1.1.11,15,0.030,0.030,0.030,0.000,0.000,0.000
1644940505881640960,2022-02-15-15:55:05,10.1.1.11,17,0.030,0.030,0.030,0.000,0.000,0.000
1644940506600562944,2022-02-15-15:55:06,10.1.1.11,11,0.030,0.030,0.030,0.000,0.000,0.000
1644940507941510912,2022-02-15-15:55:07,10.1.1.11,20,0.030,0.030,0.030,0.000,0.000,0.000
1644940508661582080,2022-02-15-15:55:08,10.1.1.11,21,0.030,0.030,0.030,0.000,0.000,0.000
1644940509982073088,2022-02-15-15:55:09,10.1.1.11,13,0.030,0.030,0.030,0.000,0.000,0.000
1644940510102209024,2022-02-15-15:55:10,10.1.1.11,30,0.050,0.050,0.050,0.000,0.000,0.000
1644940510601713920,2022-02-15-15:55:10,10.1.1.11,21,0.050,0.050,0.050,0.000,0.000,0.000
1644940512127525120,2022-02-15-15:55:12,10.1.1.11,5,0.050,0.050,0.050,0.000,0.000,0.000
1644940512642198016,2022-02-15-15:55:12,10.1.1.11,18,0.050,0.050,0.050,0.000,0.000,0.000
1644940514181745920,2022-02-15-15:55:14,10.1.1.11,27,0.050,0.050,0.050,0.000,0.000,0.000
1644940514680940032,2022-02-15-15:55:14,10.1.1.11,16,0.050,0.050,0.050,0.000,0.000,0.000
1644940516221687040,2022-02-15-15:55:16,10.1.1.11,17,0.050,0.050,0.050,0.000,0.000,0.000
1644940516741449216,2022-02-15-15:55:16,10.1.1.11,21,0.050,0.050,0.050,0.000,0.000,0.000
1644940517721188096,2022-02-15-15:55:17,10.1.1.11,19,-0.060,-0.060,-0.060,0.000,0.000,0.000
1644940519346752768,2022-02-15-15:55:19,10.1.1.11,9,-0.060,-0.060,-0.060,0.000,0.000,0.000
1644940519761949184,2022-02-15-15:55:19,10.1.1.11,22,-0.060,-0.060,-0.060,0.000,0.000,0.000
1644940521262721024,2022-02-15-15:55:21,10.1.1.11,28,-0.030,-0.030,-0.030,0.000,0.000,0.000
1644940521963324160,2022-02-15-15:55:21,10.1.1.11,11,-0.030,-0.030,-0.030,0.000,0.000,0.000
1644940523341420800,2022-02-15-15:55:23,10.1.1.11,19,-0.030,-0.030,-0.030,0.000,0.000,0.000
1644940524065524224,2022-02-15-15:55:24,10.1.1.11,26,-0.030,-0.030,-0.030,0.000,0.000,0.000
1644940525380928000,2022-02-15-15:55:25,10.1.1.11,21,-0.030,-0.030,-0.030,0.000,0.000,0.000
1644940526101552896,2022-02-15-15:55:26,10.1.1.11,22,-0.030,-0.030,-0.030,0.000,0.000,0.000
1644940527481815040,2022-02-15-15:55:27,10.1.1.11,20,-0.030,-0.030,-0.030,0.000,0.000,0.000
1644940528180998144,2022-02-15-15:55:28,10.1.1.11,11,-0.030,-0.030,-0.030,0.000,0.000,0.000
1644940529122488064,2022-02-15-15:55:29,10.1.1.11,30,0.050,0.050,0.050,0.000,0.000,0.000
1644940530103060992,2022-02-15-15:55:30,10.1.1.11,39,-0.060,-0.060,-0.060,0.000,0.000,0.000
1644940531702507008,2022-02-15-15:55:31,10.1.1.11,17,-0.060,-0.060,-0.060,0.000,0.000,0.000
1644940532101425920,2022-02-15-15:55:32,10.1.1.11,11,-0.060,-0.060,-0.060,0.000,0.000,0.000
1644940533720976128,2022-02-15-15:55:33,10.1.1.11,13,-0.060,-0.060,-0.060,0.000,0.000,0.000
1644940534121643008,2022-02-15-15:55:34,10.1.1.11,9,-0.060,-0.060,-0.060,0.000,0.000,0.000
1644940535742703872,2022-02-15-15:55:35,10.1.1.11,6,-0.060,-0.060,-0.060,0.000,0.000,0.000
1644940536161304064,2022-02-15-15:55:36,10.1.1.11,21,-0.060,-0.060,-0.060,0.000,0.000,0.000
1644940537781608192,2022-02-15-15:55:37,10.1.1.11,21,-0.060,-0.060,-0.060,0.000,0.000,0.000
1644940538187386880,2022-02-15-15:55:38,10.1.1.11,15,-0.060,-0.060,-0.060,0.000,0.000,0.000
1644940539802057984,2022-02-15-15:55:39,10.1.1.11,15,-0.060,-0.060,-0.060,0.000,0.000,0.000
1644940540201991936,2022-02-15-15:55:40,10.1.1.11,9,-0.060,-0.060,-0.060,0.000,0.000,0.000
1644940540621175040,2022-02-15-15:55:40,10.1.1.11,20,0.020,0.020,0.020,0.000,0.000,0.000
1644940541461174016,2022-02-15-15:55:41,10.1.1.11,25,0.020,0.020,0.020,0.000,0.000,0.000
1644940542701380096,2022-02-15-15:55:42,10.1.1.11,25,0.020,0.020,0.020,0.000,0.000,0.000
1644940543523368960,2022-02-15-15:55:43,10.1.1.11,27,0.020,0.020,0.020,0.000,0.000,0.000
1644940544763159040,2022-02-15-15:55:44,10.1.1.11,20,0.020,0.020,0.020,0.000,0.000,0.000
1644940545564218880,2022-02-15-15:55:45,10.1.1.11,5,0.020,0.020,0.020,0.000,0.000,0.000
1644940546801302784,2022-02-15-15:55:46,10.1.1.11,14,0.020,0.020,0.020,0.000,0.000,0.000
1644940547640829952,2022-02-15-15:55:47,10.1.1.11,25,0.020,0.020,0.020,0.000,0.000,0.000
1644940548901838080,2022-02-15-15:55:48,10.1.1.11,15,0.020,0.020,0.020,0.000,0.000,0.000
1644940549722803200,2022-02-15-15:55:49,10.1.1.11,20,0.020,0.020,0.020,0.000,0.000,0.000
1644940550947792128,2022-02-15-15:55:50,10.1.1.11,20,0.020,0.020,0.020,0.000,0.000,0.000
1644940551750163200,2022-02-15-15:55:51,10.1.1.11,10,0.020,0.020,0.020,0.000,0.000,0.000
1644940552980572928,2022-02-15-15:55:52,10.1.1.11,24,0.020,0.020,0.020,0.000,0.000,0.000
1644940553782063872,2022-02-15-15:55:53,10.1.1.11,8,0.020,0.020,0.020,0.000,0.000,0.000
1644940555001560832,2022-02-15-15:55:55,10.1.1.11,14,0.020,0.020,0.020,0.000,0.000,0.000
1644940555821278208,2022-02-15-15:55:55,10.1.1.11,20,0.020,0.020,0.020,0.000,0.000,0.000
1644940557040548096,2022-02-15-15:55:57,10.1.1.11,25,0.020,0.020,0.020,0.000,0.000,0.000
1644940557841172992,2022-02-15-15:55:57,10.1.1.11,12,0.020,0.020,0.020,0.000,0.000,0.000
1644940559061136128,2022-02-15-15:55:59,10.1.1.11,15,0.020,0.020,0.020,0.000,0.000,0.000
1644940559880804096,2022-02-15-15:55:59,10.1.1.11,23,0.020,0.020,0.020,0.000,0.000,0.000
1644940561080653824,2022-02-15-15:56:01,10.1.1.11,11,0.020,0.020,0.020,0.000,0.000,0.000
1644940561901000960,2022-02-15-15:56:01,10.1.1.11,21,0.020,0.020,0.020,0.000,0.000,0.000
1644940562822406144,2022-02-15-15:56:02,10.1.1.11,20,-0.040,-0.040,-0.040,0.000,0.000,0.000
1644940564241164032,2022-02-15-15:56:04,10.1.1.11,23,-0.040,-0.040,-0.040,0.000,0.000,0.000
1644940564840430848,2022-02-15-15:56:04,10.1.1.11,12,-0.040,-0.040,-0.040,0.000,0.000,0.000
1644940566342273024,2022-02-15-15:56:06,10.1.1.11,20,-0.040,-0.040,-0.040,0.000,0.000,0.000
1644940566946854144,2022-02-15-15:56:06,10.1.1.11,5,-0.040,-0.040,-0.040,0.000,0.000,0.000
1644940568421327104,2022-02-15-15:56:08,10.1.1.11,18,-0.040,-0.040,-0.040,0.000,0.000,0.000
1644940569041784064,2022-02-15-15:56:09,10.1.1.11,18,-0.040,-0.040,-0.040,0.000,0.000,0.000
1644940570480564224,2022-02-15-15:56:10,10.1.1.11,26,-0.040,-0.040,-0.040,0.000,0.000,0.000
1644940571082716928,2022-02-15-15:56:11,10.1.1.11,14,-0.040,-0.040,-0.040,0.000,0.000,0.000
1644940572545968896,2022-02-15-15:56:12,10.1.1.11,19,-0.040,-0.040,-0.040,0.000,0.000,0.000
1644940573167348992,2022-02-15-15:56:13,10.1.1.11,22,-0.040,-0.040,-0.040,0.000,0.000,0.000
1644940574601048832,2022-02-15-15:56:14,10.1.1.11,21,-0.040,-0.040,-0.040,0.000,0.000,0.000
1644940575222164992,2022-02-15-15:56:15,10.1.1.11,22,-0.040,-0.040,-0.040,0.000,0.000,0.000
1644940576640777216,2022-02-15-15:56:16,10.1.1.11,23,-0.040,-0.040,-0.040,0.000,0.000,0.000
1644940577241307904,2022-02-15-15:56:17,10.1.1.11,17,-0.040,-0.040,-0.040,0.000,0.000,0.000
1644940578666150144,2022-02-15-15:56:18,10.1.1.11,12,-0.040,-0.040,-0.040,0.000,0.000,0.000
1644940579294183936,2022-02-15-15:56:19,10.1.1.11,-3,-0.040,-0.040,-0.040,0.000,0.000,0.000
1644940580760955136,2022-02-15-15:56:20,10.1.1.11,23,-0.040,-0.040,-0.040,0.000,0.000,0.000
1644940581382119936,2022-02-15-15:56:21,10.1.1.11,19,-0.040,-0.040,-0.040,0.000,0.000,0.000
1644940582845933056,2022-02-15-15:56:22,10.1.1.11,20,-0.040,-0.040,-0.040,0.000,0.000,0.000
1644940583461424128,2022-02-15-15:56:23,10.1.1.11,20,-0.040,-0.040,-0.040,0.000,0.000,0.000
1644940584901185024,2022-02-15-15:56:24,10.1.1.11,8,-0.040,-0.040,-0.040,0.000,0.000,0.000
1644940585526665984,2022-02-15-15:56:25,10.1.1.11,9,-0.040,-0.040,-0.040,0.000,0.000,0.000
1644940586982597120,2022-02-15-15:56:26,10.1.1.11,19,-0.040,-0.040,-0.040,0.000,0.000,0.000
1644940587601540096,2022-02-15-15:56:27,10.1.1.11,22,-0.040,-0.040,-0.040,0.000,0.000,0.000
1644940589021465088,2022-02-15-15:56:29,10.1.1.11,11,-0.040,-0.040,-0.040,0.000,0.000,0.000
1644940589640975872,2022-02-15-15:56:29,10.1.1.11,13,-0.040,-0.040,-0.040,0.000,0.000,0.000
1644940591081367040,2022-02-15-15:56:31,10.1.1.11,11,-0.040,-0.040,-0.040,0.000,0.000,0.000
1644940591700776192,2022-02-15-15:56:31,10.1.1.11,19,-0.040,-0.040,-0.040,0.000,0.000,0.000
1644940593120704768,2022-02-15-15:56:33,10.1.1.11,13,-0.040,-0.040,-0.040,0.000,0.000,0.000
1644940593741410048,2022-02-15-15:56:33,10.1.1.11,12,-0.040,-0.040,-0.040,0.000,0.000,0.000
1644940595180352000,2022-02-15-15:56:35,10.1.1.11,21,-0.040,-0.040,-0.040,0.000,0.000,0.000
1644940595781157120,2022-02-15-15:56:35,10.1.1.11,7,-0.040,-0.040,-0.040,0.000,0.000,0.000
1644940597241297920,2022-02-15-15:56:37,10.1.1.11,23,-0.040,-0.040,-0.040,0.000,0.000,0.000
1644940597840625920,2022-02-15-15:56:37,10.1.1.11,11,-0.040,-0.040,-0.040,0.000,0.000,0.000
1644940599301361152,2022-02-15-15:56:39,10.1.1.11,22,-0.040,-0.040,-0.040,0.000,0.000,0.000
1644940599943599104,2022-02-15-15:56:39,10.1.1.11,19,-0.040,-0.040,-0.040,0.000,0.000,0.000
1644940601422194944,2022-02-15-15:56:41,10.1.1.11,18,-0.040,-0.040,-0.040,0.000,0.000,0.000
1644940602041413120,2022-02-15-15:56:42,10.1.1.11,18,-0.040,-0.040,-0.040,0.000,0.000,0.000
1644940603501353984,2022-02-15-15:56:43,10.1.1.11,8,-0.040,-0.040,-0.040,0.000,0.000,0.000
1644940604141968128,2022-02-15-15:56:44,10.1.1.11,19,-0.040,-0.040,-0.040,0.000,0.000,0.000
1644940605605393920,2022-02-15-15:56:45,10.1.1.11,14,-0.040,-0.040,-0.040,0.000,0.000,0.000
1644940606247038976,2022-02-15-15:56:46,10.1.1.11,11,-0.040,-0.040,-0.040,0.000,0.000,0.000
1644940607721148928,2022-02-15-15:56:47,10.1.1.11,20,-0.040,-0.040,-0.040,0.000,0.000,0.000
1644940608330579968,2022-02-15-15:56:48,10.1.1.11,14,-0.040,-0.040,-0.040,0.000,0.000,0.000
1644940609761145088,2022-02-15-15:56:49,10.1.1.11,16,-0.040,-0.040,-0.040,0.000,0.000,0.000
1644940610360825088,2022-02-15-15:56:50,10.1.1.11,9,-0.040,-0.040,-0.040,0.000,0.000,0.000
1644940611782531072,2022-02-15-15:56:51,10.1.1.11,11,-0.040,-0.040,-0.040,0.000,0.000,0.000
1644940612401523200,2022-02-15-15:56:52,10.1.1.11,13,-0.040,-0.040,-0.040,0.000,0.000,0.000
1644940613822604032,2022-02-15-15:56:53,10.1.1.11,9,-0.040,-0.040,-0.040,0.000,0.000,0.000
1644940614440689920,2022-02-15-15:56:54,10.1.1.11,20,-0.040,-0.040,-0.040,0.000,0.000,0.000
1644940615881194240,2022-02-15-15:56:55,10.1.1.11,26,-0.040,-0.040,-0.040,0.000,0.000,0.000
1644940616480779776,2022-02-15-15:56:56,10.1.1.11,17,-0.040,-0.040,-0.040,0.000,0.000,0.000
1644940617900905984,2022-02-15-15:56:57,10.1.1.11,17,-0.040,-0.040,-0.040,0.000,0.000,0.000
1644940618502449152,2022-02-15-15:56:58,10.1.1.11,6,-0.040,-0.040,-0.040,0.000,0.000,0.000
1644940619923019776,2022-02-15-15:56:59,10.1.1.11,9,-0.040,-0.040,-0.040,0.000,0.000,0.000
1644940620542166016,2022-02-15-15:57:00,10.1.1.11,17,-0.040,-0.040,-0.040,0.000,0.000,0.000
1644940621983053056,2022-02-15-15:57:01,10.1.1.11,19,-0.040,-0.040,-0.040,0.000,0.000,0.000
1644940622602808064,2022-02-15-15:57:02,10.1.1.11,27,-0.040,-0.040,-0.040,0.000,0.000,0.000
1644940624041178112,2022-02-15-15:57:04,10.1.1.11,23,-0.040,-0.040,-0.040,0.000,0.000,0.000
1644940624662891008,2022-02-15-15:57:04,10.1.1.11,11,-0.040,-0.040,-0.040,0.000,0.000,0.000
1644940626141684992,2022-02-15-15:57:06,10.1.1.11,8,-0.040,-0.040,-0.040,0.000,0.000,0.000
1644940626782921984,2022-02-15-15:57:06,10.1.1.11,7,-0.040,-0.040,-0.040,0.000,0.000,0.000
1644940628260674048,2022-02-15-15:57:08,10.1.1.11,18,-0.040,-0.040,-0.040,0.000,0.000,0.000
1644940628882976000,2022-02-15-15:57:08,10.1.1.11,9,-0.040,-0.040,-0.040,0.000,0.000,0.000
1644940630331970816,2022-02-15-15:57:10,10.1.1.11,8,-0.040,-0.040,-0.040,0.000,0.000,0.000
1644940630943294976,2022-02-15-15:57:10,10.1.1.11,13,-0.040,-0.040,-0.040,0.000,0.000,0.000
1644940632389498112,2022-02-15-15:57:12,10.1.1.11,9,-0.040,-0.040,-0.040,0.000,0.000,0.000
1644940633021562112,2022-02-15-15:57:13,10.1.1.11,21,-0.040,-0.040,-0.040,0.000,0.000,0.000
1644940634461185024,2022-02-15-15:57:14,10.1.1.11,19,-0.040,-0.040,-0.040,0.000,0.000,0.000
1644940635086468096,2022-02-15-15:57:15,10.1.1.11,9,-0.040,-0.040,-0.040,0.000,0.000,0.000
1644940636541783040,2022-02-15-15:57:16,10.1.1.11,26,-0.040,-0.040,-0.040,0.000,0.000,0.000
1644940637141495040,2022-02-15-15:57:17,10.1.1.11,17,-0.040,-0.040,-0.040,0.000,0.000,0.000
1644940638600280064,2022-02-15-15:57:18,10.1.1.11,9,-0.040,-0.040,-0.040,0.000,0.000,0.000
1644940639227267072,2022-02-15-15:57:19,10.1.1.11,16,-0.040,-0.040,-0.040,0.000,0.000,0.000
1644940640663908864,2022-02-15-15:57:20,10.1.1.11,21,-0.040,-0.040,-0.040,0.000,0.000,0.000
1644940641272888832,2022-02-15-15:57:21,10.1.1.11,-2,-0.040,-0.040,-0.040,0.000,0.000,0.000
1644940642746354176,2022-02-15-15:57:22,10.1.1.11,9,-0.040,-0.040,-0.040,0.000,0.000,0.000
1644940643362614016,2022-02-15-15:57:23,10.1.1.11,11,-0.040,-0.040,-0.040,0.000,0.000,0.000
1644940644809287936,2022-02-15-15:57:24,10.1.1.11,4,-0.040,-0.040,-0.040,0.000,0.000,0.000
1644940645422383104,2022-02-15-15:57:25,10.1.1.11,11,-0.040,-0.040,-0.040,0.000,0.000,0.000
1644940646881003008,2022-02-15-15:57:26,10.1.1.11,11,-0.040,-0.040,-0.040,0.000,0.000,0.000
1644940647522756096,2022-02-15-15:57:27,10.1.1.11,18,-0.040,-0.040,-0.040,0.000,0.000,0.000
1644940649023197952,2022-02-15-15:57:29,10.1.1.11,11,-0.040,-0.040,-0.040,0.000,0.000,0.000
1644940649641943040,2022-02-15-15:57:29,10.1.1.11,24,-0.040,-0.040,-0.040,0.000,0.000,0.000
1644940651080193024,2022-02-15-15:57:31,10.1.1.11,21,-0.040,-0.040,-0.040,0.000,0.000,0.000
1644940651682563072,2022-02-15-15:57:31,10.1.1.11,8,-0.040,-0.040,-0.040,0.000,0.000,0.000
1644940653141139968,2022-02-15-15:57:33,10.1.1.11,12,-0.040,-0.040,-0.040,0.000,0.000,0.000
1644940653784848896,2022-02-15-15:57:33,10.1.1.11,12,-0.040,-0.040,-0.040,0.000,0.000,0.000
1644940655263577088,2022-02-15-15:57:35,10.1.1.11,8,-0.040,-0.040,-0.040,0.000,0.000,0.000
1644940655881811968,2022-02-15-15:57:35,10.1.1.11,15,-0.040,-0.040,-0.040,0.000,0.000,0.000
1644940657303738112,2022-02-15-15:57:37,10.1.1.11,10,-0.040,-0.040,-0.040,0.000,0.000,0.000
1644940657921701888,2022-02-15-15:57:37,10.1.1.11,21,-0.040,-0.040,-0.040,0.000,0.000,0.000
1644940659364239104,2022-02-15-15:57:39,10.1.1.11,7,-0.040,-0.040,-0.040,0.000,0.000,0.000
1644940659989635072,2022-02-15-15:57:39,10.1.1.11,9,-0.040,-0.040,-0.040,0.000,0.000,0.000
1644940661440852992,2022-02-15-15:57:41,10.1.1.11,9,-0.040,-0.040,-0.040,0.000,0.000,0.000
1644940662060729856,2022-02-15-15:57:42,10.1.1.11,8,-0.040,-0.040,-0.040,0.000,0.000,0.000
1644940663481234176,2022-02-15-15:57:43,10.1.1.11,8,-0.040,-0.040,-0.040,0.000,0.000,0.000
1644940664101387008,2022-02-15-15:57:44,10.1.1.11,18,-0.040,-0.040,-0.040,0.000,0.000,0.000
1644940665522737152,2022-02-15-15:57:45,10.1.1.11,7,-0.040,-0.040,-0.040,0.000,0.000,0.000
1644940666143013120,2022-02-15-15:57:46,10.1.1.11,21,-0.040,-0.040,-0.040,0.000,0.000,0.000
1644940667561860096,2022-02-15-15:57:47,10.1.1.11,8,-0.040,-0.040,-0.040,0.000,0.000,0.000
1644940668200494080,2022-02-15-15:57:48,10.1.1.11,14,-0.040,-0.040,-0.040,0.000,0.000,0.000
1644940669641867008,2022-02-15-15:57:49,10.1.1.11,26,-0.040,-0.040,-0.040,0.000,0.000,0.000
1644940670240047104,2022-02-15-15:57:50,10.1.1.11,17,-0.040,-0.040,-0.040,0.000,0.000,0.000
1644940671700494080,2022-02-15-15:57:51,10.1.1.11,23,-0.040,-0.040,-0.040,0.000,0.000,0.000
1644940672311453184,2022-02-15-15:57:52,10.1.1.11,9,-0.040,-0.040,-0.040,0.000,0.000,0.000
1644940673720904960,2022-02-15-15:57:53,10.1.1.11,9,-0.040,-0.040,-0.040,0.000,0.000,0.000
1644940674341037056,2022-02-15-15:57:54,10.1.1.11,20,-0.040,-0.040,-0.040,0.000,0.000,0.000
1644940675760372992,2022-02-15-15:57:55,10.1.1.11,11,-0.040,-0.040,-0.040,0.000,0.000,0.000
1644940676380086784,2022-02-15-15:57:56,10.1.1.11,19,-0.040,-0.040,-0.040,0.000,0.000,0.000
1644940677800745984,2022-02-15-15:57:57,10.1.1.11,13,-0.040,-0.040,-0.040,0.000,0.000,0.000
1644940678460743936,2022-02-15-15:57:58,10.1.1.11,18,-0.040,-0.040,-0.040,0.000,0.000,0.000
1644940679880052992,2022-02-15-15:57:59,10.1.1.11,17,-0.040,-0.040,-0.040,0.000,0.000,0.000
1644940680515305984,2022-02-15-15:58:00,10.1.1.11,4,-0.040,-0.040,-0.040,0.000,0.000,0.000
1644940681920315904,2022-02-15-15:58:01,10.1.1.11,16,-0.040,-0.040,-0.040,0.000,0.000,0.000
1644940682542630912,2022-02-15-15:58:02,10.1.1.11,24,-0.040,-0.040,-0.040,0.000,0.000,0.000
1644940684482942976,2022-02-15-15:58:04,10.1.1.11,11,-0.040,-0.040,-0.040,0.000,0.000,0.000
1644940685113571840,2022-02-15-15:58:05,10.1.1.11,4,-0.040,-0.040,-0.040,0.000,0.000,0.000
1644940686520015104,2022-02-15-15:58:06,10.1.1.11,12,-0.040,-0.040,-0.040,0.000,0.000,0.000
1644940687140105984,2022-02-15-15:58:07,10.1.1.11,19,-0.040,-0.040,-0.040,0.000,0.000,0.000
1644940688561259008,2022-02-15-15:58:08,10.1.1.11,15,-0.040,-0.040,-0.040,0.000,0.000,0.000
1644940689197915904,2022-02-15-15:58:09,10.1.1.11,-28,-0.040,-0.040,-0.040,0.000,0.000,0.000
1644940690620302080,2022-02-15-15:58:10,10.1.1.11,12,-0.040,-0.040,-0.040,0.000,0.000,0.000
1644940691239921920,2022-02-15-15:58:11,10.1.1.11,19,-0.040,-0.040,-0.040,0.000,0.000,0.000
1644940692740600064,2022-02-15-15:58:12,10.1.1.11,9,-0.040,-0.040,-0.040,0.000,0.000,0.000
1644940693361180160,2022-02-15-15:58:13,10.1.1.11,21,-0.040,-0.040,-0.040,0.000,0.000,0.000
1644940694781608960,2022-02-15-15:58:14,10.1.1.11,24,-0.040,-0.040,-0.040,0.000,0.000,0.000
1644940695381395200,2022-02-15-15:58:15,10.1.1.11,16,-0.040,-0.040,-0.040,0.000,0.000,0.000
1644940696840804096,2022-02-15-15:58:16,10.1.1.11,13,-0.040,-0.040,-0.040,0.000,0.000,0.000
1644940697499938048,2022-02-15-15:58:17,10.1.1.11,18,-0.040,-0.040,-0.040,0.000,0.000,0.000
1644940698965481984,2022-02-15-15:58:18,10.1.1.11,14,-0.040,-0.040,-0.040,0.000,0.000,0.000
1644940699600765952,2022-02-15-15:58:19,10.1.1.11,22,-0.040,-0.040,-0.040,0.000,0.000,0.000
1644940701141088000,2022-02-15-15:58:21,10.1.1.11,21,-0.040,-0.040,-0.040,0.000,0.000,0.000
1644940701805293056,2022-02-15-15:58:21,10.1.1.11,27,-0.040,-0.040,-0.040,0.000,0.000,0.000
1644940703242011136,2022-02-15-15:58:23,10.1.1.11,19,-0.040,-0.040,-0.040,0.000,0.000,0.000
1644940703861357056,2022-02-15-15:58:23,10.1.1.11,17,-0.040,-0.040,-0.040,0.000,0.000,0.000
1644940705281043968,2022-02-15-15:58:25,10.1.1.11,16,-0.040,-0.040,-0.040,0.000,0.000,0.000
1644940705900731136,2022-02-15-15:58:25,10.1.1.11,27,-0.040,-0.040,-0.040,0.000,0.000,0.000
1644940707301836032,2022-02-15-15:58:27,10.1.1.11,10,-0.040,-0.040,-0.040,0.000,0.000,0.000
1644940707923209984,2022-02-15-15:58:27,10.1.1.11,18,-0.040,-0.040,-0.040,0.000,0.000,0.000
1644940709377686016,2022-02-15-15:58:29,10.1.1.11,-1,-0.040,-0.040,-0.040,0.000,0.000,0.000
1644940709962849024,2022-02-15-15:58:29,10.1.1.11,7,-0.040,-0.040,-0.040,0.000,0.000,0.000
1644940711439905024,2022-02-15-15:58:31,10.1.1.11,9,-0.040,-0.040,-0.040,0.000,0.000,0.000
1644940712061532928,2022-02-15-15:58:32,10.1.1.11,21,-0.040,-0.040,-0.040,0.000,0.000,0.000
1644940713501454080,2022-02-15-15:58:33,10.1.1.11,20,-0.040,-0.040,-0.040,0.000,0.000,0.000
1644940714122432000,2022-02-15-15:58:34,10.1.1.11,-9,-0.040,-0.040,-0.040,0.000,0.000,0.000
1644940715580836096,2022-02-15-15:58:35,10.1.1.11,9,-0.040,-0.040,-0.040,0.000,0.000,0.000
1644940716200288000,2022-02-15-15:58:36,10.1.1.11,18,-0.040,-0.040,-0.040,0.000,0.000,0.000
1644940717662458880,2022-02-15-15:58:37,10.1.1.11,22,-0.040,-0.040,-0.040,0.000,0.000,0.000
1644940718365524992,2022-02-15-15:58:38,10.1.1.11,21,-0.040,-0.040,-0.040,0.000,0.000,0.000
1644940719762433024,2022-02-15-15:58:39,10.1.1.11,15,-0.040,-0.040,-0.040,0.000,0.000,0.000
1644940720380124160,2022-02-15-15:58:40,10.1.1.11,13,-0.040,-0.040,-0.040,0.000,0.000,0.000
1644940721819845888,2022-02-15-15:58:41,10.1.1.11,20,-0.040,-0.040,-0.040,0.000,0.000,0.000
1644940722421145856,2022-02-15-15:58:42,10.1.1.11,12,-0.040,-0.040,-0.040,0.000,0.000,0.000
1644940723881244928,2022-02-15-15:58:43,10.1.1.11,17,-0.040,-0.040,-0.040,0.000,0.000,0.000
1644940724501230080,2022-02-15-15:58:44,10.1.1.11,8,-0.040,-0.040,-0.040,0.000,0.000,0.000
1644940725941014016,2022-02-15-15:58:45,10.1.1.11,20,-0.040,-0.040,-0.040,0.000,0.000,0.000
1644940726559920128,2022-02-15-15:58:46,10.1.1.11,22,-0.040,-0.040,-0.040,0.000,0.000,0.000
1644940727981623040,2022-02-15-15:58:47,10.1.1.11,10,-0.040,-0.040,-0.040,0.000,0.000,0.000
1644940728620699904,2022-02-15-15:58:48,10.1.1.11,24,-0.040,-0.040,-0.040,0.000,0.000,0.000
1644940730081524992,2022-02-15-15:58:50,10.1.1.11,17,-0.040,-0.040,-0.040,0.000,0.000,0.000
1644940730699762944,2022-02-15-15:58:50,10.1.1.11,9,-0.040,-0.040,-0.040,0.000,0.000,0.000
1644940732161062912,2022-02-15-15:58:52,10.1.1.11,12,-0.040,-0.040,-0.040,0.000,0.000,0.000
1644940732783068928,2022-02-15-15:58:52,10.1.1.11,9,-0.040,-0.040,-0.040,0.000,0.000,0.000
1644940734220841984,2022-02-15-15:58:54,10.1.1.11,15,-0.040,-0.040,-0.040,0.000,0.000,0.000
1644940734840640000,2022-02-15-15:58:54,10.1.1.11,18,-0.040,-0.040,-0.040,0.000,0.000,0.000
1644940736281061888,2022-02-15-15:58:56,10.1.1.11,25,-0.040,-0.040,-0.040,0.000,0.000,0.000
1644940736900320000,2022-02-15-15:58:56,10.1.1.11,13,-0.040,-0.040,-0.040,0.000,0.000,0.000
1644940738327056896,2022-02-15-15:58:58,10.1.1.11,5,-0.040,-0.040,-0.040,0.000,0.000,0.000
1644940738981163008,2022-02-15-15:58:58,10.1.1.11,15,-0.040,-0.040,-0.040,0.000,0.000,0.000
1644940740401242880,2022-02-15-15:59:00,10.1.1.11,9,-0.040,-0.040,-0.040,0.000,0.000,0.000
1644940741040730112,2022-02-15-15:59:01,10.1.1.11,13,-0.040,-0.040,-0.040,0.000,0.000,0.000
1644940742500313088,2022-02-15-15:59:02,10.1.1.11,16,-0.040,-0.040,-0.040,0.000,0.000,0.000
1644940743161140992,2022-02-15-15:59:03,10.1.1.11,20,-0.040,-0.040,-0.040,0.000,0.000,0.000
1644940744627363072,2022-02-15-15:59:04,10.1.1.11,9,-0.040,-0.040,-0.040,0.000,0.000,0.000
1644940745260420096,2022-02-15-15:59:05,10.1.1.11,20,-0.040,-0.040,-0.040,0.000,0.000,0.000
1644940746761174016,2022-02-15-15:59:06,10.1.1.11,16,-0.040,-0.040,-0.040,0.000,0.000,0.000
1644940747400424960,2022-02-15-15:59:07,10.1.1.11,9,-0.040,-0.040,-0.040,0.000,0.000,0.000
1644940748880538112,2022-02-15-15:59:08,10.1.1.11,9,-0.040,-0.040,-0.040,0.000,0.000,0.000
1644940749499872000,2022-02-15-15:59:09,10.1.1.11,19,-0.040,-0.040,-0.040,0.000,0.000,0.000
1644940750937624064,2022-02-15-15:59:10,10.1.1.11,-7,-0.040,-0.040,-0.040,0.000,0.000,0.000
1644940751581198080,2022-02-15-15:59:11,10.1.1.11,22,-0.040,-0.040,-0.040,0.000,0.000,0.000
1644940753020143104,2022-02-15-15:59:13,10.1.1.11,13,-0.040,-0.040,-0.040,0.000,0.000,0.000
1644940753660396032,2022-02-15-15:59:13,10.1.1.11,19,-0.040,-0.040,-0.040,0.000,0.000,0.000
1644940755140225024,2022-02-15-15:59:15,10.1.1.11,20,-0.040,-0.040,-0.040,0.000,0.000,0.000
1644940755759896064,2022-02-15-15:59:15,10.1.1.11,22,-0.040,-0.040,-0.040,0.000,0.000,0.000
1644940757179976960,2022-02-15-15:59:17,10.1.1.11,18,-0.040,-0.040,-0.040,0.000,0.000,0.000
1644940757800859904,2022-02-15-15:59:17,10.1.1.11,19,-0.040,-0.040,-0.040,0.000,0.000,0.000
1644940759240969984,2022-02-15-15:59:19,10.1.1.11,12,-0.040,-0.040,-0.040,0.000,0.000,0.000
1644940759860260864,2022-02-15-15:59:19,10.1.1.11,19,-0.040,-0.040,-0.040,0.000,0.000,0.000
1644940761300434176,2022-02-15-15:59:21,10.1.1.11,15,-0.040,-0.040,-0.040,0.000,0.000,0.000
1644940761921908992,2022-02-15-15:59:21,10.1.1.11,17,-0.040,-0.040,-0.040,0.000,0.000,0.000
1644940763421883136,2022-02-15-15:59:23,10.1.1.11,18,-0.040,-0.040,-0.040,0.000,0.000,0.000
1644940764025299968,2022-02-15-15:59:24,10.1.1.11,7,-0.040,-0.040,-0.040,0.000,0.000,0.000
1644940765499771136,2022-02-15-15:59:25,10.1.1.11,24,-0.040,-0.040,-0.040,0.000,0.000,0.000
1644940766100730880,2022-02-15-15:59:26,10.1.1.11,16,-0.040,-0.040,-0.040,0.000,0.000,0.000
1644940767522361088,2022-02-15-15:59:27,10.1.1.11,11,-0.040,-0.040,-0.040,0.000,0.000,0.000
1644940768139811072,2022-02-15-15:59:28,10.1.1.11,21,-0.040,-0.040,-0.040,0.000,0.000,0.000
1644940769579616000,2022-02-15-15:59:29,10.1.1.11,14,-0.040,-0.040,-0.040,0.000,0.000,0.000
1644940770206722048,2022-02-15-15:59:30,10.1.1.11,20,-0.040,-0.040,-0.040,0.000,0.000,0.000
1644940771680913920,2022-02-15-15:59:31,10.1.1.11,17,-0.040,-0.040,-0.040,0.000,0.000,0.000
1644940772280399104,2022-02-15-15:59:32,10.1.1.11,11,-0.040,-0.040,-0.040,0.000,0.000,0.000
1644940773776463104,2022-02-15-15:59:33,10.1.1.11,5,-0.040,-0.040,-0.040,0.000,0.000,0.000
1644940774401359104,2022-02-15-15:59:34,10.1.1.11,18,-0.040,-0.040,-0.040,0.000,0.000,0.000
1644940775881544192,2022-02-15-15:59:35,10.1.1.11,24,-0.040,-0.040,-0.040,0.000,0.000,0.000
1644940776480967168,2022-02-15-15:59:36,10.1.1.11,10,-0.040,-0.040,-0.040,0.000,0.000,0.000
1644940778001014016,2022-02-15-15:59:38,10.1.1.11,20,-0.040,-0.040,-0.040,0.000,0.000,0.000
1644940778600665088,2022-02-15-15:59:38,10.1.1.11,12,-0.040,-0.040,-0.040,0.000,0.000,0.000
1644940780021367040,2022-02-15-15:59:40,10.1.1.11,11,-0.040,-0.040,-0.040,0.000,0.000,0.000
1644940780679992064,2022-02-15-15:59:40,10.1.1.11,10,-0.040,-0.040,-0.040,0.000,0.000,0.000
1644940782119869952,2022-02-15-15:59:42,10.1.1.11,18,-0.040,-0.040,-0.040,0.000,0.000,0.000
1644940782722112768,2022-02-15-15:59:42,10.1.1.11,8,-0.040,-0.040,-0.040,0.000,0.000,0.000
1644940784161935104,2022-02-15-15:59:44,10.1.1.11,7,-0.040,-0.040,-0.040,0.000,0.000,0.000
1644940784780289024,2022-02-15-15:59:44,10.1.1.11,17,-0.040,-0.040,-0.040,0.000,0.000,0.000
1644940786220400128,2022-02-15-15:59:46,10.1.1.11,10,-0.040,-0.040,-0.040,0.000,0.000,0.000
1644940786846231040,2022-02-15-15:59:46,10.1.1.11,5,-0.040,-0.040,-0.040,0.000,0.000,0.000
1644940788340059904,2022-02-15-15:59:48,10.1.1.11,11,-0.040,-0.040,-0.040,0.000,0.000,0.000
1644940789020428800,2022-02-15-15:59:49,10.1.1.11,26,-0.040,-0.040,-0.040,0.000,0.000,0.000
1644940790479779072,2022-02-15-15:59:50,10.1.1.11,16,-0.040,-0.040,-0.040,0.000,0.000,0.000
1644940791080712960,2022-02-15-15:59:51,10.1.1.11,8,-0.040,-0.040,-0.040,0.000,0.000,0.000
1644940792520258816,2022-02-15-15:59:52,10.1.1.11,27,-0.040,-0.040,-0.040,0.000,0.000,0.000
1644940793140871936,2022-02-15-15:59:53,10.1.1.11,10,-0.040,-0.040,-0.040,0.000,0.000,0.000
1644940794580683008,2022-02-15-15:59:54,10.1.1.11,8,-0.040,-0.040,-0.040,0.000,0.000,0.000
1644940795240036096,2022-02-15-15:59:55,10.1.1.11,10,-0.040,-0.040,-0.040,0.000,0.000,0.000
1644940796699357952,2022-02-15-15:59:56,10.1.1.11,25,-0.040,-0.040,-0.040,0.000,0.000,0.000
1644940797329284864,2022-02-15-15:59:57,10.1.1.11,20,-0.040,-0.040,-0.040,0.000,0.000,0.000
1644940798759744768,2022-02-15-15:59:58,10.1.1.11,9,-0.040,-0.040,-0.040,0.000,0.000,0.000
1644940799381807104,2022-02-15-15:59:59,10.1.1.11,14,-0.040,-0.040,-0.040,0.000,0.000,0.000
1644940800801017088,2022-02-15-16:00:00,10.1.1.11,13,-0.040,-0.040,-0.040,0.000,0.000,0.000
1644940801420263168,2022-02-15-16:00:01,10.1.1.11,16,-0.040,-0.040,-0.040,0.000,0.000,0.000
1644940802879584000,2022-02-15-16:00:02,10.1.1.11,23,-0.040,-0.040,-0.040,0.000,0.000,0.000
1644940803481337088,2022-02-15-16:00:03,10.1.1.11,16,-0.040,-0.040,-0.040,0.000,0.000,0.000
1644940804940540928,2022-02-15-16:00:04,10.1.1.11,22,-0.040,-0.040,-0.040,0.000,0.000,0.000
1644940805559652096,2022-02-15-16:00:05,10.1.1.11,25,-0.040,-0.040,-0.040,0.000,0.000,0.000
1644940806980680960,2022-02-15-16:00:06,10.1.1.11,21,-0.040,-0.040,-0.040,0.000,0.000,0.000
1644940807601345024,2022-02-15-16:00:07,10.1.1.11,23,-0.040,-0.040,-0.040,0.000,0.000,0.000
1644940809167068928,2022-02-15-16:00:09,10.1.1.11,2,-0.040,-0.040,-0.040,0.000,0.000,0.000
1644940809859877120,2022-02-15-16:00:09,10.1.1.11,19,-0.040,-0.040,-0.040,0.000,0.000,0.000
1644940811306964992,2022-02-15-16:00:11,10.1.1.11,3,-0.040,-0.040,-0.040,0.000,0.000,0.000
1644940811939732992,2022-02-15-16:00:11,10.1.1.11,25,-0.040,-0.040,-0.040,0.000,0.000,0.000
1644940813380572928,2022-02-15-16:00:13,10.1.1.11,23,-0.040,-0.040,-0.040,0.000,0.000,0.000
1644940814019085056,2022-02-15-16:00:14,10.1.1.11,12,-0.040,-0.040,-0.040,0.000,0.000,0.000
1644940815442095872,2022-02-15-16:00:15,10.1.1.11,9,-0.040,-0.040,-0.040,0.000,0.000,0.000
1644940816059884032,2022-02-15-16:00:16,10.1.1.11,19,-0.040,-0.040,-0.040,0.000,0.000,0.000
1644940817553595136,2022-02-15-16:00:17,10.1.1.11,11,-0.040,-0.040,-0.040,0.000,0.000,0.000
1644940818139628800,2022-02-15-16:00:18,10.1.1.11,21,-0.040,-0.040,-0.040,0.000,0.000,0.000
1644940819562580224,2022-02-15-16:00:19,10.1.1.11,14,-0.040,-0.040,-0.040,0.000,0.000,0.000
1644940820180912128,2022-02-15-16:00:20,10.1.1.11,11,-0.040,-0.040,-0.040,0.000,0.000,0.000
1644940821620267008,2022-02-15-16:00:21,10.1.1.11,18,-0.040,-0.040,-0.040,0.000,0.000,0.000
1644940822219057920,2022-02-15-16:00:22,10.1.1.11,11,-0.040,-0.040,-0.040,0.000,0.000,0.000
1644940823706195968,2022-02-15-16:00:23,10.1.1.11,10,-0.040,-0.040,-0.040,0.000,0.000,0.000
1644940824319230976,2022-02-15-16:00:24,10.1.1.11,18,-0.040,-0.040,-0.040,0.000,0.000,0.000
1644940825739328000,2022-02-15-16:00:25,10.1.1.11,15,-0.040,-0.040,-0.040,0.000,0.000,0.000
1644940826359427072,2022-02-15-16:00:26,10.1.1.11,26,-0.040,-0.040,-0.040,0.000,0.000,0.000
1644940827779465984,2022-02-15-16:00:27,10.1.1.11,26,-0.040,-0.040,-0.040,0.000,0.000,0.000
1644940828379846144,2022-02-15-16:00:28,10.1.1.11,20,-0.040,-0.040,-0.040,0.000,0.000,0.000
1644940829799810048,2022-02-15-16:00:29,10.1.1.11,15,-0.040,-0.040,-0.040,0.000,0.000,0.000
1644940830422137856,2022-02-15-16:00:30,10.1.1.11,16,-0.040,-0.040,-0.040,0.000,0.000,0.000
1644940831899712000,2022-02-15-16:00:31,10.1.1.11,24,-0.040,-0.040,-0.040,0.000,0.000,0.000
1644940832519365120,2022-02-15-16:00:32,10.1.1.11,19,-0.040,-0.040,-0.040,0.000,0.000,0.000
1644940833999170048,2022-02-15-16:00:33,10.1.1.11,19,-0.040,-0.040,-0.040,0.000,0.000,0.000
1644940834613006080,2022-02-15-16:00:34,10.1.1.11,10,-0.040,-0.040,-0.040,0.000,0.000,0.000
1644940836082333952,2022-02-15-16:00:36,10.1.1.11,6,-0.040,-0.040,-0.040,0.000,0.000,0.000
1644940836699863808,2022-02-15-16:00:36,10.1.1.11,15,-0.040,-0.040,-0.040,0.000,0.000,0.000
1644940838125039104,2022-02-15-16:00:38,10.1.1.11,4,-0.040,-0.040,-0.040,0.000,0.000,0.000
1644940838760161024,2022-02-15-16:00:38,10.1.1.11,20,-0.040,-0.040,-0.040,0.000,0.000,0.000
1644940840260355072,2022-02-15-16:00:40,10.1.1.11,12,-0.040,-0.040,-0.040,0.000,0.000,0.000
1644940840880099072,2022-02-15-16:00:40,10.1.1.11,23,-0.040,-0.040,-0.040,0.000,0.000,0.000
1644940842340699904,2022-02-15-16:00:42,10.1.1.11,27,-0.040,-0.040,-0.040,0.000,0.000,0.000
1644940842999644928,2022-02-15-16:00:42,10.1.1.11,21,-0.040,-0.040,-0.040,0.000,0.000,0.000
