FedericoMungari/DigitalTwin_service/01_WiredScenario/Output/Output_script/script_rosapi_2_output_robots8_freq0_3.txt
timestamp,date,node,latency,joint_1,joint_2,joint_3,joint_4,joint_5,joint_6
1643293142173007104,2022-01-27-14:19:02,10.1.1.4,39,-0.011,-0.011,-0.011,0.000,0.000,0.000
1643293142353181952,2022-01-27-14:19:02,10.1.1.4,18,-0.020,-0.020,-0.020,0.000,0.000,0.000
1643293142572890112,2022-01-27-14:19:02,10.1.1.4,38,-0.031,-0.031,-0.031,0.000,0.000,0.000
1643293142752898048,2022-01-27-14:19:02,10.1.1.4,17,-0.040,-0.040,-0.040,0.000,0.000,0.000
1643293142973152000,2022-01-27-14:19:02,10.1.1.4,37,-0.051,-0.051,-0.051,0.000,0.000,0.000
1643293143173113088,2022-01-27-14:19:03,10.1.1.4,35,-0.061,-0.061,-0.061,0.000,0.000,0.000
1643293143377641984,2022-01-27-14:19:03,10.1.1.4,35,-0.071,-0.071,-0.071,0.000,0.000,0.000
1643293143580073984,2022-01-27-14:19:03,10.1.1.4,41,-0.081,-0.081,-0.081,0.000,0.000,0.000
1643293143773356800,2022-01-27-14:19:03,10.1.1.4,33,-0.091,-0.091,-0.091,0.000,0.000,0.000
1643293143972893952,2022-01-27-14:19:03,10.1.1.4,32,-0.101,-0.101,-0.101,0.000,0.000,0.000
1643293144172964096,2022-01-27-14:19:04,10.1.1.4,32,-0.111,-0.111,-0.111,0.000,0.000,0.000
1643293144373163008,2022-01-27-14:19:04,10.1.1.4,31,-0.121,-0.121,-0.121,0.000,0.000,0.000
1643293144573414144,2022-01-27-14:19:04,10.1.1.4,29,-0.131,-0.131,-0.131,0.000,0.000,0.000
1643293144772877056,2022-01-27-14:19:04,10.1.1.4,28,-0.140,-0.140,-0.140,0.000,0.000,0.000
1643293144973602048,2022-01-27-14:19:04,10.1.1.4,27,-0.151,-0.151,-0.151,0.000,0.000,0.000
1643293145173265920,2022-01-27-14:19:05,10.1.1.4,26,-0.160,-0.160,-0.160,0.000,0.000,0.000
1643293145373171968,2022-01-27-14:19:05,10.1.1.4,26,-0.170,-0.170,-0.170,0.000,0.000,0.000
1643293145573786880,2022-01-27-14:19:05,10.1.1.4,26,-0.180,-0.180,-0.180,0.000,0.000,0.000
1643293145773804032,2022-01-27-14:19:05,10.1.1.4,25,-0.190,-0.190,-0.190,0.000,0.000,0.000
1643293145973149952,2022-01-27-14:19:05,10.1.1.4,24,-0.200,-0.200,-0.200,0.000,0.000,0.000
1643293146173036032,2022-01-27-14:19:06,10.1.1.4,23,-0.210,-0.210,-0.210,0.000,0.000,0.000
1643293146393132800,2022-01-27-14:19:06,10.1.1.4,41,-0.221,-0.221,-0.221,0.000,0.000,0.000
1643293146573310976,2022-01-27-14:19:06,10.1.1.4,20,-0.230,-0.230,-0.230,0.000,0.000,0.000
1643293146773154048,2022-01-27-14:19:06,10.1.1.4,19,-0.240,-0.240,-0.240,0.000,0.000,0.000
1643293146992957952,2022-01-27-14:19:06,10.1.1.4,39,-0.251,-0.251,-0.251,0.000,0.000,0.000
1643293147198342144,2022-01-27-14:19:07,10.1.1.4,43,-0.261,-0.261,-0.261,0.000,0.000,0.000
1643293147374542848,2022-01-27-14:19:07,10.1.1.4,19,-0.270,-0.270,-0.270,0.000,0.000,0.000
1643293147574450944,2022-01-27-14:19:07,10.1.1.4,18,-0.280,-0.280,-0.280,0.000,0.000,0.000
1643293147793607936,2022-01-27-14:19:07,10.1.1.4,37,-0.291,-0.291,-0.291,0.000,0.000,0.000
1643293147993082112,2022-01-27-14:19:07,10.1.1.4,36,-0.301,-0.301,-0.301,0.000,0.000,0.000
1643293148193718784,2022-01-27-14:19:08,10.1.1.4,35,-0.311,-0.311,-0.311,0.000,0.000,0.000
1643293148393399040,2022-01-27-14:19:08,10.1.1.4,35,-0.321,-0.321,-0.321,0.000,0.000,0.000
1643293148593442816,2022-01-27-14:19:08,10.1.1.4,34,-0.331,-0.331,-0.331,0.000,0.000,0.000
1643293148793538048,2022-01-27-14:19:08,10.1.1.4,34,-0.341,-0.341,-0.341,0.000,0.000,0.000
1643293148993600000,2022-01-27-14:19:08,10.1.1.4,33,-0.351,-0.351,-0.351,0.000,0.000,0.000
1643293149193483008,2022-01-27-14:19:09,10.1.1.4,33,-0.361,-0.361,-0.361,0.000,0.000,0.000
1643293149393348864,2022-01-27-14:19:09,10.1.1.4,32,-0.371,-0.371,-0.371,0.000,0.000,0.000
1643293149595532800,2022-01-27-14:19:09,10.1.1.4,33,-0.381,-0.381,-0.381,0.000,0.000,0.000
1643293149793518080,2022-01-27-14:19:09,10.1.1.4,30,-0.391,-0.391,-0.391,0.000,0.000,0.000
1643293150000763904,2022-01-27-14:19:09,10.1.1.4,35,-0.401,-0.401,-0.401,0.000,0.000,0.000
1643293150193356032,2022-01-27-14:19:10,10.1.1.4,28,-0.411,-0.411,-0.411,0.000,0.000,0.000
1643293150393680128,2022-01-27-14:19:10,10.1.1.4,28,-0.420,-0.420,-0.420,0.000,0.000,0.000
1643293150593459968,2022-01-27-14:19:10,10.1.1.4,27,-0.430,-0.430,-0.430,0.000,0.000,0.000
1643293150795727872,2022-01-27-14:19:10,10.1.1.4,27,-0.440,-0.440,-0.440,0.000,0.000,0.000
1643293150994426880,2022-01-27-14:19:10,10.1.1.4,25,-0.450,-0.450,-0.450,0.000,0.000,0.000
1643293151193574912,2022-01-27-14:19:11,10.1.1.4,24,-0.460,-0.460,-0.460,0.000,0.000,0.000
1643293151393449984,2022-01-27-14:19:11,10.1.1.4,22,-0.470,-0.470,-0.470,0.000,0.000,0.000
1643293151614008832,2022-01-27-14:19:11,10.1.1.4,42,-0.481,-0.481,-0.481,0.000,0.000,0.000
1643293151773919232,2022-01-27-14:19:11,10.1.1.4,1,-0.489,-0.489,-0.489,0.000,0.000,0.000
1643293152014791936,2022-01-27-14:19:12,10.1.1.4,41,-0.479,-0.479,-0.479,0.000,0.000,0.000
1643293152194853120,2022-01-27-14:19:12,10.1.1.4,20,-0.470,-0.470,-0.470,0.000,0.000,0.000
1643293152414980864,2022-01-27-14:19:12,10.1.1.4,35,-0.459,-0.459,-0.459,0.000,0.000,0.000
1643293152614299136,2022-01-27-14:19:12,10.1.1.4,34,-0.449,-0.449,-0.449,0.000,0.000,0.000
1643293152825102080,2022-01-27-14:19:12,10.1.1.4,44,-0.440,-0.440,-0.440,0.000,0.000,0.000
1643293153015256832,2022-01-27-14:19:13,10.1.1.4,32,-0.429,-0.429,-0.429,0.000,0.000,0.000
1643293153218977024,2022-01-27-14:19:13,10.1.1.4,35,-0.419,-0.419,-0.419,0.000,0.000,0.000
1643293153413611008,2022-01-27-14:19:13,10.1.1.4,29,-0.409,-0.409,-0.409,0.000,0.000,0.000
1643293153635092992,2022-01-27-14:19:13,10.1.1.4,37,-0.399,-0.399,-0.399,0.000,0.000,0.000
1643293153835748864,2022-01-27-14:19:13,10.1.1.4,37,-0.389,-0.389,-0.389,0.000,0.000,0.000
1643293154037672960,2022-01-27-14:19:14,10.1.1.4,38,-0.379,-0.379,-0.379,0.000,0.000,0.000
1643293154235091968,2022-01-27-14:19:14,10.1.1.4,35,-0.369,-0.369,-0.369,0.000,0.000,0.000
1643293154436570880,2022-01-27-14:19:14,10.1.1.4,36,-0.359,-0.359,-0.359,0.000,0.000,0.000
1643293154635385088,2022-01-27-14:19:14,10.1.1.4,34,-0.349,-0.349,-0.349,0.000,0.000,0.000
1643293154835428096,2022-01-27-14:19:14,10.1.1.4,34,-0.339,-0.339,-0.339,0.000,0.000,0.000
1643293155035404032,2022-01-27-14:19:15,10.1.1.4,33,-0.329,-0.329,-0.329,0.000,0.000,0.000
1643293155233705984,2022-01-27-14:19:15,10.1.1.4,31,-0.319,-0.319,-0.319,0.000,0.000,0.000
1643293155433190144,2022-01-27-14:19:15,10.1.1.4,30,-0.309,-0.309,-0.309,0.000,0.000,0.000
1643293155634721024,2022-01-27-14:19:15,10.1.1.4,31,-0.299,-0.299,-0.299,0.000,0.000,0.000
1643293155833107968,2022-01-27-14:19:15,10.1.1.4,28,-0.289,-0.289,-0.289,0.000,0.000,0.000
1643293156033879040,2022-01-27-14:19:16,10.1.1.4,28,-0.279,-0.279,-0.279,0.000,0.000,0.000
1643293156233829888,2022-01-27-14:19:16,10.1.1.4,28,-0.270,-0.270,-0.270,0.000,0.000,0.000
1643293156433534976,2022-01-27-14:19:16,10.1.1.4,27,-0.260,-0.260,-0.260,0.000,0.000,0.000
1643293156633548032,2022-01-27-14:19:16,10.1.1.4,25,-0.250,-0.250,-0.250,0.000,0.000,0.000
1643293156833734144,2022-01-27-14:19:16,10.1.1.4,24,-0.240,-0.240,-0.240,0.000,0.000,0.000
1643293157034272000,2022-01-27-14:19:17,10.1.1.4,23,-0.230,-0.230,-0.230,0.000,0.000,0.000
1643293157253766144,2022-01-27-14:19:17,10.1.1.4,43,-0.219,-0.219,-0.219,0.000,0.000,0.000
1643293157453649920,2022-01-27-14:19:17,10.1.1.4,40,-0.209,-0.209,-0.209,0.000,0.000,0.000
1643293157653758976,2022-01-27-14:19:17,10.1.1.4,38,-0.199,-0.199,-0.199,0.000,0.000,0.000
1643293157853512960,2022-01-27-14:19:17,10.1.1.4,30,-0.190,-0.190,-0.190,0.000,0.000,0.000
1643293158053085952,2022-01-27-14:19:18,10.1.1.4,28,-0.179,-0.179,-0.179,0.000,0.000,0.000
1643293158253499904,2022-01-27-14:19:18,10.1.1.4,28,-0.170,-0.170,-0.170,0.000,0.000,0.000
1643293158452939008,2022-01-27-14:19:18,10.1.1.4,26,-0.160,-0.160,-0.160,0.000,0.000,0.000
1643293158653146112,2022-01-27-14:19:18,10.1.1.4,26,-0.150,-0.150,-0.150,0.000,0.000,0.000
1643293158853261056,2022-01-27-14:19:18,10.1.1.4,26,-0.140,-0.140,-0.140,0.000,0.000,0.000
1643293159055158016,2022-01-27-14:19:19,10.1.1.4,27,-0.130,-0.130,-0.130,0.000,0.000,0.000
1643293159253124864,2022-01-27-14:19:19,10.1.1.4,24,-0.120,-0.120,-0.120,0.000,0.000,0.000
1643293159453370112,2022-01-27-14:19:19,10.1.1.4,24,-0.110,-0.110,-0.110,0.000,0.000,0.000
1643293159653086976,2022-01-27-14:19:19,10.1.1.4,22,-0.100,-0.100,-0.100,0.000,0.000,0.000
1643293159853223936,2022-01-27-14:19:19,10.1.1.4,21,-0.090,-0.090,-0.090,0.000,0.000,0.000
1643293160053321984,2022-01-27-14:19:20,10.1.1.4,20,-0.080,-0.080,-0.080,0.000,0.000,0.000
1643293160253124864,2022-01-27-14:19:20,10.1.1.4,19,-0.070,-0.070,-0.070,0.000,0.000,0.000
1643293160474678016,2022-01-27-14:19:20,10.1.1.4,37,-0.059,-0.059,-0.059,0.000,0.000,0.000
1643293160673428992,2022-01-27-14:19:20,10.1.1.4,36,-0.049,-0.049,-0.049,0.000,0.000,0.000
1643293160874586112,2022-01-27-14:19:20,10.1.1.4,36,-0.039,-0.039,-0.039,0.000,0.000,0.000
1643293161073359872,2022-01-27-14:19:21,10.1.1.4,34,-0.029,-0.029,-0.029,0.000,0.000,0.000
1643293161273598976,2022-01-27-14:19:21,10.1.1.4,34,-0.019,-0.019,-0.019,0.000,0.000,0.000
1643293161473083136,2022-01-27-14:19:21,10.1.1.4,32,-0.009,-0.009,-0.009,0.000,0.000,0.000
1643293161653312000,2022-01-27-14:19:21,10.1.1.4,12,-0.000,-0.000,-0.000,0.000,0.000,0.000
1643293161873457920,2022-01-27-14:19:21,10.1.1.4,32,-0.011,-0.011,-0.011,0.000,0.000,0.000
1643293162078566912,2022-01-27-14:19:22,10.1.1.4,37,-0.021,-0.021,-0.021,0.000,0.000,0.000
1643293162276058880,2022-01-27-14:19:22,10.1.1.4,31,-0.031,-0.031,-0.031,0.000,0.000,0.000
1643293162473716992,2022-01-27-14:19:22,10.1.1.4,30,-0.041,-0.041,-0.041,0.000,0.000,0.000
1643293162674798848,2022-01-27-14:19:22,10.1.1.4,28,-0.051,-0.051,-0.051,0.000,0.000,0.000
1643293162873353984,2022-01-27-14:19:22,10.1.1.4,26,-0.060,-0.060,-0.060,0.000,0.000,0.000
1643293163073592832,2022-01-27-14:19:23,10.1.1.4,24,-0.070,-0.070,-0.070,0.000,0.000,0.000
1643293163273686016,2022-01-27-14:19:23,10.1.1.4,23,-0.080,-0.080,-0.080,0.000,0.000,0.000
1643293163473303040,2022-01-27-14:19:23,10.1.1.4,22,-0.090,-0.090,-0.090,0.000,0.000,0.000
1643293163673639168,2022-01-27-14:19:23,10.1.1.4,20,-0.100,-0.100,-0.100,0.000,0.000,0.000
1643293163893684992,2022-01-27-14:19:23,10.1.1.4,19,-0.110,-0.110,-0.110,0.000,0.000,0.000
1643293164093640192,2022-01-27-14:19:24,10.1.1.4,18,-0.120,-0.120,-0.120,0.000,0.000,0.000
1643293164296312064,2022-01-27-14:19:24,10.1.1.4,20,-0.130,-0.130,-0.130,0.000,0.000,0.000
1643293164513718016,2022-01-27-14:19:24,10.1.1.4,37,-0.141,-0.141,-0.141,0.000,0.000,0.000
1643293164714551808,2022-01-27-14:19:24,10.1.1.4,37,-0.151,-0.151,-0.151,0.000,0.000,0.000
1643293164914479104,2022-01-27-14:19:24,10.1.1.4,37,-0.161,-0.161,-0.161,0.000,0.000,0.000
1643293165114060032,2022-01-27-14:19:25,10.1.1.4,36,-0.171,-0.171,-0.171,0.000,0.000,0.000
1643293165313057792,2022-01-27-14:19:25,10.1.1.4,34,-0.181,-0.181,-0.181,0.000,0.000,0.000
1643293165513403904,2022-01-27-14:19:25,10.1.1.4,34,-0.191,-0.191,-0.191,0.000,0.000,0.000
1643293165716000000,2022-01-27-14:19:25,10.1.1.4,36,-0.201,-0.201,-0.201,0.000,0.000,0.000
1643293165913382912,2022-01-27-14:19:25,10.1.1.4,32,-0.211,-0.211,-0.211,0.000,0.000,0.000
1643293166115777024,2022-01-27-14:19:26,10.1.1.4,34,-0.221,-0.221,-0.221,0.000,0.000,0.000
1643293166313216000,2022-01-27-14:19:26,10.1.1.4,30,-0.231,-0.231,-0.231,0.000,0.000,0.000
1643293166516929024,2022-01-27-14:19:26,10.1.1.4,33,-0.241,-0.241,-0.241,0.000,0.000,0.000
1643293166713491968,2022-01-27-14:19:26,10.1.1.4,27,-0.250,-0.250,-0.250,0.000,0.000,0.000
1643293166913705984,2022-01-27-14:19:26,10.1.1.4,26,-0.260,-0.260,-0.260,0.000,0.000,0.000
1643293167113388032,2022-01-27-14:19:27,10.1.1.4,25,-0.270,-0.270,-0.270,0.000,0.000,0.000
1643293167313299968,2022-01-27-14:19:27,10.1.1.4,24,-0.280,-0.280,-0.280,0.000,0.000,0.000
1643293167513634816,2022-01-27-14:19:27,10.1.1.4,24,-0.290,-0.290,-0.290,0.000,0.000,0.000
1643293167713176064,2022-01-27-14:19:27,10.1.1.4,23,-0.300,-0.300,-0.300,0.000,0.000,0.000
1643293167935450112,2022-01-27-14:19:27,10.1.1.4,43,-0.311,-0.311,-0.311,0.000,0.000,0.000
1643293168113764096,2022-01-27-14:19:28,10.1.1.4,21,-0.320,-0.320,-0.320,0.000,0.000,0.000
1643293168313409024,2022-01-27-14:19:28,10.1.1.4,20,-0.330,-0.330,-0.330,0.000,0.000,0.000
1643293168535245824,2022-01-27-14:19:28,10.1.1.4,41,-0.341,-0.341,-0.341,0.000,0.000,0.000
1643293168733278976,2022-01-27-14:19:28,10.1.1.4,37,-0.351,-0.351,-0.351,0.000,0.000,0.000
1643293168934721024,2022-01-27-14:19:28,10.1.1.4,38,-0.361,-0.361,-0.361,0.000,0.000,0.000
1643293169133544960,2022-01-27-14:19:29,10.1.1.4,36,-0.371,-0.371,-0.371,0.000,0.000,0.000
1643293169334295040,2022-01-27-14:19:29,10.1.1.4,36,-0.381,-0.381,-0.381,0.000,0.000,0.000
1643293169533651200,2022-01-27-14:19:29,10.1.1.4,35,-0.391,-0.391,-0.391,0.000,0.000,0.000
1643293169733614848,2022-01-27-14:19:29,10.1.1.4,33,-0.401,-0.401,-0.401,0.000,0.000,0.000
1643293169933998080,2022-01-27-14:19:29,10.1.1.4,31,-0.411,-0.411,-0.411,0.000,0.000,0.000
1643293170146048000,2022-01-27-14:19:30,10.1.1.4,41,-0.420,-0.420,-0.420,0.000,0.000,0.000
1643293170334057984,2022-01-27-14:19:30,10.1.1.4,27,-0.430,-0.430,-0.430,0.000,0.000,0.000
1643293170539369216,2022-01-27-14:19:30,10.1.1.4,32,-0.440,-0.440,-0.440,0.000,0.000,0.000
1643293170733874944,2022-01-27-14:19:30,10.1.1.4,26,-0.450,-0.450,-0.450,0.000,0.000,0.000
1643293170933676032,2022-01-27-14:19:30,10.1.1.4,26,-0.460,-0.460,-0.460,0.000,0.000,0.000
1643293171133620992,2022-01-27-14:19:31,10.1.1.4,25,-0.470,-0.470,-0.470,0.000,0.000,0.000
1643293171333921792,2022-01-27-14:19:31,10.1.1.4,20,-0.480,-0.480,-0.480,0.000,0.000,0.000
1643293171553025024,2022-01-27-14:19:31,10.1.1.4,39,-0.489,-0.489,-0.489,0.000,0.000,0.000
1643293171734010880,2022-01-27-14:19:31,10.1.1.4,19,-0.480,-0.480,-0.480,0.000,0.000,0.000
1643293171954049024,2022-01-27-14:19:31,10.1.1.4,35,-0.469,-0.469,-0.469,0.000,0.000,0.000
1643293172153574912,2022-01-27-14:19:32,10.1.1.4,34,-0.459,-0.459,-0.459,0.000,0.000,0.000
1643293172353522944,2022-01-27-14:19:32,10.1.1.4,33,-0.449,-0.449,-0.449,0.000,0.000,0.000
1643293172553821952,2022-01-27-14:19:32,10.1.1.4,32,-0.439,-0.439,-0.439,0.000,0.000,0.000
1643293172754231808,2022-01-27-14:19:32,10.1.1.4,32,-0.429,-0.429,-0.429,0.000,0.000,0.000
1643293172955110144,2022-01-27-14:19:32,10.1.1.4,26,-0.420,-0.420,-0.420,0.000,0.000,0.000
1643293173153288960,2022-01-27-14:19:33,10.1.1.4,22,-0.410,-0.410,-0.410,0.000,0.000,0.000
1643293173353164032,2022-01-27-14:19:33,10.1.1.4,21,-0.400,-0.400,-0.400,0.000,0.000,0.000
1643293173573817856,2022-01-27-14:19:33,10.1.1.4,39,-0.389,-0.389,-0.389,0.000,0.000,0.000
1643293173753132032,2022-01-27-14:19:33,10.1.1.4,17,-0.380,-0.380,-0.380,0.000,0.000,0.000
1643293173973453056,2022-01-27-14:19:33,10.1.1.4,36,-0.369,-0.369,-0.369,0.000,0.000,0.000
1643293174173463040,2022-01-27-14:19:34,10.1.1.4,35,-0.359,-0.359,-0.359,0.000,0.000,0.000
1643293174373918976,2022-01-27-14:19:34,10.1.1.4,35,-0.349,-0.349,-0.349,0.000,0.000,0.000
1643293174574142976,2022-01-27-14:19:34,10.1.1.4,34,-0.339,-0.339,-0.339,0.000,0.000,0.000
1643293174773318912,2022-01-27-14:19:34,10.1.1.4,32,-0.329,-0.329,-0.329,0.000,0.000,0.000
1643293174973926912,2022-01-27-14:19:34,10.1.1.4,32,-0.319,-0.319,-0.319,0.000,0.000,0.000
1643293175173348864,2022-01-27-14:19:35,10.1.1.4,30,-0.309,-0.309,-0.309,0.000,0.000,0.000
1643293175373296896,2022-01-27-14:19:35,10.1.1.4,29,-0.299,-0.299,-0.299,0.000,0.000,0.000
1643293175573652992,2022-01-27-14:19:35,10.1.1.4,27,-0.290,-0.290,-0.290,0.000,0.000,0.000
1643293175773317120,2022-01-27-14:19:35,10.1.1.4,27,-0.280,-0.280,-0.280,0.000,0.000,0.000
1643293175973556992,2022-01-27-14:19:35,10.1.1.4,26,-0.270,-0.270,-0.270,0.000,0.000,0.000
1643293176176157952,2022-01-27-14:19:36,10.1.1.4,26,-0.260,-0.260,-0.260,0.000,0.000,0.000
1643293176373278976,2022-01-27-14:19:36,10.1.1.4,23,-0.250,-0.250,-0.250,0.000,0.000,0.000
1643293176573379072,2022-01-27-14:19:36,10.1.1.4,22,-0.240,-0.240,-0.240,0.000,0.000,0.000
1643293176773203968,2022-01-27-14:19:36,10.1.1.4,21,-0.230,-0.230,-0.230,0.000,0.000,0.000
1643293176973301760,2022-01-27-14:19:36,10.1.1.4,21,-0.220,-0.220,-0.220,0.000,0.000,0.000
1643293177173872896,2022-01-27-14:19:37,10.1.1.4,21,-0.210,-0.210,-0.210,0.000,0.000,0.000
1643293177392973056,2022-01-27-14:19:37,10.1.1.4,39,-0.199,-0.199,-0.199,0.000,0.000,0.000
1643293177593082880,2022-01-27-14:19:37,10.1.1.4,39,-0.189,-0.189,-0.189,0.000,0.000,0.000
1643293177793557760,2022-01-27-14:19:37,10.1.1.4,38,-0.179,-0.179,-0.179,0.000,0.000,0.000
1643293177993341952,2022-01-27-14:19:37,10.1.1.4,37,-0.169,-0.169,-0.169,0.000,0.000,0.000
1643293178193059072,2022-01-27-14:19:38,10.1.1.4,36,-0.159,-0.159,-0.159,0.000,0.000,0.000
1643293178398395136,2022-01-27-14:19:38,10.1.1.4,40,-0.149,-0.149,-0.149,0.000,0.000,0.000
1643293178593217024,2022-01-27-14:19:38,10.1.1.4,35,-0.139,-0.139,-0.139,0.000,0.000,0.000
1643293178793282048,2022-01-27-14:19:38,10.1.1.4,35,-0.129,-0.129,-0.129,0.000,0.000,0.000
1643293178993593856,2022-01-27-14:19:38,10.1.1.4,35,-0.119,-0.119,-0.119,0.000,0.000,0.000
1643293179193332992,2022-01-27-14:19:39,10.1.1.4,34,-0.109,-0.109,-0.109,0.000,0.000,0.000
1643293179393228032,2022-01-27-14:19:39,10.1.1.4,33,-0.099,-0.099,-0.099,0.000,0.000,0.000
1643293179593669888,2022-01-27-14:19:39,10.1.1.4,32,-0.089,-0.089,-0.089,0.000,0.000,0.000
1643293179793547008,2022-01-27-14:19:39,10.1.1.4,31,-0.079,-0.079,-0.079,0.000,0.000,0.000
1643293179993534976,2022-01-27-14:19:39,10.1.1.4,31,-0.069,-0.069,-0.069,0.000,0.000,0.000
1643293180193507840,2022-01-27-14:19:40,10.1.1.4,30,-0.059,-0.059,-0.059,0.000,0.000,0.000
1643293180393521920,2022-01-27-14:19:40,10.1.1.4,30,-0.049,-0.049,-0.049,0.000,0.000,0.000
1643293180593220864,2022-01-27-14:19:40,10.1.1.4,29,-0.039,-0.039,-0.039,0.000,0.000,0.000
1643293180793474048,2022-01-27-14:19:40,10.1.1.4,29,-0.030,-0.030,-0.030,0.000,0.000,0.000
1643293180993569024,2022-01-27-14:19:40,10.1.1.4,28,-0.019,-0.019,-0.019,0.000,0.000,0.000
1643293181194878976,2022-01-27-14:19:41,10.1.1.4,28,-0.010,-0.010,-0.010,0.000,0.000,0.000
1643293181373324032,2022-01-27-14:19:41,10.1.1.4,6,-0.001,-0.001,-0.001,0.000,0.000,0.000
1643293181593071872,2022-01-27-14:19:41,10.1.1.4,26,-0.010,-0.010,-0.010,0.000,0.000,0.000
1643293181793906944,2022-01-27-14:19:41,10.1.1.4,24,-0.020,-0.020,-0.020,0.000,0.000,0.000
1643293181993349120,2022-01-27-14:19:41,10.1.1.4,22,-0.030,-0.030,-0.030,0.000,0.000,0.000
1643293182193655040,2022-01-27-14:19:42,10.1.1.4,22,-0.040,-0.040,-0.040,0.000,0.000,0.000
1643293182413896960,2022-01-27-14:19:42,10.1.1.4,41,-0.051,-0.051,-0.051,0.000,0.000,0.000
1643293182593949184,2022-01-27-14:19:42,10.1.1.4,21,-0.060,-0.060,-0.060,0.000,0.000,0.000
1643293182793725952,2022-01-27-14:19:42,10.1.1.4,20,-0.070,-0.070,-0.070,0.000,0.000,0.000
1643293182993616128,2022-01-27-14:19:42,10.1.1.4,19,-0.080,-0.080,-0.080,0.000,0.000,0.000
1643293183193517824,2022-01-27-14:19:43,10.1.1.4,18,-0.090,-0.090,-0.090,0.000,0.000,0.000
1643293183393250816,2022-01-27-14:19:43,10.1.1.4,18,-0.100,-0.100,-0.100,0.000,0.000,0.000
1643293183613751808,2022-01-27-14:19:43,10.1.1.4,38,-0.110,-0.110,-0.110,0.000,0.000,0.000
1643293183796855808,2022-01-27-14:19:43,10.1.1.4,19,-0.120,-0.120,-0.120,0.000,0.000,0.000
1643293184013763840,2022-01-27-14:19:44,10.1.1.4,36,-0.131,-0.131,-0.131,0.000,0.000,0.000
1643293184213940992,2022-01-27-14:19:44,10.1.1.4,35,-0.141,-0.141,-0.141,0.000,0.000,0.000
1643293184413381120,2022-01-27-14:19:44,10.1.1.4,34,-0.151,-0.151,-0.151,0.000,0.000,0.000
1643293184614819072,2022-01-27-14:19:44,10.1.1.4,34,-0.161,-0.161,-0.161,0.000,0.000,0.000
1643293184813574912,2022-01-27-14:19:44,10.1.1.4,33,-0.171,-0.171,-0.171,0.000,0.000,0.000
1643293185014044160,2022-01-27-14:19:45,10.1.1.4,33,-0.181,-0.181,-0.181,0.000,0.000,0.000
1643293185213777152,2022-01-27-14:19:45,10.1.1.4,32,-0.191,-0.191,-0.191,0.000,0.000,0.000
1643293185413672960,2022-01-27-14:19:45,10.1.1.4,31,-0.201,-0.201,-0.201,0.000,0.000,0.000
1643293185614242048,2022-01-27-14:19:45,10.1.1.4,30,-0.210,-0.210,-0.210,0.000,0.000,0.000
1643293185813684992,2022-01-27-14:19:45,10.1.1.4,28,-0.220,-0.220,-0.220,0.000,0.000,0.000
1643293186013905920,2022-01-27-14:19:46,10.1.1.4,27,-0.230,-0.230,-0.230,0.000,0.000,0.000
1643293186213361920,2022-01-27-14:19:46,10.1.1.4,25,-0.240,-0.240,-0.240,0.000,0.000,0.000
1643293186413867008,2022-01-27-14:19:46,10.1.1.4,25,-0.250,-0.250,-0.250,0.000,0.000,0.000
1643293186613814016,2022-01-27-14:19:46,10.1.1.4,24,-0.260,-0.260,-0.260,0.000,0.000,0.000
1643293186813676032,2022-01-27-14:19:46,10.1.1.4,24,-0.270,-0.270,-0.270,0.000,0.000,0.000
1643293187014609152,2022-01-27-14:19:47,10.1.1.4,24,-0.280,-0.280,-0.280,0.000,0.000,0.000
1643293187213414912,2022-01-27-14:19:47,10.1.1.4,22,-0.290,-0.290,-0.290,0.000,0.000,0.000
1643293187413427968,2022-01-27-14:19:47,10.1.1.4,22,-0.300,-0.300,-0.300,0.000,0.000,0.000
1643293187614478080,2022-01-27-14:19:47,10.1.1.4,22,-0.310,-0.310,-0.310,0.000,0.000,0.000
1643293187834609920,2022-01-27-14:19:47,10.1.1.4,42,-0.321,-0.321,-0.321,0.000,0.000,0.000
1643293188013811968,2022-01-27-14:19:48,10.1.1.4,20,-0.330,-0.330,-0.330,0.000,0.000,0.000
1643293188235431936,2022-01-27-14:19:48,10.1.1.4,40,-0.341,-0.341,-0.341,0.000,0.000,0.000
1643293188434993152,2022-01-27-14:19:48,10.1.1.4,40,-0.351,-0.351,-0.351,0.000,0.000,0.000
1643293188614710016,2022-01-27-14:19:48,10.1.1.4,18,-0.360,-0.360,-0.360,0.000,0.000,0.000
1643293188833648896,2022-01-27-14:19:48,10.1.1.4,36,-0.371,-0.371,-0.371,0.000,0.000,0.000
1643293189034188032,2022-01-27-14:19:49,10.1.1.4,36,-0.381,-0.381,-0.381,0.000,0.000,0.000
1643293189233771008,2022-01-27-14:19:49,10.1.1.4,36,-0.391,-0.391,-0.391,0.000,0.000,0.000
1643293189433554944,2022-01-27-14:19:49,10.1.1.4,35,-0.401,-0.401,-0.401,0.000,0.000,0.000
1643293189633934848,2022-01-27-14:19:49,10.1.1.4,35,-0.411,-0.411,-0.411,0.000,0.000,0.000
1643293189833555968,2022-01-27-14:19:49,10.1.1.4,33,-0.421,-0.421,-0.421,0.000,0.000,0.000
1643293190033976064,2022-01-27-14:19:50,10.1.1.4,33,-0.431,-0.431,-0.431,0.000,0.000,0.000
1643293190233836800,2022-01-27-14:19:50,10.1.1.4,32,-0.441,-0.441,-0.441,0.000,0.000,0.000
1643293190435060992,2022-01-27-14:19:50,10.1.1.4,33,-0.451,-0.451,-0.451,0.000,0.000,0.000
1643293190635299072,2022-01-27-14:19:50,10.1.1.4,32,-0.461,-0.461,-0.461,0.000,0.000,0.000
1643293190835845120,2022-01-27-14:19:50,10.1.1.4,30,-0.471,-0.471,-0.471,0.000,0.000,0.000
1643293191033901056,2022-01-27-14:19:51,10.1.1.4,29,-0.481,-0.481,-0.481,0.000,0.000,0.000
1643293191213378816,2022-01-27-14:19:51,10.1.1.4,8,-0.490,-0.490,-0.490,0.000,0.000,0.000
1643293191433367040,2022-01-27-14:19:51,10.1.1.4,28,-0.480,-0.480,-0.480,0.000,0.000,0.000
1643293191633917184,2022-01-27-14:19:51,10.1.1.4,27,-0.470,-0.470,-0.470,0.000,0.000,0.000
1643293191833545984,2022-01-27-14:19:51,10.1.1.4,26,-0.460,-0.460,-0.460,0.000,0.000,0.000
1643293192034234112,2022-01-27-14:19:52,10.1.1.4,26,-0.450,-0.450,-0.450,0.000,0.000,0.000
1643293192234724096,2022-01-27-14:19:52,10.1.1.4,26,-0.440,-0.440,-0.440,0.000,0.000,0.000
1643293192434657024,2022-01-27-14:19:52,10.1.1.4,25,-0.430,-0.430,-0.430,0.000,0.000,0.000
1643293192634078976,2022-01-27-14:19:52,10.1.1.4,24,-0.420,-0.420,-0.420,0.000,0.000,0.000
1643293192834688000,2022-01-27-14:19:52,10.1.1.4,24,-0.410,-0.410,-0.410,0.000,0.000,0.000
1643293193033714176,2022-01-27-14:19:53,10.1.1.4,23,-0.400,-0.400,-0.400,0.000,0.000,0.000
1643293193233835008,2022-01-27-14:19:53,10.1.1.4,22,-0.390,-0.390,-0.390,0.000,0.000,0.000
1643293193433552896,2022-01-27-14:19:53,10.1.1.4,21,-0.380,-0.380,-0.380,0.000,0.000,0.000
1643293193633254144,2022-01-27-14:19:53,10.1.1.4,19,-0.370,-0.370,-0.370,0.000,0.000,0.000
1643293193833647104,2022-01-27-14:19:53,10.1.1.4,19,-0.360,-0.360,-0.360,0.000,0.000,0.000
1643293194053335040,2022-01-27-14:19:54,10.1.1.4,38,-0.349,-0.349,-0.349,0.000,0.000,0.000
1643293194253846016,2022-01-27-14:19:54,10.1.1.4,38,-0.339,-0.339,-0.339,0.000,0.000,0.000
1643293194457058816,2022-01-27-14:19:54,10.1.1.4,40,-0.329,-0.329,-0.329,0.000,0.000,0.000
1643293194653476096,2022-01-27-14:19:54,10.1.1.4,36,-0.319,-0.319,-0.319,0.000,0.000,0.000
1643293194853782016,2022-01-27-14:19:54,10.1.1.4,35,-0.309,-0.309,-0.309,0.000,0.000,0.000
1643293195057574144,2022-01-27-14:19:55,10.1.1.4,38,-0.299,-0.299,-0.299,0.000,0.000,0.000
1643293195253451008,2022-01-27-14:19:55,10.1.1.4,33,-0.289,-0.289,-0.289,0.000,0.000,0.000
1643293195453126912,2022-01-27-14:19:55,10.1.1.4,32,-0.279,-0.279,-0.279,0.000,0.000,0.000
1643293195653372160,2022-01-27-14:19:55,10.1.1.4,31,-0.269,-0.269,-0.269,0.000,0.000,0.000
1643293195853334784,2022-01-27-14:19:55,10.1.1.4,31,-0.259,-0.259,-0.259,0.000,0.000,0.000
1643293196053467136,2022-01-27-14:19:56,10.1.1.4,30,-0.249,-0.249,-0.249,0.000,0.000,0.000
1643293196253735168,2022-01-27-14:19:56,10.1.1.4,30,-0.239,-0.239,-0.239,0.000,0.000,0.000
1643293196454088960,2022-01-27-14:19:56,10.1.1.4,28,-0.230,-0.230,-0.230,0.000,0.000,0.000
1643293196654118144,2022-01-27-14:19:56,10.1.1.4,27,-0.220,-0.220,-0.220,0.000,0.000,0.000
1643293196857688832,2022-01-27-14:19:56,10.1.1.4,28,-0.210,-0.210,-0.210,0.000,0.000,0.000
1643293197053390080,2022-01-27-14:19:57,10.1.1.4,23,-0.200,-0.200,-0.200,0.000,0.000,0.000
1643293197257150976,2022-01-27-14:19:57,10.1.1.4,26,-0.190,-0.190,-0.190,0.000,0.000,0.000
1643293197453600000,2022-01-27-14:19:57,10.1.1.4,21,-0.180,-0.180,-0.180,0.000,0.000,0.000
1643293197675468800,2022-01-27-14:19:57,10.1.1.4,41,-0.169,-0.169,-0.169,0.000,0.000,0.000
1643293197854224896,2022-01-27-14:19:57,10.1.1.4,19,-0.160,-0.160,-0.160,0.000,0.000,0.000
1643293198073178880,2022-01-27-14:19:58,10.1.1.4,37,-0.149,-0.149,-0.149,0.000,0.000,0.000
1643293198273647104,2022-01-27-14:19:58,10.1.1.4,37,-0.139,-0.139,-0.139,0.000,0.000,0.000
1643293198473328128,2022-01-27-14:19:58,10.1.1.4,36,-0.129,-0.129,-0.129,0.000,0.000,0.000
1643293198673762048,2022-01-27-14:19:58,10.1.1.4,36,-0.119,-0.119,-0.119,0.000,0.000,0.000
1643293198873892096,2022-01-27-14:19:58,10.1.1.4,35,-0.109,-0.109,-0.109,0.000,0.000,0.000
1643293199073733120,2022-01-27-14:19:59,10.1.1.4,33,-0.099,-0.099,-0.099,0.000,0.000,0.000
1643293199273183232,2022-01-27-14:19:59,10.1.1.4,32,-0.089,-0.089,-0.089,0.000,0.000,0.000
1643293199473897984,2022-01-27-14:19:59,10.1.1.4,32,-0.079,-0.079,-0.079,0.000,0.000,0.000
1643293199679414016,2022-01-27-14:19:59,10.1.1.4,36,-0.070,-0.070,-0.070,0.000,0.000,0.000
1643293199873449984,2022-01-27-14:19:59,10.1.1.4,29,-0.059,-0.059,-0.059,0.000,0.000,0.000
1643293200073949184,2022-01-27-14:20:00,10.1.1.4,29,-0.049,-0.049,-0.049,0.000,0.000,0.000
1643293200273843968,2022-01-27-14:20:00,10.1.1.4,28,-0.040,-0.040,-0.040,0.000,0.000,0.000
1643293200473591040,2022-01-27-14:20:00,10.1.1.4,27,-0.030,-0.030,-0.030,0.000,0.000,0.000
1643293200673377024,2022-01-27-14:20:00,10.1.1.4,26,-0.020,-0.020,-0.020,0.000,0.000,0.000
1643293200874120960,2022-01-27-14:20:00,10.1.1.4,26,-0.010,-0.010,-0.010,0.000,0.000,0.000
1643293201057008896,2022-01-27-14:20:01,10.1.1.4,8,-0.001,-0.001,-0.001,0.000,0.000,0.000
1643293201273803008,2022-01-27-14:20:01,10.1.1.4,24,-0.010,-0.010,-0.010,0.000,0.000,0.000
1643293201473458176,2022-01-27-14:20:01,10.1.1.4,23,-0.020,-0.020,-0.020,0.000,0.000,0.000
1643293201673922048,2022-01-27-14:20:01,10.1.1.4,22,-0.030,-0.030,-0.030,0.000,0.000,0.000
1643293201873958144,2022-01-27-14:20:01,10.1.1.4,22,-0.040,-0.040,-0.040,0.000,0.000,0.000
1643293202093447936,2022-01-27-14:20:02,10.1.1.4,40,-0.051,-0.051,-0.051,0.000,0.000,0.000
1643293202273427968,2022-01-27-14:20:02,10.1.1.4,19,-0.060,-0.060,-0.060,0.000,0.000,0.000
1643293202473937920,2022-01-27-14:20:02,10.1.1.4,19,-0.070,-0.070,-0.070,0.000,0.000,0.000
1643293202674822144,2022-01-27-14:20:02,10.1.1.4,19,-0.080,-0.080,-0.080,0.000,0.000,0.000
1643293202873574144,2022-01-27-14:20:02,10.1.1.4,17,-0.090,-0.090,-0.090,0.000,0.000,0.000
1643293203093811968,2022-01-27-14:20:03,10.1.1.4,37,-0.101,-0.101,-0.101,0.000,0.000,0.000
1643293203293912832,2022-01-27-14:20:03,10.1.1.4,36,-0.111,-0.111,-0.111,0.000,0.000,0.000
1643293203493550080,2022-01-27-14:20:03,10.1.1.4,35,-0.121,-0.121,-0.121,0.000,0.000,0.000
1643293203694526976,2022-01-27-14:20:03,10.1.1.4,34,-0.131,-0.131,-0.131,0.000,0.000,0.000
1643293203895590144,2022-01-27-14:20:03,10.1.1.4,35,-0.141,-0.141,-0.141,0.000,0.000,0.000
1643293204093505024,2022-01-27-14:20:04,10.1.1.4,33,-0.151,-0.151,-0.151,0.000,0.000,0.000
1643293204293812992,2022-01-27-14:20:04,10.1.1.4,32,-0.161,-0.161,-0.161,0.000,0.000,0.000
1643293204494426112,2022-01-27-14:20:04,10.1.1.4,32,-0.171,-0.171,-0.171,0.000,0.000,0.000
1643293204694038016,2022-01-27-14:20:04,10.1.1.4,30,-0.181,-0.181,-0.181,0.000,0.000,0.000
1643293204893510144,2022-01-27-14:20:04,10.1.1.4,29,-0.191,-0.191,-0.191,0.000,0.000,0.000
1643293205093807872,2022-01-27-14:20:05,10.1.1.4,28,-0.201,-0.201,-0.201,0.000,0.000,0.000
1643293205294907136,2022-01-27-14:20:05,10.1.1.4,28,-0.210,-0.210,-0.210,0.000,0.000,0.000
1643293205493697792,2022-01-27-14:20:05,10.1.1.4,27,-0.220,-0.220,-0.220,0.000,0.000,0.000
1643293205693905152,2022-01-27-14:20:05,10.1.1.4,26,-0.230,-0.230,-0.230,0.000,0.000,0.000
1643293205893585920,2022-01-27-14:20:05,10.1.1.4,25,-0.240,-0.240,-0.240,0.000,0.000,0.000
1643293206094487040,2022-01-27-14:20:06,10.1.1.4,26,-0.250,-0.250,-0.250,0.000,0.000,0.000
1643293206293404928,2022-01-27-14:20:06,10.1.1.4,24,-0.260,-0.260,-0.260,0.000,0.000,0.000
1643293206493362944,2022-01-27-14:20:06,10.1.1.4,23,-0.270,-0.270,-0.270,0.000,0.000,0.000
1643293206719085056,2022-01-27-14:20:06,10.1.1.4,45,-0.281,-0.281,-0.281,0.000,0.000,0.000
1643293206916171008,2022-01-27-14:20:06,10.1.1.4,41,-0.291,-0.291,-0.291,0.000,0.000,0.000
1643293207093873920,2022-01-27-14:20:07,10.1.1.4,18,-0.300,-0.300,-0.300,0.000,0.000,0.000
1643293207314696960,2022-01-27-14:20:07,10.1.1.4,38,-0.311,-0.311,-0.311,0.000,0.000,0.000
1643293207513509888,2022-01-27-14:20:07,10.1.1.4,36,-0.321,-0.321,-0.321,0.000,0.000,0.000
1643293207713623040,2022-01-27-14:20:07,10.1.1.4,36,-0.331,-0.331,-0.331,0.000,0.000,0.000
1643293207913739008,2022-01-27-14:20:07,10.1.1.4,35,-0.341,-0.341,-0.341,0.000,0.000,0.000
1643293208114886912,2022-01-27-14:20:08,10.1.1.4,35,-0.351,-0.351,-0.351,0.000,0.000,0.000
1643293208313940992,2022-01-27-14:20:08,10.1.1.4,34,-0.361,-0.361,-0.361,0.000,0.000,0.000
1643293208513981184,2022-01-27-14:20:08,10.1.1.4,33,-0.371,-0.371,-0.371,0.000,0.000,0.000
1643293208713588992,2022-01-27-14:20:08,10.1.1.4,32,-0.381,-0.381,-0.381,0.000,0.000,0.000
1643293208913566976,2022-01-27-14:20:08,10.1.1.4,31,-0.390,-0.390,-0.390,0.000,0.000,0.000
1643293209113441024,2022-01-27-14:20:09,10.1.1.4,30,-0.401,-0.401,-0.401,0.000,0.000,0.000
1643293209313297152,2022-01-27-14:20:09,10.1.1.4,29,-0.411,-0.411,-0.411,0.000,0.000,0.000
1643293209514770944,2022-01-27-14:20:09,10.1.1.4,28,-0.421,-0.421,-0.421,0.000,0.000,0.000
1643293209713604096,2022-01-27-14:20:09,10.1.1.4,26,-0.430,-0.430,-0.430,0.000,0.000,0.000
1643293209913943040,2022-01-27-14:20:09,10.1.1.4,25,-0.440,-0.440,-0.440,0.000,0.000,0.000
1643293210114789120,2022-01-27-14:20:10,10.1.1.4,25,-0.450,-0.450,-0.450,0.000,0.000,0.000
1643293210313852160,2022-01-27-14:20:10,10.1.1.4,24,-0.460,-0.460,-0.460,0.000,0.000,0.000
1643293210513152000,2022-01-27-14:20:10,10.1.1.4,22,-0.470,-0.470,-0.470,0.000,0.000,0.000
1643293210713208064,2022-01-27-14:20:10,10.1.1.4,21,-0.480,-0.480,-0.480,0.000,0.000,0.000
1643293210894735104,2022-01-27-14:20:10,10.1.1.4,2,-0.489,-0.489,-0.489,0.000,0.000,0.000
1643293211113298944,2022-01-27-14:20:11,10.1.1.4,20,-0.480,-0.480,-0.480,0.000,0.000,0.000
1643293211333808896,2022-01-27-14:20:11,10.1.1.4,40,-0.469,-0.469,-0.469,0.000,0.000,0.000
1643293211513593856,2022-01-27-14:20:11,10.1.1.4,19,-0.460,-0.460,-0.460,0.000,0.000,0.000
1643293211738382080,2022-01-27-14:20:11,10.1.1.4,42,-0.449,-0.449,-0.449,0.000,0.000,0.000
1643293211933270016,2022-01-27-14:20:11,10.1.1.4,36,-0.439,-0.439,-0.439,0.000,0.000,0.000
1643293212133658880,2022-01-27-14:20:12,10.1.1.4,35,-0.429,-0.429,-0.429,0.000,0.000,0.000
1643293212333517056,2022-01-27-14:20:12,10.1.1.4,35,-0.419,-0.419,-0.419,0.000,0.000,0.000
1643293212533710848,2022-01-27-14:20:12,10.1.1.4,35,-0.409,-0.409,-0.409,0.000,0.000,0.000
1643293212733508096,2022-01-27-14:20:12,10.1.1.4,34,-0.399,-0.399,-0.399,0.000,0.000,0.000
1643293212940496896,2022-01-27-14:20:12,10.1.1.4,39,-0.389,-0.389,-0.389,0.000,0.000,0.000
1643293213137982976,2022-01-27-14:20:13,10.1.1.4,36,-0.379,-0.379,-0.379,0.000,0.000,0.000
1643293213333839872,2022-01-27-14:20:13,10.1.1.4,30,-0.369,-0.369,-0.369,0.000,0.000,0.000
1643293213536083968,2022-01-27-14:20:13,10.1.1.4,27,-0.360,-0.360,-0.360,0.000,0.000,0.000
1643293213735162112,2022-01-27-14:20:13,10.1.1.4,26,-0.350,-0.350,-0.350,0.000,0.000,0.000
1643293213933409024,2022-01-27-14:20:13,10.1.1.4,23,-0.340,-0.340,-0.340,0.000,0.000,0.000
1643293214133678080,2022-01-27-14:20:14,10.1.1.4,22,-0.330,-0.330,-0.330,0.000,0.000,0.000
1643293214355988992,2022-01-27-14:20:14,10.1.1.4,44,-0.319,-0.319,-0.319,0.000,0.000,0.000
1643293214534401024,2022-01-27-14:20:14,10.1.1.4,21,-0.310,-0.310,-0.310,0.000,0.000,0.000
1643293214733937152,2022-01-27-14:20:14,10.1.1.4,20,-0.300,-0.300,-0.300,0.000,0.000,0.000
1643293214933906176,2022-01-27-14:20:14,10.1.1.4,18,-0.290,-0.290,-0.290,0.000,0.000,0.000
1643293215153773056,2022-01-27-14:20:15,10.1.1.4,36,-0.279,-0.279,-0.279,0.000,0.000,0.000
1643293215355646976,2022-01-27-14:20:15,10.1.1.4,37,-0.269,-0.269,-0.269,0.000,0.000,0.000
1643293215553704960,2022-01-27-14:20:15,10.1.1.4,33,-0.259,-0.259,-0.259,0.000,0.000,0.000
1643293215753474048,2022-01-27-14:20:15,10.1.1.4,32,-0.249,-0.249,-0.249,0.000,0.000,0.000
1643293215953574912,2022-01-27-14:20:15,10.1.1.4,32,-0.239,-0.239,-0.239,0.000,0.000,0.000
1643293216154424064,2022-01-27-14:20:16,10.1.1.4,32,-0.229,-0.229,-0.229,0.000,0.000,0.000
1643293216353879808,2022-01-27-14:20:16,10.1.1.4,29,-0.219,-0.219,-0.219,0.000,0.000,0.000
1643293216554196992,2022-01-27-14:20:16,10.1.1.4,29,-0.209,-0.209,-0.209,0.000,0.000,0.000
1643293216755575808,2022-01-27-14:20:16,10.1.1.4,29,-0.200,-0.200,-0.200,0.000,0.000,0.000
1643293216953784832,2022-01-27-14:20:16,10.1.1.4,26,-0.190,-0.190,-0.190,0.000,0.000,0.000
1643293217156291072,2022-01-27-14:20:17,10.1.1.4,28,-0.180,-0.180,-0.180,0.000,0.000,0.000
1643293217354070016,2022-01-27-14:20:17,10.1.1.4,25,-0.170,-0.170,-0.170,0.000,0.000,0.000
1643293217553870848,2022-01-27-14:20:17,10.1.1.4,23,-0.160,-0.160,-0.160,0.000,0.000,0.000
1643293217754672896,2022-01-27-14:20:17,10.1.1.4,23,-0.150,-0.150,-0.150,0.000,0.000,0.000
1643293217975659008,2022-01-27-14:20:17,10.1.1.4,44,-0.139,-0.139,-0.139,0.000,0.000,0.000
1643293218154025984,2022-01-27-14:20:18,10.1.1.4,21,-0.130,-0.130,-0.130,0.000,0.000,0.000
1643293218353689856,2022-01-27-14:20:18,10.1.1.4,20,-0.120,-0.120,-0.120,0.000,0.000,0.000
1643293218555239936,2022-01-27-14:20:18,10.1.1.4,20,-0.110,-0.110,-0.110,0.000,0.000,0.000
1643293218754492160,2022-01-27-14:20:18,10.1.1.4,18,-0.100,-0.100,-0.100,0.000,0.000,0.000
1643293218974097920,2022-01-27-14:20:18,10.1.1.4,37,-0.089,-0.089,-0.089,0.000,0.000,0.000
1643293219173958144,2022-01-27-14:20:19,10.1.1.4,36,-0.079,-0.079,-0.079,0.000,0.000,0.000
1643293219374780928,2022-01-27-14:20:19,10.1.1.4,36,-0.069,-0.069,-0.069,0.000,0.000,0.000
1643293219574177024,2022-01-27-14:20:19,10.1.1.4,35,-0.059,-0.059,-0.059,0.000,0.000,0.000
1643293219776633856,2022-01-27-14:20:19,10.1.1.4,36,-0.049,-0.049,-0.049,0.000,0.000,0.000
1643293219973916928,2022-01-27-14:20:19,10.1.1.4,33,-0.039,-0.039,-0.039,0.000,0.000,0.000
1643293220174042112,2022-01-27-14:20:20,10.1.1.4,32,-0.029,-0.029,-0.029,0.000,0.000,0.000
1643293220374618880,2022-01-27-14:20:20,10.1.1.4,32,-0.019,-0.019,-0.019,0.000,0.000,0.000
1643293220573980928,2022-01-27-14:20:20,10.1.1.4,30,-0.009,-0.009,-0.009,0.000,0.000,0.000
1643293220754379008,2022-01-27-14:20:20,10.1.1.4,9,-0.000,-0.000,-0.000,0.000,0.000,0.000
1643293220974021888,2022-01-27-14:20:20,10.1.1.4,26,-0.010,-0.010,-0.010,0.000,0.000,0.000
1643293221173587968,2022-01-27-14:20:21,10.1.1.4,25,-0.020,-0.020,-0.020,0.000,0.000,0.000
1643293221374732032,2022-01-27-14:20:21,10.1.1.4,25,-0.030,-0.030,-0.030,0.000,0.000,0.000
1643293221574441984,2022-01-27-14:20:21,10.1.1.4,24,-0.040,-0.040,-0.040,0.000,0.000,0.000
1643293221773832960,2022-01-27-14:20:21,10.1.1.4,23,-0.050,-0.050,-0.050,0.000,0.000,0.000
1643293221974089984,2022-01-27-14:20:21,10.1.1.4,22,-0.060,-0.060,-0.060,0.000,0.000,0.000
1643293222173894912,2022-01-27-14:20:22,10.1.1.4,22,-0.070,-0.070,-0.070,0.000,0.000,0.000
1643293222376462848,2022-01-27-14:20:22,10.1.1.4,23,-0.080,-0.080,-0.080,0.000,0.000,0.000
1643293222573946880,2022-01-27-14:20:22,10.1.1.4,20,-0.090,-0.090,-0.090,0.000,0.000,0.000
1643293222774087936,2022-01-27-14:20:22,10.1.1.4,19,-0.100,-0.100,-0.100,0.000,0.000,0.000
1643293222973691904,2022-01-27-14:20:22,10.1.1.4,18,-0.110,-0.110,-0.110,0.000,0.000,0.000
1643293223179644160,2022-01-27-14:20:23,10.1.1.4,23,-0.120,-0.120,-0.120,0.000,0.000,0.000
1643293223394150912,2022-01-27-14:20:23,10.1.1.4,37,-0.131,-0.131,-0.131,0.000,0.000,0.000
1643293223593795072,2022-01-27-14:20:23,10.1.1.4,37,-0.141,-0.141,-0.141,0.000,0.000,0.000
1643293223795939072,2022-01-27-14:20:23,10.1.1.4,38,-0.151,-0.151,-0.151,0.000,0.000,0.000
1643293223997667072,2022-01-27-14:20:23,10.1.1.4,39,-0.161,-0.161,-0.161,0.000,0.000,0.000
1643293224195873024,2022-01-27-14:20:24,10.1.1.4,35,-0.171,-0.171,-0.171,0.000,0.000,0.000
1643293224395139840,2022-01-27-14:20:24,10.1.1.4,34,-0.181,-0.181,-0.181,0.000,0.000,0.000
1643293224595191040,2022-01-27-14:20:24,10.1.1.4,34,-0.191,-0.191,-0.191,0.000,0.000,0.000
1643293224794565888,2022-01-27-14:20:24,10.1.1.4,33,-0.201,-0.201,-0.201,0.000,0.000,0.000
1643293224994306048,2022-01-27-14:20:24,10.1.1.4,29,-0.211,-0.211,-0.211,0.000,0.000,0.000
1643293225194278912,2022-01-27-14:20:25,10.1.1.4,27,-0.220,-0.220,-0.220,0.000,0.000,0.000
1643293225398482176,2022-01-27-14:20:25,10.1.1.4,31,-0.230,-0.230,-0.230,0.000,0.000,0.000
1643293225598771968,2022-01-27-14:20:25,10.1.1.4,30,-0.240,-0.240,-0.240,0.000,0.000,0.000
1643293225793680896,2022-01-27-14:20:25,10.1.1.4,25,-0.250,-0.250,-0.250,0.000,0.000,0.000
1643293225993659136,2022-01-27-14:20:25,10.1.1.4,24,-0.260,-0.260,-0.260,0.000,0.000,0.000
1643293226194518016,2022-01-27-14:20:26,10.1.1.4,25,-0.270,-0.270,-0.270,0.000,0.000,0.000
1643293226393809920,2022-01-27-14:20:26,10.1.1.4,24,-0.280,-0.280,-0.280,0.000,0.000,0.000
1643293226594017024,2022-01-27-14:20:26,10.1.1.4,23,-0.290,-0.290,-0.290,0.000,0.000,0.000
1643293226793767936,2022-01-27-14:20:26,10.1.1.4,22,-0.300,-0.300,-0.300,0.000,0.000,0.000
1643293226995439104,2022-01-27-14:20:26,10.1.1.4,22,-0.310,-0.310,-0.310,0.000,0.000,0.000
1643293227214711040,2022-01-27-14:20:27,10.1.1.4,38,-0.321,-0.321,-0.321,0.000,0.000,0.000
1643293227415357952,2022-01-27-14:20:27,10.1.1.4,37,-0.331,-0.331,-0.331,0.000,0.000,0.000
1643293227613768192,2022-01-27-14:20:27,10.1.1.4,36,-0.341,-0.341,-0.341,0.000,0.000,0.000
1643293227813851136,2022-01-27-14:20:27,10.1.1.4,35,-0.351,-0.351,-0.351,0.000,0.000,0.000
1643293228014909952,2022-01-27-14:20:28,10.1.1.4,35,-0.361,-0.361,-0.361,0.000,0.000,0.000
1643293228214814976,2022-01-27-14:20:28,10.1.1.4,34,-0.371,-0.371,-0.371,0.000,0.000,0.000
1643293228414267136,2022-01-27-14:20:28,10.1.1.4,33,-0.381,-0.381,-0.381,0.000,0.000,0.000
1643293228613726976,2022-01-27-14:20:28,10.1.1.4,31,-0.391,-0.391,-0.391,0.000,0.000,0.000
1643293228814281984,2022-01-27-14:20:28,10.1.1.4,31,-0.401,-0.401,-0.401,0.000,0.000,0.000
1643293229013665024,2022-01-27-14:20:29,10.1.1.4,30,-0.411,-0.411,-0.411,0.000,0.000,0.000
1643293229213659136,2022-01-27-14:20:29,10.1.1.4,29,-0.421,-0.421,-0.421,0.000,0.000,0.000
1643293229413615104,2022-01-27-14:20:29,10.1.1.4,28,-0.431,-0.431,-0.431,0.000,0.000,0.000
1643293229613584128,2022-01-27-14:20:29,10.1.1.4,27,-0.440,-0.440,-0.440,0.000,0.000,0.000
1643293229813743104,2022-01-27-14:20:29,10.1.1.4,27,-0.450,-0.450,-0.450,0.000,0.000,0.000
1643293230014040832,2022-01-27-14:20:30,10.1.1.4,26,-0.460,-0.460,-0.460,0.000,0.000,0.000
1643293230213864960,2022-01-27-14:20:30,10.1.1.4,26,-0.470,-0.470,-0.470,0.000,0.000,0.000
1643293230413724928,2022-01-27-14:20:30,10.1.1.4,25,-0.480,-0.480,-0.480,0.000,0.000,0.000
1643293230593719040,2022-01-27-14:20:30,10.1.1.4,4,-0.489,-0.489,-0.489,0.000,0.000,0.000
1643293230813334016,2022-01-27-14:20:30,10.1.1.4,23,-0.480,-0.480,-0.480,0.000,0.000,0.000
1643293231014062848,2022-01-27-14:20:31,10.1.1.4,24,-0.470,-0.470,-0.470,0.000,0.000,0.000
1643293231213596160,2022-01-27-14:20:31,10.1.1.4,23,-0.460,-0.460,-0.460,0.000,0.000,0.000
1643293231413649152,2022-01-27-14:20:31,10.1.1.4,22,-0.450,-0.450,-0.450,0.000,0.000,0.000
1643293231613809152,2022-01-27-14:20:31,10.1.1.4,20,-0.440,-0.440,-0.440,0.000,0.000,0.000
1643293231833604096,2022-01-27-14:20:31,10.1.1.4,39,-0.429,-0.429,-0.429,0.000,0.000,0.000
1643293232013742848,2022-01-27-14:20:32,10.1.1.4,19,-0.420,-0.420,-0.420,0.000,0.000,0.000
1643293232233859072,2022-01-27-14:20:32,10.1.1.4,37,-0.409,-0.409,-0.409,0.000,0.000,0.000
1643293232433743104,2022-01-27-14:20:32,10.1.1.4,37,-0.399,-0.399,-0.399,0.000,0.000,0.000
1643293232633733120,2022-01-27-14:20:32,10.1.1.4,36,-0.389,-0.389,-0.389,0.000,0.000,0.000
1643293232833694976,2022-01-27-14:20:32,10.1.1.4,36,-0.379,-0.379,-0.379,0.000,0.000,0.000
1643293233033221888,2022-01-27-14:20:33,10.1.1.4,35,-0.369,-0.369,-0.369,0.000,0.000,0.000
1643293233233792000,2022-01-27-14:20:33,10.1.1.4,34,-0.359,-0.359,-0.359,0.000,0.000,0.000
1643293233433988096,2022-01-27-14:20:33,10.1.1.4,34,-0.349,-0.349,-0.349,0.000,0.000,0.000
1643293233635271168,2022-01-27-14:20:33,10.1.1.4,35,-0.339,-0.339,-0.339,0.000,0.000,0.000
1643293233833758208,2022-01-27-14:20:33,10.1.1.4,33,-0.329,-0.329,-0.329,0.000,0.000,0.000
1643293234034475008,2022-01-27-14:20:34,10.1.1.4,33,-0.319,-0.319,-0.319,0.000,0.000,0.000
1643293234233742080,2022-01-27-14:20:34,10.1.1.4,32,-0.309,-0.309,-0.309,0.000,0.000,0.000
1643293234433764096,2022-01-27-14:20:34,10.1.1.4,32,-0.300,-0.300,-0.300,0.000,0.000,0.000
1643293234634007808,2022-01-27-14:20:34,10.1.1.4,31,-0.290,-0.290,-0.290,0.000,0.000,0.000
1643293234833803776,2022-01-27-14:20:34,10.1.1.4,31,-0.279,-0.279,-0.279,0.000,0.000,0.000
1643293235033360128,2022-01-27-14:20:35,10.1.1.4,30,-0.269,-0.269,-0.269,0.000,0.000,0.000
1643293235233932032,2022-01-27-14:20:35,10.1.1.4,30,-0.259,-0.259,-0.259,0.000,0.000,0.000
1643293235434017024,2022-01-27-14:20:35,10.1.1.4,29,-0.250,-0.250,-0.250,0.000,0.000,0.000
1643293235634403840,2022-01-27-14:20:35,10.1.1.4,27,-0.240,-0.240,-0.240,0.000,0.000,0.000
1643293235833478912,2022-01-27-14:20:35,10.1.1.4,26,-0.230,-0.230,-0.230,0.000,0.000,0.000
1643293236034567168,2022-01-27-14:20:36,10.1.1.4,26,-0.220,-0.220,-0.220,0.000,0.000,0.000
1643293236233871872,2022-01-27-14:20:36,10.1.1.4,25,-0.210,-0.210,-0.210,0.000,0.000,0.000
1643293236434413824,2022-01-27-14:20:36,10.1.1.4,25,-0.200,-0.200,-0.200,0.000,0.000,0.000
1643293236634202880,2022-01-27-14:20:36,10.1.1.4,23,-0.190,-0.190,-0.190,0.000,0.000,0.000
1643293236833886976,2022-01-27-14:20:36,10.1.1.4,21,-0.180,-0.180,-0.180,0.000,0.000,0.000
1643293237034094080,2022-01-27-14:20:37,10.1.1.4,20,-0.170,-0.170,-0.170,0.000,0.000,0.000
1643293237253799936,2022-01-27-14:20:37,10.1.1.4,39,-0.159,-0.159,-0.159,0.000,0.000,0.000
1643293237433795072,2022-01-27-14:20:37,10.1.1.4,19,-0.150,-0.150,-0.150,0.000,0.000,0.000
1643293237654486016,2022-01-27-14:20:37,10.1.1.4,38,-0.139,-0.139,-0.139,0.000,0.000,0.000
1643293237834296064,2022-01-27-14:20:37,10.1.1.4,17,-0.130,-0.130,-0.130,0.000,0.000,0.000
1643293238053926912,2022-01-27-14:20:38,10.1.1.4,35,-0.119,-0.119,-0.119,0.000,0.000,0.000
1643293238254199040,2022-01-27-14:20:38,10.1.1.4,35,-0.109,-0.109,-0.109,0.000,0.000,0.000
1643293238453684992,2022-01-27-14:20:38,10.1.1.4,34,-0.099,-0.099,-0.099,0.000,0.000,0.000
1643293238653536000,2022-01-27-14:20:38,10.1.1.4,33,-0.089,-0.089,-0.089,0.000,0.000,0.000
1643293238853620992,2022-01-27-14:20:38,10.1.1.4,32,-0.079,-0.079,-0.079,0.000,0.000,0.000
1643293239053682176,2022-01-27-14:20:39,10.1.1.4,32,-0.069,-0.069,-0.069,0.000,0.000,0.000
1643293239254086912,2022-01-27-14:20:39,10.1.1.4,32,-0.059,-0.059,-0.059,0.000,0.000,0.000
1643293239454180096,2022-01-27-14:20:39,10.1.1.4,30,-0.049,-0.049,-0.049,0.000,0.000,0.000
1643293239653841920,2022-01-27-14:20:39,10.1.1.4,30,-0.039,-0.039,-0.039,0.000,0.000,0.000
1643293239854660096,2022-01-27-14:20:39,10.1.1.4,28,-0.030,-0.030,-0.030,0.000,0.000,0.000
1643293240053361920,2022-01-27-14:20:40,10.1.1.4,25,-0.020,-0.020,-0.020,0.000,0.000,0.000
1643293240254228224,2022-01-27-14:20:40,10.1.1.4,25,-0.010,-0.010,-0.010,0.000,0.000,0.000
1643293240433634048,2022-01-27-14:20:40,10.1.1.4,4,-0.001,-0.001,-0.001,0.000,0.000,0.000
1643293240654164992,2022-01-27-14:20:40,10.1.1.4,24,-0.010,-0.010,-0.010,0.000,0.000,0.000
1643293240854383872,2022-01-27-14:20:40,10.1.1.4,23,-0.020,-0.020,-0.020,0.000,0.000,0.000
1643293241053591040,2022-01-27-14:20:41,10.1.1.4,21,-0.030,-0.030,-0.030,0.000,0.000,0.000
1643293241280545024,2022-01-27-14:20:41,10.1.1.4,41,-0.041,-0.041,-0.041,0.000,0.000,0.000
1643293241473582080,2022-01-27-14:20:41,10.1.1.4,36,-0.051,-0.051,-0.051,0.000,0.000,0.000
1643293241673792000,2022-01-27-14:20:41,10.1.1.4,36,-0.061,-0.061,-0.061,0.000,0.000,0.000
1643293241873979136,2022-01-27-14:20:41,10.1.1.4,36,-0.071,-0.071,-0.071,0.000,0.000,0.000
1643293242073651968,2022-01-27-14:20:42,10.1.1.4,34,-0.081,-0.081,-0.081,0.000,0.000,0.000
1643293242273900032,2022-01-27-14:20:42,10.1.1.4,34,-0.091,-0.091,-0.091,0.000,0.000,0.000
1643293242474062080,2022-01-27-14:20:42,10.1.1.4,33,-0.101,-0.101,-0.101,0.000,0.000,0.000
1643293242674134016,2022-01-27-14:20:42,10.1.1.4,33,-0.111,-0.111,-0.111,0.000,0.000,0.000
1643293242880997888,2022-01-27-14:20:42,10.1.1.4,39,-0.120,-0.120,-0.120,0.000,0.000,0.000
1643293243095415040,2022-01-27-14:20:43,10.1.1.4,42,-0.131,-0.131,-0.131,0.000,0.000,0.000
1643293243274548992,2022-01-27-14:20:43,10.1.1.4,20,-0.140,-0.140,-0.140,0.000,0.000,0.000
1643293243495367168,2022-01-27-14:20:43,10.1.1.4,39,-0.151,-0.151,-0.151,0.000,0.000,0.000
1643293243694735104,2022-01-27-14:20:43,10.1.1.4,37,-0.161,-0.161,-0.161,0.000,0.000,0.000
1643293243894316800,2022-01-27-14:20:43,10.1.1.4,36,-0.171,-0.171,-0.171,0.000,0.000,0.000
1643293244094490112,2022-01-27-14:20:44,10.1.1.4,35,-0.181,-0.181,-0.181,0.000,0.000,0.000
1643293244296553984,2022-01-27-14:20:44,10.1.1.4,37,-0.191,-0.191,-0.191,0.000,0.000,0.000
1643293244493361920,2022-01-27-14:20:44,10.1.1.4,34,-0.201,-0.201,-0.201,0.000,0.000,0.000
1643293244694125056,2022-01-27-14:20:44,10.1.1.4,34,-0.211,-0.211,-0.211,0.000,0.000,0.000
1643293244901922816,2022-01-27-14:20:44,10.1.1.4,40,-0.221,-0.221,-0.221,0.000,0.000,0.000
1643293245093751040,2022-01-27-14:20:45,10.1.1.4,31,-0.231,-0.231,-0.231,0.000,0.000,0.000
1643293245293731072,2022-01-27-14:20:45,10.1.1.4,31,-0.241,-0.241,-0.241,0.000,0.000,0.000
1643293245493979904,2022-01-27-14:20:45,10.1.1.4,31,-0.250,-0.250,-0.250,0.000,0.000,0.000
1643293245693872896,2022-01-27-14:20:45,10.1.1.4,29,-0.261,-0.261,-0.261,0.000,0.000,0.000
1643293245893846016,2022-01-27-14:20:45,10.1.1.4,27,-0.270,-0.270,-0.270,0.000,0.000,0.000
1643293246093741056,2022-01-27-14:20:46,10.1.1.4,27,-0.280,-0.280,-0.280,0.000,0.000,0.000
1643293246293779968,2022-01-27-14:20:46,10.1.1.4,26,-0.290,-0.290,-0.290,0.000,0.000,0.000
1643293246493828096,2022-01-27-14:20:46,10.1.1.4,25,-0.300,-0.300,-0.300,0.000,0.000,0.000
1643293246694006016,2022-01-27-14:20:46,10.1.1.4,25,-0.310,-0.310,-0.310,0.000,0.000,0.000
1643293246894247936,2022-01-27-14:20:46,10.1.1.4,25,-0.320,-0.320,-0.320,0.000,0.000,0.000
1643293247093543168,2022-01-27-14:20:47,10.1.1.4,24,-0.330,-0.330,-0.330,0.000,0.000,0.000
1643293247293693952,2022-01-27-14:20:47,10.1.1.4,23,-0.340,-0.340,-0.340,0.000,0.000,0.000
1643293247494235904,2022-01-27-14:20:47,10.1.1.4,23,-0.350,-0.350,-0.350,0.000,0.000,0.000
1643293247693640960,2022-01-27-14:20:47,10.1.1.4,21,-0.360,-0.360,-0.360,0.000,0.000,0.000
1643293247914295808,2022-01-27-14:20:47,10.1.1.4,41,-0.371,-0.371,-0.371,0.000,0.000,0.000
1643293248114298112,2022-01-27-14:20:48,10.1.1.4,39,-0.381,-0.381,-0.381,0.000,0.000,0.000
1643293248314126848,2022-01-27-14:20:48,10.1.1.4,38,-0.391,-0.391,-0.391,0.000,0.000,0.000
1643293248514059008,2022-01-27-14:20:48,10.1.1.4,38,-0.401,-0.401,-0.401,0.000,0.000,0.000
1643293248714540032,2022-01-27-14:20:48,10.1.1.4,37,-0.411,-0.411,-0.411,0.000,0.000,0.000
1643293248913604864,2022-01-27-14:20:48,10.1.1.4,36,-0.421,-0.421,-0.421,0.000,0.000,0.000
1643293249113712128,2022-01-27-14:20:49,10.1.1.4,36,-0.431,-0.431,-0.431,0.000,0.000,0.000
1643293249313702144,2022-01-27-14:20:49,10.1.1.4,35,-0.441,-0.441,-0.441,0.000,0.000,0.000
1643293249513721856,2022-01-27-14:20:49,10.1.1.4,34,-0.451,-0.451,-0.451,0.000,0.000,0.000
1643293249714085120,2022-01-27-14:20:49,10.1.1.4,34,-0.461,-0.461,-0.461,0.000,0.000,0.000
1643293249914073088,2022-01-27-14:20:49,10.1.1.4,33,-0.471,-0.471,-0.471,0.000,0.000,0.000
1643293250113573120,2022-01-27-14:20:50,10.1.1.4,32,-0.481,-0.481,-0.481,0.000,0.000,0.000
1643293250314146048,2022-01-27-14:20:50,10.1.1.4,30,-0.489,-0.489,-0.489,0.000,0.000,0.000
1643293250513757952,2022-01-27-14:20:50,10.1.1.4,28,-0.479,-0.479,-0.479,0.000,0.000,0.000
1643293250714973952,2022-01-27-14:20:50,10.1.1.4,28,-0.470,-0.470,-0.470,0.000,0.000,0.000
1643293250914857984,2022-01-27-14:20:50,10.1.1.4,27,-0.460,-0.460,-0.460,0.000,0.000,0.000
1643293251114381056,2022-01-27-14:20:51,10.1.1.4,25,-0.450,-0.450,-0.450,0.000,0.000,0.000
1643293251314616064,2022-01-27-14:20:51,10.1.1.4,24,-0.440,-0.440,-0.440,0.000,0.000,0.000
1643293251514033152,2022-01-27-14:20:51,10.1.1.4,22,-0.430,-0.430,-0.430,0.000,0.000,0.000
1643293251713808128,2022-01-27-14:20:51,10.1.1.4,21,-0.420,-0.420,-0.420,0.000,0.000,0.000
1643293251934804992,2022-01-27-14:20:51,10.1.1.4,39,-0.409,-0.409,-0.409,0.000,0.000,0.000
1643293252135112960,2022-01-27-14:20:52,10.1.1.4,38,-0.399,-0.399,-0.399,0.000,0.000,0.000
1643293252335588864,2022-01-27-14:20:52,10.1.1.4,39,-0.389,-0.389,-0.389,0.000,0.000,0.000
1643293252534454016,2022-01-27-14:20:52,10.1.1.4,37,-0.379,-0.379,-0.379,0.000,0.000,0.000
1643293252733920000,2022-01-27-14:20:52,10.1.1.4,36,-0.369,-0.369,-0.369,0.000,0.000,0.000
1643293252934533120,2022-01-27-14:20:52,10.1.1.4,36,-0.359,-0.359,-0.359,0.000,0.000,0.000
1643293253135813888,2022-01-27-14:20:53,10.1.1.4,35,-0.349,-0.349,-0.349,0.000,0.000,0.000
1643293253334034944,2022-01-27-14:20:53,10.1.1.4,34,-0.339,-0.339,-0.339,0.000,0.000,0.000
1643293253535860992,2022-01-27-14:20:53,10.1.1.4,35,-0.329,-0.329,-0.329,0.000,0.000,0.000
1643293253735147008,2022-01-27-14:20:53,10.1.1.4,33,-0.319,-0.319,-0.319,0.000,0.000,0.000
1643293253934919168,2022-01-27-14:20:53,10.1.1.4,32,-0.309,-0.309,-0.309,0.000,0.000,0.000
1643293254135343104,2022-01-27-14:20:54,10.1.1.4,30,-0.300,-0.300,-0.300,0.000,0.000,0.000
1643293254334899968,2022-01-27-14:20:54,10.1.1.4,28,-0.290,-0.290,-0.290,0.000,0.000,0.000
1643293254536443904,2022-01-27-14:20:54,10.1.1.4,27,-0.280,-0.280,-0.280,0.000,0.000,0.000
1643293254736516096,2022-01-27-14:20:54,10.1.1.4,24,-0.270,-0.270,-0.270,0.000,0.000,0.000
1643293254934892032,2022-01-27-14:20:54,10.1.1.4,24,-0.260,-0.260,-0.260,0.000,0.000,0.000
1643293255137561088,2022-01-27-14:20:55,10.1.1.4,26,-0.250,-0.250,-0.250,0.000,0.000,0.000
1643293255356477952,2022-01-27-14:20:55,10.1.1.4,42,-0.239,-0.239,-0.239,0.000,0.000,0.000
1643293255536848896,2022-01-27-14:20:55,10.1.1.4,23,-0.230,-0.230,-0.230,0.000,0.000,0.000
1643293255756782080,2022-01-27-14:20:55,10.1.1.4,38,-0.219,-0.219,-0.219,0.000,0.000,0.000
1643293255954919936,2022-01-27-14:20:55,10.1.1.4,37,-0.209,-0.209,-0.209,0.000,0.000,0.000
1643293256154962176,2022-01-27-14:20:56,10.1.1.4,36,-0.199,-0.199,-0.199,0.000,0.000,0.000
1643293256354814976,2022-01-27-14:20:56,10.1.1.4,35,-0.189,-0.189,-0.189,0.000,0.000,0.000
1643293256557075968,2022-01-27-14:20:56,10.1.1.4,36,-0.179,-0.179,-0.179,0.000,0.000,0.000
1643293256757136128,2022-01-27-14:20:56,10.1.1.4,36,-0.169,-0.169,-0.169,0.000,0.000,0.000
1643293256956804864,2022-01-27-14:20:56,10.1.1.4,35,-0.159,-0.159,-0.159,0.000,0.000,0.000
1643293257156599040,2022-01-27-14:20:57,10.1.1.4,34,-0.149,-0.149,-0.149,0.000,0.000,0.000
1643293257357268992,2022-01-27-14:20:57,10.1.1.4,33,-0.139,-0.139,-0.139,0.000,0.000,0.000
1643293257555097088,2022-01-27-14:20:57,10.1.1.4,27,-0.130,-0.130,-0.130,0.000,0.000,0.000
1643293257756588032,2022-01-27-14:20:57,10.1.1.4,28,-0.120,-0.120,-0.120,0.000,0.000,0.000
1643293257957067008,2022-01-27-14:20:57,10.1.1.4,26,-0.110,-0.110,-0.110,0.000,0.000,0.000
1643293258155205888,2022-01-27-14:20:58,10.1.1.4,23,-0.100,-0.100,-0.100,0.000,0.000,0.000
1643293258354576128,2022-01-27-14:20:58,10.1.1.4,22,-0.090,-0.090,-0.090,0.000,0.000,0.000
1643293258556793088,2022-01-27-14:20:58,10.1.1.4,22,-0.080,-0.080,-0.080,0.000,0.000,0.000
1643293258775542016,2022-01-27-14:20:58,10.1.1.4,38,-0.069,-0.069,-0.069,0.000,0.000,0.000
1643293258975600128,2022-01-27-14:20:58,10.1.1.4,37,-0.059,-0.059,-0.059,0.000,0.000,0.000
1643293259177197056,2022-01-27-14:20:59,10.1.1.4,38,-0.049,-0.049,-0.049,0.000,0.000,0.000
1643293259376566784,2022-01-27-14:20:59,10.1.1.4,35,-0.039,-0.039,-0.039,0.000,0.000,0.000
1643293259575453952,2022-01-27-14:20:59,10.1.1.4,34,-0.029,-0.029,-0.029,0.000,0.000,0.000
1643293259774377216,2022-01-27-14:20:59,10.1.1.4,33,-0.019,-0.019,-0.019,0.000,0.000,0.000
1643293259975858944,2022-01-27-14:20:59,10.1.1.4,34,-0.009,-0.009,-0.009,0.000,0.000,0.000
1643293260156753920,2022-01-27-14:21:00,10.1.1.4,14,-0.000,-0.000,-0.000,0.000,0.000,0.000
1643293260375580160,2022-01-27-14:21:00,10.1.1.4,32,-0.011,-0.011,-0.011,0.000,0.000,0.000
1643293260575460864,2022-01-27-14:21:00,10.1.1.4,30,-0.021,-0.021,-0.021,0.000,0.000,0.000
1643293260774846976,2022-01-27-14:21:00,10.1.1.4,26,-0.030,-0.030,-0.030,0.000,0.000,0.000
1643293260975277824,2022-01-27-14:21:00,10.1.1.4,26,-0.040,-0.040,-0.040,0.000,0.000,0.000
1643293261174573056,2022-01-27-14:21:01,10.1.1.4,25,-0.050,-0.050,-0.050,0.000,0.000,0.000
1643293261374792960,2022-01-27-14:21:01,10.1.1.4,24,-0.060,-0.060,-0.060,0.000,0.000,0.000
1643293261574765056,2022-01-27-14:21:01,10.1.1.4,24,-0.070,-0.070,-0.070,0.000,0.000,0.000
1643293261774434048,2022-01-27-14:21:01,10.1.1.4,23,-0.080,-0.080,-0.080,0.000,0.000,0.000
1643293261974292992,2022-01-27-14:21:01,10.1.1.4,22,-0.090,-0.090,-0.090,0.000,0.000,0.000
1643293262175152128,2022-01-27-14:21:02,10.1.1.4,22,-0.100,-0.100,-0.100,0.000,0.000,0.000
1643293262373945088,2022-01-27-14:21:02,10.1.1.4,19,-0.110,-0.110,-0.110,0.000,0.000,0.000
1643293262574595840,2022-01-27-14:21:02,10.1.1.4,17,-0.120,-0.120,-0.120,0.000,0.000,0.000
1643293262796540928,2022-01-27-14:21:02,10.1.1.4,36,-0.131,-0.131,-0.131,0.000,0.000,0.000
1643293262994349056,2022-01-27-14:21:02,10.1.1.4,35,-0.141,-0.141,-0.141,0.000,0.000,0.000
1643293263194257920,2022-01-27-14:21:03,10.1.1.4,34,-0.151,-0.151,-0.151,0.000,0.000,0.000
1643293263394454016,2022-01-27-14:21:03,10.1.1.4,33,-0.161,-0.161,-0.161,0.000,0.000,0.000
1643293263594551040,2022-01-27-14:21:03,10.1.1.4,31,-0.171,-0.171,-0.171,0.000,0.000,0.000
1643293263795654912,2022-01-27-14:21:03,10.1.1.4,31,-0.180,-0.180,-0.180,0.000,0.000,0.000
1643293263995943168,2022-01-27-14:21:03,10.1.1.4,30,-0.191,-0.191,-0.191,0.000,0.000,0.000
1643293264195431936,2022-01-27-14:21:04,10.1.1.4,27,-0.200,-0.200,-0.200,0.000,0.000,0.000
1643293264395102976,2022-01-27-14:21:04,10.1.1.4,26,-0.210,-0.210,-0.210,0.000,0.000,0.000
1643293264594295040,2022-01-27-14:21:04,10.1.1.4,24,-0.220,-0.220,-0.220,0.000,0.000,0.000
1643293264797434112,2022-01-27-14:21:04,10.1.1.4,26,-0.230,-0.230,-0.230,0.000,0.000,0.000
1643293264995415040,2022-01-27-14:21:04,10.1.1.4,23,-0.240,-0.240,-0.240,0.000,0.000,0.000
1643293265194215936,2022-01-27-14:21:05,10.1.1.4,20,-0.250,-0.250,-0.250,0.000,0.000,0.000
1643293265396143872,2022-01-27-14:21:05,10.1.1.4,20,-0.260,-0.260,-0.260,0.000,0.000,0.000
1643293265614876928,2022-01-27-14:21:05,10.1.1.4,38,-0.271,-0.271,-0.271,0.000,0.000,0.000
1643293265814351104,2022-01-27-14:21:05,10.1.1.4,36,-0.281,-0.281,-0.281,0.000,0.000,0.000
1643293266015290880,2022-01-27-14:21:06,10.1.1.4,36,-0.291,-0.291,-0.291,0.000,0.000,0.000
1643293266214482944,2022-01-27-14:21:06,10.1.1.4,28,-0.300,-0.300,-0.300,0.000,0.000,0.000
1643293266416665088,2022-01-27-14:21:06,10.1.1.4,27,-0.310,-0.310,-0.310,0.000,0.000,0.000
1643293266614449152,2022-01-27-14:21:06,10.1.1.4,25,-0.320,-0.320,-0.320,0.000,0.000,0.000
1643293266814428928,2022-01-27-14:21:06,10.1.1.4,25,-0.330,-0.330,-0.330,0.000,0.000,0.000
1643293267014511104,2022-01-27-14:21:07,10.1.1.4,23,-0.340,-0.340,-0.340,0.000,0.000,0.000
1643293267234447872,2022-01-27-14:21:07,10.1.1.4,42,-0.351,-0.351,-0.351,0.000,0.000,0.000
1643293267415614976,2022-01-27-14:21:07,10.1.1.4,22,-0.360,-0.360,-0.360,0.000,0.000,0.000
1643293267615414016,2022-01-27-14:21:07,10.1.1.4,21,-0.370,-0.370,-0.370,0.000,0.000,0.000
1643293267814543104,2022-01-27-14:21:07,10.1.1.4,19,-0.380,-0.380,-0.380,0.000,0.000,0.000
1643293268034259200,2022-01-27-14:21:08,10.1.1.4,37,-0.391,-0.391,-0.391,0.000,0.000,0.000
1643293268234620928,2022-01-27-14:21:08,10.1.1.4,37,-0.401,-0.401,-0.401,0.000,0.000,0.000
1643293268434568960,2022-01-27-14:21:08,10.1.1.4,35,-0.411,-0.411,-0.411,0.000,0.000,0.000
1643293268635248896,2022-01-27-14:21:08,10.1.1.4,36,-0.421,-0.421,-0.421,0.000,0.000,0.000
1643293268834820096,2022-01-27-14:21:08,10.1.1.4,34,-0.431,-0.431,-0.431,0.000,0.000,0.000
1643293269036658944,2022-01-27-14:21:09,10.1.1.4,34,-0.441,-0.441,-0.441,0.000,0.000,0.000
1643293269234371072,2022-01-27-14:21:09,10.1.1.4,31,-0.451,-0.451,-0.451,0.000,0.000,0.000
1643293269434646016,2022-01-27-14:21:09,10.1.1.4,29,-0.461,-0.461,-0.461,0.000,0.000,0.000
1643293269634742016,2022-01-27-14:21:09,10.1.1.4,25,-0.470,-0.470,-0.470,0.000,0.000,0.000
1643293269834264064,2022-01-27-14:21:09,10.1.1.4,23,-0.480,-0.480,-0.480,0.000,0.000,0.000
1643293270014401024,2022-01-27-14:21:10,10.1.1.4,2,-0.489,-0.489,-0.489,0.000,0.000,0.000
1643293270236322048,2022-01-27-14:21:10,10.1.1.4,23,-0.480,-0.480,-0.480,0.000,0.000,0.000
1643293270434418944,2022-01-27-14:21:10,10.1.1.4,20,-0.470,-0.470,-0.470,0.000,0.000,0.000
1643293270633944064,2022-01-27-14:21:10,10.1.1.4,18,-0.460,-0.460,-0.460,0.000,0.000,0.000
1643293270856463872,2022-01-27-14:21:10,10.1.1.4,39,-0.449,-0.449,-0.449,0.000,0.000,0.000
1643293271055115008,2022-01-27-14:21:11,10.1.1.4,37,-0.439,-0.439,-0.439,0.000,0.000,0.000
1643293271254513152,2022-01-27-14:21:11,10.1.1.4,36,-0.429,-0.429,-0.429,0.000,0.000,0.000
1643293271457423872,2022-01-27-14:21:11,10.1.1.4,37,-0.419,-0.419,-0.419,0.000,0.000,0.000
1643293271654572032,2022-01-27-14:21:11,10.1.1.4,34,-0.409,-0.409,-0.409,0.000,0.000,0.000
1643293271854240768,2022-01-27-14:21:11,10.1.1.4,32,-0.399,-0.399,-0.399,0.000,0.000,0.000
1643293272054477056,2022-01-27-14:21:12,10.1.1.4,32,-0.390,-0.390,-0.390,0.000,0.000,0.000
1643293272254508032,2022-01-27-14:21:12,10.1.1.4,31,-0.379,-0.379,-0.379,0.000,0.000,0.000
1643293272454237952,2022-01-27-14:21:12,10.1.1.4,30,-0.369,-0.369,-0.369,0.000,0.000,0.000
1643293272656776960,2022-01-27-14:21:12,10.1.1.4,29,-0.360,-0.360,-0.360,0.000,0.000,0.000
1643293272854016000,2022-01-27-14:21:12,10.1.1.4,28,-0.349,-0.349,-0.349,0.000,0.000,0.000
1643293273054361088,2022-01-27-14:21:13,10.1.1.4,27,-0.340,-0.340,-0.340,0.000,0.000,0.000
1643293273255304960,2022-01-27-14:21:13,10.1.1.4,27,-0.330,-0.330,-0.330,0.000,0.000,0.000
1643293273454781952,2022-01-27-14:21:13,10.1.1.4,26,-0.320,-0.320,-0.320,0.000,0.000,0.000
1643293273655347968,2022-01-27-14:21:13,10.1.1.4,25,-0.310,-0.310,-0.310,0.000,0.000,0.000
1643293273854779904,2022-01-27-14:21:13,10.1.1.4,24,-0.300,-0.300,-0.300,0.000,0.000,0.000
1643293274053988096,2022-01-27-14:21:14,10.1.1.4,23,-0.290,-0.290,-0.290,0.000,0.000,0.000
1643293274253794048,2022-01-27-14:21:14,10.1.1.4,22,-0.280,-0.280,-0.280,0.000,0.000,0.000
1643293274473767168,2022-01-27-14:21:14,10.1.1.4,41,-0.269,-0.269,-0.269,0.000,0.000,0.000
1643293274674305024,2022-01-27-14:21:14,10.1.1.4,41,-0.259,-0.259,-0.259,0.000,0.000,0.000
1643293274853765120,2022-01-27-14:21:14,10.1.1.4,19,-0.250,-0.250,-0.250,0.000,0.000,0.000
1643293275054963968,2022-01-27-14:21:15,10.1.1.4,19,-0.240,-0.240,-0.240,0.000,0.000,0.000
1643293275275190016,2022-01-27-14:21:15,10.1.1.4,38,-0.229,-0.229,-0.229,0.000,0.000,0.000
1643293275473819904,2022-01-27-14:21:15,10.1.1.4,36,-0.219,-0.219,-0.219,0.000,0.000,0.000
1643293275674031872,2022-01-27-14:21:15,10.1.1.4,36,-0.209,-0.209,-0.209,0.000,0.000,0.000
1643293275873826048,2022-01-27-14:21:15,10.1.1.4,35,-0.199,-0.199,-0.199,0.000,0.000,0.000
1643293276073765888,2022-01-27-14:21:16,10.1.1.4,34,-0.189,-0.189,-0.189,0.000,0.000,0.000
1643293276273967872,2022-01-27-14:21:16,10.1.1.4,34,-0.179,-0.179,-0.179,0.000,0.000,0.000
1643293276473669888,2022-01-27-14:21:16,10.1.1.4,33,-0.169,-0.169,-0.169,0.000,0.000,0.000
1643293276673625856,2022-01-27-14:21:16,10.1.1.4,33,-0.159,-0.159,-0.159,0.000,0.000,0.000
1643293276873871104,2022-01-27-14:21:16,10.1.1.4,33,-0.149,-0.149,-0.149,0.000,0.000,0.000
1643293277073657088,2022-01-27-14:21:17,10.1.1.4,32,-0.139,-0.139,-0.139,0.000,0.000,0.000
1643293277273624064,2022-01-27-14:21:17,10.1.1.4,30,-0.130,-0.130,-0.130,0.000,0.000,0.000
1643293277473911040,2022-01-27-14:21:17,10.1.1.4,28,-0.119,-0.119,-0.119,0.000,0.000,0.000
1643293277674001920,2022-01-27-14:21:17,10.1.1.4,27,-0.110,-0.110,-0.110,0.000,0.000,0.000
1643293277873640960,2022-01-27-14:21:17,10.1.1.4,26,-0.100,-0.100,-0.100,0.000,0.000,0.000
1643293278073635072,2022-01-27-14:21:18,10.1.1.4,26,-0.090,-0.090,-0.090,0.000,0.000,0.000
1643293278282919936,2022-01-27-14:21:18,10.1.1.4,31,-0.080,-0.080,-0.080,0.000,0.000,0.000
1643293278474067968,2022-01-27-14:21:18,10.1.1.4,20,-0.070,-0.070,-0.070,0.000,0.000,0.000
1643293278695853824,2022-01-27-14:21:18,10.1.1.4,40,-0.059,-0.059,-0.059,0.000,0.000,0.000
1643293278895224064,2022-01-27-14:21:18,10.1.1.4,38,-0.049,-0.049,-0.049,0.000,0.000,0.000
1643293279094877952,2022-01-27-14:21:19,10.1.1.4,37,-0.039,-0.039,-0.039,0.000,0.000,0.000
1643293279294056960,2022-01-27-14:21:19,10.1.1.4,35,-0.029,-0.029,-0.029,0.000,0.000,0.000
1643293279495003904,2022-01-27-14:21:19,10.1.1.4,35,-0.019,-0.019,-0.019,0.000,0.000,0.000
1643293279694531840,2022-01-27-14:21:19,10.1.1.4,34,-0.009,-0.009,-0.009,0.000,0.000,0.000
1643293279874955008,2022-01-27-14:21:19,10.1.1.4,14,-0.000,-0.000,-0.000,0.000,0.000,0.000
1643293280094355200,2022-01-27-14:21:20,10.1.1.4,33,-0.011,-0.011,-0.011,0.000,0.000,0.000
1643293280293924096,2022-01-27-14:21:20,10.1.1.4,32,-0.021,-0.021,-0.021,0.000,0.000,0.000
1643293280495689984,2022-01-27-14:21:20,10.1.1.4,33,-0.031,-0.031,-0.031,0.000,0.000,0.000
1643293280694938880,2022-01-27-14:21:20,10.1.1.4,32,-0.041,-0.041,-0.041,0.000,0.000,0.000
1643293280894496000,2022-01-27-14:21:20,10.1.1.4,31,-0.050,-0.050,-0.050,0.000,0.000,0.000
1643293281096060160,2022-01-27-14:21:21,10.1.1.4,31,-0.060,-0.060,-0.060,0.000,0.000,0.000
1643293281294595840,2022-01-27-14:21:21,10.1.1.4,30,-0.070,-0.070,-0.070,0.000,0.000,0.000
1643293281494246912,2022-01-27-14:21:21,10.1.1.4,28,-0.080,-0.080,-0.080,0.000,0.000,0.000
1643293281694305024,2022-01-27-14:21:21,10.1.1.4,28,-0.090,-0.090,-0.090,0.000,0.000,0.000
1643293281894006016,2022-01-27-14:21:21,10.1.1.4,27,-0.100,-0.100,-0.100,0.000,0.000,0.000
1643293282095937024,2022-01-27-14:21:22,10.1.1.4,28,-0.110,-0.110,-0.110,0.000,0.000,0.000
1643293282294467072,2022-01-27-14:21:22,10.1.1.4,26,-0.120,-0.120,-0.120,0.000,0.000,0.000
1643293282495544832,2022-01-27-14:21:22,10.1.1.4,26,-0.130,-0.130,-0.130,0.000,0.000,0.000
1643293282694145024,2022-01-27-14:21:22,10.1.1.4,24,-0.140,-0.140,-0.140,0.000,0.000,0.000
1643293282900721920,2022-01-27-14:21:22,10.1.1.4,30,-0.150,-0.150,-0.150,0.000,0.000,0.000
1643293283094737152,2022-01-27-14:21:23,10.1.1.4,24,-0.160,-0.160,-0.160,0.000,0.000,0.000
1643293283294738176,2022-01-27-14:21:23,10.1.1.4,23,-0.170,-0.170,-0.170,0.000,0.000,0.000
1643293283494467072,2022-01-27-14:21:23,10.1.1.4,22,-0.180,-0.180,-0.180,0.000,0.000,0.000
1643293283695288064,2022-01-27-14:21:23,10.1.1.4,23,-0.190,-0.190,-0.190,0.000,0.000,0.000
1643293283894680064,2022-01-27-14:21:23,10.1.1.4,22,-0.200,-0.200,-0.200,0.000,0.000,0.000
1643293284096421120,2022-01-27-14:21:24,10.1.1.4,23,-0.210,-0.210,-0.210,0.000,0.000,0.000
1643293284293991936,2022-01-27-14:21:24,10.1.1.4,19,-0.220,-0.220,-0.220,0.000,0.000,0.000
1643293284494689024,2022-01-27-14:21:24,10.1.1.4,19,-0.230,-0.230,-0.230,0.000,0.000,0.000
1643293284714458112,2022-01-27-14:21:24,10.1.1.4,38,-0.241,-0.241,-0.241,0.000,0.000,0.000
1643293284914449920,2022-01-27-14:21:24,10.1.1.4,37,-0.251,-0.251,-0.251,0.000,0.000,0.000
1643293285115027968,2022-01-27-14:21:25,10.1.1.4,37,-0.261,-0.261,-0.261,0.000,0.000,0.000
1643293285313859072,2022-01-27-14:21:25,10.1.1.4,36,-0.271,-0.271,-0.271,0.000,0.000,0.000
1643293285517168128,2022-01-27-14:21:25,10.1.1.4,38,-0.281,-0.281,-0.281,0.000,0.000,0.000
1643293285713812992,2022-01-27-14:21:25,10.1.1.4,34,-0.291,-0.291,-0.291,0.000,0.000,0.000
1643293285914823936,2022-01-27-14:21:25,10.1.1.4,34,-0.301,-0.301,-0.301,0.000,0.000,0.000
1643293286113959936,2022-01-27-14:21:26,10.1.1.4,33,-0.311,-0.311,-0.311,0.000,0.000,0.000
1643293286314161920,2022-01-27-14:21:26,10.1.1.4,33,-0.321,-0.321,-0.321,0.000,0.000,0.000
1643293286513938944,2022-01-27-14:21:26,10.1.1.4,32,-0.331,-0.331,-0.331,0.000,0.000,0.000
1643293286714317056,2022-01-27-14:21:26,10.1.1.4,31,-0.341,-0.341,-0.341,0.000,0.000,0.000
1643293286914247936,2022-01-27-14:21:26,10.1.1.4,30,-0.350,-0.350,-0.350,0.000,0.000,0.000
1643293287114660864,2022-01-27-14:21:27,10.1.1.4,27,-0.360,-0.360,-0.360,0.000,0.000,0.000
1643293287314680064,2022-01-27-14:21:27,10.1.1.4,26,-0.370,-0.370,-0.370,0.000,0.000,0.000
1643293287514887936,2022-01-27-14:21:27,10.1.1.4,26,-0.380,-0.380,-0.380,0.000,0.000,0.000
1643293287714349056,2022-01-27-14:21:27,10.1.1.4,25,-0.390,-0.390,-0.390,0.000,0.000,0.000
1643293287914021120,2022-01-27-14:21:27,10.1.1.4,24,-0.400,-0.400,-0.400,0.000,0.000,0.000
1643293288114159104,2022-01-27-14:21:28,10.1.1.4,23,-0.410,-0.410,-0.410,0.000,0.000,0.000
1643293288314178048,2022-01-27-14:21:28,10.1.1.4,23,-0.420,-0.420,-0.420,0.000,0.000,0.000
1643293288537102080,2022-01-27-14:21:28,10.1.1.4,44,-0.431,-0.431,-0.431,0.000,0.000,0.000
1643293288714029056,2022-01-27-14:21:28,10.1.1.4,20,-0.440,-0.440,-0.440,0.000,0.000,0.000
1643293288914263040,2022-01-27-14:21:28,10.1.1.4,19,-0.450,-0.450,-0.450,0.000,0.000,0.000
1643293289114701056,2022-01-27-14:21:29,10.1.1.4,19,-0.460,-0.460,-0.460,0.000,0.000,0.000
1643293289333857024,2022-01-27-14:21:29,10.1.1.4,38,-0.471,-0.471,-0.471,0.000,0.000,0.000
1643293289534543104,2022-01-27-14:21:29,10.1.1.4,38,-0.481,-0.481,-0.481,0.000,0.000,0.000
1643293289715240960,2022-01-27-14:21:29,10.1.1.4,17,-0.490,-0.490,-0.490,0.000,0.000,0.000
1643293289934484992,2022-01-27-14:21:29,10.1.1.4,36,-0.479,-0.479,-0.479,0.000,0.000,0.000
1643293290133932032,2022-01-27-14:21:30,10.1.1.4,35,-0.469,-0.469,-0.469,0.000,0.000,0.000
1643293290335009024,2022-01-27-14:21:30,10.1.1.4,35,-0.459,-0.459,-0.459,0.000,0.000,0.000
1643293290534859776,2022-01-27-14:21:30,10.1.1.4,33,-0.449,-0.449,-0.449,0.000,0.000,0.000
1643293290734366976,2022-01-27-14:21:30,10.1.1.4,33,-0.439,-0.439,-0.439,0.000,0.000,0.000
1643293290934813952,2022-01-27-14:21:30,10.1.1.4,32,-0.429,-0.429,-0.429,0.000,0.000,0.000
1643293291134254848,2022-01-27-14:21:31,10.1.1.4,31,-0.419,-0.419,-0.419,0.000,0.000,0.000
1643293291334659072,2022-01-27-14:21:31,10.1.1.4,31,-0.409,-0.409,-0.409,0.000,0.000,0.000
1643293291535831040,2022-01-27-14:21:31,10.1.1.4,31,-0.400,-0.400,-0.400,0.000,0.000,0.000
1643293291735452928,2022-01-27-14:21:31,10.1.1.4,30,-0.389,-0.389,-0.389,0.000,0.000,0.000
1643293291934004992,2022-01-27-14:21:31,10.1.1.4,28,-0.379,-0.379,-0.379,0.000,0.000,0.000
1643293292134962176,2022-01-27-14:21:32,10.1.1.4,28,-0.370,-0.370,-0.370,0.000,0.000,0.000
1643293292335048960,2022-01-27-14:21:32,10.1.1.4,27,-0.360,-0.360,-0.360,0.000,0.000,0.000
1643293292533950208,2022-01-27-14:21:32,10.1.1.4,26,-0.350,-0.350,-0.350,0.000,0.000,0.000
1643293292733894144,2022-01-27-14:21:32,10.1.1.4,26,-0.340,-0.340,-0.340,0.000,0.000,0.000
1643293292934663936,2022-01-27-14:21:32,10.1.1.4,26,-0.330,-0.330,-0.330,0.000,0.000,0.000
1643293293134779904,2022-01-27-14:21:33,10.1.1.4,25,-0.320,-0.320,-0.320,0.000,0.000,0.000
1643293293333667072,2022-01-27-14:21:33,10.1.1.4,24,-0.310,-0.310,-0.310,0.000,0.000,0.000
1643293293535300864,2022-01-27-14:21:33,10.1.1.4,25,-0.300,-0.300,-0.300,0.000,0.000,0.000
1643293293733916928,2022-01-27-14:21:33,10.1.1.4,22,-0.290,-0.290,-0.290,0.000,0.000,0.000
1643293293934204160,2022-01-27-14:21:33,10.1.1.4,22,-0.280,-0.280,-0.280,0.000,0.000,0.000
1643293294134332928,2022-01-27-14:21:34,10.1.1.4,21,-0.270,-0.270,-0.270,0.000,0.000,0.000
1643293294354286848,2022-01-27-14:21:34,10.1.1.4,40,-0.259,-0.259,-0.259,0.000,0.000,0.000
1643293294535124992,2022-01-27-14:21:34,10.1.1.4,20,-0.250,-0.250,-0.250,0.000,0.000,0.000
1643293294754740992,2022-01-27-14:21:34,10.1.1.4,38,-0.239,-0.239,-0.239,0.000,0.000,0.000
1643293294954992128,2022-01-27-14:21:34,10.1.1.4,38,-0.229,-0.229,-0.229,0.000,0.000,0.000
1643293295154450944,2022-01-27-14:21:35,10.1.1.4,37,-0.219,-0.219,-0.219,0.000,0.000,0.000
1643293295353935872,2022-01-27-14:21:35,10.1.1.4,36,-0.209,-0.209,-0.209,0.000,0.000,0.000
1643293295554027008,2022-01-27-14:21:35,10.1.1.4,35,-0.199,-0.199,-0.199,0.000,0.000,0.000
1643293295754842880,2022-01-27-14:21:35,10.1.1.4,35,-0.189,-0.189,-0.189,0.000,0.000,0.000
1643293295953822976,2022-01-27-14:21:35,10.1.1.4,33,-0.179,-0.179,-0.179,0.000,0.000,0.000
1643293296155781888,2022-01-27-14:21:36,10.1.1.4,33,-0.169,-0.169,-0.169,0.000,0.000,0.000
1643293296353948160,2022-01-27-14:21:36,10.1.1.4,32,-0.159,-0.159,-0.159,0.000,0.000,0.000
1643293296553709056,2022-01-27-14:21:36,10.1.1.4,31,-0.149,-0.149,-0.149,0.000,0.000,0.000
1643293296754105088,2022-01-27-14:21:36,10.1.1.4,31,-0.140,-0.140,-0.140,0.000,0.000,0.000
1643293296953702912,2022-01-27-14:21:36,10.1.1.4,30,-0.129,-0.129,-0.129,0.000,0.000,0.000
1643293297160312064,2022-01-27-14:21:37,10.1.1.4,35,-0.119,-0.119,-0.119,0.000,0.000,0.000
1643293297353626112,2022-01-27-14:21:37,10.1.1.4,25,-0.110,-0.110,-0.110,0.000,0.000,0.000
1643293297555318016,2022-01-27-14:21:37,10.1.1.4,25,-0.100,-0.100,-0.100,0.000,0.000,0.000
1643293297755393024,2022-01-27-14:21:37,10.1.1.4,23,-0.090,-0.090,-0.090,0.000,0.000,0.000
1643293297954786048,2022-01-27-14:21:37,10.1.1.4,22,-0.080,-0.080,-0.080,0.000,0.000,0.000
1643293298153748992,2022-01-27-14:21:38,10.1.1.4,20,-0.070,-0.070,-0.070,0.000,0.000,0.000
1643293298374136832,2022-01-27-14:21:38,10.1.1.4,37,-0.059,-0.059,-0.059,0.000,0.000,0.000
1643293298576189952,2022-01-27-14:21:38,10.1.1.4,39,-0.049,-0.049,-0.049,0.000,0.000,0.000
1643293298774310144,2022-01-27-14:21:38,10.1.1.4,36,-0.039,-0.039,-0.039,0.000,0.000,0.000
1643293298973857024,2022-01-27-14:21:38,10.1.1.4,30,-0.029,-0.029,-0.029,0.000,0.000,0.000
1643293299176866048,2022-01-27-14:21:39,10.1.1.4,27,-0.020,-0.020,-0.020,0.000,0.000,0.000
1643293299394771200,2022-01-27-14:21:39,10.1.1.4,43,-0.009,-0.009,-0.009,0.000,0.000,0.000
1643293299553488128,2022-01-27-14:21:39,10.1.1.4,1,-0.001,-0.001,-0.001,0.000,0.000,0.000
1643293299778824192,2022-01-27-14:21:39,10.1.1.4,26,-0.010,-0.010,-0.010,0.000,0.000,0.000
1643293299976440064,2022-01-27-14:21:39,10.1.1.4,23,-0.020,-0.020,-0.020,0.000,0.000,0.000
1643293300194341888,2022-01-27-14:21:40,10.1.1.4,40,-0.031,-0.031,-0.031,0.000,0.000,0.000
1643293300394617088,2022-01-27-14:21:40,10.1.1.4,40,-0.041,-0.041,-0.041,0.000,0.000,0.000
1643293300574539008,2022-01-27-14:21:40,10.1.1.4,19,-0.050,-0.050,-0.050,0.000,0.000,0.000
1643293300773912064,2022-01-27-14:21:40,10.1.1.4,18,-0.060,-0.060,-0.060,0.000,0.000,0.000
1643293300975540992,2022-01-27-14:21:40,10.1.1.4,19,-0.070,-0.070,-0.070,0.000,0.000,0.000
1643293301174321920,2022-01-27-14:21:41,10.1.1.4,18,-0.080,-0.080,-0.080,0.000,0.000,0.000
1643293301394691840,2022-01-27-14:21:41,10.1.1.4,38,-0.091,-0.091,-0.091,0.000,0.000,0.000
1643293301594489088,2022-01-27-14:21:41,10.1.1.4,37,-0.101,-0.101,-0.101,0.000,0.000,0.000
1643293301794582016,2022-01-27-14:21:41,10.1.1.4,36,-0.111,-0.111,-0.111,0.000,0.000,0.000
1643293301993739008,2022-01-27-14:21:41,10.1.1.4,34,-0.121,-0.121,-0.121,0.000,0.000,0.000
1643293302194753024,2022-01-27-14:21:42,10.1.1.4,35,-0.131,-0.131,-0.131,0.000,0.000,0.000
1643293302394820096,2022-01-27-14:21:42,10.1.1.4,34,-0.141,-0.141,-0.141,0.000,0.000,0.000
1643293302593904896,2022-01-27-14:21:42,10.1.1.4,33,-0.151,-0.151,-0.151,0.000,0.000,0.000
1643293302799006976,2022-01-27-14:21:42,10.1.1.4,34,-0.161,-0.161,-0.161,0.000,0.000,0.000
1643293302994227968,2022-01-27-14:21:42,10.1.1.4,31,-0.171,-0.171,-0.171,0.000,0.000,0.000
1643293303194822912,2022-01-27-14:21:43,10.1.1.4,31,-0.181,-0.181,-0.181,0.000,0.000,0.000
1643293303395170048,2022-01-27-14:21:43,10.1.1.4,31,-0.191,-0.191,-0.191,0.000,0.000,0.000
1643293303594966016,2022-01-27-14:21:43,10.1.1.4,30,-0.200,-0.200,-0.200,0.000,0.000,0.000
1643293303795474944,2022-01-27-14:21:43,10.1.1.4,29,-0.211,-0.211,-0.211,0.000,0.000,0.000
1643293303996260864,2022-01-27-14:21:43,10.1.1.4,29,-0.220,-0.220,-0.220,0.000,0.000,0.000
1643293304194606080,2022-01-27-14:21:44,10.1.1.4,27,-0.230,-0.230,-0.230,0.000,0.000,0.000
1643293304394272000,2022-01-27-14:21:44,10.1.1.4,26,-0.240,-0.240,-0.240,0.000,0.000,0.000
1643293304595955968,2022-01-27-14:21:44,10.1.1.4,25,-0.250,-0.250,-0.250,0.000,0.000,0.000
1643293304794605056,2022-01-27-14:21:44,10.1.1.4,23,-0.260,-0.260,-0.260,0.000,0.000,0.000
1643293304994630144,2022-01-27-14:21:44,10.1.1.4,19,-0.270,-0.270,-0.270,0.000,0.000,0.000
1643293305214940928,2022-01-27-14:21:45,10.1.1.4,36,-0.281,-0.281,-0.281,0.000,0.000,0.000
1643293305414513152,2022-01-27-14:21:45,10.1.1.4,35,-0.291,-0.291,-0.291,0.000,0.000,0.000
1643293305616211968,2022-01-27-14:21:45,10.1.1.4,36,-0.301,-0.301,-0.301,0.000,0.000,0.000
1643293305813672960,2022-01-27-14:21:45,10.1.1.4,33,-0.311,-0.311,-0.311,0.000,0.000,0.000
1643293306014526976,2022-01-27-14:21:46,10.1.1.4,33,-0.321,-0.321,-0.321,0.000,0.000,0.000
1643293306214475008,2022-01-27-14:21:46,10.1.1.4,32,-0.331,-0.331,-0.331,0.000,0.000,0.000
1643293306414836992,2022-01-27-14:21:46,10.1.1.4,32,-0.341,-0.341,-0.341,0.000,0.000,0.000
1643293306615719936,2022-01-27-14:21:46,10.1.1.4,31,-0.351,-0.351,-0.351,0.000,0.000,0.000
1643293306815316992,2022-01-27-14:21:46,10.1.1.4,32,-0.361,-0.361,-0.361,0.000,0.000,0.000
1643293307019348992,2022-01-27-14:21:47,10.1.1.4,31,-0.371,-0.371,-0.371,0.000,0.000,0.000
1643293307215091968,2022-01-27-14:21:47,10.1.1.4,29,-0.380,-0.380,-0.380,0.000,0.000,0.000
1643293307414597120,2022-01-27-14:21:47,10.1.1.4,28,-0.390,-0.390,-0.390,0.000,0.000,0.000
1643293307614300928,2022-01-27-14:21:47,10.1.1.4,27,-0.400,-0.400,-0.400,0.000,0.000,0.000
1643293307814168832,2022-01-27-14:21:47,10.1.1.4,26,-0.410,-0.410,-0.410,0.000,0.000,0.000
1643293308014688000,2022-01-27-14:21:48,10.1.1.4,26,-0.420,-0.420,-0.420,0.000,0.000,0.000
1643293308214825984,2022-01-27-14:21:48,10.1.1.4,26,-0.430,-0.430,-0.430,0.000,0.000,0.000
1643293308414465024,2022-01-27-14:21:48,10.1.1.4,24,-0.440,-0.440,-0.440,0.000,0.000,0.000
1643293308615216128,2022-01-27-14:21:48,10.1.1.4,23,-0.450,-0.450,-0.450,0.000,0.000,0.000
1643293308834484992,2022-01-27-14:21:48,10.1.1.4,42,-0.461,-0.461,-0.461,0.000,0.000,0.000
1643293309014590976,2022-01-27-14:21:49,10.1.1.4,21,-0.470,-0.470,-0.470,0.000,0.000,0.000
1643293309234704896,2022-01-27-14:21:49,10.1.1.4,41,-0.481,-0.481,-0.481,0.000,0.000,0.000
1643293309395819008,2022-01-27-14:21:49,10.1.1.4,1,-0.489,-0.489,-0.489,0.000,0.000,0.000
1643293309614432000,2022-01-27-14:21:49,10.1.1.4,18,-0.480,-0.480,-0.480,0.000,0.000,0.000
1643293309834430976,2022-01-27-14:21:49,10.1.1.4,38,-0.469,-0.469,-0.469,0.000,0.000,0.000
1643293310038279936,2022-01-27-14:21:50,10.1.1.4,41,-0.459,-0.459,-0.459,0.000,0.000,0.000
1643293310234230016,2022-01-27-14:21:50,10.1.1.4,36,-0.449,-0.449,-0.449,0.000,0.000,0.000
1643293310434295040,2022-01-27-14:21:50,10.1.1.4,35,-0.439,-0.439,-0.439,0.000,0.000,0.000
1643293310634533888,2022-01-27-14:21:50,10.1.1.4,35,-0.429,-0.429,-0.429,0.000,0.000,0.000
1643293310835431168,2022-01-27-14:21:50,10.1.1.4,35,-0.419,-0.419,-0.419,0.000,0.000,0.000
1643293311034627072,2022-01-27-14:21:51,10.1.1.4,34,-0.409,-0.409,-0.409,0.000,0.000,0.000
1643293311236505088,2022-01-27-14:21:51,10.1.1.4,33,-0.399,-0.399,-0.399,0.000,0.000,0.000
1643293311434566912,2022-01-27-14:21:51,10.1.1.4,29,-0.389,-0.389,-0.389,0.000,0.000,0.000
1643293311634913024,2022-01-27-14:21:51,10.1.1.4,29,-0.380,-0.380,-0.380,0.000,0.000,0.000
1643293311834782976,2022-01-27-14:21:51,10.1.1.4,27,-0.370,-0.370,-0.370,0.000,0.000,0.000
1643293312034998016,2022-01-27-14:21:52,10.1.1.4,26,-0.360,-0.360,-0.360,0.000,0.000,0.000
1643293312233881088,2022-01-27-14:21:52,10.1.1.4,25,-0.350,-0.350,-0.350,0.000,0.000,0.000
1643293312433937920,2022-01-27-14:21:52,10.1.1.4,24,-0.340,-0.340,-0.340,0.000,0.000,0.000
1643293312634736896,2022-01-27-14:21:52,10.1.1.4,25,-0.330,-0.330,-0.330,0.000,0.000,0.000
1643293312834372096,2022-01-27-14:21:52,10.1.1.4,23,-0.320,-0.320,-0.320,0.000,0.000,0.000
1643293313033821952,2022-01-27-14:21:53,10.1.1.4,21,-0.310,-0.310,-0.310,0.000,0.000,0.000
1643293313234294784,2022-01-27-14:21:53,10.1.1.4,21,-0.300,-0.300,-0.300,0.000,0.000,0.000
1643293313433741056,2022-01-27-14:21:53,10.1.1.4,19,-0.290,-0.290,-0.290,0.000,0.000,0.000
1643293313636301056,2022-01-27-14:21:53,10.1.1.4,20,-0.280,-0.280,-0.280,0.000,0.000,0.000
1643293313853799936,2022-01-27-14:21:53,10.1.1.4,38,-0.269,-0.269,-0.269,0.000,0.000,0.000
1643293314054009856,2022-01-27-14:21:54,10.1.1.4,38,-0.259,-0.259,-0.259,0.000,0.000,0.000
1643293314253837056,2022-01-27-14:21:54,10.1.1.4,36,-0.249,-0.249,-0.249,0.000,0.000,0.000
1643293314453977088,2022-01-27-14:21:54,10.1.1.4,35,-0.239,-0.239,-0.239,0.000,0.000,0.000
1643293314653900032,2022-01-27-14:21:54,10.1.1.4,33,-0.229,-0.229,-0.229,0.000,0.000,0.000
1643293314854054912,2022-01-27-14:21:54,10.1.1.4,32,-0.219,-0.219,-0.219,0.000,0.000,0.000
1643293315054276864,2022-01-27-14:21:55,10.1.1.4,32,-0.209,-0.209,-0.209,0.000,0.000,0.000
1643293315254054144,2022-01-27-14:21:55,10.1.1.4,31,-0.200,-0.200,-0.200,0.000,0.000,0.000
1643293315454061056,2022-01-27-14:21:55,10.1.1.4,31,-0.189,-0.189,-0.189,0.000,0.000,0.000
1643293315653615872,2022-01-27-14:21:55,10.1.1.4,30,-0.179,-0.179,-0.179,0.000,0.000,0.000
1643293315853615872,2022-01-27-14:21:55,10.1.1.4,26,-0.170,-0.170,-0.170,0.000,0.000,0.000
1643293316053865984,2022-01-27-14:21:56,10.1.1.4,26,-0.160,-0.160,-0.160,0.000,0.000,0.000
1643293316253645056,2022-01-27-14:21:56,10.1.1.4,25,-0.150,-0.150,-0.150,0.000,0.000,0.000
1643293316453982208,2022-01-27-14:21:56,10.1.1.4,24,-0.140,-0.140,-0.140,0.000,0.000,0.000
1643293316653835008,2022-01-27-14:21:56,10.1.1.4,24,-0.130,-0.130,-0.130,0.000,0.000,0.000
1643293316854223104,2022-01-27-14:21:56,10.1.1.4,22,-0.120,-0.120,-0.120,0.000,0.000,0.000
1643293317054024960,2022-01-27-14:21:57,10.1.1.4,21,-0.110,-0.110,-0.110,0.000,0.000,0.000
1643293317253952000,2022-01-27-14:21:57,10.1.1.4,20,-0.100,-0.100,-0.100,0.000,0.000,0.000
1643293317454760960,2022-01-27-14:21:57,10.1.1.4,20,-0.090,-0.090,-0.090,0.000,0.000,0.000
1643293317654497024,2022-01-27-14:21:57,10.1.1.4,19,-0.080,-0.080,-0.080,0.000,0.000,0.000
1643293317874541056,2022-01-27-14:21:57,10.1.1.4,39,-0.069,-0.069,-0.069,0.000,0.000,0.000
1643293318074942976,2022-01-27-14:21:58,10.1.1.4,38,-0.059,-0.059,-0.059,0.000,0.000,0.000
1643293318274473984,2022-01-27-14:21:58,10.1.1.4,38,-0.049,-0.049,-0.049,0.000,0.000,0.000
1643293318474110976,2022-01-27-14:21:58,10.1.1.4,37,-0.039,-0.039,-0.039,0.000,0.000,0.000
1643293318674891008,2022-01-27-14:21:58,10.1.1.4,37,-0.029,-0.029,-0.029,0.000,0.000,0.000
1643293318874416128,2022-01-27-14:21:58,10.1.1.4,35,-0.019,-0.019,-0.019,0.000,0.000,0.000
1643293319074810880,2022-01-27-14:21:59,10.1.1.4,35,-0.009,-0.009,-0.009,0.000,0.000,0.000
1643293319253916928,2022-01-27-14:21:59,10.1.1.4,14,-0.000,-0.000,-0.000,0.000,0.000,0.000
1643293319474584064,2022-01-27-14:21:59,10.1.1.4,34,-0.011,-0.011,-0.011,0.000,0.000,0.000
1643293319674934016,2022-01-27-14:21:59,10.1.1.4,34,-0.021,-0.021,-0.021,0.000,0.000,0.000
1643293319875314944,2022-01-27-14:21:59,10.1.1.4,34,-0.031,-0.031,-0.031,0.000,0.000,0.000
1643293320075090944,2022-01-27-14:22:00,10.1.1.4,32,-0.041,-0.041,-0.041,0.000,0.000,0.000
1643293320275564032,2022-01-27-14:22:00,10.1.1.4,32,-0.051,-0.051,-0.051,0.000,0.000,0.000
1643293320475601920,2022-01-27-14:22:00,10.1.1.4,30,-0.061,-0.061,-0.061,0.000,0.000,0.000
1643293320674670080,2022-01-27-14:22:00,10.1.1.4,27,-0.070,-0.070,-0.070,0.000,0.000,0.000
1643293320875102976,2022-01-27-14:22:00,10.1.1.4,26,-0.080,-0.080,-0.080,0.000,0.000,0.000
1643293321074862080,2022-01-27-14:22:01,10.1.1.4,25,-0.090,-0.090,-0.090,0.000,0.000,0.000
1643293321274979072,2022-01-27-14:22:01,10.1.1.4,25,-0.100,-0.100,-0.100,0.000,0.000,0.000
1643293321475516928,2022-01-27-14:22:01,10.1.1.4,23,-0.110,-0.110,-0.110,0.000,0.000,0.000
1643293321675857152,2022-01-27-14:22:01,10.1.1.4,21,-0.120,-0.120,-0.120,0.000,0.000,0.000
1643293321894809856,2022-01-27-14:22:01,10.1.1.4,37,-0.131,-0.131,-0.131,0.000,0.000,0.000
1643293322094987008,2022-01-27-14:22:02,10.1.1.4,37,-0.141,-0.141,-0.141,0.000,0.000,0.000
1643293322295911936,2022-01-27-14:22:02,10.1.1.4,36,-0.151,-0.151,-0.151,0.000,0.000,0.000
1643293322494944000,2022-01-27-14:22:02,10.1.1.4,35,-0.161,-0.161,-0.161,0.000,0.000,0.000
1643293322694974976,2022-01-27-14:22:02,10.1.1.4,33,-0.171,-0.171,-0.171,0.000,0.000,0.000
1643293322896455936,2022-01-27-14:22:02,10.1.1.4,32,-0.181,-0.181,-0.181,0.000,0.000,0.000
1643293323094938112,2022-01-27-14:22:03,10.1.1.4,31,-0.191,-0.191,-0.191,0.000,0.000,0.000
1643293323294688000,2022-01-27-14:22:03,10.1.1.4,30,-0.200,-0.200,-0.200,0.000,0.000,0.000
1643293323495469056,2022-01-27-14:22:03,10.1.1.4,30,-0.211,-0.211,-0.211,0.000,0.000,0.000
1643293323694555904,2022-01-27-14:22:03,10.1.1.4,29,-0.220,-0.220,-0.220,0.000,0.000,0.000
1643293323896018944,2022-01-27-14:22:03,10.1.1.4,28,-0.230,-0.230,-0.230,0.000,0.000,0.000
1643293324095272192,2022-01-27-14:22:04,10.1.1.4,27,-0.240,-0.240,-0.240,0.000,0.000,0.000
1643293324296137984,2022-01-27-14:22:04,10.1.1.4,27,-0.250,-0.250,-0.250,0.000,0.000,0.000
1643293324496797952,2022-01-27-14:22:04,10.1.1.4,27,-0.260,-0.260,-0.260,0.000,0.000,0.000
1643293324694725120,2022-01-27-14:22:04,10.1.1.4,24,-0.270,-0.270,-0.270,0.000,0.000,0.000
1643293324894881024,2022-01-27-14:22:04,10.1.1.4,24,-0.280,-0.280,-0.280,0.000,0.000,0.000
1643293325094450944,2022-01-27-14:22:05,10.1.1.4,23,-0.290,-0.290,-0.290,0.000,0.000,0.000
1643293325295115008,2022-01-27-14:22:05,10.1.1.4,23,-0.300,-0.300,-0.300,0.000,0.000,0.000
1643293325517522944,2022-01-27-14:22:05,10.1.1.4,45,-0.311,-0.311,-0.311,0.000,0.000,0.000
1643293325697299968,2022-01-27-14:22:05,10.1.1.4,24,-0.320,-0.320,-0.320,0.000,0.000,0.000
1643293325917778944,2022-01-27-14:22:05,10.1.1.4,44,-0.331,-0.331,-0.331,0.000,0.000,0.000
1643293326094345984,2022-01-27-14:22:06,10.1.1.4,19,-0.340,-0.340,-0.340,0.000,0.000,0.000
1643293326294637056,2022-01-27-14:22:06,10.1.1.4,18,-0.350,-0.350,-0.350,0.000,0.000,0.000
1643293326514137088,2022-01-27-14:22:06,10.1.1.4,38,-0.361,-0.361,-0.361,0.000,0.000,0.000
1643293326715198976,2022-01-27-14:22:06,10.1.1.4,37,-0.371,-0.371,-0.371,0.000,0.000,0.000
1643293326914633984,2022-01-27-14:22:06,10.1.1.4,36,-0.381,-0.381,-0.381,0.000,0.000,0.000
1643293327116588032,2022-01-27-14:22:07,10.1.1.4,37,-0.391,-0.391,-0.391,0.000,0.000,0.000
1643293327315036160,2022-01-27-14:22:07,10.1.1.4,35,-0.401,-0.401,-0.401,0.000,0.000,0.000
1643293327515409920,2022-01-27-14:22:07,10.1.1.4,35,-0.411,-0.411,-0.411,0.000,0.000,0.000
1643293327717835776,2022-01-27-14:22:07,10.1.1.4,34,-0.421,-0.421,-0.421,0.000,0.000,0.000
1643293327917423872,2022-01-27-14:22:07,10.1.1.4,34,-0.431,-0.431,-0.431,0.000,0.000,0.000
1643293328114757888,2022-01-27-14:22:08,10.1.1.4,32,-0.441,-0.441,-0.441,0.000,0.000,0.000
1643293328314654208,2022-01-27-14:22:08,10.1.1.4,31,-0.450,-0.450,-0.450,0.000,0.000,0.000
1643293328514590976,2022-01-27-14:22:08,10.1.1.4,30,-0.461,-0.461,-0.461,0.000,0.000,0.000
1643293328714765056,2022-01-27-14:22:08,10.1.1.4,28,-0.470,-0.470,-0.470,0.000,0.000,0.000
1643293328919075072,2022-01-27-14:22:08,10.1.1.4,28,-0.480,-0.480,-0.480,0.000,0.000,0.000
1643293329095150080,2022-01-27-14:22:09,10.1.1.4,3,-0.489,-0.489,-0.489,0.000,0.000,0.000
1643293329314950912,2022-01-27-14:22:09,10.1.1.4,22,-0.480,-0.480,-0.480,0.000,0.000,0.000
1643293329514383104,2022-01-27-14:22:09,10.1.1.4,19,-0.470,-0.470,-0.470,0.000,0.000,0.000
1643293329736601088,2022-01-27-14:22:09,10.1.1.4,36,-0.459,-0.459,-0.459,0.000,0.000,0.000
1643293329937350144,2022-01-27-14:22:09,10.1.1.4,36,-0.449,-0.449,-0.449,0.000,0.000,0.000
1643293330136358144,2022-01-27-14:22:10,10.1.1.4,36,-0.439,-0.439,-0.439,0.000,0.000,0.000
1643293330337554944,2022-01-27-14:22:10,10.1.1.4,35,-0.429,-0.429,-0.429,0.000,0.000,0.000
1643293330534885888,2022-01-27-14:22:10,10.1.1.4,33,-0.419,-0.419,-0.419,0.000,0.000,0.000
1643293330735034880,2022-01-27-14:22:10,10.1.1.4,33,-0.409,-0.409,-0.409,0.000,0.000,0.000
1643293330934420224,2022-01-27-14:22:10,10.1.1.4,32,-0.399,-0.399,-0.399,0.000,0.000,0.000
1643293331134985984,2022-01-27-14:22:11,10.1.1.4,32,-0.389,-0.389,-0.389,0.000,0.000,0.000
1643293331335585024,2022-01-27-14:22:11,10.1.1.4,30,-0.380,-0.380,-0.380,0.000,0.000,0.000
1643293331535318016,2022-01-27-14:22:11,10.1.1.4,27,-0.370,-0.370,-0.370,0.000,0.000,0.000
1643293331735052032,2022-01-27-14:22:11,10.1.1.4,26,-0.360,-0.360,-0.360,0.000,0.000,0.000
1643293331934812160,2022-01-27-14:22:11,10.1.1.4,25,-0.350,-0.350,-0.350,0.000,0.000,0.000
1643293332135294976,2022-01-27-14:22:12,10.1.1.4,24,-0.340,-0.340,-0.340,0.000,0.000,0.000
1643293332334334976,2022-01-27-14:22:12,10.1.1.4,23,-0.330,-0.330,-0.330,0.000,0.000,0.000
1643293332534200064,2022-01-27-14:22:12,10.1.1.4,22,-0.320,-0.320,-0.320,0.000,0.000,0.000
1643293332735307008,2022-01-27-14:22:12,10.1.1.4,22,-0.310,-0.310,-0.310,0.000,0.000,0.000
1643293332934361856,2022-01-27-14:22:12,10.1.1.4,20,-0.300,-0.300,-0.300,0.000,0.000,0.000
1643293333115319040,2022-01-27-14:22:13,10.1.1.4,-1,-0.291,-0.291,-0.291,0.000,0.000,0.000
1643293333334041088,2022-01-27-14:22:13,10.1.1.4,18,-0.280,-0.280,-0.280,0.000,0.000,0.000
1643293333553793024,2022-01-27-14:22:13,10.1.1.4,37,-0.269,-0.269,-0.269,0.000,0.000,0.000
1643293333754349056,2022-01-27-14:22:13,10.1.1.4,36,-0.259,-0.259,-0.259,0.000,0.000,0.000
1643293333954576896,2022-01-27-14:22:13,10.1.1.4,36,-0.249,-0.249,-0.249,0.000,0.000,0.000
1643293334156673024,2022-01-27-14:22:14,10.1.1.4,36,-0.239,-0.239,-0.239,0.000,0.000,0.000
1643293334354712064,2022-01-27-14:22:14,10.1.1.4,32,-0.229,-0.229,-0.229,0.000,0.000,0.000
1643293334555092992,2022-01-27-14:22:14,10.1.1.4,29,-0.219,-0.219,-0.219,0.000,0.000,0.000
1643293334754735872,2022-01-27-14:22:14,10.1.1.4,28,-0.210,-0.210,-0.210,0.000,0.000,0.000
1643293334954548992,2022-01-27-14:22:14,10.1.1.4,26,-0.200,-0.200,-0.200,0.000,0.000,0.000
1643293335153736192,2022-01-27-14:22:15,10.1.1.4,24,-0.190,-0.190,-0.190,0.000,0.000,0.000
1643293335354567168,2022-01-27-14:22:15,10.1.1.4,24,-0.180,-0.180,-0.180,0.000,0.000,0.000
1643293335554266880,2022-01-27-14:22:15,10.1.1.4,22,-0.170,-0.170,-0.170,0.000,0.000,0.000
1643293335755592192,2022-01-27-14:22:15,10.1.1.4,21,-0.160,-0.160,-0.160,0.000,0.000,0.000
1643293335954561024,2022-01-27-14:22:15,10.1.1.4,21,-0.150,-0.150,-0.150,0.000,0.000,0.000
1643293336174546944,2022-01-27-14:22:16,10.1.1.4,40,-0.139,-0.139,-0.139,0.000,0.000,0.000
1643293336354757120,2022-01-27-14:22:16,10.1.1.4,19,-0.130,-0.130,-0.130,0.000,0.000,0.000
1643293336554264064,2022-01-27-14:22:16,10.1.1.4,18,-0.120,-0.120,-0.120,0.000,0.000,0.000
1643293336754957824,2022-01-27-14:22:16,10.1.1.4,18,-0.110,-0.110,-0.110,0.000,0.000,0.000
1643293336974610944,2022-01-27-14:22:16,10.1.1.4,37,-0.099,-0.099,-0.099,0.000,0.000,0.000
1643293337176122880,2022-01-27-14:22:17,10.1.1.4,38,-0.089,-0.089,-0.089,0.000,0.000,0.000
1643293337376455936,2022-01-27-14:22:17,10.1.1.4,37,-0.079,-0.079,-0.079,0.000,0.000,0.000
1643293337575057920,2022-01-27-14:22:17,10.1.1.4,35,-0.069,-0.069,-0.069,0.000,0.000,0.000
1643293337774532096,2022-01-27-14:22:17,10.1.1.4,34,-0.059,-0.059,-0.059,0.000,0.000,0.000
1643293337977550080,2022-01-27-14:22:17,10.1.1.4,37,-0.049,-0.049,-0.049,0.000,0.000,0.000
1643293338175007232,2022-01-27-14:22:18,10.1.1.4,33,-0.039,-0.039,-0.039,0.000,0.000,0.000
1643293338374580992,2022-01-27-14:22:18,10.1.1.4,32,-0.029,-0.029,-0.029,0.000,0.000,0.000
1643293338575180032,2022-01-27-14:22:18,10.1.1.4,32,-0.019,-0.019,-0.019,0.000,0.000,0.000
1643293338775307776,2022-01-27-14:22:18,10.1.1.4,31,-0.009,-0.009,-0.009,0.000,0.000,0.000
1643293338956327936,2022-01-27-14:22:18,10.1.1.4,12,-0.000,-0.000,-0.000,0.000,0.000,0.000
1643293339174364160,2022-01-27-14:22:19,10.1.1.4,29,-0.010,-0.010,-0.010,0.000,0.000,0.000
1643293339375098880,2022-01-27-14:22:19,10.1.1.4,29,-0.020,-0.020,-0.020,0.000,0.000,0.000
1643293339574420992,2022-01-27-14:22:19,10.1.1.4,26,-0.030,-0.030,-0.030,0.000,0.000,0.000
1643293339775388928,2022-01-27-14:22:19,10.1.1.4,27,-0.040,-0.040,-0.040,0.000,0.000,0.000
1643293339974636032,2022-01-27-14:22:19,10.1.1.4,25,-0.050,-0.050,-0.050,0.000,0.000,0.000
1643293340174230016,2022-01-27-14:22:20,10.1.1.4,24,-0.060,-0.060,-0.060,0.000,0.000,0.000
1643293340375723008,2022-01-27-14:22:20,10.1.1.4,25,-0.070,-0.070,-0.070,0.000,0.000,0.000
1643293340575599872,2022-01-27-14:22:20,10.1.1.4,24,-0.080,-0.080,-0.080,0.000,0.000,0.000
1643293340775145984,2022-01-27-14:22:20,10.1.1.4,23,-0.090,-0.090,-0.090,0.000,0.000,0.000
1643293340975811840,2022-01-27-14:22:20,10.1.1.4,24,-0.100,-0.100,-0.100,0.000,0.000,0.000
1643293341176050944,2022-01-27-14:22:21,10.1.1.4,23,-0.110,-0.110,-0.110,0.000,0.000,0.000
1643293341374419968,2022-01-27-14:22:21,10.1.1.4,21,-0.120,-0.120,-0.120,0.000,0.000,0.000
1643293341594715136,2022-01-27-14:22:21,10.1.1.4,40,-0.131,-0.131,-0.131,0.000,0.000,0.000
1643293341794574080,2022-01-27-14:22:21,10.1.1.4,39,-0.141,-0.141,-0.141,0.000,0.000,0.000
1643293341995560960,2022-01-27-14:22:21,10.1.1.4,39,-0.151,-0.151,-0.151,0.000,0.000,0.000
1643293342195589120,2022-01-27-14:22:22,10.1.1.4,38,-0.161,-0.161,-0.161,0.000,0.000,0.000
1643293342396873984,2022-01-27-14:22:22,10.1.1.4,38,-0.171,-0.171,-0.171,0.000,0.000,0.000
1643293342597371136,2022-01-27-14:22:22,10.1.1.4,37,-0.181,-0.181,-0.181,0.000,0.000,0.000
1643293342794626048,2022-01-27-14:22:22,10.1.1.4,34,-0.191,-0.191,-0.191,0.000,0.000,0.000
1643293342994620160,2022-01-27-14:22:22,10.1.1.4,34,-0.201,-0.201,-0.201,0.000,0.000,0.000
1643293343196059904,2022-01-27-14:22:23,10.1.1.4,33,-0.211,-0.211,-0.211,0.000,0.000,0.000
1643293343394351104,2022-01-27-14:22:23,10.1.1.4,32,-0.221,-0.221,-0.221,0.000,0.000,0.000
1643293343594332928,2022-01-27-14:22:23,10.1.1.4,31,-0.231,-0.231,-0.231,0.000,0.000,0.000
1643293343795193856,2022-01-27-14:22:23,10.1.1.4,31,-0.240,-0.240,-0.240,0.000,0.000,0.000
1643293343994679808,2022-01-27-14:22:23,10.1.1.4,30,-0.251,-0.251,-0.251,0.000,0.000,0.000
1643293344195022080,2022-01-27-14:22:24,10.1.1.4,29,-0.261,-0.261,-0.261,0.000,0.000,0.000
1643293344394657024,2022-01-27-14:22:24,10.1.1.4,28,-0.270,-0.270,-0.270,0.000,0.000,0.000
1643293344594966016,2022-01-27-14:22:24,10.1.1.4,27,-0.280,-0.280,-0.280,0.000,0.000,0.000
1643293344794363136,2022-01-27-14:22:24,10.1.1.4,26,-0.290,-0.290,-0.290,0.000,0.000,0.000
1643293344995172864,2022-01-27-14:22:24,10.1.1.4,25,-0.300,-0.300,-0.300,0.000,0.000,0.000
1643293345194600192,2022-01-27-14:22:25,10.1.1.4,24,-0.310,-0.310,-0.310,0.000,0.000,0.000
1643293345394899968,2022-01-27-14:22:25,10.1.1.4,24,-0.320,-0.320,-0.320,0.000,0.000,0.000
1643293345595560960,2022-01-27-14:22:25,10.1.1.4,23,-0.330,-0.330,-0.330,0.000,0.000,0.000
1643293345796175104,2022-01-27-14:22:25,10.1.1.4,24,-0.340,-0.340,-0.340,0.000,0.000,0.000
1643293346014980096,2022-01-27-14:22:26,10.1.1.4,42,-0.351,-0.351,-0.351,0.000,0.000,0.000
1643293346214356992,2022-01-27-14:22:26,10.1.1.4,41,-0.361,-0.361,-0.361,0.000,0.000,0.000
1643293346417236992,2022-01-27-14:22:26,10.1.1.4,42,-0.371,-0.371,-0.371,0.000,0.000,0.000
1643293346614969088,2022-01-27-14:22:26,10.1.1.4,37,-0.381,-0.381,-0.381,0.000,0.000,0.000
1643293346815028992,2022-01-27-14:22:26,10.1.1.4,34,-0.391,-0.391,-0.391,0.000,0.000,0.000
1643293347014475008,2022-01-27-14:22:27,10.1.1.4,33,-0.401,-0.401,-0.401,0.000,0.000,0.000
1643293347214376960,2022-01-27-14:22:27,10.1.1.4,33,-0.411,-0.411,-0.411,0.000,0.000,0.000
1643293347415546880,2022-01-27-14:22:27,10.1.1.4,32,-0.420,-0.420,-0.420,0.000,0.000,0.000
1643293347614926080,2022-01-27-14:22:27,10.1.1.4,32,-0.431,-0.431,-0.431,0.000,0.000,0.000
1643293347814806016,2022-01-27-14:22:27,10.1.1.4,31,-0.440,-0.440,-0.440,0.000,0.000,0.000
1643293348014974976,2022-01-27-14:22:28,10.1.1.4,30,-0.451,-0.451,-0.451,0.000,0.000,0.000
1643293348214755072,2022-01-27-14:22:28,10.1.1.4,30,-0.460,-0.460,-0.460,0.000,0.000,0.000
1643293348414333184,2022-01-27-14:22:28,10.1.1.4,28,-0.471,-0.471,-0.471,0.000,0.000,0.000
1643293348614205952,2022-01-27-14:22:28,10.1.1.4,27,-0.480,-0.480,-0.480,0.000,0.000,0.000
1643293348794495232,2022-01-27-14:22:28,10.1.1.4,6,-0.489,-0.489,-0.489,0.000,0.000,0.000
1643293349014315008,2022-01-27-14:22:29,10.1.1.4,24,-0.480,-0.480,-0.480,0.000,0.000,0.000
1643293349214818048,2022-01-27-14:22:29,10.1.1.4,24,-0.470,-0.470,-0.470,0.000,0.000,0.000
1643293349415482112,2022-01-27-14:22:29,10.1.1.4,24,-0.460,-0.460,-0.460,0.000,0.000,0.000
1643293349634393088,2022-01-27-14:22:29,10.1.1.4,41,-0.449,-0.449,-0.449,0.000,0.000,0.000
1643293349814085120,2022-01-27-14:22:29,10.1.1.4,20,-0.440,-0.440,-0.440,0.000,0.000,0.000
1643293350034845952,2022-01-27-14:22:30,10.1.1.4,39,-0.429,-0.429,-0.429,0.000,0.000,0.000
1643293350235051008,2022-01-27-14:22:30,10.1.1.4,38,-0.419,-0.419,-0.419,0.000,0.000,0.000
1643293350434513152,2022-01-27-14:22:30,10.1.1.4,37,-0.409,-0.409,-0.409,0.000,0.000,0.000
1643293350634674944,2022-01-27-14:22:30,10.1.1.4,37,-0.399,-0.399,-0.399,0.000,0.000,0.000
1643293350835171840,2022-01-27-14:22:30,10.1.1.4,34,-0.389,-0.389,-0.389,0.000,0.000,0.000
1643293351034308864,2022-01-27-14:22:31,10.1.1.4,33,-0.379,-0.379,-0.379,0.000,0.000,0.000
1643293351237144832,2022-01-27-14:22:31,10.1.1.4,33,-0.369,-0.369,-0.369,0.000,0.000,0.000
1643293351435076096,2022-01-27-14:22:31,10.1.1.4,33,-0.359,-0.359,-0.359,0.000,0.000,0.000
1643293351634401024,2022-01-27-14:22:31,10.1.1.4,31,-0.349,-0.349,-0.349,0.000,0.000,0.000
1643293351835015168,2022-01-27-14:22:31,10.1.1.4,31,-0.339,-0.339,-0.339,0.000,0.000,0.000
1643293352035244032,2022-01-27-14:22:32,10.1.1.4,29,-0.329,-0.329,-0.329,0.000,0.000,0.000
1643293352234962944,2022-01-27-14:22:32,10.1.1.4,27,-0.320,-0.320,-0.320,0.000,0.000,0.000
1643293352434178048,2022-01-27-14:22:32,10.1.1.4,26,-0.310,-0.310,-0.310,0.000,0.000,0.000
1643293352634514944,2022-01-27-14:22:32,10.1.1.4,26,-0.300,-0.300,-0.300,0.000,0.000,0.000
1643293352836206080,2022-01-27-14:22:32,10.1.1.4,27,-0.290,-0.290,-0.290,0.000,0.000,0.000
1643293353034564096,2022-01-27-14:22:33,10.1.1.4,24,-0.280,-0.280,-0.280,0.000,0.000,0.000
1643293353236200960,2022-01-27-14:22:33,10.1.1.4,24,-0.270,-0.270,-0.270,0.000,0.000,0.000
1643293353434519040,2022-01-27-14:22:33,10.1.1.4,22,-0.260,-0.260,-0.260,0.000,0.000,0.000
1643293353654910208,2022-01-27-14:22:33,10.1.1.4,41,-0.249,-0.249,-0.249,0.000,0.000,0.000
1643293353834759936,2022-01-27-14:22:33,10.1.1.4,21,-0.240,-0.240,-0.240,0.000,0.000,0.000
1643293354036367872,2022-01-27-14:22:34,10.1.1.4,21,-0.230,-0.230,-0.230,0.000,0.000,0.000
1643293354234546944,2022-01-27-14:22:34,10.1.1.4,19,-0.220,-0.220,-0.220,0.000,0.000,0.000
1643293354458272000,2022-01-27-14:22:34,10.1.1.4,41,-0.209,-0.209,-0.209,0.000,0.000,0.000
1643293354654670080,2022-01-27-14:22:34,10.1.1.4,37,-0.199,-0.199,-0.199,0.000,0.000,0.000
1643293354854857984,2022-01-27-14:22:34,10.1.1.4,37,-0.189,-0.189,-0.189,0.000,0.000,0.000
1643293355054731008,2022-01-27-14:22:35,10.1.1.4,36,-0.179,-0.179,-0.179,0.000,0.000,0.000
1643293355254851072,2022-01-27-14:22:35,10.1.1.4,35,-0.169,-0.169,-0.169,0.000,0.000,0.000
1643293355454587904,2022-01-27-14:22:35,10.1.1.4,34,-0.159,-0.159,-0.159,0.000,0.000,0.000
1643293355656507904,2022-01-27-14:22:35,10.1.1.4,35,-0.149,-0.149,-0.149,0.000,0.000,0.000
1643293355856262912,2022-01-27-14:22:35,10.1.1.4,34,-0.139,-0.139,-0.139,0.000,0.000,0.000
1643293356054786048,2022-01-27-14:22:36,10.1.1.4,32,-0.129,-0.129,-0.129,0.000,0.000,0.000
1643293356254525952,2022-01-27-14:22:36,10.1.1.4,31,-0.119,-0.119,-0.119,0.000,0.000,0.000
1643293356456267008,2022-01-27-14:22:36,10.1.1.4,31,-0.110,-0.110,-0.110,0.000,0.000,0.000
1643293356655492096,2022-01-27-14:22:36,10.1.1.4,30,-0.099,-0.099,-0.099,0.000,0.000,0.000
1643293356854437120,2022-01-27-14:22:36,10.1.1.4,27,-0.090,-0.090,-0.090,0.000,0.000,0.000
1643293357055854080,2022-01-27-14:22:37,10.1.1.4,26,-0.080,-0.080,-0.080,0.000,0.000,0.000
1643293357254626048,2022-01-27-14:22:37,10.1.1.4,23,-0.070,-0.070,-0.070,0.000,0.000,0.000
1643293357456283136,2022-01-27-14:22:37,10.1.1.4,23,-0.060,-0.060,-0.060,0.000,0.000,0.000
1643293357677634048,2022-01-27-14:22:37,10.1.1.4,45,-0.049,-0.049,-0.049,0.000,0.000,0.000
1643293357875111936,2022-01-27-14:22:37,10.1.1.4,39,-0.039,-0.039,-0.039,0.000,0.000,0.000
1643293358075970048,2022-01-27-14:22:38,10.1.1.4,34,-0.029,-0.029,-0.029,0.000,0.000,0.000
1643293358274929920,2022-01-27-14:22:38,10.1.1.4,33,-0.019,-0.019,-0.019,0.000,0.000,0.000
1643293358474857984,2022-01-27-14:22:38,10.1.1.4,32,-0.009,-0.009,-0.009,0.000,0.000,0.000
1643293358654993152,2022-01-27-14:22:38,10.1.1.4,11,-0.000,-0.000,-0.000,0.000,0.000,0.000
1643293358874532096,2022-01-27-14:22:38,10.1.1.4,30,-0.011,-0.011,-0.011,0.000,0.000,0.000
1643293359075273984,2022-01-27-14:22:39,10.1.1.4,31,-0.021,-0.021,-0.021,0.000,0.000,0.000
1643293359275096064,2022-01-27-14:22:39,10.1.1.4,28,-0.030,-0.030,-0.030,0.000,0.000,0.000
1643293359475439104,2022-01-27-14:22:39,10.1.1.4,27,-0.040,-0.040,-0.040,0.000,0.000,0.000
1643293359674628864,2022-01-27-14:22:39,10.1.1.4,26,-0.050,-0.050,-0.050,0.000,0.000,0.000
1643293359874681856,2022-01-27-14:22:39,10.1.1.4,25,-0.060,-0.060,-0.060,0.000,0.000,0.000
1643293360075813120,2022-01-27-14:22:40,10.1.1.4,25,-0.070,-0.070,-0.070,0.000,0.000,0.000
1643293360275543040,2022-01-27-14:22:40,10.1.1.4,24,-0.080,-0.080,-0.080,0.000,0.000,0.000
