FedericoMungari/DigitalTwin_service/01_WiredScenario/Output/Output_script/script_rosapi_2_output_robots12_freq0_4.txt
timestamp,date,node,latency,joint_1,joint_2,joint_3,joint_4,joint_5,joint_6
1644374590566800128,2022-02-09-02:43:10,10.1.1.5,-11,-0.100,-0.100,-0.100,-0.000,0.000,0.000
1644374590703468032,2022-02-09-02:43:10,10.1.1.5,28,-0.090,-0.090,-0.090,0.000,0.000,0.000
1644374590803316992,2022-02-09-02:43:10,10.1.1.5,27,-0.080,-0.080,-0.080,0.000,0.000,0.000
1644374590903117824,2022-02-09-02:43:10,10.1.1.5,26,-0.070,-0.070,-0.070,0.000,0.000,0.000
1644374591002938112,2022-02-09-02:43:11,10.1.1.5,26,-0.060,-0.060,-0.060,0.000,0.000,0.000
1644374591103373056,2022-02-09-02:43:11,10.1.1.5,25,-0.050,-0.050,-0.050,0.000,0.000,0.000
1644374591203798016,2022-02-09-02:43:11,10.1.1.5,24,-0.040,-0.040,-0.040,0.000,0.000,0.000
1644374591302865152,2022-02-09-02:43:11,10.1.1.5,24,-0.030,-0.030,-0.030,0.000,0.000,0.000
1644374591403140096,2022-02-09-02:43:11,10.1.1.5,23,-0.020,-0.020,-0.020,0.000,0.000,0.000
1644374591502796800,2022-02-09-02:43:11,10.1.1.5,22,-0.010,-0.010,-0.010,0.000,0.000,0.000
1644374591603777792,2022-02-09-02:43:11,10.1.1.5,22,0.000,0.000,0.000,0.000,0.000,0.000
1644374591703299072,2022-02-09-02:43:11,10.1.1.5,21,0.010,0.010,0.010,0.000,0.000,0.000
1644374591803036928,2022-02-09-02:43:11,10.1.1.5,21,0.020,0.020,0.020,0.000,0.000,0.000
1644374591903220992,2022-02-09-02:43:11,10.1.1.5,21,0.030,0.030,0.030,0.000,0.000,0.000
1644374592003607040,2022-02-09-02:43:12,10.1.1.5,19,0.040,0.040,0.040,0.000,0.000,0.000
1644374592103141120,2022-02-09-02:43:12,10.1.1.5,19,0.050,0.050,0.050,0.000,0.000,0.000
1644374592203805952,2022-02-09-02:43:12,10.1.1.5,19,0.059,0.059,0.059,0.000,0.000,0.000
1644374592323107072,2022-02-09-02:43:12,10.1.1.5,38,0.070,0.070,0.070,0.000,0.000,0.000
1644374592423934976,2022-02-09-02:43:12,10.1.1.5,38,0.080,0.080,0.080,0.000,0.000,0.000
1644374592523646976,2022-02-09-02:43:12,10.1.1.5,37,0.090,0.090,0.090,0.000,0.000,0.000
1644374592623222016,2022-02-09-02:43:12,10.1.1.5,36,0.100,0.100,0.100,0.000,0.000,0.000
1644374592727390976,2022-02-09-02:43:12,10.1.1.5,35,0.090,0.090,0.090,0.000,0.000,0.000
1644374592823330048,2022-02-09-02:43:12,10.1.1.5,34,0.080,0.080,0.080,0.000,0.000,0.000
1644374592922703872,2022-02-09-02:43:12,10.1.1.5,20,0.070,0.070,0.070,0.000,0.000,0.000
1644374593022510080,2022-02-09-02:43:13,10.1.1.5,19,0.060,0.060,0.060,0.000,0.000,0.000
1644374593143465984,2022-02-09-02:43:13,10.1.1.5,38,0.050,0.050,0.050,0.000,0.000,0.000
1644374593243149056,2022-02-09-02:43:13,10.1.1.5,38,0.040,0.040,0.040,0.000,0.000,0.000
1644374593351862784,2022-02-09-02:43:13,10.1.1.5,37,0.030,0.030,0.030,0.000,0.000,0.000
1644374593445789952,2022-02-09-02:43:13,10.1.1.5,36,0.020,0.020,0.020,0.000,0.000,0.000
1644374593906686976,2022-02-09-02:43:13,10.1.1.5,36,0.010,0.010,0.010,0.000,0.000,0.000
1644374593983535104,2022-02-09-02:43:13,10.1.1.5,20,0.000,0.000,0.000,0.000,0.000,0.000
1644374594103183872,2022-02-09-02:43:14,10.1.1.5,36,-0.010,-0.010,-0.010,0.000,0.000,0.000
1644374594203027968,2022-02-09-02:43:14,10.1.1.5,35,-0.020,-0.020,-0.020,0.000,0.000,0.000
1644374594302793984,2022-02-09-02:43:14,10.1.1.5,34,-0.030,-0.030,-0.030,0.000,0.000,0.000
1644374594402971904,2022-02-09-02:43:14,10.1.1.5,31,-0.040,-0.040,-0.040,0.000,0.000,0.000
1644374594503087872,2022-02-09-02:43:14,10.1.1.5,30,-0.050,-0.050,-0.050,0.000,0.000,0.000
1644374594603051776,2022-02-09-02:43:14,10.1.1.5,29,-0.060,-0.060,-0.060,0.000,0.000,0.000
1644374594703001856,2022-02-09-02:43:14,10.1.1.5,28,-0.070,-0.070,-0.070,0.000,0.000,0.000
1644374594803441152,2022-02-09-02:43:14,10.1.1.5,26,-0.080,-0.080,-0.080,0.000,0.000,0.000
1644374594903243008,2022-02-09-02:43:14,10.1.1.5,24,-0.090,-0.090,-0.090,0.000,0.000,0.000
1644374595031207936,2022-02-09-02:43:15,10.1.1.5,36,-0.100,-0.100,-0.100,0.000,0.000,0.000
1644374595127321088,2022-02-09-02:43:15,10.1.1.5,36,-0.090,-0.090,-0.090,0.000,0.000,0.000
1644374596213601024,2022-02-09-02:43:15,10.1.1.5,35,-0.080,-0.080,-0.080,0.000,0.000,0.000
1644374596263741952,2022-02-09-02:43:16,10.1.1.5,36,-0.070,-0.070,-0.070,0.000,0.000,0.000
1644374596363298048,2022-02-09-02:43:16,10.1.1.5,33,-0.060,-0.060,-0.060,0.000,0.000,0.000
1644374596462786816,2022-02-09-02:43:16,10.1.1.5,33,-0.050,-0.050,-0.050,0.000,0.000,0.000
1644374596563268864,2022-02-09-02:43:16,10.1.1.5,32,-0.040,-0.040,-0.040,0.000,0.000,0.000
1644374596663290880,2022-02-09-02:43:16,10.1.1.5,31,-0.030,-0.030,-0.030,0.000,0.000,0.000
1644374599504806144,2022-02-09-02:43:16,10.1.1.5,38,-0.020,-0.020,-0.020,0.000,0.000,0.000
1644374602904491008,2022-02-09-02:43:20,10.1.1.5,21,0.010,0.010,0.010,0.000,0.000,0.000
1644374606100524800,2022-02-09-02:43:23,10.1.1.5,33,0.020,0.020,0.020,0.000,0.000,0.000
1644374610902865920,2022-02-09-02:43:27,10.1.1.5,25,0.060,0.060,0.060,0.000,0.000,0.000
1644374614925883904,2022-02-09-02:43:32,10.1.1.5,25,0.070,0.070,0.070,0.000,0.000,0.000
1644374616829138944,2022-02-09-02:43:35,10.1.1.5,24,0.050,0.050,0.050,0.000,0.000,0.000
1644374621676121088,2022-02-09-02:43:39,10.1.1.5,28,0.000,0.000,0.000,0.000,0.000,0.000
1644374625807235072,2022-02-09-02:43:44,10.1.1.5,39,-0.080,-0.080,-0.080,0.000,0.000,0.000
1644374625814238976,2022-02-09-02:43:45,10.1.1.5,-341,-0.080,-0.080,-0.080,0.000,0.000,0.000
1644374625968729088,2022-02-09-02:43:45,10.1.1.5,37,-0.100,-0.100,-0.100,0.000,0.000,0.000
1644374626088752896,2022-02-09-02:43:46,10.1.1.5,34,-0.090,-0.090,-0.090,0.000,0.000,0.000
1644374626247229184,2022-02-09-02:43:46,10.1.1.5,24,-0.080,-0.080,-0.080,0.000,0.000,0.000
1644374630162405120,2022-02-09-02:43:46,10.1.1.5,35,-0.070,-0.070,-0.070,0.000,0.000,0.000
1644374634341605888,2022-02-09-02:43:52,10.1.1.5,30,0.030,0.030,0.030,0.000,0.000,0.000
1644374637988615936,2022-02-09-02:43:56,10.1.1.5,36,0.080,0.080,0.080,0.000,0.000,0.000
1644374638043438080,2022-02-09-02:43:58,10.1.1.5,38,0.070,0.070,0.070,0.000,0.000,0.000
1644374638143488000,2022-02-09-02:43:58,10.1.1.5,35,0.060,0.060,0.060,0.000,0.000,0.000
1644374638244327168,2022-02-09-02:43:58,10.1.1.5,33,0.050,0.050,0.050,0.000,0.000,0.000
1644374638344308992,2022-02-09-02:43:58,10.1.1.5,32,0.040,0.040,0.040,0.000,0.000,0.000
1644374638443521024,2022-02-09-02:43:58,10.1.1.5,31,0.030,0.030,0.030,0.000,0.000,0.000
1644374638549050112,2022-02-09-02:43:58,10.1.1.5,30,0.020,0.020,0.020,0.000,0.000,0.000
1644374638659889920,2022-02-09-02:43:58,10.1.1.5,28,0.010,0.010,0.010,0.000,0.000,0.000
1644374638744425984,2022-02-09-02:43:58,10.1.1.5,28,0.000,0.000,0.000,0.000,0.000,0.000
1644374638844433920,2022-02-09-02:43:58,10.1.1.5,26,-0.010,-0.010,-0.010,0.000,0.000,0.000
1644374639451884032,2022-02-09-02:43:58,10.1.1.5,22,-0.020,-0.020,-0.020,0.000,0.000,0.000
1644374644608756992,2022-02-09-02:44:02,10.1.1.5,39,-0.090,-0.090,-0.090,0.000,0.000,0.000
1644374648664143104,2022-02-09-02:44:08,10.1.1.5,34,-0.040,-0.040,-0.040,0.000,0.000,0.000
1644374650935357184,2022-02-09-02:44:09,10.1.1.5,-926,-0.040,-0.040,-0.040,0.000,0.000,0.000
1644374654342420224,2022-02-09-02:44:11,10.1.1.5,30,0.010,0.010,0.010,0.000,0.000,0.000
1644374659791377152,2022-02-09-02:44:18,10.1.1.5,37,0.070,0.070,0.070,0.000,0.000,0.000
1644374663889625088,2022-02-09-02:44:22,10.1.1.5,30,0.000,0.000,0.000,0.000,0.000,0.000
1644374668035516928,2022-02-09-02:44:25,10.1.1.5,27,-0.050,-0.050,-0.050,0.000,0.000,0.000
1644374670479538944,2022-02-09-02:44:28,10.1.1.5,33,-0.060,-0.060,-0.060,0.000,0.000,0.000
1644374670785193984,2022-02-09-02:44:30,10.1.1.5,38,-0.070,-0.070,-0.070,0.000,0.000,0.000
1644374670885976064,2022-02-09-02:44:30,10.1.1.5,36,-0.080,-0.080,-0.080,0.000,0.000,0.000
1644374670986375936,2022-02-09-02:44:30,10.1.1.5,32,-0.090,-0.090,-0.090,0.000,0.000,0.000
1644374671096040960,2022-02-09-02:44:31,10.1.1.5,21,-0.100,-0.100,-0.100,0.000,0.000,0.000
1644374671191759104,2022-02-09-02:44:31,10.1.1.5,20,-0.090,-0.090,-0.090,0.000,0.000,0.000
1644374671283291136,2022-02-09-02:44:31,10.1.1.5,19,-0.081,-0.081,-0.081,0.000,0.000,0.000
1644374671404936960,2022-02-09-02:44:31,10.1.1.5,38,-0.070,-0.070,-0.070,0.000,0.000,0.000
1644374671503952896,2022-02-09-02:44:31,10.1.1.5,37,-0.060,-0.060,-0.060,0.000,0.000,0.000
1644374672530998016,2022-02-09-02:44:31,10.1.1.5,34,-0.050,-0.050,-0.050,0.000,0.000,0.000
1644374677847320064,2022-02-09-02:44:35,10.1.1.5,38,0.020,0.020,0.020,0.000,0.000,0.000
1644374679726788096,2022-02-09-02:44:38,10.1.1.5,-2869,0.020,0.020,0.020,0.000,0.000,0.000
1644374684378909184,2022-02-09-02:44:42,10.1.1.5,37,0.080,0.080,0.080,0.000,0.000,0.000
1644374698712155136,2022-02-09-02:44:57,10.1.1.5,39,0.040,0.040,0.040,0.000,0.000,0.000
1644374698769729024,2022-02-09-02:44:58,10.1.1.5,-37,0.040,0.040,0.040,0.000,0.000,0.000
1644374698902398208,2022-02-09-02:44:58,10.1.1.5,21,0.060,0.060,0.060,0.000,0.000,0.000
1644374699003261952,2022-02-09-02:44:59,10.1.1.5,20,0.070,0.070,0.070,0.000,0.000,0.000
1644374699104792064,2022-02-09-02:44:59,10.1.1.5,19,0.079,0.079,0.079,0.000,0.000,0.000
1644374699222784000,2022-02-09-02:44:59,10.1.1.5,38,0.090,0.090,0.090,0.000,0.000,0.000
1644374699323329024,2022-02-09-02:44:59,10.1.1.5,37,0.100,0.100,0.100,0.000,0.000,0.000
1644374699423201024,2022-02-09-02:44:59,10.1.1.5,35,0.090,0.090,0.090,0.000,0.000,0.000
1644374699531277824,2022-02-09-02:44:59,10.1.1.5,34,0.080,0.080,0.080,0.000,0.000,0.000
1644374699622975232,2022-02-09-02:44:59,10.1.1.5,34,0.070,0.070,0.070,0.000,0.000,0.000
1644374699724910848,2022-02-09-02:44:59,10.1.1.5,31,0.060,0.060,0.060,0.000,0.000,0.000
1644374699823007232,2022-02-09-02:44:59,10.1.1.5,30,0.050,0.050,0.050,0.000,0.000,0.000
1644374699923644928,2022-02-09-02:44:59,10.1.1.5,29,0.040,0.040,0.040,0.000,0.000,0.000
1644374700023580928,2022-02-09-02:45:00,10.1.1.5,21,0.030,0.030,0.030,0.000,0.000,0.000
1644374700139798016,2022-02-09-02:45:00,10.1.1.5,20,0.020,0.020,0.020,0.000,0.000,0.000
1644374700243973888,2022-02-09-02:45:00,10.1.1.5,35,0.010,0.010,0.010,0.000,0.000,0.000
1644374701930695168,2022-02-09-02:45:00,10.1.1.5,34,0.000,0.000,0.000,0.000,0.000,0.000
1644374705703808000,2022-02-09-02:45:03,10.1.1.5,38,-0.060,-0.060,-0.060,0.000,0.000,0.000
1644374709458905856,2022-02-09-02:45:06,10.1.1.5,35,-0.080,-0.080,-0.080,0.000,0.000,0.000
1644374714667031040,2022-02-09-02:45:12,10.1.1.5,-36,-0.080,-0.080,-0.080,0.000,0.000,0.000
1644374717776707840,2022-02-09-02:45:15,10.1.1.5,27,-0.060,-0.060,-0.060,0.000,0.000,0.000
1644374722785875200,2022-02-09-02:45:19,10.1.1.5,39,-0.010,-0.010,-0.010,0.000,0.000,0.000
1644374728305927936,2022-02-09-02:45:23,10.1.1.5,-3250,-0.010,-0.010,-0.010,0.000,0.000,0.000
1644374740227757056,2022-02-09-02:45:37,10.1.1.5,37,0.080,0.080,0.080,0.000,0.000,0.000
1644374740372524032,2022-02-09-02:45:40,10.1.1.5,34,0.090,0.090,0.090,0.000,0.000,0.000
1644374740423543040,2022-02-09-02:45:40,10.1.1.5,28,0.100,0.100,0.100,0.000,0.000,0.000
1644374740523510016,2022-02-09-02:45:40,10.1.1.5,27,0.090,0.090,0.090,0.000,0.000,0.000
1644374740623969024,2022-02-09-02:45:40,10.1.1.5,27,0.080,0.080,0.080,0.000,0.000,0.000
1644374740723195904,2022-02-09-02:45:40,10.1.1.5,23,0.070,0.070,0.070,0.000,0.000,0.000
1644374740824926976,2022-02-09-02:45:40,10.1.1.5,22,0.060,0.060,0.060,0.000,0.000,0.000
1644374740944556032,2022-02-09-02:45:40,10.1.1.5,36,0.050,0.050,0.050,0.000,0.000,0.000
1644374741163849216,2022-02-09-02:45:41,10.1.1.5,35,0.030,0.030,0.030,0.000,0.000,0.000
1644374741263412992,2022-02-09-02:45:41,10.1.1.5,34,0.020,0.020,0.020,0.000,0.000,0.000
1644374741363035904,2022-02-09-02:45:41,10.1.1.5,28,0.010,0.010,0.010,0.000,0.000,0.000
1644374741463331072,2022-02-09-02:45:41,10.1.1.5,26,0.000,0.000,0.000,0.000,0.000,0.000
1644374741562896896,2022-02-09-02:45:41,10.1.1.5,25,-0.010,-0.010,-0.010,0.000,0.000,0.000
1644374741663714048,2022-02-09-02:45:41,10.1.1.5,23,-0.020,-0.020,-0.020,0.000,0.000,0.000
1644374741786753792,2022-02-09-02:45:41,10.1.1.5,23,-0.030,-0.030,-0.030,0.000,0.000,0.000
1644374745371130880,2022-02-09-02:45:42,10.1.1.5,27,-0.050,-0.050,-0.050,0.000,0.000,0.000
1644374749787902976,2022-02-09-02:45:45,10.1.1.5,38,-0.070,-0.070,-0.070,0.000,0.000,0.000
1644374753206475008,2022-02-09-02:45:50,10.1.1.5,38,-0.080,-0.080,-0.080,0.000,0.000,0.000
1644374758864989952,2022-02-09-02:45:55,10.1.1.5,-326,-0.090,-0.090,-0.090,0.000,0.000,0.000
1644374763377680128,2022-02-09-02:46:01,10.1.1.5,31,-0.010,-0.010,-0.010,0.000,0.000,0.000
1644374766166455040,2022-02-09-02:46:04,10.1.1.5,38,0.020,0.020,0.020,0.000,0.000,0.000
1644374775006396928,2022-02-09-02:46:13,10.1.1.5,20,0.000,0.000,0.000,0.000,0.000,0.000
1644374813639162112,2022-02-09-02:46:50,10.1.1.5,-203,0.060,0.060,0.060,0.000,0.000,0.000
1644374830002983936,2022-02-09-02:47:06,10.1.1.5,-102,0.060,0.060,0.060,0.000,0.000,0.000
1644374843328582144,2022-02-09-02:47:22,10.1.1.5,-506,0.060,0.060,0.060,0.000,0.000,0.000
1644374855613797888,2022-02-09-02:47:34,10.1.1.5,-60,0.060,0.060,0.060,0.000,0.000,0.000
1644374869635817984,2022-02-09-02:47:47,10.1.1.5,-3,0.060,0.060,0.060,0.000,0.000,0.000
1644374883722498048,2022-02-09-02:47:59,10.1.1.5,-8,0.060,0.060,0.060,0.000,0.000,0.000
1644374891464105984,2022-02-09-02:48:09,10.1.1.5,-1967,0.060,0.060,0.060,0.000,0.000,0.000
1644374912207808000,2022-02-09-02:48:28,10.1.1.5,-367,0.060,0.060,0.060,0.000,0.000,0.000
1644374928231173888,2022-02-09-02:48:45,10.1.1.5,-1071,0.060,0.060,0.060,0.000,0.000,0.000
1644374948044594944,2022-02-09-02:49:07,10.1.1.5,-1438,0.060,0.060,0.060,0.000,0.000,0.000
1644374960855163136,2022-02-09-02:49:17,10.1.1.5,-136,0.060,0.060,0.060,0.000,0.000,0.000
1644374975257110016,2022-02-09-02:49:32,10.1.1.5,-508,0.060,0.060,0.060,0.000,0.000,0.000
1644374980966366976,2022-02-09-02:49:38,10.1.1.5,-2308,0.060,0.060,0.060,0.000,0.000,0.000
1644374994584326912,2022-02-09-02:49:51,10.1.1.5,-402,0.060,0.060,0.060,0.000,0.000,0.000
1644375001011419904,2022-02-09-02:49:57,10.1.1.5,-723,0.060,0.060,0.060,0.000,0.000,0.000
1644375012617580800,2022-02-09-02:50:09,10.1.1.5,-23,0.060,0.060,0.060,0.000,0.000,0.000
1644375017052890112,2022-02-09-02:50:14,10.1.1.5,-507,0.060,0.060,0.060,0.000,0.000,0.000
1644375027833465088,2022-02-09-02:50:25,10.1.1.5,-1471,0.060,0.060,0.060,0.000,0.000,0.000
1644375031942684928,2022-02-09-02:50:30,10.1.1.5,-7,0.060,0.060,0.060,0.000,0.000,0.000
1644375044179016192,2022-02-09-02:50:41,10.1.1.5,-2683,0.060,0.060,0.060,0.000,0.000,0.000
1644375052397842944,2022-02-09-02:50:49,10.1.1.5,-4419,0.060,0.060,0.060,0.000,0.000,0.000
1644375065819048960,2022-02-09-02:51:03,10.1.1.5,-611,0.060,0.060,0.060,0.000,0.000,0.000
1644375089225056000,2022-02-09-02:51:26,10.1.1.5,-378,0.060,0.060,0.060,0.000,0.000,0.000
1644375092632801024,2022-02-09-02:51:30,10.1.1.5,-4051,0.060,0.060,0.060,0.000,0.000,0.000
1644375106616844032,2022-02-09-02:51:44,10.1.1.5,-3236,0.060,0.060,0.060,0.000,0.000,0.000
1644375125126518016,2022-02-09-02:52:01,10.1.1.5,-200,0.060,0.060,0.060,0.000,0.000,0.000
1644375153125691904,2022-02-09-02:52:29,10.1.1.5,-947,0.060,0.060,0.060,0.000,0.000,0.000
1644375162484785920,2022-02-09-02:52:39,10.1.1.5,-100,0.060,0.060,0.060,0.000,0.000,0.000
1644375175602035968,2022-02-09-02:52:53,10.1.1.5,-892,0.060,0.060,0.060,0.000,0.000,0.000
1644375178427126016,2022-02-09-02:52:56,10.1.1.5,-344,0.060,0.060,0.060,0.000,0.000,0.000
1644375188075400960,2022-02-09-02:53:06,10.1.1.5,-635,0.060,0.060,0.060,0.000,0.000,0.000
1644375195610632960,2022-02-09-02:53:14,10.1.1.5,-145,0.060,0.060,0.060,0.000,0.000,0.000
1644375199369255936,2022-02-09-02:53:17,10.1.1.5,-1796,0.060,0.060,0.060,0.000,0.000,0.000
1644375215432264960,2022-02-09-02:53:32,10.1.1.5,-655,0.060,0.060,0.060,0.000,0.000,0.000
1644375224368151040,2022-02-09-02:53:43,10.1.1.5,-203,0.060,0.060,0.060,0.000,0.000,0.000
1644375229357419008,2022-02-09-02:53:46,10.1.1.5,-482,0.060,0.060,0.060,0.000,0.000,0.000
1644375257767479808,2022-02-09-02:54:16,10.1.1.5,-58,0.060,0.060,0.060,0.000,0.000,0.000
1644375260819070208,2022-02-09-02:54:18,10.1.1.5,-342,0.060,0.060,0.060,0.000,0.000,0.000
1644375269914278912,2022-02-09-02:54:25,10.1.1.5,-1463,0.060,0.060,0.060,0.000,0.000,0.000
1644375282215148032,2022-02-09-02:54:41,10.1.1.5,-2,0.060,0.060,0.060,0.000,0.000,0.000
1644375282945453824,2022-02-09-02:54:42,10.1.1.5,-5,0.060,0.060,0.060,0.000,0.000,0.000
1644375286184519936,2022-02-09-02:54:46,10.1.1.5,-11,0.060,0.060,0.060,0.000,0.000,0.000
1644375287046988032,2022-02-09-02:54:47,10.1.1.5,1,0.060,0.060,0.060,0.000,0.000,0.000
1644375290343900928,2022-02-09-02:54:50,10.1.1.5,-8,0.060,0.060,0.060,0.000,0.000,0.000
1644375291165093888,2022-02-09-02:54:51,10.1.1.5,-1,0.060,0.060,0.060,0.000,0.000,0.000
1644375294484345856,2022-02-09-02:54:54,10.1.1.5,-1,0.060,0.060,0.060,0.000,0.000,0.000
1644375295325351936,2022-02-09-02:54:55,10.1.1.5,-4,0.060,0.060,0.060,0.000,0.000,0.000
1644375298564454144,2022-02-09-02:54:58,10.1.1.5,5,0.060,0.060,0.060,0.000,0.000,0.000
1644375299366708992,2022-02-09-02:54:59,10.1.1.5,0,0.060,0.060,0.060,0.000,0.000,0.000
1644375302584777984,2022-02-09-02:55:02,10.1.1.5,-2,0.060,0.060,0.060,0.000,0.000,0.000
1644375303384557056,2022-02-09-02:55:03,10.1.1.5,-12,0.060,0.060,0.060,0.000,0.000,0.000
1644375306604142848,2022-02-09-02:55:06,10.1.1.5,-8,0.060,0.060,0.060,0.000,0.000,0.000
1644375307425095168,2022-02-09-02:55:07,10.1.1.5,-2,0.060,0.060,0.060,0.000,0.000,0.000
1644375310644340992,2022-02-09-02:55:10,10.1.1.5,-8,0.060,0.060,0.060,0.000,0.000,0.000
1644375311465012992,2022-02-09-02:55:11,10.1.1.5,5,0.060,0.060,0.060,0.000,0.000,0.000
1644375314684631040,2022-02-09-02:55:14,10.1.1.5,3,0.060,0.060,0.060,0.000,0.000,0.000
1644375315485933056,2022-02-09-02:55:15,10.1.1.5,-3,0.060,0.060,0.060,0.000,0.000,0.000
1644375318724865792,2022-02-09-02:55:18,10.1.1.5,-7,0.060,0.060,0.060,0.000,0.000,0.000
1644375319544549888,2022-02-09-02:55:19,10.1.1.5,4,0.060,0.060,0.060,0.000,0.000,0.000
1644375322846467072,2022-02-09-02:55:22,10.1.1.5,-10,0.060,0.060,0.060,0.000,0.000,0.000
1644375323664489984,2022-02-09-02:55:23,10.1.1.5,-3,0.060,0.060,0.060,0.000,0.000,0.000
1644375330239200000,2022-02-09-02:55:29,10.1.1.5,-1359,0.060,0.060,0.060,0.000,0.000,0.000
1644375347345520896,2022-02-09-02:55:45,10.1.1.5,-4,0.060,0.060,0.060,0.000,0.000,0.000
1644375348064558080,2022-02-09-02:55:48,10.1.1.5,-7,0.060,0.060,0.060,0.000,0.000,0.000
1644375351330603008,2022-02-09-02:55:51,10.1.1.5,5,0.060,0.060,0.060,0.000,0.000,0.000
1644375352144203008,2022-02-09-02:55:52,10.1.1.5,-3,0.060,0.060,0.060,0.000,0.000,0.000
1644375355698523904,2022-02-09-02:55:55,10.1.1.5,-9,0.060,0.060,0.060,0.000,0.000,0.000
1644375356424850944,2022-02-09-02:55:56,10.1.1.5,2,0.060,0.060,0.060,0.000,0.000,0.000
1644375359708841984,2022-02-09-02:55:59,10.1.1.5,-6,0.060,0.060,0.060,0.000,0.000,0.000
1644375360525270016,2022-02-09-02:56:00,10.1.1.5,-3,0.060,0.060,0.060,0.000,0.000,0.000
1644375363785774848,2022-02-09-02:56:03,10.1.1.5,6,0.060,0.060,0.060,0.000,0.000,0.000
1644375364584850176,2022-02-09-02:56:04,10.1.1.5,-4,0.060,0.060,0.060,0.000,0.000,0.000
1644375367931233024,2022-02-09-02:56:07,10.1.1.5,-11,0.060,0.060,0.060,0.000,0.000,0.000
1644375368724677120,2022-02-09-02:56:08,10.1.1.5,4,0.060,0.060,0.060,0.000,0.000,0.000
1644375371945997056,2022-02-09-02:56:11,10.1.1.5,3,0.060,0.060,0.060,0.000,0.000,0.000
1644375372754960896,2022-02-09-02:56:12,10.1.1.5,-21,0.060,0.060,0.060,0.000,0.000,0.000
1644375376287492096,2022-02-09-02:56:16,10.1.1.5,0,0.060,0.060,0.060,0.000,0.000,0.000
1644375377597786880,2022-02-09-02:56:17,10.1.1.5,-6,0.060,0.060,0.060,0.000,0.000,0.000
1644375381523350016,2022-02-09-02:56:20,10.1.1.5,-10,0.060,0.060,0.060,0.000,0.000,0.000
1644375382683219968,2022-02-09-02:56:22,10.1.1.5,-82,0.060,0.060,0.060,0.000,0.000,0.000
1644375387162733056,2022-02-09-02:56:25,10.1.1.5,-13,0.060,0.060,0.060,0.000,0.000,0.000
1644375388104402176,2022-02-09-02:56:28,10.1.1.5,6,0.060,0.060,0.060,0.000,0.000,0.000
1644375392876229888,2022-02-09-02:56:31,10.1.1.5,-9,0.060,0.060,0.060,0.000,0.000,0.000
1644375393897900032,2022-02-09-02:56:33,10.1.1.5,-10,0.060,0.060,0.060,0.000,0.000,0.000
1644375398622416128,2022-02-09-02:56:37,10.1.1.5,-13,0.060,0.060,0.060,0.000,0.000,0.000
1644375399827072000,2022-02-09-02:56:39,10.1.1.5,6,0.060,0.060,0.060,0.000,0.000,0.000
1644375403711507968,2022-02-09-02:56:43,10.1.1.5,-17,0.060,0.060,0.060,0.000,0.000,0.000
1644375405977658880,2022-02-09-02:56:44,10.1.1.5,-3,0.060,0.060,0.060,0.000,0.000,0.000
1644375409576992000,2022-02-09-02:56:49,10.1.1.5,3,0.060,0.060,0.060,0.000,0.000,0.000
1644375410384504064,2022-02-09-02:56:50,10.1.1.5,4,0.060,0.060,0.060,0.000,0.000,0.000
1644375414365266944,2022-02-09-02:56:53,10.1.1.5,-14,0.060,0.060,0.060,0.000,0.000,0.000
1644375415304549888,2022-02-09-02:56:55,10.1.1.5,3,0.060,0.060,0.060,0.000,0.000,0.000
1644375419835578880,2022-02-09-02:56:59,10.1.1.5,-42,0.060,0.060,0.060,0.000,0.000,0.000
1644375420644589824,2022-02-09-02:57:00,10.1.1.5,-7,0.060,0.060,0.060,0.000,0.000,0.000
1644375428093549056,2022-02-09-02:57:04,10.1.1.5,-25,0.060,0.060,0.060,0.000,0.000,0.000
1644375431424029184,2022-02-09-02:57:08,10.1.1.5,-3,0.060,0.060,0.060,0.000,0.000,0.000
1644375435049364992,2022-02-09-02:57:14,10.1.1.5,-5,0.060,0.060,0.060,0.000,0.000,0.000
1644375435766049024,2022-02-09-02:57:15,10.1.1.5,-3,0.060,0.060,0.060,0.000,0.000,0.000
1644375439120229120,2022-02-09-02:57:19,10.1.1.5,-23,0.060,0.060,0.060,0.000,0.000,0.000
1644375439948666112,2022-02-09-02:57:19,10.1.1.5,-8,0.060,0.060,0.060,0.000,0.000,0.000
1644375443324933120,2022-02-09-02:57:23,10.1.1.5,-10,0.060,0.060,0.060,0.000,0.000,0.000
1644375444144800000,2022-02-09-02:57:24,10.1.1.5,-3,0.060,0.060,0.060,0.000,0.000,0.000
1644375447386252032,2022-02-09-02:57:27,10.1.1.5,-11,0.060,0.060,0.060,0.000,0.000,0.000
1644375448204291072,2022-02-09-02:57:28,10.1.1.5,1,0.060,0.060,0.060,0.000,0.000,0.000
1644375451425147136,2022-02-09-02:57:31,10.1.1.5,-6,0.060,0.060,0.060,0.000,0.000,0.000
1644375452245426944,2022-02-09-02:57:32,10.1.1.5,-6,0.060,0.060,0.060,0.000,0.000,0.000
1644375455571661056,2022-02-09-02:57:35,10.1.1.5,-45,0.060,0.060,0.060,0.000,0.000,0.000
1644375456406130944,2022-02-09-02:57:36,10.1.1.5,2,0.060,0.060,0.060,0.000,0.000,0.000
1644375460098969856,2022-02-09-02:57:39,10.1.1.5,-5,0.060,0.060,0.060,0.000,0.000,0.000
1644375460814493952,2022-02-09-02:57:40,10.1.1.5,-22,0.060,0.060,0.060,0.000,0.000,0.000
1644375464067672064,2022-02-09-02:57:44,10.1.1.5,-11,0.060,0.060,0.060,0.000,0.000,0.000
1644375464874632960,2022-02-09-02:57:44,10.1.1.5,-22,0.060,0.060,0.060,0.000,0.000,0.000
1644375468448453888,2022-02-09-02:57:48,10.1.1.5,-1,0.060,0.060,0.060,0.000,0.000,0.000
1644375469159990016,2022-02-09-02:57:49,10.1.1.5,-23,0.060,0.060,0.060,0.000,0.000,0.000
1644375472816781056,2022-02-09-02:57:52,10.1.1.5,6,0.060,0.060,0.060,0.000,0.000,0.000
1644375473565188864,2022-02-09-02:57:53,10.1.1.5,7,0.060,0.060,0.060,0.000,0.000,0.000
1644375478673552128,2022-02-09-02:57:56,10.1.1.5,-5,0.060,0.060,0.060,0.000,0.000,0.000
1644375479610578176,2022-02-09-02:57:59,10.1.1.5,-18,0.060,0.060,0.060,0.000,0.000,0.000
1644375484802892800,2022-02-09-02:58:02,10.1.1.5,-12,0.060,0.060,0.060,0.000,0.000,0.000
1644375486066160896,2022-02-09-02:58:05,10.1.1.5,-19,0.060,0.060,0.060,0.000,0.000,0.000
1644375492902537216,2022-02-09-02:58:09,10.1.1.5,3,0.060,0.060,0.060,0.000,0.000,0.000
1644375497092772864,2022-02-09-02:58:15,10.1.1.5,-8,0.060,0.060,0.060,0.000,0.000,0.000
1644375503340146176,2022-02-09-02:58:20,10.1.1.5,-8,0.060,0.060,0.060,0.000,0.000,0.000
1644375504325680896,2022-02-09-02:58:24,10.1.1.5,3,0.060,0.060,0.060,0.000,0.000,0.000
1644375509534405888,2022-02-09-02:58:27,10.1.1.5,-14,0.060,0.060,0.060,0.000,0.000,0.000
1644375510487154944,2022-02-09-02:58:30,10.1.1.5,-3,0.060,0.060,0.060,0.000,0.000,0.000
1644375516906286848,2022-02-09-02:58:33,10.1.1.5,-9,0.060,0.060,0.060,0.000,0.000,0.000
1644375519120214016,2022-02-09-02:58:37,10.1.1.5,1,0.060,0.060,0.060,0.000,0.000,0.000
1644375524177350144,2022-02-09-02:58:42,10.1.1.5,2,0.060,0.060,0.060,0.000,0.000,0.000
1644375525123284224,2022-02-09-02:58:45,10.1.1.5,-7,0.060,0.060,0.060,0.000,0.000,0.000
1644375532945094144,2022-02-09-02:58:48,10.1.1.5,-13,0.060,0.060,0.060,0.000,0.000,0.000
1644375533689969920,2022-02-09-02:58:53,10.1.1.5,-13,0.060,0.060,0.060,0.000,0.000,0.000
1644375540030091008,2022-02-09-02:58:57,10.1.1.5,-2,0.060,0.060,0.060,0.000,0.000,0.000
1644375545791738112,2022-02-09-02:59:01,10.1.1.5,-17,0.060,0.060,0.060,0.000,0.000,0.000
1644375557930507776,2022-02-09-02:59:14,10.1.1.5,-4,0.060,0.060,0.060,0.000,0.000,0.000
1644375564512890112,2022-02-09-02:59:20,10.1.1.5,-2,0.060,0.060,0.060,0.000,0.000,0.000
1644375570266786048,2022-02-09-02:59:28,10.1.1.5,-28,0.060,0.060,0.060,0.000,0.000,0.000
1644375571566138112,2022-02-09-02:59:31,10.1.1.5,-14,0.060,0.060,0.060,0.000,0.000,0.000
1644375579046525952,2022-02-09-02:59:34,10.1.1.5,-8,0.060,0.060,0.060,0.000,0.000,0.000
1644375665937673216,2022-02-09-03:01:03,10.1.1.5,-5,0.060,0.060,0.060,0.000,0.000,0.000
1644375669425654784,2022-02-09-03:01:09,10.1.1.5,-9,0.060,0.060,0.060,0.000,0.000,0.000
1644375670267049984,2022-02-09-03:01:10,10.1.1.5,-1,0.060,0.060,0.060,0.000,0.000,0.000
1644375675418530816,2022-02-09-03:01:13,10.1.1.5,-6,0.060,0.060,0.060,0.000,0.000,0.000
1644375676166968064,2022-02-09-03:01:16,10.1.1.5,5,0.060,0.060,0.060,0.000,0.000,0.000
1644375679466945792,2022-02-09-03:01:19,10.1.1.5,6,0.060,0.060,0.060,0.000,0.000,0.000
1644375680264058112,2022-02-09-03:01:20,10.1.1.5,-29,0.060,0.060,0.060,0.000,0.000,0.000
1644375683485812992,2022-02-09-03:01:23,10.1.1.5,-10,0.060,0.060,0.060,0.000,0.000,0.000
1644375684305670144,2022-02-09-03:01:24,10.1.1.5,4,0.060,0.060,0.060,0.000,0.000,0.000
1644375687627949056,2022-02-09-03:01:27,10.1.1.5,-11,0.060,0.060,0.060,0.000,0.000,0.000
1644375688467230976,2022-02-09-03:01:28,10.1.1.5,-4,0.060,0.060,0.060,0.000,0.000,0.000
1644375692083417856,2022-02-09-03:01:32,10.1.1.5,-46,0.060,0.060,0.060,0.000,0.000,0.000
1644375692925033984,2022-02-09-03:01:32,10.1.1.5,-51,0.060,0.060,0.060,0.000,0.000,0.000
1644375696956482048,2022-02-09-03:01:36,10.1.1.5,-17,0.060,0.060,0.060,0.000,0.000,0.000
1644375698705528064,2022-02-09-03:01:37,10.1.1.5,-2,0.060,0.060,0.060,0.000,0.000,0.000
1644375708231440896,2022-02-09-03:01:42,10.1.1.5,1,0.060,0.060,0.060,0.000,0.000,0.000
1644375719162183168,2022-02-09-03:01:49,10.1.1.5,-11,0.060,0.060,0.060,0.000,0.000,0.000
1644375749925427968,2022-02-09-03:02:26,10.1.1.5,-30,0.060,0.060,0.060,0.000,0.000,0.000
1644375771166948096,2022-02-09-03:02:32,10.1.1.5,-199,0.060,0.060,0.060,0.000,0.000,0.000
1644375777352827136,2022-02-09-03:02:56,10.1.1.5,-14,0.060,0.060,0.060,0.000,0.000,0.000
1644375778067200000,2022-02-09-03:02:58,10.1.1.5,-5,0.060,0.060,0.060,0.000,0.000,0.000
1644375781306477056,2022-02-09-03:03:01,10.1.1.5,2,0.060,0.060,0.060,0.000,0.000,0.000
1644375782106235904,2022-02-09-03:03:02,10.1.1.5,-3,0.060,0.060,0.060,0.000,0.000,0.000
1644375785325937920,2022-02-09-03:03:05,10.1.1.5,-11,0.060,0.060,0.060,0.000,0.000,0.000
1644375786146284032,2022-02-09-03:03:06,10.1.1.5,1,0.060,0.060,0.060,0.000,0.000,0.000
1644375789365971968,2022-02-09-03:03:09,10.1.1.5,2,0.060,0.060,0.060,0.000,0.000,0.000
1644375790166592000,2022-02-09-03:03:10,10.1.1.5,-3,0.060,0.060,0.060,0.000,0.000,0.000
1644375793406553856,2022-02-09-03:03:13,10.1.1.5,1,0.060,0.060,0.060,0.000,0.000,0.000
1644375794226851072,2022-02-09-03:03:14,10.1.1.5,-12,0.060,0.060,0.060,0.000,0.000,0.000
1644375811073099008,2022-02-09-03:03:17,10.1.1.5,-8,0.060,0.060,0.060,0.000,0.000,0.000
1644375814408386048,2022-02-09-03:03:34,10.1.1.5,-12,0.060,0.060,0.060,0.000,0.000,0.000
1644375817646200064,2022-02-09-03:03:37,10.1.1.5,-28,0.060,0.060,0.060,0.000,0.000,0.000
1644375818466368000,2022-02-09-03:03:38,10.1.1.5,-5,0.060,0.060,0.060,0.000,0.000,0.000
1644375821709238016,2022-02-09-03:03:41,10.1.1.5,-7,0.060,0.060,0.060,0.000,0.000,0.000
1644375822527087872,2022-02-09-03:03:42,10.1.1.5,1,0.060,0.060,0.060,0.000,0.000,0.000
1644375826073632000,2022-02-09-03:03:45,10.1.1.5,-7,0.060,0.060,0.060,0.000,0.000,0.000
1644375826807576064,2022-02-09-03:03:46,10.1.1.5,4,0.060,0.060,0.060,0.000,0.000,0.000
1644375830076397056,2022-02-09-03:03:50,10.1.1.5,-22,0.060,0.060,0.060,0.000,0.000,0.000
1644375830887633920,2022-02-09-03:03:50,10.1.1.5,-8,0.060,0.060,0.060,0.000,0.000,0.000
1644375834206692096,2022-02-09-03:03:54,10.1.1.5,-9,0.060,0.060,0.060,0.000,0.000,0.000
1644375835026845952,2022-02-09-03:03:55,10.1.1.5,3,0.060,0.060,0.060,0.000,0.000,0.000
1644375838246141952,2022-02-09-03:03:58,10.1.1.5,-11,0.060,0.060,0.060,0.000,0.000,0.000
1644375839066680064,2022-02-09-03:03:59,10.1.1.5,5,0.060,0.060,0.060,0.000,0.000,0.000
1644375842268310016,2022-02-09-03:04:02,10.1.1.5,-14,0.060,0.060,0.060,0.000,0.000,0.000
1644375843085812992,2022-02-09-03:04:03,10.1.1.5,1,0.060,0.060,0.060,0.000,0.000,0.000
1644375846307854848,2022-02-09-03:04:06,10.1.1.5,2,0.060,0.060,0.060,0.000,0.000,0.000
1644375847106643968,2022-02-09-03:04:07,10.1.1.5,-2,0.060,0.060,0.060,0.000,0.000,0.000
1644375850327106048,2022-02-09-03:04:10,10.1.1.5,-11,0.060,0.060,0.060,0.000,0.000,0.000
1644375851146960128,2022-02-09-03:04:11,10.1.1.5,5,0.060,0.060,0.060,0.000,0.000,0.000
1644375854346716928,2022-02-09-03:04:14,10.1.1.5,-13,0.060,0.060,0.060,0.000,0.000,0.000
1644375855227407104,2022-02-09-03:04:15,10.1.1.5,-12,0.060,0.060,0.060,0.000,0.000,0.000
1644375858468190976,2022-02-09-03:04:18,10.1.1.5,-4,0.060,0.060,0.060,0.000,0.000,0.000
1644375859266643968,2022-02-09-03:04:19,10.1.1.5,-10,0.060,0.060,0.060,0.000,0.000,0.000
1644375862507392000,2022-02-09-03:04:22,10.1.1.5,0,0.060,0.060,0.060,0.000,0.000,0.000
1644375863307017984,2022-02-09-03:04:23,10.1.1.5,-7,0.060,0.060,0.060,0.000,0.000,0.000
1644375866548034048,2022-02-09-03:04:26,10.1.1.5,3,0.060,0.060,0.060,0.000,0.000,0.000
1644375867346128896,2022-02-09-03:04:27,10.1.1.5,-2,0.060,0.060,0.060,0.000,0.000,0.000
1644375870566313984,2022-02-09-03:04:30,10.1.1.5,-3,0.060,0.060,0.060,0.000,0.000,0.000
1644375871366455040,2022-02-09-03:04:31,10.1.1.5,-7,0.060,0.060,0.060,0.000,0.000,0.000
1644375874587332096,2022-02-09-03:04:34,10.1.1.5,-8,0.060,0.060,0.060,0.000,0.000,0.000
1644375875387077120,2022-02-09-03:04:35,10.1.1.5,-14,0.060,0.060,0.060,0.000,0.000,0.000
1644375878626696192,2022-02-09-03:04:38,10.1.1.5,4,0.060,0.060,0.060,0.000,0.000,0.000
1644375879426861056,2022-02-09-03:04:39,10.1.1.5,-2,0.060,0.060,0.060,0.000,0.000,0.000
1644375882647408896,2022-02-09-03:04:42,10.1.1.5,-6,0.060,0.060,0.060,0.000,0.000,0.000
1644375883446953984,2022-02-09-03:04:43,10.1.1.5,-10,0.060,0.060,0.060,0.000,0.000,0.000
1644375886686446848,2022-02-09-03:04:46,10.1.1.5,0,0.060,0.060,0.060,0.000,0.000,0.000
1644375887486160128,2022-02-09-03:04:47,10.1.1.5,-4,0.060,0.060,0.060,0.000,0.000,0.000
1644375890707268864,2022-02-09-03:04:50,10.1.1.5,-4,0.060,0.060,0.060,0.000,0.000,0.000
1644375891509274880,2022-02-09-03:04:51,10.1.1.5,-11,0.060,0.060,0.060,0.000,0.000,0.000
1644375894747047936,2022-02-09-03:04:54,10.1.1.5,5,0.060,0.060,0.060,0.000,0.000,0.000
1644375895548687104,2022-02-09-03:04:55,10.1.1.5,-1,0.060,0.060,0.060,0.000,0.000,0.000
1644375898766720000,2022-02-09-03:04:58,10.1.1.5,-1,0.060,0.060,0.060,0.000,0.000,0.000
1644375899567776000,2022-02-09-03:04:59,10.1.1.5,-6,0.060,0.060,0.060,0.000,0.000,0.000
1644375902787316992,2022-02-09-03:05:02,10.1.1.5,-6,0.060,0.060,0.060,0.000,0.000,0.000
1644375903588128000,2022-02-09-03:05:03,10.1.1.5,-14,0.060,0.060,0.060,0.000,0.000,0.000
1644375906826821120,2022-02-09-03:05:06,10.1.1.5,0,0.060,0.060,0.060,0.000,0.000,0.000
1644375907626952960,2022-02-09-03:05:07,10.1.1.5,-5,0.060,0.060,0.060,0.000,0.000,0.000
1644375910846852096,2022-02-09-03:05:10,10.1.1.5,-10,0.060,0.060,0.060,0.000,0.000,0.000
1644375911668486144,2022-02-09-03:05:11,10.1.1.5,-1,0.060,0.060,0.060,0.000,0.000,0.000
1644375914886161920,2022-02-09-03:05:14,10.1.1.5,-2,0.060,0.060,0.060,0.000,0.000,0.000
1644375915686569984,2022-02-09-03:05:15,10.1.1.5,-6,0.060,0.060,0.060,0.000,0.000,0.000
1644375918907144960,2022-02-09-03:05:18,10.1.1.5,-11,0.060,0.060,0.060,0.000,0.000,0.000
1644375919727712000,2022-02-09-03:05:19,10.1.1.5,3,0.060,0.060,0.060,0.000,0.000,0.000
1644375922927945984,2022-02-09-03:05:22,10.1.1.5,-10,0.060,0.060,0.060,0.000,0.000,0.000
1644375923726747904,2022-02-09-03:05:23,10.1.1.5,-14,0.060,0.060,0.060,0.000,0.000,0.000
1644375926948258048,2022-02-09-03:05:26,10.1.1.5,-11,0.060,0.060,0.060,0.000,0.000,0.000
1644375927747420928,2022-02-09-03:05:27,10.1.1.5,-15,0.060,0.060,0.060,0.000,0.000,0.000
1644375930986976000,2022-02-09-03:05:30,10.1.1.5,4,0.060,0.060,0.060,0.000,0.000,0.000
1644375931787745024,2022-02-09-03:05:31,10.1.1.5,-1,0.060,0.060,0.060,0.000,0.000,0.000
1644375935030253824,2022-02-09-03:05:35,10.1.1.5,4,0.060,0.060,0.060,0.000,0.000,0.000
1644375935831533056,2022-02-09-03:05:35,10.1.1.5,-4,0.060,0.060,0.060,0.000,0.000,0.000
1644375939046951168,2022-02-09-03:05:39,10.1.1.5,-5,0.060,0.060,0.060,0.000,0.000,0.000
1644375939847024896,2022-02-09-03:05:39,10.1.1.5,-9,0.060,0.060,0.060,0.000,0.000,0.000
1644375943087408896,2022-02-09-03:05:43,10.1.1.5,3,0.060,0.060,0.060,0.000,0.000,0.000
1644375943888169984,2022-02-09-03:05:43,10.1.1.5,-1,0.060,0.060,0.060,0.000,0.000,0.000
1644375947106966016,2022-02-09-03:05:47,10.1.1.5,-14,0.060,0.060,0.060,0.000,0.000,0.000
1644375947927540992,2022-02-09-03:05:47,10.1.1.5,1,0.060,0.060,0.060,0.000,0.000,0.000
1644375951147398912,2022-02-09-03:05:51,10.1.1.5,1,0.060,0.060,0.060,0.000,0.000,0.000
1644375951946661120,2022-02-09-03:05:51,10.1.1.5,-3,0.060,0.060,0.060,0.000,0.000,0.000
1644375955168402944,2022-02-09-03:05:55,10.1.1.5,-3,0.060,0.060,0.060,0.000,0.000,0.000
1644375955968087040,2022-02-09-03:05:55,10.1.1.5,-8,0.060,0.060,0.060,0.000,0.000,0.000
1644375959188331008,2022-02-09-03:05:59,10.1.1.5,-14,0.060,0.060,0.060,0.000,0.000,0.000
1644375960007239168,2022-02-09-03:06:00,10.1.1.5,-4,0.060,0.060,0.060,0.000,0.000,0.000
1644375963227179008,2022-02-09-03:06:03,10.1.1.5,-4,0.060,0.060,0.060,0.000,0.000,0.000
1644375964027564032,2022-02-09-03:06:04,10.1.1.5,-6,0.060,0.060,0.060,0.000,0.000,0.000
1644375967246825984,2022-02-09-03:06:07,10.1.1.5,-7,0.060,0.060,0.060,0.000,0.000,0.000
1644375968047482112,2022-02-09-03:06:08,10.1.1.5,-12,0.060,0.060,0.060,0.000,0.000,0.000
1644375971287406848,2022-02-09-03:06:11,10.1.1.5,4,0.060,0.060,0.060,0.000,0.000,0.000
1644375972087183104,2022-02-09-03:06:12,10.1.1.5,-1,0.060,0.060,0.060,0.000,0.000,0.000
1644375975307735808,2022-02-09-03:06:15,10.1.1.5,-13,0.060,0.060,0.060,0.000,0.000,0.000
1644375976127085824,2022-02-09-03:06:16,10.1.1.5,3,0.060,0.060,0.060,0.000,0.000,0.000
1644375979347831040,2022-02-09-03:06:19,10.1.1.5,-7,0.060,0.060,0.060,0.000,0.000,0.000
1644375980167037952,2022-02-09-03:06:20,10.1.1.5,1,0.060,0.060,0.060,0.000,0.000,0.000
1644375983387247104,2022-02-09-03:06:23,10.1.1.5,-2,0.060,0.060,0.060,0.000,0.000,0.000
1644375984187374080,2022-02-09-03:06:24,10.1.1.5,-6,0.060,0.060,0.060,0.000,0.000,0.000
1644375987412407040,2022-02-09-03:06:27,10.1.1.5,-10,0.060,0.060,0.060,0.000,0.000,0.000
1644375988227168000,2022-02-09-03:06:28,10.1.1.5,-4,0.060,0.060,0.060,0.000,0.000,0.000
1644375991447403008,2022-02-09-03:06:31,10.1.1.5,-6,0.060,0.060,0.060,0.000,0.000,0.000
1644375992248439040,2022-02-09-03:06:32,10.1.1.5,-10,0.060,0.060,0.060,0.000,0.000,0.000
1644375995487152128,2022-02-09-03:06:35,10.1.1.5,2,0.060,0.060,0.060,0.000,0.000,0.000
1644375996286675968,2022-02-09-03:06:36,10.1.1.5,-3,0.060,0.060,0.060,0.000,0.000,0.000
1644375999507077888,2022-02-09-03:06:39,10.1.1.5,-6,0.060,0.060,0.060,0.000,0.000,0.000
1644376000306395136,2022-02-09-03:06:40,10.1.1.5,-11,0.060,0.060,0.060,0.000,0.000,0.000
1644376003548680960,2022-02-09-03:06:43,10.1.1.5,1,0.060,0.060,0.060,0.000,0.000,0.000
1644376004346812928,2022-02-09-03:06:44,10.1.1.5,-6,0.060,0.060,0.060,0.000,0.000,0.000
1644376007567094016,2022-02-09-03:06:47,10.1.1.5,1,0.060,0.060,0.060,0.000,0.000,0.000
1644376008367262976,2022-02-09-03:06:48,10.1.1.5,-2,0.060,0.060,0.060,0.000,0.000,0.000
1644376011587474944,2022-02-09-03:06:51,10.1.1.5,-14,0.060,0.060,0.060,0.000,0.000,0.000
1644376012408123136,2022-02-09-03:06:52,10.1.1.5,1,0.060,0.060,0.060,0.000,0.000,0.000
1644376015629277952,2022-02-09-03:06:55,10.1.1.5,-8,0.060,0.060,0.060,0.000,0.000,0.000
1644376016447954944,2022-02-09-03:06:56,10.1.1.5,0,0.060,0.060,0.060,0.000,0.000,0.000
1644376019666825984,2022-02-09-03:06:59,10.1.1.5,-9,0.060,0.060,0.060,0.000,0.000,0.000
1644376020468816128,2022-02-09-03:07:00,10.1.1.5,-14,0.060,0.060,0.060,0.000,0.000,0.000
1644376023708320000,2022-02-09-03:07:03,10.1.1.5,4,0.060,0.060,0.060,0.000,0.000,0.000
1644376024507746048,2022-02-09-03:07:04,10.1.1.5,0,0.060,0.060,0.060,0.000,0.000,0.000
1644376027729126912,2022-02-09-03:07:07,10.1.1.5,-2,0.060,0.060,0.060,0.000,0.000,0.000
1644376028527456000,2022-02-09-03:07:08,10.1.1.5,-6,0.060,0.060,0.060,0.000,0.000,0.000
1644376031748673024,2022-02-09-03:07:11,10.1.1.5,-6,0.060,0.060,0.060,0.000,0.000,0.000
1644376032548294144,2022-02-09-03:07:12,10.1.1.5,-11,0.060,0.060,0.060,0.000,0.000,0.000
1644376035767552000,2022-02-09-03:07:15,10.1.1.5,-13,0.060,0.060,0.060,0.000,0.000,0.000
1644376036588308992,2022-02-09-03:07:16,10.1.1.5,3,0.060,0.060,0.060,0.000,0.000,0.000
1644376039807949056,2022-02-09-03:07:19,10.1.1.5,0,0.060,0.060,0.060,0.000,0.000,0.000
1644376040607214848,2022-02-09-03:07:20,10.1.1.5,-6,0.060,0.060,0.060,0.000,0.000,0.000
1644376043828059904,2022-02-09-03:07:23,10.1.1.5,-2,0.060,0.060,0.060,0.000,0.000,0.000
1644376044627435008,2022-02-09-03:07:24,10.1.1.5,-6,0.060,0.060,0.060,0.000,0.000,0.000
1644376047847273216,2022-02-09-03:07:27,10.1.1.5,-3,0.060,0.060,0.060,0.000,0.000,0.000
1644376048646898944,2022-02-09-03:07:28,10.1.1.5,-7,0.060,0.060,0.060,0.000,0.000,0.000
1644376051867495168,2022-02-09-03:07:31,10.1.1.5,-2,0.060,0.060,0.060,0.000,0.000,0.000
1644376052667608064,2022-02-09-03:07:32,10.1.1.5,-6,0.060,0.060,0.060,0.000,0.000,0.000
1644376055887303168,2022-02-09-03:07:35,10.1.1.5,-7,0.060,0.060,0.060,0.000,0.000,0.000
1644376056708091904,2022-02-09-03:07:36,10.1.1.5,2,0.060,0.060,0.060,0.000,0.000,0.000
1644376059927639040,2022-02-09-03:07:39,10.1.1.5,-11,0.060,0.060,0.060,0.000,0.000,0.000
1644376060747663872,2022-02-09-03:07:40,10.1.1.5,2,0.060,0.060,0.060,0.000,0.000,0.000
1644376063967742976,2022-02-09-03:07:43,10.1.1.5,-6,0.060,0.060,0.060,0.000,0.000,0.000
1644376064789212928,2022-02-09-03:07:44,10.1.1.5,4,0.060,0.060,0.060,0.000,0.000,0.000
1644376068007337216,2022-02-09-03:07:48,10.1.1.5,-6,0.060,0.060,0.060,0.000,0.000,0.000
1644376068807892992,2022-02-09-03:07:48,10.1.1.5,-13,0.060,0.060,0.060,0.000,0.000,0.000
1644376072047751936,2022-02-09-03:07:52,10.1.1.5,-2,0.060,0.060,0.060,0.000,0.000,0.000
1644376072848123136,2022-02-09-03:07:52,10.1.1.5,-16,0.060,0.060,0.060,0.000,0.000,0.000
1644376076087801856,2022-02-09-03:07:56,10.1.1.5,-3,0.060,0.060,0.060,0.000,0.000,0.000
1644376076888564224,2022-02-09-03:07:56,10.1.1.5,-8,0.060,0.060,0.060,0.000,0.000,0.000
1644376080127473152,2022-02-09-03:08:00,10.1.1.5,1,0.060,0.060,0.060,0.000,0.000,0.000
1644376080949094912,2022-02-09-03:08:00,10.1.1.5,-2,0.060,0.060,0.060,0.000,0.000,0.000
1644376084168605952,2022-02-09-03:08:04,10.1.1.5,-3,0.060,0.060,0.060,0.000,0.000,0.000
1644376084968289024,2022-02-09-03:08:04,10.1.1.5,-6,0.060,0.060,0.060,0.000,0.000,0.000
1644376088208272896,2022-02-09-03:08:08,10.1.1.5,-5,0.060,0.060,0.060,0.000,0.000,0.000
1644376089008104192,2022-02-09-03:08:09,10.1.1.5,-13,0.060,0.060,0.060,0.000,0.000,0.000
1644376092228282880,2022-02-09-03:08:12,10.1.1.5,-12,0.060,0.060,0.060,0.000,0.000,0.000
1644376093031100160,2022-02-09-03:08:13,10.1.1.5,-18,0.060,0.060,0.060,0.000,0.000,0.000
1644376096268069120,2022-02-09-03:08:16,10.1.1.5,4,0.060,0.060,0.060,0.000,0.000,0.000
1644376097068562944,2022-02-09-03:08:17,10.1.1.5,-1,0.060,0.060,0.060,0.000,0.000,0.000
1644376100288929024,2022-02-09-03:08:20,10.1.1.5,2,0.060,0.060,0.060,0.000,0.000,0.000
1644376101087826944,2022-02-09-03:08:21,10.1.1.5,-2,0.060,0.060,0.060,0.000,0.000,0.000
1644376104288455936,2022-02-09-03:08:24,10.1.1.5,-16,0.060,0.060,0.060,0.000,0.000,0.000
1644376105108395008,2022-02-09-03:08:25,10.1.1.5,0,0.060,0.060,0.060,0.000,0.000,0.000
1644376108307889920,2022-02-09-03:08:28,10.1.1.5,-15,0.060,0.060,0.060,0.000,0.000,0.000
1644376109128147968,2022-02-09-03:08:29,10.1.1.5,1,0.060,0.060,0.060,0.000,0.000,0.000
1644376112327486976,2022-02-09-03:08:32,10.1.1.5,-12,0.060,0.060,0.060,0.000,0.000,0.000
1644376113148001024,2022-02-09-03:08:33,10.1.1.5,3,0.060,0.060,0.060,0.000,0.000,0.000
1644376116368259840,2022-02-09-03:08:36,10.1.1.5,-1,0.060,0.060,0.060,0.000,0.000,0.000
1644376117167749888,2022-02-09-03:08:37,10.1.1.5,-8,0.060,0.060,0.060,0.000,0.000,0.000
1644376120388969984,2022-02-09-03:08:40,10.1.1.5,-6,0.060,0.060,0.060,0.000,0.000,0.000
1644376121189028096,2022-02-09-03:08:41,10.1.1.5,-10,0.060,0.060,0.060,0.000,0.000,0.000
1644376124408276992,2022-02-09-03:08:44,10.1.1.5,-9,0.060,0.060,0.060,0.000,0.000,0.000
1644376125207323136,2022-02-09-03:08:45,10.1.1.5,-13,0.060,0.060,0.060,0.000,0.000,0.000
1644376128427898880,2022-02-09-03:08:48,10.1.1.5,-11,0.060,0.060,0.060,0.000,0.000,0.000
1644376129227868928,2022-02-09-03:08:49,10.1.1.5,-14,0.060,0.060,0.060,0.000,0.000,0.000
1644376132447747840,2022-02-09-03:08:52,10.1.1.5,-13,0.060,0.060,0.060,0.000,0.000,0.000
1644376133267177216,2022-02-09-03:08:53,10.1.1.5,0,0.060,0.060,0.060,0.000,0.000,0.000
1644376136488930816,2022-02-09-03:08:56,10.1.1.5,3,0.060,0.060,0.060,0.000,0.000,0.000
1644376137289107968,2022-02-09-03:08:57,10.1.1.5,0,0.060,0.060,0.060,0.000,0.000,0.000
1644376140487960064,2022-02-09-03:09:00,10.1.1.5,-13,0.060,0.060,0.060,0.000,0.000,0.000
1644376141309453056,2022-02-09-03:09:01,10.1.1.5,3,0.060,0.060,0.060,0.000,0.000,0.000
1644376144528387072,2022-02-09-03:09:04,10.1.1.5,3,0.060,0.060,0.060,0.000,0.000,0.000
1644376145327408128,2022-02-09-03:09:05,10.1.1.5,-1,0.060,0.060,0.060,0.000,0.000,0.000
1644376148528404992,2022-02-09-03:09:08,10.1.1.5,-15,0.060,0.060,0.060,0.000,0.000,0.000
1644376149347353856,2022-02-09-03:09:09,10.1.1.5,-1,0.060,0.060,0.060,0.000,0.000,0.000
1644376152588707072,2022-02-09-03:09:12,10.1.1.5,-1,0.060,0.060,0.060,0.000,0.000,0.000
1644376153387700992,2022-02-09-03:09:13,10.1.1.5,-4,0.060,0.060,0.060,0.000,0.000,0.000
1644376156607252992,2022-02-09-03:09:16,10.1.1.5,-5,0.060,0.060,0.060,0.000,0.000,0.000
1644376157407527936,2022-02-09-03:09:17,10.1.1.5,-8,0.060,0.060,0.060,0.000,0.000,0.000
1644376160626898176,2022-02-09-03:09:20,10.1.1.5,-11,0.060,0.060,0.060,0.000,0.000,0.000
1644376161447324160,2022-02-09-03:09:21,10.1.1.5,5,0.060,0.060,0.060,0.000,0.000,0.000
1644376164667058944,2022-02-09-03:09:24,10.1.1.5,2,0.060,0.060,0.060,0.000,0.000,0.000
1644376165467704064,2022-02-09-03:09:25,10.1.1.5,-3,0.060,0.060,0.060,0.000,0.000,0.000
1644376168686894848,2022-02-09-03:09:28,10.1.1.5,-7,0.060,0.060,0.060,0.000,0.000,0.000
1644376169506880000,2022-02-09-03:09:29,10.1.1.5,4,0.060,0.060,0.060,0.000,0.000,0.000
1644376172706288128,2022-02-09-03:09:32,10.1.1.5,-13,0.060,0.060,0.060,0.000,0.000,0.000
1644376173526742016,2022-02-09-03:09:33,10.1.1.5,2,0.060,0.060,0.060,0.000,0.000,0.000
1644376176727625984,2022-02-09-03:09:36,10.1.1.5,-15,0.060,0.060,0.060,0.000,0.000,0.000
1644376177566821120,2022-02-09-03:09:37,10.1.1.5,-3,0.060,0.060,0.060,0.000,0.000,0.000
1644376180779546880,2022-02-09-03:09:40,10.1.1.5,-23,0.060,0.060,0.060,0.000,0.000,0.000
1644376181585812992,2022-02-09-03:09:41,10.1.1.5,-6,0.060,0.060,0.060,0.000,0.000,0.000
1644376184806561024,2022-02-09-03:09:44,10.1.1.5,0,0.060,0.060,0.060,0.000,0.000,0.000
1644376185605964032,2022-02-09-03:09:45,10.1.1.5,-3,0.060,0.060,0.060,0.000,0.000,0.000
1644376188826329088,2022-02-09-03:09:48,10.1.1.5,-7,0.060,0.060,0.060,0.000,0.000,0.000
1644376189645754112,2022-02-09-03:09:49,10.1.1.5,6,0.060,0.060,0.060,0.000,0.000,0.000
1644376192848862976,2022-02-09-03:09:52,10.1.1.5,-9,0.060,0.060,0.060,0.000,0.000,0.000
1644376193666484224,2022-02-09-03:09:53,10.1.1.5,7,0.060,0.060,0.060,0.000,0.000,0.000
1644376196865947136,2022-02-09-03:09:56,10.1.1.5,-8,0.060,0.060,0.060,0.000,0.000,0.000
1644376197685249024,2022-02-09-03:09:57,10.1.1.5,3,0.060,0.060,0.060,0.000,0.000,0.000
1644376200905609984,2022-02-09-03:10:00,10.1.1.5,-10,0.060,0.060,0.060,0.000,0.000,0.000
1644376201765424896,2022-02-09-03:10:01,10.1.1.5,5,0.060,0.060,0.060,0.000,0.000,0.000
1644376204984939008,2022-02-09-03:10:04,10.1.1.5,5,0.060,0.060,0.060,0.000,0.000,0.000
1644376205785449984,2022-02-09-03:10:05,10.1.1.5,2,0.060,0.060,0.060,0.000,0.000,0.000
1644376209006030080,2022-02-09-03:10:09,10.1.1.5,6,0.060,0.060,0.060,0.000,0.000,0.000
1644376209805111808,2022-02-09-03:10:09,10.1.1.5,3,0.060,0.060,0.060,0.000,0.000,0.000
1644376213027581952,2022-02-09-03:10:13,10.1.1.5,-5,0.060,0.060,0.060,0.000,0.000,0.000
1644376213844766976,2022-02-09-03:10:13,10.1.1.5,7,0.060,0.060,0.060,0.000,0.000,0.000
1644376217065701888,2022-02-09-03:10:17,10.1.1.5,-3,0.060,0.060,0.060,0.000,0.000,0.000
1644376217864617216,2022-02-09-03:10:17,10.1.1.5,-10,0.060,0.060,0.060,0.000,0.000,0.000
1644376221084495104,2022-02-09-03:10:21,10.1.1.5,-11,0.060,0.060,0.060,0.000,0.000,0.000
1644376221906210048,2022-02-09-03:10:21,10.1.1.5,5,0.060,0.060,0.060,0.000,0.000,0.000
1644376225125696000,2022-02-09-03:10:25,10.1.1.5,-2,0.060,0.060,0.060,0.000,0.000,0.000
1644376225924175104,2022-02-09-03:10:25,10.1.1.5,-6,0.060,0.060,0.060,0.000,0.000,0.000
1644376229144471808,2022-02-09-03:10:29,10.1.1.5,-2,0.060,0.060,0.060,0.000,0.000,0.000
1644376229944166912,2022-02-09-03:10:29,10.1.1.5,-6,0.060,0.060,0.060,0.000,0.000,0.000
1644376233163624960,2022-02-09-03:10:33,10.1.1.5,-2,0.060,0.060,0.060,0.000,0.000,0.000
1644376233964092928,2022-02-09-03:10:33,10.1.1.5,-6,0.060,0.060,0.060,0.000,0.000,0.000
1644376237184108032,2022-02-09-03:10:37,10.1.1.5,-10,0.060,0.060,0.060,0.000,0.000,0.000
1644376238004465152,2022-02-09-03:10:38,10.1.1.5,5,0.060,0.060,0.060,0.000,0.000,0.000
1644376241223599872,2022-02-09-03:10:41,10.1.1.5,4,0.060,0.060,0.060,0.000,0.000,0.000
1644376242023382016,2022-02-09-03:10:42,10.1.1.5,-1,0.060,0.060,0.060,0.000,0.000,0.000
1644376245243283968,2022-02-09-03:10:45,10.1.1.5,-7,0.060,0.060,0.060,0.000,0.000,0.000
1644376246043867136,2022-02-09-03:10:46,10.1.1.5,-11,0.060,0.060,0.060,0.000,0.000,0.000
1644376249263606016,2022-02-09-03:10:49,10.1.1.5,-8,0.060,0.060,0.060,0.000,0.000,0.000
1644376250083688960,2022-02-09-03:10:50,10.1.1.5,6,0.060,0.060,0.060,0.000,0.000,0.000
1644376253303467008,2022-02-09-03:10:53,10.1.1.5,8,0.060,0.060,0.060,0.000,0.000,0.000
1644376254103254016,2022-02-09-03:10:54,10.1.1.5,4,0.060,0.060,0.060,0.000,0.000,0.000
1644376257302955008,2022-02-09-03:10:57,10.1.1.5,-9,0.060,0.060,0.060,0.000,0.000,0.000
1644376258123094016,2022-02-09-03:10:58,10.1.1.5,5,0.060,0.060,0.060,0.000,0.000,0.000
1644376261345294848,2022-02-09-03:11:01,10.1.1.5,3,0.060,0.060,0.060,0.000,0.000,0.000
1644376262143040768,2022-02-09-03:11:02,10.1.1.5,-5,0.060,0.060,0.060,0.000,0.000,0.000
1644376265362629888,2022-02-09-03:11:05,10.1.1.5,-5,0.060,0.060,0.060,0.000,0.000,0.000
1644376266182508032,2022-02-09-03:11:06,10.1.1.5,6,0.060,0.060,0.060,0.000,0.000,0.000
1644376269403577088,2022-02-09-03:11:09,10.1.1.5,7,0.060,0.060,0.060,0.000,0.000,0.000
1644376270202988032,2022-02-09-03:11:10,10.1.1.5,3,0.060,0.060,0.060,0.000,0.000,0.000
1644376273423220992,2022-02-09-03:11:13,10.1.1.5,-3,0.060,0.060,0.060,0.000,0.000,0.000
1644376274242685184,2022-02-09-03:11:14,10.1.1.5,7,0.060,0.060,0.060,0.000,0.000,0.000
1644376277462312960,2022-02-09-03:11:17,10.1.1.5,5,0.060,0.060,0.060,0.000,0.000,0.000
1644376278262247936,2022-02-09-03:11:18,10.1.1.5,-1,0.060,0.060,0.060,0.000,0.000,0.000
1644376281501998848,2022-02-09-03:11:21,10.1.1.5,0,0.060,0.060,0.060,0.000,0.000,0.000
1644376282302397952,2022-02-09-03:11:22,10.1.1.5,-7,0.060,0.060,0.060,0.000,0.000,0.000
1644376285542072064,2022-02-09-03:11:25,10.1.1.5,-4,0.060,0.060,0.060,0.000,0.000,0.000
1644376286362280960,2022-02-09-03:11:26,10.1.1.5,9,0.060,0.060,0.060,0.000,0.000,0.000
1644376289582781952,2022-02-09-03:11:29,10.1.1.5,9,0.060,0.060,0.060,0.000,0.000,0.000
1644376290383271936,2022-02-09-03:11:30,10.1.1.5,4,0.060,0.060,0.060,0.000,0.000,0.000
1644376293601735168,2022-02-09-03:11:33,10.1.1.5,4,0.060,0.060,0.060,0.000,0.000,0.000
1644376294402264064,2022-02-09-03:11:34,10.1.1.5,1,0.060,0.060,0.060,0.000,0.000,0.000
1644376297621370112,2022-02-09-03:11:37,10.1.1.5,-2,0.060,0.060,0.060,0.000,0.000,0.000
1644376298441554944,2022-02-09-03:11:38,10.1.1.5,10,0.060,0.060,0.060,0.000,0.000,0.000
1644376301661402112,2022-02-09-03:11:41,10.1.1.5,9,0.060,0.060,0.060,0.000,0.000,0.000
1644376302461932800,2022-02-09-03:11:42,10.1.1.5,4,0.060,0.060,0.060,0.000,0.000,0.000
1644376305681549056,2022-02-09-03:11:45,10.1.1.5,3,0.060,0.060,0.060,0.000,0.000,0.000
1644376306481681152,2022-02-09-03:11:46,10.1.1.5,0,0.060,0.060,0.060,0.000,0.000,0.000
1644376309702454016,2022-02-09-03:11:49,10.1.1.5,6,0.060,0.060,0.060,0.000,0.000,0.000
1644376310501708032,2022-02-09-03:11:50,10.1.1.5,1,0.060,0.060,0.060,0.000,0.000,0.000
1644376313721065984,2022-02-09-03:11:53,10.1.1.5,3,0.060,0.060,0.060,0.000,0.000,0.000
1644376314521426944,2022-02-09-03:11:54,10.1.1.5,0,0.060,0.060,0.060,0.000,0.000,0.000
1644376317740838144,2022-02-09-03:11:57,10.1.1.5,-2,0.060,0.060,0.060,0.000,0.000,0.000
1644376318540932864,2022-02-09-03:11:58,10.1.1.5,-7,0.060,0.060,0.060,0.000,0.000,0.000
1644376321780997888,2022-02-09-03:12:01,10.1.1.5,6,0.060,0.060,0.060,0.000,0.000,0.000
1644376322580540928,2022-02-09-03:12:02,10.1.1.5,1,0.060,0.060,0.060,0.000,0.000,0.000
1644376325841552128,2022-02-09-03:12:05,10.1.1.5,4,0.060,0.060,0.060,0.000,0.000,0.000
1644376326640701952,2022-02-09-03:12:06,10.1.1.5,-1,0.060,0.060,0.060,0.000,0.000,0.000
1644376329860583168,2022-02-09-03:12:09,10.1.1.5,3,0.060,0.060,0.060,0.000,0.000,0.000
1644376330660541184,2022-02-09-03:12:10,10.1.1.5,0,0.060,0.060,0.060,0.000,0.000,0.000
1644376333880007936,2022-02-09-03:12:13,10.1.1.5,5,0.060,0.060,0.060,0.000,0.000,0.000
1644376334680737024,2022-02-09-03:12:14,10.1.1.5,3,0.060,0.060,0.060,0.000,0.000,0.000
1644376337900860160,2022-02-09-03:12:17,10.1.1.5,6,0.060,0.060,0.060,0.000,0.000,0.000
1644376338700679936,2022-02-09-03:12:18,10.1.1.5,1,0.060,0.060,0.060,0.000,0.000,0.000
1644376341919944960,2022-02-09-03:12:21,10.1.1.5,-2,0.060,0.060,0.060,0.000,0.000,0.000
1644376342720724224,2022-02-09-03:12:22,10.1.1.5,-8,0.060,0.060,0.060,0.000,0.000,0.000
1644376345961019904,2022-02-09-03:12:25,10.1.1.5,10,0.060,0.060,0.060,0.000,0.000,0.000
1644376346761675008,2022-02-09-03:12:26,10.1.1.5,-2,0.060,0.060,0.060,0.000,0.000,0.000
1644376349981050112,2022-02-09-03:12:29,10.1.1.5,-1,0.060,0.060,0.060,0.000,0.000,0.000
1644376350780605952,2022-02-09-03:12:30,10.1.1.5,-4,0.060,0.060,0.060,0.000,0.000,0.000
1644376353999883008,2022-02-09-03:12:33,10.1.1.5,2,0.060,0.060,0.060,0.000,0.000,0.000
1644376354800169984,2022-02-09-03:12:34,10.1.1.5,-4,0.060,0.060,0.060,0.000,0.000,0.000
1644376358019973888,2022-02-09-03:12:38,10.1.1.5,-4,0.060,0.060,0.060,0.000,0.000,0.000
1644376358820983040,2022-02-09-03:12:38,10.1.1.5,-8,0.060,0.060,0.060,0.000,0.000,0.000
1644376362040167936,2022-02-09-03:12:42,10.1.1.5,-7,0.060,0.060,0.060,0.000,0.000,0.000
1644376362860208128,2022-02-09-03:12:42,10.1.1.5,8,0.060,0.060,0.060,0.000,0.000,0.000
1644376366079691008,2022-02-09-03:12:46,10.1.1.5,7,0.060,0.060,0.060,0.000,0.000,0.000
1644376366879209984,2022-02-09-03:12:46,10.1.1.5,4,0.060,0.060,0.060,0.000,0.000,0.000
1644376370100552192,2022-02-09-03:12:50,10.1.1.5,6,0.060,0.060,0.060,0.000,0.000,0.000
1644376370899835136,2022-02-09-03:12:50,10.1.1.5,1,0.060,0.060,0.060,0.000,0.000,0.000
1644376374118816000,2022-02-09-03:12:54,10.1.1.5,1,0.060,0.060,0.060,0.000,0.000,0.000
1644376374919219968,2022-02-09-03:12:54,10.1.1.5,-2,0.060,0.060,0.060,0.000,0.000,0.000
1644376378139516160,2022-02-09-03:12:58,10.1.1.5,-6,0.060,0.060,0.060,0.000,0.000,0.000
1644376378958972928,2022-02-09-03:12:58,10.1.1.5,9,0.060,0.060,0.060,0.000,0.000,0.000
1644376382179789056,2022-02-09-03:13:02,10.1.1.5,5,0.060,0.060,0.060,0.000,0.000,0.000
1644376382999286016,2022-02-09-03:13:02,10.1.1.5,10,0.060,0.060,0.060,0.000,0.000,0.000
1644376386238703872,2022-02-09-03:13:06,10.1.1.5,10,0.060,0.060,0.060,0.000,0.000,0.000
1644376387039218944,2022-02-09-03:13:07,10.1.1.5,7,0.060,0.060,0.060,0.000,0.000,0.000
1644376390268711936,2022-02-09-03:13:10,10.1.1.5,15,0.060,0.060,0.060,0.000,0.000,0.000
1644376391058953984,2022-02-09-03:13:11,10.1.1.5,1,0.060,0.060,0.060,0.000,0.000,0.000
1644376394298268160,2022-02-09-03:13:14,10.1.1.5,12,0.060,0.060,0.060,0.000,0.000,0.000
1644376395098740224,2022-02-09-03:13:15,10.1.1.5,9,0.060,0.060,0.060,0.000,0.000,0.000
1644376398318902016,2022-02-09-03:13:18,10.1.1.5,9,0.060,0.060,0.060,0.000,0.000,0.000
1644376399118526976,2022-02-09-03:13:19,10.1.1.5,4,0.060,0.060,0.060,0.000,0.000,0.000
1644376402338882048,2022-02-09-03:13:22,10.1.1.5,5,0.060,0.060,0.060,0.000,0.000,0.000
1644376403139503872,2022-02-09-03:13:23,10.1.1.5,-1,0.060,0.060,0.060,0.000,0.000,0.000
1644376406378208000,2022-02-09-03:13:26,10.1.1.5,11,0.060,0.060,0.060,0.000,0.000,0.000
1644376407179795968,2022-02-09-03:13:27,10.1.1.5,7,0.060,0.060,0.060,0.000,0.000,0.000
1644376410380269056,2022-02-09-03:13:30,10.1.1.5,-6,0.060,0.060,0.060,0.000,0.000,0.000
1644376411198992128,2022-02-09-03:13:31,10.1.1.5,10,0.060,0.060,0.060,0.000,0.000,0.000
1644376414398989824,2022-02-09-03:13:34,10.1.1.5,-3,0.060,0.060,0.060,0.000,0.000,0.000
1644376415218673920,2022-02-09-03:13:35,10.1.1.5,11,0.060,0.060,0.060,0.000,0.000,0.000
1644376418439505152,2022-02-09-03:13:38,10.1.1.5,13,0.060,0.060,0.060,0.000,0.000,0.000
1644376419238249984,2022-02-09-03:13:39,10.1.1.5,8,0.060,0.060,0.060,0.000,0.000,0.000
1644376422458848000,2022-02-09-03:13:42,10.1.1.5,-3,0.060,0.060,0.060,0.000,0.000,0.000
1644376423277935104,2022-02-09-03:13:43,10.1.1.5,10,0.060,0.060,0.060,0.000,0.000,0.000
1644376426498240000,2022-02-09-03:13:46,10.1.1.5,0,0.060,0.060,0.060,0.000,0.000,0.000
1644376427317869824,2022-02-09-03:13:47,10.1.1.5,12,0.060,0.060,0.060,0.000,0.000,0.000
1644376430539907072,2022-02-09-03:13:50,10.1.1.5,13,0.060,0.060,0.060,0.000,0.000,0.000
1644376431337515008,2022-02-09-03:13:51,10.1.1.5,9,0.060,0.060,0.060,0.000,0.000,0.000
1644376434601775872,2022-02-09-03:13:54,10.1.1.5,9,0.060,0.060,0.060,0.000,0.000,0.000
1644376435357827840,2022-02-09-03:13:55,10.1.1.5,3,0.060,0.060,0.060,0.000,0.000,0.000
1644376438578115840,2022-02-09-03:13:58,10.1.1.5,-3,0.060,0.060,0.060,0.000,0.000,0.000
1644376439378562816,2022-02-09-03:13:59,10.1.1.5,-6,0.060,0.060,0.060,0.000,0.000,0.000
1644376442598081024,2022-02-09-03:14:02,10.1.1.5,-2,0.060,0.060,0.060,0.000,0.000,0.000
1644376443417061120,2022-02-09-03:14:03,10.1.1.5,14,0.060,0.060,0.060,0.000,0.000,0.000
1644376446617545984,2022-02-09-03:14:06,10.1.1.5,-3,0.060,0.060,0.060,0.000,0.000,0.000
1644376447438308096,2022-02-09-03:14:07,10.1.1.5,13,0.060,0.060,0.060,0.000,0.000,0.000
1644376450639220992,2022-02-09-03:14:10,10.1.1.5,-3,0.060,0.060,0.060,0.000,0.000,0.000
1644376451456825856,2022-02-09-03:14:11,10.1.1.5,13,0.060,0.060,0.060,0.000,0.000,0.000
1644376454656697088,2022-02-09-03:14:14,10.1.1.5,-3,0.060,0.060,0.060,0.000,0.000,0.000
1644376455476964096,2022-02-09-03:14:15,10.1.1.5,12,0.060,0.060,0.060,0.000,0.000,0.000
1644376458700236032,2022-02-09-03:14:18,10.1.1.5,6,0.060,0.060,0.060,0.000,0.000,0.000
1644376459498080000,2022-02-09-03:14:19,10.1.1.5,-2,0.060,0.060,0.060,0.000,0.000,0.000
1644376462737091072,2022-02-09-03:14:22,10.1.1.5,15,0.060,0.060,0.060,0.000,0.000,0.000
1644376463537305088,2022-02-09-03:14:23,10.1.1.5,11,0.060,0.060,0.060,0.000,0.000,0.000
1644376466756776192,2022-02-09-03:14:26,10.1.1.5,8,0.060,0.060,0.060,0.000,0.000,0.000
1644376467581809920,2022-02-09-03:14:27,10.1.1.5,4,0.060,0.060,0.060,0.000,0.000,0.000
1644376470796974848,2022-02-09-03:14:30,10.1.1.5,5,0.060,0.060,0.060,0.000,0.000,0.000
1644376471597852928,2022-02-09-03:14:31,10.1.1.5,0,0.060,0.060,0.060,0.000,0.000,0.000
1644376474836802048,2022-02-09-03:14:34,10.1.1.5,12,0.060,0.060,0.060,0.000,0.000,0.000
1644376475636907008,2022-02-09-03:14:35,10.1.1.5,9,0.060,0.060,0.060,0.000,0.000,0.000
1644376478856480000,2022-02-09-03:14:38,10.1.1.5,12,0.060,0.060,0.060,0.000,0.000,0.000
1644376479657476864,2022-02-09-03:14:39,10.1.1.5,9,0.060,0.060,0.060,0.000,0.000,0.000
1644376482876996096,2022-02-09-03:14:42,10.1.1.5,15,0.060,0.060,0.060,0.000,0.000,0.000
1644376483676259072,2022-02-09-03:14:43,10.1.1.5,11,0.060,0.060,0.060,0.000,0.000,0.000
1644376486896156928,2022-02-09-03:14:46,10.1.1.5,15,0.060,0.060,0.060,0.000,0.000,0.000
1644376487696596992,2022-02-09-03:14:47,10.1.1.5,13,0.060,0.060,0.060,0.000,0.000,0.000
1644376490896078080,2022-02-09-03:14:50,10.1.1.5,-3,0.060,0.060,0.060,0.000,0.000,0.000
1644376491716214784,2022-02-09-03:14:51,10.1.1.5,14,0.060,0.060,0.060,0.000,0.000,0.000
1644376494915593984,2022-02-09-03:14:54,10.1.1.5,-1,0.060,0.060,0.060,0.000,0.000,0.000
1644376495736411136,2022-02-09-03:14:55,10.1.1.5,15,0.060,0.060,0.060,0.000,0.000,0.000
1644376498955951872,2022-02-09-03:14:58,10.1.1.5,15,0.060,0.060,0.060,0.000,0.000,0.000
1644376499755896064,2022-02-09-03:14:59,10.1.1.5,10,0.060,0.060,0.060,0.000,0.000,0.000
1644376502977222912,2022-02-09-03:15:02,10.1.1.5,8,0.060,0.060,0.060,0.000,0.000,0.000
1644376503776845824,2022-02-09-03:15:03,10.1.1.5,2,0.060,0.060,0.060,0.000,0.000,0.000
1644376506999542016,2022-02-09-03:15:06,10.1.1.5,1,0.060,0.060,0.060,0.000,0.000,0.000
1644376507796768000,2022-02-09-03:15:07,10.1.1.5,-4,0.060,0.060,0.060,0.000,0.000,0.000
1644376511037133824,2022-02-09-03:15:11,10.1.1.5,2,0.060,0.060,0.060,0.000,0.000,0.000
1644376511835740160,2022-02-09-03:15:11,10.1.1.5,-2,0.060,0.060,0.060,0.000,0.000,0.000
1644376515056838144,2022-02-09-03:15:15,10.1.1.5,-1,0.060,0.060,0.060,0.000,0.000,0.000
1644376515876295936,2022-02-09-03:15:15,10.1.1.5,15,0.060,0.060,0.060,0.000,0.000,0.000
1644376519095607040,2022-02-09-03:15:19,10.1.1.5,15,0.060,0.060,0.060,0.000,0.000,0.000
1644376519895403008,2022-02-09-03:15:19,10.1.1.5,12,0.060,0.060,0.060,0.000,0.000,0.000
1644376523097098240,2022-02-09-03:15:23,10.1.1.5,-2,0.060,0.060,0.060,0.000,0.000,0.000
1644376523916690176,2022-02-09-03:15:23,10.1.1.5,12,0.060,0.060,0.060,0.000,0.000,0.000
1644376527135606016,2022-02-09-03:15:27,10.1.1.5,15,0.060,0.060,0.060,0.000,0.000,0.000
1644376527935628800,2022-02-09-03:15:27,10.1.1.5,12,0.060,0.060,0.060,0.000,0.000,0.000
1644376531155566848,2022-02-09-03:15:31,10.1.1.5,13,0.060,0.060,0.060,0.000,0.000,0.000
1644376531955842048,2022-02-09-03:15:31,10.1.1.5,9,0.060,0.060,0.060,0.000,0.000,0.000
1644376535175396864,2022-02-09-03:15:35,10.1.1.5,9,0.060,0.060,0.060,0.000,0.000,0.000
1644376535974798848,2022-02-09-03:15:35,10.1.1.5,5,0.060,0.060,0.060,0.000,0.000,0.000
1644376539194374912,2022-02-09-03:15:39,10.1.1.5,1,0.060,0.060,0.060,0.000,0.000,0.000
1644376540015197952,2022-02-09-03:15:40,10.1.1.5,15,0.060,0.060,0.060,0.000,0.000,0.000
1644376543235405824,2022-02-09-03:15:43,10.1.1.5,4,0.060,0.060,0.060,0.000,0.000,0.000
1644376544055816960,2022-02-09-03:15:44,10.1.1.5,6,0.060,0.060,0.060,0.000,0.000,0.000
1644376547276366080,2022-02-09-03:15:47,10.1.1.5,1,0.060,0.060,0.060,0.000,0.000,0.000
1644376548095219968,2022-02-09-03:15:48,10.1.1.5,16,0.060,0.060,0.060,0.000,0.000,0.000
1644376551315304960,2022-02-09-03:15:51,10.1.1.5,12,0.060,0.060,0.060,0.000,0.000,0.000
1644376552114629120,2022-02-09-03:15:52,10.1.1.5,1,0.060,0.060,0.060,0.000,0.000,0.000
1644376555375643136,2022-02-09-03:15:55,10.1.1.5,2,0.060,0.060,0.060,0.000,0.000,0.000
1644376556199430912,2022-02-09-03:15:56,10.1.1.5,2,0.060,0.060,0.060,0.000,0.000,0.000
1644376559434757120,2022-02-09-03:15:59,10.1.1.5,7,0.060,0.060,0.060,0.000,0.000,0.000
1644376560236182016,2022-02-09-03:16:00,10.1.1.5,2,0.060,0.060,0.060,0.000,0.000,0.000
1644376563496037888,2022-02-09-03:16:03,10.1.1.5,14,0.060,0.060,0.060,0.000,0.000,0.000
1644376564300275968,2022-02-09-03:16:04,10.1.1.5,6,0.060,0.060,0.060,0.000,0.000,0.000
1644376567554546944,2022-02-09-03:16:07,10.1.1.5,9,0.060,0.060,0.060,0.000,0.000,0.000
1644376568375691776,2022-02-09-03:16:08,10.1.1.5,5,0.060,0.060,0.060,0.000,0.000,0.000
1644376571634404864,2022-02-09-03:16:11,10.1.1.5,8,0.060,0.060,0.060,0.000,0.000,0.000
1644376572478064128,2022-02-09-03:16:12,10.1.1.5,13,0.060,0.060,0.060,0.000,0.000,0.000
1644376575714909952,2022-02-09-03:16:15,10.1.1.5,2,0.060,0.060,0.060,0.000,0.000,0.000
1644376576536456960,2022-02-09-03:16:16,10.1.1.5,16,0.060,0.060,0.060,0.000,0.000,0.000
1644376579774478080,2022-02-09-03:16:19,10.1.1.5,11,0.060,0.060,0.060,0.000,0.000,0.000
1644376