FedericoMungari/DigitalTwin_service/01_WiredScenario/Output/Output_script/script_ROSAPI_output_robots4_freq0_1.txt
timestamp,date,node,latency,joint_1,joint_2,joint_3,joint_4,joint_5,joint_6
1640658879371115008,2021-12-28-02:34:39,10.1.1.2,1640658879370.84,0.000,-0.000,0.000,-0.000,-0.000,-0.000
1640658883483908864,2021-12-28-02:34:43,10.1.1.2,15,0.000,-0.000,0.000,-0.000,-0.000,-0.000
1640658885622328064,2021-12-28-02:34:45,10.1.1.2,10,0.000,-0.000,0.000,-0.000,-0.000,-0.000
1640658887738946048,2021-12-28-02:34:47,10.1.1.2,9,0.000,-0.000,0.000,-0.000,-0.000,-0.000
1640658889866507008,2021-12-28-02:34:49,10.1.1.2,10,0.000,-0.000,0.000,-0.000,-0.000,-0.000
1640658891955337984,2021-12-28-02:34:51,10.1.1.2,4,0.000,-0.000,0.000,-0.000,-0.000,-0.000
1640658894076237824,2021-12-28-02:34:54,10.1.1.2,5,0.000,-0.000,0.000,-0.000,-0.000,-0.000
1640658896161402880,2021-12-28-02:34:56,10.1.1.2,10,0.000,-0.000,0.000,-0.000,-0.000,-0.000
1640658898281105152,2021-12-28-02:34:58,10.1.1.2,3,0.000,-0.000,0.000,-0.000,-0.000,-0.000
1640658900380513792,2021-12-28-02:35:00,10.1.1.2,12,0.000,-0.000,0.000,-0.000,-0.000,-0.000
1640658904561243904,2021-12-28-02:35:04,10.1.1.2,5,0.000,-0.000,0.000,-0.000,-0.000,-0.000
1640658906657195008,2021-12-28-02:35:06,10.1.1.2,3,0.000,-0.000,0.000,-0.000,-0.000,-0.000
1640658908753241088,2021-12-28-02:35:08,10.1.1.2,7,0.000,-0.000,0.000,-0.000,-0.000,-0.000
1640658910850029824,2021-12-28-02:35:10,10.1.1.2,3,0.000,-0.000,0.000,-0.000,-0.000,-0.000
1640658912968976128,2021-12-28-02:35:12,10.1.1.2,12,0.000,-0.000,0.000,-0.000,-0.000,-0.000
1640658915065272064,2021-12-28-02:35:15,10.1.1.2,15,0.000,-0.000,0.000,-0.000,-0.000,-0.000
1640658917201234176,2021-12-28-02:35:17,10.1.1.2,9,0.000,-0.000,0.000,-0.000,-0.000,-0.000
1640658919338635008,2021-12-28-02:35:19,10.1.1.2,3,0.000,-0.000,0.000,-0.000,-0.000,-0.000
1640658921467130880,2021-12-28-02:35:21,10.1.1.2,18,0.000,-0.000,0.000,-0.000,-0.000,-0.000
1640658923572613120,2021-12-28-02:35:23,10.1.1.2,7,0.000,-0.000,0.000,-0.000,-0.000,-0.000
1640658925700174080,2021-12-28-02:35:25,10.1.1.2,12,0.000,-0.000,0.000,-0.000,-0.000,-0.000
1640658927821954048,2021-12-28-02:35:27,10.1.1.2,14,0.000,-0.000,0.000,-0.000,-0.000,-0.000
1640658929964345088,2021-12-28-02:35:29,10.1.1.2,12,0.000,-0.000,0.000,-0.000,-0.000,-0.000
1640658932061569024,2021-12-28-02:35:32,10.1.1.2,7,0.000,-0.000,0.000,-0.000,-0.000,-0.000
1640658934180631040,2021-12-28-02:35:34,10.1.1.2,11,0.000,-0.000,0.000,-0.000,-0.000,-0.000
1640658936300772864,2021-12-28-02:35:36,10.1.1.2,11,0.000,-0.000,0.000,-0.000,-0.000,-0.000
1640658938438509824,2021-12-28-02:35:38,10.1.1.2,17,0.000,-0.000,0.000,-0.000,-0.000,-0.000
1640658940535351040,2021-12-28-02:35:40,10.1.1.2,9,0.000,-0.000,0.000,-0.000,-0.000,-0.000
1640658942675972864,2021-12-28-02:35:42,10.1.1.2,10,0.000,-0.000,0.000,-0.000,-0.000,-0.000
1640658944848582144,2021-12-28-02:35:44,10.1.1.2,4,0.000,-0.000,0.000,-0.000,-0.000,-0.000
1640658946967268096,2021-12-28-02:35:46,10.1.1.2,4,0.000,-0.000,0.000,-0.000,-0.000,-0.000
1640658949122423808,2021-12-28-02:35:49,10.1.1.2,9,0.000,-0.000,0.000,-0.000,-0.000,-0.000
1640658951280678912,2021-12-28-02:35:51,10.1.1.2,12,0.000,-0.000,0.000,-0.000,-0.000,-0.000
1640658953380114176,2021-12-28-02:35:53,10.1.1.2,5,0.000,-0.000,0.000,-0.000,-0.000,-0.000
1640658955568934912,2021-12-28-02:35:55,10.1.1.2,17,0.000,-0.000,0.000,-0.000,-0.000,-0.000
1640658957716034816,2021-12-28-02:35:57,10.1.1.2,3,0.000,-0.000,0.000,-0.000,-0.000,-0.000
1640658959859729152,2021-12-28-02:35:59,10.1.1.2,10,0.000,-0.000,0.000,-0.000,-0.000,-0.000
1640658961982647040,2021-12-28-02:36:01,10.1.1.2,14,0.000,-0.000,0.000,-0.000,-0.000,-0.000
1640658964121851904,2021-12-28-02:36:04,10.1.1.2,14,0.000,-0.000,0.000,-0.000,-0.000,-0.000
1640658966281555968,2021-12-28-02:36:06,10.1.1.2,15,0.000,-0.000,0.000,-0.000,-0.000,-0.000
1640658968439058176,2021-12-28-02:36:08,10.1.1.2,2,0.000,-0.000,0.000,-0.000,-0.000,-0.000
1640658970557779200,2021-12-28-02:36:10,10.1.1.2,1,0.000,-0.000,0.000,-0.000,-0.000,-0.000
1640658972757966080,2021-12-28-02:36:12,10.1.1.2,19,0.000,-0.000,0.000,-0.000,-0.000,-0.000
1640658974871817984,2021-12-28-02:36:14,10.1.1.2,7,0.000,-0.000,0.000,-0.000,-0.000,-0.000
1640658977008941056,2021-12-28-02:36:17,10.1.1.2,9,0.000,-0.000,0.000,-0.000,-0.000,-0.000
1640658979104940800,2021-12-28-02:36:19,10.1.1.2,3,0.000,-0.000,0.000,-0.000,-0.000,-0.000
1640658981182568192,2021-12-28-02:36:21,10.1.1.2,4,0.000,-0.000,0.000,-0.000,-0.000,-0.000
1640658983279998976,2021-12-28-02:36:23,10.1.1.2,17,0.000,-0.000,0.000,-0.000,-0.000,-0.000
1640658985419181056,2021-12-28-02:36:25,10.1.1.2,5,0.000,-0.000,0.000,-0.000,-0.000,-0.000
1640658987647944960,2021-12-28-02:36:27,10.1.1.2,9,0.000,-0.000,0.000,-0.000,-0.000,-0.000
1640658989799257088,2021-12-28-02:36:29,10.1.1.2,17,0.000,-0.000,0.000,-0.000,-0.000,-0.000
1640658991879520000,2021-12-28-02:36:31,10.1.1.2,10,0.000,-0.000,0.000,-0.000,-0.000,-0.000
1640658993981273856,2021-12-28-02:36:33,10.1.1.2,9,0.000,-0.000,0.000,-0.000,-0.000,-0.000
1640658996082812160,2021-12-28-02:36:36,10.1.1.2,3,0.000,-0.000,0.000,-0.000,-0.000,-0.000
1640658998201710848,2021-12-28-02:36:38,10.1.1.2,9,0.000,-0.000,0.000,-0.000,-0.000,-0.000
1640659000300407040,2021-12-28-02:36:40,10.1.1.2,12,0.000,-0.000,0.000,-0.000,-0.000,-0.000
1640659002419728128,2021-12-28-02:36:42,10.1.1.2,5,0.000,-0.000,0.000,-0.000,-0.000,-0.000
1640659004496908032,2021-12-28-02:36:44,10.1.1.2,1,0.000,-0.000,0.000,-0.000,-0.000,-0.000
1640659006655308032,2021-12-28-02:36:46,10.1.1.2,16,0.000,-0.000,0.000,-0.000,-0.000,-0.000
1640659008750750976,2021-12-28-02:36:48,10.1.1.2,3,0.000,-0.000,0.000,-0.000,-0.000,-0.000
1640659010868932864,2021-12-28-02:36:50,10.1.1.2,17,0.000,-0.000,0.000,-0.000,-0.000,-0.000
1640659013026177792,2021-12-28-02:36:53,10.1.1.2,17,0.000,-0.000,0.000,-0.000,-0.000,-0.000
1640659015103377152,2021-12-28-02:36:55,10.1.1.2,2,0.000,-0.000,0.000,-0.000,-0.000,-0.000
1640659017199233024,2021-12-28-02:36:57,10.1.1.2,4,0.000,-0.000,0.000,-0.000,-0.000,-0.000
1640659019369779200,2021-12-28-02:36:59,10.1.1.2,7,0.000,-0.000,0.000,-0.000,-0.000,-0.000
1640659021536849920,2021-12-28-02:37:01,10.1.1.2,4,0.000,-0.000,0.000,-0.000,-0.000,-0.000
1640659023698308864,2021-12-28-02:37:03,10.1.1.2,12,0.000,-0.000,0.000,-0.000,-0.000,-0.000
1640659025782580992,2021-12-28-02:37:05,10.1.1.2,12,0.000,-0.000,0.000,-0.000,-0.000,-0.000
1640659027901314048,2021-12-28-02:37:07,10.1.1.2,17,0.000,-0.000,0.000,-0.000,-0.000,-0.000
1640659030081278976,2021-12-28-02:37:10,10.1.1.2,14,0.000,-0.000,0.000,-0.000,-0.000,-0.000
1640659032181729024,2021-12-28-02:37:12,10.1.1.2,1,0.000,-0.000,0.000,-0.000,-0.000,-0.000
1640659034302061056,2021-12-28-02:37:14,10.1.1.2,17,0.000,-0.000,0.000,-0.000,-0.000,-0.000
1640659036440943104,2021-12-28-02:37:16,10.1.1.2,6,0.000,-0.000,0.000,-0.000,-0.000,-0.000
1640659038574043904,2021-12-28-02:37:18,10.1.1.2,15,0.000,-0.000,0.000,-0.000,-0.000,-0.000
1640659040691049984,2021-12-28-02:37:20,10.1.1.2,1,0.000,-0.000,0.000,-0.000,-0.000,-0.000
1640659042847609088,2021-12-28-02:37:22,10.1.1.2,18,0.000,-0.000,0.000,-0.000,-0.000,-0.000
1640659044986548992,2021-12-28-02:37:24,10.1.1.2,15,0.000,-0.000,0.000,-0.000,-0.000,-0.000
1640659047143436032,2021-12-28-02:37:27,10.1.1.2,4,0.000,-0.000,0.000,-0.000,-0.000,-0.000
1640659049301076992,2021-12-28-02:37:29,10.1.1.2,8,0.000,-0.000,0.000,-0.000,-0.000,-0.000
1640659051448954112,2021-12-28-02:37:31,10.1.1.2,6,0.000,-0.000,0.000,-0.000,-0.000,-0.000
1640659053575695872,2021-12-28-02:37:33,10.1.1.2,10,0.000,-0.000,0.000,-0.000,-0.000,-0.000
1640659055722393088,2021-12-28-02:37:35,10.1.1.2,0,0.000,-0.000,0.000,-0.000,-0.000,-0.000
1640659057833507072,2021-12-28-02:37:37,10.1.1.2,2,0.000,-0.000,0.000,-0.000,-0.000,-0.000
1640659059983561984,2021-12-28-02:37:39,10.1.1.2,7,0.000,-0.000,0.000,-0.000,-0.000,-0.000
1640659062121540096,2021-12-28-02:37:42,10.1.1.2,5,0.000,-0.000,0.000,-0.000,-0.000,-0.000
1640659064259918848,2021-12-28-02:37:44,10.1.1.2,4,0.000,-0.000,0.000,-0.000,-0.000,-0.000
1640659066417771008,2021-12-28-02:37:46,10.1.1.2,13,0.000,-0.000,0.000,-0.000,-0.000,-0.000
1640659068554214912,2021-12-28-02:37:48,10.1.1.2,3,0.000,-0.000,0.000,-0.000,-0.000,-0.000
1640659070653634048,2021-12-28-02:37:50,10.1.1.2,3,0.000,-0.000,0.000,-0.000,-0.000,-0.000
1640659072751774976,2021-12-28-02:37:52,10.1.1.2,10,0.000,-0.000,0.000,-0.000,-0.000,-0.000
1640659074866966016,2021-12-28-02:37:54,10.1.1.2,15,0.000,-0.000,0.000,-0.000,-0.000,-0.000
1640659076982604032,2021-12-28-02:37:56,10.1.1.2,4,0.000,-0.000,0.000,-0.000,-0.000,-0.000
1640659079098639872,2021-12-28-02:37:59,10.1.1.2,12,0.000,-0.000,0.000,-0.000,-0.000,-0.000
1640659081257751040,2021-12-28-02:38:01,10.1.1.2,10,0.000,-0.000,0.000,-0.000,-0.000,-0.000
1640659083423321088,2021-12-28-02:38:03,10.1.1.2,10,0.000,-0.000,0.000,-0.000,-0.000,-0.000
1640659085551520000,2021-12-28-02:38:05,10.1.1.2,3,0.000,-0.000,0.000,-0.000,-0.000,-0.000
1640659087716547840,2021-12-28-02:38:07,10.1.1.2,11,0.000,-0.000,0.000,-0.000,-0.000,-0.000
1640659089859278080,2021-12-28-02:38:09,10.1.1.2,9,0.000,-0.000,0.000,-0.000,-0.000,-0.000
1640659092040698880,2021-12-28-02:38:12,10.1.1.2,9,0.000,-0.000,0.000,-0.000,-0.000,-0.000
1640659094141544960,2021-12-28-02:38:14,10.1.1.2,10,0.000,-0.000,0.000,-0.000,-0.000,-0.000
1640659096277842944,2021-12-28-02:38:16,10.1.1.2,3,0.000,-0.000,0.000,-0.000,-0.000,-0.000
1640659098398884096,2021-12-28-02:38:18,10.1.1.2,10,0.000,-0.000,0.000,-0.000,-0.000,-0.000
1640659100515625984,2021-12-28-02:38:20,10.1.1.2,2,0.000,-0.000,0.000,-0.000,-0.000,-0.000
1640659102635215872,2021-12-28-02:38:22,10.1.1.2,1,0.000,-0.000,0.000,-0.000,-0.000,-0.000
1640659104729326080,2021-12-28-02:38:24,10.1.1.2,8,0.000,-0.000,0.000,-0.000,-0.000,-0.000
1640659106867600896,2021-12-28-02:38:26,10.1.1.2,15,0.000,-0.000,0.000,-0.000,-0.000,-0.000
1640659108983747072,2021-12-28-02:38:28,10.1.1.2,4,0.000,-0.000,0.000,-0.000,-0.000,-0.000
1640659111100066048,2021-12-28-02:38:31,10.1.1.2,13,0.000,-0.000,0.000,-0.000,-0.000,-0.000
1640659113255467008,2021-12-28-02:38:33,10.1.1.2,11,0.000,-0.000,0.000,-0.000,-0.000,-0.000
1640659115424433920,2021-12-28-02:38:35,10.1.1.2,20,0.000,-0.000,0.000,-0.000,-0.000,-0.000
1640659117610232064,2021-12-28-02:38:37,10.1.1.2,9,0.000,-0.000,0.000,-0.000,-0.000,-0.000
1640659119776751872,2021-12-28-02:38:39,10.1.1.2,9,0.000,-0.000,0.000,-0.000,-0.000,-0.000
1640659121919398144,2021-12-28-02:38:41,10.1.1.2,10,0.000,-0.000,0.000,-0.000,-0.000,-0.000
1640659124062969088,2021-12-28-02:38:44,10.1.1.2,16,0.000,-0.000,0.000,-0.000,-0.000,-0.000
1640659126179337984,2021-12-28-02:38:46,10.1.1.2,5,0.000,-0.000,0.000,-0.000,-0.000,-0.000
1640659128338063104,2021-12-28-02:38:48,10.1.1.2,15,0.000,-0.000,0.000,-0.000,-0.000,-0.000
1640659130478190848,2021-12-28-02:38:50,10.1.1.2,17,0.000,-0.000,0.000,-0.000,-0.000,-0.000
1640659132597410816,2021-12-28-02:38:52,10.1.1.2,10,0.000,-0.000,0.000,-0.000,-0.000,-0.000
1640659134756948992,2021-12-28-02:38:54,10.1.1.2,14,0.000,-0.000,0.000,-0.000,-0.000,-0.000
1640659136891971072,2021-12-28-02:38:56,10.1.1.2,18,0.000,-0.000,0.000,-0.000,-0.000,-0.000
1640659139026158080,2021-12-28-02:38:59,10.1.1.2,6,0.000,-0.000,0.000,-0.000,-0.000,-0.000
1640659141143013888,2021-12-28-02:39:01,10.1.1.2,15,0.000,-0.000,0.000,-0.000,-0.000,-0.000
1640659143265805056,2021-12-28-02:39:03,10.1.1.2,7,0.000,-0.000,0.000,-0.000,-0.000,-0.000
1640659145357441024,2021-12-28-02:39:05,10.1.1.2,16,0.000,-0.000,0.000,-0.000,-0.000,-0.000
1640659147485259008,2021-12-28-02:39:07,10.1.1.2,13,0.000,-0.000,0.000,-0.000,-0.000,-0.000
1640659149614587904,2021-12-28-02:39:09,10.1.1.2,0,0.000,-0.000,0.000,-0.000,-0.000,-0.000
1640659151737335808,2021-12-28-02:39:11,10.1.1.2,8,0.000,-0.000,0.000,-0.000,-0.000,-0.000
1640659153880227072,2021-12-28-02:39:13,10.1.1.2,2,0.000,-0.000,0.000,-0.000,-0.000,-0.000
1640659156024139008,2021-12-28-02:39:16,10.1.1.2,6,0.000,-0.000,0.000,-0.000,-0.000,-0.000
1640659158219679232,2021-12-28-02:39:18,10.1.1.2,12,0.000,-0.000,0.000,-0.000,-0.000,-0.000
1640659160343152128,2021-12-28-02:39:20,10.1.1.2,11,0.000,-0.000,0.000,-0.000,-0.000,-0.000
1640659162457976064,2021-12-28-02:39:22,10.1.1.2,11,0.000,-0.000,0.000,-0.000,-0.000,-0.000
1640659164536112896,2021-12-28-02:39:24,10.1.1.2,6,0.000,-0.000,0.000,-0.000,-0.000,-0.000
1640659166674059008,2021-12-28-02:39:26,10.1.1.2,13,0.000,-0.000,0.000,-0.000,-0.000,-0.000
1640659168793391104,2021-12-28-02:39:28,10.1.1.2,14,0.000,-0.000,0.000,-0.000,-0.000,-0.000
1640659170890011136,2021-12-28-02:39:30,10.1.1.2,16,0.000,-0.000,0.000,-0.000,-0.000,-0.000
1640659173005736960,2021-12-28-02:39:33,10.1.1.2,1,0.000,-0.000,0.000,-0.000,-0.000,-0.000
1640659175120932096,2021-12-28-02:39:35,10.1.1.2,6,0.000,-0.000,0.000,-0.000,-0.000,-0.000
1640659177278614016,2021-12-28-02:39:37,10.1.1.2,12,0.000,-0.000,0.000,-0.000,-0.000,-0.000
1640659179404448000,2021-12-28-02:39:39,10.1.1.2,16,0.000,-0.000,0.000,-0.000,-0.000,-0.000
1640659181533251072,2021-12-28-02:39:41,10.1.1.2,15,0.000,-0.000,0.000,-0.000,-0.000,-0.000
1640659183638909952,2021-12-28-02:39:43,10.1.1.2,5,0.000,-0.000,0.000,-0.000,-0.000,-0.000
1640659185765901056,2021-12-28-02:39:45,10.1.1.2,3,0.000,-0.000,0.000,-0.000,-0.000,-0.000
1640659187903968000,2021-12-28-02:39:47,10.1.1.2,17,0.000,-0.000,0.000,-0.000,-0.000,-0.000
1640659190041780992,2021-12-28-02:39:50,10.1.1.2,18,0.000,-0.000,0.000,-0.000,-0.000,-0.000
1640659192180432128,2021-12-28-02:39:52,10.1.1.2,16,0.000,-0.000,0.000,-0.000,-0.000,-0.000
1640659194339981056,2021-12-28-02:39:54,10.1.1.2,11,0.000,-0.000,0.000,-0.000,-0.000,-0.000
1640659196497293056,2021-12-28-02:39:56,10.1.1.2,4,0.000,-0.000,0.000,-0.000,-0.000,-0.000
1640659198675663104,2021-12-28-02:39:58,10.1.1.2,2,0.000,-0.000,0.000,-0.000,-0.000,-0.000
1640659200852787968,2021-12-28-02:40:00,10.1.1.2,10,0.000,-0.000,0.000,-0.000,-0.000,-0.000
1640659203029936128,2021-12-28-02:40:03,10.1.1.2,17,0.000,-0.000,0.000,-0.000,-0.000,-0.000
1640659205165613824,2021-12-28-02:40:05,10.1.1.2,9,0.000,-0.000,0.000,-0.000,-0.000,-0.000
1640659207282022912,2021-12-28-02:40:07,10.1.1.2,7,0.000,-0.000,0.000,-0.000,-0.000,-0.000
1640659209399440128,2021-12-28-02:40:09,10.1.1.2,4,0.000,-0.000,0.000,-0.000,-0.000,-0.000
1640659211538492928,2021-12-28-02:40:11,10.1.1.2,8,0.000,-0.000,0.000,-0.000,-0.000,-0.000
1640659213668119040,2021-12-28-02:40:13,10.1.1.2,1,0.000,-0.000,0.000,-0.000,-0.000,-0.000
1640659215815501056,2021-12-28-02:40:15,10.1.1.2,14,0.000,-0.000,0.000,-0.000,-0.000,-0.000
1640659217978612992,2021-12-28-02:40:17,10.1.1.2,15,0.000,-0.000,0.000,-0.000,-0.000,-0.000
1640659220120163072,2021-12-28-02:40:20,10.1.1.2,14,0.000,-0.000,0.000,-0.000,-0.000,-0.000
1640659222280509952,2021-12-28-02:40:22,10.1.1.2,8,0.000,-0.000,0.000,-0.000,-0.000,-0.000
1640659224421037824,2021-12-28-02:40:24,10.1.1.2,8,0.000,-0.000,0.000,-0.000,-0.000,-0.000
1640659226581110016,2021-12-28-02:40:26,10.1.1.2,5,0.000,-0.000,0.000,-0.000,-0.000,-0.000
1640659228737224192,2021-12-28-02:40:28,10.1.1.2,2,0.000,-0.000,0.000,-0.000,-0.000,-0.000
1640659230936090112,2021-12-28-02:40:30,10.1.1.2,19,0.000,-0.000,0.000,-0.000,-0.000,-0.000
1640659233052978944,2021-12-28-02:40:33,10.1.1.2,12,0.000,-0.000,0.000,-0.000,-0.000,-0.000
1640659235189054976,2021-12-28-02:40:35,10.1.1.2,9,0.000,-0.000,0.000,-0.000,-0.000,-0.000
1640659237326057984,2021-12-28-02:40:37,10.1.1.2,10,0.000,-0.000,0.000,-0.000,-0.000,-0.000
1640659239462049024,2021-12-28-02:40:39,10.1.1.2,3,0.000,-0.000,0.000,-0.000,-0.000,-0.000
1640659241619944192,2021-12-28-02:40:41,10.1.1.2,17,0.000,-0.000,0.000,-0.000,-0.000,-0.000
1640659243744625152,2021-12-28-02:40:43,10.1.1.2,1,0.000,-0.000,0.000,-0.000,-0.000,-0.000
1640659245890808064,2021-12-28-02:40:45,10.1.1.2,13,0.000,-0.000,0.000,-0.000,-0.000,-0.000
1640659248040553984,2021-12-28-02:40:48,10.1.1.2,20,0.000,-0.000,0.000,-0.000,-0.000,-0.000
1640659250198506240,2021-12-28-02:40:50,10.1.1.2,2,0.000,-0.000,0.000,-0.000,-0.000,-0.000
1640659252342531072,2021-12-28-02:40:52,10.1.1.2,1,0.000,-0.000,0.000,-0.000,-0.000,-0.000
1640659254519574016,2021-12-28-02:40:54,10.1.1.2,9,0.000,-0.000,0.000,-0.000,-0.000,-0.000
1640659256698690816,2021-12-28-02:40:56,10.1.1.2,12,0.000,-0.000,0.000,-0.000,-0.000,-0.000
1640659258800979968,2021-12-28-02:40:58,10.1.1.2,4,0.000,-0.000,0.000,-0.000,-0.000,-0.000
1640659260936431872,2021-12-28-02:41:00,10.1.1.2,17,0.000,-0.000,0.000,-0.000,-0.000,-0.000
1640659263076155904,2021-12-28-02:41:03,10.1.1.2,19,0.000,-0.000,0.000,-0.000,-0.000,-0.000
1640659265153597184,2021-12-28-02:41:05,10.1.1.2,0,0.000,-0.000,0.000,-0.000,-0.000,-0.000
1640659267307702016,2021-12-28-02:41:07,10.1.1.2,9,0.000,-0.000,0.000,-0.000,-0.000,-0.000
1640659269465282048,2021-12-28-02:41:09,10.1.1.2,19,0.000,-0.000,0.000,-0.000,-0.000,-0.000
1640659271623492096,2021-12-28-02:41:11,10.1.1.2,3,0.000,-0.000,0.000,-0.000,-0.000,-0.000
1640659273740182016,2021-12-28-02:41:13,10.1.1.2,11,0.000,-0.000,0.000,-0.000,-0.000,-0.000
1640659275864418048,2021-12-28-02:41:15,10.1.1.2,5,0.000,-0.000,0.000,-0.000,-0.000,-0.000
1640659278033296128,2021-12-28-02:41:18,10.1.1.2,3,0.000,-0.000,0.000,-0.000,-0.000,-0.000
1640659280175784192,2021-12-28-02:41:20,10.1.1.2,8,0.000,-0.000,0.000,-0.000,-0.000,-0.000
1640659282340912128,2021-12-28-02:41:22,10.1.1.2,20,0.000,-0.000,0.000,-0.000,-0.000,-0.000
1640659284482611968,2021-12-28-02:41:24,10.1.1.2,16,0.000,-0.000,0.000,-0.000,-0.000,-0.000
1640659286620114176,2021-12-28-02:41:26,10.1.1.2,9,0.000,-0.000,0.000,-0.000,-0.000,-0.000
1640659288783216896,2021-12-28-02:41:28,10.1.1.2,13,0.000,-0.000,0.000,-0.000,-0.000,-0.000
1640659290978714880,2021-12-28-02:41:30,10.1.1.2,11,0.000,-0.000,0.000,-0.000,-0.000,-0.000
1640659293097551104,2021-12-28-02:41:33,10.1.1.2,14,0.000,-0.000,0.000,-0.000,-0.000,-0.000
1640659295213938944,2021-12-28-02:41:35,10.1.1.2,7,0.000,-0.000,0.000,-0.000,-0.000,-0.000
1640659297350557184,2021-12-28-02:41:37,10.1.1.2,4,0.000,-0.000,0.000,-0.000,-0.000,-0.000
1640659299528669952,2021-12-28-02:41:39,10.1.1.2,2,0.000,-0.000,0.000,-0.000,-0.000,-0.000
1640659301662967808,2021-12-28-02:41:41,10.1.1.2,14,0.000,-0.000,0.000,-0.000,-0.000,-0.000
1640659303752823040,2021-12-28-02:41:43,10.1.1.2,3,0.000,-0.000,0.000,-0.000,-0.000,-0.000
1640659305822050048,2021-12-28-02:41:45,10.1.1.2,1,0.000,-0.000,0.000,-0.000,-0.000,-0.000
1640659307900521984,2021-12-28-02:41:47,10.1.1.2,11,0.000,-0.000,0.000,-0.000,-0.000,-0.000
1640659309948950016,2021-12-28-02:41:49,10.1.1.2,9,0.000,-0.000,0.000,-0.000,-0.000,-0.000
1640659312036461056,2021-12-28-02:41:52,10.1.1.2,6,0.000,-0.000,0.000,-0.000,-0.000,-0.000
1640659314140283136,2021-12-28-02:41:54,10.1.1.2,15,0.000,-0.000,0.000,-0.000,-0.000,-0.000
1640659316225542144,2021-12-28-02:41:56,10.1.1.2,1,0.000,-0.000,0.000,-0.000,-0.000,-0.000
1640659318345422080,2021-12-28-02:41:58,10.1.1.2,2,0.000,-0.000,0.000,-0.000,-0.000,-0.000
1640659320420454144,2021-12-28-02:42:00,10.1.1.2,12,0.000,-0.000,0.000,-0.000,-0.000,-0.000
1640659322479523840,2021-12-28-02:42:02,10.1.1.2,6,0.000,-0.000,0.000,-0.000,-0.000,-0.000
1640659324537175040,2021-12-28-02:42:04,10.1.1.2,2,0.000,-0.000,0.000,-0.000,-0.000,-0.000
1640659326593890048,2021-12-28-02:42:06,10.1.1.2,14,0.000,-0.000,0.000,-0.000,-0.000,-0.000
1640659328672430080,2021-12-28-02:42:08,10.1.1.2,14,0.000,-0.000,0.000,-0.000,-0.000,-0.000
1640659330751596800,2021-12-28-02:42:10,10.1.1.2,2,0.000,-0.000,0.000,-0.000,-0.000,-0.000
1640659332847499008,2021-12-28-02:42:12,10.1.1.2,20,0.000,-0.000,0.000,-0.000,-0.000,-0.000
1640659334923315968,2021-12-28-02:42:14,10.1.1.2,10,0.000,-0.000,0.000,-0.000,-0.000,-0.000
1640659336999175168,2021-12-28-02:42:16,10.1.1.2,13,0.000,-0.000,0.000,-0.000,-0.000,-0.000
1640659339036852992,2021-12-28-02:42:19,10.1.1.2,8,0.000,-0.000,0.000,-0.000,-0.000,-0.000
1640659341202204928,2021-12-28-02:42:21,10.1.1.2,17,0.000,-0.000,0.000,-0.000,-0.000,-0.000
1640659343329332224,2021-12-28-02:42:23,10.1.1.2,12,0.000,-0.000,0.000,-0.000,-0.000,-0.000
1640659345476419840,2021-12-28-02:42:25,10.1.1.2,16,0.000,-0.000,0.000,-0.000,-0.000,-0.000
1640659347606237952,2021-12-28-02:42:27,10.1.1.2,12,0.000,-0.000,0.000,-0.000,-0.000,-0.000
1640659349764343040,2021-12-28-02:42:29,10.1.1.2,18,0.000,-0.000,0.000,-0.000,-0.000,-0.000
1640659351919909120,2021-12-28-02:42:31,10.1.1.2,17,0.000,-0.000,0.000,-0.000,-0.000,-0.000
1640659354039975936,2021-12-28-02:42:34,10.1.1.2,15,0.000,-0.000,0.000,-0.000,-0.000,-0.000
1640659356177369088,2021-12-28-02:42:36,10.1.1.2,8,0.000,-0.000,0.000,-0.000,-0.000,-0.000
1640659358355753984,2021-12-28-02:42:38,10.1.1.2,8,0.000,-0.000,0.000,-0.000,-0.000,-0.000
1640659360533544960,2021-12-28-02:42:40,10.1.1.2,14,0.000,-0.000,0.000,-0.000,-0.000,-0.000
1640659362610550016,2021-12-28-02:42:42,10.1.1.2,10,0.000,-0.000,0.000,-0.000,-0.000,-0.000
1640659364708039936,2021-12-28-02:42:44,10.1.1.2,10,0.000,-0.000,0.000,-0.000,-0.000,-0.000
1640659366865575168,2021-12-28-02:42:46,10.1.1.2,6,0.000,-0.000,0.000,-0.000,-0.000,-0.000
1640659369000564224,2021-12-28-02:42:49,10.1.1.2,10,0.000,-0.000,0.000,-0.000,-0.000,-0.000
1640659371176920832,2021-12-28-02:42:51,10.1.1.2,15,0.000,-0.000,0.000,-0.000,-0.000,-0.000
1640659373282000896,2021-12-28-02:42:53,10.1.1.2,19,0.000,-0.000,0.000,-0.000,-0.000,-0.000
1640659375370126080,2021-12-28-02:42:55,10.1.1.2,3,0.000,-0.000,0.000,-0.000,-0.000,-0.000
1640659377557451008,2021-12-28-02:42:57,10.1.1.2,1,0.000,-0.000,0.000,-0.000,-0.000,-0.000
1640659379701040896,2021-12-28-02:42:59,10.1.1.2,10,0.000,-0.000,0.000,-0.000,-0.000,-0.000
1640659381843411968,2021-12-28-02:43:01,10.1.1.2,11,0.000,-0.000,0.000,-0.000,-0.000,-0.000
1640659383980407040,2021-12-28-02:43:03,10.1.1.2,13,0.000,-0.000,0.000,-0.000,-0.000,-0.000
1640659386079041024,2021-12-28-02:43:06,10.1.1.2,4,0.000,-0.000,0.000,-0.000,-0.000,-0.000
1640659388198715904,2021-12-28-02:43:08,10.1.1.2,2,0.000,-0.000,0.000,-0.000,-0.000,-0.000
1640659390336443904,2021-12-28-02:43:10,10.1.1.2,17,0.000,-0.000,0.000,-0.000,-0.000,-0.000
1640659392495294208,2021-12-28-02:43:12,10.1.1.2,15,0.000,-0.000,0.000,-0.000,-0.000,-0.000
1640659394632803072,2021-12-28-02:43:14,10.1.1.2,7,0.000,-0.000,0.000,-0.000,-0.000,-0.000
1640659396770673920,2021-12-28-02:43:16,10.1.1.2,4,0.000,-0.000,0.000,-0.000,-0.000,-0.000
1640659398909809152,2021-12-28-02:43:18,10.1.1.2,12,0.000,-0.000,0.000,-0.000,-0.000,-0.000
1640659401044289024,2021-12-28-02:43:21,10.1.1.2,3,0.000,-0.000,0.000,-0.000,-0.000,-0.000
1640659403178597888,2021-12-28-02:43:23,10.1.1.2,17,0.000,-0.000,0.000,-0.000,-0.000,-0.000
1640659405304657920,2021-12-28-02:43:25,10.1.1.2,15,0.000,-0.000,0.000,-0.000,-0.000,-0.000
1640659407431267072,2021-12-28-02:43:27,10.1.1.2,11,0.000,-0.000,0.000,-0.000,-0.000,-0.000
1640659409556646144,2021-12-28-02:43:29,10.1.1.2,14,0.000,-0.000,0.000,-0.000,-0.000,-0.000
1640659411721139968,2021-12-28-02:43:31,10.1.1.2,11,0.000,-0.000,0.000,-0.000,-0.000,-0.000
1640659413821635072,2021-12-28-02:43:33,10.1.1.2,4,0.000,-0.000,0.000,-0.000,-0.000,-0.000
1640659415961020928,2021-12-28-02:43:35,10.1.1.2,11,0.000,-0.000,0.000,-0.000,-0.000,-0.000
1640659418141447936,2021-12-28-02:43:38,10.1.1.2,16,0.000,-0.000,0.000,-0.000,-0.000,-0.000
1640659420298359040,2021-12-28-02:43:40,10.1.1.2,12,0.000,-0.000,0.000,-0.000,-0.000,-0.000
1640659422418902016,2021-12-28-02:43:42,10.1.1.2,10,0.000,-0.000,0.000,-0.000,-0.000,-0.000
1640659424573869056,2021-12-28-02:43:44,10.1.1.2,11,0.000,-0.000,0.000,-0.000,-0.000,-0.000
1640659426709579008,2021-12-28-02:43:46,10.1.1.2,3,0.000,-0.000,0.000,-0.000,-0.000,-0.000
1640659428868130048,2021-12-28-02:43:48,10.1.1.2,14,0.000,-0.000,0.000,-0.000,-0.000,-0.000
1640659431004118016,2021-12-28-02:43:51,10.1.1.2,10,0.000,-0.000,0.000,-0.000,-0.000,-0.000
1640659433159808000,2021-12-28-02:43:53,10.1.1.2,12,0.000,-0.000,0.000,-0.000,-0.000,-0.000
1640659435339548160,2021-12-28-02:43:55,10.1.1.2,20,0.000,-0.000,0.000,-0.000,-0.000,-0.000
1640659437464050944,2021-12-28-02:43:57,10.1.1.2,5,0.000,-0.000,0.000,-0.000,-0.000,-0.000
1640659439611998976,2021-12-28-02:43:59,10.1.1.2,11,0.000,-0.000,0.000,-0.000,-0.000,-0.000
1640659441738104064,2021-12-28-02:44:01,10.1.1.2,12,0.000,-0.000,0.000,-0.000,-0.000,-0.000
1640659443878812160,2021-12-28-02:44:03,10.1.1.2,11,0.000,-0.000,0.000,-0.000,-0.000,-0.000
1640659446002814976,2021-12-28-02:44:06,10.1.1.2,5,0.000,-0.000,0.000,-0.000,-0.000,-0.000
1640659448179488000,2021-12-28-02:44:08,10.1.1.2,10,0.000,-0.000,0.000,-0.000,-0.000,-0.000
1640659450278999040,2021-12-28-02:44:10,10.1.1.2,3,0.000,-0.000,0.000,-0.000,-0.000,-0.000
1640659452379857920,2021-12-28-02:44:12,10.1.1.2,3,0.000,-0.000,0.000,-0.000,-0.000,-0.000
1640659454477200128,2021-12-28-02:44:14,10.1.1.2,2,0.000,-0.000,0.000,-0.000,-0.000,-0.000
1640659456534382080,2021-12-28-02:44:16,10.1.1.2,4,0.000,-0.000,0.000,-0.000,-0.000,-0.000
1640659458694423808,2021-12-28-02:44:18,10.1.1.2,16,0.000,-0.000,0.000,-0.000,-0.000,-0.000
1640659460808857088,2021-12-28-02:44:20,10.1.1.2,6,0.000,-0.000,0.000,-0.000,-0.000,-0.000
1640659462945314048,2021-12-28-02:44:22,10.1.1.2,19,0.000,-0.000,0.000,-0.000,-0.000,-0.000
1640659465101157888,2021-12-28-02:44:25,10.1.1.2,8,0.000,-0.000,0.000,-0.000,-0.000,-0.000
1640659467298780928,2021-12-28-02:44:27,10.1.1.2,18,0.000,-0.000,0.000,-0.000,-0.000,-0.000
1640659469477323008,2021-12-28-02:44:29,10.1.1.2,6,0.000,-0.000,0.000,-0.000,-0.000,-0.000
1640659471609272064,2021-12-28-02:44:31,10.1.1.2,19,0.000,-0.000,0.000,-0.000,-0.000,-0.000
1640659473778775808,2021-12-28-02:44:33,10.1.1.2,1,0.000,-0.000,0.000,-0.000,-0.000,-0.000
1640659475936793088,2021-12-28-02:44:35,10.1.1.2,5,0.000,-0.000,0.000,-0.000,-0.000,-0.000
1640659478119649792,2021-12-28-02:44:38,10.1.1.2,11,0.000,-0.000,0.000,-0.000,-0.000,-0.000
1640659480279226112,2021-12-28-02:44:40,10.1.1.2,2,0.000,-0.000,0.000,-0.000,-0.000,-0.000
1640659482420488192,2021-12-28-02:44:42,10.1.1.2,5,0.000,-0.000,0.000,-0.000,-0.000,-0.000
1640659484518390784,2021-12-28-02:44:44,10.1.1.2,16,0.000,-0.000,0.000,-0.000,-0.000,-0.000
1640659486637198080,2021-12-28-02:44:46,10.1.1.2,17,0.000,-0.000,0.000,-0.000,-0.000,-0.000
1640659488793000960,2021-12-28-02:44:48,10.1.1.2,16,0.000,-0.000,0.000,-0.000,-0.000,-0.000
1640659490929807872,2021-12-28-02:44:50,10.1.1.2,16,0.000,-0.000,0.000,-0.000,-0.000,-0.000
1640659493029079808,2021-12-28-02:44:53,10.1.1.2,6,0.000,-0.000,0.000,-0.000,-0.000,-0.000
1640659495105196032,2021-12-28-02:44:55,10.1.1.2,18,0.000,-0.000,0.000,-0.000,-0.000,-0.000
1640659497221502976,2021-12-28-02:44:57,10.1.1.2,10,0.000,-0.000,0.000,-0.000,-0.000,-0.000
1640659499357793024,2021-12-28-02:44:59,10.1.1.2,7,0.000,-0.000,0.000,-0.000,-0.000,-0.000
1640659501438353920,2021-12-28-02:45:01,10.1.1.2,3,0.000,-0.000,0.000,-0.000,-0.000,-0.000
1640659503607238912,2021-12-28-02:45:03,10.1.1.2,18,0.000,-0.000,0.000,-0.000,-0.000,-0.000
1640659505795901952,2021-12-28-02:45:05,10.1.1.2,4,0.000,-0.000,0.000,-0.000,-0.000,-0.000
1640659507877361152,2021-12-28-02:45:07,10.1.1.2,18,0.000,-0.000,0.000,-0.000,-0.000,-0.000
1640659509979064064,2021-12-28-02:45:09,10.1.1.2,12,0.000,-0.000,0.000,-0.000,-0.000,-0.000
1640659512103635200,2021-12-28-02:45:12,10.1.1.2,13,0.000,-0.000,0.000,-0.000,-0.000,-0.000
1640659514200167936,2021-12-28-02:45:14,10.1.1.2,16,0.000,-0.000,0.000,-0.000,-0.000,-0.000
1640659516299182848,2021-12-28-02:45:16,10.1.1.2,3,0.000,-0.000,0.000,-0.000,-0.000,-0.000
1640659518416989952,2021-12-28-02:45:18,10.1.1.2,14,0.000,-0.000,0.000,-0.000,-0.000,-0.000
1640659520513647104,2021-12-28-02:45:20,10.1.1.2,13,0.000,-0.000,0.000,-0.000,-0.000,-0.000
1640659522674906112,2021-12-28-02:45:22,10.1.1.2,19,0.000,-0.000,0.000,-0.000,-0.000,-0.000
1640659524771308800,2021-12-28-02:45:24,10.1.1.2,8,0.000,-0.000,0.000,-0.000,-0.000,-0.000
1640659526927907840,2021-12-28-02:45:26,10.1.1.2,4,0.000,-0.000,0.000,-0.000,-0.000,-0.000
1640659529062387968,2021-12-28-02:45:29,10.1.1.2,7,0.000,-0.000,0.000,-0.000,-0.000,-0.000
1640659531263031040,2021-12-28-02:45:31,10.1.1.2,11,0.000,-0.000,0.000,-0.000,-0.000,-0.000
1640659533378343936,2021-12-28-02:45:33,10.1.1.2,6,0.000,-0.000,0.000,-0.000,-0.000,-0.000
1640659535530097920,2021-12-28-02:45:35,10.1.1.2,10,0.000,-0.000,0.000,-0.000,-0.000,-0.000
1640659537674674944,2021-12-28-02:45:37,10.1.1.2,14,0.000,-0.000,0.000,-0.000,-0.000,-0.000
1640659539844321024,2021-12-28-02:45:39,10.1.1.2,13,0.000,-0.000,0.000,-0.000,-0.000,-0.000
1640659542020452864,2021-12-28-02:45:42,10.1.1.2,7,0.000,-0.000,0.000,-0.000,-0.000,-0.000
1640659544142550016,2021-12-28-02:45:44,10.1.1.2,1,0.000,-0.000,0.000,-0.000,-0.000,-0.000
1640659546284518912,2021-12-28-02:45:46,10.1.1.2,11,0.000,-0.000,0.000,-0.000,-0.000,-0.000
1640659548440931072,2021-12-28-02:45:48,10.1.1.2,11,0.000,-0.000,0.000,-0.000,-0.000,-0.000
1640659550596883968,2021-12-28-02:45:50,10.1.1.2,5,0.000,-0.000,0.000,-0.000,-0.000,-0.000
1640659552716475904,2021-12-28-02:45:52,10.1.1.2,2,0.000,-0.000,0.000,-0.000,-0.000,-0.000
1640659554896833792,2021-12-28-02:45:54,10.1.1.2,15,0.000,-0.000,0.000,-0.000,-0.000,-0.000
1640659557049138176,2021-12-28-02:45:57,10.1.1.2,8,0.000,-0.000,0.000,-0.000,-0.000,-0.000
1640659559205782016,2021-12-28-02:45:59,10.1.1.2,15,0.000,-0.000,0.000,-0.000,-0.000,-0.000
1640659561367193088,2021-12-28-02:46:01,10.1.1.2,1,0.000,-0.000,0.000,-0.000,-0.000,-0.000
1640659563543953920,2021-12-28-02:46:03,10.1.1.2,19,0.000,-0.000,0.000,-0.000,-0.000,-0.000
1640659565665821184,2021-12-28-02:46:05,10.1.1.2,16,0.000,-0.000,0.000,-0.000,-0.000,-0.000
1640659567771507968,2021-12-28-02:46:07,10.1.1.2,3,0.000,-0.000,0.000,-0.000,-0.000,-0.000
1640659569955159040,2021-12-28-02:46:09,10.1.1.2,2,0.000,-0.000,0.000,-0.000,-0.000,-0.000
1640659572099627008,2021-12-28-02:46:12,10.1.1.2,3,0.000,-0.000,0.000,-0.000,-0.000,-0.000
1640659574266840064,2021-12-28-02:46:14,10.1.1.2,21,0.000,-0.000,0.000,-0.000,-0.000,-0.000
1640659576361144064,2021-12-28-02:46:16,10.1.1.2,11,0.000,-0.000,0.000,-0.000,-0.000,-0.000
1640659578500322048,2021-12-28-02:46:18,10.1.1.2,10,0.000,-0.000,0.000,-0.000,-0.000,-0.000
1640659580599788032,2021-12-28-02:46:20,10.1.1.2,2,0.000,-0.000,0.000,-0.000,-0.000,-0.000
1640659582740984832,2021-12-28-02:46:22,10.1.1.2,5,0.000,-0.000,0.000,-0.000,-0.000,-0.000
1640659584899144960,2021-12-28-02:46:24,10.1.1.2,6,0.000,-0.000,0.000,-0.000,-0.000,-0.000
1640659587011486976,2021-12-28-02:46:27,10.1.1.2,3,0.000,-0.000,0.000,-0.000,-0.000,-0.000
1640659589050690816,2021-12-28-02:46:29,10.1.1.2,2,0.000,-0.000,0.000,-0.000,-0.000,-0.000
1640659591189875968,2021-12-28-02:46:31,10.1.1.2,14,0.000,-0.000,0.000,-0.000,-0.000,-0.000
1640659593323252992,2021-12-28-02:46:33,10.1.1.2,18,0.000,-0.000,0.000,-0.000,-0.000,-0.000
1640659595460993024,2021-12-28-02:46:35,10.1.1.2,10,0.000,-0.000,0.000,-0.000,-0.000,-0.000
1640659597598830080,2021-12-28-02:46:37,10.1.1.2,5,0.000,-0.000,0.000,-0.000,-0.000,-0.000
1640659599724131072,2021-12-28-02:46:39,10.1.1.2,14,0.000,-0.000,0.000,-0.000,-0.000,-0.000
1640659601893178880,2021-12-28-02:46:41,10.1.1.2,12,0.000,-0.000,0.000,-0.000,-0.000,-0.000
1640659604017456896,2021-12-28-02:46:44,10.1.1.2,10,0.000,-0.000,0.000,-0.000,-0.000,-0.000
1640659606178345984,2021-12-28-02:46:46,10.1.1.2,7,0.000,-0.000,0.000,-0.000,-0.000,-0.000
1640659608299584000,2021-12-28-02:46:48,10.1.1.2,8,0.000,-0.000,0.000,-0.000,-0.000,-0.000
1640659610378888960,2021-12-28-02:46:50,10.1.1.2,7,0.000,-0.000,0.000,-0.000,-0.000,-0.000
1640659612520275200,2021-12-28-02:46:52,10.1.1.2,3,0.000,-0.000,0.000,-0.000,-0.000,-0.000
1640659614665529088,2021-12-28-02:46:54,10.1.1.2,9,0.000,-0.000,0.000,-0.000,-0.000,-0.000
1640659616816417024,2021-12-28-02:46:56,10.1.1.2,4,0.000,-0.000,0.000,-0.000,-0.000,-0.000
1640659618936144128,2021-12-28-02:46:58,10.1.1.2,3,0.000,-0.000,0.000,-0.000,-0.000,-0.000
1640659621090922240,2021-12-28-02:47:01,10.1.1.2,7,0.000,-0.000,0.000,-0.000,-0.000,-0.000
1640659623227814912,2021-12-28-02:47:03,10.1.1.2,8,0.000,-0.000,0.000,-0.000,-0.000,-0.000
1640659625363768064,2021-12-28-02:47:05,10.1.1.2,18,0.000,-0.000,0.000,-0.000,-0.000,-0.000
1640659627484105216,2021-12-28-02:47:07,10.1.1.2,10,0.000,-0.000,0.000,-0.000,-0.000,-0.000
1640659629617003008,2021-12-28-02:47:09,10.1.1.2,15,0.000,-0.000,0.000,-0.000,-0.000,-0.000
1640659631724899072,2021-12-28-02:47:11,10.1.1.2,5,0.000,-0.000,0.000,-0.000,-0.000,-0.000
1640659633872994048,2021-12-28-02:47:13,10.1.1.2,10,0.000,-0.000,0.000,-0.000,-0.000,-0.000
1640659636018017024,2021-12-28-02:47:16,10.1.1.2,2,0.000,-0.000,0.000,-0.000,-0.000,-0.000
1640659638164100864,2021-12-28-02:47:18,10.1.1.2,15,0.000,-0.000,0.000,-0.000,-0.000,-0.000
1640659640279099904,2021-12-28-02:47:20,10.1.1.2,3,0.000,-0.000,0.000,-0.000,-0.000,-0.000
1640659642380187136,2021-12-28-02:47:22,10.1.1.2,6,0.000,-0.000,0.000,-0.000,-0.000,-0.000
1640659644520770048,2021-12-28-02:47:24,10.1.1.2,16,0.000,-0.000,0.000,-0.000,-0.000,-0.000
1640659646638889984,2021-12-28-02:47:26,10.1.1.2,10,0.000,-0.000,0.000,-0.000,-0.000,-0.000
1640659648756859904,2021-12-28-02:47:28,10.1.1.2,14,0.000,-0.000,0.000,-0.000,-0.000,-0.000
1640659650873895936,2021-12-28-02:47:30,10.1.1.2,8,0.000,-0.000,0.000,-0.000,-0.000,-0.000
1640659653009963008,2021-12-28-02:47:33,10.1.1.2,17,0.000,-0.000,0.000,-0.000,-0.000,-0.000
1640659655125843968,2021-12-28-02:47:35,10.1.1.2,9,0.000,-0.000,0.000,-0.000,-0.000,-0.000
1640659657259357952,2021-12-28-02:47:37,10.1.1.2,3,0.000,-0.000,0.000,-0.000,-0.000,-0.000
1640659659442307840,2021-12-28-02:47:39,10.1.1.2,9,0.000,-0.000,0.000,-0.000,-0.000,-0.000
1640659661558633984,2021-12-28-02:47:41,10.1.1.2,4,0.000,-0.000,0.000,-0.000,-0.000,-0.000
1640659663748850944,2021-12-28-02:47:43,10.1.1.2,18,0.000,-0.000,0.000,-0.000,-0.000,-0.000
1640659665895315968,2021-12-28-02:47:45,10.1.1.2,11,0.000,-0.000,0.000,-0.000,-0.000,-0.000
1640659668020544000,2021-12-28-02:47:48,10.1.1.2,6,0.000,-0.000,0.000,-0.000,-0.000,-0.000
1640659670182491904,2021-12-28-02:47:50,10.1.1.2,14,0.000,-0.000,0.000,-0.000,-0.000,-0.000
1640659672263104000,2021-12-28-02:47:52,10.1.1.2,9,0.000,-0.000,0.000,-0.000,-0.000,-0.000
1640659674362799872,2021-12-28-02:47:54,10.1.1.2,9,0.000,-0.000,0.000,-0.000,-0.000,-0.000
1640659676459074048,2021-12-28-02:47:56,10.1.1.2,5,0.000,-0.000,0.000,-0.000,-0.000,-0.000
1640659678577197056,2021-12-28-02:47:58,10.1.1.2,1,0.000,-0.000,0.000,-0.000,-0.000,-0.000
1640659680718050048,2021-12-28-02:48:00,10.1.1.2,19,0.000,-0.000,0.000,-0.000,-0.000,-0.000
1640659682894097152,2021-12-28-02:48:02,10.1.1.2,8,0.000,-0.000,0.000,-0.000,-0.000,-0.000
1640659685052695040,2021-12-28-02:48:05,10.1.1.2,15,0.000,-0.000,0.000,-0.000,-0.000,-0.000
1640659687166750976,2021-12-28-02:48:07,10.1.1.2,1,0.000,-0.000,0.000,-0.000,-0.000,-0.000
1640659689284177152,2021-12-28-02:48:09,10.1.1.2,16,0.000,-0.000,0.000,-0.000,-0.000,-0.000
1640659691442888960,2021-12-28-02:48:11,10.1.1.2,19,0.000,-0.000,0.000,-0.000,-0.000,-0.000
1640659693597675008,2021-12-28-02:48:13,10.1.1.2,10,0.000,-0.000,0.000,-0.000,-0.000,-0.000
1640659695787683072,2021-12-28-02:48:15,10.1.1.2,17,0.000,-0.000,0.000,-0.000,-0.000,-0.000
1640659697933964032,2021-12-28-02:48:17,10.1.1.2,13,0.000,-0.000,0.000,-0.000,-0.000,-0.000
1640659700079036928,2021-12-28-02:48:20,10.1.1.2,16,0.000,-0.000,0.000,-0.000,-0.000,-0.000
1640659702186829056,2021-12-28-02:48:22,10.1.1.2,12,0.000,-0.000,0.000,-0.000,-0.000,-0.000
1640659704304719872,2021-12-28-02:48:24,10.1.1.2,1,0.000,-0.000,0.000,-0.000,-0.000,-0.000
1640659706481926912,2021-12-28-02:48:26,10.1.1.2,4,0.000,-0.000,0.000,-0.000,-0.000,-0.000
1640659708582250240,2021-12-28-02:48:28,10.1.1.2,11,0.000,-0.000,0.000,-0.000,-0.000,-0.000
1640659710661120768,2021-12-28-02:48:30,10.1.1.2,12,0.000,-0.000,0.000,-0.000,-0.000,-0.000
1640659712720377088,2021-12-28-02:48:32,10.1.1.2,3,0.000,-0.000,0.000,-0.000,-0.000,-0.000
1640659714795619072,2021-12-28-02:48:34,10.1.1.2,7,0.000,-0.000,0.000,-0.000,-0.000,-0.000
1640659716931476224,2021-12-28-02:48:36,10.1.1.2,5,0.000,-0.000,0.000,-0.000,-0.000,-0.000
1640659719029743872,2021-12-28-02:48:39,10.1.1.2,5,0.000,-0.000,0.000,-0.000,-0.000,-0.000
1640659721086614016,2021-12-28-02:48:41,10.1.1.2,0,0.000,-0.000,0.000,-0.000,-0.000,-0.000
1640659723143848960,2021-12-28-02:48:43,10.1.1.2,14,0.000,-0.000,0.000,-0.000,-0.000,-0.000
1640659725244230144,2021-12-28-02:48:45,10.1.1.2,2,0.000,-0.000,0.000,-0.000,-0.000,-0.000
1640659727462191104,2021-12-28-02:48:47,10.1.1.2,7,0.000,-0.000,0.000,-0.000,-0.000,-0.000
1640659729528041984,2021-12-28-02:48:49,10.1.1.2,3,0.000,-0.000,0.000,-0.000,-0.000,-0.000
1640659731595789056,2021-12-28-02:48:51,10.1.1.2,7,0.000,-0.000,0.000,-0.000,-0.000,-0.000
1640659733717879040,2021-12-28-02:48:53,10.1.1.2,4,0.000,-0.000,0.000,-0.000,-0.000,-0.000
1640659735821899776,2021-12-28-02:48:55,10.1.1.2,15,0.000,-0.000,0.000,-0.000,-0.000,-0.000
1640659738022649088,2021-12-28-02:48:58,10.1.1.2,13,0.000,-0.000,0.000,-0.000,-0.000,-0.000
1640659740221954048,2021-12-28-02:49:00,10.1.1.2,4,0.000,-0.000,0.000,-0.000,-0.000,-0.000
1640659742360451072,2021-12-28-02:49:02,10.1.1.2,8,0.000,-0.000,0.000,-0.000,-0.000,-0.000
1640659744500463872,2021-12-28-02:49:04,10.1.1.2,3,0.000,-0.000,0.000,-0.000,-0.000,-0.000
1640659746617536000,2021-12-28-02:49:06,10.1.1.2,7,0.000,-0.000,0.000,-0.000,-0.000,-0.000
1640659748757741056,2021-12-28-02:49:08,10.1.1.2,19,0.000,-0.000,0.000,-0.000,-0.000,-0.000
1640659750872154112,2021-12-28-02:49:10,10.1.1.2,4,0.000,-0.000,0.000,-0.000,-0.000,-0.000
1640659753049243904,2021-12-28-02:49:13,10.1.1.2,3,0.000,-0.000,0.000,-0.000,-0.000,-0.000
1640659755183609088,2021-12-28-02:49:15,10.1.1.2,10,0.000,-0.000,0.000,-0.000,-0.000,-0.000
1640659757342409984,2021-12-28-02:49:17,10.1.1.2,19,0.000,-0.000,0.000,-0.000,-0.000,-0.000
1640659759484769024,2021-12-28-02:49:19,10.1.1.2,1,0.000,-0.000,0.000,-0.000,-0.000,-0.000
1640659761652116992,2021-12-28-02:49:21,10.1.1.2,9,0.000,-0.000,0.000,-0.000,-0.000,-0.000
1640659763816524032,2021-12-28-02:49:23,10.1.1.2,17,0.000,-0.000,0.000,-0.000,-0.000,-0.000
1640659765978882048,2021-12-28-02:49:25,10.1.1.2,5,0.000,-0.000,0.000,-0.000,-0.000,-0.000
1640659768102109952,2021-12-28-02:49:28,10.1.1.2,8,0.000,-0.000,0.000,-0.000,-0.000,-0.000
1640659770202483968,2021-12-28-02:49:30,10.1.1.2,4,0.000,-0.000,0.000,-0.000,-0.000,-0.000
1640659772380305152,2021-12-28-02:49:32,10.1.1.2,15,0.000,-0.000,0.000,-0.000,-0.000,-0.000
1640659774541736960,2021-12-28-02:49:34,10.1.1.2,5,0.000,-0.000,0.000,-0.000,-0.000,-0.000
1640659776677121024,2021-12-28-02:49:36,10.1.1.2,13,0.000,-0.000,0.000,-0.000,-0.000,-0.000
1640659778834764032,2021-12-28-02:49:38,10.1.1.2,10,0.000,-0.000,0.000,-0.000,-0.000,-0.000
1640659780973388032,2021-12-28-02:49:40,10.1.1.2,11,0.000,-0.000,0.000,-0.000,-0.000,-0.000
1640659783128488960,2021-12-28-02:49:43,10.1.1.2,7,0.000,-0.000,0.000,-0.000,-0.000,-0.000
1640659785248230912,2021-12-28-02:49:45,10.1.1.2,9,0.000,-0.000,0.000,-0.000,-0.000,-0.000
1640659787402403072,2021-12-28-02:49:47,10.1.1.2,8,0.000,-0.000,0.000,-0.000,-0.000,-0.000
1640659789539289088,2021-12-28-02:49:49,10.1.1.2,10,0.000,-0.000,0.000,-0.000,-0.000,-0.000
1640659791681806080,2021-12-28-02:49:51,10.1.1.2,3,0.000,-0.000,0.000,-0.000,-0.000,-0.000
1640659793811319040,2021-12-28-02:49:53,10.1.1.2,12,0.000,-0.000,0.000,-0.000,-0.000,-0.000
1640659795938208000,2021-12-28-02:49:55,10.1.1.2,11,0.000,-0.000,0.000,-0.000,-0.000,-0.000
1640659798039084032,2021-12-28-02:49:58,10.1.1.2,2,0.000,-0.000,0.000,-0.000,-0.000,-0.000
1640659800181346816,2021-12-28-02:50:00,10.1.1.2,11,0.000,-0.000,0.000,-0.000,-0.000,-0.000
1640659802282129920,2021-12-28-02:50:02,10.1.1.2,2,0.000,-0.000,0.000,-0.000,-0.000,-0.000
1640659804421829888,2021-12-28-02:50:04,10.1.1.2,4,0.000,-0.000,0.000,-0.000,-0.000,-0.000
1640659806579624960,2021-12-28-02:50:06,10.1.1.2,9,0.000,-0.000,0.000,-0.000,-0.000,-0.000
1640659808675923968,2021-12-28-02:50:08,10.1.1.2,14,0.000,-0.000,0.000,-0.000,-0.000,-0.000
1640659810836756992,2021-12-28-02:50:10,10.1.1.2,5,0.000,-0.000,0.000,-0.000,-0.000,-0.000
1640659812993996032,2021-12-28-02:50:12,10.1.1.2,15,0.000,-0.000,0.000,-0.000,-0.000,-0.000
1640659815091799040,2021-12-28-02:50:15,10.1.1.2,20,0.000,-0.000,0.000,-0.000,-0.000,-0.000
1640659817248644096,2021-12-28-02:50:17,10.1.1.2,21,0.000,-0.000,0.000,-0.000,-0.000,-0.000
1640659819422405888,2021-12-28-02:50:19,10.1.1.2,17,0.000,-0.000,0.000,-0.000,-0.000,-0.000
1640659821539747072,2021-12-28-02:50:21,10.1.1.2,19,0.000,-0.000,0.000,-0.000,-0.000,-0.000
1640659823642828032,2021-12-28-02:50:23,10.1.1.2,7,0.000,-0.000,0.000,-0.000,-0.000,-0.000
1640659825750572800,2021-12-28-02:50:25,10.1.1.2,3,0.000,-0.000,0.000,-0.000,-0.000,-0.000
1640659827878982912,2021-12-28-02:50:27,10.1.1.2,4,0.000,-0.000,0.000,-0.000,-0.000,-0.000
1640659830041140992,2021-12-28-02:50:30,10.1.1.2,14,0.000,-0.000,0.000,-0.000,-0.000,-0.000
1640659832203437056,2021-12-28-02:50:32,10.1.1.2,17,0.000,-0.000,0.000,-0.000,-0.000,-0.000
1640659834342758912,2021-12-28-02:50:34,10.1.1.2,16,0.000,-0.000,0.000,-0.000,-0.000,-0.000
1640659836481918976,2021-12-28-02:50:36,10.1.1.2,8,0.000,-0.000,0.000,-0.000,-0.000,-0.000
1640659838581723904,2021-12-28-02:50:38,10.1.1.2,5,0.000,-0.000,0.000,-0.000,-0.000,-0.000
1640659840737918976,2021-12-28-02:50:40,10.1.1.2,7,0.000,-0.000,0.000,-0.000,-0.000,-0.000
1640659842876528896,2021-12-28-02:50:42,10.1.1.2,1,0.000,-0.000,0.000,-0.000,-0.000,-0.000
1640659845033238016,2021-12-28-02:50:45,10.1.1.2,17,0.000,-0.000,0.000,-0.000,-0.000,-0.000
1640659847152136192,2021-12-28-02:50:47,10.1.1.2,18,0.000,-0.000,0.000,-0.000,-0.000,-0.000
1640659849252759040,2021-12-28-02:50:49,10.1.1.2,7,0.000,-0.000,0.000,-0.000,-0.000,-0.000
1640659851385380864,2021-12-28-02:50:51,10.1.1.2,2,0.000,-0.000,0.000,-0.000,-0.000,-0.000
1640659853481827072,2021-12-28-02:50:53,10.1.1.2,13,0.000,-0.000,0.000,-0.000,-0.000,-0.000
1640659855597379072,2021-12-28-02:50:55,10.1.1.2,12,0.000,-0.000,0.000,-0.000,-0.000,-0.000
1640659857770195968,2021-12-28-02:50:57,10.1.1.2,18,0.000,-0.000,0.000,-0.000,-0.000,-0.000
1640659859915901952,2021-12-28-02:50:59,10.1.1.2,20,0.000,-0.000,0.000,-0.000,-0.000,-0.000
1640659862056758016,2021-12-28-02:51:02,10.1.1.2,6,0.000,-0.000,0.000,-0.000,-0.000,-0.000
1640659864161190144,2021-12-28-02:51:04,10.1.1.2,3,0.000,-0.000,0.000,-0.000,-0.000,-0.000
1640659866342304000,2021-12-28-02:51:06,10.1.1.2,16,0.000,-0.000,0.000,-0.000,-0.000,-0.000
1640659868520560128,2021-12-28-02:51:08,10.1.1.2,8,0.000,-0.000,0.000,-0.000,-0.000,-0.000
1640659870662694912,2021-12-28-02:51:10,10.1.1.2,11,0.000,-0.000,0.000,-0.000,-0.000,-0.000
1640659872822232064,2021-12-28-02:51:12,10.1.1.2,10,0.000,-0.000,0.000,-0.000,-0.000,-0.000
1640659874915055104,2021-12-28-02:51:14,10.1.1.2,4,0.000,-0.000,0.000,-0.000,-0.000,-0.000
1640659877031096064,2021-12-28-02:51:17,10.1.1.2,13,0.000,-0.000,0.000,-0.000,-0.000,-0.000
1640659879169806080,2021-12-28-02:51:19,10.1.1.2,6,0.000,-0.000,0.000,-0.000,-0.000,-0.000
1640659881288378112,2021-12-28-02:51:21,10.1.1.2,5,0.000,-0.000,0.000,-0.000,-0.000,-0.000
1640659883402992128,2021-12-28-02:51:23,10.1.1.2,2,0.000,-0.000,0.000,-0.000,-0.000,-0.000
1640659885540000000,2021-12-28-02:51:25,10.1.1.2,14,0.000,-0.000,0.000,-0.000,-0.000,-0.000
1640659887696676096,2021-12-28-02:51:27,10.1.1.2,11,0.000,-0.000,0.000,-0.000,-0.000,-0.000
1640659889844448000,2021-12-28-02:51:29,10.1.1.2,2,0.000,-0.000,0.000,-0.000,-0.000,-0.000
1640659891971729920,2021-12-28-02:51:31,10.1.1.2,4,0.000,-0.000,0.000,-0.000,-0.000,-0.000
1640659894158107904,2021-12-28-02:51:34,10.1.1.2,19,0.000,-0.000,0.000,-0.000,-0.000,-0.000
1640659896322725120,2021-12-28-02:51:36,10.1.1.2,18,0.000,-0.000,0.000,-0.000,-0.000,-0.000
1640659898463550208,2021-12-28-02:51:38,10.1.1.2,12,0.000,-0.000,0.000,-0.000,-0.000,-0.000
1640659900581878784,2021-12-28-02:51:40,10.1.1.2,9,0.000,-0.000,0.000,-0.000,-0.000,-0.000
1640659902740883200,2021-12-28-02:51:42,10.1.1.2,19,0.000,-0.000,0.000,-0.000,-0.000,-0.000
1640659904879249152,2021-12-28-02:51:44,10.1.1.2,15,0.000,-0.000,0.000,-0.000,-0.000,-0.000
1640659907015152896,2021-12-28-02:51:47,10.1.1.2,14,0.000,-0.000,0.000,-0.000,-0.000,-0.000
1640659909135102976,2021-12-28-02:51:49,10.1.1.2,6,0.000,-0.000,0.000,-0.000,-0.000,-0.000
1640659911229361152,2021-12-28-02:51:51,10.1.1.2,13,0.000,-0.000,0.000,-0.000,-0.000,-0.000
1640659913308342016,2021-12-28-02:51:53,10.1.1.2,2,0.000,-0.000,0.000,-0.000,-0.000,-0.000
1640659915469048064,2021-12-28-02:51:55,10.1.1.2,19,0.000,-0.000,0.000,-0.000,-0.000,-0.000
1640659917600792832,2021-12-28-02:51:57,10.1.1.2,8,0.000,-0.000,0.000,-0.000,-0.000,-0.000
1640659921865605120,2021-12-28-02:52:01,10.1.1.2,7,0.000,-0.000,0.000,-0.000,-0.000,-0.000
1640659923995915008,2021-12-28-02:52:03,10.1.1.2,6,0.000,-0.000,0.000,-0.000,-0.000,-0.000
1640659926137388032,2021-12-28-02:52:06,10.1.1.2,2,0.000,-0.000,0.000,-0.000,-0.000,-0.000
1640659928281958144,2021-12-28-02:52:08,10.1.1.2,8,0.000,-0.000,0.000,-0.000,-0.000,-0.000
1640659930443581952,2021-12-28-02:52:10,10.1.1.2,12,0.000,-0.000,0.000,-0.000,-0.000,-0.000
1640659932580907008,2021-12-28-02:52:12,10.1.1.2,13,0.000,-0.000,0.000,-0.000,-0.000,-0.000
1640659934719625984,2021-12-28-02:52:14,10.1.1.2,7,0.000,-0.000,0.000,-0.000,-0.000,-0.000
1640659936857940992,2021-12-28-02:52:16,10.1.1.2,3,0.000,-0.000,0.000,-0.000,-0.000,-0.000
1640659939018008064,2021-12-28-02:52:19,10.1.1.2,9,0.000,-0.000,0.000,-0.000,-0.000,-0.000
1640659941175777792,2021-12-28-02:52:21,10.1.1.2,17,0.000,-0.000,0.000,-0.000,-0.000,-0.000
1640659943292558080,2021-12-28-02:52:23,10.1.1.2,4,0.000,-0.000,0.000,-0.000,-0.000,-0.000
1640659945428986112,2021-12-28-02:52:25,10.1.1.2,14,0.000,-0.000,0.000,-0.000,-0.000,-0.000
1640659947543059200,2021-12-28-02:52:27,10.1.1.2,14,0.000,-0.000,0.000,-0.000,-0.000,-0.000
1640659949701259008,2021-12-28-02:52:29,10.1.1.2,16,0.000,-0.000,0.000,-0.000,-0.000,-0.000
1640659951819235072,2021-12-28-02:52:31,10.1.1.2,8,0.000,-0.000,0.000,-0.000,-0.000,-0.000
1640659953946624000,2021-12-28-02:52:33,10.1.1.2,16,0.000,-0.000,0.000,-0.000,-0.000,-0.000
1640659956094605824,2021-12-28-02:52:36,10.1.1.2,16,0.000,-0.000,0.000,-0.000,-0.000,-0.000
1640659958198284032,2021-12-28-02:52:38,10.1.1.2,7,0.000,-0.000,0.000,-0.000,-0.000,-0.000
1640659962483710976,2021-12-28-02:52:42,10.1.1.2,4,0.000,-0.000,0.000,-0.000,-0.000,-0.000
1640659964623505152,2021-12-28-02:52:44,10.1.1.2,16,0.000,-0.000,0.000,-0.000,-0.000,-0.000
1640659966765440000,2021-12-28-02:52:46,10.1.1.2,16,0.000,-0.000,0.000,-0.000,-0.000,-0.000
1640659968879301120,2021-12-28-02:52:48,10.1.1.2,4,0.000,-0.000,0.000,-0.000,-0.000,-0.000
1640659971078736896,2021-12-28-02:52:51,10.1.1.2,4,0.000,-0.000,0.000,-0.000,-0.000,-0.000
1640659973234510848,2021-12-28-02:52:53,10.1.1.2,7,0.000,-0.000,0.000,-0.000,-0.000,-0.000
1640659975372509952,2021-12-28-02:52:55,10.1.1.2,13,0.000,-0.000,0.000,-0.000,-0.000,-0.000
1640659977528804096,2021-12-28-02:52:57,10.1.1.2,9,0.000,-0.000,0.000,-0.000,-0.000,-0.000
1640659979653090048,2021-12-28-02:52:59,10.1.1.2,5,0.000,-0.000,0.000,-0.000,-0.000,-0.000
1640659981722512128,2021-12-28-02:53:01,10.1.1.2,7,0.000,-0.000,0.000,-0.000,-0.000,-0.000
1640659983802153216,2021-12-28-02:53:03,10.1.1.2,4,0.000,-0.000,0.000,-0.000,-0.000,-0.000
1640659985901617920,2021-12-28-02:53:05,10.1.1.2,10,0.000,-0.000,0.000,-0.000,-0.000,-0.000
1640659988010039040,2021-12-28-02:53:08,10.1.1.2,0,0.000,-0.000,0.000,-0.000,-0.000,-0.000
1640659990137285120,2021-12-28-02:53:10,10.1.1.2,3,0.000,-0.000,0.000,-0.000,-0.000,-0.000
1640659992261054976,2021-12-28-02:53:12,10.1.1.2,5,0.000,-0.000,0.000,-0.000,-0.000,-0.000
1640659994444331008,2021-12-28-02:53:14,10.1.1.2,18,0.000,-0.000,0.000,-0.000,-0.000,-0.000
1640659996624700928,2021-12-28-02:53:16,10.1.1.2,18,0.000,-0.000,0.000,-0.000,-0.000,-0.000
1640659998719449088,2021-12-28-02:53:18,10.1.1.2,9,0.000,-0.000,0.000,-0.000,-0.000,-0.000
1640660000880190976,2021-12-28-02:53:20,10.1.1.2,14,0.000,-0.000,0.000,-0.000,-0.000,-0.000
1640660003037722112,2021-12-28-02:53:23,10.1.1.2,11,0.000,-0.000,0.000,-0.000,-0.000,-0.000
1640660005233083136,2021-12-28-02:53:25,10.1.1.2,16,0.000,-0.000,0.000,-0.000,-0.000,-0.000
1640660007370771968,2021-12-28-02:53:27,10.1.1.2,5,0.000,-0.000,0.000,-0.000,-0.000,-0.000
1640660009488004096,2021-12-28-02:53:29,10.1.1.2,3,0.000,-0.000,0.000,-0.000,-0.000,-0.000
1640660011648071936,2021-12-28-02:53:31,10.1.1.2,9,0.000,-0.000,0.000,-0.000,-0.000,-0.000
1640660013842715904,2021-12-28-02:53:33,10.1.1.2,10,0.000,-0.000,0.000,-0.000,-0.000,-0.000
1640660016018727936,2021-12-28-02:53:36,10.1.1.2,10,0.000,-0.000,0.000,-0.000,-0.000,-0.000
1640660018203428096,2021-12-28-02:53:38,10.1.1.2,17,0.000,-0.000,0.000,-0.000,-0.000,-0.000
1640660020330534912,2021-12-28-02:53:40,10.1.1.2,8,0.000,-0.000,0.000,-0.000,-0.000,-0.000
1640660022463470080,2021-12-28-02:53:42,10.1.1.2,20,0.000,-0.000,0.000,-0.000,-0.000,-0.000
1640660024580059136,2021-12-28-02:53:44,10.1.1.2,7,0.000,-0.000,0.000,-0.000,-0.000,-0.000
1640660026742994176,2021-12-28-02:53:46,10.1.1.2,17,0.000,-0.000,0.000,-0.000,-0.000,-0.000
1640660028908185856,2021-12-28-02:53:48,10.1.1.2,9,0.000,-0.000,0.000,-0.000,-0.000,-0.000
1640660031040067072,2021-12-28-02:53:51,10.1.1.2,1,0.000,-0.000,0.000,-0.000,-0.000,-0.000
1640660033178797056,2021-12-28-02:53:53,10.1.1.2,15,0.000,-0.000,0.000,-0.000,-0.000,-0.000
1640660035277628928,2021-12-28-02:53:55,10.1.1.2,6,0.000,-0.000,0.000,-0.000,-0.000,-0.000
1640660037395172096,2021-12-28-02:53:57,10.1.1.2,17,0.000,-0.000,0.000,-0.000,-0.000,-0.000
1640660039490969856,2021-12-28-02:53:59,10.1.1.2,16,0.000,-0.000,0.000,-0.000,-0.000,-0.000
1640660041628655872,2021-12-28-02:54:01,10.1.1.2,15,0.000,-0.000,0.000,-0.000,-0.000,-0.000
1640660043725629952,2021-12-28-02:54:03,10.1.1.2,5,0.000,-0.000,0.000,-0.000,-0.000,-0.000
1640660045881860864,2021-12-28-02:54:05,10.1.1.2,5,0.000,-0.000,0.000,-0.000,-0.000,-0.000
1640660047978420992,2021-12-28-02:54:07,10.1.1.2,2,0.000,-0.000,0.000,-0.000,-0.000,-0.000
1640660050083406080,2021-12-28-02:54:10,10.1.1.2,3,0.000,-0.000,0.000,-0.000,-0.000,-0.000
1640660052231021824,2021-12-28-02:54:12,10.1.1.2,3,0.000,-0.000,0.000,-0.000,-0.000,-0.000
1640660054397628160,2021-12-28-02:54:14,10.1.1.2,12,0.000,-0.000,0.000,-0.000,-0.000,-0.000
1640660056521074176,2021-12-28-02:54:16,10.1.1.2,9,0.000,-0.000,0.000,-0.000,-0.000,-0.000
1640660058641391872,2021-12-28-02:54:18,10.1.1.2,10,0.000,-0.000,0.000,-0.000,-0.000,-0.000
1640660060800816128,2021-12-28-02:54:20,10.1.1.2,12,0.000,-0.000,0.000,-0.000,-0.000,-0.000
1640660062941359104,2021-12-28-02:54:22,10.1.1.2,3,0.000,-0.000,0.000,-0.000,-0.000,-0.000
1640660065122535936,2021-12-28-02:54:25,10.1.1.2,10,0.000,-0.000,0.000,-0.000,-0.000,-0.000
1640660067262145024,2021-12-28-02:54:27,10.1.1.2,14,0.000,-0.000,0.000,-0.000,-0.000,-0.000
1640660069398253056,2021-12-28-02:54:29,10.1.1.2,20,0.000,-0.000,0.000,-0.000,-0.000,-0.000
1640660071531225856,2021-12-28-02:54:31,10.1.1.2,18,0.000,-0.000,0.000,-0.000,-0.000,-0.000
1640660073630887936,2021-12-28-02:54:33,10.1.1.2,14,0.000,-0.000,0.000,-0.000,-0.000,-0.000
1640660075749566976,2021-12-28-02:54:35,10.1.1.2,13,0.000,-0.000,0.000,-0.000,-0.000,-0.000
1640660077863315200,2021-12-28-02:54:37,10.1.1.2,5,0.000,-0.000,0.000,-0.000,-0.000,-0.000
1640660080019131904,2021-12-28-02:54:40,10.1.1.2,16,0.000,-0.000,0.000,-0.000,-0.000,-0.000
