FedericoMungari/DigitalTwin_service/01_WiredScenario/Output/Output_script/script_rosapi_2_output_robots10_freq0_1.txt
timestamp,date,node,latency,joint_1,joint_2,joint_3,joint_4,joint_5,joint_6
1641220947033995008,2022-01-03-14:42:27,10.1.1.2,182,-0.010,-0.010,-0.010,0.000,0.000,0.000
1641220947234558208,2022-01-03-14:42:27,10.1.1.2,181,-0.020,-0.020,-0.020,0.000,0.000,0.000
1641220947432975104,2022-01-03-14:42:27,10.1.1.2,180,-0.030,-0.030,-0.030,0.000,0.000,0.000
1641220947633742080,2022-01-03-14:42:27,10.1.1.2,179,-0.040,-0.040,-0.040,0.000,0.000,0.000
1641220947833009920,2022-01-03-14:42:27,10.1.1.2,178,-0.050,-0.050,-0.050,0.000,0.000,0.000
1641220948031138816,2022-01-03-14:42:28,10.1.1.2,175,-0.060,-0.060,-0.060,0.000,0.000,0.000
1641220948231499008,2022-01-03-14:42:28,10.1.1.2,175,-0.070,-0.070,-0.070,0.000,0.000,0.000
1641220948452503808,2022-01-03-14:42:28,10.1.1.2,195,-0.080,-0.080,-0.080,0.000,0.000,0.000
1641220948650054912,2022-01-03-14:42:28,10.1.1.2,191,-0.090,-0.090,-0.090,0.000,0.000,0.000
1641220948851869952,2022-01-03-14:42:28,10.1.1.2,193,-0.100,-0.100,-0.100,0.000,0.000,0.000
1641220949050468864,2022-01-03-14:42:29,10.1.1.2,191,-0.110,-0.110,-0.110,0.000,0.000,0.000
1641220949249814016,2022-01-03-14:42:29,10.1.1.2,189,-0.120,-0.120,-0.120,0.000,0.000,0.000
1641220949449331968,2022-01-03-14:42:29,10.1.1.2,188,-0.130,-0.130,-0.130,0.000,0.000,0.000
1641220949650427136,2022-01-03-14:42:29,10.1.1.2,189,-0.140,-0.140,-0.140,0.000,0.000,0.000
1641220949849167104,2022-01-03-14:42:29,10.1.1.2,187,-0.150,-0.150,-0.150,0.000,0.000,0.000
1641220950048111872,2022-01-03-14:42:30,10.1.1.2,186,-0.160,-0.160,-0.160,0.000,0.000,0.000
1641220950248580096,2022-01-03-14:42:30,10.1.1.2,186,-0.170,-0.170,-0.170,0.000,0.000,0.000
1641220950447657984,2022-01-03-14:42:30,10.1.1.2,185,-0.180,-0.180,-0.180,0.000,0.000,0.000
1641220950647761152,2022-01-03-14:42:30,10.1.1.2,184,-0.190,-0.190,-0.190,0.000,0.000,0.000
1641220950847738112,2022-01-03-14:42:30,10.1.1.2,183,-0.200,-0.200,-0.200,0.000,0.000,0.000
1641220951047799040,2022-01-03-14:42:31,10.1.1.2,182,-0.210,-0.210,-0.210,0.000,0.000,0.000
1641220951248776960,2022-01-03-14:42:31,10.1.1.2,182,-0.220,-0.220,-0.220,0.000,0.000,0.000
1641220951448342016,2022-01-03-14:42:31,10.1.1.2,181,-0.230,-0.230,-0.230,0.000,0.000,0.000
1641220951646498048,2022-01-03-14:42:31,10.1.1.2,177,-0.240,-0.240,-0.240,0.000,0.000,0.000
1641220951847397120,2022-01-03-14:42:31,10.1.1.2,177,-0.250,-0.250,-0.250,0.000,0.000,0.000
1641220952046000128,2022-01-03-14:42:32,10.1.1.2,174,-0.260,-0.260,-0.260,0.000,0.000,0.000
1641220952245219840,2022-01-03-14:42:32,10.1.1.2,173,-0.270,-0.270,-0.270,0.000,0.000,0.000
1641220952444892928,2022-01-03-14:42:32,10.1.1.2,172,-0.280,-0.280,-0.280,0.000,0.000,0.000
1641220952644402944,2022-01-03-14:42:32,10.1.1.2,171,-0.290,-0.290,-0.290,0.000,0.000,0.000
1641220952846381056,2022-01-03-14:42:32,10.1.1.2,172,-0.300,-0.300,-0.300,0.000,0.000,0.000
1641220953045975040,2022-01-03-14:42:33,10.1.1.2,168,-0.310,-0.310,-0.310,0.000,0.000,0.000
1641220953266345984,2022-01-03-14:42:33,10.1.1.2,189,-0.320,-0.320,-0.320,0.000,0.000,0.000
1641220953465411072,2022-01-03-14:42:33,10.1.1.2,187,-0.330,-0.330,-0.330,0.000,0.000,0.000
1641220953665942784,2022-01-03-14:42:33,10.1.1.2,187,-0.340,-0.340,-0.340,0.000,0.000,0.000
1641220953865581056,2022-01-03-14:42:33,10.1.1.2,186,-0.350,-0.350,-0.350,0.000,0.000,0.000
1641220954064663808,2022-01-03-14:42:34,10.1.1.2,184,-0.360,-0.360,-0.360,0.000,0.000,0.000
1641220954263723008,2022-01-03-14:42:34,10.1.1.2,182,-0.370,-0.370,-0.370,0.000,0.000,0.000
1641220954464656128,2022-01-03-14:42:34,10.1.1.2,183,-0.380,-0.380,-0.380,0.000,0.000,0.000
1641220954662419200,2022-01-03-14:42:34,10.1.1.2,177,-0.390,-0.390,-0.390,0.000,0.000,0.000
1641220954861740032,2022-01-03-14:42:34,10.1.1.2,176,-0.400,-0.400,-0.400,0.000,0.000,0.000
1641220955065502976,2022-01-03-14:42:35,10.1.1.2,179,-0.410,-0.410,-0.410,0.000,0.000,0.000
1641220955264368128,2022-01-03-14:42:35,10.1.1.2,176,-0.420,-0.420,-0.420,0.000,0.000,0.000
1641220955461123072,2022-01-03-14:42:35,10.1.1.2,174,-0.430,-0.430,-0.430,0.000,0.000,0.000
1641220955661585152,2022-01-03-14:42:35,10.1.1.2,174,-0.440,-0.440,-0.440,0.000,0.000,0.000
1641220955862979840,2022-01-03-14:42:35,10.1.1.2,175,-0.450,-0.450,-0.450,0.000,0.000,0.000
1641220956060470016,2022-01-03-14:42:36,10.1.1.2,172,-0.460,-0.460,-0.460,0.000,0.000,0.000
1641220956261480960,2022-01-03-14:42:36,10.1.1.2,172,-0.470,-0.470,-0.470,0.000,0.000,0.000
1641220956461896960,2022-01-03-14:42:36,10.1.1.2,172,-0.480,-0.480,-0.480,0.000,0.000,0.000
1641220956660943872,2022-01-03-14:42:36,10.1.1.2,171,-0.490,-0.490,-0.490,0.000,0.000,0.000
1641220956859714048,2022-01-03-14:42:36,10.1.1.2,169,-0.480,-0.480,-0.480,0.000,0.000,0.000
1641220957060583168,2022-01-03-14:42:37,10.1.1.2,168,-0.470,-0.470,-0.470,0.000,0.000,0.000
1641220957260694016,2022-01-03-14:42:37,10.1.1.2,169,-0.460,-0.460,-0.460,0.000,0.000,0.000
1641220957459783936,2022-01-03-14:42:37,10.1.1.2,168,-0.450,-0.450,-0.450,0.000,0.000,0.000
1641220957658295040,2022-01-03-14:42:37,10.1.1.2,166,-0.440,-0.440,-0.440,0.000,0.000,0.000
1641220957859834880,2022-01-03-14:42:37,10.1.1.2,167,-0.430,-0.430,-0.430,0.000,0.000,0.000
1641220958059046144,2022-01-03-14:42:38,10.1.1.2,166,-0.420,-0.420,-0.420,0.000,0.000,0.000
1641220958256616960,2022-01-03-14:42:38,10.1.1.2,163,-0.410,-0.410,-0.410,0.000,0.000,0.000
1641220958456391168,2022-01-03-14:42:38,10.1.1.2,162,-0.400,-0.400,-0.400,0.000,0.000,0.000
1641220958656960000,2022-01-03-14:42:38,10.1.1.2,162,-0.390,-0.390,-0.390,0.000,0.000,0.000
1641220958857292032,2022-01-03-14:42:38,10.1.1.2,162,-0.380,-0.380,-0.380,0.000,0.000,0.000
1641220959055907840,2022-01-03-14:42:39,10.1.1.2,160,-0.370,-0.370,-0.370,0.000,0.000,0.000
1641220959257195008,2022-01-03-14:42:39,10.1.1.2,161,-0.360,-0.360,-0.360,0.000,0.000,0.000
1641220959476321024,2022-01-03-14:42:39,10.1.1.2,178,-0.350,-0.350,-0.350,0.000,0.000,0.000
1641220959675198976,2022-01-03-14:42:39,10.1.1.2,176,-0.340,-0.340,-0.340,0.000,0.000,0.000
1641220959876343040,2022-01-03-14:42:39,10.1.1.2,177,-0.330,-0.330,-0.330,0.000,0.000,0.000
1641220960075144960,2022-01-03-14:42:40,10.1.1.2,175,-0.320,-0.320,-0.320,0.000,0.000,0.000
1641220960275953152,2022-01-03-14:42:40,10.1.1.2,176,-0.310,-0.310,-0.310,0.000,0.000,0.000
1641220960473239040,2022-01-03-14:42:40,10.1.1.2,171,-0.300,-0.300,-0.300,0.000,0.000,0.000
1641220960674366976,2022-01-03-14:42:40,10.1.1.2,172,-0.290,-0.290,-0.290,0.000,0.000,0.000
1641220960872960000,2022-01-03-14:42:40,10.1.1.2,170,-0.280,-0.280,-0.280,0.000,0.000,0.000
1641220961075184128,2022-01-03-14:42:41,10.1.1.2,170,-0.270,-0.270,-0.270,0.000,0.000,0.000
1641220961273454848,2022-01-03-14:42:41,10.1.1.2,170,-0.260,-0.260,-0.260,0.000,0.000,0.000
1641220961476815872,2022-01-03-14:42:41,10.1.1.2,171,-0.250,-0.250,-0.250,0.000,0.000,0.000
1641220961677496064,2022-01-03-14:42:41,10.1.1.2,172,-0.240,-0.240,-0.240,0.000,0.000,0.000
1641220961892580864,2022-01-03-14:42:41,10.1.1.2,186,-0.230,-0.230,-0.230,0.000,0.000,0.000
1641220962082475776,2022-01-03-14:42:42,10.1.1.2,167,-0.220,-0.220,-0.220,0.000,0.000,0.000
1641220962280288000,2022-01-03-14:42:42,10.1.1.2,163,-0.210,-0.210,-0.210,0.000,0.000,0.000
1641220962502046208,2022-01-03-14:42:42,10.1.1.2,184,-0.200,-0.200,-0.200,0.000,0.000,0.000
1641220962701773056,2022-01-03-14:42:42,10.1.1.2,183,-0.190,-0.190,-0.190,0.000,0.000,0.000
1641220962903577088,2022-01-03-14:42:42,10.1.1.2,183,-0.180,-0.180,-0.180,0.000,0.000,0.000
1641220963104231168,2022-01-03-14:42:43,10.1.1.2,178,-0.170,-0.170,-0.170,0.000,0.000,0.000
1641220963302906112,2022-01-03-14:42:43,10.1.1.2,178,-0.160,-0.160,-0.160,0.000,0.000,0.000
1641220963503764992,2022-01-03-14:42:43,10.1.1.2,176,-0.150,-0.150,-0.150,0.000,0.000,0.000
1641220963703908864,2022-01-03-14:42:43,10.1.1.2,175,-0.140,-0.140,-0.140,0.000,0.000,0.000
1641220963907310080,2022-01-03-14:42:43,10.1.1.2,176,-0.130,-0.130,-0.130,0.000,0.000,0.000
1641220964106082048,2022-01-03-14:42:44,10.1.1.2,176,-0.120,-0.120,-0.120,0.000,0.000,0.000
1641220964307168000,2022-01-03-14:42:44,10.1.1.2,172,-0.110,-0.110,-0.110,0.000,0.000,0.000
1641220964528611840,2022-01-03-14:42:44,10.1.1.2,188,-0.100,-0.100,-0.100,0.000,0.000,0.000
1641220964729746944,2022-01-03-14:42:44,10.1.1.2,189,-0.090,-0.090,-0.090,0.000,0.000,0.000
1641220964929526016,2022-01-03-14:42:44,10.1.1.2,188,-0.080,-0.080,-0.080,0.000,0.000,0.000
1641220965128921088,2022-01-03-14:42:45,10.1.1.2,186,-0.070,-0.070,-0.070,0.000,0.000,0.000
1641220965331630848,2022-01-03-14:42:45,10.1.1.2,188,-0.060,-0.060,-0.060,0.000,0.000,0.000
1641220965535151104,2022-01-03-14:42:45,10.1.1.2,191,-0.050,-0.050,-0.050,0.000,0.000,0.000
1641220965735373056,2022-01-03-14:42:45,10.1.1.2,190,-0.040,-0.040,-0.040,0.000,0.000,0.000
1641220965932517888,2022-01-03-14:42:45,10.1.1.2,187,-0.030,-0.030,-0.030,0.000,0.000,0.000
1641220966130690048,2022-01-03-14:42:46,10.1.1.2,185,-0.020,-0.020,-0.020,0.000,0.000,0.000
1641220966332982016,2022-01-03-14:42:46,10.1.1.2,187,-0.010,-0.010,-0.010,0.000,0.000,0.000
1641220966537206784,2022-01-03-14:42:46,10.1.1.2,190,0.000,0.000,0.000,0.000,0.000,0.000
1641220966737413888,2022-01-03-14:42:46,10.1.1.2,190,-0.010,-0.010,-0.010,0.000,0.000,0.000
1641220966938383104,2022-01-03-14:42:46,10.1.1.2,190,-0.020,-0.020,-0.020,0.000,0.000,0.000
1641220967135288064,2022-01-03-14:42:47,10.1.1.2,186,-0.030,-0.030,-0.030,0.000,0.000,0.000
1641220967338141952,2022-01-03-14:42:47,10.1.1.2,183,-0.040,-0.040,-0.040,0.000,0.000,0.000
1641220967534960896,2022-01-03-14:42:47,10.1.1.2,183,-0.050,-0.050,-0.050,0.000,0.000,0.000
1641220967736581120,2022-01-03-14:42:47,10.1.1.2,184,-0.060,-0.060,-0.060,0.000,0.000,0.000
1641220967939347968,2022-01-03-14:42:47,10.1.1.2,186,-0.070,-0.070,-0.070,0.000,0.000,0.000
1641220968139823872,2022-01-03-14:42:48,10.1.1.2,183,-0.080,-0.080,-0.080,0.000,0.000,0.000
1641220968354459136,2022-01-03-14:42:48,10.1.1.2,195,-0.090,-0.090,-0.090,0.000,0.000,0.000
1641220968557550080,2022-01-03-14:42:48,10.1.1.2,196,-0.100,-0.100,-0.100,0.000,0.000,0.000
1641220968975433984,2022-01-03-14:42:48,10.1.1.2,179,-0.120,-0.120,-0.120,0.000,0.000,0.000
1641220969396451072,2022-01-03-14:42:49,10.1.1.2,186,-0.140,-0.140,-0.140,0.000,0.000,0.000
1641220969597537024,2022-01-03-14:42:49,10.1.1.2,187,-0.150,-0.150,-0.150,0.000,0.000,0.000
1641220969796630016,2022-01-03-14:42:49,10.1.1.2,185,-0.160,-0.160,-0.160,0.000,0.000,0.000
1641220969996105984,2022-01-03-14:42:49,10.1.1.2,184,-0.170,-0.170,-0.170,0.000,0.000,0.000
1641220970196348928,2022-01-03-14:42:50,10.1.1.2,184,-0.180,-0.180,-0.180,0.000,0.000,0.000
1641220970396151040,2022-01-03-14:42:50,10.1.1.2,183,-0.190,-0.190,-0.190,0.000,0.000,0.000
1641220970596297984,2022-01-03-14:42:50,10.1.1.2,182,-0.200,-0.200,-0.200,0.000,0.000,0.000
1641220970799731968,2022-01-03-14:42:50,10.1.1.2,185,-0.210,-0.210,-0.210,0.000,0.000,0.000
1641220971001697024,2022-01-03-14:42:51,10.1.1.2,186,-0.220,-0.220,-0.220,0.000,0.000,0.000
1641220971199826944,2022-01-03-14:42:51,10.1.1.2,183,-0.230,-0.230,-0.230,0.000,0.000,0.000
1641220971817740032,2022-01-03-14:42:51,10.1.1.2,198,-0.260,-0.260,-0.260,0.000,0.000,0.000
1641220972016443904,2022-01-03-14:42:52,10.1.1.2,196,-0.270,-0.270,-0.270,0.000,0.000,0.000
1641220972218381056,2022-01-03-14:42:52,10.1.1.2,197,-0.280,-0.280,-0.280,0.000,0.000,0.000
1641220972419652864,2022-01-03-14:42:52,10.1.1.2,198,-0.290,-0.290,-0.290,0.000,0.000,0.000
1641220972616545024,2022-01-03-14:42:52,10.1.1.2,193,-0.300,-0.300,-0.300,0.000,0.000,0.000
1641220972816188160,2022-01-03-14:42:52,10.1.1.2,191,-0.310,-0.310,-0.310,0.000,0.000,0.000
1641220973016254976,2022-01-03-14:42:53,10.1.1.2,190,-0.320,-0.320,-0.320,0.000,0.000,0.000
1641220973220691968,2022-01-03-14:42:53,10.1.1.2,194,-0.330,-0.330,-0.330,0.000,0.000,0.000
1641220973416529920,2022-01-03-14:42:53,10.1.1.2,188,-0.340,-0.340,-0.340,0.000,0.000,0.000
1641220973616441856,2022-01-03-14:42:53,10.1.1.2,188,-0.350,-0.350,-0.350,0.000,0.000,0.000
1641220973817299968,2022-01-03-14:42:53,10.1.1.2,187,-0.360,-0.360,-0.360,0.000,0.000,0.000
1641220974017724160,2022-01-03-14:42:54,10.1.1.2,186,-0.370,-0.370,-0.370,0.000,0.000,0.000
1641220974217172992,2022-01-03-14:42:54,10.1.1.2,185,-0.380,-0.380,-0.380,0.000,0.000,0.000
1641220974421865984,2022-01-03-14:42:54,10.1.1.2,189,-0.390,-0.390,-0.390,0.000,0.000,0.000
1641220974626566912,2022-01-03-14:42:54,10.1.1.2,193,-0.400,-0.400,-0.400,0.000,0.000,0.000
1641220974819458048,2022-01-03-14:42:54,10.1.1.2,185,-0.410,-0.410,-0.410,0.000,0.000,0.000
1641220975016040960,2022-01-03-14:42:55,10.1.1.2,181,-0.420,-0.420,-0.420,0.000,0.000,0.000
1641220975216169216,2022-01-03-14:42:55,10.1.1.2,179,-0.430,-0.430,-0.430,0.000,0.000,0.000
1641220975435347968,2022-01-03-14:42:55,10.1.1.2,197,-0.440,-0.440,-0.440,0.000,0.000,0.000
1641220975635773952,2022-01-03-14:42:55,10.1.1.2,197,-0.450,-0.450,-0.450,0.000,0.000,0.000
1641220975834956800,2022-01-03-14:42:55,10.1.1.2,196,-0.460,-0.460,-0.460,0.000,0.000,0.000
1641220976035940864,2022-01-03-14:42:56,10.1.1.2,196,-0.470,-0.470,-0.470,0.000,0.000,0.000
1641220976235778048,2022-01-03-14:42:56,10.1.1.2,195,-0.480,-0.480,-0.480,0.000,0.000,0.000
1641220976436454912,2022-01-03-14:42:56,10.1.1.2,194,-0.490,-0.490,-0.490,0.000,0.000,0.000
1641220976636260864,2022-01-03-14:42:56,10.1.1.2,195,-0.480,-0.480,-0.480,0.000,0.000,0.000
1641220977034342912,2022-01-03-14:42:57,10.1.1.2,191,-0.460,-0.460,-0.460,0.000,0.000,0.000
1641220977235873024,2022-01-03-14:42:57,10.1.1.2,192,-0.450,-0.450,-0.450,0.000,0.000,0.000
1641220977436982016,2022-01-03-14:42:57,10.1.1.2,191,-0.440,-0.440,-0.440,0.000,0.000,0.000
1641220977638253824,2022-01-03-14:42:57,10.1.1.2,192,-0.430,-0.430,-0.430,0.000,0.000,0.000
1641220977836281088,2022-01-03-14:42:57,10.1.1.2,189,-0.420,-0.420,-0.420,0.000,0.000,0.000
1641220978034306048,2022-01-03-14:42:58,10.1.1.2,185,-0.410,-0.410,-0.410,0.000,0.000,0.000
1641220978235915776,2022-01-03-14:42:58,10.1.1.2,184,-0.400,-0.400,-0.400,0.000,0.000,0.000
1641220978433705984,2022-01-03-14:42:58,10.1.1.2,183,-0.390,-0.390,-0.390,0.000,0.000,0.000
1641220978635219200,2022-01-03-14:42:58,10.1.1.2,184,-0.380,-0.380,-0.380,0.000,0.000,0.000
1641220978833762816,2022-01-03-14:42:58,10.1.1.2,181,-0.370,-0.370,-0.370,0.000,0.000,0.000
1641220979051618048,2022-01-03-14:42:59,10.1.1.2,192,-0.360,-0.360,-0.360,0.000,0.000,0.000
1641220979254085120,2022-01-03-14:42:59,10.1.1.2,194,-0.350,-0.350,-0.350,0.000,0.000,0.000
1641220979451924992,2022-01-03-14:42:59,10.1.1.2,190,-0.340,-0.340,-0.340,0.000,0.000,0.000
1641220979651621120,2022-01-03-14:42:59,10.1.1.2,189,-0.330,-0.330,-0.330,0.000,0.000,0.000
1641220979858059776,2022-01-03-14:42:59,10.1.1.2,194,-0.320,-0.320,-0.320,0.000,0.000,0.000
1641220980051398144,2022-01-03-14:43:00,10.1.1.2,186,-0.310,-0.310,-0.310,0.000,0.000,0.000
1641220980251720960,2022-01-03-14:43:00,10.1.1.2,185,-0.300,-0.300,-0.300,0.000,0.000,0.000
1641220980451232000,2022-01-03-14:43:00,10.1.1.2,183,-0.290,-0.290,-0.290,0.000,0.000,0.000
1641220980655709952,2022-01-03-14:43:00,10.1.1.2,187,-0.280,-0.280,-0.280,0.000,0.000,0.000
1641220980850249984,2022-01-03-14:43:00,10.1.1.2,181,-0.270,-0.270,-0.270,0.000,0.000,0.000
1641220981050322176,2022-01-03-14:43:01,10.1.1.2,181,-0.260,-0.260,-0.260,0.000,0.000,0.000
1641220981251916800,2022-01-03-14:43:01,10.1.1.2,182,-0.250,-0.250,-0.250,0.000,0.000,0.000
1641220981451257856,2022-01-03-14:43:01,10.1.1.2,179,-0.240,-0.240,-0.240,0.000,0.000,0.000
1641220981651624960,2022-01-03-14:43:01,10.1.1.2,179,-0.230,-0.230,-0.230,0.000,0.000,0.000
1641220981853643008,2022-01-03-14:43:01,10.1.1.2,180,-0.220,-0.220,-0.220,0.000,0.000,0.000
1641220982051408896,2022-01-03-14:43:02,10.1.1.2,177,-0.210,-0.210,-0.210,0.000,0.000,0.000
1641220982248739072,2022-01-03-14:43:02,10.1.1.2,174,-0.200,-0.200,-0.200,0.000,0.000,0.000
1641220982451991040,2022-01-03-14:43:02,10.1.1.2,175,-0.190,-0.190,-0.190,0.000,0.000,0.000
1641220982650501888,2022-01-03-14:43:02,10.1.1.2,174,-0.180,-0.180,-0.180,0.000,0.000,0.000
1641220982869168128,2022-01-03-14:43:02,10.1.1.2,192,-0.170,-0.170,-0.170,0.000,0.000,0.000
1641220983070939136,2022-01-03-14:43:03,10.1.1.2,192,-0.160,-0.160,-0.160,0.000,0.000,0.000
1641220983269826816,2022-01-03-14:43:03,10.1.1.2,190,-0.150,-0.150,-0.150,0.000,0.000,0.000
1641220983467232000,2022-01-03-14:43:03,10.1.1.2,187,-0.140,-0.140,-0.140,0.000,0.000,0.000
1641220983668036096,2022-01-03-14:43:03,10.1.1.2,188,-0.130,-0.130,-0.130,0.000,0.000,0.000
1641220983868527872,2022-01-03-14:43:03,10.1.1.2,188,-0.120,-0.120,-0.120,0.000,0.000,0.000
1641220984066457088,2022-01-03-14:43:04,10.1.1.2,185,-0.110,-0.110,-0.110,0.000,0.000,0.000
1641220984267680768,2022-01-03-14:43:04,10.1.1.2,186,-0.100,-0.100,-0.100,0.000,0.000,0.000
1641220984467892992,2022-01-03-14:43:04,10.1.1.2,184,-0.090,-0.090,-0.090,0.000,0.000,0.000
1641220984665060096,2022-01-03-14:43:04,10.1.1.2,182,-0.080,-0.080,-0.080,0.000,0.000,0.000
1641220984867275008,2022-01-03-14:43:04,10.1.1.2,184,-0.070,-0.070,-0.070,0.000,0.000,0.000
1641220985067620096,2022-01-03-14:43:05,10.1.1.2,183,-0.060,-0.060,-0.060,0.000,0.000,0.000
1641220985265680128,2022-01-03-14:43:05,10.1.1.2,180,-0.050,-0.050,-0.050,0.000,0.000,0.000
1641220985466459136,2022-01-03-14:43:05,10.1.1.2,179,-0.040,-0.040,-0.040,0.000,0.000,0.000
1641220985683943936,2022-01-03-14:43:05,10.1.1.2,187,-0.030,-0.030,-0.030,0.000,0.000,0.000
1641220985884289024,2022-01-03-14:43:05,10.1.1.2,186,-0.020,-0.020,-0.020,0.000,0.000,0.000
1641220986084711936,2022-01-03-14:43:06,10.1.1.2,186,-0.010,-0.010,-0.010,0.000,0.000,0.000
1641220986283842048,2022-01-03-14:43:06,10.1.1.2,185,0.000,0.000,0.000,0.000,0.000,0.000
1641220986483234816,2022-01-03-14:43:06,10.1.1.2,184,-0.010,-0.010,-0.010,0.000,0.000,0.000
1641220986688685824,2022-01-03-14:43:06,10.1.1.2,183,-0.020,-0.020,-0.020,0.000,0.000,0.000
1641220986886735872,2022-01-03-14:43:06,10.1.1.2,186,-0.030,-0.030,-0.030,0.000,0.000,0.000
1641220987082220032,2022-01-03-14:43:07,10.1.1.2,181,-0.040,-0.040,-0.040,0.000,0.000,0.000
1641220987290029056,2022-01-03-14:43:07,10.1.1.2,188,-0.050,-0.050,-0.050,0.000,0.000,0.000
1641220987481483008,2022-01-03-14:43:07,10.1.1.2,179,-0.060,-0.060,-0.060,0.000,0.000,0.000
1641220987681342976,2022-01-03-14:43:07,10.1.1.2,177,-0.070,-0.070,-0.070,0.000,0.000,0.000
1641220987881294080,2022-01-03-14:43:07,10.1.1.2,177,-0.080,-0.080,-0.080,0.000,0.000,0.000
1641220988080600064,2022-01-03-14:43:08,10.1.1.2,176,-0.090,-0.090,-0.090,0.000,0.000,0.000
1641220988280136960,2022-01-03-14:43:08,10.1.1.2,175,-0.100,-0.100,-0.100,0.000,0.000,0.000
1641220988480727040,2022-01-03-14:43:08,10.1.1.2,175,-0.110,-0.110,-0.110,0.000,0.000,0.000
1641220988681644032,2022-01-03-14:43:08,10.1.1.2,174,-0.120,-0.120,-0.120,0.000,0.000,0.000
1641220988880819200,2022-01-03-14:43:08,10.1.1.2,172,-0.130,-0.130,-0.130,0.000,0.000,0.000
1641220989099833088,2022-01-03-14:43:09,10.1.1.2,182,-0.140,-0.140,-0.140,0.000,0.000,0.000
1641220989298392064,2022-01-03-14:43:09,10.1.1.2,179,-0.150,-0.150,-0.150,0.000,0.000,0.000
1641220989499699200,2022-01-03-14:43:09,10.1.1.2,177,-0.160,-0.160,-0.160,0.000,0.000,0.000
1641220989705467904,2022-01-03-14:43:09,10.1.1.2,183,-0.170,-0.170,-0.170,0.000,0.000,0.000
1641220989897675008,2022-01-03-14:43:09,10.1.1.2,174,-0.180,-0.180,-0.180,0.000,0.000,0.000
1641220990099576832,2022-01-03-14:43:10,10.1.1.2,174,-0.190,-0.190,-0.190,0.000,0.000,0.000
1641220990299290880,2022-01-03-14:43:10,10.1.1.2,173,-0.200,-0.200,-0.200,0.000,0.000,0.000
1641220990506112000,2022-01-03-14:43:10,10.1.1.2,178,-0.210,-0.210,-0.210,0.000,0.000,0.000
1641220990696589056,2022-01-03-14:43:10,10.1.1.2,168,-0.220,-0.220,-0.220,0.000,0.000,0.000
1641220990896919040,2022-01-03-14:43:10,10.1.1.2,167,-0.230,-0.230,-0.230,0.000,0.000,0.000
1641220991096049152,2022-01-03-14:43:11,10.1.1.2,164,-0.240,-0.240,-0.240,0.000,0.000,0.000
1641220991295403008,2022-01-03-14:43:11,10.1.1.2,163,-0.250,-0.250,-0.250,0.000,0.000,0.000
1641220991499762176,2022-01-03-14:43:11,10.1.1.2,166,-0.260,-0.260,-0.260,0.000,0.000,0.000
1641220991703421952,2022-01-03-14:43:11,10.1.1.2,168,-0.270,-0.270,-0.270,0.000,0.000,0.000
1641220991919703040,2022-01-03-14:43:11,10.1.1.2,182,-0.280,-0.280,-0.280,0.000,0.000,0.000
1641220992121051904,2022-01-03-14:43:12,10.1.1.2,182,-0.290,-0.290,-0.290,0.000,0.000,0.000
1641220992314281984,2022-01-03-14:43:12,10.1.1.2,174,-0.300,-0.300,-0.300,0.000,0.000,0.000
1641220992514041856,2022-01-03-14:43:12,10.1.1.2,173,-0.310,-0.310,-0.310,0.000,0.000,0.000
1641220992714166016,2022-01-03-14:43:12,10.1.1.2,172,-0.320,-0.320,-0.320,0.000,0.000,0.000
1641220992912782080,2022-01-03-14:43:12,10.1.1.2,170,-0.330,-0.330,-0.330,0.000,0.000,0.000
1641220993119652096,2022-01-03-14:43:13,10.1.1.2,177,-0.340,-0.340,-0.340,0.000,0.000,0.000
1641220993320092928,2022-01-03-14:43:13,10.1.1.2,171,-0.350,-0.350,-0.350,0.000,0.000,0.000
1641220993515460096,2022-01-03-14:43:13,10.1.1.2,170,-0.360,-0.360,-0.360,0.000,0.000,0.000
1641220993721601024,2022-01-03-14:43:13,10.1.1.2,175,-0.370,-0.370,-0.370,0.000,0.000,0.000
1641220993917243904,2022-01-03-14:43:13,10.1.1.2,169,-0.380,-0.380,-0.380,0.000,0.000,0.000
1641220994117990912,2022-01-03-14:43:14,10.1.1.2,169,-0.390,-0.390,-0.390,0.000,0.000,0.000
1641220994319278848,2022-01-03-14:43:14,10.1.1.2,170,-0.400,-0.400,-0.400,0.000,0.000,0.000
1641220994521011200,2022-01-03-14:43:14,10.1.1.2,170,-0.410,-0.410,-0.410,0.000,0.000,0.000
1641220994724096000,2022-01-03-14:43:14,10.1.1.2,172,-0.420,-0.420,-0.420,0.000,0.000,0.000
1641220994923404032,2022-01-03-14:43:14,10.1.1.2,170,-0.430,-0.430,-0.430,0.000,0.000,0.000
1641220995124049920,2022-01-03-14:43:15,10.1.1.2,170,-0.440,-0.440,-0.440,0.000,0.000,0.000
1641220995333082880,2022-01-03-14:43:15,10.1.1.2,178,-0.450,-0.450,-0.450,0.000,0.000,0.000
1641220995525614080,2022-01-03-14:43:15,10.1.1.2,170,-0.460,-0.460,-0.460,0.000,0.000,0.000
1641220995725768192,2022-01-03-14:43:15,10.1.1.2,170,-0.470,-0.470,-0.470,0.000,0.000,0.000
1641220995925544960,2022-01-03-14:43:15,10.1.1.2,169,-0.480,-0.480,-0.480,0.000,0.000,0.000
1641220996147437056,2022-01-03-14:43:16,10.1.1.2,190,-0.490,-0.490,-0.490,0.000,0.000,0.000
1641220996389116928,2022-01-03-14:43:16,10.1.1.2,171,-0.480,-0.480,-0.480,0.000,0.000,0.000
1641220996549190144,2022-01-03-14:43:16,10.1.1.2,184,-0.470,-0.470,-0.470,0.000,0.000,0.000
1641220996770610944,2022-01-03-14:43:16,10.1.1.2,180,-0.460,-0.460,-0.460,0.000,0.000,0.000
1641220996971311104,2022-01-03-14:43:16,10.1.1.2,179,-0.450,-0.450,-0.450,0.000,0.000,0.000
1641220997190761984,2022-01-03-14:43:17,10.1.1.2,192,-0.440,-0.440,-0.440,0.000,0.000,0.000
1641220997392292096,2022-01-03-14:43:17,10.1.1.2,193,-0.430,-0.430,-0.430,0.000,0.000,0.000
1641220997591324928,2022-01-03-14:43:17,10.1.1.2,185,-0.420,-0.420,-0.420,0.000,0.000,0.000
1641220997813136128,2022-01-03-14:43:17,10.1.1.2,185,-0.410,-0.410,-0.410,0.000,0.000,0.000
1641220998016815872,2022-01-03-14:43:18,10.1.1.2,188,-0.400,-0.400,-0.400,0.000,0.000,0.000
1641220998211868160,2022-01-03-14:43:18,10.1.1.2,183,-0.390,-0.390,-0.390,0.000,0.000,0.000
1641220998413050880,2022-01-03-14:43:18,10.1.1.2,182,-0.380,-0.380,-0.380,0.000,0.000,0.000
1641220998613924096,2022-01-03-14:43:18,10.1.1.2,183,-0.370,-0.370,-0.370,0.000,0.000,0.000
1641220998816052992,2022-01-03-14:43:18,10.1.1.2,184,-0.360,-0.360,-0.360,0.000,0.000,0.000
1641220999015907072,2022-01-03-14:43:19,10.1.1.2,184,-0.350,-0.350,-0.350,0.000,0.000,0.000
1641220999215412992,2022-01-03-14:43:19,10.1.1.2,181,-0.340,-0.340,-0.340,0.000,0.000,0.000
1641220999416136960,2022-01-03-14:43:19,10.1.1.2,183,-0.330,-0.330,-0.330,0.000,0.000,0.000
1641220999615653120,2022-01-03-14:43:19,10.1.1.2,181,-0.320,-0.320,-0.320,0.000,0.000,0.000
1641220999817473024,2022-01-03-14:43:19,10.1.1.2,181,-0.310,-0.310,-0.310,0.000,0.000,0.000
1641221000016766976,2022-01-03-14:43:20,10.1.1.2,180,-0.300,-0.300,-0.300,0.000,0.000,0.000
1641221000236929024,2022-01-03-14:43:20,10.1.1.2,199,-0.290,-0.290,-0.290,0.000,0.000,0.000
1641221000435388928,2022-01-03-14:43:20,10.1.1.2,196,-0.280,-0.280,-0.280,0.000,0.000,0.000
1641221000838223872,2022-01-03-14:43:20,10.1.1.2,194,-0.260,-0.260,-0.260,0.000,0.000,0.000
1641221001038116096,2022-01-03-14:43:21,10.1.1.2,194,-0.250,-0.250,-0.250,0.000,0.000,0.000
1641221001239928064,2022-01-03-14:43:21,10.1.1.2,195,-0.240,-0.240,-0.240,0.000,0.000,0.000
1641221001441854976,2022-01-03-14:43:21,10.1.1.2,191,-0.230,-0.230,-0.230,0.000,0.000,0.000
1641221001642158080,2022-01-03-14:43:21,10.1.1.2,193,-0.220,-0.220,-0.220,0.000,0.000,0.000
1641221001839611904,2022-01-03-14:43:21,10.1.1.2,190,-0.210,-0.210,-0.210,0.000,0.000,0.000
1641221002037900800,2022-01-03-14:43:22,10.1.1.2,187,-0.200,-0.200,-0.200,0.000,0.000,0.000
1641221002238742016,2022-01-03-14:43:22,10.1.1.2,187,-0.190,-0.190,-0.190,0.000,0.000,0.000
1641221002437062144,2022-01-03-14:43:22,10.1.1.2,185,-0.180,-0.180,-0.180,0.000,0.000,0.000
1641221002638353152,2022-01-03-14:43:22,10.1.1.2,186,-0.170,-0.170,-0.170,0.000,0.000,0.000
1641221002839808000,2022-01-03-14:43:22,10.1.1.2,186,-0.160,-0.160,-0.160,0.000,0.000,0.000
1641221003037602816,2022-01-03-14:43:23,10.1.1.2,184,-0.150,-0.150,-0.150,0.000,0.000,0.000
1641221003237533952,2022-01-03-14:43:23,10.1.1.2,183,-0.140,-0.140,-0.140,0.000,0.000,0.000
1641221003437652992,2022-01-03-14:43:23,10.1.1.2,183,-0.130,-0.130,-0.130,0.000,0.000,0.000
1641221003637420032,2022-01-03-14:43:23,10.1.1.2,181,-0.120,-0.120,-0.120,0.000,0.000,0.000
1641221003838534144,2022-01-03-14:43:23,10.1.1.2,182,-0.110,-0.110,-0.110,0.000,0.000,0.000
1641221004057712128,2022-01-03-14:43:24,10.1.1.2,185,-0.100,-0.100,-0.100,0.000,0.000,0.000
1641221004259681024,2022-01-03-14:43:24,10.1.1.2,186,-0.090,-0.090,-0.090,0.000,0.000,0.000
1641221004457412096,2022-01-03-14:43:24,10.1.1.2,183,-0.080,-0.080,-0.080,0.000,0.000,0.000
1641221004658576896,2022-01-03-14:43:24,10.1.1.2,183,-0.070,-0.070,-0.070,0.000,0.000,0.000
1641221004877562880,2022-01-03-14:43:24,10.1.1.2,195,-0.060,-0.060,-0.060,0.000,0.000,0.000
1641221005077101056,2022-01-03-14:43:25,10.1.1.2,191,-0.050,-0.050,-0.050,0.000,0.000,0.000
1641221005278296832,2022-01-03-14:43:25,10.1.1.2,192,-0.040,-0.040,-0.040,0.000,0.000,0.000
1641221005477214976,2022-01-03-14:43:25,10.1.1.2,190,-0.030,-0.030,-0.030,0.000,0.000,0.000
1641221005677576192,2022-01-03-14:43:25,10.1.1.2,189,-0.020,-0.020,-0.020,0.000,0.000,0.000
1641221005880162048,2022-01-03-14:43:25,10.1.1.2,188,-0.010,-0.010,-0.010,0.000,0.000,0.000
1641221006077574912,2022-01-03-14:43:26,10.1.1.2,185,0.000,0.000,0.000,0.000,0.000,0.000
1641221006277352960,2022-01-03-14:43:26,10.1.1.2,184,-0.010,-0.010,-0.010,0.000,0.000,0.000
1641221006478970112,2022-01-03-14:43:26,10.1.1.2,184,-0.020,-0.020,-0.020,0.000,0.000,0.000
1641221006681014016,2022-01-03-14:43:26,10.1.1.2,185,-0.030,-0.030,-0.030,0.000,0.000,0.000
1641221006897003776,2022-01-03-14:43:26,10.1.1.2,194,-0.040,-0.040,-0.040,0.000,0.000,0.000
1641221007096529920,2022-01-03-14:43:27,10.1.1.2,193,-0.050,-0.050,-0.050,0.000,0.000,0.000
1641221007296553984,2022-01-03-14:43:27,10.1.1.2,193,-0.060,-0.060,-0.060,0.000,0.000,0.000
1641221007495867136,2022-01-03-14:43:27,10.1.1.2,192,-0.070,-0.070,-0.070,0.000,0.000,0.000
1641221007696933888,2022-01-03-14:43:27,10.1.1.2,192,-0.080,-0.080,-0.080,0.000,0.000,0.000
1641221007899691008,2022-01-03-14:43:27,10.1.1.2,194,-0.090,-0.090,-0.090,0.000,0.000,0.000
1641221008097580032,2022-01-03-14:43:28,10.1.1.2,191,-0.100,-0.100,-0.100,0.000,0.000,0.000
1641221008298782208,2022-01-03-14:43:28,10.1.1.2,192,-0.110,-0.110,-0.110,0.000,0.000,0.000
1641221008499404032,2022-01-03-14:43:28,10.1.1.2,192,-0.120,-0.120,-0.120,0.000,0.000,0.000
1641221008697010944,2022-01-03-14:43:28,10.1.1.2,189,-0.130,-0.130,-0.130,0.000,0.000,0.000
1641221008896604160,2022-01-03-14:43:28,10.1.1.2,188,-0.140,-0.140,-0.140,0.000,0.000,0.000
1641221009096077056,2022-01-03-14:43:29,10.1.1.2,187,-0.150,-0.150,-0.150,0.000,0.000,0.000
1641221009295922944,2022-01-03-14:43:29,10.1.1.2,186,-0.160,-0.160,-0.160,0.000,0.000,0.000
1641221009496593920,2022-01-03-14:43:29,10.1.1.2,185,-0.170,-0.170,-0.170,0.000,0.000,0.000
1641221009697606144,2022-01-03-14:43:29,10.1.1.2,185,-0.180,-0.180,-0.180,0.000,0.000,0.000
1641221009894081024,2022-01-03-14:43:29,10.1.1.2,177,-0.190,-0.190,-0.190,0.000,0.000,0.000
1641221010114091008,2022-01-03-14:43:30,10.1.1.2,196,-0.200,-0.200,-0.200,0.000,0.000,0.000
1641221010314470912,2022-01-03-14:43:30,10.1.1.2,195,-0.210,-0.210,-0.210,0.000,0.000,0.000
1641221010513793024,2022-01-03-14:43:30,10.1.1.2,194,-0.220,-0.220,-0.220,0.000,0.000,0.000
1641221010713506816,2022-01-03-14:43:30,10.1.1.2,193,-0.230,-0.230,-0.230,0.000,0.000,0.000
1641221010915419136,2022-01-03-14:43:30,10.1.1.2,194,-0.240,-0.240,-0.240,0.000,0.000,0.000
1641221011117458944,2022-01-03-14:43:31,10.1.1.2,196,-0.250,-0.250,-0.250,0.000,0.000,0.000
1641221011312602112,2022-01-03-14:43:31,10.1.1.2,190,-0.260,-0.260,-0.260,0.000,0.000,0.000
1641221011514760960,2022-01-03-14:43:31,10.1.1.2,191,-0.270,-0.270,-0.270,0.000,0.000,0.000
1641221011719247104,2022-01-03-14:43:31,10.1.1.2,194,-0.280,-0.280,-0.280,0.000,0.000,0.000
1641221011913914880,2022-01-03-14:43:31,10.1.1.2,188,-0.290,-0.290,-0.290,0.000,0.000,0.000
1641221012117358080,2022-01-03-14:43:32,10.1.1.2,190,-0.300,-0.300,-0.300,0.000,0.000,0.000
1641221012314464000,2022-01-03-14:43:32,10.1.1.2,186,-0.310,-0.310,-0.310,0.000,0.000,0.000
1641221012528598016,2022-01-03-14:43:32,10.1.1.2,199,-0.320,-0.320,-0.320,0.000,0.000,0.000
1641221012735648000,2022-01-03-14:43:32,10.1.1.2,193,-0.330,-0.330,-0.330,0.000,0.000,0.000
1641221012932847104,2022-01-03-14:43:32,10.1.1.2,186,-0.340,-0.340,-0.340,0.000,0.000,0.000
1641221013134056192,2022-01-03-14:43:33,10.1.1.2,185,-0.350,-0.350,-0.350,0.000,0.000,0.000
1641221013336200960,2022-01-03-14:43:33,10.1.1.2,186,-0.360,-0.360,-0.360,0.000,0.000,0.000
1641221013552092160,2022-01-03-14:43:33,10.1.1.2,194,-0.370,-0.370,-0.370,0.000,0.000,0.000
1641221013752674048,2022-01-03-14:43:33,10.1.1.2,194,-0.380,-0.380,-0.380,0.000,0.000,0.000
1641221013992631040,2022-01-03-14:43:33,10.1.1.2,186,-0.390,-0.390,-0.390,0.000,0.000,0.000
1641221014188990208,2022-01-03-14:43:34,10.1.1.2,181,-0.400,-0.400,-0.400,0.000,0.000,0.000
1641221014390662912,2022-01-03-14:43:34,10.1.1.2,182,-0.410,-0.410,-0.410,0.000,0.000,0.000
1641221014594388992,2022-01-03-14:43:34,10.1.1.2,185,-0.420,-0.420,-0.420,0.000,0.000,0.000
1641221014796545024,2022-01-03-14:43:34,10.1.1.2,182,-0.430,-0.430,-0.430,0.000,0.000,0.000
1641221015010380032,2022-01-03-14:43:35,10.1.1.2,193,-0.440,-0.440,-0.440,0.000,0.000,0.000
1641221015209417984,2022-01-03-14:43:35,10.1.1.2,189,-0.450,-0.450,-0.450,0.000,0.000,0.000
1641221015411762944,2022-01-03-14:43:35,10.1.1.2,191,-0.460,-0.460,-0.460,0.000,0.000,0.000
1641221015607582208,2022-01-03-14:43:35,10.1.1.2,186,-0.470,-0.470,-0.470,0.000,0.000,0.000
1641221015817905920,2022-01-03-14:43:35,10.1.1.2,195,-0.480,-0.480,-0.480,0.000,0.000,0.000
1641221016009422080,2022-01-03-14:43:36,10.1.1.2,186,-0.490,-0.490,-0.490,0.000,0.000,0.000
1641221016208878080,2022-01-03-14:43:36,10.1.1.2,184,-0.480,-0.480,-0.480,0.000,0.000,0.000
1641221016420253952,2022-01-03-14:43:36,10.1.1.2,195,-0.470,-0.470,-0.470,0.000,0.000,0.000
1641221016606769152,2022-01-03-14:43:36,10.1.1.2,181,-0.460,-0.460,-0.460,0.000,0.000,0.000
1641221016808285952,2022-01-03-14:43:36,10.1.1.2,182,-0.450,-0.450,-0.450,0.000,0.000,0.000
1641221017006406912,2022-01-03-14:43:37,10.1.1.2,172,-0.440,-0.440,-0.440,0.000,0.000,0.000
1641221017206502912,2022-01-03-14:43:37,10.1.1.2,172,-0.430,-0.430,-0.430,0.000,0.000,0.000
1641221017418158080,2022-01-03-14:43:37,10.1.1.2,182,-0.420,-0.420,-0.420,0.000,0.000,0.000
1641221017625158144,2022-01-03-14:43:37,10.1.1.2,187,-0.410,-0.410,-0.410,0.000,0.000,0.000
1641221017829652992,2022-01-03-14:43:37,10.1.1.2,191,-0.400,-0.400,-0.400,0.000,0.000,0.000
1641221018028827904,2022-01-03-14:43:38,10.1.1.2,188,-0.390,-0.390,-0.390,0.000,0.000,0.000
1641221018225519872,2022-01-03-14:43:38,10.1.1.2,184,-0.380,-0.380,-0.380,0.000,0.000,0.000
1641221018426171904,2022-01-03-14:43:38,10.1.1.2,184,-0.370,-0.370,-0.370,0.000,0.000,0.000
1641221018627252224,2022-01-03-14:43:38,10.1.1.2,184,-0.360,-0.360,-0.360,0.000,0.000,0.000
1641221018825899008,2022-01-03-14:43:38,10.1.1.2,182,-0.350,-0.350,-0.350,0.000,0.000,0.000
1641221019224055040,2022-01-03-14:43:39,10.1.1.2,168,-0.330,-0.330,-0.330,0.000,0.000,0.000
1641221019443362048,2022-01-03-14:43:39,10.1.1.2,186,-0.320,-0.320,-0.320,0.000,0.000,0.000
1641221019647479040,2022-01-03-14:43:39,10.1.1.2,189,-0.310,-0.310,-0.310,0.000,0.000,0.000
1641221019843187968,2022-01-03-14:43:39,10.1.1.2,185,-0.300,-0.300,-0.300,0.000,0.000,0.000
1641221020041548032,2022-01-03-14:43:40,10.1.1.2,182,-0.290,-0.290,-0.290,0.000,0.000,0.000
1641221020241635072,2022-01-03-14:43:40,10.1.1.2,180,-0.280,-0.280,-0.280,0.000,0.000,0.000
1641221020440464128,2022-01-03-14:43:40,10.1.1.2,177,-0.270,-0.270,-0.270,0.000,0.000,0.000
1641221020643780864,2022-01-03-14:43:40,10.1.1.2,180,-0.260,-0.260,-0.260,0.000,0.000,0.000
1641221020843031808,2022-01-03-14:43:40,10.1.1.2,178,-0.250,-0.250,-0.250,0.000,0.000,0.000
1641221021044962816,2022-01-03-14:43:41,10.1.1.2,180,-0.240,-0.240,-0.240,0.000,0.000,0.000
1641221021244908032,2022-01-03-14:43:41,10.1.1.2,178,-0.230,-0.230,-0.230,0.000,0.000,0.000
1641221021441120000,2022-01-03-14:43:41,10.1.1.2,173,-0.220,-0.220,-0.220,0.000,0.000,0.000
1641221021641485056,2022-01-03-14:43:41,10.1.1.2,173,-0.210,-0.210,-0.210,0.000,0.000,0.000
1641221021863559936,2022-01-03-14:43:41,10.1.1.2,194,-0.200,-0.200,-0.200,0.000,0.000,0.000
1641221022058347008,2022-01-03-14:43:42,10.1.1.2,180,-0.190,-0.190,-0.190,0.000,0.000,0.000
1641221022265374976,2022-01-03-14:43:42,10.1.1.2,186,-0.180,-0.180,-0.180,0.000,0.000,0.000
1641221022461692928,2022-01-03-14:43:42,10.1.1.2,176,-0.170,-0.170,-0.170,0.000,0.000,0.000
1641221022656995072,2022-01-03-14:43:42,10.1.1.2,173,-0.160,-0.160,-0.160,0.000,0.000,0.000
1641221022857829120,2022-01-03-14:43:42,10.1.1.2,173,-0.150,-0.150,-0.150,0.000,0.000,0.000
1641221023056610048,2022-01-03-14:43:43,10.1.1.2,171,-0.140,-0.140,-0.140,0.000,0.000,0.000
1641221023256370944,2022-01-03-14:43:43,10.1.1.2,168,-0.130,-0.130,-0.130,0.000,0.000,0.000
1641221023461838080,2022-01-03-14:43:43,10.1.1.2,167,-0.120,-0.120,-0.120,0.000,0.000,0.000
1641221023657890048,2022-01-03-14:43:43,10.1.1.2,164,-0.110,-0.110,-0.110,0.000,0.000,0.000
1641221023855351040,2022-01-03-14:43:43,10.1.1.2,164,-0.100,-0.100,-0.100,0.000,0.000,0.000
1641221024055911168,2022-01-03-14:43:44,10.1.1.2,163,-0.090,-0.090,-0.090,0.000,0.000,0.000
1641221024256766976,2022-01-03-14:43:44,10.1.1.2,162,-0.080,-0.080,-0.080,0.000,0.000,0.000
1641221024498712064,2022-01-03-14:43:44,10.1.1.2,188,-0.070,-0.070,-0.070,0.000,0.000,0.000
1641221024695771904,2022-01-03-14:43:44,10.1.1.2,171,-0.060,-0.060,-0.060,0.000,0.000,0.000
1641221024895328000,2022-01-03-14:43:44,10.1.1.2,169,-0.050,-0.050,-0.050,0.000,0.000,0.000
1641221025096643840,2022-01-03-14:43:45,10.1.1.2,170,-0.040,-0.040,-0.040,0.000,0.000,0.000
1641221025295355136,2022-01-03-14:43:45,10.1.1.2,168,-0.030,-0.030,-0.030,0.000,0.000,0.000
1641221025504070144,2022-01-03-14:43:45,10.1.1.2,175,-0.020,-0.020,-0.020,0.000,0.000,0.000
1641221025701499904,2022-01-03-14:43:45,10.1.1.2,173,-0.010,-0.010,-0.010,0.000,0.000,0.000
1641221025902460160,2022-01-03-14:43:45,10.1.1.2,169,0.000,0.000,0.000,0.000,0.000,0.000
1641221026100552960,2022-01-03-14:43:46,10.1.1.2,165,-0.010,-0.010,-0.010,0.000,0.000,0.000
1641221026330188032,2022-01-03-14:43:46,10.1.1.2,185,-0.020,-0.020,-0.020,0.000,0.000,0.000
1641221026523260160,2022-01-03-14:43:46,10.1.1.2,174,-0.030,-0.030,-0.030,0.000,0.000,0.000
1641221026724356864,2022-01-03-14:43:46,10.1.1.2,175,-0.040,-0.040,-0.040,0.000,0.000,0.000
1641221026928876032,2022-01-03-14:43:46,10.1.1.2,179,-0.050,-0.050,-0.050,0.000,0.000,0.000
1641221027125350912,2022-01-03-14:43:47,10.1.1.2,174,-0.060,-0.060,-0.060,0.000,0.000,0.000
1641221027326544896,2022-01-03-14:43:47,10.1.1.2,174,-0.070,-0.070,-0.070,0.000,0.000,0.000
1641221027524573184,2022-01-03-14:43:47,10.1.1.2,172,-0.080,-0.080,-0.080,0.000,0.000,0.000
1641221027728209920,2022-01-03-14:43:47,10.1.1.2,175,-0.090,-0.090,-0.090,0.000,0.000,0.000
1641221027948297984,2022-01-03-14:43:47,10.1.1.2,184,-0.100,-0.100,-0.100,0.000,0.000,0.000
1641221028150875136,2022-01-03-14:43:48,10.1.1.2,184,-0.110,-0.110,-0.110,0.000,0.000,0.000
1641221028356381952,2022-01-03-14:43:48,10.1.1.2,180,-0.120,-0.120,-0.120,0.000,0.000,0.000
1641221028549809920,2022-01-03-14:43:48,10.1.1.2,177,-0.130,-0.130,-0.130,0.000,0.000,0.000
1641221028748711936,2022-01-03-14:43:48,10.1.1.2,174,-0.140,-0.140,-0.140,0.000,0.000,0.000
1641221028952955904,2022-01-03-14:43:48,10.1.1.2,177,-0.150,-0.150,-0.150,0.000,0.000,0.000
1641221029150417152,2022-01-03-14:43:49,10.1.1.2,174,-0.160,-0.160,-0.160,0.000,0.000,0.000
1641221029372845824,2022-01-03-14:43:49,10.1.1.2,195,-0.170,-0.170,-0.170,0.000,0.000,0.000
1641221029573329920,2022-01-03-14:43:49,10.1.1.2,194,-0.180,-0.180,-0.180,0.000,0.000,0.000
1641221029772911104,2022-01-03-14:43:49,10.1.1.2,193,-0.190,-0.190,-0.190,0.000,0.000,0.000
1641221029992454144,2022-01-03-14:43:49,10.1.1.2,212,-0.200,-0.200,-0.200,0.000,0.000,0.000
1641221030193580032,2022-01-03-14:43:50,10.1.1.2,195,-0.210,-0.210,-0.210,0.000,0.000,0.000
1641221030392816128,2022-01-03-14:43:50,10.1.1.2,192,-0.220,-0.220,-0.220,0.000,0.000,0.000
1641221030593737984,2022-01-03-14:43:50,10.1.1.2,193,-0.230,-0.230,-0.230,0.000,0.000,0.000
1641221030797336064,2022-01-03-14:43:50,10.1.1.2,195,-0.240,-0.240,-0.240,0.000,0.000,0.000
1641221031193734912,2022-01-03-14:43:51,10.1.1.2,178,-0.260,-0.260,-0.260,0.000,0.000,0.000
1641221031418586112,2022-01-03-14:43:51,10.1.1.2,197,-0.270,-0.270,-0.270,0.000,0.000,0.000
1641221031617635840,2022-01-03-14:43:51,10.1.1.2,193,-0.280,-0.280,-0.280,0.000,0.000,0.000
1641221031817059072,2022-01-03-14:43:51,10.1.1.2,193,-0.290,-0.290,-0.290,0.000,0.000,0.000
1641221032016637184,2022-01-03-14:43:52,10.1.1.2,193,-0.300,-0.300,-0.300,0.000,0.000,0.000
1641221032216886016,2022-01-03-14:43:52,10.1.1.2,192,-0.310,-0.310,-0.310,0.000,0.000,0.000
1641221032415994880,2022-01-03-14:43:52,10.1.1.2,191,-0.320,-0.320,-0.320,0.000,0.000,0.000
1641221032616349952,2022-01-03-14:43:52,10.1.1.2,191,-0.330,-0.330,-0.330,0.000,0.000,0.000
1641221032821000960,2022-01-03-14:43:52,10.1.1.2,194,-0.340,-0.340,-0.340,0.000,0.000,0.000
1641221033016952064,2022-01-03-14:43:53,10.1.1.2,188,-0.350,-0.350,-0.350,0.000,0.000,0.000
1641221033221065984,2022-01-03-14:43:53,10.1.1.2,192,-0.360,-0.360,-0.360,0.000,0.000,0.000
1641221033419395840,2022-01-03-14:43:53,10.1.1.2,189,-0.370,-0.370,-0.370,0.000,0.000,0.000
1641221033619353088,2022-01-03-14:43:53,10.1.1.2,189,-0.380,-0.380,-0.380,0.000,0.000,0.000
1641221033817341952,2022-01-03-14:43:53,10.1.1.2,186,-0.390,-0.390,-0.390,0.000,0.000,0.000
1641221034017908224,2022-01-03-14:43:54,10.1.1.2,184,-0.400,-0.400,-0.400,0.000,0.000,0.000
1641221034437073920,2022-01-03-14:43:54,10.1.1.2,194,-0.420,-0.420,-0.420,0.000,0.000,0.000
1641221034640141056,2022-01-03-14:43:54,10.1.1.2,197,-0.430,-0.430,-0.430,0.000,0.000,0.000
1641221034839804928,2022-01-03-14:43:54,10.1.1.2,196,-0.440,-0.440,-0.440,0.000,0.000,0.000
1641221035039644928,2022-01-03-14:43:55,10.1.1.2,194,-0.450,-0.450,-0.450,0.000,0.000,0.000
1641221035239806976,2022-01-03-14:43:55,10.1.1.2,194,-0.460,-0.460,-0.460,0.000,0.000,0.000
1641221035440123136,2022-01-03-14:43:55,10.1.1.2,193,-0.470,-0.470,-0.470,0.000,0.000,0.000
1641221035637586176,2022-01-03-14:43:55,10.1.1.2,189,-0.480,-0.480,-0.480,0.000,0.000,0.000
1641221035841254912,2022-01-03-14:43:55,10.1.1.2,192,-0.490,-0.490,-0.490,0.000,0.000,0.000
1641221036039244800,2022-01-03-14:43:56,10.1.1.2,190,-0.480,-0.480,-0.480,0.000,0.000,0.000
1641221036239267072,2022-01-03-14:43:56,10.1.1.2,190,-0.470,-0.470,-0.470,0.000,0.000,0.000
1641221036446789120,2022-01-03-14:43:56,10.1.1.2,197,-0.460,-0.460,-0.460,0.000,0.000,0.000
1641221036640079104,2022-01-03-14:43:56,10.1.1.2,186,-0.450,-0.450,-0.450,0.000,0.000,0.000
1641221036840118784,2022-01-03-14:43:56,10.1.1.2,188,-0.440,-0.440,-0.440,0.000,0.000,0.000
1641221037048912128,2022-01-03-14:43:57,10.1.1.2,196,-0.430,-0.430,-0.430,0.000,0.000,0.000
1641221037238285056,2022-01-03-14:43:57,10.1.1.2,184,-0.420,-0.420,-0.420,0.000,0.000,0.000
1641221037439654144,2022-01-03-14:43:57,10.1.1.2,185,-0.410,-0.410,-0.410,0.000,0.000,0.000
1641221037639489792,2022-01-03-14:43:57,10.1.1.2,183,-0.400,-0.400,-0.400,0.000,0.000,0.000
1641221037842088960,2022-01-03-14:43:57,10.1.1.2,181,-0.390,-0.390,-0.390,0.000,0.000,0.000
1641221038039246080,2022-01-03-14:43:58,10.1.1.2,182,-0.380,-0.380,-0.380,0.000,0.000,0.000
1641221038258237952,2022-01-03-14:43:58,10.1.1.2,197,-0.370,-0.370,-0.370,0.000,0.000,0.000
1641221038459428096,2022-01-03-14:43:58,10.1.1.2,197,-0.360,-0.360,-0.360,0.000,0.000,0.000
1641221038663668992,2022-01-03-14:43:58,10.1.1.2,201,-0.350,-0.350,-0.350,0.000,0.000,0.000
1641221038859194880,2022-01-03-14:43:58,10.1.1.2,195,-0.340,-0.340,-0.340,0.000,0.000,0.000
1641221039056977920,2022-01-03-14:43:59,10.1.1.2,191,-0.330,-0.330,-0.330,0.000,0.000,0.000
1641221039261723136,2022-01-03-14:43:59,10.1.1.2,193,-0.320,-0.320,-0.320,0.000,0.000,0.000
1641221039457617920,2022-01-03-14:43:59,10.1.1.2,185,-0.310,-0.310,-0.310,0.000,0.000,0.000
1641221039656416768,2022-01-03-14:43:59,10.1.1.2,183,-0.300,-0.300,-0.300,0.000,0.000,0.000
1641221039877366016,2022-01-03-14:43:59,10.1.1.2,191,-0.290,-0.290,-0.290,0.000,0.000,0.000
1641221040076898048,2022-01-03-14:44:00,10.1.1.2,189,-0.280,-0.280,-0.280,0.000,0.000,0.000
1641221040278281984,2022-01-03-14:44:00,10.1.1.2,189,-0.270,-0.270,-0.270,0.000,0.000,0.000
1641221040479774976,2022-01-03-14:44:00,10.1.1.2,190,-0.260,-0.260,-0.260,0.000,0.000,0.000
1641221040683179008,2022-01-03-14:44:00,10.1.1.2,193,-0.250,-0.250,-0.250,0.000,0.000,0.000
1641221040877026048,2022-01-03-14:44:00,10.1.1.2,184,-0.240,-0.240,-0.240,0.000,0.000,0.000
1641221041075782144,2022-01-03-14:44:01,10.1.1.2,181,-0.230,-0.230,-0.230,0.000,0.000,0.000
1641221041497607936,2022-01-03-14:44:01,10.1.1.2,197,-0.210,-0.210,-0.210,0.000,0.000,0.000
1641221041700719104,2022-01-03-14:44:01,10.1.1.2,199,-0.200,-0.200,-0.200,0.000,0.000,0.000
1641221041897430784,2022-01-03-14:44:01,10.1.1.2,194,-0.190,-0.190,-0.190,0.000,0.000,0.000
1641221042095426048,2022-01-03-14:44:02,10.1.1.2,191,-0.180,-0.180,-0.180,0.000,0.000,0.000
1641221042293956096,2022-01-03-14:44:02,10.1.1.2,189,-0.170,-0.170,-0.170,0.000,0.000,0.000
1641221042494127872,2022-01-03-14:44:02,10.1.1.2,188,-0.160,-0.160,-0.160,0.000,0.000,0.000
1641221042695895808,2022-01-03-14:44:02,10.1.1.2,189,-0.150,-0.150,-0.150,0.000,0.000,0.000
1641221042895982080,2022-01-03-14:44:02,10.1.1.2,188,-0.140,-0.140,-0.140,0.000,0.000,0.000
1641221043098217984,2022-01-03-14:44:03,10.1.1.2,188,-0.130,-0.130,-0.130,0.000,0.000,0.000
1641221043296060928,2022-01-03-14:44:03,10.1.1.2,183,-0.120,-0.120,-0.120,0.000,0.000,0.000
1641221043494999808,2022-01-03-14:44:03,10.1.1.2,177,-0.110,-0.110,-0.110,0.000,0.000,0.000
1641221043717329152,2022-01-03-14:44:03,10.1.1.2,187,-0.100,-0.100,-0.100,0.000,0.000,0.000
1641221043914396928,2022-01-03-14:44:03,10.1.1.2,187,-0.090,-0.090,-0.090,0.000,0.000,0.000
1641221044112124928,2022-01-03-14:44:04,10.1.1.2,184,-0.080,-0.080,-0.080,0.000,0.000,0.000
1641221044314171136,2022-01-03-14:44:04,10.1.1.2,185,-0.070,-0.070,-0.070,0.000,0.000,0.000
1641221044533523200,2022-01-03-14:44:04,10.1.1.2,194,-0.060,-0.060,-0.060,0.000,0.000,0.000
1641221044732875008,2022-01-03-14:44:04,10.1.1.2,192,-0.050,-0.050,-0.050,0.000,0.000,0.000
1641221044933177856,2022-01-03-14:44:04,10.1.1.2,193,-0.040,-0.040,-0.040,0.000,0.000,0.000
1641221045130899968,2022-01-03-14:44:05,10.1.1.2,189,-0.030,-0.030,-0.030,0.000,0.000,0.000
1641221045332531968,2022-01-03-14:44:05,10.1.1.2,185,-0.020,-0.020,-0.020,0.000,0.000,0.000
1641221045531790848,2022-01-03-14:44:05,10.1.1.2,184,-0.010,-0.010,-0.010,0.000,0.000,0.000
1641221045736592896,2022-01-03-14:44:05,10.1.1.2,188,0.000,0.000,0.000,0.000,0.000,0.000
1641221045930779904,2022-01-03-14:44:05,10.1.1.2,182,-0.010,-0.010,-0.010,0.000,0.000,0.000
1641221046130287872,2022-01-03-14:44:06,10.1.1.2,181,-0.020,-0.020,-0.020,0.000,0.000,0.000
1641221046329286144,2022-01-03-14:44:06,10.1.1.2,180,-0.030,-0.030,-0.030,0.000,0.000,0.000
1641221046528709888,2022-01-03-14:44:06,10.1.1.2,177,-0.040,-0.040,-0.040,0.000,0.000,0.000
1641221046728896000,2022-01-03-14:44:06,10.1.1.2,177,-0.050,-0.050,-0.050,0.000,0.000,0.000
1641221046934500096,2022-01-03-14:44:06,10.1.1.2,181,-0.060,-0.060,-0.060,0.000,0.000,0.000
1641221047128706816,2022-01-03-14:44:07,10.1.1.2,175,-0.070,-0.070,-0.070,0.000,0.000,0.000
1641221047332940032,2022-01-03-14:44:07,10.1.1.2,179,-0.080,-0.080,-0.080,0.000,0.000,0.000
1641221047553275136,2022-01-03-14:44:07,10.1.1.2,190,-0.090,-0.090,-0.090,0.000,0.000,0.000
1641221047751704064,2022-01-03-14:44:07,10.1.1.2,191,-0.100,-0.100,-0.100,0.000,0.000,0.000
1641221047949281024,2022-01-03-14:44:07,10.1.1.2,186,-0.110,-0.110,-0.110,0.000,0.000,0.000
1641221048156871936,2022-01-03-14:44:08,10.1.1.2,195,-0.120,-0.120,-0.120,0.000,0.000,0.000
1641221048351159040,2022-01-03-14:44:08,10.1.1.2,189,-0.130,-0.130,-0.130,0.000,0.000,0.000
1641221048546971136,2022-01-03-14:44:08,10.1.1.2,184,-0.140,-0.140,-0.140,0.000,0.000,0.000
1641221048748380928,2022-01-03-14:44:08,10.1.1.2,183,-0.150,-0.150,-0.150,0.000,0.000,0.000
1641221048946230016,2022-01-03-14:44:08,10.1.1.2,182,-0.160,-0.160,-0.160,0.000,0.000,0.000
1641221049145724160,2022-01-03-14:44:09,10.1.1.2,180,-0.170,-0.170,-0.170,0.000,0.000,0.000
1641221049345814016,2022-01-03-14:44:09,10.1.1.2,179,-0.180,-0.180,-0.180,0.000,0.000,0.000
1641221049549693184,2022-01-03-14:44:09,10.1.1.2,181,-0.190,-0.190,-0.190,0.000,0.000,0.000
1641221049747729152,2022-01-03-14:44:09,10.1.1.2,179,-0.200,-0.200,-0.200,0.000,0.000,0.000
1641221049946894848,2022-01-03-14:44:09,10.1.1.2,177,-0.210,-0.210,-0.210,0.000,0.000,0.000
1641221050144401920,2022-01-03-14:44:10,10.1.1.2,174,-0.220,-0.220,-0.220,0.000,0.000,0.000
1641221050345767936,2022-01-03-14:44:10,10.1.1.2,175,-0.230,-0.230,-0.230,0.000,0.000,0.000
1641221050544972800,2022-01-03-14:44:10,10.1.1.2,174,-0.240,-0.240,-0.240,0.000,0.000,0.000
1641221050764496128,2022-01-03-14:44:10,10.1.1.2,186,-0.250,-0.250,-0.250,0.000,0.000,0.000
1641221050964139008,2022-01-03-14:44:10,10.1.1.2,185,-0.260,-0.260,-0.260,0.000,0.000,0.000
1641221051165377024,2022-01-03-14:44:11,10.1.1.2,186,-0.270,-0.270,-0.270,0.000,0.000,0.000
1641221051362190848,2022-01-03-14:44:11,10.1.1.2,181,-0.280,-0.280,-0.280,0.000,0.000,0.000
1641221051562993152,2022-01-03-14:44:11,10.1.1.2,180,-0.290,-0.290,-0.290,0.000,0.000,0.000
1641221051763427072,2022-01-03-14:44:11,10.1.1.2,176,-0.300,-0.300,-0.300,0.000,0.000,0.000
1641221051961616128,2022-01-03-14:44:11,10.1.1.2,172,-0.310,-0.310,-0.310,0.000,0.000,0.000
1641221052163181056,2022-01-03-14:44:12,10.1.1.2,168,-0.320,-0.320,-0.320,0.000,0.000,0.000
1641221052370529024,2022-01-03-14:44:12,10.1.1.2,175,-0.330,-0.330,-0.330,0.000,0.000,0.000
1641221052582272000,2022-01-03-14:44:12,10.1.1.2,184,-0.340,-0.340,-0.340,0.000,0.000,0.000
1641221052784795136,2022-01-03-14:44:12,10.1.1.2,187,-0.350,-0.350,-0.350,0.000,0.000,0.000
1641221052980925952,2022-01-03-14:44:12,10.1.1.2,181,-0.360,-0.360,-0.360,0.000,0.000,0.000
1641221053182332160,2022-01-03-14:44:13,10.1.1.2,182,-0.370,-0.370,-0.370,0.000,0.000,0.000
1641221053382108928,2022-01-03-14:44:13,10.1.1.2,181,-0.380,-0.380,-0.380,0.000,0.000,0.000
1641221053582707968,2022-01-03-14:44:13,10.1.1.2,179,-0.390,-0.390,-0.390,0.000,0.000,0.000
1641221053781004032,2022-01-03-14:44:13,10.1.1.2,178,-0.400,-0.400,-0.400,0.000,0.000,0.000
1641221053979361024,2022-01-03-14:44:13,10.1.1.2,175,-0.410,-0.410,-0.410,0.000,0.000,0.000
1641221054184331008,2022-01-03-14:44:14,10.1.1.2,179,-0.420,-0.420,-0.420,0.000,0.000,0.000
1641221054382423040,2022-01-03-14:44:14,10.1.1.2,175,-0.430,-0.430,-0.430,0.000,0.000,0.000
1641221054580985088,2022-01-03-14:44:14,10.1.1.2,171,-0.440,-0.440,-0.440,0.000,0.000,0.000
1641221054781568000,2022-01-03-14:44:14,10.1.1.2,172,-0.450,-0.450,-0.450,0.000,0.000,0.000
1641221054979627008,2022-01-03-14:44:14,10.1.1.2,169,-0.460,-0.460,-0.460,0.000,0.000,0.000
1641221055176791040,2022-01-03-14:44:15,10.1.1.2,165,-0.470,-0.470,-0.470,0.000,0.000,0.000
1641221055380652800,2022-01-03-14:44:15,10.1.1.2,163,-0.480,-0.480,-0.480,0.000,0.000,0.000
1641221055576361984,2022-01-03-14:44:15,10.1.1.2,162,-0.490,-0.490,-0.490,0.000,0.000,0.000
1641221055777817856,2022-01-03-14:44:15,10.1.1.2,161,-0.480,-0.480,-0.480,0.000,0.000,0.000
1641221055976118016,2022-01-03-14:44:15,10.1.1.2,160,-0.470,-0.470,-0.470,0.000,0.000,0.000
1641221056177683968,2022-01-03-14:44:16,10.1.1.2,160,-0.460,-0.460,-0.460,0.000,0.000,0.000
1641221056396734976,2022-01-03-14:44:16,10.1.1.2,177,-0.450,-0.450,-0.450,0.000,0.000,0.000
1641221056597882112,2022-01-03-14:44:16,10.1.1.2,179,-0.440,-0.440,-0.440,0.000,0.000,0.000
1641221056830189056,2022-01-03-14:44:16,10.1.1.2,191,-0.430,-0.430,-0.430,0.000,0.000,0.000
1641221056996349184,2022-01-03-14:44:16,10.1.1.2,165,-0.420,-0.420,-0.420,0.000,0.000,0.000
1641221057201240064,2022-01-03-14:44:17,10.1.1.2,165,-0.410,-0.410,-0.410,0.000,0.000,0.000
1641221057398560000,2022-01-03-14:44:17,10.1.1.2,166,-0.400,-0.400,-0.400,0.000,0.000,0.000
1641221057599644928,2022-01-03-14:44:17,10.1.1.2,162,-0.390,-0.390,-0.390,0.000,0.000,0.000
1641221057799428096,2022-01-03-14:44:17,10.1.1.2,162,-0.380,-0.380,-0.380,0.000,0.000,0.000
1641221058019419904,2022-01-03-14:44:18,10.1.1.2,182,-0.370,-0.370,-0.370,0.000,0.000,0.000
1641221058221399040,2022-01-03-14:44:18,10.1.1.2,182,-0.360,-0.360,-0.360,0.000,0.000,0.000
1641221058422962944,2022-01-03-14:44:18,10.1.1.2,182,-0.350,-0.350,-0.350,0.000,0.000,0.000
1641221058622926848,2022-01-03-14:44:18,10.1.1.2,180,-0.340,-0.340,-0.340,0.000,0.000,0.000
1641221058823441920,2022-01-03-14:44:18,10.1.1.2,179,-0.330,-0.330,-0.330,0.000,0.000,0.000
1641221059026249984,2022-01-03-14:44:19,10.1.1.2,181,-0.320,-0.320,-0.320,0.000,0.000,0.000
1641221059224271104,2022-01-03-14:44:19,10.1.1.2,178,-0.310,-0.310,-0.310,0.000,0.000,0.000
1641221059426049024,2022-01-03-14:44:19,10.1.1.2,180,-0.300,-0.300,-0.300,0.000,0.000,0.000
1641221059625637888,2022-01-03-14:44:19,10.1.1.2,178,-0.290,-0.290,-0.290,0.000,0.000,0.000
1641221059829112064,2022-01-03-14:44:19,10.1.1.2,181,-0.280,-0.280,-0.280,0.000,0.000,0.000
1641221060027500032,2022-01-03-14:44:20,10.1.1.2,178,-0.270,-0.270,-0.270,0.000,0.000,0.000
1641221060228962816,2022-01-03-14:44:20,10.1.1.2,176,-0.260,-0.260,-0.260,0.000,0.000,0.000
1641221060432312064,2022-01-03-14:44:20,10.1.1.2,180,-0.250,-0.250,-0.250,0.000,0.000,0.000
1641221060651294976,2022-01-03-14:44:20,10.1.1.2,188,-0.240,-0.240,-0.240,0.000,0.000,0.000
1641221061057038080,2022-01-03-14:44:21,10.1.1.2,192,-0.220,-0.220,-0.220,0.000,0.000,0.000
1641221061252982016,2022-01-03-14:44:21,10.1.1.2,186,-0.210,-0.210,-0.210,0.000,0.000,0.000
1641221061453373952,2022-01-03-14:44:21,10.1.1.2,179,-0.200,-0.200,-0.200,0.000,0.000,0.000
1641221061713604096,2022-01-03-14:44:21,10.1.1.2,193,-0.190,-0.190,-0.190,0.000,0.000,0.000
1641221061912637952,2022-01-03-14:44:21,10.1.1.2,190,-0.180,-0.180,-0.180,0.000,0.000,0.000
1641221062115511040,2022-01-03-14:44:22,10.1.1.2,191,-0.170,-0.170,-0.170,0.000,0.000,0.000
1641221062316921856,2022-01-03-14:44:22,10.1.1.2,193,-0.160,-0.160,-0.160,0.000,0.000,0.000
1641221062515686144,2022-01-03-14:44:22,10.1.1.2,189,-0.150,-0.150,-0.150,0.000,0.000,0.000
1641221062717484032,2022-01-03-14:44:22,10.1.1.2,192,-0.140,-0.140,-0.140,0.000,0.000,0.000
1641221062918499072,2022-01-03-14:44:22,10.1.1.2,191,-0.130,-0.130,-0.130,0.000,0.000,0.000
1641221063117406976,2022-01-03-14:44:23,10.1.1.2,191,-0.120,-0.120,-0.120,0.000,0.000,0.000
1641221063320125952,2022-01-03-14:44:23,10.1.1.2,193,-0.110,-0.110,-0.110,0.000,0.000,0.000
1641221063516480000,2022-01-03-14:44:23,10.1.1.2,189,-0.100,-0.100,-0.100,0.000,0.000,0.000
1641221063722240000,2022-01-03-14:44:23,10.1.1.2,193,-0.090,-0.090,-0.090,0.000,0.000,0.000
1641221064137337856,2022-01-03-14:44:24,10.1.1.2,198,-0.070,-0.070,-0.070,0.000,0.000,0.000
1641221064338795008,2022-01-03-14:44:24,10.1.1.2,197,-0.060,-0.060,-0.060,0.000,0.000,0.000
1641221064540488960,2022-01-03-14:44:24,10.1.1.2,199,-0.050,-0.050,-0.050,0.000,0.000,0.000
1641221064739887872,2022-01-03-14:44:24,10.1.1.2,194,-0.040,-0.040,-0.040,0.000,0.000,0.000
1641221064937643008,2022-01-03-14:44:24,10.1.1.2,193,-0.030,-0.030,-0.030,0.000,0.000,0.000
1641221065138134016,2022-01-03-14:44:25,10.1.1.2,193,-0.020,-0.020,-0.020,0.000,0.000,0.000
1641221065339939072,2022-01-03-14:44:25,10.1.1.2,194,-0.010,-0.010,-0.010,0.000,0.000,0.000
1641221065740581120,2022-01-03-14:44:25,10.1.1.2,183,-0.010,-0.010,-0.010,0.000,0.000,0.000
1641221066760608000,2022-01-03-14:44:26,10.1.1.2,200,-0.060,-0.060,-0.060,0.000,0.000,0.000
1641221067161152000,2022-01-03-14:44:27,10.1.1.2,199,-0.080,-0.080,-0.080,0.000,0.000,0.000
1641221067360402176,2022-01-03-14:44:27,10.1.1.2,198,-0.090,-0.090,-0.090,0.000,0.000,0.000
1641221067559134976,2022-01-03-14:44:27,10.1.1.2,196,-0.100,-0.100,-0.100,0.000,0.000,0.000
1641221067762126080,2022-01-03-14:44:27,10.1.1.2,199,-0.110,-0.110,-0.110,0.000,0.000,0.000
1641221067961563136,2022-01-03-14:44:27,10.1.1.2,196,-0.120,-0.120,-0.120,0.000,0.000,0.000
1641221068162596096,2022-01-03-14:44:28,10.1.1.2,195,-0.130,-0.130,-0.130,0.000,0.000,0.000
1641221068362842112,2022-01-03-14:44:28,10.1.1.2,196,-0.140,-0.140,-0.140,0.000,0.000,0.000
1641221068560561920,2022-01-03-14:44:28,10.1.1.2,192,-0.150,-0.150,-0.150,0.000,0.000,0.000
1641221068760803072,2022-01-03-14:44:28,10.1.1.2,191,-0.160,-0.160,-0.160,0.000,0.000,0.000
1641221068961748992,2022-01-03-14:44:28,10.1.1.2,192,-0.170,-0.170,-0.170,0.000,0.000,0.000
1641221069162682112,2022-01-03-14:44:29,10.1.1.2,192,-0.180,-0.180,-0.180,0.000,0.000,0.000
1641221069404131840,2022-01-03-14:44:29,10.1.1.2,198,-0.190,-0.190,-0.190,0.000,0.000,0.000
1641221069598667008,2022-01-03-14:44:29,10.1.1.2,192,-0.200,-0.200,-0.200,0.000,0.000,0.000
1641221069799648000,2022-01-03-14:44:29,10.1.1.2,192,-0.210,-0.210,-0.210,0.000,0.000,0.000
1641221069998567168,2022-01-03-14:44:29,10.1.1.2,190,-0.220,-0.220,-0.220,0.000,0.000,0.000
1641221070403919872,2022-01-03-14:44:30,10.1.1.2,191,-0.240,-0.240,-0.240,0.000,0.000,0.000
1641221070599486976,2022-01-03-14:44:30,10.1.1.2,185,-0.250,-0.250,-0.250,0.000,0.000,0.000
1641221070798100992,2022-01-03-14:44:30,10.1.1.2,184,-0.260,-0.260,-0.260,0.000,0.000,0.000
1641221071001084928,2022-01-03-14:44:31,10.1.1.2,186,-0.270,-0.270,-0.270,0.000,0.000,0.000
1641221071200995840,2022-01-03-14:44:31,10.1.1.2,186,-0.280,-0.280,-0.280,0.000,0.000,0.000
1641221071403143936,2022-01-03-14:44:31,10.1.1.2,187,-0.290,-0.290,-0.290,0.000,0.000,0.000
1641221071623548928,2022-01-03-14:44:31,10.1.1.2,199,-0.300,-0.300,-0.300,0.000,0.000,0.000
1641221071817359872,2022-01-03-14:44:31,10.1.1.2,191,-0.310,-0.310,-0.310,0.000,0.000,0.000
1641221072017438976,2022-01-03-14:44:32,10.1.1.2,191,-0.320,-0.320,-0.320,0.000,0.000,0.000
1641221072217123072,2022-01-03-14:44:32,10.1.1.2,190,-0.330,-0.330,-0.330,0.000,0.000,0.000
1641221072416834048,2022-01-03-14:44:32,10.1.1.2,189,-0.340,-0.340,-0.340,0.000,0.000,0.000
1641221072616844032,2022-01-03-14:44:32,10.1.1.2,188,-0.350,-0.350,-0.350,0.000,0.000,0.000
1641221072817018880,2022-01-03-14:44:32,10.1.1.2,188,-0.360,-0.360,-0.360,0.000,0.000,0.000
1641221073016707840,2022-01-03-14:44:33,10.1.1.2,187,-0.370,-0.370,-0.370,0.000,0.000,0.000
1641221073217096960,2022-01-03-14:44:33,10.1.1.2,187,-0.380,-0.380,-0.380,0.000,0.000,0.000
1641221073416820992,2022-01-03-14:44:33,10.1.1.2,186,-0.390,-0.390,-0.390,0.000,0.000,0.000
1641221073616082944,2022-01-03-14:44:33,10.1.1.2,184,-0.400,-0.400,-0.400,0.000,0.000,0.000
1641221074015873024,2022-01-03-14:44:34,10.1.1.2,183,-0.420,-0.420,-0.420,0.000,0.000,0.000
1641221074218714112,2022-01-03-14:44:34,10.1.1.2,185,-0.430,-0.430,-0.430,0.000,0.000,0.000
1641221074420046080,2022-01-03-14:44:34,10.1.1.2,184,-0.440,-0.440,-0.440,0.000,0.000,0.000
1641221074619454976,2022-01-03-14:44:34,10.1.1.2,183,-0.450,-0.450,-0.450,0.000,0.000,0.000
1641221074838176000,2022-01-03-14:44:34,10.1.1.2,191,-0.460,-0.460,-0.460,0.000,0.000,0.000
1641221075036026112,2022-01-03-14:44:35,10.1.1.2,191,-0.470,-0.470,-0.470,0.000,0.000,0.000
1641221075233963008,2022-01-03-14:44:35,10.1.1.2,188,-0.480,-0.480,-0.480,0.000,0.000,0.000
1641221075433760000,2022-01-03-14:44:35,10.1.1.2,188,-0.490,-0.490,-0.490,0.000,0.000,0.000
1641221075634115072,2022-01-03-14:44:35,10.1.1.2,188,-0.480,-0.480,-0.480,0.000,0.000,0.000
1641221075833283840,2022-01-03-14:44:35,10.1.1.2,187,-0.470,-0.470,-0.470,0.000,0.000,0.000
1641221076035098112,2022-01-03-14:44:36,10.1.1.2,188,-0.460,-0.460,-0.460,0.000,0.000,0.000
1641221076235385856,2022-01-03-14:44:36,10.1.1.2,185,-0.450,-0.450,-0.450,0.000,0.000,0.000
1641221076437402880,2022-01-03-14:44:36,10.1.1.2,184,-0.440,-0.440,-0.440,0.000,0.000,0.000
1641221076634441984,2022-01-03-14:44:36,10.1.1.2,181,-0.430,-0.430,-0.430,0.000,0.000,0.000
1641221076840189952,2022-01-03-14:44:36,10.1.1.2,186,-0.420,-0.420,-0.420,0.000,0.000,0.000
1641221077054158848,2022-01-03-14:44:37,10.1.1.2,196,-0.410,-0.410,-0.410,0.000,0.000,0.000
1641221077252200960,2022-01-03-14:44:37,10.1.1.2,193,-0.400,-0.400,-0.400,0.000,0.000,0.000
1641221077451816192,2022-01-03-14:44:37,10.1.1.2,189,-0.390,-0.390,-0.390,0.000,0.000,0.000
1641221077652920064,2022-01-03-14:44:37,10.1.1.2,189,-0.380,-0.380,-0.380,0.000,0.000,0.000
1641221077851596032,2022-01-03-14:44:37,10.1.1.2,187,-0.370,-0.370,-0.370,0.000,0.000,0.000
1641221078051796992,2022-01-03-14:44:38,10.1.1.2,184,-0.360,-0.360,-0.360,0.000,0.000,0.000
1641221078252574976,2022-01-03-14:44:38,10.1.1.2,183,-0.350,-0.350,-0.350,0.000,0.000,0.000
1641221078459353088,2022-01-03-14:44:38,10.1.1.2,190,-0.340,-0.340,-0.340,0.000,0.000,0.000
1641221078653225984,2022-01-03-14:44:38,10.1.1.2,183,-0.330,-0.330,-0.330,0.000,0.000,0.000
1641221078850338816,2022-01-03-14:44:38,10.1.1.2,179,-0.320,-0.320,-0.320,0.000,0.000,0.000
1641221079051917056,2022-01-03-14:44:39,10.1.1.2,178,-0.310,-0.310,-0.310,0.000,0.000,0.000
1641221079249743872,2022-01-03-14:44:39,10.1.1.2,177,-0.300,-0.300,-0.300,0.000,0.000,0.000
1641221079452493056,2022-01-03-14:44:39,10.1.1.2,179,-0.290,-0.290,-0.290,0.000,0.000,0.000
1641221079649004032,2022-01-03-14:44:39,10.1.1.2,175,-0.280,-0.280,-0.280,0.000,0.000,0.000
1641221079848578048,2022-01-03-14:44:39,10.1.1.2,174,-0.270,-0.270,-0.270,0.000,0.000,0.000
1641221080051928064,2022-01-03-14:44:40,10.1.1.2,177,-0.260,-0.260,-0.260,0.000,0.000,0.000
1641221080248878080,2022-01-03-14:44:40,10.1.1.2,172,-0.250,-0.250,-0.250,0.000,0.000,0.000
1641221080468334080,2022-01-03-14:44:40,10.1.1.2,190,-0.240,-0.240,-0.240,0.000,0.000,0.000
1641221080669487104,2022-01-03-14:44:40,10.1.1.2,191,-0.230,-0.230,-0.230,0.000,0.000,0.000
1641221080869352960,2022-01-03-14:44:40,10.1.1.2,190,-0.220,-0.220,-0.220,0.000,0.000,0.000
1641221081072230144,2022-01-03-14:44:41,10.1.1.2,191,-0.210,-0.210,-0.210,0.000,0.000,0.000
1641221081267250176,2022-01-03-14:44:41,10.1.1.2,178,-0.200,-0.200,-0.200,0.000,0.000,0.000
1641221081466793984,2022-01-03-14:44:41,10.1.1.2,176,-0.190,-0.190,-0.190,0.000,0.000,0.000
1641221081671650816,2022-01-03-14:44:41,10.1.1.2,180,-0.180,-0.180,-0.180,0.000,0.000,0.000
1641221081868468992,2022-01-03-14:44:41,10.1.1.2,175,-0.170,-0.170,-0.170,0.000,0.000,0.000
1641221082065388032,2022-01-03-14:44:42,10.1.1.2,171,-0.160,-0.160,-0.160,0.000,0.000,0.000
1641221082268121088,2022-01-03-14:44:42,10.1.1.2,172,-0.150,-0.150,-0.150,0.000,0.000,0.000
1641221082467485952,2022-01-03-14:44:42,10.1.1.2,171,-0.140,-0.140,-0.140,0.000,0.000,0.000
1641221082665155840,2022-01-03-14:44:42,10.1.1.2,168,-0.130,-0.130,-0.130,0.000,0.000,0.000
1641221082867288064,2022-01-03-14:44:42,10.1.1.2,170,-0.120,-0.120,-0.120,0.000,0.000,0.000
1641221083083934976,2022-01-03-14:44:43,10.1.1.2,186,-0.110,-0.110,-0.110,0.000,0.000,0.000
1641221083285507840,2022-01-03-14:44:43,10.1.1.2,187,-0.100,-0.100,-0.100,0.000,0.000,0.000
1641221083483674112,2022-01-03-14:44:43,10.1.1.2,184,-0.090,-0.090,-0.090,0.000,0.000,0.000
1641221083683566080,2022-01-03-14:44:43,10.1.1.2,182,-0.080,-0.080,-0.080,0.000,0.000,0.000
1641221083883517952,2022-01-03-14:44:43,10.1.1.2,182,-0.070,-0.070,-0.070,0.000,0.000,0.000
1641221084082909952,2022-01-03-14:44:44,10.1.1.2,181,-0.060,-0.060,-0.060,0.000,0.000,0.000
1641221084282315008,2022-01-03-14:44:44,10.1.1.2,179,-0.050,-0.050,-0.050,0.000,0.000,0.000
1641221084482311936,2022-01-03-14:44:44,10.1.1.2,177,-0.040,-0.040,-0.040,0.000,0.000,0.000
1641221084681426944,2022-01-03-14:44:44,10.1.1.2,175,-0.030,-0.030,-0.030,0.000,0.000,0.000
1641221084882373120,2022-01-03-14:44:44,10.1.1.2,174,-0.020,-0.020,-0.020,0.000,0.000,0.000
1641221085083136000,2022-01-03-14:44:45,10.1.1.2,174,-0.010,-0.010,-0.010,0.000,0.000,0.000
1641221085281529856,2022-01-03-14:44:45,10.1.1.2,171,0.000,0.000,0.000,0.000,0.000,0.000
1641221085481662976,2022-01-03-14:44:45,10.1.1.2,170,-0.010,-0.010,-0.010,0.000,0.000,0.000
1641221085681003008,2022-01-03-14:44:45,10.1.1.2,169,-0.020,-0.020,-0.020,0.000,0.000,0.000
1641221085885679872,2022-01-03-14:44:45,10.1.1.2,173,-0.030,-0.030,-0.030,0.000,0.000,0.000
1641221086081140992,2022-01-03-14:44:46,10.1.1.2,167,-0.040,-0.040,-0.040,0.000,0.000,0.000
1641221086279676928,2022-01-03-14:44:46,10.1.1.2,166,-0.050,-0.050,-0.050,0.000,0.000,0.000
1641221086481074944,2022-01-03-14:44:46,10.1.1.2,166,-0.060,-0.060,-0.060,0.000,0.000,0.000
1641221086680058112,2022-01-03-14:44:46,10.1.1.2,163,-0.070,-0.070,-0.070,0.000,0.000,0.000
1641221086898652928,2022-01-03-14:44:46,10.1.1.2,181,-0.080,-0.080,-0.080,0.000,0.000,0.000
1641221087098229760,2022-01-03-14:44:47,10.1.1.2,180,-0.090,-0.090,-0.090,0.000,0.000,0.000
1641221087297705984,2022-01-03-14:44:47,10.1.1.2,178,-0.100,-0.100,-0.100,0.000,0.000,0.000
1641221087497148928,2022-01-03-14:44:47,10.1.1.2,177,-0.110,-0.110,-0.110,0.000,0.000,0.000
1641221087697551872,2022-01-03-14:44:47,10.1.1.2,176,-0.120,-0.120,-0.120,0.000,0.000,0.000
1641221087896544000,2022-01-03-14:44:47,10.1.1.2,175,-0.130,-0.130,-0.130,0.000,0.000,0.000
1641221088095977984,2022-01-03-14:44:48,10.1.1.2,174,-0.140,-0.140,-0.140,0.000,0.000,0.000
1641221088295824896,2022-01-03-14:44:48,10.1.1.2,173,-0.150,-0.150,-0.150,0.000,0.000,0.000
1641221088495685120,2022-01-03-14:44:48,10.1.1.2,172,-0.160,-0.160,-0.160,0.000,0.000,0.000
1641221088703386112,2022-01-03-14:44:48,10.1.1.2,179,-0.170,-0.170,-0.170,0.000,0.000,0.000
1641221088895525888,2022-01-03-14:44:48,10.1.1.2,170,-0.180,-0.180,-0.180,0.000,0.000,0.000
1641221089094304000,2022-01-03-14:44:49,10.1.1.2,168,-0.190,-0.190,-0.190,0.000,0.000,0.000
1641221089298296064,2022-01-03-14:44:49,10.1.1.2,171,-0.200,-0.200,-0.200,0.000,0.000,0.000
1641221089494926848,2022-01-03-14:44:49,10.1.1.2,167,-0.210,-0.210,-0.210,0.000,0.000,0.000
1641221089695331072,2022-01-03-14:44:49,10.1.1.2,167,-0.220,-0.220,-0.220,0.000,0.000,0.000
1641221089893517056,2022-01-03-14:44:49,10.1.1.2,164,-0.230,-0.230,-0.230,0.000,0.000,0.000
1641221090094502912,2022-01-03-14:44:50,10.1.1.2,165,-0.240,-0.240,-0.240,0.000,0.000,0.000
1641221090296564224,2022-01-03-14:44:50,10.1.1.2,166,-0.250,-0.250,-0.250,0.000,0.000,0.000
1641221090495397120,2022-01-03-14:44:50,10.1.1.2,164,-0.260,-0.260,-0.260,0.000,0.000,0.000
1641221090697141760,2022-01-03-14:44:50,10.1.1.2,164,-0.270,-0.270,-0.270,0.000,0.000,0.000
1641221090897713920,2022-01-03-14:44:50,10.1.1.2,164,-0.280,-0.280,-0.280,0.000,0.000,0.000
1641221091098588928,2022-01-03-14:44:51,10.1.1.2,164,-0.290,-0.290,-0.290,0.000,0.000,0.000
1641221091300552960,2022-01-03-14:44:51,10.1.1.2,166,-0.300,-0.300,-0.300,0.000,0.000,0.000
1641221091500224000,2022-01-03-14:44:51,10.1.1.2,165,-0.310,-0.310,-0.310,0.000,0.000,0.000
1641221091701370880,2022-01-03-14:44:51,10.1.1.2,165,-0.320,-0.320,-0.320,0.000,0.000,0.000
1641221091912440064,2022-01-03-14:44:51,10.1.1.2,176,-0.330,-0.330,-0.330,0.000,0.000,0.000
1641221092125328128,2022-01-03-14:44:52,10.1.1.2,188,-0.340,-0.340,-0.340,0.000,0.000,0.000
1641221092323568128,2022-01-03-14:44:52,10.1.1.2,186,-0.350,-0.350,-0.350,0.000,0.000,0.000
1641221092525676032,2022-01-03-14:44:52,10.1.1.2,187,-0.360,-0.360,-0.360,0.000,0.000,0.000
1641221092725959936,2022-01-03-14:44:52,10.1.1.2,186,-0.370,-0.370,-0.370,0.000,0.000,0.000
1641221092926243072,2022-01-03-14:44:52,10.1.1.2,186,-0.380,-0.380,-0.380,0.000,0.000,0.000
1641221093126573056,2022-01-03-14:44:53,10.1.1.2,186,-0.390,-0.390,-0.390,0.000,0.000,0.000
1641221093331463936,2022-01-03-14:44:53,10.1.1.2,190,-0.400,-0.400,-0.400,0.000,0.000,0.000
1641221093527900928,2022-01-03-14:44:53,10.1.1.2,186,-0.410,-0.410,-0.410,0.000,0.000,0.000
1641221093742758144,2022-01-03-14:44:53,10.1.1.2,200,-0.420,-0.420,-0.420,0.000,0.000,0.000
1641221093928625152,2022-01-03-14:44:53,10.1.1.2,185,-0.430,-0.430,-0.430,0.000,0.000,0.000
1641221094132965120,2022-01-03-14:44:54,10.1.1.2,187,-0.440,-0.440,-0.440,0.000,0.000,0.000
1641221094331963136,2022-01-03-14:44:54,10.1.1.2,187,-0.450,-0.450,-0.450,0.000,0.000,0.000
1641221094531387136,2022-01-03-14:44:54,10.1.1.2,185,-0.460,-0.460,-0.460,0.000,0.000,0.000
1641221094731872000,2022-01-03-14:44:54,10.1.1.2,185,-0.470,-0.470,-0.470,0.000,0.000,0.000
1641221094931611904,2022-01-03-14:44:54,10.1.1.2,184,-0.480,-0.480,-0.480,0.000,0.000,0.000
1641221095132816128,2022-01-03-14:44:55,10.1.1.2,185,-0.490,-0.490,-0.490,0.000,0.000,0.000
1641221095332550144,2022-01-03-14:44:55,10.1.1.2,182,-0.480,-0.480,-0.480,0.000,0.000,0.000
1641221095533149952,2022-01-03-14:44:55,10.1.1.2,182,-0.470,-0.470,-0.470,0.000,0.000,0.000
1641221095736710912,2022-01-03-14:44:55,10.1.1.2,184,-0.460,-0.460,-0.460,0.000,0.000,0.000
1641221095933145088,2022-01-03-14:44:55,10.1.1.2,179,-0.450,-0.450,-0.450,0.000,0.000,0.000
1641221096153693952,2022-01-03-14:44:56,10.1.1.2,195,-0.440,-0.440,-0.440,0.000,0.000,0.000
1641221096353838080,2022-01-03-14:44:56,10.1.1.2,194,-0.430,-0.430,-0.430,0.000,0.000,0.000
1641221096554276864,2022-01-03-14:44:56,10.1.1.2,194,-0.420,-0.420,-0.420,0.000,0.000,0.000
1641221096754692096,2022-01-03-14:44:56,10.1.1.2,193,-0.410,-0.410,-0.410,0.000,0.000,0.000
1641221096954842112,2022-01-03-14:44:56,10.1.1.2,193,-0.400,-0.400,-0.400,0.000,0.000,0.000
1641221097156965120,2022-01-03-14:44:57,10.1.1.2,194,-0.390,-0.390,-0.390,0.000,0.000,0.000
1641221097357042944,2022-01-03-14:44:57,10.1.1.2,194,-0.380,-0.380,-0.380,0.000,0.000,0.000
1641221097557029888,2022-01-03-14:44:57,10.1.1.2,187,-0.370,-0.370,-0.370,0.000,0.000,0.000
1641221097760036096,2022-01-03-14:44:57,10.1.1.2,190,-0.360,-0.360,-0.360,0.000,0.000,0.000
1641221097958582016,2022-01-03-14:44:57,10.1.1.2,187,-0.350,-0.350,-0.350,0.000,0.000,0.000
1641221098157017856,2022-01-03-14:44:58,10.1.1.2,184,-0.340,-0.340,-0.340,0.000,0.000,0.000
1641221098356367104,2022-01-03-14:44:58,10.1.1.2,184,-0.330,-0.330,-0.330,0.000,0.000,0.000
1641221098560357120,2022-01-03-14:44:58,10.1.1.2,187,-0.320,-0.320,-0.320,0.000,0.000,0.000
1641221098758124032,2022-01-03-14:44:58,10.1.1.2,183,-0.310,-0.310,-0.310,0.000,0.000,0.000
1641221098961464832,2022-01-03-14:44:58,10.1.1.2,187,-0.300,-0.300,-0.300,0.000,0.000,0.000
1641221099157231104,2022-01-03-14:44:59,10.1.1.2,183,-0.290,-0.290,-0.290,0.000,0.000,0.000
1641221099360022016,2022-01-03-14:44:59,10.1.1.2,184,-0.280,-0.280,-0.280,0.000,0.000,0.000
1641221099559677952,2022-01-03-14:44:59,10.1.1.2,184,-0.270,-0.270,-0.270,0.000,0.000,0.000
1641221099759616000,2022-01-03-14:44:59,10.1.1.2,183,-0.260,-0.260,-0.260,0.000,0.000,0.000
1641221099960257024,2022-01-03-14:44:59,10.1.1.2,183,-0.250,-0.250,-0.250,0.000,0.000,0.000
1641221100157624064,2022-01-03-14:45:00,10.1.1.2,180,-0.240,-0.240,-0.240,0.000,0.000,0.000
1641221100378575104,2022-01-03-14:45:00,10.1.1.2,194,-0.230,-0.230,-0.230,0.000,0.000,0.000
1641221100782145024,2022-01-03-14:45:00,10.1.1.2,193,-0.210,-0.210,-0.210,0.000,0.000,0.000
1641221100982120960,2022-01-03-14:45:00,10.1.1.2,193,-0.200,-0.200,-0.200,0.000,0.000,0.000
1641221101181437952,2022-01-03-14:45:01,10.1.1.2,192,-0.190,-0.190,-0.190,0.000,0.000,0.000
1641221101381526016,2022-01-03-14:45:01,10.1.1.2,191,-0.180,-0.180,-0.180,0.000,0.000,0.000
1641221101589957888,2022-01-03-14:45:01,10.1.1.2,199,-0.170,-0.170,-0.170,0.000,0.000,0.000
1641221101797437952,2022-01-03-14:45:01,10.1.1.2,184,-0.160,-0.160,-0.160,0.000,0.000,0.000
1641221101997707008,2022-01-03-14:45:01,10.1.1.2,184,-0.150,-0.150,-0.150,0.000,0.000,0.000
1641221102197261056,2022-01-03-14:45:02,10.1.1.2,182,-0.140,-0.140,-0.140,0.000,0.000,0.000
1641221102402599936,2022-01-03-14:45:02,10.1.1.2,187,-0.130,-0.130,-0.130,0.000,0.000,0.000
1641221102597349888,2022-01-03-14:45:02,10.1.1.2,180,-0.120,-0.120,-0.120,0.000,0.000,0.000
1641221102804111104,2022-01-03-14:45:02,10.1.1.2,187,-0.110,-0.110,-0.110,0.000,0.000,0.000
1641221103017369088,2022-01-03-14:45:03,10.1.1.2,199,-0.100,-0.100,-0.100,0.000,0.000,0.000
1641221103217199104,2022-01-03-14:45:03,10.1.1.2,198,-0.090,-0.090,-0.090,0.000,0.000,0.000
1641221103416883968,2022-01-03-14:45:03,10.1.1.2,194,-0.080,-0.080,-0.080,0.000,0.000,0.000
1641221103617563136,2022-01-03-14:45:03,10.1.1.2,194,-0.070,-0.070,-0.070,0.000,0.000,0.000
1641221104018017024,2022-01-03-14:45:04,10.1.1.2,185,-0.050,-0.050,-0.050,0.000,0.000,0.000
1641221104221142016,2022-01-03-14:45:04,10.1.1.2,187,-0.040,-0.040,-0.040,0.000,0.000,0.000
1641221104417819136,2022-01-03-14:45:04,10.1.1.2,183,-0.030,-0.030,-0.030,0.000,0.000,0.000
1641221104617489152,2022-01-03-14:45:04,10.1.1.2,182,-0.020,-0.020,-0.020,0.000,0.000,0.000
1641221104818989056,2022-01-03-14:45:04,10.1.1.2,182,-0.010,-0.010,-0.010,0.000,0.000,0.000
1641221105041112832,2022-01-03-14:45:05,10.1.1.2,199,0.000,0.000,0.000,0.000,0.000,0.000
1641221105239588096,2022-01-03-14:45:05,10.1.1.2,196,-0.010,-0.010,-0.010,0.000,0.000,0.000
1641221105437342976,2022-01-03-14:45:05,10.1.1.2,195,-0.020,-0.020,-0.020,0.000,0.000,0.000
1641221105637612032,2022-01-03-14:45:05,10.1.1.2,193,-0.030,-0.030,-0.030,0.000,0.000,0.000
1641221105837729024,2022-01-03-14:45:05,10.1.1.2,193,-0.040,-0.040,-0.040,0.000,0.000,0.000
1641221106041684992,2022-01-03-14:45:06,10.1.1.2,197,-0.050,-0.050,-0.050,0.000,0.000,0.000
1641221106236462080,2022-01-03-14:45:06,10.1.1.2,190,-0.060,-0.060,-0.060,0.000,0.000,0.000
1641221106434190080,2022-01-03-14:45:06,10.1.1.2,187,-0.070,-0.070,-0.070,0.000,0.000,0.000
1641221106634021120,2022-01-03-14:45:06,10.1.1.2,186,-0.080,-0.080,-0.080,0.000,0.000,0.000
1641221106834007040,2022-01-03-14:45:06,10.1.1.2,186,-0.090,-0.090,-0.090,0.000,0.000,0.000
1641221107033600000,2022-01-03-14:45:07,10.1.1.2,185,-0.100,-0.100,-0.100,0.000,0.000,0.000
1641221107235390976,2022-01-03-14:45:07,10.1.1.2,186,-0.110,-0.110,-0.110,0.000,0.000,0.000
1641221107433259008,2022-01-03-14:45:07,10.1.1.2,182,-0.120,-0.120,-0.120,0.000,0.000,0.000
1641221107633071872,2022-01-03-14:45:07,10.1.1.2,182,-0.130,-0.130,-0.130,0.000,0.000,0.000
1641221107832655872,2022-01-03-14:45:07,10.1.1.2,180,-0.140,-0.140,-0.140,0.000,0.000,0.000
1641221108036064000,2022-01-03-14:45:08,10.1.1.2,182,-0.150,-0.150,-0.150,0.000,0.000,0.000
1641221108245075968,2022-01-03-14:45:08,10.1.1.2,190,-0.160,-0.160,-0.160,0.000,0.000,0.000
1641221108432126976,2022-01-03-14:45:08,10.1.1.2,177,-0.170,-0.170,-0.170,0.000,0.000,0.000
1641221108631796992,2022-01-03-14:45:08,10.1.1.2,176,-0.180,-0.180,-0.180,0.000,0.000,0.000
1641221108834956032,2022-01-03-14:45:08,10.1.1.2,178,-0.190,-0.190,-0.190,0.000,0.000,0.000
1641221109056251136,2022-01-03-14:45:09,10.1.1.2,198,-0.200,-0.200,-0.200,0.000,0.000,0.000
1641221109251632896,2022-01-03-14:45:09,10.1.1.2,193,-0.210,-0.210,-0.210,0.000,0.000,0.000
1641221109451397888,2022-01-03-14:45:09,10.1.1.2,192,-0.220,-0.220,-0.220,0.000,0.000,0.000
1641221109870672896,2022-01-03-14:45:09,10.1.1.2,192,-0.240,-0.240,-0.240,0.000,0.000,0.000
1641221110072846848,2022-01-03-14:45:10,10.1.1.2,193,-0.250,-0.250,-0.250,0.000,0.000,0.000
1641221110275118080,2022-01-03-14:45:10,10.1.1.2,194,-0.260,-0.260,-0.260,0.000,0.000,0.000
1641221110469937152,2022-01-03-14:45:10,10.1.1.2,187,-0.270,-0.270,-0.270,0.000,0.000,0.000
1641221110670504960,2022-01-03-14:45:10,10.1.1.2,187,-0.280,-0.280,-0.280,0.000,0.000,0.000
1641221110872492032,2022-01-03-14:45:10,10.1.1.2,189,-0.290,-0.290,-0.290,0.000,0.000,0.000
1641221111071280896,2022-01-03-14:45:11,10.1.1.2,187,-0.300,-0.300,-0.300,0.000,0.000,0.000
1641221111271336192,2022-01-03-14:45:11,10.1.1.2,187,-0.310,-0.310,-0.310,0.000,0.000,0.000
1641221111470428928,2022-01-03-14:45:11,10.1.1.2,184,-0.320,-0.320,-0.320,0.000,0.000,0.000
1641221111673741056,2022-01-03-14:45:11,10.1.1.2,188,-0.330,-0.330,-0.330,0.000,0.000,0.000
1641221111869115136,2022-01-03-14:45:11,10.1.1.2,182,-0.340,-0.340,-0.340,0.000,0.000,0.000
1641221112070192128,2022-01-03-14:45:12,10.1.1.2,183,-0.350,-0.350,-0.350,0.000,0.000,0.000
1641221112269309952,2022-01-03-14:45:12,10.1.1.2,181,-0.360,-0.360,-0.360,0.000,0.000,0.000
1641221112468071936,2022-01-03-14:45:12,10.1.1.2,179,-0.370,-0.370,-0.370,0.000,0.000,0.000
1641221112669775872,2022-01-03-14:45:12,10.1.1.2,179,-0.380,-0.380,-0.380,0.000,0.000,0.000
1641221112871098112,2022-01-03-14:45:12,10.1.1.2,181,-0.390,-0.390,-0.390,0.000,0.000,0.000
1641221113069867008,2022-01-03-14:45:13,10.1.1.2,179,-0.400,-0.400,-0.400,0.000,0.000,0.000
1641221113266493184,2022-01-03-14:45:13,10.1.1.2,175,-0.410,-0.410,-0.410,0.000,0.000,0.000
1641221113466438912,2022-01-03-14:45:13,10.1.1.2,174,-0.420,-0.420,-0.420,0.000,0.000,0.000
1641221113669889024,2022-01-03-14:45:13,10.1.1.2,177,-0.430,-0.430,-0.430,0.000,0.000,0.000
1641221113868369152,2022-01-03-14:45:13,10.1.1.2,176,-0.440,-0.440,-0.440,0.000,0.000,0.000
1641221114066253056,2022-01-03-14:45:14,10.1.1.2,173,-0.450,-0.450,-0.450,0.000,0.000,0.000
1641221114264621056,2022-01-03-14:45:14,10.1.1.2,171,-0.460,-0.460,-0.460,0.000,0.000,0.000
1641221114465987840,2022-01-03-14:45:14,10.1.1.2,172,-0.470,-0.470,-0.470,0.000,0.000,0.000
1641221114664171008,2022-01-03-14:45:14,10.1.1.2,170,-0.480,-0.480,-0.480,0.000,0.000,0.000
1641221114864207104,2022-01-03-14:45:14,10.1.1.2,168,-0.490,-0.490,-0.490,0.000,0.000,0.000
1641221115085076992,2022-01-03-14:45:15,10.1.1.2,185,-0.480,-0.480,-0.480,0.000,0.000,0.000
1641221115285007872,2022-01-03-14:45:15,10.1.1.2,184,-0.470,-0.470,-0.470,0.000,0.000,0.000
1641221115486001920,2022-01-03-14:45:15,10.1.1.2,184,-0.460,-0.460,-0.460,0.000,0.000,0.000
1641221115684658944,2022-01-03-14:45:15,10.1.1.2,182,-0.450,-0.450,-0.450,0.000,0.000,0.000
1641221115884756992,2022-01-03-14:45:15,10.1.1.2,180,-0.440,-0.440,-0.440,0.000,0.000,0.000
1641221116084836096,2022-01-03-14:45:16,10.1.1.2,180,-0.430,-0.430,-0.430,0.000,0.000,0.000
1641221116284188160,2022-01-03-14:45:16,10.1.1.2,178,-0.420,-0.420,-0.420,0.000,0.000,0.000
1641221116482195968,2022-01-03-14:45:16,10.1.1.2,176,-0.410,-0.410,-0.410,0.000,0.000,0.000
1641221116684123904,2022-01-03-14:45:16,10.1.1.2,177,-0.400,-0.400,-0.400,0.000,0.000,0.000
1641221116885417984,2022-01-03-14:45:16,10.1.1.2,178,-0.390,-0.390,-0.390,0.000,0.000,0.000
1641221117083030016,2022-01-03-14:45:17,10.1.1.2,173,-0.380,-0.380,-0.380,0.000,0.000,0.000
1641221117283838976,2022-01-03-14:45:17,10.1.1.2,172,-0.370,-0.370,-0.370,0.000,0.000,0.000
1641221117486032128,2022-01-03-14:45:17,10.1.1.2,174,-0.360,-0.360,-0.360,0.000,0.000,0.000
1641221117684576000,2022-01-03-14:45:17,10.1.1.2,172,-0.350,-0.350,-0.350,0.000,0.000,0.000
1641221117880214016,2022-01-03-14:45:17,10.1.1.2,167,-0.340,-0.340,-0.340,0.000,0.000,0.000
1641221118083836160,2022-01-03-14:45:18,10.1.1.2,169,-0.330,-0.330,-0.330,0.000,0.000,0.000
1641221118286737920,2022-01-03-14:45:18,10.1.1.2,170,-0.320,-0.320,-0.320,0.000,0.000,0.000
1641221118479773952,2022-01-03-14:45:18,10.1.1.2,164,-0.310,-0.310,-0.310,0.000,0.000,0.000
1641221118682332928,2022-01-03-14:45:18,10.1.1.2,166,-0.300,-0.300,-0.300,0.000,0.000,0.000
1641221118883495936,2022-01-03-14:45:18,10.1.1.2,167,-0.290,-0.290,-0.290,0.000,0.000,0.000
1641221119103410944,2022-01-03-14:45:19,10.1.1.2,186,-0.280,-0.280,-0.280,0.000,0.000,0.000
1641221119298361088,2022-01-03-14:45:19,10.1.1.2,180,-0.270,-0.270,-0.270,0.000,0.000,0.000
1641221119497950976,2022-01-03-14:45:19,10.1.1.2,178,-0.260,-0.260,-0.260,0.000,0.000,0.000
1641221119701468928,2022-01-03-14:45:19,10.1.1.2,181,-0.250,-0.250,-0.250,0.000,0.000,0.000
1641221119896653056,2022-01-03-14:45:19,10.1.1.2,175,-0.240,-0.240,-0.240,0.000,0.000,0.000
1641221120097228032,2022-01-03-14:45:20,10.1.1.2,175,-0.230,-0.230,-0.230,0.000,0.000,0.000
1641221120326930944,2022-01-03-14:45:20,10.1.1.2,194,-0.220,-0.220,-0.220,0.000,0.000,0.000
1641221120495540992,2022-01-03-14:45:20,10.1.1.2,168,-0.210,-0.210,-0.210,0.000,0.000,0.000
1641221120696901120,2022-01-03-14:45:20,10.1.1.2,166,-0.200,-0.200,-0.200,0.000,0.000,0.000
1641221120895561984,2022-01-03-14:45:20,10.1.1.2,164,-0.190,-0.190,-0.190,0.000,0.000,0.000
1641221121095176960,2022-01-03-14:45:21,10.1.1.2,163,-0.180,-0.180,-0.180,0.000,0.000,0.000
1641221121296576000,2022-01-03-14:45:21,10.1.1.2,164,-0.170,-0.170,-0.170,0.000,0.000,0.000
1641221121493885952,2022-01-03-14:45:21,10.1.1.2,161,-0.160,-0.160,-0.160,0.000,0.000,0.000
1641221121693797120,2022-01-03-14:45:21,10.1.1.2,160,-0.150,-0.150,-0.150,0.000,0.000,0.000
1641221121893927936,2022-01-03-14:45:21,10.1.1.2,159,-0.140,-0.140,-0.140,0.000,0.000,0.000
1641221122117033984,2022-01-03-14:45:22,10.1.1.2,177,-0.130,-0.130,-0.130,0.000,0.000,0.000
1641221122515950848,2022-01-03-14:45:22,10.1.1.2,174,-0.110,-0.110,-0.110,0.000,0.000,0.000
1641221122717765120,2022-01-03-14:45:22,10.1.1.2,174,-0.100,-0.100,-0.100,0.000,0.000,0.000
1641221122918221824,2022-01-03-14:45:22,10.1.1.2,174,-0.090,-0.090,-0.090,0.000,0.000,0.000
1641221123120163072,2022-01-03-14:45:23,10.1.1.2,175,-0.080,-0.080,-0.080,0.000,0.000,0.000
1641221123319511808,2022-01-03-14:45:23,10.1.1.2,174,-0.070,-0.070,-0.070,0.000,0.000,0.000
1641221123521011200,2022-01-03-14:45:23,10.1.1.2,175,-0.060,-0.060,-0.060,0.000,0.000,0.000
1641221123721497088,2022-01-03-14:45:23,10.1.1.2,175,-0.050,-0.050,-0.050,0.000,0.000,0.000
1641221123923724800,2022-01-03-14:45:23,10.1.1.2,175,-0.040,-0.040,-0.040,0.000,0.000,0.000
1641221124123513856,2022-01-03-14:45:24,10.1.1.2,176,-0.030,-0.030,-0.030,0.000,0.000,0.000
1641221124324194048,2022-01-03-14:45:24,10.1.1.2,176,-0.020,-0.020,-0.020,0.000,0.000,0.000
1641221124526736128,2022-01-03-14:45:24,10.1.1.2,177,-0.010,-0.010,-0.010,0.000,0.000,0.000
1641221124725442048,2022-01-03-14:45:24,10.1.1.2,175,0.000,0.000,0.000,0.000,0.000,0.000
1641221124925837056,2022-01-03-14:45:24,10.1.1.2,176,-0.010,-0.010,-0.010,0.000,0.000,0.000
1641221125128112128,2022-01-03-14:45:25,10.1.1.2,177,-0.020,-0.020,-0.020,0.000,0.000,0.000
1641221125327749888,2022-01-03-14:45:25,10.1.1.2,176,-0.030,-0.030,-0.030,0.000,0.000,0.000
1641221125528345088,2022-01-03-14:45:25,10.1.1.2,176,-0.040,-0.040,-0.040,0.000,0.000,0.000
1641221125773219072,2022-01-03-14:45:25,10.1.1.2,190,-0.050,-0.050,-0.050,0.000,0.000,0.000
1641221125969083136,2022-01-03-14:45:25,10.1.1.2,185,-0.060,-0.060,-0.060,0.000,0.000,0.000
1641221126171504896,2022-01-03-14:45:26,10.1.1.2,187,-0.070,-0.070,-0.070,0.000,0.000,0.000
1641221126370313984,2022-01-03-14:45:26,10.1.1.2,185,-0.080,-0.080,-0.080,0.000,0.000,0.000
1641221126571284992,2022-01-03-14:45:26,10.1.1.2,186,-0.090,-0.090,-0.090,0.000,0.000,0.000
1641221126772402176,2022-01-03-14:45:26,10.1.1.2,186,-0.100,-0.100,-0.100,0.000,0.000,0.000
1641221126971815168,2022-01-03-14:45:26,10.1.1.2,185,-0.110,-0.110,-0.110,0.000,0.000,0.000
1641221127177947136,2022-01-03-14:45:27,10.1.1.2,190,-0.120,-0.120,-0.120,0.000,0.000,0.000
1641221127372258048,2022-01-03-14:45:27,10.1.1.2,184,-0.130,-0.130,-0.130,0.000,0.000,0.000
1641221127572752896,2022-01-03-14:45:27,10.1.1.2,184,-0.140,-0.140,-0.140,0.000,0.000,0.000
1641221127775321856,2022-01-03-14:45:27,10.1.1.2,184,-0.150,-0.150,-0.150,0.000,0.000,0.000
1641221127976145920,2022-01-03-14:45:27,10.1.1.2,184,-0.160,-0.160,-0.160,0.000,0.000,0.000
1641221128174559232,2022-01-03-14:45:28,10.1.1.2,184,-0.170,-0.170,-0.170,0.000,0.000,0.000
1641221128374699008,2022-01-03-14:45:28,10.1.1.2,184,-0.180,-0.180,-0.180,0.000,0.000,0.000
1641221128576744192,2022-01-03-14:45:28,10.1.1.2,183,-0.190,-0.190,-0.190,0.000,0.000,0.000
1641221128778456832,2022-01-03-14:45:28,10.1.1.2,186,-0.200,-0.200,-0.200,0.000,0.000,0.000
1641221128977808896,2022-01-03-14:45:28,10.1.1.2,185,-0.210,-0.210,-0.210,0.000,0.000,0.000
1641221129180035072,2022-01-03-14:45:29,10.1.1.2,187,-0.220,-0.220,-0.220,0.000,0.000,0.000
1641221129378400000,2022-01-03-14:45:29,10.1.1.2,185,-0.230,-0.230,-0.230,0.000,0.000,0.000
1641221129577042176,2022-01-03-14:45:29,10.1.1.2,183,-0.240,-0.240,-0.240,0.000,0.000,0.000
1641221129777658880,2022-01-03-14:45:29,10.1.1.2,182,-0.250,-0.250,-0.250,0.000,0.000,0.000
1641221129976576000,2022-01-03-14:45:29,10.1.1.2,181,-0.260,-0.260,-0.260,0.000,0.000,0.000
1641221130176916992,2022-01-03-14:45:30,10.1.1.2,181,-0.270,-0.270,-0.270,0.000,0.000,0.000
1641221130376559872,2022-01-03-14:45:30,10.1.1.2,180,-0.280,-0.280,-0.280,0.000,0.000,0.000
1641221130577323008,2022-01-03-14:45:30,10.1.1.2,180,-0.290,-0.290,-0.290,0.000,0.000,0.000
1641221130781805056,2022-01-03-14:45:30,10.1.1.2,184,-0.300,-0.300,-0.300,0.000,0.000,0.000
1641221131198930944,2022-01-03-14:45:31,10.1.1.2,200,-0.320,-0.320,-0.320,0.000,0.000,0.000
1641221131397857792,2022-01-03-14:45:31,10.1.1.2,198,-0.330,-0.330,-0.330,0.000,0.000,0.000
1641221131797979136,2022-01-03-14:45:31,10.1.1.2,196,-0.350,-0.350,-0.350,0.000,0.000,0.000
1641221131997946112,2022-01-03-14:45:31,10.1.1.2,195,-0.360,-0.360,-0.360,0.000,0.000,0.000
1641221132199244032,2022-01-03-14:45:32,10.1.1.2,196,-0.370,-0.370,-0.370,0.000,0.000,0.000
1641221132599777024,2022-01-03-14:45:32,10.1.1.2,194,-0.390,-0.390,-0.390,0.000,0.000,0.000
1641221132798112000,2022-01-03-14:45:32,10.1.1.2,188,-0.400,-0.400,-0.400,0.000,0.000,0.000
1641221132999026944,2022-01-03-14:45:32,10.1.1.2,188,-0.410,-0.410,-0.410,0.000,0.000,0.000
1641221133198394112,2022-01-03-14:45:33,10.1.1.2,187,-0.420,-0.420,-0.420,0.000,0.000,0.000
1641221133398417920,2022-01-03-14:45:33,10.1.1.2,186,-0.430,-0.430,-0.430,0.000,0.000,0.000
1641221133599302912,2022-01-03-14:45:33,10.1.1.2,186,-0.440,-0.440,-0.440,0.000,0.000,0.000
1641221133797900800,2022-01-03-14:45:33,10.1.1.2,185,-0.450,-0.450,-0.450,0.000,0.000,0.000
1641221133999279872,2022-01-03-14:45:33,10.1.1.2,186,-0.460,-0.460,-0.460,0.000,0.000,0.000
1641221134398499840,2022-01-03-14:45:34,10.1.1.2,182,-0.480,-0.480,-0.480,0.000,0.000,0.000
1641221134602322944,2022-01-03-14:45:34,10.1.1.2,186,-0.490,-0.490,-0.490,0.000,0.000,0.000
1641221135019681024,2022-01-03-14:45:35,10.1.1.2,198,-0.470,-0.470,-0.470,0.000,0.000,0.000
1641221135219546112,2022-01-03-14:45:35,10.1.1.2,197,-0.460,-0.460,-0.460,0.000,0.000,0.000
1641221135421861888,2022-01-03-14:45:35,10.1.1.2,193,-0.450,-0.450,-0.450,0.000,0.000,0.000
1641221135618437888,2022-01-03-14:45:35,10.1.1.2,189,-0.440,-0.440,-0.440,0.000,0.000,0.000
1641221135816808960,2022-01-03-14:45:35,10.1.1.2,187,-0.430,-0.430,-0.430,0.000,0.000,0.000
1641221136019239936,2022-01-03-14:45:36,10.1.1.2,189,-0.420,-0.420,-0.420,0.000,0.000,0.000
1641221136218000896,2022-01-03-14:45:36,10.1.1.2,187,-0.410,-0.410,-0.410,0.000,0.000,0.000
1641221136417942016,2022-01-03-14:45:36,10.1.1.2,187,-0.400,-0.400,-0.400,0.000,0.000,0.000
1641221136617837824,2022-01-03-14:45:36,10.1.1.2,185,-0.390,-0.390,-0.390,0.000,0.000,0.000
1641221136817411072,2022-01-03-14:45:36,10.1.1.2,184,-0.380,-0.380,-0.380,0.000,0.000,0.000
1641221137018441984,2022-01-03-14:45:37,10.1.1.2,185,-0.370,-0.370,-0.370,0.000,0.000,0.000
1641221137218575872,2022-01-03-14:45:37,10.1.1.2,183,-0.360,-0.360,-0.360,0.000,0.000,0.000
1641221137418492928,2022-01-03-14:45:37,10.1.1.2,182,-0.350,-0.350,-0.350,0.000,0.000,0.000
1641221137618166016,2022-01-03-14:45:37,10.1.1.2,181,-0.340,-0.340,-0.340,0.000,0.000,0.000
1641221137837779968,2022-01-03-14:45:37,10.1.1.2,199,-0.330,-0.330,-0.330,0.000,0.000,0.000
1641221138038237184,2022-01-03-14:45:38,10.1.1.2,199,-0.320,-0.320,-0.320,0.000,0.000,0.000
1641221138235655936,2022-01-03-14:45:38,10.1.1.2,195,-0.310,-0.310,-0.310,0.000,0.000,0.000
1641221138435144960,2022-01-03-14:45:38,10.1.1.2,194,-0.300,-0.300,-0.300,0.000,0.000,0.000
1641221138639646976,2022-01-03-14:45:38,10.1.1.2,198,-0.290,-0.290,-0.290,0.000,0.000,0.000
1641221138837442048,2022-01-03-14:45:38,10.1.1.2,196,-0.280,-0.280,-0.280,0.000,0.000,0.000
1641221139037014016,2022-01-03-14:45:39,10.1.1.2,192,-0.270,-0.270,-0.270,0.000,0.000,0.000
1641221139234268928,2022-01-03-14:45:39,10.1.1.2,191,-0.260,-0.260,-0.260,0.000,0.000,0.000
1641221139434380032,2022-01-03-14:45:39,10.1.1.2,191,-0.250,-0.250,-0.250,0.000,0.000,0.000
1641221139641985024,2022-01-03-14:45:39,10.1.1.2,196,-0.240,-0.240,-0.240,0.000,0.000,0.000
1641221139834242048,2022-01-03-14:45:39,10.1.1.2,188,-0.230,-0.230,-0.230,0.000,0.000,0.000
1641221140034349824,2022-01-03-14:45:40,10.1.1.2,187,-0.220,-0.220,-0.220,0.000,0.000,0.000
1641221140235191040,2022-01-03-14:45:40,10.1.1.2,187,-0.210,-0.210,-0.210,0.000,0.000,0.000
1641221140433140992,2022-01-03-14:45:40,10.1.1.2,184,-0.200,-0.200,-0.200,0.000,0.000,0.000
1641221140633523968,2022-01-03-14:45:40,10.1.1.2,184,-0.190,-0.190,-0.190,0.000,0.000,0.000
1641221140837716992,2022-01-03-14:45:40,10.1.1.2,184,-0.180,-0.180,-0.180,0.000,0.000,0.000
1641221141052510976,2022-01-03-14:45:41,10.1.1.2,186,-0.170,-0.170,-0.170,0.000,0.000,0.000
1641221141252187136,2022-01-03-14:45:41,10.1.1.2,185,-0.160,-0.160,-0.160,0.000,0.000,0.000
1641221141452092928,2022-01-03-14:45:41,10.1.1.2,185,-0.150,-0.150,-0.150,0.000,0.000,0.000
1641221141652584192,2022-01-03-14:45:41,10.1.1.2,185,-0.140,-0.140,-0.140,0.000,0.000,0.000
1641221141852621056,2022-01-03-14:45:41,10.1.1.2,184,-0.130,-0.130,-0.130,0.000,0.000,0.000
1641221142051887104,2022-01-03-14:45:42,10.1.1.2,183,-0.120,-0.120,-0.120,0.000,0.000,0.000
1641221142252155136,2022-01-03-14:45:42,10.1.1.2,183,-0.110,-0.110,-0.110,0.000,0.000,0.000
1641221142451591936,2022-01-03-14:45:42,10.1.1.2,182,-0.100,-0.100,-0.100,0.000,0.000,0.000
1641221142652361984,2022-01-03-14:45:42,10.1.1.2,182,-0.090,-0.090,-0.090,0.000,0.000,0.000
1641221142860294144,2022-01-03-14:45:42,10.1.1.2,187,-0.080,-0.080,-0.080,0.000,0.000,0.000
1641221143050700032,2022-01-03-14:45:43,10.1.1.2,176,-0.070,-0.070,-0.070,0.000,0.000,0.000
1641221143249974016,2022-01-03-14:45:43,10.1.1.2,174,-0.060,-0.060,-0.060,0.000,0.000,0.000
1641221143450048000,2022-01-03-14:45:43,10.1.1.2,173,-0.050,-0.050,-0.050,0.000,0.000,0.000
1641221143670476032,2022-01-03-14:45:43,10.1.1.2,192,-0.040,-0.040,-0.040,0.000,0.000,0.000
1641221143869987840,2022-01-03-14:45:43,10.1.1.2,191,-0.030,-0.030,-0.030,0.000,0.000,0.000
1641221144069108992,2022-01-03-14:45:44,10.1.1.2,187,-0.020,-0.020,-0.020,0.000,0.000,0.000
1641221144268728064,2022-01-03-14:45:44,10.1.1.2,185,-0.010,-0.010,-0.010,0.000,0.000,0.000
1641221144469017856,2022-01-03-14:45:44,10.1.1.2,184,0.000,0.000,0.000,0.000,0.000,0.000
1641221144669702912,2022-01-03-14:45:44,10.1.1.2,183,-0.010,-0.010,-0.010,0.000,0.000,0.000
1641221144869494016,2022-01-03-14:45:44,10.1.1.2,183,-0.020,-0.020,-0.020,0.000,0.000,0.000
1641221145069423872,2022-01-03-14:45:45,10.1.1.2,179,-0.030,-0.030,-0.030,0.000,0.000,0.000
1641221145268116992,2022-01-03-14:45:45,10.1.1.2,175,-0.040,-0.040,-0.040,0.000,0.000,0.000
1641221145467233792,2022-01-03-14:45:45,10.1.1.2,174,-0.050,-0.050,-0.050,0.000,0.000,0.000
1641221145670083072,2022-01-03-14:45:45,10.1.1.2,176,-0.060,-0.060,-0.060,0.000,0.000,0.000
1641221145868214016,2022-01-03-14:45:45,10.1.1.2,174,-0.070,-0.070,-0.070,0.000,0.000,0.000
1641221146289384960,2022-01-03-14:45:46,10.1.1.2,181,-0.090,-0.090,-0.090,0.000,0.000,0.000
1641221146485562112,2022-01-03-14:45:46,10.1.1.2,175,-0.100,-0.100,-0.100,0.000,0.000,0.000
1641221146689189888,2022-01-03-14:45:46,10.1.1.2,178,-0.110,-0.110,-0.110,0.000,0.000,0.000
1641221146887911168,2022-01-03-14:45:46,10.1.1.2,176,-0.120,-0.120,-0.120,0.000,0.000,0.000
1641221147085591040,2022-01-03-14:45:47,10.1.1.2,169,-0.130,-0.130,-0.130,0.000,0.000,0.000
1641221147346074112,2022-01-03-14:45:47,10.1.1.2,184,-0.140,-0.140,-0.140,0.000,0.000,0.000
1641221147565895936,2022-01-03-14:45:47,10.1.1.2,185,-0.150,-0.150,-0.150,0.000,0.000,0.000
1641221147773485824,2022-01-03-14:45:47,10.1.1.2,194,-0.160,-0.160,-0.160,0.000,0.000,0.000
1641221147963895040,2022-01-03-14:45:47,10.1.1.2,180,-0.170,-0.170,-0.170,0.000,0.000,0.000
1641221148164318208,2022-01-03-14:45:48,10.1.1.2,180,-0.180,-0.180,-0.180,0.000,0.000,0.000
1641221148362825984,2022-01-03-14:45:48,10.1.1.2,177,-0.190,-0.190,-0.190,0.000,0.000,0.000
1641221148563759104,2022-01-03-14:45:48,10.1.1.2,176,-0.200,-0.200,-0.200,0.000,0.000,0.000
1641221148762604032,2022-01-03-14:45:48,10.1.1.2,174,-0.210,-0.210,-0.210,0.000,0.000,0.000
1641221148962660096,2022-01-03-14:45:48,10.1.1.2,174,-0.220,-0.220,-0.220,0.000,0.000,0.000
1641221149162256128,2022-01-03-14:45:49,10.1.1.2,173,-0.230,-0.230,-0.230,0.000,0.000,0.000
1641221149362776064,2022-01-03-14:45:49,10.1.1.2,173,-0.240,-0.240,-0.240,0.000,0.000,0.000
1641221149562208000,2022-01-03-14:45:49,10.1.1.2,169,-0.250,-0.250,-0.250,0.000,0.000,0.000
1641221149760871936,2022-01-03-14:45:49,10.1.1.2,167,-0.260,-0.260,-0.260,0.000,0.000,0.000
1641221149960901120,2022-01-03-14:45:49,10.1.1.2,167,-0.270,-0.270,-0.270,0.000,0.000,0.000
1641221150161750016,2022-01-03-14:45:50,10.1.1.2,165,-0.280,-0.280,-0.280,0.000,0.000,0.000
1641221150364339200,2022-01-03-14:45:50,10.1.1.2,168,-0.290,-0.290,-0.290,0.000,0.000,0.000
1641221150592335872,2022-01-03-14:45:50,10.1.1.2,195,-0.300,-0.300,-0.300,0.000,0.000,0.000
1641221150780256000,2022-01-03-14:45:50,10.1.1.2,181,-0.310,-0.310,-0.310,0.000,0.000,0.000
1641221150981335040,2022-01-03-14:45:50,10.1.1.2,183,-0.320,-0.320,-0.320,0.000,0.000,0.000
1641221151205384960,2022-01-03-14:45:51,10.1.1.2,195,-0.330,-0.330,-0.330,0.000,0.000,0.000
1641221151384533760,2022-01-03-14:45:51,10.1.1.2,174,-0.340,-0.340,-0.340,0.000,0.000,0.000
1641221151579216128,2022-01-03-14:45:51,10.1.1.2,168,-0.350,-0.350,-0.350,0.000,0.000,0.000
1641221151780369920,2022-01-03-14:45:51,10.1.1.2,169,-0.360,-0.360,-0.360,0.000,0.000,0.000
1641221151978741760,2022-01-03-14:45:51,10.1.1.2,167,-0.370,-0.370,-0.370,0.000,0.000,0.000
1641221152184999936,2022-01-03-14:45:52,10.1.1.2,172,-0.380,-0.380,-0.380,0.000,0.000,0.000
1641221152377981952,2022-01-03-14:45:52,10.1.1.2,164,-0.390,-0.390,-0.390,0.000,0.000,0.000
1641221152612337152,2022-01-03-14:45:52,10.1.1.2,179,-0.400,-0.400,-0.400,0.000,0.000,0.000
1641221152779105792,2022-01-03-14:45:52,10.1.1.2,164,-0.410,-0.410,-0.410,0.000,0.000,0.000
1641221152977821952,2022-01-03-14:45:52,10.1.1.2,162,-0.420,-0.420,-0.420,0.000,0.000,0.000
1641221153196197120,2022-01-03-14:45:53,10.1.1.2,178,-0.430,-0.430,-0.430,0.000,0.000,0.000
1641221153396521216,2022-01-03-14:45:53,10.1.1.2,178,-0.440,-0.440,-0.440,0.000,0.000,0.000
1641221153596513024,2022-01-03-14:45:53,10.1.1.2,177,-0.450,-0.450,-0.450,0.000,0.000,0.000
1641221153795991040,2022-01-03-14:45:53,10.1.1.2,175,-0.460,-0.460,-0.460,0.000,0.000,0.000
1641221153996087040,2022-01-03-14:45:53,10.1.1.2,174,-0.470,-0.470,-0.470,0.000,0.000,0.000
1641221154202277888,2022-01-03-14:45:54,10.1.1.2,179,-0.480,-0.480,-0.480,0.000,0.000,0.000
1641221154400638208,2022-01-03-14:45:54,10.1.1.2,176,-0.490,-0.490,-0.490,0.000,0.000,0.000
1641221154596615936,2022-01-03-14:45:54,10.1.1.2,166,-0.480,-0.480,-0.480,0.000,0.000,0.000
1641221154799144960,2022-01-03-14:45:54,10.1.1.2,168,-0.470,-0.470,-0.470,0.000,0.000,0.000
1641221155000864000,2022-01-03-14:45:55,10.1.1.2,167,-0.460,-0.460,-0.460,0.000,0.000,0.000
1641221155200679936,2022-01-03-14:45:55,10.1.1.2,168,-0.450,-0.450,-0.450,0.000,0.000,0.000
1641221155402621952,2022-01-03-14:45:55,10.1.1.2,170,-0.440,-0.440,-0.440,0.000,0.000,0.000
1641221155603542016,2022-01-03-14:45:55,10.1.1.2,171,-0.430,-0.430,-0.430,0.000,0.000,0.000
1641221155805859072,2022-01-03-14:45:55,10.1.1.2,172,-0.420,-0.420,-0.420,0.000,0.000,0.000
1641221156004499968,2022-01-03-14:45:56,10.1.1.2,167,-0.410,-0.410,-0.410,0.000,0.000,0.000
1641221156228517120,2022-01-03-14:45:56,10.1.1.2,190,-0.400,-0.400,-0.400,0.000,0.000,0.000
1641221156431854080,2022-01-03-14:45:56,10.1.1.2,190,-0.390,-0.390,-0.390,0.000,0.000,0.000
1641221156625602048,2022-01-03-14:45:56,10.1.1.2,184,-0.380,-0.380,-0.380,0.000,0.000,0.000
1641221156826291200,2022-01-03-14:45:56,10.1.1.2,185,-0.370,-0.370,-0.370,0.000,0.000,0.000
1641221157027312128,2022-01-03-14:45:57,10.1.1.2,185,-0.360,-0.360,-0.360,0.000,0.000,0.000
1641221157228509952,2022-01-03-14:45:57,10.1.1.2,186,-0.350,-0.350,-0.350,0.000,0.000,0.000
1641221157430380032,2022-01-03-14:45:57,10.1.1.2,187,-0.340,-0.340,-0.340,0.000,0.000,0.000
1641221157629096960,2022-01-03-14:45:57,10.1.1.2,185,-0.330,-0.330,-0.330,0.000,0.000,0.000
1641221157830169088,2022-01-03-14:45:57,10.1.1.2,186,-0.320,-0.320,-0.320,0.000,0.000,0.000
1641221158043635968,2022-01-03-14:45:58,10.1.1.2,199,-0.310,-0.310,-0.310,0.000,0.000,0.000
1641221158231486208,2022-01-03-14:45:58,10.1.1.2,186,-0.300,-0.300,-0.300,0.000,0.000,0.000
1641221158432420864,2022-01-03-14:45:58,10.1.1.2,186,-0.290,-0.290,-0.290,0.000,0.000,0.000
1641221158635834880,2022-01-03-14:45:58,10.1.1.2,189,-0.280,-0.280,-0.280,0.000,0.000,0.000
1641221158834110976,2022-01-03-14:45:58,10.1.1.2,185,-0.270,-0.270,-0.270,0.000,0.000,0.000
1641221159033405184,2022-01-03-14:45:59,10.1.1.2,183,-0.260,-0.260,-0.260,0.000,0.000,0.000
1641221159234286080,2022-01-03-14:45:59,10.1.1.2,183,-0.250,-0.250,-0.250,0.000,0.000,0.000
1641221159435627008,2022-01-03-14:45:59,10.1.1.2,182,-0.240,-0.240,-0.240,0.000,0.000,0.000
1641221159637601024,2022-01-03-14:45:59,10.1.1.2,183,-0.230,-0.230,-0.230,0.000,0.000,0.000
1641221159833984000,2022-01-03-14:45:59,10.1.1.2,178,-0.220,-0.220,-0.220,0.000,0.000,0.000
1641221160063645952,2022-01-03-14:46:00,10.1.1.2,198,-0.210,-0.210,-0.210,0.000,0.000,0.000
1641221160254550016,2022-01-03-14:46:00,10.1.1.2,188,-0.200,-0.200,-0.200,0.000,0.000,0.000
1641221160456911104,2022-01-03-14:46:00,10.1.1.2,189,-0.190,-0.190,-0.190,0.000,0.000,0.000
1641221160658100992,2022-01-03-14:46:00,10.1.1.2,190,-0.180,-0.180,-0.180,0.000,0.000,0.000
1641221161055633152,2022-01-03-14:46:01,10.1.1.2,184,-0.160,-0.160,-0.160,0.000,0.000,0.000
1641221161258073088,2022-01-03-14:46:01,10.1.1.2,185,-0.150,-0.150,-0.150,0.000,0.000,0.000
1641221161458329856,2022-01-03-14:46:01,10.1.1.2,183,-0.140,-0.140,-0.140,0.000,0.000,0.000
1641221161681682944,2022-01-03-14:46:01,10.1.1.2,197,-0.130,-0.130,-0.130,0.000,0.000,0.000
1641221162077666048,2022-01-03-14:46:02,10.1.1.2,194,-0.110,-0.110,-0.110,0.000,0.000,0.000
1641221162480294912,2022-01-03-14:46:02,10.1.1.2,195,-0.090,-0.090,-0.090,0.000,0.000,0.000
1641221162677992960,2022-01-03-14:46:02,10.1.1.2,183,-0.080,-0.080,-0.080,0.000,0.000,0.000
1641221162878680064,2022-01-03-14:46:02,10.1.1.2,183,-0.070,-0.070,-0.070,0.000,0.000,0.000
1641221163086668032,2022-01-03-14:46:03,10.1.1.2,185,-0.060,-0.060,-0.060,0.000,0.000,0.000
1641221163279755008,2022-01-03-14:46:03,10.1.1.2,183,-0.050,-0.050,-0.050,0.000,0.000,0.000
1641221163478113024,2022-01-03-14:46:03,10.1.1.2,180,-0.040,-0.040,-0.040,0.000,0.000,0.000
1641221163899643904,2022-01-03-14:46:03,10.1.1.2,200,-0.020,-0.020,-0.020,0.000,0.000,0.000
1641221164092482048,2022-01-03-14:46:04,10.1.1.2,192,-0.010,-0.010,-0.010,0.000,0.000,0.000
1641221164300242944,2022-01-03-14:46:04,10.1.1.2,199,0.000,0.000,0.000,0.000,0.000,0.000
1641221164504945920,2022-01-03-14:46:04,10.1.1.2,200,-0.010,-0.010,-0.010,0.000,0.000,0.000
1641221164701998080,2022-01-03-14:46:04,10.1.1.2,185,-0.020,-0.020,-0.020,0.000,0.000,0.000
1641221164920103168,2022-01-03-14:46:04,10.1.1.2,199,-0.030,-0.030,-0.030,0.000,0.000,0.000
1641221165119504896,2022-01-03-14:46:05,10.1.1.2,199,-0.040,-0.040,-0.040,0.000,0.000,0.000
1641221165519846912,2022-01-03-14:46:05,10.1.1.2,194,-0.060,-0.060,-0.060,0.000,0.000,0.000
1641221165719369984,2022-01-03-14:46:05,10.1.1.2,192,-0.070,-0.070,-0.070,0.000,0.000,0.000
1641221165918550016,2022-01-03-14:46:05,10.1.1.2,191,-0.080,-0.080,-0.080,0.000,0.000,0.000
1641221166119944960,2022-01-03-14:46:06,10.1.1.2,192,-0.090,-0.090,-0.090,0.000,0.000,0.000
1641221166318455808,2022-01-03-14:46:06,10.1.1.2,189,-0.100,-0.100,-0.100,0.000,0.000,0.000
1641221166520205056,2022-01-03-14:46:06,10.1.1.2,191,-0.110,-0.110,-0.110,0.000,0.000,0.000
1641221166718103808,2022-01-03-14:46:06,10.1.1.2,188,-0.120,-0.120,-0.120,0.000,0.000,0.000
1641221166918481152,2022-01-03-14:46:06,10.1.1.2,188,-0.130,-0.130,-0.130,0.000,0.000,0.000
1641221167118139904,2022-01-03-14:46:07,10.1.1.2,187,-0.140,-0.140,-0.140,0.000,0.000,0.000
1641221167318365184,2022-01-03-14:46:07,10.1.1.2,186,-0.150,-0.150,-0.150,0.000,0.000,0.000
1641221167519119872,2022-01-03-14:46:07,10.1.1.2,187,-0.160,-0.160,-0.160,0.000,0.000,0.000
1641221167717825792,2022-01-03-14:46:07,10.1.1.2,185,-0.170,-0.170,-0.170,0.000,0.000,0.000
1641221167920008960,2022-01-03-14:46:07,10.1.1.2,186,-0.180,-0.180,-0.180,0.000,0.000,0.000
1641221168117507072,2022-01-03-14:46:08,10.1.1.2,183,-0.190,-0.190,-0.190,0.000,0.000,0.000
1641221168319165952,2022-01-03-14:46:08,10.1.1.2,184,-0.200,-0.200,-0.200,0.000,0.000,0.000
1641221168517395968,2022-01-03-14:46:08,10.1.1.2,181,-0.210,-0.210,-0.210,0.000,0.000,0.000
1641221168717065984,2022-01-03-14:46:08,10.1.1.2,181,-0.220,-0.220,-0.220,0.000,0.000,0.000
1641221168918114816,2022-01-03-14:46:08,10.1.1.2,181,-0.230,-0.230,-0.230,0.000,0.000,0.000
1641221169138469888,2022-01-03-14:46:09,10.1.1.2,198,-0.240,-0.240,-0.240,0.000,0.000,0.000
1641221169336529920,2022-01-03-14:46:09,10.1.1.2,195,-0.250,-0.250,-0.250,0.000,0.000,0.000
1641221169541353984,2022-01-03-14:46:09,10.1.1.2,199,-0.260,-0.260,-0.260,0.000,0.000,0.000
1641221169737242880,2022-01-03-14:46:09,10.1.1.2,194,-0.270,-0.270,-0.270,0.000,0.000,0.000
1641221169936017152,2022-01-03-14:46:09,10.1.1.2,193,-0.280,-0.280,-0.280,0.000,0.000,0.000
1641221170137639168,2022-01-03-14:46:10,10.1.1.2,193,-0.290,-0.290,-0.290,0.000,0.000,0.000
1641221170336588032,2022-01-03-14:46:10,10.1.1.2,191,-0.300,-0.300,-0.300,0.000,0.000,0.000
1641221170536367872,2022-01-03-14:46:10,10.1.1.2,190,-0.310,-0.310,-0.310,0.000,0.000,0.000
