FedericoMungari/DigitalTwin_service/01_WiredScenario/Output/Output_script/script_rosapi_2_output_robots4_freq0_3.txt
timestamp,date,node,latency,joint_1,joint_2,joint_3,joint_4,joint_5,joint_6
1644895899338697984,2022-02-15-03:31:39,10.1.1.4,-2,-0.100,-0.100,-0.100,0.000,0.000,-0.000
1644895899418400000,2022-02-15-03:31:39,10.1.1.4,26,-0.090,-0.090,-0.090,0.000,0.000,0.000
1644895899478460160,2022-02-15-03:31:39,10.1.1.4,32,-0.080,-0.080,-0.080,0.000,0.000,0.000
1644895899637175040,2022-02-15-03:31:39,10.1.1.4,39,-0.050,-0.050,-0.050,0.000,0.000,0.000
1644895899677196032,2022-02-15-03:31:39,10.1.1.4,28,-0.040,-0.040,-0.040,0.000,0.000,0.000
1644895899737096192,2022-02-15-03:31:39,10.1.1.4,36,-0.030,-0.030,-0.030,0.000,0.000,0.000
1644895899779052032,2022-02-15-03:31:39,10.1.1.4,25,-0.020,-0.020,-0.020,0.000,0.000,0.000
1644895899837234944,2022-02-15-03:31:39,10.1.1.4,34,-0.010,-0.010,-0.010,0.000,0.000,0.000
1644895899877979136,2022-02-15-03:31:39,10.1.1.4,23,0.000,0.000,0.000,0.000,0.000,0.000
1644895900037532928,2022-02-15-03:31:40,10.1.1.4,28,0.030,0.030,0.030,0.000,0.000,0.000
1644895900097886976,2022-02-15-03:31:40,10.1.1.4,38,0.040,0.040,0.040,0.000,0.000,0.000
1644895900137719040,2022-02-15-03:31:40,10.1.1.4,27,0.050,0.050,0.050,0.000,0.000,0.000
1644895900198131968,2022-02-15-03:31:40,10.1.1.4,37,0.060,0.060,0.060,0.000,0.000,0.000
1644895900237389056,2022-02-15-03:31:40,10.1.1.4,25,0.070,0.070,0.070,0.000,0.000,0.000
1644895900297178112,2022-02-15-03:31:40,10.1.1.4,34,0.080,0.080,0.080,0.000,0.000,0.000
1644895900336698112,2022-02-15-03:31:40,10.1.1.4,23,0.090,0.090,0.090,0.000,0.000,0.000
1644895900398808832,2022-02-15-03:31:40,10.1.1.4,32,0.100,0.100,0.100,0.000,0.000,0.000
1644895900498370816,2022-02-15-03:31:40,10.1.1.4,28,0.080,0.080,0.080,0.000,0.000,0.000
1644895900597125888,2022-02-15-03:31:40,10.1.1.4,26,0.060,0.060,0.060,0.000,0.000,0.000
1644895900718240000,2022-02-15-03:31:40,10.1.1.4,37,0.040,0.040,0.040,0.000,0.000,0.000
1644895900818012928,2022-02-15-03:31:40,10.1.1.4,29,0.020,0.020,0.020,0.000,0.000,0.000
1644895900877352960,2022-02-15-03:31:40,10.1.1.4,36,0.010,0.010,0.010,0.000,0.000,0.000
1644895900918793984,2022-02-15-03:31:40,10.1.1.4,24,0.000,0.000,0.000,0.000,0.000,0.000
1644895900978629120,2022-02-15-03:31:40,10.1.1.4,32,-0.010,-0.010,-0.010,0.000,0.000,0.000
1644895901040976128,2022-02-15-03:31:41,10.1.1.4,38,-0.020,-0.020,-0.020,0.000,0.000,0.000
1644895901078018048,2022-02-15-03:31:41,10.1.1.4,25,-0.030,-0.030,-0.030,0.000,0.000,0.000
1644895901137152000,2022-02-15-03:31:41,10.1.1.4,34,-0.040,-0.040,-0.040,0.000,0.000,0.000
1644895901177662976,2022-02-15-03:31:41,10.1.1.4,24,-0.050,-0.050,-0.050,0.000,0.000,0.000
1644895901299459072,2022-02-15-03:31:41,10.1.1.4,38,-0.070,-0.070,-0.070,0.000,0.000,0.000
1644895901337505024,2022-02-15-03:31:41,10.1.1.4,26,-0.080,-0.080,-0.080,0.000,0.000,0.000
1644895901399933184,2022-02-15-03:31:41,10.1.1.4,33,-0.090,-0.090,-0.090,0.000,0.000,0.000
1644895901478679040,2022-02-15-03:31:41,10.1.1.4,10,-0.090,-0.090,-0.090,0.000,0.000,0.000
1644895901557713152,2022-02-15-03:31:41,10.1.1.4,38,-0.080,-0.080,-0.080,0.000,0.000,0.000
1644895901596879872,2022-02-15-03:31:41,10.1.1.4,27,-0.070,-0.070,-0.070,0.000,0.000,0.000
1644895901657268992,2022-02-15-03:31:41,10.1.1.4,33,-0.060,-0.060,-0.060,0.000,0.000,0.000
1644895901717741056,2022-02-15-03:31:41,10.1.1.4,37,-0.050,-0.050,-0.050,0.000,0.000,0.000
1644895901757431040,2022-02-15-03:31:41,10.1.1.4,24,-0.040,-0.040,-0.040,0.000,0.000,0.000
1644895901817414912,2022-02-15-03:31:41,10.1.1.4,32,-0.030,-0.030,-0.030,0.000,0.000,0.000
1644895901916697856,2022-02-15-03:31:41,10.1.1.4,29,-0.010,-0.010,-0.010,0.000,0.000,0.000
1644895901977752832,2022-02-15-03:31:41,10.1.1.4,38,0.000,0.000,0.000,0.000,0.000,0.000
1644895902017568000,2022-02-15-03:31:42,10.1.1.4,27,0.010,0.010,0.010,0.000,0.000,0.000
1644895902078161920,2022-02-15-03:31:42,10.1.1.4,36,0.020,0.020,0.020,0.000,0.000,0.000
1644895902117507072,2022-02-15-03:31:42,10.1.1.4,25,0.030,0.030,0.030,0.000,0.000,0.000
1644895902177414912,2022-02-15-03:31:42,10.1.1.4,35,0.040,0.040,0.040,0.000,0.000,0.000
1644895902217935104,2022-02-15-03:31:42,10.1.1.4,24,0.050,0.050,0.050,0.000,0.000,0.000
1644895902277480960,2022-02-15-03:31:42,10.1.1.4,32,0.060,0.060,0.060,0.000,0.000,0.000
1644895902418881792,2022-02-15-03:31:42,10.1.1.4,19,0.090,0.090,0.090,0.000,0.000,0.000
1644895902477863168,2022-02-15-03:31:42,10.1.1.4,28,0.100,0.100,0.100,0.000,0.000,0.000
1644895902537666048,2022-02-15-03:31:42,10.1.1.4,38,0.090,0.090,0.090,0.000,0.000,0.000
1644895902577112832,2022-02-15-03:31:42,10.1.1.4,25,0.080,0.080,0.080,0.000,0.000,0.000
1644895902637350144,2022-02-15-03:31:42,10.1.1.4,35,0.070,0.070,0.070,0.000,0.000,0.000
1644895902678096896,2022-02-15-03:31:42,10.1.1.4,24,0.060,0.060,0.060,0.000,0.000,0.000
1644895902777362176,2022-02-15-03:31:42,10.1.1.4,23,0.040,0.040,0.040,0.000,0.000,0.000
1644895902997252096,2022-02-15-03:31:42,10.1.1.4,39,0.000,0.000,0.000,0.000,0.000,0.000
1644895903037946112,2022-02-15-03:31:43,10.1.1.4,29,-0.010,-0.010,-0.010,0.000,0.000,0.000
1644895903097863936,2022-02-15-03:31:43,10.1.1.4,38,-0.020,-0.020,-0.020,0.000,0.000,0.000
1644895903137222144,2022-02-15-03:31:43,10.1.1.4,27,-0.030,-0.030,-0.030,0.000,0.000,0.000
1644895903197891072,2022-02-15-03:31:43,10.1.1.4,36,-0.040,-0.040,-0.040,0.000,0.000,0.000
1644895903238537984,2022-02-15-03:31:43,10.1.1.4,25,-0.050,-0.050,-0.050,0.000,0.000,0.000
1644895903297702144,2022-02-15-03:31:43,10.1.1.4,35,-0.060,-0.060,-0.060,0.000,0.000,0.000
1644895903337799168,2022-02-15-03:31:43,10.1.1.4,24,-0.070,-0.070,-0.070,0.000,0.000,0.000
1644895903396962048,2022-02-15-03:31:43,10.1.1.4,32,-0.080,-0.080,-0.080,0.000,0.000,0.000
1644895903497756928,2022-02-15-03:31:43,10.1.1.4,30,-0.100,-0.100,-0.100,0.000,0.000,0.000
1644895903556695040,2022-02-15-03:31:43,10.1.1.4,39,-0.090,-0.090,-0.090,0.000,0.000,0.000
1644895903598254080,2022-02-15-03:31:43,10.1.1.4,28,-0.080,-0.080,-0.080,0.000,0.000,0.000
1644895903657234944,2022-02-15-03:31:43,10.1.1.4,37,-0.070,-0.070,-0.070,0.000,0.000,0.000
1644895903698563072,2022-02-15-03:31:43,10.1.1.4,26,-0.060,-0.060,-0.060,0.000,0.000,0.000
1644895903757138944,2022-02-15-03:31:43,10.1.1.4,35,-0.050,-0.050,-0.050,0.000,0.000,0.000
1644895903797750016,2022-02-15-03:31:43,10.1.1.4,21,-0.040,-0.040,-0.040,0.000,0.000,0.000
1644895903956582912,2022-02-15-03:31:43,10.1.1.4,29,-0.010,-0.010,-0.010,0.000,0.000,0.000
1644895904017443840,2022-02-15-03:31:44,10.1.1.4,38,0.000,0.000,0.000,0.000,0.000,0.000
1644895904057241856,2022-02-15-03:31:44,10.1.1.4,27,0.010,0.010,0.010,0.000,0.000,0.000
1644895904117093120,2022-02-15-03:31:44,10.1.1.4,36,0.020,0.020,0.020,0.000,0.000,0.000
1644895904156829184,2022-02-15-03:31:44,10.1.1.4,25,0.030,0.030,0.030,0.000,0.000,0.000
1644895904218071040,2022-02-15-03:31:44,10.1.1.4,34,0.040,0.040,0.040,0.000,0.000,0.000
1644895904257453824,2022-02-15-03:31:44,10.1.1.4,23,0.050,0.050,0.050,0.000,0.000,0.000
1644895904317223168,2022-02-15-03:31:44,10.1.1.4,32,0.060,0.060,0.060,0.000,0.000,0.000
1644895904357248000,2022-02-15-03:31:44,10.1.1.4,20,0.070,0.070,0.070,0.000,0.000,0.000
1644895904417529088,2022-02-15-03:31:44,10.1.1.4,29,0.080,0.080,0.080,0.000,0.000,0.000
1644895904477730048,2022-02-15-03:31:44,10.1.1.4,38,0.090,0.090,0.090,0.000,0.000,0.000
1644895904516647168,2022-02-15-03:31:44,10.1.1.4,27,0.100,0.100,0.100,0.000,0.000,0.000
1644895904576493056,2022-02-15-03:31:44,10.1.1.4,37,0.090,0.090,0.090,0.000,0.000,0.000
1644895904616869888,2022-02-15-03:31:44,10.1.1.4,25,0.080,0.080,0.080,0.000,0.000,0.000
1644895904676666112,2022-02-15-03:31:44,10.1.1.4,35,0.070,0.070,0.070,0.000,0.000,0.000
1644895904717263104,2022-02-15-03:31:44,10.1.1.4,24,0.060,0.060,0.060,0.000,0.000,0.000
1644895904777105152,2022-02-15-03:31:44,10.1.1.4,34,0.050,0.050,0.050,0.000,0.000,0.000
1644895904817528064,2022-02-15-03:31:44,10.1.1.4,22,0.040,0.040,0.040,0.000,0.000,0.000
1644895904877316864,2022-02-15-03:31:44,10.1.1.4,31,0.030,0.030,0.030,0.000,0.000,0.000
1644895904977335040,2022-02-15-03:31:44,10.1.1.4,30,0.010,0.010,0.010,0.000,0.000,0.000
1644895905037424128,2022-02-15-03:31:45,10.1.1.4,39,0.000,0.000,0.000,0.000,0.000,0.000
1644895905076807936,2022-02-15-03:31:45,10.1.1.4,28,-0.010,-0.010,-0.010,0.000,0.000,0.000
1644895905137298944,2022-02-15-03:31:45,10.1.1.4,37,-0.020,-0.020,-0.020,0.000,0.000,0.000
1644895905177143040,2022-02-15-03:31:45,10.1.1.4,26,-0.030,-0.030,-0.030,0.000,0.000,0.000
1644895905237196800,2022-02-15-03:31:45,10.1.1.4,36,-0.040,-0.040,-0.040,0.000,0.000,0.000
1644895905282761984,2022-02-15-03:31:45,10.1.1.4,24,-0.050,-0.050,-0.050,0.000,0.000,0.000
1644895905336666112,2022-02-15-03:31:45,10.1.1.4,33,-0.060,-0.060,-0.060,0.000,0.000,0.000
1644895905377065984,2022-02-15-03:31:45,10.1.1.4,22,-0.070,-0.070,-0.070,0.000,0.000,0.000
1644895905437424896,2022-02-15-03:31:45,10.1.1.4,31,-0.080,-0.080,-0.080,0.000,0.000,0.000
1644895905536771072,2022-02-15-03:31:45,10.1.1.4,29,-0.100,-0.100,-0.100,0.000,0.000,0.000
1644895905599075072,2022-02-15-03:31:45,10.1.1.4,38,-0.090,-0.090,-0.090,0.000,0.000,0.000
1644895905636933120,2022-02-15-03:31:45,10.1.1.4,27,-0.080,-0.080,-0.080,0.000,0.000,0.000
1644895905697190144,2022-02-15-03:31:45,10.1.1.4,31,-0.070,-0.070,-0.070,0.000,0.000,0.000
1644895905796928768,2022-02-15-03:31:45,10.1.1.4,29,-0.050,-0.050,-0.050,0.000,0.000,0.000
1644895905857220864,2022-02-15-03:31:45,10.1.1.4,38,-0.040,-0.040,-0.040,0.000,0.000,0.000
1644895905897576192,2022-02-15-03:31:45,10.1.1.4,25,-0.030,-0.030,-0.030,0.000,0.000,0.000
1644895906016967936,2022-02-15-03:31:46,10.1.1.4,39,-0.010,-0.010,-0.010,0.000,0.000,0.000
1644895906056603904,2022-02-15-03:31:46,10.1.1.4,28,0.000,0.000,0.000,0.000,0.000,0.000
1644895906117701888,2022-02-15-03:31:46,10.1.1.4,37,0.010,0.010,0.010,0.000,0.000,0.000
1644895906157594880,2022-02-15-03:31:46,10.1.1.4,26,0.020,0.020,0.020,0.000,0.000,0.000
1644895906217538048,2022-02-15-03:31:46,10.1.1.4,36,0.030,0.030,0.030,0.000,0.000,0.000
1644895906257415936,2022-02-15-03:31:46,10.1.1.4,25,0.040,0.040,0.040,0.000,0.000,0.000
1644895906317408000,2022-02-15-03:31:46,10.1.1.4,34,0.050,0.050,0.050,0.000,0.000,0.000
1644895906516963072,2022-02-15-03:31:46,10.1.1.4,29,0.090,0.090,0.090,0.000,0.000,0.000
1644895906577712896,2022-02-15-03:31:46,10.1.1.4,38,0.100,0.100,0.100,0.000,0.000,0.000
1644895906616919040,2022-02-15-03:31:46,10.1.1.4,27,0.090,0.090,0.090,0.000,0.000,0.000
1644895906677377024,2022-02-15-03:31:46,10.1.1.4,36,0.080,0.080,0.080,0.000,0.000,0.000
1644895906717218048,2022-02-15-03:31:46,10.1.1.4,25,0.070,0.070,0.070,0.000,0.000,0.000
1644895906777633792,2022-02-15-03:31:46,10.1.1.4,34,0.060,0.060,0.060,0.000,0.000,0.000
1644895906817338880,2022-02-15-03:31:46,10.1.1.4,21,0.050,0.050,0.050,0.000,0.000,0.000
1644895906937545984,2022-02-15-03:31:46,10.1.1.4,38,0.030,0.030,0.030,0.000,0.000,0.000
1644895906978380800,2022-02-15-03:31:46,10.1.1.4,26,0.020,0.020,0.020,0.000,0.000,0.000
1644895907037905920,2022-02-15-03:31:47,10.1.1.4,35,0.010,0.010,0.010,0.000,0.000,0.000
1644895907077794048,2022-02-15-03:31:47,10.1.1.4,24,0.000,0.000,0.000,0.000,0.000,0.000
1644895907197650944,2022-02-15-03:31:47,10.1.1.4,37,-0.020,-0.020,-0.020,0.000,0.000,0.000
1644895907237082880,2022-02-15-03:31:47,10.1.1.4,25,-0.030,-0.030,-0.030,0.000,0.000,0.000
1644895907296637952,2022-02-15-03:31:47,10.1.1.4,35,-0.040,-0.040,-0.040,0.000,0.000,0.000
1644895907336957952,2022-02-15-03:31:47,10.1.1.4,24,-0.050,-0.050,-0.050,0.000,0.000,0.000
1644895907397975040,2022-02-15-03:31:47,10.1.1.4,32,-0.060,-0.060,-0.060,0.000,0.000,0.000
1644895907558438144,2022-02-15-03:31:47,10.1.1.4,38,-0.090,-0.090,-0.090,0.000,0.000,0.000
1644895907597292032,2022-02-15-03:31:47,10.1.1.4,28,-0.100,-0.100,-0.100,0.000,0.000,0.000
1644895907656838912,2022-02-15-03:31:47,10.1.1.4,36,-0.090,-0.090,-0.090,0.000,0.000,0.000
1644895907697892864,2022-02-15-03:31:47,10.1.1.4,25,-0.080,-0.080,-0.080,0.000,0.000,0.000
1644895907756808960,2022-02-15-03:31:47,10.1.1.4,33,-0.070,-0.070,-0.070,0.000,0.000,0.000
1644895907918211072,2022-02-15-03:31:47,10.1.1.4,37,-0.040,-0.040,-0.040,0.000,0.000,0.000
1644895907957259776,2022-02-15-03:31:47,10.1.1.4,25,-0.030,-0.030,-0.030,0.000,0.000,0.000
1644895908017745920,2022-02-15-03:31:48,10.1.1.4,33,-0.020,-0.020,-0.020,0.000,0.000,0.000
1644895908178695936,2022-02-15-03:31:48,10.1.1.4,37,0.010,0.010,0.010,0.000,0.000,0.000
1644895908277904128,2022-02-15-03:31:48,10.1.1.4,34,0.030,0.030,0.030,0.000,0.000,0.000
1644895908318224896,2022-02-15-03:31:48,10.1.1.4,24,0.040,0.040,0.040,0.000,0.000,0.000
1644895908377751040,2022-02-15-03:31:48,10.1.1.4,33,0.050,0.050,0.050,0.000,0.000,0.000
1644895908517400064,2022-02-15-03:31:48,10.1.1.4,19,0.080,0.080,0.080,0.000,0.000,0.000
1644895908580302848,2022-02-15-03:31:48,10.1.1.4,28,0.090,0.090,0.090,0.000,0.000,0.000
1644895908638210048,2022-02-15-03:31:48,10.1.1.4,37,0.100,0.100,0.100,0.000,0.000,0.000
1644895908677185024,2022-02-15-03:31:48,10.1.1.4,25,0.090,0.090,0.090,0.000,0.000,0.000
1644895908737373952,2022-02-15-03:31:48,10.1.1.4,34,0.080,0.080,0.080,0.000,0.000,0.000
1644895908897092096,2022-02-15-03:31:48,10.1.1.4,38,0.050,0.050,0.050,0.000,0.000,0.000
1644895908937665024,2022-02-15-03:31:48,10.1.1.4,27,0.040,0.040,0.040,0.000,0.000,0.000
1644895908997091072,2022-02-15-03:31:48,10.1.1.4,35,0.030,0.030,0.030,0.000,0.000,0.000
1644895909037390080,2022-02-15-03:31:49,10.1.1.4,24,0.020,0.020,0.020,0.000,0.000,0.000
1644895909157088000,2022-02-15-03:31:49,10.1.1.4,39,0.000,0.000,0.000,0.000,0.000,0.000
1644895909197760000,2022-02-15-03:31:49,10.1.1.4,27,-0.010,-0.010,-0.010,0.000,0.000,0.000
1644895909257292032,2022-02-15-03:31:49,10.1.1.4,36,-0.020,-0.020,-0.020,0.000,0.000,0.000
1644895909297611008,2022-02-15-03:31:49,10.1.1.4,25,-0.030,-0.030,-0.030,0.000,0.000,0.000
1644895909357906944,2022-02-15-03:31:49,10.1.1.4,33,-0.040,-0.040,-0.040,0.000,0.000,0.000
1644895909397396992,2022-02-15-03:31:49,10.1.1.4,23,-0.050,-0.050,-0.050,0.000,0.000,0.000
1644895909517203200,2022-02-15-03:31:49,10.1.1.4,39,-0.070,-0.070,-0.070,0.000,0.000,0.000
1644895909558220032,2022-02-15-03:31:49,10.1.1.4,27,-0.080,-0.080,-0.080,0.000,0.000,0.000
1644895909617485056,2022-02-15-03:31:49,10.1.1.4,36,-0.090,-0.090,-0.090,0.000,0.000,0.000
1644895909657680128,2022-02-15-03:31:49,10.1.1.4,25,-0.100,-0.100,-0.100,0.000,0.000,0.000
1644895909717645056,2022-02-15-03:31:49,10.1.1.4,33,-0.090,-0.090,-0.090,0.000,0.000,0.000
1644895909817796096,2022-02-15-03:31:49,10.1.1.4,28,-0.070,-0.070,-0.070,0.000,0.000,0.000
1644895909877363968,2022-02-15-03:31:49,10.1.1.4,37,-0.060,-0.060,-0.060,0.000,0.000,0.000
1644895909917957120,2022-02-15-03:31:49,10.1.1.4,26,-0.050,-0.050,-0.050,0.000,0.000,0.000
1644895909977516032,2022-02-15-03:31:49,10.1.1.4,36,-0.040,-0.040,-0.040,0.000,0.000,0.000
1644895910017495040,2022-02-15-03:31:50,10.1.1.4,25,-0.030,-0.030,-0.030,0.000,0.000,0.000
1644895910077590016,2022-02-15-03:31:50,10.1.1.4,34,-0.020,-0.020,-0.020,0.000,0.000,0.000
1644895910116827904,2022-02-15-03:31:50,10.1.1.4,24,-0.010,-0.010,-0.010,0.000,0.000,0.000
1644895910177443072,2022-02-15-03:31:50,10.1.1.4,33,0.000,0.000,0.000,0.000,0.000,0.000
1644895910217721088,2022-02-15-03:31:50,10.1.1.4,22,0.010,0.010,0.010,0.000,0.000,0.000
1644895910377742080,2022-02-15-03:31:50,10.1.1.4,30,0.040,0.040,0.040,0.000,0.000,0.000
1644895910437339904,2022-02-15-03:31:50,10.1.1.4,39,0.050,0.050,0.050,0.000,0.000,0.000
1644895910477502976,2022-02-15-03:31:50,10.1.1.4,28,0.060,0.060,0.060,0.000,0.000,0.000
1644895910536793088,2022-02-15-03:31:50,10.1.1.4,37,0.070,0.070,0.070,0.000,0.000,0.000
1644895910578752000,2022-02-15-03:31:50,10.1.1.4,26,0.080,0.080,0.080,0.000,0.000,0.000
1644895910637566976,2022-02-15-03:31:50,10.1.1.4,35,0.090,0.090,0.090,0.000,0.000,0.000
1644895910677558016,2022-02-15-03:31:50,10.1.1.4,25,0.100,0.100,0.100,0.000,0.000,0.000
1644895910737595136,2022-02-15-03:31:50,10.1.1.4,34,0.090,0.090,0.090,0.000,0.000,0.000
1644895910777092864,2022-02-15-03:31:50,10.1.1.4,22,0.080,0.080,0.080,0.000,0.000,0.000
1644895910997399040,2022-02-15-03:31:50,10.1.1.4,38,0.040,0.040,0.040,0.000,0.000,0.000
1644895911036892928,2022-02-15-03:31:51,10.1.1.4,25,0.030,0.030,0.030,0.000,0.000,0.000
1644895911097788160,2022-02-15-03:31:51,10.1.1.4,34,0.020,0.020,0.020,0.000,0.000,0.000
1644895911137088000,2022-02-15-03:31:51,10.1.1.4,23,0.010,0.010,0.010,0.000,0.000,0.000
1644895911197551872,2022-02-15-03:31:51,10.1.1.4,33,0.000,0.000,0.000,0.000,0.000,0.000
1644895911239036928,2022-02-15-03:31:51,10.1.1.4,24,-0.010,-0.010,-0.010,0.000,0.000,0.000
1644895911356856064,2022-02-15-03:31:51,10.1.1.4,39,-0.030,-0.030,-0.030,0.000,0.000,0.000
1644895911396083200,2022-02-15-03:31:51,10.1.1.4,28,-0.040,-0.040,-0.040,0.000,0.000,0.000
1644895911456774912,2022-02-15-03:31:51,10.1.1.4,38,-0.050,-0.050,-0.050,0.000,0.000,0.000
1644895911497314048,2022-02-15-03:31:51,10.1.1.4,28,-0.060,-0.060,-0.060,0.000,0.000,0.000
1644895911557270016,2022-02-15-03:31:51,10.1.1.4,37,-0.070,-0.070,-0.070,0.000,0.000,0.000
1644895911597913856,2022-02-15-03:31:51,10.1.1.4,26,-0.080,-0.080,-0.080,0.000,0.000,0.000
1644895911657625856,2022-02-15-03:31:51,10.1.1.4,35,-0.090,-0.090,-0.090,0.000,0.000,0.000
1644895911697726976,2022-02-15-03:31:51,10.1.1.4,24,-0.100,-0.100,-0.100,0.000,0.000,0.000
1644895911757364992,2022-02-15-03:31:51,10.1.1.4,33,-0.090,-0.090,-0.090,0.000,0.000,0.000
1644895911797216768,2022-02-15-03:31:51,10.1.1.4,21,-0.080,-0.080,-0.080,0.000,0.000,0.000
1644895911957304832,2022-02-15-03:31:51,10.1.1.4,29,-0.050,-0.050,-0.050,0.000,0.000,0.000
1644895912017812992,2022-02-15-03:31:52,10.1.1.4,38,-0.040,-0.040,-0.040,0.000,0.000,0.000
1644895912057376000,2022-02-15-03:31:52,10.1.1.4,27,-0.030,-0.030,-0.030,0.000,0.000,0.000
1644895912117417216,2022-02-15-03:31:52,10.1.1.4,36,-0.020,-0.020,-0.020,0.000,0.000,0.000
1644895912157180928,2022-02-15-03:31:52,10.1.1.4,25,-0.010,-0.010,-0.010,0.000,0.000,0.000
1644895912217607936,2022-02-15-03:31:52,10.1.1.4,35,0.000,0.000,0.000,0.000,0.000,0.000
1644895912257273856,2022-02-15-03:31:52,10.1.1.4,24,0.010,0.010,0.010,0.000,0.000,0.000
1644895912318653952,2022-02-15-03:31:52,10.1.1.4,32,0.020,0.020,0.020,0.000,0.000,0.000
1644895912477745152,2022-02-15-03:31:52,10.1.1.4,39,0.050,0.050,0.050,0.000,0.000,0.000
1644895912520374016,2022-02-15-03:31:52,10.1.1.4,29,0.060,0.060,0.060,0.000,0.000,0.000
1644895912577421056,2022-02-15-03:31:52,10.1.1.4,37,0.070,0.070,0.070,0.000,0.000,0.000
1644895912617144064,2022-02-15-03:31:52,10.1.1.4,27,0.080,0.080,0.080,0.000,0.000,0.000
1644895912677238016,2022-02-15-03:31:52,10.1.1.4,36,0.090,0.090,0.090,0.000,0.000,0.000
1644895912717582848,2022-02-15-03:31:52,10.1.1.4,25,0.100,0.100,0.100,0.000,0.000,0.000
1644895912777810176,2022-02-15-03:31:52,10.1.1.4,34,0.090,0.090,0.090,0.000,0.000,0.000
1644895912817666048,2022-02-15-03:31:52,10.1.1.4,21,0.080,0.080,0.080,0.000,0.000,0.000
1644895912876951808,2022-02-15-03:31:52,10.1.1.4,31,0.070,0.070,0.070,0.000,0.000,0.000
1644895912937463040,2022-02-15-03:31:52,10.1.1.4,38,0.060,0.060,0.060,0.000,0.000,0.000
1644895912976784896,2022-02-15-03:31:52,10.1.1.4,28,0.050,0.050,0.050,0.000,0.000,0.000
1644895913037810176,2022-02-15-03:31:53,10.1.1.4,37,0.040,0.040,0.040,0.000,0.000,0.000
1644895913077511168,2022-02-15-03:31:53,10.1.1.4,26,0.030,0.030,0.030,0.000,0.000,0.000
1644895913137420032,2022-02-15-03:31:53,10.1.1.4,36,0.020,0.020,0.020,0.000,0.000,0.000
1644895913178544896,2022-02-15-03:31:53,10.1.1.4,25,0.010,0.010,0.010,0.000,0.000,0.000
1644895913237582848,2022-02-15-03:31:53,10.1.1.4,34,0.000,0.000,0.000,0.000,0.000,0.000
1644895913277122048,2022-02-15-03:31:53,10.1.1.4,23,-0.010,-0.010,-0.010,0.000,0.000,0.000
1644895913336476928,2022-02-15-03:31:53,10.1.1.4,32,-0.020,-0.020,-0.020,0.000,0.000,0.000
1644895913499203840,2022-02-15-03:31:53,10.1.1.4,39,-0.050,-0.050,-0.050,0.000,0.000,0.000
1644895913537606912,2022-02-15-03:31:53,10.1.1.4,28,-0.060,-0.060,-0.060,0.000,0.000,0.000
1644895913598010112,2022-02-15-03:31:53,10.1.1.4,37,-0.070,-0.070,-0.070,0.000,0.000,0.000
1644895913637466880,2022-02-15-03:31:53,10.1.1.4,26,-0.080,-0.080,-0.080,0.000,0.000,0.000
1644895913698099968,2022-02-15-03:31:53,10.1.1.4,36,-0.090,-0.090,-0.090,0.000,0.000,0.000
1644895913736950016,2022-02-15-03:31:53,10.1.1.4,25,-0.100,-0.100,-0.100,0.000,0.000,0.000
1644895913798904064,2022-02-15-03:31:53,10.1.1.4,34,-0.090,-0.090,-0.090,0.000,0.000,0.000
1644895913836776960,2022-02-15-03:31:53,10.1.1.4,24,-0.080,-0.080,-0.080,0.000,0.000,0.000
1644895913897492992,2022-02-15-03:31:53,10.1.1.4,30,-0.070,-0.070,-0.070,0.000,0.000,0.000
1644895913958192128,2022-02-15-03:31:53,10.1.1.4,39,-0.060,-0.060,-0.060,0.000,0.000,0.000
1644895913997550080,2022-02-15-03:31:53,10.1.1.4,28,-0.050,-0.050,-0.050,0.000,0.000,0.000
1644895914057179904,2022-02-15-03:31:54,10.1.1.4,37,-0.040,-0.040,-0.040,0.000,0.000,0.000
1644895914096944128,2022-02-15-03:31:54,10.1.1.4,26,-0.030,-0.030,-0.030,0.000,0.000,0.000
1644895914157376000,2022-02-15-03:31:54,10.1.1.4,35,-0.020,-0.020,-0.020,0.000,0.000,0.000
1644895914196965888,2022-02-15-03:31:54,10.1.1.4,25,-0.010,-0.010,-0.010,0.000,0.000,0.000
1644895914257414144,2022-02-15-03:31:54,10.1.1.4,34,0.000,0.000,0.000,0.000,0.000,0.000
1644895914297636864,2022-02-15-03:31:54,10.1.1.4,24,0.010,0.010,0.010,0.000,0.000,0.000
1644895914357357056,2022-02-15-03:31:54,10.1.1.4,32,0.020,0.020,0.020,0.000,0.000,0.000
1644895914517960192,2022-02-15-03:31:54,10.1.1.4,39,0.050,0.050,0.050,0.000,0.000,0.000
1644895914557267968,2022-02-15-03:31:54,10.1.1.4,29,0.060,0.060,0.060,0.000,0.000,0.000
1644895914620687872,2022-02-15-03:31:54,10.1.1.4,38,0.070,0.070,0.070,0.000,0.000,0.000
1644895914657645824,2022-02-15-03:31:54,10.1.1.4,27,0.080,0.080,0.080,0.000,0.000,0.000
1644895914717867008,2022-02-15-03:31:54,10.1.1.4,36,0.090,0.090,0.090,0.000,0.000,0.000
1644895914757661184,2022-02-15-03:31:54,10.1.1.4,24,0.100,0.100,0.100,0.000,0.000,0.000
1644895914816768768,2022-02-15-03:31:54,10.1.1.4,33,0.090,0.090,0.090,0.000,0.000,0.000
1644895914978272000,2022-02-15-03:31:54,10.1.1.4,39,0.060,0.060,0.060,0.000,0.000,0.000
1644895915018385920,2022-02-15-03:31:55,10.1.1.4,27,0.050,0.050,0.050,0.000,0.000,0.000
1644895915077444096,2022-02-15-03:31:55,10.1.1.4,37,0.040,0.040,0.040,0.000,0.000,0.000
1644895915117654016,2022-02-15-03:31:55,10.1.1.4,26,0.030,0.030,0.030,0.000,0.000,0.000
1644895915177194240,2022-02-15-03:31:55,10.1.1.4,35,0.020,0.020,0.020,0.000,0.000,0.000
1644895915216728832,2022-02-15-03:31:55,10.1.1.4,25,0.010,0.010,0.010,0.000,0.000,0.000
1644895915277636096,2022-02-15-03:31:55,10.1.1.4,34,0.000,0.000,0.000,0.000,0.000,0.000
1644895915316838912,2022-02-15-03:31:55,10.1.1.4,23,-0.010,-0.010,-0.010,0.000,0.000,0.000
1644895915376673024,2022-02-15-03:31:55,10.1.1.4,32,-0.020,-0.020,-0.020,0.000,0.000,0.000
1644895915477497088,2022-02-15-03:31:55,10.1.1.4,29,-0.040,-0.040,-0.040,0.000,0.000,0.000
1644895915536939008,2022-02-15-03:31:55,10.1.1.4,38,-0.050,-0.050,-0.050,0.000,0.000,0.000
1644895915577115136,2022-02-15-03:31:55,10.1.1.4,27,-0.060,-0.060,-0.060,0.000,0.000,0.000
1644895915637057024,2022-02-15-03:31:55,10.1.1.4,35,-0.070,-0.070,-0.070,0.000,0.000,0.000
1644895915676801024,2022-02-15-03:31:55,10.1.1.4,24,-0.080,-0.080,-0.080,0.000,0.000,0.000
1644895915737752064,2022-02-15-03:31:55,10.1.1.4,33,-0.090,-0.090,-0.090,0.000,0.000,0.000
1644895915816910080,2022-02-15-03:31:55,10.1.1.4,10,-0.090,-0.090,-0.090,0.000,0.000,0.000
1644895915897660928,2022-02-15-03:31:55,10.1.1.4,39,-0.080,-0.080,-0.080,0.000,0.000,0.000
1644895915937299968,2022-02-15-03:31:55,10.1.1.4,28,-0.070,-0.070,-0.070,0.000,0.000,0.000
1644895915997293824,2022-02-15-03:31:55,10.1.1.4,37,-0.060,-0.060,-0.060,0.000,0.000,0.000
1644895916038471936,2022-02-15-03:31:56,10.1.1.4,26,-0.050,-0.050,-0.050,0.000,0.000,0.000
1644895916097989120,2022-02-15-03:31:56,10.1.1.4,36,-0.040,-0.040,-0.040,0.000,0.000,0.000
1644895916136867072,2022-02-15-03:31:56,10.1.1.4,25,-0.030,-0.030,-0.030,0.000,0.000,0.000
1644895916198308864,2022-02-15-03:31:56,10.1.1.4,33,-0.020,-0.020,-0.020,0.000,0.000,0.000
1644895916297713920,2022-02-15-03:31:56,10.1.1.4,29,0.000,0.000,0.000,0.000,0.000,0.000
1644895916358542848,2022-02-15-03:31:56,10.1.1.4,38,0.010,0.010,0.010,0.000,0.000,0.000
1644895916396836096,2022-02-15-03:31:56,10.1.1.4,27,0.020,0.020,0.020,0.000,0.000,0.000
1644895916457145856,2022-02-15-03:31:56,10.1.1.4,36,0.030,0.030,0.030,0.000,0.000,0.000
1644895916497980160,2022-02-15-03:31:56,10.1.1.4,25,0.040,0.040,0.040,0.000,0.000,0.000
1644895916657591040,2022-02-15-03:31:56,10.1.1.4,27,0.070,0.070,0.070,0.000,0.000,0.000
1644895916718817024,2022-02-15-03:31:56,10.1.1.4,36,0.080,0.080,0.080,0.000,0.000,0.000
1644895916757345792,2022-02-15-03:31:56,10.1.1.4,25,0.090,0.090,0.090,0.000,0.000,0.000
1644895916817688832,2022-02-15-03:31:56,10.1.1.4,34,0.100,0.100,0.100,0.000,0.000,0.000
1644895916857331968,2022-02-15-03:31:56,10.1.1.4,24,0.090,0.090,0.090,0.000,0.000,0.000
1644895916919339008,2022-02-15-03:31:56,10.1.1.4,32,0.080,0.080,0.080,0.000,0.000,0.000
1644895916977336832,2022-02-15-03:31:56,10.1.1.4,39,0.070,0.070,0.070,0.000,0.000,0.000
1644895917016962048,2022-02-15-03:31:57,10.1.1.4,28,0.060,0.060,0.060,0.000,0.000,0.000
1644895917077505024,2022-02-15-03:31:57,10.1.1.4,37,0.050,0.050,0.050,0.000,0.000,0.000
1644895917117445120,2022-02-15-03:31:57,10.1.1.4,26,0.040,0.040,0.040,0.000,0.000,0.000
1644895917177460992,2022-02-15-03:31:57,10.1.1.4,35,0.030,0.030,0.030,0.000,0.000,0.000
1644895917217724928,2022-02-15-03:31:57,10.1.1.4,25,0.020,0.020,0.020,0.000,0.000,0.000
1644895917277223168,2022-02-15-03:31:57,10.1.1.4,32,0.010,0.010,0.010,0.000,0.000,0.000
1644895917477287168,2022-02-15-03:31:57,10.1.1.4,29,-0.030,-0.030,-0.030,0.000,0.000,0.000
1644895917537276928,2022-02-15-03:31:57,10.1.1.4,37,-0.040,-0.040,-0.040,0.000,0.000,0.000
1644895917578274048,2022-02-15-03:31:57,10.1.1.4,26,-0.050,-0.050,-0.050,0.000,0.000,0.000
1644895917637156096,2022-02-15-03:31:57,10.1.1.4,35,-0.060,-0.060,-0.060,0.000,0.000,0.000
1644895917677299968,2022-02-15-03:31:57,10.1.1.4,24,-0.070,-0.070,-0.070,0.000,0.000,0.000
1644895917897559808,2022-02-15-03:31:57,10.1.1.4,37,-0.090,-0.090,-0.090,0.000,0.000,0.000
1644895917937614848,2022-02-15-03:31:57,10.1.1.4,26,-0.080,-0.080,-0.080,0.000,0.000,0.000
1644895917997370112,2022-02-15-03:31:57,10.1.1.4,34,-0.070,-0.070,-0.070,0.000,0.000,0.000
1644895918037681152,2022-02-15-03:31:58,10.1.1.4,22,-0.060,-0.060,-0.060,0.000,0.000,0.000
1644895918158340096,2022-02-15-03:31:58,10.1.1.4,39,-0.040,-0.040,-0.040,0.000,0.000,0.000
1644895918198385920,2022-02-15-03:31:58,10.1.1.4,28,-0.030,-0.030,-0.030,0.000,0.000,0.000
1644895918257541888,2022-02-15-03:31:58,10.1.1.4,36,-0.020,-0.020,-0.020,0.000,0.000,0.000
1644895918356946944,2022-02-15-03:31:58,10.1.1.4,33,0.000,0.000,0.000,0.000,0.000,0.000
1644895918457711872,2022-02-15-03:31:58,10.1.1.4,29,0.020,0.020,0.020,0.000,0.000,0.000
1644895918517326080,2022-02-15-03:31:58,10.1.1.4,38,0.030,0.030,0.030,0.000,0.000,0.000
1644895918559341056,2022-02-15-03:31:58,10.1.1.4,27,0.040,0.040,0.040,0.000,0.000,0.000
1644895918616740096,2022-02-15-03:31:58,10.1.1.4,36,0.050,0.050,0.050,0.000,0.000,0.000
1644895918657047040,2022-02-15-03:31:58,10.1.1.4,25,0.060,0.060,0.060,0.000,0.000,0.000
1644895918716756224,2022-02-15-03:31:58,10.1.1.4,34,0.070,0.070,0.070,0.000,0.000,0.000
1644895918756668928,2022-02-15-03:31:58,10.1.1.4,23,0.080,0.080,0.080,0.000,0.000,0.000
1644895918816931072,2022-02-15-03:31:58,10.1.1.4,32,0.090,0.090,0.090,0.000,0.000,0.000
1644895918897792000,2022-02-15-03:31:58,10.1.1.4,9,0.090,0.090,0.090,0.000,0.000,0.000
1644895918977499904,2022-02-15-03:31:58,10.1.1.4,38,0.080,0.080,0.080,0.000,0.000,0.000
1644895919018657024,2022-02-15-03:31:59,10.1.1.4,25,0.070,0.070,0.070,0.000,0.000,0.000
1644895919076713984,2022-02-15-03:31:59,10.1.1.4,34,0.060,0.060,0.060,0.000,0.000,0.000
1644895919236833024,2022-02-15-03:31:59,10.1.1.4,37,0.030,0.030,0.030,0.000,0.000,0.000
1644895919277509888,2022-02-15-03:31:59,10.1.1.4,24,0.020,0.020,0.020,0.000,0.000,0.000
1644895919337462016,2022-02-15-03:31:59,10.1.1.4,32,0.010,0.010,0.010,0.000,0.000,0.000
1644895919497879040,2022-02-15-03:31:59,10.1.1.4,38,-0.020,-0.020,-0.020,0.000,0.000,0.000
1644895919537080064,2022-02-15-03:31:59,10.1.1.4,28,-0.030,-0.030,-0.030,0.000,0.000,0.000
1644895919598373888,2022-02-15-03:31:59,10.1.1.4,37,-0.040,-0.040,-0.040,0.000,0.000,0.000
1644895919637638144,2022-02-15-03:31:59,10.1.1.4,26,-0.050,-0.050,-0.050,0.000,0.000,0.000
1644895919697937920,2022-02-15-03:31:59,10.1.1.4,34,-0.060,-0.060,-0.060,0.000,0.000,0.000
1644895919736748032,2022-02-15-03:31:59,10.1.1.4,24,-0.070,-0.070,-0.070,0.000,0.000,0.000
1644895919797724928,2022-02-15-03:31:59,10.1.1.4,32,-0.080,-0.080,-0.080,0.000,0.000,0.000
1644895919899142912,2022-02-15-03:31:59,10.1.1.4,28,-0.100,-0.100,-0.100,0.000,0.000,0.000
1644895919958075136,2022-02-15-03:31:59,10.1.1.4,36,-0.090,-0.090,-0.090,0.000,0.000,0.000
1644895919996800000,2022-02-15-03:31:59,10.1.1.4,25,-0.080,-0.080,-0.080,0.000,0.000,0.000
1644895920057463808,2022-02-15-03:32:00,10.1.1.4,33,-0.070,-0.070,-0.070,0.000,0.000,0.000
1644895920157104128,2022-02-15-03:32:00,10.1.1.4,28,-0.050,-0.050,-0.050,0.000,0.000,0.000
1644895920217673984,2022-02-15-03:32:00,10.1.1.4,37,-0.040,-0.040,-0.040,0.000,0.000,0.000
1644895920258791936,2022-02-15-03:32:00,10.1.1.4,27,-0.030,-0.030,-0.030,0.000,0.000,0.000
1644895920318226176,2022-02-15-03:32:00,10.1.1.4,35,-0.020,-0.020,-0.020,0.000,0.000,0.000
1644895920357212928,2022-02-15-03:32:00,10.1.1.4,23,-0.010,-0.010,-0.010,0.000,0.000,0.000
1644895920417929984,2022-02-15-03:32:00,10.1.1.4,32,0.000,0.000,0.000,0.000,0.000,0.000
1644895920577199104,2022-02-15-03:32:00,10.1.1.4,39,0.030,0.030,0.030,0.000,0.000,0.000
1644895920617104128,2022-02-15-03:32:00,10.1.1.4,28,0.040,0.040,0.040,0.000,0.000,0.000
1644895920677571072,2022-02-15-03:32:00,10.1.1.4,37,0.050,0.050,0.050,0.000,0.000,0.000
1644895920716877056,2022-02-15-03:32:00,10.1.1.4,26,0.060,0.060,0.060,0.000,0.000,0.000
1644895920777619968,2022-02-15-03:32:00,10.1.1.4,34,0.070,0.070,0.070,0.000,0.000,0.000
1644895920817416960,2022-02-15-03:32:00,10.1.1.4,24,0.080,0.080,0.080,0.000,0.000,0.000
1644895920877305088,2022-02-15-03:32:00,10.1.1.4,32,0.090,0.090,0.090,0.000,0.000,0.000
1644895920917645824,2022-02-15-03:32:00,10.1.1.4,21,0.100,0.100,0.100,0.000,0.000,0.000
1644895920978236928,2022-02-15-03:32:00,10.1.1.4,30,0.090,0.090,0.090,0.000,0.000,0.000
1644895921077234944,2022-02-15-03:32:01,10.1.1.4,28,0.070,0.070,0.070,0.000,0.000,0.000
1644895921138305792,2022-02-15-03:32:01,10.1.1.4,37,0.060,0.060,0.060,0.000,0.000,0.000
1644895921176738048,2022-02-15-03:32:01,10.1.1.4,25,0.050,0.050,0.050,0.000,0.000,0.000
1644895921237120000,2022-02-15-03:32:01,10.1.1.4,35,0.040,0.040,0.040,0.000,0.000,0.000
1644895921277359104,2022-02-15-03:32:01,10.1.1.4,24,0.030,0.030,0.030,0.000,0.000,0.000
1644895921337297920,2022-02-15-03:32:01,10.1.1.4,31,0.020,0.020,0.020,0.000,0.000,0.000
1644895921496668160,2022-02-15-03:32:01,10.1.1.4,38,-0.010,-0.010,-0.010,0.000,0.000,0.000
1644895921537101056,2022-02-15-03:32:01,10.1.1.4,28,-0.020,-0.020,-0.020,0.000,0.000,0.000
1644895921597171968,2022-02-15-03:32:01,10.1.1.4,37,-0.030,-0.030,-0.030,0.000,0.000,0.000
1644895921636730880,2022-02-15-03:32:01,10.1.1.4,26,-0.040,-0.040,-0.040,0.000,0.000,0.000
1644895921697480960,2022-02-15-03:32:01,10.1.1.4,36,-0.050,-0.050,-0.050,0.000,0.000,0.000
1644895921737431040,2022-02-15-03:32:01,10.1.1.4,25,-0.060,-0.060,-0.060,0.000,0.000,0.000
1644895921797852928,2022-02-15-03:32:01,10.1.1.4,34,-0.070,-0.070,-0.070,0.000,0.000,0.000
1644895921837281024,2022-02-15-03:32:01,10.1.1.4,23,-0.080,-0.080,-0.080,0.000,0.000,0.000
1644895921898430976,2022-02-15-03:32:01,10.1.1.4,32,-0.090,-0.090,-0.090,0.000,0.000,0.000
1644895921937454080,2022-02-15-03:32:01,10.1.1.4,21,-0.100,-0.100,-0.100,0.000,0.000,0.000
1644895922036828928,2022-02-15-03:32:02,10.1.1.4,19,-0.080,-0.080,-0.080,0.000,0.000,0.000
1644895922097424128,2022-02-15-03:32:02,10.1.1.4,28,-0.070,-0.070,-0.070,0.000,0.000,0.000
1644895922156871936,2022-02-15-03:32:02,10.1.1.4,37,-0.060,-0.060,-0.060,0.000,0.000,0.000
1644895922199244032,2022-02-15-03:32:02,10.1.1.4,26,-0.050,-0.050,-0.050,0.000,0.000,0.000
1644895922257559040,2022-02-15-03:32:02,10.1.1.4,35,-0.040,-0.040,-0.040,0.000,0.000,0.000
1644895922297528064,2022-02-15-03:32:02,10.1.1.4,24,-0.030,-0.030,-0.030,0.000,0.000,0.000
1644895922357808128,2022-02-15-03:32:02,10.1.1.4,32,-0.020,-0.020,-0.020,0.000,0.000,0.000
1644895922457200896,2022-02-15-03:32:02,10.1.1.4,28,0.000,0.000,0.000,0.000,0.000,0.000
1644895922517191936,2022-02-15-03:32:02,10.1.1.4,37,0.010,0.010,0.010,0.000,0.000,0.000
1644895922558549760,2022-02-15-03:32:02,10.1.1.4,27,0.020,0.020,0.020,0.000,0.000,0.000
1644895922618288128,2022-02-15-03:32:02,10.1.1.4,35,0.030,0.030,0.030,0.000,0.000,0.000
1644895922656913152,2022-02-15-03:32:02,10.1.1.4,25,0.040,0.040,0.040,0.000,0.000,0.000
1644895922717760000,2022-02-15-03:32:02,10.1.1.4,34,0.050,0.050,0.050,0.000,0.000,0.000
1644895922757946112,2022-02-15-03:32:02,10.1.1.4,23,0.060,0.060,0.060,0.000,0.000,0.000
1644895922818864128,2022-02-15-03:32:02,10.1.1.4,32,0.070,0.070,0.070,0.000,0.000,0.000
1644895922917236992,2022-02-15-03:32:02,10.1.1.4,29,0.090,0.090,0.090,0.000,0.000,0.000
1644895922977332224,2022-02-15-03:32:02,10.1.1.4,39,0.100,0.100,0.100,0.000,0.000,0.000
1644895923017438976,2022-02-15-03:32:03,10.1.1.4,26,0.090,0.090,0.090,0.000,0.000,0.000
1644895923076796160,2022-02-15-03:32:03,10.1.1.4,36,0.080,0.080,0.080,0.000,0.000,0.000
1644895923117288960,2022-02-15-03:32:03,10.1.1.4,24,0.070,0.070,0.070,0.000,0.000,0.000
1644895923177579008,2022-02-15-03:32:03,10.1.1.4,33,0.060,0.060,0.060,0.000,0.000,0.000
1644895923217822976,2022-02-15-03:32:03,10.1.1.4,22,0.050,0.050,0.050,0.000,0.000,0.000
1644895923337596928,2022-02-15-03:32:03,10.1.1.4,39,0.030,0.030,0.030,0.000,0.000,0.000
1644895923377264128,2022-02-15-03:32:03,10.1.1.4,28,0.020,0.020,0.020,0.000,0.000,0.000
1644895923438443008,2022-02-15-03:32:03,10.1.1.4,36,0.010,0.010,0.010,0.000,0.000,0.000
1644895923480263936,2022-02-15-03:32:03,10.1.1.4,28,0.000,0.000,0.000,0.000,0.000,0.000
1644895923536748032,2022-02-15-03:32:03,10.1.1.4,34,-0.010,-0.010,-0.010,0.000,0.000,0.000
1644895923577908992,2022-02-15-03:32:03,10.1.1.4,24,-0.020,-0.020,-0.020,0.000,0.000,0.000
1644895923637134080,2022-02-15-03:32:03,10.1.1.4,33,-0.030,-0.030,-0.030,0.000,0.000,0.000
1644895923677378816,2022-02-15-03:32:03,10.1.1.4,22,-0.040,-0.040,-0.040,0.000,0.000,0.000
1644895923837719040,2022-02-15-03:32:03,10.1.1.4,29,-0.070,-0.070,-0.070,0.000,0.000,0.000
1644895923896960000,2022-02-15-03:32:03,10.1.1.4,39,-0.080,-0.080,-0.080,0.000,0.000,0.000
1644895923937570048,2022-02-15-03:32:03,10.1.1.4,28,-0.090,-0.090,-0.090,0.000,0.000,0.000
1644895923997417984,2022-02-15-03:32:03,10.1.1.4,37,-0.100,-0.100,-0.100,0.000,0.000,0.000
1644895924036823040,2022-02-15-03:32:04,10.1.1.4,26,-0.090,-0.090,-0.090,0.000,0.000,0.000
1644895924097893888,2022-02-15-03:32:04,10.1.1.4,35,-0.080,-0.080,-0.080,0.000,0.000,0.000
1644895924137243136,2022-02-15-03:32:04,10.1.1.4,24,-0.070,-0.070,-0.070,0.000,0.000,0.000
1644895924197789952,2022-02-15-03:32:04,10.1.1.4,33,-0.060,-0.060,-0.060,0.000,0.000,0.000
1644895924237997056,2022-02-15-03:32:04,10.1.1.4,23,-0.050,-0.050,-0.050,0.000,0.000,0.000
1644895924296772096,2022-02-15-03:32:04,10.1.1.4,32,-0.040,-0.040,-0.040,0.000,0.000,0.000
1644895924397131008,2022-02-15-03:32:04,10.1.1.4,30,-0.020,-0.020,-0.020,0.000,0.000,0.000
1644895924456513024,2022-02-15-03:32:04,10.1.1.4,39,-0.010,-0.010,-0.010,0.000,0.000,0.000
1644895924498382080,2022-02-15-03:32:04,10.1.1.4,28,0.000,0.000,0.000,0.000,0.000,0.000
1644895924557298944,2022-02-15-03:32:04,10.1.1.4,37,0.010,0.010,0.010,0.000,0.000,0.000
1644895924596911872,2022-02-15-03:32:04,10.1.1.4,26,0.020,0.020,0.020,0.000,0.000,0.000
1644895924656878848,2022-02-15-03:32:04,10.1.1.4,35,0.030,0.030,0.030,0.000,0.000,0.000
1644895924697895168,2022-02-15-03:32:04,10.1.1.4,24,0.040,0.040,0.040,0.000,0.000,0.000
1644895924756654080,2022-02-15-03:32:04,10.1.1.4,34,0.050,0.050,0.050,0.000,0.000,0.000
1644895924797122048,2022-02-15-03:32:04,10.1.1.4,23,0.060,0.060,0.060,0.000,0.000,0.000
1644895924857577984,2022-02-15-03:32:04,10.1.1.4,32,0.070,0.070,0.070,0.000,0.000,0.000
1644895924957549056,2022-02-15-03:32:04,10.1.1.4,29,0.090,0.090,0.090,0.000,0.000,0.000
1644895925017819904,2022-02-15-03:32:05,10.1.1.4,38,0.100,0.100,0.100,0.000,0.000,0.000
1644895925057672960,2022-02-15-03:32:05,10.1.1.4,27,0.090,0.090,0.090,0.000,0.000,0.000
1644895925116760064,2022-02-15-03:32:05,10.1.1.4,36,0.080,0.080,0.080,0.000,0.000,0.000
1644895925159115008,2022-02-15-03:32:05,10.1.1.4,27,0.070,0.070,0.070,0.000,0.000,0.000
1644895925216753920,2022-02-15-03:32:05,10.1.1.4,34,0.060,0.060,0.060,0.000,0.000,0.000
1644895925258153984,2022-02-15-03:32:05,10.1.1.4,23,0.050,0.050,0.050,0.000,0.000,0.000
1644895925317142016,2022-02-15-03:32:05,10.1.1.4,33,0.040,0.040,0.040,0.000,0.000,0.000
1644895925416805120,2022-02-15-03:32:05,10.1.1.4,29,0.020,0.020,0.020,0.000,0.000,0.000
1644895925477411072,2022-02-15-03:32:05,10.1.1.4,38,0.010,0.010,0.010,0.000,0.000,0.000
1644895925517648896,2022-02-15-03:32:05,10.1.1.4,27,0.000,0.000,0.000,0.000,0.000,0.000
1644895925577850112,2022-02-15-03:32:05,10.1.1.4,37,-0.010,-0.010,-0.010,0.000,0.000,0.000
1644895925617168896,2022-02-15-03:32:05,10.1.1.4,26,-0.020,-0.020,-0.020,0.000,0.000,0.000
1644895925677526016,2022-02-15-03:32:05,10.1.1.4,35,-0.030,-0.030,-0.030,0.000,0.000,0.000
1644895925717299968,2022-02-15-03:32:05,10.1.1.4,25,-0.040,-0.040,-0.040,0.000,0.000,0.000
1644895925777345024,2022-02-15-03:32:05,10.1.1.4,34,-0.050,-0.050,-0.050,0.000,0.000,0.000
1644895925817345024,2022-02-15-03:32:05,10.1.1.4,23,-0.060,-0.060,-0.060,0.000,0.000,0.000
1644895925978081024,2022-02-15-03:32:05,10.1.1.4,29,-0.090,-0.090,-0.090,0.000,0.000,0.000
1644895926037543936,2022-02-15-03:32:06,10.1.1.4,37,-0.100,-0.100,-0.100,0.000,0.000,0.000
1644895926076944128,2022-02-15-03:32:06,10.1.1.4,26,-0.090,-0.090,-0.090,0.000,0.000,0.000
1644895926138333184,2022-02-15-03:32:06,10.1.1.4,35,-0.080,-0.080,-0.080,0.000,0.000,0.000
1644895926177812992,2022-02-15-03:32:06,10.1.1.4,25,-0.070,-0.070,-0.070,0.000,0.000,0.000
1644895926238276864,2022-02-15-03:32:06,10.1.1.4,34,-0.060,-0.060,-0.060,0.000,0.000,0.000
1644895926277419008,2022-02-15-03:32:06,10.1.1.4,23,-0.050,-0.050,-0.050,0.000,0.000,0.000
1644895926337487104,2022-02-15-03:32:06,10.1.1.4,32,-0.040,-0.040,-0.040,0.000,0.000,0.000
1644895926377017088,2022-02-15-03:32:06,10.1.1.4,21,-0.030,-0.030,-0.030,0.000,0.000,0.000
1644895926438977024,2022-02-15-03:32:06,10.1.1.4,30,-0.020,-0.020,-0.020,0.000,0.000,0.000
1644895926497176832,2022-02-15-03:32:06,10.1.1.4,37,-0.010,-0.010,-0.010,0.000,0.000,0.000
1644895926538070016,2022-02-15-03:32:06,10.1.1.4,27,0.000,0.000,0.000,0.000,0.000,0.000
1644895926597369856,2022-02-15-03:32:06,10.1.1.4,35,0.010,0.010,0.010,0.000,0.000,0.000
1644895926698836992,2022-02-15-03:32:06,10.1.1.4,28,0.030,0.030,0.030,0.000,0.000,0.000
1644895926757456896,2022-02-15-03:32:06,10.1.1.4,36,0.040,0.040,0.040,0.000,0.000,0.000
1644895926798000128,2022-02-15-03:32:06,10.1.1.4,25,0.050,0.050,0.050,0.000,0.000,0.000
1644895926857470976,2022-02-15-03:32:06,10.1.1.4,34,0.060,0.060,0.060,0.000,0.000,0.000
1644895926898329088,2022-02-15-03:32:06,10.1.1.4,24,0.070,0.070,0.070,0.000,0.000,0.000
1644895927017686016,2022-02-15-03:32:07,10.1.1.4,39,0.090,0.090,0.090,0.000,0.000,0.000
1644895927056796928,2022-02-15-03:32:07,10.1.1.4,28,0.100,0.100,0.100,0.000,0.000,0.000
1644895927117910016,2022-02-15-03:32:07,10.1.1.4,37,0.090,0.090,0.090,0.000,0.000,0.000
1644895927217266176,2022-02-15-03:32:07,10.1.1.4,34,0.070,0.070,0.070,0.000,0.000,0.000
1644895927257307136,2022-02-15-03:32:07,10.1.1.4,24,0.060,0.060,0.060,0.000,0.000,0.000
1644895927317404928,2022-02-15-03:32:07,10.1.1.4,33,0.050,0.050,0.050,0.000,0.000,0.000
1644895927477426176,2022-02-15-03:32:07,10.1.1.4,39,0.020,0.020,0.020,0.000,0.000,0.000
1644895927517360896,2022-02-15-03:32:07,10.1.1.4,28,0.010,0.010,0.010,0.000,0.000,0.000
1644895927577344768,2022-02-15-03:32:07,10.1.1.4,37,0.000,0.000,0.000,0.000,0.000,0.000
1644895927617239040,2022-02-15-03:32:07,10.1.1.4,26,-0.010,-0.010,-0.010,0.000,0.000,0.000
1644895927677380096,2022-02-15-03:32:07,10.1.1.4,35,-0.020,-0.020,-0.020,0.000,0.000,0.000
1644895927717463040,2022-02-15-03:32:07,10.1.1.4,24,-0.030,-0.030,-0.030,0.000,0.000,0.000
1644895927777721856,2022-02-15-03:32:07,10.1.1.4,33,-0.040,-0.040,-0.040,0.000,0.000,0.000
1644895927816921088,2022-02-15-03:32:07,10.1.1.4,23,-0.050,-0.050,-0.050,0.000,0.000,0.000
1644895927877707008,2022-02-15-03:32:07,10.1.1.4,32,-0.060,-0.060,-0.060,0.000,0.000,0.000
1644895928037321984,2022-02-15-03:32:08,10.1.1.4,39,-0.090,-0.090,-0.090,0.000,0.000,0.000
1644895928077496064,2022-02-15-03:32:08,10.1.1.4,27,-0.100,-0.100,-0.100,0.000,0.000,0.000
1644895928137790976,2022-02-15-03:32:08,10.1.1.4,37,-0.090,-0.090,-0.090,0.000,0.000,0.000
1644895928177527040,2022-02-15-03:32:08,10.1.1.4,26,-0.080,-0.080,-0.080,0.000,0.000,0.000
1644895928237249024,2022-02-15-03:32:08,10.1.1.4,34,-0.070,-0.070,-0.070,0.000,0.000,0.000
1644895928277172992,2022-02-15-03:32:08,10.1.1.4,23,-0.060,-0.060,-0.060,0.000,0.000,0.000
1644895928497878016,2022-02-15-03:32:08,10.1.1.4,38,-0.020,-0.020,-0.020,0.000,0.000,0.000
1644895928537059072,2022-02-15-03:32:08,10.1.1.4,27,-0.010,-0.010,-0.010,0.000,0.000,0.000
1644895928596697088,2022-02-15-03:32:08,10.1.1.4,36,0.000,0.000,0.000,0.000,0.000,0.000
1644895928637242112,2022-02-15-03:32:08,10.1.1.4,25,0.010,0.010,0.010,0.000,0.000,0.000
1644895928756483072,2022-02-15-03:32:08,10.1.1.4,22,0.030,0.030,0.030,0.000,0.000,0.000
1644895928797435904,2022-02-15-03:32:08,10.1.1.4,31,0.040,0.040,0.040,0.000,0.000,0.000
1644895928836414976,2022-02-15-03:32:08,10.1.1.4,21,0.050,0.050,0.050,0.000,0.000,0.000
1644895928997046016,2022-02-15-03:32:08,10.1.1.4,29,0.080,0.080,0.080,0.000,0.000,0.000
1644895929056520960,2022-02-15-03:32:09,10.1.1.4,38,0.090,0.090,0.090,0.000,0.000,0.000
1644895929096928000,2022-02-15-03:32:09,10.1.1.4,28,0.100,0.100,0.100,0.000,0.000,0.000
1644895929157728000,2022-02-15-03:32:09,10.1.1.4,37,0.090,0.090,0.090,0.000,0.000,0.000
1644895929196888832,2022-02-15-03:32:09,10.1.1.4,26,0.080,0.080,0.080,0.000,0.000,0.000
1644895929256954880,2022-02-15-03:32:09,10.1.1.4,36,0.070,0.070,0.070,0.000,0.000,0.000
1644895929297067008,2022-02-15-03:32:09,10.1.1.4,25,0.060,0.060,0.060,0.000,0.000,0.000
1644895929356986112,2022-02-15-03:32:09,10.1.1.4,35,0.050,0.050,0.050,0.000,0.000,0.000
1644895929397277184,2022-02-15-03:32:09,10.1.1.4,24,0.040,0.040,0.040,0.000,0.000,0.000
1644895929457127936,2022-02-15-03:32:09,10.1.1.4,34,0.030,0.030,0.030,0.000,0.000,0.000
1644895929496745984,2022-02-15-03:32:09,10.1.1.4,22,0.020,0.020,0.020,0.000,0.000,0.000
1644895929656961792,2022-02-15-03:32:09,10.1.1.4,28,-0.010,-0.010,-0.010,0.000,0.000,0.000
1644895929716286976,2022-02-15-03:32:09,10.1.1.4,37,-0.020,-0.020,-0.020,0.000,0.000,0.000
1644895929756854016,2022-02-15-03:32:09,10.1.1.4,26,-0.030,-0.030,-0.030,0.000,0.000,0.000
1644895929817449984,2022-02-15-03:32:09,10.1.1.4,35,-0.040,-0.040,-0.040,0.000,0.000,0.000
1644895929857112832,2022-02-15-03:32:09,10.1.1.4,24,-0.050,-0.050,-0.050,0.000,0.000,0.000
1644895929917378048,2022-02-15-03:32:09,10.1.1.4,34,-0.060,-0.060,-0.060,0.000,0.000,0.000
1644895929956861952,2022-02-15-03:32:09,10.1.1.4,22,-0.070,-0.070,-0.070,0.000,0.000,0.000
1644895930016611072,2022-02-15-03:32:10,10.1.1.4,31,-0.080,-0.080,-0.080,0.000,0.000,0.000
1644895930117860096,2022-02-15-03:32:10,10.1.1.4,29,-0.100,-0.100,-0.100,0.000,0.000,0.000
1644895930177922048,2022-02-15-03:32:10,10.1.1.4,38,-0.090,-0.090,-0.090,0.000,0.000,0.000
1644895930217735936,2022-02-15-03:32:10,10.1.1.4,26,-0.080,-0.080,-0.080,0.000,0.000,0.000
1644895930278593024,2022-02-15-03:32:10,10.1.1.4,35,-0.070,-0.070,-0.070,0.000,0.000,0.000
1644895930317629952,2022-02-15-03:32:10,10.1.1.4,25,-0.060,-0.060,-0.060,0.000,0.000,0.000
1644895930377340160,2022-02-15-03:32:10,10.1.1.4,34,-0.050,-0.050,-0.050,0.000,0.000,0.000
1644895930418432000,2022-02-15-03:32:10,10.1.1.4,23,-0.040,-0.040,-0.040,0.000,0.000,0.000
1644895930477181952,2022-02-15-03:32:10,10.1.1.4,32,-0.030,-0.030,-0.030,0.000,0.000,0.000
1644895930637829120,2022-02-15-03:32:10,10.1.1.4,38,0.000,0.000,0.000,0.000,0.000,0.000
1644895930677274112,2022-02-15-03:32:10,10.1.1.4,26,0.010,0.010,0.010,0.000,0.000,0.000
1644895930738092800,2022-02-15-03:32:10,10.1.1.4,34,0.020,0.020,0.020,0.000,0.000,0.000
1644895930778359040,2022-02-15-03:32:10,10.1.1.4,24,0.030,0.030,0.030,0.000,0.000,0.000
1644895930937968128,2022-02-15-03:32:10,10.1.1.4,28,0.060,0.060,0.060,0.000,0.000,0.000
1644895930997428992,2022-02-15-03:32:10,10.1.1.4,36,0.070,0.070,0.070,0.000,0.000,0.000
1644895931037822976,2022-02-15-03:32:11,10.1.1.4,24,0.080,0.080,0.080,0.000,0.000,0.000
1644895931097649152,2022-02-15-03:32:11,10.1.1.4,32,0.090,0.090,0.090,0.000,0.000,0.000
1644895931177196032,2022-02-15-03:32:11,10.1.1.4,10,0.090,0.090,0.090,0.000,0.000,0.000
1644895931258241792,2022-02-15-03:32:11,10.1.1.4,39,0.080,0.080,0.080,0.000,0.000,0.000
1644895931296570112,2022-02-15-03:32:11,10.1.1.4,27,0.070,0.070,0.070,0.000,0.000,0.000
1644895931357670144,2022-02-15-03:32:11,10.1.1.4,36,0.060,0.060,0.060,0.000,0.000,0.000
1644895931398288896,2022-02-15-03:32:11,10.1.1.4,26,0.050,0.050,0.050,0.000,0.000,0.000
1644895931457266944,2022-02-15-03:32:11,10.1.1.4,34,0.040,0.040,0.040,0.000,0.000,0.000
1644895931497195008,2022-02-15-03:32:11,10.1.1.4,23,0.030,0.030,0.030,0.000,0.000,0.000
1644895931556869120,2022-02-15-03:32:11,10.1.1.4,31,0.020,0.020,0.020,0.000,0.000,0.000
1644895931657399808,2022-02-15-03:32:11,10.1.1.4,29,0.000,0.000,0.000,0.000,0.000,0.000
1644895931717081088,2022-02-15-03:32:11,10.1.1.4,38,-0.010,-0.010,-0.010,0.000,0.000,0.000
1644895931756973056,2022-02-15-03:32:11,10.1.1.4,27,-0.020,-0.020,-0.020,0.000,0.000,0.000
1644895931817068032,2022-02-15-03:32:11,10.1.1.4,36,-0.030,-0.030,-0.030,0.000,0.000,0.000
1644895931857163008,2022-02-15-03:32:11,10.1.1.4,25,-0.040,-0.040,-0.040,0.000,0.000,0.000
1644895931916855040,2022-02-15-03:32:11,10.1.1.4,34,-0.050,-0.050,-0.050,0.000,0.000,0.000
1644895931958925056,2022-02-15-03:32:11,10.1.1.4,26,-0.060,-0.060,-0.060,0.000,0.000,0.000
1644895932018686976,2022-02-15-03:32:12,10.1.1.4,33,-0.070,-0.070,-0.070,0.000,0.000,0.000
1644895932059049984,2022-02-15-03:32:12,10.1.1.4,21,-0.080,-0.080,-0.080,0.000,0.000,0.000
1644895932177697024,2022-02-15-03:32:12,10.1.1.4,39,-0.100,-0.100,-0.100,0.000,0.000,0.000
1644895932217539072,2022-02-15-03:32:12,10.1.1.4,28,-0.090,-0.090,-0.090,0.000,0.000,0.000
1644895932276814848,2022-02-15-03:32:12,10.1.1.4,37,-0.080,-0.080,-0.080,0.000,0.000,0.000
1644895932317231872,2022-02-15-03:32:12,10.1.1.4,26,-0.070,-0.070,-0.070,0.000,0.000,0.000
1644895932377374976,2022-02-15-03:32:12,10.1.1.4,35,-0.060,-0.060,-0.060,0.000,0.000,0.000
1644895932416646912,2022-02-15-03:32:12,10.1.1.4,25,-0.050,-0.050,-0.050,0.000,0.000,0.000
1644895932477568000,2022-02-15-03:32:12,10.1.1.4,33,-0.040,-0.040,-0.040,0.000,0.000,0.000
1644895932517005056,2022-02-15-03:32:12,10.1.1.4,22,-0.030,-0.030,-0.030,0.000,0.000,0.000
1644895932677184000,2022-02-15-03:32:12,10.1.1.4,29,0.000,0.000,0.000,0.000,0.000,0.000
1644895932737126144,2022-02-15-03:32:12,10.1.1.4,37,0.010,0.010,0.010,0.000,0.000,0.000
1644895932777501952,2022-02-15-03:32:12,10.1.1.4,26,0.020,0.020,0.020,0.000,0.000,0.000
1644895932837292800,2022-02-15-03:32:12,10.1.1.4,31,0.030,0.030,0.030,0.000,0.000,0.000
1644895932996824064,2022-02-15-03:32:12,10.1.1.4,39,0.060,0.060,0.060,0.000,0.000,0.000
1644895933037206784,2022-02-15-03:32:13,10.1.1.4,28,0.070,0.070,0.070,0.000,0.000,0.000
1644895933097622016,2022-02-15-03:32:13,10.1.1.4,38,0.080,0.080,0.080,0.000,0.000,0.000
1644895933137105920,2022-02-15-03:32:13,10.1.1.4,27,0.090,0.090,0.090,0.000,0.000,0.000
1644895933198223104,2022-02-15-03:32:13,10.1.1.4,36,0.100,0.100,0.100,0.000,0.000,0.000
1644895933238168832,2022-02-15-03:32:13,10.1.1.4,25,0.090,0.090,0.090,0.000,0.000,0.000
1644895933297473792,2022-02-15-03:32:13,10.1.1.4,34,0.080,0.080,0.080,0.000,0.000,0.000
1644895933396738048,2022-02-15-03:32:13,10.1.1.4,32,0.060,0.060,0.060,0.000,0.000,0.000
1644895933556905984,2022-02-15-03:32:13,10.1.1.4,39,0.030,0.030,0.030,0.000,0.000,0.000
1644895933597065984,2022-02-15-03:32:13,10.1.1.4,28,0.020,0.020,0.020,0.000,0.000,0.000
1644895933657080832,2022-02-15-03:32:13,10.1.1.4,37,0.010,0.010,0.010,0.000,0.000,0.000
1644895933698311936,2022-02-15-03:32:13,10.1.1.4,26,0.000,0.000,0.000,0.000,0.000,0.000
1644895933757963776,2022-02-15-03:32:13,10.1.1.4,34,-0.010,-0.010,-0.010,0.000,0.000,0.000
1644895933858287104,2022-02-15-03:32:13,10.1.1.4,29,-0.030,-0.030,-0.030,0.000,0.000,0.000
1644895933917299968,2022-02-15-03:32:13,10.1.1.4,37,-0.040,-0.040,-0.040,0.000,0.000,0.000
1644895933956870912,2022-02-15-03:32:13,10.1.1.4,27,-0.050,-0.050,-0.050,0.000,0.000,0.000
1644895934017112064,2022-02-15-03:32:14,10.1.1.4,35,-0.060,-0.060,-0.060,0.000,0.000,0.000
1644895934057478912,2022-02-15-03:32:14,10.1.1.4,22,-0.070,-0.070,-0.070,0.000,0.000,0.000
1644895934177907968,2022-02-15-03:32:14,10.1.1.4,38,-0.090,-0.090,-0.090,0.000,0.000,0.000
1644895934218126080,2022-02-15-03:32:14,10.1.1.4,27,-0.100,-0.100,-0.100,0.000,0.000,0.000
1644895934277319936,2022-02-15-03:32:14,10.1.1.4,36,-0.090,-0.090,-0.090,0.000,0.000,0.000
1644895934317060096,2022-02-15-03:32:14,10.1.1.4,25,-0.080,-0.080,-0.080,0.000,0.000,0.000
1644895934377347072,2022-02-15-03:32:14,10.1.1.4,34,-0.070,-0.070,-0.070,0.000,0.000,0.000
1644895934538170112,2022-02-15-03:32:14,10.1.1.4,39,-0.040,-0.040,-0.040,0.000,0.000,0.000
1644895934577318912,2022-02-15-03:32:14,10.1.1.4,28,-0.030,-0.030,-0.030,0.000,0.000,0.000
1644895934637198080,2022-02-15-03:32:14,10.1.1.4,37,-0.020,-0.020,-0.020,0.000,0.000,0.000
1644895934677438976,2022-02-15-03:32:14,10.1.1.4,26,-0.010,-0.010,-0.010,0.000,0.000,0.000
1644895934738711040,2022-02-15-03:32:14,10.1.1.4,36,0.000,0.000,0.000,0.000,0.000,0.000
1644895934777657088,2022-02-15-03:32:14,10.1.1.4,24,0.010,0.010,0.010,0.000,0.000,0.000
1644895934837526016,2022-02-15-03:32:14,10.1.1.4,33,0.020,0.020,0.020,0.000,0.000,0.000
1644895934877003008,2022-02-15-03:32:14,10.1.1.4,22,0.030,0.030,0.030,0.000,0.000,0.000
1644895934998640896,2022-02-15-03:32:14,10.1.1.4,39,0.050,0.050,0.050,0.000,0.000,0.000
1644895935037796864,2022-02-15-03:32:15,10.1.1.4,28,0.060,0.060,0.060,0.000,0.000,0.000
1644895935096719104,2022-02-15-03:32:15,10.1.1.4,37,0.070,0.070,0.070,0.000,0.000,0.000
1644895935136766976,2022-02-15-03:32:15,10.1.1.4,27,0.080,0.080,0.080,0.000,0.000,0.000
1644895935197906944,2022-02-15-03:32:15,10.1.1.4,36,0.090,0.090,0.090,0.000,0.000,0.000
1644895935238269952,2022-02-15-03:32:15,10.1.1.4,24,0.100,0.100,0.100,0.000,0.000,0.000
1644895935297204992,2022-02-15-03:32:15,10.1.1.4,32,0.090,0.090,0.090,0.000,0.000,0.000
1644895935396445952,2022-02-15-03:32:15,10.1.1.4,29,0.070,0.070,0.070,0.000,0.000,0.000
1644895935457511936,2022-02-15-03:32:15,10.1.1.4,38,0.060,0.060,0.060,0.000,0.000,0.000
1644895935496952064,2022-02-15-03:32:15,10.1.1.4,28,0.050,0.050,0.050,0.000,0.000,0.000
1644895935556775168,2022-02-15-03:32:15,10.1.1.4,37,0.040,0.040,0.040,0.000,0.000,0.000
1644895935596816896,2022-02-15-03:32:15,10.1.1.4,26,0.030,0.030,0.030,0.000,0.000,0.000
1644895935658808064,2022-02-15-03:32:15,10.1.1.4,36,0.020,0.020,0.020,0.000,0.000,0.000
1644895935697551104,2022-02-15-03:32:15,10.1.1.4,24,0.010,0.010,0.010,0.000,0.000,0.000
1644895935756753920,2022-02-15-03:32:15,10.1.1.4,33,0.000,0.000,0.000,0.000,0.000,0.000
1644895935918242816,2022-02-15-03:32:15,10.1.1.4,39,-0.030,-0.030,-0.030,0.000,0.000,0.000
1644895935957233920,2022-02-15-03:32:15,10.1.1.4,28,-0.040,-0.040,-0.040,0.000,0.000,0.000
1644895936017286912,2022-02-15-03:32:16,10.1.1.4,36,-0.050,-0.050,-0.050,0.000,0.000,0.000
1644895936057249024,2022-02-15-03:32:16,10.1.1.4,25,-0.060,-0.060,-0.060,0.000,0.000,0.000
1644895936116940032,2022-02-15-03:32:16,10.1.1.4,34,-0.070,-0.070,-0.070,0.000,0.000,0.000
1644895936157548800,2022-02-15-03:32:16,10.1.1.4,23,-0.080,-0.080,-0.080,0.000,0.000,0.000
1644895936217318144,2022-02-15-03:32:16,10.1.1.4,32,-0.090,-0.090,-0.090,0.000,0.000,0.000
1644895936296777984,2022-02-15-03:32:16,10.1.1.4,10,-0.090,-0.090,-0.090,0.000,0.000,0.000
1644895936376944896,2022-02-15-03:32:16,10.1.1.4,39,-0.080,-0.080,-0.080,0.000,0.000,0.000
1644895936416975872,2022-02-15-03:32:16,10.1.1.4,28,-0.070,-0.070,-0.070,0.000,0.000,0.000
1644895936476830976,2022-02-15-03:32:16,10.1.1.4,37,-0.060,-0.060,-0.060,0.000,0.000,0.000
1644895936517420032,2022-02-15-03:32:16,10.1.1.4,26,-0.050,-0.050,-0.050,0.000,0.000,0.000
1644895936578470912,2022-02-15-03:32:16,10.1.1.4,35,-0.040,-0.040,-0.040,0.000,0.000,0.000
1644895936617063936,2022-02-15-03:32:16,10.1.1.4,24,-0.030,-0.030,-0.030,0.000,0.000,0.000
1644895936677820928,2022-02-15-03:32:16,10.1.1.4,31,-0.020,-0.020,-0.020,0.000,0.000,0.000
1644895936840347904,2022-02-15-03:32:16,10.1.1.4,41,0.010,0.010,0.010,0.000,0.000,0.000
1644895936877295104,2022-02-15-03:32:16,10.1.1.4,25,0.020,0.020,0.020,0.000,0.000,0.000
1644895936937067008,2022-02-15-03:32:16,10.1.1.4,34,0.030,0.030,0.030,0.000,0.000,0.000
1644895936978486016,2022-02-15-03:32:16,10.1.1.4,24,0.040,0.040,0.040,0.000,0.000,0.000
1644895937037864960,2022-02-15-03:32:17,10.1.1.4,33,0.050,0.050,0.050,0.000,0.000,0.000
1644895937077069056,2022-02-15-03:32:17,10.1.1.4,21,0.060,0.060,0.060,0.000,0.000,0.000
1644895937197561088,2022-02-15-03:32:17,10.1.1.4,39,0.080,0.080,0.080,0.000,0.000,0.000
1644895937237415936,2022-02-15-03:32:17,10.1.1.4,29,0.090,0.090,0.090,0.000,0.000,0.000
1644895937296835840,2022-02-15-03:32:17,10.1.1.4,38,0.100,0.100,0.100,0.000,0.000,0.000
1644895937337991936,2022-02-15-03:32:17,10.1.1.4,27,0.090,0.090,0.090,0.000,0.000,0.000
1644895937398541824,2022-02-15-03:32:17,10.1.1.4,36,0.080,0.080,0.080,0.000,0.000,0.000
1644895937437123072,2022-02-15-03:32:17,10.1.1.4,25,0.070,0.070,0.070,0.000,0.000,0.000
1644895937497101056,2022-02-15-03:32:17,10.1.1.4,35,0.060,0.060,0.060,0.000,0.000,0.000
1644895937537601024,2022-02-15-03:32:17,10.1.1.4,24,0.050,0.050,0.050,0.000,0.000,0.000
1644895937597700096,2022-02-15-03:32:17,10.1.1.4,33,0.040,0.040,0.040,0.000,0.000,0.000
1644895937637302016,2022-02-15-03:32:17,10.1.1.4,23,0.030,0.030,0.030,0.000,0.000,0.000
1644895937697864960,2022-02-15-03:32:17,10.1.1.4,32,0.020,0.020,0.020,0.000,0.000,0.000
1644895937837292032,2022-02-15-03:32:17,10.1.1.4,20,-0.010,-0.010,-0.010,0.000,0.000,0.000
1644895937897166848,2022-02-15-03:32:17,10.1.1.4,29,-0.020,-0.020,-0.020,0.000,0.000,0.000
1644895937957160960,2022-02-15-03:32:17,10.1.1.4,38,-0.030,-0.030,-0.030,0.000,0.000,0.000
1644895937997145856,2022-02-15-03:32:17,10.1.1.4,27,-0.040,-0.040,-0.040,0.000,0.000,0.000
1644895938056553984,2022-02-15-03:32:18,10.1.1.4,36,-0.050,-0.050,-0.050,0.000,0.000,0.000
1644895938097361152,2022-02-15-03:32:18,10.1.1.4,25,-0.060,-0.060,-0.060,0.000,0.000,0.000
1644895938156822016,2022-02-15-03:32:18,10.1.1.4,32,-0.070,-0.070,-0.070,0.000,0.000,0.000
1644895938317472000,2022-02-15-03:32:18,10.1.1.4,39,-0.100,-0.100,-0.100,0.000,0.000,0.000
1644895938357889024,2022-02-15-03:32:18,10.1.1.4,28,-0.090,-0.090,-0.090,0.000,0.000,0.000
1644895938418541056,2022-02-15-03:32:18,10.1.1.4,37,-0.080,-0.080,-0.080,0.000,0.000,0.000
1644895938457251072,2022-02-15-03:32:18,10.1.1.4,27,-0.070,-0.070,-0.070,0.000,0.000,0.000
1644895938517797120,2022-02-15-03:32:18,10.1.1.4,36,-0.060,-0.060,-0.060,0.000,0.000,0.000
1644895938556905984,2022-02-15-03:32:18,10.1.1.4,24,-0.050,-0.050,-0.050,0.000,0.000,0.000
1644895938618486016,2022-02-15-03:32:18,10.1.1.4,34,-0.040,-0.040,-0.040,0.000,0.000,0.000
1644895938657344000,2022-02-15-03:32:18,10.1.1.4,22,-0.030,-0.030,-0.030,0.000,0.000,0.000
1644895938817234944,2022-02-15-03:32:18,10.1.1.4,29,-0.000,-0.000,-0.000,0.000,0.000,0.000
1644895938877095936,2022-02-15-03:32:18,10.1.1.4,38,0.010,0.010,0.010,0.000,0.000,0.000
1644895938917464064,2022-02-15-03:32:18,10.1.1.4,27,0.020,0.020,0.020,0.000,0.000,0.000
1644895938979707904,2022-02-15-03:32:18,10.1.1.4,36,0.030,0.030,0.030,0.000,0.000,0.000
1644895939018048000,2022-02-15-03:32:19,10.1.1.4,25,0.040,0.040,0.040,0.000,0.000,0.000
1644895939077689856,2022-02-15-03:32:19,10.1.1.4,34,0.050,0.050,0.050,0.000,0.000,0.000
1644895939116924160,2022-02-15-03:32:19,10.1.1.4,23,0.060,0.060,0.060,0.000,0.000,0.000
1644895939177283072,2022-02-15-03:32:19,10.1.1.4,33,0.070,0.070,0.070,0.000,0.000,0.000
1644895939377170944,2022-02-15-03:32:19,10.1.1.4,28,0.090,0.090,0.090,0.000,0.000,0.000
1644895939438137088,2022-02-15-03:32:19,10.1.1.4,37,0.080,0.080,0.080,0.000,0.000,0.000
1644895939476989952,2022-02-15-03:32:19,10.1.1.4,26,0.070,0.070,0.070,0.000,0.000,0.000
1644895939537972992,2022-02-15-03:32:19,10.1.1.4,35,0.060,0.060,0.060,0.000,0.000,0.000
1644895939577496064,2022-02-15-03:32:19,10.1.1.4,24,0.050,0.050,0.050,0.000,0.000,0.000
1644895939637409024,2022-02-15-03:32:19,10.1.1.4,34,0.040,0.040,0.040,0.000,0.000,0.000
1644895939676644096,2022-02-15-03:32:19,10.1.1.4,22,0.030,0.030,0.030,0.000,0.000,0.000
1644895939736977152,2022-02-15-03:32:19,10.1.1.4,31,0.020,0.020,0.020,0.000,0.000,0.000
1644895939896948992,2022-02-15-03:32:19,10.1.1.4,38,-0.010,-0.010,-0.010,0.000,0.000,0.000
1644895939937406976,2022-02-15-03:32:19,10.1.1.4,28,-0.020,-0.020,-0.020,0.000,0.000,0.000
1644895939997441024,2022-02-15-03:32:19,10.1.1.4,37,-0.030,-0.030,-0.030,0.000,0.000,0.000
1644895940037915904,2022-02-15-03:32:20,10.1.1.4,26,-0.040,-0.040,-0.040,0.000,0.000,0.000
1644895940097122816,2022-02-15-03:32:20,10.1.1.4,35,-0.050,-0.050,-0.050,0.000,0.000,0.000
1644895940137671936,2022-02-15-03:32:20,10.1.1.4,24,-0.060,-0.060,-0.060,0.000,0.000,0.000
1644895940198065920,2022-02-15-03:32:20,10.1.1.4,34,-0.070,-0.070,-0.070,0.000,0.000,0.000
1644895940297164800,2022-02-15-03:32:20,10.1.1.4,29,-0.090,-0.090,-0.090,0.000,0.000,0.000
1644895940358161920,2022-02-15-03:32:20,10.1.1.4,37,-0.100,-0.100,-0.100,0.000,0.000,0.000
1644895940396934912,2022-02-15-03:32:20,10.1.1.4,26,-0.090,-0.090,-0.090,0.000,0.000,0.000
1644895940456886016,2022-02-15-03:32:20,10.1.1.4,35,-0.080,-0.080,-0.080,0.000,0.000,0.000
1644895940496773120,2022-02-15-03:32:20,10.1.1.4,24,-0.070,-0.070,-0.070,0.000,0.000,0.000
1644895940557949184,2022-02-15-03:32:20,10.1.1.4,33,-0.060,-0.060,-0.060,0.000,0.000,0.000
1644895940657254912,2022-02-15-03:32:20,10.1.1.4,29,-0.040,-0.040,-0.040,0.000,0.000,0.000
1644895940717720064,2022-02-15-03:32:20,10.1.1.4,38,-0.030,-0.030,-0.030,0.000,0.000,0.000
1644895940757478912,2022-02-15-03:32:20,10.1.1.4,28,-0.020,-0.020,-0.020,0.000,0.000,0.000
1644895940817469952,2022-02-15-03:32:20,10.1.1.4,36,-0.010,-0.010,-0.010,0.000,0.000,0.000
1644895940856569088,2022-02-15-03:32:20,10.1.1.4,25,0.000,0.000,0.000,0.000,0.000,0.000
1644895940917138944,2022-02-15-03:32:20,10.1.1.4,34,0.010,0.010,0.010,0.000,0.000,0.000
1644895940956688896,2022-02-15-03:32:20,10.1.1.4,24,0.020,0.020,0.020,0.000,0.000,0.000
1644895941017422848,2022-02-15-03:32:21,10.1.1.4,33,0.030,0.030,0.030,0.000,0.000,0.000
1644895941057115904,2022-02-15-03:32:21,10.1.1.4,22,0.040,0.040,0.040,0.000,0.000,0.000
1644895941177793024,2022-02-15-03:32:21,10.1.1.4,40,0.060,0.060,0.060,0.000,0.000,0.000
1644895941217773056,2022-02-15-03:32:21,10.1.1.4,28,0.070,0.070,0.070,0.000,0.000,0.000
1644895941277967104,2022-02-15-03:32:21,10.1.1.4,37,0.080,0.080,0.080,0.000,0.000,0.000
1644895941317199104,2022-02-15-03:32:21,10.1.1.4,25,0.090,0.090,0.090,0.000,0.000,0.000
1644895941380137984,2022-02-15-03:32:21,10.1.1.4,34,0.100,0.100,0.100,0.000,0.000,0.000
1644895941476154112,2022-02-15-03:32:21,10.1.1.4,32,0.080,0.080,0.080,0.000,0.000,0.000
1644895941517059072,2022-02-15-03:32:21,10.1.1.4,22,0.070,0.070,0.070,0.000,0.000,0.000
1644895941579444992,2022-02-15-03:32:21,10.1.1.4,31,0.060,0.060,0.060,0.000,0.000,0.000
1644895941703329024,2022-02-15-03:32:21,10.1.1.4,38,0.040,0.040,0.040,0.000,0.000,0.000
1644895941757796096,2022-02-15-03:32:21,10.1.1.4,37,0.030,0.030,0.030,0.000,0.000,0.000
1644895941796456960,2022-02-15-03:32:21,10.1.1.4,27,0.020,0.020,0.020,0.000,0.000,0.000
1644895941897572096,2022-02-15-03:32:21,10.1.1.4,25,0.000,0.000,0.000,0.000,0.000,0.000
1644895941963706112,2022-02-15-03:32:21,10.1.1.4,39,-0.010,-0.010,-0.010,0.000,0.000,0.000
1644895941998627840,2022-02-15-03:32:21,10.1.1.4,26,-0.020,-0.020,-0.020,0.000,0.000,0.000
1644895942059233024,2022-02-15-03:32:22,10.1.1.4,35,-0.030,-0.030,-0.030,0.000,0.000,0.000
1644895942102569984,2022-02-15-03:32:22,10.1.1.4,24,-0.040,-0.040,-0.040,0.000,0.000,0.000
1644895942167403008,2022-02-15-03:32:22,10.1.1.4,41,-0.050,-0.050,-0.050,0.000,0.000,0.000
1644895942200182016,2022-02-15-03:32:22,10.1.1.4,24,-0.060,-0.060,-0.060,0.000,0.000,0.000
1644895942257102848,2022-02-15-03:32:22,10.1.1.4,31,-0.070,-0.070,-0.070,0.000,0.000,0.000
1644895942302829056,2022-02-15-03:32:22,10.1.1.4,22,-0.080,-0.080,-0.080,0.000,0.000,0.000
1644895942418574080,2022-02-15-03:32:22,10.1.1.4,40,-0.100,-0.100,-0.100,0.000,0.000,0.000
1644895942458290944,2022-02-15-03:32:22,10.1.1.4,28,-0.090,-0.090,-0.090,0.000,0.000,0.000
1644895942517442816,2022-02-15-03:32:22,10.1.1.4,38,-0.080,-0.080,-0.080,0.000,0.000,0.000
1644895942557140992,2022-02-15-03:32:22,10.1.1.4,27,-0.070,-0.070,-0.070,0.000,0.000,0.000
1644895942617234944,2022-02-15-03:32:22,10.1.1.4,36,-0.060,-0.060,-0.060,0.000,0.000,0.000
1644895942657304064,2022-02-15-03:32:22,10.1.1.4,24,-0.050,-0.050,-0.050,0.000,0.000,0.000
1644895942719011072,2022-02-15-03:32:22,10.1.1.4,35,-0.040,-0.040,-0.040,0.000,0.000,0.000
1644895942819724032,2022-02-15-03:32:22,10.1.1.4,31,-0.020,-0.020,-0.020,0.000,0.000,0.000
1644895942857006080,2022-02-15-03:32:22,10.1.1.4,19,-0.010,-0.010,-0.010,0.000,0.000,0.000
1644895942917399040,2022-02-15-03:32:22,10.1.1.4,28,0.000,0.000,0.000,0.000,0.000,0.000
1644895942976649984,2022-02-15-03:32:22,10.1.1.4,36,0.010,0.010,0.010,0.000,0.000,0.000
1644895943017585920,2022-02-15-03:32:23,10.1.1.4,26,0.020,0.020,0.020,0.000,0.000,0.000
1644895943077608192,2022-02-15-03:32:23,10.1.1.4,35,0.030,0.030,0.030,0.000,0.000,0.000
1644895943117739008,2022-02-15-03:32:23,10.1.1.4,25,0.040,0.040,0.040,0.000,0.000,0.000
1644895943177004032,2022-02-15-03:32:23,10.1.1.4,32,0.050,0.050,0.050,0.000,0.000,0.000
1644895943216649984,2022-02-15-03:32:23,10.1.1.4,22,0.060,0.060,0.060,0.000,0.000,0.000
1644895943276961024,2022-02-15-03:32:23,10.1.1.4,31,0.070,0.070,0.070,0.000,0.000,0.000
1644895943316831232,2022-02-15-03:32:23,10.1.1.4,20,0.080,0.080,0.080,0.000,0.000,0.000
1644895943436711936,2022-02-15-03:32:23,10.1.1.4,39,0.100,0.100,0.100,0.000,0.000,0.000
1644895943476558080,2022-02-15-03:32:23,10.1.1.4,28,0.090,0.090,0.090,0.000,0.000,0.000
1644895943536115968,2022-02-15-03:32:23,10.1.1.4,37,0.080,0.080,0.080,0.000,0.000,0.000
1644895943576178944,2022-02-15-03:32:23,10.1.1.4,27,0.070,0.070,0.070,0.000,0.000,0.000
1644895943638708992,2022-02-15-03:32:23,10.1.1.4,36,0.060,0.060,0.060,0.000,0.000,0.000
1644895943676753152,2022-02-15-03:32:23,10.1.1.4,25,0.050,0.050,0.050,0.000,0.000,0.000
1644895943736513024,2022-02-15-03:32:23,10.1.1.4,32,0.040,0.040,0.040,0.000,0.000,0.000
1644895943776556032,2022-02-15-03:32:23,10.1.1.4,21,0.030,0.030,0.030,0.000,0.000,0.000
1644895943896378112,2022-02-15-03:32:23,10.1.1.4,39,0.010,0.010,0.010,0.000,0.000,0.000
1644895943937266176,2022-02-15-03:32:23,10.1.1.4,28,0.000,0.000,0.000,0.000,0.000,0.000
1644895943997332992,2022-02-15-03:32:23,10.1.1.4,37,-0.010,-0.010,-0.010,0.000,0.000,0.000
1644895944036933888,2022-02-15-03:32:24,10.1.1.4,27,-0.020,-0.020,-0.020,0.000,0.000,0.000
1644895944096517120,2022-02-15-03:32:24,10.1.1.4,36,-0.030,-0.030,-0.030,0.000,0.000,0.000
1644895944136570880,2022-02-15-03:32:24,10.1.1.4,25,-0.040,-0.040,-0.040,0.000,0.000,0.000
1644895944196667904,2022-02-15-03:32:24,10.1.1.4,34,-0.050,-0.050,-0.050,0.000,0.000,0.000
1644895944317161984,2022-02-15-03:32:24,10.1.1.4,39,-0.070,-0.070,-0.070,0.000,0.000,0.000
1644895944356844800,2022-02-15-03:32:24,10.1.1.4,26,-0.080,-0.080,-0.080,0.000,0.000,0.000
1644895944427015936,2022-02-15-03:32:24,10.1.1.4,33,-0.090,-0.090,-0.090,0.000,0.000,0.000
1644895944478513920,2022-02-15-03:32:24,10.1.1.4,34,-0.100,-0.100,-0.100,0.000,0.000,0.000
1644895944516321792,2022-02-15-03:32:24,10.1.1.4,21,-0.090,-0.090,-0.090,0.000,0.000,0.000
1644895944736782080,2022-02-15-03:32:24,10.1.1.4,38,-0.050,-0.050,-0.050,0.000,0.000,0.000
1644895944777133056,2022-02-15-03:32:24,10.1.1.4,27,-0.040,-0.040,-0.040,0.000,0.000,0.000
1644895944836837120,2022-02-15-03:32:24,10.1.1.4,36,-0.030,-0.030,-0.030,0.000,0.000,0.000
1644895944896692992,2022-02-15-03:32:24,10.1.1.4,39,-0.020,-0.020,-0.020,0.000,0.000,0.000
1644895944937133056,2022-02-15-03:32:24,10.1.1.4,28,-0.010,-0.010,-0.010,0.000,0.000,0.000
1644895944997126144,2022-02-15-03:32:24,10.1.1.4,37,0.000,0.000,0.000,0.000,0.000,0.000
1644895945036727808,2022-02-15-03:32:25,10.1.1.4,26,0.010,0.010,0.010,0.000,0.000,0.000
1644895945096252928,2022-02-15-03:32:25,10.1.1.4,35,0.020,0.020,0.020,0.000,0.000,0.000
1644895945136729856,2022-02-15-03:32:25,10.1.1.4,23,0.030,0.030,0.030,0.000,0.000,0.000
1644895945196680192,2022-02-15-03:32:25,10.1.1.4,32,0.040,0.040,0.040,0.000,0.000,0.000
1644895945236090880,2022-02-15-03:32:25,10.1.1.4,22,0.050,0.050,0.050,0.000,0.000,0.000
1644895945296768000,2022-02-15-03:32:25,10.1.1.4,28,0.060,0.060,0.060,0.000,0.000,0.000
1644895945356049920,2022-02-15-03:32:25,10.1.1.4,36,0.070,0.070,0.070,0.000,0.000,0.000
1644895945396462080,2022-02-15-03:32:25,10.1.1.4,26,0.080,0.080,0.080,0.000,0.000,0.000
1644895945456988160,2022-02-15-03:32:25,10.1.1.4,36,0.090,0.090,0.090,0.000,0.000,0.000
1644895945496706048,2022-02-15-03:32:25,10.1.1.4,25,0.100,0.100,0.100,0.000,0.000,0.000
1644895945556521984,2022-02-15-03:32:25,10.1.1.4,34,0.090,0.090,0.090,0.000,0.000,0.000
1644895945596977920,2022-02-15-03:32:25,10.1.1.4,24,0.080,0.080,0.080,0.000,0.000,0.000
1644895945656687104,2022-02-15-03:32:25,10.1.1.4,33,0.070,0.070,0.070,0.000,0.000,0.000
1644895945696471040,2022-02-15-03:32:25,10.1.1.4,23,0.060,0.060,0.060,0.000,0.000,0.000
1644895945756546048,2022-02-15-03:32:25,10.1.1.4,28,0.050,0.050,0.050,0.000,0.000,0.000
1644895945816595968,2022-02-15-03:32:25,10.1.1.4,37,0.040,0.040,0.040,0.000,0.000,0.000
1644895945858236160,2022-02-15-03:32:25,10.1.1.4,26,0.030,0.030,0.030,0.000,0.000,0.000
1644895945917222912,2022-02-15-03:32:25,10.1.1.4,36,0.020,0.020,0.020,0.000,0.000,0.000
1644895945957329152,2022-02-15-03:32:25,10.1.1.4,25,0.010,0.010,0.010,0.000,0.000,0.000
1644895946137157888,2022-02-15-03:32:26,10.1.1.4,38,-0.020,-0.020,-0.020,0.000,0.000,0.000
1644895946183751168,2022-02-15-03:32:26,10.1.1.4,27,-0.030,-0.030,-0.030,0.000,0.000,0.000
1644895946239348992,2022-02-15-03:32:26,10.1.1.4,36,-0.040,-0.040,-0.040,0.000,0.000,0.000
1644895946278038016,2022-02-15-03:32:26,10.1.1.4,25,-0.050,-0.050,-0.050,0.000,0.000,0.000
1644895946336237056,2022-02-15-03:32:26,10.1.1.4,26,-0.060,-0.060,-0.060,0.000,0.000,0.000
1644895946396560896,2022-02-15-03:32:26,10.1.1.4,36,-0.070,-0.070,-0.070,0.000,0.000,0.000
1644895946436721152,2022-02-15-03:32:26,10.1.1.4,26,-0.080,-0.080,-0.080,0.000,0.000,0.000
1644895946496756992,2022-02-15-03:32:26,10.1.1.4,35,-0.090,-0.090,-0.090,0.000,0.000,0.000
1644895946536775168,2022-02-15-03:32:26,10.1.1.4,24,-0.100,-0.100,-0.100,0.000,0.000,0.000
1644895946596697088,2022-02-15-03:32:26,10.1.1.4,34,-0.090,-0.090,-0.090,0.000,0.000,0.000
1644895946636998912,2022-02-15-03:32:26,10.1.1.4,23,-0.080,-0.080,-0.080,0.000,0.000,0.000
1644895946698658048,2022-02-15-03:32:26,10.1.1.4,33,-0.070,-0.070,-0.070,0.000,0.000,0.000
1644895946737606144,2022-02-15-03:32:26,10.1.1.4,22,-0.060,-0.060,-0.060,0.000,0.000,0.000
1644895946857687040,2022-02-15-03:32:26,10.1.1.4,39,-0.040,-0.040,-0.040,0.000,0.000,0.000
1644895946897381120,2022-02-15-03:32:26,10.1.1.4,28,-0.030,-0.030,-0.030,0.000,0.000,0.000
1644895946957053952,2022-02-15-03:32:26,10.1.1.4,36,-0.020,-0.020,-0.020,0.000,0.000,0.000
1644895946997590016,2022-02-15-03:32:26,10.1.1.4,25,-0.010,-0.010,-0.010,0.000,0.000,0.000
1644895947158651136,2022-02-15-03:32:27,10.1.1.4,29,0.020,0.020,0.020,0.000,0.000,0.000
1644895947217838080,2022-02-15-03:32:27,10.1.1.4,37,0.030,0.030,0.030,0.000,0.000,0.000
1644895947257591040,2022-02-15-03:32:27,10.1.1.4,26,0.040,0.040,0.040,0.000,0.000,0.000
1644895947317208064,2022-02-15-03:32:27,10.1.1.4,35,0.050,0.050,0.050,0.000,0.000,0.000
1644895947537105152,2022-02-15-03:32:27,10.1.1.4,39,0.090,0.090,0.090,0.000,0.000,0.000
1644895947577822976,2022-02-15-03:32:27,10.1.1.4,28,0.100,0.100,0.100,0.000,0.000,0.000
1644895947636983040,2022-02-15-03:32:27,10.1.1.4,36,0.090,0.090,0.090,0.000,0.000,0.000
1644895947676398080,2022-02-15-03:32:27,10.1.1.4,26,0.080,0.080,0.080,0.000,0.000,0.000
1644895947736676864,2022-02-15-03:32:27,10.1.1.4,35,0.070,0.070,0.070,0.000,0.000,0.000
1644895947776540928,2022-02-15-03:32:27,10.1.1.4,24,0.060,0.060,0.060,0.000,0.000,0.000
1644895947836484864,2022-02-15-03:32:27,10.1.1.4,33,0.050,0.050,0.050,0.000,0.000,0.000
1644895947936718848,2022-02-15-03:32:27,10.1.1.4,29,0.030,0.030,0.030,0.000,0.000,0.000
1644895947996848128,2022-02-15-03:32:27,10.1.1.4,38,0.020,0.020,0.020,0.000,0.000,0.000
1644895948036231936,2022-02-15-03:32:28,10.1.1.4,27,0.010,0.010,0.010,0.000,0.000,0.000
1644895948097598976,2022-02-15-03:32:28,10.1.1.4,35,0.000,0.000,0.000,0.000,0.000,0.000
1644895948157993984,2022-02-15-03:32:28,10.1.1.4,38,-0.010,-0.010,-0.010,0.000,0.000,0.000
1644895948197315840,2022-02-15-03:32:28,10.1.1.4,26,-0.020,-0.020,-0.020,0.000,0.000,0.000
1644895948256532992,2022-02-15-03:32:28,10.1.1.4,36,-0.030,-0.030,-0.030,0.000,0.000,0.000
1644895948296612096,2022-02-15-03:32:28,10.1.1.4,25,-0.040,-0.040,-0.040,0.000,0.000,0.000
1644895948357719040,2022-02-15-03:32:28,10.1.1.4,34,-0.050,-0.050,-0.050,0.000,0.000,0.000
1644895948519280896,2022-02-15-03:32:28,10.1.1.4,38,-0.080,-0.080,-0.080,0.000,0.000,0.000
1644895948617140992,2022-02-15-03:32:28,10.1.1.4,26,-0.100,-0.100,-0.100,0.000,0.000,0.000
1644895948679388160,2022-02-15-03:32:28,10.1.1.4,35,-0.090,-0.090,-0.090,0.000,0.000,0.000
1644895948716495872,2022-02-15-03:32:28,10.1.1.4,22,-0.080,-0.080,-0.080,0.000,0.000,0.000
1644895948777000960,2022-02-15-03:32:28,10.1.1.4,32,-0.070,-0.070,-0.070,0.000,0.000,0.000
1644895948937216000,2022-02-15-03:32:28,10.1.1.4,39,-0.040,-0.040,-0.040,0.000,0.000,0.000
1644895948977117184,2022-02-15-03:32:28,10.1.1.4,28,-0.030,-0.030,-0.030,0.000,0.000,0.000
1644895949036760064,2022-02-15-03:32:29,10.1.1.4,37,-0.020,-0.020,-0.020,0.000,0.000,0.000
1644895949076976896,2022-02-15-03:32:29,10.1.1.4,26,-0.010,-0.010,-0.010,0.000,0.000,0.000
1644895949137229056,2022-02-15-03:32:29,10.1.1.4,36,0.000,0.000,0.000,0.000,0.000,0.000
1644895949178200064,2022-02-15-03:32:29,10.1.1.4,25,0.010,0.010,0.010,0.000,0.000,0.000
1644895949236706048,2022-02-15-03:32:29,10.1.1.4,34,0.020,0.020,0.020,0.000,0.000,0.000
1644895949277440000,2022-02-15-03:32:29,10.1.1.4,24,0.030,0.030,0.030,0.000,0.000,0.000
1644895949336792832,2022-02-15-03:32:29,10.1.1.4,32,0.040,0.040,0.040,0.000,0.000,0.000
1644895949537550080,2022-02-15-03:32:29,10.1.1.4,28,0.080,0.080,0.080,0.000,0.000,0.000
1644895949597160960,2022-02-15-03:32:29,10.1.1.4,38,0.090,0.090,0.090,0.000,0.000,0.000
1644895949637243904,2022-02-15-03:32:29,10.1.1.4,27,0.100,0.100,0.100,0.000,0.000,0.000
1644895949701287936,2022-02-15-03:32:29,10.1.1.4,36,0.090,0.090,0.090,0.000,0.000,0.000
1644895949737560064,2022-02-15-03:32:29,10.1.1.4,25,0.080,0.080,0.080,0.000,0.000,0.000
1644895949797382144,2022-02-15-03:32:29,10.1.1.4,32,0.070,0.070,0.070,0.000,0.000,0.000
1644895949896574976,2022-02-15-03:32:29,10.1.1.4,28,0.050,0.050,0.050,0.000,0.000,0.000
1644895949956471808,2022-02-15-03:32:29,10.1.1.4,37,0.040,0.040,0.040,0.000,0.000,0.000
1644895949996563968,2022-02-15-03:32:29,10.1.1.4,23,0.030,0.030,0.030,0.000,0.000,0.000
1644895950056329984,2022-02-15-03:32:30,10.1.1.4,32,0.020,0.020,0.020,0.000,0.000,0.000
1644895950116456960,2022-02-15-03:32:30,10.1.1.4,38,0.010,0.010,0.010,0.000,0.000,0.000
1644895950157204992,2022-02-15-03:32:30,10.1.1.4,28,0.000,0.000,0.000,0.000,0.000,0.000
1644895950216590848,2022-02-15-03:32:30,10.1.1.4,37,-0.010,-0.010,-0.010,0.000,0.000,0.000
1644895950256974080,2022-02-15-03:32:30,10.1.1.4,26,-0.020,-0.020,-0.020,0.000,0.000,0.000
1644895950316873984,2022-02-15-03:32:30,10.1.1.4,35,-0.030,-0.030,-0.030,0.000,0.000,0.000
1644895950356091904,2022-02-15-03:32:30,10.1.1.4,25,-0.040,-0.040,-0.040,0.000,0.000,0.000
1644895950416790016,2022-02-15-03:32:30,10.1.1.4,34,-0.050,-0.050,-0.050,0.000,0.000,0.000
1644895950456445952,2022-02-15-03:32:30,10.1.1.4,24,-0.060,-0.060,-0.060,0.000,0.000,0.000
1644895950517043968,2022-02-15-03:32:30,10.1.1.4,33,-0.070,-0.070,-0.070,0.000,0.000,0.000
1644895950556647168,2022-02-15-03:32:30,10.1.1.4,22,-0.080,-0.080,-0.080,0.000,0.000,0.000
1644895950617100032,2022-02-15-03:32:30,10.1.1.4,31,-0.090,-0.090,-0.090,0.000,0.000,0.000
1644895950698232832,2022-02-15-03:32:30,10.1.1.4,9,-0.090,-0.090,-0.090,0.000,0.000,0.000
1644895950776084992,2022-02-15-03:32:30,10.1.1.4,38,-0.080,-0.080,-0.080,0.000,0.000,0.000
1644895950816557056,2022-02-15-03:32:30,10.1.1.4,28,-0.070,-0.070,-0.070,0.000,0.000,0.000
1644895950876601088,2022-02-15-03:32:30,10.1.1.4,37,-0.060,-0.060,-0.060,0.000,0.000,0.000
1644895950916402176,2022-02-15-03:32:30,10.1.1.4,26,-0.050,-0.050,-0.050,0.000,0.000,0.000
1644895950977313024,2022-02-15-03:32:30,10.1.1.4,36,-0.040,-0.040,-0.040,0.000,0.000,0.000
1644895951016465920,2022-02-15-03:32:31,10.1.1.4,25,-0.030,-0.030,-0.030,0.000,0.000,0.000
1644895951083026944,2022-02-15-03:32:31,10.1.1.4,34,-0.020,-0.020,-0.020,0.000,0.000,0.000
1644895951117063168,2022-02-15-03:32:31,10.1.1.4,23,-0.010,-0.010,-0.010,0.000,0.000,0.000
1644895951176520960,2022-02-15-03:32:31,10.1.1.4,32,0.000,0.000,0.000,0.000,0.000,0.000
1644895951216918016,2022-02-15-03:32:31,10.1.1.4,22,0.010,0.010,0.010,0.000,0.000,0.000
1644895951276781056,2022-02-15-03:32:31,10.1.1.4,31,0.020,0.020,0.020,0.000,0.000,0.000
1644895951436233984,2022-02-15-03:32:31,10.1.1.4,39,0.050,0.050,0.050,0.000,0.000,0.000
1644895951476300032,2022-02-15-03:32:31,10.1.1.4,28,0.060,0.060,0.060,0.000,0.000,0.000
1644895951536092160,2022-02-15-03:32:31,10.1.1.4,38,0.070,0.070,0.070,0.000,0.000,0.000
1644895951577448960,2022-02-15-03:32:31,10.1.1.4,27,0.080,0.080,0.080,0.000,0.000,0.000
1644895951636123904,2022-02-15-03:32:31,10.1.1.4,36,0.090,0.090,0.090,0.000,0.000,0.000
1644895951676291840,2022-02-15-03:32:31,10.1.1.4,25,0.100,0.100,0.100,0.000,0.000,0.000
1644895951736092928,2022-02-15-03:32:31,10.1.1.4,35,0.090,0.090,0.090,0.000,0.000,0.000
1644895951776370176,2022-02-15-03:32:31,10.1.1.4,24,0.080,0.080,0.080,0.000,0.000,0.000
1644895951836348160,2022-02-15-03:32:31,10.1.1.4,33,0.070,0.070,0.070,0.000,0.000,0.000
1644895951877191168,2022-02-15-03:32:31,10.1.1.4,23,0.060,0.060,0.060,0.000,0.000,0.000
1644895952036695040,2022-02-15-03:32:32,10.1.1.4,30,0.030,0.030,0.030,0.000,0.000,0.000
1644895952096226816,2022-02-15-03:32:32,10.1.1.4,39,0.020,0.020,0.020,0.000,0.000,0.000
1644895952136614144,2022-02-15-03:32:32,10.1.1.4,28,0.010,0.010,0.010,0.000,0.000,0.000
1644895952196396032,2022-02-15-03:32:32,10.1.1.4,38,0.000,0.000,0.000,0.000,0.000,0.000
1644895952236921088,2022-02-15-03:32:32,10.1.1.4,28,-0.010,-0.010,-0.010,0.000,0.000,0.000
1644895952296425216,2022-02-15-03:32:32,10.1.1.4,37,-0.020,-0.020,-0.020,0.000,0.000,0.000
1644895952340253952,2022-02-15-03:32:32,10.1.1.4,27,-0.030,-0.030,-0.030,0.000,0.000,0.000
1644895952396583936,2022-02-15-03:32:32,10.1.1.4,36,-0.040,-0.040,-0.040,0.000,0.000,0.000
1644895952436649984,2022-02-15-03:32:32,10.1.1.4,26,-0.050,-0.050,-0.050,0.000,0.000,0.000
1644895952496365056,2022-02-15-03:32:32,10.1.1.4,36,-0.060,-0.060,-0.060,0.000,0.000,0.000
1644895952536372992,2022-02-15-03:32:32,10.1.1.4,25,-0.070,-0.070,-0.070,0.000,0.000,0.000
1644895952597588992,2022-02-15-03:32:32,10.1.1.4,35,-0.080,-0.080,-0.080,0.000,0.000,0.000
1644895952636889088,2022-02-15-03:32:32,10.1.1.4,24,-0.090,-0.090,-0.090,0.000,0.000,0.000
1644895952700911872,2022-02-15-03:32:32,10.1.1.4,33,-0.100,-0.100,-0.100,0.000,0.000,0.000
1644895952857420800,2022-02-15-03:32:32,10.1.1.4,39,-0.070,-0.070,-0.070,0.000,0.000,0.000
1644895952897658112,2022-02-15-03:32:32,10.1.1.4,27,-0.060,-0.060,-0.060,0.000,0.000,0.000
1644895952957317120,2022-02-15-03:32:32,10.1.1.4,36,-0.050,-0.050,-0.050,0.000,0.000,0.000
1644895952997719040,2022-02-15-03:32:32,10.1.1.4,25,-0.040,-0.040,-0.040,0.000,0.000,0.000
1644895953057148928,2022-02-15-03:32:33,10.1.1.4,34,-0.030,-0.030,-0.030,0.000,0.000,0.000
1644895953097660160,2022-02-15-03:32:33,10.1.1.4,23,-0.020,-0.020,-0.020,0.000,0.000,0.000
1644895953157481984,2022-02-15-03:32:33,10.1.1.4,31,-0.010,-0.010,-0.010,0.000,0.000,0.000
1644895953256460032,2022-02-15-03:32:33,10.1.1.4,30,0.010,0.010,0.010,0.000,0.000,0.000
1644895953317542144,2022-02-15-03:32:33,10.1.1.4,39,0.020,0.020,0.020,0.000,0.000,0.000
1644895953357224960,2022-02-15-03:32:33,10.1.1.4,29,0.030,0.030,0.030,0.000,0.000,0.000
1644895953417347072,2022-02-15-03:32:33,10.1.1.4,38,0.040,0.040,0.040,0.000,0.000,0.000
1644895953457250048,2022-02-15-03:32:33,10.1.1.4,27,0.050,0.050,0.050,0.000,0.000,0.000
1644895953518444032,2022-02-15-03:32:33,10.1.1.4,36,0.060,0.060,0.060,0.000,0.000,0.000
1644895953558403072,2022-02-15-03:32:33,10.1.1.4,25,0.070,0.070,0.070,0.000,0.000,0.000
1644895953616611072,2022-02-15-03:32:33,10.1.1.4,34,0.080,0.080,0.080,0.000,0.000,0.000
1644895953656854016,2022-02-15-03:32:33,10.1.1.4,23,0.090,0.090,0.090,0.000,0.000,0.000
1644895953736648960,2022-02-15-03:32:33,10.1.1.4,0,0.090,0.090,0.090,0.000,0.000,0.000
1644895953877079040,2022-02-15-03:32:33,10.1.1.4,39,0.070,0.070,0.070,0.000,0.000,0.000
1644895953916486144,2022-02-15-03:32:33,10.1.1.4,28,0.060,0.060,0.060,0.000,0.000,0.000
1644895953976556032,2022-02-15-03:32:33,10.1.1.4,37,0.050,0.050,0.050,0.000,0.000,0.000
1644895954017199872,2022-02-15-03:32:34,10.1.1.4,26,0.040,0.040,0.040,0.000,0.000,0.000
1644895954077428224,2022-02-15-03:32:34,10.1.1.4,35,0.030,0.030,0.030,0.000,0.000,0.000
1644895954116892928,2022-02-15-03:32:34,10.1.1.4,25,0.020,0.020,0.020,0.000,0.000,0.000
1644895954177011968,2022-02-15-03:32:34,10.1.1.4,33,0.010,0.010,0.010,0.000,0.000,0.000
1644895954277744896,2022-02-15-03:32:34,10.1.1.4,29,-0.010,-0.010,-0.010,0.000,0.000,0.000
1644895954336258816,2022-02-15-03:32:34,10.1.1.4,39,-0.020,-0.020,-0.020,0.000,0.000,0.000
1644895954376743168,2022-02-15-03:32:34,10.1.1.4,28,-0.030,-0.030,-0.030,0.000,0.000,0.000
1644895954436715008,2022-02-15-03:32:34,10.1.1.4,38,-0.040,-0.040,-0.040,0.000,0.000,0.000
1644895954478092800,2022-02-15-03:32:34,10.1.1.4,27,-0.050,-0.050,-0.050,0.000,0.000,0.000
1644895954797414912,2022-02-15-03:32:34,10.1.1.4,39,-0.090,-0.090,-0.090,0.000,0.000,0.000
1644895954836737024,2022-02-15-03:32:34,10.1.1.4,27,-0.080,-0.080,-0.080,0.000,0.000,0.000
1644895954896852992,2022-02-15-03:32:34,10.1.1.4,36,-0.070,-0.070,-0.070,0.000,0.000,0.000
1644895954939322880,2022-02-15-03:32:34,10.1.1.4,25,-0.060,-0.060,-0.060,0.000,0.000,0.000
1644895954997082112,2022-02-15-03:32:34,10.1.1.4,34,-0.050,-0.050,-0.050,0.000,0.000,0.000
1644895955036758784,2022-02-15-03:32:35,10.1.1.4,22,-0.040,-0.040,-0.040,0.000,0.000,0.000
1644895955137419008,2022-02-15-03:32:35,10.1.1.4,19,-0.020,-0.020,-0.020,0.000,0.000,0.000
1644895955196753152,2022-02-15-03:32:35,10.1.1.4,29,-0.010,-0.010,-0.010,0.000,0.000,0.000
1644895955256731904,2022-02-15-03:32:35,10.1.1.4,38,0.000,0.000,0.000,0.000,0.000,0.000
1644895955296808960,2022-02-15-03:32:35,10.1.1.4,27,0.010,0.010,0.010,0.000,0.000,0.000
1644895955357501952,2022-02-15-03:32:35,10.1.1.4,37,0.020,0.020,0.020,0.000,0.000,0.000
1644895955397735168,2022-02-15-03:32:35,10.1.1.4,26,0.030,0.030,0.030,0.000,0.000,0.000
1644895955456846080,2022-02-15-03:32:35,10.1.1.4,36,0.040,0.040,0.040,0.000,0.000,0.000
1644895955496589056,2022-02-15-03:32:35,10.1.1.4,24,0.050,0.050,0.050,0.000,0.000,0.000
1644895955556571904,2022-02-15-03:32:35,10.1.1.4,34,0.060,0.060,0.060,0.000,0.000,0.000
1644895955596548096,2022-02-15-03:32:35,10.1.1.4,23,0.070,0.070,0.070,0.000,0.000,0.000
1644895955657711104,2022-02-15-03:32:35,10.1.1.4,32,0.080,0.080,0.080,0.000,0.000,0.000
1644895955796824064,2022-02-15-03:32:35,10.1.1.4,20,0.090,0.090,0.090,0.000,0.000,0.000
1644895955856414976,2022-02-15-03:32:35,10.1.1.4,28,0.080,0.080,0.080,0.000,0.000,0.000
1644895955877645056,2022-02-15-03:32:35,10.1.1.4,-2,0.080,0.080,0.080,0.000,0.000,0.000
1644895955957746944,2022-02-15-03:32:35,10.1.1.4,27,0.060,0.060,0.060,0.000,0.000,0.000
1644895956016967168,2022-02-15-03:32:36,10.1.1.4,36,0.050,0.050,0.050,0.000,0.000,0.000
1644895956056988928,2022-02-15-03:32:36,10.1.1.4,26,0.040,0.040,0.040,0.000,0.000,0.000
1644895956116957952,2022-02-15-03:32:36,10.1.1.4,35,0.030,0.030,0.030,0.000,0.000,0.000
1644895956157225984,2022-02-15-03:32:36,10.1.1.4,24,0.020,0.020,0.020,0.000,0.000,0.000
1644895956217225984,2022-02-15-03:32:36,10.1.1.4,34,0.010,0.010,0.010,0.000,0.000,0.000
1644895956256666880,2022-02-15-03:32:36,10.1.1.4,23,0.000,0.000,0.000,0.000,0.000,0.000
1644895956316848896,2022-02-15-03:32:36,10.1.1.4,33,-0.010,-0.010,-0.010,0.000,0.000,0.000
1644895956357168896,2022-02-15-03:32:36,10.1.1.4,22,-0.020,-0.020,-0.020,0.000,0.000,0.000
1644895956417145856,2022-02-15-03:32:36,10.1.1.4,32,-0.030,-0.030,-0.030,0.000,0.000,0.000
1644895956617392896,2022-02-15-03:32:36,10.1.1.4,29,-0.070,-0.070,-0.070,0.000,0.000,0.000
1644895956677818112,2022-02-15-03:32:36,10.1.1.4,38,-0.080,-0.080,-0.080,0.000,0.000,0.000
1644895956717460992,2022-02-15-03:32:36,10.1.1.4,28,-0.090,-0.090,-0.090,0.000,0.000,0.000
1644895956777595904,2022-02-15-03:32:36,10.1.1.4,37,-0.100,-0.100,-0.100,0.000,0.000,0.000
1644895956817061888,2022-02-15-03:32:36,10.1.1.4,26,-0.090,-0.090,-0.090,0.000,0.000,0.000
1644895956876990976,2022-02-15-03:32:36,10.1.1.4,36,-0.080,-0.080,-0.080,0.000,0.000,0.000
1644895956916475136,2022-02-15-03:32:36,10.1.1.4,25,-0.070,-0.070,-0.070,0.000,0.000,0.000
1644895956977137920,2022-02-15-03:32:36,10.1.1.4,34,-0.060,-0.060,-0.060,0.000,0.000,0.000
1644895957137240832,2022-02-15-03:32:37,10.1.1.4,39,-0.030,-0.030,-0.030,0.000,0.000,0.000
1644895957177329152,2022-02-15-03:32:37,10.1.1.4,27,-0.020,-0.020,-0.020,0.000,0.000,0.000
1644895957236640000,2022-02-15-03:32:37,10.1.1.4,37,-0.010,-0.010,-0.010,0.000,0.000,0.000
1644895957276940032,2022-02-15-03:32:37,10.1.1.4,26,0.000,0.000,0.000,0.000,0.000,0.000
1644895957336733952,2022-02-15-03:32:37,10.1.1.4,36,0.010,0.010,0.010,0.000,0.000,0.000
1644895957377000192,2022-02-15-03:32:37,10.1.1.4,25,0.020,0.020,0.020,0.000,0.000,0.000
1644895957437718016,2022-02-15-03:32:37,10.1.1.4,34,0.030,0.030,0.030,0.000,0.000,0.000
1644895957476649984,2022-02-15-03:32:37,10.1.1.4,22,0.040,0.040,0.040,0.000,0.000,0.000
1644895957537188096,2022-02-15-03:32:37,10.1.1.4,31,0.050,0.050,0.050,0.000,0.000,0.000
1644895957638689024,2022-02-15-03:32:37,10.1.1.4,29,0.070,0.070,0.070,0.000,0.000,0.000
1644895957699160064,2022-02-15-03:32:37,10.1.1.4,37,0.080,0.080,0.080,0.000,0.000,0.000
1644895957737920000,2022-02-15-03:32:37,10.1.1.4,26,0.090,0.090,0.090,0.000,0.000,0.000
1644895957797914112,2022-02-15-03:32:37,10.1.1.4,35,0.100,0.100,0.100,0.000,0.000,0.000
1644895957838021120,2022-02-15-03:32:37,10.1.1.4,23,0.090,0.090,0.090,0.000,0.000,0.000
1644895957897145088,2022-02-15-03:32:37,10.1.1.4,32,0.080,0.080,0.080,0.000,0.000,0.000
1644895958057449216,2022-02-15-03:32:38,10.1.1.4,37,0.050,0.050,0.050,0.000,0.000,0.000
1644895958097305088,2022-02-15-03:32:38,10.1.1.4,26,0.040,0.040,0.040,0.000,0.000,0.000
1644895958157216000,2022-02-15-03:32:38,10.1.1.4,34,0.030,0.030,0.030,0.000,0.000,0.000
1644895958198497024,2022-02-15-03:32:38,10.1.1.4,24,0.020,0.020,0.020,0.000,0.000,0.000
1644895958257414144,2022-02-15-03:32:38,10.1.1.4,33,0.010,0.010,0.010,0.000,0.000,0.000
1644895958418519040,2022-02-15-03:32:38,10.1.1.4,39,-0.020,-0.020,-0.020,0.000,0.000,0.000
1644895958457221888,2022-02-15-03:32:38,10.1.1.4,27,-0.030,-0.030,-0.030,0.000,0.000,0.000
1644895958516932096,2022-02-15-03:32:38,10.1.1.4,37,-0.040,-0.040,-0.040,0.000,0.000,0.000
1644895958557969152,2022-02-15-03:32:38,10.1.1.4,26,-0.050,-0.050,-0.050,0.000,0.000,0.000
1644895958617299968,2022-02-15-03:32:38,10.1.1.4,34,-0.060,-0.060,-0.060,0.000,0.000,0.000
1644895958658838016,2022-02-15-03:32:38,10.1.1.4,23,-0.070,-0.070,-0.070,0.000,0.000,0.000
1644895958820770048,2022-02-15-03:32:38,10.1.1.4,29,-0.100,-0.100,-0.100,0.000,0.000,0.000
1644895958878665984,2022-02-15-03:32:38,10.1.1.4,37,-0.090,-0.090,-0.090,0.000,0.000,0.000
1644895958918127104,2022-02-15-03:32:38,10.1.1.4,27,-0.080,-0.080,-0.080,0.000,0.000,0.000
1644895958977388032,2022-02-15-03:32:38,10.1.1.4,36,-0.070,-0.070,-0.070,0.000,0.000,0.000
1644895959017657088,2022-02-15-03:32:39,10.1.1.4,25,-0.060,-0.060,-0.060,0.000,0.000,0.000
1644895959079276032,2022-02-15-03:32:39,10.1.1.4,31,-0.050,-0.050,-0.050,0.000,0.000,0.000
1644895959177843968,2022-02-15-03:32:39,10.1.1.4,29,-0.030,-0.030,-0.030,0.000,0.000,0.000
1644895959237245184,2022-02-15-03:32:39,10.1.1.4,34,-0.020,-0.020,-0.020,0.000,0.000,0.000
1644895959276751104,2022-02-15-03:32:39,10.1.1.4,23,-0.010,-0.010,-0.010,0.000,0.000,0.000
1644895959337302016,2022-02-15-03:32:39,10.1.1.4,32,0.000,0.000,0.000,0.000,0.000,0.000
1644895959376924928,2022-02-15-03:32:39,10.1.1.4,21,0.010,0.010,0.010,0.000,0.000,0.000
1644895959536783872,2022-02-15-03:32:39,10.1.1.4,29,0.040,0.040,0.040,0.000,0.000,0.000
1644895959597593088,2022-02-15-03:32:39,10.1.1.4,39,0.050,0.050,0.050,0.000,0.000,0.000
1644895959636903168,2022-02-15-03:32:39,10.1.1.4,28,0.060,0.060,0.060,0.000,0.000,0.000
1644895959696728064,2022-02-15-03:32:39,10.1.1.4,37,0.070,0.070,0.070,0.000,0.000,0.000
1644895959737219072,2022-02-15-03:32:39,10.1.1.4,26,0.080,0.080,0.080,0.000,0.000,0.000
1644895959796716032,2022-02-15-03:32:39,10.1.1.4,35,0.090,0.090,0.090,0.000,0.000,0.000
1644895959836976896,2022-02-15-03:32:39,10.1.1.4,24,0.100,0.100,0.100,0.000,0.000,0.000
1644895959897156096,2022-02-15-03:32:39,10.1.1.4,34,0.090,0.090,0.090,0.000,0.000,0.000
1644895959938759936,2022-02-15-03:32:39,10.1.1.4,22,0.080,0.080,0.080,0.000,0.000,0.000
1644895959998481920,2022-02-15-03:32:39,10.1.1.4,31,0.070,0.070,0.070,0.000,0.000,0.000
1644895960096646144,2022-02-15-03:32:40,10.1.1.4,29,0.050,0.050,0.050,0.000,0.000,0.000
1644895960157250816,2022-02-15-03:32:40,10.1.1.4,38,0.040,0.040,0.040,0.000,0.000,0.000
1644895960197620992,2022-02-15-03:32:40,10.1.1.4,28,0.030,0.030,0.030,0.000,0.000,0.000
1644895960257772032,2022-02-15-03:32:40,10.1.1.4,37,0.020,0.020,0.020,0.000,0.000,0.000
1644895960298417920,2022-02-15-03:32:40,10.1.1.4,26,0.010,0.010,0.010,0.000,0.000,0.000
1644895960356967936,2022-02-15-03:32:40,10.1.1.4,35,0.000,0.000,0.000,0.000,0.000,0.000
1644895960397961984,2022-02-15-03:32:40,10.1.1.4,24,-0.010,-0.010,-0.010,0.000,0.000,0.000
1644895960456815104,2022-02-15-03:32:40,10.1.1.4,34,-0.020,-0.020,-0.020,0.000,0.000,0.000
1644895960498269184,2022-02-15-03:32:40,10.1.1.4,22,-0.030,-0.030,-0.030,0.000,0.000,0.000
1644895960618291968,2022-02-15-03:32:40,10.1.1.4,38,-0.050,-0.050,-0.050,0.000,0.000,0.000
1644895960657239808,2022-02-15-03:32:40,10.1.1.4,27,-0.060,-0.060,-0.060,0.000,0.000,0.000
1644895960717245184,2022-02-15-03:32:40,10.1.1.4,36,-0.070,-0.070,-0.070,0.000,0.000,0.000
1644895960757395968,2022-02-15-03:32:40,10.1.1.4,24,-0.080,-0.080,-0.080,0.000,0.000,0.000
1644895960818772992,2022-02-15-03:32:40,10.1.1.4,34,-0.090,-0.090,-0.090,0.000,0.000,0.000
1644895960897536000,2022-02-15-03:32:40,10.1.1.4,11,-0.090,-0.090,-0.090,0.000,0.000,0.000
1644895961017944064,2022-02-15-03:32:41,10.1.1.4,29,-0.070,-0.070,-0.070,0.000,0.000,0.000
1644895961077473024,2022-02-15-03:32:41,10.1.1.4,38,-0.060,-0.060,-0.060,0.000,0.000,0.000
1644895961117541120,2022-02-15-03:32:41,10.1.1.4,27,-0.050,-0.050,-0.050,0.000,0.000,0.000
1644895961177819904,2022-02-15-03:32:41,10.1.1.4,36,-0.040,-0.040,-0.040,0.000,0.000,0.000
1644895961217186816,2022-02-15-03:32:41,10.1.1.4,25,-0.030,-0.030,-0.030,0.000,0.000,0.000
1644895961276909056,2022-02-15-03:32:41,10.1.1.4,33,-0.020,-0.020,-0.020,0.000,0.000,0.000
1644895961437697792,2022-02-15-03:32:41,10.1.1.4,39,0.010,0.010,0.010,0.000,0.000,0.000
1644895961478043136,2022-02-15-03:32:41,10.1.1.4,27,0.020,0.020,0.020,0.000,0.000,0.000
1644895961537387008,2022-02-15-03:32:41,10.1.1.4,35,0.030,0.030,0.030,0.000,0.000,0.000
1644895961637366016,2022-02-15-03:32:41,10.1.1.4,29,0.050,0.050,0.050,0.000,0.000,0.000
1644895961698658816,2022-02-15-03:32:41,10.1.1.4,36,0.060,0.060,0.060,0.000,0.000,0.000
1644895961737382912,2022-02-15-03:32:41,10.1.1.4,24,0.070,0.070,0.070,0.000,0.000,0.000
1644895961797743104,2022-02-15-03:32:41,10.1.1.4,33,0.080,0.080,0.080,0.000,0.000,0.000
1644895961978183936,2022-02-15-03:32:41,10.1.1.4,9,0.080,0.080,0.080,0.000,0.000,0.000
1644895962057073152,2022-02-15-03:32:42,10.1.1.4,38,0.070,0.070,0.070,0.000,0.000,0.000
1644895962098073856,2022-02-15-03:32:42,10.1.1.4,27,0.060,0.060,0.060,0.000,0.000,0.000
1644895962158348032,2022-02-15-03:32:42,10.1.1.4,37,0.050,0.050,0.050,0.000,0.000,0.000
1644895962199259904,2022-02-15-03:32:42,10.1.1.4,25,0.040,0.040,0.040,0.000,0.000,0.000
1644895962257175040,2022-02-15-03:32:42,10.1.1.4,34,0.030,0.030,0.030,0.000,0.000,0.000
1644895962418459904,2022-02-15-03:32:42,10.1.1.4,37,0.000,0.000,0.000,0.000,0.000,0.000
1644895962456780800,2022-02-15-03:32:42,10.1.1.4,25,-0.010,-0.010,-0.010,0.000,0.000,0.000
1644895962517374976,2022-02-15-03:32:42,10.1.1.4,33,-0.020,-0.020,-0.020,0.000,0.000,0.000
1644895962577805056,2022-02-15-03:32:42,10.1.1.4,37,-0.030,-0.030,-0.030,0.000,0.000,0.000
1644895962618339072,2022-02-15-03:32:42,10.1.1.4,25,-0.040,-0.040,-0.040,0.000,0.000,0.000
1644895962677292032,2022-02-15-03:32:42,10.1.1.4,34,-0.050,-0.050,-0.050,0.000,0.000,0.000
1644895962817513984,2022-02-15-03:32:42,10.1.1.4,19,-0.080,-0.080,-0.080,0.000,0.000,0.000
1644895962877588992,2022-02-15-03:32:42,10.1.1.4,28,-0.090,-0.090,-0.090,0.000,0.000,0.000
1644895962937524992,2022-02-15-03:32:42,10.1.1.4,37,-0.100,-0.100,-0.100,0.000,0.000,0.000
1644895962977982976,2022-02-15-03:32:42,10.1.1.4,27,-0.090,-0.090,-0.090,0.000,0.000,0.000
1644895963037246976,2022-02-15-03:32:43,10.1.1.4,36,-0.080,-0.080,-0.080,0.000,0.000,0.000
1644895963077900032,2022-02-15-03:32:43,10.1.1.4,25,-0.070,-0.070,-0.070,0.000,0.000,0.000
1644895963137731072,2022-02-15-03:32:43,10.1.1.4,35,-0.060,-0.060,-0.060,0.000,0.000,0.000
1644895963177395968,2022-02-15-03:32:43,10.1.1.4,23,-0.050,-0.050,-0.050,0.000,0.000,0.000
1644895963236253952,2022-02-15-03:32:43,10.1.1.4,33,-0.040,-0.040,-0.040,0.000,0.000,0.000
1644895963276384000,2022-02-15-03:32:43,10.1.1.4,21,-0.030,-0.030,-0.030,0.000,0.000,0.000
1644895963437225984,2022-02-15-03:32:43,10.1.1.4,29,0.000,0.000,0.000,0.000,0.000,0.000
1644895963497649920,2022-02-15-03:32:43,10.1.1.4,38,0.010,0.010,0.010,0.000,0.000,0.000
1644895963537289984,2022-02-15-03:32:43,10.1.1.4,27,0.020,0.020,0.020,0.000,0.000,0.000
1644895963596996096,2022-02-15-03:32:43,10.1.1.4,36,0.030,0.030,0.030,0.000,0.000,0.000
1644895963637629952,2022-02-15-03:32:43,10.1.1.4,25,0.040,0.040,0.040,0.000,0.000,0.000
1644895963697594880,2022-02-15-03:32:43,10.1.1.4,34,0.050,0.050,0.050,0.000,0.000,0.000
1644895963736943104,2022-02-15-03:32:43,10.1.1.4,22,0.060,0.060,0.060,0.000,0.000,0.000
1644895963796910080,2022-02-15-03:32:43,10.1.1.4,29,0.070,0.070,0.070,0.000,0.000,0.000
1644895963857542144,2022-02-15-03:32:43,10.1.1.4,38,0.080,0.080,0.080,0.000,0.000,0.000
1644895963897094912,2022-02-15-03:32:43,10.1.1.4,26,0.090,0.090,0.090,0.000,0.000,0.000
1644895963957629952,2022-02-15-03:32:43,10.1.1.4,35,0.100,0.100,0.100,0.000,0.000,0.000
1644895963997271040,2022-02-15-03:32:43,10.1.1.4,24,0.090,0.090,0.090,0.000,0.000,0.000
1644895964057588224,2022-02-15-03:32:44,10.1.1.4,32,0.080,0.080,0.080,0.000,0.000,0.000
1644895964218141184,2022-02-15-03:32:44,10.1.1.4,39,0.050,0.050,0.050,0.000,0.000,0.000
1644895964257318144,2022-02-15-03:32:44,10.1.1.4,27,0.040,0.040,0.040,0.000,0.000,0.000
1644895964316620032,2022-02-15-03:32:44,10.1.1.4,36,0.030,0.030,0.030,0.000,0.000,0.000
1644895964358185984,2022-02-15-03:32:44,10.1.1.4,26,0.020,0.020,0.020,0.000,0.000,0.000
1644895964417044992,2022-02-15-03:32:44,10.1.1.4,35,0.010,0.010,0.010,0.000,0.000,0.000
1644895964457273088,2022-02-15-03:32:44,10.1.1.4,24,0.000,0.000,0.000,0.000,0.000,0.000
1644895964517267968,2022-02-15-03:32:44,10.1.1.4,33,-0.010,-0.010,-0.010,0.000,0.000,0.000
1644895964616844032,2022-02-15-03:32:44,10.1.1.4,29,-0.030,-0.030,-0.030,0.000,0.000,0.000
1644895964677346048,2022-02-15-03:32:44,10.1.1.4,38,-0.040,-0.040,-0.040,0.000,0.000,0.000
1644895964717475840,2022-02-15-03:32:44,10.1.1.4,27,-0.050,-0.050,-0.050,0.000,0.000,0.000
1644895964779038976,2022-02-15-03:32:44,10.1.1.4,37,-0.060,-0.060,-0.060,0.000,0.000,0.000
1644895964816696832,2022-02-15-03:32:44,10.1.1.4,25,-0.070,-0.070,-0.070,0.000,0.000,0.000
1644895964876864000,2022-02-15-03:32:44,10.1.1.4,34,-0.080,-0.080,-0.080,0.000,0.000,0.000
1644895964977552896,2022-02-15-03:32:44,10.1.1.4,30,-0.100,-0.100,-0.100,0.000,0.000,0.000
1644895965037508864,2022-02-15-03:32:45,10.1.1.4,38,-0.090,-0.090,-0.090,0.000,0.000,0.000
1644895965077636864,2022-02-15-03:32:45,10.1.1.4,27,-0.080,-0.080,-0.080,0.000,0.000,0.000
1644895965138287104,2022-02-15-03:32:45,10.1.1.4,36,-0.070,-0.070,-0.070,0.000,0.000,0.000
1644895965177284096,2022-02-15-03:32:45,10.1.1.4,25,-0.060,-0.060,-0.060,0.000,0.000,0.000
1644895965236971008,2022-02-15-03:32:45,10.1.1.4,34,-0.050,-0.050,-0.050,0.000,0.000,0.000
1644895965277210112,2022-02-15-03:32:45,10.1.1.4,23,-0.040,-0.040,-0.040,0.000,0.000,0.000
1644895965337709056,2022-02-15-03:32:45,10.1.1.4,32,-0.030,-0.030,-0.030,0.000,0.000,0.000
1644895965437017856,2022-02-15-03:32:45,10.1.1.4,29,-0.010,-0.010,-0.010,0.000,0.000,0.000
1644895965497338112,2022-02-15-03:32:45,10.1.1.4,37,0.000,0.000,0.000,0.000,0.000,0.000
1644895965537362944,2022-02-15-03:32:45,10.1.1.4,26,0.010,0.010,0.010,0.000,0.000,0.000
1644895965597296896,2022-02-15-03:32:45,10.1.1.4,35,0.020,0.020,0.020,0.000,0.000,0.000
1644895965637748992,2022-02-15-03:32:45,10.1.1.4,24,0.030,0.030,0.030,0.000,0.000,0.000
1644895965757349120,2022-02-15-03:32:45,10.1.1.4,38,0.050,0.050,0.050,0.000,0.000,0.000
1644895965797640192,2022-02-15-03:32:45,10.1.1.4,27,0.060,0.060,0.060,0.000,0.000,0.000
1644895965857530112,2022-02-15-03:32:45,10.1.1.4,36,0.070,0.070,0.070,0.000,0.000,0.000
1644895965897587968,2022-02-15-03:32:45,10.1.1.4,25,0.080,0.080,0.080,0.000,0.000,0.000
1644895965957264896,2022-02-15-03:32:45,10.1.1.4,34,0.090,0.090,0.090,0.000,0.000,0.000
1644895965997152000,2022-02-15-03:32:45,10.1.1.4,23,0.100,0.100,0.100,0.000,0.000,0.000
1644895966057184000,2022-02-15-03:32:46,10.1.1.4,33,0.090,0.090,0.090,0.000,0.000,0.000
1644895966097424128,2022-02-15-03:32:46,10.1.1.4,22,0.080,0.080,0.080,0.000,0.000,0.000
1644895966218356992,2022-02-15-03:32:46,10.1.1.4,39,0.060,0.060,0.060,0.000,0.000,0.000
1644895966257952000,2022-02-15-03:32:46,10.1.1.4,28,0.050,0.050,0.050,0.000,0.000,0.000
1644895966317782016,2022-02-15-03:32:46,10.1.1.4,36,0.040,0.040,0.040,0.000,0.000,0.000
1644895966418247936,2022-02-15-03:32:46,10.1.1.4,32,0.020,0.020,0.020,0.000,0.000,0.000
1644895966577572096,2022-02-15-03:32:46,10.1.1.4,39,-0.010,-0.010,-0.010,0.000,0.000,0.000
1644895966617750016,2022-02-15-03:32:46,10.1.1.4,29,-0.020,-0.020,-0.020,0.000,0.000,0.000
1644895966677312000,2022-02-15-03:32:46,10.1.1.4,38,-0.030,-0.030,-0.030,0.000,0.000,0.000
1644895966716674048,2022-02-15-03:32:46,10.1.1.4,27,-0.040,-0.040,-0.040,0.000,0.000,0.000
1644895966777986048,2022-02-15-03:32:46,10.1.1.4,36,-0.050,-0.050,-0.050,0.000,0.000,0.000
1644895966817899008,2022-02-15-03:32:46,10.1.1.4,25,-0.060,-0.060,-0.060,0.000,0.000,0.000
1644895966877353984,2022-02-15-03:32:46,10.1.1.4,34,-0.070,-0.070,-0.070,0.000,0.000,0.000
1644895967037266944,2022-02-15-03:32:47,10.1.1.4,38,-0.100,-0.100,-0.100,0.000,0.000,0.000
1644895967077867008,2022-02-15-03:32:47,10.1.1.4,26,-0.090,-0.090,-0.090,0.000,0.000,0.000
1644895967137137920,2022-02-15-03:32:47,10.1.1.4,36,-0.080,-0.080,-0.080,0.000,0.000,0.000
1644895967177776128,2022-02-15-03:32:47,10.1.1.4,25,-0.070,-0.070,-0.070,0.000,0.000,0.000
1644895967239267072,2022-02-15-03:32:47,10.1.1.4,36,-0.060,-0.060,-0.060,0.000,0.000,0.000
1644895967437169152,2022-02-15-03:32:47,10.1.1.4,28,-0.020,-0.020,-0.020,0.000,0.000,0.000
1644895967498066944,2022-02-15-03:32:47,10.1.1.4,38,-0.010,-0.010,-0.010,0.000,0.000,0.000
1644895967537507072,2022-02-15-03:32:47,10.1.1.4,26,0.000,0.000,0.000,0.000,0.000,0.000
1644895967597033984,2022-02-15-03:32:47,10.1.1.4,35,0.010,0.010,0.010,0.000,0.000,0.000
1644895967698138880,2022-02-15-03:32:47,10.1.1.4,29,0.030,0.030,0.030,0.000,0.000,0.000
1644895967758206976,2022-02-15-03:32:47,10.1.1.4,38,0.040,0.040,0.040,0.000,0.000,0.000
1644895967797640192,2022-02-15-03:32:47,10.1.1.4,27,0.050,0.050,0.050,0.000,0.000,0.000
1644895967857188096,2022-02-15-03:32:47,10.1.1.4,36,0.060,0.060,0.060,0.000,0.000,0.000
1644895967896457984,2022-02-15-03:32:47,10.1.1.4,25,0.070,0.070,0.070,0.000,0.000,0.000
1644895967956947968,2022-02-15-03:32:47,10.1.1.4,34,0.080,0.080,0.080,0.000,0.000,0.000
1644895967997640960,2022-02-15-03:32:47,10.1.1.4,23,0.090,0.090,0.090,0.000,0.000,0.000
1644895968057841920,2022-02-15-03:32:48,10.1.1.4,32,0.100,0.100,0.100,0.000,0.000,0.000
1644895968217139968,2022-02-15-03:32:48,10.1.1.4,39,0.070,0.070,0.070,0.000,0.000,0.000
1644895968257209088,2022-02-15-03:32:48,10.1.1.4,27,0.060,0.060,0.060,0.000,0.000,0.000
1644895968317359872,2022-02-15-03:32:48,10.1.1.4,36,0.050,0.050,0.050,0.000,0.000,0.000
1644895968356816896,2022-02-15-03:32:48,10.1.1.4,25,0.040,0.040,0.040,0.000,0.000,0.000
1644895968418077952,2022-02-15-03:32:48,10.1.1.4,34,0.030,0.030,0.030,0.000,0.000,0.000
1644895968456576000,2022-02-15-03:32:48,10.1.1.4,23,0.020,0.020,0.020,0.000,0.000,0.000
1644895968577681920,2022-02-15-03:32:48,10.1.1.4,36,0.000,0.000,0.000,0.000,0.000,0.000
1644895968617762048,2022-02-15-03:32:48,10.1.1.4,26,-0.010,-0.010,-0.010,0.000,0.000,0.000
1644895968677131008,2022-02-15-03:32:48,10.1.1.4,35,-0.020,-0.020,-0.020,0.000,0.000,0.000
1644895968716579072,2022-02-15-03:32:48,10.1.1.4,24,-0.030,-0.030,-0.030,0.000,0.000,0.000
1644895968777765120,2022-02-15-03:32:48,10.1.1.4,33,-0.040,-0.040,-0.040,0.000,0.000,0.000
