FedericoMungari/DigitalTwin_service/01_WiredScenario/Output/Output_script/script_ROSAPI_output_robots8_freq0_7.txt
timestamp,date,node,latency,joint_1,joint_2,joint_3,joint_4,joint_5,joint_6
1640670572536652032,2021-12-28-05:49:32,10.1.1.8,1640670572536.48,-0.000,-0.000,-0.000,0.000,-0.000,0.000
1640670576553549056,2021-12-28-05:49:36,10.1.1.8,4,-0.000,-0.000,-0.000,0.000,-0.000,0.000
1640670578611311872,2021-12-28-05:49:38,10.1.1.8,17,-0.000,-0.000,-0.000,0.000,-0.000,0.000
1640670580648991232,2021-12-28-05:49:40,10.1.1.8,3,-0.000,-0.000,-0.000,0.000,-0.000,0.000
1640670582686262016,2021-12-28-05:49:42,10.1.1.8,0,-0.000,-0.000,-0.000,0.000,-0.000,0.000
1640670585022206976,2021-12-28-05:49:45,10.1.1.8,8,-0.000,-0.000,-0.000,0.000,-0.000,0.000
1640670587098720000,2021-12-28-05:49:47,10.1.1.8,4,-0.000,-0.000,-0.000,0.000,-0.000,0.000
1640670589134910208,2021-12-28-05:49:49,10.1.1.8,13,-0.000,-0.000,-0.000,0.000,-0.000,0.000
1640670591192670208,2021-12-28-05:49:51,10.1.1.8,5,-0.000,-0.000,-0.000,0.000,-0.000,0.000
1640670593348581120,2021-12-28-05:49:53,10.1.1.8,6,-0.000,-0.000,-0.000,0.000,-0.000,0.000
1640670595405630976,2021-12-28-05:49:55,10.1.1.8,5,-0.000,-0.000,-0.000,0.000,-0.000,0.000
1640670597461686016,2021-12-28-05:49:57,10.1.1.8,4,-0.000,-0.000,-0.000,0.000,-0.000,0.000
1640670599565726976,2021-12-28-05:49:59,10.1.1.8,5,-0.000,-0.000,-0.000,0.000,-0.000,0.000
1640670601654638080,2021-12-28-05:50:01,10.1.1.8,19,-0.000,-0.000,-0.000,0.000,-0.000,0.000
1640670603672177152,2021-12-28-05:50:03,10.1.1.8,1,-0.000,-0.000,-0.000,0.000,-0.000,0.000
1640670605846974976,2021-12-28-05:50:05,10.1.1.8,3,-0.000,-0.000,-0.000,0.000,-0.000,0.000
1640670607945167104,2021-12-28-05:50:07,10.1.1.8,15,-0.000,-0.000,-0.000,0.000,-0.000,0.000
1640670610020690944,2021-12-28-05:50:10,10.1.1.8,15,-0.000,-0.000,-0.000,0.000,-0.000,0.000
1640670612057318912,2021-12-28-05:50:12,10.1.1.8,0,-0.000,-0.000,-0.000,0.000,-0.000,0.000
1640670614132935936,2021-12-28-05:50:14,10.1.1.8,9,-0.000,-0.000,-0.000,0.000,-0.000,0.000
1640670616189575936,2021-12-28-05:50:16,10.1.1.8,1,-0.000,-0.000,-0.000,0.000,-0.000,0.000
1640670618246717952,2021-12-28-05:50:18,10.1.1.8,13,-0.000,-0.000,-0.000,0.000,-0.000,0.000
1640670620302215936,2021-12-28-05:50:20,10.1.1.8,15,-0.000,-0.000,-0.000,0.000,-0.000,0.000
1640670622323303936,2021-12-28-05:50:22,10.1.1.8,2,-0.000,-0.000,-0.000,0.000,-0.000,0.000
1640670624444875008,2021-12-28-05:50:24,10.1.1.8,17,-0.000,-0.000,-0.000,0.000,-0.000,0.000
1640670626480675840,2021-12-28-05:50:26,10.1.1.8,12,-0.000,-0.000,-0.000,0.000,-0.000,0.000
1640670628511671040,2021-12-28-05:50:28,10.1.1.8,18,-0.000,-0.000,-0.000,0.000,-0.000,0.000
1640670630539584000,2021-12-28-05:50:30,10.1.1.8,12,-0.000,-0.000,-0.000,0.000,-0.000,0.000
1640670632585560064,2021-12-28-05:50:32,10.1.1.8,4,-0.000,-0.000,-0.000,0.000,-0.000,0.000
1640670634628762880,2021-12-28-05:50:34,10.1.1.8,13,-0.000,-0.000,-0.000,0.000,-0.000,0.000
1640670636768306944,2021-12-28-05:50:36,10.1.1.8,8,-0.000,-0.000,-0.000,0.000,-0.000,0.000
1640670638789093888,2021-12-28-05:50:38,10.1.1.8,7,-0.000,-0.000,-0.000,0.000,-0.000,0.000
1640670640888331008,2021-12-28-05:50:40,10.1.1.8,12,-0.000,-0.000,-0.000,0.000,-0.000,0.000
1640670642946999040,2021-12-28-05:50:42,10.1.1.8,0,-0.000,-0.000,-0.000,0.000,-0.000,0.000
1640670645005821952,2021-12-28-05:50:45,10.1.1.8,11,-0.000,-0.000,-0.000,0.000,-0.000,0.000
1640670647063166976,2021-12-28-05:50:47,10.1.1.8,2,-0.000,-0.000,-0.000,0.000,-0.000,0.000
1640670649119931904,2021-12-28-05:50:49,10.1.1.8,10,-0.000,-0.000,-0.000,0.000,-0.000,0.000
1640670651236890112,2021-12-28-05:50:51,10.1.1.8,12,-0.000,-0.000,-0.000,0.000,-0.000,0.000
1640670653254024960,2021-12-28-05:50:53,10.1.1.8,14,-0.000,-0.000,-0.000,0.000,-0.000,0.000
1640670655279197952,2021-12-28-05:50:55,10.1.1.8,5,-0.000,-0.000,-0.000,0.000,-0.000,0.000
1640670657308544000,2021-12-28-05:50:57,10.1.1.8,2,-0.000,-0.000,-0.000,0.000,-0.000,0.000
1640670659373672960,2021-12-28-05:50:59,10.1.1.8,6,-0.000,-0.000,-0.000,0.000,-0.000,0.000
1640670661396837888,2021-12-28-05:51:01,10.1.1.8,4,-0.000,-0.000,-0.000,0.000,-0.000,0.000
1640670663519577856,2021-12-28-05:51:03,10.1.1.8,20,-0.000,-0.000,-0.000,0.000,-0.000,0.000
1640670665619666944,2021-12-28-05:51:05,10.1.1.8,2,-0.000,-0.000,-0.000,0.000,-0.000,0.000
1640670667698091008,2021-12-28-05:51:07,10.1.1.8,12,-0.000,-0.000,-0.000,0.000,-0.000,0.000
1640670669797657856,2021-12-28-05:51:09,10.1.1.8,5,-0.000,-0.000,-0.000,0.000,-0.000,0.000
1640670671814974976,2021-12-28-05:51:11,10.1.1.8,3,-0.000,-0.000,-0.000,0.000,-0.000,0.000
1640670673901259008,2021-12-28-05:51:13,10.1.1.8,41,-0.000,-0.000,-0.000,0.000,-0.000,0.000
1640670676011642880,2021-12-28-05:51:16,10.1.1.8,4,-0.000,-0.000,-0.000,0.000,-0.000,0.000
1640670678047599104,2021-12-28-05:51:18,10.1.1.8,8,-0.000,-0.000,-0.000,0.000,-0.000,0.000
1640670680104628992,2021-12-28-05:51:20,10.1.1.8,10,-0.000,-0.000,-0.000,0.000,-0.000,0.000
1640670682141334016,2021-12-28-05:51:22,10.1.1.8,17,-0.000,-0.000,-0.000,0.000,-0.000,0.000
1640670684159261952,2021-12-28-05:51:24,10.1.1.8,8,-0.000,-0.000,-0.000,0.000,-0.000,0.000
1640670686195053056,2021-12-28-05:51:26,10.1.1.8,0,-0.000,-0.000,-0.000,0.000,-0.000,0.000
1640670688280145920,2021-12-28-05:51:28,10.1.1.8,16,-0.000,-0.000,-0.000,0.000,-0.000,0.000
1640670690428023040,2021-12-28-05:51:30,10.1.1.8,17,-0.000,-0.000,-0.000,0.000,-0.000,0.000
1640670692514353152,2021-12-28-05:51:32,10.1.1.8,4,-0.000,-0.000,-0.000,0.000,-0.000,0.000
1640670694576520960,2021-12-28-05:51:34,10.1.1.8,8,-0.000,-0.000,-0.000,0.000,-0.000,0.000
1640670696637562112,2021-12-28-05:51:36,10.1.1.8,19,-0.000,-0.000,-0.000,0.000,-0.000,0.000
1640670698697742080,2021-12-28-05:51:38,10.1.1.8,15,-0.000,-0.000,-0.000,0.000,-0.000,0.000
1640670700736807168,2021-12-28-05:51:40,10.1.1.8,10,-0.000,-0.000,-0.000,0.000,-0.000,0.000
1640670702815049984,2021-12-28-05:51:42,10.1.1.8,16,-0.000,-0.000,-0.000,0.000,-0.000,0.000
1640670704874070784,2021-12-28-05:51:44,10.1.1.8,11,-0.000,-0.000,-0.000,0.000,-0.000,0.000
1640670706911633920,2021-12-28-05:51:46,10.1.1.8,18,-0.000,-0.000,-0.000,0.000,-0.000,0.000
1640670709028945920,2021-12-28-05:51:49,10.1.1.8,17,-0.000,-0.000,-0.000,0.000,-0.000,0.000
1640670711126112000,2021-12-28-05:51:51,10.1.1.8,1,-0.000,-0.000,-0.000,0.000,-0.000,0.000
1640670713203949056,2021-12-28-05:51:53,10.1.1.8,11,-0.000,-0.000,-0.000,0.000,-0.000,0.000
1640670715219603968,2021-12-28-05:51:55,10.1.1.8,8,-0.000,-0.000,-0.000,0.000,-0.000,0.000
1640670717236308224,2021-12-28-05:51:57,10.1.1.8,17,-0.000,-0.000,-0.000,0.000,-0.000,0.000
1640670719234736896,2021-12-28-05:51:59,10.1.1.8,5,-0.000,-0.000,-0.000,0.000,-0.000,0.000
1640670721325176832,2021-12-28-05:52:01,10.1.1.8,1,-0.000,-0.000,-0.000,0.000,-0.000,0.000
1640670723351795968,2021-12-28-05:52:03,10.1.1.8,3,-0.000,-0.000,-0.000,0.000,-0.000,0.000
1640670725415116032,2021-12-28-05:52:05,10.1.1.8,3,-0.000,-0.000,-0.000,0.000,-0.000,0.000
1640670727498599936,2021-12-28-05:52:07,10.1.1.8,6,-0.000,-0.000,-0.000,0.000,-0.000,0.000
1640670729579598848,2021-12-28-05:52:09,10.1.1.8,11,-0.000,-0.000,-0.000,0.000,-0.000,0.000
1640670731697530112,2021-12-28-05:52:11,10.1.1.8,18,-0.000,-0.000,-0.000,0.000,-0.000,0.000
1640670733817076992,2021-12-28-05:52:13,10.1.1.8,5,-0.000,-0.000,-0.000,0.000,-0.000,0.000
1640670735896004864,2021-12-28-05:52:15,10.1.1.8,17,-0.000,-0.000,-0.000,0.000,-0.000,0.000
1640670737933361152,2021-12-28-05:52:17,10.1.1.8,9,-0.000,-0.000,-0.000,0.000,-0.000,0.000
1640670740011055104,2021-12-28-05:52:20,10.1.1.8,13,-0.000,-0.000,-0.000,0.000,-0.000,0.000
1640670742108033024,2021-12-28-05:52:22,10.1.1.8,6,-0.000,-0.000,-0.000,0.000,-0.000,0.000
1640670744185636096,2021-12-28-05:52:24,10.1.1.8,0,-0.000,-0.000,-0.000,0.000,-0.000,0.000
1640670746322128896,2021-12-28-05:52:26,10.1.1.8,1,-0.000,-0.000,-0.000,0.000,-0.000,0.000
1640670748398382848,2021-12-28-05:52:28,10.1.1.8,12,-0.000,-0.000,-0.000,0.000,-0.000,0.000
1640670750463612160,2021-12-28-05:52:30,10.1.1.8,7,-0.000,-0.000,-0.000,0.000,-0.000,0.000
1640670752582406144,2021-12-28-05:52:32,10.1.1.8,15,-0.000,-0.000,-0.000,0.000,-0.000,0.000
1640670754609486080,2021-12-28-05:52:34,10.1.1.8,14,-0.000,-0.000,-0.000,0.000,-0.000,0.000
1640670756634539008,2021-12-28-05:52:36,10.1.1.8,0,-0.000,-0.000,-0.000,0.000,-0.000,0.000
1640670758717842944,2021-12-28-05:52:38,10.1.1.8,2,-0.000,-0.000,-0.000,0.000,-0.000,0.000
1640670760738824960,2021-12-28-05:52:40,10.1.1.8,4,-0.000,-0.000,-0.000,0.000,-0.000,0.000
1640670762838341888,2021-12-28-05:52:42,10.1.1.8,8,-0.000,-0.000,-0.000,0.000,-0.000,0.000
1640670764958523904,2021-12-28-05:52:44,10.1.1.8,6,-0.000,-0.000,-0.000,0.000,-0.000,0.000
1640670767037220096,2021-12-28-05:52:47,10.1.1.8,12,-0.000,-0.000,-0.000,0.000,-0.000,0.000
1640670769155572992,2021-12-28-05:52:49,10.1.1.8,8,-0.000,-0.000,-0.000,0.000,-0.000,0.000
1640670771252823040,2021-12-28-05:52:51,10.1.1.8,8,-0.000,-0.000,-0.000,0.000,-0.000,0.000
1640670773390870016,2021-12-28-05:52:53,10.1.1.8,6,-0.000,-0.000,-0.000,0.000,-0.000,0.000
1640670775426203136,2021-12-28-05:52:55,10.1.1.8,1,-0.000,-0.000,-0.000,0.000,-0.000,0.000
1640670777463677952,2021-12-28-05:52:57,10.1.1.8,11,-0.000,-0.000,-0.000,0.000,-0.000,0.000
1640670779522114048,2021-12-28-05:52:59,10.1.1.8,1,-0.000,-0.000,-0.000,0.000,-0.000,0.000
1640670781618284032,2021-12-28-05:53:01,10.1.1.8,3,-0.000,-0.000,-0.000,0.000,-0.000,0.000
1640670783739425024,2021-12-28-05:53:03,10.1.1.8,9,-0.000,-0.000,-0.000,0.000,-0.000,0.000
1640670785789271040,2021-12-28-05:53:05,10.1.1.8,16,-0.000,-0.000,-0.000,0.000,-0.000,0.000
1640670787815286016,2021-12-28-05:53:07,10.1.1.8,6,-0.000,-0.000,-0.000,0.000,-0.000,0.000
1640670789958785024,2021-12-28-05:53:09,10.1.1.8,16,-0.000,-0.000,-0.000,0.000,-0.000,0.000
1640670792040769024,2021-12-28-05:53:12,10.1.1.8,12,-0.000,-0.000,-0.000,0.000,-0.000,0.000
1640670794083283968,2021-12-28-05:53:14,10.1.1.8,16,-0.000,-0.000,-0.000,0.000,-0.000,0.000
1640670796122067968,2021-12-28-05:53:16,10.1.1.8,15,-0.000,-0.000,-0.000,0.000,-0.000,0.000
1640670798260409088,2021-12-28-05:53:18,10.1.1.8,14,-0.000,-0.000,-0.000,0.000,-0.000,0.000
1640670800319417088,2021-12-28-05:53:20,10.1.1.8,0,-0.000,-0.000,-0.000,0.000,-0.000,0.000
1640670802356868864,2021-12-28-05:53:22,10.1.1.8,9,-0.000,-0.000,-0.000,0.000,-0.000,0.000
1640670804533832960,2021-12-28-05:53:24,10.1.1.8,8,-0.000,-0.000,-0.000,0.000,-0.000,0.000
1640670806610652928,2021-12-28-05:53:26,10.1.1.8,15,-0.000,-0.000,-0.000,0.000,-0.000,0.000
1640670808709285120,2021-12-28-05:53:28,10.1.1.8,11,-0.000,-0.000,-0.000,0.000,-0.000,0.000
1640670810726181120,2021-12-28-05:53:30,10.1.1.8,2,-0.000,-0.000,-0.000,0.000,-0.000,0.000
1640670812782330112,2021-12-28-05:53:32,10.1.1.8,0,-0.000,-0.000,-0.000,0.000,-0.000,0.000
1640670814818820864,2021-12-28-05:53:34,10.1.1.8,5,-0.000,-0.000,-0.000,0.000,-0.000,0.000
1640670816861084928,2021-12-28-05:53:36,10.1.1.8,16,-0.000,-0.000,-0.000,0.000,-0.000,0.000
1640670818930337024,2021-12-28-05:53:38,10.1.1.8,16,-0.000,-0.000,-0.000,0.000,-0.000,0.000
1640670820953913856,2021-12-28-05:53:40,10.1.1.8,9,-0.000,-0.000,-0.000,0.000,-0.000,0.000
1640670823077805056,2021-12-28-05:53:43,10.1.1.8,12,-0.000,-0.000,-0.000,0.000,-0.000,0.000
1640670825100604928,2021-12-28-05:53:45,10.1.1.8,9,-0.000,-0.000,-0.000,0.000,-0.000,0.000
1640670827179276032,2021-12-28-05:53:47,10.1.1.8,18,-0.000,-0.000,-0.000,0.000,-0.000,0.000
1640670829218828032,2021-12-28-05:53:49,10.1.1.8,8,-0.000,-0.000,-0.000,0.000,-0.000,0.000
1640670831277188096,2021-12-28-05:53:51,10.1.1.8,1,-0.000,-0.000,-0.000,0.000,-0.000,0.000
1640670833316232960,2021-12-28-05:53:53,10.1.1.8,0,-0.000,-0.000,-0.000,0.000,-0.000,0.000
1640670835333863936,2021-12-28-05:53:55,10.1.1.8,-1,-0.000,-0.000,-0.000,0.000,-0.000,0.000
1640670837472250880,2021-12-28-05:53:57,10.1.1.8,10,-0.000,-0.000,-0.000,0.000,-0.000,0.000
1640670839488476160,2021-12-28-05:53:59,10.1.1.8,1,-0.000,-0.000,-0.000,0.000,-0.000,0.000
1640670841525038848,2021-12-28-05:54:01,10.1.1.8,12,-0.000,-0.000,-0.000,0.000,-0.000,0.000
1640670843563226880,2021-12-28-05:54:03,10.1.1.8,15,-0.000,-0.000,-0.000,0.000,-0.000,0.000
1640670845618894080,2021-12-28-05:54:05,10.1.1.8,8,-0.000,-0.000,-0.000,0.000,-0.000,0.000
1640670847734728192,2021-12-28-05:54:07,10.1.1.8,18,-0.000,-0.000,-0.000,0.000,-0.000,0.000
1640670849784001024,2021-12-28-05:54:09,10.1.1.8,9,-0.000,-0.000,-0.000,0.000,-0.000,0.000
1640670851871949824,2021-12-28-05:54:11,10.1.1.8,8,-0.000,-0.000,-0.000,0.000,-0.000,0.000
1640670853936544768,2021-12-28-05:54:13,10.1.1.8,12,-0.000,-0.000,-0.000,0.000,-0.000,0.000
1640670856019709952,2021-12-28-05:54:16,10.1.1.8,8,-0.000,-0.000,-0.000,0.000,-0.000,0.000
1640670858140041984,2021-12-28-05:54:18,10.1.1.8,13,-0.000,-0.000,-0.000,0.000,-0.000,0.000
1640670860200870144,2021-12-28-05:54:20,10.1.1.8,13,-0.000,-0.000,-0.000,0.000,-0.000,0.000
1640670862359898112,2021-12-28-05:54:22,10.1.1.8,10,-0.000,-0.000,-0.000,0.000,-0.000,0.000
1640670864397644032,2021-12-28-05:54:24,10.1.1.8,8,-0.000,-0.000,-0.000,0.000,-0.000,0.000
1640670866515939840,2021-12-28-05:54:26,10.1.1.8,9,-0.000,-0.000,-0.000,0.000,-0.000,0.000
1640670868593949184,2021-12-28-05:54:28,10.1.1.8,16,-0.000,-0.000,-0.000,0.000,-0.000,0.000
1640670870650480896,2021-12-28-05:54:30,10.1.1.8,13,-0.000,-0.000,-0.000,0.000,-0.000,0.000
1640670872748236800,2021-12-28-05:54:32,10.1.1.8,3,-0.000,-0.000,-0.000,0.000,-0.000,0.000
1640670874865495040,2021-12-28-05:54:34,10.1.1.8,19,-0.000,-0.000,-0.000,0.000,-0.000,0.000
1640670876902466048,2021-12-28-05:54:36,10.1.1.8,11,-0.000,-0.000,-0.000,0.000,-0.000,0.000
1640670879048069120,2021-12-28-05:54:39,10.1.1.8,15,-0.000,-0.000,-0.000,0.000,-0.000,0.000
1640670881083437824,2021-12-28-05:54:41,10.1.1.8,0,-0.000,-0.000,-0.000,0.000,-0.000,0.000
1640670883151343104,2021-12-28-05:54:43,10.1.1.8,11,-0.000,-0.000,-0.000,0.000,-0.000,0.000
1640670885195674880,2021-12-28-05:54:45,10.1.1.8,14,-0.000,-0.000,-0.000,0.000,-0.000,0.000
1640670887338234880,2021-12-28-05:54:47,10.1.1.8,11,-0.000,-0.000,-0.000,0.000,-0.000,0.000
1640670889519531008,2021-12-28-05:54:49,10.1.1.8,11,-0.000,-0.000,-0.000,0.000,-0.000,0.000
1640670891560410112,2021-12-28-05:54:51,10.1.1.8,3,-0.000,-0.000,-0.000,0.000,-0.000,0.000
1640670893639354880,2021-12-28-05:54:53,10.1.1.8,10,-0.000,-0.000,-0.000,0.000,-0.000,0.000
1640670895678407936,2021-12-28-05:54:55,10.1.1.8,6,-0.000,-0.000,-0.000,0.000,-0.000,0.000
1640670897916239104,2021-12-28-05:54:57,10.1.1.8,1,-0.000,-0.000,-0.000,0.000,-0.000,0.000
1640670900033519104,2021-12-28-05:55:00,10.1.1.8,13,-0.000,-0.000,-0.000,0.000,-0.000,0.000
1640670902110950912,2021-12-28-05:55:02,10.1.1.8,8,-0.000,-0.000,-0.000,0.000,-0.000,0.000
1640670904168560128,2021-12-28-05:55:04,10.1.1.8,11,-0.000,-0.000,-0.000,0.000,-0.000,0.000
1640670906185387008,2021-12-28-05:55:06,10.1.1.8,12,-0.000,-0.000,-0.000,0.000,-0.000,0.000
1640670908341669120,2021-12-28-05:55:08,10.1.1.8,14,-0.000,-0.000,-0.000,0.000,-0.000,0.000
1640670910477945088,2021-12-28-05:55:10,10.1.1.8,5,-0.000,-0.000,-0.000,0.000,-0.000,0.000
1640670912579156992,2021-12-28-05:55:12,10.1.1.8,5,-0.000,-0.000,-0.000,0.000,-0.000,0.000
1640670914648922880,2021-12-28-05:55:14,10.1.1.8,14,-0.000,-0.000,-0.000,0.000,-0.000,0.000
1640670916695517952,2021-12-28-05:55:16,10.1.1.8,1,-0.000,-0.000,-0.000,0.000,-0.000,0.000
1640670918719922176,2021-12-28-05:55:18,10.1.1.8,10,-0.000,-0.000,-0.000,0.000,-0.000,0.000
1640670920783441152,2021-12-28-05:55:20,10.1.1.8,12,-0.000,-0.000,-0.000,0.000,-0.000,0.000
1640670922862785024,2021-12-28-05:55:22,10.1.1.8,6,-0.000,-0.000,-0.000,0.000,-0.000,0.000
1640670924902885888,2021-12-28-05:55:24,10.1.1.8,19,-0.000,-0.000,-0.000,0.000,-0.000,0.000
1640670926962036992,2021-12-28-05:55:26,10.1.1.8,9,-0.000,-0.000,-0.000,0.000,-0.000,0.000
1640670929020028160,2021-12-28-05:55:29,10.1.1.8,13,-0.000,-0.000,-0.000,0.000,-0.000,0.000
1640670931157640960,2021-12-28-05:55:31,10.1.1.8,8,-0.000,-0.000,-0.000,0.000,-0.000,0.000
1640670933255666944,2021-12-28-05:55:33,10.1.1.8,3,-0.000,-0.000,-0.000,0.000,-0.000,0.000
1640670935293158912,2021-12-28-05:55:35,10.1.1.8,9,-0.000,-0.000,-0.000,0.000,-0.000,0.000
1640670937409481984,2021-12-28-05:55:37,10.1.1.8,19,-0.000,-0.000,-0.000,0.000,-0.000,0.000
1640670939466574848,2021-12-28-05:55:39,10.1.1.8,17,-0.000,-0.000,-0.000,0.000,-0.000,0.000
1640670941523621120,2021-12-28-05:55:41,10.1.1.8,19,-0.000,-0.000,-0.000,0.000,-0.000,0.000
1640670943560592896,2021-12-28-05:55:43,10.1.1.8,4,-0.000,-0.000,-0.000,0.000,-0.000,0.000
1640670945662306048,2021-12-28-05:55:45,10.1.1.8,4,-0.000,-0.000,-0.000,0.000,-0.000,0.000
1640670947709576960,2021-12-28-05:55:47,10.1.1.8,8,-0.000,-0.000,-0.000,0.000,-0.000,0.000
1640670949757106176,2021-12-28-05:55:49,10.1.1.8,6,-0.000,-0.000,-0.000,0.000,-0.000,0.000
1640670951818692096,2021-12-28-05:55:51,10.1.1.8,2,-0.000,-0.000,-0.000,0.000,-0.000,0.000
1640670953900700928,2021-12-28-05:55:53,10.1.1.8,15,-0.000,-0.000,-0.000,0.000,-0.000,0.000
1640670955959881984,2021-12-28-05:55:55,10.1.1.8,18,-0.000,-0.000,-0.000,0.000,-0.000,0.000
1640670957999654912,2021-12-28-05:55:57,10.1.1.8,4,-0.000,-0.000,-0.000,0.000,-0.000,0.000
1640670960079195904,2021-12-28-05:56:00,10.1.1.8,13,-0.000,-0.000,-0.000,0.000,-0.000,0.000
1640670962097664000,2021-12-28-05:56:02,10.1.1.8,11,-0.000,-0.000,-0.000,0.000,-0.000,0.000
1640670964174375936,2021-12-28-05:56:04,10.1.1.8,1,-0.000,-0.000,-0.000,0.000,-0.000,0.000
1640670966311870976,2021-12-28-05:56:06,10.1.1.8,10,-0.000,-0.000,-0.000,0.000,-0.000,0.000
1640670968349921024,2021-12-28-05:56:08,10.1.1.8,16,-0.000,-0.000,-0.000,0.000,-0.000,0.000
1640670970385914112,2021-12-28-05:56:10,10.1.1.8,8,-0.000,-0.000,-0.000,0.000,-0.000,0.000
1640670972442637056,2021-12-28-05:56:12,10.1.1.8,11,-0.000,-0.000,-0.000,0.000,-0.000,0.000
1640670974460350976,2021-12-28-05:56:14,10.1.1.8,8,-0.000,-0.000,-0.000,0.000,-0.000,0.000
1640670976516803072,2021-12-28-05:56:16,10.1.1.8,18,-0.000,-0.000,-0.000,0.000,-0.000,0.000
1640670978544143872,2021-12-28-05:56:18,10.1.1.8,3,-0.000,-0.000,-0.000,0.000,-0.000,0.000
1640670980571404032,2021-12-28-05:56:20,10.1.1.8,15,-0.000,-0.000,-0.000,0.000,-0.000,0.000
1640670982616926976,2021-12-28-05:56:22,10.1.1.8,6,-0.000,-0.000,-0.000,0.000,-0.000,0.000
1640670984678683904,2021-12-28-05:56:24,10.1.1.8,1,-0.000,-0.000,-0.000,0.000,-0.000,0.000
1640670986741004032,2021-12-28-05:56:26,10.1.1.8,14,-0.000,-0.000,-0.000,0.000,-0.000,0.000
1640670988799773952,2021-12-28-05:56:28,10.1.1.8,18,-0.000,-0.000,-0.000,0.000,-0.000,0.000
1640670990859628032,2021-12-28-05:56:30,10.1.1.8,19,-0.000,-0.000,-0.000,0.000,-0.000,0.000
1640670992899704832,2021-12-28-05:56:32,10.1.1.8,13,-0.000,-0.000,-0.000,0.000,-0.000,0.000
1640670994936839936,2021-12-28-05:56:34,10.1.1.8,16,-0.000,-0.000,-0.000,0.000,-0.000,0.000
1640670996975555840,2021-12-28-05:56:36,10.1.1.8,8,-0.000,-0.000,-0.000,0.000,-0.000,0.000
1640670999011405824,2021-12-28-05:56:39,10.1.1.8,15,-0.000,-0.000,-0.000,0.000,-0.000,0.000
1640671001049681920,2021-12-28-05:56:41,10.1.1.8,13,-0.000,-0.000,-0.000,0.000,-0.000,0.000
1640671003085125888,2021-12-28-05:56:43,10.1.1.8,13,-0.000,-0.000,-0.000,0.000,-0.000,0.000
1640671005123245056,2021-12-28-05:56:45,10.1.1.8,12,-0.000,-0.000,-0.000,0.000,-0.000,0.000
1640671007139894016,2021-12-28-05:56:47,10.1.1.8,9,-0.000,-0.000,-0.000,0.000,-0.000,0.000
1640671009278487808,2021-12-28-05:56:49,10.1.1.8,19,-0.000,-0.000,-0.000,0.000,-0.000,0.000
1640671011367908864,2021-12-28-05:56:51,10.1.1.8,17,-0.000,-0.000,-0.000,0.000,-0.000,0.000
1640671013434246912,2021-12-28-05:56:53,10.1.1.8,12,-0.000,-0.000,-0.000,0.000,-0.000,0.000
1640671015518286080,2021-12-28-05:56:55,10.1.1.8,13,-0.000,-0.000,-0.000,0.000,-0.000,0.000
1640671017540528896,2021-12-28-05:56:57,10.1.1.8,17,-0.000,-0.000,-0.000,0.000,-0.000,0.000
1640671019680869120,2021-12-28-05:56:59,10.1.1.8,16,-0.000,-0.000,-0.000,0.000,-0.000,0.000
1640671021740377856,2021-12-28-05:57:01,10.1.1.8,9,-0.000,-0.000,-0.000,0.000,-0.000,0.000
1640671023879610112,2021-12-28-05:57:03,10.1.1.8,16,-0.000,-0.000,-0.000,0.000,-0.000,0.000
1640671025917947904,2021-12-28-05:57:05,10.1.1.8,3,-0.000,-0.000,-0.000,0.000,-0.000,0.000
1640671027956162048,2021-12-28-05:57:07,10.1.1.8,3,-0.000,-0.000,-0.000,0.000,-0.000,0.000
1640671030013197824,2021-12-28-05:57:10,10.1.1.8,16,-0.000,-0.000,-0.000,0.000,-0.000,0.000
1640671032071269120,2021-12-28-05:57:12,10.1.1.8,4,-0.000,-0.000,-0.000,0.000,-0.000,0.000
1640671034127846912,2021-12-28-05:57:14,10.1.1.8,11,-0.000,-0.000,-0.000,0.000,-0.000,0.000
1640671036204655872,2021-12-28-05:57:16,10.1.1.8,4,-0.000,-0.000,-0.000,0.000,-0.000,0.000
1640671038261709056,2021-12-28-05:57:18,10.1.1.8,2,-0.000,-0.000,-0.000,0.000,-0.000,0.000
1640671040338839040,2021-12-28-05:57:20,10.1.1.8,36,-0.000,-0.000,-0.000,0.000,-0.000,0.000
1640671042464835840,2021-12-28-05:57:22,10.1.1.8,8,-0.000,-0.000,-0.000,0.000,-0.000,0.000
1640671044492897024,2021-12-28-05:57:24,10.1.1.8,7,-0.000,-0.000,-0.000,0.000,-0.000,0.000
1640671046597088000,2021-12-28-05:57:26,10.1.1.8,18,-0.000,-0.000,-0.000,0.000,-0.000,0.000
1640671048600153088,2021-12-28-05:57:28,10.1.1.8,1,-0.000,-0.000,-0.000,0.000,-0.000,0.000
1640671050700988160,2021-12-28-05:57:30,10.1.1.8,8,-0.000,-0.000,-0.000,0.000,-0.000,0.000
1640671052741466112,2021-12-28-05:57:32,10.1.1.8,11,-0.000,-0.000,-0.000,0.000,-0.000,0.000
1640671054760983040,2021-12-28-05:57:34,10.1.1.8,3,-0.000,-0.000,-0.000,0.000,-0.000,0.000
1640671056800014080,2021-12-28-05:57:36,10.1.1.8,10,-0.000,-0.000,-0.000,0.000,-0.000,0.000
1640671058858163968,2021-12-28-05:57:38,10.1.1.8,17,-0.000,-0.000,-0.000,0.000,-0.000,0.000
1640671060935687936,2021-12-28-05:57:40,10.1.1.8,14,-0.000,-0.000,-0.000,0.000,-0.000,0.000
1640671062994336000,2021-12-28-05:57:42,10.1.1.8,15,-0.000,-0.000,-0.000,0.000,-0.000,0.000
1640671065071054848,2021-12-28-05:57:45,10.1.1.8,9,-0.000,-0.000,-0.000,0.000,-0.000,0.000
1640671067127355136,2021-12-28-05:57:47,10.1.1.8,2,-0.000,-0.000,-0.000,0.000,-0.000,0.000
1640671069223505920,2021-12-28-05:57:49,10.1.1.8,13,-0.000,-0.000,-0.000,0.000,-0.000,0.000
1640671071261025024,2021-12-28-05:57:51,10.1.1.8,17,-0.000,-0.000,-0.000,0.000,-0.000,0.000
1640671073318176000,2021-12-28-05:57:53,10.1.1.8,10,-0.000,-0.000,-0.000,0.000,-0.000,0.000
1640671075403328000,2021-12-28-05:57:55,10.1.1.8,12,-0.000,-0.000,-0.000,0.000,-0.000,0.000
1640671077470778112,2021-12-28-05:57:57,10.1.1.8,16,-0.000,-0.000,-0.000,0.000,-0.000,0.000
1640671079496303104,2021-12-28-05:57:59,10.1.1.8,11,-0.000,-0.000,-0.000,0.000,-0.000,0.000
1640671081560344064,2021-12-28-05:58:01,10.1.1.8,-1,-0.000,-0.000,-0.000,0.000,-0.000,0.000
1640671083681266176,2021-12-28-05:58:03,10.1.1.8,2,-0.000,-0.000,-0.000,0.000,-0.000,0.000
1640671085760636160,2021-12-28-05:58:05,10.1.1.8,15,-0.000,-0.000,-0.000,0.000,-0.000,0.000
1640671087780369152,2021-12-28-05:58:07,10.1.1.8,3,-0.000,-0.000,-0.000,0.000,-0.000,0.000
1640671089819503104,2021-12-28-05:58:09,10.1.1.8,4,-0.000,-0.000,-0.000,0.000,-0.000,0.000
1640671091918425088,2021-12-28-05:58:11,10.1.1.8,17,-0.000,-0.000,-0.000,0.000,-0.000,0.000
1640671093934752000,2021-12-28-05:58:13,10.1.1.8,10,-0.000,-0.000,-0.000,0.000,-0.000,0.000
1640671095992306944,2021-12-28-05:58:15,10.1.1.8,14,-0.000,-0.000,-0.000,0.000,-0.000,0.000
1640671100105886976,2021-12-28-05:58:20,10.1.1.8,17,-0.000,-0.000,-0.000,0.000,-0.000,0.000
1640671102144787200,2021-12-28-05:58:22,10.1.1.8,2,-0.000,-0.000,-0.000,0.000,-0.000,0.000
1640671104179601920,2021-12-28-05:58:24,10.1.1.8,5,-0.000,-0.000,-0.000,0.000,-0.000,0.000
1640671106218601984,2021-12-28-05:58:26,10.1.1.8,8,-0.000,-0.000,-0.000,0.000,-0.000,0.000
1640671108308706048,2021-12-28-05:58:28,10.1.1.8,2,-0.000,-0.000,-0.000,0.000,-0.000,0.000
1640671110315032064,2021-12-28-05:58:30,10.1.1.8,0,-0.000,-0.000,-0.000,0.000,-0.000,0.000
1640671112438856960,2021-12-28-05:58:32,10.1.1.8,19,-0.000,-0.000,-0.000,0.000,-0.000,0.000
1640671114580431104,2021-12-28-05:58:34,10.1.1.8,9,-0.000,-0.000,-0.000,0.000,-0.000,0.000
1640671116661314048,2021-12-28-05:58:36,10.1.1.8,15,-0.000,-0.000,-0.000,0.000,-0.000,0.000
1640671118681639936,2021-12-28-05:58:38,10.1.1.8,8,-0.000,-0.000,-0.000,0.000,-0.000,0.000
1640671120720120064,2021-12-28-05:58:40,10.1.1.8,14,-0.000,-0.000,-0.000,0.000,-0.000,0.000
1640671122738444032,2021-12-28-05:58:42,10.1.1.8,2,-0.000,-0.000,-0.000,0.000,-0.000,0.000
1640671124776856832,2021-12-28-05:58:44,10.1.1.8,9,-0.000,-0.000,-0.000,0.000,-0.000,0.000
1640671126814637824,2021-12-28-05:58:46,10.1.1.8,15,-0.000,-0.000,-0.000,0.000,-0.000,0.000
1640671128832608000,2021-12-28-05:58:48,10.1.1.8,9,-0.000,-0.000,-0.000,0.000,-0.000,0.000
1640671130889991168,2021-12-28-05:58:50,10.1.1.8,2,-0.000,-0.000,-0.000,0.000,-0.000,0.000
1640671132945625088,2021-12-28-05:58:52,10.1.1.8,19,-0.000,-0.000,-0.000,0.000,-0.000,0.000
1640671134981897984,2021-12-28-05:58:54,10.1.1.8,8,-0.000,-0.000,-0.000,0.000,-0.000,0.000
1640671137018866944,2021-12-28-05:58:57,10.1.1.8,9,-0.000,-0.000,-0.000,0.000,-0.000,0.000
1640671139043998976,2021-12-28-05:58:59,10.1.1.8,8,-0.000,-0.000,-0.000,0.000,-0.000,0.000
1640671141071262976,2021-12-28-05:59:01,10.1.1.8,4,-0.000,-0.000,-0.000,0.000,-0.000,0.000
1640671143116719872,2021-12-28-05:59:03,10.1.1.8,10,-0.000,-0.000,-0.000,0.000,-0.000,0.000
1640671145140340992,2021-12-28-05:59:05,10.1.1.8,8,-0.000,-0.000,-0.000,0.000,-0.000,0.000
1640671147263987968,2021-12-28-05:59:07,10.1.1.8,13,-0.000,-0.000,-0.000,0.000,-0.000,0.000
1640671149302114048,2021-12-28-05:59:09,10.1.1.8,6,-0.000,-0.000,-0.000,0.000,-0.000,0.000
1640671151361170176,2021-12-28-05:59:11,10.1.1.8,14,-0.000,-0.000,-0.000,0.000,-0.000,0.000
1640671153400047104,2021-12-28-05:59:13,10.1.1.8,15,-0.000,-0.000,-0.000,0.000,-0.000,0.000
1640671155439848960,2021-12-28-05:59:15,10.1.1.8,6,-0.000,-0.000,-0.000,0.000,-0.000,0.000
1640671157477356800,2021-12-28-05:59:17,10.1.1.8,18,-0.000,-0.000,-0.000,0.000,-0.000,0.000
1640671159495256832,2021-12-28-05:59:19,10.1.1.8,4,-0.000,-0.000,-0.000,0.000,-0.000,0.000
1640671161572073984,2021-12-28-05:59:21,10.1.1.8,20,-0.000,-0.000,-0.000,0.000,-0.000,0.000
1640671163628273920,2021-12-28-05:59:23,10.1.1.8,4,-0.000,-0.000,-0.000,0.000,-0.000,0.000
1640671165706414080,2021-12-28-05:59:25,10.1.1.8,3,-0.000,-0.000,-0.000,0.000,-0.000,0.000
1640671167781490176,2021-12-28-05:59:27,10.1.1.8,14,-0.000,-0.000,-0.000,0.000,-0.000,0.000
1640671169819688192,2021-12-28-05:59:29,10.1.1.8,14,-0.000,-0.000,-0.000,0.000,-0.000,0.000
1640671171848141056,2021-12-28-05:59:31,10.1.1.8,13,-0.000,-0.000,-0.000,0.000,-0.000,0.000
1640671173896052992,2021-12-28-05:59:33,10.1.1.8,18,-0.000,-0.000,-0.000,0.000,-0.000,0.000
1640671175900834048,2021-12-28-05:59:35,10.1.1.8,14,-0.000,-0.000,-0.000,0.000,-0.000,0.000
1640671177944020992,2021-12-28-05:59:37,10.1.1.8,19,-0.000,-0.000,-0.000,0.000,-0.000,0.000
1640671179985225984,2021-12-28-05:59:39,10.1.1.8,8,-0.000,-0.000,-0.000,0.000,-0.000,0.000
1640671182025690112,2021-12-28-05:59:42,10.1.1.8,0,-0.000,-0.000,-0.000,0.000,-0.000,0.000
1640671184144037120,2021-12-28-05:59:44,10.1.1.8,11,-0.000,-0.000,-0.000,0.000,-0.000,0.000
1640671186163837952,2021-12-28-05:59:46,10.1.1.8,4,-0.000,-0.000,-0.000,0.000,-0.000,0.000
1640671188222012928,2021-12-28-05:59:48,10.1.1.8,13,-0.000,-0.000,-0.000,0.000,-0.000,0.000
1640671190238714880,2021-12-28-05:59:50,10.1.1.8,5,-0.000,-0.000,-0.000,0.000,-0.000,0.000
1640671192276619008,2021-12-28-05:59:52,10.1.1.8,7,-0.000,-0.000,-0.000,0.000,-0.000,0.000
1640671194334683904,2021-12-28-05:59:54,10.1.1.8,9,-0.000,-0.000,-0.000,0.000,-0.000,0.000
1640671196431634944,2021-12-28-05:59:56,10.1.1.8,17,-0.000,-0.000,-0.000,0.000,-0.000,0.000
1640671198447723008,2021-12-28-05:59:58,10.1.1.8,10,-0.000,-0.000,-0.000,0.000,-0.000,0.000
1640671200524655104,2021-12-28-06:00:00,10.1.1.8,19,-0.000,-0.000,-0.000,0.000,-0.000,0.000
1640671202560552960,2021-12-28-06:00:02,10.1.1.8,16,-0.000,-0.000,-0.000,0.000,-0.000,0.000
1640671204587762176,2021-12-28-06:00:04,10.1.1.8,17,-0.000,-0.000,-0.000,0.000,-0.000,0.000
1640671206614952960,2021-12-28-06:00:06,10.1.1.8,7,-0.000,-0.000,-0.000,0.000,-0.000,0.000
1640671208739401216,2021-12-28-06:00:08,10.1.1.8,14,-0.000,-0.000,-0.000,0.000,-0.000,0.000
1640671210802064896,2021-12-28-06:00:10,10.1.1.8,18,-0.000,-0.000,-0.000,0.000,-0.000,0.000
1640671212862505984,2021-12-28-06:00:12,10.1.1.8,13,-0.000,-0.000,-0.000,0.000,-0.000,0.000
1640671214982963200,2021-12-28-06:00:14,10.1.1.8,1,-0.000,-0.000,-0.000,0.000,-0.000,0.000
1640671217101284096,2021-12-28-06:00:17,10.1.1.8,15,-0.000,-0.000,-0.000,0.000,-0.000,0.000
1640671219161305856,2021-12-28-06:00:19,10.1.1.8,1,-0.000,-0.000,-0.000,0.000,-0.000,0.000
1640671221258228992,2021-12-28-06:00:21,10.1.1.8,12,-0.000,-0.000,-0.000,0.000,-0.000,0.000
1640671223315506944,2021-12-28-06:00:23,10.1.1.8,9,-0.000,-0.000,-0.000,0.000,-0.000,0.000
1640671225373518080,2021-12-28-06:00:25,10.1.1.8,19,-0.000,-0.000,-0.000,0.000,-0.000,0.000
1640671227430042112,2021-12-28-06:00:27,10.1.1.8,16,-0.000,-0.000,-0.000,0.000,-0.000,0.000
1640671229447109888,2021-12-28-06:00:29,10.1.1.8,7,-0.000,-0.000,-0.000,0.000,-0.000,0.000
1640671231544070912,2021-12-28-06:00:31,10.1.1.8,12,-0.000,-0.000,-0.000,0.000,-0.000,0.000
1640671233620737024,2021-12-28-06:00:33,10.1.1.8,18,-0.000,-0.000,-0.000,0.000,-0.000,0.000
1640671235662857984,2021-12-28-06:00:35,10.1.1.8,15,-0.000,-0.000,-0.000,0.000,-0.000,0.000
1640671237731432960,2021-12-28-06:00:37,10.1.1.8,4,-0.000,-0.000,-0.000,0.000,-0.000,0.000
1640671239777147136,2021-12-28-06:00:39,10.1.1.8,18,-0.000,-0.000,-0.000,0.000,-0.000,0.000
1640671241820556032,2021-12-28-06:00:41,10.1.1.8,13,-0.000,-0.000,-0.000,0.000,-0.000,0.000
1640671243842531072,2021-12-28-06:00:43,10.1.1.8,4,-0.000,-0.000,-0.000,0.000,-0.000,0.000
1640671245882711040,2021-12-28-06:00:45,10.1.1.8,15,-0.000,-0.000,-0.000,0.000,-0.000,0.000
1640671248022094080,2021-12-28-06:00:48,10.1.1.8,14,-0.000,-0.000,-0.000,0.000,-0.000,0.000
1640671250081892864,2021-12-28-06:00:50,10.1.1.8,5,-0.000,-0.000,-0.000,0.000,-0.000,0.000
1640671252159627008,2021-12-28-06:00:52,10.1.1.8,13,-0.000,-0.000,-0.000,0.000,-0.000,0.000
1640671254197957888,2021-12-28-06:00:54,10.1.1.8,18,-0.000,-0.000,-0.000,0.000,-0.000,0.000
1640671256197135872,2021-12-28-06:00:56,10.1.1.8,5,-0.000,-0.000,-0.000,0.000,-0.000,0.000
1640671258292731136,2021-12-28-06:00:58,10.1.1.8,17,-0.000,-0.000,-0.000,0.000,-0.000,0.000
1640671260329110016,2021-12-28-06:01:00,10.1.1.8,18,-0.000,-0.000,-0.000,0.000,-0.000,0.000
1640671262466095872,2021-12-28-06:01:02,10.1.1.8,8,-0.000,-0.000,-0.000,0.000,-0.000,0.000
1640671264523723008,2021-12-28-06:01:04,10.1.1.8,8,-0.000,-0.000,-0.000,0.000,-0.000,0.000
1640671266700307968,2021-12-28-06:01:06,10.1.1.8,16,-0.000,-0.000,-0.000,0.000,-0.000,0.000
1640671268890479104,2021-12-28-06:01:08,10.1.1.8,4,-0.000,-0.000,-0.000,0.000,-0.000,0.000
1640671270936590848,2021-12-28-06:01:10,10.1.1.8,10,-0.000,-0.000,-0.000,0.000,-0.000,0.000
1640671273020952064,2021-12-28-06:01:13,10.1.1.8,7,-0.000,-0.000,-0.000,0.000,-0.000,0.000
1640671275063465984,2021-12-28-06:01:15,10.1.1.8,3,-0.000,-0.000,-0.000,0.000,-0.000,0.000
1640671277144417024,2021-12-28-06:01:17,10.1.1.8,3,-0.000,-0.000,-0.000,0.000,-0.000,0.000
1640671279264098816,2021-12-28-06:01:19,10.1.1.8,5,-0.000,-0.000,-0.000,0.000,-0.000,0.000
1640671281304845056,2021-12-28-06:01:21,10.1.1.8,19,-0.000,-0.000,-0.000,0.000,-0.000,0.000
1640671283342138112,2021-12-28-06:01:23,10.1.1.8,16,-0.000,-0.000,-0.000,0.000,-0.000,0.000
1640671285360455936,2021-12-28-06:01:25,10.1.1.8,3,-0.000,-0.000,-0.000,0.000,-0.000,0.000
1640671287382204928,2021-12-28-06:01:27,10.1.1.8,20,-0.000,-0.000,-0.000,0.000,-0.000,0.000
1640671289435019008,2021-12-28-06:01:29,10.1.1.8,17,-0.000,-0.000,-0.000,0.000,-0.000,0.000
1640671291452460032,2021-12-28-06:01:31,10.1.1.8,19,-0.000,-0.000,-0.000,0.000,-0.000,0.000
1640671293489569792,2021-12-28-06:01:33,10.1.1.8,14,-0.000,-0.000,-0.000,0.000,-0.000,0.000
1640671295526737920,2021-12-28-06:01:35,10.1.1.8,12,-0.000,-0.000,-0.000,0.000,-0.000,0.000
1640671297543554048,2021-12-28-06:01:37,10.1.1.8,18,-0.000,-0.000,-0.000,0.000,-0.000,0.000
1640671299544676096,2021-12-28-06:01:39,10.1.1.8,7,-0.000,-0.000,-0.000,0.000,-0.000,0.000
1640671301553303040,2021-12-28-06:01:41,10.1.1.8,9,-0.000,-0.000,-0.000,0.000,-0.000,0.000
1640671303559782144,2021-12-28-06:01:43,10.1.1.8,9,-0.000,-0.000,-0.000,0.000,-0.000,0.000
1640671305584738048,2021-12-28-06:01:45,10.1.1.8,19,-0.000,-0.000,-0.000,0.000,-0.000,0.000
1640671307665956096,2021-12-28-06:01:47,10.1.1.8,9,-0.000,-0.000,-0.000,0.000,-0.000,0.000
1640671311865865984,2021-12-28-06:01:51,10.1.1.8,3,-0.070,-0.070,-0.070,0.000,0.000,0.000
1640671313605324032,2021-12-28-06:01:53,10.1.1.8,17,-0.070,-0.070,-0.070,0.000,0.000,0.000
1640671315625005056,2021-12-28-06:01:55,10.1.1.8,10,-0.070,-0.070,-0.070,0.000,0.000,0.000
1640671315924463872,2021-12-28-06:01:55,10.1.1.8,19,-0.070,-0.070,-0.070,0.000,0.000,0.000
1640671317641971968,2021-12-28-06:01:57,10.1.1.8,0,-0.070,-0.070,-0.070,0.000,0.000,0.000
1640671317941750016,2021-12-28-06:01:57,10.1.1.8,8,-0.070,-0.070,-0.070,0.000,0.000,0.000
1640671319799632128,2021-12-28-06:01:59,10.1.1.8,1,-0.070,-0.070,-0.070,0.000,0.000,0.000
1640671320099260928,2021-12-28-06:02:00,10.1.1.8,10,-0.070,-0.070,-0.070,0.000,0.000,0.000
1640671321837054976,2021-12-28-06:02:01,10.1.1.8,19,-0.070,-0.070,-0.070,0.000,0.000,0.000
1640671322116382976,2021-12-28-06:02:02,10.1.1.8,9,-0.070,-0.070,-0.070,0.000,0.000,0.000
1640671323853466880,2021-12-28-06:02:03,10.1.1.8,18,-0.070,-0.070,-0.070,0.000,0.000,0.000
1640671324133692928,2021-12-28-06:02:04,10.1.1.8,12,-0.070,-0.070,-0.070,0.000,0.000,0.000
1640671325850796032,2021-12-28-06:02:05,10.1.1.8,11,-0.070,-0.070,-0.070,0.000,0.000,0.000
1640671326130129152,2021-12-28-06:02:06,10.1.1.8,3,-0.070,-0.070,-0.070,0.000,0.000,0.000
1640671327867603968,2021-12-28-06:02:07,10.1.1.8,17,-0.070,-0.070,-0.070,0.000,0.000,0.000
1640671328146766848,2021-12-28-06:02:08,10.1.1.8,8,-0.070,-0.070,-0.070,0.000,0.000,0.000
1640671329965115136,2021-12-28-06:02:09,10.1.1.8,16,-0.070,-0.070,-0.070,0.000,0.000,0.000
1640671330244146176,2021-12-28-06:02:10,10.1.1.8,6,-0.070,-0.070,-0.070,0.000,0.000,0.000
1640671331961570048,2021-12-28-06:02:11,10.1.1.8,0,-0.070,-0.070,-0.070,0.000,0.000,0.000
1640671332262681856,2021-12-28-06:02:12,10.1.1.8,14,-0.070,-0.070,-0.070,0.000,0.000,0.000
1640671333989902848,2021-12-28-06:02:13,10.1.1.8,19,-0.070,-0.070,-0.070,0.000,0.000,0.000
1640671334271336192,2021-12-28-06:02:14,10.1.1.8,14,-0.070,-0.070,-0.070,0.000,0.000,0.000
1640671336016470016,2021-12-28-06:02:16,10.1.1.8,18,-0.070,-0.070,-0.070,0.000,0.000,0.000
1640671336297172992,2021-12-28-06:02:16,10.1.1.8,11,-0.070,-0.070,-0.070,0.000,0.000,0.000
1640671338040158976,2021-12-28-06:02:18,10.1.1.8,14,-0.070,-0.070,-0.070,0.000,0.000,0.000
1640671338320878080,2021-12-28-06:02:18,10.1.1.8,6,-0.070,-0.070,-0.070,0.000,0.000,0.000
1640671340042159104,2021-12-28-06:02:20,10.1.1.8,2,-0.070,-0.070,-0.070,0.000,0.000,0.000
1640671340342843136,2021-12-28-06:02:20,10.1.1.8,15,-0.070,-0.070,-0.070,0.000,0.000,0.000
1640671342122809856,2021-12-28-06:02:22,10.1.1.8,1,-0.070,-0.070,-0.070,0.000,0.000,0.000
1640671342423543040,2021-12-28-06:02:22,10.1.1.8,12,-0.070,-0.070,-0.070,0.000,0.000,0.000
1640671344162743040,2021-12-28-06:02:24,10.1.1.8,12,-0.070,-0.070,-0.070,0.000,0.000,0.000
1640671344442584064,2021-12-28-06:02:24,10.1.1.8,2,-0.070,-0.070,-0.070,0.000,0.000,0.000
1640671346182182144,2021-12-28-06:02:26,10.1.1.8,4,-0.070,-0.070,-0.070,0.000,0.000,0.000
1640671346481848832,2021-12-28-06:02:26,10.1.1.8,15,-0.070,-0.070,-0.070,0.000,0.000,0.000
1640671348260827904,2021-12-28-06:02:28,10.1.1.8,17,-0.070,-0.070,-0.070,0.000,0.000,0.000
1640671348540441088,2021-12-28-06:02:28,10.1.1.8,9,-0.070,-0.070,-0.070,0.000,0.000,0.000
1640671350339099904,2021-12-28-06:02:30,10.1.1.8,11,-0.070,-0.070,-0.070,0.000,0.000,0.000
1640671350638189056,2021-12-28-06:02:30,10.1.1.8,13,-0.070,-0.070,-0.070,0.000,0.000,0.000
1640671352416014848,2021-12-28-06:02:32,10.1.1.8,12,-0.070,-0.070,-0.070,0.000,0.000,0.000
1640671352695730944,2021-12-28-06:02:32,10.1.1.8,3,-0.070,-0.070,-0.070,0.000,0.000,0.000
1640671354433123072,2021-12-28-06:02:34,10.1.1.8,0,-0.070,-0.070,-0.070,0.000,0.000,0.000
1640671354733176832,2021-12-28-06:02:34,10.1.1.8,14,-0.070,-0.070,-0.070,0.000,0.000,0.000
1640671356449660928,2021-12-28-06:02:36,10.1.1.8,4,-0.070,-0.070,-0.070,0.000,0.000,0.000
1640671356749413120,2021-12-28-06:02:36,10.1.1.8,18,-0.070,-0.070,-0.070,0.000,0.000,0.000
1640671358547375872,2021-12-28-06:02:38,10.1.1.8,10,-0.070,-0.070,-0.070,0.000,0.000,0.000
1640671358826711040,2021-12-28-06:02:38,10.1.1.8,2,-0.070,-0.070,-0.070,0.000,0.000,0.000
1640671360624596992,2021-12-28-06:02:40,10.1.1.8,10,-0.070,-0.070,-0.070,0.000,0.000,0.000
1640671360924068096,2021-12-28-06:02:40,10.1.1.8,20,-0.070,-0.070,-0.070,0.000,0.000,0.000
1640671362720841984,2021-12-28-06:02:42,10.1.1.8,11,-0.070,-0.070,-0.070,0.000,0.000,0.000
1640671363001008128,2021-12-28-06:02:43,10.1.1.8,3,-0.070,-0.070,-0.070,0.000,0.000,0.000
1640671364743942144,2021-12-28-06:02:44,10.1.1.8,11,-0.070,-0.070,-0.070,0.000,0.000,0.000
1640671365024488960,2021-12-28-06:02:45,10.1.1.8,3,-0.070,-0.070,-0.070,0.000,0.000,0.000
1640671366811984128,2021-12-28-06:02:46,10.1.1.8,12,-0.070,-0.070,-0.070,0.000,0.000,0.000
1640671367093364992,2021-12-28-06:02:47,10.1.1.8,8,-0.070,-0.070,-0.070,0.000,0.000,0.000
1640671368838116864,2021-12-28-06:02:48,10.1.1.8,2,-0.070,-0.070,-0.070,0.000,0.000,0.000
1640671369142423040,2021-12-28-06:02:49,10.1.1.8,14,-0.070,-0.070,-0.070,0.000,0.000,0.000
1640671370881681920,2021-12-28-06:02:50,10.1.1.8,8,-0.070,-0.070,-0.070,0.000,0.000,0.000
1640671373023395072,2021-12-28-06:02:53,10.1.1.8,18,-0.070,-0.070,-0.070,0.000,0.000,0.000
1640671373323337984,2021-12-28-06:02:53,10.1.1.8,18,-0.070,-0.070,-0.070,0.000,0.000,0.000
1640671375163676928,2021-12-28-06:02:55,10.1.1.8,8,-0.070,-0.070,-0.070,0.000,0.000,0.000
1640671375466516992,2021-12-28-06:02:55,10.1.1.8,13,-0.070,-0.070,-0.070,0.000,0.000,0.000
1640671377203799040,2021-12-28-06:02:57,10.1.1.8,15,-0.070,-0.070,-0.070,0.000,0.000,0.000
1640671377483539200,2021-12-28-06:02:57,10.1.1.8,4,-0.070,-0.070,-0.070,0.000,0.000,0.000
1640671379322267904,2021-12-28-06:02:59,10.1.1.8,9,-0.070,-0.070,-0.070,0.000,0.000,0.000
1640671379682192128,2021-12-28-06:02:59,10.1.1.8,8,-0.070,-0.070,-0.070,0.000,0.000,0.000
1640671381481303040,2021-12-28-06:03:01,10.1.1.8,19,-0.070,-0.070,-0.070,0.000,0.000,0.000
1640671381760782080,2021-12-28-06:03:01,10.1.1.8,10,-0.070,-0.070,-0.070,0.000,0.000,0.000
1640671383558166016,2021-12-28-06:03:03,10.1.1.8,8,-0.070,-0.070,-0.070,0.000,0.000,0.000
1640671383857681920,2021-12-28-06:03:03,10.1.1.8,13,-0.070,-0.070,-0.070,0.000,0.000,0.000
1640671385655801088,2021-12-28-06:03:05,10.1.1.8,12,-0.070,-0.070,-0.070,0.000,0.000,0.000
1640671385935033088,2021-12-28-06:03:05,10.1.1.8,2,-0.070,-0.070,-0.070,0.000,0.000,0.000
1640671387672357120,2021-12-28-06:03:07,10.1.1.8,9,-0.070,-0.070,-0.070,0.000,0.000,0.000
1640671387972254976,2021-12-28-06:03:07,10.1.1.8,17,-0.070,-0.070,-0.070,0.000,0.000,0.000
1640671389709718016,2021-12-28-06:03:09,10.1.1.8,12,-0.070,-0.070,-0.070,0.000,0.000,0.000
1640671389988923904,2021-12-28-06:03:09,10.1.1.8,3,-0.070,-0.070,-0.070,0.000,0.000,0.000
1640671391746403072,2021-12-28-06:03:11,10.1.1.8,11,-0.070,-0.070,-0.070,0.000,0.000,0.000
1640671392046366976,2021-12-28-06:03:12,10.1.1.8,16,-0.070,-0.070,-0.070,0.000,0.000,0.000
1640671393803226880,2021-12-28-06:03:13,10.1.1.8,2,-0.070,-0.070,-0.070,0.000,0.000,0.000
1640671394102913024,2021-12-28-06:03:14,10.1.1.8,12,-0.070,-0.070,-0.070,0.000,0.000,0.000
1640671395920147968,2021-12-28-06:03:15,10.1.1.8,2,-0.070,-0.070,-0.070,0.000,0.000,0.000
1640671396221776896,2021-12-28-06:03:16,10.1.1.8,11,-0.070,-0.070,-0.070,0.000,0.000,0.000
1640671398050402048,2021-12-28-06:03:18,10.1.1.8,0,-0.070,-0.070,-0.070,0.000,0.000,0.000
1640671398351730944,2021-12-28-06:03:18,10.1.1.8,9,-0.070,-0.070,-0.070,0.000,0.000,0.000
1640671400097870080,2021-12-28-06:03:20,10.1.1.8,20,-0.070,-0.070,-0.070,0.000,0.000,0.000
1640671400417588992,2021-12-28-06:03:20,10.1.1.8,15,-0.070,-0.070,-0.070,0.000,0.000,0.000
1640671402160284928,2021-12-28-06:03:22,10.1.1.8,0,-0.070,-0.070,-0.070,0.000,0.000,0.000
1640671402461090048,2021-12-28-06:03:22,10.1.1.8,10,-0.070,-0.070,-0.070,0.000,0.000,0.000
1640671404203890944,2021-12-28-06:03:24,10.1.1.8,3,-0.070,-0.070,-0.070,0.000,0.000,0.000
1640671404503043840,2021-12-28-06:03:24,10.1.1.8,13,-0.070,-0.070,-0.070,0.000,0.000,0.000
1640671406244357120,2021-12-28-06:03:26,10.1.1.8,15,-0.070,-0.070,-0.070,0.000,0.000,0.000
1640671406523938816,2021-12-28-06:03:26,10.1.1.8,7,-0.070,-0.070,-0.070,0.000,0.000,0.000
1640671408324453120,2021-12-28-06:03:28,10.1.1.8,19,-0.070,-0.070,-0.070,0.000,0.000,0.000
1640671408604288000,2021-12-28-06:03:28,10.1.1.8,8,-0.070,-0.070,-0.070,0.000,0.000,0.000
1640671410443609856,2021-12-28-06:03:30,10.1.1.8,13,-0.070,-0.070,-0.070,0.000,0.000,0.000
1640671410724250112,2021-12-28-06:03:30,10.1.1.8,1,-0.070,-0.070,-0.070,0.000,0.000,0.000
1640671412481955072,2021-12-28-06:03:32,10.1.1.8,16,-0.070,-0.070,-0.070,0.000,0.000,0.000
1640671412761822976,2021-12-28-06:03:32,10.1.1.8,4,-0.070,-0.070,-0.070,0.000,0.000,0.000
1640671414540476160,2021-12-28-06:03:34,10.1.1.8,19,-0.070,-0.070,-0.070,0.000,0.000,0.000
1640671414819933952,2021-12-28-06:03:34,10.1.1.8,7,-0.070,-0.070,-0.070,0.000,0.000,0.000
1640671416597366016,2021-12-28-06:03:36,10.1.1.8,15,-0.070,-0.070,-0.070,0.000,0.000,0.000
1640671416916861952,2021-12-28-06:03:36,10.1.1.8,14,-0.070,-0.070,-0.070,0.000,0.000,0.000
1640671418694284800,2021-12-28-06:03:38,10.1.1.8,7,-0.070,-0.070,-0.070,0.000,0.000,0.000
1640671418995655936,2021-12-28-06:03:38,10.1.1.8,0,-0.070,-0.070,-0.070,0.000,0.000,0.000
1640671420771552000,2021-12-28-06:03:40,10.1.1.8,13,-0.070,-0.070,-0.070,0.000,0.000,0.000
1640671421050422016,2021-12-28-06:03:41,10.1.1.8,5,-0.070,-0.070,-0.070,0.000,0.000,0.000
1640671422789537024,2021-12-28-06:03:42,10.1.1.8,5,-0.070,-0.070,-0.070,0.000,0.000,0.000
1640671423107685120,2021-12-28-06:03:43,10.1.1.8,9,-0.070,-0.070,-0.070,0.000,0.000,0.000
1640671424845475840,2021-12-28-06:03:44,10.1.1.8,16,-0.070,-0.070,-0.070,0.000,0.000,0.000
1640671425125211904,2021-12-28-06:03:45,10.1.1.8,3,-0.070,-0.070,-0.070,0.000,0.000,0.000
1640671426862336000,2021-12-28-06:03:46,10.1.1.8,3,-0.070,-0.070,-0.070,0.000,0.000,0.000
1640671427161945088,2021-12-28-06:03:47,10.1.1.8,13,-0.070,-0.070,-0.070,0.000,0.000,0.000
1640671429005934848,2021-12-28-06:03:49,10.1.1.8,14,-0.070,-0.070,-0.070,0.000,0.000,0.000
1640671429306795008,2021-12-28-06:03:49,10.1.1.8,12,-0.070,-0.070,-0.070,0.000,0.000,0.000
1640671431053922048,2021-12-28-06:03:51,10.1.1.8,18,-0.070,-0.070,-0.070,0.000,0.000,0.000
1640671431335624960,2021-12-28-06:03:51,10.1.1.8,11,-0.070,-0.070,-0.070,0.000,0.000,0.000
1640671433119572992,2021-12-28-06:03:53,10.1.1.8,10,-0.070,-0.070,-0.070,0.000,0.000,0.000
1640671433500549120,2021-12-28-06:03:53,10.1.1.8,9,-0.070,-0.070,-0.070,0.000,0.000,0.000
1640671435302129920,2021-12-28-06:03:55,10.1.1.8,15,-0.070,-0.070,-0.070,0.000,0.000,0.000
1640671435583117056,2021-12-28-06:03:55,10.1.1.8,9,-0.070,-0.070,-0.070,0.000,0.000,0.000
1640671437323868928,2021-12-28-06:03:57,10.1.1.8,15,-0.070,-0.070,-0.070,0.000,0.000,0.000
1640671437604247040,2021-12-28-06:03:57,10.1.1.8,0,-0.070,-0.070,-0.070,0.000,0.000,0.000
1640671439385189120,2021-12-28-06:03:59,10.1.1.8,13,-0.070,-0.070,-0.070,0.000,0.000,0.000
1640671439664984064,2021-12-28-06:03:59,10.1.1.8,4,-0.070,-0.070,-0.070,0.000,0.000,0.000
1640671441453453056,2021-12-28-06:04:01,10.1.1.8,11,-0.070,-0.070,-0.070,0.000,0.000,0.000
1640671441743376896,2021-12-28-06:04:01,10.1.1.8,18,-0.070,-0.070,-0.070,0.000,0.000,0.000
1640671443462460160,2021-12-28-06:04:03,10.1.1.8,3,-0.070,-0.070,-0.070,0.000,0.000,0.000
1640671443762249984,2021-12-28-06:04:03,10.1.1.8,13,-0.070,-0.070,-0.070,0.000,0.000,0.000
1640671445519876864,2021-12-28-06:04:05,10.1.1.8,5,-0.070,-0.070,-0.070,0.000,0.000,0.000
1640671445819933952,2021-12-28-06:04:05,10.1.1.8,14,-0.070,-0.070,-0.070,0.000,0.000,0.000
1640671447578615808,2021-12-28-06:04:07,10.1.1.8,13,-0.070,-0.070,-0.070,0.000,0.000,0.000
1640671447858330112,2021-12-28-06:04:07,10.1.1.8,2,-0.070,-0.070,-0.070,0.000,0.000,0.000
1640671449615144960,2021-12-28-06:04:09,10.1.1.8,18,-0.070,-0.070,-0.070,0.000,0.000,0.000
1640671449895785984,2021-12-28-06:04:09,10.1.1.8,13,-0.070,-0.070,-0.070,0.000,0.000,0.000
1640671451632958976,2021-12-28-06:04:11,10.1.1.8,10,-0.070,-0.070,-0.070,0.000,0.000,0.000
1640671451912046080,2021-12-28-06:04:11,10.1.1.8,2,-0.070,-0.070,-0.070,0.000,0.000,0.000
1640671453689488896,2021-12-28-06:04:13,10.1.1.8,0,-0.070,-0.070,-0.070,0.000,0.000,0.000
1640671453989344000,2021-12-28-06:04:13,10.1.1.8,10,-0.070,-0.070,-0.070,0.000,0.000,0.000
1640671455766660096,2021-12-28-06:04:15,10.1.1.8,8,-0.070,-0.070,-0.070,0.000,0.000,0.000
1640671456066132992,2021-12-28-06:04:16,10.1.1.8,15,-0.070,-0.070,-0.070,0.000,0.000,0.000
1640671457823538944,2021-12-28-06:04:17,10.1.1.8,20,-0.070,-0.070,-0.070,0.000,0.000,0.000
1640671458102871040,2021-12-28-06:04:18,10.1.1.8,3,-0.070,-0.070,-0.070,0.000,0.000,0.000
1640671459859915008,2021-12-28-06:04:19,10.1.1.8,13,-0.070,-0.070,-0.070,0.000,0.000,0.000
1640671460139471104,2021-12-28-06:04:20,10.1.1.8,3,-0.070,-0.070,-0.070,0.000,0.000,0.000
1640671461924081152,2021-12-28-06:04:21,10.1.1.8,10,-0.070,-0.070,-0.070,0.000,0.000,0.000
1640671462204957952,2021-12-28-06:04:22,10.1.1.8,0,-0.070,-0.070,-0.070,0.000,0.000,0.000
1640671463991479040,2021-12-28-06:04:23,10.1.1.8,11,-0.070,-0.070,-0.070,0.000,0.000,0.000
1640671464272393984,2021-12-28-06:04:24,10.1.1.8,2,-0.070,-0.070,-0.070,0.000,0.000,0.000
1640671466016320000,2021-12-28-06:04:26,10.1.1.8,7,-0.070,-0.070,-0.070,0.000,0.000,0.000
1640671466317009920,2021-12-28-06:04:26,10.1.1.8,18,-0.070,-0.070,-0.070,0.000,0.000,0.000
1640671468059695872,2021-12-28-06:04:28,10.1.1.8,17,-0.070,-0.070,-0.070,0.000,0.000,0.000
1640671468341808128,2021-12-28-06:04:28,10.1.1.8,11,-0.070,-0.070,-0.070,0.000,0.000,0.000
1640671470101465856,2021-12-28-06:04:30,10.1.1.8,18,-0.070,-0.070,-0.070,0.000,0.000,0.000
1640671470381603840,2021-12-28-06:04:30,10.1.1.8,4,-0.070,-0.070,-0.070,0.000,0.000,0.000
1640671472142586880,2021-12-28-06:04:32,10.1.1.8,16,-0.070,-0.070,-0.070,0.000,0.000,0.000
1640671472423134976,2021-12-28-06:04:32,10.1.1.8,2,-0.070,-0.070,-0.070,0.000,0.000,0.000
1640671474201728000,2021-12-28-06:04:34,10.1.1.8,7,-0.070,-0.070,-0.070,0.000,0.000,0.000
1640671474502052096,2021-12-28-06:04:34,10.1.1.8,18,-0.070,-0.070,-0.070,0.000,0.000,0.000
1640671476221209088,2021-12-28-06:04:36,10.1.1.8,19,-0.070,-0.070,-0.070,0.000,0.000,0.000
1640671476500408832,2021-12-28-06:04:36,10.1.1.8,10,-0.070,-0.070,-0.070,0.000,0.000,0.000
1640671478258255872,2021-12-28-06:04:38,10.1.1.8,4,-0.070,-0.070,-0.070,0.000,0.000,0.000
1640671478559310848,2021-12-28-06:04:38,10.1.1.8,11,-0.070,-0.070,-0.070,0.000,0.000,0.000
1640671480297208064,2021-12-28-06:04:40,10.1.1.8,15,-0.070,-0.070,-0.070,0.000,0.000,0.000
1640671480576675840,2021-12-28-06:04:40,10.1.1.8,6,-0.070,-0.070,-0.070,0.000,0.000,0.000
1640671482393840128,2021-12-28-06:04:42,10.1.1.8,5,-0.070,-0.070,-0.070,0.000,0.000,0.000
1640671482693715200,2021-12-28-06:04:42,10.1.1.8,19,-0.070,-0.070,-0.070,0.000,0.000,0.000
1640671484452472832,2021-12-28-06:04:44,10.1.1.8,18,-0.070,-0.070,-0.070,0.000,0.000,0.000
1640671484730642944,2021-12-28-06:04:44,10.1.1.8,2,-0.070,-0.070,-0.070,0.000,0.000,0.000
1640671486528060928,2021-12-28-06:04:46,10.1.1.8,19,-0.070,-0.070,-0.070,0.000,0.000,0.000
1640671486807652096,2021-12-28-06:04:46,10.1.1.8,7,-0.070,-0.070,-0.070,0.000,0.000,0.000
1640671488584440832,2021-12-28-06:04:48,10.1.1.8,10,-0.070,-0.070,-0.070,0.000,0.000,0.000
1640671488864409856,2021-12-28-06:04:48,10.1.1.8,1,-0.070,-0.070,-0.070,0.000,0.000,0.000
1640671490623106048,2021-12-28-06:04:50,10.1.1.8,3,-0.070,-0.070,-0.070,0.000,0.000,0.000
1640671490921672192,2021-12-28-06:04:50,10.1.1.8,2,-0.070,-0.070,-0.070,0.000,0.000,0.000
1640671492719623936,2021-12-28-06:04:52,10.1.1.8,16,-0.070,-0.070,-0.070,0.000,0.000,0.000
1640671492999032064,2021-12-28-06:04:52,10.1.1.8,2,-0.070,-0.070,-0.070,0.000,0.000,0.000
1640671494746942976,2021-12-28-06:04:54,10.1.1.8,18,-0.070,-0.070,-0.070,0.000,0.000,0.000
1640671495027856128,2021-12-28-06:04:55,10.1.1.8,13,-0.070,-0.070,-0.070,0.000,0.000,0.000
1640671496754334976,2021-12-28-06:04:56,10.1.1.8,0,-0.070,-0.070,-0.070,0.000,0.000,0.000
1640671497054206976,2021-12-28-06:04:57,10.1.1.8,13,-0.070,-0.070,-0.070,0.000,0.000,0.000
1640671498918721792,2021-12-28-06:04:58,10.1.1.8,10,-0.070,-0.070,-0.070,0.000,0.000,0.000
1640671499198873088,2021-12-28-06:04:59,10.1.1.8,3,-0.070,-0.070,-0.070,0.000,0.000,0.000
1640671500920628992,2021-12-28-06:05:00,10.1.1.8,3,-0.070,-0.070,-0.070,0.000,0.000,0.000
1640671501221548032,2021-12-28-06:05:01,10.1.1.8,11,-0.070,-0.070,-0.070,0.000,0.000,0.000
1640671502981852160,2021-12-28-06:05:02,10.1.1.8,15,-0.070,-0.070,-0.070,0.000,0.000,0.000
1640671503262011904,2021-12-28-06:05:03,10.1.1.8,3,-0.070,-0.070,-0.070,0.000,0.000,0.000
1640671505022118144,2021-12-28-06:05:05,10.1.1.8,18,-0.070,-0.070,-0.070,0.000,0.000,0.000
1640671505302908928,2021-12-28-06:05:05,10.1.1.8,13,-0.070,-0.070,-0.070,0.000,0.000,0.000
1640671507102360064,2021-12-28-06:05:07,10.1.1.8,15,-0.070,-0.070,-0.070,0.000,0.000,0.000
1640671507401376000,2021-12-28-06:05:07,10.1.1.8,13,-0.070,-0.070,-0.070,0.000,0.000,0.000
1640671509140297984,2021-12-28-06:05:09,10.1.1.8,3,-0.070,-0.070,-0.070,0.000,0.000,0.000
1640671509439748096,2021-12-28-06:05:09,10.1.1.8,8,-0.070,-0.070,-0.070,0.000,0.000,0.000
1640671511177678080,2021-12-28-06:05:11,10.1.1.8,5,-0.070,-0.070,-0.070,0.000,0.000,0.000
1640671511477468928,2021-12-28-06:05:11,10.1.1.8,14,-0.070,-0.070,-0.070,0.000,0.000,0.000
1640671513296237056,2021-12-28-06:05:13,10.1.1.8,16,-0.070,-0.070,-0.070,0.000,0.000,0.000
1640671513575952128,2021-12-28-06:05:13,10.1.1.8,2,-0.070,-0.070,-0.070,0.000,0.000,0.000
1640671515352612096,2021-12-28-06:05:15,10.1.1.8,13,-0.070,-0.070,-0.070,0.000,0.000,0.000
1640671515632348928,2021-12-28-06:05:15,10.1.1.8,4,-0.070,-0.070,-0.070,0.000,0.000,0.000
1640671517389324800,2021-12-28-06:05:17,10.1.1.8,14,-0.070,-0.070,-0.070,0.000,0.000,0.000
1640671517669423104,2021-12-28-06:05:17,10.1.1.8,5,-0.070,-0.070,-0.070,0.000,0.000,0.000
1640671519427258880,2021-12-28-06:05:19,10.1.1.8,5,-0.070,-0.070,-0.070,0.000,0.000,0.000
1640671519726396928,2021-12-28-06:05:19,10.1.1.8,13,-0.070,-0.070,-0.070,0.000,0.000,0.000
1640671521463998976,2021-12-28-06:05:21,10.1.1.8,4,-0.070,-0.070,-0.070,0.000,0.000,0.000
1640671521763559936,2021-12-28-06:05:21,10.1.1.8,15,-0.070,-0.070,-0.070,0.000,0.000,0.000
1640671523500935168,2021-12-28-06:05:23,10.1.1.8,12,-0.070,-0.070,-0.070,0.000,0.000,0.000
1640671523780335872,2021-12-28-06:05:23,10.1.1.8,4,-0.070,-0.070,-0.070,0.000,0.000,0.000
1640671525561382144,2021-12-28-06:05:25,10.1.1.8,17,-0.070,-0.070,-0.070,0.000,0.000,0.000
1640671525842551040,2021-12-28-06:05:25,10.1.1.8,11,-0.070,-0.070,-0.070,0.000,0.000,0.000
1640671527592039936,2021-12-28-06:05:27,10.1.1.8,2,-0.070,-0.070,-0.070,0.000,0.000,0.000
1640671527892303872,2021-12-28-06:05:27,10.1.1.8,7,-0.070,-0.070,-0.070,0.000,0.000,0.000
1640671529678381056,2021-12-28-06:05:29,10.1.1.8,7,-0.070,-0.070,-0.070,0.000,0.000,0.000
1640671529977755136,2021-12-28-06:05:29,10.1.1.8,13,-0.070,-0.070,-0.070,0.000,0.000,0.000
1640671531781766912,2021-12-28-06:05:31,10.1.1.8,14,-0.070,-0.070,-0.070,0.000,0.000,0.000
1640671532062094848,2021-12-28-06:05:32,10.1.1.8,0,-0.070,-0.070,-0.070,0.000,0.000,0.000
1640671533883944960,2021-12-28-06:05:33,10.1.1.8,17,-0.070,-0.070,-0.070,0.000,0.000,0.000
1640671534164340992,2021-12-28-06:05:34,10.1.1.8,3,-0.070,-0.070,-0.070,0.000,0.000,0.000
1640671536005622016,2021-12-28-06:05:36,10.1.1.8,11,-0.070,-0.070,-0.070,0.000,0.000,0.000
1640671536325065984,2021-12-28-06:05:36,10.1.1.8,15,-0.070,-0.070,-0.070,0.000,0.000,0.000
1640671538245373952,2021-12-28-06:05:38,10.1.1.8,17,-0.070,-0.070,-0.070,0.000,0.000,0.000
1640671538524400896,2021-12-28-06:05:38,10.1.1.8,6,-0.070,-0.070,-0.070,0.000,0.000,0.000
1640671540264519936,2021-12-28-06:05:40,10.1.1.8,0,-0.070,-0.070,-0.070,0.000,0.000,0.000
1640671540563073024,2021-12-28-06:05:40,10.1.1.8,11,-0.070,-0.070,-0.070,0.000,0.000,0.000
1640671542321495040,2021-12-28-06:05:42,10.1.1.8,0,-0.070,-0.070,-0.070,0.000,0.000,0.000
1640671542641396992,2021-12-28-06:05:42,10.1.1.8,1,-0.070,-0.070,-0.070,0.000,0.000,0.000
1640671544399395840,2021-12-28-06:05:44,10.1.1.8,3,-0.070,-0.070,-0.070,0.000,0.000,0.000
1640671544738797824,2021-12-28-06:05:44,10.1.1.8,4,-0.070,-0.070,-0.070,0.000,0.000,0.000
1640671546476617216,2021-12-28-06:05:46,10.1.1.8,14,-0.070,-0.070,-0.070,0.000,0.000,0.000
1640671546756910080,2021-12-28-06:05:46,10.1.1.8,4,-0.070,-0.070,-0.070,0.000,0.000,0.000
1640671548515794944,2021-12-28-06:05:48,10.1.1.8,20,-0.070,-0.070,-0.070,0.000,0.000,0.000
1640671548794043904,2021-12-28-06:05:48,10.1.1.8,4,-0.070,-0.070,-0.070,0.000,0.000,0.000
1640671550551558912,2021-12-28-06:05:50,10.1.1.8,10,-0.070,-0.070,-0.070,0.000,0.000,0.000
1640671550890950912,2021-12-28-06:05:50,10.1.1.8,18,-0.070,-0.070,-0.070,0.000,0.000,0.000
1640671552628500992,2021-12-28-06:05:52,10.1.1.8,10,-0.070,-0.070,-0.070,0.000,0.000,0.000
1640671552908092928,2021-12-28-06:05:52,10.1.1.8,1,-0.070,-0.070,-0.070,0.000,0.000,0.000
1640671554665723136,2021-12-28-06:05:54,10.1.1.8,5,-0.070,-0.070,-0.070,0.000,0.000,0.000
1640671554965096960,2021-12-28-06:05:54,10.1.1.8,14,-0.070,-0.070,-0.070,0.000,0.000,0.000
1640671556702059008,2021-12-28-06:05:56,10.1.1.8,17,-0.070,-0.070,-0.070,0.000,0.000,0.000
1640671558829101056,2021-12-28-06:05:58,10.1.1.8,15,-0.070,-0.070,-0.070,0.000,0.000,0.000
1640671559110179072,2021-12-28-06:05:59,10.1.1.8,10,-0.070,-0.070,-0.070,0.000,0.000,0.000
1640671560855609856,2021-12-28-06:06:00,10.1.1.8,12,-0.070,-0.070,-0.070,0.000,0.000,0.000
1640671561156593920,2021-12-28-06:06:01,10.1.1.8,13,-0.070,-0.070,-0.070,0.000,0.000,0.000
1640671563001418240,2021-12-28-06:06:03,10.1.1.8,8,-0.070,-0.070,-0.070,0.000,0.000,0.000
1640671563300286976,2021-12-28-06:06:03,10.1.1.8,14,-0.070,-0.070,-0.070,0.000,0.000,0.000
1640671565062468096,2021-12-28-06:06:05,10.1.1.8,1,-0.070,-0.070,-0.070,0.000,0.000,0.000
1640671565362632960,2021-12-28-06:06:05,10.1.1.8,12,-0.070,-0.070,-0.070,0.000,0.000,0.000
1640671567103395840,2021-12-28-06:06:07,10.1.1.8,10,-0.070,-0.070,-0.070,0.000,0.000,0.000
1640671567403604992,2021-12-28-06:06:07,10.1.1.8,14,-0.070,-0.070,-0.070,0.000,0.000,0.000
1640671569144304128,2021-12-28-06:06:09,10.1.1.8,9,-0.070,-0.070,-0.070,0.000,0.000,0.000
1640671569483469056,2021-12-28-06:06:09,10.1.1.8,0,-0.070,-0.070,-0.070,0.000,0.000,0.000
1640671569503959040,2021-12-28-06:06:09,10.1.1.8,-1,-0.070,-0.070,-0.070,0.000,0.000,0.000
1640671571302627072,2021-12-28-06:06:11,10.1.1.8,14,-0.070,-0.070,-0.070,0.000,0.000,0.000
1640671571581409024,2021-12-28-06:06:11,10.1.1.8,4,-0.070,-0.070,-0.070,0.000,0.000,0.000
1640671573301750784,2021-12-28-06:06:13,10.1.1.8,4,-0.070,-0.070,-0.070,0.000,0.000,0.000
1640671573599572992,2021-12-28-06:06:13,10.1.1.8,13,-0.070,-0.070,-0.070,0.000,0.000,0.000
1640671575360128000,2021-12-28-06:06:15,10.1.1.8,0,-0.070,-0.070,-0.070,0.000,0.000,0.000
1640671575658255104,2021-12-28-06:06:15,10.1.1.8,3,-0.070,-0.070,-0.070,0.000,0.000,0.000
1640671577436017152,2021-12-28-06:06:17,10.1.1.8,8,-0.070,-0.070,-0.070,0.000,0.000,0.000
1640671577735493888,2021-12-28-06:06:17,10.1.1.8,18,-0.070,-0.070,-0.070,0.000,0.000,0.000
1640671579472907008,2021-12-28-06:06:19,10.1.1.8,11,-0.070,-0.070,-0.070,0.000,0.000,0.000
1640671579752957952,2021-12-28-06:06:19,10.1.1.8,5,-0.070,-0.070,-0.070,0.000,0.000,0.000
1640671581489984000,2021-12-28-06:06:21,10.1.1.8,1,-0.070,-0.070,-0.070,0.000,0.000,0.000
1640671581789174016,2021-12-28-06:06:21,10.1.1.8,5,-0.070,-0.070,-0.070,0.000,0.000,0.000
1640671583547353856,2021-12-28-06:06:23,10.1.1.8,12,-0.070,-0.070,-0.070,0.000,0.000,0.000
1640671583828461056,2021-12-28-06:06:23,10.1.1.8,3,-0.070,-0.070,-0.070,0.000,0.000,0.000
1640671585583823872,2021-12-28-06:06:25,10.1.1.8,16,-0.070,-0.070,-0.070,0.000,0.000,0.000
1640671585863662848,2021-12-28-06:06:25,10.1.1.8,6,-0.070,-0.070,-0.070,0.000,0.000,0.000
1640671587661127936,2021-12-28-06:06:27,10.1.1.8,15,-0.070,-0.070,-0.070,0.000,0.000,0.000
1640671587940422144,2021-12-28-06:06:27,10.1.1.8,3,-0.070,-0.070,-0.070,0.000,0.000,0.000
1640671589717245184,2021-12-28-06:06:29,10.1.1.8,18,-0.070,-0.070,-0.070,0.000,0.000,0.000
1640671590057091840,2021-12-28-06:06:30,10.1.1.8,12,-0.070,-0.070,-0.070,0.000,0.000,0.000
1640671591805824000,2021-12-28-06:06:31,10.1.1.8,16,-0.070,-0.070,-0.070,0.000,0.000,0.000
1640671592086275072,2021-12-28-06:06:32,10.1.1.8,11,-0.070,-0.070,-0.070,0.000,0.000,0.000
1640671593873539072,2021-12-28-06:06:33,10.1.1.8,7,-0.070,-0.070,-0.070,0.000,0.000,0.000
1640671594173667840,2021-12-28-06:06:34,10.1.1.8,18,-0.070,-0.070,-0.070,0.000,0.000,0.000
1640671595897856000,2021-12-28-06:06:35,10.1.1.8,9,-0.070,-0.070,-0.070,0.000,0.000,0.000
1640671596198093056,2021-12-28-06:06:36,10.1.1.8,19,-0.070,-0.070,-0.070,0.000,0.000,0.000
1640671597919853824,2021-12-28-06:06:37,10.1.1.8,0,-0.070,-0.070,-0.070,0.000,0.000,0.000
1640671598220907008,2021-12-28-06:06:38,10.1.1.8,3,-0.070,-0.070,-0.070,0.000,0.000,0.000
1640671600041210880,2021-12-28-06:06:40,10.1.1.8,2,-0.070,-0.070,-0.070,0.000,0.000,0.000
1640671600341289984,2021-12-28-06:06:40,10.1.1.8,6,-0.070,-0.070,-0.070,0.000,0.000,0.000
1640671602100864000,2021-12-28-06:06:42,10.1.1.8,10,-0.070,-0.070,-0.070,0.000,0.000,0.000
1640671602380851968,2021-12-28-06:06:42,10.1.1.8,2,-0.070,-0.070,-0.070,0.000,0.000,0.000
1640671604120364032,2021-12-28-06:06:44,10.1.1.8,2,-0.070,-0.070,-0.070,0.000,0.000,0.000
1640671604419714816,2021-12-28-06:06:44,10.1.1.8,9,-0.070,-0.070,-0.070,0.000,0.000,0.000
1640671606178663936,2021-12-28-06:06:46,10.1.1.8,7,-0.070,-0.070,-0.070,0.000,0.000,0.000
1640671606478084096,2021-12-28-06:06:46,10.1.1.8,15,-0.070,-0.070,-0.070,0.000,0.000,0.000
1640671608276823040,2021-12-28-06:06:48,10.1.1.8,4,-0.070,-0.070,-0.070,0.000,0.000,0.000
1640671608575661056,2021-12-28-06:06:48,10.1.1.8,14,-0.070,-0.070,-0.070,0.000,0.000,0.000
1640671610316016896,2021-12-28-06:06:50,10.1.1.8,15,-0.070,-0.070,-0.070,0.000,0.000,0.000
1640671610593956864,2021-12-28-06:06:50,10.1.1.8,2,-0.070,-0.070,-0.070,0.000,0.000,0.000
1640671612353133824,2021-12-28-06:06:52,10.1.1.8,7,-0.070,-0.070,-0.070,0.000,0.000,0.000
1640671612651344896,2021-12-28-06:06:52,10.1.1.8,15,-0.070,-0.070,-0.070,0.000,0.000,0.000
1640671614389676032,2021-12-28-06:06:54,10.1.1.8,7,-0.070,-0.070,-0.070,0.000,0.000,0.000
1640671614688879872,2021-12-28-06:06:54,10.1.1.8,18,-0.070,-0.070,-0.070,0.000,0.000,0.000
1640671616405901824,2021-12-28-06:06:56,10.1.1.8,13,-0.070,-0.070,-0.070,0.000,0.000,0.000
1640671616685164032,2021-12-28-06:06:56,10.1.1.8,3,-0.070,-0.070,-0.070,0.000,0.000,0.000
1640671618444300032,2021-12-28-06:06:58,10.1.1.8,10,-0.070,-0.070,-0.070,0.000,0.000,0.000
1640671618742049024,2021-12-28-06:06:58,10.1.1.8,17,-0.070,-0.070,-0.070,0.000,0.000,0.000
1640671620558716928,2021-12-28-06:07:00,10.1.1.8,16,-0.070,-0.070,-0.070,0.000,0.000,0.000
1640671620838589952,2021-12-28-06:07:00,10.1.1.8,7,-0.070,-0.070,-0.070,0.000,0.000,0.000
1640671622680238080,2021-12-28-06:07:02,10.1.1.8,13,-0.070,-0.070,-0.070,0.000,0.000,0.000
1640671622961848064,2021-12-28-06:07:02,10.1.1.8,1,-0.070,-0.070,-0.070,0.000,0.000,0.000
1640671624729037056,2021-12-28-06:07:04,10.1.1.8,12,-0.070,-0.070,-0.070,0.000,0.000,0.000
1640671625010892032,2021-12-28-06:07:05,10.1.1.8,5,-0.070,-0.070,-0.070,0.000,0.000,0.000
1640671626756752128,2021-12-28-06:07:06,10.1.1.8,1,-0.070,-0.070,-0.070,0.000,0.000,0.000
1640671627056140032,2021-12-28-06:07:07,10.1.1.8,12,-0.070,-0.070,-0.070,0.000,0.000,0.000
1640671628800165888,2021-12-28-06:07:08,10.1.1.8,20,-0.070,-0.070,-0.070,0.000,0.000,0.000
1640671629079584000,2021-12-28-06:07:09,10.1.1.8,10,-0.070,-0.070,-0.070,0.000,0.000,0.000
1640671630821156864,2021-12-28-06:07:10,10.1.1.8,16,-0.070,-0.070,-0.070,0.000,0.000,0.000
1640671631103789056,2021-12-28-06:07:11,10.1.1.8,10,-0.070,-0.070,-0.070,0.000,0.000,0.000
1640671632901690112,2021-12-28-06:07:12,10.1.1.8,15,-0.070,-0.070,-0.070,0.000,0.000,0.000
1640671633181430016,2021-12-28-06:07:13,10.1.1.8,9,-0.070,-0.070,-0.070,0.000,0.000,0.000
1640671634941998080,2021-12-28-06:07:14,10.1.1.8,14,-0.070,-0.070,-0.070,0.000,0.000,0.000
1640671635241120000,2021-12-28-06:07:15,10.1.1.8,14,-0.070,-0.070,-0.070,0.000,0.000,0.000
1640671636980160000,2021-12-28-06:07:16,10.1.1.8,5,-0.070,-0.070,-0.070,0.000,0.000,0.000
1640671637280169984,2021-12-28-06:07:17,10.1.1.8,15,-0.070,-0.070,-0.070,0.000,0.000,0.000
1640671639019294976,2021-12-28-06:07:19,10.1.1.8,5,-0.070,-0.070,-0.070,0.000,0.000,0.000
1640671639318510080,2021-12-28-06:07:19,10.1.1.8,15,-0.070,-0.070,-0.070,0.000,0.000,0.000
1640671641036328960,2021-12-28-06:07:21,10.1.1.8,7,-0.070,-0.070,-0.070,0.000,0.000,0.000
1640671641316454912,2021-12-28-06:07:21,10.1.1.8,0,-0.070,-0.070,-0.070,0.000,0.000,0.000
1640671643074779904,2021-12-28-06:07:23,10.1.1.8,10,-0.070,-0.070,-0.070,0.000,0.000,0.000
1640671643354300928,2021-12-28-06:07:23,10.1.1.8,0,-0.070,-0.070,-0.070,0.000,0.000,0.000
1640671645091831808,2021-12-28-06:07:25,10.1.1.8,0,-0.070,-0.070,-0.070,0.000,0.000,0.000
1640671645390454016,2021-12-28-06:07:25,10.1.1.8,10,-0.070,-0.070,-0.070,0.000,0.000,0.000
1640671647108457216,2021-12-28-06:07:27,10.1.1.8,2,-0.070,-0.070,-0.070,0.000,0.000,0.000
1640671647408915968,2021-12-28-06:07:27,10.1.1.8,11,-0.070,-0.070,-0.070,0.000,0.000,0.000
1640671649224869120,2021-12-28-06:07:29,10.1.1.8,19,-0.070,-0.070,-0.070,0.000,0.000,0.000
1640671649505580800,2021-12-28-06:07:29,10.1.1.8,8,-0.070,-0.070,-0.070,0.000,0.000,0.000
1640671651241647104,2021-12-28-06:07:31,10.1.1.8,2,-0.070,-0.070,-0.070,0.000,0.000,0.000
1640671651542684928,2021-12-28-06:07:31,10.1.1.8,16,-0.070,-0.070,-0.070,0.000,0.000,0.000
1640671653338279936,2021-12-28-06:07:33,10.1.1.8,8,-0.070,-0.070,-0.070,0.000,0.000,0.000
1640671653637924864,2021-12-28-06:07:33,10.1.1.8,14,-0.070,-0.070,-0.070,0.000,0.000,0.000
1640671655384535040,2021-12-28-06:07:35,10.1.1.8,11,-0.070,-0.070,-0.070,0.000,0.000,0.000
1640671655665817088,2021-12-28-06:07:35,10.1.1.8,6,-0.070,-0.070,-0.070,0.000,0.000,0.000
1640671657412476928,2021-12-28-06:07:37,10.1.1.8,4,-0.070,-0.070,-0.070,0.000,0.000,0.000
1640671657713026048,2021-12-28-06:07:37,10.1.1.8,14,-0.070,-0.070,-0.070,0.000,0.000,0.000
1640671659537227008,2021-12-28-06:07:39,10.1.1.8,13,-0.070,-0.070,-0.070,0.000,0.000,0.000
1640671659818483200,2021-12-28-06:07:39,10.1.1.8,3,-0.070,-0.070,-0.070,0.000,0.000,0.000
1640671661700153088,2021-12-28-06:07:41,10.1.1.8,12,-0.070,-0.070,-0.070,0.000,0.000,0.000
1640671662000493056,2021-12-28-06:07:42,10.1.1.8,18,-0.070,-0.070,-0.070,0.000,0.000,0.000
1640671663781630976,2021-12-28-06:07:43,10.1.1.8,17,-0.070,-0.070,-0.070,0.000,0.000,0.000
1640671664082099968,2021-12-28-06:07:44,10.1.1.8,15,-0.070,-0.070,-0.070,0.000,0.000,0.000
1640671665858222848,2021-12-28-06:07:45,10.1.1.8,38,-0.070,-0.070,-0.070,0.000,0.000,0.000
1640671666161576960,2021-12-28-06:07:46,10.1.1.8,8,-0.070,-0.070,-0.070,0.000,0.000,0.000
1640671667980408832,2021-12-28-06:07:47,10.1.1.8,18,-0.070,-0.070,-0.070,0.000,0.000,0.000
1640671668260200960,2021-12-28-06:07:48,10.1.1.8,6,-0.070,-0.070,-0.070,0.000,0.000,0.000
1640671670039251200,2021-12-28-06:07:50,10.1.1.8,9,-0.070,-0.070,-0.070,0.000,0.000,0.000
1640671670339700992,2021-12-28-06:07:50,10.1.1.8,19,-0.070,-0.070,-0.070,0.000,0.000,0.000
1640671672077907968,2021-12-28-06:07:52,10.1.1.8,8,-0.070,-0.070,-0.070,0.000,0.000,0.000
1640671672377257216,2021-12-28-06:07:52,10.1.1.8,17,-0.070,-0.070,-0.070,0.000,0.000,0.000
1640671674155297024,2021-12-28-06:07:54,10.1.1.8,12,-0.070,-0.070,-0.070,0.000,0.000,0.000
1640671674434715136,2021-12-28-06:07:54,10.1.1.8,5,-0.070,-0.070,-0.070,0.000,0.000,0.000
1640671676155000832,2021-12-28-06:07:56,10.1.1.8,6,-0.070,-0.070,-0.070,0.000,0.000,0.000
1640671676452645120,2021-12-28-06:07:56,10.1.1.8,15,-0.070,-0.070,-0.070,0.000,0.000,0.000
1640671678349103872,2021-12-28-06:07:58,10.1.1.8,0,-0.070,-0.070,-0.070,0.000,0.000,0.000
1640671678668579072,2021-12-28-06:07:58,10.1.1.8,6,-0.070,-0.070,-0.070,0.000,0.000,0.000
1640671680426071040,2021-12-28-06:08:00,10.1.1.8,17,-0.070,-0.070,-0.070,0.000,0.000,0.000
1640671680705400832,2021-12-28-06:08:00,10.1.1.8,5,-0.070,-0.070,-0.070,0.000,0.000,0.000
1640671682463219968,2021-12-28-06:08:02,10.1.1.8,10,-0.070,-0.070,-0.070,0.000,0.000,0.000
1640671682762339072,2021-12-28-06:08:02,10.1.1.8,15,-0.070,-0.070,-0.070,0.000,0.000,0.000
1640671684579570176,2021-12-28-06:08:04,10.1.1.8,8,-0.070,-0.070,-0.070,0.000,0.000,0.000
1640671684878804992,2021-12-28-06:08:04,10.1.1.8,16,-0.070,-0.070,-0.070,0.000,0.000,0.000
1640671686602080000,2021-12-28-06:08:06,10.1.1.8,6,-0.070,-0.070,-0.070,0.000,0.000,0.000
1640671686901814016,2021-12-28-06:08:06,10.1.1.8,17,-0.070,-0.070,-0.070,0.000,0.000,0.000
1640671688669692928,2021-12-28-06:08:08,10.1.1.8,17,-0.070,-0.070,-0.070,0.000,0.000,0.000
1640671689011099136,2021-12-28-06:08:09,10.1.1.8,13,-0.070,-0.070,-0.070,0.000,0.000,0.000
1640671690836383232,2021-12-28-06:08:10,10.1.1.8,8,-0.070,-0.070,-0.070,0.000,0.000,0.000
1640671691177388032,2021-12-28-06:08:11,10.1.1.8,19,-0.070,-0.070,-0.070,0.000,0.000,0.000
1640671692919457792,2021-12-28-06:08:12,10.1.1.8,19,-0.070,-0.070,-0.070,0.000,0.000,0.000
1640671693199625984,2021-12-28-06:08:13,10.1.1.8,9,-0.070,-0.070,-0.070,0.000,0.000,0.000
1640671694921873152,2021-12-28-06:08:14,10.1.1.8,7,-0.070,-0.070,-0.070,0.000,0.000,0.000
1640671695221895936,2021-12-28-06:08:15,10.1.1.8,18,-0.070,-0.070,-0.070,0.000,0.000,0.000
1640671697082251008,2021-12-28-06:08:17,10.1.1.8,19,-0.070,-0.070,-0.070,0.000,0.000,0.000
1640671697361843968,2021-12-28-06:08:17,10.1.1.8,12,-0.070,-0.070,-0.070,0.000,0.000,0.000
1640671699081861888,2021-12-28-06:08:19,10.1.1.8,0,-0.070,-0.070,-0.070,0.000,0.000,0.000
1640671699381124096,2021-12-28-06:08:19,10.1.1.8,11,-0.070,-0.070,-0.070,0.000,0.000,0.000
1640671701160378880,2021-12-28-06:08:21,10.1.1.8,11,-0.070,-0.070,-0.070,0.000,0.000,0.000
1640671701459875072,2021-12-28-06:08:21,10.1.1.8,16,-0.070,-0.070,-0.070,0.000,0.000,0.000
1640671703198941952,2021-12-28-06:08:23,10.1.1.8,12,-0.070,-0.070,-0.070,0.000,0.000,0.000
1640671703478745856,2021-12-28-06:08:23,10.1.1.8,0,-0.070,-0.070,-0.070,0.000,0.000,0.000
1640671705396672000,2021-12-28-06:08:25,10.1.1.8,14,-0.070,-0.070,-0.070,0.000,0.000,0.000
1640671705676939008,2021-12-28-06:08:25,10.1.1.8,4,-0.070,-0.070,-0.070,0.000,0.000,0.000
1640671707475792896,2021-12-28-06:08:27,10.1.1.8,9,-0.070,-0.070,-0.070,0.000,0.000,0.000
1640671707773807104,2021-12-28-06:08:27,10.1.1.8,15,-0.070,-0.070,-0.070,0.000,0.000,0.000
1640671709610728960,2021-12-28-06:08:29,10.1.1.8,7,-0.070,-0.070,-0.070,0.000,0.000,0.000
1640671709910473984,2021-12-28-06:08:29,10.1.1.8,15,-0.070,-0.070,-0.070,0.000,0.000,0.000
1640671711653187072,2021-12-28-06:08:31,10.1.1.8,13,-0.070,-0.070,-0.070,0.000,0.000,0.000
1640671711969659136,2021-12-28-06:08:31,10.1.1.8,3,-0.070,-0.070,-0.070,0.000,0.000,0.000
1640671713744653824,2021-12-28-06:08:33,10.1.1.8,9,-0.070,-0.070,-0.070,0.000,0.000,0.000
1640671714045097984,2021-12-28-06:08:34,10.1.1.8,9,-0.070,-0.070,-0.070,0.000,0.000,0.000
1640671715782068992,2021-12-28-06:08:35,10.1.1.8,4,-0.070,-0.070,-0.070,0.000,0.000,0.000
1640671716081188864,2021-12-28-06:08:36,10.1.1.8,7,-0.070,-0.070,-0.070,0.000,0.000,0.000
1640671717877743104,2021-12-28-06:08:37,10.1.1.8,13,-0.070,-0.070,-0.070,0.000,0.000,0.000
1640671718157888000,2021-12-28-06:08:38,10.1.1.8,2,-0.070,-0.070,-0.070,0.000,0.000,0.000
1640671720022790912,2021-12-28-06:08:40,10.1.1.8,9,-0.070,-0.070,-0.070,0.000,0.000,0.000
1640671720322972160,2021-12-28-06:08:40,10.1.1.8,9,-0.070,-0.070,-0.070,0.000,0.000,0.000
1640671722090771968,2021-12-28-06:08:42,10.1.1.8,9,-0.070,-0.070,-0.070,0.000,0.000,0.000
1640671722372647168,2021-12-28-06:08:42,10.1.1.8,3,-0.070,-0.070,-0.070,0.000,0.000,0.000
1640671724216520960,2021-12-28-06:08:44,10.1.1.8,17,-0.070,-0.070,-0.070,0.000,0.000,0.000
1640671724496954880,2021-12-28-06:08:44,10.1.1.8,6,-0.070,-0.070,-0.070,0.000,0.000,0.000
1640671726260168192,2021-12-28-06:08:46,10.1.1.8,8,-0.070,-0.070,-0.070,0.000,0.000,0.000
1640671726560375808,2021-12-28-06:08:46,10.1.1.8,12,-0.070,-0.070,-0.070,0.000,0.000,0.000
1640671728341217024,2021-12-28-06:08:48,10.1.1.8,10,-0.070,-0.070,-0.070,0.000,0.000,0.000
1640671728621720064,2021-12-28-06:08:48,10.1.1.8,3,-0.070,-0.070,-0.070,0.000,0.000,0.000
1640671730442082048,2021-12-28-06:08:50,10.1.1.8,18,-0.070,-0.070,-0.070,0.000,0.000,0.000
1640671730721571072,2021-12-28-06:08:50,10.1.1.8,2,-0.070,-0.070,-0.070,0.000,0.000,0.000
1640671732461100032,2021-12-28-06:08:52,10.1.1.8,1,-0.070,-0.070,-0.070,0.000,0.000,0.000
1640671732760494080,2021-12-28-06:08:52,10.1.1.8,15,-0.070,-0.070,-0.070,0.000,0.000,0.000
1640671734480562944,2021-12-28-06:08:54,10.1.1.8,3,-0.070,-0.070,-0.070,0.000,0.000,0.000
1640671734779682048,2021-12-28-06:08:54,10.1.1.8,15,-0.070,-0.070,-0.070,0.000,0.000,0.000
1640671736557617920,2021-12-28-06:08:56,10.1.1.8,19,-0.070,-0.070,-0.070,0.000,0.000,0.000
1640671736837477888,2021-12-28-06:08:56,10.1.1.8,10,-0.070,-0.070,-0.070,0.000,0.000,0.000
1640671738575789824,2021-12-28-06:08:58,10.1.1.8,8,-0.070,-0.070,-0.070,0.000,0.000,0.000
1640671738876058112,2021-12-28-06:08:58,10.1.1.8,11,-0.070,-0.070,-0.070,0.000,0.000,0.000
1640671740614151936,2021-12-28-06:09:00,10.1.1.8,11,-0.070,-0.070,-0.070,0.000,0.000,0.000
1640671740893263104,2021-12-28-06:09:00,10.1.1.8,0,-0.070,-0.070,-0.070,0.000,0.000,0.000
1640671742691202048,2021-12-28-06:09:02,10.1.1.8,14,-0.070,-0.070,-0.070,0.000,0.000,0.000
1640671742972596992,2021-12-28-06:09:02,10.1.1.8,4,-0.070,-0.070,-0.070,0.000,0.000,0.000
1640671744727888128,2021-12-28-06:09:04,10.1.1.8,12,-0.070,-0.070,-0.070,0.000,0.000,0.000
1640671745027194112,2021-12-28-06:09:05,10.1.1.8,15,-0.070,-0.070,-0.070,0.000,0.000,0.000
1640671746844372992,2021-12-28-06:09:06,10.1.1.8,12,-0.070,-0.070,-0.070,0.000,0.000,0.000
1640671747123629056,2021-12-28-06:09:07,10.1.1.8,1,-0.070,-0.070,-0.070,0.000,0.000,0.000
1640671748965351936,2021-12-28-06:09:08,10.1.1.8,19,-0.070,-0.070,-0.070,0.000,0.000,0.000
1640671749260329984,2021-12-28-06:09:09,10.1.1.8,8,-0.070,-0.070,-0.070,0.000,0.000,0.000
1640671751057805056,2021-12-28-06:09:11,10.1.1.8,9,-0.070,-0.070,-0.070,0.000,0.000,0.000
1640671751358849024,2021-12-28-06:09:11,10.1.1.8,17,-0.070,-0.070,-0.070,0.000,0.000,0.000
1640671753147757056,2021-12-28-06:09:13,10.1.1.8,10,-0.070,-0.070,-0.070,0.000,0.000,0.000
1640671753428594944,2021-12-28-06:09:13,10.1.1.8,1,-0.070,-0.070,-0.070,0.000,0.000,0.000
1640671755234138880,2021-12-28-06:09:15,10.1.1.8,16,-0.070,-0.070,-0.070,0.000,0.000,0.000
1640671755514265088,2021-12-28-06:09:15,10.1.1.8,3,-0.070,-0.070,-0.070,0.000,0.000,0.000
1640671757238547200,2021-12-28-06:09:17,10.1.1.8,1,-0.070,-0.070,-0.070,0.000,0.000,0.000
1640671757538093056,2021-12-28-06:09:17,10.1.1.8,10,-0.070,-0.070,-0.070,0.000,0.000,0.000
1640671759300334080,2021-12-28-06:09:19,10.1.1.8,13,-0.070,-0.070,-0.070,0.000,0.000,0.000
1640671759600366080,2021-12-28-06:09:19,10.1.1.8,14,-0.070,-0.070,-0.070,0.000,0.000,0.000
1640671761402514944,2021-12-28-06:09:21,10.1.1.8,2,-0.070,-0.070,-0.070,0.000,0.000,0.000
1640671761700856064,2021-12-28-06:09:21,10.1.1.8,14,-0.070,-0.070,-0.070,0.000,0.000,0.000
1640671763461262848,2021-12-28-06:09:23,10.1.1.8,15,-0.070,-0.070,-0.070,0.000,0.000,0.000
1640671763740633088,2021-12-28-06:09:23,10.1.1.8,2,-0.070,-0.070,-0.070,0.000,0.000,0.000
1640671765520251136,2021-12-28-06:09:25,10.1.1.8,18,-0.070,-0.070,-0.070,0.000,0.000,0.000
1640671765799738880,2021-12-28-06:09:25,10.1.1.8,9,-0.070,-0.070,-0.070,0.000,0.000,0.000
1640671767538153984,2021-12-28-06:09:27,10.1.1.8,5,-0.070,-0.070,-0.070,0.000,0.000,0.000
1640671767838504960,2021-12-28-06:09:27,10.1.1.8,17,-0.070,-0.070,-0.070,0.000,0.000,0.000
1640671769635291136,2021-12-28-06:09:29,10.1.1.8,4,-0.070,-0.070,-0.070,0.000,0.000,0.000
1640671769936544768,2021-12-28-06:09:29,10.1.1.8,6,-0.070,-0.070,-0.070,0.000,0.000,0.000
1640671771733009152,2021-12-28-06:09:31,10.1.1.8,2,-0.070,-0.070,-0.070,0.000,0.000,0.000
1640671772032704000,2021-12-28-06:09:32,10.1.1.8,3,-0.070,-0.070,-0.070,0.000,0.000,0.000
1640671773790260992,2021-12-28-06:09:33,10.1.1.8,12,-0.070,-0.070,-0.070,0.000,0.000,0.000
1640671774103496192,2021-12-28-06:09:34,10.1.1.8,2,-0.070,-0.070,-0.070,0.000,0.000,0.000
