FedericoMungari/DigitalTwin_service/01_WiredScenario/Output/Output_script/script_rosapi_2_output_robots10_freq0_3.txt
timestamp,date,node,latency,joint_1,joint_2,joint_3,joint_4,joint_5,joint_6
1641220948342910976,2022-01-03-14:42:28,10.1.1.4,195,-0.010,-0.010,-0.010,0.000,0.000,0.000
1641220948522028800,2022-01-03-14:42:28,10.1.1.4,174,-0.020,-0.020,-0.020,0.000,0.000,0.000
1641220948741040896,2022-01-03-14:42:28,10.1.1.4,193,-0.030,-0.030,-0.030,0.000,0.000,0.000
1641220948941176064,2022-01-03-14:42:28,10.1.1.4,192,-0.040,-0.040,-0.040,0.000,0.000,0.000
1641220949140113152,2022-01-03-14:42:29,10.1.1.4,190,-0.050,-0.050,-0.050,0.000,0.000,0.000
1641220949339767808,2022-01-03-14:42:29,10.1.1.4,189,-0.060,-0.060,-0.060,0.000,0.000,0.000
1641220949539767040,2022-01-03-14:42:29,10.1.1.4,188,-0.070,-0.070,-0.070,0.000,0.000,0.000
1641220949741349888,2022-01-03-14:42:29,10.1.1.4,189,-0.080,-0.080,-0.080,0.000,0.000,0.000
1641220949939405824,2022-01-03-14:42:29,10.1.1.4,185,-0.090,-0.090,-0.090,0.000,0.000,0.000
1641220950139067904,2022-01-03-14:42:30,10.1.1.4,183,-0.100,-0.100,-0.100,0.000,0.000,0.000
1641220950339168000,2022-01-03-14:42:30,10.1.1.4,182,-0.110,-0.110,-0.110,0.000,0.000,0.000
1641220950538521088,2022-01-03-14:42:30,10.1.1.4,181,-0.120,-0.120,-0.120,0.000,0.000,0.000
1641220950742958080,2022-01-03-14:42:30,10.1.1.4,184,-0.130,-0.130,-0.130,0.000,0.000,0.000
1641220950938287104,2022-01-03-14:42:30,10.1.1.4,178,-0.140,-0.140,-0.140,0.000,0.000,0.000
1641220951158024192,2022-01-03-14:42:31,10.1.1.4,178,-0.150,-0.150,-0.150,0.000,0.000,0.000
1641220951357445120,2022-01-03-14:42:31,10.1.1.4,177,-0.160,-0.160,-0.160,0.000,0.000,0.000
1641220951556886016,2022-01-03-14:42:31,10.1.1.4,176,-0.170,-0.170,-0.170,0.000,0.000,0.000
1641220951760928000,2022-01-03-14:42:31,10.1.1.4,179,-0.180,-0.180,-0.180,0.000,0.000,0.000
1641220951956499968,2022-01-03-14:42:31,10.1.1.4,174,-0.190,-0.190,-0.190,0.000,0.000,0.000
1641220952156022016,2022-01-03-14:42:32,10.1.1.4,171,-0.200,-0.200,-0.200,0.000,0.000,0.000
1641220952356125952,2022-01-03-14:42:32,10.1.1.4,171,-0.210,-0.210,-0.210,0.000,0.000,0.000
1641220952555800064,2022-01-03-14:42:32,10.1.1.4,170,-0.220,-0.220,-0.220,0.000,0.000,0.000
1641220952755630848,2022-01-03-14:42:32,10.1.1.4,168,-0.230,-0.230,-0.230,0.000,0.000,0.000
1641220952955120128,2022-01-03-14:42:32,10.1.1.4,167,-0.240,-0.240,-0.240,0.000,0.000,0.000
1641220953174698240,2022-01-03-14:42:33,10.1.1.4,186,-0.250,-0.250,-0.250,0.000,0.000,0.000
1641220953374222080,2022-01-03-14:42:33,10.1.1.4,185,-0.260,-0.260,-0.260,0.000,0.000,0.000
1641220953573911040,2022-01-03-14:42:33,10.1.1.4,184,-0.270,-0.270,-0.270,0.000,0.000,0.000
1641220953774110976,2022-01-03-14:42:33,10.1.1.4,183,-0.280,-0.280,-0.280,0.000,0.000,0.000
1641220953973465856,2022-01-03-14:42:33,10.1.1.4,182,-0.290,-0.290,-0.290,0.000,0.000,0.000
1641220954173648128,2022-01-03-14:42:34,10.1.1.4,181,-0.300,-0.300,-0.300,0.000,0.000,0.000
1641220954373431808,2022-01-03-14:42:34,10.1.1.4,180,-0.310,-0.310,-0.310,0.000,0.000,0.000
1641220954573095936,2022-01-03-14:42:34,10.1.1.4,180,-0.320,-0.320,-0.320,0.000,0.000,0.000
1641220954772603904,2022-01-03-14:42:34,10.1.1.4,178,-0.330,-0.330,-0.330,0.000,0.000,0.000
1641220954972315904,2022-01-03-14:42:34,10.1.1.4,177,-0.340,-0.340,-0.340,0.000,0.000,0.000
1641220955172169984,2022-01-03-14:42:35,10.1.1.4,176,-0.350,-0.350,-0.350,0.000,0.000,0.000
1641220955371515136,2022-01-03-14:42:35,10.1.1.4,175,-0.360,-0.360,-0.360,0.000,0.000,0.000
1641220955571262976,2022-01-03-14:42:35,10.1.1.4,174,-0.370,-0.370,-0.370,0.000,0.000,0.000
1641220955771593216,2022-01-03-14:42:35,10.1.1.4,174,-0.380,-0.380,-0.380,0.000,0.000,0.000
1641220955971610112,2022-01-03-14:42:35,10.1.1.4,173,-0.390,-0.390,-0.390,0.000,0.000,0.000
1641220956170944000,2022-01-03-14:42:36,10.1.1.4,171,-0.400,-0.400,-0.400,0.000,0.000,0.000
1641220956370331904,2022-01-03-14:42:36,10.1.1.4,170,-0.410,-0.410,-0.410,0.000,0.000,0.000
1641220956569984000,2022-01-03-14:42:36,10.1.1.4,169,-0.420,-0.420,-0.420,0.000,0.000,0.000
1641220956769763072,2022-01-03-14:42:36,10.1.1.4,168,-0.430,-0.430,-0.430,0.000,0.000,0.000
1641220956969223936,2022-01-03-14:42:36,10.1.1.4,167,-0.440,-0.440,-0.440,0.000,0.000,0.000
1641220957169469184,2022-01-03-14:42:37,10.1.1.4,166,-0.450,-0.450,-0.450,0.000,0.000,0.000
1641220957368623104,2022-01-03-14:42:37,10.1.1.4,164,-0.460,-0.460,-0.460,0.000,0.000,0.000
1641220957568780032,2022-01-03-14:42:37,10.1.1.4,164,-0.470,-0.470,-0.470,0.000,0.000,0.000
1641220957767881984,2022-01-03-14:42:37,10.1.1.4,163,-0.480,-0.480,-0.480,0.000,0.000,0.000
1641220957967650048,2022-01-03-14:42:37,10.1.1.4,162,-0.490,-0.490,-0.490,0.000,0.000,0.000
1641220958167720960,2022-01-03-14:42:38,10.1.1.4,161,-0.480,-0.480,-0.480,0.000,0.000,0.000
1641220958387257088,2022-01-03-14:42:38,10.1.1.4,179,-0.470,-0.470,-0.470,0.000,0.000,0.000
1641220958587465984,2022-01-03-14:42:38,10.1.1.4,179,-0.460,-0.460,-0.460,0.000,0.000,0.000
1641220958786000128,2022-01-03-14:42:38,10.1.1.4,177,-0.450,-0.450,-0.450,0.000,0.000,0.000
1641220958985671936,2022-01-03-14:42:38,10.1.1.4,176,-0.440,-0.440,-0.440,0.000,0.000,0.000
1641220959185352192,2022-01-03-14:42:39,10.1.1.4,174,-0.430,-0.430,-0.430,0.000,0.000,0.000
1641220959385460992,2022-01-03-14:42:39,10.1.1.4,174,-0.420,-0.420,-0.420,0.000,0.000,0.000
1641220959585541888,2022-01-03-14:42:39,10.1.1.4,173,-0.410,-0.410,-0.410,0.000,0.000,0.000
1641220959785074944,2022-01-03-14:42:39,10.1.1.4,171,-0.400,-0.400,-0.400,0.000,0.000,0.000
1641220959984077056,2022-01-03-14:42:39,10.1.1.4,169,-0.390,-0.390,-0.390,0.000,0.000,0.000
1641220960184175104,2022-01-03-14:42:40,10.1.1.4,167,-0.380,-0.380,-0.380,0.000,0.000,0.000
1641220960383520000,2022-01-03-14:42:40,10.1.1.4,166,-0.370,-0.370,-0.370,0.000,0.000,0.000
1641220960584209920,2022-01-03-14:42:40,10.1.1.4,166,-0.360,-0.360,-0.360,0.000,0.000,0.000
1641220960784653824,2022-01-03-14:42:40,10.1.1.4,165,-0.350,-0.350,-0.350,0.000,0.000,0.000
1641220961003011072,2022-01-03-14:42:41,10.1.1.4,183,-0.340,-0.340,-0.340,0.000,0.000,0.000
1641220961183616000,2022-01-03-14:42:41,10.1.1.4,163,-0.330,-0.330,-0.330,0.000,0.000,0.000
1641220961385658112,2022-01-03-14:42:41,10.1.1.4,164,-0.320,-0.320,-0.320,0.000,0.000,0.000
1641220961585840896,2022-01-03-14:42:41,10.1.1.4,164,-0.310,-0.310,-0.310,0.000,0.000,0.000
1641220961787163904,2022-01-03-14:42:41,10.1.1.4,165,-0.300,-0.300,-0.300,0.000,0.000,0.000
1641220961988243200,2022-01-03-14:42:41,10.1.1.4,165,-0.290,-0.290,-0.290,0.000,0.000,0.000
1641220962196044800,2022-01-03-14:42:42,10.1.1.4,172,-0.280,-0.280,-0.280,0.000,0.000,0.000
1641220962410202880,2022-01-03-14:42:42,10.1.1.4,172,-0.270,-0.270,-0.270,0.000,0.000,0.000
1641220962610603008,2022-01-03-14:42:42,10.1.1.4,171,-0.260,-0.260,-0.260,0.000,0.000,0.000
1641220962811286016,2022-01-03-14:42:42,10.1.1.4,169,-0.250,-0.250,-0.250,0.000,0.000,0.000
1641220963012496896,2022-01-03-14:42:43,10.1.1.4,168,-0.240,-0.240,-0.240,0.000,0.000,0.000
1641220963239453184,2022-01-03-14:42:43,10.1.1.4,171,-0.230,-0.230,-0.230,0.000,0.000,0.000
1641220963434312960,2022-01-03-14:42:43,10.1.1.4,183,-0.220,-0.220,-0.220,0.000,0.000,0.000
1641220963634402048,2022-01-03-14:42:43,10.1.1.4,176,-0.210,-0.210,-0.210,0.000,0.000,0.000
1641220963835396096,2022-01-03-14:42:43,10.1.1.4,176,-0.200,-0.200,-0.200,0.000,0.000,0.000
1641220964036048896,2022-01-03-14:42:44,10.1.1.4,176,-0.190,-0.190,-0.190,0.000,0.000,0.000
1641220964236530176,2022-01-03-14:42:44,10.1.1.4,176,-0.180,-0.180,-0.180,0.000,0.000,0.000
1641220964436852992,2022-01-03-14:42:44,10.1.1.4,176,-0.170,-0.170,-0.170,0.000,0.000,0.000
1641220964637689088,2022-01-03-14:42:44,10.1.1.4,176,-0.160,-0.160,-0.160,0.000,0.000,0.000
1641220964852972032,2022-01-03-14:42:44,10.1.1.4,189,-0.150,-0.150,-0.150,0.000,0.000,0.000
1641220965039452160,2022-01-03-14:42:45,10.1.1.4,174,-0.140,-0.140,-0.140,0.000,0.000,0.000
1641220965239639040,2022-01-03-14:42:45,10.1.1.4,174,-0.130,-0.130,-0.130,0.000,0.000,0.000
1641220965439960064,2022-01-03-14:42:45,10.1.1.4,173,-0.120,-0.120,-0.120,0.000,0.000,0.000
1641220965640808192,2022-01-03-14:42:45,10.1.1.4,173,-0.110,-0.110,-0.110,0.000,0.000,0.000
1641220965860851968,2022-01-03-14:42:45,10.1.1.4,192,-0.100,-0.100,-0.100,0.000,0.000,0.000
1641220966061587200,2022-01-03-14:42:46,10.1.1.4,192,-0.090,-0.090,-0.090,0.000,0.000,0.000
1641220966261692928,2022-01-03-14:42:46,10.1.1.4,192,-0.080,-0.080,-0.080,0.000,0.000,0.000
1641220966462268160,2022-01-03-14:42:46,10.1.1.4,191,-0.070,-0.070,-0.070,0.000,0.000,0.000
1641220966662343936,2022-01-03-14:42:46,10.1.1.4,190,-0.060,-0.060,-0.060,0.000,0.000,0.000
1641220966863399936,2022-01-03-14:42:46,10.1.1.4,190,-0.050,-0.050,-0.050,0.000,0.000,0.000
1641220967065526016,2022-01-03-14:42:47,10.1.1.4,192,-0.040,-0.040,-0.040,0.000,0.000,0.000
1641220967263535104,2022-01-03-14:42:47,10.1.1.4,189,-0.030,-0.030,-0.030,0.000,0.000,0.000
1641220967464626176,2022-01-03-14:42:47,10.1.1.4,190,-0.020,-0.020,-0.020,0.000,0.000,0.000
1641220967655811072,2022-01-03-14:42:47,10.1.1.4,180,-0.010,-0.010,-0.010,0.000,0.000,0.000
1641220967865942016,2022-01-03-14:42:47,10.1.1.4,190,0.000,0.000,0.000,0.000,0.000,0.000
1641220968065643008,2022-01-03-14:42:48,10.1.1.4,189,-0.010,-0.010,-0.010,0.000,0.000,0.000
1641220968265602048,2022-01-03-14:42:48,10.1.1.4,189,-0.020,-0.020,-0.020,0.000,0.000,0.000
1641220968465871104,2022-01-03-14:42:48,10.1.1.4,188,-0.030,-0.030,-0.030,0.000,0.000,0.000
1641220968667117056,2022-01-03-14:42:48,10.1.1.4,189,-0.040,-0.040,-0.040,0.000,0.000,0.000
1641220968867440896,2022-01-03-14:42:48,10.1.1.4,189,-0.050,-0.050,-0.050,0.000,0.000,0.000
1641220969066973952,2022-01-03-14:42:49,10.1.1.4,188,-0.060,-0.060,-0.060,0.000,0.000,0.000
1641220969269569024,2022-01-03-14:42:49,10.1.1.4,190,-0.070,-0.070,-0.070,0.000,0.000,0.000
1641220969466291968,2022-01-03-14:42:49,10.1.1.4,186,-0.080,-0.080,-0.080,0.000,0.000,0.000
1641220969666382080,2022-01-03-14:42:49,10.1.1.4,185,-0.090,-0.090,-0.090,0.000,0.000,0.000
1641220969867304192,2022-01-03-14:42:49,10.1.1.4,186,-0.100,-0.100,-0.100,0.000,0.000,0.000
1641220970066945024,2022-01-03-14:42:50,10.1.1.4,185,-0.110,-0.110,-0.110,0.000,0.000,0.000
1641220970267276032,2022-01-03-14:42:50,10.1.1.4,184,-0.120,-0.120,-0.120,0.000,0.000,0.000
1641220970468339968,2022-01-03-14:42:50,10.1.1.4,184,-0.130,-0.130,-0.130,0.000,0.000,0.000
1641220970666682112,2022-01-03-14:42:50,10.1.1.4,182,-0.140,-0.140,-0.140,0.000,0.000,0.000
1641220970885572864,2022-01-03-14:42:50,10.1.1.4,200,-0.150,-0.150,-0.150,0.000,0.000,0.000
1641220971082034944,2022-01-03-14:42:51,10.1.1.4,194,-0.160,-0.160,-0.160,0.000,0.000,0.000
1641220971287133952,2022-01-03-14:42:51,10.1.1.4,199,-0.170,-0.170,-0.170,0.000,0.000,0.000
1641220971480550144,2022-01-03-14:42:51,10.1.1.4,192,-0.180,-0.180,-0.180,0.000,0.000,0.000
1641220971679645952,2022-01-03-14:42:51,10.1.1.4,190,-0.190,-0.190,-0.190,0.000,0.000,0.000
1641220971879219968,2022-01-03-14:42:51,10.1.1.4,189,-0.200,-0.200,-0.200,0.000,0.000,0.000
1641220972287492096,2022-01-03-14:42:52,10.1.1.4,196,-0.220,-0.220,-0.220,0.000,0.000,0.000
1641220972486963968,2022-01-03-14:42:52,10.1.1.4,195,-0.230,-0.230,-0.230,0.000,0.000,0.000
1641220972687220992,2022-01-03-14:42:52,10.1.1.4,195,-0.240,-0.240,-0.240,0.000,0.000,0.000
1641220972888290816,2022-01-03-14:42:52,10.1.1.4,195,-0.250,-0.250,-0.250,0.000,0.000,0.000
1641220973087415040,2022-01-03-14:42:53,10.1.1.4,193,-0.260,-0.260,-0.260,0.000,0.000,0.000
1641220973287201024,2022-01-03-14:42:53,10.1.1.4,192,-0.270,-0.270,-0.270,0.000,0.000,0.000
1641220973487542016,2022-01-03-14:42:53,10.1.1.4,192,-0.280,-0.280,-0.280,0.000,0.000,0.000
1641220973688137984,2022-01-03-14:42:53,10.1.1.4,192,-0.290,-0.290,-0.290,0.000,0.000,0.000
1641220973888883968,2022-01-03-14:42:53,10.1.1.4,192,-0.300,-0.300,-0.300,0.000,0.000,0.000
1641220974086822912,2022-01-03-14:42:54,10.1.1.4,190,-0.310,-0.310,-0.310,0.000,0.000,0.000
1641220974281964032,2022-01-03-14:42:54,10.1.1.4,184,-0.320,-0.320,-0.320,0.000,0.000,0.000
1641220974488328960,2022-01-03-14:42:54,10.1.1.4,189,-0.330,-0.330,-0.330,0.000,0.000,0.000
1641220974688654848,2022-01-03-14:42:54,10.1.1.4,189,-0.340,-0.340,-0.340,0.000,0.000,0.000
1641220974886749952,2022-01-03-14:42:54,10.1.1.4,187,-0.350,-0.350,-0.350,0.000,0.000,0.000
1641220975086702080,2022-01-03-14:42:55,10.1.1.4,185,-0.360,-0.360,-0.360,0.000,0.000,0.000
1641220975287431936,2022-01-03-14:42:55,10.1.1.4,185,-0.370,-0.370,-0.370,0.000,0.000,0.000
1641220975486677760,2022-01-03-14:42:55,10.1.1.4,184,-0.380,-0.380,-0.380,0.000,0.000,0.000
1641220975686147072,2022-01-03-14:42:55,10.1.1.4,183,-0.390,-0.390,-0.390,0.000,0.000,0.000
1641220975886848000,2022-01-03-14:42:55,10.1.1.4,183,-0.400,-0.400,-0.400,0.000,0.000,0.000
1641220976088567040,2022-01-03-14:42:56,10.1.1.4,184,-0.410,-0.410,-0.410,0.000,0.000,0.000
1641220976285698816,2022-01-03-14:42:56,10.1.1.4,181,-0.420,-0.420,-0.420,0.000,0.000,0.000
1641220976685144832,2022-01-03-14:42:56,10.1.1.4,179,-0.440,-0.440,-0.440,0.000,0.000,0.000
1641220976885510912,2022-01-03-14:42:56,10.1.1.4,179,-0.450,-0.450,-0.450,0.000,0.000,0.000
1641220977085329920,2022-01-03-14:42:57,10.1.1.4,177,-0.460,-0.460,-0.460,0.000,0.000,0.000
1641220977304971008,2022-01-03-14:42:57,10.1.1.4,197,-0.470,-0.470,-0.470,0.000,0.000,0.000
1641220977504570880,2022-01-03-14:42:57,10.1.1.4,196,-0.480,-0.480,-0.480,0.000,0.000,0.000
1641220977704608000,2022-01-03-14:42:57,10.1.1.4,196,-0.490,-0.490,-0.490,0.000,0.000,0.000
1641220977905267968,2022-01-03-14:42:57,10.1.1.4,195,-0.480,-0.480,-0.480,0.000,0.000,0.000
1641220978104704000,2022-01-03-14:42:58,10.1.1.4,194,-0.470,-0.470,-0.470,0.000,0.000,0.000
1641220978303700992,2022-01-03-14:42:58,10.1.1.4,193,-0.460,-0.460,-0.460,0.000,0.000,0.000
1641220978495245824,2022-01-03-14:42:58,10.1.1.4,183,-0.450,-0.450,-0.450,0.000,0.000,0.000
1641220978703640064,2022-01-03-14:42:58,10.1.1.4,191,-0.440,-0.440,-0.440,0.000,0.000,0.000
1641220978903696128,2022-01-03-14:42:58,10.1.1.4,190,-0.430,-0.430,-0.430,0.000,0.000,0.000
1641220979103985920,2022-01-03-14:42:59,10.1.1.4,187,-0.420,-0.420,-0.420,0.000,0.000,0.000
1641220979302705152,2022-01-03-14:42:59,10.1.1.4,184,-0.410,-0.410,-0.410,0.000,0.000,0.000
1641220979502191104,2022-01-03-14:42:59,10.1.1.4,183,-0.400,-0.400,-0.400,0.000,0.000,0.000
1641220979702394112,2022-01-03-14:42:59,10.1.1.4,183,-0.390,-0.390,-0.390,0.000,0.000,0.000
1641220979902340864,2022-01-03-14:42:59,10.1.1.4,182,-0.380,-0.380,-0.380,0.000,0.000,0.000
1641220980101792000,2022-01-03-14:43:00,10.1.1.4,180,-0.370,-0.370,-0.370,0.000,0.000,0.000
1641220980301160192,2022-01-03-14:43:00,10.1.1.4,179,-0.360,-0.360,-0.360,0.000,0.000,0.000
1641220980503705088,2022-01-03-14:43:00,10.1.1.4,180,-0.350,-0.350,-0.350,0.000,0.000,0.000
1641220980700925952,2022-01-03-14:43:00,10.1.1.4,177,-0.340,-0.340,-0.340,0.000,0.000,0.000
1641220980900621056,2022-01-03-14:43:00,10.1.1.4,176,-0.330,-0.330,-0.330,0.000,0.000,0.000
1641220981100676096,2022-01-03-14:43:01,10.1.1.4,175,-0.320,-0.320,-0.320,0.000,0.000,0.000
1641220981299689984,2022-01-03-14:43:01,10.1.1.4,173,-0.310,-0.310,-0.310,0.000,0.000,0.000
1641220981520243968,2022-01-03-14:43:01,10.1.1.4,191,-0.300,-0.300,-0.300,0.000,0.000,0.000
1641220981719305984,2022-01-03-14:43:01,10.1.1.4,188,-0.290,-0.290,-0.290,0.000,0.000,0.000
1641220981920777984,2022-01-03-14:43:01,10.1.1.4,189,-0.280,-0.280,-0.280,0.000,0.000,0.000
1641220982118750976,2022-01-03-14:43:02,10.1.1.4,186,-0.270,-0.270,-0.270,0.000,0.000,0.000
1641220982319094784,2022-01-03-14:43:02,10.1.1.4,186,-0.260,-0.260,-0.260,0.000,0.000,0.000
1641220982518563072,2022-01-03-14:43:02,10.1.1.4,185,-0.250,-0.250,-0.250,0.000,0.000,0.000
1641220982719822848,2022-01-03-14:43:02,10.1.1.4,186,-0.240,-0.240,-0.240,0.000,0.000,0.000
1641220982918317056,2022-01-03-14:43:02,10.1.1.4,184,-0.230,-0.230,-0.230,0.000,0.000,0.000
1641220983118029056,2022-01-03-14:43:03,10.1.1.4,183,-0.220,-0.220,-0.220,0.000,0.000,0.000
1641220983321398016,2022-01-03-14:43:03,10.1.1.4,185,-0.210,-0.210,-0.210,0.000,0.000,0.000
1641220983517683968,2022-01-03-14:43:03,10.1.1.4,179,-0.200,-0.200,-0.200,0.000,0.000,0.000
1641220983717366016,2022-01-03-14:43:03,10.1.1.4,178,-0.190,-0.190,-0.190,0.000,0.000,0.000
1641220983917476864,2022-01-03-14:43:03,10.1.1.4,176,-0.180,-0.180,-0.180,0.000,0.000,0.000
1641220984136966912,2022-01-03-14:43:04,10.1.1.4,194,-0.170,-0.170,-0.170,0.000,0.000,0.000
1641220984318629888,2022-01-03-14:43:04,10.1.1.4,173,-0.160,-0.160,-0.160,0.000,0.000,0.000
1641220984536729088,2022-01-03-14:43:04,10.1.1.4,192,-0.150,-0.150,-0.150,0.000,0.000,0.000
1641220984719681024,2022-01-03-14:43:04,10.1.1.4,174,-0.140,-0.140,-0.140,0.000,0.000,0.000
1641220984915889152,2022-01-03-14:43:04,10.1.1.4,169,-0.130,-0.130,-0.130,0.000,0.000,0.000
1641220985115751936,2022-01-03-14:43:05,10.1.1.4,168,-0.120,-0.120,-0.120,0.000,0.000,0.000
1641220985335578880,2022-01-03-14:43:05,10.1.1.4,187,-0.110,-0.110,-0.110,0.000,0.000,0.000
1641220985534889984,2022-01-03-14:43:05,10.1.1.4,186,-0.100,-0.100,-0.100,0.000,0.000,0.000
1641220985735363840,2022-01-03-14:43:05,10.1.1.4,186,-0.090,-0.090,-0.090,0.000,0.000,0.000
1641220985934667008,2022-01-03-14:43:05,10.1.1.4,185,-0.080,-0.080,-0.080,0.000,0.000,0.000
1641220986133795072,2022-01-03-14:43:06,10.1.1.4,183,-0.070,-0.070,-0.070,0.000,0.000,0.000
1641220986333547008,2022-01-03-14:43:06,10.1.1.4,181,-0.060,-0.060,-0.060,0.000,0.000,0.000
1641220986537728000,2022-01-03-14:43:06,10.1.1.4,184,-0.050,-0.050,-0.050,0.000,0.000,0.000
1641220986733267968,2022-01-03-14:43:06,10.1.1.4,179,-0.040,-0.040,-0.040,0.000,0.000,0.000
1641220986933312768,2022-01-03-14:43:06,10.1.1.4,178,-0.030,-0.030,-0.030,0.000,0.000,0.000
1641220987136488960,2022-01-03-14:43:07,10.1.1.4,181,-0.020,-0.020,-0.020,0.000,0.000,0.000
1641220987333257984,2022-01-03-14:43:07,10.1.1.4,177,-0.010,-0.010,-0.010,0.000,0.000,0.000
1641220987531665920,2022-01-03-14:43:07,10.1.1.4,176,0.000,0.000,0.000,0.000,0.000,0.000
1641220987731410944,2022-01-03-14:43:07,10.1.1.4,175,-0.010,-0.010,-0.010,0.000,0.000,0.000
1641220987932241920,2022-01-03-14:43:07,10.1.1.4,175,-0.020,-0.020,-0.020,0.000,0.000,0.000
1641220988131234816,2022-01-03-14:43:08,10.1.1.4,173,-0.030,-0.030,-0.030,0.000,0.000,0.000
1641220988331180032,2022-01-03-14:43:08,10.1.1.4,172,-0.040,-0.040,-0.040,0.000,0.000,0.000
1641220988530064128,2022-01-03-14:43:08,10.1.1.4,171,-0.050,-0.050,-0.050,0.000,0.000,0.000
1641220988731336192,2022-01-03-14:43:08,10.1.1.4,171,-0.060,-0.060,-0.060,0.000,0.000,0.000
1641220988929968128,2022-01-03-14:43:08,10.1.1.4,170,-0.070,-0.070,-0.070,0.000,0.000,0.000
1641220989149298944,2022-01-03-14:43:09,10.1.1.4,188,-0.080,-0.080,-0.080,0.000,0.000,0.000
1641220989329915904,2022-01-03-14:43:09,10.1.1.4,168,-0.090,-0.090,-0.090,0.000,0.000,0.000
1641220989528835072,2022-01-03-14:43:09,10.1.1.4,166,-0.100,-0.100,-0.100,0.000,0.000,0.000
1641220989730258944,2022-01-03-14:43:09,10.1.1.4,166,-0.110,-0.110,-0.110,0.000,0.000,0.000
1641220989928380928,2022-01-03-14:43:09,10.1.1.4,164,-0.120,-0.120,-0.120,0.000,0.000,0.000
1641220990128631040,2022-01-03-14:43:10,10.1.1.4,163,-0.130,-0.130,-0.130,0.000,0.000,0.000
1641220990327567104,2022-01-03-14:43:10,10.1.1.4,161,-0.140,-0.140,-0.140,0.000,0.000,0.000
1641220990548346880,2022-01-03-14:43:10,10.1.1.4,182,-0.150,-0.150,-0.150,0.000,0.000,0.000
1641220990727341056,2022-01-03-14:43:10,10.1.1.4,160,-0.160,-0.160,-0.160,0.000,0.000,0.000
1641220990952267776,2022-01-03-14:43:10,10.1.1.4,184,-0.170,-0.170,-0.170,0.000,0.000,0.000
1641220991137270016,2022-01-03-14:43:11,10.1.1.4,169,-0.180,-0.180,-0.180,0.000,0.000,0.000
1641220991345554944,2022-01-03-14:43:11,10.1.1.4,177,-0.190,-0.190,-0.190,0.000,0.000,0.000
1641220991545511936,2022-01-03-14:43:11,10.1.1.4,176,-0.200,-0.200,-0.200,0.000,0.000,0.000
1641220991745105152,2022-01-03-14:43:11,10.1.1.4,175,-0.210,-0.210,-0.210,0.000,0.000,0.000
1641220991944599040,2022-01-03-14:43:11,10.1.1.4,174,-0.220,-0.220,-0.220,0.000,0.000,0.000
1641220992144335104,2022-01-03-14:43:12,10.1.1.4,170,-0.230,-0.230,-0.230,0.000,0.000,0.000
1641220992344582912,2022-01-03-14:43:12,10.1.1.4,169,-0.240,-0.240,-0.240,0.000,0.000,0.000
1641220992544508928,2022-01-03-14:43:12,10.1.1.4,168,-0.250,-0.250,-0.250,0.000,0.000,0.000
1641220992744052992,2022-01-03-14:43:12,10.1.1.4,164,-0.260,-0.260,-0.260,0.000,0.000,0.000
1641220992943495936,2022-01-03-14:43:12,10.1.1.4,163,-0.270,-0.270,-0.270,0.000,0.000,0.000
1641220993144068864,2022-01-03-14:43:13,10.1.1.4,162,-0.280,-0.280,-0.280,0.000,0.000,0.000
1641220993366269184,2022-01-03-14:43:13,10.1.1.4,184,-0.290,-0.290,-0.290,0.000,0.000,0.000
1641220993546114816,2022-01-03-14:43:13,10.1.1.4,163,-0.300,-0.300,-0.300,0.000,0.000,0.000
1641220993748697088,2022-01-03-14:43:13,10.1.1.4,165,-0.310,-0.310,-0.310,0.000,0.000,0.000
1641220993948337152,2022-01-03-14:43:13,10.1.1.4,164,-0.320,-0.320,-0.320,0.000,0.000,0.000
1641220994148762112,2022-01-03-14:43:14,10.1.1.4,163,-0.330,-0.330,-0.330,0.000,0.000,0.000
1641220994349926912,2022-01-03-14:43:14,10.1.1.4,163,-0.340,-0.340,-0.340,0.000,0.000,0.000
1641220994552189184,2022-01-03-14:43:14,10.1.1.4,163,-0.350,-0.350,-0.350,0.000,0.000,0.000
1641220994771656960,2022-01-03-14:43:14,10.1.1.4,182,-0.360,-0.360,-0.360,0.000,0.000,0.000
1641220994972642048,2022-01-03-14:43:14,10.1.1.4,183,-0.370,-0.370,-0.370,0.000,0.000,0.000
1641220995173348864,2022-01-03-14:43:15,10.1.1.4,182,-0.380,-0.380,-0.380,0.000,0.000,0.000
1641220995373844992,2022-01-03-14:43:15,10.1.1.4,180,-0.390,-0.390,-0.390,0.000,0.000,0.000
1641220995575011072,2022-01-03-14:43:15,10.1.1.4,180,-0.400,-0.400,-0.400,0.000,0.000,0.000
1641220995775471872,2022-01-03-14:43:15,10.1.1.4,180,-0.410,-0.410,-0.410,0.000,0.000,0.000
1641220995977245184,2022-01-03-14:43:15,10.1.1.4,181,-0.420,-0.420,-0.420,0.000,0.000,0.000
1641220996176412160,2022-01-03-14:43:16,10.1.1.4,178,-0.430,-0.430,-0.430,0.000,0.000,0.000
1641220996398140928,2022-01-03-14:43:16,10.1.1.4,199,-0.440,-0.440,-0.440,0.000,0.000,0.000
1641220996578290944,2022-01-03-14:43:16,10.1.1.4,178,-0.450,-0.450,-0.450,0.000,0.000,0.000
1641220996790492160,2022-01-03-14:43:16,10.1.1.4,190,-0.460,-0.460,-0.460,0.000,0.000,0.000
1641220996979736064,2022-01-03-14:43:16,10.1.1.4,178,-0.470,-0.470,-0.470,0.000,0.000,0.000
1641220997180305920,2022-01-03-14:43:17,10.1.1.4,179,-0.480,-0.480,-0.480,0.000,0.000,0.000
1641220997383738112,2022-01-03-14:43:17,10.1.1.4,182,-0.490,-0.490,-0.490,0.000,0.000,0.000
1641220997580846080,2022-01-03-14:43:17,10.1.1.4,178,-0.480,-0.480,-0.480,0.000,0.000,0.000
1641220997781357056,2022-01-03-14:43:17,10.1.1.4,177,-0.470,-0.470,-0.470,0.000,0.000,0.000
1641220997983572992,2022-01-03-14:43:17,10.1.1.4,179,-0.460,-0.460,-0.460,0.000,0.000,0.000
1641220998182387200,2022-01-03-14:43:18,10.1.1.4,177,-0.450,-0.450,-0.450,0.000,0.000,0.000
1641220998382786048,2022-01-03-14:43:18,10.1.1.4,177,-0.440,-0.440,-0.440,0.000,0.000,0.000
1641220998583688960,2022-01-03-14:43:18,10.1.1.4,177,-0.430,-0.430,-0.430,0.000,0.000,0.000
1641220998783030016,2022-01-03-14:43:18,10.1.1.4,176,-0.420,-0.420,-0.420,0.000,0.000,0.000
1641220999003758080,2022-01-03-14:43:19,10.1.1.4,196,-0.410,-0.410,-0.410,0.000,0.000,0.000
1641220999204595968,2022-01-03-14:43:19,10.1.1.4,196,-0.400,-0.400,-0.400,0.000,0.000,0.000
1641220999404495104,2022-01-03-14:43:19,10.1.1.4,194,-0.390,-0.390,-0.390,0.000,0.000,0.000
1641220999605153024,2022-01-03-14:43:19,10.1.1.4,195,-0.380,-0.380,-0.380,0.000,0.000,0.000
1641220999804804096,2022-01-03-14:43:19,10.1.1.4,189,-0.370,-0.370,-0.370,0.000,0.000,0.000
1641221000004861952,2022-01-03-14:43:20,10.1.1.4,188,-0.360,-0.360,-0.360,0.000,0.000,0.000
1641221000197467136,2022-01-03-14:43:20,10.1.1.4,180,-0.350,-0.350,-0.350,0.000,0.000,0.000
1641221000407238912,2022-01-03-14:43:20,10.1.1.4,189,-0.340,-0.340,-0.340,0.000,0.000,0.000
1641221000607675904,2022-01-03-14:43:20,10.1.1.4,188,-0.330,-0.330,-0.330,0.000,0.000,0.000
1641221000807280896,2022-01-03-14:43:20,10.1.1.4,185,-0.320,-0.320,-0.320,0.000,0.000,0.000
1641221001026784000,2022-01-03-14:43:21,10.1.1.4,197,-0.310,-0.310,-0.310,0.000,0.000,0.000
1641221001227361024,2022-01-03-14:43:21,10.1.1.4,197,-0.300,-0.300,-0.300,0.000,0.000,0.000
1641221001428141056,2022-01-03-14:43:21,10.1.1.4,198,-0.290,-0.290,-0.290,0.000,0.000,0.000
1641221001627166976,2022-01-03-14:43:21,10.1.1.4,195,-0.280,-0.280,-0.280,0.000,0.000,0.000
1641221001828273152,2022-01-03-14:43:21,10.1.1.4,196,-0.270,-0.270,-0.270,0.000,0.000,0.000
1641221002027553024,2022-01-03-14:43:22,10.1.1.4,195,-0.260,-0.260,-0.260,0.000,0.000,0.000
1641221002227716096,2022-01-03-14:43:22,10.1.1.4,194,-0.250,-0.250,-0.250,0.000,0.000,0.000
1641221002428175872,2022-01-03-14:43:22,10.1.1.4,194,-0.240,-0.240,-0.240,0.000,0.000,0.000
1641221002628126976,2022-01-03-14:43:22,10.1.1.4,192,-0.230,-0.230,-0.230,0.000,0.000,0.000
1641221002828340992,2022-01-03-14:43:22,10.1.1.4,192,-0.220,-0.220,-0.220,0.000,0.000,0.000
1641221003020241920,2022-01-03-14:43:23,10.1.1.4,183,-0.210,-0.210,-0.210,0.000,0.000,0.000
1641221003228148992,2022-01-03-14:43:23,10.1.1.4,191,-0.200,-0.200,-0.200,0.000,0.000,0.000
1641221003427622912,2022-01-03-14:43:23,10.1.1.4,189,-0.190,-0.190,-0.190,0.000,0.000,0.000
1641221003627846912,2022-01-03-14:43:23,10.1.1.4,189,-0.180,-0.180,-0.180,0.000,0.000,0.000
1641221004028151040,2022-01-03-14:43:24,10.1.1.4,188,-0.160,-0.160,-0.160,0.000,0.000,0.000
1641221004428216064,2022-01-03-14:43:24,10.1.1.4,186,-0.140,-0.140,-0.140,0.000,0.000,0.000
1641221004628567808,2022-01-03-14:43:24,10.1.1.4,186,-0.130,-0.130,-0.130,0.000,0.000,0.000
1641221004828813056,2022-01-03-14:43:24,10.1.1.4,185,-0.120,-0.120,-0.120,0.000,0.000,0.000
1641221005028055040,2022-01-03-14:43:25,10.1.1.4,183,-0.110,-0.110,-0.110,0.000,0.000,0.000
1641221005228225024,2022-01-03-14:43:25,10.1.1.4,182,-0.100,-0.100,-0.100,0.000,0.000,0.000
1641221005440287232,2022-01-03-14:43:25,10.1.1.4,193,-0.090,-0.090,-0.090,0.000,0.000,0.000
1641221005648188160,2022-01-03-14:43:25,10.1.1.4,200,-0.080,-0.080,-0.080,0.000,0.000,0.000
1641221005847788032,2022-01-03-14:43:25,10.1.1.4,198,-0.070,-0.070,-0.070,0.000,0.000,0.000
1641221006049164032,2022-01-03-14:43:26,10.1.1.4,199,-0.060,-0.060,-0.060,0.000,0.000,0.000
1641221006247483136,2022-01-03-14:43:26,10.1.1.4,196,-0.050,-0.050,-0.050,0.000,0.000,0.000
1641221006447789056,2022-01-03-14:43:26,10.1.1.4,195,-0.040,-0.040,-0.040,0.000,0.000,0.000
1641221006647265024,2022-01-03-14:43:26,10.1.1.4,193,-0.030,-0.030,-0.030,0.000,0.000,0.000
1641221006847214080,2022-01-03-14:43:26,10.1.1.4,193,-0.020,-0.020,-0.020,0.000,0.000,0.000
1641221007046767872,2022-01-03-14:43:27,10.1.1.4,188,-0.010,-0.010,-0.010,0.000,0.000,0.000
1641221007247068928,2022-01-03-14:43:27,10.1.1.4,187,0.000,0.000,0.000,0.000,0.000,0.000
1641221007447428864,2022-01-03-14:43:27,10.1.1.4,187,-0.010,-0.010,-0.010,0.000,0.000,0.000
1641221007647702016,2022-01-03-14:43:27,10.1.1.4,187,-0.020,-0.020,-0.020,0.000,0.000,0.000
1641221007847518976,2022-01-03-14:43:27,10.1.1.4,186,-0.030,-0.030,-0.030,0.000,0.000,0.000
1641221008047470080,2022-01-03-14:43:28,10.1.1.4,184,-0.040,-0.040,-0.040,0.000,0.000,0.000
1641221008246689024,2022-01-03-14:43:28,10.1.1.4,182,-0.050,-0.050,-0.050,0.000,0.000,0.000
1641221008447008000,2022-01-03-14:43:28,10.1.1.4,182,-0.060,-0.060,-0.060,0.000,0.000,0.000
1641221008646452992,2022-01-03-14:43:28,10.1.1.4,180,-0.070,-0.070,-0.070,0.000,0.000,0.000
1641221008849737984,2022-01-03-14:43:28,10.1.1.4,183,-0.080,-0.080,-0.080,0.000,0.000,0.000
1641221009085423104,2022-01-03-14:43:29,10.1.1.4,193,-0.090,-0.090,-0.090,0.000,0.000,0.000
1641221009286878976,2022-01-03-14:43:29,10.1.1.4,193,-0.100,-0.100,-0.100,0.000,0.000,0.000
1641221009485594112,2022-01-03-14:43:29,10.1.1.4,191,-0.110,-0.110,-0.110,0.000,0.000,0.000
1641221009685178112,2022-01-03-14:43:29,10.1.1.4,190,-0.120,-0.120,-0.120,0.000,0.000,0.000
1641221009885036032,2022-01-03-14:43:29,10.1.1.4,188,-0.130,-0.130,-0.130,0.000,0.000,0.000
1641221010084974080,2022-01-03-14:43:30,10.1.1.4,186,-0.140,-0.140,-0.140,0.000,0.000,0.000
1641221010284292864,2022-01-03-14:43:30,10.1.1.4,185,-0.150,-0.150,-0.150,0.000,0.000,0.000
1641221010484487936,2022-01-03-14:43:30,10.1.1.4,185,-0.160,-0.160,-0.160,0.000,0.000,0.000
1641221010684302080,2022-01-03-14:43:30,10.1.1.4,184,-0.170,-0.170,-0.170,0.000,0.000,0.000
1641221010884336896,2022-01-03-14:43:30,10.1.1.4,183,-0.180,-0.180,-0.180,0.000,0.000,0.000
1641221011083687936,2022-01-03-14:43:31,10.1.1.4,182,-0.190,-0.190,-0.190,0.000,0.000,0.000
1641221011283301120,2022-01-03-14:43:31,10.1.1.4,177,-0.200,-0.200,-0.200,0.000,0.000,0.000
1641221011483985920,2022-01-03-14:43:31,10.1.1.4,177,-0.210,-0.210,-0.210,0.000,0.000,0.000
1641221011703480832,2022-01-03-14:43:31,10.1.1.4,196,-0.220,-0.220,-0.220,0.000,0.000,0.000
1641221011902551808,2022-01-03-14:43:31,10.1.1.4,194,-0.230,-0.230,-0.230,0.000,0.000,0.000
1641221012102505984,2022-01-03-14:43:32,10.1.1.4,193,-0.240,-0.240,-0.240,0.000,0.000,0.000
1641221012302694144,2022-01-03-14:43:32,10.1.1.4,190,-0.250,-0.250,-0.250,0.000,0.000,0.000
1641221012505104896,2022-01-03-14:43:32,10.1.1.4,192,-0.260,-0.260,-0.260,0.000,0.000,0.000
1641221012702449152,2022-01-03-14:43:32,10.1.1.4,188,-0.270,-0.270,-0.270,0.000,0.000,0.000
1641221012902134784,2022-01-03-14:43:32,10.1.1.4,187,-0.280,-0.280,-0.280,0.000,0.000,0.000
1641221013101500928,2022-01-03-14:43:33,10.1.1.4,185,-0.290,-0.290,-0.290,0.000,0.000,0.000
1641221013301413888,2022-01-03-14:43:33,10.1.1.4,185,-0.300,-0.300,-0.300,0.000,0.000,0.000
1641221013501040896,2022-01-03-14:43:33,10.1.1.4,183,-0.310,-0.310,-0.310,0.000,0.000,0.000
1641221013700215040,2022-01-03-14:43:33,10.1.1.4,182,-0.320,-0.320,-0.320,0.000,0.000,0.000
1641221013900381952,2022-01-03-14:43:33,10.1.1.4,181,-0.330,-0.330,-0.330,0.000,0.000,0.000
1641221014100208128,2022-01-03-14:43:34,10.1.1.4,180,-0.340,-0.340,-0.340,0.000,0.000,0.000
1641221014301170944,2022-01-03-14:43:34,10.1.1.4,180,-0.350,-0.350,-0.350,0.000,0.000,0.000
1641221014499968000,2022-01-03-14:43:34,10.1.1.4,178,-0.360,-0.360,-0.360,0.000,0.000,0.000
1641221014700756992,2022-01-03-14:43:34,10.1.1.4,178,-0.370,-0.370,-0.370,0.000,0.000,0.000
1641221014898582016,2022-01-03-14:43:34,10.1.1.4,173,-0.380,-0.380,-0.380,0.000,0.000,0.000
1641221015099426048,2022-01-03-14:43:35,10.1.1.4,173,-0.390,-0.390,-0.390,0.000,0.000,0.000
1641221015299709952,2022-01-03-14:43:35,10.1.1.4,173,-0.400,-0.400,-0.400,0.000,0.000,0.000
1641221015498220032,2022-01-03-14:43:35,10.1.1.4,171,-0.410,-0.410,-0.410,0.000,0.000,0.000
1641221015718514944,2022-01-03-14:43:35,10.1.1.4,191,-0.420,-0.420,-0.420,0.000,0.000,0.000
1641221015917917952,2022-01-03-14:43:35,10.1.1.4,189,-0.430,-0.430,-0.430,0.000,0.000,0.000
1641221016117526016,2022-01-03-14:43:36,10.1.1.4,185,-0.440,-0.440,-0.440,0.000,0.000,0.000
1641221016317202944,2022-01-03-14:43:36,10.1.1.4,184,-0.450,-0.450,-0.450,0.000,0.000,0.000
1641221016518081024,2022-01-03-14:43:36,10.1.1.4,183,-0.460,-0.460,-0.460,0.000,0.000,0.000
1641221016718075136,2022-01-03-14:43:36,10.1.1.4,181,-0.470,-0.470,-0.470,0.000,0.000,0.000
1641221016917011968,2022-01-03-14:43:36,10.1.1.4,180,-0.480,-0.480,-0.480,0.000,0.000,0.000
1641221017117027072,2022-01-03-14:43:37,10.1.1.4,180,-0.490,-0.490,-0.490,0.000,0.000,0.000
1641221017316133888,2022-01-03-14:43:37,10.1.1.4,177,-0.480,-0.480,-0.480,0.000,0.000,0.000
1641221017516326912,2022-01-03-14:43:37,10.1.1.4,176,-0.470,-0.470,-0.470,0.000,0.000,0.000
1641221017717346816,2022-01-03-14:43:37,10.1.1.4,177,-0.460,-0.460,-0.460,0.000,0.000,0.000
1641221017915503872,2022-01-03-14:43:37,10.1.1.4,174,-0.450,-0.450,-0.450,0.000,0.000,0.000
1641221018115411968,2022-01-03-14:43:38,10.1.1.4,174,-0.440,-0.440,-0.440,0.000,0.000,0.000
1641221018314349824,2022-01-03-14:43:38,10.1.1.4,172,-0.430,-0.430,-0.430,0.000,0.000,0.000
1641221018536029184,2022-01-03-14:43:38,10.1.1.4,193,-0.420,-0.420,-0.420,0.000,0.000,0.000
1641221018713709056,2022-01-03-14:43:38,10.1.1.4,169,-0.410,-0.410,-0.410,0.000,0.000,0.000
1641221018914108160,2022-01-03-14:43:38,10.1.1.4,169,-0.400,-0.400,-0.400,0.000,0.000,0.000
1641221019114193920,2022-01-03-14:43:39,10.1.1.4,168,-0.390,-0.390,-0.390,0.000,0.000,0.000
1641221019313847040,2022-01-03-14:43:39,10.1.1.4,167,-0.380,-0.380,-0.380,0.000,0.000,0.000
1641221019513152000,2022-01-03-14:43:39,10.1.1.4,166,-0.370,-0.370,-0.370,0.000,0.000,0.000
1641221019713923840,2022-01-03-14:43:39,10.1.1.4,166,-0.360,-0.360,-0.360,0.000,0.000,0.000
1641221019925726976,2022-01-03-14:43:39,10.1.1.4,177,-0.350,-0.350,-0.350,0.000,0.000,0.000
1641221020135497984,2022-01-03-14:43:40,10.1.1.4,186,-0.340,-0.340,-0.340,0.000,0.000,0.000
1641221020331960064,2022-01-03-14:43:40,10.1.1.4,181,-0.330,-0.330,-0.330,0.000,0.000,0.000
1641221020531366144,2022-01-03-14:43:40,10.1.1.4,180,-0.320,-0.320,-0.320,0.000,0.000,0.000
1641221020731809024,2022-01-03-14:43:40,10.1.1.4,180,-0.310,-0.310,-0.310,0.000,0.000,0.000
1641221020931384064,2022-01-03-14:43:40,10.1.1.4,179,-0.300,-0.300,-0.300,0.000,0.000,0.000
1641221021130194944,2022-01-03-14:43:41,10.1.1.4,178,-0.290,-0.290,-0.290,0.000,0.000,0.000
1641221021332065024,2022-01-03-14:43:41,10.1.1.4,177,-0.280,-0.280,-0.280,0.000,0.000,0.000
1641221021529441024,2022-01-03-14:43:41,10.1.1.4,175,-0.270,-0.270,-0.270,0.000,0.000,0.000
1641221021729186048,2022-01-03-14:43:41,10.1.1.4,174,-0.260,-0.260,-0.260,0.000,0.000,0.000
1641221021931726848,2022-01-03-14:43:41,10.1.1.4,176,-0.250,-0.250,-0.250,0.000,0.000,0.000
1641221022148924160,2022-01-03-14:43:42,10.1.1.4,170,-0.240,-0.240,-0.240,0.000,0.000,0.000
1641221022350148864,2022-01-03-14:43:42,10.1.1.4,166,-0.230,-0.230,-0.230,0.000,0.000,0.000
1641221022548240896,2022-01-03-14:43:42,10.1.1.4,164,-0.220,-0.220,-0.220,0.000,0.000,0.000
1641221022748120064,2022-01-03-14:43:42,10.1.1.4,163,-0.210,-0.210,-0.210,0.000,0.000,0.000
1641221022959166976,2022-01-03-14:43:42,10.1.1.4,172,-0.200,-0.200,-0.200,0.000,0.000,0.000
1641221023168111104,2022-01-03-14:43:43,10.1.1.4,181,-0.190,-0.190,-0.190,0.000,0.000,0.000
1641221023363069952,2022-01-03-14:43:43,10.1.1.4,175,-0.180,-0.180,-0.180,0.000,0.000,0.000
1641221023567522048,2022-01-03-14:43:43,10.1.1.4,179,-0.170,-0.170,-0.170,0.000,0.000,0.000
1641221023767390976,2022-01-03-14:43:43,10.1.1.4,176,-0.160,-0.160,-0.160,0.000,0.000,0.000
1641221023966528000,2022-01-03-14:43:43,10.1.1.4,175,-0.150,-0.150,-0.150,0.000,0.000,0.000
1641221024157217024,2022-01-03-14:43:44,10.1.1.4,162,-0.140,-0.140,-0.140,0.000,0.000,0.000
1641221024365430016,2022-01-03-14:43:44,10.1.1.4,169,-0.130,-0.130,-0.130,0.000,0.000,0.000
1641221024565360896,2022-01-03-14:43:44,10.1.1.4,168,-0.120,-0.120,-0.120,0.000,0.000,0.000
1641221024765594880,2022-01-03-14:43:44,10.1.1.4,168,-0.110,-0.110,-0.110,0.000,0.000,0.000
1641221024964430080,2022-01-03-14:43:44,10.1.1.4,166,-0.100,-0.100,-0.100,0.000,0.000,0.000
1641221025165149952,2022-01-03-14:43:45,10.1.1.4,166,-0.090,-0.090,-0.090,0.000,0.000,0.000
1641221025366872064,2022-01-03-14:43:45,10.1.1.4,167,-0.080,-0.080,-0.080,0.000,0.000,0.000
1641221025568360960,2022-01-03-14:43:45,10.1.1.4,169,-0.070,-0.070,-0.070,0.000,0.000,0.000
1641221025770739200,2022-01-03-14:43:45,10.1.1.4,171,-0.060,-0.060,-0.060,0.000,0.000,0.000
1641221025969443072,2022-01-03-14:43:45,10.1.1.4,166,-0.050,-0.050,-0.050,0.000,0.000,0.000
1641221026170120960,2022-01-03-14:43:46,10.1.1.4,166,-0.040,-0.040,-0.040,0.000,0.000,0.000
1641221026370838016,2022-01-03-14:43:46,10.1.1.4,165,-0.030,-0.030,-0.030,0.000,0.000,0.000
1641221026574480896,2022-01-03-14:43:46,10.1.1.4,167,-0.020,-0.020,-0.020,0.000,0.000,0.000
1641221026772119040,2022-01-03-14:43:46,10.1.1.4,165,-0.010,-0.010,-0.010,0.000,0.000,0.000
1641221026974596096,2022-01-03-14:43:46,10.1.1.4,166,-0.000,-0.000,-0.000,0.000,0.000,0.000
1641221027194541824,2022-01-03-14:43:47,10.1.1.4,187,-0.010,-0.010,-0.010,0.000,0.000,0.000
1641221027395278848,2022-01-03-14:43:47,10.1.1.4,187,-0.020,-0.020,-0.020,0.000,0.000,0.000
1641221027597136128,2022-01-03-14:43:47,10.1.1.4,188,-0.030,-0.030,-0.030,0.000,0.000,0.000
1641221027796699904,2022-01-03-14:43:47,10.1.1.4,187,-0.040,-0.040,-0.040,0.000,0.000,0.000
1641221027996950016,2022-01-03-14:43:47,10.1.1.4,186,-0.050,-0.050,-0.050,0.000,0.000,0.000
1641221028197673984,2022-01-03-14:43:48,10.1.1.4,186,-0.060,-0.060,-0.060,0.000,0.000,0.000
1641221028398649856,2022-01-03-14:43:48,10.1.1.4,187,-0.070,-0.070,-0.070,0.000,0.000,0.000
1641221028598900992,2022-01-03-14:43:48,10.1.1.4,184,-0.080,-0.080,-0.080,0.000,0.000,0.000
1641221028799417856,2022-01-03-14:43:48,10.1.1.4,184,-0.090,-0.090,-0.090,0.000,0.000,0.000
1641221029002510080,2022-01-03-14:43:49,10.1.1.4,186,-0.100,-0.100,-0.100,0.000,0.000,0.000
1641221029200812032,2022-01-03-14:43:49,10.1.1.4,184,-0.110,-0.110,-0.110,0.000,0.000,0.000
1641221029401053952,2022-01-03-14:43:49,10.1.1.4,184,-0.120,-0.120,-0.120,0.000,0.000,0.000
1641221029601352960,2022-01-03-14:43:49,10.1.1.4,183,-0.130,-0.130,-0.130,0.000,0.000,0.000
1641221029803073024,2022-01-03-14:43:49,10.1.1.4,184,-0.140,-0.140,-0.140,0.000,0.000,0.000
1641221030004247040,2022-01-03-14:43:50,10.1.1.4,185,-0.150,-0.150,-0.150,0.000,0.000,0.000
1641221030203757056,2022-01-03-14:43:50,10.1.1.4,184,-0.160,-0.160,-0.160,0.000,0.000,0.000
1641221030403252992,2022-01-03-14:43:50,10.1.1.4,183,-0.170,-0.170,-0.170,0.000,0.000,0.000
1641221030604116992,2022-01-03-14:43:50,10.1.1.4,183,-0.180,-0.180,-0.180,0.000,0.000,0.000
1641221030804131072,2022-01-03-14:43:50,10.1.1.4,182,-0.190,-0.190,-0.190,0.000,0.000,0.000
1641221031205163008,2022-01-03-14:43:51,10.1.1.4,181,-0.210,-0.210,-0.210,0.000,0.000,0.000
1641221031425340928,2022-01-03-14:43:51,10.1.1.4,188,-0.220,-0.220,-0.220,0.000,0.000,0.000
1641221031625767936,2022-01-03-14:43:51,10.1.1.4,188,-0.230,-0.230,-0.230,0.000,0.000,0.000
1641221031825805824,2022-01-03-14:43:51,10.1.1.4,187,-0.240,-0.240,-0.240,0.000,0.000,0.000
1641221032026010112,2022-01-03-14:43:52,10.1.1.4,186,-0.250,-0.250,-0.250,0.000,0.000,0.000
1641221032226775808,2022-01-03-14:43:52,10.1.1.4,186,-0.260,-0.260,-0.260,0.000,0.000,0.000
1641221032428059136,2022-01-03-14:43:52,10.1.1.4,186,-0.270,-0.270,-0.270,0.000,0.000,0.000
1641221032626894848,2022-01-03-14:43:52,10.1.1.4,184,-0.280,-0.280,-0.280,0.000,0.000,0.000
1641221033027208192,2022-01-03-14:43:53,10.1.1.4,183,-0.300,-0.300,-0.300,0.000,0.000,0.000
1641221033227471104,2022-01-03-14:43:53,10.1.1.4,182,-0.310,-0.310,-0.310,0.000,0.000,0.000
1641221033427817216,2022-01-03-14:43:53,10.1.1.4,182,-0.320,-0.320,-0.320,0.000,0.000,0.000
1641221033628369152,2022-01-03-14:43:53,10.1.1.4,182,-0.330,-0.330,-0.330,0.000,0.000,0.000
1641221034045332992,2022-01-03-14:43:54,10.1.1.4,197,-0.350,-0.350,-0.350,0.000,0.000,0.000
1641221034245949952,2022-01-03-14:43:54,10.1.1.4,197,-0.360,-0.360,-0.360,0.000,0.000,0.000
1641221034445262080,2022-01-03-14:43:54,10.1.1.4,195,-0.370,-0.370,-0.370,0.000,0.000,0.000
1641221034646064128,2022-01-03-14:43:54,10.1.1.4,196,-0.380,-0.380,-0.380,0.000,0.000,0.000
1641221034846414080,2022-01-03-14:43:54,10.1.1.4,196,-0.390,-0.390,-0.390,0.000,0.000,0.000
1641221035045824000,2022-01-03-14:43:55,10.1.1.4,195,-0.400,-0.400,-0.400,0.000,0.000,0.000
1641221035244920064,2022-01-03-14:43:55,10.1.1.4,192,-0.410,-0.410,-0.410,0.000,0.000,0.000
1641221035445199104,2022-01-03-14:43:55,10.1.1.4,191,-0.420,-0.420,-0.420,0.000,0.000,0.000
1641221035645288960,2022-01-03-14:43:55,10.1.1.4,191,-0.430,-0.430,-0.430,0.000,0.000,0.000
1641221035845382912,2022-01-03-14:43:55,10.1.1.4,189,-0.440,-0.440,-0.440,0.000,0.000,0.000
1641221036049932032,2022-01-03-14:43:56,10.1.1.4,192,-0.450,-0.450,-0.450,0.000,0.000,0.000
1641221036245403136,2022-01-03-14:43:56,10.1.1.4,187,-0.460,-0.460,-0.460,0.000,0.000,0.000
1641221036448784128,2022-01-03-14:43:56,10.1.1.4,188,-0.470,-0.470,-0.470,0.000,0.000,0.000
1641221036665389056,2022-01-03-14:43:56,10.1.1.4,197,-0.480,-0.480,-0.480,0.000,0.000,0.000
1641221036865309952,2022-01-03-14:43:56,10.1.1.4,196,-0.490,-0.490,-0.490,0.000,0.000,0.000
1641221037066617856,2022-01-03-14:43:57,10.1.1.4,197,-0.480,-0.480,-0.480,0.000,0.000,0.000
1641221037264822016,2022-01-03-14:43:57,10.1.1.4,194,-0.470,-0.470,-0.470,0.000,0.000,0.000
1641221037465029120,2022-01-03-14:43:57,10.1.1.4,193,-0.460,-0.460,-0.460,0.000,0.000,0.000
1641221037664858112,2022-01-03-14:43:57,10.1.1.4,191,-0.450,-0.450,-0.450,0.000,0.000,0.000
1641221037865094912,2022-01-03-14:43:57,10.1.1.4,190,-0.440,-0.440,-0.440,0.000,0.000,0.000
1641221038065064960,2022-01-03-14:43:58,10.1.1.4,188,-0.430,-0.430,-0.430,0.000,0.000,0.000
1641221038265211136,2022-01-03-14:43:58,10.1.1.4,188,-0.420,-0.420,-0.420,0.000,0.000,0.000
1641221038464829952,2022-01-03-14:43:58,10.1.1.4,187,-0.410,-0.410,-0.410,0.000,0.000,0.000
1641221038664644864,2022-01-03-14:43:58,10.1.1.4,186,-0.400,-0.400,-0.400,0.000,0.000,0.000
1641221038864447232,2022-01-03-14:43:58,10.1.1.4,185,-0.390,-0.390,-0.390,0.000,0.000,0.000
1641221039063823872,2022-01-03-14:43:59,10.1.1.4,182,-0.380,-0.380,-0.380,0.000,0.000,0.000
1641221039265997824,2022-01-03-14:43:59,10.1.1.4,184,-0.370,-0.370,-0.370,0.000,0.000,0.000
1641221039464000000,2022-01-03-14:43:59,10.1.1.4,180,-0.360,-0.360,-0.360,0.000,0.000,0.000
1641221039665906944,2022-01-03-14:43:59,10.1.1.4,182,-0.350,-0.350,-0.350,0.000,0.000,0.000
1641221039864929792,2022-01-03-14:43:59,10.1.1.4,180,-0.340,-0.340,-0.340,0.000,0.000,0.000
1641221040083159040,2022-01-03-14:44:00,10.1.1.4,193,-0.330,-0.330,-0.330,0.000,0.000,0.000
1641221040283863040,2022-01-03-14:44:00,10.1.1.4,193,-0.320,-0.320,-0.320,0.000,0.000,0.000
1641221040484078848,2022-01-03-14:44:00,10.1.1.4,193,-0.310,-0.310,-0.310,0.000,0.000,0.000
1641221040683127040,2022-01-03-14:44:00,10.1.1.4,192,-0.300,-0.300,-0.300,0.000,0.000,0.000
1641221040882950144,2022-01-03-14:44:00,10.1.1.4,191,-0.290,-0.290,-0.290,0.000,0.000,0.000
1641221041083045120,2022-01-03-14:44:01,10.1.1.4,190,-0.280,-0.280,-0.280,0.000,0.000,0.000
1641221041282924800,2022-01-03-14:44:01,10.1.1.4,189,-0.270,-0.270,-0.270,0.000,0.000,0.000
1641221041482917120,2022-01-03-14:44:01,10.1.1.4,188,-0.260,-0.260,-0.260,0.000,0.000,0.000
1641221041682915072,2022-01-03-14:44:01,10.1.1.4,187,-0.250,-0.250,-0.250,0.000,0.000,0.000
1641221041883172864,2022-01-03-14:44:01,10.1.1.4,186,-0.240,-0.240,-0.240,0.000,0.000,0.000
1641221042083645952,2022-01-03-14:44:02,10.1.1.4,186,-0.230,-0.230,-0.230,0.000,0.000,0.000
1641221042282827008,2022-01-03-14:44:02,10.1.1.4,183,-0.220,-0.220,-0.220,0.000,0.000,0.000
1641221042486226944,2022-01-03-14:44:02,10.1.1.4,185,-0.210,-0.210,-0.210,0.000,0.000,0.000
1641221042682894080,2022-01-03-14:44:02,10.1.1.4,182,-0.200,-0.200,-0.200,0.000,0.000,0.000
1641221042882138112,2022-01-03-14:44:02,10.1.1.4,181,-0.190,-0.190,-0.190,0.000,0.000,0.000
1641221043082254848,2022-01-03-14:44:03,10.1.1.4,180,-0.180,-0.180,-0.180,0.000,0.000,0.000
1641221043282300928,2022-01-03-14:44:03,10.1.1.4,180,-0.170,-0.170,-0.170,0.000,0.000,0.000
1641221043482985984,2022-01-03-14:44:03,10.1.1.4,179,-0.160,-0.160,-0.160,0.000,0.000,0.000
1641221043681296128,2022-01-03-14:44:03,10.1.1.4,177,-0.150,-0.150,-0.150,0.000,0.000,0.000
1641221043881009152,2022-01-03-14:44:03,10.1.1.4,176,-0.140,-0.140,-0.140,0.000,0.000,0.000
1641221044080813824,2022-01-03-14:44:04,10.1.1.4,175,-0.130,-0.130,-0.130,0.000,0.000,0.000
1641221044281248000,2022-01-03-14:44:04,10.1.1.4,176,-0.120,-0.120,-0.120,0.000,0.000,0.000
1641221044480449792,2022-01-03-14:44:04,10.1.1.4,174,-0.110,-0.110,-0.110,0.000,0.000,0.000
1641221044700531968,2022-01-03-14:44:04,10.1.1.4,193,-0.100,-0.100,-0.100,0.000,0.000,0.000
1641221044900037120,2022-01-03-14:44:04,10.1.1.4,193,-0.090,-0.090,-0.090,0.000,0.000,0.000
1641221045099728128,2022-01-03-14:44:05,10.1.1.4,192,-0.080,-0.080,-0.080,0.000,0.000,0.000
1641221045299346944,2022-01-03-14:44:05,10.1.1.4,191,-0.070,-0.070,-0.070,0.000,0.000,0.000
1641221045499388928,2022-01-03-14:44:05,10.1.1.4,190,-0.060,-0.060,-0.060,0.000,0.000,0.000
1641221045699136000,2022-01-03-14:44:05,10.1.1.4,189,-0.050,-0.050,-0.050,0.000,0.000,0.000
1641221045899789056,2022-01-03-14:44:05,10.1.1.4,190,-0.040,-0.040,-0.040,0.000,0.000,0.000
1641221046101883904,2022-01-03-14:44:06,10.1.1.4,191,-0.030,-0.030,-0.030,0.000,0.000,0.000
1641221046298644992,2022-01-03-14:44:06,10.1.1.4,187,-0.020,-0.020,-0.020,0.000,0.000,0.000
1641221046497831168,2022-01-03-14:44:06,10.1.1.4,183,-0.010,-0.010,-0.010,0.000,0.000,0.000
1641221046698821120,2022-01-03-14:44:06,10.1.1.4,183,0.000,0.000,0.000,0.000,0.000,0.000
1641221046899041024,2022-01-03-14:44:06,10.1.1.4,183,-0.010,-0.010,-0.010,0.000,0.000,0.000
1641221047098400000,2022-01-03-14:44:07,10.1.1.4,182,-0.020,-0.020,-0.020,0.000,0.000,0.000
1641221047297900032,2022-01-03-14:44:07,10.1.1.4,181,-0.030,-0.030,-0.030,0.000,0.000,0.000
1641221047498115072,2022-01-03-14:44:07,10.1.1.4,181,-0.040,-0.040,-0.040,0.000,0.000,0.000
1641221047697376000,2022-01-03-14:44:07,10.1.1.4,179,-0.050,-0.050,-0.050,0.000,0.000,0.000
1641221047903130112,2022-01-03-14:44:07,10.1.1.4,184,-0.060,-0.060,-0.060,0.000,0.000,0.000
1641221048101944832,2022-01-03-14:44:08,10.1.1.4,178,-0.070,-0.070,-0.070,0.000,0.000,0.000
1641221048295703040,2022-01-03-14:44:08,10.1.1.4,171,-0.080,-0.080,-0.080,0.000,0.000,0.000
1641221048496908800,2022-01-03-14:44:08,10.1.1.4,170,-0.090,-0.090,-0.090,0.000,0.000,0.000
1641221048715874816,2022-01-03-14:44:08,10.1.1.4,185,-0.100,-0.100,-0.100,0.000,0.000,0.000
1641221048915136000,2022-01-03-14:44:08,10.1.1.4,184,-0.110,-0.110,-0.110,0.000,0.000,0.000
1641221049114521856,2022-01-03-14:44:09,10.1.1.4,182,-0.120,-0.120,-0.120,0.000,0.000,0.000
1641221049315941120,2022-01-03-14:44:09,10.1.1.4,183,-0.130,-0.130,-0.130,0.000,0.000,0.000
1641221049517739008,2022-01-03-14:44:09,10.1.1.4,184,-0.140,-0.140,-0.140,0.000,0.000,0.000
1641221049720813056,2022-01-03-14:44:09,10.1.1.4,181,-0.150,-0.150,-0.150,0.000,0.000,0.000
1641221049914905088,2022-01-03-14:44:09,10.1.1.4,174,-0.160,-0.160,-0.160,0.000,0.000,0.000
1641221050114708992,2022-01-03-14:44:10,10.1.1.4,173,-0.170,-0.170,-0.170,0.000,0.000,0.000
1641221050317035008,2022-01-03-14:44:10,10.1.1.4,175,-0.180,-0.180,-0.180,0.000,0.000,0.000
1641221050514494976,2022-01-03-14:44:10,10.1.1.4,172,-0.190,-0.190,-0.190,0.000,0.000,0.000
1641221050714923008,2022-01-03-14:44:10,10.1.1.4,170,-0.200,-0.200,-0.200,0.000,0.000,0.000
1641221050932724992,2022-01-03-14:44:10,10.1.1.4,185,-0.210,-0.210,-0.210,0.000,0.000,0.000
1641221051131962112,2022-01-03-14:44:11,10.1.1.4,184,-0.220,-0.220,-0.220,0.000,0.000,0.000
1641221051331897856,2022-01-03-14:44:11,10.1.1.4,183,-0.230,-0.230,-0.230,0.000,0.000,0.000
1641221051531667968,2022-01-03-14:44:11,10.1.1.4,181,-0.240,-0.240,-0.240,0.000,0.000,0.000
1641221051732315904,2022-01-03-14:44:11,10.1.1.4,181,-0.250,-0.250,-0.250,0.000,0.000,0.000
1641221051932166144,2022-01-03-14:44:11,10.1.1.4,180,-0.260,-0.260,-0.260,0.000,0.000,0.000
1641221052130147840,2022-01-03-14:44:12,10.1.1.4,177,-0.270,-0.270,-0.270,0.000,0.000,0.000
1641221052333451008,2022-01-03-14:44:12,10.1.1.4,180,-0.280,-0.280,-0.280,0.000,0.000,0.000
1641221052530343168,2022-01-03-14:44:12,10.1.1.4,176,-0.290,-0.290,-0.290,0.000,0.000,0.000
1641221052732796928,2022-01-03-14:44:12,10.1.1.4,178,-0.300,-0.300,-0.300,0.000,0.000,0.000
1641221052931080192,2022-01-03-14:44:12,10.1.1.4,173,-0.310,-0.310,-0.310,0.000,0.000,0.000
1641221053128588032,2022-01-03-14:44:13,10.1.1.4,170,-0.320,-0.320,-0.320,0.000,0.000,0.000
1641221053328329984,2022-01-03-14:44:13,10.1.1.4,169,-0.330,-0.330,-0.330,0.000,0.000,0.000
1641221053528712960,2022-01-03-14:44:13,10.1.1.4,168,-0.340,-0.340,-0.340,0.000,0.000,0.000
1641221053727721984,2022-01-03-14:44:13,10.1.1.4,167,-0.350,-0.350,-0.350,0.000,0.000,0.000
1641221053927973120,2022-01-03-14:44:13,10.1.1.4,165,-0.360,-0.360,-0.360,0.000,0.000,0.000
1641221054128029184,2022-01-03-14:44:14,10.1.1.4,163,-0.370,-0.370,-0.370,0.000,0.000,0.000
1641221054327302912,2022-01-03-14:44:14,10.1.1.4,162,-0.380,-0.380,-0.380,0.000,0.000,0.000
1641221054526441984,2022-01-03-14:44:14,10.1.1.4,161,-0.390,-0.390,-0.390,0.000,0.000,0.000
1641221054746397952,2022-01-03-14:44:14,10.1.1.4,174,-0.400,-0.400,-0.400,0.000,0.000,0.000
1641221054946682880,2022-01-03-14:44:14,10.1.1.4,174,-0.410,-0.410,-0.410,0.000,0.000,0.000
1641221055147617024,2022-01-03-14:44:15,10.1.1.4,166,-0.420,-0.420,-0.420,0.000,0.000,0.000
1641221055345863168,2022-01-03-14:44:15,10.1.1.4,163,-0.430,-0.430,-0.430,0.000,0.000,0.000
1641221055546377984,2022-01-03-14:44:15,10.1.1.4,162,-0.440,-0.440,-0.440,0.000,0.000,0.000
1641221055744674816,2022-01-03-14:44:15,10.1.1.4,160,-0.450,-0.450,-0.450,0.000,0.000,0.000
1641221055964404224,2022-01-03-14:44:15,10.1.1.4,177,-0.460,-0.460,-0.460,0.000,0.000,0.000
1641221056166488832,2022-01-03-14:44:16,10.1.1.4,178,-0.470,-0.470,-0.470,0.000,0.000,0.000
1641221056363483904,2022-01-03-14:44:16,10.1.1.4,175,-0.480,-0.480,-0.480,0.000,0.000,0.000
1641221056563316224,2022-01-03-14:44:16,10.1.1.4,174,-0.490,-0.490,-0.490,0.000,0.000,0.000
1641221056764336128,2022-01-03-14:44:16,10.1.1.4,174,-0.480,-0.480,-0.480,0.000,0.000,0.000
1641221056962810880,2022-01-03-14:44:16,10.1.1.4,171,-0.470,-0.470,-0.470,0.000,0.000,0.000
1641221057163523072,2022-01-03-14:44:17,10.1.1.4,171,-0.460,-0.460,-0.460,0.000,0.000,0.000
1641221057364654080,2022-01-03-14:44:17,10.1.1.4,170,-0.450,-0.450,-0.450,0.000,0.000,0.000
1641221057568793088,2022-01-03-14:44:17,10.1.1.4,168,-0.440,-0.440,-0.440,0.000,0.000,0.000
1641221057766944768,2022-01-03-14:44:17,10.1.1.4,165,-0.430,-0.430,-0.430,0.000,0.000,0.000
1641221057967920128,2022-01-03-14:44:17,10.1.1.4,166,-0.420,-0.420,-0.420,0.000,0.000,0.000
1641221058169241856,2022-01-03-14:44:18,10.1.1.4,166,-0.410,-0.410,-0.410,0.000,0.000,0.000
1641221058369494016,2022-01-03-14:44:18,10.1.1.4,166,-0.400,-0.400,-0.400,0.000,0.000,0.000
1641221058570505984,2022-01-03-14:44:18,10.1.1.4,166,-0.390,-0.390,-0.390,0.000,0.000,0.000
1641221058771470080,2022-01-03-14:44:18,10.1.1.4,166,-0.380,-0.380,-0.380,0.000,0.000,0.000
1641221058992235008,2022-01-03-14:44:18,10.1.1.4,185,-0.370,-0.370,-0.370,0.000,0.000,0.000
1641221059196333824,2022-01-03-14:44:19,10.1.1.4,187,-0.360,-0.360,-0.360,0.000,0.000,0.000
1641221059393783040,2022-01-03-14:44:19,10.1.1.4,184,-0.350,-0.350,-0.350,0.000,0.000,0.000
1641221059595040000,2022-01-03-14:44:19,10.1.1.4,185,-0.340,-0.340,-0.340,0.000,0.000,0.000
1641221059794825984,2022-01-03-14:44:19,10.1.1.4,184,-0.330,-0.330,-0.330,0.000,0.000,0.000
1641221059995960064,2022-01-03-14:44:19,10.1.1.4,184,-0.320,-0.320,-0.320,0.000,0.000,0.000
1641221060197079040,2022-01-03-14:44:20,10.1.1.4,184,-0.310,-0.310,-0.310,0.000,0.000,0.000
1641221060396984064,2022-01-03-14:44:20,10.1.1.4,183,-0.300,-0.300,-0.300,0.000,0.000,0.000
1641221060599411968,2022-01-03-14:44:20,10.1.1.4,181,-0.290,-0.290,-0.290,0.000,0.000,0.000
1641221060798118144,2022-01-03-14:44:20,10.1.1.4,179,-0.280,-0.280,-0.280,0.000,0.000,0.000
1641221060999257088,2022-01-03-14:44:20,10.1.1.4,179,-0.270,-0.270,-0.270,0.000,0.000,0.000
1641221061199913984,2022-01-03-14:44:21,10.1.1.4,178,-0.260,-0.260,-0.260,0.000,0.000,0.000
1641221061399859968,2022-01-03-14:44:21,10.1.1.4,178,-0.250,-0.250,-0.250,0.000,0.000,0.000
1641221061602131968,2022-01-03-14:44:21,10.1.1.4,180,-0.240,-0.240,-0.240,0.000,0.000,0.000
1641221061800744960,2022-01-03-14:44:21,10.1.1.4,178,-0.230,-0.230,-0.230,0.000,0.000,0.000
1641221062001914112,2022-01-03-14:44:22,10.1.1.4,178,-0.220,-0.220,-0.220,0.000,0.000,0.000
1641221062202125056,2022-01-03-14:44:22,10.1.1.4,178,-0.210,-0.210,-0.210,0.000,0.000,0.000
1641221062408454912,2022-01-03-14:44:22,10.1.1.4,184,-0.200,-0.200,-0.200,0.000,0.000,0.000
1641221062603235072,2022-01-03-14:44:22,10.1.1.4,178,-0.190,-0.190,-0.190,0.000,0.000,0.000
1641221062803469056,2022-01-03-14:44:22,10.1.1.4,177,-0.180,-0.180,-0.180,0.000,0.000,0.000
1641221063005191936,2022-01-03-14:44:23,10.1.1.4,178,-0.170,-0.170,-0.170,0.000,0.000,0.000
1641221063224445952,2022-01-03-14:44:23,10.1.1.4,196,-0.160,-0.160,-0.160,0.000,0.000,0.000
1641221063425707008,2022-01-03-14:44:23,10.1.1.4,197,-0.150,-0.150,-0.150,0.000,0.000,0.000
1641221063625137152,2022-01-03-14:44:23,10.1.1.4,193,-0.140,-0.140,-0.140,0.000,0.000,0.000
1641221063825336832,2022-01-03-14:44:23,10.1.1.4,193,-0.130,-0.130,-0.130,0.000,0.000,0.000
1641221064025903104,2022-01-03-14:44:24,10.1.1.4,193,-0.120,-0.120,-0.120,0.000,0.000,0.000
1641221064226491904,2022-01-03-14:44:24,10.1.1.4,193,-0.110,-0.110,-0.110,0.000,0.000,0.000
1641221064426251008,2022-01-03-14:44:24,10.1.1.4,191,-0.100,-0.100,-0.100,0.000,0.000,0.000
1641221064626228992,2022-01-03-14:44:24,10.1.1.4,190,-0.090,-0.090,-0.090,0.000,0.000,0.000
1641221064828252928,2022-01-03-14:44:24,10.1.1.4,192,-0.080,-0.080,-0.080,0.000,0.000,0.000
1641221065026454016,2022-01-03-14:44:25,10.1.1.4,183,-0.070,-0.070,-0.070,0.000,0.000,0.000
1641221065226429952,2022-01-03-14:44:25,10.1.1.4,183,-0.060,-0.060,-0.060,0.000,0.000,0.000
1641221065428546816,2022-01-03-14:44:25,10.1.1.4,183,-0.050,-0.050,-0.050,0.000,0.000,0.000
1641221065627557888,2022-01-03-14:44:25,10.1.1.4,182,-0.040,-0.040,-0.040,0.000,0.000,0.000
1641221065846731776,2022-01-03-14:44:25,10.1.1.4,200,-0.030,-0.030,-0.030,0.000,0.000,0.000
1641221066047645952,2022-01-03-14:44:26,10.1.1.4,200,-0.020,-0.020,-0.020,0.000,0.000,0.000
1641221066247288832,2022-01-03-14:44:26,10.1.1.4,198,-0.010,-0.010,-0.010,0.000,0.000,0.000
1641221066447537920,2022-01-03-14:44:26,10.1.1.4,198,0.000,0.000,0.000,0.000,0.000,0.000
1641221066647310848,2022-01-03-14:44:26,10.1.1.4,197,-0.010,-0.010,-0.010,0.000,0.000,0.000
1641221066847424000,2022-01-03-14:44:26,10.1.1.4,197,-0.020,-0.020,-0.020,0.000,0.000,0.000
1641221067047168000,2022-01-03-14:44:27,10.1.1.4,196,-0.030,-0.030,-0.030,0.000,0.000,0.000
1641221067247309824,2022-01-03-14:44:27,10.1.1.4,195,-0.040,-0.040,-0.040,0.000,0.000,0.000
1641221067448088832,2022-01-03-14:44:27,10.1.1.4,195,-0.050,-0.050,-0.050,0.000,0.000,0.000
1641221067647398912,2022-01-03-14:44:27,10.1.1.4,194,-0.060,-0.060,-0.060,0.000,0.000,0.000
1641221067847924992,2022-01-03-14:44:27,10.1.1.4,194,-0.070,-0.070,-0.070,0.000,0.000,0.000
1641221068248410880,2022-01-03-14:44:28,10.1.1.4,194,-0.090,-0.090,-0.090,0.000,0.000,0.000
1641221068449356032,2022-01-03-14:44:28,10.1.1.4,194,-0.100,-0.100,-0.100,0.000,0.000,0.000
1641221068649656064,2022-01-03-14:44:28,10.1.1.4,194,-0.110,-0.110,-0.110,0.000,0.000,0.000
1641221068848370944,2022-01-03-14:44:28,10.1.1.4,192,-0.120,-0.120,-0.120,0.000,0.000,0.000
1641221069048367104,2022-01-03-14:44:29,10.1.1.4,191,-0.130,-0.130,-0.130,0.000,0.000,0.000
1641221069250183168,2022-01-03-14:44:29,10.1.1.4,190,-0.140,-0.140,-0.140,0.000,0.000,0.000
1641221069648206848,2022-01-03-14:44:29,10.1.1.4,190,-0.160,-0.160,-0.160,0.000,0.000,0.000
1641221069859510016,2022-01-03-14:44:29,10.1.1.4,200,-0.170,-0.170,-0.170,0.000,0.000,0.000
1641221070087627776,2022-01-03-14:44:30,10.1.1.4,192,-0.180,-0.180,-0.180,0.000,0.000,0.000
1641221070294063104,2022-01-03-14:44:30,10.1.1.4,194,-0.190,-0.190,-0.190,0.000,0.000,0.000
1641221070487983104,2022-01-03-14:44:30,10.1.1.4,185,-0.200,-0.200,-0.200,0.000,0.000,0.000
1641221070908071936,2022-01-03-14:44:30,10.1.1.4,198,-0.220,-0.220,-0.220,0.000,0.000,0.000
1641221071108088064,2022-01-03-14:44:31,10.1.1.4,198,-0.230,-0.230,-0.230,0.000,0.000,0.000
1641221071509515008,2022-01-03-14:44:31,10.1.1.4,198,-0.250,-0.250,-0.250,0.000,0.000,0.000
1641221071707325952,2022-01-03-14:44:31,10.1.1.4,194,-0.260,-0.260,-0.260,0.000,0.000,0.000
1641221071908145920,2022-01-03-14:44:31,10.1.1.4,195,-0.270,-0.270,-0.270,0.000,0.000,0.000
1641221072106246912,2022-01-03-14:44:32,10.1.1.4,191,-0.280,-0.280,-0.280,0.000,0.000,0.000
1641221072305878016,2022-01-03-14:44:32,10.1.1.4,184,-0.290,-0.290,-0.290,0.000,0.000,0.000
1641221072512900096,2022-01-03-14:44:32,10.1.1.4,188,-0.300,-0.300,-0.300,0.000,0.000,0.000
1641221072705824000,2022-01-03-14:44:32,10.1.1.4,180,-0.310,-0.310,-0.310,0.000,0.000,0.000
1641221072906161152,2022-01-03-14:44:32,10.1.1.4,180,-0.320,-0.320,-0.320,0.000,0.000,0.000
1641221073107952128,2022-01-03-14:44:33,10.1.1.4,180,-0.330,-0.330,-0.330,0.000,0.000,0.000
1641221073325288960,2022-01-03-14:44:33,10.1.1.4,196,-0.340,-0.340,-0.340,0.000,0.000,0.000
1641221073728423168,2022-01-03-14:44:33,10.1.1.4,198,-0.360,-0.360,-0.360,0.000,0.000,0.000
1641221073924585216,2022-01-03-14:44:33,10.1.1.4,194,-0.370,-0.370,-0.370,0.000,0.000,0.000
1641221074124730112,2022-01-03-14:44:34,10.1.1.4,193,-0.380,-0.380,-0.380,0.000,0.000,0.000
1641221074324326144,2022-01-03-14:44:34,10.1.1.4,192,-0.390,-0.390,-0.390,0.000,0.000,0.000
1641221074528333056,2022-01-03-14:44:34,10.1.1.4,195,-0.400,-0.400,-0.400,0.000,0.000,0.000
1641221074725442048,2022-01-03-14:44:34,10.1.1.4,184,-0.410,-0.410,-0.410,0.000,0.000,0.000
1641221074923938048,2022-01-03-14:44:34,10.1.1.4,182,-0.420,-0.420,-0.420,0.000,0.000,0.000
1641221075123429888,2022-01-03-14:44:35,10.1.1.4,181,-0.430,-0.430,-0.430,0.000,0.000,0.000
1641221075323919104,2022-01-03-14:44:35,10.1.1.4,180,-0.440,-0.440,-0.440,0.000,0.000,0.000
1641221075522914048,2022-01-03-14:44:35,10.1.1.4,178,-0.450,-0.450,-0.450,0.000,0.000,0.000
1641221075724185088,2022-01-03-14:44:35,10.1.1.4,178,-0.460,-0.460,-0.460,0.000,0.000,0.000
1641221075922723072,2022-01-03-14:44:35,10.1.1.4,176,-0.470,-0.470,-0.470,0.000,0.000,0.000
1641221076143543040,2022-01-03-14:44:36,10.1.1.4,196,-0.480,-0.480,-0.480,0.000,0.000,0.000
1641221076542105856,2022-01-03-14:44:36,10.1.1.4,193,-0.480,-0.480,-0.480,0.000,0.000,0.000
1641221076941382912,2022-01-03-14:44:36,10.1.1.4,191,-0.460,-0.460,-0.460,0.000,0.000,0.000
1641221077141294080,2022-01-03-14:44:37,10.1.1.4,190,-0.450,-0.450,-0.450,0.000,0.000,0.000
1641221077341387008,2022-01-03-14:44:37,10.1.1.4,188,-0.440,-0.440,-0.440,0.000,0.000,0.000
1641221077540523008,2022-01-03-14:44:37,10.1.1.4,187,-0.430,-0.430,-0.430,0.000,0.000,0.000
1641221077740506880,2022-01-03-14:44:37,10.1.1.4,186,-0.420,-0.420,-0.420,0.000,0.000,0.000
1641221077942515968,2022-01-03-14:44:37,10.1.1.4,187,-0.410,-0.410,-0.410,0.000,0.000,0.000
1641221078141555968,2022-01-03-14:44:38,10.1.1.4,186,-0.400,-0.400,-0.400,0.000,0.000,0.000
1641221078339484928,2022-01-03-14:44:38,10.1.1.4,182,-0.390,-0.390,-0.390,0.000,0.000,0.000
1641221078548835072,2022-01-03-14:44:38,10.1.1.4,191,-0.380,-0.380,-0.380,0.000,0.000,0.000
1641221078761786880,2022-01-03-14:44:38,10.1.1.4,192,-0.370,-0.370,-0.370,0.000,0.000,0.000
1641221078958775040,2022-01-03-14:44:38,10.1.1.4,187,-0.360,-0.360,-0.360,0.000,0.000,0.000
1641221079159960064,2022-01-03-14:44:39,10.1.1.4,188,-0.350,-0.350,-0.350,0.000,0.000,0.000
1641221079359858944,2022-01-03-14:44:39,10.1.1.4,187,-0.340,-0.340,-0.340,0.000,0.000,0.000
1641221079560013056,2022-01-03-14:44:39,10.1.1.4,185,-0.330,-0.330,-0.330,0.000,0.000,0.000
1641221079759206144,2022-01-03-14:44:39,10.1.1.4,185,-0.320,-0.320,-0.320,0.000,0.000,0.000
1641221079958780928,2022-01-03-14:44:39,10.1.1.4,184,-0.310,-0.310,-0.310,0.000,0.000,0.000
1641221080160291072,2022-01-03-14:44:40,10.1.1.4,179,-0.300,-0.300,-0.300,0.000,0.000,0.000
1641221080360168960,2022-01-03-14:44:40,10.1.1.4,174,-0.290,-0.290,-0.290,0.000,0.000,0.000
1641221080575086080,2022-01-03-14:44:40,10.1.1.4,184,-0.280,-0.280,-0.280,0.000,0.000,0.000
1641221080779721984,2022-01-03-14:44:40,10.1.1.4,182,-0.270,-0.270,-0.270,0.000,0.000,0.000
1641221080976378880,2022-01-03-14:44:40,10.1.1.4,178,-0.260,-0.260,-0.260,0.000,0.000,0.000
1641221081177260032,2022-01-03-14:44:41,10.1.1.4,178,-0.250,-0.250,-0.250,0.000,0.000,0.000
1641221081377768960,2022-01-03-14:44:41,10.1.1.4,178,-0.240,-0.240,-0.240,0.000,0.000,0.000
1641221081575716096,2022-01-03-14:44:41,10.1.1.4,174,-0.230,-0.230,-0.230,0.000,0.000,0.000
1641221081775374848,2022-01-03-14:44:41,10.1.1.4,169,-0.220,-0.220,-0.220,0.000,0.000,0.000
1641221081994649856,2022-01-03-14:44:41,10.1.1.4,188,-0.210,-0.210,-0.210,0.000,0.000,0.000
1641221082394132992,2022-01-03-14:44:42,10.1.1.4,186,-0.190,-0.190,-0.190,0.000,0.000,0.000
1641221082593977088,2022-01-03-14:44:42,10.1.1.4,185,-0.180,-0.180,-0.180,0.000,0.000,0.000
1641221082794100992,2022-01-03-14:44:42,10.1.1.4,185,-0.170,-0.170,-0.170,0.000,0.000,0.000
1641221082993485824,2022-01-03-14:44:42,10.1.1.4,183,-0.160,-0.160,-0.160,0.000,0.000,0.000
1641221083193416192,2022-01-03-14:44:43,10.1.1.4,182,-0.150,-0.150,-0.150,0.000,0.000,0.000
1641221083392844800,2022-01-03-14:44:43,10.1.1.4,182,-0.140,-0.140,-0.140,0.000,0.000,0.000
1641221083592442112,2022-01-03-14:44:43,10.1.1.4,180,-0.130,-0.130,-0.130,0.000,0.000,0.000
1641221083792911104,2022-01-03-14:44:43,10.1.1.4,180,-0.120,-0.120,-0.120,0.000,0.000,0.000
1641221083992110848,2022-01-03-14:44:43,10.1.1.4,178,-0.110,-0.110,-0.110,0.000,0.000,0.000
1641221084193381120,2022-01-03-14:44:44,10.1.1.4,179,-0.100,-0.100,-0.100,0.000,0.000,0.000
1641221084391870976,2022-01-03-14:44:44,10.1.1.4,177,-0.090,-0.090,-0.090,0.000,0.000,0.000
1641221084591005184,2022-01-03-14:44:44,10.1.1.4,175,-0.080,-0.080,-0.080,0.000,0.000,0.000
1641221084791147008,2022-01-03-14:44:44,10.1.1.4,173,-0.070,-0.070,-0.070,0.000,0.000,0.000
1641221084990385920,2022-01-03-14:44:44,10.1.1.4,172,-0.060,-0.060,-0.060,0.000,0.000,0.000
1641221085190187008,2022-01-03-14:44:45,10.1.1.4,167,-0.050,-0.050,-0.050,0.000,0.000,0.000
1641221085410281984,2022-01-03-14:44:45,10.1.1.4,182,-0.040,-0.040,-0.040,0.000,0.000,0.000
1641221085611428096,2022-01-03-14:44:45,10.1.1.4,182,-0.030,-0.030,-0.030,0.000,0.000,0.000
1641221085808785920,2022-01-03-14:44:45,10.1.1.4,171,-0.020,-0.020,-0.020,0.000,0.000,0.000
1641221086008790016,2022-01-03-14:44:46,10.1.1.4,170,-0.010,-0.010,-0.010,0.000,0.000,0.000
1641221086208378112,2022-01-03-14:44:46,10.1.1.4,169,0.000,0.000,0.000,0.000,0.000,0.000
1641221086408503040,2022-01-03-14:44:46,10.1.1.4,167,-0.010,-0.010,-0.010,0.000,0.000,0.000
1641221086611026944,2022-01-03-14:44:46,10.1.1.4,169,-0.020,-0.020,-0.020,0.000,0.000,0.000
1641221086807792896,2022-01-03-14:44:46,10.1.1.4,164,-0.030,-0.030,-0.030,0.000,0.000,0.000
1641221087006931968,2022-01-03-14:44:47,10.1.1.4,162,-0.040,-0.040,-0.040,0.000,0.000,0.000
1641221087206971904,2022-01-03-14:44:47,10.1.1.4,161,-0.050,-0.050,-0.050,0.000,0.000,0.000
1641221087426281984,2022-01-03-14:44:47,10.1.1.4,178,-0.060,-0.060,-0.060,0.000,0.000,0.000
1641221087626169088,2022-01-03-14:44:47,10.1.1.4,177,-0.070,-0.070,-0.070,0.000,0.000,0.000
1641221087826147072,2022-01-03-14:44:47,10.1.1.4,176,-0.080,-0.080,-0.080,0.000,0.000,0.000
1641221088028100864,2022-01-03-14:44:48,10.1.1.4,177,-0.090,-0.090,-0.090,0.000,0.000,0.000
1641221088225189888,2022-01-03-14:44:48,10.1.1.4,174,-0.100,-0.100,-0.100,0.000,0.000,0.000
1641221088424897024,2022-01-03-14:44:48,10.1.1.4,173,-0.110,-0.110,-0.110,0.000,0.000,0.000
1641221088625947904,2022-01-03-14:44:48,10.1.1.4,174,-0.120,-0.120,-0.120,0.000,0.000,0.000
1641221088825479936,2022-01-03-14:44:48,10.1.1.4,172,-0.130,-0.130,-0.130,0.000,0.000,0.000
1641221089023927040,2022-01-03-14:44:49,10.1.1.4,170,-0.140,-0.140,-0.140,0.000,0.000,0.000
1641221089226792192,2022-01-03-14:44:49,10.1.1.4,173,-0.150,-0.150,-0.150,0.000,0.000,0.000
1641221089424873984,2022-01-03-14:44:49,10.1.1.4,169,-0.160,-0.160,-0.160,0.000,0.000,0.000
1641221089623635968,2022-01-03-14:44:49,10.1.1.4,168,-0.170,-0.170,-0.170,0.000,0.000,0.000
1641221089824276992,2022-01-03-14:44:49,10.1.1.4,167,-0.180,-0.180,-0.180,0.000,0.000,0.000
1641221090023129856,2022-01-03-14:44:50,10.1.1.4,165,-0.190,-0.190,-0.190,0.000,0.000,0.000
1641221090224630016,2022-01-03-14:44:50,10.1.1.4,166,-0.200,-0.200,-0.200,0.000,0.000,0.000
1641221090425728000,2022-01-03-14:44:50,10.1.1.4,167,-0.210,-0.210,-0.210,0.000,0.000,0.000
1641221090628206848,2022-01-03-14:44:50,10.1.1.4,168,-0.220,-0.220,-0.220,0.000,0.000,0.000
1641221090832786944,2022-01-03-14:44:50,10.1.1.4,172,-0.230,-0.230,-0.230,0.000,0.000,0.000
1641221091047281920,2022-01-03-14:44:51,10.1.1.4,178,-0.240,-0.240,-0.240,0.000,0.000,0.000
1641221091248195840,2022-01-03-14:44:51,10.1.1.4,173,-0.250,-0.250,-0.250,0.000,0.000,0.000
1641221091449337088,2022-01-03-14:44:51,10.1.1.4,174,-0.260,-0.260,-0.260,0.000,0.000,0.000
1641221091650427136,2022-01-03-14:44:51,10.1.1.4,174,-0.270,-0.270,-0.270,0.000,0.000,0.000
1641221091851126016,2022-01-03-14:44:51,10.1.1.4,175,-0.280,-0.280,-0.280,0.000,0.000,0.000
1641221092052702976,2022-01-03-14:44:52,10.1.1.4,175,-0.290,-0.290,-0.290,0.000,0.000,0.000
1641221092252762112,2022-01-03-14:44:52,10.1.1.4,175,-0.300,-0.300,-0.300,0.000,0.000,0.000
1641221092453763072,2022-01-03-14:44:52,10.1.1.4,176,-0.310,-0.310,-0.310,0.000,0.000,0.000
1641221092654627072,2022-01-03-14:44:52,10.1.1.4,176,-0.320,-0.320,-0.320,0.000,0.000,0.000
1641221092855094784,2022-01-03-14:44:52,10.1.1.4,176,-0.330,-0.330,-0.330,0.000,0.000,0.000
1641221093056390912,2022-01-03-14:44:53,10.1.1.4,176,-0.340,-0.340,-0.340,0.000,0.000,0.000
1641221093256333056,2022-01-03-14:44:53,10.1.1.4,175,-0.350,-0.350,-0.350,0.000,0.000,0.000
1641221093456572928,2022-01-03-14:44:53,10.1.1.4,175,-0.360,-0.360,-0.360,0.000,0.000,0.000
1641221093658919168,2022-01-03-14:44:53,10.1.1.4,176,-0.370,-0.370,-0.370,0.000,0.000,0.000
1641221093858083072,2022-01-03-14:44:53,10.1.1.4,175,-0.380,-0.380,-0.380,0.000,0.000,0.000
1641221094058873856,2022-01-03-14:44:54,10.1.1.4,175,-0.390,-0.390,-0.390,0.000,0.000,0.000
1641221094300674816,2022-01-03-14:44:54,10.1.1.4,184,-0.400,-0.400,-0.400,0.000,0.000,0.000
1641221094540651008,2022-01-03-14:44:54,10.1.1.4,191,-0.410,-0.410,-0.410,0.000,0.000,0.000
1641221094740290048,2022-01-03-14:44:54,10.1.1.4,191,-0.420,-0.420,-0.420,0.000,0.000,0.000
1641221094942363904,2022-01-03-14:44:54,10.1.1.4,192,-0.430,-0.430,-0.430,0.000,0.000,0.000
1641221095142062848,2022-01-03-14:44:55,10.1.1.4,190,-0.440,-0.440,-0.440,0.000,0.000,0.000
1641221095365712896,2022-01-03-14:44:55,10.1.1.4,187,-0.450,-0.450,-0.450,0.000,0.000,0.000
1641221095563224064,2022-01-03-14:44:55,10.1.1.4,177,-0.460,-0.460,-0.460,0.000,0.000,0.000
1641221095784157952,2022-01-03-14:44:55,10.1.1.4,197,-0.470,-0.470,-0.470,0.000,0.000,0.000
1641221095984242944,2022-01-03-14:44:55,10.1.1.4,192,-0.480,-0.480,-0.480,0.000,0.000,0.000
1641221096183646976,2022-01-03-14:44:56,10.1.1.4,191,-0.490,-0.490,-0.490,0.000,0.000,0.000
1641221096383755008,2022-01-03-14:44:56,10.1.1.4,191,-0.480,-0.480,-0.480,0.000,0.000,0.000
1641221096583517184,2022-01-03-14:44:56,10.1.1.4,190,-0.470,-0.470,-0.470,0.000,0.000,0.000
1641221096783727872,2022-01-03-14:44:56,10.1.1.4,190,-0.460,-0.460,-0.460,0.000,0.000,0.000
1641221096984812032,2022-01-03-14:44:56,10.1.1.4,190,-0.450,-0.450,-0.450,0.000,0.000,0.000
1641221097184691968,2022-01-03-14:44:57,10.1.1.4,189,-0.440,-0.440,-0.440,0.000,0.000,0.000
1641221097388196864,2022-01-03-14:44:57,10.1.1.4,192,-0.430,-0.430,-0.430,0.000,0.000,0.000
1641221097585313024,2022-01-03-14:44:57,10.1.1.4,188,-0.420,-0.420,-0.420,0.000,0.000,0.000
1641221097785739776,2022-01-03-14:44:57,10.1.1.4,187,-0.410,-0.410,-0.410,0.000,0.000,0.000
1641221097986188032,2022-01-03-14:44:57,10.1.1.4,186,-0.400,-0.400,-0.400,0.000,0.000,0.000
1641221098185579008,2022-01-03-14:44:58,10.1.1.4,185,-0.390,-0.390,-0.390,0.000,0.000,0.000
1641221098385832960,2022-01-03-14:44:58,10.1.1.4,185,-0.380,-0.380,-0.380,0.000,0.000,0.000
1641221098786007040,2022-01-03-14:44:58,10.1.1.4,184,-0.360,-0.360,-0.360,0.000,0.000,0.000
1641221098986040064,2022-01-03-14:44:58,10.1.1.4,183,-0.350,-0.350,-0.350,0.000,0.000,0.000
1641221099186695936,2022-01-03-14:44:59,10.1.1.4,183,-0.340,-0.340,-0.340,0.000,0.000,0.000
1641221099386179072,2022-01-03-14:44:59,10.1.1.4,182,-0.330,-0.330,-0.330,0.000,0.000,0.000
1641221099585977088,2022-01-03-14:44:59,10.1.1.4,181,-0.320,-0.320,-0.320,0.000,0.000,0.000
1641221099786703104,2022-01-03-14:44:59,10.1.1.4,182,-0.310,-0.310,-0.310,0.000,0.000,0.000
1641221099987375104,2022-01-03-14:44:59,10.1.1.4,182,-0.300,-0.300,-0.300,0.000,0.000,0.000
1641221100187710976,2022-01-03-14:45:00,10.1.1.4,181,-0.290,-0.290,-0.290,0.000,0.000,0.000
1641221100407963904,2022-01-03-14:45:00,10.1.1.4,200,-0.280,-0.280,-0.280,0.000,0.000,0.000
1641221100606702080,2022-01-03-14:45:00,10.1.1.4,198,-0.270,-0.270,-0.270,0.000,0.000,0.000
1641221100807468032,2022-01-03-14:45:00,10.1.1.4,192,-0.260,-0.260,-0.260,0.000,0.000,0.000
1641221101006764032,2022-01-03-14:45:01,10.1.1.4,191,-0.250,-0.250,-0.250,0.000,0.000,0.000
1641221101206680064,2022-01-03-14:45:01,10.1.1.4,190,-0.240,-0.240,-0.240,0.000,0.000,0.000
1641221101408332032,2022-01-03-14:45:01,10.1.1.4,191,-0.230,-0.230,-0.230,0.000,0.000,0.000
1641221101609890048,2022-01-03-14:45:01,10.1.1.4,192,-0.220,-0.220,-0.220,0.000,0.000,0.000
1641221101828408064,2022-01-03-14:45:01,10.1.1.4,193,-0.210,-0.210,-0.210,0.000,0.000,0.000
1641221102026507008,2022-01-03-14:45:02,10.1.1.4,189,-0.200,-0.200,-0.200,0.000,0.000,0.000
1641221102226080000,2022-01-03-14:45:02,10.1.1.4,188,-0.190,-0.190,-0.190,0.000,0.000,0.000
1641221102427426048,2022-01-03-14:45:02,10.1.1.4,182,-0.180,-0.180,-0.180,0.000,0.000,0.000
1641221102626592000,2022-01-03-14:45:02,10.1.1.4,180,-0.170,-0.170,-0.170,0.000,0.000,0.000
1641221102845711104,2022-01-03-14:45:02,10.1.1.4,195,-0.160,-0.160,-0.160,0.000,0.000,0.000
1641221103046228992,2022-01-03-14:45:03,10.1.1.4,196,-0.150,-0.150,-0.150,0.000,0.000,0.000
1641221103245554944,2022-01-03-14:45:03,10.1.1.4,192,-0.140,-0.140,-0.140,0.000,0.000,0.000
1641221103647129088,2022-01-03-14:45:03,10.1.1.4,191,-0.120,-0.120,-0.120,0.000,0.000,0.000
1641221103847503872,2022-01-03-14:45:03,10.1.1.4,190,-0.110,-0.110,-0.110,0.000,0.000,0.000
1641221104066191872,2022-01-03-14:45:04,10.1.1.4,199,-0.100,-0.100,-0.100,0.000,0.000,0.000
1641221104265233920,2022-01-03-14:45:04,10.1.1.4,197,-0.090,-0.090,-0.090,0.000,0.000,0.000
1641221104465626112,2022-01-03-14:45:04,10.1.1.4,197,-0.080,-0.080,-0.080,0.000,0.000,0.000
1641221104665126144,2022-01-03-14:45:04,10.1.1.4,196,-0.070,-0.070,-0.070,0.000,0.000,0.000
1641221104865788928,2022-01-03-14:45:04,10.1.1.4,196,-0.060,-0.060,-0.060,0.000,0.000,0.000
1641221105065921024,2022-01-03-14:45:05,10.1.1.4,196,-0.050,-0.050,-0.050,0.000,0.000,0.000
1641221105264892160,2022-01-03-14:45:05,10.1.1.4,194,-0.040,-0.040,-0.040,0.000,0.000,0.000
1641221105464519936,2022-01-03-14:45:05,10.1.1.4,192,-0.030,-0.030,-0.030,0.000,0.000,0.000
1641221105666452992,2022-01-03-14:45:05,10.1.1.4,194,-0.020,-0.020,-0.020,0.000,0.000,0.000
1641221105867006976,2022-01-03-14:45:05,10.1.1.4,193,-0.010,-0.010,-0.010,0.000,0.000,0.000
1641221106305419008,2022-01-03-14:45:06,10.1.1.4,194,-0.010,-0.010,-0.010,0.000,0.000,0.000
1641221106503860992,2022-01-03-14:45:06,10.1.1.4,191,-0.020,-0.020,-0.020,0.000,0.000,0.000
1641221106703430912,2022-01-03-14:45:06,10.1.1.4,190,-0.030,-0.030,-0.030,0.000,0.000,0.000
1641221106903739904,2022-01-03-14:45:06,10.1.1.4,189,-0.040,-0.040,-0.040,0.000,0.000,0.000
1641221107302205184,2022-01-03-14:45:07,10.1.1.4,182,-0.060,-0.060,-0.060,0.000,0.000,0.000
1641221107502319104,2022-01-03-14:45:07,10.1.1.4,176,-0.070,-0.070,-0.070,0.000,0.000,0.000
1641221107721828864,2022-01-03-14:45:07,10.1.1.4,194,-0.080,-0.080,-0.080,0.000,0.000,0.000
1641221107923443968,2022-01-03-14:45:07,10.1.1.4,195,-0.090,-0.090,-0.090,0.000,0.000,0.000
1641221108123367168,2022-01-03-14:45:08,10.1.1.4,195,-0.100,-0.100,-0.100,0.000,0.000,0.000
1641221108321580800,2022-01-03-14:45:08,10.1.1.4,193,-0.110,-0.110,-0.110,0.000,0.000,0.000
1641221108520869120,2022-01-03-14:45:08,10.1.1.4,191,-0.120,-0.120,-0.120,0.000,0.000,0.000
1641221108721068032,2022-01-03-14:45:08,10.1.1.4,191,-0.130,-0.130,-0.130,0.000,0.000,0.000
1641221108926338816,2022-01-03-14:45:08,10.1.1.4,195,-0.140,-0.140,-0.140,0.000,0.000,0.000
1641221109121103104,2022-01-03-14:45:09,10.1.1.4,186,-0.150,-0.150,-0.150,0.000,0.000,0.000
1641221109321140992,2022-01-03-14:45:09,10.1.1.4,182,-0.160,-0.160,-0.160,0.000,0.000,0.000
1641221109520617984,2022-01-03-14:45:09,10.1.1.4,180,-0.170,-0.170,-0.170,0.000,0.000,0.000
1641221109719844096,2022-01-03-14:45:09,10.1.1.4,179,-0.180,-0.180,-0.180,0.000,0.000,0.000
1641221109920096000,2022-01-03-14:45:09,10.1.1.4,178,-0.190,-0.190,-0.190,0.000,0.000,0.000
1641221110119500032,2022-01-03-14:45:10,10.1.1.4,177,-0.200,-0.200,-0.200,0.000,0.000,0.000
1641221110318849024,2022-01-03-14:45:10,10.1.1.4,175,-0.210,-0.210,-0.210,0.000,0.000,0.000
1641221110539970048,2022-01-03-14:45:10,10.1.1.4,193,-0.220,-0.220,-0.220,0.000,0.000,0.000
1641221110739092224,2022-01-03-14:45:10,10.1.1.4,190,-0.230,-0.230,-0.230,0.000,0.000,0.000
1641221110939568128,2022-01-03-14:45:10,10.1.1.4,190,-0.240,-0.240,-0.240,0.000,0.000,0.000
1641221111138853120,2022-01-03-14:45:11,10.1.1.4,189,-0.250,-0.250,-0.250,0.000,0.000,0.000
1641221111338412032,2022-01-03-14:45:11,10.1.1.4,187,-0.260,-0.260,-0.260,0.000,0.000,0.000
1641221111538556160,2022-01-03-14:45:11,10.1.1.4,186,-0.270,-0.270,-0.270,0.000,0.000,0.000
1641221111737422848,2022-01-03-14:45:11,10.1.1.4,184,-0.280,-0.280,-0.280,0.000,0.000,0.000
1641221111937588992,2022-01-03-14:45:11,10.1.1.4,183,-0.290,-0.290,-0.290,0.000,0.000,0.000
1641221112136962816,2022-01-03-14:45:12,10.1.1.4,182,-0.300,-0.300,-0.300,0.000,0.000,0.000
1641221112337122048,2022-01-03-14:45:12,10.1.1.4,182,-0.310,-0.310,-0.310,0.000,0.000,0.000
1641221112537996032,2022-01-03-14:45:12,10.1.1.4,181,-0.320,-0.320,-0.320,0.000,0.000,0.000
1641221112736537088,2022-01-03-14:45:12,10.1.1.4,179,-0.330,-0.330,-0.330,0.000,0.000,0.000
1641221112936638976,2022-01-03-14:45:12,10.1.1.4,178,-0.340,-0.340,-0.340,0.000,0.000,0.000
1641221113136476160,2022-01-03-14:45:13,10.1.1.4,177,-0.350,-0.350,-0.350,0.000,0.000,0.000
1641221113335635968,2022-01-03-14:45:13,10.1.1.4,175,-0.360,-0.360,-0.360,0.000,0.000,0.000
1641221113535585024,2022-01-03-14:45:13,10.1.1.4,174,-0.370,-0.370,-0.370,0.000,0.000,0.000
1641221113734821120,2022-01-03-14:45:13,10.1.1.4,173,-0.380,-0.380,-0.380,0.000,0.000,0.000
1641221113935979008,2022-01-03-14:45:13,10.1.1.4,174,-0.390,-0.390,-0.390,0.000,0.000,0.000
1641221114134366976,2022-01-03-14:45:14,10.1.1.4,171,-0.400,-0.400,-0.400,0.000,0.000,0.000
1641221114335390976,2022-01-03-14:45:14,10.1.1.4,170,-0.410,-0.410,-0.410,0.000,0.000,0.000
1641221114534284032,2022-01-03-14:45:14,10.1.1.4,169,-0.420,-0.420,-0.420,0.000,0.000,0.000
1641221114734144000,2022-01-03-14:45:14,10.1.1.4,168,-0.430,-0.430,-0.430,0.000,0.000,0.000
1641221114953212928,2022-01-03-14:45:14,10.1.1.4,181,-0.440,-0.440,-0.440,0.000,0.000,0.000
1641221115154310912,2022-01-03-14:45:15,10.1.1.4,177,-0.450,-0.450,-0.450,0.000,0.000,0.000
1641221115354518016,2022-01-03-14:45:15,10.1.1.4,177,-0.460,-0.460,-0.460,0.000,0.000,0.000
1641221115552310016,2022-01-03-14:45:15,10.1.1.4,173,-0.470,-0.470,-0.470,0.000,0.000,0.000
1641221115752659200,2022-01-03-14:45:15,10.1.1.4,173,-0.480,-0.480,-0.480,0.000,0.000,0.000
1641221115952012032,2022-01-03-14:45:15,10.1.1.4,172,-0.490,-0.490,-0.490,0.000,0.000,0.000
1641221116151808000,2022-01-03-14:45:16,10.1.1.4,171,-0.480,-0.480,-0.480,0.000,0.000,0.000
1641221116351330048,2022-01-03-14:45:16,10.1.1.4,170,-0.470,-0.470,-0.470,0.000,0.000,0.000
1641221116573476096,2022-01-03-14:45:16,10.1.1.4,191,-0.460,-0.460,-0.460,0.000,0.000,0.000
1641221116750521856,2022-01-03-14:45:16,10.1.1.4,168,-0.450,-0.450,-0.450,0.000,0.000,0.000
1641221116950172928,2022-01-03-14:45:16,10.1.1.4,167,-0.440,-0.440,-0.440,0.000,0.000,0.000
1641221117151550976,2022-01-03-14:45:17,10.1.1.4,167,-0.430,-0.430,-0.430,0.000,0.000,0.000
1641221117351578880,2022-01-03-14:45:17,10.1.1.4,166,-0.420,-0.420,-0.420,0.000,0.000,0.000
1641221117549175040,2022-01-03-14:45:17,10.1.1.4,163,-0.410,-0.410,-0.410,0.000,0.000,0.000
1641221117773310976,2022-01-03-14:45:17,10.1.1.4,187,-0.400,-0.400,-0.400,0.000,0.000,0.000
1641221117973117952,2022-01-03-14:45:17,10.1.1.4,185,-0.390,-0.390,-0.390,0.000,0.000,0.000
1641221118168473088,2022-01-03-14:45:18,10.1.1.4,180,-0.380,-0.380,-0.380,0.000,0.000,0.000
1641221118367915008,2022-01-03-14:45:18,10.1.1.4,179,-0.370,-0.370,-0.370,0.000,0.000,0.000
1641221118567172096,2022-01-03-14:45:18,10.1.1.4,178,-0.360,-0.360,-0.360,0.000,0.000,0.000
1641221118767069184,2022-01-03-14:45:18,10.1.1.4,177,-0.350,-0.350,-0.350,0.000,0.000,0.000
1641221118967506944,2022-01-03-14:45:18,10.1.1.4,177,-0.340,-0.340,-0.340,0.000,0.000,0.000
1641221119167325952,2022-01-03-14:45:19,10.1.1.4,176,-0.330,-0.330,-0.330,0.000,0.000,0.000
1641221119367901952,2022-01-03-14:45:19,10.1.1.4,176,-0.320,-0.320,-0.320,0.000,0.000,0.000
1641221119566198016,2022-01-03-14:45:19,10.1.1.4,174,-0.310,-0.310,-0.310,0.000,0.000,0.000
1641221119770454016,2022-01-03-14:45:19,10.1.1.4,178,-0.300,-0.300,-0.300,0.000,0.000,0.000
1641221119965733120,2022-01-03-14:45:19,10.1.1.4,173,-0.290,-0.290,-0.290,0.000,0.000,0.000
1641221120169029120,2022-01-03-14:45:20,10.1.1.4,176,-0.280,-0.280,-0.280,0.000,0.000,0.000
1641221120365586944,2022-01-03-14:45:20,10.1.1.4,171,-0.270,-0.270,-0.270,0.000,0.000,0.000
1641221120583451904,2022-01-03-14:45:20,10.1.1.4,188,-0.260,-0.260,-0.260,0.000,0.000,0.000
1641221120764734976,2022-01-03-14:45:20,10.1.1.4,167,-0.250,-0.250,-0.250,0.000,0.000,0.000
1641221120964452096,2022-01-03-14:45:20,10.1.1.4,166,-0.240,-0.240,-0.240,0.000,0.000,0.000
1641221121163719936,2022-01-03-14:45:21,10.1.1.4,163,-0.230,-0.230,-0.230,0.000,0.000,0.000
1641221121363579904,2022-01-03-14:45:21,10.1.1.4,162,-0.220,-0.220,-0.220,0.000,0.000,0.000
1641221121563610112,2022-01-03-14:45:21,10.1.1.4,161,-0.210,-0.210,-0.210,0.000,0.000,0.000
1641221121763730176,2022-01-03-14:45:21,10.1.1.4,160,-0.200,-0.200,-0.200,0.000,0.000,0.000
1641221121962886144,2022-01-03-14:45:21,10.1.1.4,156,-0.190,-0.190,-0.190,0.000,0.000,0.000
1641221122183207936,2022-01-03-14:45:22,10.1.1.4,176,-0.180,-0.180,-0.180,0.000,0.000,0.000
1641221122384683008,2022-01-03-14:45:22,10.1.1.4,177,-0.170,-0.170,-0.170,0.000,0.000,0.000
1641221122585515008,2022-01-03-14:45:22,10.1.1.4,178,-0.160,-0.160,-0.160,0.000,0.000,0.000
1641221122787441920,2022-01-03-14:45:22,10.1.1.4,179,-0.150,-0.150,-0.150,0.000,0.000,0.000
1641221122988100096,2022-01-03-14:45:22,10.1.1.4,179,-0.140,-0.140,-0.140,0.000,0.000,0.000
1641221123188806912,2022-01-03-14:45:23,10.1.1.4,179,-0.130,-0.130,-0.130,0.000,0.000,0.000
1641221123393976064,2022-01-03-14:45:23,10.1.1.4,182,-0.120,-0.120,-0.120,0.000,0.000,0.000
1641221123590405888,2022-01-03-14:45:23,10.1.1.4,179,-0.110,-0.110,-0.110,0.000,0.000,0.000
1641221123792588032,2022-01-03-14:45:23,10.1.1.4,180,-0.100,-0.100,-0.100,0.000,0.000,0.000
1641221123992451840,2022-01-03-14:45:23,10.1.1.4,179,-0.090,-0.090,-0.090,0.000,0.000,0.000
1641221124193154048,2022-01-03-14:45:24,10.1.1.4,179,-0.080,-0.080,-0.080,0.000,0.000,0.000
1641221124394840832,2022-01-03-14:45:24,10.1.1.4,181,-0.070,-0.070,-0.070,0.000,0.000,0.000
1641221124595560192,2022-01-03-14:45:24,10.1.1.4,179,-0.060,-0.060,-0.060,0.000,0.000,0.000
1641221124796644096,2022-01-03-14:45:24,10.1.1.4,181,-0.050,-0.050,-0.050,0.000,0.000,0.000
1641221124996366080,2022-01-03-14:45:24,10.1.1.4,180,-0.040,-0.040,-0.040,0.000,0.000,0.000
1641221125197792000,2022-01-03-14:45:25,10.1.1.4,180,-0.030,-0.030,-0.030,0.000,0.000,0.000
1641221125396837120,2022-01-03-14:45:25,10.1.1.4,179,-0.020,-0.020,-0.020,0.000,0.000,0.000
1641221125598148096,2022-01-03-14:45:25,10.1.1.4,180,-0.010,-0.010,-0.010,0.000,0.000,0.000
1641221125798284032,2022-01-03-14:45:25,10.1.1.4,180,0.000,0.000,0.000,0.000,0.000,0.000
1641221125998867968,2022-01-03-14:45:25,10.1.1.4,180,-0.010,-0.010,-0.010,0.000,0.000,0.000
1641221126199074048,2022-01-03-14:45:26,10.1.1.4,179,-0.020,-0.020,-0.020,0.000,0.000,0.000
1641221126400145920,2022-01-03-14:45:26,10.1.1.4,179,-0.030,-0.030,-0.030,0.000,0.000,0.000
1641221126600130048,2022-01-03-14:45:26,10.1.1.4,179,-0.040,-0.040,-0.040,0.000,0.000,0.000
1641221126800674048,2022-01-03-14:45:26,10.1.1.4,179,-0.050,-0.050,-0.050,0.000,0.000,0.000
1641221127001529856,2022-01-03-14:45:27,10.1.1.4,179,-0.060,-0.060,-0.060,0.000,0.000,0.000
1641221127201185024,2022-01-03-14:45:27,10.1.1.4,178,-0.070,-0.070,-0.070,0.000,0.000,0.000
1641221127401679872,2022-01-03-14:45:27,10.1.1.4,178,-0.080,-0.080,-0.080,0.000,0.000,0.000
1641221127602878208,2022-01-03-14:45:27,10.1.1.4,179,-0.090,-0.090,-0.090,0.000,0.000,0.000
1641221127802632960,2022-01-03-14:45:27,10.1.1.4,178,-0.100,-0.100,-0.100,0.000,0.000,0.000
1641221128003237120,2022-01-03-14:45:28,10.1.1.4,178,-0.110,-0.110,-0.110,0.000,0.000,0.000
1641221128203137024,2022-01-03-14:45:28,10.1.1.4,178,-0.120,-0.120,-0.120,0.000,0.000,0.000
1641221128404784896,2022-01-03-14:45:28,10.1.1.4,179,-0.130,-0.130,-0.130,0.000,0.000,0.000
1641221128625267968,2022-01-03-14:45:28,10.1.1.4,198,-0.140,-0.140,-0.140,0.000,0.000,0.000
1641221128824611840,2022-01-03-14:45:28,10.1.1.4,197,-0.150,-0.150,-0.150,0.000,0.000,0.000
1641221129024498944,2022-01-03-14:45:29,10.1.1.4,197,-0.160,-0.160,-0.160,0.000,0.000,0.000
1641221129224787968,2022-01-03-14:45:29,10.1.1.4,196,-0.170,-0.170,-0.170,0.000,0.000,0.000
1641221129425158144,2022-01-03-14:45:29,10.1.1.4,196,-0.180,-0.180,-0.180,0.000,0.000,0.000
1641221129624738048,2022-01-03-14:45:29,10.1.1.4,195,-0.190,-0.190,-0.190,0.000,0.000,0.000
1641221129829856000,2022-01-03-14:45:29,10.1.1.4,199,-0.200,-0.200,-0.200,0.000,0.000,0.000
1641221130025507840,2022-01-03-14:45:30,10.1.1.4,194,-0.210,-0.210,-0.210,0.000,0.000,0.000
1641221130232418048,2022-01-03-14:45:30,10.1.1.4,200,-0.220,-0.220,-0.220,0.000,0.000,0.000
1641221130426424064,2022-01-03-14:45:30,10.1.1.4,193,-0.230,-0.230,-0.230,0.000,0.000,0.000
1641221130626104064,2022-01-03-14:45:30,10.1.1.4,191,-0.240,-0.240,-0.240,0.000,0.000,0.000
1641221130826338048,2022-01-03-14:45:30,10.1.1.4,190,-0.250,-0.250,-0.250,0.000,0.000,0.000
1641221131026521856,2022-01-03-14:45:31,10.1.1.4,190,-0.260,-0.260,-0.260,0.000,0.000,0.000
1641221131226191872,2022-01-03-14:45:31,10.1.1.4,189,-0.270,-0.270,-0.270,0.000,0.000,0.000
1641221131426882048,2022-01-03-14:45:31,10.1.1.4,189,-0.280,-0.280,-0.280,0.000,0.000,0.000
1641221131628019200,2022-01-03-14:45:31,10.1.1.4,189,-0.290,-0.290,-0.290,0.000,0.000,0.000
1641221131826843904,2022-01-03-14:45:31,10.1.1.4,187,-0.300,-0.300,-0.300,0.000,0.000,0.000
1641221132034963968,2022-01-03-14:45:32,10.1.1.4,193,-0.310,-0.310,-0.310,0.000,0.000,0.000
1641221132247590912,2022-01-03-14:45:32,10.1.1.4,194,-0.320,-0.320,-0.320,0.000,0.000,0.000
1641221132448642048,2022-01-03-14:45:32,10.1.1.4,194,-0.330,-0.330,-0.330,0.000,0.000,0.000
1641221132647428864,2022-01-03-14:45:32,10.1.1.4,192,-0.340,-0.340,-0.340,0.000,0.000,0.000
1641221132847949056,2022-01-03-14:45:32,10.1.1.4,192,-0.350,-0.350,-0.350,0.000,0.000,0.000
1641221133056914176,2022-01-03-14:45:33,10.1.1.4,200,-0.360,-0.360,-0.360,0.000,0.000,0.000
1641221133246795776,2022-01-03-14:45:33,10.1.1.4,189,-0.370,-0.370,-0.370,0.000,0.000,0.000
1641221133446945024,2022-01-03-14:45:33,10.1.1.4,188,-0.380,-0.380,-0.380,0.000,0.000,0.000
1641221133646925056,2022-01-03-14:45:33,10.1.1.4,188,-0.390,-0.390,-0.390,0.000,0.000,0.000
1641221133846348032,2022-01-03-14:45:33,10.1.1.4,186,-0.400,-0.400,-0.400,0.000,0.000,0.000
1641221134046761984,2022-01-03-14:45:34,10.1.1.4,186,-0.410,-0.410,-0.410,0.000,0.000,0.000
1641221134249989120,2022-01-03-14:45:34,10.1.1.4,189,-0.420,-0.420,-0.420,0.000,0.000,0.000
1641221134446990848,2022-01-03-14:45:34,10.1.1.4,185,-0.430,-0.430,-0.430,0.000,0.000,0.000
1641221134646267904,2022-01-03-14:45:34,10.1.1.4,184,-0.440,-0.440,-0.440,0.000,0.000,0.000
1641221134848354048,2022-01-03-14:45:34,10.1.1.4,186,-0.450,-0.450,-0.450,0.000,0.000,0.000
1641221135267184896,2022-01-03-14:45:35,10.1.1.4,199,-0.470,-0.470,-0.470,0.000,0.000,0.000
1641221135466340096,2022-01-03-14:45:35,10.1.1.4,198,-0.480,-0.480,-0.480,0.000,0.000,0.000
1641221135667428096,2022-01-03-14:45:35,10.1.1.4,197,-0.490,-0.490,-0.490,0.000,0.000,0.000
1641221135867356928,2022-01-03-14:45:35,10.1.1.4,197,-0.480,-0.480,-0.480,0.000,0.000,0.000
1641221136067153920,2022-01-03-14:45:36,10.1.1.4,196,-0.470,-0.470,-0.470,0.000,0.000,0.000
1641221136266024192,2022-01-03-14:45:36,10.1.1.4,195,-0.460,-0.460,-0.460,0.000,0.000,0.000
1641221136465805056,2022-01-03-14:45:36,10.1.1.4,195,-0.450,-0.450,-0.450,0.000,0.000,0.000
1641221136659360000,2022-01-03-14:45:36,10.1.1.4,187,-0.440,-0.440,-0.440,0.000,0.000,0.000
1641221136866241024,2022-01-03-14:45:36,10.1.1.4,193,-0.430,-0.430,-0.430,0.000,0.000,0.000
1641221137065720064,2022-01-03-14:45:37,10.1.1.4,192,-0.420,-0.420,-0.420,0.000,0.000,0.000
1641221137265865984,2022-01-03-14:45:37,10.1.1.4,192,-0.410,-0.410,-0.410,0.000,0.000,0.000
1641221137665720832,2022-01-03-14:45:37,10.1.1.4,190,-0.390,-0.390,-0.390,0.000,0.000,0.000
1641221137886789120,2022-01-03-14:45:37,10.1.1.4,192,-0.380,-0.380,-0.380,0.000,0.000,0.000
1641221138085303040,2022-01-03-14:45:38,10.1.1.4,192,-0.370,-0.370,-0.370,0.000,0.000,0.000
1641221138293540096,2022-01-03-14:45:38,10.1.1.4,198,-0.360,-0.360,-0.360,0.000,0.000,0.000
1641221138765309184,2022-01-03-14:45:38,10.1.1.4,194,-0.340,-0.340,-0.340,0.000,0.000,0.000
1641221138969079040,2022-01-03-14:45:38,10.1.1.4,198,-0.330,-0.330,-0.330,0.000,0.000,0.000
1641221139163486976,2022-01-03-14:45:39,10.1.1.4,192,-0.320,-0.320,-0.320,0.000,0.000,0.000
1641221139367759104,2022-01-03-14:45:39,10.1.1.4,195,-0.310,-0.310,-0.310,0.000,0.000,0.000
1641221139564078080,2022-01-03-14:45:39,10.1.1.4,191,-0.300,-0.300,-0.300,0.000,0.000,0.000
1641221139762715136,2022-01-03-14:45:39,10.1.1.4,189,-0.290,-0.290,-0.290,0.000,0.000,0.000
1641221139962984960,2022-01-03-14:45:39,10.1.1.4,188,-0.280,-0.280,-0.280,0.000,0.000,0.000
1641221140161960960,2022-01-03-14:45:40,10.1.1.4,187,-0.270,-0.270,-0.270,0.000,0.000,0.000
1641221140362199040,2022-01-03-14:45:40,10.1.1.4,186,-0.260,-0.260,-0.260,0.000,0.000,0.000
1641221140561572096,2022-01-03-14:45:40,10.1.1.4,185,-0.250,-0.250,-0.250,0.000,0.000,0.000
1641221140761359104,2022-01-03-14:45:40,10.1.1.4,184,-0.240,-0.240,-0.240,0.000,0.000,0.000
1641221140961095168,2022-01-03-14:45:40,10.1.1.4,183,-0.230,-0.230,-0.230,0.000,0.000,0.000
1641221141161099008,2022-01-03-14:45:41,10.1.1.4,183,-0.220,-0.220,-0.220,0.000,0.000,0.000
1641221141363692032,2022-01-03-14:45:41,10.1.1.4,185,-0.210,-0.210,-0.210,0.000,0.000,0.000
1641221141560808960,2022-01-03-14:45:41,10.1.1.4,181,-0.200,-0.200,-0.200,0.000,0.000,0.000
1641221141763200000,2022-01-03-14:45:41,10.1.1.4,183,-0.190,-0.190,-0.190,0.000,0.000,0.000
1641221141959866880,2022-01-03-14:45:41,10.1.1.4,176,-0.180,-0.180,-0.180,0.000,0.000,0.000
1641221142161457920,2022-01-03-14:45:42,10.1.1.4,177,-0.170,-0.170,-0.170,0.000,0.000,0.000
1641221142359533056,2022-01-03-14:45:42,10.1.1.4,175,-0.160,-0.160,-0.160,0.000,0.000,0.000
1641221142559200000,2022-01-03-14:45:42,10.1.1.4,174,-0.150,-0.150,-0.150,0.000,0.000,0.000
1641221142779098112,2022-01-03-14:45:42,10.1.1.4,193,-0.140,-0.140,-0.140,0.000,0.000,0.000
1641221142978429952,2022-01-03-14:45:42,10.1.1.4,191,-0.130,-0.130,-0.130,0.000,0.000,0.000
1641221143179436800,2022-01-03-14:45:43,10.1.1.4,191,-0.120,-0.120,-0.120,0.000,0.000,0.000
1641221143384367872,2022-01-03-14:45:43,10.1.1.4,196,-0.110,-0.110,-0.110,0.000,0.000,0.000
1641221143585246208,2022-01-03-14:45:43,10.1.1.4,196,-0.100,-0.100,-0.100,0.000,0.000,0.000
1641221143778670080,2022-01-03-14:45:43,10.1.1.4,183,-0.090,-0.090,-0.090,0.000,0.000,0.000
1641221143978254080,2022-01-03-14:45:43,10.1.1.4,180,-0.080,-0.080,-0.080,0.000,0.000,0.000
1641221144182706176,2022-01-03-14:45:44,10.1.1.4,183,-0.070,-0.070,-0.070,0.000,0.000,0.000
1641221144378281984,2022-01-03-14:45:44,10.1.1.4,179,-0.060,-0.060,-0.060,0.000,0.000,0.000
1641221144579431168,2022-01-03-14:45:44,10.1.1.4,180,-0.050,-0.050,-0.050,0.000,0.000,0.000
1641221144778124032,2022-01-03-14:45:44,10.1.1.4,178,-0.040,-0.040,-0.040,0.000,0.000,0.000
1641221144994145024,2022-01-03-14:45:44,10.1.1.4,193,-0.030,-0.030,-0.030,0.000,0.000,0.000
1641221145196721920,2022-01-03-14:45:45,10.1.1.4,188,-0.020,-0.020,-0.020,0.000,0.000,0.000
1641221145396569856,2022-01-03-14:45:45,10.1.1.4,178,-0.010,-0.010,-0.010,0.000,0.000,0.000
1641221145616178944,2022-01-03-14:45:45,10.1.1.4,197,0.000,0.000,0.000,0.000,0.000,0.000
1641221145795753984,2022-01-03-14:45:45,10.1.1.4,175,-0.010,-0.010,-0.010,0.000,0.000,0.000
1641221145995878912,2022-01-03-14:45:45,10.1.1.4,175,-0.020,-0.020,-0.020,0.000,0.000,0.000
1641221146196062208,2022-01-03-14:45:46,10.1.1.4,175,-0.030,-0.030,-0.030,0.000,0.000,0.000
1641221146395929088,2022-01-03-14:45:46,10.1.1.4,174,-0.040,-0.040,-0.040,0.000,0.000,0.000
1641221146596535808,2022-01-03-14:45:46,10.1.1.4,174,-0.050,-0.050,-0.050,0.000,0.000,0.000
1641221146795852032,2022-01-03-14:45:46,10.1.1.4,172,-0.060,-0.060,-0.060,0.000,0.000,0.000
1641221146993773824,2022-01-03-14:45:46,10.1.1.4,169,-0.070,-0.070,-0.070,0.000,0.000,0.000
1641221147218156032,2022-01-03-14:45:47,10.1.1.4,192,-0.080,-0.080,-0.080,0.000,0.000,0.000
1641221147415257088,2022-01-03-14:45:47,10.1.1.4,185,-0.090,-0.090,-0.090,0.000,0.000,0.000
1641221147615289856,2022-01-03-14:45:47,10.1.1.4,185,-0.100,-0.100,-0.100,0.000,0.000,0.000
1641221147816217856,2022-01-03-14:45:47,10.1.1.4,185,-0.110,-0.110,-0.110,0.000,0.000,0.000
1641221148013544960,2022-01-03-14:45:48,10.1.1.4,176,-0.120,-0.120,-0.120,0.000,0.000,0.000
1641221148218281984,2022-01-03-14:45:48,10.1.1.4,175,-0.130,-0.130,-0.130,0.000,0.000,0.000
1641221148412625920,2022-01-03-14:45:48,10.1.1.4,170,-0.140,-0.140,-0.140,0.000,0.000,0.000
1641221148611369984,2022-01-03-14:45:48,10.1.1.4,169,-0.150,-0.150,-0.150,0.000,0.000,0.000
1641221148811356160,2022-01-03-14:45:48,10.1.1.4,167,-0.160,-0.160,-0.160,0.000,0.000,0.000
1641221149011395840,2022-01-03-14:45:49,10.1.1.4,165,-0.170,-0.170,-0.170,0.000,0.000,0.000
1641221149232073984,2022-01-03-14:45:49,10.1.1.4,185,-0.180,-0.180,-0.180,0.000,0.000,0.000
1641221149432086016,2022-01-03-14:45:49,10.1.1.4,184,-0.190,-0.190,-0.190,0.000,0.000,0.000
1641221149630262016,2022-01-03-14:45:49,10.1.1.4,181,-0.200,-0.200,-0.200,0.000,0.000,0.000
1641221149830462976,2022-01-03-14:45:49,10.1.1.4,180,-0.210,-0.210,-0.210,0.000,0.000,0.000
1641221150033603840,2022-01-03-14:45:50,10.1.1.4,183,-0.220,-0.220,-0.220,0.000,0.000,0.000
1641221150229722880,2022-01-03-14:45:50,10.1.1.4,178,-0.230,-0.230,-0.230,0.000,0.000,0.000
1641221150431990016,2022-01-03-14:45:50,10.1.1.4,179,-0.240,-0.240,-0.240,0.000,0.000,0.000
1641221150627980032,2022-01-03-14:45:50,10.1.1.4,173,-0.250,-0.250,-0.250,0.000,0.000,0.000
1641221150827804160,2022-01-03-14:45:50,10.1.1.4,172,-0.260,-0.260,-0.260,0.000,0.000,0.000
1641221151027757824,2022-01-03-14:45:51,10.1.1.4,172,-0.270,-0.270,-0.270,0.000,0.000,0.000
1641221151227860992,2022-01-03-14:45:51,10.1.1.4,171,-0.280,-0.280,-0.280,0.000,0.000,0.000
1641221151427393024,2022-01-03-14:45:51,10.1.1.4,170,-0.290,-0.290,-0.290,0.000,0.000,0.000
1641221151627165184,2022-01-03-14:45:51,10.1.1.4,169,-0.300,-0.300,-0.300,0.000,0.000,0.000
1641221151826909184,2022-01-03-14:45:51,10.1.1.4,168,-0.310,-0.310,-0.310,0.000,0.000,0.000
1641221152026336000,2022-01-03-14:45:52,10.1.1.4,166,-0.320,-0.320,-0.320,0.000,0.000,0.000
1641221152245782016,2022-01-03-14:45:52,10.1.1.4,177,-0.330,-0.330,-0.330,0.000,0.000,0.000
1641221152446223104,2022-01-03-14:45:52,10.1.1.4,177,-0.340,-0.340,-0.340,0.000,0.000,0.000
1641221152648894976,2022-01-03-14:45:52,10.1.1.4,179,-0.350,-0.350,-0.350,0.000,0.000,0.000
1641221152845318912,2022-01-03-14:45:52,10.1.1.4,175,-0.360,-0.360,-0.360,0.000,0.000,0.000
1641221153046284032,2022-01-03-14:45:53,10.1.1.4,176,-0.370,-0.370,-0.370,0.000,0.000,0.000
1641221153245349888,2022-01-03-14:45:53,10.1.1.4,174,-0.380,-0.380,-0.380,0.000,0.000,0.000
1641221153444227072,2022-01-03-14:45:53,10.1.1.4,173,-0.390,-0.390,-0.390,0.000,0.000,0.000
1641221153645049088,2022-01-03-14:45:53,10.1.1.4,173,-0.400,-0.400,-0.400,0.000,0.000,0.000
1641221153844780032,2022-01-03-14:45:53,10.1.1.4,170,-0.410,-0.410,-0.410,0.000,0.000,0.000
1641221154043597824,2022-01-03-14:45:54,10.1.1.4,168,-0.420,-0.420,-0.420,0.000,0.000,0.000
1641221154248462848,2022-01-03-14:45:54,10.1.1.4,172,-0.430,-0.430,-0.430,0.000,0.000,0.000
1641221154451730944,2022-01-03-14:45:54,10.1.1.4,173,-0.440,-0.440,-0.440,0.000,0.000,0.000
1641221154645982976,2022-01-03-14:45:54,10.1.1.4,166,-0.450,-0.450,-0.450,0.000,0.000,0.000
1641221154848120832,2022-01-03-14:45:54,10.1.1.4,166,-0.460,-0.460,-0.460,0.000,0.000,0.000
1641221155048884992,2022-01-03-14:45:55,10.1.1.4,166,-0.470,-0.470,-0.470,0.000,0.000,0.000
1641221155248986880,2022-01-03-14:45:55,10.1.1.4,165,-0.480,-0.480,-0.480,0.000,0.000,0.000
1641221155450105856,2022-01-03-14:45:55,10.1.1.4,166,-0.490,-0.490,-0.490,0.000,0.000,0.000
1641221155651316992,2022-01-03-14:45:55,10.1.1.4,166,-0.480,-0.480,-0.480,0.000,0.000,0.000
1641221155855794944,2022-01-03-14:45:55,10.1.1.4,170,-0.470,-0.470,-0.470,0.000,0.000,0.000
1641221156072731904,2022-01-03-14:45:56,10.1.1.4,186,-0.460,-0.460,-0.460,0.000,0.000,0.000
1641221156273137920,2022-01-03-14:45:56,10.1.1.4,186,-0.450,-0.450,-0.450,0.000,0.000,0.000
1641221156474280960,2022-01-03-14:45:56,10.1.1.4,187,-0.440,-0.440,-0.440,0.000,0.000,0.000
1641221156675988992,2022-01-03-14:45:56,10.1.1.4,188,-0.430,-0.430,-0.430,0.000,0.000,0.000
1641221156885195008,2022-01-03-14:45:56,10.1.1.4,196,-0.420,-0.420,-0.420,0.000,0.000,0.000
1641221157076849920,2022-01-03-14:45:57,10.1.1.4,187,-0.410,-0.410,-0.410,0.000,0.000,0.000
1641221157277997056,2022-01-03-14:45:57,10.1.1.4,187,-0.400,-0.400,-0.400,0.000,0.000,0.000
1641221157477752832,2022-01-03-14:45:57,10.1.1.4,186,-0.390,-0.390,-0.390,0.000,0.000,0.000
1641221157679363840,2022-01-03-14:45:57,10.1.1.4,188,-0.380,-0.380,-0.380,0.000,0.000,0.000
1641221157878917888,2022-01-03-14:45:57,10.1.1.4,186,-0.370,-0.370,-0.370,0.000,0.000,0.000
1641221158079560960,2022-01-03-14:45:58,10.1.1.4,187,-0.360,-0.360,-0.360,0.000,0.000,0.000
1641221158279834880,2022-01-03-14:45:58,10.1.1.4,186,-0.350,-0.350,-0.350,0.000,0.000,0.000
1641221158480113152,2022-01-03-14:45:58,10.1.1.4,186,-0.340,-0.340,-0.340,0.000,0.000,0.000
1641221158684566016,2022-01-03-14:45:58,10.1.1.4,190,-0.330,-0.330,-0.330,0.000,0.000,0.000
1641221158881907968,2022-01-03-14:45:58,10.1.1.4,185,-0.320,-0.320,-0.320,0.000,0.000,0.000
1641221159284262912,2022-01-03-14:45:59,10.1.1.4,184,-0.300,-0.300,-0.300,0.000,0.000,0.000
1641221159487180032,2022-01-03-14:45:59,10.1.1.4,179,-0.290,-0.290,-0.290,0.000,0.000,0.000
1641221159684137984,2022-01-03-14:45:59,10.1.1.4,179,-0.280,-0.280,-0.280,0.000,0.000,0.000
1641221159883471104,2022-01-03-14:45:59,10.1.1.4,178,-0.270,-0.270,-0.270,0.000,0.000,0.000
1641221160084107008,2022-01-03-14:46:00,10.1.1.4,178,-0.260,-0.260,-0.260,0.000,0.000,0.000
1641221160507097088,2022-01-03-14:46:00,10.1.1.4,200,-0.240,-0.240,-0.240,0.000,0.000,0.000
1641221160709391104,2022-01-03-14:46:00,10.1.1.4,200,-0.230,-0.230,-0.230,0.000,0.000,0.000
1641221160905716992,2022-01-03-14:46:00,10.1.1.4,196,-0.220,-0.220,-0.220,0.000,0.000,0.000
1641221161306080000,2022-01-03-14:46:01,10.1.1.4,195,-0.200,-0.200,-0.200,0.000,0.000,0.000
1641221161505924864,2022-01-03-14:46:01,10.1.1.4,194,-0.190,-0.190,-0.190,0.000,0.000,0.000
1641221161707067136,2022-01-03-14:46:01,10.1.1.4,194,-0.180,-0.180,-0.180,0.000,0.000,0.000
1641221161908940032,2022-01-03-14:46:01,10.1.1.4,195,-0.170,-0.170,-0.170,0.000,0.000,0.000
1641221162105954048,2022-01-03-14:46:02,10.1.1.4,191,-0.160,-0.160,-0.160,0.000,0.000,0.000
1641221162317308928,2022-01-03-14:46:02,10.1.1.4,201,-0.150,-0.150,-0.150,0.000,0.000,0.000
1641221162707478016,2022-01-03-14:46:02,10.1.1.4,183,-0.130,-0.130,-0.130,0.000,0.000,0.000
1641221162907836928,2022-01-03-14:46:02,10.1.1.4,183,-0.120,-0.120,-0.120,0.000,0.000,0.000
1641221163107400960,2022-01-03-14:46:03,10.1.1.4,182,-0.110,-0.110,-0.110,0.000,0.000,0.000
1641221163307315968,2022-01-03-14:46:03,10.1.1.4,181,-0.100,-0.100,-0.100,0.000,0.000,0.000
1641221163507307008,2022-01-03-14:46:03,10.1.1.4,181,-0.090,-0.090,-0.090,0.000,0.000,0.000
1641221163927820800,2022-01-03-14:46:03,10.1.1.4,200,-0.070,-0.070,-0.070,0.000,0.000,0.000
1641221164127351040,2022-01-03-14:46:04,10.1.1.4,198,-0.060,-0.060,-0.060,0.000,0.000,0.000
1641221164327769088,2022-01-03-14:46:04,10.1.1.4,198,-0.050,-0.050,-0.050,0.000,0.000,0.000
1641221164728169984,2022-01-03-14:46:04,10.1.1.4,198,-0.030,-0.030,-0.030,0.000,0.000,0.000
1641221164928363008,2022-01-03-14:46:04,10.1.1.4,198,-0.020,-0.020,-0.020,0.000,0.000,0.000
1641221165130407936,2022-01-03-14:46:05,10.1.1.4,199,-0.010,-0.010,-0.010,0.000,0.000,0.000
1641221165321232128,2022-01-03-14:46:05,10.1.1.4,189,0.000,0.000,0.000,0.000,0.000,0.000
1641221165528236032,2022-01-03-14:46:05,10.1.1.4,196,-0.010,-0.010,-0.010,0.000,0.000,0.000
1641221165728476160,2022-01-03-14:46:05,10.1.1.4,195,-0.020,-0.020,-0.020,0.000,0.000,0.000
1641221165928497920,2022-01-03-14:46:05,10.1.1.4,194,-0.030,-0.030,-0.030,0.000,0.000,0.000
1641221166128300032,2022-01-03-14:46:06,10.1.1.4,194,-0.040,-0.040,-0.040,0.000,0.000,0.000
1641221166331127040,2022-01-03-14:46:06,10.1.1.4,197,-0.050,-0.050,-0.050,0.000,0.000,0.000
1641221166530187008,2022-01-03-14:46:06,10.1.1.4,195,-0.060,-0.060,-0.060,0.000,0.000,0.000
1641221166729011968,2022-01-03-14:46:06,10.1.1.4,194,-0.070,-0.070,-0.070,0.000,0.000,0.000
1641221166928392960,2022-01-03-14:46:06,10.1.1.4,192,-0.080,-0.080,-0.080,0.000,0.000,0.000
1641221167128534016,2022-01-03-14:46:07,10.1.1.4,192,-0.090,-0.090,-0.090,0.000,0.000,0.000
1641221167330799104,2022-01-03-14:46:07,10.1.1.4,194,-0.100,-0.100,-0.100,0.000,0.000,0.000
1641221167527548160,2022-01-03-14:46:07,10.1.1.4,190,-0.110,-0.110,-0.110,0.000,0.000,0.000
1641221167727528960,2022-01-03-14:46:07,10.1.1.4,189,-0.120,-0.120,-0.120,0.000,0.000,0.000
1641221167926793984,2022-01-03-14:46:07,10.1.1.4,188,-0.130,-0.130,-0.130,0.000,0.000,0.000
1641221168127576064,2022-01-03-14:46:08,10.1.1.4,188,-0.140,-0.140,-0.140,0.000,0.000,0.000
1641221168326391808,2022-01-03-14:46:08,10.1.1.4,186,-0.150,-0.150,-0.150,0.000,0.000,0.000
1641221168527030016,2022-01-03-14:46:08,10.1.1.4,186,-0.160,-0.160,-0.160,0.000,0.000,0.000
1641221168726520064,2022-01-03-14:46:08,10.1.1.4,185,-0.170,-0.170,-0.170,0.000,0.000,0.000
1641221169127826944,2022-01-03-14:46:09,10.1.1.4,183,-0.190,-0.190,-0.190,0.000,0.000,0.000
1641221169325777152,2022-01-03-14:46:09,10.1.1.4,180,-0.200,-0.200,-0.200,0.000,0.000,0.000
1641221169525564928,2022-01-03-14:46:09,10.1.1.4,179,-0.210,-0.210,-0.210,0.000,0.000,0.000
1641221169747172096,2022-01-03-14:46:09,10.1.1.4,200,-0.220,-0.220,-0.220,0.000,0.000,0.000
1641221169949906944,2022-01-03-14:46:09,10.1.1.4,199,-0.230,-0.230,-0.230,0.000,0.000,0.000
1641221170145689856,2022-01-03-14:46:10,10.1.1.4,194,-0.240,-0.240,-0.240,0.000,0.000,0.000
1641221170345292032,2022-01-03-14:46:10,10.1.1.4,193,-0.250,-0.250,-0.250,0.000,0.000,0.000
