FedericoMungari/DigitalTwin_service/01_WiredScenario/Output/Output_script/script_rosapi_2_output_robots12_freq0_2.txt
timestamp,date,node,latency,joint_1,joint_2,joint_3,joint_4,joint_5,joint_6
1644939379882066944,2022-02-15-15:36:19,10.1.1.3,7,-0.100,-0.100,-0.100,-0.000,-0.000,-0.000
1644939380243814912,2022-02-15-15:36:20,10.1.1.3,30,-0.030,-0.030,-0.030,0.000,0.000,0.000
1644939380283750144,2022-02-15-15:36:20,10.1.1.3,20,-0.020,-0.020,-0.020,0.000,0.000,0.000
1644939380343774976,2022-02-15-15:36:20,10.1.1.3,29,-0.010,-0.010,-0.010,0.000,0.000,0.000
1644939380862898176,2022-02-15-15:36:20,10.1.1.3,29,0.090,0.090,0.090,0.000,0.000,0.000
1644939380943963904,2022-02-15-15:36:20,10.1.1.3,8,0.090,0.090,0.090,0.000,0.000,0.000
1644939381426376192,2022-02-15-15:36:21,10.1.1.3,29,0.000,0.000,0.000,0.000,0.000,0.000
1644939381787985152,2022-02-15-15:36:21,10.1.1.3,29,-0.070,-0.070,-0.070,0.000,0.000,0.000
1644939382043602944,2022-02-15-15:36:22,10.1.1.3,29,-0.080,-0.080,-0.080,0.000,0.000,0.000
1644939382103836928,2022-02-15-15:36:22,10.1.1.3,39,-0.070,-0.070,-0.070,0.000,0.000,0.000
1644939382144109056,2022-02-15-15:36:22,10.1.1.3,28,-0.060,-0.060,-0.060,0.000,0.000,0.000
1644939382663403008,2022-02-15-15:36:22,10.1.1.3,29,0.040,0.040,0.040,0.000,0.000,0.000
1644939383264601856,2022-02-15-15:36:23,10.1.1.3,19,0.040,0.040,0.040,0.000,0.000,0.000
1644939383943922944,2022-02-15-15:36:23,10.1.1.3,39,-0.090,-0.090,-0.090,0.000,0.000,0.000
1644939383983264000,2022-02-15-15:36:23,10.1.1.3,29,-0.100,-0.100,-0.100,0.000,0.000,0.000
1644939384543859968,2022-02-15-15:36:24,10.1.1.3,30,0.010,0.010,0.010,0.000,0.000,0.000
1644939384603437056,2022-02-15-15:36:24,10.1.1.3,39,0.020,0.020,0.020,0.000,0.000,0.000
1644939384643011072,2022-02-15-15:36:24,10.1.1.3,28,0.030,0.030,0.030,0.000,0.000,0.000
1644939384703128064,2022-02-15-15:36:24,10.1.1.3,38,0.040,0.040,0.040,0.000,0.000,0.000
1644939385284680960,2022-02-15-15:36:25,10.1.1.3,10,0.040,0.040,0.040,0.000,0.000,0.000
1644939385363853824,2022-02-15-15:36:25,10.1.1.3,39,0.030,0.030,0.030,0.000,0.000,0.000
1644939385403478016,2022-02-15-15:36:25,10.1.1.3,28,0.020,0.020,0.020,0.000,0.000,0.000
1644939385924186112,2022-02-15-15:36:25,10.1.1.3,39,-0.080,-0.080,-0.080,0.000,0.000,0.000
1644939386103621120,2022-02-15-15:36:26,10.1.1.3,14,-0.080,-0.080,-0.080,0.000,0.000,0.000
1644939386524490240,2022-02-15-15:36:26,10.1.1.3,28,0.000,0.000,0.000,0.000,0.000,0.000
1644939387143878912,2022-02-15-15:36:27,10.1.1.3,29,0.080,0.080,0.080,0.000,0.000,0.000
1644939387203924992,2022-02-15-15:36:27,10.1.1.3,38,0.070,0.070,0.070,0.000,0.000,0.000
1644939387805035008,2022-02-15-15:36:27,10.1.1.3,30,-0.050,-0.050,-0.050,0.000,0.000,0.000
1644939388163279104,2022-02-15-15:36:28,10.1.1.3,29,-0.080,-0.080,-0.080,0.000,0.000,0.000
1644939388425410048,2022-02-15-15:36:28,10.1.1.3,29,-0.030,-0.030,-0.030,0.000,0.000,0.000
1644939388783549952,2022-02-15-15:36:28,10.1.1.3,29,0.040,0.040,0.040,0.000,0.000,0.000
1644939389383250944,2022-02-15-15:36:29,10.1.1.3,20,0.040,0.040,0.040,0.000,0.000,0.000
1644939389503150080,2022-02-15-15:36:29,10.1.1.3,38,0.020,0.020,0.020,0.000,0.000,0.000
1644939389543774976,2022-02-15-15:36:29,10.1.1.3,28,0.010,0.010,0.010,0.000,0.000,0.000
1644939390004425984,2022-02-15-15:36:30,10.1.1.3,29,-0.080,-0.080,-0.080,0.000,0.000,0.000
1644939390211796992,2022-02-15-15:36:30,10.1.1.3,-13,-0.080,-0.080,-0.080,0.000,0.000,0.000
1644939393012447232,2022-02-15-15:36:31,10.1.1.3,29,-0.030,-0.030,-0.030,0.000,0.000,0.000
1644939393105442048,2022-02-15-15:36:33,10.1.1.3,30,-0.050,-0.050,-0.050,0.000,0.000,0.000
1644939393465675008,2022-02-15-15:36:33,10.1.1.3,29,-0.080,-0.080,-0.080,0.000,0.000,0.000
1644939393523616000,2022-02-15-15:36:33,10.1.1.3,39,-0.070,-0.070,-0.070,0.000,0.000,0.000
1644939395079646208,2022-02-15-15:36:34,10.1.1.3,30,0.090,0.090,0.090,0.000,0.000,0.000
1644939395103496960,2022-02-15-15:36:35,10.1.1.3,28,0.100,0.100,0.100,0.000,0.000,0.000
1644939395785680128,2022-02-15-15:36:35,10.1.1.3,39,-0.030,-0.030,-0.030,0.000,0.000,0.000
1644939396303726080,2022-02-15-15:36:36,10.1.1.3,20,-0.070,-0.070,-0.070,0.000,0.000,0.000
1644939397125312000,2022-02-15-15:36:37,10.1.1.3,29,0.090,0.090,0.090,0.000,0.000,0.000
1644939397184078080,2022-02-15-15:36:37,10.1.1.3,38,0.100,0.100,0.100,0.000,0.000,0.000
1644939398144085760,2022-02-15-15:36:38,10.1.1.3,29,-0.090,-0.090,-0.090,0.000,0.000,0.000
1644939398264268032,2022-02-15-15:36:38,10.1.1.3,18,-0.090,-0.090,-0.090,0.000,0.000,0.000
1644939399004194048,2022-02-15-15:36:39,10.1.1.3,28,0.040,0.040,0.040,0.000,0.000,0.000
1644939399603840000,2022-02-15-15:36:39,10.1.1.3,21,0.040,0.040,0.040,0.000,0.000,0.000
1644939399670150144,2022-02-15-15:36:39,10.1.1.3,30,0.030,0.030,0.030,0.000,0.000,0.000
1644939400283947008,2022-02-15-15:36:40,10.1.1.3,39,-0.090,-0.090,-0.090,0.000,0.000,0.000
1644939400332015104,2022-02-15-15:36:40,10.1.1.3,29,-0.100,-0.100,-0.100,0.000,0.000,0.000
1644939403606769152,2022-02-15-15:36:40,10.1.1.3,29,-0.050,-0.050,-0.050,0.000,0.000,0.000
1644939403703283968,2022-02-15-15:36:43,10.1.1.3,40,-0.040,-0.040,-0.040,0.000,0.000,0.000
1644939403743375104,2022-02-15-15:36:43,10.1.1.3,28,-0.030,-0.030,-0.030,0.000,0.000,0.000
1644939404103894016,2022-02-15-15:36:44,10.1.1.3,29,0.040,0.040,0.040,0.000,0.000,0.000
1644939404166742016,2022-02-15-15:36:44,10.1.1.3,39,0.050,0.050,0.050,0.000,0.000,0.000
1644939404463634944,2022-02-15-15:36:44,10.1.1.3,29,0.090,0.090,0.090,0.000,0.000,0.000
1644939404524993024,2022-02-15-15:36:44,10.1.1.3,38,0.080,0.080,0.080,0.000,0.000,0.000
1644939404803580160,2022-02-15-15:36:44,10.1.1.3,29,0.030,0.030,0.030,0.000,0.000,0.000
1644939404863676928,2022-02-15-15:36:44,10.1.1.3,39,0.020,0.020,0.020,0.000,0.000,0.000
1644939404905582848,2022-02-15-15:36:44,10.1.1.3,28,0.010,0.010,0.010,0.000,0.000,0.000
1644939406489629952,2022-02-15-15:36:46,10.1.1.3,39,-0.080,-0.080,-0.080,0.000,0.000,0.000
1644939410692101888,2022-02-15-15:36:50,10.1.1.3,38,-0.040,-0.040,-0.040,0.000,0.000,0.000
1644939411025736192,2022-02-15-15:36:51,10.1.1.3,29,-0.090,-0.090,-0.090,0.000,0.000,0.000
1644939411954019072,2022-02-15-15:36:51,10.1.1.3,39,-0.080,-0.080,-0.080,0.000,0.000,0.000
1644939412067132928,2022-02-15-15:36:52,10.1.1.3,19,-0.060,-0.060,-0.060,0.000,0.000,0.000
1644939413823759104,2022-02-15-15:36:53,10.1.1.3,10,-0.060,-0.060,-0.060,0.000,0.000,0.000
1644939413948457984,2022-02-15-15:36:53,10.1.1.3,29,-0.080,-0.080,-0.080,0.000,0.000,0.000
1644939414006102016,2022-02-15-15:36:54,10.1.1.3,38,-0.090,-0.090,-0.090,0.000,0.000,0.000
1644939414085172992,2022-02-15-15:36:54,10.1.1.3,18,-0.090,-0.090,-0.090,0.000,0.000,0.000
1644939414464994048,2022-02-15-15:36:54,10.1.1.3,39,-0.020,-0.020,-0.020,0.000,0.000,0.000
1644939415723084800,2022-02-15-15:36:55,10.1.1.3,19,-0.020,-0.020,-0.020,0.000,0.000,0.000
1644939415787816960,2022-02-15-15:36:55,10.1.1.3,28,-0.030,-0.030,-0.030,0.000,0.000,0.000
1644939416386630912,2022-02-15-15:36:56,10.1.1.3,29,-0.060,-0.060,-0.060,0.000,0.000,0.000
1644939416446209024,2022-02-15-15:36:56,10.1.1.3,38,-0.050,-0.050,-0.050,0.000,0.000,0.000
1644939417043233024,2022-02-15-15:36:56,10.1.1.3,38,0.050,0.050,0.050,0.000,0.000,0.000
1644939417268784128,2022-02-15-15:36:57,10.1.1.3,39,0.090,0.090,0.090,0.000,0.000,0.000
1644939417343622912,2022-02-15-15:36:57,10.1.1.3,14,0.090,0.090,0.090,0.000,0.000,0.000
1644939418209096960,2022-02-15-15:36:58,10.1.1.3,29,-0.070,-0.070,-0.070,0.000,0.000,0.000
1644939418265208832,2022-02-15-15:36:58,10.1.1.3,39,-0.080,-0.080,-0.080,0.000,0.000,0.000
1644939418443842816,2022-02-15-15:36:58,10.1.1.3,8,-0.080,-0.080,-0.080,0.000,0.000,0.000
1644939418944258816,2022-02-15-15:36:58,10.1.1.3,30,0.010,0.010,0.010,0.000,0.000,0.000
1644939419571345152,2022-02-15-15:36:59,10.1.1.3,39,0.070,0.070,0.070,0.000,0.000,0.000
1644939419607353088,2022-02-15-15:36:59,10.1.1.3,28,0.060,0.060,0.060,0.000,0.000,0.000
1644939420612921856,2022-02-15-15:37:00,10.1.1.3,39,-0.070,-0.070,-0.070,0.000,0.000,0.000
1644939420925463040,2022-02-15-15:37:00,10.1.1.3,39,-0.010,-0.010,-0.010,0.000,0.000,0.000
1644939421224019968,2022-02-15-15:37:01,10.1.1.3,29,0.050,0.050,0.050,0.000,0.000,0.000
1644939421286358016,2022-02-15-15:37:01,10.1.1.3,39,0.060,0.060,0.060,0.000,0.000,0.000
1644939421326638080,2022-02-15-15:37:01,10.1.1.3,28,0.070,0.070,0.070,0.000,0.000,0.000
1644939421624385024,2022-02-15-15:37:01,10.1.1.3,21,0.070,0.070,0.070,0.000,0.000,0.000
1644939421684016896,2022-02-15-15:37:01,10.1.1.3,29,0.060,0.060,0.060,0.000,0.000,0.000
1644939421743825920,2022-02-15-15:37:01,10.1.1.3,39,0.050,0.050,0.050,0.000,0.000,0.000
1644939422816508928,2022-02-15-15:37:02,10.1.1.3,30,-0.090,-0.090,-0.090,0.000,0.000,0.000
1644939423143280896,2022-02-15-15:37:03,10.1.1.3,29,-0.020,-0.020,-0.020,0.000,0.000,0.000
1644939423243744000,2022-02-15-15:37:03,10.1.1.3,28,0.000,0.000,0.000,0.000,0.000,0.000
1644939423665837056,2022-02-15-15:37:03,10.1.1.3,30,0.080,0.080,0.080,0.000,0.000,0.000
1644939423725632000,2022-02-15-15:37:03,10.1.1.3,39,0.090,0.090,0.090,0.000,0.000,0.000
1644939423804004864,2022-02-15-15:37:03,10.1.1.3,16,0.090,0.090,0.090,0.000,0.000,0.000
1644939424383228928,2022-02-15-15:37:04,10.1.1.3,30,-0.020,-0.020,-0.020,0.000,0.000,0.000
1644939424811069952,2022-02-15-15:37:04,10.1.1.3,29,-0.060,-0.060,-0.060,0.000,0.000,0.000
1644939425185122048,2022-02-15-15:37:05,10.1.1.3,20,-0.060,-0.060,-0.060,0.000,0.000,0.000
1644939425245963008,2022-02-15-15:37:05,10.1.1.3,28,-0.050,-0.050,-0.050,0.000,0.000,0.000
1644939425959721216,2022-02-15-15:37:05,10.1.1.3,39,0.070,0.070,0.070,0.000,0.000,0.000
1644939426223179008,2022-02-15-15:37:06,10.1.1.3,11,0.070,0.070,0.070,0.000,0.000,0.000
1644939426405071872,2022-02-15-15:37:06,10.1.1.3,39,0.040,0.040,0.040,0.000,0.000,0.000
1644939429488944128,2022-02-15-15:37:07,10.1.1.3,29,0.020,0.020,0.020,0.000,0.000,0.000
1644939430236285952,2022-02-15-15:37:10,10.1.1.3,39,0.070,0.070,0.070,0.000,0.000,0.000
1644939430523542016,2022-02-15-15:37:10,10.1.1.3,39,0.010,0.010,0.010,0.000,0.000,0.000
1644939431003684096,2022-02-15-15:37:11,10.1.1.3,39,-0.080,-0.080,-0.080,0.000,0.000,0.000
1644939431184321024,2022-02-15-15:37:11,10.1.1.3,14,-0.080,-0.080,-0.080,0.000,0.000,0.000
1644939431485133056,2022-02-15-15:37:11,10.1.1.3,29,-0.030,-0.030,-0.030,0.000,0.000,0.000
1644939431744310016,2022-02-15-15:37:11,10.1.1.3,29,0.020,0.020,0.020,0.000,0.000,0.000
1644939431803628032,2022-02-15-15:37:11,10.1.1.3,38,0.030,0.030,0.030,0.000,0.000,0.000
1644939431967816192,2022-02-15-15:37:11,10.1.1.3,28,0.060,0.060,0.060,0.000,0.000,0.000
1644939432286860032,2022-02-15-15:37:12,10.1.1.3,39,0.080,0.080,0.080,0.000,0.000,0.000
1644939432325475072,2022-02-15-15:37:12,10.1.1.3,29,0.070,0.070,0.070,0.000,0.000,0.000
1644939432385267968,2022-02-15-15:37:12,10.1.1.3,38,0.060,0.060,0.060,0.000,0.000,0.000
1644939432425110016,2022-02-15-15:37:12,10.1.1.3,28,0.050,0.050,0.050,0.000,0.000,0.000
1644939432785448192,2022-02-15-15:37:12,10.1.1.3,29,-0.020,-0.020,-0.020,0.000,0.000,0.000
1644939433066520064,2022-02-15-15:37:13,10.1.1.3,29,-0.070,-0.070,-0.070,0.000,0.000,0.000
1644939433350891008,2022-02-15-15:37:13,10.1.1.3,14,-0.070,-0.070,-0.070,0.000,0.000,0.000
1644939434199111936,2022-02-15-15:37:14,10.1.1.3,29,0.060,0.060,0.060,0.000,0.000,0.000
1644939434594383104,2022-02-15-15:37:14,10.1.1.3,21,0.060,0.060,0.060,0.000,0.000,0.000
1644939435579341056,2022-02-15-15:37:15,10.1.1.3,38,-0.070,-0.070,-0.070,0.000,0.000,0.000
1644939436049748992,2022-02-15-15:37:16,10.1.1.3,3,-0.070,-0.070,-0.070,0.000,0.000,0.000
1644939436386017024,2022-02-15-15:37:16,10.1.1.3,39,-0.010,-0.010,-0.010,0.000,0.000,0.000
1644939437418080000,2022-02-15-15:37:17,10.1.1.3,29,0.100,0.100,0.100,0.000,0.000,0.000
1644939438807312128,2022-02-15-15:37:18,10.1.1.3,39,-0.040,-0.040,-0.040,0.000,0.000,0.000
1644939439304884992,2022-02-15-15:37:19,10.1.1.3,29,0.060,0.060,0.060,0.000,0.000,0.000
1644939439363782912,2022-02-15-15:37:19,10.1.1.3,39,0.070,0.070,0.070,0.000,0.000,0.000
1644939439694001920,2022-02-15-15:37:19,10.1.1.3,-44,0.070,0.070,0.070,0.000,0.000,0.000
1644939440796771072,2022-02-15-15:37:20,10.1.1.3,38,0.010,0.010,0.010,0.000,0.000,0.000
1644939440925551872,2022-02-15-15:37:20,10.1.1.3,29,-0.020,-0.020,-0.020,0.000,0.000,0.000
1644939440993877760,2022-02-15-15:37:20,10.1.1.3,38,-0.030,-0.030,-0.030,0.000,0.000,0.000
1644939441859472128,2022-02-15-15:37:21,10.1.1.3,-20,-0.030,-0.030,-0.030,0.000,0.000,0.000
1644939442775707904,2022-02-15-15:37:22,10.1.1.3,29,-0.020,-0.020,-0.020,0.000,0.000,0.000
1644939443178565888,2022-02-15-15:37:23,10.1.1.3,29,0.060,0.060,0.060,0.000,0.000,0.000
1644939443263683072,2022-02-15-15:37:23,10.1.1.3,28,0.080,0.080,0.080,0.000,0.000,0.000
1644939443426713088,2022-02-15-15:37:23,10.1.1.3,28,0.090,0.090,0.090,0.000,0.000,0.000
1644939446057315072,2022-02-15-15:37:23,10.1.1.3,38,0.070,0.070,0.070,0.000,0.000,0.000
1644939453018433024,2022-02-15-15:37:30,10.1.1.3,28,-0.020,-0.020,-0.020,0.000,0.000,0.000
1644939456961231872,2022-02-15-15:37:33,10.1.1.3,30,0.050,0.050,0.050,0.000,0.000,0.000
1644939463010288896,2022-02-15-15:37:42,10.1.1.3,30,-0.060,-0.060,-0.060,0.000,0.000,0.000
1644939463846957824,2022-02-15-15:37:43,10.1.1.3,30,0.090,0.090,0.090,0.000,0.000,0.000
1644939463942915840,2022-02-15-15:37:43,10.1.1.3,7,0.090,0.090,0.090,0.000,0.000,0.000
1644939467736814080,2022-02-15-15:37:44,10.1.1.3,38,-0.020,-0.020,-0.020,0.000,0.000,0.000
1644939474924316928,2022-02-15-15:37:51,10.1.1.3,28,0.020,0.020,0.020,0.000,0.000,0.000
1644939498945499904,2022-02-15-15:38:12,10.1.1.3,40,0.030,0.030,0.030,0.000,0.000,0.000
1644939499743511040,2022-02-15-15:38:19,10.1.1.3,20,0.030,0.030,0.030,0.000,0.000,0.000
1644939499807684864,2022-02-15-15:38:19,10.1.1.3,30,0.020,0.020,0.020,0.000,0.000,0.000
1644939500183376128,2022-02-15-15:38:20,10.1.1.3,30,-0.050,-0.050,-0.050,0.000,0.000,0.000
1644939500347784960,2022-02-15-15:38:20,10.1.1.3,30,-0.080,-0.080,-0.080,0.000,0.000,0.000
1644939500406737152,2022-02-15-15:38:20,10.1.1.3,39,-0.090,-0.090,-0.090,0.000,0.000,0.000
1644939500485831936,2022-02-15-15:38:20,10.1.1.3,17,-0.090,-0.090,-0.090,0.000,0.000,0.000
1644939500664186112,2022-02-15-15:38:20,10.1.1.3,39,-0.060,-0.060,-0.060,0.000,0.000,0.000
1644939501025548032,2022-02-15-15:38:21,10.1.1.3,29,0.010,0.010,0.010,0.000,0.000,0.000
1644939501705081088,2022-02-15-15:38:21,10.1.1.3,39,0.060,0.060,0.060,0.000,0.000,0.000
1644939502323241984,2022-02-15-15:38:22,10.1.1.3,30,-0.060,-0.060,-0.060,0.000,0.000,0.000
1644939502686098944,2022-02-15-15:38:22,10.1.1.3,29,-0.070,-0.070,-0.070,0.000,0.000,0.000
1644939502784583168,2022-02-15-15:38:22,10.1.1.3,28,-0.050,-0.050,-0.050,0.000,0.000,0.000
1644939503205154816,2022-02-15-15:38:23,10.1.1.3,30,0.030,0.030,0.030,0.000,0.000,0.000
1644939503266118912,2022-02-15-15:38:23,10.1.1.3,38,0.040,0.040,0.040,0.000,0.000,0.000
1644939503604335104,2022-02-15-15:38:23,10.1.1.3,20,0.090,0.090,0.090,0.000,0.000,0.000
1644939503887266048,2022-02-15-15:38:23,10.1.1.3,28,0.040,0.040,0.040,0.000,0.000,0.000
1644939504487653888,2022-02-15-15:38:24,10.1.1.3,20,-0.080,-0.080,-0.080,0.000,0.000,0.000
1644939504543567872,2022-02-15-15:38:24,10.1.1.3,29,-0.090,-0.090,-0.090,0.000,0.000,0.000
1644939504604367872,2022-02-15-15:38:24,10.1.1.3,39,-0.100,-0.100,-0.100,0.000,0.000,0.000
1644939505565907968,2022-02-15-15:38:25,10.1.1.3,29,0.090,0.090,0.090,0.000,0.000,0.000
1644939505645904128,2022-02-15-15:38:25,10.1.1.3,8,0.090,0.090,0.090,0.000,0.000,0.000
1644939506286416896,2022-02-15-15:38:26,10.1.1.3,29,-0.030,-0.030,-0.030,0.000,0.000,0.000
1644939506845905920,2022-02-15-15:38:26,10.1.1.3,30,-0.060,-0.060,-0.060,0.000,0.000,0.000
1644939506904345088,2022-02-15-15:38:26,10.1.1.3,39,-0.050,-0.050,-0.050,0.000,0.000,0.000
1644939506953913088,2022-02-15-15:38:26,10.1.1.3,28,-0.040,-0.040,-0.040,0.000,0.000,0.000
1644939507163780096,2022-02-15-15:38:27,10.1.1.3,29,0.000,0.000,0.000,0.000,0.000,0.000
1644939507331682816,2022-02-15-15:38:27,10.1.1.3,27,0.030,0.030,0.030,0.000,0.000,0.000
1644939508026482944,2022-02-15-15:38:28,10.1.1.3,3,0.030,0.030,0.030,0.000,0.000,0.000
1644939508278036992,2022-02-15-15:38:28,10.1.1.3,40,-0.010,-0.010,-0.010,0.000,0.000,0.000
1644939509066385920,2022-02-15-15:38:29,10.1.1.3,29,-0.050,-0.050,-0.050,0.000,0.000,0.000
1644939509845733888,2022-02-15-15:38:29,10.1.1.3,28,0.100,0.100,0.100,0.000,0.000,0.000
1644939509919482112,2022-02-15-15:38:29,10.1.1.3,38,0.090,0.090,0.090,0.000,0.000,0.000
1644939511885231104,2022-02-15-15:38:31,10.1.1.3,4,0.090,0.090,0.090,0.000,0.000,0.000
1644939512004651008,2022-02-15-15:38:32,10.1.1.3,21,0.090,0.090,0.090,0.000,0.000,0.000
1644939512063823104,2022-02-15-15:38:32,10.1.1.3,30,0.080,0.080,0.080,0.000,0.000,0.000
1644939513164484864,2022-02-15-15:38:33,10.1.1.3,39,-0.070,-0.070,-0.070,0.000,0.000,0.000
1644939513207565056,2022-02-15-15:38:33,10.1.1.3,29,-0.060,-0.060,-0.060,0.000,0.000,0.000
1644939513367575040,2022-02-15-15:38:33,10.1.1.3,30,-0.030,-0.030,-0.030,0.000,0.000,0.000
1644939513424387072,2022-02-15-15:38:33,10.1.1.3,39,-0.020,-0.020,-0.020,0.000,0.000,0.000
1644939513465231872,2022-02-15-15:38:33,10.1.1.3,29,-0.010,-0.010,-0.010,0.000,0.000,0.000
1644939513723524096,2022-02-15-15:38:33,10.1.1.3,28,0.040,0.040,0.040,0.000,0.000,0.000
1644939513784413184,2022-02-15-15:38:33,10.1.1.3,38,0.050,0.050,0.050,0.000,0.000,0.000
1644939514044737024,2022-02-15-15:38:34,10.1.1.3,40,0.100,0.100,0.100,0.000,0.000,0.000
1644939514083672064,2022-02-15-15:38:34,10.1.1.3,29,0.090,0.090,0.090,0.000,0.000,0.000
1644939514143619072,2022-02-15-15:38:34,10.1.1.3,38,0.080,0.080,0.080,0.000,0.000,0.000
1644939514443064832,2022-02-15-15:38:34,10.1.1.3,30,0.020,0.020,0.020,0.000,0.000,0.000
1644939516530211840,2022-02-15-15:38:34,10.1.1.3,39,-0.040,-0.040,-0.040,0.000,0.000,0.000
1644939517109476096,2022-02-15-15:38:37,10.1.1.3,41,-0.040,-0.040,-0.040,0.000,0.000,0.000
1644939517763331840,2022-02-15-15:38:37,10.1.1.3,39,0.080,0.080,0.080,0.000,0.000,0.000
1644939517943582976,2022-02-15-15:38:37,10.1.1.3,15,0.080,0.080,0.080,0.000,0.000,0.000
1644939518123760896,2022-02-15-15:38:38,10.1.1.3,39,0.050,0.050,0.050,0.000,0.000,0.000
1644939519404197888,2022-02-15-15:38:39,10.1.1.3,39,0.000,0.000,0.000,0.000,0.000,0.000
1644939519446878976,2022-02-15-15:38:39,10.1.1.3,29,0.010,0.010,0.010,0.000,0.000,0.000
1644939519503969792,2022-02-15-15:38:39,10.1.1.3,38,0.020,0.020,0.020,0.000,0.000,0.000
1644939519705239040,2022-02-15-15:38:39,10.1.1.3,28,0.060,0.060,0.060,0.000,0.000,0.000
1644939520103929088,2022-02-15-15:38:40,10.1.1.3,23,0.060,0.060,0.060,0.000,0.000,0.000
1644939520463275008,2022-02-15-15:38:40,10.1.1.3,29,-0.010,-0.010,-0.010,0.000,0.000,0.000
1644939520523313152,2022-02-15-15:38:40,10.1.1.3,38,-0.020,-0.020,-0.020,0.000,0.000,0.000
1644939521024882944,2022-02-15-15:38:41,10.1.1.3,29,-0.080,-0.080,-0.080,0.000,0.000,0.000
1644939521124145920,2022-02-15-15:38:41,10.1.1.3,29,-0.060,-0.060,-0.060,0.000,0.000,0.000
1644939521983751168,2022-02-15-15:38:41,10.1.1.3,28,0.100,0.100,0.100,0.000,0.000,0.000
1644939522343648000,2022-02-15-15:38:42,10.1.1.3,30,0.030,0.030,0.030,0.000,0.000,0.000
1644939522403474944,2022-02-15-15:38:42,10.1.1.3,39,0.020,0.020,0.020,0.000,0.000,0.000
1644939523423901184,2022-02-15-15:38:43,10.1.1.3,30,-0.020,-0.020,-0.020,0.000,0.000,0.000
1644939523884249856,2022-02-15-15:38:43,10.1.1.3,29,0.070,0.070,0.070,0.000,0.000,0.000
1644939524183912960,2022-02-15-15:38:44,10.1.1.3,23,0.070,0.070,0.070,0.000,0.000,0.000
1644939524546534144,2022-02-15-15:38:44,10.1.1.3,30,0.000,0.000,0.000,0.000,0.000,0.000
1644939524606196992,2022-02-15-15:38:44,10.1.1.3,38,-0.010,-0.010,-0.010,0.000,0.000,0.000
1644939525165786880,2022-02-15-15:38:45,10.1.1.3,39,-0.080,-0.080,-0.080,0.000,0.000,0.000
1644939526144187904,2022-02-15-15:38:46,10.1.1.3,39,0.090,0.090,0.090,0.000,0.000,0.000
1644939526683973120,2022-02-15-15:38:46,10.1.1.3,20,-0.020,-0.020,-0.020,0.000,0.000,0.000
1644939526745863936,2022-02-15-15:38:46,10.1.1.3,29,-0.030,-0.030,-0.030,0.000,0.000,0.000
1644939526810718976,2022-02-15-15:38:46,10.1.1.3,39,-0.040,-0.040,-0.040,0.000,0.000,0.000
1644939527404099072,2022-02-15-15:38:47,10.1.1.3,23,-0.040,-0.040,-0.040,0.000,0.000,0.000
1644939528123696128,2022-02-15-15:38:48,10.1.1.3,39,0.090,0.090,0.090,0.000,0.000,0.000
1644939528203550976,2022-02-15-15:38:48,10.1.1.3,16,0.090,0.090,0.090,0.000,0.000,0.000
1644939528583259136,2022-02-15-15:38:48,10.1.1.3,39,0.020,0.020,0.020,0.000,0.000,0.000
1644939528625562880,2022-02-15-15:38:48,10.1.1.3,28,0.010,0.010,0.010,0.000,0.000,0.000
1644939529770286080,2022-02-15-15:38:49,10.1.1.3,0,0.010,0.010,0.010,0.000,0.000,0.000
1644939530686113024,2022-02-15-15:38:50,10.1.1.3,24,0.010,0.010,0.010,0.000,0.000,0.000
1644939530846195968,2022-02-15-15:38:50,10.1.1.3,31,-0.020,-0.020,-0.020,0.000,0.000,0.000
1644939531691677952,2022-02-15-15:38:51,10.1.1.3,4,-0.020,-0.020,-0.020,0.000,0.000,0.000
1644939532683320064,2022-02-15-15:38:52,10.1.1.3,24,0.020,0.020,0.020,0.000,0.000,0.000
1644939532905334016,2022-02-15-15:38:52,10.1.1.3,39,-0.020,-0.020,-0.020,0.000,0.000,0.000
1644939533205732096,2022-02-15-15:38:53,10.1.1.3,29,-0.080,-0.080,-0.080,0.000,0.000,0.000
1644939533396325120,2022-02-15-15:38:53,10.1.1.3,-6,-0.080,-0.080,-0.080,0.000,0.000,0.000
1644939534183131904,2022-02-15-15:38:54,10.1.1.3,28,0.070,0.070,0.070,0.000,0.000,0.000
1644939534483392000,2022-02-15-15:38:54,10.1.1.3,16,0.070,0.070,0.070,0.000,0.000,0.000
1644939534903654144,2022-02-15-15:38:54,10.1.1.3,29,-0.010,-0.010,-0.010,0.000,0.000,0.000
1644939535723820032,2022-02-15-15:38:55,10.1.1.3,39,-0.030,-0.030,-0.030,0.000,0.000,0.000
1644939535763504896,2022-02-15-15:38:55,10.1.1.3,28,-0.020,-0.020,-0.020,0.000,0.000,0.000
1644939535824740864,2022-02-15-15:38:55,10.1.1.3,38,-0.010,-0.010,-0.010,0.000,0.000,0.000
1644939536283190016,2022-02-15-15:38:56,10.1.1.3,29,0.080,0.080,0.080,0.000,0.000,0.000
1644939536485865216,2022-02-15-15:38:56,10.1.1.3,22,0.080,0.080,0.080,0.000,0.000,0.000
1644939536642934016,2022-02-15-15:38:56,10.1.1.3,28,0.050,0.050,0.050,0.000,0.000,0.000
1644939536804830976,2022-02-15-15:38:56,10.1.1.3,30,0.020,0.020,0.020,0.000,0.000,0.000
1644939537385121024,2022-02-15-15:38:57,10.1.1.3,29,-0.090,-0.090,-0.090,0.000,0.000,0.000
1644939537443123200,2022-02-15-15:38:57,10.1.1.3,39,-0.100,-0.100,-0.100,0.000,0.000,0.000
1644939537484376064,2022-02-15-15:38:57,10.1.1.3,28,-0.090,-0.090,-0.090,0.000,0.000,0.000
1644939538983460864,2022-02-15-15:38:58,10.1.1.3,39,0.000,0.000,0.000,0.000,0.000,0.000
1644939539544497920,2022-02-15-15:38:59,10.1.1.3,39,-0.090,-0.090,-0.090,0.000,0.000,0.000
1644939539584338944,2022-02-15-15:38:59,10.1.1.3,28,-0.080,-0.080,-0.080,0.000,0.000,0.000
1644939540003712768,2022-02-15-15:39:00,10.1.1.3,40,0.000,0.000,0.000,0.000,0.000,0.000
1644939540043941888,2022-02-15-15:39:00,10.1.1.3,29,0.010,0.010,0.010,0.000,0.000,0.000
1644939540103663872,2022-02-15-15:39:00,10.1.1.3,38,0.020,0.020,0.020,0.000,0.000,0.000
1644939540663248128,2022-02-15-15:39:00,10.1.1.3,30,0.070,0.070,0.070,0.000,0.000,0.000
1644939540725129984,2022-02-15-15:39:00,10.1.1.3,39,0.060,0.060,0.060,0.000,0.000,0.000
1644939541703569920,2022-02-15-15:39:01,10.1.1.3,39,-0.070,-0.070,-0.070,0.000,0.000,0.000
1644939541743174144,2022-02-15-15:39:01,10.1.1.3,29,-0.060,-0.060,-0.060,0.000,0.000,0.000
1644939541804413952,2022-02-15-15:39:01,10.1.1.3,38,-0.050,-0.050,-0.050,0.000,0.000,0.000
1644939542364275968,2022-02-15-15:39:02,10.1.1.3,39,0.060,0.060,0.060,0.000,0.000,0.000
1644939542745084160,2022-02-15-15:39:02,10.1.1.3,12,0.060,0.060,0.060,0.000,0.000,0.000
1644939542864056064,2022-02-15-15:39:02,10.1.1.3,28,0.040,0.040,0.040,0.000,0.000,0.000
1644939543325808128,2022-02-15-15:39:03,10.1.1.3,29,-0.050,-0.050,-0.050,0.000,0.000,0.000
1644939543683824896,2022-02-15-15:39:03,10.1.1.3,29,-0.080,-0.080,-0.080,0.000,0.000,0.000
1644939543744960000,2022-02-15-15:39:03,10.1.1.3,39,-0.070,-0.070,-0.070,0.000,0.000,0.000
1644939544024110080,2022-02-15-15:39:04,10.1.1.3,39,-0.020,-0.020,-0.020,0.000,0.000,0.000
1644939544485359872,2022-02-15-15:39:04,10.1.1.3,39,0.070,0.070,0.070,0.000,0.000,0.000
1644939544763299840,2022-02-15-15:39:04,10.1.1.3,11,0.070,0.070,0.070,0.000,0.000,0.000
1644939544843437824,2022-02-15-15:39:04,10.1.1.3,39,0.060,0.060,0.060,0.000,0.000,0.000
1644939545364542976,2022-02-15-15:39:05,10.1.1.3,30,-0.040,-0.040,-0.040,0.000,0.000,0.000
1644939546069319936,2022-02-15-15:39:06,10.1.1.3,15,-0.040,-0.040,-0.040,0.000,0.000,0.000
1644939547024992000,2022-02-15-15:39:07,10.1.1.3,39,0.070,0.070,0.070,0.000,0.000,0.000
1644939547074147072,2022-02-15-15:39:07,10.1.1.3,29,0.060,0.060,0.060,0.000,0.000,0.000
1644939547126117888,2022-02-15-15:39:07,10.1.1.3,38,0.050,0.050,0.050,0.000,0.000,0.000
1644939547806050048,2022-02-15-15:39:07,10.1.1.3,39,-0.080,-0.080,-0.080,0.000,0.000,0.000
1644939547983643904,2022-02-15-15:39:07,10.1.1.3,16,-0.080,-0.080,-0.080,0.000,0.000,0.000
1644939548868186112,2022-02-15-15:39:08,10.1.1.3,39,0.080,0.080,0.080,0.000,0.000,0.000
1644939548911010048,2022-02-15-15:39:08,10.1.1.3,28,0.090,0.090,0.090,0.000,0.000,0.000
1644939548965878016,2022-02-15-15:39:08,10.1.1.3,38,0.100,0.100,0.100,0.000,0.000,0.000
1644939549665112064,2022-02-15-15:39:09,10.1.1.3,38,-0.030,-0.030,-0.030,0.000,0.000,0.000
1644939550305872896,2022-02-15-15:39:10,10.1.1.3,28,-0.060,-0.060,-0.060,0.000,0.000,0.000
1644939550842735104,2022-02-15-15:39:10,10.1.1.3,29,0.040,0.040,0.040,0.000,0.000,0.000
1644939550906137088,2022-02-15-15:39:10,10.1.1.3,39,0.050,0.050,0.050,0.000,0.000,0.000
1644939551383171072,2022-02-15-15:39:11,10.1.1.3,12,0.050,0.050,0.050,0.000,0.000,0.000
1644939551706403072,2022-02-15-15:39:11,10.1.1.3,29,-0.010,-0.010,-0.010,0.000,0.000,0.000
1644939551803736832,2022-02-15-15:39:11,10.1.1.3,28,-0.030,-0.030,-0.030,0.000,0.000,0.000
1644939552125321984,2022-02-15-15:39:12,10.1.1.3,29,-0.090,-0.090,-0.090,0.000,0.000,0.000
1644939552205113856,2022-02-15-15:39:12,10.1.1.3,8,-0.090,-0.090,-0.090,0.000,0.000,0.000
1644939552844559872,2022-02-15-15:39:12,10.1.1.3,30,0.030,0.030,0.030,0.000,0.000,0.000
1644939553572055040,2022-02-15-15:39:13,10.1.1.3,-23,0.030,0.030,0.030,0.000,0.000,0.000
1644939553842835968,2022-02-15-15:39:13,10.1.1.3,13,-0.020,-0.020,-0.020,0.000,0.000,0.000
1644939554069530112,2022-02-15-15:39:14,10.1.1.3,30,-0.060,-0.060,-0.060,0.000,0.000,0.000
1644939554137020160,2022-02-15-15:39:14,10.1.1.3,39,-0.070,-0.070,-0.070,0.000,0.000,0.000
1644939554163037952,2022-02-15-15:39:14,10.1.1.3,29,-0.080,-0.080,-0.080,0.000,0.000,0.000
1644939554347611904,2022-02-15-15:39:14,10.1.1.3,2,-0.080,-0.080,-0.080,0.000,0.000,0.000
1644939554528055040,2022-02-15-15:39:14,10.1.1.3,29,-0.050,-0.050,-0.050,0.000,0.000,0.000
1644939555025222144,2022-02-15-15:39:15,10.1.1.3,39,0.040,0.040,0.040,0.000,0.000,0.000
1644939555747257856,2022-02-15-15:39:15,10.1.1.3,14,0.040,0.040,0.040,0.000,0.000,0.000
1644939555824636928,2022-02-15-15:39:15,10.1.1.3,27,0.020,0.020,0.020,0.000,0.000,0.000
1644939556183457024,2022-02-15-15:39:16,10.1.1.3,29,-0.050,-0.050,-0.050,0.000,0.000,0.000
1644939556543774976,2022-02-15-15:39:16,10.1.1.3,29,-0.080,-0.080,-0.080,0.000,0.000,0.000
1644939556605815808,2022-02-15-15:39:16,10.1.1.3,39,-0.070,-0.070,-0.070,0.000,0.000,0.000
1644939556645019904,2022-02-15-15:39:16,10.1.1.3,28,-0.060,-0.060,-0.060,0.000,0.000,0.000
1644939556904448000,2022-02-15-15:39:16,10.1.1.3,28,-0.010,-0.010,-0.010,0.000,0.000,0.000
1644939557466205952,2022-02-15-15:39:17,10.1.1.3,20,0.090,0.090,0.090,0.000,0.000,0.000
1644939557565378816,2022-02-15-15:39:17,10.1.1.3,16,0.090,0.090,0.090,0.000,0.000,0.000
1644939557843451904,2022-02-15-15:39:17,10.1.1.3,39,0.040,0.040,0.040,0.000,0.000,0.000
1644939558946195968,2022-02-15-15:39:18,10.1.1.3,29,-0.030,-0.030,-0.030,0.000,0.000,0.000
1644939559203015168,2022-02-15-15:39:19,10.1.1.3,29,0.020,0.020,0.020,0.000,0.000,0.000
1644939559265597952,2022-02-15-15:39:19,10.1.1.3,38,0.030,0.030,0.030,0.000,0.000,0.000
1644939559304147968,2022-02-15-15:39:19,10.1.1.3,28,0.040,0.040,0.040,0.000,0.000,0.000
1644939559907415040,2022-02-15-15:39:19,10.1.1.3,15,0.040,0.040,0.040,0.000,0.000,0.000
1644939560183254016,2022-02-15-15:39:20,10.1.1.3,39,-0.010,-0.010,-0.010,0.000,0.000,0.000
1644939560224194048,2022-02-15-15:39:20,10.1.1.3,28,-0.020,-0.020,-0.020,0.000,0.000,0.000
1644939560283622144,2022-02-15-15:39:20,10.1.1.3,38,-0.030,-0.030,-0.030,0.000,0.000,0.000
1644939560544596992,2022-02-15-15:39:20,10.1.1.3,40,-0.080,-0.080,-0.080,0.000,0.000,0.000
1644939560584916224,2022-02-15-15:39:20,10.1.1.3,28,-0.090,-0.090,-0.090,0.000,0.000,0.000
1644939560664081152,2022-02-15-15:39:20,10.1.1.3,8,-0.090,-0.090,-0.090,0.000,0.000,0.000
1644939561525041152,2022-02-15-15:39:21,10.1.1.3,28,0.070,0.070,0.070,0.000,0.000,0.000
1644939561582996992,2022-02-15-15:39:21,10.1.1.3,38,0.080,0.080,0.080,0.000,0.000,0.000
1644939561763364096,2022-02-15-15:39:21,10.1.1.3,15,0.080,0.080,0.080,0.000,0.000,0.000
1644939562082923008,2022-02-15-15:39:22,10.1.1.3,38,0.030,0.030,0.030,0.000,0.000,0.000
1644939562123513856,2022-02-15-15:39:22,10.1.1.3,28,0.020,0.020,0.020,0.000,0.000,0.000
1644939562545031936,2022-02-15-15:39:22,10.1.1.3,29,-0.060,-0.060,-0.060,0.000,0.000,0.000
1644939562603885824,2022-02-15-15:39:22,10.1.1.3,38,-0.070,-0.070,-0.070,0.000,0.000,0.000
1644939562902916864,2022-02-15-15:39:22,10.1.1.3,8,-0.070,-0.070,-0.070,0.000,0.000,0.000
1644939563244765952,2022-02-15-15:39:23,10.1.1.3,39,-0.010,-0.010,-0.010,0.000,0.000,0.000
1644939564143475968,2022-02-15-15:39:24,10.1.1.3,30,0.040,0.040,0.040,0.000,0.000,0.000
1644939564762972160,2022-02-15-15:39:24,10.1.1.3,29,-0.080,-0.080,-0.080,0.000,0.000,0.000
1644939564863162112,2022-02-15-15:39:24,10.1.1.3,28,-0.100,-0.100,-0.100,0.000,0.000,0.000
1644939565423161856,2022-02-15-15:39:25,10.1.1.3,30,0.010,0.010,0.010,0.000,0.000,0.000
1644939565523425024,2022-02-15-15:39:25,10.1.1.3,29,0.030,0.030,0.030,0.000,0.000,0.000
1644939565883467008,2022-02-15-15:39:25,10.1.1.3,30,0.100,0.100,0.100,0.000,0.000,0.000
1644939565943429888,2022-02-15-15:39:25,10.1.1.3,40,0.090,0.090,0.090,0.000,0.000,0.000
1644939565984848128,2022-02-15-15:39:25,10.1.1.3,28,0.080,0.080,0.080,0.000,0.000,0.000
1644939567006983936,2022-02-15-15:39:27,10.1.1.3,29,-0.080,-0.080,-0.080,0.000,0.000,0.000
1644939567764081920,2022-02-15-15:39:27,10.1.1.3,30,0.070,0.070,0.070,0.000,0.000,0.000
1644939567826647040,2022-02-15-15:39:27,10.1.1.3,39,0.080,0.080,0.080,0.000,0.000,0.000
1644939568006843136,2022-02-15-15:39:28,10.1.1.3,15,0.080,0.080,0.080,0.000,0.000,0.000
1644939568086436864,2022-02-15-15:39:28,10.1.1.3,38,0.070,0.070,0.070,0.000,0.000,0.000
1644939568949421056,2022-02-15-15:39:28,10.1.1.3,30,-0.090,-0.090,-0.090,0.000,0.000,0.000
1644939569006012928,2022-02-15-15:39:29,10.1.1.3,7,-0.090,-0.090,-0.090,0.000,0.000,0.000
1644939569283644928,2022-02-15-15:39:29,10.1.1.3,29,-0.040,-0.040,-0.040,0.000,0.000,0.000
1644939570265003008,2022-02-15-15:39:30,10.1.1.3,28,0.050,0.050,0.050,0.000,0.000,0.000
1644939570626270976,2022-02-15-15:39:30,10.1.1.3,29,-0.020,-0.020,-0.020,0.000,0.000,0.000
1644939571143410944,2022-02-15-15:39:31,10.1.1.3,38,-0.080,-0.080,-0.080,0.000,0.000,0.000
1644939571945411840,2022-02-15-15:39:31,10.1.1.3,29,0.080,0.080,0.080,0.000,0.000,0.000
1644939572005256960,2022-02-15-15:39:32,10.1.1.3,38,0.090,0.090,0.090,0.000,0.000,0.000
1644939572083596032,2022-02-15-15:39:32,10.1.1.3,17,0.090,0.090,0.090,0.000,0.000,0.000
1644939572523494912,2022-02-15-15:39:32,10.1.1.3,38,0.010,0.010,0.010,0.000,0.000,0.000
1644939573343373056,2022-02-15-15:39:33,10.1.1.3,38,-0.050,-0.050,-0.050,0.000,0.000,0.000
1644939573762935040,2022-02-15-15:39:33,10.1.1.3,29,0.030,0.030,0.030,0.000,0.000,0.000
1644939573825763072,2022-02-15-15:39:33,10.1.1.3,38,0.040,0.040,0.040,0.000,0.000,0.000
1644939574283575040,2022-02-15-15:39:34,10.1.1.3,39,0.070,0.070,0.070,0.000,0.000,0.000
1644939574667896064,2022-02-15-15:39:34,10.1.1.3,38,0.000,0.000,0.000,0.000,0.000,0.000
1644939575269036032,2022-02-15-15:39:35,10.1.1.3,29,-0.100,-0.100,-0.100,0.000,0.000,0.000
1644939575983680000,2022-02-15-15:39:35,10.1.1.3,39,0.040,0.040,0.040,0.000,0.000,0.000
1644939576091293184,2022-02-15-15:39:36,10.1.1.3,29,0.060,0.060,0.060,0.000,0.000,0.000
1644939576305489152,2022-02-15-15:39:36,10.1.1.3,28,0.100,0.100,0.100,0.000,0.000,0.000
1644939576905618944,2022-02-15-15:39:36,10.1.1.3,39,-0.010,-0.010,-0.010,0.000,0.000,0.000
1644939577104921088,2022-02-15-15:39:37,10.1.1.3,29,-0.050,-0.050,-0.050,0.000,0.000,0.000
1644939577606618880,2022-02-15-15:39:37,10.1.1.3,-10,-0.050,-0.050,-0.050,0.000,0.000,0.000
1644939577689778944,2022-02-15-15:39:37,10.1.1.3,39,-0.040,-0.040,-0.040,0.000,0.000,0.000
1644939578174724096,2022-02-15-15:39:38,10.1.1.3,28,0.040,0.040,0.040,0.000,0.000,0.000
1644939578425408000,2022-02-15-15:39:38,10.1.1.3,38,0.090,0.090,0.090,0.000,0.000,0.000
1644939578487180032,2022-02-15-15:39:38,10.1.1.3,27,0.100,0.100,0.100,0.000,0.000,0.000
1644939578646297088,2022-02-15-15:39:38,10.1.1.3,28,0.070,0.070,0.070,0.000,0.000,0.000
1644939579502376960,2022-02-15-15:39:39,10.1.1.3,38,-0.080,-0.080,-0.080,0.000,0.000,0.000
1644939579686286848,2022-02-15-15:39:39,10.1.1.3,15,-0.080,-0.080,-0.080,0.000,0.000,0.000
1644939579864455936,2022-02-15-15:39:39,10.1.1.3,38,-0.050,-0.050,-0.050,0.000,0.000,0.000
1644939580236337920,2022-02-15-15:39:40,10.1.1.3,39,0.020,0.020,0.020,0.000,0.000,0.000
1644939580285198848,2022-02-15-15:39:40,10.1.1.3,39,0.030,0.030,0.030,0.000,0.000,0.000
1644939580505031936,2022-02-15-15:39:40,10.1.1.3,29,0.060,0.060,0.060,0.000,0.000,0.000
1644939580564009984,2022-02-15-15:39:40,10.1.1.3,39,0.070,0.070,0.070,0.000,0.000,0.000
1644939580863899904,2022-02-15-15:39:40,10.1.1.3,24,0.070,0.070,0.070,0.000,0.000,0.000
1644939581047106048,2022-02-15-15:39:41,10.1.1.3,40,0.040,0.040,0.040,0.000,0.000,0.000
1644939581342967040,2022-02-15-15:39:41,10.1.1.3,30,-0.020,-0.020,-0.020,0.000,0.000,0.000
1644939581663732992,2022-02-15-15:39:41,10.1.1.3,38,-0.080,-0.080,-0.080,0.000,0.000,0.000
1644939581843419136,2022-02-15-15:39:41,10.1.1.3,12,-0.080,-0.080,-0.080,0.000,0.000,0.000
1644939582023494912,2022-02-15-15:39:42,10.1.1.3,39,-0.050,-0.050,-0.050,0.000,0.000,0.000
1644939582063667968,2022-02-15-15:39:42,10.1.1.3,29,-0.040,-0.040,-0.040,0.000,0.000,0.000
1644939583214854912,2022-02-15-15:39:43,10.1.1.3,39,0.060,0.060,0.060,0.000,0.000,0.000
1644939585324850176,2022-02-15-15:39:45,10.1.1.3,38,0.050,0.050,0.050,0.000,0.000,0.000
1644939585458509056,2022-02-15-15:39:45,10.1.1.3,30,0.070,0.070,0.070,0.000,0.000,0.000
1644939585724230912,2022-02-15-15:39:45,10.1.1.3,29,0.080,0.080,0.080,0.000,0.000,0.000
1644939586154528000,2022-02-15-15:39:46,10.1.1.3,28,0.000,0.000,0.000,0.000,0.000,0.000
1644939586305274880,2022-02-15-15:39:46,10.1.1.3,30,-0.030,-0.030,-0.030,0.000,0.000,0.000
1644939587007718144,2022-02-15-15:39:47,10.1.1.3,3,-0.030,-0.030,-0.030,0.000,0.000,0.000
1644939587447379200,2022-02-15-15:39:47,10.1.1.3,28,0.050,0.050,0.050,0.000,0.000,0.000
1644939587945894912,2022-02-15-15:39:47,10.1.1.3,10,0.050,0.050,0.050,0.000,0.000,0.000
1644939588024791040,2022-02-15-15:39:48,10.1.1.3,38,0.040,0.040,0.040,0.000,0.000,0.000
1644939588424999936,2022-02-15-15:39:48,10.1.1.3,30,-0.040,-0.040,-0.040,0.000,0.000,0.000
1644939589028584960,2022-02-15-15:39:49,10.1.1.3,29,-0.060,-0.060,-0.060,0.000,0.000,0.000
1644939589284745984,2022-02-15-15:39:49,10.1.1.3,29,-0.010,-0.010,-0.010,0.000,0.000,0.000
1644939589698242048,2022-02-15-15:39:49,10.1.1.3,29,0.060,0.060,0.060,0.000,0.000,0.000
1644939589745541120,2022-02-15-15:39:49,10.1.1.3,39,0.070,0.070,0.070,0.000,0.000,0.000
1644939590003537920,2022-02-15-15:39:50,10.1.1.3,29,0.080,0.080,0.080,0.000,0.000,0.000
1644939590487140864,2022-02-15-15:39:50,10.1.1.3,29,-0.010,-0.010,-0.010,0.000,0.000,0.000
1644939590844710144,2022-02-15-15:39:50,10.1.1.3,30,-0.070,-0.070,-0.070,0.000,0.000,0.000
1644939590878125056,2022-02-15-15:39:50,10.1.1.3,-1,-0.070,-0.070,-0.070,0.000,0.000,0.000
1644939591014434048,2022-02-15-15:39:51,10.1.1.3,29,-0.100,-0.100,-0.100,0.000,0.000,0.000
1644939592070971904,2022-02-15-15:39:52,10.1.1.3,30,0.070,0.070,0.070,0.000,0.000,0.000
1644939592484520960,2022-02-15-15:39:52,10.1.1.3,-73,0.070,0.070,0.070,0.000,0.000,0.000
1644939593485284096,2022-02-15-15:39:53,10.1.1.3,29,-0.090,-0.090,-0.090,0.000,0.000,0.000
1644939593545202944,2022-02-15-15:39:53,10.1.1.3,39,-0.080,-0.080,-0.080,0.000,0.000,0.000
1644939593583441920,2022-02-15-15:39:53,10.1.1.3,28,-0.070,-0.070,-0.070,0.000,0.000,0.000
1644939593643956992,2022-02-15-15:39:53,10.1.1.3,38,-0.060,-0.060,-0.060,0.000,0.000,0.000
1644939594267069952,2022-02-15-15:39:54,10.1.1.3,39,0.060,0.060,0.060,0.000,0.000,0.000
1644939594306984960,2022-02-15-15:39:54,10.1.1.3,28,0.070,0.070,0.070,0.000,0.000,0.000
1644939594602739200,2022-02-15-15:39:54,10.1.1.3,23,0.070,0.070,0.070,0.000,0.000,0.000
1644939595083282944,2022-02-15-15:39:55,10.1.1.3,39,-0.020,-0.020,-0.020,0.000,0.000,0.000
1644939595487749120,2022-02-15-15:39:55,10.1.1.3,30,-0.090,-0.090,-0.090,0.000,0.000,0.000
1644939595569331968,2022-02-15-15:39:55,10.1.1.3,6,-0.090,-0.090,-0.090,0.000,0.000,0.000
1644939595746771968,2022-02-15-15:39:55,10.1.1.3,30,-0.060,-0.060,-0.060,0.000,0.000,0.000
1644939596066412800,2022-02-15-15:39:56,10.1.1.3,29,0.000,0.000,0.000,0.000,0.000,0.000
1644939597125442048,2022-02-15-15:39:57,10.1.1.3,25,0.000,0.000,0.000,0.000,0.000,0.000
1644939598148925952,2022-02-15-15:39:58,10.1.1.3,40,-0.010,-0.010,-0.010,0.000,0.000,0.000
1644939598251323904,2022-02-15-15:39:58,10.1.1.3,29,0.010,0.010,0.010,0.000,0.000,0.000
1644939598568784896,2022-02-15-15:39:58,10.1.1.3,38,0.070,0.070,0.070,0.000,0.000,0.000
1644939598865406976,2022-02-15-15:39:58,10.1.1.3,22,0.070,0.070,0.070,0.000,0.000,0.000
1644939599126285056,2022-02-15-15:39:59,10.1.1.3,30,0.020,0.020,0.020,0.000,0.000,0.000
1644939599182995200,2022-02-15-15:39:59,10.1.1.3,38,0.010,0.010,0.010,0.000,0.000,0.000
1644939599683852032,2022-02-15-15:39:59,10.1.1.3,28,-0.090,-0.090,-0.090,0.000,0.000,0.000
1644939599763688192,2022-02-15-15:39:59,10.1.1.3,5,-0.090,-0.090,-0.090,0.000,0.000,0.000
1644939600270714112,2022-02-15-15:40:00,10.1.1.3,39,0.000,0.000,0.000,0.000,0.000,0.000
1644939600563779072,2022-02-15-15:40:00,10.1.1.3,30,0.060,0.060,0.060,0.000,0.000,0.000
1644939600623749888,2022-02-15-15:40:00,10.1.1.3,39,0.070,0.070,0.070,0.000,0.000,0.000
1644939600923453184,2022-02-15-15:40:00,10.1.1.3,10,0.070,0.070,0.070,0.000,0.000,0.000
1644939600997752064,2022-02-15-15:40:00,10.1.1.3,19,0.060,0.060,0.060,0.000,0.000,0.000
1644939601465282048,2022-02-15-15:40:01,10.1.1.3,39,-0.030,-0.030,-0.030,0.000,0.000,0.000
1644939601511437056,2022-02-15-15:40:01,10.1.1.3,28,-0.040,-0.040,-0.040,0.000,0.000,0.000
1644939601543803904,2022-02-15-15:40:01,10.1.1.3,18,-0.050,-0.050,-0.050,0.000,0.000,0.000
1644939602043404032,2022-02-15-15:40:02,10.1.1.3,10,-0.050,-0.050,-0.050,0.000,0.000,0.000
1644939602163098112,2022-02-15-15:40:02,10.1.1.3,28,-0.030,-0.030,-0.030,0.000,0.000,0.000
1644939602625775104,2022-02-15-15:40:02,10.1.1.3,29,0.060,0.060,0.060,0.000,0.000,0.000
1644939603024142080,2022-02-15-15:40:03,10.1.1.3,11,0.060,0.060,0.060,0.000,0.000,0.000
1644939603143644160,2022-02-15-15:40:03,10.1.1.3,29,0.040,0.040,0.040,0.000,0.000,0.000
1644939603503460864,2022-02-15-15:40:03,10.1.1.3,28,-0.030,-0.030,-0.030,0.000,0.000,0.000
1644939604083300096,2022-02-15-15:40:04,10.1.1.3,39,-0.060,-0.060,-0.060,0.000,0.000,0.000
1644939604126870016,2022-02-15-15:40:04,10.1.1.3,28,-0.050,-0.050,-0.050,0.000,0.000,0.000
1644939604944135936,2022-02-15-15:40:04,10.1.1.3,29,0.090,0.090,0.090,0.000,0.000,0.000
1644939605203674112,2022-02-15-15:40:05,10.1.1.3,29,0.040,0.040,0.040,0.000,0.000,0.000
1644939605265427968,2022-02-15-15:40:05,10.1.1.3,39,0.030,0.030,0.030,0.000,0.000,0.000
1644939605663937024,2022-02-15-15:40:05,10.1.1.3,29,-0.050,-0.050,-0.050,0.000,0.000,0.000
1644939606164952064,2022-02-15-15:40:06,10.1.1.3,15,-0.050,-0.050,-0.050,0.000,0.000,0.000
1644939606383625984,2022-02-15-15:40:06,10.1.1.3,30,-0.010,-0.010,-0.010,0.000,0.000,0.000
1644939606444691968,2022-02-15-15:40:06,10.1.1.3,39,0.000,0.000,0.000,0.000,0.000,0.000
1644939607463265024,2022-02-15-15:40:07,10.1.1.3,21,0.000,0.000,0.000,0.000,0.000,0.000
1644939607984343040,2022-02-15-15:40:07,10.1.1.3,29,-0.100,-0.100,-0.100,0.000,0.000,0.000
1644939608045337088,2022-02-15-15:40:08,10.1.1.3,38,-0.090,-0.090,-0.090,0.000,0.000,0.000
1644939608243977984,2022-02-15-15:40:08,10.1.1.3,29,-0.050,-0.050,-0.050,0.000,0.000,0.000
1644939608443337984,2022-02-15-15:40:08,10.1.1.3,20,-0.010,-0.010,-0.010,0.000,0.000,0.000
1644939608503292928,2022-02-15-15:40:08,10.1.1.3,29,0.000,0.000,0.000,0.000,0.000,0.000
1644939608823873024,2022-02-15-15:40:08,10.1.1.3,40,0.060,0.060,0.060,0.000,0.000,0.000
1644939609224037888,2022-02-15-15:40:09,10.1.1.3,11,0.060,0.060,0.060,0.000,0.000,0.000
1644939609784514048,2022-02-15-15:40:09,10.1.1.3,39,-0.040,-0.040,-0.040,0.000,0.000,0.000
1644939610365356800,2022-02-15-15:40:10,10.1.1.3,12,-0.040,-0.040,-0.040,0.000,0.000,0.000
1644939610544826112,2022-02-15-15:40:10,10.1.1.3,31,-0.010,-0.010,-0.010,0.000,0.000,0.000
1644939611003271936,2022-02-15-15:40:11,10.1.1.3,29,0.080,0.080,0.080,0.000,0.000,0.000
1644939611063538944,2022-02-15-15:40:11,10.1.1.3,39,0.090,0.090,0.090,0.000,0.000,0.000
1644939611103060992,2022-02-15-15:40:11,10.1.1.3,28,0.100,0.100,0.100,0.000,0.000,0.000
1644939611164877056,2022-02-15-15:40:11,10.1.1.3,39,0.090,0.090,0.090,0.000,0.000,0.000
1644939611563214080,2022-02-15-15:40:11,10.1.1.3,30,0.010,0.010,0.010,0.000,0.000,0.000
1644939611663563008,2022-02-15-15:40:11,10.1.1.3,29,-0.010,-0.010,-0.010,0.000,0.000,0.000
1644939612562979072,2022-02-15-15:40:12,10.1.1.3,11,-0.010,-0.010,-0.010,0.000,0.000,0.000
1644939612643309056,2022-02-15-15:40:12,10.1.1.3,39,0.000,0.000,0.000,0.000,0.000,0.000
1644939612683425024,2022-02-15-15:40:12,10.1.1.3,29,0.010,0.010,0.010,0.000,0.000,0.000
1644939612743536896,2022-02-15-15:40:12,10.1.1.3,38,0.020,0.020,0.020,0.000,0.000,0.000
1644939613308197888,2022-02-15-15:40:13,10.1.1.3,39,0.070,0.070,0.070,0.000,0.000,0.000
1644939614123783168,2022-02-15-15:40:14,10.1.1.3,39,-0.090,-0.090,-0.090,0.000,0.000,0.000
1644939614203488000,2022-02-15-15:40:14,10.1.1.3,16,-0.090,-0.090,-0.090,0.000,0.000,0.000
1644939614583777024,2022-02-15-15:40:14,10.1.1.3,29,-0.020,-0.020,-0.020,0.000,0.000,0.000
1644939615203567104,2022-02-15-15:40:15,10.1.1.3,39,0.100,0.100,0.100,0.000,0.000,0.000
1644939615243746048,2022-02-15-15:40:15,10.1.1.3,28,0.090,0.090,0.090,0.000,0.000,0.000
1644939618052496896,2022-02-15-15:40:16,10.1.1.3,38,-0.070,-0.070,-0.070,0.000,0.000,0.000
1644939618182627840,2022-02-15-15:40:18,10.1.1.3,30,-0.100,-0.100,-0.100,0.000,0.000,0.000
1644939618242700032,2022-02-15-15:40:18,10.1.1.3,39,-0.090,-0.090,-0.090,0.000,0.000,0.000
1644939618283474944,2022-02-15-15:40:18,10.1.1.3,28,-0.080,-0.080,-0.080,0.000,0.000,0.000
1644939618905533952,2022-02-15-15:40:18,10.1.1.3,40,0.040,0.040,0.040,0.000,0.000,0.000
1644939618943130880,2022-02-15-15:40:18,10.1.1.3,29,0.050,0.050,0.050,0.000,0.000,0.000
1644939619003428864,2022-02-15-15:40:19,10.1.1.3,38,0.060,0.060,0.060,0.000,0.000,0.000
1644939619384588032,2022-02-15-15:40:19,10.1.1.3,5,0.060,0.060,0.060,0.000,0.000,0.000
1644939619763483904,2022-02-15-15:40:19,10.1.1.3,29,-0.010,-0.010,-0.010,0.000,0.000,0.000
1644939620203921920,2022-02-15-15:40:20,10.1.1.3,38,-0.090,-0.090,-0.090,0.000,0.000,0.000
1644939620283166976,2022-02-15-15:40:20,10.1.1.3,15,-0.090,-0.090,-0.090,0.000,0.000,0.000
1644939620463512064,2022-02-15-15:40:20,10.1.1.3,39,-0.060,-0.060,-0.060,0.000,0.000,0.000
1644939621983566080,2022-02-15-15:40:21,10.1.1.3,30,-0.040,-0.040,-0.040,0.000,0.000,0.000
1644939622044205824,2022-02-15-15:40:22,10.1.1.3,39,-0.050,-0.050,-0.050,0.000,0.000,0.000
1644939622083599104,2022-02-15-15:40:22,10.1.1.3,28,-0.060,-0.060,-0.060,0.000,0.000,0.000
1644939622143623168,2022-02-15-15:40:22,10.1.1.3,38,-0.070,-0.070,-0.070,0.000,0.000,0.000
1644939622435144960,2022-02-15-15:40:22,10.1.1.3,14,-0.070,-0.070,-0.070,0.000,0.000,0.000
1644939622903079936,2022-02-15-15:40:22,10.1.1.3,29,0.020,0.020,0.020,0.000,0.000,0.000
1644939622963787008,2022-02-15-15:40:22,10.1.1.3,38,0.030,0.030,0.030,0.000,0.000,0.000
1644939623463991040,2022-02-15-15:40:23,10.1.1.3,31,0.070,0.070,0.070,0.000,0.000,0.000
1644939623568413952,2022-02-15-15:40:23,10.1.1.3,29,0.050,0.050,0.050,0.000,0.000,0.000
1644939623627468032,2022-02-15-15:40:23,10.1.1.3,39,0.040,0.040,0.040,0.000,0.000,0.000
1644939624383361024,2022-02-15-15:40:24,10.1.1.3,39,-0.090,-0.090,-0.090,0.000,0.000,0.000
1644939624423939840,2022-02-15-15:40:24,10.1.1.3,29,-0.080,-0.080,-0.080,0.000,0.000,0.000
1644939624483938816,2022-02-15-15:40:24,10.1.1.3,38,-0.070,-0.070,-0.070,0.000,0.000,0.000
1644939624523960064,2022-02-15-15:40:24,10.1.1.3,28,-0.060,-0.060,-0.060,0.000,0.000,0.000
1644939624848656896,2022-02-15-15:40:24,10.1.1.3,39,0.000,0.000,0.000,0.000,0.000,0.000
1644939624883832064,2022-02-15-15:40:24,10.1.1.3,28,0.010,0.010,0.010,0.000,0.000,0.000
1644939625305978112,2022-02-15-15:40:25,10.1.1.3,39,0.090,0.090,0.090,0.000,0.000,0.000
1644939625385831168,2022-02-15-15:40:25,10.1.1.3,17,0.090,0.090,0.090,0.000,0.000,0.000
1644939625605778944,2022-02-15-15:40:25,10.1.1.3,30,0.050,0.050,0.050,0.000,0.000,0.000
1644939626097443072,2022-02-15-15:40:26,10.1.1.3,30,-0.040,-0.040,-0.040,0.000,0.000,0.000
1644939626443516928,2022-02-15-15:40:26,10.1.1.3,29,-0.090,-0.090,-0.090,0.000,0.000,0.000
1644939626503577088,2022-02-15-15:40:26,10.1.1.3,38,-0.080,-0.080,-0.080,0.000,0.000,0.000
1644939626865433088,2022-02-15-15:40:26,10.1.1.3,38,-0.010,-0.010,-0.010,0.000,0.000,0.000
1644939627024091904,2022-02-15-15:40:27,10.1.1.3,39,0.020,0.020,0.020,0.000,0.000,0.000
1644939627528291840,2022-02-15-15:40:27,10.1.1.3,30,0.080,0.080,0.080,0.000,0.000,0.000
1644939627589533184,2022-02-15-15:40:27,10.1.1.3,38,0.070,0.070,0.070,0.000,0.000,0.000
1644939628343372032,2022-02-15-15:40:28,10.1.1.3,29,-0.080,-0.080,-0.080,0.000,0.000,0.000
1644939628524899840,2022-02-15-15:40:28,10.1.1.3,5,-0.080,-0.080,-0.080,0.000,0.000,0.000
1644939629263292928,2022-02-15-15:40:29,10.1.1.3,29,0.060,0.060,0.060,0.000,0.000,0.000
1644939629325228032,2022-02-15-15:40:29,10.1.1.3,38,0.070,0.070,0.070,0.000,0.000,0.000
1644939629603300096,2022-02-15-15:40:29,10.1.1.3,13,0.070,0.070,0.070,0.000,0.000,0.000
1644939629923311872,2022-02-15-15:40:29,10.1.1.3,28,0.010,0.010,0.010,0.000,0.000,0.000
1644939630552440832,2022-02-15-15:40:30,10.1.1.3,29,-0.090,-0.090,-0.090,0.000,0.000,0.000
1644939630763283968,2022-02-15-15:40:30,10.1.1.3,29,-0.050,-0.050,-0.050,0.000,0.000,0.000
1644939631164078080,2022-02-15-15:40:31,10.1.1.3,39,0.020,0.020,0.020,0.000,0.000,0.000
1644939631863298816,2022-02-15-15:40:31,10.1.1.3,19,0.040,0.040,0.040,0.000,0.000,0.000
1644939631923419904,2022-02-15-15:40:31,10.1.1.3,29,0.030,0.030,0.030,0.000,0.000,0.000
1644939631983456000,2022-02-15-15:40:31,10.1.1.3,38,0.020,0.020,0.020,0.000,0.000,0.000
1644939632623212032,2022-02-15-15:40:32,10.1.1.3,39,-0.100,-0.100,-0.100,0.000,0.000,0.000
1644939632864576000,2022-02-15-15:40:32,10.1.1.3,19,-0.050,-0.050,-0.050,0.000,0.000,0.000
1644939633623200000,2022-02-15-15:40:33,10.1.1.3,29,0.080,0.080,0.080,0.000,0.000,0.000
1644939633683165184,2022-02-15-15:40:33,10.1.1.3,38,0.090,0.090,0.090,0.000,0.000,0.000
1644939633763098880,2022-02-15-15:40:33,10.1.1.3,11,0.090,0.090,0.090,0.000,0.000,0.000
1644939634003691008,2022-02-15-15:40:34,10.1.1.3,39,0.050,0.050,0.050,0.000,0.000,0.000
1644939634442893056,2022-02-15-15:40:34,10.1.1.3,29,-0.030,-0.030,-0.030,0.000,0.000,0.000
1644939634503350016,2022-02-15-15:40:34,10.1.1.3,39,-0.040,-0.040,-0.040,0.000,0.000,0.000
1644939634543177984,2022-02-15-15:40:34,10.1.1.3,29,-0.050,-0.050,-0.050,0.000,0.000,0.000
1644939635003275008,2022-02-15-15:40:35,10.1.1.3,29,-0.060,-0.060,-0.060,0.000,0.000,0.000
1644939635262846976,2022-02-15-15:40:35,10.1.1.3,29,-0.010,-0.010,-0.010,0.000,0.000,0.000
1644939636225042944,2022-02-15-15:40:36,10.1.1.3,28,0.030,0.030,0.030,0.000,0.000,0.000
1644939636292007936,2022-02-15-15:40:36,10.1.1.3,38,0.020,0.020,0.020,0.000,0.000,0.000
1644939636586018048,2022-02-15-15:40:36,10.1.1.3,29,-0.030,-0.030,-0.030,0.000,0.000,0.000
1644939637404077056,2022-02-15-15:40:37,10.1.1.3,24,-0.030,-0.030,-0.030,0.000,0.000,0.000
1644939637702985984,2022-02-15-15:40:37,10.1.1.3,29,0.020,0.020,0.020,0.000,0.000,0.000
1644939638283799808,2022-02-15-15:40:38,10.1.1.3,38,0.070,0.070,0.070,0.000,0.000,0.000
1644939638772088064,2022-02-15-15:40:38,10.1.1.3,38,-0.020,-0.020,-0.020,0.000,0.000,0.000
1644939638902638080,2022-02-15-15:40:38,10.1.1.3,28,-0.040,-0.040,-0.040,0.000,0.000,0.000
1644939639523596032,2022-02-15-15:40:39,10.1.1.3,11,-0.040,-0.040,-0.040,0.000,0.000,0.000
1644939639648099840,2022-02-15-15:40:39,10.1.1.3,30,-0.020,-0.020,-0.020,0.000,0.000,0.000
1644939639703516928,2022-02-15-15:40:39,10.1.1.3,39,-0.010,-0.010,-0.010,0.000,0.000,0.000
1644939639753384192,2022-02-15-15:40:39,10.1.1.3,28,-0.000,-0.000,-0.000,0.000,0.000,0.000
1644939640959248128,2022-02-15-15:40:40,10.1.1.3,2,-0.000,-0.000,-0.000,0.000,0.000,0.000
1644939641603354880,2022-02-15-15:40:41,10.1.1.3,39,-0.080,-0.080,-0.080,0.000,0.000,0.000
1644939642047557120,2022-02-15-15:40:42,10.1.1.3,29,0.000,0.000,0.000,0.000,0.000,0.000
1644939642385852160,2022-02-15-15:40:42,10.1.1.3,39,0.060,0.060,0.060,0.000,0.000,0.000
1644939642643557120,2022-02-15-15:40:42,10.1.1.3,39,0.090,0.090,0.090,0.000,0.000,0.000
1644939642683990016,2022-02-15-15:40:42,10.1.1.3,29,0.080,0.080,0.080,0.000,0.000,0.000
1644939643087762944,2022-02-15-15:40:43,10.1.1.3,39,0.010,0.010,0.010,0.000,0.000,0.000
1644939643243185920,2022-02-15-15:40:43,10.1.1.3,39,-0.020,-0.020,-0.020,0.000,0.000,0.000
1644939643300765952,2022-02-15-15:40:43,10.1.1.3,29,-0.030,-0.030,-0.030,0.000,0.000,0.000
1644939644004033024,2022-02-15-15:40:44,10.1.1.3,9,-0.030,-0.030,-0.030,0.000,0.000,0.000
1644939645245651968,2022-02-15-15:40:44,10.1.1.3,27,0.070,0.070,0.070,0.000,0.000,0.000
1644939645326940928,2022-02-15-15:40:45,10.1.1.3,30,0.090,0.090,0.090,0.000,0.000,0.000
1644939645403734016,2022-02-15-15:40:45,10.1.1.3,5,0.090,0.090,0.090,0.000,0.000,0.000
1644939645546753024,2022-02-15-15:40:45,10.1.1.3,40,0.070,0.070,0.070,0.000,0.000,0.000
1644939645583298048,2022-02-15-15:40:45,10.1.1.3,29,0.060,0.060,0.060,0.000,0.000,0.000
1644939645803538944,2022-02-15-15:40:45,10.1.1.3,39,0.020,0.020,0.020,0.000,0.000,0.000
1644939645843060992,2022-02-15-15:40:45,10.1.1.3,28,0.010,0.010,0.010,0.000,0.000,0.000
1644939646003518208,2022-02-15-15:40:46,10.1.1.3,28,-0.020,-0.020,-0.020,0.000,0.000,0.000
1644939646567964160,2022-02-15-15:40:46,10.1.1.3,29,-0.080,-0.080,-0.080,0.000,0.000,0.000
1644939646923650048,2022-02-15-15:40:46,10.1.1.3,19,-0.010,-0.010,-0.010,0.000,0.000,0.000
1644939646983746048,2022-02-15-15:40:46,10.1.1.3,29,0.000,0.000,0.000,0.000,0.000,0.000
1644939647952167936,2022-02-15-15:40:47,10.1.1.3,30,0.020,0.020,0.020,0.000,0.000,0.000
1644939648323406080,2022-02-15-15:40:48,10.1.1.3,40,-0.040,-0.040,-0.040,0.000,0.000,0.000
1644939648363085056,2022-02-15-15:40:48,10.1.1.3,29,-0.050,-0.050,-0.050,0.000,0.000,0.000
1644939648424568832,2022-02-15-15:40:48,10.1.1.3,38,-0.060,-0.060,-0.060,0.000,0.000,0.000
1644939648803208192,2022-02-15-15:40:48,10.1.1.3,13,-0.060,-0.060,-0.060,0.000,0.000,0.000
1644939649022983936,2022-02-15-15:40:49,10.1.1.3,28,-0.020,-0.020,-0.020,0.000,0.000,0.000
1644939649483488000,2022-02-15-15:40:49,10.1.1.3,29,0.070,0.070,0.070,0.000,0.000,0.000
1644939649543236864,2022-02-15-15:40:49,10.1.1.3,39,0.080,0.080,0.080,0.000,0.000,0.000
1644939649723355904,2022-02-15-15:40:49,10.1.1.3,15,0.080,0.080,0.080,0.000,0.000,0.000
1644939649983522816,2022-02-15-15:40:49,10.1.1.3,20,0.030,0.030,0.030,0.000,0.000,0.000
1644939650044846080,2022-02-15-15:40:50,10.1.1.3,29,0.020,0.020,0.020,0.000,0.000,0.000
1644939650683638016,2022-02-15-15:40:50,10.1.1.3,39,-0.100,-0.100,-0.100,0.000,0.000,0.000
1644939651084933120,2022-02-15-15:40:51,10.1.1.3,29,-0.020,-0.020,-0.020,0.000,0.000,0.000
1644939651983258880,2022-02-15-15:40:51,10.1.1.3,39,0.050,0.050,0.050,0.000,0.000,0.000
1644939652023953920,2022-02-15-15:40:52,10.1.1.3,29,0.040,0.040,0.040,0.000,0.000,0.000
1644939652342678016,2022-02-15-15:40:52,10.1.1.3,39,-0.020,-0.020,-0.020,0.000,0.000,0.000
1644939652383049984,2022-02-15-15:40:52,10.1.1.3,29,-0.030,-0.030,-0.030,0.000,0.000,0.000
1644939652446106880,2022-02-15-15:40:52,10.1.1.3,38,-0.040,-0.040,-0.040,0.000,0.000,0.000
1644939653048022016,2022-02-15-15:40:53,10.1.1.3,8,-0.040,-0.040,-0.040,0.000,0.000,0.000
1644939653341159168,2022-02-15-15:40:53,10.1.1.3,30,0.010,0.010,0.010,0.000,0.000,0.000
1644939653583843072,2022-02-15-15:40:53,10.1.1.3,30,0.060,0.060,0.060,0.000,0.000,0.000
1644939653686909952,2022-02-15-15:40:53,10.1.1.3,29,0.080,0.080,0.080,0.000,0.000,0.000
1644939653865753856,2022-02-15-15:40:53,10.1.1.3,5,0.080,0.080,0.080,0.000,0.000,0.000
1644939654785285888,2022-02-15-15:40:54,10.1.1.3,29,-0.080,-0.080,-0.080,0.000,0.000,0.000
1644939654905498112,2022-02-15-15:40:54,10.1.1.3,28,-0.100,-0.100,-0.100,0.000,0.000,0.000
1644939655064062208,2022-02-15-15:40:55,10.1.1.3,29,-0.070,-0.070,-0.070,0.000,0.000,0.000
1644939655124252928,2022-02-15-15:40:55,10.1.1.3,39,-0.060,-0.060,-0.060,0.000,0.000,0.000
1644939656343578112,2022-02-15-15:40:56,10.1.1.3,30,0.020,0.020,0.020,0.000,0.000,0.000
1644939656904833024,2022-02-15-15:40:56,10.1.1.3,30,-0.090,-0.090,-0.090,0.000,0.000,0.000
1644939656985178880,2022-02-15-15:40:56,10.1.1.3,7,-0.090,-0.090,-0.090,0.000,0.000,0.000
1644939657363368960,2022-02-15-15:40:57,10.1.1.3,29,-0.020,-0.020,-0.020,0.000,0.000,0.000
1644939657465369856,2022-02-15-15:40:57,10.1.1.3,28,0.000,0.000,0.000,0.000,0.000,0.000
1644939657884046080,2022-02-15-15:40:57,10.1.1.3,29,0.080,0.080,0.080,0.000,0.000,0.000
1644939658100997888,2022-02-15-15:40:58,10.1.1.3,21,0.080,0.080,0.080,0.000,0.000,0.000
1644939658265423104,2022-02-15-15:40:58,10.1.1.3,30,0.050,0.050,0.050,0.000,0.000,0.000
1644939658323152128,2022-02-15-15:40:58,10.1.1.3,38,0.040,0.040,0.040,0.000,0.000,0.000
1644939659812992000,2022-02-15-15:40:59,10.1.1.3,14,0.040,0.040,0.040,0.000,0.000,0.000
1644939660444064000,2022-02-15-15:41:00,10.1.1.3,21,0.040,0.040,0.040,0.000,0.000,0.000
1644939660503362816,2022-02-15-15:41:00,10.1.1.3,30,0.030,0.030,0.030,0.000,0.000,0.000
1644939660745040896,2022-02-15-15:41:00,10.1.1.3,40,-0.010,-0.010,-0.010,0.000,0.000,0.000
1644939660783969024,2022-02-15-15:41:00,10.1.1.3,28,-0.020,-0.020,-0.020,0.000,0.000,0.000
1644939660824409856,2022-02-15-15:41:00,10.1.1.3,19,-0.030,-0.030,-0.030,0.000,0.000,0.000
1644939661204018176,2022-02-15-15:41:01,10.1.1.3,38,-0.100,-0.100,-0.100,0.000,0.000,0.000
1644939662023004160,2022-02-15-15:41:02,10.1.1.3,28,0.060,0.060,0.060,0.000,0.000,0.000
1644939662424529152,2022-02-15-15:41:02,10.1.1.3,24,0.060,0.060,0.060,0.000,0.000,0.000
1644939662624370944,2022-02-15-15:41:02,10.1.1.3,20,0.020,0.020,0.020,0.000,0.000,0.000
1644939662686857984,2022-02-15-15:41:02,10.1.1.3,30,0.010,0.010,0.010,0.000,0.000,0.000
1644939663920516864,2022-02-15-15:41:03,10.1.1.3,39,-0.060,-0.060,-0.060,0.000,0.000,0.000
1644939664503313920,2022-02-15-15:41:04,10.1.1.3,29,0.060,0.060,0.060,0.000,0.000,0.000
1644939664563996160,2022-02-15-15:41:04,10.1.1.3,39,0.070,0.070,0.070,0.000,0.000,0.000
1644939664843354880,2022-02-15-15:41:04,10.1.1.3,15,0.070,0.070,0.070,0.000,0.000,0.000
1644939666343578112,2022-02-15-15:41:06,10.1.1.3,20,0.020,0.020,0.020,0.000,0.000,0.000
1644939667143888896,2022-02-15-15:41:07,10.1.1.3,9,0.020,0.020,0.020,0.000,0.000,0.000
1644939667224131072,2022-02-15-15:41:07,10.1.1.3,39,0.010,0.010,0.010,0.000,0.000,0.000
1644939668046917888,2022-02-15-15:41:08,10.1.1.3,30,-0.050,-0.050,-0.050,0.000,0.000,0.000
1644939668103732992,2022-02-15-15:41:08,10.1.1.3,39,-0.040,-0.040,-0.040,0.000,0.000,0.000
1644939668143747072,2022-02-15-15:41:08,10.1.1.3,28,-0.030,-0.030,-0.030,0.000,0.000,0.000
1644939668204428800,2022-02-15-15:41:08,10.1.1.3,38,-0.020,-0.020,-0.020,0.000,0.000,0.000
1644939668705647104,2022-02-15-15:41:08,10.1.1.3,28,0.080,0.080,0.080,0.000,0.000,0.000
1644939668922537984,2022-02-15-15:41:08,10.1.1.3,7,0.080,0.080,0.080,0.000,0.000,0.000
1644939669163502848,2022-02-15-15:41:09,10.1.1.3,29,0.040,0.040,0.040,0.000,0.000,0.000
1644939670104037888,2022-02-15-15:41:10,10.1.1.3,39,-0.060,-0.060,-0.060,0.000,0.000,0.000
1644939671505330176,2022-02-15-15:41:11,10.1.1.3,28,0.010,0.010,0.010,0.000,0.000,0.000
1644939672003568896,2022-02-15-15:41:12,10.1.1.3,29,-0.080,-0.080,-0.080,0.000,0.000,0.000
1644939672184632064,2022-02-15-15:41:12,10.1.1.3,7,-0.080,-0.080,-0.080,0.000,0.000,0.000
1644939672862976000,2022-02-15-15:41:12,10.1.1.3,29,0.050,0.050,0.050,0.000,0.000,0.000
1644939673283133952,2022-02-15-15:41:13,10.1.1.3,30,0.070,0.070,0.070,0.000,0.000,0.000
1644939673350425856,2022-02-15-15:41:13,10.1.1.3,39,0.060,0.060,0.060,0.000,0.000,0.000
1644939674143578880,2022-02-15-15:41:14,10.1.1.3,30,-0.100,-0.100,-0.100,0.000,0.000,0.000
1644939674570120960,2022-02-15-15:41:14,10.1.1.3,39,-0.020,-0.020,-0.020,0.000,0.000,0.000
1644939675383106048,2022-02-15-15:41:15,10.1.1.3,29,0.060,0.060,0.060,0.000,0.000,0.000
1644939675443070976,2022-02-15-15:41:15,10.1.1.3,38,0.050,0.050,0.050,0.000,0.000,0.000
1644939675484190976,2022-02-15-15:41:15,10.1.1.3,28,0.040,0.040,0.040,0.000,0.000,0.000
1644939676543144960,2022-02-15-15:41:16,10.1.1.3,40,-0.050,-0.050,-0.050,0.000,0.000,0.000
1644939676583164928,2022-02-15-15:41:16,10.1.1.3,29,-0.040,-0.040,-0.040,0.000,0.000,0.000
1644939676643595008,2022-02-15-15:41:16,10.1.1.3,39,-0.030,-0.030,-0.030,0.000,0.000,0.000
1644939676682845952,2022-02-15-15:41:16,10.1.1.3,28,-0.020,-0.020,-0.020,0.000,0.000,0.000
1644939677203355136,2022-02-15-15:41:17,10.1.1.3,38,0.080,0.080,0.080,0.000,0.000,0.000
1644939677384310016,2022-02-15-15:41:17,10.1.1.3,12,0.080,0.080,0.080,0.000,0.000,0.000
1644939677925067008,2022-02-15-15:41:17,10.1.1.3,30,-0.020,-0.020,-0.020,0.000,0.000,0.000
1644939678383654144,2022-02-15-15:41:18,10.1.1.3,29,-0.090,-0.090,-0.090,0.000,0.000,0.000
1644939679652150016,2022-02-15-15:41:19,10.1.1.3,39,0.050,0.050,0.050,0.000,0.000,0.000
1644939679683463168,2022-02-15-15:41:19,10.1.1.3,28,0.040,0.040,0.040,0.000,0.000,0.000
1644939680342991104,2022-02-15-15:41:20,10.1.1.3,30,-0.090,-0.090,-0.090,0.000,0.000,0.000
1644939680429116928,2022-02-15-15:41:20,10.1.1.3,2,-0.090,-0.090,-0.090,0.000,0.000,0.000
1644939680777605888,2022-02-15-15:41:20,10.1.1.3,29,-0.030,-0.030,-0.030,0.000,0.000,0.000
1644939681103656960,2022-02-15-15:41:21,10.1.1.3,39,0.020,0.020,0.020,0.000,0.000,0.000
1644939681303726848,2022-02-15-15:41:21,10.1.1.3,29,0.060,0.060,0.060,0.000,0.000,0.000
1644939681625293056,2022-02-15-15:41:21,10.1.1.3,39,0.080,0.080,0.080,0.000,0.000,0.000
1644939681823577856,2022-02-15-15:41:21,10.1.1.3,30,0.040,0.040,0.040,0.000,0.000,0.000
1644939682948227840,2022-02-15-15:41:22,10.1.1.3,29,-0.030,-0.030,-0.030,0.000,0.000,0.000
1644939683003382016,2022-02-15-15:41:23,10.1.1.3,38,-0.020,-0.020,-0.020,0.000,0.000,0.000
1644939683463397120,2022-02-15-15:41:23,10.1.1.3,29,0.070,0.070,0.070,0.000,0.000,0.000
1644939683623560960,2022-02-15-15:41:23,10.1.1.3,29,0.100,0.100,0.100,0.000,0.000,0.000
1644939683842803968,2022-02-15-15:41:23,10.1.1.3,30,0.060,0.060,0.060,0.000,0.000,0.000
1644939684144696832,2022-02-15-15:41:24,10.1.1.3,19,0.000,0.000,0.000,0.000,0.000,0.000
1644939684466077184,2022-02-15-15:41:24,10.1.1.3,29,-0.060,-0.060,-0.060,0.000,0.000,0.000
1644939684863467008,2022-02-15-15:41:24,10.1.1.3,11,-0.060,-0.060,-0.060,0.000,0.000,0.000
1644939685043342080,2022-02-15-15:41:25,10.1.1.3,39,-0.030,-0.030,-0.030,0.000,0.000,0.000
1644939685084014848,2022-02-15-15:41:25,10.1.1.3,29,-0.020,-0.020,-0.020,0.000,0.000,0.000
1644939686002301952,2022-02-15-15:41:25,10.1.1.3,38,0.070,0.070,0.070,0.000,0.000,0.000
1644939686183630080,2022-02-15-15:41:26,10.1.1.3,29,0.030,0.030,0.030,0.000,0.000,0.000
1644939687203539968,2022-02-15-15:41:27,10.1.1.3,29,-0.030,-0.030,-0.030,0.000,0.000,0.000
1644939687265228032,2022-02-15-15:41:27,10.1.1.3,39,-0.020,-0.020,-0.020,0.000,0.000,0.000
1644939687865118976,2022-02-15-15:41:27,10.1.1.3,29,0.100,0.100,0.100,0.000,0.000,0.000
1644939688243352064,2022-02-15-15:41:28,10.1.1.3,28,0.030,0.030,0.030,0.000,0.000,0.000
1644939688624439040,2022-02-15-15:41:28,10.1.1.3,39,-0.040,-0.040,-0.040,0.000,0.000,0.000
1644939689209465856,2022-02-15-15:41:29,10.1.1.3,6,-0.040,-0.040,-0.040,0.000,0.000,0.000
1644939690643393024,2022-02-15-15:41:30,10.1.1.3,28,-0.020,-0.020,-0.020,0.000,0.000,0.000
1644939691523209216,2022-02-15-15:41:31,10.1.1.3,17,-0.020,-0.020,-0.020,0.000,0.000,0.000
1644939692183465984,2022-02-15-15:41:32,10.1.1.3,29,0.100,0.100,0.100,0.000,0.000,0.000
1644939692442498816,2022-02-15-15:41:32,10.1.1.3,38,0.060,0.060,0.060,0.000,0.000,0.000
1644939692798194944,2022-02-15-15:41:32,10.1.1.3,29,0.020,0.020,0.020,0.000,0.000,0.000
1644939692914684928,2022-02-15-15:41:32,10.1.1.3,29,0.000,0.000,0.000,0.000,0.000,0.000
1644939692970134016,2022-02-15-15:41:32,10.1.1.3,38,-0.010,-0.010,-0.010,0.000,0.000,0.000
1644939693122924032,2022-02-15-15:41:33,10.1.1.3,39,-0.040,-0.040,-0.040,0.000,0.000,0.000
1644939693162776064,2022-02-15-15:41:33,10.1.1.3,29,-0.050,-0.050,-0.050,0.000,0.000,0.000
1644939693666354944,2022-02-15-15:41:33,10.1.1.3,5,-0.050,-0.050,-0.050,0.000,0.000,0.000
1644939694463452160,2022-02-15-15:41:34,10.1.1.3,30,0.100,0.100,0.100,0.000,0.000,0.000
1644939694524951040,2022-02-15-15:41:34,10.1.1.3,40,0.090,0.090,0.090,0.000,0.000,0.000
1644939695345280000,2022-02-15-15:41:35,10.1.1.3,29,-0.070,-0.070,-0.070,0.000,0.000,0.000
1644939695643749888,2022-02-15-15:41:35,10.1.1.3,25,-0.070,-0.070,-0.070,0.000,0.000,0.000
1644939697503473920,2022-02-15-15:41:37,10.1.1.3,10,-0.070,-0.070,-0.070,0.000,0.000,0.000
1644939697864859136,2022-02-15-15:41:37,10.1.1.3,24,-0.070,-0.070,-0.070,0.000,0.000,0.000
1644939698305754880,2022-02-15-15:41:38,10.1.1.3,29,-0.010,-0.010,-0.010,0.000,0.000,0.000
1644939699131855104,2022-02-15-15:41:39,10.1.1.3,21,0.050,0.050,0.050,0.000,0.000,0.000
1644939699183457024,2022-02-15-15:41:39,10.1.1.3,29,0.040,0.040,0.040,0.000,0.000,0.000
1644939699803631104,2022-02-15-15:41:39,10.1.1.3,39,-0.080,-0.080,-0.080,0.000,0.000,0.000
1644939699984900864,2022-02-15-15:41:39,10.1.1.3,9,-0.080,-0.080,-0.080,0.000,0.000,0.000
1644939700891014144,2022-02-15-15:41:40,10.1.1.3,29,0.060,0.060,0.060,0.000,0.000,0.000
1644939701263190016,2022-02-15-15:41:41,10.1.1.3,14,0.060,0.060,0.060,0.000,0.000,0.000
1644939701483543040,2022-02-15-15:41:41,10.1.1.3,30,0.020,0.020,0.020,0.000,0.000,0.000
1644939701805231104,2022-02-15-15:41:41,10.1.1.3,28,-0.040,-0.040,-0.040,0.000,0.000,0.000
1644939701963260928,2022-02-15-15:41:41,10.1.1.3,29,-0.070,-0.070,-0.070,0.000,0.000,0.000
1644939702283577856,2022-02-15-15:41:42,10.1.1.3,20,-0.070,-0.070,-0.070,0.000,0.000,0.000
1644939702343381760,2022-02-15-15:41:42,10.1.1.3,29,-0.060,-0.060,-0.060,0.000,0.000,0.000
1644939702407635968,2022-02-15-15:41:42,10.1.1.3,39,-0.050,-0.050,-0.050,0.000,0.000,0.000
1644939703244889088,2022-02-15-15:41:43,10.1.1.3,19,0.100,0.100,0.100,0.000,0.000,0.000
1644939703295390976,2022-02-15-15:41:43,10.1.1.3,28,0.090,0.090,0.090,0.000,0.000,0.000
1644939704426341120,2022-02-15-15:41:44,10.1.1.3,29,-0.050,-0.050,-0.050,0.000,0.000,0.000
1644939704523458048,2022-02-15-15:41:44,10.1.1.3,39,-0.070,-0.070,-0.070,0.000,0.000,0.000
1644939704806188032,2022-02-15-15:41:44,10.1.1.3,15,-0.070,-0.070,-0.070,0.000,0.000,0.000
1644939705325062912,2022-02-15-15:41:45,10.1.1.3,30,0.030,0.030,0.030,0.000,0.000,0.000
1644939705384551936,2022-02-15-15:41:45,10.1.1.3,39,0.040,0.040,0.040,0.000,0.000,0.000
1644939705422971904,2022-02-15-15:41:45,10.1.1.3,28,0.050,0.050,0.050,0.000,0.000,0.000
1644939705884371968,2022-02-15-15:41:45,10.1.1.3,30,0.060,0.060,0.060,0.000,0.000,0.000
1644939705943703808,2022-02-15-15:41:45,10.1.1.3,39,0.050,0.050,0.050,0.000,0.000,0.000
1644939706157191936,2022-02-15-15:41:46,10.1.1.3,29,0.010,0.010,0.010,0.000,0.000,0.000
1644939706886359040,2022-02-15-15:41:46,10.1.1.3,30,-0.100,-0.100,-0.100,0.000,0.000,0.000
1644939707316967936,2022-02-15-15:41:47,10.1.1.3,30,-0.020,-0.020,-0.020,0.000,0.000,0.000
1644939707841532928,2022-02-15-15:41:47,10.1.1.3,29,0.070,0.070,0.070,0.000,0.000,0.000
1644939707855707904,2022-02-15-15:41:47,10.1.1.3,-6,0.070,0.070,0.070,0.000,0.000,0.000
1644939708125278976,2022-02-15-15:41:48,10.1.1.3,11,0.070,0.070,0.070,0.000,0.000,0.000
1644939708243596032,2022-02-15-15:41:48,10.1.1.3,29,0.050,0.050,0.050,0.000,0.000,0.000
1644939708306923008,2022-02-15-15:41:48,10.1.1.3,29,0.040,0.040,0.040,0.000,0.000,0.000
1644939708383131136,2022-02-15-15:41:48,10.1.1.3,39,0.030,0.030,0.030,0.000,0.000,0.000
1644939708589809920,2022-02-15-15:41:48,10.1.1.3,29,-0.010,-0.010,-0.010,0.000,0.000,0.000
1644939709404620032,2022-02-15-15:41:49,10.1.1.3,29,-0.050,-0.050,-0.050,0.000,0.000,0.000
1644939714621576192,2022-02-15-15:41:50,10.1.1.3,39,0.050,0.050,0.050,0.000,0.000,0.000
1644939720045190144,2022-02-15-15:41:55,10.1.1.3,29,0.020,0.020,0.020,0.000,0.000,0.000
1644939724930445056,2022-02-15-15:42:01,10.1.1.3,30,-0.050,-0.050,-0.050,0.000,0.000,0.000
1644939730442085120,2022-02-15-15:42:06,10.1.1.3,20,-0.050,-0.050,-0.050,0.000,0.000,0.000
1644939736100280064,2022-02-15-15:42:11,10.1.1.3,29,0.020,0.020,0.020,0.000,0.000,0.000
1644939740394545152,2022-02-15-15:42:16,10.1.1.3,38,0.080,0.080,0.080,0.000,0.000,0.000
1644939741752836864,2022-02-15-15:42:20,10.1.1.3,24,0.080,0.080,0.080,0.000,0.000,0.000
1644939742671427840,2022-02-15-15:42:22,10.1.1.3,39,0.020,0.020,0.020,0.000,0.000,0.000
1644939746843586048,2022-02-15-15:42:24,10.1.1.3,21,0.020,0.020,0.020,0.000,0.000,0.000
1644939751035901184,2022-02-15-15:42:30,10.1.1.3,29,-0.090,-0.090,-0.090,0.000,0.000,0.000
1644939753879323904,2022-02-15-15:42:33,10.1.1.3,29,0.070,0.070,0.070,0.000,0.000,0.000
1644939757257363200,2022-02-15-15:42:34,10.1.1.3,30,0.050,0.050,0.050,0.000,0.000,0.000
1644939758271709952,2022-02-15-15:42:38,10.1.1.3,29,-0.060,-0.060,-0.060,0.000,0.000,0.000
1644939762077897984,2022-02-15-15:42:40,10.1.1.3,11,-0.060,-0.060,-0.060,0.000,0.000,0.000
1644939762947985920,2022-02-15-15:42:42,10.1.1.3,-8,-0.060,-0.060,-0.060,0.000,0.000,0.000
1644939763040456960,2022-02-15-15:42:43,10.1.1.3,-431,-0.060,-0.060,-0.060,0.000,0.000,0.000
1644939766044728064,2022-02-15-15:42:45,10.1.1.3,29,0.070,0.070,0.070,0.000,0.000,0.000
1644939769328596992,2022-02-15-15:42:48,10.1.1.3,31,-0.060,-0.060,-0.060,0.000,0.000,0.000
1644939771917529088,2022-02-15-15:42:49,10.1.1.3,38,0.000,0.000,0.000,0.000,0.000,0.000
1644939775836965120,2022-02-15-15:42:54,10.1.1.3,39,0.080,0.080,0.080,0.000,0.000,0.000
1644939776611571200,2022-02-15-15:42:56,10.1.1.3,39,0.010,0.010,0.010,0.000,0.000,0.000
1644939777084652800,2022-02-15-15:42:57,10.1.1.3,40,-0.080,-0.080,-0.080,0.000,0.000,0.000
1644939777122964992,2022-02-15-15:42:57,10.1.1.3,29,-0.090,-0.090,-0.090,0.000,0.000,0.000
1644939777182892032,2022-02-15-15:42:57,10.1.1.3,38,-0.100,-0.100,-0.100,0.000,0.000,0.000
1644939778223735040,2022-02-15-15:42:58,10.1.1.3,29,0.100,0.100,0.100,0.000,0.000,0.000
1644939778790921984,2022-02-15-15:42:58,10.1.1.3,39,0.060,0.060,0.060,0.000,0.000,0.000
1644939779385242880,2022-02-15-15:42:59,10.1.1.3,29,-0.060,-0.060,-0.060,0.000,0.000,0.000
1644939779447591936,2022-02-15-15:42:59,10.1.1.3,30,-0.070,-0.070,-0.070,0.000,0.000,0.000
1644939779765597952,2022-02-15-15:42:59,10.1.1.3,12,-0.070,-0.070,-0.070,0.000,0.000,0.000
1644939780058108928,2022-02-15-15:43:00,10.1.1.3,29,-0.030,-0.030,-0.030,0.000,0.000,0.000
1644939780271121920,2022-02-15-15:43:00,10.1.1.3,39,0.010,0.010,0.010,0.000,0.000,0.000
1644939781185018112,2022-02-15-15:43:01,10.1.1.3,16,0.010,0.010,0.010,0.000,0.000,0.000
1644939782704900864,2022-02-15-15:43:02,10.1.1.3,9,0.010,0.010,0.010,0.000,0.000,0.000
1644939783704546048,2022-02-15-15:43:03,10.1.1.3,6,0.010,0.010,0.010,0.000,0.000,0.000
1644939784730222080,2022-02-15-15:43:04,10.1.1.3,30,-0.060,-0.060,-0.060,0.000,0.000,0.000
1644939785703252992,2022-02-15-15:43:05,10.1.1.3,39,0.080,0.080,0.080,0.000,0.000,0.000
1644939785743438080,2022-02-15-15:43:05,10.1.1.3,29,0.070,0.070,0.070,0.000,0.000,0.000
1644939786204484096,2022-02-15-15:43:06,10.1.1.3,29,-0.020,-0.020,-0.020,0.000,0.000,0.000
1644939787027555840,2022-02-15-15:43:07,10.1.1.3,6,-0.020,-0.020,-0.020,0.000,0.000,0.000
1644939787303500032,2022-02-15-15:43:07,10.1.1.3,29,0.030,0.030,0.030,0.000,0.000,0.000
1644939787843454976,2022-02-15-15:43:07,10.1.1.3,29,0.080,0.080,0.080,0.000,0.000,0.000
1644939789873682944,2022-02-15-15:43:09,10.1.1.3,29,-0.040,-0.040,-0.040,0.000,0.000,0.000
1644939790030968832,2022-02-15-15:43:10,10.1.1.3,29,-0.030,-0.030,-0.030,0.000,0.000,0.000
1644939791846731776,2022-02-15-15:43:11,10.1.1.3,20,-0.030,-0.030,-0.030,0.000,0.000,0.000
1644939791923526144,2022-02-15-15:43:11,10.1.1.3,30,-0.050,-0.050,-0.050,0.000,0.000,0.000
1644939792442578176,2022-02-15-15:43:12,10.1.1.3,25,-0.050,-0.050,-0.050,0.000,0.000,0.000
1644939795834709760,2022-02-15-15:43:13,10.1.1.3,28,0.060,0.060,0.060,0.000,0.000,0.000
1644939798241030912,2022-02-15-15:43:16,10.1.1.3,39,0.000,0.000,0.000,0.000,0.000,0.000
1644939798686326016,2022-02-15-15:43:18,10.1.1.3,28,-0.060,-0.060,-0.060,0.000,0.000,0.000
1644939799103717120,2022-02-15-15:43:19,10.1.1.3,8,-0.060,-0.060,-0.060,0.000,0.000,0.000
1644939800124152832,2022-02-15-15:43:20,10.1.1.3,40,0.100,0.100,0.100,0.000,0.000,0.000
1644939800842650880,2022-02-15-15:43:20,10.1.1.3,29,0.040,0.040,0.040,0.000,0.000,0.000
1644939802724229120,2022-02-15-15:43:22,10.1.1.3,21,0.040,0.040,0.040,0.000,0.000,0.000
1644939803003168000,2022-02-15-15:43:23,10.1.1.3,29,0.100,0.100,0.100,0.000,0.000,0.000
1644939803642358016,2022-02-15-15:43:23,10.1.1.3,29,-0.020,-0.020,-0.020,0.000,0.000,0.000
1644939804280850944,2022-02-15-15:43:23,10.1.1.3,29,-0.070,-0.070,-0.070,0.000,0.000,0.000
1644939804603378944,2022-02-15-15:43:24,10.1.1.3,21,-0.080,-0.080,-0.080,0.000,0.000,0.000
1644939807029699072,2022-02-15-15:43:25,10.1.1.3,39,0.070,0.070,0.070,0.000,0.000,0.000
1644939809468728064,2022-02-15-15:43:28,10.1.1.3,29,-0.020,-0.020,-0.020,0.000,0.000,0.000
1644939809822774784,2022-02-15-15:43:29,10.1.1.3,29,0.050,0.050,0.050,0.000,0.000,0.000
1644939810684894208,2022-02-15-15:43:30,10.1.1.3,18,0.050,0.050,0.050,0.000,0.000,0.000
1644939810771183872,2022-02-15-15:43:30,10.1.1.3,30,0.030,0.030,0.030,0.000,0.000,0.000
1644939810823357184,2022-02-15-15:43:30,10.1.1.3,38,0.020,0.020,0.020,0.000,0.000,0.000
1644939810957346048,2022-02-15-15:43:30,10.1.1.3,19,0.000,0.000,0.000,0.000,0.000,0.000
1644939812439703040,2022-02-15-15:43:32,10.1.1.3,-7,0.000,0.000,0.000,0.000,0.000,0.000
1644939813264466944,2022-02-15-15:43:33,10.1.1.3,20,0.090,0.090,0.090,0.000,0.000,0.000
1644939813323987968,2022-02-15-15:43:33,10.1.1.3,29,0.080,0.080,0.080,0.000,0.000,0.000
1644939813885481216,2022-02-15-15:43:33,10.1.1.3,29,-0.030,-0.030,-0.030,0.000,0.000,0.000
1644939813944869888,2022-02-15-15:43:33,10.1.1.3,38,-0.040,-0.040,-0.040,0.000,0.000,0.000
1644939814403620096,2022-02-15-15:43:34,10.1.1.3,39,-0.070,-0.070,-0.070,0.000,0.000,0.000
1644939814464761856,2022-02-15-15:43:34,10.1.1.3,28,-0.060,-0.060,-0.060,0.000,0.000,0.000
1644939814813090048,2022-02-15-15:43:34,10.1.1.3,28,0.000,0.000,0.000,0.000,0.000,0.000
1644939815417414912,2022-02-15-15:43:35,10.1.1.3,29,0.080,0.080,0.080,0.000,0.000,0.000
1644939816559994880,2022-02-15-15:43:36,10.1.1.3,39,-0.060,-0.060,-0.060,0.000,0.000,0.000
1644939816944372992,2022-02-15-15:43:36,10.1.1.3,11,-0.060,-0.060,-0.060,0.000,0.000,0.000
1644939817543170048,2022-02-15-15:43:37,10.1.1.3,29,0.050,0.050,0.050,0.000,0.000,0.000
1644939818214912000,2022-02-15-15:43:38,10.1.1.3,24,0.050,0.050,0.050,0.000,0.000,0.000
1644939818344989184,2022-02-15-15:43:38,10.1.1.3,29,0.030,0.030,0.030,0.000,0.000,0.000
1644939818763258880,2022-02-15-15:43:38,10.1.1.3,39,-0.050,-0.050,-0.050,0.000,0.000,0.000
1644939819223586048,2022-02-15-15:43:39,10.1.1.3,39,-0.060,-0.060,-0.060,0.000,0.000,0.000
1644939819871321856,2022-02-15-15:43:39,10.1.1.3,29,0.060,0.060,0.060,0.000,0.000,0.000
1644939820349056000,2022-02-15-15:43:40,10.1.1.3,29,0.090,0.090,0.090,0.000,0.000,0.000
1644939823058796800,2022-02-15-15:43:42,10.1.1.3,9,0.090,0.090,0.090,0.000,0.000,0.000
1644939823165330944,2022-02-15-15:43:43,10.1.1.3,29,0.100,0.100,0.100,0.000,0.000,0.000
1644939824046520832,2022-02-15-15:43:44,10.1.1.3,29,-0.060,-0.060,-0.060,0.000,0.000,0.000
1644939824423672832,2022-02-15-15:43:44,10.1.1.3,18,-0.060,-0.060,-0.060,0.000,0.000,0.000
1644939825882914048,2022-02-15-15:43:45,10.1.1.3,30,0.060,0.060,0.060,0.000,0.000,0.000
1644939826523281152,2022-02-15-15:43:46,10.1.1.3,39,0.010,0.010,0.010,0.000,0.000,0.000
1644939826703005952,2022-02-15-15:43:46,10.1.1.3,28,-0.030,-0.030,-0.030,0.000,0.000,0.000
1644939827062743808,2022-02-15-15:43:47,10.1.1.3,28,-0.100,-0.100,-0.100,0.000,0.000,0.000
1644939831055313152,2022-02-15-15:43:48,10.1.1.3,29,0.070,0.070,0.070,0.000,0.000,0.000
1644939833047944192,2022-02-15-15:43:51,10.1.1.3,29,0.090,0.090,0.090,0.000,0.000,0.000
1644939833243808000,2022-02-15-15:43:53,10.1.1.3,30,0.050,0.050,0.050,0.000,0.000,0.000
1644939834658452992,2022-02-15-15:43:54,10.1.1.3,29,-0.040,-0.040,-0.040,0.000,0.000,0.000
1644939834842274816,2022-02-15-15:43:54,10.1.1.3,29,-0.020,-0.020,-0.020,0.000,0.000,0.000
1644939836373509888,2022-02-15-15:43:56,10.1.1.3,-43,-0.020,-0.020,-0.020,0.000,0.000,0.000
1644939837225152000,2022-02-15-15:43:57,10.1.1.3,23,-0.020,-0.020,-0.020,0.000,0.000,0.000
1644939837503629824,2022-02-15-15:43:57,10.1.1.3,39,0.030,0.030,0.030,0.000,0.000,0.000
1644939838958919936,2022-02-15-15:43:58,10.1.1.3,18,0.030,0.030,0.030,0.000,0.000,0.000
1644939839234425088,2022-02-15-15:43:59,10.1.1.3,29,-0.020,-0.020,-0.020,0.000,0.000,0.000
1644939839742821888,2022-02-15-15:43:59,10.1.1.3,29,-0.080,-0.080,-0.080,0.000,0.000,0.000
1644939840403596032,2022-02-15-15:44:00,10.1.1.3,20,0.040,0.040,0.040,0.000,0.000,0.000
1644939841068402176,2022-02-15-15:44:01,10.1.1.3,14,0.040,0.040,0.040,0.000,0.000,0.000
1644939841283052800,2022-02-15-15:44:01,10.1.1.3,30,0.000,0.000,0.000,0.000,0.000,0.000
1644939841643358976,2022-02-15-15:44:01,10.1.1.3,29,-0.070,-0.070,-0.070,0.000,0.000,0.000
1644939841951714048,2022-02-15-15:44:01,10.1.1.3,19,-0.070,-0.070,-0.070,0.000,0.000,0.000
1644939842683224832,2022-02-15-15:44:02,10.1.1.3,39,0.060,0.060,0.060,0.000,0.000,0.000
1644939842824790016,2022-02-15-15:44:02,10.1.1.3,29,0.070,0.070,0.070,0.000,0.000,0.000
1644939843124975872,2022-02-15-15:44:03,10.1.1.3,11,0.070,0.070,0.070,0.000,0.000,0.000
1644939845781007104,2022-02-15-15:44:03,10.1.1.3,29,-0.010,-0.010,-0.010,0.000,0.000,0.000
1644939847261327872,2022-02-15-15:44:06,10.1.1.3,39,-0.070,-0.070,-0.070,0.000,0.000,0.000
1644939848394733824,2022-02-15-15:44:07,10.1.1.3,29,0.040,0.040,0.040,0.000,0.000,0.000
1644939848495176192,2022-02-15-15:44:08,10.1.1.3,30,0.060,0.060,0.060,0.000,0.000,0.000
1644939849097153024,2022-02-15-15:44:08,10.1.1.3,6,0.060,0.060,0.060,0.000,0.000,0.000
1644939849283073024,2022-02-15-15:44:09,10.1.1.3,30,0.030,0.030,0.030,0.000,0.000,0.000
1644939849323239168,2022-02-15-15:44:09,10.1.1.3,19,0.020,0.020,0.020,0.000,0.000,0.000
1644939849382642944,2022-02-15-15:44:09,10.1.1.3,28,0.010,0.010,0.010,0.000,0.000,0.000
1644939849844043008,2022-02-15-15:44:09,10.1.1.3,33,-0.080,-0.080,-0.080,0.000,0.000,0.000
1644939850023191040,2022-02-15-15:44:10,10.1.1.3,10,-0.080,-0.080,-0.080,0.000,0.000,0.000
1644939850644269824,2022-02-15-15:44:10,10.1.1.3,30,-0.020,-0.020,-0.020,0.000,0.000,0.000
1644939857252638976,2022-02-15-15:44:14,10.1.1.3,-883,-0.020,-0.020,-0.020,0.000,0.000,0.000
1644939860042110976,2022-02-15-15:44:18,10.1.1.3,39,-0.070,-0.070,-0.070,0.000,0.000,0.000
1644939863495457792,2022-02-15-15:44:21,10.1.1.3,31,-0.080,-0.080,-0.080,0.000,0.000,0.000
1644939869078702848,2022-02-15-15:44:27,10.1.1.3,30,0.040,0.040,0.040,0.000,0.000,0.000
1644939875722881024,2022-02-15-15:44:32,10.1.1.3,-53,-0.050,-0.050,-0.050,0.000,0.000,0.000
1644939878126980096,2022-02-15-15:44:37,10.1.1.3,29,0.100,0.100,0.100,0.000,0.000,0.000
1644939885670355968,2022-02-15-15:44:44,10.1.1.3,3,0.100,0.100,0.100,0.000,0.000,0.000
1644939889070228224,2022-02-15-15:44:46,10.1.1.3,30,0.040,0.040,0.040,0.000,0.000,0.000
1644939892677198848,2022-02-15-15:44:50,10.1.1.3,29,-0.020,-0.020,-0.020,0.000,0.000,0.000
1644939901086628864,2022-02-15-15:44:55,10.1.1.3,-62,-0.070,-0.070,-0.070,0.000,0.000,0.000
1644939915057699072,2022-02-15-15:45:11,10.1.1.3,38,-0.040,-0.040,-0.040,0.000,0.000,0.000
1644939944438025984,2022-02-15-15:45:31,10.1.1.3,40,0.080,0.080,0.080,0.000,0.000,0.000
1644939945936089088,2022-02-15-15:45:45,10.1.1.3,-9267,0.080,0.080,0.080,0.000,0.000,0.000
1644939946805229824,2022-02-15-15:45:46,10.1.1.3,30,-0.090,-0.090,-0.090,0.000,0.000,0.000
1644939946883843840,2022-02-15-15:45:46,10.1.1.3,8,-0.090,-0.090,-0.090,0.000,0.000,0.000
1644939947678620928,2022-02-15-15:45:47,10.1.1.3,30,0.060,0.060,0.060,0.000,0.000,0.000
1644939948072135936,2022-02-15-15:45:48,10.1.1.3,5,0.060,0.060,0.060,0.000,0.000,0.000
1644939949004136960,2022-02-15-15:45:49,10.1.1.3,30,-0.080,-0.080,-0.080,0.000,0.000,0.000
1644939949062678016,2022-02-15-15:45:49,10.1.1.3,39,-0.070,-0.070,-0.070,0.000,0.000,0.000
1644939949922952960,2022-02-15-15:45:49,10.1.1.3,29,0.100,0.100,0.100,0.000,0.000,0.000
1644939950842521856,2022-02-15-15:45:50,10.1.1.3,28,-0.080,-0.080,-0.080,0.000,0.000,0.000
1644939951023976192,2022-02-15-15:45:51,10.1.1.3,7,-0.080,-0.080,-0.080,0.000,0.000,0.000
1644939951362475008,2022-02-15-15:45:51,10.1.1.3,39,-0.020,-0.020,-0.020,0.000,0.000,0.000
1644939951763079936,2022-02-15-15:45:51,10.1.1.3,29,0.060,0.060,0.060,0.000,0.000,0.000
1644939952176129024,2022-02-15-15:45:52,10.1.1.3,-20,0.060,0.060,0.060,0.000,0.000,0.000
1644939952242237184,2022-02-15-15:45:52,10.1.1.3,29,0.050,0.050,0.050,0.000,0.000,0.000
1644939952703419904,2022-02-15-15:45:52,10.1.1.3,29,-0.040,-0.040,-0.040,0.000,0.000,0.000
1644939953186875136,2022-02-15-15:45:53,10.1.1.3,29,-0.070,-0.070,-0.070,0.000,0.000,0.000
1644939953564239104,2022-02-15-15:45:53,10.1.1.3,29,0.000,0.000,0.000,0.000,0.000,0.000
1644939953942159872,2022-02-15-15:45:53,10.1.1.3,29,0.070,0.070,0.070,0.000,0.000,0.000
1644939954244806912,2022-02-15-15:45:54,10.1.1.3,21,0.070,0.070,0.070,0.000,0.000,0.000
1644939954923296000,2022-02-15-15:45:54,10.1.1.3,29,-0.040,-0.040,-0.040,0.000,0.000,0.000
1644939954982958080,2022-02-15-15:45:54,10.1.1.3,39,-0.050,-0.050,-0.050,0.000,0.000,0.000
1644939955463185920,2022-02-15-15:45:55,10.1.1.3,10,-0.050,-0.050,-0.050,0.000,0.000,0.000
1644939956329262080,2022-02-15-15:45:56,10.1.1.3,29,0.090,0.090,0.090,0.000,0.000,0.000
1644939956983406080,2022-02-15-15:45:56,10.1.1.3,39,-0.030,-0.030,-0.030,0.000,0.000,0.000
1644939957702876928,2022-02-15-15:45:57,10.1.1.3,13,-0.030,-0.030,-0.030,0.000,0.000,0.000
1644939959163012864,2022-02-15-15:45:59,10.1.1.3,17,-0.030,-0.030,-0.030,0.000,0.000,0.000
1644939959683033856,2022-02-15-15:45:59,10.1.1.3,29,-0.070,-0.070,-0.070,0.000,0.000,0.000
1644939960962661120,2022-02-15-15:46:00,10.1.1.3,30,0.020,0.020,0.020,0.000,0.000,0.000
1644939961403393024,2022-02-15-15:46:01,10.1.1.3,30,-0.060,-0.060,-0.060,0.000,0.000,0.000
1644939961562690048,2022-02-15-15:46:01,10.1.1.3,29,-0.090,-0.090,-0.090,0.000,0.000,0.000
1644939961643542016,2022-02-15-15:46:01,10.1.1.3,7,-0.090,-0.090,-0.090,0.000,0.000,0.000
1644939962527879936,2022-02-15-15:46:02,10.1.1.3,29,0.070,0.070,0.070,0.000,0.000,0.000
1644939962843454976,2022-02-15-15:46:02,10.1.1.3,16,0.070,0.070,0.070,0.000,0.000,0.000
1644939963485202944,2022-02-15-15:46:03,10.1.1.3,30,-0.050,-0.050,-0.050,0.000,0.000,0.000
1644939963942949120,2022-02-15-15:46:03,10.1.1.3,29,-0.060,-0.060,-0.060,0.000,0.000,0.000
1644939964884552960,2022-02-15-15:46:04,10.1.1.3,29,0.080,0.080,0.080,0.000,0.000,0.000
1644939964942503936,2022-02-15-15:46:04,10.1.1.3,39,0.070,0.070,0.070,0.000,0.000,0.000
1644939965442642944,2022-02-15-15:46:05,10.1.1.3,29,-0.030,-0.030,-0.030,0.000,0.000,0.000
1644939965963308032,2022-02-15-15:46:05,10.1.1.3,39,-0.070,-0.070,-0.070,0.000,0.000,0.000
1644939967484573952,2022-02-15-15:46:07,10.1.1.3,29,-0.030,-0.030,-0.030,0.000,0.000,0.000
1644939968204701952,2022-02-15-15:46:08,10.1.1.3,23,-0.030,-0.030,-0.030,0.000,0.000,0.000
1644939968363238144,2022-02-15-15:46:08,10.1.1.3,29,0.000,0.000,0.000,0.000,0.000,0.000
1644939968782690048,2022-02-15-15:46:08,10.1.1.3,28,0.080,0.080,0.080,0.000,0.000,0.000
1644939968963321856,2022-02-15-15:46:08,10.1.1.3,7,0.080,0.080,0.080,0.000,0.000,0.000
1644939970583559936,2022-02-15-15:46:10,10.1.1.3,29,0.030,0.030,0.030,0.000,0.000,0.000
1644939971203603968,2022-02-15-15:46:11,10.1.1.3,30,0.050,0.050,0.050,0.000,0.000,0.000
1644939972342595072,2022-02-15-15:46:12,10.1.1.3,30,-0.030,-0.030,-0.030,0.000,0.000,0.000
1644939972403001088,2022-02-15-15:46:12,10.1.1.3,39,-0.020,-0.020,-0.020,0.000,0.000,0.000
1644939973202465024,2022-02-15-15:46:13,10.1.1.3,30,0.060,0.060,0.060,0.000,0.000,0.000
1644939973263015936,2022-02-15-15:46:13,10.1.1.3,39,0.050,0.050,0.050,0.000,0.000,0.000
1644939973862840064,2022-02-15-15:46:13,10.1.1.3,30,-0.070,-0.070,-0.070,0.000,0.000,0.000
1644939973923038976,2022-02-15-15:46:13,10.1.1.3,39,-0.080,-0.080,-0.080,0.000,0.000,0.000
1644939974102222080,2022-02-15-15:46:14,10.1.1.3,17,-0.080,-0.080,-0.080,0.000,0.000,0.000
1644939975082626048,2022-02-15-15:46:15,10.1.1.3,28,0.090,0.090,0.090,0.000,0.000,0.000
1644939976302681088,2022-02-15-15:46:16,10.1.1.3,29,-0.050,-0.050,-0.050,0.000,0.000,0.000
1644939976922408960,2022-02-15-15:46:16,10.1.1.3,39,0.070,0.070,0.070,0.000,0.000,0.000
1644939977204114944,2022-02-15-15:46:17,10.1.1.3,15,0.070,0.070,0.070,0.000,0.000,0.000
1644939978182768128,2022-02-15-15:46:18,10.1.1.3,30,-0.080,-0.080,-0.080,0.000,0.000,0.000
1644939978243254784,2022-02-15-15:46:18,10.1.1.3,39,-0.070,-0.070,-0.070,0.000,0.000,0.000
1644939978942748160,2022-02-15-15:46:18,10.1.1.3,30,0.070,0.070,0.070,0.000,0.000,0.000
1644939979242738944,2022-02-15-15:46:19,10.1.1.3,25,0.070,0.070,0.070,0.000,0.000,0.000
1644939980262919936,2022-02-15-15:46:20,10.1.1.3,29,-0.070,-0.070,-0.070,0.000,0.000,0.000
1644939980883617024,2022-02-15-15:46:20,10.1.1.3,30,0.050,0.050,0.050,0.000,0.000,0.000
1644939981302824960,2022-02-15-15:46:21,10.1.1.3,39,0.070,0.070,0.070,0.000,0.000,0.000
1644939981762953984,2022-02-15-15:46:21,10.1.1.3,39,-0.020,-0.020,-0.020,0.000,0.000,0.000
1644939982563560960,2022-02-15-15:46:22,10.1.1.3,15,-0.020,-0.020,-0.020,0.000,0.000,0.000
1644939982782583040,2022-02-15-15:46:22,10.1.1.3,29,0.020,0.020,0.020,0.000,0.000,0.000
1644939983146803968,2022-02-15-15:46:23,10.1.1.3,29,0.090,0.090,0.090,0.000,0.000,0.000
1644939983223337984,2022-02-15-15:46:23,10.1.1.3,6,0.090,0.090,0.090,0.000,0.000,0.000
1644939983402842112,2022-02-15-15:46:23,10.1.1.3,30,0.060,0.060,0.060,0.000,0.000,0.000
1644939984222898944,2022-02-15-15:46:24,10.1.1.3,29,-0.100,-0.100,-0.100,0.000,0.000,0.000
1644939985206279936,2022-02-15-15:46:25,10.1.1.3,28,0.090,0.090,0.090,0.000,0.000,0.000
1644939985283318016,2022-02-15-15:46:25,10.1.1.3,7,0.090,0.090,0.090,0.000,0.000,0.000
1644939985722641920,2022-02-15-15:46:25,10.1.1.3,38,0.010,0.010,0.010,0.000,0.000,0.000
1644939986124905216,2022-02-15-15:46:26,10.1.1.3,29,-0.070,-0.070,-0.070,0.000,0.000,0.000
1644939986422660096,2022-02-15-15:46:26,10.1.1.3,23,-0.070,-0.070,-0.070,0.000,0.000,0.000
1644939986842178048,2022-02-15-15:46:26,10.1.1.3,30,0.010,0.010,0.010,0.000,0.000,0.000
1644939986902231808,2022-02-15-15:46:26,10.1.1.3,39,0.020,0.020,0.020,0.000,0.000,0.000
1644939987262533888,2022-02-15-15:46:27,10.1.1.3,39,0.090,0.090,0.090,0.000,0.000,0.000
1644939987342649856,2022-02-15-15:46:27,10.1.1.3,16,0.090,0.090,0.090,0.000,0.000,0.000
1644939987562406144,2022-02-15-15:46:27,10.1.1.3,30,0.050,0.050,0.050,0.000,0.000,0.000
1644939987622425088,2022-02-15-15:46:27,10.1.1.3,39,0.040,0.040,0.040,0.000,0.000,0.000
1644939988382513152,2022-02-15-15:46:28,10.1.1.3,29,-0.090,-0.090,-0.090,0.000,0.000,0.000
1644939989202800128,2022-02-15-15:46:29,10.1.1.3,29,0.070,0.070,0.070,0.000,0.000,0.000
1644939989504146176,2022-02-15-15:46:29,10.1.1.3,20,0.070,0.070,0.070,0.000,0.000,0.000
1644939989963159040,2022-02-15-15:46:29,10.1.1.3,20,-0.020,-0.020,-0.020,0.000,0.000,0.000
1644939990022081024,2022-02-15-15:46:30,10.1.1.3,29,-0.030,-0.030,-0.030,0.000,0.000,0.000
1644939990442755840,2022-02-15-15:46:30,10.1.1.3,38,-0.090,-0.090,-0.090,0.000,0.000,0.000
1644939990843126016,2022-02-15-15:46:30,10.1.1.3,29,-0.010,-0.010,-0.010,0.000,0.000,0.000
1644939991663011072,2022-02-15-15:46:31,10.1.1.3,28,0.050,0.050,0.050,0.000,0.000,0.000
1644939991982752000,2022-02-15-15:46:31,10.1.1.3,39,-0.010,-0.010,-0.010,0.000,0.000,0.000
1644939992442526976,2022-02-15-15:46:32,10.1.1.3,39,-0.100,-0.100,-0.100,0.000,0.000,0.000
1644939992946237952,2022-02-15-15:46:32,10.1.1.3,29,0.000,0.000,0.000,0.000,0.000,0.000
1644939993303020032,2022-02-15-15:46:33,10.1.1.3,30,0.070,0.070,0.070,0.000,0.000,0.000
1644939993602902784,2022-02-15-15:46:33,10.1.1.3,23,0.070,0.070,0.070,0.000,0.000,0.000
1644939994123313920,2022-02-15-15:46:34,10.1.1.3,29,-0.030,-0.030,-0.030,0.000,0.000,0.000
1644939994822416896,2022-02-15-15:46:34,10.1.1.3,11,-0.030,-0.030,-0.030,0.000,0.000,0.000
1644939994943380992,2022-02-15-15:46:34,10.1.1.3,29,-0.010,-0.010,-0.010,0.000,0.000,0.000
1644939995402738176,2022-02-15-15:46:35,10.1.1.3,30,0.080,0.080,0.080,0.000,0.000,0.000
1644939995463130112,2022-02-15-15:46:35,10.1.1.3,39,0.090,0.090,0.090,0.000,0.000,0.000
1644939995542771200,2022-02-15-15:46:35,10.1.1.3,17,0.090,0.090,0.090,0.000,0.000,0.000
1644939995822403072,2022-02-15-15:46:35,10.1.1.3,39,0.040,0.040,0.040,0.000,0.000,0.000
1644939996222692096,2022-02-15-15:46:36,10.1.1.3,29,-0.040,-0.040,-0.040,0.000,0.000,0.000
1644939996642658048,2022-02-15-15:46:36,10.1.1.3,39,-0.080,-0.080,-0.080,0.000,0.000,0.000
1644939997042903040,2022-02-15-15:46:37,10.1.1.3,29,0.000,0.000,0.000,0.000,0.000,0.000
1644939997402547968,2022-02-15-15:46:37,10.1.1.3,29,0.070,0.070,0.070,0.000,0.000,0.000
1644939997702554112,2022-02-15-15:46:37,10.1.1.3,21,0.070,0.070,0.070,0.000,0.000,0.000
1644939998223624960,2022-02-15-15:46:38,10.1.1.3,29,-0.030,-0.030,-0.030,0.000,0.000,0.000
1644939998525404928,2022-02-15-15:46:38,10.1.1.3,21,-0.090,-0.090,-0.090,0.000,0.000,0.000
1644939998582539008,2022-02-15-15:46:38,10.1.1.3,30,-0.100,-0.100,-0.100,0.000,0.000,0.000
1644939998642417920,2022-02-15-15:46:38,10.1.1.3,39,-0.090,-0.090,-0.090,0.000,0.000,0.000
1644939999043860992,2022-02-15-15:46:39,10.1.1.3,29,-0.010,-0.010,-0.010,0.000,0.000,0.000
1644940000184657152,2022-02-15-15:46:40,10.1.1.3,25,-0.010,-0.010,-0.010,0.000,0.000,0.000
1644940000442480128,2022-02-15-15:46:40,10.1.1.3,29,-0.060,-0.060,-0.060,0.000,0.000,0.000
1644940000842670848,2022-02-15-15:46:40,10.1.1.3,17,-0.060,-0.060,-0.060,0.000,0.000,0.000
1644940001882412032,2022-02-15-15:46:41,10.1.1.3,29,0.060,0.060,0.060,0.000,0.000,0.000
1644940002302329088,2022-02-15-15:46:42,10.1.1.3,39,-0.020,-0.020,-0.020,0.000,0.000,0.000
1644940003022512896,2022-02-15-15:46:43,10.1.1.3,39,-0.040,-0.040,-0.040,0.000,0.000,0.000
1644940004443353856,2022-02-15-15:46:44,10.1.1.3,7,-0.040,-0.040,-0.040,0.000,0.000,0.000
1644940004783076096,2022-02-15-15:46:44,10.1.1.3,39,-0.100,-0.100,-0.100,0.000,0.000,0.000
1644940006782525952,2022-02-15-15:46:46,10.1.1.3,39,-0.090,-0.090,-0.090,0.000,0.000,0.000
1644940006865020928,2022-02-15-15:46:46,10.1.1.3,14,-0.090,-0.090,-0.090,0.000,0.000,0.000
1644940008582918912,2022-02-15-15:46:48,10.1.1.3,29,-0.040,-0.040,-0.040,0.000,0.000,0.000
1644940009184911872,2022-02-15-15:46:49,10.1.1.3,20,-0.040,-0.040,-0.040,0.000,0.000,0.000
1644940009242727168,2022-02-15-15:46:49,10.1.1.3,29,-0.030,-0.030,-0.030,0.000,0.000,0.000
1644940009803437056,2022-02-15-15:46:49,10.1.1.3,30,0.080,0.080,0.080,0.000,0.000,0.000
1644940010002885120,2022-02-15-15:46:50,10.1.1.3,25,0.080,0.080,0.080,0.000,0.000,0.000
1644940011082842112,2022-02-15-15:46:51,10.1.1.3,39,-0.070,-0.070,-0.070,0.000,0.000,0.000
1644940011126589184,2022-02-15-15:46:51,10.1.1.3,29,-0.060,-0.060,-0.060,0.000,0.000,0.000
1644940011882978048,2022-02-15-15:46:51,10.1.1.3,29,0.090,0.090,0.090,0.000,0.000,0.000
1644940011963879168,2022-02-15-15:46:51,10.1.1.3,8,0.090,0.090,0.090,0.000,0.000,0.000
1644940012442522880,2022-02-15-15:46:52,10.1.1.3,29,0.000,0.000,0.000,0.000,0.000,0.000
1644940012502706176,2022-02-15-15:46:52,10.1.1.3,39,-0.010,-0.010,-0.010,0.000,0.000,0.000
1644940012546963968,2022-02-15-15:46:52,10.1.1.3,29,-0.020,-0.020,-0.020,0.000,0.000,0.000
1644940013102835968,2022-02-15-15:46:53,10.1.1.3,30,-0.070,-0.070,-0.070,0.000,0.000,0.000
1644940013763526912,2022-02-15-15:46:53,10.1.1.3,29,0.060,0.060,0.060,0.000,0.000,0.000
1644940014163166976,2022-02-15-15:46:54,10.1.1.3,19,0.060,0.060,0.060,0.000,0.000,0.000
1644940014683140096,2022-02-15-15:46:54,10.1.1.3,30,-0.040,-0.040,-0.040,0.000,0.000,0.000
1644940015145803008,2022-02-15-15:46:55,10.1.1.3,30,-0.070,-0.070,-0.070,0.000,0.000,0.000
1644940015206368000,2022-02-15-15:46:55,10.1.1.3,40,-0.060,-0.060,-0.060,0.000,0.000,0.000
1644940015864933888,2022-02-15-15:46:55,10.1.1.3,30,0.070,0.070,0.070,0.000,0.000,0.000
1644940016165783808,2022-02-15-15:46:56,10.1.1.3,20,0.070,0.070,0.070,0.000,0.000,0.000
1644940016328474880,2022-02-15-15:46:56,10.1.1.3,29,0.040,0.040,0.040,0.000,0.000,0.000
1644940016982891008,2022-02-15-15:46:56,10.1.1.3,29,-0.090,-0.090,-0.090,0.000,0.000,0.000
1644940017067810048,2022-02-15-15:46:57,10.1.1.3,-18,-0.090,-0.090,-0.090,0.000,0.000,0.000
1644940017146471936,2022-02-15-15:46:57,10.1.1.3,31,-0.080,-0.080,-0.080,0.000,0.000,0.000
1644940017203432192,2022-02-15-15:46:57,10.1.1.3,40,-0.070,-0.070,-0.070,0.000,0.000,0.000
1644940017343395072,2022-02-15-15:46:57,10.1.1.3,21,-0.040,-0.040,-0.040,0.000,0.000,0.000
1644940018762981888,2022-02-15-15:46:58,10.1.1.3,7,-0.040,-0.040,-0.040,0.000,0.000,0.000
1644940019143179008,2022-02-15-15:46:59,10.1.1.3,29,-0.090,-0.090,-0.090,0.000,0.000,0.000
1644940019702496000,2022-02-15-15:46:59,10.1.1.3,29,0.020,0.020,0.020,0.000,0.000,0.000
1644940020262809088,2022-02-15-15:47:00,10.1.1.3,30,0.070,0.070,0.070,0.000,0.000,0.000
1644940020822830848,2022-02-15-15:47:00,10.1.1.3,30,-0.040,-0.040,-0.040,0.000,0.000,0.000
1644940021423451904,2022-02-15-15:47:01,10.1.1.3,20,-0.040,-0.040,-0.040,0.000,0.000,0.000
1644940022142729984,2022-02-15-15:47:02,10.1.1.3,29,0.100,0.100,0.100,0.000,0.000,0.000
1644940022862539008,2022-02-15-15:47:02,10.1.1.3,39,-0.040,-0.040,-0.040,0.000,0.000,0.000
1644940022904220160,2022-02-15-15:47:02,10.1.1.3,30,-0.050,-0.050,-0.050,0.000,0.000,0.000
1644940023363027200,2022-02-15-15:47:03,10.1.1.3,29,-0.060,-0.060,-0.060,0.000,0.000,0.000
1644940024282908928,2022-02-15-15:47:04,10.1.1.3,29,0.080,0.080,0.080,0.000,0.000,0.000
1644940024342434048,2022-02-15-15:47:04,10.1.1.3,38,0.070,0.070,0.070,0.000,0.000,0.000
1644940024383745792,2022-02-15-15:47:04,10.1.1.3,29,0.060,0.060,0.060,0.000,0.000,0.000
1644940025183631872,2022-02-15-15:47:05,10.1.1.3,40,-0.090,-0.090,-0.090,0.000,0.000,0.000
1644940025263677952,2022-02-15-15:47:05,10.1.1.3,17,-0.090,-0.090,-0.090,0.000,0.000,0.000
1644940025584014848,2022-02-15-15:47:05,10.1.1.3,30,-0.030,-0.030,-0.030,0.000,0.000,0.000
1644940026667237888,2022-02-15-15:47:06,10.1.1.3,30,0.020,0.020,0.020,0.000,0.000,0.000
1644940026983580160,2022-02-15-15:47:06,10.1.1.3,39,-0.040,-0.040,-0.040,0.000,0.000,0.000
1644940027023462912,2022-02-15-15:47:07,10.1.1.3,28,-0.050,-0.050,-0.050,0.000,0.000,0.000
1644940027483613952,2022-02-15-15:47:07,10.1.1.3,30,-0.060,-0.060,-0.060,0.000,0.000,0.000
1644940028044850944,2022-02-15-15:47:08,10.1.1.3,30,0.050,0.050,0.050,0.000,0.000,0.000
1644940028085995008,2022-02-15-15:47:08,10.1.1.3,19,0.060,0.060,0.060,0.000,0.000,0.000
1644940028482552064,2022-02-15-15:47:08,10.1.1.3,12,0.060,0.060,0.060,0.000,0.000,0.000
1644940029269042944,2022-02-15-15:47:09,10.1.1.3,30,-0.090,-0.090,-0.090,0.000,0.000,0.000
1644940029343652864,2022-02-15-15:47:09,10.1.1.3,8,-0.090,-0.090,-0.090,0.000,0.000,0.000
1644940029982856960,2022-02-15-15:47:09,10.1.1.3,38,0.030,0.030,0.030,0.000,0.000,0.000
1644940030663005952,2022-02-15-15:47:10,10.1.1.3,39,0.040,0.040,0.040,0.000,0.000,0.000
1644940031163147008,2022-02-15-15:47:11,10.1.1.3,29,-0.060,-0.060,-0.060,0.000,0.000,0.000
1644940031224471040,2022-02-15-15:47:11,10.1.1.3,40,-0.070,-0.070,-0.070,0.000,0.000,0.000
1644940031502744832,2022-02-15-15:47:11,10.1.1.3,16,-0.070,-0.070,-0.070,0.000,0.000,0.000
1644940032083017216,2022-02-15-15:47:12,10.1.1.3,31,0.040,0.040,0.040,0.000,0.000,0.000
1644940032684047872,2022-02-15-15:47:12,10.1.1.3,20,0.040,0.040,0.040,0.000,0.000,0.000
1644940033622781952,2022-02-15-15:47:13,10.1.1.3,39,-0.060,-0.060,-0.060,0.000,0.000,0.000
1644940034583022080,2022-02-15-15:47:14,10.1.1.3,29,0.070,0.070,0.070,0.000,0.000,0.000
1644940034943394816,2022-02-15-15:47:14,10.1.1.3,30,0.000,0.000,0.000,0.000,0.000,0.000
1644940035004188160,2022-02-15-15:47:15,10.1.1.3,39,-0.010,-0.010,-0.010,0.000,0.000,0.000
1644940035362680832,2022-02-15-15:47:15,10.1.1.3,39,-0.080,-0.080,-0.080,0.000,0.000,0.000
1644940035542368000,2022-02-15-15:47:15,10.1.1.3,12,-0.080,-0.080,-0.080,0.000,0.000,0.000
1644940035663495936,2022-02-15-15:47:15,10.1.1.3,30,-0.060,-0.060,-0.060,0.000,0.000,0.000
1644940036323542016,2022-02-15-15:47:16,10.1.1.3,30,0.070,0.070,0.070,0.000,0.000,0.000
1644940036583385856,2022-02-15-15:47:16,10.1.1.3,29,0.080,0.080,0.080,0.000,0.000,0.000
1644940037503907840,2022-02-15-15:47:17,10.1.1.3,28,-0.100,-0.100,-0.100,0.000,0.000,0.000
1644940039083003904,2022-02-15-15:47:19,10.1.1.3,29,-0.010,-0.010,-0.010,0.000,0.000,0.000
1644940039982587136,2022-02-15-15:47:19,10.1.1.3,12,-0.010,-0.010,-0.010,0.000,0.000,0.000
1644940040202246912,2022-02-15-15:47:20,10.1.1.3,29,0.030,0.030,0.030,0.000,0.000,0.000
1644940040662545920,2022-02-15-15:47:20,10.1.1.3,31,0.080,0.080,0.080,0.000,0.000,0.000
1644940040762376960,2022-02-15-15:47:20,10.1.1.3,29,0.060,0.060,0.060,0.000,0.000,0.000
1644940042046798848,2022-02-15-15:47:22,10.1.1.3,30,-0.010,-0.010,-0.010,0.000,0.000,0.000
1644940043162259200,2022-02-15-15:47:23,10.1.1.3,21,-0.010,-0.010,-0.010,0.000,0.000,0.000
1644940043223598080,2022-02-15-15:47:23,10.1.1.3,30,-0.020,-0.020,-0.020,0.000,0.000,0.000
1644940043682948096,2022-02-15-15:47:23,10.1.1.3,29,-0.090,-0.090,-0.090,0.000,0.000,0.000
1644940044042896896,2022-02-15-15:47:24,10.1.1.3,29,-0.020,-0.020,-0.020,0.000,0.000,0.000
1644940044402913024,2022-02-15-15:47:24,10.1.1.3,29,0.050,0.050,0.050,0.000,0.000,0.000
1644940044903436800,2022-02-15-15:47:24,10.1.1.3,21,0.050,0.050,0.050,0.000,0.000,0.000
1644940045784903168,2022-02-15-15:47:25,10.1.1.3,30,-0.080,-0.080,-0.080,0.000,0.000,0.000
1644940045842270976,2022-02-15-15:47:25,10.1.1.3,39,-0.070,-0.070,-0.070,0.000,0.000,0.000
1644940045883130112,2022-02-15-15:47:25,10.1.1.3,29,-0.060,-0.060,-0.060,0.000,0.000,0.000
1644940046902906880,2022-02-15-15:47:26,10.1.1.3,29,0.060,0.060,0.060,0.000,0.000,0.000
1644940047363015936,2022-02-15-15:47:27,10.1.1.3,29,-0.030,-0.030,-0.030,0.000,0.000,0.000
1644940047422790144,2022-02-15-15:47:27,10.1.1.3,38,-0.040,-0.040,-0.040,0.000,0.000,0.000
1644940048005239040,2022-02-15-15:47:28,10.1.1.3,8,-0.040,-0.040,-0.040,0.000,0.000,0.000
1644940048383279104,2022-02-15-15:47:28,10.1.1.3,30,0.030,0.030,0.030,0.000,0.000,0.000
1644940048946563072,2022-02-15-15:47:28,10.1.1.3,30,0.060,0.060,0.060,0.000,0.000,0.000
1644940049822576128,2022-02-15-15:47:29,10.1.1.3,39,-0.090,-0.090,-0.090,0.000,0.000,0.000
1644940050383495168,2022-02-15-15:47:30,10.1.1.3,39,0.020,0.020,0.020,0.000,0.000,0.000
1644940051182554880,2022-02-15-15:47:31,10.1.1.3,25,0.020,0.020,0.020,0.000,0.000,0.000
1644940052004075008,2022-02-15-15:47:32,10.1.1.3,29,-0.060,-0.060,-0.060,0.000,0.000,0.000
1644940052422631936,2022-02-15-15:47:32,10.1.1.3,39,0.020,0.020,0.020,0.000,0.000,0.000
1644940052723454976,2022-02-15-15:47:32,10.1.1.3,30,0.080,0.080,0.080,0.000,0.000,0.000
1644940052922704896,2022-02-15-15:47:32,10.1.1.3,16,0.080,0.080,0.080,0.000,0.000,0.000
1644940054322443008,2022-02-15-15:47:34,10.1.1.3,30,-0.010,-0.010,-0.010,0.000,0.000,0.000
1644940054782900992,2022-02-15-15:47:34,10.1.1.3,30,0.080,0.080,0.080,0.000,0.000,0.000
1644940054982461952,2022-02-15-15:47:34,10.1.1.3,25,0.080,0.080,0.080,0.000,0.000,0.000
1644940055242691072,2022-02-15-15:47:35,10.1.1.3,29,0.030,0.030,0.030,0.000,0.000,0.000
1644940055762156032,2022-02-15-15:47:35,10.1.1.3,39,-0.070,-0.070,-0.070,0.000,0.000,0.000
1644940056043250176,2022-02-15-15:47:36,10.1.1.3,14,-0.070,-0.070,-0.070,0.000,0.000,0.000
1644940056303463936,2022-02-15-15:47:36,10.1.1.3,20,-0.020,-0.020,-0.020,0.000,0.000,0.000
1644940056362131968,2022-02-15-15:47:36,10.1.1.3,29,-0.010,-0.010,-0.010,0.000,0.000,0.000
1644940057523195904,2022-02-15-15:47:37,10.1.1.3,7,-0.010,-0.010,-0.010,0.000,0.000,0.000
1644940058465725952,2022-02-15-15:47:38,10.1.1.3,12,-0.010,-0.010,-0.010,0.000,0.000,0.000
1644940059147517952,2022-02-15-15:47:39,10.1.1.3,19,0.080,0.080,0.080,0.000,0.000,0.000
1644940060103758080,2022-02-15-15:47:40,10.1.1.3,39,-0.100,-0.100,-0.100,0.000,0.000,0.000
1644940061223223808,2022-02-15-15:47:41,10.1.1.3,30,0.080,0.080,0.080,0.000,0.000,0.000
1644940061583822080,2022-02-15-15:47:41,10.1.1.3,30,0.010,0.010,0.010,0.000,0.000,0.000
1644940061683331840,2022-02-15-15:47:41,10.1.1.3,29,-0.010,-0.010,-0.010,0.000,0.000,0.000
1644940062582268928,2022-02-15-15:47:42,10.1.1.3,10,-0.010,-0.010,-0.010,0.000,0.000,0.000
1644940063702052096,2022-02-15-15:47:43,10.1.1.3,8,-0.010,-0.010,-0.010,0.000,0.000,0.000
1644940064623366144,2022-02-15-15:47:44,10.1.1.3,6,-0.010,-0.010,-0.010,0.000,0.000,0.000
1644940065462960128,2022-02-15-15:47:45,10.1.1.3,29,0.050,0.050,0.050,0.000,0.000,0.000
1644940066023416064,2022-02-15-15:47:46,10.1.1.3,29,-0.060,-0.060,-0.060,0.000,0.000,0.000
1644940066082025984,2022-02-15-15:47:46,10.1.1.3,39,-0.070,-0.070,-0.070,0.000,0.000,0.000
1644940066362589952,2022-02-15-15:47:46,10.1.1.3,11,-0.070,-0.070,-0.070,0.000,0.000,0.000
1644940067102498048,2022-02-15-15:47:47,10.1.1.3,40,0.070,0.070,0.070,0.000,0.000,0.000
1644940067141897984,2022-02-15-15:47:47,10.1.1.3,29,0.080,0.080,0.080,0.000,0.000,0.000
1644940067322797056,2022-02-15-15:47:47,10.1.1.3,6,0.080,0.080,0.080,0.000,0.000,0.000
1644940067842635008,2022-02-15-15:47:47,10.1.1.3,19,-0.020,-0.020,-0.020,0.000,0.000,0.000
1644940067903207168,2022-02-15-15:47:47,10.1.1.3,29,-0.030,-0.030,-0.030,0.000,0.000,0.000
