FedericoMungari/DigitalTwin_service/01_WiredScenario/Output/Output_script/script_rosapi_2_output_robots6_freq0_4.txt
timestamp,date,node,latency,joint_1,joint_2,joint_3,joint_4,joint_5,joint_6
1644347636048615936,2022-02-08-19:13:56,10.1.1.5,5,-0.100,-0.100,-0.100,-0.000,-0.000,0.000
1644347636167748096,2022-02-08-19:13:56,10.1.1.5,25,-0.090,-0.090,-0.090,0.000,0.000,0.000
1644347636266195968,2022-02-08-19:13:56,10.1.1.5,24,-0.080,-0.080,-0.080,0.000,0.000,0.000
1644347636367866112,2022-02-08-19:13:56,10.1.1.5,22,-0.070,-0.070,-0.070,0.000,0.000,0.000
1644347636467834880,2022-02-08-19:13:56,10.1.1.5,21,-0.060,-0.060,-0.060,0.000,0.000,0.000
1644347636573241088,2022-02-08-19:13:56,10.1.1.5,19,-0.050,-0.050,-0.050,0.000,0.000,0.000
1644347636689284096,2022-02-08-19:13:56,10.1.1.5,38,-0.040,-0.040,-0.040,0.000,0.000,0.000
1644347636787035904,2022-02-08-19:13:56,10.1.1.5,37,-0.030,-0.030,-0.030,0.000,0.000,0.000
1644347636888078080,2022-02-08-19:13:56,10.1.1.5,36,-0.020,-0.020,-0.020,0.000,0.000,0.000
1644347636987601152,2022-02-08-19:13:56,10.1.1.5,35,-0.010,-0.010,-0.010,0.000,0.000,0.000
1644347637087503872,2022-02-08-19:13:57,10.1.1.5,32,0.000,0.000,0.000,0.000,0.000,0.000
1644347637187418112,2022-02-08-19:13:57,10.1.1.5,31,0.010,0.010,0.010,0.000,0.000,0.000
1644347637286701056,2022-02-08-19:13:57,10.1.1.5,30,0.020,0.020,0.020,0.000,0.000,0.000
1644347637388506880,2022-02-08-19:13:57,10.1.1.5,29,0.030,0.030,0.030,0.000,0.000,0.000
1644347637489063936,2022-02-08-19:13:57,10.1.1.5,29,0.040,0.040,0.040,0.000,0.000,0.000
1644347637586292992,2022-02-08-19:13:57,10.1.1.5,27,0.050,0.050,0.050,0.000,0.000,0.000
1644347637687292928,2022-02-08-19:13:57,10.1.1.5,27,0.060,0.060,0.060,0.000,0.000,0.000
1644347637787465216,2022-02-08-19:13:57,10.1.1.5,26,0.070,0.070,0.070,0.000,0.000,0.000
1644347637886561024,2022-02-08-19:13:57,10.1.1.5,25,0.080,0.080,0.080,0.000,0.000,0.000
1644347637988496896,2022-02-08-19:13:57,10.1.1.5,22,0.090,0.090,0.090,0.000,0.000,0.000
1644347638086992896,2022-02-08-19:13:58,10.1.1.5,21,0.100,0.100,0.100,0.000,0.000,0.000
1644347638187174912,2022-02-08-19:13:58,10.1.1.5,20,0.090,0.090,0.090,0.000,0.000,0.000
1644347638288630016,2022-02-08-19:13:58,10.1.1.5,19,0.081,0.081,0.081,0.000,0.000,0.000
1644347638388900096,2022-02-08-19:13:58,10.1.1.5,18,0.071,0.071,0.071,0.000,0.000,0.000
1644347638506565120,2022-02-08-19:13:58,10.1.1.5,37,0.060,0.060,0.060,0.000,0.000,0.000
1644347638607399936,2022-02-08-19:13:58,10.1.1.5,36,0.050,0.050,0.050,0.000,0.000,0.000
1644347638707556864,2022-02-08-19:13:58,10.1.1.5,34,0.040,0.040,0.040,0.000,0.000,0.000
1644347638807593984,2022-02-08-19:13:58,10.1.1.5,33,0.030,0.030,0.030,0.000,0.000,0.000
1644347638907855104,2022-02-08-19:13:58,10.1.1.5,33,0.020,0.020,0.020,0.000,0.000,0.000
1644347639006373888,2022-02-08-19:13:59,10.1.1.5,32,0.010,0.010,0.010,0.000,0.000,0.000
1644347639107693056,2022-02-08-19:13:59,10.1.1.5,31,0.000,0.000,0.000,0.000,0.000,0.000
1644347639208427008,2022-02-08-19:13:59,10.1.1.5,30,-0.010,-0.010,-0.010,0.000,0.000,0.000
1644347639307460096,2022-02-08-19:13:59,10.1.1.5,29,-0.020,-0.020,-0.020,0.000,0.000,0.000
1644347639407013888,2022-02-08-19:13:59,10.1.1.5,28,-0.030,-0.030,-0.030,0.000,0.000,0.000
1644347639506861056,2022-02-08-19:13:59,10.1.1.5,27,-0.040,-0.040,-0.040,0.000,0.000,0.000
1644347639606260992,2022-02-08-19:13:59,10.1.1.5,26,-0.050,-0.050,-0.050,0.000,0.000,0.000
1644347639708195840,2022-02-08-19:13:59,10.1.1.5,24,-0.060,-0.060,-0.060,0.000,0.000,0.000
1644347639806669824,2022-02-08-19:13:59,10.1.1.5,23,-0.070,-0.070,-0.070,0.000,0.000,0.000
1644347639906086912,2022-02-08-19:13:59,10.1.1.5,22,-0.080,-0.080,-0.080,0.000,0.000,0.000
1644347640007383040,2022-02-08-19:14:00,10.1.1.5,21,-0.090,-0.090,-0.090,0.000,0.000,0.000
1644347640131705088,2022-02-08-19:14:00,10.1.1.5,38,-0.100,-0.100,-0.100,0.000,0.000,0.000
1644347640232346112,2022-02-08-19:14:00,10.1.1.5,36,-0.090,-0.090,-0.090,0.000,0.000,0.000
1644347640325594880,2022-02-08-19:14:00,10.1.1.5,35,-0.080,-0.080,-0.080,0.000,0.000,0.000
1644347640427438080,2022-02-08-19:14:00,10.1.1.5,34,-0.070,-0.070,-0.070,0.000,0.000,0.000
1644347640526289920,2022-02-08-19:14:00,10.1.1.5,33,-0.060,-0.060,-0.060,0.000,0.000,0.000
1644347640627929856,2022-02-08-19:14:00,10.1.1.5,32,-0.050,-0.050,-0.050,0.000,0.000,0.000
1644347640727587840,2022-02-08-19:14:00,10.1.1.5,32,-0.040,-0.040,-0.040,0.000,0.000,0.000
1644347640826998016,2022-02-08-19:14:00,10.1.1.5,31,-0.030,-0.030,-0.030,0.000,0.000,0.000
1644347640930392064,2022-02-08-19:14:00,10.1.1.5,33,-0.020,-0.020,-0.020,0.000,0.000,0.000
1644347641026880000,2022-02-08-19:14:01,10.1.1.5,29,-0.010,-0.010,-0.010,0.000,0.000,0.000
1644347641128375040,2022-02-08-19:14:01,10.1.1.5,28,0.000,0.000,0.000,0.000,0.000,0.000
1644347641227663104,2022-02-08-19:14:01,10.1.1.5,27,0.010,0.010,0.010,0.000,0.000,0.000
1644347641326987008,2022-02-08-19:14:01,10.1.1.5,22,0.020,0.020,0.020,0.000,0.000,0.000
1644347641426161152,2022-02-08-19:14:01,10.1.1.5,20,0.030,0.030,0.030,0.000,0.000,0.000
1644347641527540992,2022-02-08-19:14:01,10.1.1.5,19,0.040,0.040,0.040,0.000,0.000,0.000
1644347641648416000,2022-02-08-19:14:01,10.1.1.5,38,0.050,0.050,0.050,0.000,0.000,0.000
1644347641747951104,2022-02-08-19:14:01,10.1.1.5,38,0.060,0.060,0.060,0.000,0.000,0.000
1644347641848696064,2022-02-08-19:14:01,10.1.1.5,37,0.070,0.070,0.070,0.000,0.000,0.000
1644347641947827968,2022-02-08-19:14:01,10.1.1.5,36,0.080,0.080,0.080,0.000,0.000,0.000
1644347642048059904,2022-02-08-19:14:02,10.1.1.5,35,0.090,0.090,0.090,0.000,0.000,0.000
1644347642146502144,2022-02-08-19:14:02,10.1.1.5,34,0.100,0.100,0.100,0.000,0.000,0.000
1644347642247986176,2022-02-08-19:14:02,10.1.1.5,32,0.090,0.090,0.090,0.000,0.000,0.000
1644347642347492864,2022-02-08-19:14:02,10.1.1.5,32,0.080,0.080,0.080,0.000,0.000,0.000
1644347642448929024,2022-02-08-19:14:02,10.1.1.5,32,0.070,0.070,0.070,0.000,0.000,0.000
1644347642548381952,2022-02-08-19:14:02,10.1.1.5,31,0.060,0.060,0.060,0.000,0.000,0.000
1644347642648088832,2022-02-08-19:14:02,10.1.1.5,30,0.050,0.050,0.050,0.000,0.000,0.000
1644347642748701952,2022-02-08-19:14:02,10.1.1.5,29,0.040,0.040,0.040,0.000,0.000,0.000
1644347642847380992,2022-02-08-19:14:02,10.1.1.5,28,0.030,0.030,0.030,0.000,0.000,0.000
1644347642949367040,2022-02-08-19:14:02,10.1.1.5,27,0.020,0.020,0.020,0.000,0.000,0.000
1644347643047305984,2022-02-08-19:14:03,10.1.1.5,26,0.010,0.010,0.010,0.000,0.000,0.000
1644347643146717952,2022-02-08-19:14:03,10.1.1.5,22,0.000,0.000,0.000,0.000,0.000,0.000
1644347643246547968,2022-02-08-19:14:03,10.1.1.5,21,-0.010,-0.010,-0.010,0.000,0.000,0.000
1644347643347035904,2022-02-08-19:14:03,10.1.1.5,19,-0.019,-0.019,-0.019,0.000,0.000,0.000
1644347643450071040,2022-02-08-19:14:03,10.1.1.5,18,-0.029,-0.029,-0.029,0.000,0.000,0.000
1644347643568284160,2022-02-08-19:14:03,10.1.1.5,37,-0.040,-0.040,-0.040,0.000,0.000,0.000
1644347643667467008,2022-02-08-19:14:03,10.1.1.5,37,-0.050,-0.050,-0.050,0.000,0.000,0.000
1644347643767075072,2022-02-08-19:14:03,10.1.1.5,35,-0.060,-0.060,-0.060,0.000,0.000,0.000
1644347643866885888,2022-02-08-19:14:03,10.1.1.5,33,-0.070,-0.070,-0.070,0.000,0.000,0.000
1644347643966164992,2022-02-08-19:14:03,10.1.1.5,31,-0.080,-0.080,-0.080,0.000,0.000,0.000
1644347644066585088,2022-02-08-19:14:04,10.1.1.5,31,-0.090,-0.090,-0.090,0.000,0.000,0.000
1644347644167671808,2022-02-08-19:14:04,10.1.1.5,30,-0.100,-0.100,-0.100,0.000,0.000,0.000
1644347644266108160,2022-02-08-19:14:04,10.1.1.5,29,-0.090,-0.090,-0.090,0.000,0.000,0.000
1644347644366315008,2022-02-08-19:14:04,10.1.1.5,26,-0.080,-0.080,-0.080,0.000,0.000,0.000
1644347644466605824,2022-02-08-19:14:04,10.1.1.5,24,-0.070,-0.070,-0.070,0.000,0.000,0.000
1644347644570451968,2022-02-08-19:14:04,10.1.1.5,23,-0.060,-0.060,-0.060,0.000,0.000,0.000
1644347644667651840,2022-02-08-19:14:04,10.1.1.5,22,-0.050,-0.050,-0.050,0.000,0.000,0.000
1644347644767973888,2022-02-08-19:14:04,10.1.1.5,21,-0.040,-0.040,-0.040,0.000,0.000,0.000
1644347644868429056,2022-02-08-19:14:04,10.1.1.5,20,-0.030,-0.030,-0.030,0.000,0.000,0.000
1644347644987874048,2022-02-08-19:14:04,10.1.1.5,38,-0.020,-0.020,-0.020,0.000,0.000,0.000
1644347645091804928,2022-02-08-19:14:05,10.1.1.5,36,-0.010,-0.010,-0.010,0.000,0.000,0.000
1644347645186491136,2022-02-08-19:14:05,10.1.1.5,34,0.000,0.000,0.000,0.000,0.000,0.000
1644347645289509120,2022-02-08-19:14:05,10.1.1.5,33,0.010,0.010,0.010,0.000,0.000,0.000
1644347645487837952,2022-02-08-19:14:05,10.1.1.5,26,0.030,0.030,0.030,0.000,0.000,0.000
1644347645587862016,2022-02-08-19:14:05,10.1.1.5,25,0.040,0.040,0.040,0.000,0.000,0.000
1644347645687186944,2022-02-08-19:14:05,10.1.1.5,25,0.050,0.050,0.050,0.000,0.000,0.000
1644347645811328000,2022-02-08-19:14:05,10.1.1.5,38,0.060,0.060,0.060,0.000,0.000,0.000
1644347645908143104,2022-02-08-19:14:05,10.1.1.5,36,0.070,0.070,0.070,0.000,0.000,0.000
1644347646005820928,2022-02-08-19:14:06,10.1.1.5,35,0.080,0.080,0.080,0.000,0.000,0.000
1644347646109029120,2022-02-08-19:14:06,10.1.1.5,33,0.090,0.090,0.090,0.000,0.000,0.000
1644347646209131008,2022-02-08-19:14:06,10.1.1.5,32,0.100,0.100,0.100,0.000,0.000,0.000
1644347646308239104,2022-02-08-19:14:06,10.1.1.5,31,0.090,0.090,0.090,0.000,0.000,0.000
1644347646409411072,2022-02-08-19:14:06,10.1.1.5,29,0.080,0.080,0.080,0.000,0.000,0.000
1644347646507397888,2022-02-08-19:14:06,10.1.1.5,27,0.070,0.070,0.070,0.000,0.000,0.000
1644347646607379968,2022-02-08-19:14:06,10.1.1.5,27,0.060,0.060,0.060,0.000,0.000,0.000
1644347646707462144,2022-02-08-19:14:06,10.1.1.5,26,0.050,0.050,0.050,0.000,0.000,0.000
1644347646812946176,2022-02-08-19:14:06,10.1.1.5,22,0.040,0.040,0.040,0.000,0.000,0.000
1644347646906625024,2022-02-08-19:14:06,10.1.1.5,21,0.030,0.030,0.030,0.000,0.000,0.000
1644347647008208128,2022-02-08-19:14:07,10.1.1.5,20,0.020,0.020,0.020,0.000,0.000,0.000
1644347647107625984,2022-02-08-19:14:07,10.1.1.5,19,0.010,0.010,0.010,0.000,0.000,0.000
1644347647227961088,2022-02-08-19:14:07,10.1.1.5,39,0.000,0.000,0.000,0.000,0.000,0.000
1644347647326550016,2022-02-08-19:14:07,10.1.1.5,38,-0.010,-0.010,-0.010,0.000,0.000,0.000
1644347647427352832,2022-02-08-19:14:07,10.1.1.5,36,-0.020,-0.020,-0.020,0.000,0.000,0.000
1644347647527975936,2022-02-08-19:14:07,10.1.1.5,35,-0.030,-0.030,-0.030,0.000,0.000,0.000
1644347647626610944,2022-02-08-19:14:07,10.1.1.5,31,-0.040,-0.040,-0.040,0.000,0.000,0.000
1644347647728019968,2022-02-08-19:14:07,10.1.1.5,30,-0.050,-0.050,-0.050,0.000,0.000,0.000
1644347647826831104,2022-02-08-19:14:07,10.1.1.5,29,-0.060,-0.060,-0.060,0.000,0.000,0.000
1644347647927598848,2022-02-08-19:14:07,10.1.1.5,29,-0.070,-0.070,-0.070,0.000,0.000,0.000
1644347648027607808,2022-02-08-19:14:08,10.1.1.5,28,-0.080,-0.080,-0.080,0.000,0.000,0.000
1644347648126523904,2022-02-08-19:14:08,10.1.1.5,27,-0.090,-0.090,-0.090,0.000,0.000,0.000
1644347648227996160,2022-02-08-19:14:08,10.1.1.5,26,-0.100,-0.100,-0.100,0.000,0.000,0.000
1644347648326909184,2022-02-08-19:14:08,10.1.1.5,25,-0.090,-0.090,-0.090,0.000,0.000,0.000
1644347648426258944,2022-02-08-19:14:08,10.1.1.5,24,-0.080,-0.080,-0.080,0.000,0.000,0.000
1644347648528038144,2022-02-08-19:14:08,10.1.1.5,24,-0.070,-0.070,-0.070,0.000,0.000,0.000
1644347648627693056,2022-02-08-19:14:08,10.1.1.5,22,-0.060,-0.060,-0.060,0.000,0.000,0.000
1644347648727236864,2022-02-08-19:14:08,10.1.1.5,20,-0.050,-0.050,-0.050,0.000,0.000,0.000
1644347648826806016,2022-02-08-19:14:08,10.1.1.5,19,-0.040,-0.040,-0.040,0.000,0.000,0.000
1644347648926318848,2022-02-08-19:14:08,10.1.1.5,19,-0.030,-0.030,-0.030,0.000,0.000,0.000
1644347649048509952,2022-02-08-19:14:09,10.1.1.5,38,-0.020,-0.020,-0.020,0.000,0.000,0.000
1644347649148350976,2022-02-08-19:14:09,10.1.1.5,38,-0.010,-0.010,-0.010,0.000,0.000,0.000
1644347649250909952,2022-02-08-19:14:09,10.1.1.5,36,0.000,0.000,0.000,0.000,0.000,0.000
1644347649348984832,2022-02-08-19:14:09,10.1.1.5,35,0.010,0.010,0.010,0.000,0.000,0.000
1644347649451576832,2022-02-08-19:14:09,10.1.1.5,32,0.020,0.020,0.020,0.000,0.000,0.000
1644347649545790976,2022-02-08-19:14:09,10.1.1.5,31,0.030,0.030,0.030,0.000,0.000,0.000
1644347649649099008,2022-02-08-19:14:09,10.1.1.5,30,0.040,0.040,0.040,0.000,0.000,0.000
1644347649747698176,2022-02-08-19:14:09,10.1.1.5,29,0.050,0.050,0.050,0.000,0.000,0.000
1644347649849117952,2022-02-08-19:14:09,10.1.1.5,29,0.060,0.060,0.060,0.000,0.000,0.000
1644347649947945984,2022-02-08-19:14:09,10.1.1.5,29,0.070,0.070,0.070,0.000,0.000,0.000
1644347650051395840,2022-02-08-19:14:10,10.1.1.5,27,0.080,0.080,0.080,0.000,0.000,0.000
1644347650147998976,2022-02-08-19:14:10,10.1.1.5,26,0.090,0.090,0.090,0.000,0.000,0.000
1644347650246622976,2022-02-08-19:14:10,10.1.1.5,25,0.100,0.100,0.100,0.000,0.000,0.000
1644347650345735936,2022-02-08-19:14:10,10.1.1.5,24,0.090,0.090,0.090,0.000,0.000,0.000
1644347650446254848,2022-02-08-19:14:10,10.1.1.5,24,0.080,0.080,0.080,0.000,0.000,0.000
1644347650546188032,2022-02-08-19:14:10,10.1.1.5,22,0.070,0.070,0.070,0.000,0.000,0.000
1644347650650834944,2022-02-08-19:14:10,10.1.1.5,21,0.060,0.060,0.060,0.000,0.000,0.000
1644347650749375232,2022-02-08-19:14:10,10.1.1.5,19,0.051,0.051,0.051,0.000,0.000,0.000
1644347650865988864,2022-02-08-19:14:10,10.1.1.5,38,0.040,0.040,0.040,0.000,0.000,0.000
1644347650968486144,2022-02-08-19:14:10,10.1.1.5,36,0.030,0.030,0.030,0.000,0.000,0.000
1644347651069572864,2022-02-08-19:14:11,10.1.1.5,33,0.020,0.020,0.020,0.000,0.000,0.000
1644347651167567872,2022-02-08-19:14:11,10.1.1.5,32,0.010,0.010,0.010,0.000,0.000,0.000
1644347651268356096,2022-02-08-19:14:11,10.1.1.5,31,0.000,0.000,0.000,0.000,0.000,0.000
1644347651368415232,2022-02-08-19:14:11,10.1.1.5,31,-0.010,-0.010,-0.010,0.000,0.000,0.000
1644347651468072960,2022-02-08-19:14:11,10.1.1.5,30,-0.020,-0.020,-0.020,0.000,0.000,0.000
1644347651568113920,2022-02-08-19:14:11,10.1.1.5,29,-0.030,-0.030,-0.030,0.000,0.000,0.000
1644347651668474880,2022-02-08-19:14:11,10.1.1.5,26,-0.040,-0.040,-0.040,0.000,0.000,0.000
1644347651767921920,2022-02-08-19:14:11,10.1.1.5,22,-0.050,-0.050,-0.050,0.000,0.000,0.000
1644347651866008064,2022-02-08-19:14:11,10.1.1.5,21,-0.060,-0.060,-0.060,0.000,0.000,0.000
1644347651988163840,2022-02-08-19:14:11,10.1.1.5,38,-0.070,-0.070,-0.070,0.000,0.000,0.000
1644347652090851072,2022-02-08-19:14:12,10.1.1.5,38,-0.080,-0.080,-0.080,0.000,0.000,0.000
1644347652192801024,2022-02-08-19:14:12,10.1.1.5,30,-0.090,-0.090,-0.090,0.000,0.000,0.000
1644347652288758016,2022-02-08-19:14:12,10.1.1.5,27,-0.100,-0.100,-0.100,0.000,0.000,0.000
1644347652389139968,2022-02-08-19:14:12,10.1.1.5,26,-0.090,-0.090,-0.090,0.000,0.000,0.000
1644347652487951104,2022-02-08-19:14:12,10.1.1.5,24,-0.080,-0.080,-0.080,0.000,0.000,0.000
1644347652588174080,2022-02-08-19:14:12,10.1.1.5,23,-0.070,-0.070,-0.070,0.000,0.000,0.000
1644347652693248000,2022-02-08-19:14:12,10.1.1.5,22,-0.060,-0.060,-0.060,0.000,0.000,0.000
1644347652808196096,2022-02-08-19:14:12,10.1.1.5,38,-0.050,-0.050,-0.050,0.000,0.000,0.000
1644347652907120896,2022-02-08-19:14:12,10.1.1.5,37,-0.040,-0.040,-0.040,0.000,0.000,0.000
1644347653008024832,2022-02-08-19:14:13,10.1.1.5,36,-0.030,-0.030,-0.030,0.000,0.000,0.000
1644347653108023040,2022-02-08-19:14:13,10.1.1.5,35,-0.020,-0.020,-0.020,0.000,0.000,0.000
1644347653212665088,2022-02-08-19:14:13,10.1.1.5,33,-0.010,-0.010,-0.010,0.000,0.000,0.000
1644347653305737984,2022-02-08-19:14:13,10.1.1.5,32,0.000,0.000,0.000,0.000,0.000,0.000
1644347653407968000,2022-02-08-19:14:13,10.1.1.5,32,0.010,0.010,0.010,0.000,0.000,0.000
1644347653507868160,2022-02-08-19:14:13,10.1.1.5,31,0.020,0.020,0.020,0.000,0.000,0.000
1644347653607981824,2022-02-08-19:14:13,10.1.1.5,31,0.030,0.030,0.030,0.000,0.000,0.000
1644347653706001920,2022-02-08-19:14:13,10.1.1.5,30,0.040,0.040,0.040,0.000,0.000,0.000
1644347653806565888,2022-02-08-19:14:13,10.1.1.5,29,0.050,0.050,0.050,0.000,0.000,0.000
1644347653908180992,2022-02-08-19:14:13,10.1.1.5,29,0.060,0.060,0.060,0.000,0.000,0.000
1644347654007544064,2022-02-08-19:14:14,10.1.1.5,28,0.070,0.070,0.070,0.000,0.000,0.000
1644347654109508096,2022-02-08-19:14:14,10.1.1.5,27,0.080,0.080,0.080,0.000,0.000,0.000
1644347654207075072,2022-02-08-19:14:14,10.1.1.5,22,0.090,0.090,0.090,0.000,0.000,0.000
1644347654307154944,2022-02-08-19:14:14,10.1.1.5,21,0.100,0.100,0.100,0.000,0.000,0.000
1644347654406563072,2022-02-08-19:14:14,10.1.1.5,21,0.090,0.090,0.090,0.000,0.000,0.000
1644347654506642944,2022-02-08-19:14:14,10.1.1.5,20,0.080,0.080,0.080,0.000,0.000,0.000
1644347654607527936,2022-02-08-19:14:14,10.1.1.5,19,0.070,0.070,0.070,0.000,0.000,0.000
1644347654707764992,2022-02-08-19:14:14,10.1.1.5,19,0.061,0.061,0.061,0.000,0.000,0.000
1644347654827392000,2022-02-08-19:14:14,10.1.1.5,38,0.050,0.050,0.050,0.000,0.000,0.000
1644347654926810880,2022-02-08-19:14:14,10.1.1.5,38,0.040,0.040,0.040,0.000,0.000,0.000
1644347655026202880,2022-02-08-19:14:15,10.1.1.5,37,0.030,0.030,0.030,0.000,0.000,0.000
1644347655129229056,2022-02-08-19:14:15,10.1.1.5,36,0.020,0.020,0.020,0.000,0.000,0.000
1644347655226296832,2022-02-08-19:14:15,10.1.1.5,36,0.010,0.010,0.010,0.000,0.000,0.000
1644347655326950912,2022-02-08-19:14:15,10.1.1.5,34,-0.000,-0.000,-0.000,0.000,0.000,0.000
1644347655428414208,2022-02-08-19:14:15,10.1.1.5,32,-0.010,-0.010,-0.010,0.000,0.000,0.000
1644347655527572992,2022-02-08-19:14:15,10.1.1.5,31,-0.020,-0.020,-0.020,0.000,0.000,0.000
1644347655627443968,2022-02-08-19:14:15,10.1.1.5,30,-0.030,-0.030,-0.030,0.000,0.000,0.000
1644347655728739072,2022-02-08-19:14:15,10.1.1.5,30,-0.040,-0.040,-0.040,0.000,0.000,0.000
1644347655826814976,2022-02-08-19:14:15,10.1.1.5,29,-0.050,-0.050,-0.050,0.000,0.000,0.000
1644347655927405056,2022-02-08-19:14:15,10.1.1.5,29,-0.060,-0.060,-0.060,0.000,0.000,0.000
1644347656027676160,2022-02-08-19:14:16,10.1.1.5,28,-0.070,-0.070,-0.070,0.000,0.000,0.000
1644347656128366080,2022-02-08-19:14:16,10.1.1.5,27,-0.080,-0.080,-0.080,0.000,0.000,0.000
1644347656227792128,2022-02-08-19:14:16,10.1.1.5,26,-0.090,-0.090,-0.090,0.000,0.000,0.000
1644347656327419904,2022-02-08-19:14:16,10.1.1.5,25,-0.100,-0.100,-0.100,0.000,0.000,0.000
1644347656427623936,2022-02-08-19:14:16,10.1.1.5,24,-0.090,-0.090,-0.090,0.000,0.000,0.000
1644347656527506176,2022-02-08-19:14:16,10.1.1.5,23,-0.080,-0.080,-0.080,0.000,0.000,0.000
1644347656626735872,2022-02-08-19:14:16,10.1.1.5,22,-0.070,-0.070,-0.070,0.000,0.000,0.000
1644347656728250112,2022-02-08-19:14:16,10.1.1.5,21,-0.060,-0.060,-0.060,0.000,0.000,0.000
1644347656827547136,2022-02-08-19:14:16,10.1.1.5,18,-0.051,-0.051,-0.051,0.000,0.000,0.000
1644347656948278016,2022-02-08-19:14:16,10.1.1.5,37,-0.040,-0.040,-0.040,0.000,0.000,0.000
1644347657047564032,2022-02-08-19:14:17,10.1.1.5,33,-0.030,-0.030,-0.030,0.000,0.000,0.000
1644347657147904000,2022-02-08-19:14:17,10.1.1.5,32,-0.020,-0.020,-0.020,0.000,0.000,0.000
1644347657247875072,2022-02-08-19:14:17,10.1.1.5,31,-0.010,-0.010,-0.010,0.000,0.000,0.000
1644347657348599808,2022-02-08-19:14:17,10.1.1.5,30,0.000,0.000,0.000,0.000,0.000,0.000
1644347657448549120,2022-02-08-19:14:17,10.1.1.5,30,0.010,0.010,0.010,0.000,0.000,0.000
1644347657549006848,2022-02-08-19:14:17,10.1.1.5,29,0.020,0.020,0.020,0.000,0.000,0.000
1644347657649327872,2022-02-08-19:14:17,10.1.1.5,28,0.030,0.030,0.030,0.000,0.000,0.000
1644347657746994944,2022-02-08-19:14:17,10.1.1.5,28,0.040,0.040,0.040,0.000,0.000,0.000
1644347657848457216,2022-02-08-19:14:17,10.1.1.5,27,0.050,0.050,0.050,0.000,0.000,0.000
1644347657948654848,2022-02-08-19:14:17,10.1.1.5,27,0.060,0.060,0.060,0.000,0.000,0.000
1644347658048023040,2022-02-08-19:14:18,10.1.1.5,26,0.070,0.070,0.070,0.000,0.000,0.000
1644347658147110912,2022-02-08-19:14:18,10.1.1.5,24,0.080,0.080,0.080,0.000,0.000,0.000
1644347658247795200,2022-02-08-19:14:18,10.1.1.5,23,0.090,0.090,0.090,0.000,0.000,0.000
1644347658348641024,2022-02-08-19:14:18,10.1.1.5,22,0.100,0.100,0.100,0.000,0.000,0.000
1644347658450328064,2022-02-08-19:14:18,10.1.1.5,21,0.090,0.090,0.090,0.000,0.000,0.000
1644347658547591936,2022-02-08-19:14:18,10.1.1.5,19,0.080,0.080,0.080,0.000,0.000,0.000
1644347658668893184,2022-02-08-19:14:18,10.1.1.5,37,0.070,0.070,0.070,0.000,0.000,0.000
1644347658767890944,2022-02-08-19:14:18,10.1.1.5,36,0.060,0.060,0.060,0.000,0.000,0.000
1644347658867661056,2022-02-08-19:14:18,10.1.1.5,36,0.050,0.050,0.050,0.000,0.000,0.000
1644347658967484928,2022-02-08-19:14:18,10.1.1.5,35,0.040,0.040,0.040,0.000,0.000,0.000
1644347659073498880,2022-02-08-19:14:19,10.1.1.5,34,0.030,0.030,0.030,0.000,0.000,0.000
1644347659169028096,2022-02-08-19:14:19,10.1.1.5,28,0.020,0.020,0.020,0.000,0.000,0.000
1644347659267702016,2022-02-08-19:14:19,10.1.1.5,27,0.010,0.010,0.010,0.000,0.000,0.000
1644347659368557824,2022-02-08-19:14:19,10.1.1.5,26,0.000,0.000,0.000,0.000,0.000,0.000
1644347659468008960,2022-02-08-19:14:19,10.1.1.5,25,-0.010,-0.010,-0.010,0.000,0.000,0.000
1644347659568464896,2022-02-08-19:14:19,10.1.1.5,24,-0.020,-0.020,-0.020,0.000,0.000,0.000
1644347659667591936,2022-02-08-19:14:19,10.1.1.5,23,-0.030,-0.030,-0.030,0.000,0.000,0.000
1644347659767481088,2022-02-08-19:14:19,10.1.1.5,22,-0.040,-0.040,-0.040,0.000,0.000,0.000
1644347659867186944,2022-02-08-19:14:19,10.1.1.5,22,-0.050,-0.050,-0.050,0.000,0.000,0.000
1644347659967961088,2022-02-08-19:14:19,10.1.1.5,21,-0.060,-0.060,-0.060,0.000,0.000,0.000
1644347660067910912,2022-02-08-19:14:20,10.1.1.5,20,-0.070,-0.070,-0.070,0.000,0.000,0.000
1644347660167154176,2022-02-08-19:14:20,10.1.1.5,19,-0.080,-0.080,-0.080,0.000,0.000,0.000
1644347660267013120,2022-02-08-19:14:20,10.1.1.5,19,-0.090,-0.090,-0.090,0.000,0.000,0.000
1644347660390448128,2022-02-08-19:14:20,10.1.1.5,38,-0.100,-0.100,-0.100,0.000,0.000,0.000
1644347660491166208,2022-02-08-19:14:20,10.1.1.5,37,-0.090,-0.090,-0.090,0.000,0.000,0.000
1644347660588641792,2022-02-08-19:14:20,10.1.1.5,36,-0.080,-0.080,-0.080,0.000,0.000,0.000
1644347660693411072,2022-02-08-19:14:20,10.1.1.5,35,-0.070,-0.070,-0.070,0.000,0.000,0.000
1644347660787630080,2022-02-08-19:14:20,10.1.1.5,31,-0.060,-0.060,-0.060,0.000,0.000,0.000
1644347660890072064,2022-02-08-19:14:20,10.1.1.5,30,-0.050,-0.050,-0.050,0.000,0.000,0.000
1644347660988532992,2022-02-08-19:14:20,10.1.1.5,30,-0.040,-0.040,-0.040,0.000,0.000,0.000
1644347661089413888,2022-02-08-19:14:21,10.1.1.5,29,-0.030,-0.030,-0.030,0.000,0.000,0.000
1644347661188136960,2022-02-08-19:14:21,10.1.1.5,28,-0.020,-0.020,-0.020,0.000,0.000,0.000
1644347661288201984,2022-02-08-19:14:21,10.1.1.5,23,-0.010,-0.010,-0.010,0.000,0.000,0.000
1644347661388984064,2022-02-08-19:14:21,10.1.1.5,22,0.000,0.000,0.000,0.000,0.000,0.000
1644347661487884032,2022-02-08-19:14:21,10.1.1.5,21,0.010,0.010,0.010,0.000,0.000,0.000
1644347661587802880,2022-02-08-19:14:21,10.1.1.5,18,0.019,0.019,0.019,0.000,0.000,0.000
1644347661708436992,2022-02-08-19:14:21,10.1.1.5,38,0.030,0.030,0.030,0.000,0.000,0.000
1644347661808662784,2022-02-08-19:14:21,10.1.1.5,37,0.040,0.040,0.040,0.000,0.000,0.000
1644347661908066048,2022-02-08-19:14:21,10.1.1.5,35,0.050,0.050,0.050,0.000,0.000,0.000
1644347662007201792,2022-02-08-19:14:22,10.1.1.5,32,0.060,0.060,0.060,0.000,0.000,0.000
1644347662108321024,2022-02-08-19:14:22,10.1.1.5,31,0.070,0.070,0.070,0.000,0.000,0.000
1644347662206435840,2022-02-08-19:14:22,10.1.1.5,31,0.080,0.080,0.080,0.000,0.000,0.000
1644347662306621184,2022-02-08-19:14:22,10.1.1.5,30,0.090,0.090,0.090,0.000,0.000,0.000
1644347662409869056,2022-02-08-19:14:22,10.1.1.5,30,0.100,0.100,0.100,0.000,0.000,0.000
1644347662507177984,2022-02-08-19:14:22,10.1.1.5,29,0.090,0.090,0.090,0.000,0.000,0.000
1644347662608216064,2022-02-08-19:14:22,10.1.1.5,29,0.080,0.080,0.080,0.000,0.000,0.000
1644347662705899008,2022-02-08-19:14:22,10.1.1.5,27,0.070,0.070,0.070,0.000,0.000,0.000
1644347662805900032,2022-02-08-19:14:22,10.1.1.5,27,0.060,0.060,0.060,0.000,0.000,0.000
1644347662912865024,2022-02-08-19:14:22,10.1.1.5,26,0.050,0.050,0.050,0.000,0.000,0.000
1644347663007608832,2022-02-08-19:14:23,10.1.1.5,26,0.040,0.040,0.040,0.000,0.000,0.000
1644347663108243968,2022-02-08-19:14:23,10.1.1.5,24,0.030,0.030,0.030,0.000,0.000,0.000
1644347663209153024,2022-02-08-19:14:23,10.1.1.5,22,0.020,0.020,0.020,0.000,0.000,0.000
1644347663307506944,2022-02-08-19:14:23,10.1.1.5,21,0.010,0.010,0.010,0.000,0.000,0.000
1644347663406150144,2022-02-08-19:14:23,10.1.1.5,20,0.000,0.000,0.000,0.000,0.000,0.000
1644347663527080960,2022-02-08-19:14:23,10.1.1.5,38,-0.010,-0.010,-0.010,0.000,0.000,0.000
1644347663628377088,2022-02-08-19:14:23,10.1.1.5,37,-0.020,-0.020,-0.020,0.000,0.000,0.000
1644347663726162944,2022-02-08-19:14:23,10.1.1.5,36,-0.030,-0.030,-0.030,0.000,0.000,0.000
1644347663826939136,2022-02-08-19:14:23,10.1.1.5,36,-0.040,-0.040,-0.040,0.000,0.000,0.000
1644347663939443200,2022-02-08-19:14:23,10.1.1.5,25,-0.050,-0.050,-0.050,0.000,0.000,0.000
1644347664026541056,2022-02-08-19:14:24,10.1.1.5,23,-0.060,-0.060,-0.060,0.000,0.000,0.000
1644347664132535040,2022-02-08-19:14:24,10.1.1.5,22,-0.070,-0.070,-0.070,0.000,0.000,0.000
1644347664228492032,2022-02-08-19:14:24,10.1.1.5,21,-0.080,-0.080,-0.080,0.000,0.000,0.000
1644347664348086016,2022-02-08-19:14:24,10.1.1.5,38,-0.090,-0.090,-0.090,0.000,0.000,0.000
1644347664448847104,2022-02-08-19:14:24,10.1.1.5,37,-0.100,-0.100,-0.100,0.000,0.000,0.000
1644347664547074048,2022-02-08-19:14:24,10.1.1.5,36,-0.090,-0.090,-0.090,0.000,0.000,0.000
1644347664647316992,2022-02-08-19:14:24,10.1.1.5,36,-0.080,-0.080,-0.080,0.000,0.000,0.000
1644347664746813952,2022-02-08-19:14:24,10.1.1.5,35,-0.070,-0.070,-0.070,0.000,0.000,0.000
1644347664847787008,2022-02-08-19:14:24,10.1.1.5,32,-0.060,-0.060,-0.060,0.000,0.000,0.000
1644347664946337024,2022-02-08-19:14:24,10.1.1.5,32,-0.050,-0.050,-0.050,0.000,0.000,0.000
1644347665048207104,2022-02-08-19:14:25,10.1.1.5,31,-0.040,-0.040,-0.040,0.000,0.000,0.000
1644347665148352000,2022-02-08-19:14:25,10.1.1.5,31,-0.030,-0.030,-0.030,0.000,0.000,0.000
1644347665248982784,2022-02-08-19:14:25,10.1.1.5,30,-0.020,-0.020,-0.020,0.000,0.000,0.000
1644347665347672064,2022-02-08-19:14:25,10.1.1.5,29,-0.010,-0.010,-0.010,0.000,0.000,0.000
1644347665446168832,2022-02-08-19:14:25,10.1.1.5,29,0.000,0.000,0.000,0.000,0.000,0.000
1644347665547416832,2022-02-08-19:14:25,10.1.1.5,28,0.010,0.010,0.010,0.000,0.000,0.000
1644347665647470848,2022-02-08-19:14:25,10.1.1.5,28,0.020,0.020,0.020,0.000,0.000,0.000
1644347665748307968,2022-02-08-19:14:25,10.1.1.5,28,0.030,0.030,0.030,0.000,0.000,0.000
1644347665847887104,2022-02-08-19:14:25,10.1.1.5,27,0.040,0.040,0.040,0.000,0.000,0.000
1644347665946536192,2022-02-08-19:14:25,10.1.1.5,27,0.050,0.050,0.050,0.000,0.000,0.000
1644347666051462912,2022-02-08-19:14:26,10.1.1.5,26,0.060,0.060,0.060,0.000,0.000,0.000
1644347666147356160,2022-02-08-19:14:26,10.1.1.5,25,0.070,0.070,0.070,0.000,0.000,0.000
1644347666247847168,2022-02-08-19:14:26,10.1.1.5,25,0.080,0.080,0.080,0.000,0.000,0.000
1644347666346828032,2022-02-08-19:14:26,10.1.1.5,24,0.090,0.090,0.090,0.000,0.000,0.000
1644347666447817984,2022-02-08-19:14:26,10.1.1.5,24,0.100,0.100,0.100,0.000,0.000,0.000
1644347666547472896,2022-02-08-19:14:26,10.1.1.5,22,0.090,0.090,0.090,0.000,0.000,0.000
1644347666647932160,2022-02-08-19:14:26,10.1.1.5,21,0.080,0.080,0.080,0.000,0.000,0.000
1644347666748369920,2022-02-08-19:14:26,10.1.1.5,20,0.070,0.070,0.070,0.000,0.000,0.000
1644347666846575104,2022-02-08-19:14:26,10.1.1.5,19,0.061,0.061,0.061,0.000,0.000,0.000
1644347666966521856,2022-02-08-19:14:26,10.1.1.5,38,0.050,0.050,0.050,0.000,0.000,0.000
1644347667067557120,2022-02-08-19:14:27,10.1.1.5,38,0.040,0.040,0.040,0.000,0.000,0.000
1644347667166016000,2022-02-08-19:14:27,10.1.1.5,37,0.030,0.030,0.030,0.000,0.000,0.000
1644347667266458112,2022-02-08-19:14:27,10.1.1.5,36,0.020,0.020,0.020,0.000,0.000,0.000
1644347667366658816,2022-02-08-19:14:27,10.1.1.5,36,0.010,0.010,0.010,0.000,0.000,0.000
1644347667468763136,2022-02-08-19:14:27,10.1.1.5,31,0.000,0.000,0.000,0.000,0.000,0.000
1644347667566550016,2022-02-08-19:14:27,10.1.1.5,30,-0.010,-0.010,-0.010,0.000,0.000,0.000
1644347667670949888,2022-02-08-19:14:27,10.1.1.5,28,-0.020,-0.020,-0.020,0.000,0.000,0.000
1644347667769409024,2022-02-08-19:14:27,10.1.1.5,27,-0.030,-0.030,-0.030,0.000,0.000,0.000
1644347667867984896,2022-02-08-19:14:27,10.1.1.5,26,-0.040,-0.040,-0.040,0.000,0.000,0.000
1644347667966754048,2022-02-08-19:14:27,10.1.1.5,26,-0.050,-0.050,-0.050,0.000,0.000,0.000
1644347668066504960,2022-02-08-19:14:28,10.1.1.5,24,-0.060,-0.060,-0.060,0.000,0.000,0.000
1644347668168786944,2022-02-08-19:14:28,10.1.1.5,24,-0.070,-0.070,-0.070,0.000,0.000,0.000
1644347668266479104,2022-02-08-19:14:28,10.1.1.5,22,-0.080,-0.080,-0.080,0.000,0.000,0.000
1644347668366450176,2022-02-08-19:14:28,10.1.1.5,22,-0.090,-0.090,-0.090,0.000,0.000,0.000
1644347668467376896,2022-02-08-19:14:28,10.1.1.5,20,-0.100,-0.100,-0.100,0.000,0.000,0.000
1644347668569713152,2022-02-08-19:14:28,10.1.1.5,19,-0.091,-0.091,-0.091,0.000,0.000,0.000
1644347668687962112,2022-02-08-19:14:28,10.1.1.5,37,-0.080,-0.080,-0.080,0.000,0.000,0.000
1644347668787599104,2022-02-08-19:14:28,10.1.1.5,37,-0.070,-0.070,-0.070,0.000,0.000,0.000
1644347668889691136,2022-02-08-19:14:28,10.1.1.5,36,-0.060,-0.060,-0.060,0.000,0.000,0.000
1644347668987830016,2022-02-08-19:14:28,10.1.1.5,33,-0.050,-0.050,-0.050,0.000,0.000,0.000
1644347669088355072,2022-02-08-19:14:29,10.1.1.5,32,-0.040,-0.040,-0.040,0.000,0.000,0.000
1644347669187702784,2022-02-08-19:14:29,10.1.1.5,31,-0.030,-0.030,-0.030,0.000,0.000,0.000
1644347669288525056,2022-02-08-19:14:29,10.1.1.5,30,-0.020,-0.020,-0.020,0.000,0.000,0.000
1644347669386708992,2022-02-08-19:14:29,10.1.1.5,29,-0.010,-0.010,-0.010,0.000,0.000,0.000
1644347669486350080,2022-02-08-19:14:29,10.1.1.5,28,0.000,0.000,0.000,0.000,0.000,0.000
1644347669587865088,2022-02-08-19:14:29,10.1.1.5,28,0.010,0.010,0.010,0.000,0.000,0.000
1644347669688591872,2022-02-08-19:14:29,10.1.1.5,27,0.020,0.020,0.020,0.000,0.000,0.000
1644347669789177856,2022-02-08-19:14:29,10.1.1.5,25,0.030,0.030,0.030,0.000,0.000,0.000
1644347669886035968,2022-02-08-19:14:29,10.1.1.5,25,0.040,0.040,0.040,0.000,0.000,0.000
1644347669989398016,2022-02-08-19:14:29,10.1.1.5,23,0.050,0.050,0.050,0.000,0.000,0.000
1644347670088679168,2022-02-08-19:14:30,10.1.1.5,22,0.060,0.060,0.060,0.000,0.000,0.000
1644347670187169024,2022-02-08-19:14:30,10.1.1.5,21,0.070,0.070,0.070,0.000,0.000,0.000
1644347670287070976,2022-02-08-19:14:30,10.1.1.5,19,0.080,0.080,0.080,0.000,0.000,0.000
1644347670387474944,2022-02-08-19:14:30,10.1.1.5,18,0.089,0.089,0.089,0.000,0.000,0.000
1644347670507819008,2022-02-08-19:14:30,10.1.1.5,37,0.100,0.100,0.100,0.000,0.000,0.000
1644347670608267008,2022-02-08-19:14:30,10.1.1.5,37,0.090,0.090,0.090,0.000,0.000,0.000
1644347670708960000,2022-02-08-19:14:30,10.1.1.5,36,0.080,0.080,0.080,0.000,0.000,0.000
1644347670809772032,2022-02-08-19:14:30,10.1.1.5,32,0.070,0.070,0.070,0.000,0.000,0.000
1644347670906984192,2022-02-08-19:14:30,10.1.1.5,31,0.060,0.060,0.060,0.000,0.000,0.000
1644347671008217088,2022-02-08-19:14:31,10.1.1.5,31,0.050,0.050,0.050,0.000,0.000,0.000
1644347671107770880,2022-02-08-19:14:31,10.1.1.5,30,0.040,0.040,0.040,0.000,0.000,0.000
1644347671207089920,2022-02-08-19:14:31,10.1.1.5,30,0.030,0.030,0.030,0.000,0.000,0.000
1644347671308569856,2022-02-08-19:14:31,10.1.1.5,29,0.020,0.020,0.020,0.000,0.000,0.000
1644347671407949056,2022-02-08-19:14:31,10.1.1.5,28,0.010,0.010,0.010,0.000,0.000,0.000
1644347671508982016,2022-02-08-19:14:31,10.1.1.5,27,0.000,0.000,0.000,0.000,0.000,0.000
1644347671607386112,2022-02-08-19:14:31,10.1.1.5,24,-0.010,-0.010,-0.010,0.000,0.000,0.000
1644347671708662016,2022-02-08-19:14:31,10.1.1.5,24,-0.020,-0.020,-0.020,0.000,0.000,0.000
1644347671829776896,2022-02-08-19:14:31,10.1.1.5,39,-0.030,-0.030,-0.030,0.000,0.000,0.000
1644347671927001856,2022-02-08-19:14:31,10.1.1.5,36,-0.040,-0.040,-0.040,0.000,0.000,0.000
1644347672028559872,2022-02-08-19:14:32,10.1.1.5,35,-0.050,-0.050,-0.050,0.000,0.000,0.000
1644347672128217856,2022-02-08-19:14:32,10.1.1.5,31,-0.060,-0.060,-0.060,0.000,0.000,0.000
1644347672228660224,2022-02-08-19:14:32,10.1.1.5,24,-0.070,-0.070,-0.070,0.000,0.000,0.000
1644347672326673920,2022-02-08-19:14:32,10.1.1.5,22,-0.080,-0.080,-0.080,0.000,0.000,0.000
1644347672428306944,2022-02-08-19:14:32,10.1.1.5,19,-0.090,-0.090,-0.090,0.000,0.000,0.000
1644347672547172096,2022-02-08-19:14:32,10.1.1.5,37,-0.100,-0.100,-0.100,0.000,0.000,0.000
1644347672648080128,2022-02-08-19:14:32,10.1.1.5,32,-0.090,-0.090,-0.090,0.000,0.000,0.000
1644347672860903936,2022-02-08-19:14:32,10.1.1.5,28,-0.070,-0.070,-0.070,0.000,0.000,0.000
1644347672947529984,2022-02-08-19:14:32,10.1.1.5,25,-0.060,-0.060,-0.060,0.000,0.000,0.000
1644347673050088960,2022-02-08-19:14:33,10.1.1.5,26,-0.050,-0.050,-0.050,0.000,0.000,0.000
1644347673149364992,2022-02-08-19:14:33,10.1.1.5,25,-0.040,-0.040,-0.040,0.000,0.000,0.000
1644347673248534016,2022-02-08-19:14:33,10.1.1.5,24,-0.030,-0.030,-0.030,0.000,0.000,0.000
1644347673346951936,2022-02-08-19:14:33,10.1.1.5,24,-0.020,-0.020,-0.020,0.000,0.000,0.000
1644347673449342976,2022-02-08-19:14:33,10.1.1.5,23,-0.010,-0.010,-0.010,0.000,0.000,0.000
1644347673552783872,2022-02-08-19:14:33,10.1.1.5,23,0.000,0.000,0.000,0.000,0.000,0.000
1644347673649296128,2022-02-08-19:14:33,10.1.1.5,22,0.010,0.010,0.010,0.000,0.000,0.000
1644347673748920832,2022-02-08-19:14:33,10.1.1.5,20,0.020,0.020,0.020,0.000,0.000,0.000
1644347673848316928,2022-02-08-19:14:33,10.1.1.5,20,0.030,0.030,0.030,0.000,0.000,0.000
1644347673946100992,2022-02-08-19:14:33,10.1.1.5,19,0.039,0.039,0.039,0.000,0.000,0.000
1644347674069019136,2022-02-08-19:14:34,10.1.1.5,38,0.050,0.050,0.050,0.000,0.000,0.000
1644347674168164096,2022-02-08-19:14:34,10.1.1.5,37,0.060,0.060,0.060,0.000,0.000,0.000
1644347674267847936,2022-02-08-19:14:34,10.1.1.5,37,0.070,0.070,0.070,0.000,0.000,0.000
1644347674368040960,2022-02-08-19:14:34,10.1.1.5,36,0.080,0.080,0.080,0.000,0.000,0.000
1644347674467764992,2022-02-08-19:14:34,10.1.1.5,36,0.090,0.090,0.090,0.000,0.000,0.000
1644347674568689152,2022-02-08-19:14:34,10.1.1.5,36,0.100,0.100,0.100,0.000,0.000,0.000
1644347674666876160,2022-02-08-19:14:34,10.1.1.5,35,0.090,0.090,0.090,0.000,0.000,0.000
1644347674768340992,2022-02-08-19:14:34,10.1.1.5,33,0.080,0.080,0.080,0.000,0.000,0.000
1644347674867909888,2022-02-08-19:14:34,10.1.1.5,33,0.070,0.070,0.070,0.000,0.000,0.000
1644347674968403200,2022-02-08-19:14:34,10.1.1.5,32,0.060,0.060,0.060,0.000,0.000,0.000
1644347675067847936,2022-02-08-19:14:35,10.1.1.5,32,0.050,0.050,0.050,0.000,0.000,0.000
1644347675170593024,2022-02-08-19:14:35,10.1.1.5,30,0.040,0.040,0.040,0.000,0.000,0.000
1644347675267371776,2022-02-08-19:14:35,10.1.1.5,29,0.030,0.030,0.030,0.000,0.000,0.000
1644347675367296000,2022-02-08-19:14:35,10.1.1.5,28,0.020,0.020,0.020,0.000,0.000,0.000
1644347675466607104,2022-02-08-19:14:35,10.1.1.5,27,0.010,0.010,0.010,0.000,0.000,0.000
1644347675567380992,2022-02-08-19:14:35,10.1.1.5,27,0.000,0.000,0.000,0.000,0.000,0.000
1644347675670370048,2022-02-08-19:14:35,10.1.1.5,26,-0.010,-0.010,-0.010,0.000,0.000,0.000
1644347675766673152,2022-02-08-19:14:35,10.1.1.5,25,-0.020,-0.020,-0.020,0.000,0.000,0.000
1644347675867465984,2022-02-08-19:14:35,10.1.1.5,25,-0.030,-0.030,-0.030,0.000,0.000,0.000
1644347675967170048,2022-02-08-19:14:35,10.1.1.5,24,-0.040,-0.040,-0.040,0.000,0.000,0.000
1644347676067041024,2022-02-08-19:14:36,10.1.1.5,24,-0.050,-0.050,-0.050,0.000,0.000,0.000
1644347676167965952,2022-02-08-19:14:36,10.1.1.5,22,-0.060,-0.060,-0.060,0.000,0.000,0.000
1644347676266503936,2022-02-08-19:14:36,10.1.1.5,22,-0.070,-0.070,-0.070,0.000,0.000,0.000
1644347676367747072,2022-02-08-19:14:36,10.1.1.5,21,-0.080,-0.080,-0.080,0.000,0.000,0.000
1644347676466022912,2022-02-08-19:14:36,10.1.1.5,21,-0.090,-0.090,-0.090,0.000,0.000,0.000
1644347676565944064,2022-02-08-19:14:36,10.1.1.5,19,-0.100,-0.100,-0.100,0.000,0.000,0.000
1644347676687522048,2022-02-08-19:14:36,10.1.1.5,38,-0.090,-0.090,-0.090,0.000,0.000,0.000
1644347676787655168,2022-02-08-19:14:36,10.1.1.5,38,-0.080,-0.080,-0.080,0.000,0.000,0.000
1644347676887458048,2022-02-08-19:14:36,10.1.1.5,37,-0.070,-0.070,-0.070,0.000,0.000,0.000
1644347676993657088,2022-02-08-19:14:36,10.1.1.5,29,-0.060,-0.060,-0.060,0.000,0.000,0.000
1644347677087652864,2022-02-08-19:14:37,10.1.1.5,22,-0.050,-0.050,-0.050,0.000,0.000,0.000
1644347677187612160,2022-02-08-19:14:37,10.1.1.5,22,-0.040,-0.040,-0.040,0.000,0.000,0.000
1644347677288788992,2022-02-08-19:14:37,10.1.1.5,22,-0.030,-0.030,-0.030,0.000,0.000,0.000
1644347677386898944,2022-02-08-19:14:37,10.1.1.5,21,-0.020,-0.020,-0.020,0.000,0.000,0.000
1644347677487444992,2022-02-08-19:14:37,10.1.1.5,20,-0.010,-0.010,-0.010,0.000,0.000,0.000
1644347677588481024,2022-02-08-19:14:37,10.1.1.5,20,0.000,0.000,0.000,0.000,0.000,0.000
1644347677687529984,2022-02-08-19:14:37,10.1.1.5,19,0.010,0.010,0.010,0.000,0.000,0.000
1644347677788583168,2022-02-08-19:14:37,10.1.1.5,18,0.019,0.019,0.019,0.000,0.000,0.000
1644347677907821824,2022-02-08-19:14:37,10.1.1.5,38,0.030,0.030,0.030,0.000,0.000,0.000
1644347678007138048,2022-02-08-19:14:38,10.1.1.5,38,0.040,0.040,0.040,0.000,0.000,0.000
1644347678105957888,2022-02-08-19:14:38,10.1.1.5,37,0.050,0.050,0.050,0.000,0.000,0.000
1644347678206285056,2022-02-08-19:14:38,10.1.1.5,36,0.060,0.060,0.060,0.000,0.000,0.000
1644347678305670144,2022-02-08-19:14:38,10.1.1.5,36,0.070,0.070,0.070,0.000,0.000,0.000
1644347678406317824,2022-02-08-19:14:38,10.1.1.5,35,0.080,0.080,0.080,0.000,0.000,0.000
1644347678505682944,2022-02-08-19:14:38,10.1.1.5,35,0.090,0.090,0.090,0.000,0.000,0.000
1644347678605870848,2022-02-08-19:14:38,10.1.1.5,33,0.100,0.100,0.100,0.000,0.000,0.000
1644347678706494976,2022-02-08-19:14:38,10.1.1.5,33,0.090,0.090,0.090,0.000,0.000,0.000
1644347678807107840,2022-02-08-19:14:38,10.1.1.5,32,0.080,0.080,0.080,0.000,0.000,0.000
1644347678910984960,2022-02-08-19:14:38,10.1.1.5,31,0.070,0.070,0.070,0.000,0.000,0.000
1644347679005654016,2022-02-08-19:14:39,10.1.1.5,30,0.060,0.060,0.060,0.000,0.000,0.000
1644347679106221824,2022-02-08-19:14:39,10.1.1.5,30,0.050,0.050,0.050,0.000,0.000,0.000
1644347679206729984,2022-02-08-19:14:39,10.1.1.5,29,0.040,0.040,0.040,0.000,0.000,0.000
1644347679305794048,2022-02-08-19:14:39,10.1.1.5,29,0.030,0.030,0.030,0.000,0.000,0.000
1644347679409161216,2022-02-08-19:14:39,10.1.1.5,28,0.020,0.020,0.020,0.000,0.000,0.000
1644347679507828992,2022-02-08-19:14:39,10.1.1.5,28,0.010,0.010,0.010,0.000,0.000,0.000
1644347679612765952,2022-02-08-19:14:39,10.1.1.5,26,0.000,0.000,0.000,0.000,0.000,0.000
1644347679705998848,2022-02-08-19:14:39,10.1.1.5,24,-0.010,-0.010,-0.010,0.000,0.000,0.000
1644347679807226880,2022-02-08-19:14:39,10.1.1.5,24,-0.020,-0.020,-0.020,0.000,0.000,0.000
1644347679906608128,2022-02-08-19:14:39,10.1.1.5,24,-0.030,-0.030,-0.030,0.000,0.000,0.000
1644347680007854080,2022-02-08-19:14:40,10.1.1.5,23,-0.040,-0.040,-0.040,0.000,0.000,0.000
1644347680107400960,2022-02-08-19:14:40,10.1.1.5,22,-0.050,-0.050,-0.050,0.000,0.000,0.000
1644347680207855872,2022-02-08-19:14:40,10.1.1.5,22,-0.060,-0.060,-0.060,0.000,0.000,0.000
1644347680307668992,2022-02-08-19:14:40,10.1.1.5,21,-0.070,-0.070,-0.070,0.000,0.000,0.000
1644347680407752960,2022-02-08-19:14:40,10.1.1.5,21,-0.080,-0.080,-0.080,0.000,0.000,0.000
1644347680509975808,2022-02-08-19:14:40,10.1.1.5,19,-0.089,-0.089,-0.089,0.000,0.000,0.000
1644347680628209152,2022-02-08-19:14:40,10.1.1.5,39,-0.100,-0.100,-0.100,0.000,0.000,0.000
1644347680731426048,2022-02-08-19:14:40,10.1.1.5,33,-0.090,-0.090,-0.090,0.000,0.000,0.000
1644347680829148160,2022-02-08-19:14:40,10.1.1.5,32,-0.080,-0.080,-0.080,0.000,0.000,0.000
1644347680928136192,2022-02-08-19:14:40,10.1.1.5,32,-0.070,-0.070,-0.070,0.000,0.000,0.000
1644347681027749888,2022-02-08-19:14:41,10.1.1.5,32,-0.060,-0.060,-0.060,0.000,0.000,0.000
1644347681128472064,2022-02-08-19:14:41,10.1.1.5,31,-0.050,-0.050,-0.050,0.000,0.000,0.000
1644347681230510080,2022-02-08-19:14:41,10.1.1.5,27,-0.040,-0.040,-0.040,0.000,0.000,0.000
1644347681325946112,2022-02-08-19:14:41,10.1.1.5,26,-0.030,-0.030,-0.030,0.000,0.000,0.000
1644347681426750976,2022-02-08-19:14:41,10.1.1.5,25,-0.020,-0.020,-0.020,0.000,0.000,0.000
1644347681530011904,2022-02-08-19:14:41,10.1.1.5,24,-0.010,-0.010,-0.010,0.000,0.000,0.000
1644347681632055040,2022-02-08-19:14:41,10.1.1.5,24,0.000,0.000,0.000,0.000,0.000,0.000
1644347681727736832,2022-02-08-19:14:41,10.1.1.5,24,0.010,0.010,0.010,0.000,0.000,0.000
1644347681825906944,2022-02-08-19:14:41,10.1.1.5,22,0.020,0.020,0.020,0.000,0.000,0.000
1644347681928412928,2022-02-08-19:14:41,10.1.1.5,22,0.030,0.030,0.030,0.000,0.000,0.000
1644347682027930112,2022-02-08-19:14:42,10.1.1.5,21,0.040,0.040,0.040,0.000,0.000,0.000
1644347682127887872,2022-02-08-19:14:42,10.1.1.5,21,0.050,0.050,0.050,0.000,0.000,0.000
1644347682227111168,2022-02-08-19:14:42,10.1.1.5,20,0.060,0.060,0.060,0.000,0.000,0.000
1644347682328200192,2022-02-08-19:14:42,10.1.1.5,20,0.070,0.070,0.070,0.000,0.000,0.000
1644347682429760000,2022-02-08-19:14:42,10.1.1.5,19,0.080,0.080,0.080,0.000,0.000,0.000
1644347682546626048,2022-02-08-19:14:42,10.1.1.5,37,0.090,0.090,0.090,0.000,0.000,0.000
1644347682647804928,2022-02-08-19:14:42,10.1.1.5,36,0.100,0.100,0.100,0.000,0.000,0.000
1644347682746089984,2022-02-08-19:14:42,10.1.1.5,34,0.090,0.090,0.090,0.000,0.000,0.000
1644347682845790976,2022-02-08-19:14:42,10.1.1.5,34,0.080,0.080,0.080,0.000,0.000,0.000
1644347682946016000,2022-02-08-19:14:42,10.1.1.5,28,0.070,0.070,0.070,0.000,0.000,0.000
1644347683047350016,2022-02-08-19:14:43,10.1.1.5,27,0.060,0.060,0.060,0.000,0.000,0.000
1644347683145957120,2022-02-08-19:14:43,10.1.1.5,27,0.050,0.050,0.050,0.000,0.000,0.000
1644347683246409984,2022-02-08-19:14:43,10.1.1.5,26,0.040,0.040,0.040,0.000,0.000,0.000
1644347683349180928,2022-02-08-19:14:43,10.1.1.5,26,0.030,0.030,0.030,0.000,0.000,0.000
1644347683446480896,2022-02-08-19:14:43,10.1.1.5,25,0.020,0.020,0.020,0.000,0.000,0.000
1644347683546473984,2022-02-08-19:14:43,10.1.1.5,25,0.010,0.010,0.010,0.000,0.000,0.000
1644347683647993088,2022-02-08-19:14:43,10.1.1.5,24,0.000,0.000,0.000,0.000,0.000,0.000
1644347683747552000,2022-02-08-19:14:43,10.1.1.5,23,-0.010,-0.010,-0.010,0.000,0.000,0.000
1644347683847670016,2022-02-08-19:14:43,10.1.1.5,22,-0.020,-0.020,-0.020,0.000,0.000,0.000
1644347683946361088,2022-02-08-19:14:43,10.1.1.5,22,-0.030,-0.030,-0.030,0.000,0.000,0.000
1644347684048346112,2022-02-08-19:14:44,10.1.1.5,22,-0.040,-0.040,-0.040,0.000,0.000,0.000
1644347684145435136,2022-02-08-19:14:44,10.1.1.5,21,-0.050,-0.050,-0.050,0.000,0.000,0.000
1644347684246349056,2022-02-08-19:14:44,10.1.1.5,21,-0.060,-0.060,-0.060,0.000,0.000,0.000
1644347684346816000,2022-02-08-19:14:44,10.1.1.5,20,-0.070,-0.070,-0.070,0.000,0.000,0.000
1644347684446383872,2022-02-08-19:14:44,10.1.1.5,20,-0.080,-0.080,-0.080,0.000,0.000,0.000
1644347684548333056,2022-02-08-19:14:44,10.1.1.5,19,-0.090,-0.090,-0.090,0.000,0.000,0.000
1644347684646258944,2022-02-08-19:14:44,10.1.1.5,19,-0.099,-0.099,-0.099,0.000,0.000,0.000
1644347684766563840,2022-02-08-19:14:44,10.1.1.5,38,-0.090,-0.090,-0.090,0.000,0.000,0.000
1644347684872404992,2022-02-08-19:14:44,10.1.1.5,37,-0.080,-0.080,-0.080,0.000,0.000,0.000
1644347684967097088,2022-02-08-19:14:44,10.1.1.5,37,-0.070,-0.070,-0.070,0.000,0.000,0.000
1644347685072547840,2022-02-08-19:14:45,10.1.1.5,36,-0.060,-0.060,-0.060,0.000,0.000,0.000
1644347685166142976,2022-02-08-19:14:45,10.1.1.5,35,-0.050,-0.050,-0.050,0.000,0.000,0.000
1644347685268332032,2022-02-08-19:14:45,10.1.1.5,35,-0.040,-0.040,-0.040,0.000,0.000,0.000
1644347685366203136,2022-02-08-19:14:45,10.1.1.5,32,-0.030,-0.030,-0.030,0.000,0.000,0.000
1644347685466705152,2022-02-08-19:14:45,10.1.1.5,32,-0.020,-0.020,-0.020,0.000,0.000,0.000
1644347685566242816,2022-02-08-19:14:45,10.1.1.5,31,-0.010,-0.010,-0.010,0.000,0.000,0.000
1644347685666201088,2022-02-08-19:14:45,10.1.1.5,31,0.000,0.000,0.000,0.000,0.000,0.000
1644347685769468160,2022-02-08-19:14:45,10.1.1.5,30,0.010,0.010,0.010,0.000,0.000,0.000
1644347685869221888,2022-02-08-19:14:45,10.1.1.5,30,0.020,0.020,0.020,0.000,0.000,0.000
1644347685968410880,2022-02-08-19:14:45,10.1.1.5,29,0.030,0.030,0.030,0.000,0.000,0.000
1644347686070051840,2022-02-08-19:14:46,10.1.1.5,28,0.040,0.040,0.040,0.000,0.000,0.000
1644347686168233984,2022-02-08-19:14:46,10.1.1.5,27,0.050,0.050,0.050,0.000,0.000,0.000
1644347686265694976,2022-02-08-19:14:46,10.1.1.5,26,0.060,0.060,0.060,0.000,0.000,0.000
1644347686365908992,2022-02-08-19:14:46,10.1.1.5,24,0.070,0.070,0.070,0.000,0.000,0.000
1644347686466173952,2022-02-08-19:14:46,10.1.1.5,23,0.080,0.080,0.080,0.000,0.000,0.000
1644347686567272960,2022-02-08-19:14:46,10.1.1.5,21,0.090,0.090,0.090,0.000,0.000,0.000
1644347686666450944,2022-02-08-19:14:46,10.1.1.5,20,0.100,0.100,0.100,0.000,0.000,0.000
1644347686766573056,2022-02-08-19:14:46,10.1.1.5,20,0.090,0.090,0.090,0.000,0.000,0.000
1644347686866592000,2022-02-08-19:14:46,10.1.1.5,19,0.080,0.080,0.080,0.000,0.000,0.000
1644347686987413760,2022-02-08-19:14:46,10.1.1.5,36,0.070,0.070,0.070,0.000,0.000,0.000
1644347687086247936,2022-02-08-19:14:47,10.1.1.5,24,0.060,0.060,0.060,0.000,0.000,0.000
1644347687186113024,2022-02-08-19:14:47,10.1.1.5,20,0.050,0.050,0.050,0.000,0.000,0.000
1644347687307950848,2022-02-08-19:14:47,10.1.1.5,39,0.040,0.040,0.040,0.000,0.000,0.000
1644347687526161920,2022-02-08-19:14:47,10.1.1.5,29,0.020,0.020,0.020,0.000,0.000,0.000
1644347687627578112,2022-02-08-19:14:47,10.1.1.5,28,0.010,0.010,0.010,0.000,0.000,0.000
1644347687726232064,2022-02-08-19:14:47,10.1.1.5,26,0.000,0.000,0.000,0.000,0.000,0.000
1644347687826214144,2022-02-08-19:14:47,10.1.1.5,24,-0.010,-0.010,-0.010,0.000,0.000,0.000
1644347687926393088,2022-02-08-19:14:47,10.1.1.5,23,-0.020,-0.020,-0.020,0.000,0.000,0.000
1644347688026685952,2022-02-08-19:14:48,10.1.1.5,22,-0.030,-0.030,-0.030,0.000,0.000,0.000
1644347688127856128,2022-02-08-19:14:48,10.1.1.5,21,-0.040,-0.040,-0.040,0.000,0.000,0.000
1644347688229583872,2022-02-08-19:14:48,10.1.1.5,19,-0.049,-0.049,-0.049,0.000,0.000,0.000
1644347688351574016,2022-02-08-19:14:48,10.1.1.5,38,-0.060,-0.060,-0.060,0.000,0.000,0.000
1644347688449511168,2022-02-08-19:14:48,10.1.1.5,37,-0.070,-0.070,-0.070,0.000,0.000,0.000
1644347688546484992,2022-02-08-19:14:48,10.1.1.5,37,-0.080,-0.080,-0.080,0.000,0.000,0.000
1644347688649854976,2022-02-08-19:14:48,10.1.1.5,34,-0.090,-0.090,-0.090,0.000,0.000,0.000
1644347688749829888,2022-02-08-19:14:48,10.1.1.5,31,-0.100,-0.100,-0.100,0.000,0.000,0.000
1644347688848484096,2022-02-08-19:14:48,10.1.1.5,30,-0.090,-0.090,-0.090,0.000,0.000,0.000
1644347688947655936,2022-02-08-19:14:48,10.1.1.5,30,-0.080,-0.080,-0.080,0.000,0.000,0.000
1644347689049974016,2022-02-08-19:14:49,10.1.1.5,29,-0.070,-0.070,-0.070,0.000,0.000,0.000
1644347689146214912,2022-02-08-19:14:49,10.1.1.5,28,-0.060,-0.060,-0.060,0.000,0.000,0.000
1644347689248485120,2022-02-08-19:14:49,10.1.1.5,28,-0.050,-0.050,-0.050,0.000,0.000,0.000
1644347689347752192,2022-02-08-19:14:49,10.1.1.5,27,-0.040,-0.040,-0.040,0.000,0.000,0.000
1644347689447259904,2022-02-08-19:14:49,10.1.1.5,26,-0.030,-0.030,-0.030,0.000,0.000,0.000
1644347689548568064,2022-02-08-19:14:49,10.1.1.5,25,-0.020,-0.020,-0.020,0.000,0.000,0.000
1644347689768579072,2022-02-08-19:14:49,10.1.1.5,36,0.000,0.000,0.000,0.000,0.000,0.000
1644347689866065920,2022-02-08-19:14:49,10.1.1.5,35,0.010,0.010,0.010,0.000,0.000,0.000
1644347689966578944,2022-02-08-19:14:49,10.1.1.5,34,0.020,0.020,0.020,0.000,0.000,0.000
1644347690092164096,2022-02-08-19:14:50,10.1.1.5,32,0.030,0.030,0.030,0.000,0.000,0.000
1644347690167369984,2022-02-08-19:14:50,10.1.1.5,32,0.040,0.040,0.040,0.000,0.000,0.000
1644347690268930816,2022-02-08-19:14:50,10.1.1.5,30,0.050,0.050,0.050,0.000,0.000,0.000
1644347690366051840,2022-02-08-19:14:50,10.1.1.5,20,0.060,0.060,0.060,0.000,0.000,0.000
1644347690466341888,2022-02-08-19:14:50,10.1.1.5,20,0.070,0.070,0.070,0.000,0.000,0.000
1644347690586648064,2022-02-08-19:14:50,10.1.1.5,38,0.080,0.080,0.080,0.000,0.000,0.000
1644347690699460096,2022-02-08-19:14:50,10.1.1.5,37,0.090,0.090,0.090,0.000,0.000,0.000
1644347690786118912,2022-02-08-19:14:50,10.1.1.5,36,0.100,0.100,0.100,0.000,0.000,0.000
1644347690886897920,2022-02-08-19:14:50,10.1.1.5,36,0.090,0.090,0.090,0.000,0.000,0.000
1644347690988428032,2022-02-08-19:14:50,10.1.1.5,35,0.080,0.080,0.080,0.000,0.000,0.000
1644347691086464768,2022-02-08-19:14:51,10.1.1.5,33,0.070,0.070,0.070,0.000,0.000,0.000
1644347691189445120,2022-02-08-19:14:51,10.1.1.5,30,0.060,0.060,0.060,0.000,0.000,0.000
1644347691288198912,2022-02-08-19:14:51,10.1.1.5,27,0.050,0.050,0.050,0.000,0.000,0.000
1644347691391006976,2022-02-08-19:14:51,10.1.1.5,26,0.040,0.040,0.040,0.000,0.000,0.000
1644347691486417152,2022-02-08-19:14:51,10.1.1.5,26,0.030,0.030,0.030,0.000,0.000,0.000
1644347691588440064,2022-02-08-19:14:51,10.1.1.5,25,0.020,0.020,0.020,0.000,0.000,0.000
1644347691689487104,2022-02-08-19:14:51,10.1.1.5,24,0.010,0.010,0.010,0.000,0.000,0.000
1644347691786795008,2022-02-08-19:14:51,10.1.1.5,22,0.000,0.000,0.000,0.000,0.000,0.000
1644347691890062080,2022-02-08-19:14:51,10.1.1.5,22,-0.010,-0.010,-0.010,0.000,0.000,0.000
1644347692006213888,2022-02-08-19:14:52,10.1.1.5,22,-0.020,-0.020,-0.020,0.000,0.000,0.000
1644347692106393088,2022-02-08-19:14:52,10.1.1.5,22,-0.030,-0.030,-0.030,0.000,0.000,0.000
1644347692207289088,2022-02-08-19:14:52,10.1.1.5,21,-0.040,-0.040,-0.040,0.000,0.000,0.000
1644347692308278016,2022-02-08-19:14:52,10.1.1.5,21,-0.050,-0.050,-0.050,0.000,0.000,0.000
1644347692405863168,2022-02-08-19:14:52,10.1.1.5,20,-0.060,-0.060,-0.060,0.000,0.000,0.000
1644347692506673152,2022-02-08-19:14:52,10.1.1.5,20,-0.070,-0.070,-0.070,0.000,0.000,0.000
1644347692605822976,2022-02-08-19:14:52,10.1.1.5,19,-0.080,-0.080,-0.080,0.000,0.000,0.000
1644347692706307840,2022-02-08-19:14:52,10.1.1.5,19,-0.089,-0.089,-0.089,0.000,0.000,0.000
1644347692827232000,2022-02-08-19:14:52,10.1.1.5,39,-0.100,-0.100,-0.100,0.000,0.000,0.000
1644347692927331072,2022-02-08-19:14:52,10.1.1.5,38,-0.090,-0.090,-0.090,0.000,0.000,0.000
1644347693025928960,2022-02-08-19:14:53,10.1.1.5,37,-0.080,-0.080,-0.080,0.000,0.000,0.000
1644347693126859008,2022-02-08-19:14:53,10.1.1.5,36,-0.070,-0.070,-0.070,0.000,0.000,0.000
1644347693226612992,2022-02-08-19:14:53,10.1.1.5,36,-0.060,-0.060,-0.060,0.000,0.000,0.000
1644347693327053056,2022-02-08-19:14:53,10.1.1.5,36,-0.050,-0.050,-0.050,0.000,0.000,0.000
1644347693426631936,2022-02-08-19:14:53,10.1.1.5,35,-0.040,-0.040,-0.040,0.000,0.000,0.000
1644347693527144960,2022-02-08-19:14:53,10.1.1.5,35,-0.030,-0.030,-0.030,0.000,0.000,0.000
1644347693627681024,2022-02-08-19:14:53,10.1.1.5,32,-0.020,-0.020,-0.020,0.000,0.000,0.000
1644347693727663872,2022-02-08-19:14:53,10.1.1.5,31,-0.010,-0.010,-0.010,0.000,0.000,0.000
1644347693825854976,2022-02-08-19:14:53,10.1.1.5,31,0.000,0.000,0.000,0.000,0.000,0.000
1644347693929084928,2022-02-08-19:14:53,10.1.1.5,30,0.010,0.010,0.010,0.000,0.000,0.000
1644347694048798976,2022-02-08-19:14:54,10.1.1.5,36,0.020,0.020,0.020,0.000,0.000,0.000
1644347694147866112,2022-02-08-19:14:54,10.1.1.5,35,0.030,0.030,0.030,0.000,0.000,0.000
1644347694248048896,2022-02-08-19:14:54,10.1.1.5,35,0.040,0.040,0.040,0.000,0.000,0.000
1644347694347832832,2022-02-08-19:14:54,10.1.1.5,33,0.050,0.050,0.050,0.000,0.000,0.000
1644347694447617024,2022-02-08-19:14:54,10.1.1.5,32,0.060,0.060,0.060,0.000,0.000,0.000
1644347694547725056,2022-02-08-19:14:54,10.1.1.5,32,0.070,0.070,0.070,0.000,0.000,0.000
1644347694647725056,2022-02-08-19:14:54,10.1.1.5,31,0.080,0.080,0.080,0.000,0.000,0.000
1644347694747806976,2022-02-08-19:14:54,10.1.1.5,30,0.090,0.090,0.090,0.000,0.000,0.000
1644347694848124928,2022-02-08-19:14:54,10.1.1.5,29,0.100,0.100,0.100,0.000,0.000,0.000
1644347694948399104,2022-02-08-19:14:54,10.1.1.5,28,0.090,0.090,0.090,0.000,0.000,0.000
1644347695048072960,2022-02-08-19:14:55,10.1.1.5,28,0.080,0.080,0.080,0.000,0.000,0.000
1644347695149426944,2022-02-08-19:14:55,10.1.1.5,28,0.070,0.070,0.070,0.000,0.000,0.000
1644347695246365184,2022-02-08-19:14:55,10.1.1.5,27,0.060,0.060,0.060,0.000,0.000,0.000
1644347695347803136,2022-02-08-19:14:55,10.1.1.5,26,0.050,0.050,0.050,0.000,0.000,0.000
1644347695446441984,2022-02-08-19:14:55,10.1.1.5,24,0.040,0.040,0.040,0.000,0.000,0.000
1644347695546364160,2022-02-08-19:14:55,10.1.1.5,22,0.030,0.030,0.030,0.000,0.000,0.000
1644347695646332928,2022-02-08-19:14:55,10.1.1.5,21,0.020,0.020,0.020,0.000,0.000,0.000
1644347695749746944,2022-02-08-19:14:55,10.1.1.5,21,0.010,0.010,0.010,0.000,0.000,0.000
1644347695846875904,2022-02-08-19:14:55,10.1.1.5,20,0.000,0.000,0.000,0.000,0.000,0.000
1644347695946216960,2022-02-08-19:14:55,10.1.1.5,19,-0.009,-0.009,-0.009,0.000,0.000,0.000
1644347696068058880,2022-02-08-19:14:56,10.1.1.5,38,-0.020,-0.020,-0.020,0.000,0.000,0.000
1644347696167215104,2022-02-08-19:14:56,10.1.1.5,37,-0.030,-0.030,-0.030,0.000,0.000,0.000
1644347696274269952,2022-02-08-19:14:56,10.1.1.5,36,-0.040,-0.040,-0.040,0.000,0.000,0.000
1644347696368186112,2022-02-08-19:14:56,10.1.1.5,35,-0.050,-0.050,-0.050,0.000,0.000,0.000
1644347696468768000,2022-02-08-19:14:56,10.1.1.5,34,-0.060,-0.060,-0.060,0.000,0.000,0.000
1644347696568242176,2022-02-08-19:14:56,10.1.1.5,33,-0.070,-0.070,-0.070,0.000,0.000,0.000
1644347696666564864,2022-02-08-19:14:56,10.1.1.5,32,-0.080,-0.080,-0.080,0.000,0.000,0.000
1644347696767757824,2022-02-08-19:14:56,10.1.1.5,31,-0.090,-0.090,-0.090,0.000,0.000,0.000
1644347696866733056,2022-02-08-19:14:56,10.1.1.5,31,-0.100,-0.100,-0.100,0.000,0.000,0.000
1644347696967021056,2022-02-08-19:14:56,10.1.1.5,30,-0.090,-0.090,-0.090,0.000,0.000,0.000
1644347697068365056,2022-02-08-19:14:57,10.1.1.5,29,-0.080,-0.080,-0.080,0.000,0.000,0.000
1644347697166676992,2022-02-08-19:14:57,10.1.1.5,29,-0.070,-0.070,-0.070,0.000,0.000,0.000
1644347697268055040,2022-02-08-19:14:57,10.1.1.5,28,-0.060,-0.060,-0.060,0.000,0.000,0.000
1644347697369299968,2022-02-08-19:14:57,10.1.1.5,27,-0.050,-0.050,-0.050,0.000,0.000,0.000
1644347697469732096,2022-02-08-19:14:57,10.1.1.5,27,-0.040,-0.040,-0.040,0.000,0.000,0.000
1644347697569318144,2022-02-08-19:14:57,10.1.1.5,24,-0.030,-0.030,-0.030,0.000,0.000,0.000
1644347697666539008,2022-02-08-19:14:57,10.1.1.5,22,-0.020,-0.020,-0.020,0.000,0.000,0.000
1644347697767613952,2022-02-08-19:14:57,10.1.1.5,22,-0.010,-0.010,-0.010,0.000,0.000,0.000
1644347697866274048,2022-02-08-19:14:57,10.1.1.5,21,0.000,0.000,0.000,0.000,0.000,0.000
1644347697967309824,2022-02-08-19:14:57,10.1.1.5,20,0.010,0.010,0.010,0.000,0.000,0.000
1644347698066479872,2022-02-08-19:14:58,10.1.1.5,20,0.020,0.020,0.020,0.000,0.000,0.000
1644347698168036864,2022-02-08-19:14:58,10.1.1.5,19,0.030,0.030,0.030,0.000,0.000,0.000
1644347698267767040,2022-02-08-19:14:58,10.1.1.5,19,0.040,0.040,0.040,0.000,0.000,0.000
1644347698388253952,2022-02-08-19:14:58,10.1.1.5,38,0.050,0.050,0.050,0.000,0.000,0.000
1644347698488111104,2022-02-08-19:14:58,10.1.1.5,37,0.060,0.060,0.060,0.000,0.000,0.000
1644347698588751104,2022-02-08-19:14:58,10.1.1.5,37,0.070,0.070,0.070,0.000,0.000,0.000
1644347698687870976,2022-02-08-19:14:58,10.1.1.5,36,0.080,0.080,0.080,0.000,0.000,0.000
1644347698787964160,2022-02-08-19:14:58,10.1.1.5,36,0.090,0.090,0.090,0.000,0.000,0.000
1644347698888844032,2022-02-08-19:14:58,10.1.1.5,33,0.100,0.100,0.100,0.000,0.000,0.000
1644347698987922944,2022-02-08-19:14:58,10.1.1.5,32,0.090,0.090,0.090,0.000,0.000,0.000
1644347699088633088,2022-02-08-19:14:59,10.1.1.5,32,0.080,0.080,0.080,0.000,0.000,0.000
1644347699188270080,2022-02-08-19:14:59,10.1.1.5,31,0.070,0.070,0.070,0.000,0.000,0.000
1644347699287681024,2022-02-08-19:14:59,10.1.1.5,31,0.060,0.060,0.060,0.000,0.000,0.000
1644347699387450880,2022-02-08-19:14:59,10.1.1.5,30,0.050,0.050,0.050,0.000,0.000,0.000
1644347699486412032,2022-02-08-19:14:59,10.1.1.5,29,0.040,0.040,0.040,0.000,0.000,0.000
1644347699586375936,2022-02-08-19:14:59,10.1.1.5,29,0.030,0.030,0.030,0.000,0.000,0.000
1644347699688903936,2022-02-08-19:14:59,10.1.1.5,27,0.020,0.020,0.020,0.000,0.000,0.000
1644347699786994944,2022-02-08-19:14:59,10.1.1.5,26,0.010,0.010,0.010,0.000,0.000,0.000
1644347699886584064,2022-02-08-19:14:59,10.1.1.5,24,0.000,0.000,0.000,0.000,0.000,0.000
1644347699986952960,2022-02-08-19:14:59,10.1.1.5,24,-0.010,-0.010,-0.010,0.000,0.000,0.000
1644347700086137088,2022-02-08-19:15:00,10.1.1.5,21,-0.020,-0.020,-0.020,0.000,0.000,0.000
1644347700187537920,2022-02-08-19:15:00,10.1.1.5,20,-0.030,-0.030,-0.030,0.000,0.000,0.000
1644347700286408960,2022-02-08-19:15:00,10.1.1.5,20,-0.040,-0.040,-0.040,0.000,0.000,0.000
1644347700386374912,2022-02-08-19:15:00,10.1.1.5,19,-0.049,-0.049,-0.049,0.000,0.000,0.000
1644347700507774976,2022-02-08-19:15:00,10.1.1.5,38,-0.060,-0.060,-0.060,0.000,0.000,0.000
1644347700608617984,2022-02-08-19:15:00,10.1.1.5,38,-0.070,-0.070,-0.070,0.000,0.000,0.000
1644347700709911040,2022-02-08-19:15:00,10.1.1.5,37,-0.080,-0.080,-0.080,0.000,0.000,0.000
1644347700809679104,2022-02-08-19:15:00,10.1.1.5,37,-0.090,-0.090,-0.090,0.000,0.000,0.000
1644347700906706176,2022-02-08-19:15:00,10.1.1.5,36,-0.100,-0.100,-0.100,0.000,0.000,0.000
1644347701007732992,2022-02-08-19:15:01,10.1.1.5,36,-0.090,-0.090,-0.090,0.000,0.000,0.000
1644347701110496000,2022-02-08-19:15:01,10.1.1.5,35,-0.080,-0.080,-0.080,0.000,0.000,0.000
1644347701208771840,2022-02-08-19:15:01,10.1.1.5,33,-0.070,-0.070,-0.070,0.000,0.000,0.000
1644347701307032064,2022-02-08-19:15:01,10.1.1.5,33,-0.060,-0.060,-0.060,0.000,0.000,0.000
1644347701413562112,2022-02-08-19:15:01,10.1.1.5,30,-0.050,-0.050,-0.050,0.000,0.000,0.000
1644347701506187008,2022-02-08-19:15:01,10.1.1.5,29,-0.040,-0.040,-0.040,0.000,0.000,0.000
1644347701609234176,2022-02-08-19:15:01,10.1.1.5,28,-0.030,-0.030,-0.030,0.000,0.000,0.000
1644347701707108096,2022-02-08-19:15:01,10.1.1.5,27,-0.020,-0.020,-0.020,0.000,0.000,0.000
1644347701807782912,2022-02-08-19:15:01,10.1.1.5,26,-0.010,-0.010,-0.010,0.000,0.000,0.000
1644347701909415936,2022-02-08-19:15:01,10.1.1.5,23,0.000,0.000,0.000,0.000,0.000,0.000
1644347702008507904,2022-02-08-19:15:02,10.1.1.5,22,0.010,0.010,0.010,0.000,0.000,0.000
1644347702107849984,2022-02-08-19:15:02,10.1.1.5,22,0.020,0.020,0.020,0.000,0.000,0.000
1644347702207890944,2022-02-08-19:15:02,10.1.1.5,21,0.030,0.030,0.030,0.000,0.000,0.000
1644347702309377024,2022-02-08-19:15:02,10.1.1.5,20,0.040,0.040,0.040,0.000,0.000,0.000
1644347702408783872,2022-02-08-19:15:02,10.1.1.5,19,0.050,0.050,0.050,0.000,0.000,0.000
1644347702528888832,2022-02-08-19:15:02,10.1.1.5,38,0.060,0.060,0.060,0.000,0.000,0.000
1644347702627321088,2022-02-08-19:15:02,10.1.1.5,37,0.070,0.070,0.070,0.000,0.000,0.000
1644347702727036928,2022-02-08-19:15:02,10.1.1.5,36,0.080,0.080,0.080,0.000,0.000,0.000
1644347702827671040,2022-02-08-19:15:02,10.1.1.5,36,0.090,0.090,0.090,0.000,0.000,0.000
1644347702928499968,2022-02-08-19:15:02,10.1.1.5,31,0.100,0.100,0.100,0.000,0.000,0.000
1644347703028893952,2022-02-08-19:15:03,10.1.1.5,31,0.090,0.090,0.090,0.000,0.000,0.000
1644347703127001088,2022-02-08-19:15:03,10.1.1.5,30,0.080,0.080,0.080,0.000,0.000,0.000
1644347703228413184,2022-02-08-19:15:03,10.1.1.5,30,0.070,0.070,0.070,0.000,0.000,0.000
1644347703329251072,2022-02-08-19:15:03,10.1.1.5,28,0.060,0.060,0.060,0.000,0.000,0.000
1644347703429414144,2022-02-08-19:15:03,10.1.1.5,27,0.050,0.050,0.050,0.000,0.000,0.000
1644347703527944960,2022-02-08-19:15:03,10.1.1.5,27,0.040,0.040,0.040,0.000,0.000,0.000
1644347703626733056,2022-02-08-19:15:03,10.1.1.5,26,0.030,0.030,0.030,0.000,0.000,0.000
1644347703728781824,2022-02-08-19:15:03,10.1.1.5,29,0.020,0.020,0.020,0.000,0.000,0.000
1644347703826062848,2022-02-08-19:15:03,10.1.1.5,25,0.010,0.010,0.010,0.000,0.000,0.000
1644347703926963968,2022-02-08-19:15:03,10.1.1.5,24,0.000,0.000,0.000,0.000,0.000,0.000
1644347704028018944,2022-02-08-19:15:04,10.1.1.5,23,-0.010,-0.010,-0.010,0.000,0.000,0.000
1644347704128815872,2022-02-08-19:15:04,10.1.1.5,22,-0.020,-0.020,-0.020,0.000,0.000,0.000
1644347704228224000,2022-02-08-19:15:04,10.1.1.5,21,-0.030,-0.030,-0.030,0.000,0.000,0.000
1644347704327465984,2022-02-08-19:15:04,10.1.1.5,21,-0.040,-0.040,-0.040,0.000,0.000,0.000
1644347704449330944,2022-02-08-19:15:04,10.1.1.5,38,-0.050,-0.050,-0.050,0.000,0.000,0.000
1644347704546742016,2022-02-08-19:15:04,10.1.1.5,37,-0.060,-0.060,-0.060,0.000,0.000,0.000
1644347704646619136,2022-02-08-19:15:04,10.1.1.5,37,-0.070,-0.070,-0.070,0.000,0.000,0.000
1644347704748497920,2022-02-08-19:15:04,10.1.1.5,35,-0.080,-0.080,-0.080,0.000,0.000,0.000
1644347704847953152,2022-02-08-19:15:04,10.1.1.5,35,-0.090,-0.090,-0.090,0.000,0.000,0.000
1644347704947356928,2022-02-08-19:15:04,10.1.1.5,33,-0.100,-0.100,-0.100,0.000,0.000,0.000
1644347705047997952,2022-02-08-19:15:05,10.1.1.5,33,-0.090,-0.090,-0.090,0.000,0.000,0.000
1644347705147876096,2022-02-08-19:15:05,10.1.1.5,32,-0.080,-0.080,-0.080,0.000,0.000,0.000
1644347705250806016,2022-02-08-19:15:05,10.1.1.5,31,-0.070,-0.070,-0.070,0.000,0.000,0.000
1644347705347019008,2022-02-08-19:15:05,10.1.1.5,30,-0.060,-0.060,-0.060,0.000,0.000,0.000
1644347705448168960,2022-02-08-19:15:05,10.1.1.5,30,-0.050,-0.050,-0.050,0.000,0.000,0.000
1644347705547705856,2022-02-08-19:15:05,10.1.1.5,29,-0.040,-0.040,-0.040,0.000,0.000,0.000
1644347705648871936,2022-02-08-19:15:05,10.1.1.5,28,-0.030,-0.030,-0.030,0.000,0.000,0.000
1644347705749371136,2022-02-08-19:15:05,10.1.1.5,28,-0.020,-0.020,-0.020,0.000,0.000,0.000
1644347705848786176,2022-02-08-19:15:05,10.1.1.5,27,-0.010,-0.010,-0.010,0.000,0.000,0.000
1644347705948892160,2022-02-08-19:15:05,10.1.1.5,26,0.000,0.000,0.000,0.000,0.000,0.000
1644347706050192128,2022-02-08-19:15:06,10.1.1.5,24,0.010,0.010,0.010,0.000,0.000,0.000
1644347706149262848,2022-02-08-19:15:06,10.1.1.5,22,0.020,0.020,0.020,0.000,0.000,0.000
1644347706248548864,2022-02-08-19:15:06,10.1.1.5,20,0.030,0.030,0.030,0.000,0.000,0.000
1644347706368518144,2022-02-08-19:15:06,10.1.1.5,39,0.040,0.040,0.040,0.000,0.000,0.000
1644347706470691072,2022-02-08-19:15:06,10.1.1.5,38,0.050,0.050,0.050,0.000,0.000,0.000
1644347706569060096,2022-02-08-19:15:06,10.1.1.5,38,0.060,0.060,0.060,0.000,0.000,0.000
1644347706667456000,2022-02-08-19:15:06,10.1.1.5,37,0.070,0.070,0.070,0.000,0.000,0.000
1644347706768794112,2022-02-08-19:15:06,10.1.1.5,36,0.080,0.080,0.080,0.000,0.000,0.000
1644347706870157056,2022-02-08-19:15:06,10.1.1.5,36,0.090,0.090,0.090,0.000,0.000,0.000
1644347706966577920,2022-02-08-19:15:06,10.1.1.5,35,0.100,0.100,0.100,0.000,0.000,0.000
1644347707067798016,2022-02-08-19:15:07,10.1.1.5,32,0.090,0.090,0.090,0.000,0.000,0.000
1644347707168329984,2022-02-08-19:15:07,10.1.1.5,31,0.080,0.080,0.080,0.000,0.000,0.000
1644347707268166912,2022-02-08-19:15:07,10.1.1.5,30,0.070,0.070,0.070,0.000,0.000,0.000
1644347707366364928,2022-02-08-19:15:07,10.1.1.5,30,0.060,0.060,0.060,0.000,0.000,0.000
1644347707468355840,2022-02-08-19:15:07,10.1.1.5,29,0.050,0.050,0.050,0.000,0.000,0.000
1644347707568999168,2022-02-08-19:15:07,10.1.1.5,28,0.040,0.040,0.040,0.000,0.000,0.000
1644347707667638016,2022-02-08-19:15:07,10.1.1.5,28,0.030,0.030,0.030,0.000,0.000,0.000
1644347707768508928,2022-02-08-19:15:07,10.1.1.5,27,0.020,0.020,0.020,0.000,0.000,0.000
1644347707868165888,2022-02-08-19:15:07,10.1.1.5,27,0.010,0.010,0.010,0.000,0.000,0.000
1644347707968583168,2022-02-08-19:15:07,10.1.1.5,26,0.000,0.000,0.000,0.000,0.000,0.000
1644347708068228096,2022-02-08-19:15:08,10.1.1.5,25,-0.010,-0.010,-0.010,0.000,0.000,0.000
1644347708168404224,2022-02-08-19:15:08,10.1.1.5,22,-0.020,-0.020,-0.020,0.000,0.000,0.000
1644347708269498112,2022-02-08-19:15:08,10.1.1.5,21,-0.030,-0.030,-0.030,0.000,0.000,0.000
1644347708368073984,2022-02-08-19:15:08,10.1.1.5,21,-0.040,-0.040,-0.040,0.000,0.000,0.000
1644347708466972160,2022-02-08-19:15:08,10.1.1.5,20,-0.050,-0.050,-0.050,0.000,0.000,0.000
1644347708567172096,2022-02-08-19:15:08,10.1.1.5,19,-0.060,-0.060,-0.060,0.000,0.000,0.000
1644347708668850944,2022-02-08-19:15:08,10.1.1.5,18,-0.069,-0.069,-0.069,0.000,0.000,0.000
1644347708790256896,2022-02-08-19:15:08,10.1.1.5,38,-0.080,-0.080,-0.080,0.000,0.000,0.000
1644347708889657856,2022-02-08-19:15:08,10.1.1.5,37,-0.090,-0.090,-0.090,0.000,0.000,0.000
1644347708988403200,2022-02-08-19:15:08,10.1.1.5,35,-0.100,-0.100,-0.100,0.000,0.000,0.000
1644347709088037888,2022-02-08-19:15:09,10.1.1.5,24,-0.090,-0.090,-0.090,0.000,0.000,0.000
1644347709186793216,2022-02-08-19:15:09,10.1.1.5,21,-0.080,-0.080,-0.080,0.000,0.000,0.000
1644347709289400064,2022-02-08-19:15:09,10.1.1.5,21,-0.070,-0.070,-0.070,0.000,0.000,0.000
1644347709387075840,2022-02-08-19:15:09,10.1.1.5,20,-0.060,-0.060,-0.060,0.000,0.000,0.000
1644347709487484928,2022-02-08-19:15:09,10.1.1.5,20,-0.050,-0.050,-0.050,0.000,0.000,0.000
1644347709588548864,2022-02-08-19:15:09,10.1.1.5,19,-0.040,-0.040,-0.040,0.000,0.000,0.000
1644347709688281088,2022-02-08-19:15:09,10.1.1.5,19,-0.031,-0.031,-0.031,0.000,0.000,0.000
1644347709805978112,2022-02-08-19:15:09,10.1.1.5,38,-0.020,-0.020,-0.020,0.000,0.000,0.000
1644347709908360960,2022-02-08-19:15:09,10.1.1.5,38,-0.010,-0.010,-0.010,0.000,0.000,0.000
1644347710007313920,2022-02-08-19:15:10,10.1.1.5,37,0.000,0.000,0.000,0.000,0.000,0.000
1644347710107002880,2022-02-08-19:15:10,10.1.1.5,37,0.010,0.010,0.010,0.000,0.000,0.000
1644347710207220992,2022-02-08-19:15:10,10.1.1.5,36,0.020,0.020,0.020,0.000,0.000,0.000
1644347710306473984,2022-02-08-19:15:10,10.1.1.5,36,0.030,0.030,0.030,0.000,0.000,0.000
1644347710407179008,2022-02-08-19:15:10,10.1.1.5,35,0.040,0.040,0.040,0.000,0.000,0.000
1644347710506132992,2022-02-08-19:15:10,10.1.1.5,35,0.050,0.050,0.050,0.000,0.000,0.000
1644347710607206144,2022-02-08-19:15:10,10.1.1.5,32,0.060,0.060,0.060,0.000,0.000,0.000
1644347710712920064,2022-02-08-19:15:10,10.1.1.5,30,0.070,0.070,0.070,0.000,0.000,0.000
1644347710810791936,2022-02-08-19:15:10,10.1.1.5,27,0.080,0.080,0.080,0.000,0.000,0.000
1644347710910492928,2022-02-08-19:15:10,10.1.1.5,26,0.090,0.090,0.090,0.000,0.000,0.000
1644347711011003904,2022-02-08-19:15:11,10.1.1.5,25,0.100,0.100,0.100,0.000,0.000,0.000
1644347711109730048,2022-02-08-19:15:11,10.1.1.5,24,0.090,0.090,0.090,0.000,0.000,0.000
1644347711209400064,2022-02-08-19:15:11,10.1.1.5,24,0.080,0.080,0.080,0.000,0.000,0.000
1644347711307569152,2022-02-08-19:15:11,10.1.1.5,22,0.070,0.070,0.070,0.000,0.000,0.000
1644347711408800000,2022-02-08-19:15:11,10.1.1.5,21,0.060,0.060,0.060,0.000,0.000,0.000
1644347711508632832,2022-02-08-19:15:11,10.1.1.5,20,0.050,0.050,0.050,0.000,0.000,0.000
1644347711608652032,2022-02-08-19:15:11,10.1.1.5,19,0.041,0.041,0.041,0.000,0.000,0.000
1644347711726476032,2022-02-08-19:15:11,10.1.1.5,37,0.030,0.030,0.030,0.000,0.000,0.000
1644347711827447040,2022-02-08-19:15:11,10.1.1.5,37,0.020,0.020,0.020,0.000,0.000,0.000
1644347711928482048,2022-02-08-19:15:11,10.1.1.5,36,0.010,0.010,0.010,0.000,0.000,0.000
1644347712027609088,2022-02-08-19:15:12,10.1.1.5,35,0.000,0.000,0.000,0.000,0.000,0.000
1644347712127084032,2022-02-08-19:15:12,10.1.1.5,31,-0.010,-0.010,-0.010,0.000,0.000,0.000
1644347712229285888,2022-02-08-19:15:12,10.1.1.5,30,-0.020,-0.020,-0.020,0.000,0.000,0.000
1644347712328481792,2022-02-08-19:15:12,10.1.1.5,29,-0.030,-0.030,-0.030,0.000,0.000,0.000
1644347712428165888,2022-02-08-19:15:12,10.1.1.5,27,-0.040,-0.040,-0.040,0.000,0.000,0.000
1644347712529551104,2022-02-08-19:15:12,10.1.1.5,24,-0.050,-0.050,-0.050,0.000,0.000,0.000
1644347712628551936,2022-02-08-19:15:12,10.1.1.5,22,-0.060,-0.060,-0.060,0.000,0.000,0.000
1644347712728764160,2022-02-08-19:15:12,10.1.1.5,20,-0.070,-0.070,-0.070,0.000,0.000,0.000
1644347712848128000,2022-02-08-19:15:12,10.1.1.5,39,-0.080,-0.080,-0.080,0.000,0.000,0.000
1644347712948761088,2022-02-08-19:15:12,10.1.1.5,35,-0.090,-0.090,-0.090,0.000,0.000,0.000
1644347713048741120,2022-02-08-19:15:13,10.1.1.5,33,-0.100,-0.100,-0.100,0.000,0.000,0.000
1644347713147981824,2022-02-08-19:15:13,10.1.1.5,32,-0.090,-0.090,-0.090,0.000,0.000,0.000
1644347713249833216,2022-02-08-19:15:13,10.1.1.5,32,-0.080,-0.080,-0.080,0.000,0.000,0.000
1644347713368040960,2022-02-08-19:15:13,10.1.1.5,38,-0.070,-0.070,-0.070,0.000,0.000,0.000
1644347713472013824,2022-02-08-19:15:13,10.1.1.5,37,-0.060,-0.060,-0.060,0.000,0.000,0.000
1644347713569127936,2022-02-08-19:15:13,10.1.1.5,37,-0.050,-0.050,-0.050,0.000,0.000,0.000
1644347713668241920,2022-02-08-19:15:13,10.1.1.5,36,-0.040,-0.040,-0.040,0.000,0.000,0.000
1644347713766684160,2022-02-08-19:15:13,10.1.1.5,36,-0.030,-0.030,-0.030,0.000,0.000,0.000
1644347713868186112,2022-02-08-19:15:13,10.1.1.5,36,-0.020,-0.020,-0.020,0.000,0.000,0.000
1644347713968915968,2022-02-08-19:15:13,10.1.1.5,32,-0.010,-0.010,-0.010,0.000,0.000,0.000
1644347714067735040,2022-02-08-19:15:14,10.1.1.5,31,0.000,0.000,0.000,0.000,0.000,0.000
1644347714166918912,2022-02-08-19:15:14,10.1.1.5,30,0.010,0.010,0.010,0.000,0.000,0.000
1644347714268896000,2022-02-08-19:15:14,10.1.1.5,29,0.020,0.020,0.020,0.000,0.000,0.000
1644347714367783936,2022-02-08-19:15:14,10.1.1.5,29,0.030,0.030,0.030,0.000,0.000,0.000
1644347714467566080,2022-02-08-19:15:14,10.1.1.5,28,0.040,0.040,0.040,0.000,0.000,0.000
1644347714568388864,2022-02-08-19:15:14,10.1.1.5,20,0.050,0.050,0.050,0.000,0.000,0.000
1644347714687067136,2022-02-08-19:15:14,10.1.1.5,39,0.060,0.060,0.060,0.000,0.000,0.000
1644347714787911936,2022-02-08-19:15:14,10.1.1.5,38,0.070,0.070,0.070,0.000,0.000,0.000
1644347714888244992,2022-02-08-19:15:14,10.1.1.5,37,0.080,0.080,0.080,0.000,0.000,0.000
1644347714987536896,2022-02-08-19:15:14,10.1.1.5,37,0.090,0.090,0.090,0.000,0.000,0.000
1644347715088427008,2022-02-08-19:15:15,10.1.1.5,36,0.100,0.100,0.100,0.000,0.000,0.000
1644347715187840000,2022-02-08-19:15:15,10.1.1.5,36,0.090,0.090,0.090,0.000,0.000,0.000
1644347715287506176,2022-02-08-19:15:15,10.1.1.5,33,0.080,0.080,0.080,0.000,0.000,0.000
1644347715387437056,2022-02-08-19:15:15,10.1.1.5,33,0.070,0.070,0.070,0.000,0.000,0.000
1644347715486545152,2022-02-08-19:15:15,10.1.1.5,32,0.060,0.060,0.060,0.000,0.000,0.000
1644347715588198912,2022-02-08-19:15:15,10.1.1.5,32,0.050,0.050,0.050,0.000,0.000,0.000
1644347715688510976,2022-02-08-19:15:15,10.1.1.5,32,0.040,0.040,0.040,0.000,0.000,0.000
1644347715886384896,2022-02-08-19:15:15,10.1.1.5,22,0.020,0.020,0.020,0.000,0.000,0.000
1644347715986886144,2022-02-08-19:15:15,10.1.1.5,22,0.010,0.010,0.010,0.000,0.000,0.000
1644347716087971072,2022-02-08-19:15:16,10.1.1.5,21,0.000,0.000,0.000,0.000,0.000,0.000
1644347716188092928,2022-02-08-19:15:16,10.1.1.5,20,-0.010,-0.010,-0.010,0.000,0.000,0.000
1644347716291248128,2022-02-08-19:15:16,10.1.1.5,19,-0.020,-0.020,-0.020,0.000,0.000,0.000
1644347716389202176,2022-02-08-19:15:16,10.1.1.5,19,-0.029,-0.029,-0.029,0.000,0.000,0.000
1644347716509114880,2022-02-08-19:15:16,10.1.1.5,38,-0.040,-0.040,-0.040,0.000,0.000,0.000
1644347716609132032,2022-02-08-19:15:16,10.1.1.5,37,-0.050,-0.050,-0.050,0.000,0.000,0.000
1644347716707465984,2022-02-08-19:15:16,10.1.1.5,37,-0.060,-0.060,-0.060,0.000,0.000,0.000
1644347716806353152,2022-02-08-19:15:16,10.1.1.5,36,-0.070,-0.070,-0.070,0.000,0.000,0.000
1644347716906881024,2022-02-08-19:15:16,10.1.1.5,36,-0.080,-0.080,-0.080,0.000,0.000,0.000
1644347717005882880,2022-02-08-19:15:17,10.1.1.5,35,-0.090,-0.090,-0.090,0.000,0.000,0.000
1644347717106028032,2022-02-08-19:15:17,10.1.1.5,34,-0.100,-0.100,-0.100,0.000,0.000,0.000
1644347717208086016,2022-02-08-19:15:17,10.1.1.5,34,-0.090,-0.090,-0.090,0.000,0.000,0.000
1644347717307676928,2022-02-08-19:15:17,10.1.1.5,33,-0.080,-0.080,-0.080,0.000,0.000,0.000
1644347717408171776,2022-02-08-19:15:17,10.1.1.5,32,-0.070,-0.070,-0.070,0.000,0.000,0.000
1644347717506288896,2022-02-08-19:15:17,10.1.1.5,31,-0.060,-0.060,-0.060,0.000,0.000,0.000
1644347717608280064,2022-02-08-19:15:17,10.1.1.5,31,-0.050,-0.050,-0.050,0.000,0.000,0.000
1644347717707988992,2022-02-08-19:15:17,10.1.1.5,31,-0.040,-0.040,-0.040,0.000,0.000,0.000
1644347717806100992,2022-02-08-19:15:17,10.1.1.5,30,-0.030,-0.030,-0.030,0.000,0.000,0.000
1644347717909100032,2022-02-08-19:15:17,10.1.1.5,29,-0.020,-0.020,-0.020,0.000,0.000,0.000
1644347718006606080,2022-02-08-19:15:18,10.1.1.5,29,-0.010,-0.010,-0.010,0.000,0.000,0.000
1644347718106375936,2022-02-08-19:15:18,10.1.1.5,27,0.000,0.000,0.000,0.000,0.000,0.000
1644347718207921920,2022-02-08-19:15:18,10.1.1.5,27,0.010,0.010,0.010,0.000,0.000,0.000
1644347718306938880,2022-02-08-19:15:18,10.1.1.5,26,0.020,0.020,0.020,0.000,0.000,0.000
1644347718407208960,2022-02-08-19:15:18,10.1.1.5,26,0.030,0.030,0.030,0.000,0.000,0.000
1644347718506427904,2022-02-08-19:15:18,10.1.1.5,24,0.040,0.040,0.040,0.000,0.000,0.000
1644347718606589952,2022-02-08-19:15:18,10.1.1.5,24,0.050,0.050,0.050,0.000,0.000,0.000
1644347718706483968,2022-02-08-19:15:18,10.1.1.5,24,0.060,0.060,0.060,0.000,0.000,0.000
1644347718807833856,2022-02-08-19:15:18,10.1.1.5,23,0.070,0.070,0.070,0.000,0.000,0.000
1644347718906553856,2022-02-08-19:15:18,10.1.1.5,22,0.080,0.080,0.080,0.000,0.000,0.000
1644347719007569920,2022-02-08-19:15:19,10.1.1.5,21,0.090,0.090,0.090,0.000,0.000,0.000
1644347719106970112,2022-02-08-19:15:19,10.1.1.5,20,0.100,0.100,0.100,0.000,0.000,0.000
1644347719208492032,2022-02-08-19:15:19,10.1.1.5,19,0.090,0.090,0.090,0.000,0.000,0.000
1644347719326226944,2022-02-08-19:15:19,10.1.1.5,38,0.080,0.080,0.080,0.000,0.000,0.000
1644347719426449152,2022-02-08-19:15:19,10.1.1.5,37,0.070,0.070,0.070,0.000,0.000,0.000
1644347719527973888,2022-02-08-19:15:19,10.1.1.5,36,0.060,0.060,0.060,0.000,0.000,0.000
1644347719628102144,2022-02-08-19:15:19,10.1.1.5,36,0.050,0.050,0.050,0.000,0.000,0.000
1644347719727802880,2022-02-08-19:15:19,10.1.1.5,34,0.040,0.040,0.040,0.000,0.000,0.000
1644347719827155968,2022-02-08-19:15:19,10.1.1.5,33,0.030,0.030,0.030,0.000,0.000,0.000
1644347719929667840,2022-02-08-19:15:19,10.1.1.5,32,0.020,0.020,0.020,0.000,0.000,0.000
1644347720027232768,2022-02-08-19:15:20,10.1.1.5,31,0.010,0.010,0.010,0.000,0.000,0.000
1644347720127132928,2022-02-08-19:15:20,10.1.1.5,29,0.000,0.000,0.000,0.000,0.000,0.000
1644347720227920896,2022-02-08-19:15:20,10.1.1.5,28,-0.010,-0.010,-0.010,0.000,0.000,0.000
1644347720326739200,2022-02-08-19:15:20,10.1.1.5,28,-0.020,-0.020,-0.020,0.000,0.000,0.000
1644347720428443904,2022-02-08-19:15:20,10.1.1.5,26,-0.030,-0.030,-0.030,0.000,0.000,0.000
1644347720527767040,2022-02-08-19:15:20,10.1.1.5,22,-0.040,-0.040,-0.040,0.000,0.000,0.000
1644347720628207872,2022-02-08-19:15:20,10.1.1.5,22,-0.050,-0.050,-0.050,0.000,0.000,0.000
1644347720728750848,2022-02-08-19:15:20,10.1.1.5,19,-0.060,-0.060,-0.060,0.000,0.000,0.000
1644347720828180992,2022-02-08-19:15:20,10.1.1.5,19,-0.069,-0.069,-0.069,0.000,0.000,0.000
1644347720948916992,2022-02-08-19:15:20,10.1.1.5,38,-0.080,-0.080,-0.080,0.000,0.000,0.000
1644347721048374784,2022-02-08-19:15:21,10.1.1.5,36,-0.090,-0.090,-0.090,0.000,0.000,0.000
1644347721146696192,2022-02-08-19:15:21,10.1.1.5,33,-0.100,-0.100,-0.100,0.000,0.000,0.000
1644347721248555776,2022-02-08-19:15:21,10.1.1.5,32,-0.090,-0.090,-0.090,0.000,0.000,0.000
1644347721349588992,2022-02-08-19:15:21,10.1.1.5,32,-0.080,-0.080,-0.080,0.000,0.000,0.000
1644347721448467968,2022-02-08-19:15:21,10.1.1.5,31,-0.070,-0.070,-0.070,0.000,0.000,0.000
1644347721548496128,2022-02-08-19:15:21,10.1.1.5,31,-0.060,-0.060,-0.060,0.000,0.000,0.000
1644347721687070976,2022-02-08-19:15:21,10.1.1.5,33,-0.050,-0.050,-0.050,0.000,0.000,0.000
1644347721788193024,2022-02-08-19:15:21,10.1.1.5,32,-0.040,-0.040,-0.040,0.000,0.000,0.000
1644347721888696064,2022-02-08-19:15:21,10.1.1.5,32,-0.030,-0.030,-0.030,0.000,0.000,0.000
1644347721990128896,2022-02-08-19:15:21,10.1.1.5,31,-0.020,-0.020,-0.020,0.000,0.000,0.000
1644347722089662976,2022-02-08-19:15:22,10.1.1.5,31,-0.010,-0.010,-0.010,0.000,0.000,0.000
1644347722186734080,2022-02-08-19:15:22,10.1.1.5,30,0.000,0.000,0.000,0.000,0.000,0.000
1644347722291641856,2022-02-08-19:15:22,10.1.1.5,29,0.010,0.010,0.010,0.000,0.000,0.000
1644347722386703104,2022-02-08-19:15:22,10.1.1.5,28,0.020,0.020,0.020,0.000,0.000,0.000
1644347722488205824,2022-02-08-19:15:22,10.1.1.5,27,0.030,0.030,0.030,0.000,0.000,0.000
1644347722588176128,2022-02-08-19:15:22,10.1.1.5,27,0.040,0.040,0.040,0.000,0.000,0.000
1644347722688051968,2022-02-08-19:15:22,10.1.1.5,26,0.050,0.050,0.050,0.000,0.000,0.000
1644347722788485120,2022-02-08-19:15:22,10.1.1.5,24,0.060,0.060,0.060,0.000,0.000,0.000
1644347722890435840,2022-02-08-19:15:22,10.1.1.5,22,0.070,0.070,0.070,0.000,0.000,0.000
1644347722987898112,2022-02-08-19:15:22,10.1.1.5,22,0.080,0.080,0.080,0.000,0.000,0.000
1644347723088340992,2022-02-08-19:15:23,10.1.1.5,22,0.090,0.090,0.090,0.000,0.000,0.000
1644347723210063872,2022-02-08-19:15:23,10.1.1.5,38,0.100,0.100,0.100,0.000,0.000,0.000
1644347723328723968,2022-02-08-19:15:23,10.1.1.5,38,0.090,0.090,0.090,0.000,0.000,0.000
1644347723408515072,2022-02-08-19:15:23,10.1.1.5,36,0.080,0.080,0.080,0.000,0.000,0.000
1644347723508388096,2022-02-08-19:15:23,10.1.1.5,36,0.070,0.070,0.070,0.000,0.000,0.000
1644347723608907008,2022-02-08-19:15:23,10.1.1.5,35,0.060,0.060,0.060,0.000,0.000,0.000
1644347723709156096,2022-02-08-19:15:23,10.1.1.5,34,0.050,0.050,0.050,0.000,0.000,0.000
1644347723807704832,2022-02-08-19:15:23,10.1.1.5,33,0.040,0.040,0.040,0.000,0.000,0.000
1644347723907259904,2022-02-08-19:15:23,10.1.1.5,33,0.030,0.030,0.030,0.000,0.000,0.000
1644347724006055168,2022-02-08-19:15:24,10.1.1.5,32,0.020,0.020,0.020,0.000,0.000,0.000
1644347724107196928,2022-02-08-19:15:24,10.1.1.5,32,0.010,0.010,0.010,0.000,0.000,0.000
1644347724206817024,2022-02-08-19:15:24,10.1.1.5,31,0.000,0.000,0.000,0.000,0.000,0.000
1644347724307830016,2022-02-08-19:15:24,10.1.1.5,31,-0.010,-0.010,-0.010,0.000,0.000,0.000
1644347724408523008,2022-02-08-19:15:24,10.1.1.5,30,-0.020,-0.020,-0.020,0.000,0.000,0.000
1644347724508960000,2022-02-08-19:15:24,10.1.1.5,29,-0.030,-0.030,-0.030,0.000,0.000,0.000
1644347724608015104,2022-02-08-19:15:24,10.1.1.5,28,-0.040,-0.040,-0.040,0.000,0.000,0.000
1644347724708473856,2022-02-08-19:15:24,10.1.1.5,27,-0.050,-0.050,-0.050,0.000,0.000,0.000
1644347724809591040,2022-02-08-19:15:24,10.1.1.5,27,-0.060,-0.060,-0.060,0.000,0.000,0.000
1644347724908112896,2022-02-08-19:15:24,10.1.1.5,26,-0.070,-0.070,-0.070,0.000,0.000,0.000
1644347725008229120,2022-02-08-19:15:25,10.1.1.5,25,-0.080,-0.080,-0.080,0.000,0.000,0.000
1644347725108328960,2022-02-08-19:15:25,10.1.1.5,23,-0.090,-0.090,-0.090,0.000,0.000,0.000
1644347725208242944,2022-02-08-19:15:25,10.1.1.5,23,-0.100,-0.100,-0.100,0.000,0.000,0.000
1644347725311450880,2022-02-08-19:15:25,10.1.1.5,19,-0.090,-0.090,-0.090,0.000,0.000,0.000
1644347725427887872,2022-02-08-19:15:25,10.1.1.5,37,-0.080,-0.080,-0.080,0.000,0.000,0.000
1644347725527069952,2022-02-08-19:15:25,10.1.1.5,37,-0.070,-0.070,-0.070,0.000,0.000,0.000
1644347725627243008,2022-02-08-19:15:25,10.1.1.5,36,-0.060,-0.060,-0.060,0.000,0.000,0.000
1644347725728349952,2022-02-08-19:15:25,10.1.1.5,36,-0.050,-0.050,-0.050,0.000,0.000,0.000
1644347725828603136,2022-02-08-19:15:25,10.1.1.5,32,-0.040,-0.040,-0.040,0.000,0.000,0.000
1644347725926744064,2022-02-08-19:15:25,10.1.1.5,31,-0.030,-0.030,-0.030,0.000,0.000,0.000
1644347726026201088,2022-02-08-19:15:26,10.1.1.5,31,-0.020,-0.020,-0.020,0.000,0.000,0.000
1644347726126103040,2022-02-08-19:15:26,10.1.1.5,30,-0.010,-0.010,-0.010,0.000,0.000,0.000
1644347726227585024,2022-02-08-19:15:26,10.1.1.5,30,0.000,0.000,0.000,0.000,0.000,0.000
1644347726327917056,2022-02-08-19:15:26,10.1.1.5,28,0.010,0.010,0.010,0.000,0.000,0.000
1644347726429403136,2022-02-08-19:15:26,10.1.1.5,28,0.020,0.020,0.020,0.000,0.000,0.000
1644347726530107136,2022-02-08-19:15:26,10.1.1.5,27,0.030,0.030,0.030,0.000,0.000,0.000
1644347726627304960,2022-02-08-19:15:26,10.1.1.5,26,0.040,0.040,0.040,0.000,0.000,0.000
1644347726728091904,2022-02-08-19:15:26,10.1.1.5,26,0.050,0.050,0.050,0.000,0.000,0.000
1644347726827543040,2022-02-08-19:15:26,10.1.1.5,25,0.060,0.060,0.060,0.000,0.000,0.000
1644347726926539008,2022-02-08-19:15:26,10.1.1.5,24,0.070,0.070,0.070,0.000,0.000,0.000
1644347727027949056,2022-02-08-19:15:27,10.1.1.5,24,0.080,0.080,0.080,0.000,0.000,0.000
1644347727127741184,2022-02-08-19:15:27,10.1.1.5,22,0.090,0.090,0.090,0.000,0.000,0.000
1644347727228864000,2022-02-08-19:15:27,10.1.1.5,22,0.100,0.100,0.100,0.000,0.000,0.000
1644347727327685120,2022-02-08-19:15:27,10.1.1.5,21,0.090,0.090,0.090,0.000,0.000,0.000
1644347727428035072,2022-02-08-19:15:27,10.1.1.5,19,0.081,0.081,0.081,0.000,0.000,0.000
1644347727528296960,2022-02-08-19:15:27,10.1.1.5,18,0.070,0.070,0.070,0.000,0.000,0.000
1644347727646775040,2022-02-08-19:15:27,10.1.1.5,37,0.060,0.060,0.060,0.000,0.000,0.000
1644347727746400000,2022-02-08-19:15:27,10.1.1.5,37,0.050,0.050,0.050,0.000,0.000,0.000
1644347727852251904,2022-02-08-19:15:27,10.1.1.5,36,0.040,0.040,0.040,0.000,0.000,0.000
1644347727948596992,2022-02-08-19:15:27,10.1.1.5,35,0.030,0.030,0.030,0.000,0.000,0.000
1644347728048107008,2022-02-08-19:15:28,10.1.1.5,32,0.020,0.020,0.020,0.000,0.000,0.000
1644347728148278016,2022-02-08-19:15:28,10.1.1.5,32,0.010,0.010,0.010,0.000,0.000,0.000
1644347728248677888,2022-02-08-19:15:28,10.1.1.5,31,0.000,0.000,0.000,0.000,0.000,0.000
1644347728348110848,2022-02-08-19:15:28,10.1.1.5,31,-0.010,-0.010,-0.010,0.000,0.000,0.000
1644347728449476864,2022-02-08-19:15:28,10.1.1.5,30,-0.020,-0.020,-0.020,0.000,0.000,0.000
1644347728558725120,2022-02-08-19:15:28,10.1.1.5,29,-0.030,-0.030,-0.030,0.000,0.000,0.000
1644347728649497088,2022-02-08-19:15:28,10.1.1.5,28,-0.040,-0.040,-0.040,0.000,0.000,0.000
1644347728749253888,2022-02-08-19:15:28,10.1.1.5,27,-0.050,-0.050,-0.050,0.000,0.000,0.000
1644347728848443136,2022-02-08-19:15:28,10.1.1.5,26,-0.060,-0.060,-0.060,0.000,0.000,0.000
1644347728946656000,2022-02-08-19:15:28,10.1.1.5,26,-0.070,-0.070,-0.070,0.000,0.000,0.000
1644347729048968192,2022-02-08-19:15:29,10.1.1.5,24,-0.080,-0.080,-0.080,0.000,0.000,0.000
1644347729149431040,2022-02-08-19:15:29,10.1.1.5,23,-0.090,-0.090,-0.090,0.000,0.000,0.000
1644347729247726080,2022-02-08-19:15:29,10.1.1.5,23,-0.100,-0.100,-0.100,0.000,0.000,0.000
1644347729347620096,2022-02-08-19:15:29,10.1.1.5,22,-0.090,-0.090,-0.090,0.000,0.000,0.000
1644347729449035008,2022-02-08-19:15:29,10.1.1.5,22,-0.080,-0.080,-0.080,0.000,0.000,0.000
1644347729548196096,2022-02-08-19:15:29,10.1.1.5,21,-0.070,-0.070,-0.070,0.000,0.000,0.000
1644347729646701056,2022-02-08-19:15:29,10.1.1.5,21,-0.060,-0.060,-0.060,0.000,0.000,0.000
1644347729747699968,2022-02-08-19:15:29,10.1.1.5,20,-0.050,-0.050,-0.050,0.000,0.000,0.000
1644347729847922176,2022-02-08-19:15:29,10.1.1.5,19,-0.040,-0.040,-0.040,0.000,0.000,0.000
1644347729948119040,2022-02-08-19:15:29,10.1.1.5,19,-0.031,-0.031,-0.031,0.000,0.000,0.000
1644347730067002112,2022-02-08-19:15:30,10.1.1.5,38,-0.020,-0.020,-0.020,0.000,0.000,0.000
1644347730166603008,2022-02-08-19:15:30,10.1.1.5,38,-0.010,-0.010,-0.010,0.000,0.000,0.000
1644347730268187904,2022-02-08-19:15:30,10.1.1.5,37,0.000,0.000,0.000,0.000,0.000,0.000
1644347730367203072,2022-02-08-19:15:30,10.1.1.5,36,0.010,0.010,0.010,0.000,0.000,0.000
1644347730467716096,2022-02-08-19:15:30,10.1.1.5,36,0.020,0.020,0.020,0.000,0.000,0.000
1644347730567742208,2022-02-08-19:15:30,10.1.1.5,35,0.030,0.030,0.030,0.000,0.000,0.000
1644347730668068864,2022-02-08-19:15:30,10.1.1.5,34,0.040,0.040,0.040,0.000,0.000,0.000
1644347730766797056,2022-02-08-19:15:30,10.1.1.5,33,0.050,0.050,0.050,0.000,0.000,0.000
1644347730866679808,2022-02-08-19:15:30,10.1.1.5,33,0.060,0.060,0.060,0.000,0.000,0.000
1644347730967536896,2022-02-08-19:15:30,10.1.1.5,32,0.070,0.070,0.070,0.000,0.000,0.000
1644347731066907904,2022-02-08-19:15:31,10.1.1.5,31,0.080,0.080,0.080,0.000,0.000,0.000
1644347731168171008,2022-02-08-19:15:31,10.1.1.5,31,0.090,0.090,0.090,0.000,0.000,0.000
1644347731268132864,2022-02-08-19:15:31,10.1.1.5,30,0.100,0.100,0.100,0.000,0.000,0.000
1644347731368913920,2022-02-08-19:15:31,10.1.1.5,29,0.090,0.090,0.090,0.000,0.000,0.000
1644347731468830976,2022-02-08-19:15:31,10.1.1.5,28,0.080,0.080,0.080,0.000,0.000,0.000
1644347731570543104,2022-02-08-19:15:31,10.1.1.5,28,0.070,0.070,0.070,0.000,0.000,0.000
1644347731673041152,2022-02-08-19:15:31,10.1.1.5,28,0.060,0.060,0.060,0.000,0.000,0.000
1644347731767705088,2022-02-08-19:15:31,10.1.1.5,27,0.050,0.050,0.050,0.000,0.000,0.000
1644347731871896064,2022-02-08-19:15:31,10.1.1.5,26,0.040,0.040,0.040,0.000,0.000,0.000
1644347731969700096,2022-02-08-19:15:31,10.1.1.5,24,0.030,0.030,0.030,0.000,0.000,0.000
1644347732068964096,2022-02-08-19:15:32,10.1.1.5,24,0.020,0.020,0.020,0.000,0.000,0.000
1644347732165767936,2022-02-08-19:15:32,10.1.1.5,22,0.010,0.010,0.010,0.000,0.000,0.000
1644347732268059136,2022-02-08-19:15:32,10.1.1.5,22,0.000,0.000,0.000,0.000,0.000,0.000
1644347732368434944,2022-02-08-19:15:32,10.1.1.5,21,-0.010,-0.010,-0.010,0.000,0.000,0.000
1644347732467366912,2022-02-08-19:15:32,10.1.1.5,20,-0.020,-0.020,-0.020,0.000,0.000,0.000
1644347732566775040,2022-02-08-19:15:32,10.1.1.5,19,-0.030,-0.030,-0.030,0.000,0.000,0.000
1644347732666364928,2022-02-08-19:15:32,10.1.1.5,19,-0.039,-0.039,-0.039,0.000,0.000,0.000
1644347732787204864,2022-02-08-19:15:32,10.1.1.5,38,-0.050,-0.050,-0.050,0.000,0.000,0.000
1644347732886918912,2022-02-08-19:15:32,10.1.1.5,38,-0.060,-0.060,-0.060,0.000,0.000,0.000
1644347732986682880,2022-02-08-19:15:32,10.1.1.5,38,-0.070,-0.070,-0.070,0.000,0.000,0.000
1644347733086266880,2022-02-08-19:15:33,10.1.1.5,37,-0.080,-0.080,-0.080,0.000,0.000,0.000
1644347733188764928,2022-02-08-19:15:33,10.1.1.5,36,-0.090,-0.090,-0.090,0.000,0.000,0.000
1644347733289136896,2022-02-08-19:15:33,10.1.1.5,36,-0.100,-0.100,-0.100,0.000,0.000,0.000
1644347733386770944,2022-02-08-19:15:33,10.1.1.5,35,-0.090,-0.090,-0.090,0.000,0.000,0.000
1644347733487121152,2022-02-08-19:15:33,10.1.1.5,33,-0.080,-0.080,-0.080,0.000,0.000,0.000
1644347733591730176,2022-02-08-19:15:33,10.1.1.5,30,-0.070,-0.070,-0.070,0.000,0.000,0.000
1644347733692178944,2022-02-08-19:15:33,10.1.1.5,27,-0.060,-0.060,-0.060,0.000,0.000,0.000
1644347733803632896,2022-02-08-19:15:33,10.1.1.5,24,-0.050,-0.050,-0.050,0.000,0.000,0.000
1644347733909025024,2022-02-08-19:15:33,10.1.1.5,31,-0.040,-0.040,-0.040,0.000,0.000,0.000
1644347734006903808,2022-02-08-19:15:34,10.1.1.5,30,-0.030,-0.030,-0.030,0.000,0.000,0.000
1644347734107110144,2022-02-08-19:15:34,10.1.1.5,29,-0.020,-0.020,-0.020,0.000,0.000,0.000
1644347734206132992,2022-02-08-19:15:34,10.1.1.5,29,-0.010,-0.010,-0.010,0.000,0.000,0.000
1644347734318187008,2022-02-08-19:15:34,10.1.1.5,26,0.000,0.000,0.000,0.000,0.000,0.000
1644347734410686976,2022-02-08-19:15:34,10.1.1.5,24,0.010,0.010,0.010,0.000,0.000,0.000
1644347734508845056,2022-02-08-19:15:34,10.1.1.5,23,0.020,0.020,0.020,0.000,0.000,0.000
1644347734606574080,2022-02-08-19:15:34,10.1.1.5,23,0.030,0.030,0.030,0.000,0.000,0.000
1644347734706275072,2022-02-08-19:15:34,10.1.1.5,22,0.040,0.040,0.040,0.000,0.000,0.000
1644347734806339072,2022-02-08-19:15:34,10.1.1.5,21,0.050,0.050,0.050,0.000,0.000,0.000
1644347734909046016,2022-02-08-19:15:34,10.1.1.5,20,0.060,0.060,0.060,0.000,0.000,0.000
1644347735008385792,2022-02-08-19:15:35,10.1.1.5,19,0.070,0.070,0.070,0.000,0.000,0.000
1644347735129730816,2022-02-08-19:15:35,10.1.1.5,38,0.080,0.080,0.080,0.000,0.000,0.000
1644347735228112896,2022-02-08-19:15:35,10.1.1.5,38,0.090,0.090,0.090,0.000,0.000,0.000
1644347735327884800,2022-02-08-19:15:35,10.1.1.5,37,0.100,0.100,0.100,0.000,0.000,0.000
1644347735427188992,2022-02-08-19:15:35,10.1.1.5,36,0.090,0.090,0.090,0.000,0.000,0.000
1644347735527947776,2022-02-08-19:15:35,10.1.1.5,36,0.080,0.080,0.080,0.000,0.000,0.000
1644347735627998976,2022-02-08-19:15:35,10.1.1.5,35,0.070,0.070,0.070,0.000,0.000,0.000
1644347735737648896,2022-02-08-19:15:35,10.1.1.5,32,0.060,0.060,0.060,0.000,0.000,0.000
1644347735831689984,2022-02-08-19:15:35,10.1.1.5,31,0.050,0.050,0.050,0.000,0.000,0.000
1644347735928029184,2022-02-08-19:15:35,10.1.1.5,31,0.040,0.040,0.040,0.000,0.000,0.000
1644347736028131072,2022-02-08-19:15:36,10.1.1.5,29,0.030,0.030,0.030,0.000,0.000,0.000
1644347736127068928,2022-02-08-19:15:36,10.1.1.5,28,0.020,0.020,0.020,0.000,0.000,0.000
1644347736228877056,2022-02-08-19:15:36,10.1.1.5,28,0.010,0.010,0.010,0.000,0.000,0.000
1644347736328030208,2022-02-08-19:15:36,10.1.1.5,27,0.000,0.000,0.000,0.000,0.000,0.000
1644347736426721024,2022-02-08-19:15:36,10.1.1.5,27,-0.010,-0.010,-0.010,0.000,0.000,0.000
1644347736529396992,2022-02-08-19:15:36,10.1.1.5,26,-0.020,-0.020,-0.020,0.000,0.000,0.000
1644347736628051968,2022-02-08-19:15:36,10.1.1.5,26,-0.030,-0.030,-0.030,0.000,0.000,0.000
1644347736726938112,2022-02-08-19:15:36,10.1.1.5,25,-0.040,-0.040,-0.040,0.000,0.000,0.000
1644347736828345088,2022-02-08-19:15:36,10.1.1.5,24,-0.050,-0.050,-0.050,0.000,0.000,0.000
1644347736928081152,2022-02-08-19:15:36,10.1.1.5,23,-0.060,-0.060,-0.060,0.000,0.000,0.000
1644347737028068096,2022-02-08-19:15:37,10.1.1.5,21,-0.070,-0.070,-0.070,0.000,0.000,0.000
1644347737127033856,2022-02-08-19:15:37,10.1.1.5,20,-0.080,-0.080,-0.080,0.000,0.000,0.000
1644347737229321984,2022-02-08-19:15:37,10.1.1.5,20,-0.090,-0.090,-0.090,0.000,0.000,0.000
1644347737332153088,2022-02-08-19:15:37,10.1.1.5,18,-0.099,-0.099,-0.099,0.000,0.000,0.000
1644347737447886848,2022-02-08-19:15:37,10.1.1.5,37,-0.090,-0.090,-0.090,0.000,0.000,0.000
1644347737548890112,2022-02-08-19:15:37,10.1.1.5,35,-0.080,-0.080,-0.080,0.000,0.000,0.000
1644347737649027072,2022-02-08-19:15:37,10.1.1.5,33,-0.070,-0.070,-0.070,0.000,0.000,0.000
1644347737754349056,2022-02-08-19:15:37,10.1.1.5,32,-0.060,-0.060,-0.060,0.000,0.000,0.000
1644347737851762176,2022-02-08-19:15:37,10.1.1.5,30,-0.050,-0.050,-0.050,0.000,0.000,0.000
1644347737950385920,2022-02-08-19:15:37,10.1.1.5,29,-0.040,-0.040,-0.040,0.000,0.000,0.000
1644347738049814016,2022-02-08-19:15:38,10.1.1.5,28,-0.030,-0.030,-0.030,0.000,0.000,0.000
1644347738147768064,2022-02-08-19:15:38,10.1.1.5,28,-0.020,-0.020,-0.020,0.000,0.000,0.000
1644347738248568064,2022-02-08-19:15:38,10.1.1.5,27,-0.010,-0.010,-0.010,0.000,0.000,0.000
1644347738355686912,2022-02-08-19:15:38,10.1.1.5,26,0.000,0.000,0.000,0.000,0.000,0.000
1644347738452258048,2022-02-08-19:15:38,10.1.1.5,21,0.010,0.010,0.010,0.000,0.000,0.000
1644347738546363136,2022-02-08-19:15:38,10.1.1.5,19,0.020,0.020,0.020,0.000,0.000,0.000
1644347738648997120,2022-02-08-19:15:38,10.1.1.5,18,0.029,0.029,0.029,0.000,0.000,0.000
1644347738768377088,2022-02-08-19:15:38,10.1.1.5,38,0.040,0.040,0.040,0.000,0.000,0.000
1644347738867342080,2022-02-08-19:15:38,10.1.1.5,37,0.050,0.050,0.050,0.000,0.000,0.000
1644347738968357120,2022-02-08-19:15:38,10.1.1.5,34,0.060,0.060,0.060,0.000,0.000,0.000
1644347739067830016,2022-02-08-19:15:39,10.1.1.5,33,0.070,0.070,0.070,0.000,0.000,0.000
1644347739168920064,2022-02-08-19:15:39,10.1.1.5,33,0.080,0.080,0.080,0.000,0.000,0.000
1644347739267920128,2022-02-08-19:15:39,10.1.1.5,31,0.090,0.090,0.090,0.000,0.000,0.000
1644347739367397120,2022-02-08-19:15:39,10.1.1.5,31,0.100,0.100,0.100,0.000,0.000,0.000
1644347739466629888,2022-02-08-19:15:39,10.1.1.5,30,0.090,0.090,0.090,0.000,0.000,0.000
1644347739566551808,2022-02-08-19:15:39,10.1.1.5,29,0.080,0.080,0.080,0.000,0.000,0.000
1644347739666682880,2022-02-08-19:15:39,10.1.1.5,28,0.070,0.070,0.070,0.000,0.000,0.000
1644347739769185024,2022-02-08-19:15:39,10.1.1.5,27,0.060,0.060,0.060,0.000,0.000,0.000
1644347739871833088,2022-02-08-19:15:39,10.1.1.5,27,0.050,0.050,0.050,0.000,0.000,0.000
1644347739968524032,2022-02-08-19:15:39,10.1.1.5,19,0.040,0.040,0.040,0.000,0.000,0.000
1644347740086496000,2022-02-08-19:15:40,10.1.1.5,38,0.030,0.030,0.030,0.000,0.000,0.000
1644347740188115968,2022-02-08-19:15:40,10.1.1.5,37,0.020,0.020,0.020,0.000,0.000,0.000
1644347740287606016,2022-02-08-19:15:40,10.1.1.5,36,0.010,0.010,0.010,0.000,0.000,0.000
1644347740386822912,2022-02-08-19:15:40,10.1.1.5,36,0.000,0.000,0.000,0.000,0.000,0.000
1644347740487212032,2022-02-08-19:15:40,10.1.1.5,34,-0.010,-0.010,-0.010,0.000,0.000,0.000
1644347740588035072,2022-02-08-19:15:40,10.1.1.5,32,-0.020,-0.020,-0.020,0.000,0.000,0.000
1644347740686964992,2022-02-08-19:15:40,10.1.1.5,32,-0.030,-0.030,-0.030,0.000,0.000,0.000
1644347740786711040,2022-02-08-19:15:40,10.1.1.5,31,-0.040,-0.040,-0.040,0.000,0.000,0.000
1644347740887963904,2022-02-08-19:15:40,10.1.1.5,30,-0.050,-0.050,-0.050,0.000,0.000,0.000
1644347740988347136,2022-02-08-19:15:40,10.1.1.5,28,-0.060,-0.060,-0.060,0.000,0.000,0.000
1644347741087068928,2022-02-08-19:15:41,10.1.1.5,28,-0.070,-0.070,-0.070,0.000,0.000,0.000
1644347741190457088,2022-02-08-19:15:41,10.1.1.5,27,-0.080,-0.080,-0.080,0.000,0.000,0.000
1644347741287353088,2022-02-08-19:15:41,10.1.1.5,24,-0.090,-0.090,-0.090,0.000,0.000,0.000
1644347741388922880,2022-02-08-19:15:41,10.1.1.5,23,-0.100,-0.100,-0.100,0.000,0.000,0.000
1644347741487712000,2022-02-08-19:15:41,10.1.1.5,22,-0.090,-0.090,-0.090,0.000,0.000,0.000
1644347741587938048,2022-02-08-19:15:41,10.1.1.5,21,-0.080,-0.080,-0.080,0.000,0.000,0.000
1644347741687300864,2022-02-08-19:15:41,10.1.1.5,21,-0.070,-0.070,-0.070,0.000,0.000,0.000
1644347741787374848,2022-02-08-19:15:41,10.1.1.5,19,-0.061,-0.061,-0.061,0.000,0.000,0.000
1644347741908457984,2022-02-08-19:15:41,10.1.1.5,38,-0.050,-0.050,-0.050,0.000,0.000,0.000
1644347742006479872,2022-02-08-19:15:42,10.1.1.5,37,-0.040,-0.040,-0.040,0.000,0.000,0.000
1644347742108625920,2022-02-08-19:15:42,10.1.1.5,36,-0.030,-0.030,-0.030,0.000,0.000,0.000
1644347742209122048,2022-02-08-19:15:42,10.1.1.5,35,-0.020,-0.020,-0.020,0.000,0.000,0.000
1644347742307086848,2022-02-08-19:15:42,10.1.1.5,34,-0.010,-0.010,-0.010,0.000,0.000,0.000
1644347742408421888,2022-02-08-19:15:42,10.1.1.5,31,0.000,0.000,0.000,0.000,0.000,0.000
1644347742506232064,2022-02-08-19:15:42,10.1.1.5,30,0.010,0.010,0.010,0.000,0.000,0.000
1644347742608541952,2022-02-08-19:15:42,10.1.1.5,29,0.020,0.020,0.020,0.000,0.000,0.000
1644347742708204032,2022-02-08-19:15:42,10.1.1.5,27,0.030,0.030,0.030,0.000,0.000,0.000
1644347742806032896,2022-02-08-19:15:42,10.1.1.5,27,0.040,0.040,0.040,0.000,0.000,0.000
1644347742906289152,2022-02-08-19:15:42,10.1.1.5,26,0.050,0.050,0.050,0.000,0.000,0.000
1644347743006646016,2022-02-08-19:15:43,10.1.1.5,26,0.060,0.060,0.060,0.000,0.000,0.000
1644347743129298944,2022-02-08-19:15:43,10.1.1.5,36,0.070,0.070,0.070,0.000,0.000,0.000
1644347743226852864,2022-02-08-19:15:43,10.1.1.5,35,0.080,0.080,0.080,0.000,0.000,0.000
1644347743327490048,2022-02-08-19:15:43,10.1.1.5,31,0.090,0.090,0.090,0.000,0.000,0.000
1644347743428036864,2022-02-08-19:15:43,10.1.1.5,30,0.100,0.100,0.100,0.000,0.000,0.000
1644347743530800128,2022-02-08-19:15:43,10.1.1.5,29,0.090,0.090,0.090,0.000,0.000,0.000
1644347743639911936,2022-02-08-19:15:43,10.1.1.5,29,0.080,0.080,0.080,0.000,0.000,0.000
1644347743728357120,2022-02-08-19:15:43,10.1.1.5,27,0.070,0.070,0.070,0.000,0.000,0.000
1644347743827992064,2022-02-08-19:15:43,10.1.1.5,26,0.060,0.060,0.060,0.000,0.000,0.000
1644347743928699904,2022-02-08-19:15:43,10.1.1.5,22,0.050,0.050,0.050,0.000,0.000,0.000
1644347744027048192,2022-02-08-19:15:44,10.1.1.5,21,0.040,0.040,0.040,0.000,0.000,0.000
1644347744129102848,2022-02-08-19:15:44,10.1.1.5,21,0.030,0.030,0.030,0.000,0.000,0.000
1644347744228909056,2022-02-08-19:15:44,10.1.1.5,19,0.020,0.020,0.020,0.000,0.000,0.000
1644347744349071872,2022-02-08-19:15:44,10.1.1.5,37,0.010,0.010,0.010,0.000,0.000,0.000
1644347744448370944,2022-02-08-19:15:44,10.1.1.5,35,0.000,0.000,0.000,0.000,0.000,0.000
1644347744546173184,2022-02-08-19:15:44,10.1.1.5,32,-0.010,-0.010,-0.010,0.000,0.000,0.000
1644347744648747008,2022-02-08-19:15:44,10.1.1.5,32,-0.020,-0.020,-0.020,0.000,0.000,0.000
1644347744846537984,2022-02-08-19:15:44,10.1.1.5,27,-0.040,-0.040,-0.040,0.000,0.000,0.000
1644347744948148992,2022-02-08-19:15:44,10.1.1.5,26,-0.050,-0.050,-0.050,0.000,0.000,0.000
1644347745049966080,2022-02-08-19:15:45,10.1.1.5,26,-0.060,-0.060,-0.060,0.000,0.000,0.000
1644347745146498048,2022-02-08-19:15:45,10.1.1.5,25,-0.070,-0.070,-0.070,0.000,0.000,0.000
1644347745247721984,2022-02-08-19:15:45,10.1.1.5,24,-0.080,-0.080,-0.080,0.000,0.000,0.000
1644347745346311168,2022-02-08-19:15:45,10.1.1.5,23,-0.090,-0.090,-0.090,0.000,0.000,0.000
1644347745446558976,2022-02-08-19:15:45,10.1.1.5,22,-0.100,-0.100,-0.100,0.000,0.000,0.000
1644347745546626048,2022-02-08-19:15:45,10.1.1.5,22,-0.090,-0.090,-0.090,0.000,0.000,0.000
1644347745646388992,2022-02-08-19:15:45,10.1.1.5,21,-0.080,-0.080,-0.080,0.000,0.000,0.000
1644347745747462144,2022-02-08-19:15:45,10.1.1.5,21,-0.070,-0.070,-0.070,0.000,0.000,0.000
1644347745847126016,2022-02-08-19:15:45,10.1.1.5,20,-0.060,-0.060,-0.060,0.000,0.000,0.000
1644347745946065920,2022-02-08-19:15:45,10.1.1.5,19,-0.051,-0.051,-0.051,0.000,0.000,0.000
1644347746067177984,2022-02-08-19:15:46,10.1.1.5,38,-0.040,-0.040,-0.040,0.000,0.000,0.000
1644347746167608064,2022-02-08-19:15:46,10.1.1.5,37,-0.030,-0.030,-0.030,0.000,0.000,0.000
1644347746266163968,2022-02-08-19:15:46,10.1.1.5,37,-0.020,-0.020,-0.020,0.000,0.000,0.000
1644347746366461952,2022-02-08-19:15:46,10.1.1.5,36,-0.010,-0.010,-0.010,0.000,0.000,0.000
1644347746467710976,2022-02-08-19:15:46,10.1.1.5,35,0.000,0.000,0.000,0.000,0.000,0.000
1644347746566415104,2022-02-08-19:15:46,10.1.1.5,34,0.010,0.010,0.010,0.000,0.000,0.000
1644347746666873856,2022-02-08-19:15:46,10.1.1.5,33,0.020,0.020,0.020,0.000,0.000,0.000
1644347746765999104,2022-02-08-19:15:46,10.1.1.5,32,0.030,0.030,0.030,0.000,0.000,0.000
1644347746866467072,2022-02-08-19:15:46,10.1.1.5,31,0.040,0.040,0.040,0.000,0.000,0.000
1644347746968013056,2022-02-08-19:15:46,10.1.1.5,30,0.050,0.050,0.050,0.000,0.000,0.000
1644347747066996224,2022-02-08-19:15:47,10.1.1.5,29,0.060,0.060,0.060,0.000,0.000,0.000
1644347747166681088,2022-02-08-19:15:47,10.1.1.5,28,0.070,0.070,0.070,0.000,0.000,0.000
1644347747267843840,2022-02-08-19:15:47,10.1.1.5,28,0.080,0.080,0.080,0.000,0.000,0.000
1644347747367117056,2022-02-08-19:15:47,10.1.1.5,27,0.090,0.090,0.090,0.000,0.000,0.000
1644347747466686976,2022-02-08-19:15:47,10.1.1.5,26,0.100,0.100,0.100,0.000,0.000,0.000
1644347747568068864,2022-02-08-19:15:47,10.1.1.5,26,0.090,0.090,0.090,0.000,0.000,0.000
1644347747667855104,2022-02-08-19:15:47,10.1.1.5,24,0.080,0.080,0.080,0.000,0.000,0.000
1644347747767646976,2022-02-08-19:15:47,10.1.1.5,23,0.070,0.070,0.070,0.000,0.000,0.000
1644347747866283776,2022-02-08-19:15:47,10.1.1.5,22,0.060,0.060,0.060,0.000,0.000,0.000
1644347747966075904,2022-02-08-19:15:47,10.1.1.5,21,0.050,0.050,0.050,0.000,0.000,0.000
1644347748068745984,2022-02-08-19:15:48,10.1.1.5,21,0.040,0.040,0.040,0.000,0.000,0.000
1644347748192517120,2022-02-08-19:15:48,10.1.1.5,39,0.030,0.030,0.030,0.000,0.000,0.000
1644347748289140992,2022-02-08-19:15:48,10.1.1.5,28,0.020,0.020,0.020,0.000,0.000,0.000
1644347748388769024,2022-02-08-19:15:48,10.1.1.5,27,0.010,0.010,0.010,0.000,0.000,0.000
1644347748488028160,2022-02-08-19:15:48,10.1.1.5,23,0.000,0.000,0.000,0.000,0.000,0.000
