FedericoMungari/DigitalTwin_service/01_WiredScenario/Output/Output_script/script_ROSAPI_output_robots8_freq0_5.txt.csv
timestamp,node,latency,joint_1,joint_2,joint_3,joint_4,joint_5,joint_6
1640068680773848064,"2021-12-21,06:38:00",10.1.1.6,5360,0.000,0.000,0.000,0.000,0.000,0.000
1640068683040175872,"2021-12-21,06:38:03",10.1.1.6,282,-0.010,-0.010,-0.010,0.000,0.000,0.000
1640068683068027136,"2021-12-21,06:38:03",10.1.1.6,0.3101229667663574,-0.010,-0.010,-0.010,0.000,0.000,0.000
1640068683359868928,"2021-12-21,06:38:03",10.1.1.6,290,-0.020,-0.020,-0.020,0.000,0.000,0.000
1640068683396920064,"2021-12-21,06:38:03",10.1.1.6,0.32766103744506836,-0.020,-0.020,-0.020,0.000,0.000,0.000
1640068683709146112,"2021-12-21,06:38:03",10.1.1.6,309,-0.030,-0.030,-0.030,0.000,0.000,0.000
1640068683738863104,"2021-12-21,06:38:03",10.1.1.6,0.3391261100769043,-0.030,-0.030,-0.030,0.000,0.000,0.000
1640068684029202944,"2021-12-21,06:38:04",10.1.1.6,288,-0.040,-0.040,-0.040,0.000,0.000,0.000
1640068684055112960,"2021-12-21,06:38:04",10.1.1.6,0.3144340515136719,-0.040,-0.040,-0.040,0.000,0.000,0.000
1640068684348196096,"2021-12-21,06:38:04",10.1.1.6,291,-0.050,-0.050,-0.050,0.000,0.000,0.000
1640068684372700928,"2021-12-21,06:38:04",10.1.1.6,0.3162050247192383,-0.050,-0.050,-0.050,0.000,0.000,0.000
1640068684680911104,"2021-12-21,06:38:04",10.1.1.6,305,-0.060,-0.060,-0.060,0.000,0.000,0.000
1640068684713278976,"2021-12-21,06:38:04",10.1.1.6,0.3376128673553467,-0.060,-0.060,-0.060,0.000,0.000,0.000
1640068685008999168,"2021-12-21,06:38:05",10.1.1.6,294,-0.070,-0.070,-0.070,0.000,0.000,0.000
1640068685027901952,"2021-12-21,06:38:05",10.1.1.6,0.31312084197998047,-0.070,-0.070,-0.070,0.000,0.000,0.000
1640068685320822016,"2021-12-21,06:38:05",10.1.1.6,291,-0.080,-0.080,-0.080,0.000,0.000,0.000
1640068685349082112,"2021-12-21,06:38:05",10.1.1.6,0.31993913650512695,-0.080,-0.080,-0.080,0.000,0.000,0.000
1640068685656387072,"2021-12-21,06:38:05",10.1.1.6,306,-0.090,-0.090,-0.090,0.000,0.000,0.000
1640068685667009024,"2021-12-21,06:38:05",10.1.1.6,0.3167269229888916,-0.090,-0.090,-0.090,0.000,0.000,0.000
1640068685958797056,"2021-12-21,06:38:05",10.1.1.6,290,-0.100,-0.100,-0.100,0.000,0.000,0.000
1640068685979955968,"2021-12-21,06:38:05",10.1.1.6,0.3116569519042969,-0.100,-0.100,-0.100,0.000,0.000,0.000
1640068686317428224,"2021-12-21,06:38:06",10.1.1.6,336,-0.110,-0.110,-0.110,0.000,0.000,0.000
1640068686372641024,"2021-12-21,06:38:06",10.1.1.6,0.39129090309143066,-0.110,-0.110,-0.110,0.000,0.000,0.000
1640068686669905920,"2021-12-21,06:38:06",10.1.1.6,295,-0.120,-0.120,-0.120,0.000,0.000,0.000
1640068686693999104,"2021-12-21,06:38:06",10.1.1.6,0.319976806640625,-0.120,-0.120,-0.120,0.000,0.000,0.000
1640068687031315968,"2021-12-21,06:38:07",10.1.1.6,335,-0.130,-0.130,-0.130,0.000,0.000,0.000
1640068687044624128,"2021-12-21,06:38:07",10.1.1.6,0.3489658832550049,-0.130,-0.130,-0.130,0.000,0.000,0.000
1640068687342416896,"2021-12-21,06:38:07",10.1.1.6,295,-0.140,-0.140,-0.140,0.000,0.000,0.000
1640068687393997824,"2021-12-21,06:38:07",10.1.1.6,0.3476080894470215,-0.140,-0.140,-0.140,0.000,0.000,0.000
1640068687698620160,"2021-12-21,06:38:07",10.1.1.6,303,-0.150,-0.150,-0.150,0.000,0.000,0.000
1640068687746212096,"2021-12-21,06:38:07",10.1.1.6,0.3508269786834717,-0.150,-0.150,-0.150,0.000,0.000,0.000
1640068689304898048,"2021-12-21,06:38:09",10.1.1.6,1557,-0.160,-0.160,-0.160,0.000,0.000,0.000
1640068689322701056,"2021-12-21,06:38:09",10.1.1.6,1.5749950408935547,-0.160,-0.160,-0.160,0.000,0.000,0.000
1640068689662460160,"2021-12-21,06:38:09",10.1.1.6,337,-0.170,-0.170,-0.170,0.000,0.000,0.000
1640068689675513856,"2021-12-21,06:38:09",10.1.1.6,0.3510861396789551,-0.170,-0.170,-0.170,0.000,0.000,0.000
1640068690013246976,"2021-12-21,06:38:10",10.1.1.6,336,-0.180,-0.180,-0.180,0.000,0.000,0.000
1640068690095268096,"2021-12-21,06:38:10",10.1.1.6,0.4181840419769287,-0.180,-0.180,-0.180,0.000,0.000,0.000
1640068690425477120,"2021-12-21,06:38:10",10.1.1.6,327,-0.190,-0.190,-0.190,0.000,0.000,0.000
1640068690453810944,"2021-12-21,06:38:10",10.1.1.6,0.3564181327819824,-0.190,-0.190,-0.190,0.000,0.000,0.000
1640068690775745024,"2021-12-21,06:38:10",10.1.1.6,320,-0.200,-0.200,-0.200,0.000,0.000,0.000
1640068690780787968,"2021-12-21,06:38:10",10.1.1.6,0.32565808296203613,-0.200,-0.200,-0.200,0.000,0.000,0.000
1640068691086391040,"2021-12-21,06:38:11",10.1.1.6,303,-0.210,-0.210,-0.210,0.000,0.000,0.000
1640068691114128128,"2021-12-21,06:38:11",10.1.1.6,0.33129096031188965,-0.210,-0.210,-0.210,0.000,0.000,0.000
1640068691427236096,"2021-12-21,06:38:11",10.1.1.6,311,-0.220,-0.220,-0.220,0.000,0.000,0.000
1640068691434204160,"2021-12-21,06:38:11",10.1.1.6,0.31862807273864746,-0.220,-0.220,-0.220,0.000,0.000,0.000
1640068691727659008,"2021-12-21,06:38:11",10.1.1.6,291,-0.230,-0.230,-0.230,0.000,0.000,0.000
1640068691754765056,"2021-12-21,06:38:11",10.1.1.6,0.3183159828186035,-0.230,-0.230,-0.230,0.000,0.000,0.000
1640068692048613120,"2021-12-21,06:38:12",10.1.1.6,292,-0.240,-0.240,-0.240,0.000,0.000,0.000
1640068692097235968,"2021-12-21,06:38:12",10.1.1.6,0.34116101264953613,-0.240,-0.240,-0.240,0.000,0.000,0.000
1640068692399142144,"2021-12-21,06:38:12",10.1.1.6,300,-0.250,-0.250,-0.250,0.000,0.000,0.000
1640068692408973056,"2021-12-21,06:38:12",10.1.1.6,0.3102550506591797,-0.250,-0.250,-0.250,0.000,0.000,0.000
1640068692709101056,"2021-12-21,06:38:12",10.1.1.6,298,-0.260,-0.260,-0.260,0.000,0.000,0.000
1640068692736006144,"2021-12-21,06:38:12",10.1.1.6,0.3258178234100342,-0.260,-0.260,-0.260,0.000,0.000,0.000
1640068693039955968,"2021-12-21,06:38:13",10.1.1.6,302,-0.270,-0.270,-0.270,0.000,0.000,0.000
1640068693064059136,"2021-12-21,06:38:13",10.1.1.6,0.3263881206512451,-0.270,-0.270,-0.270,0.000,0.000,0.000
1640068693370652928,"2021-12-21,06:38:13",10.1.1.6,305,-0.280,-0.280,-0.280,0.000,0.000,0.000
1640068693402240000,"2021-12-21,06:38:13",10.1.1.6,0.3368220329284668,-0.280,-0.280,-0.280,0.000,0.000,0.000
1640068693701245952,"2021-12-21,06:38:13",10.1.1.6,297,-0.290,-0.290,-0.290,0.000,0.000,0.000
1640068693729625856,"2021-12-21,06:38:13",10.1.1.6,0.3261740207672119,-0.290,-0.290,-0.290,0.000,0.000,0.000
1640068694020538112,"2021-12-21,06:38:14",10.1.1.6,289,-0.300,-0.300,-0.300,0.000,0.000,0.000
1640068694052090880,"2021-12-21,06:38:14",10.1.1.6,0.32129716873168945,-0.300,-0.300,-0.300,0.000,0.000,0.000
1640068694351238912,"2021-12-21,06:38:14",10.1.1.6,297,-0.310,-0.310,-0.310,0.000,0.000,0.000
1640068694395819008,"2021-12-21,06:38:14",10.1.1.6,0.3424849510192871,-0.310,-0.310,-0.310,0.000,0.000,0.000
1640068694711886848,"2021-12-21,06:38:14",10.1.1.6,313,-0.320,-0.320,-0.320,0.000,0.000,0.000
1640068694721571072,"2021-12-21,06:38:14",10.1.1.6,0.3235349655151367,-0.320,-0.320,-0.320,0.000,0.000,0.000
1640068695032325888,"2021-12-21,06:38:15",10.1.1.6,309,-0.330,-0.330,-0.330,0.000,0.000,0.000
1640068695038340096,"2021-12-21,06:38:15",10.1.1.6,0.3154568672180176,-0.330,-0.330,-0.330,0.000,0.000,0.000
1640068695342444800,"2021-12-21,06:38:15",10.1.1.6,302,-0.340,-0.340,-0.340,0.000,0.000,0.000
1640068695412559872,"2021-12-21,06:38:15",10.1.1.6,0.37292909622192383,-0.340,-0.340,-0.340,0.000,0.000,0.000
1640068695701818880,"2021-12-21,06:38:15",10.1.1.6,287,-0.350,-0.350,-0.350,0.000,0.000,0.000
1640068695735316992,"2021-12-21,06:38:15",10.1.1.6,0.32132697105407715,-0.350,-0.350,-0.350,0.000,0.000,0.000
1640068696052530176,"2021-12-21,06:38:16",10.1.1.6,315,-0.360,-0.360,-0.360,0.000,0.000,0.000
1640068696093985024,"2021-12-21,06:38:16",10.1.1.6,0.35663318634033203,-0.360,-0.360,-0.360,0.000,0.000,0.000
1640068696413171968,"2021-12-21,06:38:16",10.1.1.6,317,-0.370,-0.370,-0.370,0.000,0.000,0.000
1640068696470371840,"2021-12-21,06:38:16",10.1.1.6,0.3750889301300049,-0.370,-0.370,-0.370,0.000,0.000,0.000
1640068696832915968,"2021-12-21,06:38:16",10.1.1.6,361,-0.380,-0.380,-0.380,0.000,0.000,0.000
1640068696852904192,"2021-12-21,06:38:16",10.1.1.6,0.3813149929046631,-0.380,-0.380,-0.380,0.000,0.000,0.000
1640068697163837952,"2021-12-21,06:38:17",10.1.1.6,309,-0.390,-0.390,-0.390,0.000,0.000,0.000
1640068697265732096,"2021-12-21,06:38:17",10.1.1.6,0.41164708137512207,-0.390,-0.390,-0.390,0.000,0.000,0.000
1640068697563107840,"2021-12-21,06:38:17",10.1.1.6,295,-0.400,-0.400,-0.400,0.000,0.000,0.000
1640068697593643008,"2021-12-21,06:38:17",10.1.1.6,0.3262629508972168,-0.400,-0.400,-0.400,0.000,0.000,0.000
1640068697932944896,"2021-12-21,06:38:17",10.1.1.6,337,-0.410,-0.410,-0.410,0.000,0.000,0.000
1640068697949291008,"2021-12-21,06:38:17",10.1.1.6,0.3540670871734619,-0.410,-0.410,-0.410,0.000,0.000,0.000
1640068698312923904,"2021-12-21,06:38:18",10.1.1.6,361,-0.420,-0.420,-0.420,0.000,0.000,0.000
1640068698373202176,"2021-12-21,06:38:18",10.1.1.6,0.42191386222839355,-0.420,-0.420,-0.420,0.000,0.000,0.000
1640068698704808960,"2021-12-21,06:38:18",10.1.1.6,330,-0.430,-0.430,-0.430,0.000,0.000,0.000
1640068698722855168,"2021-12-21,06:38:18",10.1.1.6,0.34834885597229004,-0.430,-0.430,-0.430,0.000,0.000,0.000
1640068699084708864,"2021-12-21,06:38:19",10.1.1.6,358,-0.440,-0.440,-0.440,0.000,0.000,0.000
1640068699109152000,"2021-12-21,06:38:19",10.1.1.6,0.38297510147094727,-0.440,-0.440,-0.440,0.000,0.000,0.000
1640068699465782016,"2021-12-21,06:38:19",10.1.1.6,354,-0.450,-0.450,-0.450,0.000,0.000,0.000
1640068699503153920,"2021-12-21,06:38:19",10.1.1.6,0.38885998725891113,-0.450,-0.450,-0.450,0.000,0.000,0.000
1640068699821667840,"2021-12-21,06:38:19",10.1.1.6,316,-0.460,-0.460,-0.460,0.000,0.000,0.000
1640068699849570048,"2021-12-21,06:38:19",10.1.1.6,0.34487199783325195,-0.460,-0.460,-0.460,0.000,0.000,0.000
1640068700172068096,"2021-12-21,06:38:20",10.1.1.6,320,-0.470,-0.470,-0.470,0.000,0.000,0.000
1640068700199202048,"2021-12-21,06:38:20",10.1.1.6,0.3476591110229492,-0.470,-0.470,-0.470,0.000,0.000,0.000
1640068700511580928,"2021-12-21,06:38:20",10.1.1.6,310,-0.480,-0.480,-0.480,0.000,0.000,0.000
1640068700538185984,"2021-12-21,06:38:20",10.1.1.6,0.3367018699645996,-0.480,-0.480,-0.480,0.000,0.000,0.000
1640068700875065088,"2021-12-21,06:38:20",10.1.1.6,333,-0.490,-0.490,-0.490,0.000,0.000,0.000
1640068700904438016,"2021-12-21,06:38:20",10.1.1.6,0.3630061149597168,-0.490,-0.490,-0.490,0.000,0.000,0.000
1640068701223328000,"2021-12-21,06:38:21",10.1.1.6,317,-0.480,-0.480,-0.480,0.000,0.000,0.000
1640068701253228032,"2021-12-21,06:38:21",10.1.1.6,0.34756898880004883,-0.480,-0.480,-0.480,0.000,0.000,0.000
1640068701561858816,"2021-12-21,06:38:21",10.1.1.6,306,-0.470,-0.470,-0.470,0.000,0.000,0.000
1640068701593339904,"2021-12-21,06:38:21",10.1.1.6,0.33861780166625977,-0.470,-0.470,-0.470,0.000,0.000,0.000
1640068701922710784,"2021-12-21,06:38:21",10.1.1.6,326,-0.460,-0.460,-0.460,0.000,0.000,0.000
1640068701928391936,"2021-12-21,06:38:21",10.1.1.6,0.33228206634521484,-0.460,-0.460,-0.460,0.000,0.000,0.000
1640068702260057088,"2021-12-21,06:38:22",10.1.1.6,329,-0.450,-0.450,-0.450,0.000,0.000,0.000
1640068702274224128,"2021-12-21,06:38:22",10.1.1.6,0.3442189693450928,-0.450,-0.450,-0.450,0.000,0.000,0.000
1640068702589997056,"2021-12-21,06:38:22",10.1.1.6,313,-0.440,-0.440,-0.440,0.000,0.000,0.000
1640068702657902848,"2021-12-21,06:38:22",10.1.1.6,0.3813638687133789,-0.440,-0.440,-0.440,0.000,0.000,0.000
1640068703009545984,"2021-12-21,06:38:23",10.1.1.6,350,-0.430,-0.430,-0.430,0.000,0.000,0.000
1640068703015486976,"2021-12-21,06:38:23",10.1.1.6,0.35619306564331055,-0.430,-0.430,-0.430,0.000,0.000,0.000
1640068703350984960,"2021-12-21,06:38:23",10.1.1.6,334,-0.420,-0.420,-0.420,0.000,0.000,0.000
1640068703412566784,"2021-12-21,06:38:23",10.1.1.6,0.3957960605621338,-0.420,-0.420,-0.420,0.000,0.000,0.000
1640068703757788928,"2021-12-21,06:38:23",10.1.1.6,343,-0.410,-0.410,-0.410,0.000,0.000,0.000
1640068703790590976,"2021-12-21,06:38:23",10.1.1.6,0.3764209747314453,-0.410,-0.410,-0.410,0.000,0.000,0.000
1640068704089352960,"2021-12-21,06:38:24",10.1.1.6,296,-0.400,-0.400,-0.400,0.000,0.000,0.000
1640068704119774976,"2021-12-21,06:38:24",10.1.1.6,0.32735395431518555,-0.400,-0.400,-0.400,0.000,0.000,0.000
1640068704439826944,"2021-12-21,06:38:24",10.1.1.6,316,-0.390,-0.390,-0.390,0.000,0.000,0.000
1640068704498265088,"2021-12-21,06:38:24",10.1.1.6,0.37693190574645996,-0.390,-0.390,-0.390,0.000,0.000,0.000
1640068704857763072,"2021-12-21,06:38:24",10.1.1.6,357,-0.380,-0.380,-0.380,0.000,0.000,0.000
1640068704869139968,"2021-12-21,06:38:24",10.1.1.6,0.36933207511901855,-0.380,-0.380,-0.380,0.000,0.000,0.000
1640068705167227904,"2021-12-21,06:38:25",10.1.1.6,296,-0.370,-0.370,-0.370,0.000,0.000,0.000
1640068705199683072,"2021-12-21,06:38:25",10.1.1.6,0.32909107208251953,-0.370,-0.370,-0.370,0.000,0.000,0.000
1640068705507639040,"2021-12-21,06:38:25",10.1.1.6,306,-0.360,-0.360,-0.360,0.000,0.000,0.000
1640068705555350016,"2021-12-21,06:38:25",10.1.1.6,0.35431599617004395,-0.360,-0.360,-0.360,0.000,0.000,0.000
1640068705877428992,"2021-12-21,06:38:25",10.1.1.6,320,-0.350,-0.350,-0.350,0.000,0.000,0.000
1640068705903832832,"2021-12-21,06:38:25",10.1.1.6,0.34710001945495605,-0.350,-0.350,-0.350,0.000,0.000,0.000
1640068706226281984,"2021-12-21,06:38:26",10.1.1.6,320,-0.340,-0.340,-0.340,0.000,0.000,0.000
1640068706254771968,"2021-12-21,06:38:26",10.1.1.6,0.3493080139160156,-0.340,-0.340,-0.340,0.000,0.000,0.000
1640068706576100096,"2021-12-21,06:38:26",10.1.1.6,319,-0.330,-0.330,-0.330,0.000,0.000,0.000
1640068706580851200,"2021-12-21,06:38:26",10.1.1.6,0.3247969150543213,-0.330,-0.330,-0.330,0.000,0.000,0.000
1640068706886187008,"2021-12-21,06:38:26",10.1.1.6,302,-0.320,-0.320,-0.320,0.000,0.000,0.000
1640068706934535936,"2021-12-21,06:38:26",10.1.1.6,0.3513767719268799,-0.320,-0.320,-0.320,0.000,0.000,0.000
1640068707255005952,"2021-12-21,06:38:27",10.1.1.6,319,-0.310,-0.310,-0.310,0.000,0.000,0.000
1640068707275005184,"2021-12-21,06:38:27",10.1.1.6,0.33899903297424316,-0.310,-0.310,-0.310,0.000,0.000,0.000
1640068707574373120,"2021-12-21,06:38:27",10.1.1.6,295,-0.300,-0.300,-0.300,0.000,0.000,0.000
1640068707615865856,"2021-12-21,06:38:27",10.1.1.6,0.3369889259338379,-0.300,-0.300,-0.300,0.000,0.000,0.000
1640068707983747072,"2021-12-21,06:38:27",10.1.1.6,366,-0.290,-0.290,-0.290,0.000,0.000,0.000
1640068708013786112,"2021-12-21,06:38:28",10.1.1.6,0.3962070941925049,-0.290,-0.290,-0.290,0.000,0.000,0.000
1640068708383899904,"2021-12-21,06:38:28",10.1.1.6,364,-0.280,-0.280,-0.280,0.000,0.000,0.000
1640068708398569984,"2021-12-21,06:38:28",10.1.1.6,0.3796820640563965,-0.280,-0.280,-0.280,0.000,0.000,0.000
1640068708722963200,"2021-12-21,06:38:28",10.1.1.6,322,-0.270,-0.270,-0.270,0.000,0.000,0.000
1640068708750885888,"2021-12-21,06:38:28",10.1.1.6,0.3498389720916748,-0.270,-0.270,-0.270,0.000,0.000,0.000
1640068709093800960,"2021-12-21,06:38:29",10.1.1.6,341,-0.260,-0.260,-0.260,0.000,0.000,0.000
1640068709118416128,"2021-12-21,06:38:29",10.1.1.6,0.36602210998535156,-0.260,-0.260,-0.260,0.000,0.000,0.000
1640068709462456064,"2021-12-21,06:38:29",10.1.1.6,342,-0.250,-0.250,-0.250,0.000,0.000,0.000
1640068709469436928,"2021-12-21,06:38:29",10.1.1.6,0.3495490550994873,-0.250,-0.250,-0.250,0.000,0.000,0.000
1640068709782108928,"2021-12-21,06:38:29",10.1.1.6,310,-0.240,-0.240,-0.240,0.000,0.000,0.000
1640068709793846016,"2021-12-21,06:38:29",10.1.1.6,0.32247400283813477,-0.240,-0.240,-0.240,0.000,0.000,0.000
1640068710081736960,"2021-12-21,06:38:30",10.1.1.6,286,-0.230,-0.230,-0.230,0.000,0.000,0.000
1640068710112470016,"2021-12-21,06:38:30",10.1.1.6,0.3169519901275635,-0.230,-0.230,-0.230,0.000,0.000,0.000
1640068710411916032,"2021-12-21,06:38:30",10.1.1.6,298,-0.220,-0.220,-0.220,0.000,0.000,0.000
1640068710443697920,"2021-12-21,06:38:30",10.1.1.6,0.3298828601837158,-0.220,-0.220,-0.220,0.000,0.000,0.000
1640068710752631808,"2021-12-21,06:38:30",10.1.1.6,306,-0.210,-0.210,-0.210,0.000,0.000,0.000
1640068710759068928,"2021-12-21,06:38:30",10.1.1.6,0.31333494186401367,-0.210,-0.210,-0.210,0.000,0.000,0.000
1640068711049808128,"2021-12-21,06:38:31",10.1.1.6,289,-0.200,-0.200,-0.200,0.000,0.000,0.000
1640068711101195008,"2021-12-21,06:38:31",10.1.1.6,0.34094786643981934,-0.200,-0.200,-0.200,0.000,0.000,0.000
1640068711422682880,"2021-12-21,06:38:31",10.1.1.6,320,-0.190,-0.190,-0.190,0.000,0.000,0.000
1640068711484303104,"2021-12-21,06:38:31",10.1.1.6,0.38182687759399414,-0.190,-0.190,-0.190,0.000,0.000,0.000
1640068711769006848,"2021-12-21,06:38:31",10.1.1.6,282,-0.180,-0.180,-0.180,0.000,0.000,0.000
1640068711802499072,"2021-12-21,06:38:31",10.1.1.6,0.31618309020996094,-0.180,-0.180,-0.180,0.000,0.000,0.000
1640068712118823168,"2021-12-21,06:38:32",10.1.1.6,314,-0.170,-0.170,-0.170,0.000,0.000,0.000
1640068712180326912,"2021-12-21,06:38:32",10.1.1.6,0.3760509490966797,-0.170,-0.170,-0.170,0.000,0.000,0.000
1640068712487548160,"2021-12-21,06:38:32",10.1.1.6,305,-0.160,-0.160,-0.160,0.000,0.000,0.000
1640068712501905920,"2021-12-21,06:38:32",10.1.1.6,0.3200969696044922,-0.160,-0.160,-0.160,0.000,0.000,0.000
1640068712817286912,"2021-12-21,06:38:32",10.1.1.6,312,-0.150,-0.150,-0.150,0.000,0.000,0.000
1640068712849405952,"2021-12-21,06:38:32",10.1.1.6,0.3444809913635254,-0.150,-0.150,-0.150,0.000,0.000,0.000
1640068713167653120,"2021-12-21,06:38:33",10.1.1.6,311,-0.140,-0.140,-0.140,0.000,0.000,0.000
1640068713215572224,"2021-12-21,06:38:33",10.1.1.6,0.36081910133361816,-0.140,-0.140,-0.140,0.000,0.000,0.000
1640068713516849152,"2021-12-21,06:38:33",10.1.1.6,296,-0.130,-0.130,-0.130,0.000,0.000,0.000
1640068713541169920,"2021-12-21,06:38:33",10.1.1.6,0.3211040496826172,-0.130,-0.130,-0.130,0.000,0.000,0.000
1640068713855750912,"2021-12-21,06:38:33",10.1.1.6,312,-0.120,-0.120,-0.120,0.000,0.000,0.000
1640068713954554112,"2021-12-21,06:38:33",10.1.1.6,0.4106619358062744,-0.120,-0.120,-0.120,0.000,0.000,0.000
1640068714255436032,"2021-12-21,06:38:34",10.1.1.6,299,-0.110,-0.110,-0.110,0.000,0.000,0.000
1640068714279421184,"2021-12-21,06:38:34",10.1.1.6,0.32333993911743164,-0.110,-0.110,-0.110,0.000,0.000,0.000
1640068714574426880,"2021-12-21,06:38:34",10.1.1.6,292,-0.100,-0.100,-0.100,0.000,0.000,0.000
1640068714602117888,"2021-12-21,06:38:34",10.1.1.6,0.3207359313964844,-0.100,-0.100,-0.100,0.000,0.000,0.000
1640068714927879936,"2021-12-21,06:38:34",10.1.1.6,323,-0.090,-0.090,-0.090,0.000,0.000,0.000
1640068714931794944,"2021-12-21,06:38:34",10.1.1.6,0.32784390449523926,-0.090,-0.090,-0.090,0.000,0.000,0.000
1640068715253874944,"2021-12-21,06:38:35",10.1.1.6,320,-0.080,-0.080,-0.080,0.000,0.000,0.000
1640068715289202944,"2021-12-21,06:38:35",10.1.1.6,0.355679988861084,-0.080,-0.080,-0.080,0.000,0.000,0.000
1640068715603928064,"2021-12-21,06:38:35",10.1.1.6,313,-0.070,-0.070,-0.070,0.000,0.000,0.000
1640068715647095808,"2021-12-21,06:38:35",10.1.1.6,0.35672807693481445,-0.070,-0.070,-0.070,0.000,0.000,0.000
1640068715993305856,"2021-12-21,06:38:35",10.1.1.6,344,-0.060,-0.060,-0.060,0.000,0.000,0.000
1640068715996717824,"2021-12-21,06:38:35",10.1.1.6,0.34841203689575195,-0.060,-0.060,-0.060,0.000,0.000,0.000
1640068716331953920,"2021-12-21,06:38:36",10.1.1.6,323,-0.050,-0.050,-0.050,0.000,0.000,0.000
1640068716360678912,"2021-12-21,06:38:36",10.1.1.6,0.35213303565979004,-0.050,-0.050,-0.050,0.000,0.000,0.000
1640068716714885888,"2021-12-21,06:38:36",10.1.1.6,348,-0.040,-0.040,-0.040,0.000,0.000,0.000
1640068716740126976,"2021-12-21,06:38:36",10.1.1.6,0.37412285804748535,-0.040,-0.040,-0.040,0.000,0.000,0.000
1640068717050349824,"2021-12-21,06:38:37",10.1.1.6,308,-0.030,-0.030,-0.030,0.000,0.000,0.000
1640068717094295040,"2021-12-21,06:38:37",10.1.1.6,0.3527700901031494,-0.030,-0.030,-0.030,0.000,0.000,0.000
1640068717429755904,"2021-12-21,06:38:37",10.1.1.6,329,-0.020,-0.020,-0.020,0.000,0.000,0.000
1640068717479078144,"2021-12-21,06:38:37",10.1.1.6,0.37857913970947266,-0.020,-0.020,-0.020,0.000,0.000,0.000
1640068717820939008,"2021-12-21,06:38:37",10.1.1.6,340,-0.010,-0.010,-0.010,0.000,0.000,0.000
1640068717893209856,"2021-12-21,06:38:37",10.1.1.6,0.4128870964050293,-0.010,-0.010,-0.010,0.000,0.000,0.000
1640068718240685056,"2021-12-21,06:38:38",10.1.1.6,332,0.000,0.000,0.000,0.000,0.000,0.000
1640068718272162048,"2021-12-21,06:38:38",10.1.1.6,0.36432909965515137,0.000,0.000,0.000,0.000,0.000,0.000
1640068718591931136,"2021-12-21,06:38:38",10.1.1.6,318,-0.010,-0.010,-0.010,0.000,0.000,0.000
1640068718625751040,"2021-12-21,06:38:38",10.1.1.6,0.35212206840515137,-0.010,-0.010,-0.010,0.000,0.000,0.000
1640068718926565888,"2021-12-21,06:38:38",10.1.1.6,299,-0.020,-0.020,-0.020,0.000,0.000,0.000
1640068718956275968,"2021-12-21,06:38:38",10.1.1.6,0.32900500297546387,-0.020,-0.020,-0.020,0.000,0.000,0.000
1640068719284936960,"2021-12-21,06:38:39",10.1.1.6,327,-0.030,-0.030,-0.030,0.000,0.000,0.000
1640068719294579968,"2021-12-21,06:38:39",10.1.1.6,0.3368048667907715,-0.030,-0.030,-0.030,0.000,0.000,0.000
1640068719636878080,"2021-12-21,06:38:39",10.1.1.6,341,-0.040,-0.040,-0.040,0.000,0.000,0.000
1640068719657332992,"2021-12-21,06:38:39",10.1.1.6,0.36121582984924316,-0.040,-0.040,-0.040,0.000,0.000,0.000
1640068719987911936,"2021-12-21,06:38:39",10.1.1.6,326,-0.050,-0.050,-0.050,0.000,0.000,0.000
1640068720041796096,"2021-12-21,06:38:40",10.1.1.6,0.3808879852294922,-0.050,-0.050,-0.050,0.000,0.000,0.000
1640068720351727104,"2021-12-21,06:38:40",10.1.1.6,308,-0.060,-0.060,-0.060,0.000,0.000,0.000
1640068720386531072,"2021-12-21,06:38:40",10.1.1.6,0.34317612648010254,-0.060,-0.060,-0.060,0.000,0.000,0.000
1640068720739097088,"2021-12-21,06:38:40",10.1.1.6,0.34974217414855957,-0.070,-0.070,-0.070,0.000,0.000,0.000
1640068720739777024,"2021-12-21,06:38:40",10.1.1.6,350,-0.070,-0.070,-0.070,0.000,0.000,0.000
1640068721052247040,"2021-12-21,06:38:41",10.1.1.6,311,-0.080,-0.080,-0.080,0.000,0.000,0.000
1640068721086280960,"2021-12-21,06:38:41",10.1.1.6,0.34531283378601074,-0.080,-0.080,-0.080,0.000,0.000,0.000
1640068721414479104,"2021-12-21,06:38:41",10.1.1.6,325,-0.090,-0.090,-0.090,0.000,0.000,0.000
1640068721446049024,"2021-12-21,06:38:41",10.1.1.6,0.35689401626586914,-0.090,-0.090,-0.090,0.000,0.000,0.000
1640068721776834048,"2021-12-21,06:38:41",10.1.1.6,327,-0.100,-0.100,-0.100,0.000,0.000,0.000
1640068721835220224,"2021-12-21,06:38:41",10.1.1.6,0.3857100009918213,-0.100,-0.100,-0.100,0.000,0.000,0.000
1640068722164884992,"2021-12-21,06:38:42",10.1.1.6,328,-0.110,-0.110,-0.110,0.000,0.000,0.000
1640068722188186880,"2021-12-21,06:38:42",10.1.1.6,0.3514389991760254,-0.110,-0.110,-0.110,0.000,0.000,0.000
1640068722526027008,"2021-12-21,06:38:42",10.1.1.6,334,-0.120,-0.120,-0.120,0.000,0.000,0.000
1640068722551908096,"2021-12-21,06:38:42",10.1.1.6,0.36059999465942383,-0.120,-0.120,-0.120,0.000,0.000,0.000
1640068722866795008,"2021-12-21,06:38:42",10.1.1.6,313,-0.130,-0.130,-0.130,0.000,0.000,0.000
1640068722914599936,"2021-12-21,06:38:42",10.1.1.6,0.36147499084472656,-0.130,-0.130,-0.130,0.000,0.000,0.000
1640068723317133824,"2021-12-21,06:38:43",10.1.1.6,400,-0.140,-0.140,-0.140,0.000,0.000,0.000
1640068723356354048,"2021-12-21,06:38:43",10.1.1.6,0.43970417976379395,-0.140,-0.140,-0.140,0.000,0.000,0.000
1640068723708610048,"2021-12-21,06:38:43",10.1.1.6,350,-0.150,-0.150,-0.150,0.000,0.000,0.000
1640068723792026112,"2021-12-21,06:38:43",10.1.1.6,0.43398213386535645,-0.150,-0.150,-0.150,0.000,0.000,0.000
1640068724129645056,"2021-12-21,06:38:44",10.1.1.6,336,-0.160,-0.160,-0.160,0.000,0.000,0.000
1640068724146153984,"2021-12-21,06:38:44",10.1.1.6,0.3526039123535156,-0.160,-0.160,-0.160,0.000,0.000,0.000
1640068724509460992,"2021-12-21,06:38:44",10.1.1.6,361,-0.170,-0.170,-0.170,0.000,0.000,0.000
1640068724521424128,"2021-12-21,06:38:44",10.1.1.6,0.3739330768585205,-0.170,-0.170,-0.170,0.000,0.000,0.000
1640068724860043008,"2021-12-21,06:38:44",10.1.1.6,332,-0.180,-0.180,-0.180,0.000,0.000,0.000
1640068724896219904,"2021-12-21,06:38:44",10.1.1.6,0.36847400665283203,-0.180,-0.180,-0.180,0.000,0.000,0.000
1640068725249975040,"2021-12-21,06:38:45",10.1.1.6,352,-0.190,-0.190,-0.190,0.000,0.000,0.000
1640068725257272832,"2021-12-21,06:38:45",10.1.1.6,0.3595850467681885,-0.190,-0.190,-0.190,0.000,0.000,0.000
1640068725570233088,"2021-12-21,06:38:45",10.1.1.6,311,-0.200,-0.200,-0.200,0.000,0.000,0.000
1640068725617960960,"2021-12-21,06:38:45",10.1.1.6,0.3558230400085449,-0.200,-0.200,-0.200,0.000,0.000,0.000
1640068725931176960,"2021-12-21,06:38:45",10.1.1.6,309,-0.210,-0.210,-0.210,0.000,0.000,0.000
1640068725981519104,"2021-12-21,06:38:45",10.1.1.6,0.36020922660827637,-0.210,-0.210,-0.210,0.000,0.000,0.000
1640068726291544832,"2021-12-21,06:38:46",10.1.1.6,307,-0.220,-0.220,-0.220,0.000,0.000,0.000
1640068726313568000,"2021-12-21,06:38:46",10.1.1.6,0.32915401458740234,-0.220,-0.220,-0.220,0.000,0.000,0.000
1640068726632049920,"2021-12-21,06:38:46",10.1.1.6,315,-0.230,-0.230,-0.230,0.000,0.000,0.000
1640068726664457984,"2021-12-21,06:38:46",10.1.1.6,0.3472731113433838,-0.230,-0.230,-0.230,0.000,0.000,0.000
1640068726961835008,"2021-12-21,06:38:46",10.1.1.6,296,-0.240,-0.240,-0.240,0.000,0.000,0.000
1640068727004847104,"2021-12-21,06:38:47",10.1.1.6,0.33917903900146484,-0.240,-0.240,-0.240,0.000,0.000,0.000
1640068727301615104,"2021-12-21,06:38:47",10.1.1.6,295,-0.250,-0.250,-0.250,0.000,0.000,0.000
1640068727334963968,"2021-12-21,06:38:47",10.1.1.6,0.3288400173187256,-0.250,-0.250,-0.250,0.000,0.000,0.000
1640068727641881088,"2021-12-21,06:38:47",10.1.1.6,303,-0.260,-0.260,-0.260,0.000,0.000,0.000
1640068727668288000,"2021-12-21,06:38:47",10.1.1.6,0.3301999568939209,-0.260,-0.260,-0.260,0.000,0.000,0.000
1640068727973534208,"2021-12-21,06:38:47",10.1.1.6,303,-0.270,-0.270,-0.270,0.000,0.000,0.000
1640068728006349056,"2021-12-21,06:38:48",10.1.1.6,0.3368110656738281,-0.270,-0.270,-0.270,0.000,0.000,0.000
1640068728323145984,"2021-12-21,06:38:48",10.1.1.6,315,-0.280,-0.280,-0.280,0.000,0.000,0.000
1640068728367096064,"2021-12-21,06:38:48",10.1.1.6,0.3590869903564453,-0.280,-0.280,-0.280,0.000,0.000,0.000
1640068728712284160,"2021-12-21,06:38:48",10.1.1.6,341,-0.290,-0.290,-0.290,0.000,0.000,0.000
1640068728733328128,"2021-12-21,06:38:48",10.1.1.6,0.36222410202026367,-0.290,-0.290,-0.290,0.000,0.000,0.000
1640068729063105024,"2021-12-21,06:38:49",10.1.1.6,327,-0.300,-0.300,-0.300,0.000,0.000,0.000
1640068729103277824,"2021-12-21,06:38:49",10.1.1.6,0.36814188957214355,-0.300,-0.300,-0.300,0.000,0.000,0.000
1640068729422152960,"2021-12-21,06:38:49",10.1.1.6,316,-0.310,-0.310,-0.310,0.000,0.000,0.000
1640068729460177920,"2021-12-21,06:38:49",10.1.1.6,0.3549020290374756,-0.310,-0.310,-0.310,0.000,0.000,0.000
1640068729785329152,"2021-12-21,06:38:49",10.1.1.6,322,-0.320,-0.320,-0.320,0.000,0.000,0.000
1640068729802750208,"2021-12-21,06:38:49",10.1.1.6,0.33958888053894043,-0.320,-0.320,-0.320,0.000,0.000,0.000
1640068730153486080,"2021-12-21,06:38:50",10.1.1.6,349,-0.330,-0.330,-0.330,0.000,0.000,0.000
1640068730171830784,"2021-12-21,06:38:50",10.1.1.6,0.3678622245788574,-0.330,-0.330,-0.330,0.000,0.000,0.000
1640068730502808064,"2021-12-21,06:38:50",10.1.1.6,329,-0.340,-0.340,-0.340,0.000,0.000,0.000
1640068730534071808,"2021-12-21,06:38:50",10.1.1.6,0.360731840133667,-0.340,-0.340,-0.340,0.000,0.000,0.000
1640068730883301888,"2021-12-21,06:38:50",10.1.1.6,346,-0.350,-0.350,-0.350,0.000,0.000,0.000
1640068730893167104,"2021-12-21,06:38:50",10.1.1.6,0.356032133102417,-0.350,-0.350,-0.350,0.000,0.000,0.000
1640068731292812032,"2021-12-21,06:38:51",10.1.1.6,398,-0.360,-0.360,-0.360,0.000,0.000,0.000
1640068731381690880,"2021-12-21,06:38:51",10.1.1.6,0.486875057220459,-0.360,-0.360,-0.360,0.000,0.000,0.000
1640068731691622912,"2021-12-21,06:38:51",10.1.1.6,307,-0.370,-0.370,-0.370,0.000,0.000,0.000
1640068731731816960,"2021-12-21,06:38:51",10.1.1.6,0.3474128246307373,-0.370,-0.370,-0.370,0.000,0.000,0.000
1640068732151374080,"2021-12-21,06:38:52",10.1.1.6,417,-0.380,-0.380,-0.380,0.000,0.000,0.000
1640068732230552832,"2021-12-21,06:38:52",10.1.1.6,0.49646806716918945,-0.380,-0.380,-0.380,0.000,0.000,0.000
1640068732570426112,"2021-12-21,06:38:52",10.1.1.6,336,-0.390,-0.390,-0.390,0.000,0.000,0.000
1640068732614108160,"2021-12-21,06:38:52",10.1.1.6,0.38053297996520996,-0.390,-0.390,-0.390,0.000,0.000,0.000
1640068732930417920,"2021-12-21,06:38:52",10.1.1.6,312,-0.400,-0.400,-0.400,0.000,0.000,0.000
1640068732952791808,"2021-12-21,06:38:52",10.1.1.6,0.3347899913787842,-0.400,-0.400,-0.400,0.000,0.000,0.000
1640068733330622976,"2021-12-21,06:38:53",10.1.1.6,369,-0.410,-0.410,-0.410,0.000,0.000,0.000
1640068733347655168,"2021-12-21,06:38:53",10.1.1.6,0.3861980438232422,-0.410,-0.410,-0.410,0.000,0.000,0.000
1640068733710607104,"2021-12-21,06:38:53",10.1.1.6,357,-0.420,-0.420,-0.420,0.000,0.000,0.000
1640068733743973888,"2021-12-21,06:38:53",10.1.1.6,0.3905909061431885,-0.420,-0.420,-0.420,0.000,0.000,0.000
1640068734120995072,"2021-12-21,06:38:54",10.1.1.6,374,-0.430,-0.430,-0.430,0.000,0.000,0.000
1640068734201387008,"2021-12-21,06:38:54",10.1.1.6,0.45598912239074707,-0.430,-0.430,-0.430,0.000,0.000,0.000
1640068734509704960,"2021-12-21,06:38:54",10.1.1.6,301,-0.440,-0.440,-0.440,0.000,0.000,0.000
1640068734549495040,"2021-12-21,06:38:54",10.1.1.6,0.3419020175933838,-0.440,-0.440,-0.440,0.000,0.000,0.000
1640068734888616192,"2021-12-21,06:38:54",10.1.1.6,337,-0.450,-0.450,-0.450,0.000,0.000,0.000
1640068734913065984,"2021-12-21,06:38:54",10.1.1.6,0.36175107955932617,-0.450,-0.450,-0.450,0.000,0.000,0.000
1640068735278428160,"2021-12-21,06:38:55",10.1.1.6,362,-0.460,-0.460,-0.460,0.000,0.000,0.000
1640068735318006016,"2021-12-21,06:38:55",10.1.1.6,0.401885986328125,-0.460,-0.460,-0.460,0.000,0.000,0.000
1640068735648175104,"2021-12-21,06:38:55",10.1.1.6,328,-0.470,-0.470,-0.470,0.000,0.000,0.000
1640068735704657152,"2021-12-21,06:38:55",10.1.1.6,0.38504600524902344,-0.470,-0.470,-0.470,0.000,0.000,0.000
1640068736077896192,"2021-12-21,06:38:56",10.1.1.6,370,-0.480,-0.480,-0.480,0.000,0.000,0.000
1640068736102926080,"2021-12-21,06:38:56",10.1.1.6,0.39473986625671387,-0.480,-0.480,-0.480,0.000,0.000,0.000
1640068736457644032,"2021-12-21,06:38:56",10.1.1.6,352,-0.490,-0.490,-0.490,0.000,0.000,0.000
1640068736487277056,"2021-12-21,06:38:56",10.1.1.6,0.3827660083770752,-0.490,-0.490,-0.490,0.000,0.000,0.000
1640068736826637056,"2021-12-21,06:38:56",10.1.1.6,337,-0.480,-0.480,-0.480,0.000,0.000,0.000
1640068736859678976,"2021-12-21,06:38:56",10.1.1.6,0.3703930377960205,-0.480,-0.480,-0.480,0.000,0.000,0.000
1640068737176909824,"2021-12-21,06:38:57",10.1.1.6,314,-0.470,-0.470,-0.470,0.000,0.000,0.000
1640068737207546112,"2021-12-21,06:38:57",10.1.1.6,0.34542298316955566,-0.470,-0.470,-0.470,0.000,0.000,0.000
1640068737527545088,"2021-12-21,06:38:57",10.1.1.6,318,-0.460,-0.460,-0.460,0.000,0.000,0.000
1640068737549469952,"2021-12-21,06:38:57",10.1.1.6,0.3403029441833496,-0.460,-0.460,-0.460,0.000,0.000,0.000
1640068737865677056,"2021-12-21,06:38:57",10.1.1.6,314,-0.450,-0.450,-0.450,0.000,0.000,0.000
1640068737907859968,"2021-12-21,06:38:57",10.1.1.6,0.3568429946899414,-0.450,-0.450,-0.450,0.000,0.000,0.000
1640068738255377152,"2021-12-21,06:38:58",10.1.1.6,346,-0.440,-0.440,-0.440,0.000,0.000,0.000
1640068738271194880,"2021-12-21,06:38:58",10.1.1.6,0.36202192306518555,-0.440,-0.440,-0.440,0.000,0.000,0.000
1640068738615049984,"2021-12-21,06:38:58",10.1.1.6,342,-0.430,-0.430,-0.430,0.000,0.000,0.000
1640068738669635072,"2021-12-21,06:38:58",10.1.1.6,0.39699411392211914,-0.430,-0.430,-0.430,0.000,0.000,0.000
1640068738975030784,"2021-12-21,06:38:58",10.1.1.6,301,-0.420,-0.420,-0.420,0.000,0.000,0.000
1640068739012068864,"2021-12-21,06:38:59",10.1.1.6,0.33903002738952637,-0.420,-0.420,-0.420,0.000,0.000,0.000
1640068739355552000,"2021-12-21,06:38:59",10.1.1.6,342,-0.410,-0.410,-0.410,0.000,0.000,0.000
1640068739400916224,"2021-12-21,06:38:59",10.1.1.6,0.38752317428588867,-0.410,-0.410,-0.410,0.000,0.000,0.000
1640068739724896000,"2021-12-21,06:38:59",10.1.1.6,322,-0.400,-0.400,-0.400,0.000,0.000,0.000
1640068739761601024,"2021-12-21,06:38:59",10.1.1.6,0.35889291763305664,-0.400,-0.400,-0.400,0.000,0.000,0.000
1640068740112775936,"2021-12-21,06:39:00",10.1.1.6,349,-0.390,-0.390,-0.390,0.000,0.000,0.000
1640068740163060992,"2021-12-21,06:39:00",10.1.1.6,0.39853978157043457,-0.390,-0.390,-0.390,0.000,0.000,0.000
1640068740512340992,"2021-12-21,06:39:00",10.1.1.6,347,-0.380,-0.380,-0.380,0.000,0.000,0.000
1640068740553095168,"2021-12-21,06:39:00",10.1.1.6,0.3887810707092285,-0.380,-0.380,-0.380,0.000,0.000,0.000
1640068740861927936,"2021-12-21,06:39:00",10.1.1.6,306,-0.370,-0.370,-0.370,0.000,0.000,0.000
1640068740909118976,"2021-12-21,06:39:00",10.1.1.6,0.35411500930786133,-0.370,-0.370,-0.370,0.000,0.000,0.000
1640068741223334144,"2021-12-21,06:39:01",10.1.1.6,312,-0.360,-0.360,-0.360,0.000,0.000,0.000
1640068741279041024,"2021-12-21,06:39:01",10.1.1.6,0.36832499504089355,-0.360,-0.360,-0.360,0.000,0.000,0.000
1640068741591038976,"2021-12-21,06:39:01",10.1.1.6,310,-0.350,-0.350,-0.350,0.000,0.000,0.000
1640068741620878848,"2021-12-21,06:39:01",10.1.1.6,0.34065699577331543,-0.350,-0.350,-0.350,0.000,0.000,0.000
1640068741983543040,"2021-12-21,06:39:01",10.1.1.6,360,-0.340,-0.340,-0.340,0.000,0.000,0.000
1640068742032113152,"2021-12-21,06:39:02",10.1.1.6,0.40957188606262207,-0.340,-0.340,-0.340,0.000,0.000,0.000
1640068742339672064,"2021-12-21,06:39:02",10.1.1.6,305,-0.330,-0.330,-0.330,0.000,0.000,0.000
1640068742391037952,"2021-12-21,06:39:02",10.1.1.6,0.3570730686187744,-0.330,-0.330,-0.330,0.000,0.000,0.000
1640068742719894784,"2021-12-21,06:39:02",10.1.1.6,327,-0.320,-0.320,-0.320,0.000,0.000,0.000
1640068742746046976,"2021-12-21,06:39:02",10.1.1.6,0.35361790657043457,-0.320,-0.320,-0.320,0.000,0.000,0.000
1640068743048811008,"2021-12-21,06:39:03",10.1.1.6,298,-0.310,-0.310,-0.310,0.000,0.000,0.000
1640068743109325824,"2021-12-21,06:39:03",10.1.1.6,0.35924601554870605,-0.310,-0.310,-0.310,0.000,0.000,0.000
1640068743420025088,"2021-12-21,06:39:03",10.1.1.6,309,-0.300,-0.300,-0.300,0.000,0.000,0.000
1640068743451996928,"2021-12-21,06:39:03",10.1.1.6,0.3413701057434082,-0.300,-0.300,-0.300,0.000,0.000,0.000
1640068743827315200,"2021-12-21,06:39:03",10.1.1.6,366,-0.290,-0.290,-0.290,0.000,0.000,0.000
1640068743873737984,"2021-12-21,06:39:03",10.1.1.6,0.4134049415588379,-0.290,-0.290,-0.290,0.000,0.000,0.000
1640068744207676928,"2021-12-21,06:39:04",10.1.1.6,332,-0.280,-0.280,-0.280,0.000,0.000,0.000
1640068744225442816,"2021-12-21,06:39:04",10.1.1.6,0.34984397888183594,-0.280,-0.280,-0.280,0.000,0.000,0.000
1640068744532384000,"2021-12-21,06:39:04",10.1.1.6,305,-0.270,-0.270,-0.270,0.000,0.000,0.000
1640068744579768064,"2021-12-21,06:39:04",10.1.1.6,0.35280394554138184,-0.270,-0.270,-0.270,0.000,0.000,0.000
1640068744906541056,"2021-12-21,06:39:04",10.1.1.6,324,-0.260,-0.260,-0.260,0.000,0.000,0.000
1640068744937864960,"2021-12-21,06:39:04",10.1.1.6,0.35609889030456543,-0.260,-0.260,-0.260,0.000,0.000,0.000
1640068745247774976,"2021-12-21,06:39:05",10.1.1.6,308,-0.250,-0.250,-0.250,0.000,0.000,0.000
1640068745297202944,"2021-12-21,06:39:05",10.1.1.6,0.35747289657592773,-0.250,-0.250,-0.250,0.000,0.000,0.000
1640068745604684032,"2021-12-21,06:39:05",10.1.1.6,304,-0.240,-0.240,-0.240,0.000,0.000,0.000
1640068745690404864,"2021-12-21,06:39:05",10.1.1.6,0.3906209468841553,-0.240,-0.240,-0.240,0.000,0.000,0.000
1640068745994932992,"2021-12-21,06:39:05",10.1.1.6,303,-0.230,-0.230,-0.230,0.000,0.000,0.000
1640068746031759872,"2021-12-21,06:39:06",10.1.1.6,0.3400700092315674,-0.230,-0.230,-0.230,0.000,0.000,0.000
1640068746344180224,"2021-12-21,06:39:06",10.1.1.6,310,-0.220,-0.220,-0.220,0.000,0.000,0.000
1640068746391108864,"2021-12-21,06:39:06",10.1.1.6,0.3576381206512451,-0.220,-0.220,-0.220,0.000,0.000,0.000
1640068746734153984,"2021-12-21,06:39:06",10.1.1.6,341,-0.210,-0.210,-0.210,0.000,0.000,0.000
1640068746803496960,"2021-12-21,06:39:06",10.1.1.6,0.41092896461486816,-0.210,-0.210,-0.210,0.000,0.000,0.000
1640068747122994944,"2021-12-21,06:39:07",10.1.1.6,309,-0.200,-0.200,-0.200,0.000,0.000,0.000
1640068747160305920,"2021-12-21,06:39:07",10.1.1.6,0.3468801975250244,-0.200,-0.200,-0.200,0.000,0.000,0.000
1640068747491954176,"2021-12-21,06:39:07",10.1.1.6,328,-0.190,-0.190,-0.190,0.000,0.000,0.000
1640068747540556032,"2021-12-21,06:39:07",10.1.1.6,0.37741994857788086,-0.190,-0.190,-0.190,0.000,0.000,0.000
1640068747892278784,"2021-12-21,06:39:07",10.1.1.6,346,-0.180,-0.180,-0.180,0.000,0.000,0.000
1640068747925635072,"2021-12-21,06:39:07",10.1.1.6,0.3804810047149658,-0.180,-0.180,-0.180,0.000,0.000,0.000
1640068748277602816,"2021-12-21,06:39:08",10.1.1.6,344,-0.170,-0.170,-0.170,0.000,0.000,0.000
1640068748324115968,"2021-12-21,06:39:08",10.1.1.6,0.3908810615539551,-0.170,-0.170,-0.170,0.000,0.000,0.000
1640068748731756800,"2021-12-21,06:39:08",10.1.1.6,406,-0.160,-0.160,-0.160,0.000,0.000,0.000
1640068748780123904,"2021-12-21,06:39:08",10.1.1.6,0.45448899269104004,-0.160,-0.160,-0.160,0.000,0.000,0.000
1640068749100160000,"2021-12-21,06:39:09",10.1.1.6,318,-0.150,-0.150,-0.150,0.000,0.000,0.000
1640068749162231808,"2021-12-21,06:39:09",10.1.1.6,0.3805689811706543,-0.150,-0.150,-0.150,0.000,0.000,0.000
1640068749528677888,"2021-12-21,06:39:09",10.1.1.6,362,-0.140,-0.140,-0.140,0.000,0.000,0.000
1640068749588962048,"2021-12-21,06:39:09",10.1.1.6,0.42295408248901367,-0.140,-0.140,-0.140,0.000,0.000,0.000
1640068749938321152,"2021-12-21,06:39:09",10.1.1.6,347,-0.130,-0.130,-0.130,0.000,0.000,0.000
1640068750000967936,"2021-12-21,06:39:10",10.1.1.6,0.4104440212249756,-0.130,-0.130,-0.130,0.000,0.000,0.000
1640068750329385984,"2021-12-21,06:39:10",10.1.1.6,325,-0.120,-0.120,-0.120,0.000,0.000,0.000
1640068750367290112,"2021-12-21,06:39:10",10.1.1.6,0.36310911178588867,-0.120,-0.120,-0.120,0.000,0.000,0.000
1640068750721678848,"2021-12-21,06:39:10",10.1.1.6,352,-0.110,-0.110,-0.110,0.000,0.000,0.000
1640068750765325056,"2021-12-21,06:39:10",10.1.1.6,0.39668893814086914,-0.110,-0.110,-0.110,0.000,0.000,0.000
1640068751205673984,"2021-12-21,06:39:11",10.1.1.6,426,-0.100,-0.100,-0.100,0.000,0.000,0.000
1640068751220083968,"2021-12-21,06:39:11",10.1.1.6,0.4411451816558838,-0.100,-0.100,-0.100,0.000,0.000,0.000
1640068751625648896,"2021-12-21,06:39:11",10.1.1.6,403,-0.090,-0.090,-0.090,0.000,0.000,0.000
1640068751659558912,"2021-12-21,06:39:11",10.1.1.6,0.43778514862060547,-0.090,-0.090,-0.090,0.000,0.000,0.000
1640068752070804224,"2021-12-21,06:39:12",10.1.1.6,402,-0.080,-0.080,-0.080,0.000,0.000,0.000
1640068752172276992,"2021-12-21,06:39:12",10.1.1.6,0.5043058395385742,-0.080,-0.080,-0.080,0.000,0.000,0.000
1640068752701595136,"2021-12-21,06:39:12",10.1.1.6,506,-0.070,-0.070,-0.070,0.000,0.000,0.000
1640068752721102848,"2021-12-21,06:39:12",10.1.1.6,0.5275619029998779,-0.070,-0.070,-0.070,0.000,0.000,0.000
1640068753065100032,"2021-12-21,06:39:13",10.1.1.6,342,-0.060,-0.060,-0.060,0.000,0.000,0.000
1640068753086714880,"2021-12-21,06:39:13",10.1.1.6,0.3640730381011963,-0.060,-0.060,-0.060,0.000,0.000,0.000
1640068753436577024,"2021-12-21,06:39:13",10.1.1.6,347,-0.050,-0.050,-0.050,0.000,0.000,0.000
1640068753446152960,"2021-12-21,06:39:13",10.1.1.6,0.3573470115661621,-0.050,-0.050,-0.050,0.000,0.000,0.000
1640068753814460928,"2021-12-21,06:39:13",10.1.1.6,364,-0.040,-0.040,-0.040,0.000,0.000,0.000
1640068753937972992,"2021-12-21,06:39:13",10.1.1.6,0.48847198486328125,-0.040,-0.040,-0.040,0.000,0.000,0.000
1640068754275439104,"2021-12-21,06:39:14",10.1.1.6,332,-0.030,-0.030,-0.030,0.000,0.000,0.000
1640068754324333824,"2021-12-21,06:39:14",10.1.1.6,0.3815040588378906,-0.030,-0.030,-0.030,0.000,0.000,0.000
1640068754627908864,"2021-12-21,06:39:14",10.1.1.6,301,-0.020,-0.020,-0.020,0.000,0.000,0.000
1640068754715884032,"2021-12-21,06:39:14",10.1.1.6,0.3903160095214844,-0.020,-0.020,-0.020,0.000,0.000,0.000
1640068755047491072,"2021-12-21,06:39:15",10.1.1.6,329,-0.010,-0.010,-0.010,0.000,0.000,0.000
1640068755070311936,"2021-12-21,06:39:15",10.1.1.6,0.35249805450439453,-0.010,-0.010,-0.010,0.000,0.000,0.000
1640068755367618048,"2021-12-21,06:39:15",10.1.1.6,295,0.000,0.000,0.000,0.000,0.000,0.000
1640068755419542016,"2021-12-21,06:39:15",10.1.1.6,0.3470900058746338,0.000,0.000,0.000,0.000,0.000,0.000
1640068755769893888,"2021-12-21,06:39:15",10.1.1.6,348,-0.010,-0.010,-0.010,0.000,0.000,0.000
1640068755808423936,"2021-12-21,06:39:15",10.1.1.6,0.38684701919555664,-0.010,-0.010,-0.010,0.000,0.000,0.000
1640068756190568960,"2021-12-21,06:39:16",10.1.1.6,374,-0.020,-0.020,-0.020,0.000,0.000,0.000
1640068756236785920,"2021-12-21,06:39:16",10.1.1.6,0.42139697074890137,-0.020,-0.020,-0.020,0.000,0.000,0.000
1640068756560625920,"2021-12-21,06:39:16",10.1.1.6,322,-0.030,-0.030,-0.030,0.000,0.000,0.000
1640068756640867072,"2021-12-21,06:39:16",10.1.1.6,0.4027719497680664,-0.030,-0.030,-0.030,0.000,0.000,0.000
1640068756951412992,"2021-12-21,06:39:16",10.1.1.6,308,-0.040,-0.040,-0.040,0.000,0.000,0.000
1640068757024851200,"2021-12-21,06:39:17",10.1.1.6,0.38217711448669434,-0.040,-0.040,-0.040,0.000,0.000,0.000
1640068757321260032,"2021-12-21,06:39:17",10.1.1.6,292,-0.050,-0.050,-0.050,0.000,0.000,0.000
1640068757355309056,"2021-12-21,06:39:17",10.1.1.6,0.3265089988708496,-0.050,-0.050,-0.050,0.000,0.000,0.000
1640068757663356928,"2021-12-21,06:39:17",10.1.1.6,304,-0.060,-0.060,-0.060,0.000,0.000,0.000
1640068757706480896,"2021-12-21,06:39:17",10.1.1.6,0.3466298580169678,-0.060,-0.060,-0.060,0.000,0.000,0.000
1640068758052248064,"2021-12-21,06:39:18",10.1.1.6,342,-0.070,-0.070,-0.070,0.000,0.000,0.000
1640068758068417024,"2021-12-21,06:39:18",10.1.1.6,0.3587071895599365,-0.070,-0.070,-0.070,0.000,0.000,0.000
1640068758432066816,"2021-12-21,06:39:18",10.1.1.6,357,-0.080,-0.080,-0.080,0.000,0.000,0.000
1640068758489468928,"2021-12-21,06:39:18",10.1.1.6,0.4148259162902832,-0.080,-0.080,-0.080,0.000,0.000,0.000
1640068758812488192,"2021-12-21,06:39:18",10.1.1.6,321,-0.090,-0.090,-0.090,0.000,0.000,0.000
1640068758825166080,"2021-12-21,06:39:18",10.1.1.6,0.3344309329986572,-0.090,-0.090,-0.090,0.000,0.000,0.000
1640068759183414016,"2021-12-21,06:39:19",10.1.1.6,353,-0.100,-0.100,-0.100,0.000,0.000,0.000
1640068759209059840,"2021-12-21,06:39:19",10.1.1.6,0.37963080406188965,-0.100,-0.100,-0.100,0.000,0.000,0.000
1640068759564465152,"2021-12-21,06:39:19",10.1.1.6,352,-0.110,-0.110,-0.110,0.000,0.000,0.000
1640068759597986816,"2021-12-21,06:39:19",10.1.1.6,0.38692283630371094,-0.110,-0.110,-0.110,0.000,0.000,0.000
1640068759902560000,"2021-12-21,06:39:19",10.1.1.6,302,-0.120,-0.120,-0.120,0.000,0.000,0.000
1640068759935208960,"2021-12-21,06:39:19",10.1.1.6,0.33557605743408203,-0.120,-0.120,-0.120,0.000,0.000,0.000
1640068760298417920,"2021-12-21,06:39:20",10.1.1.6,0.3614978790283203,-0.130,-0.130,-0.130,0.000,0.000,0.000
1640068760604048128,"2021-12-21,06:39:20",10.1.1.6,300,-0.140,-0.140,-0.140,0.000,0.000,0.000
1640068760620546048,"2021-12-21,06:39:20",10.1.1.6,0.3181488513946533,-0.140,-0.140,-0.140,0.000,0.000,0.000
1640068760962524928,"2021-12-21,06:39:20",10.1.1.6,337,-0.150,-0.150,-0.150,0.000,0.000,0.000
1640068760979686144,"2021-12-21,06:39:20",10.1.1.6,0.35480308532714844,-0.150,-0.150,-0.150,0.000,0.000,0.000
1640068761333784064,"2021-12-21,06:39:21",10.1.1.6,351,-0.160,-0.160,-0.160,0.000,0.000,0.000
1640068761385803008,"2021-12-21,06:39:21",10.1.1.6,0.4041261672973633,-0.160,-0.160,-0.160,0.000,0.000,0.000
1640068761703515136,"2021-12-21,06:39:21",10.1.1.6,315,-0.170,-0.170,-0.170,0.000,0.000,0.000
1640068761747755008,"2021-12-21,06:39:21",10.1.1.6,0.359799861907959,-0.170,-0.170,-0.170,0.000,0.000,0.000
1640068762113600000,"2021-12-21,06:39:22",10.1.1.6,357,-0.180,-0.180,-0.180,0.000,0.000,0.000
1640068762150919936,"2021-12-21,06:39:22",10.1.1.6,0.39507389068603516,-0.180,-0.180,-0.180,0.000,0.000,0.000
1640068762483321856,"2021-12-21,06:39:22",10.1.1.6,328,-0.190,-0.190,-0.190,0.000,0.000,0.000
1640068762497116160,"2021-12-21,06:39:22",10.1.1.6,0.3425109386444092,-0.190,-0.190,-0.190,0.000,0.000,0.000
1640068762834228992,"2021-12-21,06:39:22",10.1.1.6,335,-0.200,-0.200,-0.200,0.000,0.000,0.000
1640068762856806144,"2021-12-21,06:39:22",10.1.1.6,0.3580629825592041,-0.200,-0.200,-0.200,0.000,0.000,0.000
1640068763203512832,"2021-12-21,06:39:23",10.1.1.6,343,-0.210,-0.210,-0.210,0.000,0.000,0.000
1640068763229409024,"2021-12-21,06:39:23",10.1.1.6,0.3690779209136963,-0.210,-0.210,-0.210,0.000,0.000,0.000
1640068763596823040,"2021-12-21,06:39:23",10.1.1.6,364,-0.220,-0.220,-0.220,0.000,0.000,0.000
1640068763634998016,"2021-12-21,06:39:23",10.1.1.6,0.40304088592529297,-0.220,-0.220,-0.220,0.000,0.000,0.000
1640068764002669056,"2021-12-21,06:39:24",10.1.1.6,365,-0.230,-0.230,-0.230,0.000,0.000,0.000
1640068764028076800,"2021-12-21,06:39:24",10.1.1.6,0.3911409378051758,-0.230,-0.230,-0.230,0.000,0.000,0.000
1640068764361743872,"2021-12-21,06:39:24",10.1.1.6,328,-0.240,-0.240,-0.240,0.000,0.000,0.000
1640068764461913088,"2021-12-21,06:39:24",10.1.1.6,0.42909884452819824,-0.240,-0.240,-0.240,0.000,0.000,0.000
1640068764833529088,"2021-12-21,06:39:24",10.1.1.6,367,-0.250,-0.250,-0.250,0.000,0.000,0.000
1640068764915968768,"2021-12-21,06:39:24",10.1.1.6,0.4498288631439209,-0.250,-0.250,-0.250,0.000,0.000,0.000
1640068765262908928,"2021-12-21,06:39:25",10.1.1.6,344,-0.260,-0.260,-0.260,0.000,0.000,0.000
1640068765320826880,"2021-12-21,06:39:25",10.1.1.6,0.40284013748168945,-0.260,-0.260,-0.260,0.000,0.000,0.000
1640068765665102848,"2021-12-21,06:39:25",10.1.1.6,341,-0.270,-0.270,-0.270,0.000,0.000,0.000
1640068765675468800,"2021-12-21,06:39:25",10.1.1.6,0.3523848056793213,-0.270,-0.270,-0.270,0.000,0.000,0.000
1640068766010867968,"2021-12-21,06:39:26",10.1.1.6,334,-0.280,-0.280,-0.280,0.000,0.000,0.000
1640068766042956032,"2021-12-21,06:39:26",10.1.1.6,0.36618804931640625,-0.280,-0.280,-0.280,0.000,0.000,0.000
1640068766360340992,"2021-12-21,06:39:26",10.1.1.6,315,-0.290,-0.290,-0.290,0.000,0.000,0.000
1640068766402972928,"2021-12-21,06:39:26",10.1.1.6,0.3583791255950928,-0.290,-0.290,-0.290,0.000,0.000,0.000
1640068766700711936,"2021-12-21,06:39:26",10.1.1.6,296,-0.300,-0.300,-0.300,0.000,0.000,0.000
1640068766738348032,"2021-12-21,06:39:26",10.1.1.6,0.33382201194763184,-0.300,-0.300,-0.300,0.000,0.000,0.000
1640068767071496960,"2021-12-21,06:39:27",10.1.1.6,326,-0.310,-0.310,-0.310,0.000,0.000,0.000
1640068767139776000,"2021-12-21,06:39:27",10.1.1.6,0.3954601287841797,-0.310,-0.310,-0.310,0.000,0.000,0.000
1640068767479304192,"2021-12-21,06:39:27",10.1.1.6,337,-0.320,-0.320,-0.320,0.000,0.000,0.000
1640068767549530112,"2021-12-21,06:39:27",10.1.1.6,0.4082012176513672,-0.320,-0.320,-0.320,0.000,0.000,0.000
1640068767872620032,"2021-12-21,06:39:27",10.1.1.6,0.321674108505249,-0.330,-0.330,-0.330,0.000,0.000,0.000
1640068768220211968,"2021-12-21,06:39:28",10.1.1.6,345,-0.340,-0.340,-0.340,0.000,0.000,0.000
1640068768286479104,"2021-12-21,06:39:28",10.1.1.6,0.4119141101837158,-0.340,-0.340,-0.340,0.000,0.000,0.000
1640068768658584064,"2021-12-21,06:39:28",10.1.1.6,366,-0.350,-0.350,-0.350,0.000,0.000,0.000
1640068768670185984,"2021-12-21,06:39:28",10.1.1.6,0.3779599666595459,-0.350,-0.350,-0.350,0.000,0.000,0.000
1640068769028208896,"2021-12-21,06:39:29",10.1.1.6,355,-0.360,-0.360,-0.360,0.000,0.000,0.000
1640068769073630208,"2021-12-21,06:39:29",10.1.1.6,0.40133190155029297,-0.360,-0.360,-0.360,0.000,0.000,0.000
1640068769408482048,"2021-12-21,06:39:29",10.1.1.6,332,-0.370,-0.370,-0.370,0.000,0.000,0.000
1640068769474808064,"2021-12-21,06:39:29",10.1.1.6,0.39838695526123047,-0.370,-0.370,-0.370,0.000,0.000,0.000
1640068769792078080,"2021-12-21,06:39:29",10.1.1.6,314,-0.380,-0.380,-0.380,0.000,0.000,0.000
1640068769870345216,"2021-12-21,06:39:29",10.1.1.6,0.39400792121887207,-0.380,-0.380,-0.380,0.000,0.000,0.000
1640068770206899968,"2021-12-21,06:39:30",10.1.1.6,335,-0.390,-0.390,-0.390,0.000,0.000,0.000
1640068770236644096,"2021-12-21,06:39:30",10.1.1.6,0.3650979995727539,-0.390,-0.390,-0.390,0.000,0.000,0.000
1640068770576508160,"2021-12-21,06:39:30",10.1.1.6,337,-0.400,-0.400,-0.400,0.000,0.000,0.000
1640068770639218944,"2021-12-21,06:39:30",10.1.1.6,0.4007089138031006,-0.400,-0.400,-0.400,0.000,0.000,0.000
1640068770946199040,"2021-12-21,06:39:30",10.1.1.6,301,-0.410,-0.410,-0.410,0.000,0.000,0.000
1640068770982073088,"2021-12-21,06:39:30",10.1.1.6,0.33709096908569336,-0.410,-0.410,-0.410,0.000,0.000,0.000
1640068771336148992,"2021-12-21,06:39:31",10.1.1.6,351,-0.420,-0.420,-0.420,0.000,0.000,0.000
1640068771356615168,"2021-12-21,06:39:31",10.1.1.6,0.37247204780578613,-0.420,-0.420,-0.420,0.000,0.000,0.000
1640068771684954880,"2021-12-21,06:39:31",10.1.1.6,326,-0.430,-0.430,-0.430,0.000,0.000,0.000
1640068771721057024,"2021-12-21,06:39:31",10.1.1.6,0.36261701583862305,-0.430,-0.430,-0.430,0.000,0.000,0.000
1640068772085099008,"2021-12-21,06:39:32",10.1.1.6,361,-0.440,-0.440,-0.440,0.000,0.000,0.000
1640068772124545024,"2021-12-21,06:39:32",10.1.1.6,0.4014618396759033,-0.440,-0.440,-0.440,0.000,0.000,0.000
1640068772443955968,"2021-12-21,06:39:32",10.1.1.6,317,-0.450,-0.450,-0.450,0.000,0.000,0.000
1640068772473694208,"2021-12-21,06:39:32",10.1.1.6,0.3476860523223877,-0.450,-0.450,-0.450,0.000,0.000,0.000
1640068772785792000,"2021-12-21,06:39:32",10.1.1.6,310,-0.460,-0.460,-0.460,0.000,0.000,0.000
1640068772798126080,"2021-12-21,06:39:32",10.1.1.6,0.3231511116027832,-0.460,-0.460,-0.460,0.000,0.000,0.000
1640068773126183936,"2021-12-21,06:39:33",10.1.1.6,324,-0.470,-0.470,-0.470,0.000,0.000,0.000
1640068773156608000,"2021-12-21,06:39:33",10.1.1.6,0.35625481605529785,-0.470,-0.470,-0.470,0.000,0.000,0.000
1640068773502443008,"2021-12-21,06:39:33",10.1.1.6,342,-0.480,-0.480,-0.480,0.000,0.000,0.000
1640068773515880960,"2021-12-21,06:39:33",10.1.1.6,0.35643887519836426,-0.480,-0.480,-0.480,0.000,0.000,0.000
1640068773871643904,"2021-12-21,06:39:33",10.1.1.6,354,-0.490,-0.490,-0.490,0.000,0.000,0.000
1640068773946185216,"2021-12-21,06:39:33",10.1.1.6,0.42893004417419434,-0.490,-0.490,-0.490,0.000,0.000,0.000
1640068774260646144,"2021-12-21,06:39:34",10.1.1.6,313,-0.480,-0.480,-0.480,0.000,0.000,0.000
1640068774308271872,"2021-12-21,06:39:34",10.1.1.6,0.36071205139160156,-0.480,-0.480,-0.480,0.000,0.000,0.000
1640068774671056128,"2021-12-21,06:39:34",10.1.1.6,361,-0.470,-0.470,-0.470,0.000,0.000,0.000
1640068774704559104,"2021-12-21,06:39:34",10.1.1.6,0.39504313468933105,-0.470,-0.470,-0.470,0.000,0.000,0.000
1640068775030433792,"2021-12-21,06:39:35",10.1.1.6,323,-0.460,-0.460,-0.460,0.000,0.000,0.000
1640068775061649920,"2021-12-21,06:39:35",10.1.1.6,0.35499095916748047,-0.460,-0.460,-0.460,0.000,0.000,0.000
1640068775450380032,"2021-12-21,06:39:35",10.1.1.6,387,-0.450,-0.450,-0.450,0.000,0.000,0.000
1640068775505039104,"2021-12-21,06:39:35",10.1.1.6,0.44207096099853516,-0.450,-0.450,-0.450,0.000,0.000,0.000
1640068775848638976,"2021-12-21,06:39:35",10.1.1.6,340,-0.440,-0.440,-0.440,0.000,0.000,0.000
1640068775921473024,"2021-12-21,06:39:35",10.1.1.6,0.41356611251831055,-0.440,-0.440,-0.440,0.000,0.000,0.000
1640068776298427136,"2021-12-21,06:39:36",10.1.1.6,374,-0.430,-0.430,-0.430,0.000,0.000,0.000
1640068776375681024,"2021-12-21,06:39:36",10.1.1.6,0.4521040916442871,-0.430,-0.430,-0.430,0.000,0.000,0.000
1640068776737073920,"2021-12-21,06:39:36",10.1.1.6,358,-0.420,-0.420,-0.420,0.000,0.000,0.000
1640068776821271808,"2021-12-21,06:39:36",10.1.1.6,0.4432082176208496,-0.420,-0.420,-0.420,0.000,0.000,0.000
1640068777147473152,"2021-12-21,06:39:37",10.1.1.6,316,-0.410,-0.410,-0.410,0.000,0.000,0.000
1640068777220887040,"2021-12-21,06:39:37",10.1.1.6,0.3908569812774658,-0.410,-0.410,-0.410,0.000,0.000,0.000
1640068777566848000,"2021-12-21,06:39:37",10.1.1.6,338,-0.400,-0.400,-0.400,0.000,0.000,0.000
1640068777635372032,"2021-12-21,06:39:37",10.1.1.6,0.4070241451263428,-0.400,-0.400,-0.400,0.000,0.000,0.000
1640068777976082176,"2021-12-21,06:39:37",10.1.1.6,338,-0.390,-0.390,-0.390,0.000,0.000,0.000
1640068777999469056,"2021-12-21,06:39:37",10.1.1.6,0.3622128963470459,-0.390,-0.390,-0.390,0.000,0.000,0.000
1640068778314491904,"2021-12-21,06:39:38",10.1.1.6,313,-0.380,-0.380,-0.380,0.000,0.000,0.000
1640068778408344064,"2021-12-21,06:39:38",10.1.1.6,0.4074389934539795,-0.380,-0.380,-0.380,0.000,0.000,0.000
1640068778738387968,"2021-12-21,06:39:38",10.1.1.6,327,-0.370,-0.370,-0.370,0.000,0.000,0.000
1640068778768311040,"2021-12-21,06:39:38",10.1.1.6,0.35832691192626953,-0.370,-0.370,-0.370,0.000,0.000,0.000
1640068779094417152,"2021-12-21,06:39:39",10.1.1.6,322,-0.360,-0.360,-0.360,0.000,0.000,0.000
1640068779121010944,"2021-12-21,06:39:39",10.1.1.6,0.34952402114868164,-0.360,-0.360,-0.360,0.000,0.000,0.000
1640068779445251840,"2021-12-21,06:39:39",10.1.1.6,321,-0.350,-0.350,-0.350,0.000,0.000,0.000
1640068779501579008,"2021-12-21,06:39:39",10.1.1.6,0.37830400466918945,-0.350,-0.350,-0.350,0.000,0.000,0.000
1640068779855834112,"2021-12-21,06:39:39",10.1.1.6,343,-0.340,-0.340,-0.340,0.000,0.000,0.000
1640068779893384960,"2021-12-21,06:39:39",10.1.1.6,0.3811020851135254,-0.340,-0.340,-0.340,0.000,0.000,0.000
1640068780241601024,"2021-12-21,06:39:40",10.1.1.6,336,-0.330,-0.330,-0.330,0.000,0.000,0.000
1640068780268446976,"2021-12-21,06:39:40",10.1.1.6,0.36314892768859863,-0.330,-0.330,-0.330,0.000,0.000,0.000
1640068780592098048,"2021-12-21,06:39:40",10.1.1.6,321,-0.320,-0.320,-0.320,0.000,0.000,0.000
1640068780696985856,"2021-12-21,06:39:40",10.1.1.6,0.42717981338500977,-0.320,-0.320,-0.320,0.000,0.000,0.000
1640068781030836224,"2021-12-21,06:39:41",10.1.1.6,332,-0.310,-0.310,-0.310,0.000,0.000,0.000
1640068781056025088,"2021-12-21,06:39:41",10.1.1.6,0.3573780059814453,-0.310,-0.310,-0.310,0.000,0.000,0.000
1640068781380354816,"2021-12-21,06:39:41",10.1.1.6,322,-0.300,-0.300,-0.300,0.000,0.000,0.000
1640068781433917952,"2021-12-21,06:39:41",10.1.1.6,0.37598299980163574,-0.300,-0.300,-0.300,0.000,0.000,0.000
1640068781729769984,"2021-12-21,06:39:41",10.1.1.6,294,-0.290,-0.290,-0.290,0.000,0.000,0.000
1640068781767965952,"2021-12-21,06:39:41",10.1.1.6,0.3327958583831787,-0.290,-0.290,-0.290,0.000,0.000,0.000
1640068782080019968,"2021-12-21,06:39:42",10.1.1.6,309,-0.280,-0.280,-0.280,0.000,0.000,0.000
1640068782109088000,"2021-12-21,06:39:42",10.1.1.6,0.33939123153686523,-0.280,-0.280,-0.280,0.000,0.000,0.000
1640068782478651904,"2021-12-21,06:39:42",10.1.1.6,367,-0.270,-0.270,-0.270,0.000,0.000,0.000
1640068782499684096,"2021-12-21,06:39:42",10.1.1.6,0.38891005516052246,-0.270,-0.270,-0.270,0.000,0.000,0.000
1640068782877873920,"2021-12-21,06:39:42",10.1.1.6,376,-0.260,-0.260,-0.260,0.000,0.000,0.000
1640068782947262976,"2021-12-21,06:39:42",10.1.1.6,0.4459710121154785,-0.260,-0.260,-0.260,0.000,0.000,0.000
1640068783309534976,"2021-12-21,06:39:43",10.1.1.6,360,-0.250,-0.250,-0.250,0.000,0.000,0.000
1640068783342765056,"2021-12-21,06:39:43",10.1.1.6,0.3941061496734619,-0.250,-0.250,-0.250,0.000,0.000,0.000
1640068783723209984,"2021-12-21,06:39:43",10.1.1.6,369,-0.240,-0.240,-0.240,0.000,0.000,0.000
1640068783778714880,"2021-12-21,06:39:43",10.1.1.6,0.4250829219818115,-0.240,-0.240,-0.240,0.000,0.000,0.000
1640068784185838848,"2021-12-21,06:39:44",10.1.1.6,405,-0.230,-0.230,-0.230,0.000,0.000,0.000
1640068784254884096,"2021-12-21,06:39:44",10.1.1.6,0.47486186027526855,-0.230,-0.230,-0.230,0.000,0.000,0.000
1640068784658298880,"2021-12-21,06:39:44",10.1.1.6,396,-0.220,-0.220,-0.220,0.000,0.000,0.000
1640068784718884864,"2021-12-21,06:39:44",10.1.1.6,0.4570300579071045,-0.220,-0.220,-0.220,0.000,0.000,0.000
1640068785046734080,"2021-12-21,06:39:45",10.1.1.6,324,-0.210,-0.210,-0.210,0.000,0.000,0.000
1640068785062292224,"2021-12-21,06:39:45",10.1.1.6,0.33989596366882324,-0.210,-0.210,-0.210,0.000,0.000,0.000
1640068785418391040,"2021-12-21,06:39:45",10.1.1.6,354,-0.200,-0.200,-0.200,0.000,0.000,0.000
1640068785435350016,"2021-12-21,06:39:45",10.1.1.6,0.37138915061950684,-0.200,-0.200,-0.200,0.000,0.000,0.000
1640068785800261120,"2021-12-21,06:39:45",10.1.1.6,359,-0.190,-0.190,-0.190,0.000,0.000,0.000
1640068785875910912,"2021-12-21,06:39:45",10.1.1.6,0.43498992919921875,-0.190,-0.190,-0.190,0.000,0.000,0.000
1640068786221713152,"2021-12-21,06:39:46",10.1.1.6,344,-0.180,-0.180,-0.180,0.000,0.000,0.000
1640068786286618880,"2021-12-21,06:39:46",10.1.1.6,0.4092710018157959,-0.180,-0.180,-0.180,0.000,0.000,0.000
1640068786633644032,"2021-12-21,06:39:46",10.1.1.6,343,-0.170,-0.170,-0.170,0.000,0.000,0.000
1640068786656056832,"2021-12-21,06:39:46",10.1.1.6,0.36615490913391113,-0.170,-0.170,-0.170,0.000,0.000,0.000
1640068787023358208,"2021-12-21,06:39:47",10.1.1.6,360,-0.160,-0.160,-0.160,0.000,0.000,0.000
1640068787086045952,"2021-12-21,06:39:47",10.1.1.6,0.4231119155883789,-0.160,-0.160,-0.160,0.000,0.000,0.000
1640068787433788160,"2021-12-21,06:39:47",10.1.1.6,346,-0.150,-0.150,-0.150,0.000,0.000,0.000
1640068787463258880,"2021-12-21,06:39:47",10.1.1.6,0.37555599212646484,-0.150,-0.150,-0.150,0.000,0.000,0.000
1640068787816262912,"2021-12-21,06:39:47",10.1.1.6,348,-0.140,-0.140,-0.140,0.000,0.000,0.000
1640068787859751936,"2021-12-21,06:39:47",10.1.1.6,0.39226794242858887,-0.140,-0.140,-0.140,0.000,0.000,0.000
1640068788186588160,"2021-12-21,06:39:48",10.1.1.6,325,-0.130,-0.130,-0.130,0.000,0.000,0.000
1640068788229756160,"2021-12-21,06:39:48",10.1.1.6,0.36870598793029785,-0.130,-0.130,-0.130,0.000,0.000,0.000
1640068788567804160,"2021-12-21,06:39:48",10.1.1.6,335,-0.120,-0.120,-0.120,0.000,0.000,0.000
1640068788622883072,"2021-12-21,06:39:48",10.1.1.6,0.391355037689209,-0.120,-0.120,-0.120,0.000,0.000,0.000
1640068788948920064,"2021-12-21,06:39:48",10.1.1.6,324,-0.110,-0.110,-0.110,0.000,0.000,0.000
1640068789010396928,"2021-12-21,06:39:49",10.1.1.6,0.38592100143432617,-0.110,-0.110,-0.110,0.000,0.000,0.000
1640068789318181888,"2021-12-21,06:39:49",10.1.1.6,305,-0.100,-0.100,-0.100,0.000,0.000,0.000
1640068789356794112,"2021-12-21,06:39:49",10.1.1.6,0.34457898139953613,-0.100,-0.100,-0.100,0.000,0.000,0.000
1640068789700836864,"2021-12-21,06:39:49",10.1.1.6,341,-0.090,-0.090,-0.090,0.000,0.000,0.000
1640068789725369856,"2021-12-21,06:39:49",10.1.1.6,0.36593008041381836,-0.090,-0.090,-0.090,0.000,0.000,0.000
1640068790100148992,"2021-12-21,06:39:50",10.1.1.6,373,-0.080,-0.080,-0.080,0.000,0.000,0.000
1640068790131164928,"2021-12-21,06:39:50",10.1.1.6,0.4042470455169678,-0.080,-0.080,-0.080,0.000,0.000,0.000
1640068790489212160,"2021-12-21,06:39:50",10.1.1.6,348,-0.070,-0.070,-0.070,0.000,0.000,0.000
1640068790532263168,"2021-12-21,06:39:50",10.1.1.6,0.3917200565338135,-0.070,-0.070,-0.070,0.000,0.000,0.000
1640068790859707136,"2021-12-21,06:39:50",10.1.1.6,323,-0.060,-0.060,-0.060,0.000,0.000,0.000
1640068790943311104,"2021-12-21,06:39:50",10.1.1.6,0.40697503089904785,-0.060,-0.060,-0.060,0.000,0.000,0.000
1640068791269874944,"2021-12-21,06:39:51",10.1.1.6,325,-0.050,-0.050,-0.050,0.000,0.000,0.000
1640068791341916928,"2021-12-21,06:39:51",10.1.1.6,0.3973710536956787,-0.050,-0.050,-0.050,0.000,0.000,0.000
1640068791769519104,"2021-12-21,06:39:51",10.1.1.6,420,-0.040,-0.040,-0.040,0.000,0.000,0.000
1640068791817903104,"2021-12-21,06:39:51",10.1.1.6,0.4690120220184326,-0.040,-0.040,-0.040,0.000,0.000,0.000
1640068792151910144,"2021-12-21,06:39:52",10.1.1.6,300,-0.030,-0.030,-0.030,0.000,0.000,0.000
1640068792212263168,"2021-12-21,06:39:52",10.1.1.6,0.3609299659729004,-0.030,-0.030,-0.030,0.000,0.000,0.000
1640068792541402112,"2021-12-21,06:39:52",10.1.1.6,326,-0.020,-0.020,-0.020,0.000,0.000,0.000
1640068792575493120,"2021-12-21,06:39:52",10.1.1.6,0.3608071804046631,-0.020,-0.020,-0.020,0.000,0.000,0.000
1640068792920200192,"2021-12-21,06:39:52",10.1.1.6,343,-0.010,-0.010,-0.010,0.000,0.000,0.000
1640068792972537088,"2021-12-21,06:39:52",10.1.1.6,0.39305806159973145,-0.010,-0.010,-0.010,0.000,0.000,0.000
1640068793361677056,"2021-12-21,06:39:53",10.1.1.6,383,0.000,0.000,0.000,0.000,0.000,0.000
1640068793368060160,"2021-12-21,06:39:53",10.1.1.6,0.3901491165161133,0.000,0.000,0.000,0.000,0.000,0.000
1640068793733113088,"2021-12-21,06:39:53",10.1.1.6,0.3609600067138672,-0.010,-0.010,-0.010,0.000,0.000,0.000
1640068793733872896,"2021-12-21,06:39:53",10.1.1.6,364,-0.010,-0.010,-0.010,0.000,0.000,0.000
1640068794100894976,"2021-12-21,06:39:54",10.1.1.6,365,-0.020,-0.020,-0.020,0.000,0.000,0.000
1640068794165934080,"2021-12-21,06:39:54",10.1.1.6,0.43083906173706055,-0.020,-0.020,-0.020,0.000,0.000,0.000
1640068794510749184,"2021-12-21,06:39:54",10.1.1.6,341,-0.030,-0.030,-0.030,0.000,0.000,0.000
1640068794539598080,"2021-12-21,06:39:54",10.1.1.6,0.37045884132385254,-0.030,-0.030,-0.030,0.000,0.000,0.000
1640068794861449984,"2021-12-21,06:39:54",10.1.1.6,317,-0.040,-0.040,-0.040,0.000,0.000,0.000
1640068794967108864,"2021-12-21,06:39:54",10.1.1.6,0.423382043838501,-0.040,-0.040,-0.040,0.000,0.000,0.000
1640068795392936960,"2021-12-21,06:39:55",10.1.1.6,423,-0.050,-0.050,-0.050,0.000,0.000,0.000
1640068795453432064,"2021-12-21,06:39:55",10.1.1.6,0.48416781425476074,-0.050,-0.050,-0.050,0.000,0.000,0.000
1640068795780464896,"2021-12-21,06:39:55",10.1.1.6,324,-0.060,-0.060,-0.060,0.000,0.000,0.000
1640068795804764928,"2021-12-21,06:39:55",10.1.1.6,0.3486149311065674,-0.060,-0.060,-0.060,0.000,0.000,0.000
1640068796110692864,"2021-12-21,06:39:56",10.1.1.6,304,-0.070,-0.070,-0.070,0.000,0.000,0.000
1640068796150651904,"2021-12-21,06:39:56",10.1.1.6,0.3443639278411865,-0.070,-0.070,-0.070,0.000,0.000,0.000
1640068796490093056,"2021-12-21,06:39:56",10.1.1.6,337,-0.080,-0.080,-0.080,0.000,0.000,0.000
1640068796583828992,"2021-12-21,06:39:56",10.1.1.6,0.4316699504852295,-0.080,-0.080,-0.080,0.000,0.000,0.000
1640068796940238080,"2021-12-21,06:39:56",10.1.1.6,354,-0.090,-0.090,-0.090,0.000,0.000,0.000
1640068796986257152,"2021-12-21,06:39:56",10.1.1.6,0.4006168842315674,-0.090,-0.090,-0.090,0.000,0.000,0.000
1640068797280388096,"2021-12-21,06:39:57",10.1.1.6,291,-0.100,-0.100,-0.100,0.000,0.000,0.000
1640068797314394880,"2021-12-21,06:39:57",10.1.1.6,0.32587599754333496,-0.100,-0.100,-0.100,0.000,0.000,0.000
1640068797649411840,"2021-12-21,06:39:57",10.1.1.6,332,-0.110,-0.110,-0.110,0.000,0.000,0.000
1640068797693793024,"2021-12-21,06:39:57",10.1.1.6,0.37726807594299316,-0.110,-0.110,-0.110,0.000,0.000,0.000
1640068798062003968,"2021-12-21,06:39:58",10.1.1.6,365,-0.120,-0.120,-0.120,0.000,0.000,0.000
1640068798084256768,"2021-12-21,06:39:58",10.1.1.6,0.38849711418151855,-0.120,-0.120,-0.120,0.000,0.000,0.000
1640068798398511872,"2021-12-21,06:39:58",10.1.1.6,312,-0.130,-0.130,-0.130,0.000,0.000,0.000
1640068798481615104,"2021-12-21,06:39:58",10.1.1.6,0.3960399627685547,-0.130,-0.130,-0.130,0.000,0.000,0.000
1640068798790841088,"2021-12-21,06:39:58",10.1.1.6,307,-0.140,-0.140,-0.140,0.000,0.000,0.000
1640068798855315968,"2021-12-21,06:39:58",10.1.1.6,0.3722870349884033,-0.140,-0.140,-0.140,0.000,0.000,0.000
1640068799247988992,"2021-12-21,06:39:59",10.1.1.6,390,-0.150,-0.150,-0.150,0.000,0.000,0.000
1640068799259566080,"2021-12-21,06:39:59",10.1.1.6,0.4019761085510254,-0.150,-0.150,-0.150,0.000,0.000,0.000
1640068799637059072,"2021-12-21,06:39:59",10.1.1.6,374,-0.160,-0.160,-0.160,0.000,0.000,0.000
1640068799697818112,"2021-12-21,06:39:59",10.1.1.6,0.434859037399292,-0.160,-0.160,-0.160,0.000,0.000,0.000
1640068800103874048,"2021-12-21,06:40:00",10.1.1.6,401,-0.170,-0.170,-0.170,0.000,0.000,0.000
1640068800118958080,"2021-12-21,06:40:00",10.1.1.6,0.41985082626342773,-0.170,-0.170,-0.170,0.000,0.000,0.000
1640068800467514112,"2021-12-21,06:40:00",10.1.1.6,345,-0.180,-0.180,-0.180,0.000,0.000,0.000
1640068800510960128,"2021-12-21,06:40:00",10.1.1.6,0.3891329765319824,-0.180,-0.180,-0.180,0.000,0.000,0.000
1640068800898395136,"2021-12-21,06:40:00",10.1.1.6,376,-0.190,-0.190,-0.190,0.000,0.000,0.000
1640068800964986112,"2021-12-21,06:40:00",10.1.1.6,0.44340991973876953,-0.190,-0.190,-0.190,0.000,0.000,0.000
1640068801296546816,"2021-12-21,06:40:01",10.1.1.6,330,-0.200,-0.200,-0.200,0.000,0.000,0.000
1640068801392363008,"2021-12-21,06:40:01",10.1.1.6,0.4260289669036865,-0.200,-0.200,-0.200,0.000,0.000,0.000
1640068801727962880,"2021-12-21,06:40:01",10.1.1.6,333,-0.210,-0.210,-0.210,0.000,0.000,0.000
1640068801747289856,"2021-12-21,06:40:01",10.1.1.6,0.3537139892578125,-0.210,-0.210,-0.210,0.000,0.000,0.000
1640068802075675904,"2021-12-21,06:40:02",10.1.1.6,326,-0.220,-0.220,-0.220,0.000,0.000,0.000
1640068802111645952,"2021-12-21,06:40:02",10.1.1.6,0.3627769947052002,-0.220,-0.220,-0.220,0.000,0.000,0.000
1640068802455185920,"2021-12-21,06:40:02",10.1.1.6,340,-0.230,-0.230,-0.230,0.000,0.000,0.000
1640068802513558016,"2021-12-21,06:40:02",10.1.1.6,0.399141788482666,-0.230,-0.230,-0.230,0.000,0.000,0.000
1640068802834248960,"2021-12-21,06:40:02",10.1.1.6,317,-0.240,-0.240,-0.240,0.000,0.000,0.000
1640068802879748096,"2021-12-21,06:40:02",10.1.1.6,0.36292409896850586,-0.240,-0.240,-0.240,0.000,0.000,0.000
1640068803240300032,"2021-12-21,06:40:03",10.1.1.6,352,-0.250,-0.250,-0.250,0.000,0.000,0.000
1640068803274583040,"2021-12-21,06:40:03",10.1.1.6,0.38686299324035645,-0.250,-0.250,-0.250,0.000,0.000,0.000
1640068803626486016,"2021-12-21,06:40:03",10.1.1.6,329,-0.260,-0.260,-0.260,0.000,0.000,0.000
1640068803650563840,"2021-12-21,06:40:03",10.1.1.6,0.35652804374694824,-0.260,-0.260,-0.260,0.000,0.000,0.000
1640068804042349056,"2021-12-21,06:40:04",10.1.1.6,386,-0.270,-0.270,-0.270,0.000,0.000,0.000
1640068804071942144,"2021-12-21,06:40:04",10.1.1.6,0.41608500480651855,-0.270,-0.270,-0.270,0.000,0.000,0.000
1640068804423800832,"2021-12-21,06:40:04",10.1.1.6,349,-0.280,-0.280,-0.280,0.000,0.000,0.000
1640068804466756096,"2021-12-21,06:40:04",10.1.1.6,0.39319801330566406,-0.280,-0.280,-0.280,0.000,0.000,0.000
1640068804841895168,"2021-12-21,06:40:04",10.1.1.6,364,-0.290,-0.290,-0.290,0.000,0.000,0.000
1640068804875603968,"2021-12-21,06:40:04",10.1.1.6,0.3987441062927246,-0.290,-0.290,-0.290,0.000,0.000,0.000
1640068805191508992,"2021-12-21,06:40:05",10.1.1.6,314,-0.300,-0.300,-0.300,0.000,0.000,0.000
1640068805222824960,"2021-12-21,06:40:05",10.1.1.6,0.3455848693847656,-0.300,-0.300,-0.300,0.000,0.000,0.000
1640068805603444224,"2021-12-21,06:40:05",10.1.1.6,379,-0.310,-0.310,-0.310,0.000,0.000,0.000
1640068805646323968,"2021-12-21,06:40:05",10.1.1.6,0.4221620559692383,-0.310,-0.310,-0.310,0.000,0.000,0.000
1640068805991102976,"2021-12-21,06:40:05",10.1.1.6,326,-0.320,-0.320,-0.320,0.000,0.000,0.000
1640068806040786944,"2021-12-21,06:40:06",10.1.1.6,0.3761758804321289,-0.320,-0.320,-0.320,0.000,0.000,0.000
1640068806362020096,"2021-12-21,06:40:06",10.1.1.6,319,-0.330,-0.330,-0.330,0.000,0.000,0.000
1640068806466064896,"2021-12-21,06:40:06",10.1.1.6,0.42348814010620117,-0.330,-0.330,-0.330,0.000,0.000,0.000
1640068806802714112,"2021-12-21,06:40:06",10.1.1.6,334,-0.340,-0.340,-0.340,0.000,0.000,0.000
1640068806827148032,"2021-12-21,06:40:06",10.1.1.6,0.35926008224487305,-0.340,-0.340,-0.340,0.000,0.000,0.000
1640068807158212864,"2021-12-21,06:40:07",10.1.1.6,327,-0.350,-0.350,-0.350,0.000,0.000,0.000
1640068807222449152,"2021-12-21,06:40:07",10.1.1.6,0.39217305183410645,-0.350,-0.350,-0.350,0.000,0.000,0.000
1640068807578036992,"2021-12-21,06:40:07",10.1.1.6,332,-0.360,-0.360,-0.360,0.000,0.000,0.000
1640068807619847168,"2021-12-21,06:40:07",10.1.1.6,0.37447500228881836,-0.360,-0.360,-0.360,0.000,0.000,0.000
1640068807937231104,"2021-12-21,06:40:07",10.1.1.6,311,-0.370,-0.370,-0.370,0.000,0.000,0.000
1640068807983546880,"2021-12-21,06:40:07",10.1.1.6,0.3576061725616455,-0.370,-0.370,-0.370,0.000,0.000,0.000
1640068808337825024,"2021-12-21,06:40:08",10.1.1.6,352,-0.380,-0.380,-0.380,0.000,0.000,0.000
1640068808373662976,"2021-12-21,06:40:08",10.1.1.6,0.3886380195617676,-0.380,-0.380,-0.380,0.000,0.000,0.000
1640068808706711040,"2021-12-21,06:40:08",10.1.1.6,329,-0.390,-0.390,-0.390,0.000,0.000,0.000
1640068808780738048,"2021-12-21,06:40:08",10.1.1.6,0.4033010005950928,-0.390,-0.390,-0.390,0.000,0.000,0.000
1640068809086761984,"2021-12-21,06:40:09",10.1.1.6,303,-0.400,-0.400,-0.400,0.000,0.000,0.000
1640068809142539008,"2021-12-21,06:40:09",10.1.1.6,0.360260009765625,-0.400,-0.400,-0.400,0.000,0.000,0.000
1640068809466484992,"2021-12-21,06:40:09",10.1.1.6,322,-0.410,-0.410,-0.410,0.000,0.000,0.000
1640068809478290944,"2021-12-21,06:40:09",10.1.1.6,0.33393096923828125,-0.410,-0.410,-0.410,0.000,0.000,0.000
1640068809825824000,"2021-12-21,06:40:09",10.1.1.6,346,-0.420,-0.420,-0.420,0.000,0.000,0.000
1640068809909239040,"2021-12-21,06:40:09",10.1.1.6,0.42955684661865234,-0.420,-0.420,-0.420,0.000,0.000,0.000
1640068810275849216,"2021-12-21,06:40:10",10.1.1.6,359,-0.430,-0.430,-0.430,0.000,0.000,0.000
1640068810314543104,"2021-12-21,06:40:10",10.1.1.6,0.39855003356933594,-0.430,-0.430,-0.430,0.000,0.000,0.000
1640068810653840896,"2021-12-21,06:40:10",10.1.1.6,337,-0.440,-0.440,-0.440,0.000,0.000,0.000
1640068810748003840,"2021-12-21,06:40:10",10.1.1.6,0.43175792694091797,-0.440,-0.440,-0.440,0.000,0.000,0.000
1640068811084166144,"2021-12-21,06:40:11",10.1.1.6,334,-0.450,-0.450,-0.450,0.000,0.000,0.000
1640068811176867840,"2021-12-21,06:40:11",10.1.1.6,0.42759203910827637,-0.450,-0.450,-0.450,0.000,0.000,0.000
1640068811563028224,"2021-12-21,06:40:11",10.1.1.6,383,-0.460,-0.460,-0.460,0.000,0.000,0.000
1640068811655719936,"2021-12-21,06:40:11",10.1.1.6,0.4766368865966797,-0.460,-0.460,-0.460,0.000,0.000,0.000
1640068811993379072,"2021-12-21,06:40:11",10.1.1.6,333,-0.470,-0.470,-0.470,0.000,0.000,0.000
1640068812048891904,"2021-12-21,06:40:12",10.1.1.6,0.38909482955932617,-0.470,-0.470,-0.470,0.000,0.000,0.000
1640068812392724992,"2021-12-21,06:40:12",10.1.1.6,341,-0.480,-0.480,-0.480,0.000,0.000,0.000
1640068812452963072,"2021-12-21,06:40:12",10.1.1.6,0.4020869731903076,-0.480,-0.480,-0.480,0.000,0.000,0.000
1640068812830100992,"2021-12-21,06:40:12",10.1.1.6,375,-0.490,-0.490,-0.490,0.000,0.000,0.000
1640068812881390080,"2021-12-21,06:40:12",10.1.1.6,0.42710304260253906,-0.490,-0.490,-0.490,0.000,0.000,0.000
1640068813209641984,"2021-12-21,06:40:13",10.1.1.6,326,-0.480,-0.480,-0.480,0.000,0.000,0.000
1640068813323730944,"2021-12-21,06:40:13",10.1.1.6,0.4408121109008789,-0.480,-0.480,-0.480,0.000,0.000,0.000
1640068813700005120,"2021-12-21,06:40:13",10.1.1.6,373,-0.470,-0.470,-0.470,0.000,0.000,0.000
1640068813739355136,"2021-12-21,06:40:13",10.1.1.6,0.4133610725402832,-0.470,-0.470,-0.470,0.000,0.000,0.000
1640068814048980992,"2021-12-21,06:40:14",10.1.1.6,307,-0.460,-0.460,-0.460,0.000,0.000,0.000
1640068814132980224,"2021-12-21,06:40:14",10.1.1.6,0.39179301261901855,-0.460,-0.460,-0.460,0.000,0.000,0.000
1640068814449160192,"2021-12-21,06:40:14",10.1.1.6,314,-0.450,-0.450,-0.450,0.000,0.000,0.000
1640068814507479040,"2021-12-21,06:40:14",10.1.1.6,0.37229108810424805,-0.450,-0.450,-0.450,0.000,0.000,0.000
1640068814510703104,"2021-12-21,06:40:14",10.1.1.6,-1,-0.440,-0.440,-0.440,0.000,0.000,0.000
1640068814908814848,"2021-12-21,06:40:14",10.1.1.6,0.39943885803222656,-0.440,-0.440,-0.440,0.000,0.000,0.000
1640068815258601984,"2021-12-21,06:40:15",10.1.1.6,343,-0.430,-0.430,-0.430,0.000,0.000,0.000
1640068815382034944,"2021-12-21,06:40:15",10.1.1.6,0.46692514419555664,-0.430,-0.430,-0.430,0.000,0.000,0.000
1640068815710043904,"2021-12-21,06:40:15",10.1.1.6,324,-0.420,-0.420,-0.420,0.000,0.000,0.000
1640068815815862784,"2021-12-21,06:40:15",10.1.1.6,0.4307591915130615,-0.420,-0.420,-0.420,0.000,0.000,0.000
1640068816163897088,"2021-12-21,06:40:16",10.1.1.6,326,-0.410,-0.410,-0.410,0.000,0.000,0.000
1640068816256630784,"2021-12-21,06:40:16",10.1.1.6,0.4194300174713135,-0.410,-0.410,-0.410,0.000,0.000,0.000
1640068816584051968,"2021-12-21,06:40:16",10.1.1.6,325,-0.400,-0.400,-0.400,0.000,0.000,0.000
1640068816628397056,"2021-12-21,06:40:16",10.1.1.6,0.37015199661254883,-0.400,-0.400,-0.400,0.000,0.000,0.000
1640068817048076032,"2021-12-21,06:40:17",10.1.1.6,416,-0.390,-0.390,-0.390,0.000,0.000,0.000
1640068817064826880,"2021-12-21,06:40:17",10.1.1.6,0.432981014251709,-0.390,-0.390,-0.390,0.000,0.000,0.000
1640068817390278144,"2021-12-21,06:40:17",10.1.1.6,323,-0.380,-0.380,-0.380,0.000,0.000,0.000
1640068817483678976,"2021-12-21,06:40:17",10.1.1.6,0.4172201156616211,-0.380,-0.380,-0.380,0.000,0.000,0.000
1640068817830185984,"2021-12-21,06:40:17",10.1.1.6,342,-0.370,-0.370,-0.370,0.000,0.000,0.000
1640068817870608128,"2021-12-21,06:40:17",10.1.1.6,0.38252997398376465,-0.370,-0.370,-0.370,0.000,0.000,0.000
1640068818200153088,"2021-12-21,06:40:18",10.1.1.6,323,-0.360,-0.360,-0.360,0.000,0.000,0.000
1640068818243737856,"2021-12-21,06:40:18",10.1.1.6,0.3641469478607178,-0.360,-0.360,-0.360,0.000,0.000,0.000
1640068818560652032,"2021-12-21,06:40:18",10.1.1.6,315,-0.350,-0.350,-0.350,0.000,0.000,0.000
1640068818593629952,"2021-12-21,06:40:18",10.1.1.6,0.34850406646728516,-0.350,-0.350,-0.350,0.000,0.000,0.000
1640068818943401216,"2021-12-21,06:40:18",10.1.1.6,348,-0.340,-0.340,-0.340,0.000,0.000,0.000
1640068819012192000,"2021-12-21,06:40:19",10.1.1.6,0.417316198348999,-0.340,-0.340,-0.340,0.000,0.000,0.000
1640068819375476992,"2021-12-21,06:40:19",10.1.1.6,360,-0.330,-0.330,-0.330,0.000,0.000,0.000
1640068819419183872,"2021-12-21,06:40:19",10.1.1.6,0.4047999382019043,-0.330,-0.330,-0.330,0.000,0.000,0.000
1640068819783273984,"2021-12-21,06:40:19",10.1.1.6,362,-0.320,-0.320,-0.320,0.000,0.000,0.000
1640068819831290112,"2021-12-21,06:40:19",10.1.1.6,0.4106600284576416,-0.320,-0.320,-0.320,0.000,0.000,0.000
1640068820194364160,"2021-12-21,06:40:20",10.1.1.6,344,-0.310,-0.310,-0.310,0.000,0.000,0.000
1640068820289496064,"2021-12-21,06:40:20",10.1.1.6,0.4394550323486328,-0.310,-0.310,-0.310,0.000,0.000,0.000
1640068820624733952,"2021-12-21,06:40:20",10.1.1.6,327,-0.300,-0.300,-0.300,0.000,0.000,0.000
1640068820671955200,"2021-12-21,06:40:20",10.1.1.6,0.37261509895324707,-0.300,-0.300,-0.300,0.000,0.000,0.000
1640068821024889856,"2021-12-21,06:40:21",10.1.1.6,347,-0.290,-0.290,-0.290,0.000,0.000,0.000
1640068821077504000,"2021-12-21,06:40:21",10.1.1.6,0.4001328945159912,-0.290,-0.290,-0.290,0.000,0.000,0.000
1640068821416194048,"2021-12-21,06:40:21",10.1.1.6,331,-0.280,-0.280,-0.280,0.000,0.000,0.000
1640068821487188992,"2021-12-21,06:40:21",10.1.1.6,0.4023289680480957,-0.280,-0.280,-0.280,0.000,0.000,0.000
1640068821796709888,"2021-12-21,06:40:21",10.1.1.6,308,-0.270,-0.270,-0.270,0.000,0.000,0.000
1640068821854190080,"2021-12-21,06:40:21",10.1.1.6,0.3657388687133789,-0.270,-0.270,-0.270,0.000,0.000,0.000
1640068822317673984,"2021-12-21,06:40:22",10.1.1.6,458,-0.260,-0.260,-0.260,0.000,0.000,0.000
1640068822368918784,"2021-12-21,06:40:22",10.1.1.6,0.5095930099487305,-0.260,-0.260,-0.260,0.000,0.000,0.000
1640068822717466112,"2021-12-21,06:40:22",10.1.1.6,346,-0.250,-0.250,-0.250,0.000,0.000,0.000
1640068822753779968,"2021-12-21,06:40:22",10.1.1.6,0.382612943649292,-0.250,-0.250,-0.250,0.000,0.000,0.000
1640068823205202176,"2021-12-21,06:40:23",10.1.1.6,447,-0.240,-0.240,-0.240,0.000,0.000,0.000
1640068823264977920,"2021-12-21,06:40:23",10.1.1.6,0.507314920425415,-0.240,-0.240,-0.240,0.000,0.000,0.000
1640068823617403136,"2021-12-21,06:40:23",10.1.1.6,340,-0.230,-0.230,-0.230,0.000,0.000,0.000
1640068823649276928,"2021-12-21,06:40:23",10.1.1.6,0.3726351261138916,-0.230,-0.230,-0.230,0.000,0.000,0.000
1640068824010142976,"2021-12-21,06:40:24",10.1.1.6,357,-0.220,-0.220,-0.220,0.000,0.000,0.000
1640068824099930112,"2021-12-21,06:40:24",10.1.1.6,0.4476900100708008,-0.220,-0.220,-0.220,0.000,0.000,0.000
1640068824438534912,"2021-12-21,06:40:24",10.1.1.6,337,-0.210,-0.210,-0.210,0.000,0.000,0.000
1640068824521634048,"2021-12-21,06:40:24",10.1.1.6,0.4204878807067871,-0.210,-0.210,-0.210,0.000,0.000,0.000
1640068824857523968,"2021-12-21,06:40:24",10.1.1.6,334,-0.200,-0.200,-0.200,0.000,0.000,0.000
1640068824947076096,"2021-12-21,06:40:24",10.1.1.6,0.4238569736480713,-0.200,-0.200,-0.200,0.000,0.000,0.000
1640068825341347840,"2021-12-21,06:40:25",10.1.1.6,392,-0.190,-0.190,-0.190,0.000,0.000,0.000
1640068825369218048,"2021-12-21,06:40:25",10.1.1.6,0.42054104804992676,-0.190,-0.190,-0.190,0.000,0.000,0.000
1640068825750752000,"2021-12-21,06:40:25",10.1.1.6,379,-0.180,-0.180,-0.180,0.000,0.000,0.000
1640068825854865152,"2021-12-21,06:40:25",10.1.1.6,0.4837360382080078,-0.180,-0.180,-0.180,0.000,0.000,0.000
1640068826257492992,"2021-12-21,06:40:26",10.1.1.6,393,-0.170,-0.170,-0.170,0.000,0.000,0.000
1640068826331830016,"2021-12-21,06:40:26",10.1.1.6,0.46816492080688477,-0.170,-0.170,-0.170,0.000,0.000,0.000
1640068826658916096,"2021-12-21,06:40:26",10.1.1.6,325,-0.160,-0.160,-0.160,0.000,0.000,0.000
1640068826705629184,"2021-12-21,06:40:26",10.1.1.6,0.37192821502685547,-0.160,-0.160,-0.160,0.000,0.000,0.000
1640068827082021888,"2021-12-21,06:40:27",10.1.1.6,372,-0.150,-0.150,-0.150,0.000,0.000,0.000
1640068827128958976,"2021-12-21,06:40:27",10.1.1.6,0.41975903511047363,-0.150,-0.150,-0.150,0.000,0.000,0.000
1640068827528996864,"2021-12-21,06:40:27",10.1.1.6,396,-0.140,-0.140,-0.140,0.000,0.000,0.000
1640068827546297088,"2021-12-21,06:40:27",10.1.1.6,0.4139368534088135,-0.140,-0.140,-0.140,0.000,0.000,0.000
1640068827898889984,"2021-12-21,06:40:27",10.1.1.6,336,-0.130,-0.130,-0.130,0.000,0.000,0.000
1640068827976571136,"2021-12-21,06:40:27",10.1.1.6,0.41396093368530273,-0.130,-0.130,-0.130,0.000,0.000,0.000
1640068828327787008,"2021-12-21,06:40:28",10.1.1.6,348,-0.120,-0.120,-0.120,0.000,0.000,0.000
1640068828350017024,"2021-12-21,06:40:28",10.1.1.6,0.37103819847106934,-0.120,-0.120,-0.120,0.000,0.000,0.000
1640068828687005952,"2021-12-21,06:40:28",10.1.1.6,332,-0.110,-0.110,-0.110,0.000,0.000,0.000
1640068828751692032,"2021-12-21,06:40:28",10.1.1.6,0.3975968360900879,-0.110,-0.110,-0.110,0.000,0.000,0.000
1640068829116795904,"2021-12-21,06:40:29",10.1.1.6,363,-0.100,-0.100,-0.100,0.000,0.000,0.000
1640068829214466048,"2021-12-21,06:40:29",10.1.1.6,0.4612421989440918,-0.100,-0.100,-0.100,0.000,0.000,0.000
1640068829563632896,"2021-12-21,06:40:29",10.1.1.6,347,-0.090,-0.090,-0.090,0.000,0.000,0.000
1640068829567917056,"2021-12-21,06:40:29",10.1.1.6,0.3520221710205078,-0.090,-0.090,-0.090,0.000,0.000,0.000
1640068829976310016,"2021-12-21,06:40:29",10.1.1.6,407,-0.080,-0.080,-0.080,0.000,0.000,0.000
1640068830013423872,"2021-12-21,06:40:30",10.1.1.6,0.44429802894592285,-0.080,-0.080,-0.080,0.000,0.000,0.000
1640068830355820800,"2021-12-21,06:40:30",10.1.1.6,338,-0.070,-0.070,-0.070,0.000,0.000,0.000
1640068830422511104,"2021-12-21,06:40:30",10.1.1.6,0.40515995025634766,-0.070,-0.070,-0.070,0.000,0.000,0.000
1640068830765633024,"2021-12-21,06:40:30",10.1.1.6,338,-0.060,-0.060,-0.060,0.000,0.000,0.000
1640068830808514048,"2021-12-21,06:40:30",10.1.1.6,0.38187503814697266,-0.060,-0.060,-0.060,0.000,0.000,0.000
1640068831155118080,"2021-12-21,06:40:31",10.1.1.6,343,-0.050,-0.050,-0.050,0.000,0.000,0.000
1640068831218756864,"2021-12-21,06:40:31",10.1.1.6,0.40689992904663086,-0.050,-0.050,-0.050,0.000,0.000,0.000
1640068831564836864,"2021-12-21,06:40:31",10.1.1.6,344,-0.040,-0.040,-0.040,0.000,0.000,0.000
1640068831601807104,"2021-12-21,06:40:31",10.1.1.6,0.38161206245422363,-0.040,-0.040,-0.040,0.000,0.000,0.000
1640068831945921792,"2021-12-21,06:40:31",10.1.1.6,341,-0.030,-0.030,-0.030,0.000,0.000,0.000
1640068832017280000,"2021-12-21,06:40:32",10.1.1.6,0.4129219055175781,-0.030,-0.030,-0.030,0.000,0.000,0.000
1640068832353926912,"2021-12-21,06:40:32",10.1.1.6,335,-0.020,-0.020,-0.020,0.000,0.000,0.000
1640068832468473856,"2021-12-21,06:40:32",10.1.1.6,0.4498779773712158,-0.020,-0.020,-0.020,0.000,0.000,0.000
1640068832853435904,"2021-12-21,06:40:32",10.1.1.6,381,-0.010,-0.010,-0.010,0.000,0.000,0.000
1640068832971757056,"2021-12-21,06:40:32",10.1.1.6,0.5003609657287598,-0.010,-0.010,-0.010,0.000,0.000,0.000
1640068833352945152,"2021-12-21,06:40:33",10.1.1.6,379,0.000,0.000,0.000,0.000,0.000,0.000
1640068833448865024,"2021-12-21,06:40:33",10.1.1.6,0.4756472110748291,0.000,0.000,0.000,0.000,0.000,0.000
1640068833794020864,"2021-12-21,06:40:33",10.1.1.6,343,-0.010,-0.010,-0.010,0.000,0.000,0.000
1640068833837476864,"2021-12-21,06:40:33",10.1.1.6,0.3872089385986328,-0.010,-0.010,-0.010,0.000,0.000,0.000
1640068834253166848,"2021-12-21,06:40:34",10.1.1.6,413,-0.020,-0.020,-0.020,0.000,0.000,0.000
1640068834286190080,"2021-12-21,06:40:34",10.1.1.6,0.4466218948364258,-0.020,-0.020,-0.020,0.000,0.000,0.000
1640068834671143168,"2021-12-21,06:40:34",10.1.1.6,383,-0.030,-0.030,-0.030,0.000,0.000,0.000
1640068834739991808,"2021-12-21,06:40:34",10.1.1.6,0.4524819850921631,-0.030,-0.030,-0.030,0.000,0.000,0.000
1640068835132352000,"2021-12-21,06:40:35",10.1.1.6,384,-0.040,-0.040,-0.040,0.000,0.000,0.000
1640068835176804096,"2021-12-21,06:40:35",10.1.1.6,0.42883920669555664,-0.040,-0.040,-0.040,0.000,0.000,0.000
1640068835560175872,"2021-12-21,06:40:35",10.1.1.6,381,-0.050,-0.050,-0.050,0.000,0.000,0.000
1640068835619636992,"2021-12-21,06:40:35",10.1.1.6,0.44097304344177246,-0.050,-0.050,-0.050,0.000,0.000,0.000
1640068835999470080,"2021-12-21,06:40:35",10.1.1.6,377,-0.060,-0.060,-0.060,0.000,0.000,0.000
1640068836066019072,"2021-12-21,06:40:36",10.1.1.6,0.4437069892883301,-0.060,-0.060,-0.060,0.000,0.000,0.000
1640068836392293888,"2021-12-21,06:40:36",10.1.1.6,314,-0.070,-0.070,-0.070,0.000,0.000,0.000
1640068836436527104,"2021-12-21,06:40:36",10.1.1.6,0.3592350482940674,-0.070,-0.070,-0.070,0.000,0.000,0.000
1640068836779973888,"2021-12-21,06:40:36",10.1.1.6,340,-0.080,-0.080,-0.080,0.000,0.000,0.000
1640068836809381888,"2021-12-21,06:40:36",10.1.1.6,0.3703129291534424,-0.080,-0.080,-0.080,0.000,0.000,0.000
1640068837140137984,"2021-12-21,06:40:37",10.1.1.6,328,-0.090,-0.090,-0.090,0.000,0.000,0.000
1640068837185468928,"2021-12-21,06:40:37",10.1.1.6,0.37367796897888184,-0.090,-0.090,-0.090,0.000,0.000,0.000
1640068837557177088,"2021-12-21,06:40:37",10.1.1.6,370,-0.100,-0.100,-0.100,0.000,0.000,0.000
1640068837589843968,"2021-12-21,06:40:37",10.1.1.6,0.4029531478881836,-0.100,-0.100,-0.100,0.000,0.000,0.000
1640068837977958912,"2021-12-21,06:40:37",10.1.1.6,386,-0.110,-0.110,-0.110,0.000,0.000,0.000
1640068838050945024,"2021-12-21,06:40:38",10.1.1.6,0.4594869613647461,-0.110,-0.110,-0.110,0.000,0.000,0.000
1640068838390307072,"2021-12-21,06:40:38",10.1.1.6,338,-0.120,-0.120,-0.120,0.000,0.000,0.000
1640068838419855104,"2021-12-21,06:40:38",10.1.1.6,0.3676280975341797,-0.120,-0.120,-0.120,0.000,0.000,0.000
1640068838812467968,"2021-12-21,06:40:38",10.1.1.6,390,-0.130,-0.130,-0.130,0.000,0.000,0.000
1640068838948317952,"2021-12-21,06:40:38",10.1.1.6,0.5268759727478027,-0.130,-0.130,-0.130,0.000,0.000,0.000
1640068839375296000,"2021-12-21,06:40:39",10.1.1.6,378,-0.140,-0.140,-0.140,0.000,0.000,0.000
1640068839428338944,"2021-12-21,06:40:39",10.1.1.6,0.4317948818206787,-0.140,-0.140,-0.140,0.000,0.000,0.000
1640068839803890944,"2021-12-21,06:40:39",10.1.1.6,365,-0.150,-0.150,-0.150,0.000,0.000,0.000
1640068839876939008,"2021-12-21,06:40:39",10.1.1.6,0.43871092796325684,-0.150,-0.150,-0.150,0.000,0.000,0.000
1640068840204591872,"2021-12-21,06:40:40",10.1.1.6,325,-0.160,-0.160,-0.160,0.000,0.000,0.000
1640068840254700032,"2021-12-21,06:40:40",10.1.1.6,0.3760809898376465,-0.160,-0.160,-0.160,0.000,0.000,0.000
1640068840593147904,"2021-12-21,06:40:40",10.1.1.6,317,-0.170,-0.170,-0.170,0.000,0.000,0.000
1640068840676051968,"2021-12-21,06:40:40",10.1.1.6,0.40039491653442383,-0.170,-0.170,-0.170,0.000,0.000,0.000
1640068840993176064,"2021-12-21,06:40:40",10.1.1.6,315,-0.180,-0.180,-0.180,0.000,0.000,0.000
1640068841116488960,"2021-12-21,06:40:41",10.1.1.6,0.43901491165161133,-0.180,-0.180,-0.180,0.000,0.000,0.000
1640068841462347008,"2021-12-21,06:40:41",10.1.1.6,340,-0.190,-0.190,-0.190,0.000,0.000,0.000
1640068841501526016,"2021-12-21,06:40:41",10.1.1.6,0.3793818950653076,-0.190,-0.190,-0.190,0.000,0.000,0.000
1640068841840944128,"2021-12-21,06:40:41",10.1.1.6,337,-0.200,-0.200,-0.200,0.000,0.000,0.000
1640068841872086016,"2021-12-21,06:40:41",10.1.1.6,0.36896204948425293,-0.200,-0.200,-0.200,0.000,0.000,0.000
1640068842172429056,"2021-12-21,06:40:42",10.1.1.6,298,-0.210,-0.210,-0.210,0.000,0.000,0.000
1640068842250081024,"2021-12-21,06:40:42",10.1.1.6,0.3766021728515625,-0.210,-0.210,-0.210,0.000,0.000,0.000
1640068842598223872,"2021-12-21,06:40:42",10.1.1.6,343,-0.220,-0.220,-0.220,0.000,0.000,0.000
1640068842648585984,"2021-12-21,06:40:42",10.1.1.6,0.3943610191345215,-0.220,-0.220,-0.220,0.000,0.000,0.000
1640068842985598976,"2021-12-21,06:40:42",10.1.1.6,334,-0.230,-0.230,-0.230,0.000,0.000,0.000
1640068843099713024,"2021-12-21,06:40:43",10.1.1.6,0.44708991050720215,-0.230,-0.230,-0.230,0.000,0.000,0.000
1640068843488774912,"2021-12-21,06:40:43",10.1.1.6,383,-0.240,-0.240,-0.240,0.000,0.000,0.000
1640068843560678912,"2021-12-21,06:40:43",10.1.1.6,0.45502400398254395,-0.240,-0.240,-0.240,0.000,0.000,0.000
1640068843887983104,"2021-12-21,06:40:43",10.1.1.6,322,-0.250,-0.250,-0.250,0.000,0.000,0.000
1640068844018380032,"2021-12-21,06:40:44",10.1.1.6,0.45334696769714355,-0.250,-0.250,-0.250,0.000,0.000,0.000
1640068844417582080,"2021-12-21,06:40:44",10.1.1.6,396,-0.260,-0.260,-0.260,0.000,0.000,0.000
1640068844490756096,"2021-12-21,06:40:44",10.1.1.6,0.4695460796356201,-0.260,-0.260,-0.260,0.000,0.000,0.000
1640068844841462016,"2021-12-21,06:40:44",10.1.1.6,349,-0.270,-0.270,-0.270,0.000,0.000,0.000
1640068844963246080,"2021-12-21,06:40:44",10.1.1.6,0.4712960720062256,-0.270,-0.270,-0.270,0.000,0.000,0.000
1640068845386102016,"2021-12-21,06:40:45",10.1.1.6,421,-0.280,-0.280,-0.280,0.000,0.000,0.000
1640068845463314176,"2021-12-21,06:40:45",10.1.1.6,0.49866580963134766,-0.280,-0.280,-0.280,0.000,0.000,0.000
1640068845825192960,"2021-12-21,06:40:45",10.1.1.6,360,-0.290,-0.290,-0.290,0.000,0.000,0.000
1640068845893112064,"2021-12-21,06:40:45",10.1.1.6,0.4282078742980957,-0.290,-0.290,-0.290,0.000,0.000,0.000
1640068846236154112,"2021-12-21,06:40:46",10.1.1.6,341,-0.300,-0.300,-0.300,0.000,0.000,0.000
1640068846287184128,"2021-12-21,06:40:46",10.1.1.6,0.39254307746887207,-0.300,-0.300,-0.300,0.000,0.000,0.000
1640068846633452800,"2021-12-21,06:40:46",10.1.1.6,344,-0.310,-0.310,-0.310,0.000,0.000,0.000
1640068846685324800,"2021-12-21,06:40:46",10.1.1.6,0.3963289260864258,-0.310,-0.310,-0.310,0.000,0.000,0.000
1640068847033186048,"2021-12-21,06:40:47",10.1.1.6,346,-0.320,-0.320,-0.320,0.000,0.000,0.000
1640068847080146176,"2021-12-21,06:40:47",10.1.1.6,0.3930048942565918,-0.320,-0.320,-0.320,0.000,0.000,0.000
1640068847415680768,"2021-12-21,06:40:47",10.1.1.6,332,-0.330,-0.330,-0.330,0.000,0.000,0.000
1640068847469464064,"2021-12-21,06:40:47",10.1.1.6,0.38674402236938477,-0.330,-0.330,-0.330,0.000,0.000,0.000
1640068847780339968,"2021-12-21,06:40:47",10.1.1.6,304,-0.340,-0.340,-0.340,0.000,0.000,0.000
1640068847839319040,"2021-12-21,06:40:47",10.1.1.6,0.3638927936553955,-0.340,-0.340,-0.340,0.000,0.000,0.000
1640068848250147072,"2021-12-21,06:40:48",10.1.1.6,408,-0.350,-0.350,-0.350,0.000,0.000,0.000
1640068848353027072,"2021-12-21,06:40:48",10.1.1.6,0.5114791393280029,-0.350,-0.350,-0.350,0.000,0.000,0.000
1640068848794240000,"2021-12-21,06:40:48",10.1.1.6,439,-0.360,-0.360,-0.360,0.000,0.000,0.000
1640068848865149952,"2021-12-21,06:40:48",10.1.1.6,0.5100970268249512,-0.360,-0.360,-0.360,0.000,0.000,0.000
1640068849233937152,"2021-12-21,06:40:49",10.1.1.6,356,-0.370,-0.370,-0.370,0.000,0.000,0.000
1640068849318875136,"2021-12-21,06:40:49",10.1.1.6,0.4414520263671875,-0.370,-0.370,-0.370,0.000,0.000,0.000
1640068849736339200,"2021-12-21,06:40:49",10.1.1.6,415,-0.380,-0.380,-0.380,0.000,0.000,0.000
1640068849808980992,"2021-12-21,06:40:49",10.1.1.6,0.48837900161743164,-0.380,-0.380,-0.380,0.000,0.000,0.000
1640068850157506048,"2021-12-21,06:40:50",10.1.1.6,346,-0.390,-0.390,-0.390,0.000,0.000,0.000
1640068850170650112,"2021-12-21,06:40:50",10.1.1.6,0.3600800037384033,-0.390,-0.390,-0.390,0.000,0.000,0.000
1640068850559276032,"2021-12-21,06:40:50",10.1.1.6,382,-0.400,-0.400,-0.400,0.000,0.000,0.000
1640068850614798080,"2021-12-21,06:40:50",10.1.1.6,0.4427320957183838,-0.400,-0.400,-0.400,0.000,0.000,0.000
1640068851038789120,"2021-12-21,06:40:51",10.1.1.6,410,-0.410,-0.410,-0.410,0.000,0.000,0.000
1640068851092147968,"2021-12-21,06:40:51",10.1.1.6,0.46431493759155273,-0.410,-0.410,-0.410,0.000,0.000,0.000
1640068851440121856,"2021-12-21,06:40:51",10.1.1.6,337,-0.420,-0.420,-0.420,0.000,0.000,0.000
1640068851516144896,"2021-12-21,06:40:51",10.1.1.6,0.4137239456176758,-0.420,-0.420,-0.420,0.000,0.000,0.000
1640068851902405888,"2021-12-21,06:40:51",10.1.1.6,383,-0.430,-0.430,-0.430,0.000,0.000,0.000
1640068851998036992,"2021-12-21,06:40:51",10.1.1.6,0.4805121421813965,-0.430,-0.430,-0.430,0.000,0.000,0.000
1640068852382479872,"2021-12-21,06:40:52",10.1.1.6,363,-0.440,-0.440,-0.440,0.000,0.000,0.000
1640068852454482176,"2021-12-21,06:40:52",10.1.1.6,0.43595290184020996,-0.440,-0.440,-0.440,0.000,0.000,0.000
1640068852795555072,"2021-12-21,06:40:52",10.1.1.6,339,-0.450,-0.450,-0.450,0.000,0.000,0.000
1640068852865760000,"2021-12-21,06:40:52",10.1.1.6,0.409883975982666,-0.450,-0.450,-0.450,0.000,0.000,0.000
1640068853295670016,"2021-12-21,06:40:53",10.1.1.6,404,-0.460,-0.460,-0.460,0.000,0.000,0.000
1640068853368390912,"2021-12-21,06:40:53",10.1.1.6,0.4774658679962158,-0.460,-0.460,-0.460,0.000,0.000,0.000
1640068853744358912,"2021-12-21,06:40:53",10.1.1.6,372,-0.470,-0.470,-0.470,0.000,0.000,0.000
1640068853808073984,"2021-12-21,06:40:53",10.1.1.6,0.43662595748901367,-0.470,-0.470,-0.470,0.000,0.000,0.000
1640068854155500032,"2021-12-21,06:40:54",10.1.1.6,343,-0.480,-0.480,-0.480,0.000,0.000,0.000
1640068854261400832,"2021-12-21,06:40:54",10.1.1.6,0.44951319694519043,-0.480,-0.480,-0.480,0.000,0.000,0.000
1640068854618948096,"2021-12-21,06:40:54",10.1.1.6,354,-0.490,-0.490,-0.490,0.000,0.000,0.000
1640068854634608128,"2021-12-21,06:40:54",10.1.1.6,0.370319128036499,-0.490,-0.490,-0.490,0.000,0.000,0.000
1640068855006104832,"2021-12-21,06:40:55",10.1.1.6,363,-0.480,-0.480,-0.480,0.000,0.000,0.000
1640068855120771840,"2021-12-21,06:40:55",10.1.1.6,0.47865796089172363,-0.480,-0.480,-0.480,0.000,0.000,0.000
1640068855467796992,"2021-12-21,06:40:55",10.1.1.6,343,-0.470,-0.470,-0.470,0.000,0.000,0.000
1640068855549304064,"2021-12-21,06:40:55",10.1.1.6,0.4249720573425293,-0.470,-0.470,-0.470,0.000,0.000,0.000
1640068855926523904,"2021-12-21,06:40:55",10.1.1.6,374,-0.460,-0.460,-0.460,0.000,0.000,0.000
1640068856001005824,"2021-12-21,06:40:56",10.1.1.6,0.44878411293029785,-0.460,-0.460,-0.460,0.000,0.000,0.000
1640068856347367936,"2021-12-21,06:40:56",10.1.1.6,343,-0.450,-0.450,-0.450,0.000,0.000,0.000
1640068856434568960,"2021-12-21,06:40:56",10.1.1.6,0.4307670593261719,-0.450,-0.450,-0.450,0.000,0.000,0.000
1640068856767108864,"2021-12-21,06:40:56",10.1.1.6,330,-0.440,-0.440,-0.440,0.000,0.000,0.000
1640068856826797056,"2021-12-21,06:40:56",10.1.1.6,0.38989996910095215,-0.440,-0.440,-0.440,0.000,0.000,0.000
1640068857206733824,"2021-12-21,06:40:57",10.1.1.6,373,-0.430,-0.430,-0.430,0.000,0.000,0.000
1640068857334870016,"2021-12-21,06:40:57",10.1.1.6,0.5013279914855957,-0.430,-0.430,-0.430,0.000,0.000,0.000
1640068857789513984,"2021-12-21,06:40:57",10.1.1.6,447,-0.420,-0.420,-0.420,0.000,0.000,0.000
1640068857803600128,"2021-12-21,06:40:57",10.1.1.6,0.46186399459838867,-0.420,-0.420,-0.420,0.000,0.000,0.000
1640068858117204992,"2021-12-21,06:40:58",10.1.1.6,312,-0.410,-0.410,-0.410,0.000,0.000,0.000
1640068858204793856,"2021-12-21,06:40:58",10.1.1.6,0.3997080326080322,-0.410,-0.410,-0.410,0.000,0.000,0.000
1640068858598222080,"2021-12-21,06:40:58",10.1.1.6,383,-0.400,-0.400,-0.400,0.000,0.000,0.000
1640068858636486912,"2021-12-21,06:40:58",10.1.1.6,0.422029972076416,-0.400,-0.400,-0.400,0.000,0.000,0.000
1640068858998819072,"2021-12-21,06:40:58",10.1.1.6,359,-0.390,-0.390,-0.390,0.000,0.000,0.000
1640068859033552896,"2021-12-21,06:40:59",10.1.1.6,0.39438319206237793,-0.390,-0.390,-0.390,0.000,0.000,0.000
1640068859376791040,"2021-12-21,06:40:59",10.1.1.6,340,-0.380,-0.380,-0.380,0.000,0.000,0.000
1640068859478374912,"2021-12-21,06:40:59",10.1.1.6,0.4420919418334961,-0.380,-0.380,-0.380,0.000,0.000,0.000
1640068859841277952,"2021-12-21,06:40:59",10.1.1.6,355,-0.370,-0.370,-0.370,0.000,0.000,0.000
1640068859906696960,"2021-12-21,06:40:59",10.1.1.6,0.42129015922546387,-0.370,-0.370,-0.370,0.000,0.000,0.000
1640068860268030976,"2021-12-21,06:41:00",10.1.1.6,358,-0.360,-0.360,-0.360,0.000,0.000,0.000
1640068860366903040,"2021-12-21,06:41:00",10.1.1.6,0.45786309242248535,-0.360,-0.360,-0.360,0.000,0.000,0.000
1640068860766757888,"2021-12-21,06:41:00",10.1.1.6,397,-0.350,-0.350,-0.350,0.000,0.000,0.000
1640068860891102976,"2021-12-21,06:41:00",10.1.1.6,0.5218560695648193,-0.350,-0.350,-0.350,0.000,0.000,0.000
1640068861296601088,"2021-12-21,06:41:01",10.1.1.6,402,-0.340,-0.340,-0.340,0.000,0.000,0.000
1640068861397650944,"2021-12-21,06:41:01",10.1.1.6,0.5039479732513428,-0.340,-0.340,-0.340,0.000,0.000,0.000
1640068861798909952,"2021-12-21,06:41:01",10.1.1.6,399,-0.330,-0.330,-0.330,0.000,0.000,0.000
1640068861902085120,"2021-12-21,06:41:01",10.1.1.6,0.5028460025787354,-0.330,-0.330,-0.330,0.000,0.000,0.000
1640068862245996032,"2021-12-21,06:41:02",10.1.1.6,342,-0.320,-0.320,-0.320,0.000,0.000,0.000
1640068862313908224,"2021-12-21,06:41:02",10.1.1.6,0.41057300567626953,-0.320,-0.320,-0.320,0.000,0.000,0.000
1640068862685283840,"2021-12-21,06:41:02",10.1.1.6,369,-0.310,-0.310,-0.310,0.000,0.000,0.000
1640068862699768064,"2021-12-21,06:41:02",10.1.1.6,0.38408613204956055,-0.310,-0.310,-0.310,0.000,0.000,0.000
1640068863125356800,"2021-12-21,06:41:03",10.1.1.6,402,-0.300,-0.300,-0.300,0.000,0.000,0.000
1640068863172139008,"2021-12-21,06:41:03",10.1.1.6,0.44974184036254883,-0.300,-0.300,-0.300,0.000,0.000,0.000
1640068863577612032,"2021-12-21,06:41:03",10.1.1.6,404,-0.290,-0.290,-0.290,0.000,0.000,0.000
1640068863601432064,"2021-12-21,06:41:03",10.1.1.6,0.42576003074645996,-0.290,-0.290,-0.290,0.000,0.000,0.000
1640068863993876992,"2021-12-21,06:41:03",10.1.1.6,389,-0.280,-0.280,-0.280,0.000,0.000,0.000
1640068864047790080,"2021-12-21,06:41:04",10.1.1.6,0.44353604316711426,-0.280,-0.280,-0.280,0.000,0.000,0.000
1640068864400423168,"2021-12-21,06:41:04",10.1.1.6,350,-0.270,-0.270,-0.270,0.000,0.000,0.000
1640068864449406976,"2021-12-21,06:41:04",10.1.1.6,0.3992640972137451,-0.270,-0.270,-0.270,0.000,0.000,0.000
1640068864803392768,"2021-12-21,06:41:04",10.1.1.6,347,-0.260,-0.260,-0.260,0.000,0.000,0.000
1640068864874481920,"2021-12-21,06:41:04",10.1.1.6,0.4192008972167969,-0.260,-0.260,-0.260,0.000,0.000,0.000
1640068865282774016,"2021-12-21,06:41:05",10.1.1.6,406,-0.250,-0.250,-0.250,0.000,0.000,0.000
1640068865386099968,"2021-12-21,06:41:05",10.1.1.6,0.5093910694122314,-0.250,-0.250,-0.250,0.000,0.000,0.000
1640068865812105984,"2021-12-21,06:41:05",10.1.1.6,418,-0.240,-0.240,-0.240,0.000,0.000,0.000
1640068865852039168,"2021-12-21,06:41:05",10.1.1.6,0.45885801315307617,-0.240,-0.240,-0.240,0.000,0.000,0.000
1640068866232621824,"2021-12-21,06:41:06",10.1.1.6,360,-0.230,-0.230,-0.230,0.000,0.000,0.000
1640068866250835968,"2021-12-21,06:41:06",10.1.1.6,0.37818002700805664,-0.230,-0.230,-0.230,0.000,0.000,0.000
1640068866620918016,"2021-12-21,06:41:06",10.1.1.6,367,-0.220,-0.220,-0.220,0.000,0.000,0.000
1640068866712381952,"2021-12-21,06:41:06",10.1.1.6,0.45916318893432617,-0.220,-0.220,-0.220,0.000,0.000,0.000
1640068867030620160,"2021-12-21,06:41:07",10.1.1.6,316,-0.210,-0.210,-0.210,0.000,0.000,0.000
1640068867079436032,"2021-12-21,06:41:07",10.1.1.6,0.3654060363769531,-0.210,-0.210,-0.210,0.000,0.000,0.000
1640068867410129920,"2021-12-21,06:41:07",10.1.1.6,324,-0.200,-0.200,-0.200,0.000,0.000,0.000
1640068867501671936,"2021-12-21,06:41:07",10.1.1.6,0.41651105880737305,-0.200,-0.200,-0.200,0.000,0.000,0.000
1640068867892001024,"2021-12-21,06:41:07",10.1.1.6,0.3877289295196533,-0.190,-0.190,-0.190,0.000,0.000,0.000
1640068868229132032,"2021-12-21,06:41:08",10.1.1.6,335,-0.180,-0.180,-0.180,0.000,0.000,0.000
1640068868267736832,"2021-12-21,06:41:08",10.1.1.6,0.374237060546875,-0.180,-0.180,-0.180,0.000,0.000,0.000
1640068868590411008,"2021-12-21,06:41:08",10.1.1.6,320,-0.170,-0.170,-0.170,0.000,0.000,0.000
1640068868668315904,"2021-12-21,06:41:08",10.1.1.6,0.39731812477111816,-0.170,-0.170,-0.170,0.000,0.000,0.000
1640068869019886080,"2021-12-21,06:41:09",10.1.1.6,349,-0.160,-0.160,-0.160,0.000,0.000,0.000
1640068869076780032,"2021-12-21,06:41:09",10.1.1.6,0.40682315826416016,-0.160,-0.160,-0.160,0.000,0.000,0.000
1640068869467245056,"2021-12-21,06:41:09",10.1.1.6,385,-0.150,-0.150,-0.150,0.000,0.000,0.000
1640068869520678144,"2021-12-21,06:41:09",10.1.1.6,0.439129114151001,-0.150,-0.150,-0.150,0.000,0.000,0.000
1640068869871586048,"2021-12-21,06:41:09",10.1.1.6,348,-0.140,-0.140,-0.140,0.000,0.000,0.000
1640068869963303936,"2021-12-21,06:41:09",10.1.1.6,0.44028401374816895,-0.140,-0.140,-0.140,0.000,0.000,0.000
1640068870377274112,"2021-12-21,06:41:10",10.1.1.6,390,-0.130,-0.130,-0.130,0.000,0.000,0.000
1640068870555900928,"2021-12-21,06:41:10",10.1.1.6,0.5694980621337891,-0.130,-0.130,-0.130,0.000,0.000,0.000
1640068870895257856,"2021-12-21,06:41:10",10.1.1.6,335,-0.120,-0.120,-0.120,0.000,0.000,0.000
1640068870949659136,"2021-12-21,06:41:10",10.1.1.6,0.3901989459991455,-0.120,-0.120,-0.120,0.000,0.000,0.000
1640068871328484096,"2021-12-21,06:41:11",10.1.1.6,377,-0.110,-0.110,-0.110,0.000,0.000,0.000
1640068871377462016,"2021-12-21,06:41:11",10.1.1.6,0.4263498783111572,-0.110,-0.110,-0.110,0.000,0.000,0.000
1640068871714368000,"2021-12-21,06:41:11",10.1.1.6,335,-0.100,-0.100,-0.100,0.000,0.000,0.000
1640068871806070016,"2021-12-21,06:41:11",10.1.1.6,0.42699694633483887,-0.100,-0.100,-0.100,0.000,0.000,0.000
1640068872203314944,"2021-12-21,06:41:12",10.1.1.6,383,-0.090,-0.090,-0.090,0.000,0.000,0.000
1640068872303246848,"2021-12-21,06:41:12",10.1.1.6,0.4837009906768799,-0.090,-0.090,-0.090,0.000,0.000,0.000
1640068872622524928,"2021-12-21,06:41:12",10.1.1.6,316,-0.080,-0.080,-0.080,0.000,0.000,0.000
1640068872703340032,"2021-12-21,06:41:12",10.1.1.6,0.3977010250091553,-0.080,-0.080,-0.080,0.000,0.000,0.000
1640068873033783808,"2021-12-21,06:41:13",10.1.1.6,315,-0.070,-0.070,-0.070,0.000,0.000,0.000
1640068873067699968,"2021-12-21,06:41:13",10.1.1.6,0.3499889373779297,-0.070,-0.070,-0.070,0.000,0.000,0.000
1640068873472972032,"2021-12-21,06:41:13",10.1.1.6,400,-0.060,-0.060,-0.060,0.000,0.000,0.000
1640068873544681984,"2021-12-21,06:41:13",10.1.1.6,0.4719409942626953,-0.060,-0.060,-0.060,0.000,0.000,0.000
1640068873931483904,"2021-12-21,06:41:13",10.1.1.6,384,-0.050,-0.050,-0.050,0.000,0.000,0.000
1640068873984542976,"2021-12-21,06:41:13",10.1.1.6,0.43758106231689453,-0.050,-0.050,-0.050,0.000,0.000,0.000
1640068874340342016,"2021-12-21,06:41:14",10.1.1.6,339,-0.040,-0.040,-0.040,0.000,0.000,0.000
1640068874431191040,"2021-12-21,06:41:14",10.1.1.6,0.4302699565887451,-0.040,-0.040,-0.040,0.000,0.000,0.000
1640068874802932992,"2021-12-21,06:41:14",10.1.1.6,370,-0.030,-0.030,-0.030,0.000,0.000,0.000
1640068874903760896,"2021-12-21,06:41:14",10.1.1.6,0.46625804901123047,-0.030,-0.030,-0.030,0.000,0.000,0.000
1640068875289616128,"2021-12-21,06:41:15",10.1.1.6,381,-0.020,-0.020,-0.020,0.000,0.000,0.000
