FedericoMungari/DigitalTwin_service/01_WiredScenario/Output/Output_script/script_rosapi_2_output_robots8_freq0_7.txt
timestamp,date,node,latency,joint_1,joint_2,joint_3,joint_4,joint_5,joint_6
1641207847949219840,2022-01-03-11:04:07,10.1.1.8,175,-0.010,-0.010,-0.010,0.000,0.000,0.000
1641207848139425024,2022-01-03-11:04:08,10.1.1.8,165,-0.020,-0.020,-0.020,0.000,0.000,0.000
1641207848338839040,2022-01-03-11:04:08,10.1.1.8,163,-0.030,-0.030,-0.030,0.000,0.000,0.000
1641207848538216960,2022-01-03-11:04:08,10.1.1.8,162,-0.040,-0.040,-0.040,0.000,0.000,0.000
1641207848747251968,2022-01-03-11:04:08,10.1.1.8,171,-0.050,-0.050,-0.050,0.000,0.000,0.000
1641207848947865856,2022-01-03-11:04:08,10.1.1.8,171,-0.060,-0.060,-0.060,0.000,0.000,0.000
1641207849137422080,2022-01-03-11:04:09,10.1.1.8,159,-0.070,-0.070,-0.070,0.000,0.000,0.000
1641207849341993216,2022-01-03-11:04:09,10.1.1.8,161,-0.080,-0.080,-0.080,0.000,0.000,0.000
1641207849541084928,2022-01-03-11:04:09,10.1.1.8,161,-0.090,-0.090,-0.090,0.000,0.000,0.000
1641207849752672000,2022-01-03-11:04:09,10.1.1.8,167,-0.100,-0.100,-0.100,0.000,0.000,0.000
1641207849976686848,2022-01-03-11:04:09,10.1.1.8,191,-0.110,-0.110,-0.110,0.000,0.000,0.000
1641207850152581888,2022-01-03-11:04:10,10.1.1.8,167,-0.120,-0.120,-0.120,0.000,0.000,0.000
1641207850373984000,2022-01-03-11:04:10,10.1.1.8,187,-0.130,-0.130,-0.130,0.000,0.000,0.000
1641207850557326080,2022-01-03-11:04:10,10.1.1.8,170,-0.140,-0.140,-0.140,0.000,0.000,0.000
1641207850755120896,2022-01-03-11:04:10,10.1.1.8,167,-0.150,-0.150,-0.150,0.000,0.000,0.000
1641207850977294080,2022-01-03-11:04:10,10.1.1.8,189,-0.160,-0.160,-0.160,0.000,0.000,0.000
1641207851157816832,2022-01-03-11:04:11,10.1.1.8,168,-0.170,-0.170,-0.170,0.000,0.000,0.000
1641207851367809024,2022-01-03-11:04:11,10.1.1.8,177,-0.180,-0.180,-0.180,0.000,0.000,0.000
1641207851578145024,2022-01-03-11:04:11,10.1.1.8,187,-0.190,-0.190,-0.190,0.000,0.000,0.000
1641207851770267136,2022-01-03-11:04:11,10.1.1.8,178,-0.200,-0.200,-0.200,0.000,0.000,0.000
1641207851970072064,2022-01-03-11:04:11,10.1.1.8,177,-0.210,-0.210,-0.210,0.000,0.000,0.000
1641207852180179968,2022-01-03-11:04:12,10.1.1.8,187,-0.220,-0.220,-0.220,0.000,0.000,0.000
1641207852370414080,2022-01-03-11:04:12,10.1.1.8,177,-0.230,-0.230,-0.230,0.000,0.000,0.000
1641207852571464960,2022-01-03-11:04:12,10.1.1.8,177,-0.240,-0.240,-0.240,0.000,0.000,0.000
1641207852782778112,2022-01-03-11:04:12,10.1.1.8,187,-0.250,-0.250,-0.250,0.000,0.000,0.000
1641207852972413952,2022-01-03-11:04:12,10.1.1.8,177,-0.260,-0.260,-0.260,0.000,0.000,0.000
1641207853182679040,2022-01-03-11:04:13,10.1.1.8,186,-0.270,-0.270,-0.270,0.000,0.000,0.000
1641207853384939008,2022-01-03-11:04:13,10.1.1.8,188,-0.280,-0.280,-0.280,0.000,0.000,0.000
1641207853574193920,2022-01-03-11:04:13,10.1.1.8,177,-0.290,-0.290,-0.290,0.000,0.000,0.000
1641207853774535936,2022-01-03-11:04:13,10.1.1.8,177,-0.300,-0.300,-0.300,0.000,0.000,0.000
1641207853984775936,2022-01-03-11:04:13,10.1.1.8,186,-0.310,-0.310,-0.310,0.000,0.000,0.000
1641207854184901120,2022-01-03-11:04:14,10.1.1.8,185,-0.320,-0.320,-0.320,0.000,0.000,0.000
1641207854585659904,2022-01-03-11:04:14,10.1.1.8,184,-0.340,-0.340,-0.340,0.000,0.000,0.000
1641207854986376960,2022-01-03-11:04:14,10.1.1.8,184,-0.360,-0.360,-0.360,0.000,0.000,0.000
1641207855196924928,2022-01-03-11:04:15,10.1.1.8,192,-0.370,-0.370,-0.370,0.000,0.000,0.000
1641207855387190016,2022-01-03-11:04:15,10.1.1.8,182,-0.380,-0.380,-0.380,0.000,0.000,0.000
1641207855591506944,2022-01-03-11:04:15,10.1.1.8,185,-0.390,-0.390,-0.390,0.000,0.000,0.000
1641207855797650176,2022-01-03-11:04:15,10.1.1.8,191,-0.400,-0.400,-0.400,0.000,0.000,0.000
1641207855987712000,2022-01-03-11:04:15,10.1.1.8,181,-0.410,-0.410,-0.410,0.000,0.000,0.000
1641207856188851200,2022-01-03-11:04:16,10.1.1.8,181,-0.420,-0.420,-0.420,0.000,0.000,0.000
1641207856398152192,2022-01-03-11:04:16,10.1.1.8,189,-0.430,-0.430,-0.430,0.000,0.000,0.000
1641207856598685952,2022-01-03-11:04:16,10.1.1.8,189,-0.440,-0.440,-0.440,0.000,0.000,0.000
1641207856793945088,2022-01-03-11:04:16,10.1.1.8,184,-0.450,-0.450,-0.450,0.000,0.000,0.000
1641207856998814208,2022-01-03-11:04:16,10.1.1.8,188,-0.460,-0.460,-0.460,0.000,0.000,0.000
1641207857209243136,2022-01-03-11:04:17,10.1.1.8,198,-0.470,-0.470,-0.470,0.000,0.000,0.000
1641207857401840896,2022-01-03-11:04:17,10.1.1.8,190,-0.480,-0.480,-0.480,0.000,0.000,0.000
1641207857609383936,2022-01-03-11:04:17,10.1.1.8,197,-0.490,-0.490,-0.490,0.000,0.000,0.000
1641207857800352000,2022-01-03-11:04:17,10.1.1.8,188,-0.480,-0.480,-0.480,0.000,0.000,0.000
1641207858009670144,2022-01-03-11:04:18,10.1.1.8,196,-0.470,-0.470,-0.470,0.000,0.000,0.000
1641207858199287808,2022-01-03-11:04:18,10.1.1.8,185,-0.460,-0.460,-0.460,0.000,0.000,0.000
1641207858409291008,2022-01-03-11:04:18,10.1.1.8,195,-0.450,-0.450,-0.450,0.000,0.000,0.000
1641207858621139968,2022-01-03-11:04:18,10.1.1.8,187,-0.440,-0.440,-0.440,0.000,0.000,0.000
1641207858819740160,2022-01-03-11:04:18,10.1.1.8,198,-0.430,-0.430,-0.430,0.000,0.000,0.000
1641207859020178176,2022-01-03-11:04:19,10.1.1.8,196,-0.420,-0.420,-0.420,0.000,0.000,0.000
1641207859609998080,2022-01-03-11:04:19,10.1.1.8,184,-0.390,-0.390,-0.390,0.000,0.000,0.000
1641207859820446976,2022-01-03-11:04:19,10.1.1.8,193,-0.380,-0.380,-0.380,0.000,0.000,0.000
1641207860010593792,2022-01-03-11:04:20,10.1.1.8,183,-0.370,-0.370,-0.370,0.000,0.000,0.000
1641207860220498944,2022-01-03-11:04:20,10.1.1.8,193,-0.360,-0.360,-0.360,0.000,0.000,0.000
1641207860419595008,2022-01-03-11:04:20,10.1.1.8,191,-0.350,-0.350,-0.350,0.000,0.000,0.000
1641207860619968000,2022-01-03-11:04:20,10.1.1.8,191,-0.340,-0.340,-0.340,0.000,0.000,0.000
1641207860821554944,2022-01-03-11:04:20,10.1.1.8,191,-0.330,-0.330,-0.330,0.000,0.000,0.000
1641207861020088832,2022-01-03-11:04:21,10.1.1.8,180,-0.320,-0.320,-0.320,0.000,0.000,0.000
1641207861240482048,2022-01-03-11:04:21,10.1.1.8,200,-0.310,-0.310,-0.310,0.000,0.000,0.000
1641207861430417152,2022-01-03-11:04:21,10.1.1.8,186,-0.300,-0.300,-0.300,0.000,0.000,0.000
1641207861639918080,2022-01-03-11:04:21,10.1.1.8,195,-0.290,-0.290,-0.290,0.000,0.000,0.000
1641207861829230080,2022-01-03-11:04:21,10.1.1.8,183,-0.280,-0.280,-0.280,0.000,0.000,0.000
1641207862038867968,2022-01-03-11:04:22,10.1.1.8,192,-0.270,-0.270,-0.270,0.000,0.000,0.000
1641207862239449088,2022-01-03-11:04:22,10.1.1.8,192,-0.260,-0.260,-0.260,0.000,0.000,0.000
1641207862440687872,2022-01-03-11:04:22,10.1.1.8,192,-0.250,-0.250,-0.250,0.000,0.000,0.000
1641207862649158912,2022-01-03-11:04:22,10.1.1.8,200,-0.240,-0.240,-0.240,0.000,0.000,0.000
1641207862839342080,2022-01-03-11:04:22,10.1.1.8,190,-0.230,-0.230,-0.230,0.000,0.000,0.000
1641207863249213952,2022-01-03-11:04:23,10.1.1.8,189,-0.210,-0.210,-0.210,0.000,0.000,0.000
1641207863450086144,2022-01-03-11:04:23,10.1.1.8,188,-0.200,-0.200,-0.200,0.000,0.000,0.000
1641207863658312192,2022-01-03-11:04:23,10.1.1.8,187,-0.190,-0.190,-0.190,0.000,0.000,0.000
1641207863868335872,2022-01-03-11:04:23,10.1.1.8,196,-0.180,-0.180,-0.180,0.000,0.000,0.000
1641207864068346112,2022-01-03-11:04:24,10.1.1.8,195,-0.170,-0.170,-0.170,0.000,0.000,0.000
1641207864268076800,2022-01-03-11:04:24,10.1.1.8,194,-0.160,-0.160,-0.160,0.000,0.000,0.000
1641207864467410944,2022-01-03-11:04:24,10.1.1.8,192,-0.150,-0.150,-0.150,0.000,0.000,0.000
1641207864667601152,2022-01-03-11:04:24,10.1.1.8,192,-0.140,-0.140,-0.140,0.000,0.000,0.000
1641207864857916160,2022-01-03-11:04:24,10.1.1.8,180,-0.130,-0.130,-0.130,0.000,0.000,0.000
1641207865066960128,2022-01-03-11:04:25,10.1.1.8,188,-0.120,-0.120,-0.120,0.000,0.000,0.000
1641207865266611200,2022-01-03-11:04:25,10.1.1.8,187,-0.110,-0.110,-0.110,0.000,0.000,0.000
1641207865468506112,2022-01-03-11:04:25,10.1.1.8,188,-0.100,-0.100,-0.100,0.000,0.000,0.000
1641207865666883072,2022-01-03-11:04:25,10.1.1.8,186,-0.090,-0.090,-0.090,0.000,0.000,0.000
1641207866076539904,2022-01-03-11:04:26,10.1.1.8,194,-0.070,-0.070,-0.070,0.000,0.000,0.000
1641207866465963008,2022-01-03-11:04:26,10.1.1.8,181,-0.050,-0.050,-0.050,0.000,0.000,0.000
1641207866675458048,2022-01-03-11:04:26,10.1.1.8,190,-0.040,-0.040,-0.040,0.000,0.000,0.000
1641207866875782912,2022-01-03-11:04:26,10.1.1.8,189,-0.030,-0.030,-0.030,0.000,0.000,0.000
1641207867065387008,2022-01-03-11:04:27,10.1.1.8,176,-0.020,-0.020,-0.020,0.000,0.000,0.000
1641207867285350144,2022-01-03-11:04:27,10.1.1.8,193,-0.010,-0.010,-0.010,0.000,0.000,0.000
1641207867475318016,2022-01-03-11:04:27,10.1.1.8,183,0.000,0.000,0.000,0.000,0.000,0.000
1641207867685094144,2022-01-03-11:04:27,10.1.1.8,192,-0.010,-0.010,-0.010,0.000,0.000,0.000
1641207867874569984,2022-01-03-11:04:27,10.1.1.8,181,-0.020,-0.020,-0.020,0.000,0.000,0.000
1641207868074432000,2022-01-03-11:04:28,10.1.1.8,180,-0.030,-0.030,-0.030,0.000,0.000,0.000
1641207868276054016,2022-01-03-11:04:28,10.1.1.8,180,-0.040,-0.040,-0.040,0.000,0.000,0.000
1641207868484128000,2022-01-03-11:04:28,10.1.1.8,177,-0.050,-0.050,-0.050,0.000,0.000,0.000
1641207868683469056,2022-01-03-11:04:28,10.1.1.8,175,-0.060,-0.060,-0.060,0.000,0.000,0.000
1641207868893565952,2022-01-03-11:04:28,10.1.1.8,185,-0.070,-0.070,-0.070,0.000,0.000,0.000
1641207869107165952,2022-01-03-11:04:29,10.1.1.8,198,-0.080,-0.080,-0.080,0.000,0.000,0.000
1641207869292978176,2022-01-03-11:04:29,10.1.1.8,179,-0.090,-0.090,-0.090,0.000,0.000,0.000
1641207869492460032,2022-01-03-11:04:29,10.1.1.8,178,-0.100,-0.100,-0.100,0.000,0.000,0.000
1641207869692760064,2022-01-03-11:04:29,10.1.1.8,178,-0.110,-0.110,-0.110,0.000,0.000,0.000
1641207869895569920,2022-01-03-11:04:29,10.1.1.8,180,-0.120,-0.120,-0.120,0.000,0.000,0.000
1641207870102363136,2022-01-03-11:04:30,10.1.1.8,187,-0.130,-0.130,-0.130,0.000,0.000,0.000
1641207870305784832,2022-01-03-11:04:30,10.1.1.8,189,-0.140,-0.140,-0.140,0.000,0.000,0.000
1641207870496797952,2022-01-03-11:04:30,10.1.1.8,178,-0.150,-0.150,-0.150,0.000,0.000,0.000
1641207870701566976,2022-01-03-11:04:30,10.1.1.8,181,-0.160,-0.160,-0.160,0.000,0.000,0.000
1641207870900945920,2022-01-03-11:04:30,10.1.1.8,180,-0.170,-0.170,-0.170,0.000,0.000,0.000
1641207871120436992,2022-01-03-11:04:31,10.1.1.8,199,-0.180,-0.180,-0.180,0.000,0.000,0.000
1641207871299895040,2022-01-03-11:04:31,10.1.1.8,178,-0.190,-0.190,-0.190,0.000,0.000,0.000
1641207871505028096,2022-01-03-11:04:31,10.1.1.8,182,-0.200,-0.200,-0.200,0.000,0.000,0.000
1641207871719841024,2022-01-03-11:04:31,10.1.1.8,196,-0.210,-0.210,-0.210,0.000,0.000,0.000
1641207871913795840,2022-01-03-11:04:31,10.1.1.8,189,-0.220,-0.220,-0.220,0.000,0.000,0.000
1641207872109196032,2022-01-03-11:04:32,10.1.1.8,184,-0.230,-0.230,-0.230,0.000,0.000,0.000
1641207872308561920,2022-01-03-11:04:32,10.1.1.8,183,-0.240,-0.240,-0.240,0.000,0.000,0.000
1641207872508659968,2022-01-03-11:04:32,10.1.1.8,182,-0.250,-0.250,-0.250,0.000,0.000,0.000
1641207872708308992,2022-01-03-11:04:32,10.1.1.8,182,-0.260,-0.260,-0.260,0.000,0.000,0.000
1641207872907706880,2022-01-03-11:04:32,10.1.1.8,181,-0.270,-0.270,-0.270,0.000,0.000,0.000
1641207873120776960,2022-01-03-11:04:33,10.1.1.8,193,-0.280,-0.280,-0.280,0.000,0.000,0.000
1641207873307188992,2022-01-03-11:04:33,10.1.1.8,178,-0.290,-0.290,-0.290,0.000,0.000,0.000
1641207873497132032,2022-01-03-11:04:33,10.1.1.8,167,-0.300,-0.300,-0.300,0.000,0.000,0.000
1641207873717416960,2022-01-03-11:04:33,10.1.1.8,187,-0.310,-0.310,-0.310,0.000,0.000,0.000
1641207873916392960,2022-01-03-11:04:33,10.1.1.8,185,-0.320,-0.320,-0.320,0.000,0.000,0.000
1641207874105585152,2022-01-03-11:04:34,10.1.1.8,174,-0.330,-0.330,-0.330,0.000,0.000,0.000
1641207874306537984,2022-01-03-11:04:34,10.1.1.8,174,-0.340,-0.340,-0.340,0.000,0.000,0.000
1641207874516736000,2022-01-03-11:04:34,10.1.1.8,184,-0.350,-0.350,-0.350,0.000,0.000,0.000
1641207874715027968,2022-01-03-11:04:34,10.1.1.8,181,-0.360,-0.360,-0.360,0.000,0.000,0.000
1641207874904865024,2022-01-03-11:04:34,10.1.1.8,170,-0.370,-0.370,-0.370,0.000,0.000,0.000
1641207875104619008,2022-01-03-11:04:35,10.1.1.8,169,-0.380,-0.380,-0.380,0.000,0.000,0.000
1641207875304773120,2022-01-03-11:04:35,10.1.1.8,168,-0.390,-0.390,-0.390,0.000,0.000,0.000
1641207875504512000,2022-01-03-11:04:35,10.1.1.8,168,-0.400,-0.400,-0.400,0.000,0.000,0.000
1641207875713093120,2022-01-03-11:04:35,10.1.1.8,176,-0.410,-0.410,-0.410,0.000,0.000,0.000
1641207875913249024,2022-01-03-11:04:35,10.1.1.8,175,-0.420,-0.420,-0.420,0.000,0.000,0.000
1641207876103691008,2022-01-03-11:04:36,10.1.1.8,165,-0.430,-0.430,-0.430,0.000,0.000,0.000
1641207876312648960,2022-01-03-11:04:36,10.1.1.8,173,-0.440,-0.440,-0.440,0.000,0.000,0.000
1641207876502579968,2022-01-03-11:04:36,10.1.1.8,163,-0.450,-0.450,-0.450,0.000,0.000,0.000
1641207876702270976,2022-01-03-11:04:36,10.1.1.8,162,-0.460,-0.460,-0.460,0.000,0.000,0.000
1641207876913367040,2022-01-03-11:04:36,10.1.1.8,172,-0.470,-0.470,-0.470,0.000,0.000,0.000
1641207877121635840,2022-01-03-11:04:37,10.1.1.8,179,-0.480,-0.480,-0.480,0.000,0.000,0.000
1641207877331960832,2022-01-03-11:04:37,10.1.1.8,189,-0.490,-0.490,-0.490,0.000,0.000,0.000
1641207877511065088,2022-01-03-11:04:37,10.1.1.8,167,-0.480,-0.480,-0.480,0.000,0.000,0.000
1641207877731543040,2022-01-03-11:04:37,10.1.1.8,187,-0.470,-0.470,-0.470,0.000,0.000,0.000
1641207877920342016,2022-01-03-11:04:37,10.1.1.8,172,-0.460,-0.460,-0.460,0.000,0.000,0.000
1641207878121709056,2022-01-03-11:04:38,10.1.1.8,175,-0.450,-0.450,-0.450,0.000,0.000,0.000
1641207878320202240,2022-01-03-11:04:38,10.1.1.8,173,-0.440,-0.440,-0.440,0.000,0.000,0.000
1641207878520436992,2022-01-03-11:04:38,10.1.1.8,173,-0.430,-0.430,-0.430,0.000,0.000,0.000
1641207878719109120,2022-01-03-11:04:38,10.1.1.8,171,-0.420,-0.420,-0.420,0.000,0.000,0.000
1641207878932760064,2022-01-03-11:04:38,10.1.1.8,184,-0.410,-0.410,-0.410,0.000,0.000,0.000
1641207879108613120,2022-01-03-11:04:39,10.1.1.8,159,-0.400,-0.400,-0.400,0.000,0.000,0.000
1641207879317761024,2022-01-03-11:04:39,10.1.1.8,168,-0.390,-0.390,-0.390,0.000,0.000,0.000
1641207879547565824,2022-01-03-11:04:39,10.1.1.8,197,-0.380,-0.380,-0.380,0.000,0.000,0.000
1641207879717971968,2022-01-03-11:04:39,10.1.1.8,166,-0.370,-0.370,-0.370,0.000,0.000,0.000
1641207879917697024,2022-01-03-11:04:39,10.1.1.8,163,-0.360,-0.360,-0.360,0.000,0.000,0.000
1641207880116926976,2022-01-03-11:04:40,10.1.1.8,162,-0.350,-0.350,-0.350,0.000,0.000,0.000
1641207880328175104,2022-01-03-11:04:40,10.1.1.8,173,-0.340,-0.340,-0.340,0.000,0.000,0.000
1641207880516968960,2022-01-03-11:04:40,10.1.1.8,161,-0.330,-0.330,-0.330,0.000,0.000,0.000
1641207880716651008,2022-01-03-11:04:40,10.1.1.8,160,-0.320,-0.320,-0.320,0.000,0.000,0.000
1641207880926136064,2022-01-03-11:04:40,10.1.1.8,169,-0.310,-0.310,-0.310,0.000,0.000,0.000
1641207881116889088,2022-01-03-11:04:41,10.1.1.8,158,-0.300,-0.300,-0.300,0.000,0.000,0.000
1641207881337037056,2022-01-03-11:04:41,10.1.1.8,178,-0.290,-0.290,-0.290,0.000,0.000,0.000
1641207881518987008,2022-01-03-11:04:41,10.1.1.8,160,-0.280,-0.280,-0.280,0.000,0.000,0.000
1641207881730767872,2022-01-03-11:04:41,10.1.1.8,169,-0.270,-0.270,-0.270,0.000,0.000,0.000
1641207881958040064,2022-01-03-11:04:41,10.1.1.8,195,-0.260,-0.260,-0.260,0.000,0.000,0.000
1641207882131467008,2022-01-03-11:04:42,10.1.1.8,168,-0.250,-0.250,-0.250,0.000,0.000,0.000
1641207882341936128,2022-01-03-11:04:42,10.1.1.8,176,-0.240,-0.240,-0.240,0.000,0.000,0.000
1641207882542756096,2022-01-03-11:04:42,10.1.1.8,176,-0.230,-0.230,-0.230,0.000,0.000,0.000
1641207882743813888,2022-01-03-11:04:42,10.1.1.8,176,-0.220,-0.220,-0.220,0.000,0.000,0.000
1641207882944408064,2022-01-03-11:04:42,10.1.1.8,177,-0.210,-0.210,-0.210,0.000,0.000,0.000
1641207883156713984,2022-01-03-11:04:43,10.1.1.8,189,-0.200,-0.200,-0.200,0.000,0.000,0.000
1641207883356221952,2022-01-03-11:04:43,10.1.1.8,186,-0.190,-0.190,-0.190,0.000,0.000,0.000
1641207883547035904,2022-01-03-11:04:43,10.1.1.8,177,-0.180,-0.180,-0.180,0.000,0.000,0.000
1641207883748080896,2022-01-03-11:04:43,10.1.1.8,177,-0.170,-0.170,-0.170,0.000,0.000,0.000
1641207883958216960,2022-01-03-11:04:43,10.1.1.8,187,-0.160,-0.160,-0.160,0.000,0.000,0.000
1641207884149321984,2022-01-03-11:04:44,10.1.1.8,178,-0.150,-0.150,-0.150,0.000,0.000,0.000
1641207884349426944,2022-01-03-11:04:44,10.1.1.8,177,-0.140,-0.140,-0.140,0.000,0.000,0.000
1641207884560439040,2022-01-03-11:04:44,10.1.1.8,187,-0.130,-0.130,-0.130,0.000,0.000,0.000
1641207884760581888,2022-01-03-11:04:44,10.1.1.8,187,-0.120,-0.120,-0.120,0.000,0.000,0.000
1641207884961177088,2022-01-03-11:04:44,10.1.1.8,186,-0.110,-0.110,-0.110,0.000,0.000,0.000
1641207885155008000,2022-01-03-11:04:45,10.1.1.8,179,-0.100,-0.100,-0.100,0.000,0.000,0.000
1641207885353297920,2022-01-03-11:04:45,10.1.1.8,177,-0.090,-0.090,-0.090,0.000,0.000,0.000
1641207885563147008,2022-01-03-11:04:45,10.1.1.8,187,-0.080,-0.080,-0.080,0.000,0.000,0.000
1641207885753304064,2022-01-03-11:04:45,10.1.1.8,176,-0.070,-0.070,-0.070,0.000,0.000,0.000
1641207885955822080,2022-01-03-11:04:45,10.1.1.8,178,-0.060,-0.060,-0.060,0.000,0.000,0.000
1641207886154896896,2022-01-03-11:04:46,10.1.1.8,177,-0.050,-0.050,-0.050,0.000,0.000,0.000
1641207886366404096,2022-01-03-11:04:46,10.1.1.8,188,-0.040,-0.040,-0.040,0.000,0.000,0.000
1641207886555182080,2022-01-03-11:04:46,10.1.1.8,177,-0.030,-0.030,-0.030,0.000,0.000,0.000
1641207886758508032,2022-01-03-11:04:46,10.1.1.8,179,-0.020,-0.020,-0.020,0.000,0.000,0.000
1641207886965857024,2022-01-03-11:04:46,10.1.1.8,186,-0.010,-0.010,-0.010,0.000,0.000,0.000
1641207887166786816,2022-01-03-11:04:47,10.1.1.8,187,0.000,0.000,0.000,0.000,0.000,0.000
1641207887366595072,2022-01-03-11:04:47,10.1.1.8,186,-0.010,-0.010,-0.010,0.000,0.000,0.000
1641207887567513856,2022-01-03-11:04:47,10.1.1.8,186,-0.020,-0.020,-0.020,0.000,0.000,0.000
1641207887967950080,2022-01-03-11:04:47,10.1.1.8,185,-0.040,-0.040,-0.040,0.000,0.000,0.000
1641207888167865088,2022-01-03-11:04:48,10.1.1.8,182,-0.050,-0.050,-0.050,0.000,0.000,0.000
1641207888768431872,2022-01-03-11:04:48,10.1.1.8,180,-0.080,-0.080,-0.080,0.000,0.000,0.000
1641207888969046016,2022-01-03-11:04:48,10.1.1.8,180,-0.090,-0.090,-0.090,0.000,0.000,0.000
1641207889178767872,2022-01-03-11:04:49,10.1.1.8,189,-0.100,-0.100,-0.100,0.000,0.000,0.000
1641207889378942976,2022-01-03-11:04:49,10.1.1.8,189,-0.110,-0.110,-0.110,0.000,0.000,0.000
1641207889583337984,2022-01-03-11:04:49,10.1.1.8,189,-0.120,-0.120,-0.120,0.000,0.000,0.000
1641207889979259904,2022-01-03-11:04:49,10.1.1.8,182,-0.140,-0.140,-0.140,0.000,0.000,0.000
1641207890179740928,2022-01-03-11:04:50,10.1.1.8,182,-0.150,-0.150,-0.150,0.000,0.000,0.000
1641207890390429952,2022-01-03-11:04:50,10.1.1.8,191,-0.160,-0.160,-0.160,0.000,0.000,0.000
1641207890580000000,2022-01-03-11:04:50,10.1.1.8,180,-0.170,-0.170,-0.170,0.000,0.000,0.000
1641207890789232128,2022-01-03-11:04:50,10.1.1.8,188,-0.180,-0.180,-0.180,0.000,0.000,0.000
1641207891200491008,2022-01-03-11:04:51,10.1.1.8,198,-0.200,-0.200,-0.200,0.000,0.000,0.000
1641207891590192128,2022-01-03-11:04:51,10.1.1.8,186,-0.220,-0.220,-0.220,0.000,0.000,0.000
1641207891789627136,2022-01-03-11:04:51,10.1.1.8,185,-0.230,-0.230,-0.230,0.000,0.000,0.000
1641207892189744896,2022-01-03-11:04:52,10.1.1.8,184,-0.250,-0.250,-0.250,0.000,0.000,0.000
1641207892390526976,2022-01-03-11:04:52,10.1.1.8,184,-0.260,-0.260,-0.260,0.000,0.000,0.000
1641207892800580096,2022-01-03-11:04:52,10.1.1.8,193,-0.280,-0.280,-0.280,0.000,0.000,0.000
1641207892990138880,2022-01-03-11:04:52,10.1.1.8,182,-0.290,-0.290,-0.290,0.000,0.000,0.000
1641207893189910016,2022-01-03-11:04:53,10.1.1.8,182,-0.300,-0.300,-0.300,0.000,0.000,0.000
1641207893389782016,2022-01-03-11:04:53,10.1.1.8,181,-0.310,-0.310,-0.310,0.000,0.000,0.000
1641207893591193088,2022-01-03-11:04:53,10.1.1.8,182,-0.320,-0.320,-0.320,0.000,0.000,0.000
1641207893803298048,2022-01-03-11:04:53,10.1.1.8,194,-0.330,-0.330,-0.330,0.000,0.000,0.000
1641207894009763840,2022-01-03-11:04:54,10.1.1.8,199,-0.340,-0.340,-0.340,0.000,0.000,0.000
1641207894203211008,2022-01-03-11:04:54,10.1.1.8,188,-0.350,-0.350,-0.350,0.000,0.000,0.000
1641207894409682944,2022-01-03-11:04:54,10.1.1.8,194,-0.360,-0.360,-0.360,0.000,0.000,0.000
1641207894601170944,2022-01-03-11:04:54,10.1.1.8,185,-0.370,-0.370,-0.370,0.000,0.000,0.000
1641207894799087104,2022-01-03-11:04:54,10.1.1.8,183,-0.380,-0.380,-0.380,0.000,0.000,0.000
1641207895001225984,2022-01-03-11:04:55,10.1.1.8,184,-0.390,-0.390,-0.390,0.000,0.000,0.000
1641207895209019904,2022-01-03-11:04:55,10.1.1.8,192,-0.400,-0.400,-0.400,0.000,0.000,0.000
1641207895398523136,2022-01-03-11:04:55,10.1.1.8,181,-0.410,-0.410,-0.410,0.000,0.000,0.000
1641207895598646016,2022-01-03-11:04:55,10.1.1.8,180,-0.420,-0.420,-0.420,0.000,0.000,0.000
1641207895798289152,2022-01-03-11:04:55,10.1.1.8,179,-0.430,-0.430,-0.430,0.000,0.000,0.000
1641207895998640896,2022-01-03-11:04:55,10.1.1.8,179,-0.440,-0.440,-0.440,0.000,0.000,0.000
1641207896199789056,2022-01-03-11:04:56,10.1.1.8,180,-0.450,-0.450,-0.450,0.000,0.000,0.000
1641207896408238848,2022-01-03-11:04:56,10.1.1.8,188,-0.460,-0.460,-0.460,0.000,0.000,0.000
1641207896610891008,2022-01-03-11:04:56,10.1.1.8,190,-0.470,-0.470,-0.470,0.000,0.000,0.000
1641207896807303936,2022-01-03-11:04:56,10.1.1.8,186,-0.480,-0.480,-0.480,0.000,0.000,0.000
1641207897217197824,2022-01-03-11:04:57,10.1.1.8,193,-0.480,-0.480,-0.480,0.000,0.000,0.000
1641207897407380992,2022-01-03-11:04:57,10.1.1.8,182,-0.470,-0.470,-0.470,0.000,0.000,0.000
1641207897606693120,2022-01-03-11:04:57,10.1.1.8,181,-0.460,-0.460,-0.460,0.000,0.000,0.000
1641207897821078016,2022-01-03-11:04:57,10.1.1.8,195,-0.450,-0.450,-0.450,0.000,0.000,0.000
1641207898027801088,2022-01-03-11:04:58,10.1.1.8,201,-0.440,-0.440,-0.440,0.000,0.000,0.000
1641207898206458112,2022-01-03-11:04:58,10.1.1.8,178,-0.430,-0.430,-0.430,0.000,0.000,0.000
1641207898416004864,2022-01-03-11:04:58,10.1.1.8,186,-0.420,-0.420,-0.420,0.000,0.000,0.000
1641207898626324992,2022-01-03-11:04:58,10.1.1.8,195,-0.410,-0.410,-0.410,0.000,0.000,0.000
1641207898825382912,2022-01-03-11:04:58,10.1.1.8,194,-0.400,-0.400,-0.400,0.000,0.000,0.000
1641207899025613056,2022-01-03-11:04:59,10.1.1.8,193,-0.390,-0.390,-0.390,0.000,0.000,0.000
1641207899215169792,2022-01-03-11:04:59,10.1.1.8,183,-0.380,-0.380,-0.380,0.000,0.000,0.000
1641207899429510144,2022-01-03-11:04:59,10.1.1.8,196,-0.370,-0.370,-0.370,0.000,0.000,0.000
1641207899614900992,2022-01-03-11:04:59,10.1.1.8,181,-0.360,-0.360,-0.360,0.000,0.000,0.000
1641207899814955008,2022-01-03-11:04:59,10.1.1.8,180,-0.350,-0.350,-0.350,0.000,0.000,0.000
1641207900014870016,2022-01-03-11:05:00,10.1.1.8,179,-0.340,-0.340,-0.340,0.000,0.000,0.000
1641207900214322944,2022-01-03-11:05:00,10.1.1.8,178,-0.330,-0.330,-0.330,0.000,0.000,0.000
1641207900424786944,2022-01-03-11:05:00,10.1.1.8,188,-0.320,-0.320,-0.320,0.000,0.000,0.000
1641207900628967936,2022-01-03-11:05:00,10.1.1.8,191,-0.310,-0.310,-0.310,0.000,0.000,0.000
1641207900813235968,2022-01-03-11:05:00,10.1.1.8,175,-0.300,-0.300,-0.300,0.000,0.000,0.000
1641207901023040000,2022-01-03-11:05:01,10.1.1.8,183,-0.290,-0.290,-0.290,0.000,0.000,0.000
1641207901433185024,2022-01-03-11:05:01,10.1.1.8,191,-0.270,-0.270,-0.270,0.000,0.000,0.000
1641207901832634880,2022-01-03-11:05:01,10.1.1.8,190,-0.250,-0.250,-0.250,0.000,0.000,0.000
1641207902032740096,2022-01-03-11:05:02,10.1.1.8,190,-0.240,-0.240,-0.240,0.000,0.000,0.000
1641207902421646080,2022-01-03-11:05:02,10.1.1.8,177,-0.220,-0.220,-0.220,0.000,0.000,0.000
1641207902622216960,2022-01-03-11:05:02,10.1.1.8,177,-0.210,-0.210,-0.210,0.000,0.000,0.000
1641207902825714176,2022-01-03-11:05:02,10.1.1.8,180,-0.200,-0.200,-0.200,0.000,0.000,0.000
1641207903030682112,2022-01-03-11:05:03,10.1.1.8,184,-0.190,-0.190,-0.190,0.000,0.000,0.000
1641207903232989184,2022-01-03-11:05:03,10.1.1.8,185,-0.180,-0.180,-0.180,0.000,0.000,0.000
1641207903420690176,2022-01-03-11:05:03,10.1.1.8,173,-0.170,-0.170,-0.170,0.000,0.000,0.000
1641207903620044032,2022-01-03-11:05:03,10.1.1.8,172,-0.160,-0.160,-0.160,0.000,0.000,0.000
1641207903820297984,2022-01-03-11:05:03,10.1.1.8,172,-0.150,-0.150,-0.150,0.000,0.000,0.000
1641207904019126784,2022-01-03-11:05:04,10.1.1.8,170,-0.140,-0.140,-0.140,0.000,0.000,0.000
1641207904239516928,2022-01-03-11:05:04,10.1.1.8,190,-0.130,-0.130,-0.130,0.000,0.000,0.000
1641207904423208960,2022-01-03-11:05:04,10.1.1.8,171,-0.120,-0.120,-0.120,0.000,0.000,0.000
1641207904638930944,2022-01-03-11:05:04,10.1.1.8,188,-0.110,-0.110,-0.110,0.000,0.000,0.000
1641207904832729088,2022-01-03-11:05:04,10.1.1.8,181,-0.100,-0.100,-0.100,0.000,0.000,0.000
1641207905028951040,2022-01-03-11:05:05,10.1.1.8,177,-0.090,-0.090,-0.090,0.000,0.000,0.000
1641207905238419968,2022-01-03-11:05:05,10.1.1.8,186,-0.080,-0.080,-0.080,0.000,0.000,0.000
1641207905429667840,2022-01-03-11:05:05,10.1.1.8,176,-0.070,-0.070,-0.070,0.000,0.000,0.000
1641207905637038848,2022-01-03-11:05:05,10.1.1.8,184,-0.060,-0.060,-0.060,0.000,0.000,0.000
1641207905827408128,2022-01-03-11:05:05,10.1.1.8,172,-0.050,-0.050,-0.050,0.000,0.000,0.000
1641207906026788864,2022-01-03-11:05:06,10.1.1.8,171,-0.040,-0.040,-0.040,0.000,0.000,0.000
1641207906226841088,2022-01-03-11:05:06,10.1.1.8,170,-0.030,-0.030,-0.030,0.000,0.000,0.000
1641207906436557056,2022-01-03-11:05:06,10.1.1.8,178,-0.020,-0.020,-0.020,0.000,0.000,0.000
1641207906635880960,2022-01-03-11:05:06,10.1.1.8,176,-0.010,-0.010,-0.010,0.000,0.000,0.000
1641207906845447936,2022-01-03-11:05:06,10.1.1.8,185,0.000,0.000,0.000,0.000,0.000,0.000
1641207907035724032,2022-01-03-11:05:07,10.1.1.8,175,-0.010,-0.010,-0.010,0.000,0.000,0.000
1641207907245300992,2022-01-03-11:05:07,10.1.1.8,184,-0.020,-0.020,-0.020,0.000,0.000,0.000
1641207907435129856,2022-01-03-11:05:07,10.1.1.8,173,-0.030,-0.030,-0.030,0.000,0.000,0.000
1641207907657170176,2022-01-03-11:05:07,10.1.1.8,194,-0.040,-0.040,-0.040,0.000,0.000,0.000
1641207907834341888,2022-01-03-11:05:07,10.1.1.8,170,-0.050,-0.050,-0.050,0.000,0.000,0.000
1641207908045066240,2022-01-03-11:05:08,10.1.1.8,180,-0.060,-0.060,-0.060,0.000,0.000,0.000
1641207908235343104,2022-01-03-11:05:08,10.1.1.8,170,-0.070,-0.070,-0.070,0.000,0.000,0.000
1641207908435075072,2022-01-03-11:05:08,10.1.1.8,169,-0.080,-0.080,-0.080,0.000,0.000,0.000
1641207908852580096,2022-01-03-11:05:08,10.1.1.8,181,-0.100,-0.100,-0.100,0.000,0.000,0.000
1641207909065622016,2022-01-03-11:05:09,10.1.1.8,181,-0.110,-0.110,-0.110,0.000,0.000,0.000
1641207909261967872,2022-01-03-11:05:09,10.1.1.8,177,-0.120,-0.120,-0.120,0.000,0.000,0.000
1641207909455565056,2022-01-03-11:05:09,10.1.1.8,170,-0.130,-0.130,-0.130,0.000,0.000,0.000
1641207909651149056,2022-01-03-11:05:09,10.1.1.8,165,-0.140,-0.140,-0.140,0.000,0.000,0.000
1641207909850929920,2022-01-03-11:05:09,10.1.1.8,165,-0.150,-0.150,-0.150,0.000,0.000,0.000
1641207910050318848,2022-01-03-11:05:10,10.1.1.8,163,-0.160,-0.160,-0.160,0.000,0.000,0.000
1641207910250489088,2022-01-03-11:05:10,10.1.1.8,163,-0.170,-0.170,-0.170,0.000,0.000,0.000
1641207910450095872,2022-01-03-11:05:10,10.1.1.8,162,-0.180,-0.180,-0.180,0.000,0.000,0.000
1641207910671453952,2022-01-03-11:05:10,10.1.1.8,182,-0.190,-0.190,-0.190,0.000,0.000,0.000
1641207910871504896,2022-01-03-11:05:10,10.1.1.8,182,-0.200,-0.200,-0.200,0.000,0.000,0.000
1641207911061778944,2022-01-03-11:05:11,10.1.1.8,171,-0.210,-0.210,-0.210,0.000,0.000,0.000
1641207911258682880,2022-01-03-11:05:11,10.1.1.8,167,-0.220,-0.220,-0.220,0.000,0.000,0.000
1641207911458630144,2022-01-03-11:05:11,10.1.1.8,166,-0.230,-0.230,-0.230,0.000,0.000,0.000
1641207911667613952,2022-01-03-11:05:11,10.1.1.8,174,-0.240,-0.240,-0.240,0.000,0.000,0.000
1641207911868227072,2022-01-03-11:05:11,10.1.1.8,174,-0.250,-0.250,-0.250,0.000,0.000,0.000
1641207912058102016,2022-01-03-11:05:12,10.1.1.8,163,-0.260,-0.260,-0.260,0.000,0.000,0.000
1641207912267791872,2022-01-03-11:05:12,10.1.1.8,173,-0.270,-0.270,-0.270,0.000,0.000,0.000
1641207912456446976,2022-01-03-11:05:12,10.1.1.8,161,-0.280,-0.280,-0.280,0.000,0.000,0.000
1641207912656408064,2022-01-03-11:05:12,10.1.1.8,160,-0.290,-0.290,-0.290,0.000,0.000,0.000
1641207912866534912,2022-01-03-11:05:12,10.1.1.8,170,-0.300,-0.300,-0.300,0.000,0.000,0.000
1641207913055612160,2022-01-03-11:05:13,10.1.1.8,159,-0.310,-0.310,-0.310,0.000,0.000,0.000
1641207913257725952,2022-01-03-11:05:13,10.1.1.8,160,-0.320,-0.320,-0.320,0.000,0.000,0.000
1641207913468226048,2022-01-03-11:05:13,10.1.1.8,170,-0.330,-0.330,-0.330,0.000,0.000,0.000
1641207913654691072,2022-01-03-11:05:13,10.1.1.8,156,-0.340,-0.340,-0.340,0.000,0.000,0.000
1641207913854594048,2022-01-03-11:05:13,10.1.1.8,155,-0.350,-0.350,-0.350,0.000,0.000,0.000
1641207914054490112,2022-01-03-11:05:14,10.1.1.8,155,-0.360,-0.360,-0.360,0.000,0.000,0.000
1641207914265752064,2022-01-03-11:05:14,10.1.1.8,165,-0.370,-0.370,-0.370,0.000,0.000,0.000
1641207914468056832,2022-01-03-11:05:14,10.1.1.8,167,-0.380,-0.380,-0.380,0.000,0.000,0.000
1641207914687959808,2022-01-03-11:05:14,10.1.1.8,186,-0.390,-0.390,-0.390,0.000,0.000,0.000
1641207914870238976,2022-01-03-11:05:14,10.1.1.8,168,-0.400,-0.400,-0.400,0.000,0.000,0.000
1641207915080476160,2022-01-03-11:05:15,10.1.1.8,178,-0.410,-0.410,-0.410,0.000,0.000,0.000
1641207915270185984,2022-01-03-11:05:15,10.1.1.8,167,-0.420,-0.420,-0.420,0.000,0.000,0.000
1641207915477927936,2022-01-03-11:05:15,10.1.1.8,171,-0.430,-0.430,-0.430,0.000,0.000,0.000
1641207915712441088,2022-01-03-11:05:15,10.1.1.8,186,-0.440,-0.440,-0.440,0.000,0.000,0.000
1641207915913528832,2022-01-03-11:05:15,10.1.1.8,187,-0.450,-0.450,-0.450,0.000,0.000,0.000
1641207916096517120,2022-01-03-11:05:16,10.1.1.8,169,-0.460,-0.460,-0.460,0.000,0.000,0.000
1641207916294786048,2022-01-03-11:05:16,10.1.1.8,167,-0.470,-0.470,-0.470,0.000,0.000,0.000
1641207916505723904,2022-01-03-11:05:16,10.1.1.8,176,-0.480,-0.480,-0.480,0.000,0.000,0.000
1641207916696607232,2022-01-03-11:05:16,10.1.1.8,167,-0.490,-0.490,-0.490,0.000,0.000,0.000
1641207916917709056,2022-01-03-11:05:16,10.1.1.8,188,-0.480,-0.480,-0.480,0.000,0.000,0.000
1641207917108032000,2022-01-03-11:05:17,10.1.1.8,177,-0.470,-0.470,-0.470,0.000,0.000,0.000
1641207917308305152,2022-01-03-11:05:17,10.1.1.8,175,-0.460,-0.460,-0.460,0.000,0.000,0.000
1641207917509385216,2022-01-03-11:05:17,10.1.1.8,175,-0.450,-0.450,-0.450,0.000,0.000,0.000
1641207917710149888,2022-01-03-11:05:17,10.1.1.8,176,-0.440,-0.440,-0.440,0.000,0.000,0.000
1641207917920331008,2022-01-03-11:05:17,10.1.1.8,186,-0.430,-0.430,-0.430,0.000,0.000,0.000
1641207918112001024,2022-01-03-11:05:18,10.1.1.8,176,-0.420,-0.420,-0.420,0.000,0.000,0.000
1641207918321729792,2022-01-03-11:05:18,10.1.1.8,185,-0.410,-0.410,-0.410,0.000,0.000,0.000
1641207918512317952,2022-01-03-11:05:18,10.1.1.8,175,-0.400,-0.400,-0.400,0.000,0.000,0.000
1641207918712950016,2022-01-03-11:05:18,10.1.1.8,175,-0.390,-0.390,-0.390,0.000,0.000,0.000
1641207918923080960,2022-01-03-11:05:18,10.1.1.8,185,-0.380,-0.380,-0.380,0.000,0.000,0.000
1641207919123598080,2022-01-03-11:05:19,10.1.1.8,186,-0.370,-0.370,-0.370,0.000,0.000,0.000
1641207919315589888,2022-01-03-11:05:19,10.1.1.8,177,-0.360,-0.360,-0.360,0.000,0.000,0.000
1641207919515479040,2022-01-03-11:05:19,10.1.1.8,176,-0.350,-0.350,-0.350,0.000,0.000,0.000
1641207919717015040,2022-01-03-11:05:19,10.1.1.8,177,-0.340,-0.340,-0.340,0.000,0.000,0.000
1641207919935184128,2022-01-03-11:05:19,10.1.1.8,195,-0.330,-0.330,-0.330,0.000,0.000,0.000
1641207920135202048,2022-01-03-11:05:20,10.1.1.8,194,-0.320,-0.320,-0.320,0.000,0.000,0.000
1641207920335369216,2022-01-03-11:05:20,10.1.1.8,194,-0.310,-0.310,-0.310,0.000,0.000,0.000
1641207920536060160,2022-01-03-11:05:20,10.1.1.8,194,-0.300,-0.300,-0.300,0.000,0.000,0.000
1641207921127556096,2022-01-03-11:05:21,10.1.1.8,183,-0.270,-0.270,-0.270,0.000,0.000,0.000
1641207921528273152,2022-01-03-11:05:21,10.1.1.8,182,-0.250,-0.250,-0.250,0.000,0.000,0.000
1641207921737491968,2022-01-03-11:05:21,10.1.1.8,191,-0.240,-0.240,-0.240,0.000,0.000,0.000
1641207921938582784,2022-01-03-11:05:21,10.1.1.8,192,-0.230,-0.230,-0.230,0.000,0.000,0.000
1641207922127798016,2022-01-03-11:05:22,10.1.1.8,180,-0.220,-0.220,-0.220,0.000,0.000,0.000
1641207922338535936,2022-01-03-11:05:22,10.1.1.8,190,-0.210,-0.210,-0.210,0.000,0.000,0.000
1641207922537677056,2022-01-03-11:05:22,10.1.1.8,188,-0.200,-0.200,-0.200,0.000,0.000,0.000
1641207922748457984,2022-01-03-11:05:22,10.1.1.8,198,-0.190,-0.190,-0.190,0.000,0.000,0.000
1641207922948205824,2022-01-03-11:05:22,10.1.1.8,197,-0.180,-0.180,-0.180,0.000,0.000,0.000
1641207923148185088,2022-01-03-11:05:23,10.1.1.8,196,-0.170,-0.170,-0.170,0.000,0.000,0.000
1641207923348467968,2022-01-03-11:05:23,10.1.1.8,196,-0.160,-0.160,-0.160,0.000,0.000,0.000
1641207923738962944,2022-01-03-11:05:23,10.1.1.8,185,-0.140,-0.140,-0.140,0.000,0.000,0.000
1641207923938960128,2022-01-03-11:05:23,10.1.1.8,184,-0.130,-0.130,-0.130,0.000,0.000,0.000
1641207924139607040,2022-01-03-11:05:24,10.1.1.8,183,-0.120,-0.120,-0.120,0.000,0.000,0.000
1641207924349067008,2022-01-03-11:05:24,10.1.1.8,192,-0.110,-0.110,-0.110,0.000,0.000,0.000
1641207924539869184,2022-01-03-11:05:24,10.1.1.8,182,-0.100,-0.100,-0.100,0.000,0.000,0.000
1641207924739067136,2022-01-03-11:05:24,10.1.1.8,181,-0.090,-0.090,-0.090,0.000,0.000,0.000
1641207924939245824,2022-01-03-11:05:24,10.1.1.8,181,-0.080,-0.080,-0.080,0.000,0.000,0.000
1641207925148982016,2022-01-03-11:05:25,10.1.1.8,190,-0.070,-0.070,-0.070,0.000,0.000,0.000
1641207925339170816,2022-01-03-11:05:25,10.1.1.8,179,-0.060,-0.060,-0.060,0.000,0.000,0.000
1641207925549254912,2022-01-03-11:05:25,10.1.1.8,188,-0.050,-0.050,-0.050,0.000,0.000,0.000
1641207925759814912,2022-01-03-11:05:25,10.1.1.8,198,-0.040,-0.040,-0.040,0.000,0.000,0.000
1641207925939814144,2022-01-03-11:05:25,10.1.1.8,177,-0.030,-0.030,-0.030,0.000,0.000,0.000
1641207926360406016,2022-01-03-11:05:26,10.1.1.8,197,-0.010,-0.010,-0.010,0.000,0.000,0.000
1641207926558516992,2022-01-03-11:05:26,10.1.1.8,194,0.000,0.000,0.000,0.000,0.000,0.000
1641207926758622976,2022-01-03-11:05:26,10.1.1.8,193,-0.010,-0.010,-0.010,0.000,0.000,0.000
1641207926948704000,2022-01-03-11:05:26,10.1.1.8,183,-0.020,-0.020,-0.020,0.000,0.000,0.000
1641207927350807808,2022-01-03-11:05:27,10.1.1.8,183,-0.040,-0.040,-0.040,0.000,0.000,0.000
1641207927548796928,2022-01-03-11:05:27,10.1.1.8,180,-0.050,-0.050,-0.050,0.000,0.000,0.000
1641207927766370048,2022-01-03-11:05:27,10.1.1.8,192,-0.060,-0.060,-0.060,0.000,0.000,0.000
1641207927960356096,2022-01-03-11:05:27,10.1.1.8,189,-0.070,-0.070,-0.070,0.000,0.000,0.000
1641207928157964032,2022-01-03-11:05:28,10.1.1.8,185,-0.080,-0.080,-0.080,0.000,0.000,0.000
1641207928367943168,2022-01-03-11:05:28,10.1.1.8,194,-0.090,-0.090,-0.090,0.000,0.000,0.000
1641207928567639040,2022-01-03-11:05:28,10.1.1.8,193,-0.100,-0.100,-0.100,0.000,0.000,0.000
1641207928757509120,2022-01-03-11:05:28,10.1.1.8,182,-0.110,-0.110,-0.110,0.000,0.000,0.000
1641207928967211008,2022-01-03-11:05:28,10.1.1.8,191,-0.120,-0.120,-0.120,0.000,0.000,0.000
1641207929156892160,2022-01-03-11:05:29,10.1.1.8,181,-0.130,-0.130,-0.130,0.000,0.000,0.000
1641207929358192896,2022-01-03-11:05:29,10.1.1.8,180,-0.140,-0.140,-0.140,0.000,0.000,0.000
1641207929566791936,2022-01-03-11:05:29,10.1.1.8,188,-0.150,-0.150,-0.150,0.000,0.000,0.000
1641207929766897920,2022-01-03-11:05:29,10.1.1.8,188,-0.160,-0.160,-0.160,0.000,0.000,0.000
1641207929967025152,2022-01-03-11:05:29,10.1.1.8,187,-0.170,-0.170,-0.170,0.000,0.000,0.000
1641207930156611072,2022-01-03-11:05:30,10.1.1.8,177,-0.180,-0.180,-0.180,0.000,0.000,0.000
1641207930366568192,2022-01-03-11:05:30,10.1.1.8,186,-0.190,-0.190,-0.190,0.000,0.000,0.000
1641207930568252160,2022-01-03-11:05:30,10.1.1.8,187,-0.200,-0.200,-0.200,0.000,0.000,0.000
1641207930766195968,2022-01-03-11:05:30,10.1.1.8,185,-0.210,-0.210,-0.210,0.000,0.000,0.000
1641207931366092800,2022-01-03-11:05:31,10.1.1.8,183,-0.240,-0.240,-0.240,0.000,0.000,0.000
1641207931565648128,2022-01-03-11:05:31,10.1.1.8,182,-0.250,-0.250,-0.250,0.000,0.000,0.000
1641207931964706048,2022-01-03-11:05:31,10.1.1.8,180,-0.270,-0.270,-0.270,0.000,0.000,0.000
1641207932174848000,2022-01-03-11:05:32,10.1.1.8,180,-0.280,-0.280,-0.280,0.000,0.000,0.000
1641207932374936064,2022-01-03-11:05:32,10.1.1.8,177,-0.290,-0.290,-0.290,0.000,0.000,0.000
1641207932575337984,2022-01-03-11:05:32,10.1.1.8,177,-0.300,-0.300,-0.300,0.000,0.000,0.000
1641207932774603008,2022-01-03-11:05:32,10.1.1.8,176,-0.310,-0.310,-0.310,0.000,0.000,0.000
1641207932975083008,2022-01-03-11:05:32,10.1.1.8,176,-0.320,-0.320,-0.320,0.000,0.000,0.000
1641207933183305984,2022-01-03-11:05:33,10.1.1.8,183,-0.330,-0.330,-0.330,0.000,0.000,0.000
1641207933394379008,2022-01-03-11:05:33,10.1.1.8,194,-0.340,-0.340,-0.340,0.000,0.000,0.000
1641207933593348096,2022-01-03-11:05:33,10.1.1.8,192,-0.350,-0.350,-0.350,0.000,0.000,0.000
1641207933795237120,2022-01-03-11:05:33,10.1.1.8,192,-0.360,-0.360,-0.360,0.000,0.000,0.000
1641207933982682112,2022-01-03-11:05:33,10.1.1.8,181,-0.370,-0.370,-0.370,0.000,0.000,0.000
1641207934202508032,2022-01-03-11:05:34,10.1.1.8,200,-0.380,-0.380,-0.380,0.000,0.000,0.000
1641207934382217984,2022-01-03-11:05:34,10.1.1.8,179,-0.390,-0.390,-0.390,0.000,0.000,0.000
1641207934581849088,2022-01-03-11:05:34,10.1.1.8,178,-0.400,-0.400,-0.400,0.000,0.000,0.000
1641207934781033984,2022-01-03-11:05:34,10.1.1.8,177,-0.410,-0.410,-0.410,0.000,0.000,0.000
1641207935001501184,2022-01-03-11:05:35,10.1.1.8,196,-0.420,-0.420,-0.420,0.000,0.000,0.000
1641207935201873152,2022-01-03-11:05:35,10.1.1.8,196,-0.430,-0.430,-0.430,0.000,0.000,0.000
1641207935380667904,2022-01-03-11:05:35,10.1.1.8,174,-0.440,-0.440,-0.440,0.000,0.000,0.000
1641207935580826112,2022-01-03-11:05:35,10.1.1.8,174,-0.450,-0.450,-0.450,0.000,0.000,0.000
1641207935791394048,2022-01-03-11:05:35,10.1.1.8,184,-0.460,-0.460,-0.460,0.000,0.000,0.000
1641207935990767872,2022-01-03-11:05:35,10.1.1.8,183,-0.470,-0.470,-0.470,0.000,0.000,0.000
1641207936189814016,2022-01-03-11:05:36,10.1.1.8,182,-0.480,-0.480,-0.480,0.000,0.000,0.000
1641207936389456896,2022-01-03-11:05:36,10.1.1.8,180,-0.490,-0.490,-0.490,0.000,0.000,0.000
1641207936599651072,2022-01-03-11:05:36,10.1.1.8,189,-0.480,-0.480,-0.480,0.000,0.000,0.000
1641207936788934912,2022-01-03-11:05:36,10.1.1.8,178,-0.470,-0.470,-0.470,0.000,0.000,0.000
1641207936999085056,2022-01-03-11:05:36,10.1.1.8,188,-0.460,-0.460,-0.460,0.000,0.000,0.000
1641207937188546048,2022-01-03-11:05:37,10.1.1.8,177,-0.450,-0.450,-0.450,0.000,0.000,0.000
1641207937390275840,2022-01-03-11:05:37,10.1.1.8,177,-0.440,-0.440,-0.440,0.000,0.000,0.000
1641207937588124160,2022-01-03-11:05:37,10.1.1.8,175,-0.430,-0.430,-0.430,0.000,0.000,0.000
1641207937789079808,2022-01-03-11:05:37,10.1.1.8,175,-0.420,-0.420,-0.420,0.000,0.000,0.000
1641207937997325056,2022-01-03-11:05:37,10.1.1.8,183,-0.410,-0.410,-0.410,0.000,0.000,0.000
1641207938187153152,2022-01-03-11:05:38,10.1.1.8,173,-0.400,-0.400,-0.400,0.000,0.000,0.000
1641207938396136960,2022-01-03-11:05:38,10.1.1.8,181,-0.390,-0.390,-0.390,0.000,0.000,0.000
1641207938597417216,2022-01-03-11:05:38,10.1.1.8,182,-0.380,-0.380,-0.380,0.000,0.000,0.000
1641207938786341888,2022-01-03-11:05:38,10.1.1.8,171,-0.370,-0.370,-0.370,0.000,0.000,0.000
1641207938995533824,2022-01-03-11:05:38,10.1.1.8,179,-0.360,-0.360,-0.360,0.000,0.000,0.000
1641207939195435008,2022-01-03-11:05:39,10.1.1.8,179,-0.350,-0.350,-0.350,0.000,0.000,0.000
1641207939395955200,2022-01-03-11:05:39,10.1.1.8,178,-0.340,-0.340,-0.340,0.000,0.000,0.000
1641207939586322944,2022-01-03-11:05:39,10.1.1.8,166,-0.330,-0.330,-0.330,0.000,0.000,0.000
1641207939795233024,2022-01-03-11:05:39,10.1.1.8,174,-0.320,-0.320,-0.320,0.000,0.000,0.000
1641207939985198848,2022-01-03-11:05:39,10.1.1.8,164,-0.310,-0.310,-0.310,0.000,0.000,0.000
1641207940194330880,2022-01-03-11:05:40,10.1.1.8,172,-0.300,-0.300,-0.300,0.000,0.000,0.000
1641207940405016064,2022-01-03-11:05:40,10.1.1.8,182,-0.290,-0.290,-0.290,0.000,0.000,0.000
1641207940594181120,2022-01-03-11:05:40,10.1.1.8,170,-0.280,-0.280,-0.280,0.000,0.000,0.000
1641207940793623808,2022-01-03-11:05:40,10.1.1.8,166,-0.270,-0.270,-0.270,0.000,0.000,0.000
1641207941004032000,2022-01-03-11:05:41,10.1.1.8,176,-0.260,-0.260,-0.260,0.000,0.000,0.000
1641207941192562944,2022-01-03-11:05:41,10.1.1.8,164,-0.250,-0.250,-0.250,0.000,0.000,0.000
1641207941392641024,2022-01-03-11:05:41,10.1.1.8,164,-0.240,-0.240,-0.240,0.000,0.000,0.000
1641207941602508032,2022-01-03-11:05:41,10.1.1.8,173,-0.230,-0.230,-0.230,0.000,0.000,0.000
1641207941792115968,2022-01-03-11:05:41,10.1.1.8,162,-0.220,-0.220,-0.220,0.000,0.000,0.000
1641207942011837952,2022-01-03-11:05:42,10.1.1.8,181,-0.210,-0.210,-0.210,0.000,0.000,0.000
1641207942201091072,2022-01-03-11:05:42,10.1.1.8,171,-0.200,-0.200,-0.200,0.000,0.000,0.000
1641207942401641984,2022-01-03-11:05:42,10.1.1.8,170,-0.190,-0.190,-0.190,0.000,0.000,0.000
1641207942602776064,2022-01-03-11:05:42,10.1.1.8,171,-0.180,-0.180,-0.180,0.000,0.000,0.000
1641207942802231040,2022-01-03-11:05:42,10.1.1.8,168,-0.170,-0.170,-0.170,0.000,0.000,0.000
1641207943009915136,2022-01-03-11:05:43,10.1.1.8,171,-0.160,-0.160,-0.160,0.000,0.000,0.000
1641207943211803904,2022-01-03-11:05:43,10.1.1.8,172,-0.150,-0.150,-0.150,0.000,0.000,0.000
1641207943418824960,2022-01-03-11:05:43,10.1.1.8,179,-0.140,-0.140,-0.140,0.000,0.000,0.000
1641207943608994048,2022-01-03-11:05:43,10.1.1.8,168,-0.130,-0.130,-0.130,0.000,0.000,0.000
1641207943818038016,2022-01-03-11:05:43,10.1.1.8,176,-0.120,-0.120,-0.120,0.000,0.000,0.000
1641207944019390976,2022-01-03-11:05:44,10.1.1.8,177,-0.110,-0.110,-0.110,0.000,0.000,0.000
1641207944227618816,2022-01-03-11:05:44,10.1.1.8,185,-0.100,-0.100,-0.100,0.000,0.000,0.000
1641207944417413888,2022-01-03-11:05:44,10.1.1.8,174,-0.090,-0.090,-0.090,0.000,0.000,0.000
1641207944616903936,2022-01-03-11:05:44,10.1.1.8,173,-0.080,-0.080,-0.080,0.000,0.000,0.000
1641207944806740992,2022-01-03-11:05:44,10.1.1.8,159,-0.070,-0.070,-0.070,0.000,0.000,0.000
1641207945016248064,2022-01-03-11:05:45,10.1.1.8,163,-0.060,-0.060,-0.060,0.000,0.000,0.000
1641207945226711040,2022-01-03-11:05:45,10.1.1.8,173,-0.050,-0.050,-0.050,0.000,0.000,0.000
1641207945426595072,2022-01-03-11:05:45,10.1.1.8,172,-0.040,-0.040,-0.040,0.000,0.000,0.000
1641207945625044224,2022-01-03-11:05:45,10.1.1.8,170,-0.030,-0.030,-0.030,0.000,0.000,0.000
1641207945815912960,2022-01-03-11:05:45,10.1.1.8,160,-0.020,-0.020,-0.020,0.000,0.000,0.000
1641207946015661056,2022-01-03-11:05:46,10.1.1.8,159,-0.010,-0.010,-0.010,0.000,0.000,0.000
1641207946216523776,2022-01-03-11:05:46,10.1.1.8,159,0.000,0.000,0.000,0.000,0.000,0.000
1641207946417277184,2022-01-03-11:05:46,10.1.1.8,159,-0.010,-0.010,-0.010,0.000,0.000,0.000
1641207946619521024,2022-01-03-11:05:46,10.1.1.8,160,-0.020,-0.020,-0.020,0.000,0.000,0.000
1641207946820847104,2022-01-03-11:05:46,10.1.1.8,161,-0.030,-0.030,-0.030,0.000,0.000,0.000
1641207947036326912,2022-01-03-11:05:47,10.1.1.8,176,-0.040,-0.040,-0.040,0.000,0.000,0.000
1641207947241314816,2022-01-03-11:05:47,10.1.1.8,180,-0.050,-0.050,-0.050,0.000,0.000,0.000
1641207947442518016,2022-01-03-11:05:47,10.1.1.8,181,-0.060,-0.060,-0.060,0.000,0.000,0.000
1641207947655035904,2022-01-03-11:05:47,10.1.1.8,192,-0.070,-0.070,-0.070,0.000,0.000,0.000
1641207947843949056,2022-01-03-11:05:47,10.1.1.8,180,-0.080,-0.080,-0.080,0.000,0.000,0.000
1641207948045438976,2022-01-03-11:05:48,10.1.1.8,181,-0.090,-0.090,-0.090,0.000,0.000,0.000
1641207948245369856,2022-01-03-11:05:48,10.1.1.8,181,-0.100,-0.100,-0.100,0.000,0.000,0.000
1641207948446265856,2022-01-03-11:05:48,10.1.1.8,181,-0.110,-0.110,-0.110,0.000,0.000,0.000
1641207948657169152,2022-01-03-11:05:48,10.1.1.8,192,-0.120,-0.120,-0.120,0.000,0.000,0.000
1641207948881315072,2022-01-03-11:05:48,10.1.1.8,-10,-0.130,-0.130,-0.130,0.000,0.000,0.000
1641207949269052928,2022-01-03-11:05:49,10.1.1.8,187,-0.150,-0.150,-0.150,0.000,0.000,0.000
1641207949459834112,2022-01-03-11:05:49,10.1.1.8,177,-0.160,-0.160,-0.160,0.000,0.000,0.000
1641207949679980032,2022-01-03-11:05:49,10.1.1.8,197,-0.170,-0.170,-0.170,0.000,0.000,0.000
1641207949861118976,2022-01-03-11:05:49,10.1.1.8,177,-0.180,-0.180,-0.180,0.000,0.000,0.000
1641207950082521856,2022-01-03-11:05:50,10.1.1.8,198,-0.190,-0.190,-0.190,0.000,0.000,0.000
1641207950262490112,2022-01-03-11:05:50,10.1.1.8,178,-0.200,-0.200,-0.200,0.000,0.000,0.000
1641207950482708992,2022-01-03-11:05:50,10.1.1.8,197,-0.210,-0.210,-0.210,0.000,0.000,0.000
1641207950682857984,2022-01-03-11:05:50,10.1.1.8,197,-0.220,-0.220,-0.220,0.000,0.000,0.000
1641207950884183808,2022-01-03-11:05:50,10.1.1.8,197,-0.230,-0.230,-0.230,0.000,0.000,0.000
1641207951074278144,2022-01-03-11:05:51,10.1.1.8,187,-0.240,-0.240,-0.240,0.000,0.000,0.000
1641207951265486080,2022-01-03-11:05:51,10.1.1.8,177,-0.250,-0.250,-0.250,0.000,0.000,0.000
1641207951476649984,2022-01-03-11:05:51,10.1.1.8,188,-0.260,-0.260,-0.260,0.000,0.000,0.000
1641207951676755968,2022-01-03-11:05:51,10.1.1.8,187,-0.270,-0.270,-0.270,0.000,0.000,0.000
1641207951877356032,2022-01-03-11:05:51,10.1.1.8,184,-0.280,-0.280,-0.280,0.000,0.000,0.000
1641207952079725056,2022-01-03-11:05:52,10.1.1.8,186,-0.290,-0.290,-0.290,0.000,0.000,0.000
1641207952276284928,2022-01-03-11:05:52,10.1.1.8,182,-0.300,-0.300,-0.300,0.000,0.000,0.000
1641207952487564032,2022-01-03-11:05:52,10.1.1.8,192,-0.310,-0.310,-0.310,0.000,0.000,0.000
1641207952677208064,2022-01-03-11:05:52,10.1.1.8,181,-0.320,-0.320,-0.320,0.000,0.000,0.000
1641207952877424896,2022-01-03-11:05:52,10.1.1.8,181,-0.330,-0.330,-0.330,0.000,0.000,0.000
1641207953086962944,2022-01-03-11:05:53,10.1.1.8,189,-0.340,-0.340,-0.340,0.000,0.000,0.000
1641207953277800960,2022-01-03-11:05:53,10.1.1.8,180,-0.350,-0.350,-0.350,0.000,0.000,0.000
1641207953487984896,2022-01-03-11:05:53,10.1.1.8,189,-0.360,-0.360,-0.360,0.000,0.000,0.000
1641207953696659200,2022-01-03-11:05:53,10.1.1.8,197,-0.370,-0.370,-0.370,0.000,0.000,0.000
1641207954098061056,2022-01-03-11:05:54,10.1.1.8,194,-0.390,-0.390,-0.390,0.000,0.000,0.000
1641207954498994176,2022-01-03-11:05:54,10.1.1.8,194,-0.410,-0.410,-0.410,0.000,0.000,0.000
1641207954698306048,2022-01-03-11:05:54,10.1.1.8,193,-0.420,-0.420,-0.420,0.000,0.000,0.000
1641207954888513024,2022-01-03-11:05:54,10.1.1.8,182,-0.430,-0.430,-0.430,0.000,0.000,0.000
1641207955098808064,2022-01-03-11:05:55,10.1.1.8,192,-0.440,-0.440,-0.440,0.000,0.000,0.000
1641207955299248896,2022-01-03-11:05:55,10.1.1.8,192,-0.450,-0.450,-0.450,0.000,0.000,0.000
1641207955489584896,2022-01-03-11:05:55,10.1.1.8,182,-0.460,-0.460,-0.460,0.000,0.000,0.000
1641207955689466112,2022-01-03-11:05:55,10.1.1.8,182,-0.470,-0.470,-0.470,0.000,0.000,0.000
1641207955896875008,2022-01-03-11:05:55,10.1.1.8,189,-0.480,-0.480,-0.480,0.000,0.000,0.000
1641207956099513088,2022-01-03-11:05:56,10.1.1.8,191,-0.490,-0.490,-0.490,0.000,0.000,0.000
1641207956488979968,2022-01-03-11:05:56,10.1.1.8,179,-0.470,-0.470,-0.470,0.000,0.000,0.000
1641207956699891968,2022-01-03-11:05:56,10.1.1.8,190,-0.460,-0.460,-0.460,0.000,0.000,0.000
1641207956899240960,2022-01-03-11:05:56,10.1.1.8,189,-0.450,-0.450,-0.450,0.000,0.000,0.000
1641207957108968960,2022-01-03-11:05:57,10.1.1.8,198,-0.440,-0.440,-0.440,0.000,0.000,0.000
1641207957309134848,2022-01-03-11:05:57,10.1.1.8,197,-0.430,-0.430,-0.430,0.000,0.000,0.000
1641207957499277056,2022-01-03-11:05:57,10.1.1.8,187,-0.420,-0.420,-0.420,0.000,0.000,0.000
1641207957699339008,2022-01-03-11:05:57,10.1.1.8,184,-0.410,-0.410,-0.410,0.000,0.000,0.000
1641207957908814848,2022-01-03-11:05:57,10.1.1.8,193,-0.400,-0.400,-0.400,0.000,0.000,0.000
1641207958099803904,2022-01-03-11:05:58,10.1.1.8,183,-0.390,-0.390,-0.390,0.000,0.000,0.000
1641207958309443840,2022-01-03-11:05:58,10.1.1.8,191,-0.380,-0.380,-0.380,0.000,0.000,0.000
1641207958501935872,2022-01-03-11:05:58,10.1.1.8,183,-0.370,-0.370,-0.370,0.000,0.000,0.000
1641207958699132928,2022-01-03-11:05:58,10.1.1.8,180,-0.360,-0.360,-0.360,0.000,0.000,0.000
1641207958909303808,2022-01-03-11:05:58,10.1.1.8,188,-0.350,-0.350,-0.350,0.000,0.000,0.000
1641207959119107072,2022-01-03-11:05:59,10.1.1.8,198,-0.340,-0.340,-0.340,0.000,0.000,0.000
1641207959318964992,2022-01-03-11:05:59,10.1.1.8,197,-0.330,-0.330,-0.330,0.000,0.000,0.000
1641207959518683904,2022-01-03-11:05:59,10.1.1.8,196,-0.320,-0.320,-0.320,0.000,0.000,0.000
1641207959719628032,2022-01-03-11:05:59,10.1.1.8,197,-0.310,-0.310,-0.310,0.000,0.000,0.000
1641207959919131904,2022-01-03-11:05:59,10.1.1.8,196,-0.300,-0.300,-0.300,0.000,0.000,0.000
1641207960101111808,2022-01-03-11:06:00,10.1.1.8,177,-0.290,-0.290,-0.290,0.000,0.000,0.000
1641207960313039104,2022-01-03-11:06:00,10.1.1.8,182,-0.280,-0.280,-0.280,0.000,0.000,0.000
1641207960520545024,2022-01-03-11:06:00,10.1.1.8,190,-0.270,-0.270,-0.270,0.000,0.000,0.000
1641207960728354816,2022-01-03-11:06:00,10.1.1.8,196,-0.260,-0.260,-0.260,0.000,0.000,0.000
1641207960928509952,2022-01-03-11:06:00,10.1.1.8,195,-0.250,-0.250,-0.250,0.000,0.000,0.000
1641207961118608896,2022-01-03-11:06:01,10.1.1.8,184,-0.240,-0.240,-0.240,0.000,0.000,0.000
1641207961317713920,2022-01-03-11:06:01,10.1.1.8,182,-0.230,-0.230,-0.230,0.000,0.000,0.000
1641207961517699840,2022-01-03-11:06:01,10.1.1.8,181,-0.220,-0.220,-0.220,0.000,0.000,0.000
1641207961727777024,2022-01-03-11:06:01,10.1.1.8,190,-0.210,-0.210,-0.210,0.000,0.000,0.000
1641207961927104000,2022-01-03-11:06:01,10.1.1.8,189,-0.200,-0.200,-0.200,0.000,0.000,0.000
1641207962117000192,2022-01-03-11:06:02,10.1.1.8,179,-0.190,-0.190,-0.190,0.000,0.000,0.000
1641207962327155200,2022-01-03-11:06:02,10.1.1.8,188,-0.180,-0.180,-0.180,0.000,0.000,0.000
1641207962526017792,2022-01-03-11:06:02,10.1.1.8,186,-0.170,-0.170,-0.170,0.000,0.000,0.000
1641207962927143936,2022-01-03-11:06:02,10.1.1.8,185,-0.150,-0.150,-0.150,0.000,0.000,0.000
1641207963129568000,2022-01-03-11:06:03,10.1.1.8,188,-0.140,-0.140,-0.140,0.000,0.000,0.000
1641207963525574912,2022-01-03-11:06:03,10.1.1.8,183,-0.120,-0.120,-0.120,0.000,0.000,0.000
1641207963934766080,2022-01-03-11:06:03,10.1.1.8,190,-0.100,-0.100,-0.100,0.000,0.000,0.000
1641207964135102976,2022-01-03-11:06:04,10.1.1.8,190,-0.090,-0.090,-0.090,0.000,0.000,0.000
1641207964339246080,2022-01-03-11:06:04,10.1.1.8,194,-0.080,-0.080,-0.080,0.000,0.000,0.000
1641207964539983104,2022-01-03-11:06:04,10.1.1.8,194,-0.070,-0.070,-0.070,0.000,0.000,0.000
1641207964734228992,2022-01-03-11:06:04,10.1.1.8,188,-0.060,-0.060,-0.060,0.000,0.000,0.000
1641207964934988032,2022-01-03-11:06:04,10.1.1.8,188,-0.050,-0.050,-0.050,0.000,0.000,0.000
1641207965125220096,2022-01-03-11:06:05,10.1.1.8,178,-0.040,-0.040,-0.040,0.000,0.000,0.000
1641207965334203904,2022-01-03-11:06:05,10.1.1.8,186,-0.030,-0.030,-0.030,0.000,0.000,0.000
1641207965523900928,2022-01-03-11:06:05,10.1.1.8,176,-0.020,-0.020,-0.020,0.000,0.000,0.000
1641207965743560960,2022-01-03-11:06:05,10.1.1.8,195,-0.010,-0.010,-0.010,0.000,0.000,0.000
1641207965924833024,2022-01-03-11:06:05,10.1.1.8,175,-0.000,-0.000,-0.000,0.000,0.000,0.000
1641207966146051840,2022-01-03-11:06:06,10.1.1.8,196,-0.010,-0.010,-0.010,0.000,0.000,0.000
1641207966333024000,2022-01-03-11:06:06,10.1.1.8,182,-0.020,-0.020,-0.020,0.000,0.000,0.000
1641207966542835968,2022-01-03-11:06:06,10.1.1.8,191,-0.030,-0.030,-0.030,0.000,0.000,0.000
1641207966732040960,2022-01-03-11:06:06,10.1.1.8,180,-0.040,-0.040,-0.040,0.000,0.000,0.000
1641207966941786880,2022-01-03-11:06:06,10.1.1.8,189,-0.050,-0.050,-0.050,0.000,0.000,0.000
1641207967131411968,2022-01-03-11:06:07,10.1.1.8,178,-0.060,-0.060,-0.060,0.000,0.000,0.000
1641207967341559040,2022-01-03-11:06:07,10.1.1.8,187,-0.070,-0.070,-0.070,0.000,0.000,0.000
1641207967530982144,2022-01-03-11:06:07,10.1.1.8,176,-0.080,-0.080,-0.080,0.000,0.000,0.000
1641207967730628096,2022-01-03-11:06:07,10.1.1.8,175,-0.090,-0.090,-0.090,0.000,0.000,0.000
1641207967930380032,2022-01-03-11:06:07,10.1.1.8,174,-0.100,-0.100,-0.100,0.000,0.000,0.000
1641207968130800896,2022-01-03-11:06:08,10.1.1.8,174,-0.110,-0.110,-0.110,0.000,0.000,0.000
1641207968331175936,2022-01-03-11:06:08,10.1.1.8,173,-0.120,-0.120,-0.120,0.000,0.000,0.000
1641207968535111936,2022-01-03-11:06:08,10.1.1.8,177,-0.130,-0.130,-0.130,0.000,0.000,0.000
1641207968730309120,2022-01-03-11:06:08,10.1.1.8,172,-0.140,-0.140,-0.140,0.000,0.000,0.000
1641207968939113984,2022-01-03-11:06:08,10.1.1.8,180,-0.150,-0.150,-0.150,0.000,0.000,0.000
1641207969129472000,2022-01-03-11:06:09,10.1.1.8,170,-0.160,-0.160,-0.160,0.000,0.000,0.000
1641207969329494016,2022-01-03-11:06:09,10.1.1.8,170,-0.170,-0.170,-0.170,0.000,0.000,0.000
1641207969528458240,2022-01-03-11:06:09,10.1.1.8,168,-0.180,-0.180,-0.180,0.000,0.000,0.000
1641207969738852864,2022-01-03-11:06:09,10.1.1.8,178,-0.190,-0.190,-0.190,0.000,0.000,0.000
1641207969949459968,2022-01-03-11:06:09,10.1.1.8,188,-0.200,-0.200,-0.200,0.000,0.000,0.000
1641207970158977024,2022-01-03-11:06:10,10.1.1.8,197,-0.210,-0.210,-0.210,0.000,0.000,0.000
1641207970348169984,2022-01-03-11:06:10,10.1.1.8,186,-0.220,-0.220,-0.220,0.000,0.000,0.000
1641207970557601024,2022-01-03-11:06:10,10.1.1.8,194,-0.230,-0.230,-0.230,0.000,0.000,0.000
1641207970756872960,2022-01-03-11:06:10,10.1.1.8,193,-0.240,-0.240,-0.240,0.000,0.000,0.000
1641207970937208832,2022-01-03-11:06:10,10.1.1.8,173,-0.250,-0.250,-0.250,0.000,0.000,0.000
1641207971141491968,2022-01-03-11:06:11,10.1.1.8,176,-0.260,-0.260,-0.260,0.000,0.000,0.000
1641207971357549824,2022-01-03-11:06:11,10.1.1.8,190,-0.270,-0.270,-0.270,0.000,0.000,0.000
1641207971541702912,2022-01-03-11:06:11,10.1.1.8,175,-0.280,-0.280,-0.280,0.000,0.000,0.000
1641207971735266048,2022-01-03-11:06:11,10.1.1.8,168,-0.290,-0.290,-0.290,0.000,0.000,0.000
1641207971946404096,2022-01-03-11:06:11,10.1.1.8,178,-0.300,-0.300,-0.300,0.000,0.000,0.000
1641207972134392064,2022-01-03-11:06:12,10.1.1.8,165,-0.310,-0.310,-0.310,0.000,0.000,0.000
1641207972353916928,2022-01-03-11:06:12,10.1.1.8,183,-0.320,-0.320,-0.320,0.000,0.000,0.000
1641207972544377088,2022-01-03-11:06:12,10.1.1.8,172,-0.330,-0.330,-0.330,0.000,0.000,0.000
1641207972745421056,2022-01-03-11:06:12,10.1.1.8,173,-0.340,-0.340,-0.340,0.000,0.000,0.000
1641207972953222912,2022-01-03-11:06:12,10.1.1.8,179,-0.350,-0.350,-0.350,0.000,0.000,0.000
1641207973143940864,2022-01-03-11:06:13,10.1.1.8,169,-0.360,-0.360,-0.360,0.000,0.000,0.000
1641207973343378176,2022-01-03-11:06:13,10.1.1.8,168,-0.370,-0.370,-0.370,0.000,0.000,0.000
1641207973552299008,2022-01-03-11:06:13,10.1.1.8,176,-0.380,-0.380,-0.380,0.000,0.000,0.000
1641207973742466816,2022-01-03-11:06:13,10.1.1.8,165,-0.390,-0.390,-0.390,0.000,0.000,0.000
1641207973951862016,2022-01-03-11:06:13,10.1.1.8,174,-0.400,-0.400,-0.400,0.000,0.000,0.000
1641207974151500032,2022-01-03-11:06:14,10.1.1.8,172,-0.410,-0.410,-0.410,0.000,0.000,0.000
1641207974350876160,2022-01-03-11:06:14,10.1.1.8,171,-0.420,-0.420,-0.420,0.000,0.000,0.000
1641207974570905856,2022-01-03-11:06:14,10.1.1.8,191,-0.430,-0.430,-0.430,0.000,0.000,0.000
1641207974770036992,2022-01-03-11:06:14,10.1.1.8,189,-0.440,-0.440,-0.440,0.000,0.000,0.000
1641207974949722880,2022-01-03-11:06:14,10.1.1.8,168,-0.450,-0.450,-0.450,0.000,0.000,0.000
1641207975170249984,2022-01-03-11:06:15,10.1.1.8,188,-0.460,-0.460,-0.460,0.000,0.000,0.000
1641207975352057856,2022-01-03-11:06:15,10.1.1.8,169,-0.470,-0.470,-0.470,0.000,0.000,0.000
1641207975548669184,2022-01-03-11:06:15,10.1.1.8,165,-0.480,-0.480,-0.480,0.000,0.000,0.000
1641207975758923008,2022-01-03-11:06:15,10.1.1.8,175,-0.490,-0.490,-0.490,0.000,0.000,0.000
1641207975948941056,2022-01-03-11:06:15,10.1.1.8,164,-0.480,-0.480,-0.480,0.000,0.000,0.000
1641207976148345088,2022-01-03-11:06:16,10.1.1.8,163,-0.470,-0.470,-0.470,0.000,0.000,0.000
1641207976357848832,2022-01-03-11:06:16,10.1.1.8,172,-0.460,-0.460,-0.460,0.000,0.000,0.000
1641207976557570816,2022-01-03-11:06:16,10.1.1.8,168,-0.450,-0.450,-0.450,0.000,0.000,0.000
1641207976757708032,2022-01-03-11:06:16,10.1.1.8,168,-0.440,-0.440,-0.440,0.000,0.000,0.000
1641207976968497152,2022-01-03-11:06:16,10.1.1.8,177,-0.430,-0.430,-0.430,0.000,0.000,0.000
1641207977157074944,2022-01-03-11:06:17,10.1.1.8,164,-0.420,-0.420,-0.420,0.000,0.000,0.000
1641207977356610048,2022-01-03-11:06:17,10.1.1.8,163,-0.410,-0.410,-0.410,0.000,0.000,0.000
1641207977556443904,2022-01-03-11:06:17,10.1.1.8,162,-0.400,-0.400,-0.400,0.000,0.000,0.000
1641207977756076032,2022-01-03-11:06:17,10.1.1.8,160,-0.390,-0.390,-0.390,0.000,0.000,0.000
1641207977955112960,2022-01-03-11:06:17,10.1.1.8,159,-0.380,-0.380,-0.380,0.000,0.000,0.000
1641207978156768000,2022-01-03-11:06:18,10.1.1.8,160,-0.370,-0.370,-0.370,0.000,0.000,0.000
1641207978367898880,2022-01-03-11:06:18,10.1.1.8,168,-0.360,-0.360,-0.360,0.000,0.000,0.000
1641207978568368896,2022-01-03-11:06:18,10.1.1.8,168,-0.350,-0.350,-0.350,0.000,0.000,0.000
1641207978789366016,2022-01-03-11:06:18,10.1.1.8,188,-0.340,-0.340,-0.340,0.000,0.000,0.000
1641207978981370880,2022-01-03-11:06:18,10.1.1.8,179,-0.330,-0.330,-0.330,0.000,0.000,0.000
1641207979174778112,2022-01-03-11:06:19,10.1.1.8,172,-0.320,-0.320,-0.320,0.000,0.000,0.000
1641207979383141120,2022-01-03-11:06:19,10.1.1.8,179,-0.310,-0.310,-0.310,0.000,0.000,0.000
1641207979574178816,2022-01-03-11:06:19,10.1.1.8,168,-0.300,-0.300,-0.300,0.000,0.000,0.000
1641207979786456064,2022-01-03-11:06:19,10.1.1.8,179,-0.290,-0.290,-0.290,0.000,0.000,0.000
1641207979977955072,2022-01-03-11:06:19,10.1.1.8,170,-0.280,-0.280,-0.280,0.000,0.000,0.000
1641207980175975936,2022-01-03-11:06:20,10.1.1.8,168,-0.270,-0.270,-0.270,0.000,0.000,0.000
1641207980376940032,2022-01-03-11:06:20,10.1.1.8,168,-0.260,-0.260,-0.260,0.000,0.000,0.000
1641207980577825024,2022-01-03-11:06:20,10.1.1.8,168,-0.250,-0.250,-0.250,0.000,0.000,0.000
1641207980798452992,2022-01-03-11:06:20,10.1.1.8,187,-0.240,-0.240,-0.240,0.000,0.000,0.000
1641207980990166784,2022-01-03-11:06:20,10.1.1.8,178,-0.230,-0.230,-0.230,0.000,0.000,0.000
1641207981190210048,2022-01-03-11:06:21,10.1.1.8,177,-0.220,-0.220,-0.220,0.000,0.000,0.000
1641207981390906112,2022-01-03-11:06:21,10.1.1.8,177,-0.210,-0.210,-0.210,0.000,0.000,0.000
1641207981590799104,2022-01-03-11:06:21,10.1.1.8,176,-0.200,-0.200,-0.200,0.000,0.000,0.000
1641207981790999040,2022-01-03-11:06:21,10.1.1.8,176,-0.190,-0.190,-0.190,0.000,0.000,0.000
1641207982001449984,2022-01-03-11:06:22,10.1.1.8,185,-0.180,-0.180,-0.180,0.000,0.000,0.000
1641207982193788160,2022-01-03-11:06:22,10.1.1.8,176,-0.170,-0.170,-0.170,0.000,0.000,0.000
1641207982393213952,2022-01-03-11:06:22,10.1.1.8,176,-0.160,-0.160,-0.160,0.000,0.000,0.000
1641207982594016000,2022-01-03-11:06:22,10.1.1.8,175,-0.150,-0.150,-0.150,0.000,0.000,0.000
1641207982803366912,2022-01-03-11:06:22,10.1.1.8,184,-0.140,-0.140,-0.140,0.000,0.000,0.000
1641207983003969024,2022-01-03-11:06:23,10.1.1.8,184,-0.130,-0.130,-0.130,0.000,0.000,0.000
1641207983204911104,2022-01-03-11:06:23,10.1.1.8,184,-0.120,-0.120,-0.120,0.000,0.000,0.000
1641207983416667904,2022-01-03-11:06:23,10.1.1.8,194,-0.110,-0.110,-0.110,0.000,0.000,0.000
1641207983616071936,2022-01-03-11:06:23,10.1.1.8,193,-0.100,-0.100,-0.100,0.000,0.000,0.000
1641207983816528128,2022-01-03-11:06:23,10.1.1.8,191,-0.090,-0.090,-0.090,0.000,0.000,0.000
1641207984021732096,2022-01-03-11:06:24,10.1.1.8,194,-0.080,-0.080,-0.080,0.000,0.000,0.000
1641207984226878976,2022-01-03-11:06:24,10.1.1.8,193,-0.070,-0.070,-0.070,0.000,0.000,0.000
1641207984416534784,2022-01-03-11:06:24,10.1.1.8,181,-0.060,-0.060,-0.060,0.000,0.000,0.000
1641207984617007104,2022-01-03-11:06:24,10.1.1.8,181,-0.050,-0.050,-0.050,0.000,0.000,0.000
1641207984817711104,2022-01-03-11:06:24,10.1.1.8,181,-0.040,-0.040,-0.040,0.000,0.000,0.000
1641207985019283968,2022-01-03-11:06:25,10.1.1.8,180,-0.030,-0.030,-0.030,0.000,0.000,0.000
1641207985225496064,2022-01-03-11:06:25,10.1.1.8,186,-0.020,-0.020,-0.020,0.000,0.000,0.000
1641207985418790144,2022-01-03-11:06:25,10.1.1.8,178,-0.010,-0.010,-0.010,0.000,0.000,0.000
1641207985828933120,2022-01-03-11:06:25,10.1.1.8,186,-0.010,-0.010,-0.010,0.000,0.000,0.000
1641207986028697856,2022-01-03-11:06:26,10.1.1.8,185,-0.020,-0.020,-0.020,0.000,0.000,0.000
1641207986228722944,2022-01-03-11:06:26,10.1.1.8,185,-0.030,-0.030,-0.030,0.000,0.000,0.000
1641207986429595904,2022-01-03-11:06:26,10.1.1.8,185,-0.040,-0.040,-0.040,0.000,0.000,0.000
1641207986628667136,2022-01-03-11:06:26,10.1.1.8,184,-0.050,-0.050,-0.050,0.000,0.000,0.000
1641207986829186048,2022-01-03-11:06:26,10.1.1.8,183,-0.060,-0.060,-0.060,0.000,0.000,0.000
1641207987029736960,2022-01-03-11:06:27,10.1.1.8,182,-0.070,-0.070,-0.070,0.000,0.000,0.000
1641207987240350976,2022-01-03-11:06:27,10.1.1.8,193,-0.080,-0.080,-0.080,0.000,0.000,0.000
1641207987439115008,2022-01-03-11:06:27,10.1.1.8,190,-0.090,-0.090,-0.090,0.000,0.000,0.000
1641207987639602944,2022-01-03-11:06:27,10.1.1.8,189,-0.100,-0.100,-0.100,0.000,0.000,0.000
1641207987839860992,2022-01-03-11:06:27,10.1.1.8,188,-0.110,-0.110,-0.110,0.000,0.000,0.000
1641207988040695808,2022-01-03-11:06:28,10.1.1.8,188,-0.120,-0.120,-0.120,0.000,0.000,0.000
1641207988250228992,2022-01-03-11:06:28,10.1.1.8,197,-0.130,-0.130,-0.130,0.000,0.000,0.000
1641207988450287104,2022-01-03-11:06:28,10.1.1.8,196,-0.140,-0.140,-0.140,0.000,0.000,0.000
1641207988640814080,2022-01-03-11:06:28,10.1.1.8,185,-0.150,-0.150,-0.150,0.000,0.000,0.000
1641207988840610048,2022-01-03-11:06:28,10.1.1.8,185,-0.160,-0.160,-0.160,0.000,0.000,0.000
1641207989040780032,2022-01-03-11:06:29,10.1.1.8,183,-0.170,-0.170,-0.170,0.000,0.000,0.000
1641207989242320128,2022-01-03-11:06:29,10.1.1.8,183,-0.180,-0.180,-0.180,0.000,0.000,0.000
1641207989449750016,2022-01-03-11:06:29,10.1.1.8,191,-0.190,-0.190,-0.190,0.000,0.000,0.000
1641207989649611008,2022-01-03-11:06:29,10.1.1.8,190,-0.200,-0.200,-0.200,0.000,0.000,0.000
1641207989839590144,2022-01-03-11:06:29,10.1.1.8,179,-0.210,-0.210,-0.210,0.000,0.000,0.000
1641207990050009088,2022-01-03-11:06:30,10.1.1.8,189,-0.220,-0.220,-0.220,0.000,0.000,0.000
1641207990660262144,2022-01-03-11:06:30,10.1.1.8,197,-0.250,-0.250,-0.250,0.000,0.000,0.000
1641207990849175040,2022-01-03-11:06:30,10.1.1.8,186,-0.260,-0.260,-0.260,0.000,0.000,0.000
1641207991060483072,2022-01-03-11:06:31,10.1.1.8,196,-0.270,-0.270,-0.270,0.000,0.000,0.000
1641207991449832960,2022-01-03-11:06:31,10.1.1.8,185,-0.290,-0.290,-0.290,0.000,0.000,0.000
1641207991649358080,2022-01-03-11:06:31,10.1.1.8,183,-0.300,-0.300,-0.300,0.000,0.000,0.000
1641207992059043840,2022-01-03-11:06:32,10.1.1.8,192,-0.320,-0.320,-0.320,0.000,0.000,0.000
1641207992449111040,2022-01-03-11:06:32,10.1.1.8,180,-0.340,-0.340,-0.340,0.000,0.000,0.000
1641207992649338112,2022-01-03-11:06:32,10.1.1.8,179,-0.350,-0.350,-0.350,0.000,0.000,0.000
1641207992859074048,2022-01-03-11:06:32,10.1.1.8,189,-0.360,-0.360,-0.360,0.000,0.000,0.000
1641207993068594944,2022-01-03-11:06:33,10.1.1.8,197,-0.370,-0.370,-0.370,0.000,0.000,0.000
1641207993258758912,2022-01-03-11:06:33,10.1.1.8,187,-0.380,-0.380,-0.380,0.000,0.000,0.000
1641207993463289088,2022-01-03-11:06:33,10.1.1.8,190,-0.390,-0.390,-0.390,0.000,0.000,0.000
1641207993668029952,2022-01-03-11:06:33,10.1.1.8,195,-0.400,-0.400,-0.400,0.000,0.000,0.000
1641207993857580800,2022-01-03-11:06:33,10.1.1.8,184,-0.410,-0.410,-0.410,0.000,0.000,0.000
1641207994057758976,2022-01-03-11:06:34,10.1.1.8,183,-0.420,-0.420,-0.420,0.000,0.000,0.000
1641207994258034944,2022-01-03-11:06:34,10.1.1.8,183,-0.430,-0.430,-0.430,0.000,0.000,0.000
1641207994457453056,2022-01-03-11:06:34,10.1.1.8,182,-0.440,-0.440,-0.440,0.000,0.000,0.000
1641207994657892864,2022-01-03-11:06:34,10.1.1.8,182,-0.450,-0.450,-0.450,0.000,0.000,0.000
1641207994856878080,2022-01-03-11:06:34,10.1.1.8,180,-0.460,-0.460,-0.460,0.000,0.000,0.000
1641207995056605184,2022-01-03-11:06:35,10.1.1.8,179,-0.470,-0.470,-0.470,0.000,0.000,0.000
1641207995256926976,2022-01-03-11:06:35,10.1.1.8,179,-0.480,-0.480,-0.480,0.000,0.000,0.000
1641207995457353984,2022-01-03-11:06:35,10.1.1.8,179,-0.490,-0.490,-0.490,0.000,0.000,0.000
1641207995669882112,2022-01-03-11:06:35,10.1.1.8,191,-0.480,-0.480,-0.480,0.000,0.000,0.000
1641207995865672192,2022-01-03-11:06:35,10.1.1.8,186,-0.470,-0.470,-0.470,0.000,0.000,0.000
1641207996065762048,2022-01-03-11:06:36,10.1.1.8,186,-0.460,-0.460,-0.460,0.000,0.000,0.000
1641207996664988928,2022-01-03-11:06:36,10.1.1.8,183,-0.430,-0.430,-0.430,0.000,0.000,0.000
1641207996864641792,2022-01-03-11:06:36,10.1.1.8,182,-0.420,-0.420,-0.420,0.000,0.000,0.000
1641207997064251904,2022-01-03-11:06:37,10.1.1.8,181,-0.410,-0.410,-0.410,0.000,0.000,0.000
1641207997264763136,2022-01-03-11:06:37,10.1.1.8,181,-0.400,-0.400,-0.400,0.000,0.000,0.000
1641207997464705024,2022-01-03-11:06:37,10.1.1.8,180,-0.390,-0.390,-0.390,0.000,0.000,0.000
1641207997664997120,2022-01-03-11:06:37,10.1.1.8,180,-0.380,-0.380,-0.380,0.000,0.000,0.000
1641207997884183040,2022-01-03-11:06:37,10.1.1.8,199,-0.370,-0.370,-0.370,0.000,0.000,0.000
1641207998063330816,2022-01-03-11:06:38,10.1.1.8,177,-0.360,-0.360,-0.360,0.000,0.000,0.000
1641207998263539200,2022-01-03-11:06:38,10.1.1.8,177,-0.350,-0.350,-0.350,0.000,0.000,0.000
1641207998462881024,2022-01-03-11:06:38,10.1.1.8,175,-0.340,-0.340,-0.340,0.000,0.000,0.000
1641207998662415872,2022-01-03-11:06:38,10.1.1.8,174,-0.330,-0.330,-0.330,0.000,0.000,0.000
1641207998862951936,2022-01-03-11:06:38,10.1.1.8,174,-0.320,-0.320,-0.320,0.000,0.000,0.000
1641207999068818944,2022-01-03-11:06:39,10.1.1.8,179,-0.310,-0.310,-0.310,0.000,0.000,0.000
1641207999272450048,2022-01-03-11:06:39,10.1.1.8,182,-0.300,-0.300,-0.300,0.000,0.000,0.000
1641207999472933120,2022-01-03-11:06:39,10.1.1.8,181,-0.290,-0.290,-0.290,0.000,0.000,0.000
1641207999672066816,2022-01-03-11:06:39,10.1.1.8,178,-0.280,-0.280,-0.280,0.000,0.000,0.000
1641207999871308032,2022-01-03-11:06:39,10.1.1.8,176,-0.270,-0.270,-0.270,0.000,0.000,0.000
1641208000074800896,2022-01-03-11:06:40,10.1.1.8,179,-0.260,-0.260,-0.260,0.000,0.000,0.000
1641208000270539008,2022-01-03-11:06:40,10.1.1.8,174,-0.250,-0.250,-0.250,0.000,0.000,0.000
1641208000470848000,2022-01-03-11:06:40,10.1.1.8,174,-0.240,-0.240,-0.240,0.000,0.000,0.000
1641208000670584832,2022-01-03-11:06:40,10.1.1.8,173,-0.230,-0.230,-0.230,0.000,0.000,0.000
1641208000880816896,2022-01-03-11:06:40,10.1.1.8,182,-0.220,-0.220,-0.220,0.000,0.000,0.000
1641208001069694976,2022-01-03-11:06:41,10.1.1.8,171,-0.210,-0.210,-0.210,0.000,0.000,0.000
1641208001269278976,2022-01-03-11:06:41,10.1.1.8,170,-0.200,-0.200,-0.200,0.000,0.000,0.000
1641208001498515968,2022-01-03-11:06:41,10.1.1.8,198,-0.190,-0.190,-0.190,0.000,0.000,0.000
1641208001677381888,2022-01-03-11:06:41,10.1.1.8,176,-0.180,-0.180,-0.180,0.000,0.000,0.000
1641208001899365888,2022-01-03-11:06:41,10.1.1.8,197,-0.170,-0.170,-0.170,0.000,0.000,0.000
1641208002077883904,2022-01-03-11:06:42,10.1.1.8,170,-0.160,-0.160,-0.160,0.000,0.000,0.000
1641208002288964864,2022-01-03-11:06:42,10.1.1.8,180,-0.150,-0.150,-0.150,0.000,0.000,0.000
1641208002477436160,2022-01-03-11:06:42,10.1.1.8,168,-0.140,-0.140,-0.140,0.000,0.000,0.000
1641208002687164928,2022-01-03-11:06:42,10.1.1.8,177,-0.130,-0.130,-0.130,0.000,0.000,0.000
1641208002888331776,2022-01-03-11:06:42,10.1.1.8,177,-0.120,-0.120,-0.120,0.000,0.000,0.000
1641208003096594176,2022-01-03-11:06:43,10.1.1.8,185,-0.110,-0.110,-0.110,0.000,0.000,0.000
1641208003296387072,2022-01-03-11:06:43,10.1.1.8,184,-0.100,-0.100,-0.100,0.000,0.000,0.000
1641208003495862016,2022-01-03-11:06:43,10.1.1.8,182,-0.090,-0.090,-0.090,0.000,0.000,0.000
1641208003685616896,2022-01-03-11:06:43,10.1.1.8,172,-0.080,-0.080,-0.080,0.000,0.000,0.000
1641208003885236992,2022-01-03-11:06:43,10.1.1.8,171,-0.070,-0.070,-0.070,0.000,0.000,0.000
1641208004085051136,2022-01-03-11:06:44,10.1.1.8,169,-0.060,-0.060,-0.060,0.000,0.000,0.000
1641208004295033088,2022-01-03-11:06:44,10.1.1.8,179,-0.050,-0.050,-0.050,0.000,0.000,0.000
1641208004485018112,2022-01-03-11:06:44,10.1.1.8,168,-0.040,-0.040,-0.040,0.000,0.000,0.000
1641208004684340992,2022-01-03-11:06:44,10.1.1.8,166,-0.030,-0.030,-0.030,0.000,0.000,0.000
1641208004885344000,2022-01-03-11:06:44,10.1.1.8,167,-0.020,-0.020,-0.020,0.000,0.000,0.000
1641208005093767936,2022-01-03-11:06:45,10.1.1.8,175,-0.010,-0.010,-0.010,0.000,0.000,0.000
1641208005293821184,2022-01-03-11:06:45,10.1.1.8,174,0.000,0.000,0.000,0.000,0.000,0.000
1641208005503056128,2022-01-03-11:06:45,10.1.1.8,182,-0.010,-0.010,-0.010,0.000,0.000,0.000
1641208005702982912,2022-01-03-11:06:45,10.1.1.8,182,-0.020,-0.020,-0.020,0.000,0.000,0.000
1641208005903229952,2022-01-03-11:06:45,10.1.1.8,181,-0.030,-0.030,-0.030,0.000,0.000,0.000
1641208006102438912,2022-01-03-11:06:46,10.1.1.8,180,-0.040,-0.040,-0.040,0.000,0.000,0.000
1641208006312499968,2022-01-03-11:06:46,10.1.1.8,190,-0.050,-0.050,-0.050,0.000,0.000,0.000
1641208006501158912,2022-01-03-11:06:46,10.1.1.8,178,-0.060,-0.060,-0.060,0.000,0.000,0.000
1641208006701780992,2022-01-03-11:06:46,10.1.1.8,178,-0.070,-0.070,-0.070,0.000,0.000,0.000
1641208006901500928,2022-01-03-11:06:46,10.1.1.8,176,-0.080,-0.080,-0.080,0.000,0.000,0.000
1641208007090738176,2022-01-03-11:06:47,10.1.1.8,163,-0.090,-0.090,-0.090,0.000,0.000,0.000
1641208007289980928,2022-01-03-11:06:47,10.1.1.8,162,-0.100,-0.100,-0.100,0.000,0.000,0.000
1641208007500071936,2022-01-03-11:06:47,10.1.1.8,172,-0.110,-0.110,-0.110,0.000,0.000,0.000
1641208007709989120,2022-01-03-11:06:47,10.1.1.8,180,-0.120,-0.120,-0.120,0.000,0.000,0.000
1641208007898876928,2022-01-03-11:06:47,10.1.1.8,169,-0.130,-0.130,-0.130,0.000,0.000,0.000
1641208008099025920,2022-01-03-11:06:48,10.1.1.8,168,-0.140,-0.140,-0.140,0.000,0.000,0.000
1641208008308546048,2022-01-03-11:06:48,10.1.1.8,177,-0.150,-0.150,-0.150,0.000,0.000,0.000
1641208008498745088,2022-01-03-11:06:48,10.1.1.8,167,-0.160,-0.160,-0.160,0.000,0.000,0.000
1641208008697913856,2022-01-03-11:06:48,10.1.1.8,165,-0.170,-0.170,-0.170,0.000,0.000,0.000
1641208008907842048,2022-01-03-11:06:48,10.1.1.8,174,-0.180,-0.180,-0.180,0.000,0.000,0.000
1641208009108118016,2022-01-03-11:06:49,10.1.1.8,174,-0.190,-0.190,-0.190,0.000,0.000,0.000
1641208009297705984,2022-01-03-11:06:49,10.1.1.8,163,-0.200,-0.200,-0.200,0.000,0.000,0.000
1641208009497047808,2022-01-03-11:06:49,10.1.1.8,161,-0.210,-0.210,-0.210,0.000,0.000,0.000
1641208009706883072,2022-01-03-11:06:49,10.1.1.8,171,-0.220,-0.220,-0.220,0.000,0.000,0.000
1641208009896491008,2022-01-03-11:06:49,10.1.1.8,160,-0.230,-0.230,-0.230,0.000,0.000,0.000
1641208009936791040,2022-01-03-11:06:49,10.1.1.8,-1,-0.230,-0.230,-0.230,0.000,0.000,0.000
1641208010300483840,2022-01-03-11:06:50,10.1.1.8,163,-0.250,-0.250,-0.250,0.000,0.000,0.000
1641208010498523904,2022-01-03-11:06:50,10.1.1.8,161,-0.260,-0.260,-0.260,0.000,0.000,0.000
1641208010709570048,2022-01-03-11:06:50,10.1.1.8,171,-0.270,-0.270,-0.270,0.000,0.000,0.000
1641208010901325056,2022-01-03-11:06:50,10.1.1.8,162,-0.280,-0.280,-0.280,0.000,0.000,0.000
1641208011101602048,2022-01-03-11:06:51,10.1.1.8,162,-0.290,-0.290,-0.290,0.000,0.000,0.000
1641208011334191104,2022-01-03-11:06:51,10.1.1.8,193,-0.300,-0.300,-0.300,0.000,0.000,0.000
1641208011533734144,2022-01-03-11:06:51,10.1.1.8,193,-0.310,-0.310,-0.310,0.000,0.000,0.000
1641208011725125120,2022-01-03-11:06:51,10.1.1.8,183,-0.320,-0.320,-0.320,0.000,0.000,0.000
1641208011926123008,2022-01-03-11:06:51,10.1.1.8,183,-0.330,-0.330,-0.330,0.000,0.000,0.000
1641208012126404096,2022-01-03-11:06:52,10.1.1.8,183,-0.340,-0.340,-0.340,0.000,0.000,0.000
1641208012317202176,2022-01-03-11:06:52,10.1.1.8,172,-0.350,-0.350,-0.350,0.000,0.000,0.000
1641208012518084096,2022-01-03-11:06:52,10.1.1.8,171,-0.360,-0.360,-0.360,0.000,0.000,0.000
1641208012729466880,2022-01-03-11:06:52,10.1.1.8,182,-0.370,-0.370,-0.370,0.000,0.000,0.000
1641208012929553152,2022-01-03-11:06:52,10.1.1.8,181,-0.380,-0.380,-0.380,0.000,0.000,0.000
1641208013120214016,2022-01-03-11:06:53,10.1.1.8,171,-0.390,-0.390,-0.390,0.000,0.000,0.000
1641208013330398976,2022-01-03-11:06:53,10.1.1.8,180,-0.400,-0.400,-0.400,0.000,0.000,0.000
1641208013530818048,2022-01-03-11:06:53,10.1.1.8,180,-0.410,-0.410,-0.410,0.000,0.000,0.000
1641208013731504896,2022-01-03-11:06:53,10.1.1.8,180,-0.420,-0.420,-0.420,0.000,0.000,0.000
1641208013932135168,2022-01-03-11:06:53,10.1.1.8,180,-0.430,-0.430,-0.430,0.000,0.000,0.000
1641208014143310080,2022-01-03-11:06:54,10.1.1.8,191,-0.440,-0.440,-0.440,0.000,0.000,0.000
1641208014344642048,2022-01-03-11:06:54,10.1.1.8,190,-0.450,-0.450,-0.450,0.000,0.000,0.000
1641208014543479040,2022-01-03-11:06:54,10.1.1.8,189,-0.460,-0.460,-0.460,0.000,0.000,0.000
1641208014734513920,2022-01-03-11:06:54,10.1.1.8,180,-0.470,-0.470,-0.470,0.000,0.000,0.000
1641208014943421952,2022-01-03-11:06:54,10.1.1.8,187,-0.480,-0.480,-0.480,0.000,0.000,0.000
1641208015149679872,2022-01-03-11:06:55,10.1.1.8,189,-0.490,-0.490,-0.490,0.000,0.000,0.000
1641208015336174848,2022-01-03-11:06:55,10.1.1.8,176,-0.480,-0.480,-0.480,0.000,0.000,0.000
1641208015545615872,2022-01-03-11:06:55,10.1.1.8,184,-0.470,-0.470,-0.470,0.000,0.000,0.000
1641208016147120896,2022-01-03-11:06:56,10.1.1.8,183,-0.440,-0.440,-0.440,0.000,0.000,0.000
1641208016348524032,2022-01-03-11:06:56,10.1.1.8,184,-0.430,-0.430,-0.430,0.000,0.000,0.000
1641208016552987136,2022-01-03-11:06:56,10.1.1.8,188,-0.420,-0.420,-0.420,0.000,0.000,0.000
1641208016748068096,2022-01-03-11:06:56,10.1.1.8,183,-0.410,-0.410,-0.410,0.000,0.000,0.000
1641208017359401984,2022-01-03-11:06:57,10.1.1.8,191,-0.380,-0.380,-0.380,0.000,0.000,0.000
1641208017568628992,2022-01-03-11:06:57,10.1.1.8,199,-0.370,-0.370,-0.370,0.000,0.000,0.000
1641208017749083904,2022-01-03-11:06:57,10.1.1.8,179,-0.360,-0.360,-0.360,0.000,0.000,0.000
1641208017968645120,2022-01-03-11:06:57,10.1.1.8,197,-0.350,-0.350,-0.350,0.000,0.000,0.000
1641208018161086208,2022-01-03-11:06:58,10.1.1.8,189,-0.340,-0.340,-0.340,0.000,0.000,0.000
1641208018359837952,2022-01-03-11:06:58,10.1.1.8,187,-0.330,-0.330,-0.330,0.000,0.000,0.000
1641208018559739136,2022-01-03-11:06:58,10.1.1.8,186,-0.320,-0.320,-0.320,0.000,0.000,0.000
1641208018770976000,2022-01-03-11:06:58,10.1.1.8,197,-0.310,-0.310,-0.310,0.000,0.000,0.000
1641208018959971840,2022-01-03-11:06:58,10.1.1.8,185,-0.300,-0.300,-0.300,0.000,0.000,0.000
1641208019160659200,2022-01-03-11:06:59,10.1.1.8,185,-0.290,-0.290,-0.290,0.000,0.000,0.000
1641208019364306944,2022-01-03-11:06:59,10.1.1.8,187,-0.280,-0.280,-0.280,0.000,0.000,0.000
1641208019560365824,2022-01-03-11:06:59,10.1.1.8,182,-0.270,-0.270,-0.270,0.000,0.000,0.000
1641208019760001792,2022-01-03-11:06:59,10.1.1.8,181,-0.260,-0.260,-0.260,0.000,0.000,0.000
1641208019960025088,2022-01-03-11:06:59,10.1.1.8,181,-0.250,-0.250,-0.250,0.000,0.000,0.000
1641208020170487040,2022-01-03-11:07:00,10.1.1.8,191,-0.240,-0.240,-0.240,0.000,0.000,0.000
1641208020381051904,2022-01-03-11:07:00,10.1.1.8,200,-0.230,-0.230,-0.230,0.000,0.000,0.000
1641208020580224000,2022-01-03-11:07:00,10.1.1.8,198,-0.220,-0.220,-0.220,0.000,0.000,0.000
1641208020780296960,2022-01-03-11:07:00,10.1.1.8,198,-0.210,-0.210,-0.210,0.000,0.000,0.000
1641208020981041920,2022-01-03-11:07:00,10.1.1.8,198,-0.200,-0.200,-0.200,0.000,0.000,0.000
1641208021170694144,2022-01-03-11:07:01,10.1.1.8,187,-0.190,-0.190,-0.190,0.000,0.000,0.000
1641208021380572928,2022-01-03-11:07:01,10.1.1.8,196,-0.180,-0.180,-0.180,0.000,0.000,0.000
1641208021571043072,2022-01-03-11:07:01,10.1.1.8,186,-0.170,-0.170,-0.170,0.000,0.000,0.000
1641208021781219072,2022-01-03-11:07:01,10.1.1.8,196,-0.160,-0.160,-0.160,0.000,0.000,0.000
1641208022380704000,2022-01-03-11:07:02,10.1.1.8,193,-0.130,-0.130,-0.130,0.000,0.000,0.000
1641208022570593024,2022-01-03-11:07:02,10.1.1.8,183,-0.120,-0.120,-0.120,0.000,0.000,0.000
1641208022780240128,2022-01-03-11:07:02,10.1.1.8,191,-0.110,-0.110,-0.110,0.000,0.000,0.000
1641208022970211072,2022-01-03-11:07:02,10.1.1.8,180,-0.100,-0.100,-0.100,0.000,0.000,0.000
1641208023180131840,2022-01-03-11:07:03,10.1.1.8,190,-0.090,-0.090,-0.090,0.000,0.000,0.000
1641208023389522944,2022-01-03-11:07:03,10.1.1.8,199,-0.080,-0.080,-0.080,0.000,0.000,0.000
1641208023580065024,2022-01-03-11:07:03,10.1.1.8,189,-0.070,-0.070,-0.070,0.000,0.000,0.000
1641208023786384128,2022-01-03-11:07:03,10.1.1.8,194,-0.060,-0.060,-0.060,0.000,0.000,0.000
1641208023980269824,2022-01-03-11:07:03,10.1.1.8,187,-0.050,-0.050,-0.050,0.000,0.000,0.000
1641208024180273920,2022-01-03-11:07:04,10.1.1.8,186,-0.040,-0.040,-0.040,0.000,0.000,0.000
1641208024379194880,2022-01-03-11:07:04,10.1.1.8,184,-0.030,-0.030,-0.030,0.000,0.000,0.000
1641208024579195904,2022-01-03-11:07:04,10.1.1.8,184,-0.020,-0.020,-0.020,0.000,0.000,0.000
1641208024779174144,2022-01-03-11:07:04,10.1.1.8,182,-0.010,-0.010,-0.010,0.000,0.000,0.000
1641208024979887872,2022-01-03-11:07:04,10.1.1.8,182,0.000,0.000,0.000,0.000,0.000,0.000
1641208025178731008,2022-01-03-11:07:05,10.1.1.8,180,-0.010,-0.010,-0.010,0.000,0.000,0.000
1641208025378642176,2022-01-03-11:07:05,10.1.1.8,180,-0.020,-0.020,-0.020,0.000,0.000,0.000
1641208025578632192,2022-01-03-11:07:05,10.1.1.8,179,-0.030,-0.030,-0.030,0.000,0.000,0.000
1641208025798782976,2022-01-03-11:07:05,10.1.1.8,197,-0.040,-0.040,-0.040,0.000,0.000,0.000
1641208025991298816,2022-01-03-11:07:05,10.1.1.8,189,-0.050,-0.050,-0.050,0.000,0.000,0.000
1641208026190433024,2022-01-03-11:07:06,10.1.1.8,188,-0.060,-0.060,-0.060,0.000,0.000,0.000
1641208026381058816,2022-01-03-11:07:06,10.1.1.8,177,-0.070,-0.070,-0.070,0.000,0.000,0.000
1641208026589907968,2022-01-03-11:07:06,10.1.1.8,185,-0.080,-0.080,-0.080,0.000,0.000,0.000
1641208026787872000,2022-01-03-11:07:06,10.1.1.8,182,-0.090,-0.090,-0.090,0.000,0.000,0.000
1641208026997873152,2022-01-03-11:07:06,10.1.1.8,191,-0.100,-0.100,-0.100,0.000,0.000,0.000
1641208027187199232,2022-01-03-11:07:07,10.1.1.8,180,-0.110,-0.110,-0.110,0.000,0.000,0.000
1641208027406896128,2022-01-03-11:07:07,10.1.1.8,197,-0.120,-0.120,-0.120,0.000,0.000,0.000
1641208027607422976,2022-01-03-11:07:07,10.1.1.8,196,-0.130,-0.130,-0.130,0.000,0.000,0.000
1641208027798112000,2022-01-03-11:07:07,10.1.1.8,186,-0.140,-0.140,-0.140,0.000,0.000,0.000
1641208028006618880,2022-01-03-11:07:08,10.1.1.8,194,-0.150,-0.150,-0.150,0.000,0.000,0.000
1641208028206376960,2022-01-03-11:07:08,10.1.1.8,193,-0.160,-0.160,-0.160,0.000,0.000,0.000
1641208028405467136,2022-01-03-11:07:08,10.1.1.8,191,-0.170,-0.170,-0.170,0.000,0.000,0.000
1641208028607595008,2022-01-03-11:07:08,10.1.1.8,193,-0.180,-0.180,-0.180,0.000,0.000,0.000
1641208028805497856,2022-01-03-11:07:08,10.1.1.8,191,-0.190,-0.190,-0.190,0.000,0.000,0.000
1641208029005224960,2022-01-03-11:07:09,10.1.1.8,190,-0.200,-0.200,-0.200,0.000,0.000,0.000
1641208029195183872,2022-01-03-11:07:09,10.1.1.8,179,-0.210,-0.210,-0.210,0.000,0.000,0.000
1641208029405466112,2022-01-03-11:07:09,10.1.1.8,188,-0.220,-0.220,-0.220,0.000,0.000,0.000
1641208029605097984,2022-01-03-11:07:09,10.1.1.8,187,-0.230,-0.230,-0.230,0.000,0.000,0.000
1641208029795819008,2022-01-03-11:07:09,10.1.1.8,177,-0.240,-0.240,-0.240,0.000,0.000,0.000
1641208029993716992,2022-01-03-11:07:09,10.1.1.8,175,-0.250,-0.250,-0.250,0.000,0.000,0.000
1641208030203578112,2022-01-03-11:07:10,10.1.1.8,182,-0.260,-0.260,-0.260,0.000,0.000,0.000
1641208030404290816,2022-01-03-11:07:10,10.1.1.8,181,-0.270,-0.270,-0.270,0.000,0.000,0.000
1641208030614469888,2022-01-03-11:07:10,10.1.1.8,190,-0.280,-0.280,-0.280,0.000,0.000,0.000
1641208030823291904,2022-01-03-11:07:10,10.1.1.8,198,-0.290,-0.290,-0.290,0.000,0.000,0.000
1641208031024171008,2022-01-03-11:07:11,10.1.1.8,198,-0.300,-0.300,-0.300,0.000,0.000,0.000
1641208031208098048,2022-01-03-11:07:11,10.1.1.8,180,-0.310,-0.310,-0.310,0.000,0.000,0.000
1641208031423196160,2022-01-03-11:07:11,10.1.1.8,196,-0.320,-0.320,-0.320,0.000,0.000,0.000
1641208031621669120,2022-01-03-11:07:11,10.1.1.8,194,-0.330,-0.330,-0.330,0.000,0.000,0.000
1641208031801753088,2022-01-03-11:07:11,10.1.1.8,173,-0.340,-0.340,-0.340,0.000,0.000,0.000
1641208032011801856,2022-01-03-11:07:12,10.1.1.8,183,-0.350,-0.350,-0.350,0.000,0.000,0.000
1641208032211080192,2022-01-03-11:07:12,10.1.1.8,181,-0.360,-0.360,-0.360,0.000,0.000,0.000
1641208032411261184,2022-01-03-11:07:12,10.1.1.8,181,-0.370,-0.370,-0.370,0.000,0.000,0.000
1641208032611139072,2022-01-03-11:07:12,10.1.1.8,180,-0.380,-0.380,-0.380,0.000,0.000,0.000
1641208032820560896,2022-01-03-11:07:12,10.1.1.8,189,-0.390,-0.390,-0.390,0.000,0.000,0.000
1641208033010152960,2022-01-03-11:07:13,10.1.1.8,178,-0.400,-0.400,-0.400,0.000,0.000,0.000
1641208033210174208,2022-01-03-11:07:13,10.1.1.8,177,-0.410,-0.410,-0.410,0.000,0.000,0.000
1641208033410262016,2022-01-03-11:07:13,10.1.1.8,177,-0.420,-0.420,-0.420,0.000,0.000,0.000
1641208033609769216,2022-01-03-11:07:13,10.1.1.8,176,-0.430,-0.430,-0.430,0.000,0.000,0.000
1641208033809139968,2022-01-03-11:07:13,10.1.1.8,174,-0.440,-0.440,-0.440,0.000,0.000,0.000
1641208034018953984,2022-01-03-11:07:14,10.1.1.8,184,-0.450,-0.450,-0.450,0.000,0.000,0.000
1641208034208195840,2022-01-03-11:07:14,10.1.1.8,171,-0.460,-0.460,-0.460,0.000,0.000,0.000
1641208034408091136,2022-01-03-11:07:14,10.1.1.8,170,-0.470,-0.470,-0.470,0.000,0.000,0.000
1641208034611769088,2022-01-03-11:07:14,10.1.1.8,173,-0.480,-0.480,-0.480,0.000,0.000,0.000
1641208034838116864,2022-01-03-11:07:14,10.1.1.8,198,-0.490,-0.490,-0.490,0.000,0.000,0.000
1641208035017172992,2022-01-03-11:07:15,10.1.1.8,175,-0.480,-0.480,-0.480,0.000,0.000,0.000
1641208035227865856,2022-01-03-11:07:15,10.1.1.8,184,-0.470,-0.470,-0.470,0.000,0.000,0.000
1641208035427444992,2022-01-03-11:07:15,10.1.1.8,184,-0.460,-0.460,-0.460,0.000,0.000,0.000
1641208035617573888,2022-01-03-11:07:15,10.1.1.8,172,-0.450,-0.450,-0.450,0.000,0.000,0.000
1641208035816507136,2022-01-03-11:07:15,10.1.1.8,171,-0.440,-0.440,-0.440,0.000,0.000,0.000
1641208036015696128,2022-01-03-11:07:16,10.1.1.8,169,-0.430,-0.430,-0.430,0.000,0.000,0.000
1641208036236566016,2022-01-03-11:07:16,10.1.1.8,186,-0.420,-0.420,-0.420,0.000,0.000,0.000
1641208036435052032,2022-01-03-11:07:16,10.1.1.8,183,-0.410,-0.410,-0.410,0.000,0.000,0.000
1641208036624833024,2022-01-03-11:07:16,10.1.1.8,172,-0.400,-0.400,-0.400,0.000,0.000,0.000
1641208036825908992,2022-01-03-11:07:16,10.1.1.8,172,-0.390,-0.390,-0.390,0.000,0.000,0.000
1641208037035137024,2022-01-03-11:07:17,10.1.1.8,181,-0.380,-0.380,-0.380,0.000,0.000,0.000
1641208037225289984,2022-01-03-11:07:17,10.1.1.8,170,-0.370,-0.370,-0.370,0.000,0.000,0.000
1641208037424002048,2022-01-03-11:07:17,10.1.1.8,168,-0.360,-0.360,-0.360,0.000,0.000,0.000
1641208037624306944,2022-01-03-11:07:17,10.1.1.8,167,-0.350,-0.350,-0.350,0.000,0.000,0.000
1641208037832820992,2022-01-03-11:07:17,10.1.1.8,174,-0.340,-0.340,-0.340,0.000,0.000,0.000
1641208038023232000,2022-01-03-11:07:18,10.1.1.8,163,-0.330,-0.330,-0.330,0.000,0.000,0.000
1641208038224338176,2022-01-03-11:07:18,10.1.1.8,163,-0.320,-0.320,-0.320,0.000,0.000,0.000
1641208038433170176,2022-01-03-11:07:18,10.1.1.8,171,-0.310,-0.310,-0.310,0.000,0.000,0.000
1641208038643006976,2022-01-03-11:07:18,10.1.1.8,179,-0.300,-0.300,-0.300,0.000,0.000,0.000
1641208038838388992,2022-01-03-11:07:18,10.1.1.8,174,-0.290,-0.290,-0.290,0.000,0.000,0.000
1641208039033297152,2022-01-03-11:07:19,10.1.1.8,167,-0.280,-0.280,-0.280,0.000,0.000,0.000
1641208039241303040,2022-01-03-11:07:19,10.1.1.8,175,-0.270,-0.270,-0.270,0.000,0.000,0.000
1641208039440236032,2022-01-03-11:07:19,10.1.1.8,174,-0.260,-0.260,-0.260,0.000,0.000,0.000
1641208039630392064,2022-01-03-11:07:19,10.1.1.8,163,-0.250,-0.250,-0.250,0.000,0.000,0.000
1641208039850390784,2022-01-03-11:07:19,10.1.1.8,183,-0.240,-0.240,-0.240,0.000,0.000,0.000
1641208040050244096,2022-01-03-11:07:20,10.1.1.8,181,-0.230,-0.230,-0.230,0.000,0.000,0.000
1641208040240166912,2022-01-03-11:07:20,10.1.1.8,164,-0.220,-0.220,-0.220,0.000,0.000,0.000
1641208040438993920,2022-01-03-11:07:20,10.1.1.8,162,-0.210,-0.210,-0.210,0.000,0.000,0.000
1641208040639131904,2022-01-03-11:07:20,10.1.1.8,161,-0.200,-0.200,-0.200,0.000,0.000,0.000
1641208040838695936,2022-01-03-11:07:20,10.1.1.8,161,-0.190,-0.190,-0.190,0.000,0.000,0.000
1641208041038469120,2022-01-03-11:07:21,10.1.1.8,160,-0.180,-0.180,-0.180,0.000,0.000,0.000
1641208041257977088,2022-01-03-11:07:21,10.1.1.8,176,-0.170,-0.170,-0.170,0.000,0.000,0.000
1641208041467795968,2022-01-03-11:07:21,10.1.1.8,185,-0.160,-0.160,-0.160,0.000,0.000,0.000
1641208041657187840,2022-01-03-11:07:21,10.1.1.8,174,-0.150,-0.150,-0.150,0.000,0.000,0.000
1641208041856642048,2022-01-03-11:07:21,10.1.1.8,173,-0.140,-0.140,-0.140,0.000,0.000,0.000
1641208042046828032,2022-01-03-11:07:22,10.1.1.8,162,-0.130,-0.130,-0.130,0.000,0.000,0.000
1641208042256786944,2022-01-03-11:07:22,10.1.1.8,172,-0.120,-0.120,-0.120,0.000,0.000,0.000
1641208042455902208,2022-01-03-11:07:22,10.1.1.8,170,-0.110,-0.110,-0.110,0.000,0.000,0.000
1641208042645380096,2022-01-03-11:07:22,10.1.1.8,159,-0.100,-0.100,-0.100,0.000,0.000,0.000
1641208042847820032,2022-01-03-11:07:22,10.1.1.8,159,-0.090,-0.090,-0.090,0.000,0.000,0.000
1641208043044862976,2022-01-03-11:07:23,10.1.1.8,156,-0.080,-0.080,-0.080,0.000,0.000,0.000
1641208043256030976,2022-01-03-11:07:23,10.1.1.8,164,-0.070,-0.070,-0.070,0.000,0.000,0.000
1641208043466952192,2022-01-03-11:07:23,10.1.1.8,175,-0.060,-0.060,-0.060,0.000,0.000,0.000
1641208043660190208,2022-01-03-11:07:23,10.1.1.8,166,-0.050,-0.050,-0.050,0.000,0.000,0.000
1641208043859746816,2022-01-03-11:07:23,10.1.1.8,165,-0.040,-0.040,-0.040,0.000,0.000,0.000
1641208044084892160,2022-01-03-11:07:24,10.1.1.8,190,-0.030,-0.030,-0.030,0.000,0.000,0.000
1641208044261751808,2022-01-03-11:07:24,10.1.1.8,166,-0.020,-0.020,-0.020,0.000,0.000,0.000
1641208044463258112,2022-01-03-11:07:24,10.1.1.8,167,-0.010,-0.010,-0.010,0.000,0.000,0.000
1641208044663235840,2022-01-03-11:07:24,10.1.1.8,166,0.000,0.000,0.000,0.000,0.000,0.000
1641208044874461952,2022-01-03-11:07:24,10.1.1.8,177,-0.010,-0.010,-0.010,0.000,0.000,0.000
1641208045065556992,2022-01-03-11:07:25,10.1.1.8,167,-0.020,-0.020,-0.020,0.000,0.000,0.000
1641208045275860992,2022-01-03-11:07:25,10.1.1.8,177,-0.030,-0.030,-0.030,0.000,0.000,0.000
1641208045466705152,2022-01-03-11:07:25,10.1.1.8,167,-0.040,-0.040,-0.040,0.000,0.000,0.000
1641208045667357952,2022-01-03-11:07:25,10.1.1.8,167,-0.050,-0.050,-0.050,0.000,0.000,0.000
1641208045898189056,2022-01-03-11:07:25,10.1.1.8,198,-0.060,-0.060,-0.060,0.000,0.000,0.000
1641208046099577856,2022-01-03-11:07:26,10.1.1.8,198,-0.070,-0.070,-0.070,0.000,0.000,0.000
1641208046301878016,2022-01-03-11:07:26,10.1.1.8,199,-0.080,-0.080,-0.080,0.000,0.000,0.000
1641208046479768064,2022-01-03-11:07:26,10.1.1.8,176,-0.090,-0.090,-0.090,0.000,0.000,0.000
1641208046690128128,2022-01-03-11:07:26,10.1.1.8,186,-0.100,-0.100,-0.100,0.000,0.000,0.000
1641208046890952192,2022-01-03-11:07:26,10.1.1.8,186,-0.110,-0.110,-0.110,0.000,0.000,0.000
1641208047081392128,2022-01-03-11:07:27,10.1.1.8,175,-0.120,-0.120,-0.120,0.000,0.000,0.000
1641208047281966848,2022-01-03-11:07:27,10.1.1.8,176,-0.130,-0.130,-0.130,0.000,0.000,0.000
1641208047504361984,2022-01-03-11:07:27,10.1.1.8,197,-0.140,-0.140,-0.140,0.000,0.000,0.000
1641208047683337984,2022-01-03-11:07:27,10.1.1.8,175,-0.150,-0.150,-0.150,0.000,0.000,0.000
1641208047893570048,2022-01-03-11:07:27,10.1.1.8,182,-0.160,-0.160,-0.160,0.000,0.000,0.000
1641208048103992064,2022-01-03-11:07:28,10.1.1.8,192,-0.170,-0.170,-0.170,0.000,0.000,0.000
1641208048295063040,2022-01-03-11:07:28,10.1.1.8,182,-0.180,-0.180,-0.180,0.000,0.000,0.000
1641208048495378944,2022-01-03-11:07:28,10.1.1.8,182,-0.190,-0.190,-0.190,0.000,0.000,0.000
1641208048696596992,2022-01-03-11:07:28,10.1.1.8,182,-0.200,-0.200,-0.200,0.000,0.000,0.000
1641208048900374784,2022-01-03-11:07:28,10.1.1.8,183,-0.210,-0.210,-0.210,0.000,0.000,0.000
1641208049097588992,2022-01-03-11:07:29,10.1.1.8,183,-0.220,-0.220,-0.220,0.000,0.000,0.000
1641208049296762112,2022-01-03-11:07:29,10.1.1.8,181,-0.230,-0.230,-0.230,0.000,0.000,0.000
1641208049506371072,2022-01-03-11:07:29,10.1.1.8,190,-0.240,-0.240,-0.240,0.000,0.000,0.000
1641208049698019072,2022-01-03-11:07:29,10.1.1.8,182,-0.250,-0.250,-0.250,0.000,0.000,0.000
1641208049898268928,2022-01-03-11:07:29,10.1.1.8,181,-0.260,-0.260,-0.260,0.000,0.000,0.000
1641208050103702016,2022-01-03-11:07:30,10.1.1.8,186,-0.270,-0.270,-0.270,0.000,0.000,0.000
1641208050308126976,2022-01-03-11:07:30,10.1.1.8,189,-0.280,-0.280,-0.280,0.000,0.000,0.000
1641208050509511936,2022-01-03-11:07:30,10.1.1.8,189,-0.290,-0.290,-0.290,0.000,0.000,0.000
1641208050719000064,2022-01-03-11:07:30,10.1.1.8,198,-0.300,-0.300,-0.300,0.000,0.000,0.000
1641208050908779008,2022-01-03-11:07:30,10.1.1.8,187,-0.310,-0.310,-0.310,0.000,0.000,0.000
1641208051108679168,2022-01-03-11:07:31,10.1.1.8,186,-0.320,-0.320,-0.320,0.000,0.000,0.000
1641208051308870144,2022-01-03-11:07:31,10.1.1.8,186,-0.330,-0.330,-0.330,0.000,0.000,0.000
1641208051718828800,2022-01-03-11:07:31,10.1.1.8,195,-0.350,-0.350,-0.350,0.000,0.000,0.000
1641208051908849920,2022-01-03-11:07:31,10.1.1.8,182,-0.360,-0.360,-0.360,0.000,0.000,0.000
1641208052109117952,2022-01-03-11:07:32,10.1.1.8,182,-0.370,-0.370,-0.370,0.000,0.000,0.000
1641208052308891904,2022-01-03-11:07:32,10.1.1.8,180,-0.380,-0.380,-0.380,0.000,0.000,0.000
1641208052519468032,2022-01-03-11:07:32,10.1.1.8,190,-0.390,-0.390,-0.390,0.000,0.000,0.000
1641208052720158976,2022-01-03-11:07:32,10.1.1.8,190,-0.400,-0.400,-0.400,0.000,0.000,0.000
1641208052919259904,2022-01-03-11:07:32,10.1.1.8,187,-0.410,-0.410,-0.410,0.000,0.000,0.000
1641208053129807104,2022-01-03-11:07:33,10.1.1.8,197,-0.420,-0.420,-0.420,0.000,0.000,0.000
1641208053329755136,2022-01-03-11:07:33,10.1.1.8,196,-0.430,-0.430,-0.430,0.000,0.000,0.000
1641208053529687808,2022-01-03-11:07:33,10.1.1.8,195,-0.440,-0.440,-0.440,0.000,0.000,0.000
1641208053735328000,2022-01-03-11:07:33,10.1.1.8,195,-0.450,-0.450,-0.450,0.000,0.000,0.000
1641208053930060032,2022-01-03-11:07:33,10.1.1.8,193,-0.460,-0.460,-0.460,0.000,0.000,0.000
1641208054121210112,2022-01-03-11:07:34,10.1.1.8,182,-0.470,-0.470,-0.470,0.000,0.000,0.000
1641208054330514944,2022-01-03-11:07:34,10.1.1.8,191,-0.480,-0.480,-0.480,0.000,0.000,0.000
1641208054522519040,2022-01-03-11:07:34,10.1.1.8,182,-0.490,-0.490,-0.490,0.000,0.000,0.000
1641208054729264896,2022-01-03-11:07:34,10.1.1.8,189,-0.480,-0.480,-0.480,0.000,0.000,0.000
1641208054930960896,2022-01-03-11:07:34,10.1.1.8,190,-0.470,-0.470,-0.470,0.000,0.000,0.000
1641208055130462976,2022-01-03-11:07:35,10.1.1.8,188,-0.460,-0.460,-0.460,0.000,0.000,0.000
1641208055330887168,2022-01-03-11:07:35,10.1.1.8,186,-0.450,-0.450,-0.450,0.000,0.000,0.000
1641208055539407872,2022-01-03-11:07:35,10.1.1.8,194,-0.440,-0.440,-0.440,0.000,0.000,0.000
1641208055938863104,2022-01-03-11:07:35,10.1.1.8,191,-0.420,-0.420,-0.420,0.000,0.000,0.000
1641208056129280000,2022-01-03-11:07:36,10.1.1.8,181,-0.410,-0.410,-0.410,0.000,0.000,0.000
1641208056528749056,2022-01-03-11:07:36,10.1.1.8,180,-0.390,-0.390,-0.390,0.000,0.000,0.000
1641208056739373056,2022-01-03-11:07:36,10.1.1.8,190,-0.380,-0.380,-0.380,0.000,0.000,0.000
1641208056940566016,2022-01-03-11:07:36,10.1.1.8,190,-0.370,-0.370,-0.370,0.000,0.000,0.000
1641208057138329088,2022-01-03-11:07:37,10.1.1.8,187,-0.360,-0.360,-0.360,0.000,0.000,0.000
1641208057338177792,2022-01-03-11:07:37,10.1.1.8,186,-0.350,-0.350,-0.350,0.000,0.000,0.000
1641208057538998016,2022-01-03-11:07:37,10.1.1.8,186,-0.340,-0.340,-0.340,0.000,0.000,0.000
1641208057738953216,2022-01-03-11:07:37,10.1.1.8,186,-0.330,-0.330,-0.330,0.000,0.000,0.000
1641208057938658048,2022-01-03-11:07:37,10.1.1.8,185,-0.320,-0.320,-0.320,0.000,0.000,0.000
1641208058138048768,2022-01-03-11:07:38,10.1.1.8,183,-0.310,-0.310,-0.310,0.000,0.000,0.000
1641208058340014080,2022-01-03-11:07:38,10.1.1.8,185,-0.300,-0.300,-0.300,0.000,0.000,0.000
1641208058538095872,2022-01-03-11:07:38,10.1.1.8,182,-0.290,-0.290,-0.290,0.000,0.000,0.000
1641208058737670912,2022-01-03-11:07:38,10.1.1.8,180,-0.280,-0.280,-0.280,0.000,0.000,0.000
1641208058937635840,2022-01-03-11:07:38,10.1.1.8,180,-0.270,-0.270,-0.270,0.000,0.000,0.000
1641208059137469952,2022-01-03-11:07:39,10.1.1.8,179,-0.260,-0.260,-0.260,0.000,0.000,0.000
1641208059347127808,2022-01-03-11:07:39,10.1.1.8,188,-0.250,-0.250,-0.250,0.000,0.000,0.000
1641208059556140032,2022-01-03-11:07:39,10.1.1.8,196,-0.240,-0.240,-0.240,0.000,0.000,0.000
1641208059751656960,2022-01-03-11:07:39,10.1.1.8,191,-0.230,-0.230,-0.230,0.000,0.000,0.000
1641208059946790912,2022-01-03-11:07:39,10.1.1.8,186,-0.220,-0.220,-0.220,0.000,0.000,0.000
1641208060156449024,2022-01-03-11:07:40,10.1.1.8,195,-0.210,-0.210,-0.210,0.000,0.000,0.000
1641208060356898048,2022-01-03-11:07:40,10.1.1.8,194,-0.200,-0.200,-0.200,0.000,0.000,0.000
1641208060546222848,2022-01-03-11:07:40,10.1.1.8,183,-0.190,-0.190,-0.190,0.000,0.000,0.000
1641208060745705984,2022-01-03-11:07:40,10.1.1.8,182,-0.180,-0.180,-0.180,0.000,0.000,0.000
1641208060950167040,2022-01-03-11:07:40,10.1.1.8,185,-0.170,-0.170,-0.170,0.000,0.000,0.000
1641208061345892864,2022-01-03-11:07:41,10.1.1.8,180,-0.150,-0.150,-0.150,0.000,0.000,0.000
1641208061544740864,2022-01-03-11:07:41,10.1.1.8,178,-0.140,-0.140,-0.140,0.000,0.000,0.000
1641208061744573952,2022-01-03-11:07:41,10.1.1.8,177,-0.130,-0.130,-0.130,0.000,0.000,0.000
1641208061964302080,2022-01-03-11:07:41,10.1.1.8,197,-0.120,-0.120,-0.120,0.000,0.000,0.000
1641208062344033024,2022-01-03-11:07:42,10.1.1.8,174,-0.100,-0.100,-0.100,0.000,0.000,0.000
1641208062563993856,2022-01-03-11:07:42,10.1.1.8,184,-0.090,-0.090,-0.090,0.000,0.000,0.000
1641208062973859072,2022-01-03-11:07:42,10.1.1.8,192,-0.070,-0.070,-0.070,0.000,0.000,0.000
1641208063373181952,2022-01-03-11:07:43,10.1.1.8,190,-0.050,-0.050,-0.050,0.000,0.000,0.000
1641208063572797184,2022-01-03-11:07:43,10.1.1.8,189,-0.040,-0.040,-0.040,0.000,0.000,0.000
1641208063772293120,2022-01-03-11:07:43,10.1.1.8,188,-0.030,-0.030,-0.030,0.000,0.000,0.000
1641208063972316928,2022-01-03-11:07:43,10.1.1.8,187,-0.020,-0.020,-0.020,0.000,0.000,0.000
1641208064161572864,2022-01-03-11:07:44,10.1.1.8,176,-0.010,-0.010,-0.010,0.000,0.000,0.000
1641208064361646848,2022-01-03-11:07:44,10.1.1.8,175,0.000,0.000,0.000,0.000,0.000,0.000
1641208064561285120,2022-01-03-11:07:44,10.1.1.8,175,-0.010,-0.010,-0.010,0.000,0.000,0.000
1641208064761432832,2022-01-03-11:07:44,10.1.1.8,174,-0.020,-0.020,-0.020,0.000,0.000,0.000
1641208064961127936,2022-01-03-11:07:44,10.1.1.8,174,-0.030,-0.030,-0.030,0.000,0.000,0.000
1641208065180430848,2022-01-03-11:07:45,10.1.1.8,192,-0.040,-0.040,-0.040,0.000,0.000,0.000
1641208065370697984,2022-01-03-11:07:45,10.1.1.8,182,-0.050,-0.050,-0.050,0.000,0.000,0.000
1641208065580332032,2022-01-03-11:07:45,10.1.1.8,192,-0.060,-0.060,-0.060,0.000,0.000,0.000
1641208065769992960,2022-01-03-11:07:45,10.1.1.8,179,-0.070,-0.070,-0.070,0.000,0.000,0.000
1641208065969746944,2022-01-03-11:07:45,10.1.1.8,179,-0.080,-0.080,-0.080,0.000,0.000,0.000
1641208066178778880,2022-01-03-11:07:46,10.1.1.8,187,-0.090,-0.090,-0.090,0.000,0.000,0.000
1641208066379303936,2022-01-03-11:07:46,10.1.1.8,187,-0.100,-0.100,-0.100,0.000,0.000,0.000
1641208066569165056,2022-01-03-11:07:46,10.1.1.8,177,-0.110,-0.110,-0.110,0.000,0.000,0.000
1641208066778722048,2022-01-03-11:07:46,10.1.1.8,186,-0.120,-0.120,-0.120,0.000,0.000,0.000
1641208066968369920,2022-01-03-11:07:46,10.1.1.8,174,-0.130,-0.130,-0.130,0.000,0.000,0.000
1641208067177826048,2022-01-03-11:07:47,10.1.1.8,183,-0.140,-0.140,-0.140,0.000,0.000,0.000
1641208067368803072,2022-01-03-11:07:47,10.1.1.8,173,-0.150,-0.150,-0.150,0.000,0.000,0.000
1641208067569560064,2022-01-03-11:07:47,10.1.1.8,173,-0.160,-0.160,-0.160,0.000,0.000,0.000
1641208067767168000,2022-01-03-11:07:47,10.1.1.8,170,-0.170,-0.170,-0.170,0.000,0.000,0.000
1641208067966542848,2022-01-03-11:07:47,10.1.1.8,168,-0.180,-0.180,-0.180,0.000,0.000,0.000
1641208068176219904,2022-01-03-11:07:48,10.1.1.8,177,-0.190,-0.190,-0.190,0.000,0.000,0.000
1641208068386789120,2022-01-03-11:07:48,10.1.1.8,187,-0.200,-0.200,-0.200,0.000,0.000,0.000
1641208068575683072,2022-01-03-11:07:48,10.1.1.8,173,-0.210,-0.210,-0.210,0.000,0.000,0.000
1641208068785886976,2022-01-03-11:07:48,10.1.1.8,182,-0.220,-0.220,-0.220,0.000,0.000,0.000
1641208068985768192,2022-01-03-11:07:48,10.1.1.8,182,-0.230,-0.230,-0.230,0.000,0.000,0.000
1641208069174868992,2022-01-03-11:07:49,10.1.1.8,170,-0.240,-0.240,-0.240,0.000,0.000,0.000
1641208069375032832,2022-01-03-11:07:49,10.1.1.8,170,-0.250,-0.250,-0.250,0.000,0.000,0.000
1641208069584508928,2022-01-03-11:07:49,10.1.1.8,178,-0.260,-0.260,-0.260,0.000,0.000,0.000
1641208069784943104,2022-01-03-11:07:49,10.1.1.8,178,-0.270,-0.270,-0.270,0.000,0.000,0.000
1641208069983695104,2022-01-03-11:07:49,10.1.1.8,176,-0.280,-0.280,-0.280,0.000,0.000,0.000
1641208070174650880,2022-01-03-11:07:50,10.1.1.8,165,-0.290,-0.290,-0.290,0.000,0.000,0.000
1641208070383547904,2022-01-03-11:07:50,10.1.1.8,173,-0.300,-0.300,-0.300,0.000,0.000,0.000
1641208070584274176,2022-01-03-11:07:50,10.1.1.8,173,-0.310,-0.310,-0.310,0.000,0.000,0.000
1641208070792817152,2022-01-03-11:07:50,10.1.1.8,181,-0.320,-0.320,-0.320,0.000,0.000,0.000
1641208070993222912,2022-01-03-11:07:50,10.1.1.8,181,-0.330,-0.330,-0.330,0.000,0.000,0.000
1641208071182270976,2022-01-03-11:07:51,10.1.1.8,169,-0.340,-0.340,-0.340,0.000,0.000,0.000
1641208071393101056,2022-01-03-11:07:51,10.1.1.8,178,-0.350,-0.350,-0.350,0.000,0.000,0.000
1641208071616784128,2022-01-03-11:07:51,10.1.1.8,199,-0.360,-0.360,-0.360,0.000,0.000,0.000
1641208071784041984,2022-01-03-11:07:51,10.1.1.8,166,-0.370,-0.370,-0.370,0.000,0.000,0.000
1641208071992793088,2022-01-03-11:07:51,10.1.1.8,174,-0.380,-0.380,-0.380,0.000,0.000,0.000
1641208072183408896,2022-01-03-11:07:52,10.1.1.8,164,-0.390,-0.390,-0.390,0.000,0.000,0.000
1641208072380628992,2022-01-03-11:07:52,10.1.1.8,160,-0.400,-0.400,-0.400,0.000,0.000,0.000
1641208072600059136,2022-01-03-11:07:52,10.1.1.8,180,-0.410,-0.410,-0.410,0.000,0.000,0.000
1641208072789735168,2022-01-03-11:07:52,10.1.1.8,168,-0.420,-0.420,-0.420,0.000,0.000,0.000
1641208072989298944,2022-01-03-11:07:52,10.1.1.8,167,-0.430,-0.430,-0.430,0.000,0.000,0.000
1641208073188837120,2022-01-03-11:07:53,10.1.1.8,167,-0.440,-0.440,-0.440,0.000,0.000,0.000
1641208073408492032,2022-01-03-11:07:53,10.1.1.8,186,-0.450,-0.450,-0.450,0.000,0.000,0.000
1641208073588269824,2022-01-03-11:07:53,10.1.1.8,164,-0.460,-0.460,-0.460,0.000,0.000,0.000
1641208073800681216,2022-01-03-11:07:53,10.1.1.8,176,-0.470,-0.470,-0.470,0.000,0.000,0.000
1641208073988183040,2022-01-03-11:07:53,10.1.1.8,163,-0.480,-0.480,-0.480,0.000,0.000,0.000
1641208074187668992,2022-01-03-11:07:54,10.1.1.8,161,-0.490,-0.490,-0.490,0.000,0.000,0.000
1641208074386387200,2022-01-03-11:07:54,10.1.1.8,158,-0.480,-0.480,-0.480,0.000,0.000,0.000
1641208074586636032,2022-01-03-11:07:54,10.1.1.8,157,-0.470,-0.470,-0.470,0.000,0.000,0.000
1641208074786091008,2022-01-03-11:07:54,10.1.1.8,156,-0.460,-0.460,-0.460,0.000,0.000,0.000
1641208074996192000,2022-01-03-11:07:54,10.1.1.8,165,-0.450,-0.450,-0.450,0.000,0.000,0.000
