FedericoMungari/DigitalTwin_service/01_WiredScenario/Output/Output_script/script_rosapi_2_output_robots4_freq0_1.txt
timestamp,date,node,latency,joint_1,joint_2,joint_3,joint_4,joint_5,joint_6
1641195348967330816,2022-01-03-07:35:48,10.1.1.2,176,-0.010,-0.010,-0.010,0.000,0.000,0.000
1641195349170448128,2022-01-03-07:35:49,10.1.1.2,178,-0.020,-0.020,-0.020,0.000,0.000,0.000
1641195349369949952,2022-01-03-07:35:49,10.1.1.2,177,-0.030,-0.030,-0.030,0.000,0.000,0.000
1641195349790136064,2022-01-03-07:35:49,10.1.1.2,194,-0.050,-0.050,-0.050,0.000,0.000,0.000
1641195349991779072,2022-01-03-07:35:49,10.1.1.2,195,-0.060,-0.060,-0.060,0.000,0.000,0.000
1641195350191823872,2022-01-03-07:35:50,10.1.1.2,192,-0.070,-0.070,-0.070,0.000,0.000,0.000
1641195350391424000,2022-01-03-07:35:50,10.1.1.2,190,-0.080,-0.080,-0.080,0.000,0.000,0.000
1641195350593086976,2022-01-03-07:35:50,10.1.1.2,192,-0.090,-0.090,-0.090,0.000,0.000,0.000
1641195350793024000,2022-01-03-07:35:50,10.1.1.2,191,-0.100,-0.100,-0.100,0.000,0.000,0.000
1641195350991369984,2022-01-03-07:35:50,10.1.1.2,188,-0.110,-0.110,-0.110,0.000,0.000,0.000
1641195351192339968,2022-01-03-07:35:51,10.1.1.2,188,-0.120,-0.120,-0.120,0.000,0.000,0.000
1641195351394032128,2022-01-03-07:35:51,10.1.1.2,183,-0.130,-0.130,-0.130,0.000,0.000,0.000
1641195351595165952,2022-01-03-07:35:51,10.1.1.2,183,-0.140,-0.140,-0.140,0.000,0.000,0.000
1641195351793287936,2022-01-03-07:35:51,10.1.1.2,180,-0.150,-0.150,-0.150,0.000,0.000,0.000
1641195352015505920,2022-01-03-07:35:52,10.1.1.2,200,-0.160,-0.160,-0.160,0.000,0.000,0.000
1641195352214718208,2022-01-03-07:35:52,10.1.1.2,197,-0.170,-0.170,-0.170,0.000,0.000,0.000
1641195352414887936,2022-01-03-07:35:52,10.1.1.2,197,-0.180,-0.180,-0.180,0.000,0.000,0.000
1641195352617867008,2022-01-03-07:35:52,10.1.1.2,199,-0.190,-0.190,-0.190,0.000,0.000,0.000
1641195352814205952,2022-01-03-07:35:52,10.1.1.2,195,-0.200,-0.200,-0.200,0.000,0.000,0.000
1641195353015911936,2022-01-03-07:35:53,10.1.1.2,195,-0.210,-0.210,-0.210,0.000,0.000,0.000
1641195353219122944,2022-01-03-07:35:53,10.1.1.2,198,-0.220,-0.220,-0.220,0.000,0.000,0.000
1641195353415347200,2022-01-03-07:35:53,10.1.1.2,193,-0.230,-0.230,-0.230,0.000,0.000,0.000
1641195353615980032,2022-01-03-07:35:53,10.1.1.2,190,-0.240,-0.240,-0.240,0.000,0.000,0.000
1641195353815814144,2022-01-03-07:35:53,10.1.1.2,189,-0.250,-0.250,-0.250,0.000,0.000,0.000
1641195354018093056,2022-01-03-07:35:54,10.1.1.2,191,-0.260,-0.260,-0.260,0.000,0.000,0.000
1641195354215917056,2022-01-03-07:35:54,10.1.1.2,188,-0.270,-0.270,-0.270,0.000,0.000,0.000
1641195354419675136,2022-01-03-07:35:54,10.1.1.2,191,-0.280,-0.280,-0.280,0.000,0.000,0.000
1641195354619353088,2022-01-03-07:35:54,10.1.1.2,190,-0.290,-0.290,-0.290,0.000,0.000,0.000
1641195354818766080,2022-01-03-07:35:54,10.1.1.2,188,-0.300,-0.300,-0.300,0.000,0.000,0.000
1641195355018376960,2022-01-03-07:35:55,10.1.1.2,186,-0.310,-0.310,-0.310,0.000,0.000,0.000
1641195355217094912,2022-01-03-07:35:55,10.1.1.2,184,-0.320,-0.320,-0.320,0.000,0.000,0.000
1641195355622675968,2022-01-03-07:35:55,10.1.1.2,186,-0.340,-0.340,-0.340,0.000,0.000,0.000
1641195356039768832,2022-01-03-07:35:56,10.1.1.2,202,-0.360,-0.360,-0.360,0.000,0.000,0.000
1641195356236560128,2022-01-03-07:35:56,10.1.1.2,196,-0.370,-0.370,-0.370,0.000,0.000,0.000
1641195356440843008,2022-01-03-07:35:56,10.1.1.2,199,-0.380,-0.380,-0.380,0.000,0.000,0.000
1641195356639906048,2022-01-03-07:35:56,10.1.1.2,197,-0.390,-0.390,-0.390,0.000,0.000,0.000
1641195356838650112,2022-01-03-07:35:56,10.1.1.2,195,-0.400,-0.400,-0.400,0.000,0.000,0.000
1641195357041212928,2022-01-03-07:35:57,10.1.1.2,197,-0.410,-0.410,-0.410,0.000,0.000,0.000
1641195357242292992,2022-01-03-07:35:57,10.1.1.2,197,-0.420,-0.420,-0.420,0.000,0.000,0.000
1641195357438956032,2022-01-03-07:35:57,10.1.1.2,192,-0.430,-0.430,-0.430,0.000,0.000,0.000
1641195357639038976,2022-01-03-07:35:57,10.1.1.2,191,-0.440,-0.440,-0.440,0.000,0.000,0.000
1641195357840011008,2022-01-03-07:35:57,10.1.1.2,192,-0.450,-0.450,-0.450,0.000,0.000,0.000
1641195358041176064,2022-01-03-07:35:58,10.1.1.2,191,-0.460,-0.460,-0.460,0.000,0.000,0.000
1641195358239099136,2022-01-03-07:35:58,10.1.1.2,188,-0.470,-0.470,-0.470,0.000,0.000,0.000
1641195358438089984,2022-01-03-07:35:58,10.1.1.2,186,-0.480,-0.480,-0.480,0.000,0.000,0.000
1641195358639232000,2022-01-03-07:35:58,10.1.1.2,185,-0.490,-0.490,-0.490,0.000,0.000,0.000
1641195359061235968,2022-01-03-07:35:59,10.1.1.2,205,-0.470,-0.470,-0.470,0.000,0.000,0.000
1641195359261146112,2022-01-03-07:35:59,10.1.1.2,199,-0.460,-0.460,-0.460,0.000,0.000,0.000
1641195359459099136,2022-01-03-07:35:59,10.1.1.2,196,-0.450,-0.450,-0.450,0.000,0.000,0.000
1641195359658173952,2022-01-03-07:35:59,10.1.1.2,193,-0.440,-0.440,-0.440,0.000,0.000,0.000
1641195359859143936,2022-01-03-07:35:59,10.1.1.2,190,-0.430,-0.430,-0.430,0.000,0.000,0.000
1641195360058702080,2022-01-03-07:36:00,10.1.1.2,187,-0.420,-0.420,-0.420,0.000,0.000,0.000
1641195360255687936,2022-01-03-07:36:00,10.1.1.2,183,-0.410,-0.410,-0.410,0.000,0.000,0.000
1641195360479708928,2022-01-03-07:36:00,10.1.1.2,205,-0.400,-0.400,-0.400,0.000,0.000,0.000
1641195360677871872,2022-01-03-07:36:00,10.1.1.2,197,-0.390,-0.390,-0.390,0.000,0.000,0.000
1641195360877253888,2022-01-03-07:36:00,10.1.1.2,195,-0.380,-0.380,-0.380,0.000,0.000,0.000
1641195361075778048,2022-01-03-07:36:01,10.1.1.2,193,-0.370,-0.370,-0.370,0.000,0.000,0.000
1641195361276951040,2022-01-03-07:36:01,10.1.1.2,193,-0.360,-0.360,-0.360,0.000,0.000,0.000
1641195361477860096,2022-01-03-07:36:01,10.1.1.2,193,-0.350,-0.350,-0.350,0.000,0.000,0.000
1641195361677864192,2022-01-03-07:36:01,10.1.1.2,192,-0.340,-0.340,-0.340,0.000,0.000,0.000
1641195361876812032,2022-01-03-07:36:01,10.1.1.2,190,-0.330,-0.330,-0.330,0.000,0.000,0.000
1641195362075116032,2022-01-03-07:36:02,10.1.1.2,187,-0.320,-0.320,-0.320,0.000,0.000,0.000
1641195362279661056,2022-01-03-07:36:02,10.1.1.2,191,-0.310,-0.310,-0.310,0.000,0.000,0.000
1641195362477624064,2022-01-03-07:36:02,10.1.1.2,188,-0.300,-0.300,-0.300,0.000,0.000,0.000
1641195362673064960,2022-01-03-07:36:02,10.1.1.2,182,-0.290,-0.290,-0.290,0.000,0.000,0.000
1641195362875271936,2022-01-03-07:36:02,10.1.1.2,183,-0.280,-0.280,-0.280,0.000,0.000,0.000
1641195363095366912,2022-01-03-07:36:03,10.1.1.2,200,-0.270,-0.270,-0.270,0.000,0.000,0.000
1641195363295847936,2022-01-03-07:36:03,10.1.1.2,200,-0.260,-0.260,-0.260,0.000,0.000,0.000
1641195363492742912,2022-01-03-07:36:03,10.1.1.2,196,-0.250,-0.250,-0.250,0.000,0.000,0.000
1641195363691940096,2022-01-03-07:36:03,10.1.1.2,194,-0.240,-0.240,-0.240,0.000,0.000,0.000
1641195363891964928,2022-01-03-07:36:03,10.1.1.2,193,-0.230,-0.230,-0.230,0.000,0.000,0.000
1641195364091689984,2022-01-03-07:36:04,10.1.1.2,192,-0.220,-0.220,-0.220,0.000,0.000,0.000
1641195364292012032,2022-01-03-07:36:04,10.1.1.2,191,-0.210,-0.210,-0.210,0.000,0.000,0.000
1641195364491188992,2022-01-03-07:36:04,10.1.1.2,190,-0.200,-0.200,-0.200,0.000,0.000,0.000
1641195364692883968,2022-01-03-07:36:04,10.1.1.2,191,-0.190,-0.190,-0.190,0.000,0.000,0.000
1641195364893618176,2022-01-03-07:36:04,10.1.1.2,190,-0.180,-0.180,-0.180,0.000,0.000,0.000
1641195365093880832,2022-01-03-07:36:05,10.1.1.2,189,-0.170,-0.170,-0.170,0.000,0.000,0.000
1641195365292941056,2022-01-03-07:36:05,10.1.1.2,187,-0.160,-0.160,-0.160,0.000,0.000,0.000
1641195365492968192,2022-01-03-07:36:05,10.1.1.2,185,-0.150,-0.150,-0.150,0.000,0.000,0.000
1641195365693061120,2022-01-03-07:36:05,10.1.1.2,183,-0.140,-0.140,-0.140,0.000,0.000,0.000
1641195365893147904,2022-01-03-07:36:05,10.1.1.2,182,-0.130,-0.130,-0.130,0.000,0.000,0.000
1641195366112189952,2022-01-03-07:36:06,10.1.1.2,198,-0.120,-0.120,-0.120,0.000,0.000,0.000
1641195366310511104,2022-01-03-07:36:06,10.1.1.2,195,-0.110,-0.110,-0.110,0.000,0.000,0.000
1641195366509201152,2022-01-03-07:36:06,10.1.1.2,192,-0.100,-0.100,-0.100,0.000,0.000,0.000
1641195366711843072,2022-01-03-07:36:06,10.1.1.2,194,-0.090,-0.090,-0.090,0.000,0.000,0.000
1641195366909511168,2022-01-03-07:36:06,10.1.1.2,191,-0.080,-0.080,-0.080,0.000,0.000,0.000
1641195367108505856,2022-01-03-07:36:07,10.1.1.2,188,-0.070,-0.070,-0.070,0.000,0.000,0.000
1641195367309110016,2022-01-03-07:36:07,10.1.1.2,188,-0.060,-0.060,-0.060,0.000,0.000,0.000
1641195367508711936,2022-01-03-07:36:07,10.1.1.2,187,-0.050,-0.050,-0.050,0.000,0.000,0.000
1641195367707276032,2022-01-03-07:36:07,10.1.1.2,185,-0.040,-0.040,-0.040,0.000,0.000,0.000
1641195367909147136,2022-01-03-07:36:07,10.1.1.2,186,-0.030,-0.030,-0.030,0.000,0.000,0.000
1641195368108285952,2022-01-03-07:36:08,10.1.1.2,184,-0.020,-0.020,-0.020,0.000,0.000,0.000
1641195368307642880,2022-01-03-07:36:08,10.1.1.2,183,-0.010,-0.010,-0.010,0.000,0.000,0.000
1641195368511554048,2022-01-03-07:36:08,10.1.1.2,184,0.000,0.000,0.000,0.000,0.000,0.000
1641195368716856832,2022-01-03-07:36:08,10.1.1.2,190,-0.010,-0.010,-0.010,0.000,0.000,0.000
1641195368907116032,2022-01-03-07:36:08,10.1.1.2,179,-0.020,-0.020,-0.020,0.000,0.000,0.000
1641195369105631232,2022-01-03-07:36:09,10.1.1.2,175,-0.030,-0.030,-0.030,0.000,0.000,0.000
1641195369310540032,2022-01-03-07:36:09,10.1.1.2,178,-0.040,-0.040,-0.040,0.000,0.000,0.000
1641195369524952832,2022-01-03-07:36:09,10.1.1.2,191,-0.050,-0.050,-0.050,0.000,0.000,0.000
1641195369725425920,2022-01-03-07:36:09,10.1.1.2,190,-0.060,-0.060,-0.060,0.000,0.000,0.000
1641195370123958016,2022-01-03-07:36:10,10.1.1.2,184,-0.080,-0.080,-0.080,0.000,0.000,0.000
1641195370324503040,2022-01-03-07:36:10,10.1.1.2,184,-0.090,-0.090,-0.090,0.000,0.000,0.000
1641195370524561920,2022-01-03-07:36:10,10.1.1.2,182,-0.100,-0.100,-0.100,0.000,0.000,0.000
1641195370723470080,2022-01-03-07:36:10,10.1.1.2,180,-0.110,-0.110,-0.110,0.000,0.000,0.000
1641195370924014080,2022-01-03-07:36:10,10.1.1.2,180,-0.120,-0.120,-0.120,0.000,0.000,0.000
1641195371122232064,2022-01-03-07:36:11,10.1.1.2,176,-0.130,-0.130,-0.130,0.000,0.000,0.000
1641195371322354176,2022-01-03-07:36:11,10.1.1.2,175,-0.140,-0.140,-0.140,0.000,0.000,0.000
1641195371523545856,2022-01-03-07:36:11,10.1.1.2,176,-0.150,-0.150,-0.150,0.000,0.000,0.000
1641195371725438208,2022-01-03-07:36:11,10.1.1.2,177,-0.160,-0.160,-0.160,0.000,0.000,0.000
1641195371923132928,2022-01-03-07:36:11,10.1.1.2,175,-0.170,-0.170,-0.170,0.000,0.000,0.000
1641195372121423872,2022-01-03-07:36:12,10.1.1.2,171,-0.180,-0.180,-0.180,0.000,0.000,0.000
1641195372322189056,2022-01-03-07:36:12,10.1.1.2,170,-0.190,-0.190,-0.190,0.000,0.000,0.000
1641195372520113920,2022-01-03-07:36:12,10.1.1.2,168,-0.200,-0.200,-0.200,0.000,0.000,0.000
1641195372721053952,2022-01-03-07:36:12,10.1.1.2,167,-0.210,-0.210,-0.210,0.000,0.000,0.000
1641195372944590080,2022-01-03-07:36:12,10.1.1.2,191,-0.220,-0.220,-0.220,0.000,0.000,0.000
1641195373143944960,2022-01-03-07:36:13,10.1.1.2,189,-0.230,-0.230,-0.230,0.000,0.000,0.000
1641195373340864000,2022-01-03-07:36:13,10.1.1.2,185,-0.240,-0.240,-0.240,0.000,0.000,0.000
1641195373544492032,2022-01-03-07:36:13,10.1.1.2,188,-0.250,-0.250,-0.250,0.000,0.000,0.000
1641195373738825984,2022-01-03-07:36:13,10.1.1.2,175,-0.260,-0.260,-0.260,0.000,0.000,0.000
1641195373941241856,2022-01-03-07:36:13,10.1.1.2,177,-0.270,-0.270,-0.270,0.000,0.000,0.000
1641195374141330944,2022-01-03-07:36:14,10.1.1.2,176,-0.280,-0.280,-0.280,0.000,0.000,0.000
1641195374337060864,2022-01-03-07:36:14,10.1.1.2,170,-0.290,-0.290,-0.290,0.000,0.000,0.000
1641195374538025984,2022-01-03-07:36:14,10.1.1.2,170,-0.300,-0.300,-0.300,0.000,0.000,0.000
1641195374738074112,2022-01-03-07:36:14,10.1.1.2,168,-0.310,-0.310,-0.310,0.000,0.000,0.000
1641195374937784064,2022-01-03-07:36:14,10.1.1.2,166,-0.320,-0.320,-0.320,0.000,0.000,0.000
1641195375140577024,2022-01-03-07:36:15,10.1.1.2,168,-0.330,-0.330,-0.330,0.000,0.000,0.000
1641195375356257792,2022-01-03-07:36:15,10.1.1.2,181,-0.340,-0.340,-0.340,0.000,0.000,0.000
1641195375555484928,2022-01-03-07:36:15,10.1.1.2,178,-0.350,-0.350,-0.350,0.000,0.000,0.000
1641195375755604992,2022-01-03-07:36:15,10.1.1.2,172,-0.360,-0.360,-0.360,0.000,0.000,0.000
1641195375959721984,2022-01-03-07:36:15,10.1.1.2,172,-0.370,-0.370,-0.370,0.000,0.000,0.000
1641195376164422912,2022-01-03-07:36:16,10.1.1.2,175,-0.380,-0.380,-0.380,0.000,0.000,0.000
1641195376356361984,2022-01-03-07:36:16,10.1.1.2,166,-0.390,-0.390,-0.390,0.000,0.000,0.000
1641195376557799168,2022-01-03-07:36:16,10.1.1.2,167,-0.400,-0.400,-0.400,0.000,0.000,0.000
1641195376755011072,2022-01-03-07:36:16,10.1.1.2,162,-0.410,-0.410,-0.410,0.000,0.000,0.000
1641195376978536960,2022-01-03-07:36:16,10.1.1.2,184,-0.420,-0.420,-0.420,0.000,0.000,0.000
1641195377176947200,2022-01-03-07:36:17,10.1.1.2,180,-0.430,-0.430,-0.430,0.000,0.000,0.000
1641195377373225984,2022-01-03-07:36:17,10.1.1.2,171,-0.440,-0.440,-0.440,0.000,0.000,0.000
1641195377577900800,2022-01-03-07:36:17,10.1.1.2,176,-0.450,-0.450,-0.450,0.000,0.000,0.000
1641195377781410816,2022-01-03-07:36:17,10.1.1.2,178,-0.460,-0.460,-0.460,0.000,0.000,0.000
1641195377972294144,2022-01-03-07:36:17,10.1.1.2,168,-0.470,-0.470,-0.470,0.000,0.000,0.000
1641195378174614784,2022-01-03-07:36:18,10.1.1.2,169,-0.480,-0.480,-0.480,0.000,0.000,0.000
1641195378375108864,2022-01-03-07:36:18,10.1.1.2,165,-0.490,-0.490,-0.490,0.000,0.000,0.000
1641195378581785856,2022-01-03-07:36:18,10.1.1.2,172,-0.480,-0.480,-0.480,0.000,0.000,0.000
1641195378777046016,2022-01-03-07:36:18,10.1.1.2,166,-0.470,-0.470,-0.470,0.000,0.000,0.000
1641195378976877824,2022-01-03-07:36:18,10.1.1.2,165,-0.460,-0.460,-0.460,0.000,0.000,0.000
1641195379180349184,2022-01-03-07:36:19,10.1.1.2,166,-0.450,-0.450,-0.450,0.000,0.000,0.000
1641195379378701056,2022-01-03-07:36:19,10.1.1.2,166,-0.440,-0.440,-0.440,0.000,0.000,0.000
1641195379603363072,2022-01-03-07:36:19,10.1.1.2,189,-0.430,-0.430,-0.430,0.000,0.000,0.000
1641195379801474048,2022-01-03-07:36:19,10.1.1.2,187,-0.420,-0.420,-0.420,0.000,0.000,0.000
1641195380000296960,2022-01-03-07:36:20,10.1.1.2,184,-0.410,-0.410,-0.410,0.000,0.000,0.000
1641195380205251072,2022-01-03-07:36:20,10.1.1.2,188,-0.400,-0.400,-0.400,0.000,0.000,0.000
1641195380410160896,2022-01-03-07:36:20,10.1.1.2,192,-0.390,-0.390,-0.390,0.000,0.000,0.000
1641195380606349824,2022-01-03-07:36:20,10.1.1.2,187,-0.380,-0.380,-0.380,0.000,0.000,0.000
1641195380805428992,2022-01-03-07:36:20,10.1.1.2,182,-0.370,-0.370,-0.370,0.000,0.000,0.000
1641195381009605888,2022-01-03-07:36:21,10.1.1.2,187,-0.360,-0.360,-0.360,0.000,0.000,0.000
1641195381208870912,2022-01-03-07:36:21,10.1.1.2,183,-0.350,-0.350,-0.350,0.000,0.000,0.000
1641195381414930176,2022-01-03-07:36:21,10.1.1.2,187,-0.340,-0.340,-0.340,0.000,0.000,0.000
1641195381608032000,2022-01-03-07:36:21,10.1.1.2,174,-0.330,-0.330,-0.330,0.000,0.000,0.000
1641195381830542080,2022-01-03-07:36:21,10.1.1.2,196,-0.320,-0.320,-0.320,0.000,0.000,0.000
1641195382035248896,2022-01-03-07:36:22,10.1.1.2,200,-0.310,-0.310,-0.310,0.000,0.000,0.000
1641195382227412992,2022-01-03-07:36:22,10.1.1.2,191,-0.300,-0.300,-0.300,0.000,0.000,0.000
1641195382438838016,2022-01-03-07:36:22,10.1.1.2,200,-0.290,-0.290,-0.290,0.000,0.000,0.000
1641195382627389952,2022-01-03-07:36:22,10.1.1.2,186,-0.280,-0.280,-0.280,0.000,0.000,0.000
1641195382829196032,2022-01-03-07:36:22,10.1.1.2,186,-0.270,-0.270,-0.270,0.000,0.000,0.000
1641195383029014016,2022-01-03-07:36:23,10.1.1.2,186,-0.260,-0.260,-0.260,0.000,0.000,0.000
1641195383228343040,2022-01-03-07:36:23,10.1.1.2,184,-0.250,-0.250,-0.250,0.000,0.000,0.000
1641195383431072000,2022-01-03-07:36:23,10.1.1.2,186,-0.240,-0.240,-0.240,0.000,0.000,0.000
1641195383629529088,2022-01-03-07:36:23,10.1.1.2,184,-0.230,-0.230,-0.230,0.000,0.000,0.000
1641195383829355008,2022-01-03-07:36:23,10.1.1.2,183,-0.220,-0.220,-0.220,0.000,0.000,0.000
1641195384033721088,2022-01-03-07:36:24,10.1.1.2,186,-0.210,-0.210,-0.210,0.000,0.000,0.000
1641195384230551040,2022-01-03-07:36:24,10.1.1.2,183,-0.200,-0.200,-0.200,0.000,0.000,0.000
1641195384432058112,2022-01-03-07:36:24,10.1.1.2,182,-0.190,-0.190,-0.190,0.000,0.000,0.000
1641195384633987840,2022-01-03-07:36:24,10.1.1.2,183,-0.180,-0.180,-0.180,0.000,0.000,0.000
1641195384831442944,2022-01-03-07:36:24,10.1.1.2,179,-0.170,-0.170,-0.170,0.000,0.000,0.000
1641195385053488128,2022-01-03-07:36:25,10.1.1.2,199,-0.160,-0.160,-0.160,0.000,0.000,0.000
1641195385252888064,2022-01-03-07:36:25,10.1.1.2,197,-0.150,-0.150,-0.150,0.000,0.000,0.000
1641195385452805120,2022-01-03-07:36:25,10.1.1.2,196,-0.140,-0.140,-0.140,0.000,0.000,0.000
1641195385653011968,2022-01-03-07:36:25,10.1.1.2,196,-0.130,-0.130,-0.130,0.000,0.000,0.000
1641195385851525120,2022-01-03-07:36:25,10.1.1.2,193,-0.120,-0.120,-0.120,0.000,0.000,0.000
1641195386052356864,2022-01-03-07:36:26,10.1.1.2,193,-0.110,-0.110,-0.110,0.000,0.000,0.000
1641195386242347008,2022-01-03-07:36:26,10.1.1.2,183,-0.100,-0.100,-0.100,0.000,0.000,0.000
1641195386452214016,2022-01-03-07:36:26,10.1.1.2,189,-0.090,-0.090,-0.090,0.000,0.000,0.000
1641195386653528832,2022-01-03-07:36:26,10.1.1.2,189,-0.080,-0.080,-0.080,0.000,0.000,0.000
1641195386853843968,2022-01-03-07:36:26,10.1.1.2,189,-0.070,-0.070,-0.070,0.000,0.000,0.000
1641195387054095104,2022-01-03-07:36:27,10.1.1.2,188,-0.060,-0.060,-0.060,0.000,0.000,0.000
1641195387253062912,2022-01-03-07:36:27,10.1.1.2,187,-0.050,-0.050,-0.050,0.000,0.000,0.000
1641195387453075968,2022-01-03-07:36:27,10.1.1.2,186,-0.040,-0.040,-0.040,0.000,0.000,0.000
1641195387654310912,2022-01-03-07:36:27,10.1.1.2,186,-0.030,-0.030,-0.030,0.000,0.000,0.000
1641195387852791040,2022-01-03-07:36:27,10.1.1.2,184,-0.020,-0.020,-0.020,0.000,0.000,0.000
1641195388052958976,2022-01-03-07:36:28,10.1.1.2,184,-0.010,-0.010,-0.010,0.000,0.000,0.000
1641195388253957120,2022-01-03-07:36:28,10.1.1.2,184,0.000,0.000,0.000,0.000,0.000,0.000
1641195388453073920,2022-01-03-07:36:28,10.1.1.2,182,-0.010,-0.010,-0.010,0.000,0.000,0.000
1641195388653193984,2022-01-03-07:36:28,10.1.1.2,182,-0.020,-0.020,-0.020,0.000,0.000,0.000
1641195388853323008,2022-01-03-07:36:28,10.1.1.2,181,-0.030,-0.030,-0.030,0.000,0.000,0.000
1641195389053683968,2022-01-03-07:36:29,10.1.1.2,181,-0.040,-0.040,-0.040,0.000,0.000,0.000
1641195389254286080,2022-01-03-07:36:29,10.1.1.2,181,-0.050,-0.050,-0.050,0.000,0.000,0.000
1641195389474489088,2022-01-03-07:36:29,10.1.1.2,200,-0.060,-0.060,-0.060,0.000,0.000,0.000
1641195389674083072,2022-01-03-07:36:29,10.1.1.2,195,-0.070,-0.070,-0.070,0.000,0.000,0.000
1641195390074214912,2022-01-03-07:36:30,10.1.1.2,192,-0.090,-0.090,-0.090,0.000,0.000,0.000
1641195390272978176,2022-01-03-07:36:30,10.1.1.2,190,-0.100,-0.100,-0.100,0.000,0.000,0.000
1641195390478248960,2022-01-03-07:36:30,10.1.1.2,195,-0.110,-0.110,-0.110,0.000,0.000,0.000
1641195390674795008,2022-01-03-07:36:30,10.1.1.2,191,-0.120,-0.120,-0.120,0.000,0.000,0.000
1641195390872741888,2022-01-03-07:36:30,10.1.1.2,188,-0.130,-0.130,-0.130,0.000,0.000,0.000
1641195391073995008,2022-01-03-07:36:31,10.1.1.2,188,-0.140,-0.140,-0.140,0.000,0.000,0.000
1641195391273348096,2022-01-03-07:36:31,10.1.1.2,187,-0.150,-0.150,-0.150,0.000,0.000,0.000
1641195391472683008,2022-01-03-07:36:31,10.1.1.2,185,-0.160,-0.160,-0.160,0.000,0.000,0.000
1641195391673221120,2022-01-03-07:36:31,10.1.1.2,185,-0.170,-0.170,-0.170,0.000,0.000,0.000
1641195391875147008,2022-01-03-07:36:31,10.1.1.2,186,-0.180,-0.180,-0.180,0.000,0.000,0.000
1641195392074123008,2022-01-03-07:36:32,10.1.1.2,183,-0.190,-0.190,-0.190,0.000,0.000,0.000
1641195392093383936,2022-01-03-07:36:32,10.1.1.2,-1,-0.190,-0.190,-0.190,0.000,0.000,0.000
1641195392692498944,2022-01-03-07:36:32,10.1.1.2,195,-0.220,-0.220,-0.220,0.000,0.000,0.000
1641195392894993920,2022-01-03-07:36:32,10.1.1.2,196,-0.230,-0.230,-0.230,0.000,0.000,0.000
1641195393097641984,2022-01-03-07:36:33,10.1.1.2,199,-0.240,-0.240,-0.240,0.000,0.000,0.000
1641195393292172032,2022-01-03-07:36:33,10.1.1.2,192,-0.250,-0.250,-0.250,0.000,0.000,0.000
1641195393494628864,2022-01-03-07:36:33,10.1.1.2,194,-0.260,-0.260,-0.260,0.000,0.000,0.000
1641195393694652160,2022-01-03-07:36:33,10.1.1.2,193,-0.270,-0.270,-0.270,0.000,0.000,0.000
1641195393893496064,2022-01-03-07:36:33,10.1.1.2,191,-0.280,-0.280,-0.280,0.000,0.000,0.000
1641195394101406976,2022-01-03-07:36:34,10.1.1.2,188,-0.290,-0.290,-0.290,0.000,0.000,0.000
1641195394291527936,2022-01-03-07:36:34,10.1.1.2,188,-0.300,-0.300,-0.300,0.000,0.000,0.000
1641195394491149824,2022-01-03-07:36:34,10.1.1.2,173,-0.310,-0.310,-0.310,0.000,0.000,0.000
1641195394718439936,2022-01-03-07:36:34,10.1.1.2,193,-0.320,-0.320,-0.320,0.000,0.000,0.000
1641195394909723904,2022-01-03-07:36:34,10.1.1.2,187,-0.330,-0.330,-0.330,0.000,0.000,0.000
1641195395112062976,2022-01-03-07:36:35,10.1.1.2,188,-0.340,-0.340,-0.340,0.000,0.000,0.000
1641195395311068928,2022-01-03-07:36:35,10.1.1.2,185,-0.350,-0.350,-0.350,0.000,0.000,0.000
1641195395513083904,2022-01-03-07:36:35,10.1.1.2,184,-0.360,-0.360,-0.360,0.000,0.000,0.000
1641195395711468032,2022-01-03-07:36:35,10.1.1.2,180,-0.370,-0.370,-0.370,0.000,0.000,0.000
1641195395928539904,2022-01-03-07:36:35,10.1.1.2,194,-0.380,-0.380,-0.380,0.000,0.000,0.000
1641195396130742016,2022-01-03-07:36:36,10.1.1.2,195,-0.390,-0.390,-0.390,0.000,0.000,0.000
1641195396328727040,2022-01-03-07:36:36,10.1.1.2,192,-0.400,-0.400,-0.400,0.000,0.000,0.000
1641195396528184064,2022-01-03-07:36:36,10.1.1.2,191,-0.410,-0.410,-0.410,0.000,0.000,0.000
1641195396728318976,2022-01-03-07:36:36,10.1.1.2,190,-0.420,-0.420,-0.420,0.000,0.000,0.000
1641195396931124992,2022-01-03-07:36:36,10.1.1.2,191,-0.430,-0.430,-0.430,0.000,0.000,0.000
1641195397130336000,2022-01-03-07:36:37,10.1.1.2,190,-0.440,-0.440,-0.440,0.000,0.000,0.000
1641195397329250048,2022-01-03-07:36:37,10.1.1.2,188,-0.450,-0.450,-0.450,0.000,0.000,0.000
1641195397527115008,2022-01-03-07:36:37,10.1.1.2,185,-0.460,-0.460,-0.460,0.000,0.000,0.000
1641195397729883904,2022-01-03-07:36:37,10.1.1.2,186,-0.470,-0.470,-0.470,0.000,0.000,0.000
1641195397929399040,2022-01-03-07:36:37,10.1.1.2,183,-0.480,-0.480,-0.480,0.000,0.000,0.000
1641195398131834880,2022-01-03-07:36:38,10.1.1.2,184,-0.490,-0.490,-0.490,0.000,0.000,0.000
1641195398329796096,2022-01-03-07:36:38,10.1.1.2,179,-0.480,-0.480,-0.480,0.000,0.000,0.000
1641195398527931904,2022-01-03-07:36:38,10.1.1.2,177,-0.470,-0.470,-0.470,0.000,0.000,0.000
1641195398729062912,2022-01-03-07:36:38,10.1.1.2,177,-0.460,-0.460,-0.460,0.000,0.000,0.000
1641195398925987840,2022-01-03-07:36:38,10.1.1.2,173,-0.450,-0.450,-0.450,0.000,0.000,0.000
1641195399128977152,2022-01-03-07:36:39,10.1.1.2,176,-0.440,-0.440,-0.440,0.000,0.000,0.000
1641195399547089152,2022-01-03-07:36:39,10.1.1.2,189,-0.420,-0.420,-0.420,0.000,0.000,0.000
1641195399746887936,2022-01-03-07:36:39,10.1.1.2,188,-0.410,-0.410,-0.410,0.000,0.000,0.000
1641195399947883008,2022-01-03-07:36:39,10.1.1.2,187,-0.400,-0.400,-0.400,0.000,0.000,0.000
1641195400144500992,2022-01-03-07:36:40,10.1.1.2,177,-0.390,-0.390,-0.390,0.000,0.000,0.000
1641195400346865920,2022-01-03-07:36:40,10.1.1.2,179,-0.380,-0.380,-0.380,0.000,0.000,0.000
1641195400543500800,2022-01-03-07:36:40,10.1.1.2,175,-0.370,-0.370,-0.370,0.000,0.000,0.000
1641195400743462912,2022-01-03-07:36:40,10.1.1.2,174,-0.360,-0.360,-0.360,0.000,0.000,0.000
1641195400946661888,2022-01-03-07:36:40,10.1.1.2,176,-0.350,-0.350,-0.350,0.000,0.000,0.000
1641195401142811904,2022-01-03-07:36:41,10.1.1.2,170,-0.340,-0.340,-0.340,0.000,0.000,0.000
1641195401341816064,2022-01-03-07:36:41,10.1.1.2,168,-0.330,-0.330,-0.330,0.000,0.000,0.000
1641195401545548032,2022-01-03-07:36:41,10.1.1.2,171,-0.320,-0.320,-0.320,0.000,0.000,0.000
1641195401762099968,2022-01-03-07:36:41,10.1.1.2,187,-0.310,-0.310,-0.310,0.000,0.000,0.000
1641195401961286912,2022-01-03-07:36:41,10.1.1.2,185,-0.300,-0.300,-0.300,0.000,0.000,0.000
1641195402159939072,2022-01-03-07:36:42,10.1.1.2,183,-0.290,-0.290,-0.290,0.000,0.000,0.000
1641195402360513024,2022-01-03-07:36:42,10.1.1.2,180,-0.280,-0.280,-0.280,0.000,0.000,0.000
1641195402560733952,2022-01-03-07:36:42,10.1.1.2,180,-0.270,-0.270,-0.270,0.000,0.000,0.000
1641195402759087104,2022-01-03-07:36:42,10.1.1.2,177,-0.260,-0.260,-0.260,0.000,0.000,0.000
1641195402961607936,2022-01-03-07:36:42,10.1.1.2,179,-0.250,-0.250,-0.250,0.000,0.000,0.000
1641195403158662912,2022-01-03-07:36:43,10.1.1.2,175,-0.240,-0.240,-0.240,0.000,0.000,0.000
1641195403360172032,2022-01-03-07:36:43,10.1.1.2,176,-0.230,-0.230,-0.230,0.000,0.000,0.000
1641195403559469056,2022-01-03-07:36:43,10.1.1.2,174,-0.220,-0.220,-0.220,0.000,0.000,0.000
1641195403758064896,2022-01-03-07:36:43,10.1.1.2,169,-0.210,-0.210,-0.210,0.000,0.000,0.000
1641195403958790912,2022-01-03-07:36:43,10.1.1.2,169,-0.200,-0.200,-0.200,0.000,0.000,0.000
1641195404163429120,2022-01-03-07:36:44,10.1.1.2,173,-0.190,-0.190,-0.190,0.000,0.000,0.000
1641195404358887936,2022-01-03-07:36:44,10.1.1.2,168,-0.180,-0.180,-0.180,0.000,0.000,0.000
1641195404559539200,2022-01-03-07:36:44,10.1.1.2,168,-0.170,-0.170,-0.170,0.000,0.000,0.000
1641195404758899968,2022-01-03-07:36:44,10.1.1.2,166,-0.160,-0.160,-0.160,0.000,0.000,0.000
1641195404977411072,2022-01-03-07:36:44,10.1.1.2,184,-0.150,-0.150,-0.150,0.000,0.000,0.000
1641195405178461184,2022-01-03-07:36:45,10.1.1.2,183,-0.140,-0.140,-0.140,0.000,0.000,0.000
1641195405375929088,2022-01-03-07:36:45,10.1.1.2,180,-0.130,-0.130,-0.130,0.000,0.000,0.000
1641195405577764096,2022-01-03-07:36:45,10.1.1.2,181,-0.120,-0.120,-0.120,0.000,0.000,0.000
1641195405776846848,2022-01-03-07:36:45,10.1.1.2,180,-0.110,-0.110,-0.110,0.000,0.000,0.000
1641195405983380992,2022-01-03-07:36:45,10.1.1.2,185,-0.100,-0.100,-0.100,0.000,0.000,0.000
1641195406180457216,2022-01-03-07:36:46,10.1.1.2,180,-0.090,-0.090,-0.090,0.000,0.000,0.000
1641195406374821888,2022-01-03-07:36:46,10.1.1.2,174,-0.080,-0.080,-0.080,0.000,0.000,0.000
1641195406576023040,2022-01-03-07:36:46,10.1.1.2,174,-0.070,-0.070,-0.070,0.000,0.000,0.000
1641195406773669120,2022-01-03-07:36:46,10.1.1.2,171,-0.060,-0.060,-0.060,0.000,0.000,0.000
1641195406985421824,2022-01-03-07:36:46,10.1.1.2,181,-0.050,-0.050,-0.050,0.000,0.000,0.000
1641195407173547008,2022-01-03-07:36:47,10.1.1.2,169,-0.040,-0.040,-0.040,0.000,0.000,0.000
1641195407372355840,2022-01-03-07:36:47,10.1.1.2,167,-0.030,-0.030,-0.030,0.000,0.000,0.000
1641195407577783040,2022-01-03-07:36:47,10.1.1.2,172,-0.020,-0.020,-0.020,0.000,0.000,0.000
1641195407784276992,2022-01-03-07:36:47,10.1.1.2,171,-0.010,-0.010,-0.010,0.000,0.000,0.000
1641195407995002880,2022-01-03-07:36:47,10.1.1.2,179,0.000,0.000,0.000,0.000,0.000,0.000
1641195408192420096,2022-01-03-07:36:48,10.1.1.2,175,-0.010,-0.010,-0.010,0.000,0.000,0.000
1641195408393014016,2022-01-03-07:36:48,10.1.1.2,175,-0.020,-0.020,-0.020,0.000,0.000,0.000
1641195408592993024,2022-01-03-07:36:48,10.1.1.2,174,-0.030,-0.030,-0.030,0.000,0.000,0.000
1641195408831628032,2022-01-03-07:36:48,10.1.1.2,212,-0.040,-0.040,-0.040,0.000,0.000,0.000
1641195408990989824,2022-01-03-07:36:48,10.1.1.2,158,-0.050,-0.050,-0.050,0.000,0.000,0.000
1641195409211483904,2022-01-03-07:36:49,10.1.1.2,178,-0.060,-0.060,-0.060,0.000,0.000,0.000
1641195409413089024,2022-01-03-07:36:49,10.1.1.2,179,-0.070,-0.070,-0.070,0.000,0.000,0.000
1641195409608745984,2022-01-03-07:36:49,10.1.1.2,174,-0.080,-0.080,-0.080,0.000,0.000,0.000
1641195409809250048,2022-01-03-07:36:49,10.1.1.2,173,-0.090,-0.090,-0.090,0.000,0.000,0.000
1641195410008745984,2022-01-03-07:36:50,10.1.1.2,172,-0.100,-0.100,-0.100,0.000,0.000,0.000
1641195410209170176,2022-01-03-07:36:50,10.1.1.2,172,-0.110,-0.110,-0.110,0.000,0.000,0.000
1641195410410628096,2022-01-03-07:36:50,10.1.1.2,172,-0.120,-0.120,-0.120,0.000,0.000,0.000
1641195410611567872,2022-01-03-07:36:50,10.1.1.2,173,-0.130,-0.130,-0.130,0.000,0.000,0.000
1641195410821901056,2022-01-03-07:36:50,10.1.1.2,181,-0.140,-0.140,-0.140,0.000,0.000,0.000
1641195411013830912,2022-01-03-07:36:51,10.1.1.2,171,-0.150,-0.150,-0.150,0.000,0.000,0.000
1641195411215121152,2022-01-03-07:36:51,10.1.1.2,171,-0.160,-0.160,-0.160,0.000,0.000,0.000
1641195411416135936,2022-01-03-07:36:51,10.1.1.2,172,-0.170,-0.170,-0.170,0.000,0.000,0.000
1641195411616673024,2022-01-03-07:36:51,10.1.1.2,172,-0.180,-0.180,-0.180,0.000,0.000,0.000
1641195411817976064,2022-01-03-07:36:51,10.1.1.2,172,-0.190,-0.190,-0.190,0.000,0.000,0.000
1641195412018487040,2022-01-03-07:36:52,10.1.1.2,172,-0.200,-0.200,-0.200,0.000,0.000,0.000
1641195412219248896,2022-01-03-07:36:52,10.1.1.2,172,-0.210,-0.210,-0.210,0.000,0.000,0.000
1641195412421540864,2022-01-03-07:36:52,10.1.1.2,173,-0.220,-0.220,-0.220,0.000,0.000,0.000
1641195412619767040,2022-01-03-07:36:52,10.1.1.2,171,-0.230,-0.230,-0.230,0.000,0.000,0.000
1641195412821403136,2022-01-03-07:36:52,10.1.1.2,171,-0.240,-0.240,-0.240,0.000,0.000,0.000
1641195413022838016,2022-01-03-07:36:53,10.1.1.2,172,-0.250,-0.250,-0.250,0.000,0.000,0.000
1641195413223421184,2022-01-03-07:36:53,10.1.1.2,172,-0.260,-0.260,-0.260,0.000,0.000,0.000
1641195413423600896,2022-01-03-07:36:53,10.1.1.2,171,-0.270,-0.270,-0.270,0.000,0.000,0.000
1641195413631459840,2022-01-03-07:36:53,10.1.1.2,178,-0.280,-0.280,-0.280,0.000,0.000,0.000
1641195413847853824,2022-01-03-07:36:53,10.1.1.2,194,-0.290,-0.290,-0.290,0.000,0.000,0.000
1641195414044493056,2022-01-03-07:36:54,10.1.1.2,190,-0.300,-0.300,-0.300,0.000,0.000,0.000
1641195414250960128,2022-01-03-07:36:54,10.1.1.2,195,-0.310,-0.310,-0.310,0.000,0.000,0.000
1641195414449323776,2022-01-03-07:36:54,10.1.1.2,192,-0.320,-0.320,-0.320,0.000,0.000,0.000
1641195414645519872,2022-01-03-07:36:54,10.1.1.2,187,-0.330,-0.330,-0.330,0.000,0.000,0.000
1641195414850147072,2022-01-03-07:36:54,10.1.1.2,190,-0.340,-0.340,-0.340,0.000,0.000,0.000
1641195415050079232,2022-01-03-07:36:55,10.1.1.2,188,-0.350,-0.350,-0.350,0.000,0.000,0.000
1641195415247499008,2022-01-03-07:36:55,10.1.1.2,185,-0.360,-0.360,-0.360,0.000,0.000,0.000
1641195415448359936,2022-01-03-07:36:55,10.1.1.2,184,-0.370,-0.370,-0.370,0.000,0.000,0.000
1641195415649038080,2022-01-03-07:36:55,10.1.1.2,183,-0.380,-0.380,-0.380,0.000,0.000,0.000
1641195415847776768,2022-01-03-07:36:55,10.1.1.2,181,-0.390,-0.390,-0.390,0.000,0.000,0.000
1641195416049645824,2022-01-03-07:36:56,10.1.1.2,182,-0.400,-0.400,-0.400,0.000,0.000,0.000
1641195416252412160,2022-01-03-07:36:56,10.1.1.2,183,-0.410,-0.410,-0.410,0.000,0.000,0.000
1641195416449146880,2022-01-03-07:36:56,10.1.1.2,180,-0.420,-0.420,-0.420,0.000,0.000,0.000
1641195416649171968,2022-01-03-07:36:56,10.1.1.2,179,-0.430,-0.430,-0.430,0.000,0.000,0.000
1641195416850680064,2022-01-03-07:36:56,10.1.1.2,180,-0.440,-0.440,-0.440,0.000,0.000,0.000
1641195417053936896,2022-01-03-07:36:57,10.1.1.2,182,-0.450,-0.450,-0.450,0.000,0.000,0.000
1641195417253048832,2022-01-03-07:36:57,10.1.1.2,180,-0.460,-0.460,-0.460,0.000,0.000,0.000
1641195417450535936,2022-01-03-07:36:57,10.1.1.2,177,-0.470,-0.470,-0.470,0.000,0.000,0.000
1641195417671480064,2022-01-03-07:36:57,10.1.1.2,197,-0.480,-0.480,-0.480,0.000,0.000,0.000
1641195418071922176,2022-01-03-07:36:58,10.1.1.2,195,-0.480,-0.480,-0.480,0.000,0.000,0.000
1641195418475433216,2022-01-03-07:36:58,10.1.1.2,196,-0.460,-0.460,-0.460,0.000,0.000,0.000
1641195418677705984,2022-01-03-07:36:58,10.1.1.2,197,-0.450,-0.450,-0.450,0.000,0.000,0.000
1641195418876969216,2022-01-03-07:36:58,10.1.1.2,194,-0.440,-0.440,-0.440,0.000,0.000,0.000
1641195419071953920,2022-01-03-07:36:59,10.1.1.2,190,-0.430,-0.430,-0.430,0.000,0.000,0.000
1641195419272732928,2022-01-03-07:36:59,10.1.1.2,189,-0.420,-0.420,-0.420,0.000,0.000,0.000
1641195419475985920,2022-01-03-07:36:59,10.1.1.2,191,-0.410,-0.410,-0.410,0.000,0.000,0.000
1641195419676340224,2022-01-03-07:36:59,10.1.1.2,191,-0.400,-0.400,-0.400,0.000,0.000,0.000
1641195419872955136,2022-01-03-07:36:59,10.1.1.2,186,-0.390,-0.390,-0.390,0.000,0.000,0.000
1641195420072300800,2022-01-03-07:37:00,10.1.1.2,185,-0.380,-0.380,-0.380,0.000,0.000,0.000
1641195420274924032,2022-01-03-07:37:00,10.1.1.2,186,-0.370,-0.370,-0.370,0.000,0.000,0.000
1641195420475868928,2022-01-03-07:37:00,10.1.1.2,187,-0.360,-0.360,-0.360,0.000,0.000,0.000
1641195420676069888,2022-01-03-07:37:00,10.1.1.2,185,-0.350,-0.350,-0.350,0.000,0.000,0.000
1641195421075421184,2022-01-03-07:37:01,10.1.1.2,180,-0.330,-0.330,-0.330,0.000,0.000,0.000
1641195421275060992,2022-01-03-07:37:01,10.1.1.2,178,-0.320,-0.320,-0.320,0.000,0.000,0.000
1641195421496865024,2022-01-03-07:37:01,10.1.1.2,200,-0.310,-0.310,-0.310,0.000,0.000,0.000
1641195421694601984,2022-01-03-07:37:01,10.1.1.2,196,-0.300,-0.300,-0.300,0.000,0.000,0.000
1641195421896388096,2022-01-03-07:37:01,10.1.1.2,197,-0.290,-0.290,-0.290,0.000,0.000,0.000
1641195422094419968,2022-01-03-07:37:02,10.1.1.2,194,-0.280,-0.280,-0.280,0.000,0.000,0.000
1641195422298523904,2022-01-03-07:37:02,10.1.1.2,197,-0.270,-0.270,-0.270,0.000,0.000,0.000
1641195422499036160,2022-01-03-07:37:02,10.1.1.2,197,-0.260,-0.260,-0.260,0.000,0.000,0.000
1641195422715960064,2022-01-03-07:37:02,10.1.1.2,196,-0.250,-0.250,-0.250,0.000,0.000,0.000
1641195422916857856,2022-01-03-07:37:02,10.1.1.2,187,-0.240,-0.240,-0.240,0.000,0.000,0.000
1641195423115510016,2022-01-03-07:37:03,10.1.1.2,184,-0.230,-0.230,-0.230,0.000,0.000,0.000
1641195423316945152,2022-01-03-07:37:03,10.1.1.2,185,-0.220,-0.220,-0.220,0.000,0.000,0.000
1641195423518366208,2022-01-03-07:37:03,10.1.1.2,186,-0.210,-0.210,-0.210,0.000,0.000,0.000
1641195423713812224,2022-01-03-07:37:03,10.1.1.2,180,-0.200,-0.200,-0.200,0.000,0.000,0.000
1641195423915051008,2022-01-03-07:37:03,10.1.1.2,181,-0.190,-0.190,-0.190,0.000,0.000,0.000
1641195424130491904,2022-01-03-07:37:04,10.1.1.2,196,-0.180,-0.180,-0.180,0.000,0.000,0.000
1641195424334130944,2022-01-03-07:37:04,10.1.1.2,196,-0.170,-0.170,-0.170,0.000,0.000,0.000
1641195424733170944,2022-01-03-07:37:04,10.1.1.2,192,-0.150,-0.150,-0.150,0.000,0.000,0.000
1641195424934115840,2022-01-03-07:37:04,10.1.1.2,192,-0.140,-0.140,-0.140,0.000,0.000,0.000
1641195425133441024,2022-01-03-07:37:05,10.1.1.2,189,-0.130,-0.130,-0.130,0.000,0.000,0.000
1641195425333627904,2022-01-03-07:37:05,10.1.1.2,188,-0.120,-0.120,-0.120,0.000,0.000,0.000
1641195425533562880,2022-01-03-07:37:05,10.1.1.2,188,-0.110,-0.110,-0.110,0.000,0.000,0.000
1641195425732019968,2022-01-03-07:37:05,10.1.1.2,185,-0.100,-0.100,-0.100,0.000,0.000,0.000
1641195425931696896,2022-01-03-07:37:05,10.1.1.2,185,-0.090,-0.090,-0.090,0.000,0.000,0.000
1641195426132654848,2022-01-03-07:37:06,10.1.1.2,185,-0.080,-0.080,-0.080,0.000,0.000,0.000
1641195426332412928,2022-01-03-07:37:06,10.1.1.2,184,-0.070,-0.070,-0.070,0.000,0.000,0.000
1641195426532599040,2022-01-03-07:37:06,10.1.1.2,184,-0.060,-0.060,-0.060,0.000,0.000,0.000
1641195426732552960,2022-01-03-07:37:06,10.1.1.2,183,-0.050,-0.050,-0.050,0.000,0.000,0.000
1641195426932062976,2022-01-03-07:37:06,10.1.1.2,182,-0.040,-0.040,-0.040,0.000,0.000,0.000
1641195427132222976,2022-01-03-07:37:07,10.1.1.2,181,-0.030,-0.030,-0.030,0.000,0.000,0.000
1641195427334247168,2022-01-03-07:37:07,10.1.1.2,182,-0.020,-0.020,-0.020,0.000,0.000,0.000
1641195427532346112,2022-01-03-07:37:07,10.1.1.2,179,-0.010,-0.010,-0.010,0.000,0.000,0.000
1641195427731927040,2022-01-03-07:37:07,10.1.1.2,178,0.000,0.000,0.000,0.000,0.000,0.000
1641195427930419968,2022-01-03-07:37:07,10.1.1.2,176,-0.010,-0.010,-0.010,0.000,0.000,0.000
1641195428133355008,2022-01-03-07:37:08,10.1.1.2,178,-0.020,-0.020,-0.020,0.000,0.000,0.000
1641195428331290880,2022-01-03-07:37:08,10.1.1.2,175,-0.030,-0.030,-0.030,0.000,0.000,0.000
1641195428549284864,2022-01-03-07:37:08,10.1.1.2,187,-0.040,-0.040,-0.040,0.000,0.000,0.000
1641195428751725824,2022-01-03-07:37:08,10.1.1.2,188,-0.050,-0.050,-0.050,0.000,0.000,0.000
1641195428950497024,2022-01-03-07:37:08,10.1.1.2,186,-0.060,-0.060,-0.060,0.000,0.000,0.000
1641195429149405952,2022-01-03-07:37:09,10.1.1.2,184,-0.070,-0.070,-0.070,0.000,0.000,0.000
1641195429349811968,2022-01-03-07:37:09,10.1.1.2,183,-0.080,-0.080,-0.080,0.000,0.000,0.000
1641195429549216000,2022-01-03-07:37:09,10.1.1.2,182,-0.090,-0.090,-0.090,0.000,0.000,0.000
1641195429768947968,2022-01-03-07:37:09,10.1.1.2,200,-0.100,-0.100,-0.100,0.000,0.000,0.000
1641195429949511936,2022-01-03-07:37:09,10.1.1.2,179,-0.110,-0.110,-0.110,0.000,0.000,0.000
1641195430149178880,2022-01-03-07:37:10,10.1.1.2,178,-0.120,-0.120,-0.120,0.000,0.000,0.000
1641195430347981056,2022-01-03-07:37:10,10.1.1.2,176,-0.130,-0.130,-0.130,0.000,0.000,0.000
1641195430547482880,2022-01-03-07:37:10,10.1.1.2,175,-0.140,-0.140,-0.140,0.000,0.000,0.000
1641195430749309184,2022-01-03-07:37:10,10.1.1.2,176,-0.150,-0.150,-0.150,0.000,0.000,0.000
1641195430947408896,2022-01-03-07:37:10,10.1.1.2,174,-0.160,-0.160,-0.160,0.000,0.000,0.000
1641195431148592896,2022-01-03-07:37:11,10.1.1.2,174,-0.170,-0.170,-0.170,0.000,0.000,0.000
1641195431369682176,2022-01-03-07:37:11,10.1.1.2,194,-0.180,-0.180,-0.180,0.000,0.000,0.000
1641195431546926080,2022-01-03-07:37:11,10.1.1.2,171,-0.190,-0.190,-0.190,0.000,0.000,0.000
1641195431766823168,2022-01-03-07:37:11,10.1.1.2,190,-0.200,-0.200,-0.200,0.000,0.000,0.000
1641195431970029056,2022-01-03-07:37:11,10.1.1.2,192,-0.210,-0.210,-0.210,0.000,0.000,0.000
1641195432165415168,2022-01-03-07:37:12,10.1.1.2,186,-0.220,-0.220,-0.220,0.000,0.000,0.000
1641195432366522112,2022-01-03-07:37:12,10.1.1.2,186,-0.230,-0.230,-0.230,0.000,0.000,0.000
1641195432564855040,2022-01-03-07:37:12,10.1.1.2,184,-0.240,-0.240,-0.240,0.000,0.000,0.000
1641195432764560896,2022-01-03-07:37:12,10.1.1.2,183,-0.250,-0.250,-0.250,0.000,0.000,0.000
1641195432965602048,2022-01-03-07:37:12,10.1.1.2,183,-0.260,-0.260,-0.260,0.000,0.000,0.000
1641195433166026240,2022-01-03-07:37:13,10.1.1.2,181,-0.270,-0.270,-0.270,0.000,0.000,0.000
1641195433364393984,2022-01-03-07:37:13,10.1.1.2,179,-0.280,-0.280,-0.280,0.000,0.000,0.000
1641195433564627968,2022-01-03-07:37:13,10.1.1.2,178,-0.290,-0.290,-0.290,0.000,0.000,0.000
1641195433764004096,2022-01-03-07:37:13,10.1.1.2,177,-0.300,-0.300,-0.300,0.000,0.000,0.000
1641195433964093952,2022-01-03-07:37:13,10.1.1.2,176,-0.310,-0.310,-0.310,0.000,0.000,0.000
1641195434163094016,2022-01-03-07:37:14,10.1.1.2,175,-0.320,-0.320,-0.320,0.000,0.000,0.000
1641195434364696064,2022-01-03-07:37:14,10.1.1.2,176,-0.330,-0.330,-0.330,0.000,0.000,0.000
1641195434573533952,2022-01-03-07:37:14,10.1.1.2,184,-0.340,-0.340,-0.340,0.000,0.000,0.000
1641195434761756928,2022-01-03-07:37:14,10.1.1.2,171,-0.350,-0.350,-0.350,0.000,0.000,0.000
1641195434962671104,2022-01-03-07:37:14,10.1.1.2,171,-0.360,-0.360,-0.360,0.000,0.000,0.000
1641195435161187840,2022-01-03-07:37:15,10.1.1.2,169,-0.370,-0.370,-0.370,0.000,0.000,0.000
1641195435361822976,2022-01-03-07:37:15,10.1.1.2,168,-0.380,-0.380,-0.380,0.000,0.000,0.000
1641195435563357184,2022-01-03-07:37:15,10.1.1.2,169,-0.390,-0.390,-0.390,0.000,0.000,0.000
1641195435760552960,2022-01-03-07:37:15,10.1.1.2,166,-0.400,-0.400,-0.400,0.000,0.000,0.000
1641195435961318912,2022-01-03-07:37:15,10.1.1.2,166,-0.410,-0.410,-0.410,0.000,0.000,0.000
1641195436160905984,2022-01-03-07:37:16,10.1.1.2,165,-0.420,-0.420,-0.420,0.000,0.000,0.000
1641195436379688960,2022-01-03-07:37:16,10.1.1.2,183,-0.430,-0.430,-0.430,0.000,0.000,0.000
1641195436580340992,2022-01-03-07:37:16,10.1.1.2,183,-0.440,-0.440,-0.440,0.000,0.000,0.000
1641195436779911936,2022-01-03-07:37:16,10.1.1.2,181,-0.450,-0.450,-0.450,0.000,0.000,0.000
1641195436979923968,2022-01-03-07:37:16,10.1.1.2,180,-0.460,-0.460,-0.460,0.000,0.000,0.000
1641195437179982848,2022-01-03-07:37:17,10.1.1.2,178,-0.470,-0.470,-0.470,0.000,0.000,0.000
1641195437378896896,2022-01-03-07:37:17,10.1.1.2,171,-0.480,-0.480,-0.480,0.000,0.000,0.000
1641195437578201088,2022-01-03-07:37:17,10.1.1.2,169,-0.490,-0.490,-0.490,0.000,0.000,0.000
1641195437778512896,2022-01-03-07:37:17,10.1.1.2,169,-0.480,-0.480,-0.480,0.000,0.000,0.000
1641195437978009856,2022-01-03-07:37:17,10.1.1.2,168,-0.470,-0.470,-0.470,0.000,0.000,0.000
1641195438179228928,2022-01-03-07:37:18,10.1.1.2,169,-0.460,-0.460,-0.460,0.000,0.000,0.000
1641195438396178944,2022-01-03-07:37:18,10.1.1.2,185,-0.450,-0.450,-0.450,0.000,0.000,0.000
1641195438596967936,2022-01-03-07:37:18,10.1.1.2,185,-0.440,-0.440,-0.440,0.000,0.000,0.000
1641195438778366208,2022-01-03-07:37:18,10.1.1.2,166,-0.430,-0.430,-0.430,0.000,0.000,0.000
1641195438975256832,2022-01-03-07:37:18,10.1.1.2,162,-0.420,-0.420,-0.420,0.000,0.000,0.000
1641195439176476928,2022-01-03-07:37:19,10.1.1.2,162,-0.410,-0.410,-0.410,0.000,0.000,0.000
1641195439375447040,2022-01-03-07:37:19,10.1.1.2,160,-0.400,-0.400,-0.400,0.000,0.000,0.000
1641195439594657792,2022-01-03-07:37:19,10.1.1.2,177,-0.390,-0.390,-0.390,0.000,0.000,0.000
1641195439795412992,2022-01-03-07:37:19,10.1.1.2,176,-0.380,-0.380,-0.380,0.000,0.000,0.000
1641195439993874176,2022-01-03-07:37:19,10.1.1.2,174,-0.370,-0.370,-0.370,0.000,0.000,0.000
1641195440193752064,2022-01-03-07:37:20,10.1.1.2,173,-0.360,-0.360,-0.360,0.000,0.000,0.000
1641195440394563072,2022-01-03-07:37:20,10.1.1.2,173,-0.350,-0.350,-0.350,0.000,0.000,0.000
1641195440592550912,2022-01-03-07:37:20,10.1.1.2,170,-0.340,-0.340,-0.340,0.000,0.000,0.000
1641195440793541888,2022-01-03-07:37:20,10.1.1.2,170,-0.330,-0.330,-0.330,0.000,0.000,0.000
1641195440992007936,2022-01-03-07:37:20,10.1.1.2,168,-0.320,-0.320,-0.320,0.000,0.000,0.000
1641195441192260864,2022-01-03-07:37:21,10.1.1.2,167,-0.310,-0.310,-0.310,0.000,0.000,0.000
1641195441393212928,2022-01-03-07:37:21,10.1.1.2,168,-0.300,-0.300,-0.300,0.000,0.000,0.000
1641195441593010944,2022-01-03-07:37:21,10.1.1.2,167,-0.290,-0.290,-0.290,0.000,0.000,0.000
1641195441793995008,2022-01-03-07:37:21,10.1.1.2,165,-0.280,-0.280,-0.280,0.000,0.000,0.000
1641195441997623808,2022-01-03-07:37:21,10.1.1.2,168,-0.270,-0.270,-0.270,0.000,0.000,0.000
1641195442192668928,2022-01-03-07:37:22,10.1.1.2,161,-0.260,-0.260,-0.260,0.000,0.000,0.000
1641195442394368000,2022-01-03-07:37:22,10.1.1.2,160,-0.250,-0.250,-0.250,0.000,0.000,0.000
1641195442614178048,2022-01-03-07:37:22,10.1.1.2,178,-0.240,-0.240,-0.240,0.000,0.000,0.000
1641195442816876800,2022-01-03-07:37:22,10.1.1.2,169,-0.230,-0.230,-0.230,0.000,0.000,0.000
1641195443022099968,2022-01-03-07:37:23,10.1.1.2,174,-0.220,-0.220,-0.220,0.000,0.000,0.000
1641195443216828160,2022-01-03-07:37:23,10.1.1.2,168,-0.210,-0.210,-0.210,0.000,0.000,0.000
1641195443438497024,2022-01-03-07:37:23,10.1.1.2,188,-0.200,-0.200,-0.200,0.000,0.000,0.000
1641195443619352064,2022-01-03-07:37:23,10.1.1.2,169,-0.190,-0.190,-0.190,0.000,0.000,0.000
1641195443819726080,2022-01-03-07:37:23,10.1.1.2,168,-0.180,-0.180,-0.180,0.000,0.000,0.000
1641195444021634048,2022-01-03-07:37:24,10.1.1.2,169,-0.170,-0.170,-0.170,0.000,0.000,0.000
1641195444223758080,2022-01-03-07:37:24,10.1.1.2,171,-0.160,-0.160,-0.160,0.000,0.000,0.000
1641195444422404096,2022-01-03-07:37:24,10.1.1.2,169,-0.150,-0.150,-0.150,0.000,0.000,0.000
1641195444643908864,2022-01-03-07:37:24,10.1.1.2,176,-0.140,-0.140,-0.140,0.000,0.000,0.000
1641195444825321984,2022-01-03-07:37:24,10.1.1.2,168,-0.130,-0.130,-0.130,0.000,0.000,0.000
1641195445044337920,2022-01-03-07:37:25,10.1.1.2,187,-0.120,-0.120,-0.120,0.000,0.000,0.000
1641195445246231040,2022-01-03-07:37:25,10.1.1.2,188,-0.110,-0.110,-0.110,0.000,0.000,0.000
1641195445446195968,2022-01-03-07:37:25,10.1.1.2,182,-0.100,-0.100,-0.100,0.000,0.000,0.000
1641195445644378880,2022-01-03-07:37:25,10.1.1.2,180,-0.090,-0.090,-0.090,0.000,0.000,0.000
1641195445849502976,2022-01-03-07:37:25,10.1.1.2,184,-0.080,-0.080,-0.080,0.000,0.000,0.000
1641195446048484096,2022-01-03-07:37:26,10.1.1.2,182,-0.070,-0.070,-0.070,0.000,0.000,0.000
1641195446247941888,2022-01-03-07:37:26,10.1.1.2,180,-0.060,-0.060,-0.060,0.000,0.000,0.000
1641195446449021184,2022-01-03-07:37:26,10.1.1.2,181,-0.050,-0.050,-0.050,0.000,0.000,0.000
1641195446649814016,2022-01-03-07:37:26,10.1.1.2,181,-0.040,-0.040,-0.040,0.000,0.000,0.000
1641195446853966848,2022-01-03-07:37:26,10.1.1.2,182,-0.030,-0.030,-0.030,0.000,0.000,0.000
1641195447053390080,2022-01-03-07:37:27,10.1.1.2,181,-0.020,-0.020,-0.020,0.000,0.000,0.000
1641195447252607232,2022-01-03-07:37:27,10.1.1.2,179,-0.010,-0.010,-0.010,0.000,0.000,0.000
1641195447470525952,2022-01-03-07:37:27,10.1.1.2,184,0.000,0.000,0.000,0.000,0.000,0.000
1641195447682804224,2022-01-03-07:37:27,10.1.1.2,195,-0.010,-0.010,-0.010,0.000,0.000,0.000
1641195447871758848,2022-01-03-07:37:27,10.1.1.2,184,-0.020,-0.020,-0.020,0.000,0.000,0.000
1641195448072007936,2022-01-03-07:37:28,10.1.1.2,183,-0.030,-0.030,-0.030,0.000,0.000,0.000
1641195448272662016,2022-01-03-07:37:28,10.1.1.2,183,-0.040,-0.040,-0.040,0.000,0.000,0.000
1641195448472573952,2022-01-03-07:37:28,10.1.1.2,182,-0.050,-0.050,-0.050,0.000,0.000,0.000
1641195448673517824,2022-01-03-07:37:28,10.1.1.2,182,-0.060,-0.060,-0.060,0.000,0.000,0.000
1641195448875997952,2022-01-03-07:37:28,10.1.1.2,184,-0.070,-0.070,-0.070,0.000,0.000,0.000
1641195449075529216,2022-01-03-07:37:29,10.1.1.2,182,-0.080,-0.080,-0.080,0.000,0.000,0.000
1641195449275772160,2022-01-03-07:37:29,10.1.1.2,181,-0.090,-0.090,-0.090,0.000,0.000,0.000
1641195449494190848,2022-01-03-07:37:29,10.1.1.2,196,-0.100,-0.100,-0.100,0.000,0.000,0.000
1641195449694913024,2022-01-03-07:37:29,10.1.1.2,192,-0.110,-0.110,-0.110,0.000,0.000,0.000
1641195449897126912,2022-01-03-07:37:29,10.1.1.2,193,-0.120,-0.120,-0.120,0.000,0.000,0.000
1641195450097288960,2022-01-03-07:37:30,10.1.1.2,192,-0.130,-0.130,-0.130,0.000,0.000,0.000
1641195450315422976,2022-01-03-07:37:30,10.1.1.2,198,-0.140,-0.140,-0.140,0.000,0.000,0.000
1641195450515427072,2022-01-03-07:37:30,10.1.1.2,197,-0.150,-0.150,-0.150,0.000,0.000,0.000
1641195450716020992,2022-01-03-07:37:30,10.1.1.2,197,-0.160,-0.160,-0.160,0.000,0.000,0.000
1641195450915801088,2022-01-03-07:37:30,10.1.1.2,196,-0.170,-0.170,-0.170,0.000,0.000,0.000
1641195451114509056,2022-01-03-07:37:31,10.1.1.2,194,-0.180,-0.180,-0.180,0.000,0.000,0.000
1641195451315713792,2022-01-03-07:37:31,10.1.1.2,194,-0.190,-0.190,-0.190,0.000,0.000,0.000
1641195451509484032,2022-01-03-07:37:31,10.1.1.2,186,-0.200,-0.200,-0.200,0.000,0.000,0.000
1641195451714799872,2022-01-03-07:37:31,10.1.1.2,189,-0.210,-0.210,-0.210,0.000,0.000,0.000
1641195452115542784,2022-01-03-07:37:32,10.1.1.2,188,-0.230,-0.230,-0.230,0.000,0.000,0.000
1641195452318620928,2022-01-03-07:37:32,10.1.1.2,189,-0.240,-0.240,-0.240,0.000,0.000,0.000
1641195452520129024,2022-01-03-07:37:32,10.1.1.2,190,-0.250,-0.250,-0.250,0.000,0.000,0.000
1641195452917058048,2022-01-03-07:37:32,10.1.1.2,184,-0.270,-0.270,-0.270,0.000,0.000,0.000
1641195453319099904,2022-01-03-07:37:33,10.1.1.2,182,-0.290,-0.290,-0.290,0.000,0.000,0.000
1641195453535849216,2022-01-03-07:37:33,10.1.1.2,198,-0.300,-0.300,-0.300,0.000,0.000,0.000
1641195453735697920,2022-01-03-07:37:33,10.1.1.2,197,-0.310,-0.310,-0.310,0.000,0.000,0.000
1641195453936418048,2022-01-03-07:37:33,10.1.1.2,196,-0.320,-0.320,-0.320,0.000,0.000,0.000
1641195454136028160,2022-01-03-07:37:34,10.1.1.2,195,-0.330,-0.330,-0.330,0.000,0.000,0.000
1641195454337030912,2022-01-03-07:37:34,10.1.1.2,195,-0.340,-0.340,-0.340,0.000,0.000,0.000
1641195454535777024,2022-01-03-07:37:34,10.1.1.2,193,-0.350,-0.350,-0.350,0.000,0.000,0.000
1641195454736079104,2022-01-03-07:37:34,10.1.1.2,191,-0.360,-0.360,-0.360,0.000,0.000,0.000
1641195454936536064,2022-01-03-07:37:34,10.1.1.2,191,-0.370,-0.370,-0.370,0.000,0.000,0.000
1641195455135813888,2022-01-03-07:37:35,10.1.1.2,188,-0.380,-0.380,-0.380,0.000,0.000,0.000
1641195455334897152,2022-01-03-07:37:35,10.1.1.2,186,-0.390,-0.390,-0.390,0.000,0.000,0.000
1641195455536015104,2022-01-03-07:37:35,10.1.1.2,186,-0.400,-0.400,-0.400,0.000,0.000,0.000
1641195455735563008,2022-01-03-07:37:35,10.1.1.2,184,-0.410,-0.410,-0.410,0.000,0.000,0.000
1641195455934212096,2022-01-03-07:37:35,10.1.1.2,182,-0.420,-0.420,-0.420,0.000,0.000,0.000
1641195456136118016,2022-01-03-07:37:36,10.1.1.2,182,-0.430,-0.430,-0.430,0.000,0.000,0.000
1641195456334456064,2022-01-03-07:37:36,10.1.1.2,179,-0.440,-0.440,-0.440,0.000,0.000,0.000
1641195456536400128,2022-01-03-07:37:36,10.1.1.2,180,-0.450,-0.450,-0.450,0.000,0.000,0.000
1641195456755184896,2022-01-03-07:37:36,10.1.1.2,198,-0.460,-0.460,-0.460,0.000,0.000,0.000
1641195456954565888,2022-01-03-07:37:36,10.1.1.2,196,-0.470,-0.470,-0.470,0.000,0.000,0.000
1641195457155633920,2022-01-03-07:37:37,10.1.1.2,196,-0.480,-0.480,-0.480,0.000,0.000,0.000
1641195457359885056,2022-01-03-07:37:37,10.1.1.2,200,-0.490,-0.490,-0.490,0.000,0.000,0.000
1641195457555439104,2022-01-03-07:37:37,10.1.1.2,193,-0.480,-0.480,-0.480,0.000,0.000,0.000
1641195457759237120,2022-01-03-07:37:37,10.1.1.2,194,-0.470,-0.470,-0.470,0.000,0.000,0.000
1641195457954181888,2022-01-03-07:37:37,10.1.1.2,189,-0.460,-0.460,-0.460,0.000,0.000,0.000
1641195458353209856,2022-01-03-07:37:38,10.1.1.2,186,-0.440,-0.440,-0.440,0.000,0.000,0.000
1641195458552937984,2022-01-03-07:37:38,10.1.1.2,183,-0.430,-0.430,-0.430,0.000,0.000,0.000
1641195458754236928,2022-01-03-07:37:38,10.1.1.2,183,-0.420,-0.420,-0.420,0.000,0.000,0.000
1641195458954721024,2022-01-03-07:37:38,10.1.1.2,182,-0.410,-0.410,-0.410,0.000,0.000,0.000
1641195459172836096,2022-01-03-07:37:39,10.1.1.2,196,-0.400,-0.400,-0.400,0.000,0.000,0.000
1641195459373009920,2022-01-03-07:37:39,10.1.1.2,194,-0.390,-0.390,-0.390,0.000,0.000,0.000
1641195459571616768,2022-01-03-07:37:39,10.1.1.2,191,-0.380,-0.380,-0.380,0.000,0.000,0.000
1641195459771666176,2022-01-03-07:37:39,10.1.1.2,190,-0.370,-0.370,-0.370,0.000,0.000,0.000
1641195459976473088,2022-01-03-07:37:39,10.1.1.2,194,-0.360,-0.360,-0.360,0.000,0.000,0.000
1641195460175293952,2022-01-03-07:37:40,10.1.1.2,192,-0.350,-0.350,-0.350,0.000,0.000,0.000
1641195460374480896,2022-01-03-07:37:40,10.1.1.2,190,-0.340,-0.340,-0.340,0.000,0.000,0.000
1641195460570564096,2022-01-03-07:37:40,10.1.1.2,185,-0.330,-0.330,-0.330,0.000,0.000,0.000
1641195460770253056,2022-01-03-07:37:40,10.1.1.2,183,-0.320,-0.320,-0.320,0.000,0.000,0.000
1641195460970746880,2022-01-03-07:37:40,10.1.1.2,181,-0.310,-0.310,-0.310,0.000,0.000,0.000
1641195461170557952,2022-01-03-07:37:41,10.1.1.2,179,-0.300,-0.300,-0.300,0.000,0.000,0.000
1641195461371531008,2022-01-03-07:37:41,10.1.1.2,179,-0.290,-0.290,-0.290,0.000,0.000,0.000
1641195461575097088,2022-01-03-07:37:41,10.1.1.2,181,-0.280,-0.280,-0.280,0.000,0.000,0.000
1641195461789935104,2022-01-03-07:37:41,10.1.1.2,190,-0.270,-0.270,-0.270,0.000,0.000,0.000
1641195461989170944,2022-01-03-07:37:41,10.1.1.2,183,-0.260,-0.260,-0.260,0.000,0.000,0.000
1641195462197186048,2022-01-03-07:37:42,10.1.1.2,190,-0.250,-0.250,-0.250,0.000,0.000,0.000
1641195462389157120,2022-01-03-07:37:42,10.1.1.2,181,-0.240,-0.240,-0.240,0.000,0.000,0.000
1641195462591830016,2022-01-03-07:37:42,10.1.1.2,182,-0.230,-0.230,-0.230,0.000,0.000,0.000
1641195462788865024,2022-01-03-07:37:42,10.1.1.2,177,-0.220,-0.220,-0.220,0.000,0.000,0.000
1641195462988478976,2022-01-03-07:37:42,10.1.1.2,176,-0.210,-0.210,-0.210,0.000,0.000,0.000
1641195463187117056,2022-01-03-07:37:43,10.1.1.2,173,-0.200,-0.200,-0.200,0.000,0.000,0.000
1641195463388029184,2022-01-03-07:37:43,10.1.1.2,172,-0.190,-0.190,-0.190,0.000,0.000,0.000
1641195463608503040,2022-01-03-07:37:43,10.1.1.2,191,-0.180,-0.180,-0.180,0.000,0.000,0.000
1641195463807089152,2022-01-03-07:37:43,10.1.1.2,188,-0.170,-0.170,-0.170,0.000,0.000,0.000
1641195464007728128,2022-01-03-07:37:44,10.1.1.2,187,-0.160,-0.160,-0.160,0.000,0.000,0.000
1641195464209341952,2022-01-03-07:37:44,10.1.1.2,188,-0.150,-0.150,-0.150,0.000,0.000,0.000
1641195464406217216,2022-01-03-07:37:44,10.1.1.2,184,-0.140,-0.140,-0.140,0.000,0.000,0.000
1641195464606328064,2022-01-03-07:37:44,10.1.1.2,183,-0.130,-0.130,-0.130,0.000,0.000,0.000
1641195464806336000,2022-01-03-07:37:44,10.1.1.2,181,-0.120,-0.120,-0.120,0.000,0.000,0.000
1641195465005490944,2022-01-03-07:37:45,10.1.1.2,179,-0.110,-0.110,-0.110,0.000,0.000,0.000
1641195465205570048,2022-01-03-07:37:45,10.1.1.2,178,-0.100,-0.100,-0.100,0.000,0.000,0.000
1641195465405363968,2022-01-03-07:37:45,10.1.1.2,176,-0.090,-0.090,-0.090,0.000,0.000,0.000
1641195465604038912,2022-01-03-07:37:45,10.1.1.2,174,-0.080,-0.080,-0.080,0.000,0.000,0.000
1641195465805275904,2022-01-03-07:37:45,10.1.1.2,175,-0.070,-0.070,-0.070,0.000,0.000,0.000
1641195466005714944,2022-01-03-07:37:46,10.1.1.2,174,-0.060,-0.060,-0.060,0.000,0.000,0.000
1641195466203258880,2022-01-03-07:37:46,10.1.1.2,169,-0.050,-0.050,-0.050,0.000,0.000,0.000
1641195466403460864,2022-01-03-07:37:46,10.1.1.2,169,-0.040,-0.040,-0.040,0.000,0.000,0.000
1641195466603596032,2022-01-03-07:37:46,10.1.1.2,167,-0.030,-0.030,-0.030,0.000,0.000,0.000
1641195466823240960,2022-01-03-07:37:46,10.1.1.2,186,-0.020,-0.020,-0.020,0.000,0.000,0.000
1641195467023801088,2022-01-03-07:37:47,10.1.1.2,186,-0.010,-0.010,-0.010,0.000,0.000,0.000
1641195467222727168,2022-01-03-07:37:47,10.1.1.2,184,0.000,0.000,0.000,0.000,0.000,0.000
1641195467421253888,2022-01-03-07:37:47,10.1.1.2,182,-0.010,-0.010,-0.010,0.000,0.000,0.000
1641195467622564096,2022-01-03-07:37:47,10.1.1.2,181,-0.020,-0.020,-0.020,0.000,0.000,0.000
1641195467822993152,2022-01-03-07:37:47,10.1.1.2,181,-0.030,-0.030,-0.030,0.000,0.000,0.000
1641195468020497152,2022-01-03-07:37:48,10.1.1.2,176,-0.040,-0.040,-0.040,0.000,0.000,0.000
1641195468220088064,2022-01-03-07:37:48,10.1.1.2,174,-0.050,-0.050,-0.050,0.000,0.000,0.000
1641195468421443072,2022-01-03-07:37:48,10.1.1.2,173,-0.060,-0.060,-0.060,0.000,0.000,0.000
1641195468619430912,2022-01-03-07:37:48,10.1.1.2,170,-0.070,-0.070,-0.070,0.000,0.000,0.000
1641195468822017792,2022-01-03-07:37:48,10.1.1.2,171,-0.080,-0.080,-0.080,0.000,0.000,0.000
1641195469019985920,2022-01-03-07:37:49,10.1.1.2,168,-0.090,-0.090,-0.090,0.000,0.000,0.000
1641195469218991872,2022-01-03-07:37:49,10.1.1.2,167,-0.100,-0.100,-0.100,0.000,0.000,0.000
1641195469419863040,2022-01-03-07:37:49,10.1.1.2,167,-0.110,-0.110,-0.110,0.000,0.000,0.000
1641195469639395072,2022-01-03-07:37:49,10.1.1.2,186,-0.120,-0.120,-0.120,0.000,0.000,0.000
1641195469820317952,2022-01-03-07:37:49,10.1.1.2,167,-0.130,-0.130,-0.130,0.000,0.000,0.000
1641195470018116096,2022-01-03-07:37:50,10.1.1.2,164,-0.140,-0.140,-0.140,0.000,0.000,0.000
1641195470217271040,2022-01-03-07:37:50,10.1.1.2,161,-0.150,-0.150,-0.150,0.000,0.000,0.000
1641195470445625088,2022-01-03-07:37:50,10.1.1.2,186,-0.160,-0.160,-0.160,0.000,0.000,0.000
1641195470637200128,2022-01-03-07:37:50,10.1.1.2,175,-0.170,-0.170,-0.170,0.000,0.000,0.000
1641195470837212160,2022-01-03-07:37:50,10.1.1.2,175,-0.180,-0.180,-0.180,0.000,0.000,0.000
1641195471037494016,2022-01-03-07:37:51,10.1.1.2,174,-0.190,-0.190,-0.190,0.000,0.000,0.000
1641195471237870080,2022-01-03-07:37:51,10.1.1.2,171,-0.200,-0.200,-0.200,0.000,0.000,0.000
1641195471436384000,2022-01-03-07:37:51,10.1.1.2,169,-0.210,-0.210,-0.210,0.000,0.000,0.000
1641195471638036992,2022-01-03-07:37:51,10.1.1.2,169,-0.220,-0.220,-0.220,0.000,0.000,0.000
1641195471835908864,2022-01-03-07:37:51,10.1.1.2,166,-0.230,-0.230,-0.230,0.000,0.000,0.000
1641195472035649024,2022-01-03-07:37:52,10.1.1.2,165,-0.240,-0.240,-0.240,0.000,0.000,0.000
1641195472235449088,2022-01-03-07:37:52,10.1.1.2,163,-0.250,-0.250,-0.250,0.000,0.000,0.000
1641195472435787008,2022-01-03-07:37:52,10.1.1.2,163,-0.260,-0.260,-0.260,0.000,0.000,0.000
1641195472634156032,2022-01-03-07:37:52,10.1.1.2,161,-0.270,-0.270,-0.270,0.000,0.000,0.000
1641195472832779776,2022-01-03-07:37:52,10.1.1.2,158,-0.280,-0.280,-0.280,0.000,0.000,0.000
1641195473033991936,2022-01-03-07:37:53,10.1.1.2,159,-0.290,-0.290,-0.290,0.000,0.000,0.000
1641195473233967104,2022-01-03-07:37:53,10.1.1.2,158,-0.300,-0.300,-0.300,0.000,0.000,0.000
1641195473433794048,2022-01-03-07:37:53,10.1.1.2,157,-0.310,-0.310,-0.310,0.000,0.000,0.000
1641195473646871040,2022-01-03-07:37:53,10.1.1.2,170,-0.320,-0.320,-0.320,0.000,0.000,0.000
1641195473852209920,2022-01-03-07:37:53,10.1.1.2,175,-0.330,-0.330,-0.330,0.000,0.000,0.000
1641195474053149952,2022-01-03-07:37:54,10.1.1.2,175,-0.340,-0.340,-0.340,0.000,0.000,0.000
1641195474262355200,2022-01-03-07:37:54,10.1.1.2,181,-0.350,-0.350,-0.350,0.000,0.000,0.000
1641195474456233984,2022-01-03-07:37:54,10.1.1.2,173,-0.360,-0.360,-0.360,0.000,0.000,0.000
1641195474657504000,2022-01-03-07:37:54,10.1.1.2,173,-0.370,-0.370,-0.370,0.000,0.000,0.000
1641195474855792128,2022-01-03-07:37:54,10.1.1.2,170,-0.380,-0.380,-0.380,0.000,0.000,0.000
1641195475058510080,2022-01-03-07:37:55,10.1.1.2,171,-0.390,-0.390,-0.390,0.000,0.000,0.000
1641195475257863168,2022-01-03-07:37:55,10.1.1.2,170,-0.400,-0.400,-0.400,0.000,0.000,0.000
1641195475459173888,2022-01-03-07:37:55,10.1.1.2,170,-0.410,-0.410,-0.410,0.000,0.000,0.000
1641195475660773888,2022-01-03-07:37:55,10.1.1.2,169,-0.420,-0.420,-0.420,0.000,0.000,0.000
1641195475860721152,2022-01-03-07:37:55,10.1.1.2,168,-0.430,-0.430,-0.430,0.000,0.000,0.000
1641195476061964032,2022-01-03-07:37:56,10.1.1.2,168,-0.440,-0.440,-0.440,0.000,0.000,0.000
1641195476263931136,2022-01-03-07:37:56,10.1.1.2,169,-0.450,-0.450,-0.450,0.000,0.000,0.000
1641195476462518016,2022-01-03-07:37:56,10.1.1.2,167,-0.460,-0.460,-0.460,0.000,0.000,0.000
1641195476665308928,2022-01-03-07:37:56,10.1.1.2,169,-0.470,-0.470,-0.470,0.000,0.000,0.000
1641195476885590016,2022-01-03-07:37:56,10.1.1.2,188,-0.480,-0.480,-0.480,0.000,0.000,0.000
1641195477085128960,2022-01-03-07:37:57,10.1.1.2,187,-0.490,-0.490,-0.490,0.000,0.000,0.000
1641195477287116032,2022-01-03-07:37:57,10.1.1.2,188,-0.480,-0.480,-0.480,0.000,0.000,0.000
1641195477487482112,2022-01-03-07:37:57,10.1.1.2,187,-0.470,-0.470,-0.470,0.000,0.000,0.000
1641195477690151936,2022-01-03-07:37:57,10.1.1.2,189,-0.460,-0.460,-0.460,0.000,0.000,0.000
1641195477887545088,2022-01-03-07:37:57,10.1.1.2,186,-0.450,-0.450,-0.450,0.000,0.000,0.000
1641195478088845056,2022-01-03-07:37:58,10.1.1.2,187,-0.440,-0.440,-0.440,0.000,0.000,0.000
1641195478288957952,2022-01-03-07:37:58,10.1.1.2,185,-0.430,-0.430,-0.430,0.000,0.000,0.000
1641195478489099008,2022-01-03-07:37:58,10.1.1.2,184,-0.420,-0.420,-0.420,0.000,0.000,0.000
1641195478690073088,2022-01-03-07:37:58,10.1.1.2,185,-0.410,-0.410,-0.410,0.000,0.000,0.000
1641195478894340096,2022-01-03-07:37:58,10.1.1.2,186,-0.400,-0.400,-0.400,0.000,0.000,0.000
1641195479090176000,2022-01-03-07:37:59,10.1.1.2,182,-0.390,-0.390,-0.390,0.000,0.000,0.000
1641195479293848064,2022-01-03-07:37:59,10.1.1.2,183,-0.380,-0.380,-0.380,0.000,0.000,0.000
1641195479493732864,2022-01-03-07:37:59,10.1.1.2,181,-0.370,-0.370,-0.370,0.000,0.000,0.000
1641195479692908032,2022-01-03-07:37:59,10.1.1.2,178,-0.360,-0.360,-0.360,0.000,0.000,0.000
1641195479912700928,2022-01-03-07:37:59,10.1.1.2,196,-0.350,-0.350,-0.350,0.000,0.000,0.000
1641195480112787968,2022-01-03-07:38:00,10.1.1.2,195,-0.340,-0.340,-0.340,0.000,0.000,0.000
1641195480316239104,2022-01-03-07:38:00,10.1.1.2,197,-0.330,-0.330,-0.330,0.000,0.000,0.000
1641195480512868864,2022-01-03-07:38:00,10.1.1.2,193,-0.320,-0.320,-0.320,0.000,0.000,0.000
1641195480713107200,2022-01-03-07:38:00,10.1.1.2,193,-0.310,-0.310,-0.310,0.000,0.000,0.000
1641195480908432896,2022-01-03-07:38:00,10.1.1.2,186,-0.300,-0.300,-0.300,0.000,0.000,0.000
1641195481113404928,2022-01-03-07:38:01,10.1.1.2,191,-0.290,-0.290,-0.290,0.000,0.000,0.000
1641195481313497088,2022-01-03-07:38:01,10.1.1.2,187,-0.280,-0.280,-0.280,0.000,0.000,0.000
1641195481515189760,2022-01-03-07:38:01,10.1.1.2,188,-0.270,-0.270,-0.270,0.000,0.000,0.000
1641195481715281920,2022-01-03-07:38:01,10.1.1.2,188,-0.260,-0.260,-0.260,0.000,0.000,0.000
1641195481916304128,2022-01-03-07:38:01,10.1.1.2,188,-0.250,-0.250,-0.250,0.000,0.000,0.000
1641195482116188160,2022-01-03-07:38:02,10.1.1.2,187,-0.240,-0.240,-0.240,0.000,0.000,0.000
1641195482316945920,2022-01-03-07:38:02,10.1.1.2,187,-0.230,-0.230,-0.230,0.000,0.000,0.000
1641195482515376128,2022-01-03-07:38:02,10.1.1.2,185,-0.220,-0.220,-0.220,0.000,0.000,0.000
1641195482715700992,2022-01-03-07:38:02,10.1.1.2,184,-0.210,-0.210,-0.210,0.000,0.000,0.000
1641195482918171904,2022-01-03-07:38:02,10.1.1.2,185,-0.200,-0.200,-0.200,0.000,0.000,0.000
1641195483116312064,2022-01-03-07:38:03,10.1.1.2,180,-0.190,-0.190,-0.190,0.000,0.000,0.000
1641195483336541952,2022-01-03-07:38:03,10.1.1.2,200,-0.180,-0.180,-0.180,0.000,0.000,0.000
1641195483536647168,2022-01-03-07:38:03,10.1.1.2,199,-0.170,-0.170,-0.170,0.000,0.000,0.000
1641195483739696128,2022-01-03-07:38:03,10.1.1.2,201,-0.160,-0.160,-0.160,0.000,0.000,0.000
1641195483936787968,2022-01-03-07:38:03,10.1.1.2,194,-0.150,-0.150,-0.150,0.000,0.000,0.000
1641195484137171968,2022-01-03-07:38:04,10.1.1.2,194,-0.140,-0.140,-0.140,0.000,0.000,0.000
1641195484335876864,2022-01-03-07:38:04,10.1.1.2,192,-0.130,-0.130,-0.130,0.000,0.000,0.000
1641195484535970816,2022-01-03-07:38:04,10.1.1.2,191,-0.120,-0.120,-0.120,0.000,0.000,0.000
1641195484736284928,2022-01-03-07:38:04,10.1.1.2,191,-0.110,-0.110,-0.110,0.000,0.000,0.000
1641195484936002048,2022-01-03-07:38:04,10.1.1.2,190,-0.100,-0.100,-0.100,0.000,0.000,0.000
1641195485137196032,2022-01-03-07:38:05,10.1.1.2,190,-0.090,-0.090,-0.090,0.000,0.000,0.000
1641195485337928960,2022-01-03-07:38:05,10.1.1.2,190,-0.080,-0.080,-0.080,0.000,0.000,0.000
1641195485535609856,2022-01-03-07:38:05,10.1.1.2,187,-0.070,-0.070,-0.070,0.000,0.000,0.000
1641195485736468992,2022-01-03-07:38:05,10.1.1.2,187,-0.060,-0.060,-0.060,0.000,0.000,0.000
1641195485936919808,2022-01-03-07:38:05,10.1.1.2,185,-0.050,-0.050,-0.050,0.000,0.000,0.000
1641195486137499136,2022-01-03-07:38:06,10.1.1.2,185,-0.040,-0.040,-0.040,0.000,0.000,0.000
1641195486338993152,2022-01-03-07:38:06,10.1.1.2,186,-0.030,-0.030,-0.030,0.000,0.000,0.000
1641195486538768128,2022-01-03-07:38:06,10.1.1.2,185,-0.020,-0.020,-0.020,0.000,0.000,0.000
1641195486737603840,2022-01-03-07:38:06,10.1.1.2,183,-0.010,-0.010,-0.010,0.000,0.000,0.000
1641195486936860160,2022-01-03-07:38:06,10.1.1.2,182,-0.000,-0.000,-0.000,0.000,0.000,0.000
1641195487138920960,2022-01-03-07:38:07,10.1.1.2,181,-0.010,-0.010,-0.010,0.000,0.000,0.000
1641195487357274112,2022-01-03-07:38:07,10.1.1.2,200,-0.020,-0.020,-0.020,0.000,0.000,0.000
1641195487554573056,2022-01-03-07:38:07,10.1.1.2,196,-0.030,-0.030,-0.030,0.000,0.000,0.000
1641195487757507072,2022-01-03-07:38:07,10.1.1.2,198,-0.040,-0.040,-0.040,0.000,0.000,0.000
1641195487955734016,2022-01-03-07:38:07,10.1.1.2,196,-0.050,-0.050,-0.050,0.000,0.000,0.000
1641195488149084160,2022-01-03-07:38:08,10.1.1.2,188,-0.060,-0.060,-0.060,0.000,0.000,0.000
1641195488356601856,2022-01-03-07:38:08,10.1.1.2,194,-0.070,-0.070,-0.070,0.000,0.000,0.000
1641195488557739008,2022-01-03-07:38:08,10.1.1.2,195,-0.080,-0.080,-0.080,0.000,0.000,0.000
1641195488755772160,2022-01-03-07:38:08,10.1.1.2,192,-0.090,-0.090,-0.090,0.000,0.000,0.000
1641195488955271936,2022-01-03-07:38:08,10.1.1.2,190,-0.100,-0.100,-0.100,0.000,0.000,0.000
1641195489153847040,2022-01-03-07:38:09,10.1.1.2,188,-0.110,-0.110,-0.110,0.000,0.000,0.000
1641195489355397888,2022-01-03-07:38:09,10.1.1.2,188,-0.120,-0.120,-0.120,0.000,0.000,0.000
1641195489553895936,2022-01-03-07:38:09,10.1.1.2,187,-0.130,-0.130,-0.130,0.000,0.000,0.000
1641195489759319040,2022-01-03-07:38:09,10.1.1.2,190,-0.140,-0.140,-0.140,0.000,0.000,0.000
1641195489954618880,2022-01-03-07:38:09,10.1.1.2,184,-0.150,-0.150,-0.150,0.000,0.000,0.000
1641195490154243072,2022-01-03-07:38:10,10.1.1.2,182,-0.160,-0.160,-0.160,0.000,0.000,0.000
1641195490354221056,2022-01-03-07:38:10,10.1.1.2,180,-0.170,-0.170,-0.170,0.000,0.000,0.000
1641195490554454016,2022-01-03-07:38:10,10.1.1.2,179,-0.180,-0.180,-0.180,0.000,0.000,0.000
1641195490775576064,2022-01-03-07:38:10,10.1.1.2,198,-0.190,-0.190,-0.190,0.000,0.000,0.000
1641195490972698880,2022-01-03-07:38:10,10.1.1.2,194,-0.200,-0.200,-0.200,0.000,0.000,0.000
1641195491171529984,2022-01-03-07:38:11,10.1.1.2,192,-0.210,-0.210,-0.210,0.000,0.000,0.000
1641195491372541952,2022-01-03-07:38:11,10.1.1.2,193,-0.220,-0.220,-0.220,0.000,0.000,0.000
1641195491573455104,2022-01-03-07:38:11,10.1.1.2,192,-0.230,-0.230,-0.230,0.000,0.000,0.000
1641195491772078080,2022-01-03-07:38:11,10.1.1.2,189,-0.240,-0.240,-0.240,0.000,0.000,0.000
1641195491972798208,2022-01-03-07:38:11,10.1.1.2,189,-0.250,-0.250,-0.250,0.000,0.000,0.000
1641195492171346944,2022-01-03-07:38:12,10.1.1.2,186,-0.260,-0.260,-0.260,0.000,0.000,0.000
1641195492372200960,2022-01-03-07:38:12,10.1.1.2,185,-0.270,-0.270,-0.270,0.000,0.000,0.000
1641195492571070976,2022-01-03-07:38:12,10.1.1.2,183,-0.280,-0.280,-0.280,0.000,0.000,0.000
1641195492770808832,2022-01-03-07:38:12,10.1.1.2,181,-0.290,-0.290,-0.290,0.000,0.000,0.000
1641195492972375040,2022-01-03-07:38:12,10.1.1.2,177,-0.300,-0.300,-0.300,0.000,0.000,0.000
1641195493192920832,2022-01-03-07:38:13,10.1.1.2,196,-0.310,-0.310,-0.310,0.000,0.000,0.000
1641195493389859072,2022-01-03-07:38:13,10.1.1.2,192,-0.320,-0.320,-0.320,0.000,0.000,0.000
1641195493590863104,2022-01-03-07:38:13,10.1.1.2,192,-0.330,-0.330,-0.330,0.000,0.000,0.000
1641195493789238016,2022-01-03-07:38:13,10.1.1.2,190,-0.340,-0.340,-0.340,0.000,0.000,0.000
1641195493990000896,2022-01-03-07:38:13,10.1.1.2,190,-0.350,-0.350,-0.350,0.000,0.000,0.000
1641195494190486016,2022-01-03-07:38:14,10.1.1.2,190,-0.360,-0.360,-0.360,0.000,0.000,0.000
1641195494382502912,2022-01-03-07:38:14,10.1.1.2,181,-0.370,-0.370,-0.370,0.000,0.000,0.000
1641195494589251072,2022-01-03-07:38:14,10.1.1.2,187,-0.380,-0.380,-0.380,0.000,0.000,0.000
1641195494789761024,2022-01-03-07:38:14,10.1.1.2,186,-0.390,-0.390,-0.390,0.000,0.000,0.000
1641195494988313856,2022-01-03-07:38:14,10.1.1.2,184,-0.400,-0.400,-0.400,0.000,0.000,0.000
1641195495187237120,2022-01-03-07:38:15,10.1.1.2,181,-0.410,-0.410,-0.410,0.000,0.000,0.000
1641195495389286144,2022-01-03-07:38:15,10.1.1.2,183,-0.420,-0.420,-0.420,0.000,0.000,0.000
1641195495588148992,2022-01-03-07:38:15,10.1.1.2,180,-0.430,-0.430,-0.430,0.000,0.000,0.000
1641195495788788992,2022-01-03-07:38:15,10.1.1.2,177,-0.440,-0.440,-0.440,0.000,0.000,0.000
1641195495986859008,2022-01-03-07:38:15,10.1.1.2,175,-0.450,-0.450,-0.450,0.000,0.000,0.000
1641195496187048960,2022-01-03-07:38:16,10.1.1.2,174,-0.460,-0.460,-0.460,0.000,0.000,0.000
1641195496406757120,2022-01-03-07:38:16,10.1.1.2,193,-0.470,-0.470,-0.470,0.000,0.000,0.000
1641195496589812992,2022-01-03-07:38:16,10.1.1.2,174,-0.480,-0.480,-0.480,0.000,0.000,0.000
1641195496786337024,2022-01-03-07:38:16,10.1.1.2,170,-0.490,-0.490,-0.490,0.000,0.000,0.000
1641195496998859776,2022-01-03-07:38:16,10.1.1.2,182,-0.480,-0.480,-0.480,0.000,0.000,0.000
1641195497206510080,2022-01-03-07:38:17,10.1.1.2,188,-0.470,-0.470,-0.470,0.000,0.000,0.000
1641195497406976000,2022-01-03-07:38:17,10.1.1.2,188,-0.460,-0.460,-0.460,0.000,0.000,0.000
1641195497604198912,2022-01-03-07:38:17,10.1.1.2,185,-0.450,-0.450,-0.450,0.000,0.000,0.000
1641195497805468160,2022-01-03-07:38:17,10.1.1.2,186,-0.440,-0.440,-0.440,0.000,0.000,0.000
1641195498003846912,2022-01-03-07:38:18,10.1.1.2,184,-0.430,-0.430,-0.430,0.000,0.000,0.000
1641195498204161024,2022-01-03-07:38:18,10.1.1.2,183,-0.420,-0.420,-0.420,0.000,0.000,0.000
1641195498410171904,2022-01-03-07:38:18,10.1.1.2,188,-0.410,-0.410,-0.410,0.000,0.000,0.000
1641195498603699968,2022-01-03-07:38:18,10.1.1.2,180,-0.400,-0.400,-0.400,0.000,0.000,0.000
1641195498807228928,2022-01-03-07:38:18,10.1.1.2,181,-0.390,-0.390,-0.390,0.000,0.000,0.000
1641195499002091776,2022-01-03-07:38:19,10.1.1.2,175,-0.380,-0.380,-0.380,0.000,0.000,0.000
1641195499202984192,2022-01-03-07:38:19,10.1.1.2,175,-0.370,-0.370,-0.370,0.000,0.000,0.000
1641195499402624000,2022-01-03-07:38:19,10.1.1.2,174,-0.360,-0.360,-0.360,0.000,0.000,0.000
1641195499601777152,2022-01-03-07:38:19,10.1.1.2,172,-0.350,-0.350,-0.350,0.000,0.000,0.000
1641195499803069952,2022-01-03-07:38:19,10.1.1.2,172,-0.340,-0.340,-0.340,0.000,0.000,0.000
1641195500002424064,2022-01-03-07:38:20,10.1.1.2,171,-0.330,-0.330,-0.330,0.000,0.000,0.000
1641195500201306112,2022-01-03-07:38:20,10.1.1.2,169,-0.320,-0.320,-0.320,0.000,0.000,0.000
1641195500401149952,2022-01-03-07:38:20,10.1.1.2,168,-0.310,-0.310,-0.310,0.000,0.000,0.000
1641195500601295872,2022-01-03-07:38:20,10.1.1.2,167,-0.300,-0.300,-0.300,0.000,0.000,0.000
1641195500801677824,2022-01-03-07:38:20,10.1.1.2,167,-0.290,-0.290,-0.290,0.000,0.000,0.000
1641195501001240064,2022-01-03-07:38:21,10.1.1.2,165,-0.280,-0.280,-0.280,0.000,0.000,0.000
1641195501220868096,2022-01-03-07:38:21,10.1.1.2,184,-0.270,-0.270,-0.270,0.000,0.000,0.000
1641195501419724032,2022-01-03-07:38:21,10.1.1.2,181,-0.260,-0.260,-0.260,0.000,0.000,0.000
1641195501618995968,2022-01-03-07:38:21,10.1.1.2,179,-0.250,-0.250,-0.250,0.000,0.000,0.000
1641195501819885056,2022-01-03-07:38:21,10.1.1.2,179,-0.240,-0.240,-0.240,0.000,0.000,0.000
1641195502019764992,2022-01-03-07:38:22,10.1.1.2,178,-0.230,-0.230,-0.230,0.000,0.000,0.000
1641195502217690880,2022-01-03-07:38:22,10.1.1.2,176,-0.220,-0.220,-0.220,0.000,0.000,0.000
1641195502422344960,2022-01-03-07:38:22,10.1.1.2,179,-0.210,-0.210,-0.210,0.000,0.000,0.000
1641195502630084864,2022-01-03-07:38:22,10.1.1.2,186,-0.200,-0.200,-0.200,0.000,0.000,0.000
1641195502818075904,2022-01-03-07:38:22,10.1.1.2,173,-0.190,-0.190,-0.190,0.000,0.000,0.000
1641195503019224832,2022-01-03-07:38:23,10.1.1.2,168,-0.180,-0.180,-0.180,0.000,0.000,0.000
1641195503215960064,2022-01-03-07:38:23,10.1.1.2,164,-0.170,-0.170,-0.170,0.000,0.000,0.000
1641195503416781824,2022-01-03-07:38:23,10.1.1.2,164,-0.160,-0.160,-0.160,0.000,0.000,0.000
1641195503616122112,2022-01-03-07:38:23,10.1.1.2,162,-0.150,-0.150,-0.150,0.000,0.000,0.000
1641195503814798080,2022-01-03-07:38:23,10.1.1.2,160,-0.140,-0.140,-0.140,0.000,0.000,0.000
1641195504015299072,2022-01-03-07:38:24,10.1.1.2,160,-0.130,-0.130,-0.130,0.000,0.000,0.000
1641195504237804800,2022-01-03-07:38:24,10.1.1.2,181,-0.120,-0.120,-0.120,0.000,0.000,0.000
1641195504416073984,2022-01-03-07:38:24,10.1.1.2,159,-0.110,-0.110,-0.110,0.000,0.000,0.000
1641195504634479104,2022-01-03-07:38:24,10.1.1.2,176,-0.100,-0.100,-0.100,0.000,0.000,0.000
1641195504833534976,2022-01-03-07:38:24,10.1.1.2,175,-0.090,-0.090,-0.090,0.000,0.000,0.000
1641195505035657984,2022-01-03-07:38:25,10.1.1.2,176,-0.080,-0.080,-0.080,0.000,0.000,0.000
1641195505235089152,2022-01-03-07:38:25,10.1.1.2,175,-0.070,-0.070,-0.070,0.000,0.000,0.000
1641195505433016064,2022-01-03-07:38:25,10.1.1.2,172,-0.060,-0.060,-0.060,0.000,0.000,0.000
1641195505633011200,2022-01-03-07:38:25,10.1.1.2,170,-0.050,-0.050,-0.050,0.000,0.000,0.000
1641195505833313024,2022-01-03-07:38:25,10.1.1.2,170,-0.040,-0.040,-0.040,0.000,0.000,0.000
1641195506031447040,2022-01-03-07:38:26,10.1.1.2,168,-0.030,-0.030,-0.030,0.000,0.000,0.000
1641195506232784896,2022-01-03-07:38:26,10.1.1.2,168,-0.020,-0.020,-0.020,0.000,0.000,0.000
1641195506431997184,2022-01-03-07:38:26,10.1.1.2,167,-0.010,-0.010,-0.010,0.000,0.000,0.000
1641195506631072000,2022-01-03-07:38:26,10.1.1.2,164,0.000,0.000,0.000,0.000,0.000,0.000
1641195506831888896,2022-01-03-07:38:26,10.1.1.2,163,-0.010,-0.010,-0.010,0.000,0.000,0.000
1641195507031409920,2022-01-03-07:38:27,10.1.1.2,161,-0.020,-0.020,-0.020,0.000,0.000,0.000
1641195507232416000,2022-01-03-07:38:27,10.1.1.2,161,-0.030,-0.030,-0.030,0.000,0.000,0.000
1641195507433607936,2022-01-03-07:38:27,10.1.1.2,161,-0.040,-0.040,-0.040,0.000,0.000,0.000
1641195507634211072,2022-01-03-07:38:27,10.1.1.2,160,-0.050,-0.050,-0.050,0.000,0.000,0.000
1641195507834842880,2022-01-03-07:38:27,10.1.1.2,160,-0.060,-0.060,-0.060,0.000,0.000,0.000
1641195508056521984,2022-01-03-07:38:28,10.1.1.2,179,-0.070,-0.070,-0.070,0.000,0.000,0.000
1641195508257214976,2022-01-03-07:38:28,10.1.1.2,180,-0.080,-0.080,-0.080,0.000,0.000,0.000
1641195508457871872,2022-01-03-07:38:28,10.1.1.2,180,-0.090,-0.090,-0.090,0.000,0.000,0.000
1641195508658548224,2022-01-03-07:38:28,10.1.1.2,180,-0.100,-0.100,-0.100,0.000,0.000,0.000
1641195508861670144,2022-01-03-07:38:28,10.1.1.2,182,-0.110,-0.110,-0.110,0.000,0.000,0.000
1641195509060071936,2022-01-03-07:38:29,10.1.1.2,180,-0.120,-0.120,-0.120,0.000,0.000,0.000
1641195509265067008,2022-01-03-07:38:29,10.1.1.2,182,-0.130,-0.130,-0.130,0.000,0.000,0.000
1641195509459718912,2022-01-03-07:38:29,10.1.1.2,177,-0.140,-0.140,-0.140,0.000,0.000,0.000
1641195509662499840,2022-01-03-07:38:29,10.1.1.2,179,-0.150,-0.150,-0.150,0.000,0.000,0.000
1641195509864132864,2022-01-03-07:38:29,10.1.1.2,179,-0.160,-0.160,-0.160,0.000,0.000,0.000
1641195510066366976,2022-01-03-07:38:30,10.1.1.2,180,-0.170,-0.170,-0.170,0.000,0.000,0.000
1641195510264889856,2022-01-03-07:38:30,10.1.1.2,175,-0.180,-0.180,-0.180,0.000,0.000,0.000
1641195510466417920,2022-01-03-07:38:30,10.1.1.2,175,-0.190,-0.190,-0.190,0.000,0.000,0.000
1641195510666049024,2022-01-03-07:38:30,10.1.1.2,174,-0.200,-0.200,-0.200,0.000,0.000,0.000
1641195510867484928,2022-01-03-07:38:30,10.1.1.2,174,-0.210,-0.210,-0.210,0.000,0.000,0.000
1641195511068886016,2022-01-03-07:38:31,10.1.1.2,174,-0.220,-0.220,-0.220,0.000,0.000,0.000
1641195511269102080,2022-01-03-07:38:31,10.1.1.2,174,-0.230,-0.230,-0.230,0.000,0.000,0.000
1641195511488765952,2022-01-03-07:38:31,10.1.1.2,191,-0.240,-0.240,-0.240,0.000,0.000,0.000
1641195511688797952,2022-01-03-07:38:31,10.1.1.2,191,-0.250,-0.250,-0.250,0.000,0.000,0.000
1641195511889009920,2022-01-03-07:38:31,10.1.1.2,190,-0.260,-0.260,-0.260,0.000,0.000,0.000
1641195512094996992,2022-01-03-07:38:32,10.1.1.2,195,-0.270,-0.270,-0.270,0.000,0.000,0.000
1641195512294114048,2022-01-03-07:38:32,10.1.1.2,193,-0.280,-0.280,-0.280,0.000,0.000,0.000
1641195512492924928,2022-01-03-07:38:32,10.1.1.2,191,-0.290,-0.290,-0.290,0.000,0.000,0.000
1641195512691868160,2022-01-03-07:38:32,10.1.1.2,190,-0.300,-0.300,-0.300,0.000,0.000,0.000
1641195512890546176,2022-01-03-07:38:32,10.1.1.2,187,-0.310,-0.310,-0.310,0.000,0.000,0.000
1641195513093436928,2022-01-03-07:38:33,10.1.1.2,188,-0.320,-0.320,-0.320,0.000,0.000,0.000
1641195513291332864,2022-01-03-07:38:33,10.1.1.2,187,-0.330,-0.330,-0.330,0.000,0.000,0.000
1641195513494096896,2022-01-03-07:38:33,10.1.1.2,188,-0.340,-0.340,-0.340,0.000,0.000,0.000
1641195513692809984,2022-01-03-07:38:33,10.1.1.2,187,-0.350,-0.350,-0.350,0.000,0.000,0.000
1641195513892429056,2022-01-03-07:38:33,10.1.1.2,186,-0.360,-0.360,-0.360,0.000,0.000,0.000
1641195514095487232,2022-01-03-07:38:34,10.1.1.2,188,-0.370,-0.370,-0.370,0.000,0.000,0.000
1641195514297666048,2022-01-03-07:38:34,10.1.1.2,190,-0.380,-0.380,-0.380,0.000,0.000,0.000
1641195514493829888,2022-01-03-07:38:34,10.1.1.2,185,-0.390,-0.390,-0.390,0.000,0.000,0.000
1641195514714633984,2022-01-03-07:38:34,10.1.1.2,198,-0.400,-0.400,-0.400,0.000,0.000,0.000
1641195515113626112,2022-01-03-07:38:35,10.1.1.2,195,-0.420,-0.420,-0.420,0.000,0.000,0.000
1641195515317059072,2022-01-03-07:38:35,10.1.1.2,196,-0.430,-0.430,-0.430,0.000,0.000,0.000
1641195515517203200,2022-01-03-07:38:35,10.1.1.2,197,-0.440,-0.440,-0.440,0.000,0.000,0.000
1641195515715310080,2022-01-03-07:38:35,10.1.1.2,194,-0.450,-0.450,-0.450,0.000,0.000,0.000
1641195515916193024,2022-01-03-07:38:35,10.1.1.2,194,-0.460,-0.460,-0.460,0.000,0.000,0.000
1641195516115791104,2022-01-03-07:38:36,10.1.1.2,192,-0.470,-0.470,-0.470,0.000,0.000,0.000
1641195516315742976,2022-01-03-07:38:36,10.1.1.2,191,-0.480,-0.480,-0.480,0.000,0.000,0.000
1641195516521658880,2022-01-03-07:38:36,10.1.1.2,195,-0.490,-0.490,-0.490,0.000,0.000,0.000
1641195516717582080,2022-01-03-07:38:36,10.1.1.2,191,-0.480,-0.480,-0.480,0.000,0.000,0.000
1641195516918509056,2022-01-03-07:38:36,10.1.1.2,190,-0.470,-0.470,-0.470,0.000,0.000,0.000
1641195517316883968,2022-01-03-07:38:37,10.1.1.2,187,-0.450,-0.450,-0.450,0.000,0.000,0.000
1641195517515055872,2022-01-03-07:38:37,10.1.1.2,185,-0.440,-0.440,-0.440,0.000,0.000,0.000
1641195517718224128,2022-01-03-07:38:37,10.1.1.2,187,-0.430,-0.430,-0.430,0.000,0.000,0.000
1641195517916572160,2022-01-03-07:38:37,10.1.1.2,185,-0.420,-0.420,-0.420,0.000,0.000,0.000
1641195518115227904,2022-01-03-07:38:38,10.1.1.2,183,-0.410,-0.410,-0.410,0.000,0.000,0.000
1641195518315782912,2022-01-03-07:38:38,10.1.1.2,182,-0.400,-0.400,-0.400,0.000,0.000,0.000
1641195518516352000,2022-01-03-07:38:38,10.1.1.2,182,-0.390,-0.390,-0.390,0.000,0.000,0.000
1641195518715746048,2022-01-03-07:38:38,10.1.1.2,180,-0.380,-0.380,-0.380,0.000,0.000,0.000
1641195518937135104,2022-01-03-07:38:38,10.1.1.2,200,-0.370,-0.370,-0.370,0.000,0.000,0.000
1641195519135307008,2022-01-03-07:38:39,10.1.1.2,194,-0.360,-0.360,-0.360,0.000,0.000,0.000
1641195519336834048,2022-01-03-07:38:39,10.1.1.2,195,-0.350,-0.350,-0.350,0.000,0.000,0.000
1641195519535151104,2022-01-03-07:38:39,10.1.1.2,193,-0.340,-0.340,-0.340,0.000,0.000,0.000
1641195519735384064,2022-01-03-07:38:39,10.1.1.2,191,-0.330,-0.330,-0.330,0.000,0.000,0.000
1641195519935906048,2022-01-03-07:38:39,10.1.1.2,191,-0.320,-0.320,-0.320,0.000,0.000,0.000
1641195520136322048,2022-01-03-07:38:40,10.1.1.2,190,-0.310,-0.310,-0.310,0.000,0.000,0.000
1641195520334471936,2022-01-03-07:38:40,10.1.1.2,188,-0.300,-0.300,-0.300,0.000,0.000,0.000
1641195520536699904,2022-01-03-07:38:40,10.1.1.2,189,-0.290,-0.290,-0.290,0.000,0.000,0.000
1641195520735132928,2022-01-03-07:38:40,10.1.1.2,187,-0.280,-0.280,-0.280,0.000,0.000,0.000
1641195520934104064,2022-01-03-07:38:40,10.1.1.2,185,-0.270,-0.270,-0.270,0.000,0.000,0.000
1641195521134667008,2022-01-03-07:38:41,10.1.1.2,185,-0.260,-0.260,-0.260,0.000,0.000,0.000
1641195521334140160,2022-01-03-07:38:41,10.1.1.2,184,-0.250,-0.250,-0.250,0.000,0.000,0.000
1641195521534394112,2022-01-03-07:38:41,10.1.1.2,183,-0.240,-0.240,-0.240,0.000,0.000,0.000
1641195521734276096,2022-01-03-07:38:41,10.1.1.2,183,-0.230,-0.230,-0.230,0.000,0.000,0.000
1641195521934534144,2022-01-03-07:38:41,10.1.1.2,182,-0.220,-0.220,-0.220,0.000,0.000,0.000
1641195522334196992,2022-01-03-07:38:42,10.1.1.2,180,-0.200,-0.200,-0.200,0.000,0.000,0.000
1641195522533988096,2022-01-03-07:38:42,10.1.1.2,178,-0.190,-0.190,-0.190,0.000,0.000,0.000
1641195522734695936,2022-01-03-07:38:42,10.1.1.2,178,-0.180,-0.180,-0.180,0.000,0.000,0.000
1641195522952604160,2022-01-03-07:38:42,10.1.1.2,196,-0.170,-0.170,-0.170,0.000,0.000,0.000
1641195523154372096,2022-01-03-07:38:43,10.1.1.2,196,-0.160,-0.160,-0.160,0.000,0.000,0.000
1641195523352312064,2022-01-03-07:38:43,10.1.1.2,194,-0.150,-0.150,-0.150,0.000,0.000,0.000
1641195523553906944,2022-01-03-07:38:43,10.1.1.2,194,-0.140,-0.140,-0.140,0.000,0.000,0.000
1641195523758710016,2022-01-03-07:38:43,10.1.1.2,198,-0.130,-0.130,-0.130,0.000,0.000,0.000
1641195523954066944,2022-01-03-07:38:43,10.1.1.2,189,-0.120,-0.120,-0.120,0.000,0.000,0.000
1641195524153704960,2022-01-03-07:38:44,10.1.1.2,188,-0.110,-0.110,-0.110,0.000,0.000,0.000
1641195524355556864,2022-01-03-07:38:44,10.1.1.2,189,-0.100,-0.100,-0.100,0.000,0.000,0.000
1641195524551459072,2022-01-03-07:38:44,10.1.1.2,184,-0.090,-0.090,-0.090,0.000,0.000,0.000
1641195524754985216,2022-01-03-07:38:44,10.1.1.2,186,-0.080,-0.080,-0.080,0.000,0.000,0.000
1641195525153118976,2022-01-03-07:38:45,10.1.1.2,183,-0.060,-0.060,-0.060,0.000,0.000,0.000
1641195525364372992,2022-01-03-07:38:45,10.1.1.2,193,-0.050,-0.050,-0.050,0.000,0.000,0.000
1641195525549678080,2022-01-03-07:38:45,10.1.1.2,177,-0.040,-0.040,-0.040,0.000,0.000,0.000
1641195525751872000,2022-01-03-07:38:45,10.1.1.2,179,-0.030,-0.030,-0.030,0.000,0.000,0.000
1641195525949521152,2022-01-03-07:38:45,10.1.1.2,176,-0.020,-0.020,-0.020,0.000,0.000,0.000
1641195526151918848,2022-01-03-07:38:46,10.1.1.2,177,-0.010,-0.010,-0.010,0.000,0.000,0.000
1641195526353699072,2022-01-03-07:38:46,10.1.1.2,179,0.000,0.000,0.000,0.000,0.000,0.000
1641195526549214976,2022-01-03-07:38:46,10.1.1.2,173,-0.010,-0.010,-0.010,0.000,0.000,0.000
1641195526752073984,2022-01-03-07:38:46,10.1.1.2,176,-0.020,-0.020,-0.020,0.000,0.000,0.000
1641195526968846080,2022-01-03-07:38:46,10.1.1.2,191,-0.030,-0.030,-0.030,0.000,0.000,0.000
1641195527169089024,2022-01-03-07:38:47,10.1.1.2,189,-0.040,-0.040,-0.040,0.000,0.000,0.000
1641195527370064896,2022-01-03-07:38:47,10.1.1.2,189,-0.050,-0.050,-0.050,0.000,0.000,0.000
1641195527568440064,2022-01-03-07:38:47,10.1.1.2,187,-0.060,-0.060,-0.060,0.000,0.000,0.000
1641195527770369024,2022-01-03-07:38:47,10.1.1.2,187,-0.070,-0.070,-0.070,0.000,0.000,0.000
1641195527968750848,2022-01-03-07:38:47,10.1.1.2,185,-0.080,-0.080,-0.080,0.000,0.000,0.000
1641195528168105984,2022-01-03-07:38:48,10.1.1.2,183,-0.090,-0.090,-0.090,0.000,0.000,0.000
1641195528369137152,2022-01-03-07:38:48,10.1.1.2,183,-0.100,-0.100,-0.100,0.000,0.000,0.000
1641195528568463104,2022-01-03-07:38:48,10.1.1.2,182,-0.110,-0.110,-0.110,0.000,0.000,0.000
1641195528768683008,2022-01-03-07:38:48,10.1.1.2,180,-0.120,-0.120,-0.120,0.000,0.000,0.000
1641195528967536896,2022-01-03-07:38:48,10.1.1.2,177,-0.130,-0.130,-0.130,0.000,0.000,0.000
1641195529166124032,2022-01-03-07:38:49,10.1.1.2,173,-0.140,-0.140,-0.140,0.000,0.000,0.000
1641195529377408000,2022-01-03-07:38:49,10.1.1.2,175,-0.150,-0.150,-0.150,0.000,0.000,0.000
1641195529585839872,2022-01-03-07:38:49,10.1.1.2,183,-0.160,-0.160,-0.160,0.000,0.000,0.000
1641195529785754880,2022-01-03-07:38:49,10.1.1.2,182,-0.170,-0.170,-0.170,0.000,0.000,0.000
1641195529985539072,2022-01-03-07:38:49,10.1.1.2,180,-0.180,-0.180,-0.180,0.000,0.000,0.000
1641195530186011136,2022-01-03-07:38:50,10.1.1.2,179,-0.190,-0.190,-0.190,0.000,0.000,0.000
1641195530385143040,2022-01-03-07:38:50,10.1.1.2,175,-0.200,-0.200,-0.200,0.000,0.000,0.000
1641195530586750976,2022-01-03-07:38:50,10.1.1.2,176,-0.210,-0.210,-0.210,0.000,0.000,0.000
1641195530783960064,2022-01-03-07:38:50,10.1.1.2,172,-0.220,-0.220,-0.220,0.000,0.000,0.000
1641195530984484864,2022-01-03-07:38:50,10.1.1.2,171,-0.230,-0.230,-0.230,0.000,0.000,0.000
1641195531183437056,2022-01-03-07:38:51,10.1.1.2,169,-0.240,-0.240,-0.240,0.000,0.000,0.000
1641195531404470016,2022-01-03-07:38:51,10.1.1.2,187,-0.250,-0.250,-0.250,0.000,0.000,0.000
1641195531603229952,2022-01-03-07:38:51,10.1.1.2,184,-0.260,-0.260,-0.260,0.000,0.000,0.000
1641195531804389120,2022-01-03-07:38:51,10.1.1.2,183,-0.270,-0.270,-0.270,0.000,0.000,0.000
1641195532003444992,2022-01-03-07:38:52,10.1.1.2,178,-0.280,-0.280,-0.280,0.000,0.000,0.000
1641195532214333952,2022-01-03-07:38:52,10.1.1.2,188,-0.290,-0.290,-0.290,0.000,0.000,0.000
1641195532402955008,2022-01-03-07:38:52,10.1.1.2,176,-0.300,-0.300,-0.300,0.000,0.000,0.000
1641195532603117056,2022-01-03-07:38:52,10.1.1.2,176,-0.310,-0.310,-0.310,0.000,0.000,0.000
1641195532801647872,2022-01-03-07:38:52,10.1.1.2,171,-0.320,-0.320,-0.320,0.000,0.000,0.000
1641195533001505024,2022-01-03-07:38:53,10.1.1.2,170,-0.330,-0.330,-0.330,0.000,0.000,0.000
1641195533201127936,2022-01-03-07:38:53,10.1.1.2,169,-0.340,-0.340,-0.340,0.000,0.000,0.000
1641195533400396032,2022-01-03-07:38:53,10.1.1.2,167,-0.350,-0.350,-0.350,0.000,0.000,0.000
1641195533625353984,2022-01-03-07:38:53,10.1.1.2,186,-0.360,-0.360,-0.360,0.000,0.000,0.000
1641195533819422976,2022-01-03-07:38:53,10.1.1.2,179,-0.370,-0.370,-0.370,0.000,0.000,0.000
1641195534019092992,2022-01-03-07:38:54,10.1.1.2,178,-0.380,-0.380,-0.380,0.000,0.000,0.000
1641195534220616192,2022-01-03-07:38:54,10.1.1.2,178,-0.390,-0.390,-0.390,0.000,0.000,0.000
1641195534418597888,2022-01-03-07:38:54,10.1.1.2,176,-0.400,-0.400,-0.400,0.000,0.000,0.000
1641195534618761984,2022-01-03-07:38:54,10.1.1.2,175,-0.410,-0.410,-0.410,0.000,0.000,0.000
1641195534820322048,2022-01-03-07:38:54,10.1.1.2,176,-0.420,-0.420,-0.420,0.000,0.000,0.000
1641195535010912768,2022-01-03-07:38:55,10.1.1.2,166,-0.430,-0.430,-0.430,0.000,0.000,0.000
1641195535218642944,2022-01-03-07:38:55,10.1.1.2,172,-0.440,-0.440,-0.440,0.000,0.000,0.000
1641195535418957824,2022-01-03-07:38:55,10.1.1.2,170,-0.450,-0.450,-0.450,0.000,0.000,0.000
1641195535616886016,2022-01-03-07:38:55,10.1.1.2,168,-0.460,-0.460,-0.460,0.000,0.000,0.000
1641195535817619200,2022-01-03-07:38:55,10.1.1.2,168,-0.470,-0.470,-0.470,0.000,0.000,0.000
1641195536015845888,2022-01-03-07:38:56,10.1.1.2,166,-0.480,-0.480,-0.480,0.000,0.000,0.000
1641195536216496896,2022-01-03-07:38:56,10.1.1.2,165,-0.490,-0.490,-0.490,0.000,0.000,0.000
1641195536416332032,2022-01-03-07:38:56,10.1.1.2,164,-0.480,-0.480,-0.480,0.000,0.000,0.000
1641195536614962176,2022-01-03-07:38:56,10.1.1.2,161,-0.470,-0.470,-0.470,0.000,0.000,0.000
1641195536815525888,2022-01-03-07:38:56,10.1.1.2,159,-0.460,-0.460,-0.460,0.000,0.000,0.000
1641195537040022016,2022-01-03-07:38:57,10.1.1.2,183,-0.450,-0.450,-0.450,0.000,0.000,0.000
1641195537236790784,2022-01-03-07:38:57,10.1.1.2,179,-0.440,-0.440,-0.440,0.000,0.000,0.000
1641195537436167936,2022-01-03-07:38:57,10.1.1.2,178,-0.430,-0.430,-0.430,0.000,0.000,0.000
1641195537634976000,2022-01-03-07:38:57,10.1.1.2,176,-0.420,-0.420,-0.420,0.000,0.000,0.000
1641195537833879040,2022-01-03-07:38:57,10.1.1.2,174,-0.410,-0.410,-0.410,0.000,0.000,0.000
1641195538032374016,2022-01-03-07:38:58,10.1.1.2,171,-0.400,-0.400,-0.400,0.000,0.000,0.000
1641195538232523008,2022-01-03-07:38:58,10.1.1.2,170,-0.390,-0.390,-0.390,0.000,0.000,0.000
1641195538433008896,2022-01-03-07:38:58,10.1.1.2,170,-0.380,-0.380,-0.380,0.000,0.000,0.000
1641195538631153152,2022-01-03-07:38:58,10.1.1.2,168,-0.370,-0.370,-0.370,0.000,0.000,0.000
1641195538833790976,2022-01-03-07:38:58,10.1.1.2,169,-0.360,-0.360,-0.360,0.000,0.000,0.000
1641195539033030912,2022-01-03-07:38:59,10.1.1.2,168,-0.350,-0.350,-0.350,0.000,0.000,0.000
1641195539233319168,2022-01-03-07:38:59,10.1.1.2,166,-0.340,-0.340,-0.340,0.000,0.000,0.000
1641195539435118080,2022-01-03-07:38:59,10.1.1.2,167,-0.330,-0.330,-0.330,0.000,0.000,0.000
1641195539637528064,2022-01-03-07:38:59,10.1.1.2,169,-0.320,-0.320,-0.320,0.000,0.000,0.000
1641195539835149056,2022-01-03-07:38:59,10.1.1.2,165,-0.310,-0.310,-0.310,0.000,0.000,0.000
1641195540036722944,2022-01-03-07:39:00,10.1.1.2,165,-0.300,-0.300,-0.300,0.000,0.000,0.000
1641195540238094080,2022-01-03-07:39:00,10.1.1.2,166,-0.290,-0.290,-0.290,0.000,0.000,0.000
1641195540440047104,2022-01-03-07:39:00,10.1.1.2,167,-0.280,-0.280,-0.280,0.000,0.000,0.000
1641195540641509888,2022-01-03-07:39:00,10.1.1.2,166,-0.270,-0.270,-0.270,0.000,0.000,0.000
1641195540861202944,2022-01-03-07:39:00,10.1.1.2,181,-0.260,-0.260,-0.260,0.000,0.000,0.000
1641195541061427968,2022-01-03-07:39:01,10.1.1.2,181,-0.250,-0.250,-0.250,0.000,0.000,0.000
1641195541262525952,2022-01-03-07:39:01,10.1.1.2,180,-0.240,-0.240,-0.240,0.000,0.000,0.000
1641195541464482048,2022-01-03-07:39:01,10.1.1.2,181,-0.230,-0.230,-0.230,0.000,0.000,0.000
1641195541664141056,2022-01-03-07:39:01,10.1.1.2,179,-0.220,-0.220,-0.220,0.000,0.000,0.000
1641195541863575040,2022-01-03-07:39:01,10.1.1.2,178,-0.210,-0.210,-0.210,0.000,0.000,0.000
1641195542067452928,2022-01-03-07:39:02,10.1.1.2,181,-0.200,-0.200,-0.200,0.000,0.000,0.000
1641195542269164032,2022-01-03-07:39:02,10.1.1.2,181,-0.190,-0.190,-0.190,0.000,0.000,0.000
1641195542484989952,2022-01-03-07:39:02,10.1.1.2,196,-0.180,-0.180,-0.180,0.000,0.000,0.000
1641195542667560192,2022-01-03-07:39:02,10.1.1.2,178,-0.170,-0.170,-0.170,0.000,0.000,0.000
1641195542866710784,2022-01-03-07:39:02,10.1.1.2,176,-0.160,-0.160,-0.160,0.000,0.000,0.000
1641195543068012032,2022-01-03-07:39:03,10.1.1.2,176,-0.150,-0.150,-0.150,0.000,0.000,0.000
1641195543268282880,2022-01-03-07:39:03,10.1.1.2,175,-0.140,-0.140,-0.140,0.000,0.000,0.000
1641195543469267968,2022-01-03-07:39:03,10.1.1.2,175,-0.130,-0.130,-0.130,0.000,0.000,0.000
1641195543670716928,2022-01-03-07:39:03,10.1.1.2,176,-0.120,-0.120,-0.120,0.000,0.000,0.000
1641195543874465024,2022-01-03-07:39:03,10.1.1.2,177,-0.110,-0.110,-0.110,0.000,0.000,0.000
1641195544089988096,2022-01-03-07:39:04,10.1.1.2,193,-0.100,-0.100,-0.100,0.000,0.000,0.000
1641195544292026880,2022-01-03-07:39:04,10.1.1.2,194,-0.090,-0.090,-0.090,0.000,0.000,0.000
1641195544490792960,2022-01-03-07:39:04,10.1.1.2,193,-0.080,-0.080,-0.080,0.000,0.000,0.000
1641195544692154880,2022-01-03-07:39:04,10.1.1.2,193,-0.070,-0.070,-0.070,0.000,0.000,0.000
1641195544894135040,2022-01-03-07:39:04,10.1.1.2,193,-0.060,-0.060,-0.060,0.000,0.000,0.000
1641195545092133888,2022-01-03-07:39:05,10.1.1.2,184,-0.050,-0.050,-0.050,0.000,0.000,0.000
1641195545292761088,2022-01-03-07:39:05,10.1.1.2,184,-0.040,-0.040,-0.040,0.000,0.000,0.000
1641195545493412096,2022-01-03-07:39:05,10.1.1.2,183,-0.030,-0.030,-0.030,0.000,0.000,0.000
1641195545693142016,2022-01-03-07:39:05,10.1.1.2,183,-0.020,-0.020,-0.020,0.000,0.000,0.000
1641195545893778176,2022-01-03-07:39:05,10.1.1.2,182,-0.010,-0.010,-0.010,0.000,0.000,0.000
1641195546092637952,2022-01-03-07:39:06,10.1.1.2,180,0.000,0.000,0.000,0.000,0.000,0.000
1641195546293176832,2022-01-03-07:39:06,10.1.1.2,180,-0.010,-0.010,-0.010,0.000,0.000,0.000
1641195546493238016,2022-01-03-07:39:06,10.1.1.2,179,-0.020,-0.020,-0.020,0.000,0.000,0.000
1641195546693037056,2022-01-03-07:39:06,10.1.1.2,178,-0.030,-0.030,-0.030,0.000,0.000,0.000
1641195546897474048,2022-01-03-07:39:06,10.1.1.2,181,-0.040,-0.040,-0.040,0.000,0.000,0.000
1641195547113504000,2022-01-03-07:39:07,10.1.1.2,197,-0.050,-0.050,-0.050,0.000,0.000,0.000
1641195547314795008,2022-01-03-07:39:07,10.1.1.2,197,-0.060,-0.060,-0.060,0.000,0.000,0.000
1641195547515536128,2022-01-03-07:39:07,10.1.1.2,197,-0.070,-0.070,-0.070,0.000,0.000,0.000
1641195547714402048,2022-01-03-07:39:07,10.1.1.2,195,-0.080,-0.080,-0.080,0.000,0.000,0.000
1641195547915173120,2022-01-03-07:39:07,10.1.1.2,195,-0.090,-0.090,-0.090,0.000,0.000,0.000
1641195548119484928,2022-01-03-07:39:08,10.1.1.2,197,-0.100,-0.100,-0.100,0.000,0.000,0.000
1641195548320913920,2022-01-03-07:39:08,10.1.1.2,199,-0.110,-0.110,-0.110,0.000,0.000,0.000
1641195548516000000,2022-01-03-07:39:08,10.1.1.2,192,-0.120,-0.120,-0.120,0.000,0.000,0.000
1641195548708075008,2022-01-03-07:39:08,10.1.1.2,183,-0.130,-0.130,-0.130,0.000,0.000,0.000
1641195548916166144,2022-01-03-07:39:08,10.1.1.2,190,-0.140,-0.140,-0.140,0.000,0.000,0.000
1641195549116569088,2022-01-03-07:39:09,10.1.1.2,190,-0.150,-0.150,-0.150,0.000,0.000,0.000
1641195549316111104,2022-01-03-07:39:09,10.1.1.2,189,-0.160,-0.160,-0.160,0.000,0.000,0.000
1641195549716214784,2022-01-03-07:39:09,10.1.1.2,184,-0.180,-0.180,-0.180,0.000,0.000,0.000
1641195549915091968,2022-01-03-07:39:09,10.1.1.2,181,-0.190,-0.190,-0.190,0.000,0.000,0.000
1641195550116716032,2022-01-03-07:39:10,10.1.1.2,182,-0.200,-0.200,-0.200,0.000,0.000,0.000
1641195550315201024,2022-01-03-07:39:10,10.1.1.2,180,-0.210,-0.210,-0.210,0.000,0.000,0.000
1641195550516453120,2022-01-03-07:39:10,10.1.1.2,180,-0.220,-0.220,-0.220,0.000,0.000,0.000
1641195550734718976,2022-01-03-07:39:10,10.1.1.2,197,-0.230,-0.230,-0.230,0.000,0.000,0.000
1641195550935888896,2022-01-03-07:39:10,10.1.1.2,198,-0.240,-0.240,-0.240,0.000,0.000,0.000
1641195551135369984,2022-01-03-07:39:11,10.1.1.2,196,-0.250,-0.250,-0.250,0.000,0.000,0.000
1641195551336057856,2022-01-03-07:39:11,10.1.1.2,196,-0.260,-0.260,-0.260,0.000,0.000,0.000
1641195551535098112,2022-01-03-07:39:11,10.1.1.2,195,-0.270,-0.270,-0.270,0.000,0.000,0.000
1641195551738177024,2022-01-03-07:39:11,10.1.1.2,197,-0.280,-0.280,-0.280,0.000,0.000,0.000
1641195551934540032,2022-01-03-07:39:11,10.1.1.2,191,-0.290,-0.290,-0.290,0.000,0.000,0.000
1641195552134979072,2022-01-03-07:39:12,10.1.1.2,191,-0.300,-0.300,-0.300,0.000,0.000,0.000
1641195552334631936,2022-01-03-07:39:12,10.1.1.2,190,-0.310,-0.310,-0.310,0.000,0.000,0.000
1641195552535362048,2022-01-03-07:39:12,10.1.1.2,189,-0.320,-0.320,-0.320,0.000,0.000,0.000
1641195552735034880,2022-01-03-07:39:12,10.1.1.2,189,-0.330,-0.330,-0.330,0.000,0.000,0.000
1641195552933871872,2022-01-03-07:39:12,10.1.1.2,187,-0.340,-0.340,-0.340,0.000,0.000,0.000
1641195553134262016,2022-01-03-07:39:13,10.1.1.2,186,-0.350,-0.350,-0.350,0.000,0.000,0.000
1641195553336817920,2022-01-03-07:39:13,10.1.1.2,188,-0.360,-0.360,-0.360,0.000,0.000,0.000
1641195553536552960,2022-01-03-07:39:13,10.1.1.2,187,-0.370,-0.370,-0.370,0.000,0.000,0.000
1641195553735683072,2022-01-03-07:39:13,10.1.1.2,185,-0.380,-0.380,-0.380,0.000,0.000,0.000
1641195553933424896,2022-01-03-07:39:13,10.1.1.2,182,-0.390,-0.390,-0.390,0.000,0.000,0.000
1641195554334856960,2022-01-03-07:39:14,10.1.1.2,182,-0.410,-0.410,-0.410,0.000,0.000,0.000
1641195554532742144,2022-01-03-07:39:14,10.1.1.2,179,-0.420,-0.420,-0.420,0.000,0.000,0.000
1641195554735373056,2022-01-03-07:39:14,10.1.1.2,181,-0.430,-0.430,-0.430,0.000,0.000,0.000
1641195554932722944,2022-01-03-07:39:14,10.1.1.2,177,-0.440,-0.440,-0.440,0.000,0.000,0.000
1641195555155921920,2022-01-03-07:39:15,10.1.1.2,193,-0.450,-0.450,-0.450,0.000,0.000,0.000
1641195555354199040,2022-01-03-07:39:15,10.1.1.2,191,-0.460,-0.460,-0.460,0.000,0.000,0.000
1641195555553867008,2022-01-03-07:39:15,10.1.1.2,190,-0.470,-0.470,-0.470,0.000,0.000,0.000
1641195555762417920,2022-01-03-07:39:15,10.1.1.2,195,-0.480,-0.480,-0.480,0.000,0.000,0.000
1641195555953357056,2022-01-03-07:39:15,10.1.1.2,187,-0.490,-0.490,-0.490,0.000,0.000,0.000
1641195556152601856,2022-01-03-07:39:16,10.1.1.2,185,-0.480,-0.480,-0.480,0.000,0.000,0.000
1641195556352529152,2022-01-03-07:39:16,10.1.1.2,184,-0.470,-0.470,-0.470,0.000,0.000,0.000
1641195556551641856,2022-01-03-07:39:16,10.1.1.2,182,-0.460,-0.460,-0.460,0.000,0.000,0.000
1641195556752635904,2022-01-03-07:39:16,10.1.1.2,182,-0.450,-0.450,-0.450,0.000,0.000,0.000
1641195556952128768,2022-01-03-07:39:16,10.1.1.2,180,-0.440,-0.440,-0.440,0.000,0.000,0.000
1641195557151578880,2022-01-03-07:39:17,10.1.1.2,178,-0.430,-0.430,-0.430,0.000,0.000,0.000
1641195557351187968,2022-01-03-07:39:17,10.1.1.2,177,-0.420,-0.420,-0.420,0.000,0.000,0.000
1641195557555900160,2022-01-03-07:39:17,10.1.1.2,180,-0.410,-0.410,-0.410,0.000,0.000,0.000
1641195557751961856,2022-01-03-07:39:17,10.1.1.2,176,-0.400,-0.400,-0.400,0.000,0.000,0.000
1641195557950854912,2022-01-03-07:39:17,10.1.1.2,175,-0.390,-0.390,-0.390,0.000,0.000,0.000
1641195558169122816,2022-01-03-07:39:18,10.1.1.2,191,-0.380,-0.380,-0.380,0.000,0.000,0.000
1641195558370033920,2022-01-03-07:39:18,10.1.1.2,190,-0.370,-0.370,-0.370,0.000,0.000,0.000
1641195558568908032,2022-01-03-07:39:18,10.1.1.2,188,-0.360,-0.360,-0.360,0.000,0.000,0.000
1641195558769243904,2022-01-03-07:39:18,10.1.1.2,186,-0.350,-0.350,-0.350,0.000,0.000,0.000
1641195558969594880,2022-01-03-07:39:18,10.1.1.2,186,-0.340,-0.340,-0.340,0.000,0.000,0.000
1641195559167591168,2022-01-03-07:39:19,10.1.1.2,181,-0.330,-0.330,-0.330,0.000,0.000,0.000
1641195559367731200,2022-01-03-07:39:19,10.1.1.2,180,-0.320,-0.320,-0.320,0.000,0.000,0.000
1641195559567500032,2022-01-03-07:39:19,10.1.1.2,179,-0.310,-0.310,-0.310,0.000,0.000,0.000
1641195559767222784,2022-01-03-07:39:19,10.1.1.2,178,-0.300,-0.300,-0.300,0.000,0.000,0.000
1641195559969161984,2022-01-03-07:39:19,10.1.1.2,179,-0.290,-0.290,-0.290,0.000,0.000,0.000
1641195560166525952,2022-01-03-07:39:20,10.1.1.2,176,-0.280,-0.280,-0.280,0.000,0.000,0.000
1641195560368431104,2022-01-03-07:39:20,10.1.1.2,177,-0.270,-0.270,-0.270,0.000,0.000,0.000
1641195560567852032,2022-01-03-07:39:20,10.1.1.2,175,-0.260,-0.260,-0.260,0.000,0.000,0.000
1641195560765667840,2022-01-03-07:39:20,10.1.1.2,173,-0.250,-0.250,-0.250,0.000,0.000,0.000
1641195560967511808,2022-01-03-07:39:20,10.1.1.2,173,-0.240,-0.240,-0.240,0.000,0.000,0.000
1641195561185560064,2022-01-03-07:39:21,10.1.1.2,189,-0.230,-0.230,-0.230,0.000,0.000,0.000
1641195561385278976,2022-01-03-07:39:21,10.1.1.2,188,-0.220,-0.220,-0.220,0.000,0.000,0.000
1641195561587068160,2022-01-03-07:39:21,10.1.1.2,188,-0.210,-0.210,-0.210,0.000,0.000,0.000
1641195561786103040,2022-01-03-07:39:21,10.1.1.2,187,-0.200,-0.200,-0.200,0.000,0.000,0.000
1641195561984608768,2022-01-03-07:39:21,10.1.1.2,185,-0.190,-0.190,-0.190,0.000,0.000,0.000
1641195562185090048,2022-01-03-07:39:22,10.1.1.2,184,-0.180,-0.180,-0.180,0.000,0.000,0.000
1641195562387533056,2022-01-03-07:39:22,10.1.1.2,186,-0.170,-0.170,-0.170,0.000,0.000,0.000
1641195562584640000,2022-01-03-07:39:22,10.1.1.2,182,-0.160,-0.160,-0.160,0.000,0.000,0.000
1641195562783390976,2022-01-03-07:39:22,10.1.1.2,179,-0.150,-0.150,-0.150,0.000,0.000,0.000
1641195562983980032,2022-01-03-07:39:22,10.1.1.2,179,-0.140,-0.140,-0.140,0.000,0.000,0.000
1641195563184925184,2022-01-03-07:39:23,10.1.1.2,179,-0.130,-0.130,-0.130,0.000,0.000,0.000
1641195563382412800,2022-01-03-07:39:23,10.1.1.2,176,-0.120,-0.120,-0.120,0.000,0.000,0.000
1641195563582160896,2022-01-03-07:39:23,10.1.1.2,175,-0.110,-0.110,-0.110,0.000,0.000,0.000
1641195563782102016,2022-01-03-07:39:23,10.1.1.2,174,-0.100,-0.100,-0.100,0.000,0.000,0.000
1641195563982120960,2022-01-03-07:39:23,10.1.1.2,174,-0.090,-0.090,-0.090,0.000,0.000,0.000
1641195564183970048,2022-01-03-07:39:24,10.1.1.2,174,-0.080,-0.080,-0.080,0.000,0.000,0.000
1641195564380356096,2022-01-03-07:39:24,10.1.1.2,169,-0.070,-0.070,-0.070,0.000,0.000,0.000
1641195564581969920,2022-01-03-07:39:24,10.1.1.2,169,-0.060,-0.060,-0.060,0.000,0.000,0.000
1641195564780556032,2022-01-03-07:39:24,10.1.1.2,167,-0.050,-0.050,-0.050,0.000,0.000,0.000
1641195564980238848,2022-01-03-07:39:24,10.1.1.2,166,-0.040,-0.040,-0.040,0.000,0.000,0.000
1641195565183233024,2022-01-03-07:39:25,10.1.1.2,167,-0.030,-0.030,-0.030,0.000,0.000,0.000
1641195565380276992,2022-01-03-07:39:25,10.1.1.2,164,-0.020,-0.020,-0.020,0.000,0.000,0.000
1641195565599220992,2022-01-03-07:39:25,10.1.1.2,182,-0.010,-0.010,-0.010,0.000,0.000,0.000
1641195565800162048,2022-01-03-07:39:25,10.1.1.2,182,0.000,0.000,0.000,0.000,0.000,0.000
1641195566000539904,2022-01-03-07:39:26,10.1.1.2,180,-0.010,-0.010,-0.010,0.000,0.000,0.000
1641195566198478848,2022-01-03-07:39:26,10.1.1.2,176,-0.020,-0.020,-0.020,0.000,0.000,0.000
1641195566399010048,2022-01-03-07:39:26,10.1.1.2,175,-0.030,-0.030,-0.030,0.000,0.000,0.000
1641195566598959872,2022-01-03-07:39:26,10.1.1.2,174,-0.040,-0.040,-0.040,0.000,0.000,0.000
1641195566810425088,2022-01-03-07:39:26,10.1.1.2,185,-0.050,-0.050,-0.050,0.000,0.000,0.000
1641195566996912896,2022-01-03-07:39:26,10.1.1.2,170,-0.060,-0.060,-0.060,0.000,0.000,0.000
1641195567198232832,2022-01-03-07:39:27,10.1.1.2,171,-0.070,-0.070,-0.070,0.000,0.000,0.000
1641195567397666048,2022-01-03-07:39:27,10.1.1.2,170,-0.080,-0.080,-0.080,0.000,0.000,0.000
1641195567596412928,2022-01-03-07:39:27,10.1.1.2,167,-0.090,-0.090,-0.090,0.000,0.000,0.000
1641195567797147904,2022-01-03-07:39:27,10.1.1.2,167,-0.100,-0.100,-0.100,0.000,0.000,0.000
1641195567996012032,2022-01-03-07:39:27,10.1.1.2,164,-0.110,-0.110,-0.110,0.000,0.000,0.000
1641195568196041984,2022-01-03-07:39:28,10.1.1.2,164,-0.120,-0.120,-0.120,0.000,0.000,0.000
1641195568396491008,2022-01-03-07:39:28,10.1.1.2,163,-0.130,-0.130,-0.130,0.000,0.000,0.000
1641195568594301952,2022-01-03-07:39:28,10.1.1.2,160,-0.140,-0.140,-0.140,0.000,0.000,0.000
1641195568794725888,2022-01-03-07:39:28,10.1.1.2,159,-0.150,-0.150,-0.150,0.000,0.000,0.000
1641195569015041024,2022-01-03-07:39:29,10.1.1.2,178,-0.160,-0.160,-0.160,0.000,0.000,0.000
1641195569213391104,2022-01-03-07:39:29,10.1.1.2,176,-0.170,-0.170,-0.170,0.000,0.000,0.000
1641195569413684992,2022-01-03-07:39:29,10.1.1.2,175,-0.180,-0.180,-0.180,0.000,0.000,0.000
