FedericoMungari/DigitalTwin_service/01_WiredScenario/Output/Output_script/script_rosapi_2_output_robots6_freq0_3.txt
timestamp,date,node,latency,joint_1,joint_2,joint_3,joint_4,joint_5,joint_6
1644347635967843072,2022-02-08-19:13:55,10.1.1.4,12,-0.100,-0.100,-0.100,0.000,-0.000,0.000
1644347636087613952,2022-02-08-19:13:56,10.1.1.4,30,-0.090,-0.090,-0.090,0.000,0.000,0.000
1644347636187588096,2022-02-08-19:13:56,10.1.1.4,29,-0.080,-0.080,-0.080,0.000,0.000,0.000
1644347636288011008,2022-02-08-19:13:56,10.1.1.4,28,-0.070,-0.070,-0.070,0.000,0.000,0.000
1644347636389127936,2022-02-08-19:13:56,10.1.1.4,27,-0.060,-0.060,-0.060,0.000,0.000,0.000
1644347636487132928,2022-02-08-19:13:56,10.1.1.4,26,-0.050,-0.050,-0.050,0.000,0.000,0.000
1644347636590235904,2022-02-08-19:13:56,10.1.1.4,25,-0.040,-0.040,-0.040,0.000,0.000,0.000
1644347636687987968,2022-02-08-19:13:56,10.1.1.4,23,-0.030,-0.030,-0.030,0.000,0.000,0.000
1644347636788119040,2022-02-08-19:13:56,10.1.1.4,22,-0.020,-0.020,-0.020,0.000,0.000,0.000
1644347636889234176,2022-02-08-19:13:56,10.1.1.4,21,-0.010,-0.010,-0.010,0.000,0.000,0.000
1644347636987020032,2022-02-08-19:13:56,10.1.1.4,20,0.000,0.000,0.000,0.000,0.000,0.000
1644347637087335936,2022-02-08-19:13:57,10.1.1.4,19,0.010,0.010,0.010,0.000,0.000,0.000
1644347637186942208,2022-02-08-19:13:57,10.1.1.4,19,0.019,0.019,0.019,0.000,0.000,0.000
1644347637307410944,2022-02-08-19:13:57,10.1.1.4,38,0.030,0.030,0.030,0.000,0.000,0.000
1644347637407880192,2022-02-08-19:13:57,10.1.1.4,37,0.040,0.040,0.040,0.000,0.000,0.000
1644347637507035136,2022-02-08-19:13:57,10.1.1.4,36,0.050,0.050,0.050,0.000,0.000,0.000
1644347637608023808,2022-02-08-19:13:57,10.1.1.4,35,0.060,0.060,0.060,0.000,0.000,0.000
1644347637707598848,2022-02-08-19:13:57,10.1.1.4,34,0.070,0.070,0.070,0.000,0.000,0.000
1644347637807760128,2022-02-08-19:13:57,10.1.1.4,33,0.080,0.080,0.080,0.000,0.000,0.000
1644347637909019904,2022-02-08-19:13:57,10.1.1.4,33,0.090,0.090,0.090,0.000,0.000,0.000
1644347638007440128,2022-02-08-19:13:58,10.1.1.4,32,0.100,0.100,0.100,0.000,0.000,0.000
1644347638107023872,2022-02-08-19:13:58,10.1.1.4,30,0.090,0.090,0.090,0.000,0.000,0.000
1644347638207742976,2022-02-08-19:13:58,10.1.1.4,29,0.080,0.080,0.080,0.000,0.000,0.000
1644347638307424000,2022-02-08-19:13:58,10.1.1.4,29,0.070,0.070,0.070,0.000,0.000,0.000
1644347638407578112,2022-02-08-19:13:58,10.1.1.4,28,0.060,0.060,0.060,0.000,0.000,0.000
1644347638507438848,2022-02-08-19:13:58,10.1.1.4,26,0.050,0.050,0.050,0.000,0.000,0.000
1644347638608304896,2022-02-08-19:13:58,10.1.1.4,26,0.040,0.040,0.040,0.000,0.000,0.000
1644347638707650816,2022-02-08-19:13:58,10.1.1.4,24,0.030,0.030,0.030,0.000,0.000,0.000
1644347638808482816,2022-02-08-19:13:58,10.1.1.4,24,0.020,0.020,0.020,0.000,0.000,0.000
1644347638907491072,2022-02-08-19:13:58,10.1.1.4,22,0.010,0.010,0.010,0.000,0.000,0.000
1644347639007214080,2022-02-08-19:13:59,10.1.1.4,21,0.000,0.000,0.000,0.000,0.000,0.000
1644347639106892032,2022-02-08-19:13:59,10.1.1.4,20,-0.010,-0.010,-0.010,0.000,0.000,0.000
1644347639207073024,2022-02-08-19:13:59,10.1.1.4,19,-0.020,-0.020,-0.020,0.000,0.000,0.000
1644347639308290048,2022-02-08-19:13:59,10.1.1.4,19,-0.029,-0.029,-0.029,0.000,0.000,0.000
1644347639427421952,2022-02-08-19:13:59,10.1.1.4,39,-0.040,-0.040,-0.040,0.000,0.000,0.000
1644347639527420928,2022-02-08-19:13:59,10.1.1.4,38,-0.050,-0.050,-0.050,0.000,0.000,0.000
1644347639627635968,2022-02-08-19:13:59,10.1.1.4,37,-0.060,-0.060,-0.060,0.000,0.000,0.000
1644347639727648000,2022-02-08-19:13:59,10.1.1.4,37,-0.070,-0.070,-0.070,0.000,0.000,0.000
1644347639827639040,2022-02-08-19:13:59,10.1.1.4,36,-0.080,-0.080,-0.080,0.000,0.000,0.000
1644347639927570944,2022-02-08-19:13:59,10.1.1.4,35,-0.090,-0.090,-0.090,0.000,0.000,0.000
1644347640027798016,2022-02-08-19:14:00,10.1.1.4,34,-0.100,-0.100,-0.100,0.000,0.000,0.000
1644347640129897984,2022-02-08-19:14:00,10.1.1.4,33,-0.090,-0.090,-0.090,0.000,0.000,0.000
1644347640229070848,2022-02-08-19:14:00,10.1.1.4,32,-0.080,-0.080,-0.080,0.000,0.000,0.000
1644347640327286016,2022-02-08-19:14:00,10.1.1.4,32,-0.070,-0.070,-0.070,0.000,0.000,0.000
1644347640427390208,2022-02-08-19:14:00,10.1.1.4,31,-0.060,-0.060,-0.060,0.000,0.000,0.000
1644347640527218176,2022-02-08-19:14:00,10.1.1.4,30,-0.050,-0.050,-0.050,0.000,0.000,0.000
1644347640627919872,2022-02-08-19:14:00,10.1.1.4,29,-0.040,-0.040,-0.040,0.000,0.000,0.000
1644347640727550976,2022-02-08-19:14:00,10.1.1.4,29,-0.030,-0.030,-0.030,0.000,0.000,0.000
1644347640827631872,2022-02-08-19:14:00,10.1.1.4,28,-0.020,-0.020,-0.020,0.000,0.000,0.000
1644347640929725952,2022-02-08-19:14:00,10.1.1.4,29,-0.010,-0.010,-0.010,0.000,0.000,0.000
1644347641026993920,2022-02-08-19:14:01,10.1.1.4,27,0.000,0.000,0.000,0.000,0.000,0.000
1644347641127651072,2022-02-08-19:14:01,10.1.1.4,27,0.010,0.010,0.010,0.000,0.000,0.000
1644347641226923008,2022-02-08-19:14:01,10.1.1.4,26,0.020,0.020,0.020,0.000,0.000,0.000
1644347641327528960,2022-02-08-19:14:01,10.1.1.4,25,0.030,0.030,0.030,0.000,0.000,0.000
1644347641427454976,2022-02-08-19:14:01,10.1.1.4,24,0.040,0.040,0.040,0.000,0.000,0.000
1644347641527395072,2022-02-08-19:14:01,10.1.1.4,23,0.050,0.050,0.050,0.000,0.000,0.000
1644347641627894016,2022-02-08-19:14:01,10.1.1.4,22,0.060,0.060,0.060,0.000,0.000,0.000
1644347641726883840,2022-02-08-19:14:01,10.1.1.4,21,0.070,0.070,0.070,0.000,0.000,0.000
1644347641827489024,2022-02-08-19:14:01,10.1.1.4,21,0.080,0.080,0.080,0.000,0.000,0.000
1644347641927692032,2022-02-08-19:14:01,10.1.1.4,20,0.090,0.090,0.090,0.000,0.000,0.000
1644347642028732928,2022-02-08-19:14:02,10.1.1.4,19,0.099,0.099,0.099,0.000,0.000,0.000
1644347642147672832,2022-02-08-19:14:02,10.1.1.4,38,0.090,0.090,0.090,0.000,0.000,0.000
1644347642247649024,2022-02-08-19:14:02,10.1.1.4,38,0.080,0.080,0.080,0.000,0.000,0.000
1644347642347404032,2022-02-08-19:14:02,10.1.1.4,37,0.070,0.070,0.070,0.000,0.000,0.000
1644347642448096000,2022-02-08-19:14:02,10.1.1.4,36,0.060,0.060,0.060,0.000,0.000,0.000
1644347642547979008,2022-02-08-19:14:02,10.1.1.4,35,0.050,0.050,0.050,0.000,0.000,0.000
1644347642648089856,2022-02-08-19:14:02,10.1.1.4,34,0.040,0.040,0.040,0.000,0.000,0.000
1644347642748361216,2022-02-08-19:14:02,10.1.1.4,33,0.030,0.030,0.030,0.000,0.000,0.000
1644347642847415808,2022-02-08-19:14:02,10.1.1.4,31,0.020,0.020,0.020,0.000,0.000,0.000
1644347642948498944,2022-02-08-19:14:02,10.1.1.4,29,0.010,0.010,0.010,0.000,0.000,0.000
1644347643047810048,2022-02-08-19:14:03,10.1.1.4,28,0.000,0.000,0.000,0.000,0.000,0.000
1644347643148024064,2022-02-08-19:14:03,10.1.1.4,25,-0.010,-0.010,-0.010,0.000,0.000,0.000
1644347643247770112,2022-02-08-19:14:03,10.1.1.4,25,-0.020,-0.020,-0.020,0.000,0.000,0.000
1644347643348222976,2022-02-08-19:14:03,10.1.1.4,24,-0.030,-0.030,-0.030,0.000,0.000,0.000
1644347643448243968,2022-02-08-19:14:03,10.1.1.4,23,-0.040,-0.040,-0.040,0.000,0.000,0.000
1644347643547513856,2022-02-08-19:14:03,10.1.1.4,22,-0.050,-0.050,-0.050,0.000,0.000,0.000
1644347643647959040,2022-02-08-19:14:03,10.1.1.4,21,-0.060,-0.060,-0.060,0.000,0.000,0.000
1644347643748212992,2022-02-08-19:14:03,10.1.1.4,20,-0.070,-0.070,-0.070,0.000,0.000,0.000
1644347643847393024,2022-02-08-19:14:03,10.1.1.4,20,-0.080,-0.080,-0.080,0.000,0.000,0.000
1644347643948376064,2022-02-08-19:14:03,10.1.1.4,19,-0.090,-0.090,-0.090,0.000,0.000,0.000
1644347644067670016,2022-02-08-19:14:04,10.1.1.4,38,-0.100,-0.100,-0.100,0.000,0.000,0.000
1644347644167301888,2022-02-08-19:14:04,10.1.1.4,38,-0.090,-0.090,-0.090,0.000,0.000,0.000
1644347644267694080,2022-02-08-19:14:04,10.1.1.4,36,-0.080,-0.080,-0.080,0.000,0.000,0.000
1644347644368006912,2022-02-08-19:14:04,10.1.1.4,34,-0.070,-0.070,-0.070,0.000,0.000,0.000
1644347644467694080,2022-02-08-19:14:04,10.1.1.4,34,-0.060,-0.060,-0.060,0.000,0.000,0.000
1644347644568918016,2022-02-08-19:14:04,10.1.1.4,34,-0.050,-0.050,-0.050,0.000,0.000,0.000
1644347644667471872,2022-02-08-19:14:04,10.1.1.4,32,-0.040,-0.040,-0.040,0.000,0.000,0.000
1644347644767532032,2022-02-08-19:14:04,10.1.1.4,31,-0.030,-0.030,-0.030,0.000,0.000,0.000
1644347644868545024,2022-02-08-19:14:04,10.1.1.4,31,-0.020,-0.020,-0.020,0.000,0.000,0.000
1644347644968187136,2022-02-08-19:14:04,10.1.1.4,30,-0.010,-0.010,-0.010,0.000,0.000,0.000
1644347645068387072,2022-02-08-19:14:05,10.1.1.4,29,0.000,0.000,0.000,0.000,0.000,0.000
1644347645285515008,2022-02-08-19:14:05,10.1.1.4,27,0.020,0.020,0.020,0.000,0.000,0.000
1644347645389324032,2022-02-08-19:14:05,10.1.1.4,31,0.030,0.030,0.030,0.000,0.000,0.000
1644347645486982144,2022-02-08-19:14:05,10.1.1.4,31,0.040,0.040,0.040,0.000,0.000,0.000
1644347645586978048,2022-02-08-19:14:05,10.1.1.4,30,0.050,0.050,0.050,0.000,0.000,0.000
1644347645687613952,2022-02-08-19:14:05,10.1.1.4,30,0.060,0.060,0.060,0.000,0.000,0.000
1644347645798705152,2022-02-08-19:14:05,10.1.1.4,30,0.070,0.070,0.070,0.000,0.000,0.000
1644347645887322880,2022-02-08-19:14:05,10.1.1.4,24,0.080,0.080,0.080,0.000,0.000,0.000
1644347645987890944,2022-02-08-19:14:05,10.1.1.4,23,0.090,0.090,0.090,0.000,0.000,0.000
1644347646088148224,2022-02-08-19:14:06,10.1.1.4,23,0.100,0.100,0.100,0.000,0.000,0.000
1644347646187151872,2022-02-08-19:14:06,10.1.1.4,22,0.090,0.090,0.090,0.000,0.000,0.000
1644347646287223040,2022-02-08-19:14:06,10.1.1.4,21,0.080,0.080,0.080,0.000,0.000,0.000
1644347646387546112,2022-02-08-19:14:06,10.1.1.4,21,0.070,0.070,0.070,0.000,0.000,0.000
1644347646487351040,2022-02-08-19:14:06,10.1.1.4,20,0.060,0.060,0.060,0.000,0.000,0.000
1644347646587416832,2022-02-08-19:14:06,10.1.1.4,19,0.051,0.051,0.051,0.000,0.000,0.000
1644347646707371008,2022-02-08-19:14:06,10.1.1.4,38,0.040,0.040,0.040,0.000,0.000,0.000
1644347646808875008,2022-02-08-19:14:06,10.1.1.4,37,0.030,0.030,0.030,0.000,0.000,0.000
1644347646907538944,2022-02-08-19:14:06,10.1.1.4,36,0.020,0.020,0.020,0.000,0.000,0.000
1644347647007118848,2022-02-08-19:14:07,10.1.1.4,35,0.010,0.010,0.010,0.000,0.000,0.000
1644347647107580928,2022-02-08-19:14:07,10.1.1.4,33,0.000,0.000,0.000,0.000,0.000,0.000
1644347647207727872,2022-02-08-19:14:07,10.1.1.4,33,-0.010,-0.010,-0.010,0.000,0.000,0.000
1644347647308841984,2022-02-08-19:14:07,10.1.1.4,32,-0.020,-0.020,-0.020,0.000,0.000,0.000
1644347647407380992,2022-02-08-19:14:07,10.1.1.4,31,-0.030,-0.030,-0.030,0.000,0.000,0.000
1644347647507366912,2022-02-08-19:14:07,10.1.1.4,31,-0.040,-0.040,-0.040,0.000,0.000,0.000
1644347647607839232,2022-02-08-19:14:07,10.1.1.4,29,-0.050,-0.050,-0.050,0.000,0.000,0.000
1644347647707875072,2022-02-08-19:14:07,10.1.1.4,29,-0.060,-0.060,-0.060,0.000,0.000,0.000
1644347647808044032,2022-02-08-19:14:07,10.1.1.4,28,-0.070,-0.070,-0.070,0.000,0.000,0.000
1644347647907632128,2022-02-08-19:14:07,10.1.1.4,27,-0.080,-0.080,-0.080,0.000,0.000,0.000
1644347648008220928,2022-02-08-19:14:08,10.1.1.4,26,-0.090,-0.090,-0.090,0.000,0.000,0.000
1644347648107791872,2022-02-08-19:14:08,10.1.1.4,24,-0.100,-0.100,-0.100,0.000,0.000,0.000
1644347648208051968,2022-02-08-19:14:08,10.1.1.4,24,-0.090,-0.090,-0.090,0.000,0.000,0.000
1644347648308608000,2022-02-08-19:14:08,10.1.1.4,23,-0.080,-0.080,-0.080,0.000,0.000,0.000
1644347648408716032,2022-02-08-19:14:08,10.1.1.4,21,-0.070,-0.070,-0.070,0.000,0.000,0.000
1644347648508204032,2022-02-08-19:14:08,10.1.1.4,20,-0.060,-0.060,-0.060,0.000,0.000,0.000
1644347648608169984,2022-02-08-19:14:08,10.1.1.4,20,-0.050,-0.050,-0.050,0.000,0.000,0.000
1644347648707417088,2022-02-08-19:14:08,10.1.1.4,19,-0.041,-0.041,-0.041,0.000,0.000,0.000
1644347648828124928,2022-02-08-19:14:08,10.1.1.4,37,-0.030,-0.030,-0.030,0.000,0.000,0.000
1644347648927483136,2022-02-08-19:14:08,10.1.1.4,34,-0.020,-0.020,-0.020,0.000,0.000,0.000
1644347649028364800,2022-02-08-19:14:09,10.1.1.4,33,-0.010,-0.010,-0.010,0.000,0.000,0.000
1644347649127937024,2022-02-08-19:14:09,10.1.1.4,32,0.000,0.000,0.000,0.000,0.000,0.000
1644347649227345920,2022-02-08-19:14:09,10.1.1.4,31,0.010,0.010,0.010,0.000,0.000,0.000
1644347649327883008,2022-02-08-19:14:09,10.1.1.4,30,0.020,0.020,0.020,0.000,0.000,0.000
1644347649427635968,2022-02-08-19:14:09,10.1.1.4,28,0.030,0.030,0.030,0.000,0.000,0.000
1644347649528326144,2022-02-08-19:14:09,10.1.1.4,23,0.040,0.040,0.040,0.000,0.000,0.000
1644347649627715072,2022-02-08-19:14:09,10.1.1.4,22,0.050,0.050,0.050,0.000,0.000,0.000
1644347649727590912,2022-02-08-19:14:09,10.1.1.4,21,0.060,0.060,0.060,0.000,0.000,0.000
1644347649828320000,2022-02-08-19:14:09,10.1.1.4,20,0.070,0.070,0.070,0.000,0.000,0.000
1644347649927947008,2022-02-08-19:14:09,10.1.1.4,19,0.080,0.080,0.080,0.000,0.000,0.000
1644347650048888064,2022-02-08-19:14:10,10.1.1.4,38,0.090,0.090,0.090,0.000,0.000,0.000
1644347650146961920,2022-02-08-19:14:10,10.1.1.4,35,0.100,0.100,0.100,0.000,0.000,0.000
1644347650247441920,2022-02-08-19:14:10,10.1.1.4,33,0.090,0.090,0.090,0.000,0.000,0.000
1644347650347193856,2022-02-08-19:14:10,10.1.1.4,32,0.080,0.080,0.080,0.000,0.000,0.000
1644347650447751936,2022-02-08-19:14:10,10.1.1.4,31,0.070,0.070,0.070,0.000,0.000,0.000
1644347650548228096,2022-02-08-19:14:10,10.1.1.4,30,0.060,0.060,0.060,0.000,0.000,0.000
1644347650648578816,2022-02-08-19:14:10,10.1.1.4,30,0.050,0.050,0.050,0.000,0.000,0.000
1644347650749586944,2022-02-08-19:14:10,10.1.1.4,27,0.040,0.040,0.040,0.000,0.000,0.000
1644347650847986944,2022-02-08-19:14:10,10.1.1.4,26,0.030,0.030,0.030,0.000,0.000,0.000
1644347650947292160,2022-02-08-19:14:10,10.1.1.4,25,0.020,0.020,0.020,0.000,0.000,0.000
1644347651047569152,2022-02-08-19:14:11,10.1.1.4,24,0.010,0.010,0.010,0.000,0.000,0.000
1644347651147977216,2022-02-08-19:14:11,10.1.1.4,23,0.000,0.000,0.000,0.000,0.000,0.000
1644347651247462912,2022-02-08-19:14:11,10.1.1.4,22,-0.010,-0.010,-0.010,0.000,0.000,0.000
1644347651347948032,2022-02-08-19:14:11,10.1.1.4,22,-0.020,-0.020,-0.020,0.000,0.000,0.000
1644347651447792128,2022-02-08-19:14:11,10.1.1.4,21,-0.030,-0.030,-0.030,0.000,0.000,0.000
1644347651547900928,2022-02-08-19:14:11,10.1.1.4,20,-0.040,-0.040,-0.040,0.000,0.000,0.000
1644347651647758848,2022-02-08-19:14:11,10.1.1.4,20,-0.050,-0.050,-0.050,0.000,0.000,0.000
1644347651747888128,2022-02-08-19:14:11,10.1.1.4,19,-0.059,-0.059,-0.059,0.000,0.000,0.000
1644347651867621888,2022-02-08-19:14:11,10.1.1.4,38,-0.070,-0.070,-0.070,0.000,0.000,0.000
1644347651967463936,2022-02-08-19:14:11,10.1.1.4,37,-0.080,-0.080,-0.080,0.000,0.000,0.000
1644347652070573056,2022-02-08-19:14:12,10.1.1.4,36,-0.090,-0.090,-0.090,0.000,0.000,0.000
1644347652168379904,2022-02-08-19:14:12,10.1.1.4,35,-0.100,-0.100,-0.100,0.000,0.000,0.000
1644347652267759104,2022-02-08-19:14:12,10.1.1.4,33,-0.090,-0.090,-0.090,0.000,0.000,0.000
1644347652367922176,2022-02-08-19:14:12,10.1.1.4,33,-0.080,-0.080,-0.080,0.000,0.000,0.000
1644347652467628032,2022-02-08-19:14:12,10.1.1.4,32,-0.070,-0.070,-0.070,0.000,0.000,0.000
1644347652567708928,2022-02-08-19:14:12,10.1.1.4,32,-0.060,-0.060,-0.060,0.000,0.000,0.000
1644347652671673088,2022-02-08-19:14:12,10.1.1.4,31,-0.050,-0.050,-0.050,0.000,0.000,0.000
1644347652768965120,2022-02-08-19:14:12,10.1.1.4,30,-0.040,-0.040,-0.040,0.000,0.000,0.000
1644347652867770880,2022-02-08-19:14:12,10.1.1.4,29,-0.030,-0.030,-0.030,0.000,0.000,0.000
1644347652967675904,2022-02-08-19:14:12,10.1.1.4,29,-0.020,-0.020,-0.020,0.000,0.000,0.000
1644347653067522048,2022-02-08-19:14:13,10.1.1.4,28,-0.010,-0.010,-0.010,0.000,0.000,0.000
1644347653167803136,2022-02-08-19:14:13,10.1.1.4,27,0.000,0.000,0.000,0.000,0.000,0.000
1644347653267607040,2022-02-08-19:14:13,10.1.1.4,27,0.010,0.010,0.010,0.000,0.000,0.000
1644347653367358976,2022-02-08-19:14:13,10.1.1.4,26,0.020,0.020,0.020,0.000,0.000,0.000
1644347653467907072,2022-02-08-19:14:13,10.1.1.4,25,0.030,0.030,0.030,0.000,0.000,0.000
1644347653567507968,2022-02-08-19:14:13,10.1.1.4,24,0.040,0.040,0.040,0.000,0.000,0.000
1644347653666932224,2022-02-08-19:14:13,10.1.1.4,23,0.050,0.050,0.050,0.000,0.000,0.000
1644347653768302080,2022-02-08-19:14:13,10.1.1.4,22,0.060,0.060,0.060,0.000,0.000,0.000
1644347653867845120,2022-02-08-19:14:13,10.1.1.4,22,0.070,0.070,0.070,0.000,0.000,0.000
1644347653966681088,2022-02-08-19:14:13,10.1.1.4,21,0.080,0.080,0.080,0.000,0.000,0.000
1644347654067769088,2022-02-08-19:14:14,10.1.1.4,20,0.090,0.090,0.090,0.000,0.000,0.000
1644347654187727872,2022-02-08-19:14:14,10.1.1.4,38,0.100,0.100,0.100,0.000,0.000,0.000
1644347654287564032,2022-02-08-19:14:14,10.1.1.4,38,0.090,0.090,0.090,0.000,0.000,0.000
1644347654386894080,2022-02-08-19:14:14,10.1.1.4,37,0.080,0.080,0.080,0.000,0.000,0.000
1644347654487375872,2022-02-08-19:14:14,10.1.1.4,35,0.070,0.070,0.070,0.000,0.000,0.000
1644347654587155968,2022-02-08-19:14:14,10.1.1.4,32,0.060,0.060,0.060,0.000,0.000,0.000
1644347654687849984,2022-02-08-19:14:14,10.1.1.4,31,0.050,0.050,0.050,0.000,0.000,0.000
1644347654787446016,2022-02-08-19:14:14,10.1.1.4,30,0.040,0.040,0.040,0.000,0.000,0.000
1644347654887208960,2022-02-08-19:14:14,10.1.1.4,29,0.030,0.030,0.030,0.000,0.000,0.000
1644347654987756032,2022-02-08-19:14:14,10.1.1.4,28,0.020,0.020,0.020,0.000,0.000,0.000
1644347655207639808,2022-02-08-19:14:15,10.1.1.4,36,0.000,0.000,0.000,0.000,0.000,0.000
1644347655307909120,2022-02-08-19:14:15,10.1.1.4,35,-0.010,-0.010,-0.010,0.000,0.000,0.000
1644347655408261888,2022-02-08-19:14:15,10.1.1.4,33,-0.020,-0.020,-0.020,0.000,0.000,0.000
1644347655508017152,2022-02-08-19:14:15,10.1.1.4,32,-0.030,-0.030,-0.030,0.000,0.000,0.000
1644347655607158784,2022-02-08-19:14:15,10.1.1.4,30,-0.040,-0.040,-0.040,0.000,0.000,0.000
1644347655707681024,2022-02-08-19:14:15,10.1.1.4,29,-0.050,-0.050,-0.050,0.000,0.000,0.000
1644347655807985152,2022-02-08-19:14:15,10.1.1.4,29,-0.060,-0.060,-0.060,0.000,0.000,0.000
1644347655908504064,2022-02-08-19:14:15,10.1.1.4,28,-0.070,-0.070,-0.070,0.000,0.000,0.000
1644347656007980032,2022-02-08-19:14:16,10.1.1.4,28,-0.080,-0.080,-0.080,0.000,0.000,0.000
1644347656107444992,2022-02-08-19:14:16,10.1.1.4,27,-0.090,-0.090,-0.090,0.000,0.000,0.000
1644347656207365120,2022-02-08-19:14:16,10.1.1.4,25,-0.100,-0.100,-0.100,0.000,0.000,0.000
1644347656310514944,2022-02-08-19:14:16,10.1.1.4,24,-0.090,-0.090,-0.090,0.000,0.000,0.000
1644347656407979008,2022-02-08-19:14:16,10.1.1.4,24,-0.080,-0.080,-0.080,0.000,0.000,0.000
1644347656507724032,2022-02-08-19:14:16,10.1.1.4,23,-0.070,-0.070,-0.070,0.000,0.000,0.000
1644347656608254976,2022-02-08-19:14:16,10.1.1.4,22,-0.060,-0.060,-0.060,0.000,0.000,0.000
1644347656707487232,2022-02-08-19:14:16,10.1.1.4,22,-0.050,-0.050,-0.050,0.000,0.000,0.000
1644347656808322048,2022-02-08-19:14:16,10.1.1.4,20,-0.040,-0.040,-0.040,0.000,0.000,0.000
1644347656908094976,2022-02-08-19:14:16,10.1.1.4,20,-0.030,-0.030,-0.030,0.000,0.000,0.000
1644347657006963968,2022-02-08-19:14:17,10.1.1.4,19,-0.020,-0.020,-0.020,0.000,0.000,0.000
1644347657127227136,2022-02-08-19:14:17,10.1.1.4,38,-0.010,-0.010,-0.010,0.000,0.000,0.000
1644347657227181056,2022-02-08-19:14:17,10.1.1.4,38,0.000,0.000,0.000,0.000,0.000,0.000
1644347657327814144,2022-02-08-19:14:17,10.1.1.4,38,0.010,0.010,0.010,0.000,0.000,0.000
1644347657428023040,2022-02-08-19:14:17,10.1.1.4,36,0.020,0.020,0.020,0.000,0.000,0.000
1644347657527751936,2022-02-08-19:14:17,10.1.1.4,36,0.030,0.030,0.030,0.000,0.000,0.000
1644347657627824896,2022-02-08-19:14:17,10.1.1.4,34,0.040,0.040,0.040,0.000,0.000,0.000
1644347657727479040,2022-02-08-19:14:17,10.1.1.4,34,0.050,0.050,0.050,0.000,0.000,0.000
1644347657828030976,2022-02-08-19:14:17,10.1.1.4,33,0.060,0.060,0.060,0.000,0.000,0.000
1644347657927661056,2022-02-08-19:14:17,10.1.1.4,32,0.070,0.070,0.070,0.000,0.000,0.000
1644347658026982144,2022-02-08-19:14:18,10.1.1.4,31,0.080,0.080,0.080,0.000,0.000,0.000
1644347658127875072,2022-02-08-19:14:18,10.1.1.4,31,0.090,0.090,0.090,0.000,0.000,0.000
1644347658227945216,2022-02-08-19:14:18,10.1.1.4,30,0.100,0.100,0.100,0.000,0.000,0.000
1644347658328195072,2022-02-08-19:14:18,10.1.1.4,29,0.090,0.090,0.090,0.000,0.000,0.000
1644347658427787008,2022-02-08-19:14:18,10.1.1.4,29,0.080,0.080,0.080,0.000,0.000,0.000
1644347658527360000,2022-02-08-19:14:18,10.1.1.4,27,0.070,0.070,0.070,0.000,0.000,0.000
1644347658628264960,2022-02-08-19:14:18,10.1.1.4,26,0.060,0.060,0.060,0.000,0.000,0.000
1644347658727379968,2022-02-08-19:14:18,10.1.1.4,25,0.050,0.050,0.050,0.000,0.000,0.000
1644347658827638016,2022-02-08-19:14:18,10.1.1.4,25,0.040,0.040,0.040,0.000,0.000,0.000
1644347658927645952,2022-02-08-19:14:18,10.1.1.4,24,0.030,0.030,0.030,0.000,0.000,0.000
1644347659029930240,2022-02-08-19:14:19,10.1.1.4,23,0.020,0.020,0.020,0.000,0.000,0.000
1644347659129049088,2022-02-08-19:14:19,10.1.1.4,22,0.010,0.010,0.010,0.000,0.000,0.000
1644347659227163136,2022-02-08-19:14:19,10.1.1.4,21,0.000,0.000,0.000,0.000,0.000,0.000
1644347659327180032,2022-02-08-19:14:19,10.1.1.4,21,-0.010,-0.010,-0.010,0.000,0.000,0.000
1644347659427536896,2022-02-08-19:14:19,10.1.1.4,20,-0.020,-0.020,-0.020,0.000,0.000,0.000
1644347659527566080,2022-02-08-19:14:19,10.1.1.4,19,-0.030,-0.030,-0.030,0.000,0.000,0.000
1644347659647032064,2022-02-08-19:14:19,10.1.1.4,38,-0.040,-0.040,-0.040,0.000,0.000,0.000
1644347659747415040,2022-02-08-19:14:19,10.1.1.4,38,-0.050,-0.050,-0.050,0.000,0.000,0.000
1644347659847379968,2022-02-08-19:14:19,10.1.1.4,37,-0.060,-0.060,-0.060,0.000,0.000,0.000
1644347659947559168,2022-02-08-19:14:19,10.1.1.4,37,-0.070,-0.070,-0.070,0.000,0.000,0.000
1644347660047788032,2022-02-08-19:14:20,10.1.1.4,36,-0.080,-0.080,-0.080,0.000,0.000,0.000
1644347660147356160,2022-02-08-19:14:20,10.1.1.4,35,-0.090,-0.090,-0.090,0.000,0.000,0.000
1644347660247211008,2022-02-08-19:14:20,10.1.1.4,35,-0.100,-0.100,-0.100,0.000,0.000,0.000
1644347660348136960,2022-02-08-19:14:20,10.1.1.4,34,-0.090,-0.090,-0.090,0.000,0.000,0.000
1644347660448736000,2022-02-08-19:14:20,10.1.1.4,33,-0.080,-0.080,-0.080,0.000,0.000,0.000
1644347660547517952,2022-02-08-19:14:20,10.1.1.4,33,-0.070,-0.070,-0.070,0.000,0.000,0.000
1644347660647768064,2022-02-08-19:14:20,10.1.1.4,32,-0.060,-0.060,-0.060,0.000,0.000,0.000
1644347660748392192,2022-02-08-19:14:20,10.1.1.4,31,-0.050,-0.050,-0.050,0.000,0.000,0.000
1644347660847955968,2022-02-08-19:14:20,10.1.1.4,30,-0.040,-0.040,-0.040,0.000,0.000,0.000
1644347660947566080,2022-02-08-19:14:20,10.1.1.4,30,-0.030,-0.030,-0.030,0.000,0.000,0.000
1644347661048295936,2022-02-08-19:14:21,10.1.1.4,29,-0.020,-0.020,-0.020,0.000,0.000,0.000
1644347661148142080,2022-02-08-19:14:21,10.1.1.4,28,-0.010,-0.010,-0.010,0.000,0.000,0.000
1644347661248083968,2022-02-08-19:14:21,10.1.1.4,27,0.000,0.000,0.000,0.000,0.000,0.000
1644347661348328960,2022-02-08-19:14:21,10.1.1.4,26,0.010,0.010,0.010,0.000,0.000,0.000
1644347661448398080,2022-02-08-19:14:21,10.1.1.4,25,0.020,0.020,0.020,0.000,0.000,0.000
1644347661547200000,2022-02-08-19:14:21,10.1.1.4,24,0.030,0.030,0.030,0.000,0.000,0.000
1644347661648286976,2022-02-08-19:14:21,10.1.1.4,23,0.040,0.040,0.040,0.000,0.000,0.000
1644347661747736832,2022-02-08-19:14:21,10.1.1.4,22,0.050,0.050,0.050,0.000,0.000,0.000
1644347661847610112,2022-02-08-19:14:21,10.1.1.4,22,0.060,0.060,0.060,0.000,0.000,0.000
1644347661947525120,2022-02-08-19:14:21,10.1.1.4,21,0.070,0.070,0.070,0.000,0.000,0.000
1644347662047895040,2022-02-08-19:14:22,10.1.1.4,20,0.080,0.080,0.080,0.000,0.000,0.000
1644347662147241984,2022-02-08-19:14:22,10.1.1.4,20,0.090,0.090,0.090,0.000,0.000,0.000
1644347662247791104,2022-02-08-19:14:22,10.1.1.4,19,0.100,0.100,0.100,0.000,0.000,0.000
1644347662367345152,2022-02-08-19:14:22,10.1.1.4,38,0.090,0.090,0.090,0.000,0.000,0.000
1644347662467698944,2022-02-08-19:14:22,10.1.1.4,37,0.080,0.080,0.080,0.000,0.000,0.000
1644347662567981056,2022-02-08-19:14:22,10.1.1.4,38,0.070,0.070,0.070,0.000,0.000,0.000
1644347662667817216,2022-02-08-19:14:22,10.1.1.4,36,0.060,0.060,0.060,0.000,0.000,0.000
1644347662767107840,2022-02-08-19:14:22,10.1.1.4,35,0.050,0.050,0.050,0.000,0.000,0.000
1644347662868026112,2022-02-08-19:14:22,10.1.1.4,33,0.040,0.040,0.040,0.000,0.000,0.000
1644347662968889088,2022-02-08-19:14:22,10.1.1.4,32,0.030,0.030,0.030,0.000,0.000,0.000
1644347663067610112,2022-02-08-19:14:23,10.1.1.4,31,0.020,0.020,0.020,0.000,0.000,0.000
1644347663167869184,2022-02-08-19:14:23,10.1.1.4,30,0.010,0.010,0.010,0.000,0.000,0.000
1644347663268829952,2022-02-08-19:14:23,10.1.1.4,30,0.000,0.000,0.000,0.000,0.000,0.000
1644347663367510016,2022-02-08-19:14:23,10.1.1.4,29,-0.010,-0.010,-0.010,0.000,0.000,0.000
1644347663468144896,2022-02-08-19:14:23,10.1.1.4,28,-0.020,-0.020,-0.020,0.000,0.000,0.000
1644347663567599104,2022-02-08-19:14:23,10.1.1.4,27,-0.030,-0.030,-0.030,0.000,0.000,0.000
1644347663667747072,2022-02-08-19:14:23,10.1.1.4,26,-0.040,-0.040,-0.040,0.000,0.000,0.000
1644347663767916032,2022-02-08-19:14:23,10.1.1.4,25,-0.050,-0.050,-0.050,0.000,0.000,0.000
1644347663879087872,2022-02-08-19:14:23,10.1.1.4,22,-0.060,-0.060,-0.060,0.000,0.000,0.000
1644347663987386112,2022-02-08-19:14:23,10.1.1.4,34,-0.070,-0.070,-0.070,0.000,0.000,0.000
1644347664088018944,2022-02-08-19:14:24,10.1.1.4,34,-0.080,-0.080,-0.080,0.000,0.000,0.000
1644347664187971072,2022-02-08-19:14:24,10.1.1.4,31,-0.090,-0.090,-0.090,0.000,0.000,0.000
1644347664287121920,2022-02-08-19:14:24,10.1.1.4,31,-0.100,-0.100,-0.100,0.000,0.000,0.000
1644347664387836928,2022-02-08-19:14:24,10.1.1.4,30,-0.090,-0.090,-0.090,0.000,0.000,0.000
1644347664488071936,2022-02-08-19:14:24,10.1.1.4,29,-0.080,-0.080,-0.080,0.000,0.000,0.000
1644347664588044032,2022-02-08-19:14:24,10.1.1.4,29,-0.070,-0.070,-0.070,0.000,0.000,0.000
1644347664687844096,2022-02-08-19:14:24,10.1.1.4,28,-0.060,-0.060,-0.060,0.000,0.000,0.000
1644347664787504896,2022-02-08-19:14:24,10.1.1.4,26,-0.050,-0.050,-0.050,0.000,0.000,0.000
1644347664887746048,2022-02-08-19:14:24,10.1.1.4,25,-0.040,-0.040,-0.040,0.000,0.000,0.000
1644347664987119872,2022-02-08-19:14:24,10.1.1.4,24,-0.030,-0.030,-0.030,0.000,0.000,0.000
1644347665087625984,2022-02-08-19:14:25,10.1.1.4,23,-0.020,-0.020,-0.020,0.000,0.000,0.000
1644347665187709952,2022-02-08-19:14:25,10.1.1.4,22,-0.010,-0.010,-0.010,0.000,0.000,0.000
1644347665286746880,2022-02-08-19:14:25,10.1.1.4,20,0.000,0.000,0.000,0.000,0.000,0.000
1644347665387616000,2022-02-08-19:14:25,10.1.1.4,19,0.009,0.009,0.009,0.000,0.000,0.000
1644347665507595008,2022-02-08-19:14:25,10.1.1.4,38,0.020,0.020,0.020,0.000,0.000,0.000
1644347665606767872,2022-02-08-19:14:25,10.1.1.4,38,0.030,0.030,0.030,0.000,0.000,0.000
1644347665707396096,2022-02-08-19:14:25,10.1.1.4,36,0.040,0.040,0.040,0.000,0.000,0.000
1644347665807735808,2022-02-08-19:14:25,10.1.1.4,35,0.050,0.050,0.050,0.000,0.000,0.000
1644347665907846912,2022-02-08-19:14:25,10.1.1.4,34,0.060,0.060,0.060,0.000,0.000,0.000
1644347666008205824,2022-02-08-19:14:26,10.1.1.4,32,0.070,0.070,0.070,0.000,0.000,0.000
1644347666107110912,2022-02-08-19:14:26,10.1.1.4,28,0.080,0.080,0.080,0.000,0.000,0.000
1644347666207574016,2022-02-08-19:14:26,10.1.1.4,27,0.090,0.090,0.090,0.000,0.000,0.000
1644347666308360192,2022-02-08-19:14:26,10.1.1.4,27,0.100,0.100,0.100,0.000,0.000,0.000
1644347666408459008,2022-02-08-19:14:26,10.1.1.4,26,0.090,0.090,0.090,0.000,0.000,0.000
1644347666507533056,2022-02-08-19:14:26,10.1.1.4,25,0.080,0.080,0.080,0.000,0.000,0.000
1644347666608140032,2022-02-08-19:14:26,10.1.1.4,24,0.070,0.070,0.070,0.000,0.000,0.000
1644347666707633920,2022-02-08-19:14:26,10.1.1.4,23,0.060,0.060,0.060,0.000,0.000,0.000
1644347666807648000,2022-02-08-19:14:26,10.1.1.4,22,0.050,0.050,0.050,0.000,0.000,0.000
1644347666907640064,2022-02-08-19:14:26,10.1.1.4,20,0.040,0.040,0.040,0.000,0.000,0.000
1644347667008212992,2022-02-08-19:14:27,10.1.1.4,20,0.030,0.030,0.030,0.000,0.000,0.000
1644347667108151040,2022-02-08-19:14:27,10.1.1.4,19,0.020,0.020,0.020,0.000,0.000,0.000
1644347667207556864,2022-02-08-19:14:27,10.1.1.4,19,0.011,0.011,0.011,0.000,0.000,0.000
1644347667328308224,2022-02-08-19:14:27,10.1.1.4,38,0.000,0.000,0.000,0.000,0.000,0.000
1644347667427352832,2022-02-08-19:14:27,10.1.1.4,37,-0.010,-0.010,-0.010,0.000,0.000,0.000
1644347667527742976,2022-02-08-19:14:27,10.1.1.4,36,-0.020,-0.020,-0.020,0.000,0.000,0.000
1644347667626842880,2022-02-08-19:14:27,10.1.1.4,35,-0.030,-0.030,-0.030,0.000,0.000,0.000
1644347667727694080,2022-02-08-19:14:27,10.1.1.4,34,-0.040,-0.040,-0.040,0.000,0.000,0.000
1644347667828248064,2022-02-08-19:14:27,10.1.1.4,32,-0.050,-0.050,-0.050,0.000,0.000,0.000
1644347667927685120,2022-02-08-19:14:27,10.1.1.4,31,-0.060,-0.060,-0.060,0.000,0.000,0.000
1644347668027843840,2022-02-08-19:14:28,10.1.1.4,30,-0.070,-0.070,-0.070,0.000,0.000,0.000
1644347668127536896,2022-02-08-19:14:28,10.1.1.4,29,-0.080,-0.080,-0.080,0.000,0.000,0.000
1644347668228081920,2022-02-08-19:14:28,10.1.1.4,28,-0.090,-0.090,-0.090,0.000,0.000,0.000
1644347668327593984,2022-02-08-19:14:28,10.1.1.4,28,-0.100,-0.100,-0.100,0.000,0.000,0.000
1644347668427515136,2022-02-08-19:14:28,10.1.1.4,26,-0.090,-0.090,-0.090,0.000,0.000,0.000
1644347668530561024,2022-02-08-19:14:28,10.1.1.4,25,-0.080,-0.080,-0.080,0.000,0.000,0.000
1644347668628268032,2022-02-08-19:14:28,10.1.1.4,24,-0.070,-0.070,-0.070,0.000,0.000,0.000
1644347668727246080,2022-02-08-19:14:28,10.1.1.4,24,-0.060,-0.060,-0.060,0.000,0.000,0.000
1644347668827390976,2022-02-08-19:14:28,10.1.1.4,23,-0.050,-0.050,-0.050,0.000,0.000,0.000
1644347668927597056,2022-02-08-19:14:28,10.1.1.4,23,-0.040,-0.040,-0.040,0.000,0.000,0.000
1644347669027384064,2022-02-08-19:14:29,10.1.1.4,22,-0.030,-0.030,-0.030,0.000,0.000,0.000
1644347669127144960,2022-02-08-19:14:29,10.1.1.4,21,-0.020,-0.020,-0.020,0.000,0.000,0.000
1644347669227756032,2022-02-08-19:14:29,10.1.1.4,21,-0.010,-0.010,-0.010,0.000,0.000,0.000
1644347669327493888,2022-02-08-19:14:29,10.1.1.4,20,0.000,0.000,0.000,0.000,0.000,0.000
1644347669427805952,2022-02-08-19:14:29,10.1.1.4,19,0.009,0.009,0.009,0.000,0.000,0.000
1644347669547590912,2022-02-08-19:14:29,10.1.1.4,38,0.020,0.020,0.020,0.000,0.000,0.000
1644347669647110912,2022-02-08-19:14:29,10.1.1.4,38,0.030,0.030,0.030,0.000,0.000,0.000
1644347669748375808,2022-02-08-19:14:29,10.1.1.4,37,0.040,0.040,0.040,0.000,0.000,0.000
1644347669847965952,2022-02-08-19:14:29,10.1.1.4,37,0.050,0.050,0.050,0.000,0.000,0.000
1644347669947570944,2022-02-08-19:14:29,10.1.1.4,35,0.060,0.060,0.060,0.000,0.000,0.000
1644347670048030976,2022-02-08-19:14:30,10.1.1.4,34,0.070,0.070,0.070,0.000,0.000,0.000
1644347670147748864,2022-02-08-19:14:30,10.1.1.4,33,0.080,0.080,0.080,0.000,0.000,0.000
1644347670248257024,2022-02-08-19:14:30,10.1.1.4,32,0.090,0.090,0.090,0.000,0.000,0.000
1644347670348182016,2022-02-08-19:14:30,10.1.1.4,31,0.100,0.100,0.100,0.000,0.000,0.000
1644347670448073984,2022-02-08-19:14:30,10.1.1.4,30,0.090,0.090,0.090,0.000,0.000,0.000
1644347670548070912,2022-02-08-19:14:30,10.1.1.4,30,0.080,0.080,0.080,0.000,0.000,0.000
1644347670647341056,2022-02-08-19:14:30,10.1.1.4,29,0.070,0.070,0.070,0.000,0.000,0.000
1644347670747844096,2022-02-08-19:14:30,10.1.1.4,28,0.060,0.060,0.060,0.000,0.000,0.000
1644347670848066048,2022-02-08-19:14:30,10.1.1.4,28,0.050,0.050,0.050,0.000,0.000,0.000
1644347670948329984,2022-02-08-19:14:30,10.1.1.4,27,0.040,0.040,0.040,0.000,0.000,0.000
1644347671047451136,2022-02-08-19:14:31,10.1.1.4,26,0.030,0.030,0.030,0.000,0.000,0.000
1644347671147784960,2022-02-08-19:14:31,10.1.1.4,26,0.020,0.020,0.020,0.000,0.000,0.000
1644347671248705024,2022-02-08-19:14:31,10.1.1.4,24,0.010,0.010,0.010,0.000,0.000,0.000
1644347671347769856,2022-02-08-19:14:31,10.1.1.4,24,0.000,0.000,0.000,0.000,0.000,0.000
1644347671447261184,2022-02-08-19:14:31,10.1.1.4,23,-0.010,-0.010,-0.010,0.000,0.000,0.000
1644347671548165120,2022-02-08-19:14:31,10.1.1.4,23,-0.020,-0.020,-0.020,0.000,0.000,0.000
1644347671647324160,2022-02-08-19:14:31,10.1.1.4,22,-0.030,-0.030,-0.030,0.000,0.000,0.000
1644347671749222912,2022-02-08-19:14:31,10.1.1.4,21,-0.040,-0.040,-0.040,0.000,0.000,0.000
1644347671848684032,2022-02-08-19:14:31,10.1.1.4,20,-0.050,-0.050,-0.050,0.000,0.000,0.000
1644347671947738880,2022-02-08-19:14:31,10.1.1.4,19,-0.059,-0.059,-0.059,0.000,0.000,0.000
1644347672067337984,2022-02-08-19:14:32,10.1.1.4,38,-0.070,-0.070,-0.070,0.000,0.000,0.000
1644347672167970816,2022-02-08-19:14:32,10.1.1.4,38,-0.080,-0.080,-0.080,0.000,0.000,0.000
1644347672267360000,2022-02-08-19:14:32,10.1.1.4,37,-0.090,-0.090,-0.090,0.000,0.000,0.000
1644347672368057856,2022-02-08-19:14:32,10.1.1.4,37,-0.100,-0.100,-0.100,0.000,0.000,0.000
1644347672467742976,2022-02-08-19:14:32,10.1.1.4,36,-0.090,-0.090,-0.090,0.000,0.000,0.000
1644347672567970048,2022-02-08-19:14:32,10.1.1.4,34,-0.080,-0.080,-0.080,0.000,0.000,0.000
1644347672670547968,2022-02-08-19:14:32,10.1.1.4,32,-0.070,-0.070,-0.070,0.000,0.000,0.000
1644347672772471808,2022-02-08-19:14:32,10.1.1.4,32,-0.060,-0.060,-0.060,0.000,0.000,0.000
1644347672867270912,2022-02-08-19:14:32,10.1.1.4,31,-0.050,-0.050,-0.050,0.000,0.000,0.000
1644347672967066112,2022-02-08-19:14:32,10.1.1.4,30,-0.040,-0.040,-0.040,0.000,0.000,0.000
1644347673067117056,2022-02-08-19:14:33,10.1.1.4,30,-0.030,-0.030,-0.030,0.000,0.000,0.000
1644347673167904000,2022-02-08-19:14:33,10.1.1.4,30,-0.020,-0.020,-0.020,0.000,0.000,0.000
1644347673268948992,2022-02-08-19:14:33,10.1.1.4,29,-0.010,-0.010,-0.010,0.000,0.000,0.000
1644347673368262144,2022-02-08-19:14:33,10.1.1.4,29,0.000,0.000,0.000,0.000,0.000,0.000
1644347673468837120,2022-02-08-19:14:33,10.1.1.4,29,0.010,0.010,0.010,0.000,0.000,0.000
1644347673569251072,2022-02-08-19:14:33,10.1.1.4,28,0.020,0.020,0.020,0.000,0.000,0.000
1644347673667869184,2022-02-08-19:14:33,10.1.1.4,27,0.030,0.030,0.030,0.000,0.000,0.000
1644347673769149184,2022-02-08-19:14:33,10.1.1.4,26,0.040,0.040,0.040,0.000,0.000,0.000
1644347673867976960,2022-02-08-19:14:33,10.1.1.4,26,0.050,0.050,0.050,0.000,0.000,0.000
1644347673967761920,2022-02-08-19:14:33,10.1.1.4,25,0.060,0.060,0.060,0.000,0.000,0.000
1644347674068809984,2022-02-08-19:14:34,10.1.1.4,21,0.070,0.070,0.070,0.000,0.000,0.000
1644347674167779072,2022-02-08-19:14:34,10.1.1.4,20,0.080,0.080,0.080,0.000,0.000,0.000
1644347674267744000,2022-02-08-19:14:34,10.1.1.4,19,0.090,0.090,0.090,0.000,0.000,0.000
1644347674367925760,2022-02-08-19:14:34,10.1.1.4,19,0.100,0.100,0.100,0.000,0.000,0.000
1644347674467462144,2022-02-08-19:14:34,10.1.1.4,19,0.091,0.091,0.091,0.000,0.000,0.000
1644347674587410944,2022-02-08-19:14:34,10.1.1.4,38,0.080,0.080,0.080,0.000,0.000,0.000
1644347674687921920,2022-02-08-19:14:34,10.1.1.4,38,0.070,0.070,0.070,0.000,0.000,0.000
1644347674787205888,2022-02-08-19:14:34,10.1.1.4,37,0.060,0.060,0.060,0.000,0.000,0.000
1644347674887929856,2022-02-08-19:14:34,10.1.1.4,37,0.050,0.050,0.050,0.000,0.000,0.000
1644347674987281152,2022-02-08-19:14:34,10.1.1.4,36,0.040,0.040,0.040,0.000,0.000,0.000
1644347675087351040,2022-02-08-19:14:35,10.1.1.4,35,0.030,0.030,0.030,0.000,0.000,0.000
1644347675192631040,2022-02-08-19:14:35,10.1.1.4,31,0.020,0.020,0.020,0.000,0.000,0.000
1644347675287828992,2022-02-08-19:14:35,10.1.1.4,30,0.010,0.010,0.010,0.000,0.000,0.000
1644347675388003072,2022-02-08-19:14:35,10.1.1.4,29,0.000,0.000,0.000,0.000,0.000,0.000
1644347675487593984,2022-02-08-19:14:35,10.1.1.4,29,-0.010,-0.010,-0.010,0.000,0.000,0.000
1644347675587961856,2022-02-08-19:14:35,10.1.1.4,29,-0.020,-0.020,-0.020,0.000,0.000,0.000
1644347675688478976,2022-02-08-19:14:35,10.1.1.4,27,-0.030,-0.030,-0.030,0.000,0.000,0.000
1644347675787529984,2022-02-08-19:14:35,10.1.1.4,27,-0.040,-0.040,-0.040,0.000,0.000,0.000
1644347675887491072,2022-02-08-19:14:35,10.1.1.4,27,-0.050,-0.050,-0.050,0.000,0.000,0.000
1644347675988400896,2022-02-08-19:14:35,10.1.1.4,25,-0.060,-0.060,-0.060,0.000,0.000,0.000
1644347676087726080,2022-02-08-19:14:36,10.1.1.4,25,-0.070,-0.070,-0.070,0.000,0.000,0.000
1644347676187899136,2022-02-08-19:14:36,10.1.1.4,25,-0.080,-0.080,-0.080,0.000,0.000,0.000
1644347676288502016,2022-02-08-19:14:36,10.1.1.4,24,-0.090,-0.090,-0.090,0.000,0.000,0.000
1644347676387484160,2022-02-08-19:14:36,10.1.1.4,23,-0.100,-0.100,-0.100,0.000,0.000,0.000
1644347676487983872,2022-02-08-19:14:36,10.1.1.4,23,-0.090,-0.090,-0.090,0.000,0.000,0.000
1644347676587491072,2022-02-08-19:14:36,10.1.1.4,22,-0.080,-0.080,-0.080,0.000,0.000,0.000
1644347676687208960,2022-02-08-19:14:36,10.1.1.4,22,-0.070,-0.070,-0.070,0.000,0.000,0.000
1644347676786853120,2022-02-08-19:14:36,10.1.1.4,21,-0.060,-0.060,-0.060,0.000,0.000,0.000
1644347676887337984,2022-02-08-19:14:36,10.1.1.4,19,-0.050,-0.050,-0.050,0.000,0.000,0.000
1644347677008750080,2022-02-08-19:14:37,10.1.1.4,38,-0.040,-0.040,-0.040,0.000,0.000,0.000
1644347677110446848,2022-02-08-19:14:37,10.1.1.4,37,-0.030,-0.030,-0.030,0.000,0.000,0.000
1644347677207933952,2022-02-08-19:14:37,10.1.1.4,37,-0.020,-0.020,-0.020,0.000,0.000,0.000
1644347677307489024,2022-02-08-19:14:37,10.1.1.4,36,-0.010,-0.010,-0.010,0.000,0.000,0.000
1644347677407695104,2022-02-08-19:14:37,10.1.1.4,36,0.000,0.000,0.000,0.000,0.000,0.000
1644347677507805952,2022-02-08-19:14:37,10.1.1.4,35,0.010,0.010,0.010,0.000,0.000,0.000
1644347677607553024,2022-02-08-19:14:37,10.1.1.4,34,0.020,0.020,0.020,0.000,0.000,0.000
1644347677709526016,2022-02-08-19:14:37,10.1.1.4,34,0.030,0.030,0.030,0.000,0.000,0.000
1644347677807121152,2022-02-08-19:14:37,10.1.1.4,33,0.040,0.040,0.040,0.000,0.000,0.000
1644347677907151872,2022-02-08-19:14:37,10.1.1.4,33,0.050,0.050,0.050,0.000,0.000,0.000
1644347678007144960,2022-02-08-19:14:38,10.1.1.4,33,0.060,0.060,0.060,0.000,0.000,0.000
1644347678107184896,2022-02-08-19:14:38,10.1.1.4,32,0.070,0.070,0.070,0.000,0.000,0.000
1644347678207439872,2022-02-08-19:14:38,10.1.1.4,32,0.080,0.080,0.080,0.000,0.000,0.000
1644347678307806976,2022-02-08-19:14:38,10.1.1.4,31,0.090,0.090,0.090,0.000,0.000,0.000
1644347678408480000,2022-02-08-19:14:38,10.1.1.4,31,0.100,0.100,0.100,0.000,0.000,0.000
1644347678507841024,2022-02-08-19:14:38,10.1.1.4,30,0.090,0.090,0.090,0.000,0.000,0.000
1644347678607126016,2022-02-08-19:14:38,10.1.1.4,29,0.080,0.080,0.080,0.000,0.000,0.000
1644347678707983104,2022-02-08-19:14:38,10.1.1.4,29,0.070,0.070,0.070,0.000,0.000,0.000
1644347678807677952,2022-02-08-19:14:38,10.1.1.4,28,0.060,0.060,0.060,0.000,0.000,0.000
1644347678914680064,2022-02-08-19:14:38,10.1.1.4,25,0.050,0.050,0.050,0.000,0.000,0.000
1644347679006833152,2022-02-08-19:14:39,10.1.1.4,25,0.040,0.040,0.040,0.000,0.000,0.000
1644347679107073024,2022-02-08-19:14:39,10.1.1.4,24,0.030,0.030,0.030,0.000,0.000,0.000
1644347679207601152,2022-02-08-19:14:39,10.1.1.4,23,0.020,0.020,0.020,0.000,0.000,0.000
1644347679307362048,2022-02-08-19:14:39,10.1.1.4,23,0.010,0.010,0.010,0.000,0.000,0.000
1644347679408669952,2022-02-08-19:14:39,10.1.1.4,22,0.000,0.000,0.000,0.000,0.000,0.000
1644347679507580160,2022-02-08-19:14:39,10.1.1.4,20,-0.010,-0.010,-0.010,0.000,0.000,0.000
1644347679628272128,2022-02-08-19:14:39,10.1.1.4,38,-0.020,-0.020,-0.020,0.000,0.000,0.000
1644347679727778048,2022-02-08-19:14:39,10.1.1.4,33,-0.030,-0.030,-0.030,0.000,0.000,0.000
1644347679828167936,2022-02-08-19:14:39,10.1.1.4,32,-0.040,-0.040,-0.040,0.000,0.000,0.000
1644347679927345920,2022-02-08-19:14:39,10.1.1.4,32,-0.050,-0.050,-0.050,0.000,0.000,0.000
1644347680027848960,2022-02-08-19:14:40,10.1.1.4,32,-0.060,-0.060,-0.060,0.000,0.000,0.000
1644347680127606016,2022-02-08-19:14:40,10.1.1.4,31,-0.070,-0.070,-0.070,0.000,0.000,0.000
1644347680227441152,2022-02-08-19:14:40,10.1.1.4,30,-0.080,-0.080,-0.080,0.000,0.000,0.000
1644347680327617792,2022-02-08-19:14:40,10.1.1.4,29,-0.090,-0.090,-0.090,0.000,0.000,0.000
1644347680427716864,2022-02-08-19:14:40,10.1.1.4,29,-0.100,-0.100,-0.100,0.000,0.000,0.000
1644347680560518912,2022-02-08-19:14:40,10.1.1.4,28,-0.090,-0.090,-0.090,0.000,0.000,0.000
1644347680627897088,2022-02-08-19:14:40,10.1.1.4,28,-0.080,-0.080,-0.080,0.000,0.000,0.000
1644347680730437888,2022-02-08-19:14:40,10.1.1.4,26,-0.070,-0.070,-0.070,0.000,0.000,0.000
1644347680827557120,2022-02-08-19:14:40,10.1.1.4,25,-0.060,-0.060,-0.060,0.000,0.000,0.000
1644347680927283968,2022-02-08-19:14:40,10.1.1.4,25,-0.050,-0.050,-0.050,0.000,0.000,0.000
1644347681027174912,2022-02-08-19:14:41,10.1.1.4,22,-0.040,-0.040,-0.040,0.000,0.000,0.000
1644347681128132096,2022-02-08-19:14:41,10.1.1.4,22,-0.030,-0.030,-0.030,0.000,0.000,0.000
1644347681249347840,2022-02-08-19:14:41,10.1.1.4,38,-0.020,-0.020,-0.020,0.000,0.000,0.000
1644347681347072000,2022-02-08-19:14:41,10.1.1.4,36,-0.010,-0.010,-0.010,0.000,0.000,0.000
1644347681447337984,2022-02-08-19:14:41,10.1.1.4,35,0.000,0.000,0.000,0.000,0.000,0.000
1644347681547704064,2022-02-08-19:14:41,10.1.1.4,34,0.010,0.010,0.010,0.000,0.000,0.000
1644347681647983104,2022-02-08-19:14:41,10.1.1.4,33,0.020,0.020,0.020,0.000,0.000,0.000
1644347681747910144,2022-02-08-19:14:41,10.1.1.4,32,0.030,0.030,0.030,0.000,0.000,0.000
1644347681847429888,2022-02-08-19:14:41,10.1.1.4,31,0.040,0.040,0.040,0.000,0.000,0.000
1644347681947148032,2022-02-08-19:14:41,10.1.1.4,30,0.050,0.050,0.050,0.000,0.000,0.000
1644347682047523072,2022-02-08-19:14:42,10.1.1.4,30,0.060,0.060,0.060,0.000,0.000,0.000
1644347682147227136,2022-02-08-19:14:42,10.1.1.4,29,0.070,0.070,0.070,0.000,0.000,0.000
1644347682246844928,2022-02-08-19:14:42,10.1.1.4,28,0.080,0.080,0.080,0.000,0.000,0.000
1644347682348468992,2022-02-08-19:14:42,10.1.1.4,28,0.090,0.090,0.090,0.000,0.000,0.000
1644347682450241024,2022-02-08-19:14:42,10.1.1.4,25,0.100,0.100,0.100,0.000,0.000,0.000
1644347682550230016,2022-02-08-19:14:42,10.1.1.4,23,0.090,0.090,0.090,0.000,0.000,0.000
1644347682647456000,2022-02-08-19:14:42,10.1.1.4,22,0.080,0.080,0.080,0.000,0.000,0.000
1644347682746754816,2022-02-08-19:14:42,10.1.1.4,21,0.070,0.070,0.070,0.000,0.000,0.000
1644347682846988032,2022-02-08-19:14:42,10.1.1.4,20,0.060,0.060,0.060,0.000,0.000,0.000
1644347682967031040,2022-02-08-19:14:42,10.1.1.4,38,0.050,0.050,0.050,0.000,0.000,0.000
1644347683067390976,2022-02-08-19:14:43,10.1.1.4,36,0.040,0.040,0.040,0.000,0.000,0.000
1644347683172910080,2022-02-08-19:14:43,10.1.1.4,35,0.030,0.030,0.030,0.000,0.000,0.000
1644347683267190016,2022-02-08-19:14:43,10.1.1.4,34,0.020,0.020,0.020,0.000,0.000,0.000
1644347683367836928,2022-02-08-19:14:43,10.1.1.4,33,0.010,0.010,0.010,0.000,0.000,0.000
1644347683466962944,2022-02-08-19:14:43,10.1.1.4,33,0.000,0.000,0.000,0.000,0.000,0.000
1644347683567249152,2022-02-08-19:14:43,10.1.1.4,32,-0.010,-0.010,-0.010,0.000,0.000,0.000
1644347683667154944,2022-02-08-19:14:43,10.1.1.4,32,-0.020,-0.020,-0.020,0.000,0.000,0.000
1644347683767448832,2022-02-08-19:14:43,10.1.1.4,31,-0.030,-0.030,-0.030,0.000,0.000,0.000
1644347683867400960,2022-02-08-19:14:43,10.1.1.4,31,-0.040,-0.040,-0.040,0.000,0.000,0.000
1644347683978838016,2022-02-08-19:14:43,10.1.1.4,31,-0.050,-0.050,-0.050,0.000,0.000,0.000
1644347684066824960,2022-02-08-19:14:44,10.1.1.4,29,-0.060,-0.060,-0.060,0.000,0.000,0.000
1644347684167488000,2022-02-08-19:14:44,10.1.1.4,29,-0.070,-0.070,-0.070,0.000,0.000,0.000
1644347684267531008,2022-02-08-19:14:44,10.1.1.4,28,-0.080,-0.080,-0.080,0.000,0.000,0.000
1644347684368523008,2022-02-08-19:14:44,10.1.1.4,28,-0.090,-0.090,-0.090,0.000,0.000,0.000
1644347684467086080,2022-02-08-19:14:44,10.1.1.4,27,-0.100,-0.100,-0.100,0.000,0.000,0.000
1644347684567610880,2022-02-08-19:14:44,10.1.1.4,26,-0.090,-0.090,-0.090,0.000,0.000,0.000
1644347684667236096,2022-02-08-19:14:44,10.1.1.4,26,-0.080,-0.080,-0.080,0.000,0.000,0.000
1644347684767230976,2022-02-08-19:14:44,10.1.1.4,25,-0.070,-0.070,-0.070,0.000,0.000,0.000
1644347684869260032,2022-02-08-19:14:44,10.1.1.4,25,-0.060,-0.060,-0.060,0.000,0.000,0.000
1644347684967931136,2022-02-08-19:14:44,10.1.1.4,24,-0.050,-0.050,-0.050,0.000,0.000,0.000
1644347685069904128,2022-02-08-19:14:45,10.1.1.4,22,-0.040,-0.040,-0.040,0.000,0.000,0.000
1644347685167995904,2022-02-08-19:14:45,10.1.1.4,22,-0.030,-0.030,-0.030,0.000,0.000,0.000
1644347685267476992,2022-02-08-19:14:45,10.1.1.4,21,-0.020,-0.020,-0.020,0.000,0.000,0.000
1644347685368192000,2022-02-08-19:14:45,10.1.1.4,20,-0.010,-0.010,-0.010,0.000,0.000,0.000
1644347685487821056,2022-02-08-19:14:45,10.1.1.4,39,0.000,0.000,0.000,0.000,0.000,0.000
1644347685587656960,2022-02-08-19:14:45,10.1.1.4,37,0.010,0.010,0.010,0.000,0.000,0.000
1644347685687527936,2022-02-08-19:14:45,10.1.1.4,33,0.020,0.020,0.020,0.000,0.000,0.000
1644347685788016128,2022-02-08-19:14:45,10.1.1.4,32,0.030,0.030,0.030,0.000,0.000,0.000
1644347685890552064,2022-02-08-19:14:45,10.1.1.4,31,0.040,0.040,0.040,0.000,0.000,0.000
1644347685988142848,2022-02-08-19:14:45,10.1.1.4,30,0.050,0.050,0.050,0.000,0.000,0.000
1644347686089248000,2022-02-08-19:14:46,10.1.1.4,24,0.060,0.060,0.060,0.000,0.000,0.000
1644347686188160000,2022-02-08-19:14:46,10.1.1.4,23,0.070,0.070,0.070,0.000,0.000,0.000
1644347686287755008,2022-02-08-19:14:46,10.1.1.4,22,0.080,0.080,0.080,0.000,0.000,0.000
1644347686388154112,2022-02-08-19:14:46,10.1.1.4,20,0.090,0.090,0.090,0.000,0.000,0.000
1644347686487842048,2022-02-08-19:14:46,10.1.1.4,20,0.100,0.100,0.100,0.000,0.000,0.000
1644347686587966976,2022-02-08-19:14:46,10.1.1.4,19,0.090,0.090,0.090,0.000,0.000,0.000
1644347686687355136,2022-02-08-19:14:46,10.1.1.4,18,0.081,0.081,0.081,0.000,0.000,0.000
1644347686807673088,2022-02-08-19:14:46,10.1.1.4,38,0.070,0.070,0.070,0.000,0.000,0.000
1644347686907453952,2022-02-08-19:14:46,10.1.1.4,38,0.060,0.060,0.060,0.000,0.000,0.000
1644347687013287936,2022-02-08-19:14:47,10.1.1.4,37,0.050,0.050,0.050,0.000,0.000,0.000
1644347687107363072,2022-02-08-19:14:47,10.1.1.4,35,0.040,0.040,0.040,0.000,0.000,0.000
1644347687207216128,2022-02-08-19:14:47,10.1.1.4,33,0.030,0.030,0.030,0.000,0.000,0.000
1644347687307193088,2022-02-08-19:14:47,10.1.1.4,32,0.020,0.020,0.020,0.000,0.000,0.000
1644347687407869952,2022-02-08-19:14:47,10.1.1.4,30,0.010,0.010,0.010,0.000,0.000,0.000
1644347687507767808,2022-02-08-19:14:47,10.1.1.4,28,0.000,0.000,0.000,0.000,0.000,0.000
1644347687627454976,2022-02-08-19:14:47,10.1.1.4,36,-0.010,-0.010,-0.010,0.000,0.000,0.000
1644347687727462912,2022-02-08-19:14:47,10.1.1.4,34,-0.020,-0.020,-0.020,0.000,0.000,0.000
1644347687827634944,2022-02-08-19:14:47,10.1.1.4,33,-0.030,-0.030,-0.030,0.000,0.000,0.000
1644347687927233024,2022-02-08-19:14:47,10.1.1.4,33,-0.040,-0.040,-0.040,0.000,0.000,0.000
1644347688027639040,2022-02-08-19:14:48,10.1.1.4,31,-0.050,-0.050,-0.050,0.000,0.000,0.000
1644347688127068160,2022-02-08-19:14:48,10.1.1.4,30,-0.060,-0.060,-0.060,0.000,0.000,0.000
1644347688227682048,2022-02-08-19:14:48,10.1.1.4,28,-0.070,-0.070,-0.070,0.000,0.000,0.000
1644347688327019008,2022-02-08-19:14:48,10.1.1.4,27,-0.080,-0.080,-0.080,0.000,0.000,0.000
1644347688427395072,2022-02-08-19:14:48,10.1.1.4,25,-0.090,-0.090,-0.090,0.000,0.000,0.000
1644347688530205952,2022-02-08-19:14:48,10.1.1.4,24,-0.100,-0.100,-0.100,0.000,0.000,0.000
1644347688628256000,2022-02-08-19:14:48,10.1.1.4,24,-0.090,-0.090,-0.090,0.000,0.000,0.000
1644347688728331008,2022-02-08-19:14:48,10.1.1.4,22,-0.080,-0.080,-0.080,0.000,0.000,0.000
1644347688827263232,2022-02-08-19:14:48,10.1.1.4,21,-0.070,-0.070,-0.070,0.000,0.000,0.000
1644347688927565056,2022-02-08-19:14:48,10.1.1.4,20,-0.060,-0.060,-0.060,0.000,0.000,0.000
1644347689027921920,2022-02-08-19:14:49,10.1.1.4,19,-0.050,-0.050,-0.050,0.000,0.000,0.000
1644347689147581184,2022-02-08-19:14:49,10.1.1.4,38,-0.040,-0.040,-0.040,0.000,0.000,0.000
1644347689247582976,2022-02-08-19:14:49,10.1.1.4,37,-0.030,-0.030,-0.030,0.000,0.000,0.000
1644347689347526912,2022-02-08-19:14:49,10.1.1.4,36,-0.020,-0.020,-0.020,0.000,0.000,0.000
1644347689447254016,2022-02-08-19:14:49,10.1.1.4,35,-0.010,-0.010,-0.010,0.000,0.000,0.000
1644347689547767040,2022-02-08-19:14:49,10.1.1.4,34,0.000,0.000,0.000,0.000,0.000,0.000
1644347689747451136,2022-02-08-19:14:49,10.1.1.4,30,0.020,0.020,0.020,0.000,0.000,0.000
1644347689847426816,2022-02-08-19:14:49,10.1.1.4,29,0.030,0.030,0.030,0.000,0.000,0.000
1644347689948039936,2022-02-08-19:14:49,10.1.1.4,28,0.040,0.040,0.040,0.000,0.000,0.000
1644347690047628032,2022-02-08-19:14:50,10.1.1.4,28,0.050,0.050,0.050,0.000,0.000,0.000
1644347690147697920,2022-02-08-19:14:50,10.1.1.4,27,0.060,0.060,0.060,0.000,0.000,0.000
1644347690248210944,2022-02-08-19:14:50,10.1.1.4,26,0.070,0.070,0.070,0.000,0.000,0.000
1644347690447407104,2022-02-08-19:14:50,10.1.1.4,20,0.090,0.090,0.090,0.000,0.000,0.000
1644347690548512000,2022-02-08-19:14:50,10.1.1.4,19,0.099,0.099,0.099,0.000,0.000,0.000
1644347690667703040,2022-02-08-19:14:50,10.1.1.4,38,0.090,0.090,0.090,0.000,0.000,0.000
1644347690767730944,2022-02-08-19:14:50,10.1.1.4,35,0.080,0.080,0.080,0.000,0.000,0.000
1644347690868076032,2022-02-08-19:14:50,10.1.1.4,34,0.070,0.070,0.070,0.000,0.000,0.000
1644347690966995968,2022-02-08-19:14:50,10.1.1.4,34,0.060,0.060,0.060,0.000,0.000,0.000
1644347691067747072,2022-02-08-19:14:51,10.1.1.4,34,0.050,0.050,0.050,0.000,0.000,0.000
1644347691167912960,2022-02-08-19:14:51,10.1.1.4,33,0.040,0.040,0.040,0.000,0.000,0.000
1644347691268129024,2022-02-08-19:14:51,10.1.1.4,32,0.030,0.030,0.030,0.000,0.000,0.000
1644347691367789056,2022-02-08-19:14:51,10.1.1.4,31,0.020,0.020,0.020,0.000,0.000,0.000
1644347691466749952,2022-02-08-19:14:51,10.1.1.4,30,0.010,0.010,0.010,0.000,0.000,0.000
1644347691567593216,2022-02-08-19:14:51,10.1.1.4,30,0.000,0.000,0.000,0.000,0.000,0.000
1644347691667319040,2022-02-08-19:14:51,10.1.1.4,29,-0.010,-0.010,-0.010,0.000,0.000,0.000
1644347691767208960,2022-02-08-19:14:51,10.1.1.4,28,-0.020,-0.020,-0.020,0.000,0.000,0.000
1644347691867633152,2022-02-08-19:14:51,10.1.1.4,28,-0.030,-0.030,-0.030,0.000,0.000,0.000
1644347692067735040,2022-02-08-19:14:52,10.1.1.4,21,-0.050,-0.050,-0.050,0.000,0.000,0.000
1644347692167848192,2022-02-08-19:14:52,10.1.1.4,20,-0.060,-0.060,-0.060,0.000,0.000,0.000
1644347692268263168,2022-02-08-19:14:52,10.1.1.4,20,-0.070,-0.070,-0.070,0.000,0.000,0.000
1644347692368061184,2022-02-08-19:14:52,10.1.1.4,20,-0.080,-0.080,-0.080,0.000,0.000,0.000
1644347692466897920,2022-02-08-19:14:52,10.1.1.4,19,-0.089,-0.089,-0.089,0.000,0.000,0.000
1644347692567579136,2022-02-08-19:14:52,10.1.1.4,18,-0.099,-0.099,-0.099,0.000,0.000,0.000
1644347692687150080,2022-02-08-19:14:52,10.1.1.4,38,-0.090,-0.090,-0.090,0.000,0.000,0.000
1644347692786818048,2022-02-08-19:14:52,10.1.1.4,37,-0.080,-0.080,-0.080,0.000,0.000,0.000
1644347692887270912,2022-02-08-19:14:52,10.1.1.4,36,-0.070,-0.070,-0.070,0.000,0.000,0.000
1644347692987783936,2022-02-08-19:14:52,10.1.1.4,36,-0.060,-0.060,-0.060,0.000,0.000,0.000
1644347693087544832,2022-02-08-19:14:53,10.1.1.4,35,-0.050,-0.050,-0.050,0.000,0.000,0.000
1644347693187616000,2022-02-08-19:14:53,10.1.1.4,34,-0.040,-0.040,-0.040,0.000,0.000,0.000
1644347693287950080,2022-02-08-19:14:53,10.1.1.4,34,-0.030,-0.030,-0.030,0.000,0.000,0.000
1644347693387590912,2022-02-08-19:14:53,10.1.1.4,33,-0.020,-0.020,-0.020,0.000,0.000,0.000
1644347693488028928,2022-02-08-19:14:53,10.1.1.4,33,-0.010,-0.010,-0.010,0.000,0.000,0.000
1644347693587428096,2022-02-08-19:14:53,10.1.1.4,33,0.000,0.000,0.000,0.000,0.000,0.000
1644347693687265024,2022-02-08-19:14:53,10.1.1.4,32,0.010,0.010,0.010,0.000,0.000,0.000
1644347693787811072,2022-02-08-19:14:53,10.1.1.4,32,0.020,0.020,0.020,0.000,0.000,0.000
1644347693887700992,2022-02-08-19:14:53,10.1.1.4,30,0.030,0.030,0.030,0.000,0.000,0.000
1644347693988090112,2022-02-08-19:14:53,10.1.1.4,30,0.040,0.040,0.040,0.000,0.000,0.000
1644347694087361024,2022-02-08-19:14:54,10.1.1.4,29,0.050,0.050,0.050,0.000,0.000,0.000
1644347694187330048,2022-02-08-19:14:54,10.1.1.4,29,0.060,0.060,0.060,0.000,0.000,0.000
1644347694287409152,2022-02-08-19:14:54,10.1.1.4,28,0.070,0.070,0.070,0.000,0.000,0.000
1644347694387102976,2022-02-08-19:14:54,10.1.1.4,26,0.080,0.080,0.080,0.000,0.000,0.000
1644347694487731968,2022-02-08-19:14:54,10.1.1.4,25,0.090,0.090,0.090,0.000,0.000,0.000
1644347694587084032,2022-02-08-19:14:54,10.1.1.4,25,0.100,0.100,0.100,0.000,0.000,0.000
1644347694687056896,2022-02-08-19:14:54,10.1.1.4,25,0.090,0.090,0.090,0.000,0.000,0.000
1644347694787363072,2022-02-08-19:14:54,10.1.1.4,24,0.080,0.080,0.080,0.000,0.000,0.000
1644347694887154176,2022-02-08-19:14:54,10.1.1.4,23,0.070,0.070,0.070,0.000,0.000,0.000
1644347694987155968,2022-02-08-19:14:54,10.1.1.4,23,0.060,0.060,0.060,0.000,0.000,0.000
1644347695088072960,2022-02-08-19:14:55,10.1.1.4,22,0.050,0.050,0.050,0.000,0.000,0.000
1644347695187613952,2022-02-08-19:14:55,10.1.1.4,22,0.040,0.040,0.040,0.000,0.000,0.000
1644347695287721984,2022-02-08-19:14:55,10.1.1.4,22,0.030,0.030,0.030,0.000,0.000,0.000
1644347695387192064,2022-02-08-19:14:55,10.1.1.4,21,0.020,0.020,0.020,0.000,0.000,0.000
1644347695487694080,2022-02-08-19:14:55,10.1.1.4,20,0.010,0.010,0.010,0.000,0.000,0.000
1644347695588545024,2022-02-08-19:14:55,10.1.1.4,20,0.000,0.000,0.000,0.000,0.000,0.000
1644347695687789056,2022-02-08-19:14:55,10.1.1.4,19,-0.010,-0.010,-0.010,0.000,0.000,0.000
1644347695788764928,2022-02-08-19:14:55,10.1.1.4,19,-0.019,-0.019,-0.019,0.000,0.000,0.000
1644347695907589888,2022-02-08-19:14:55,10.1.1.4,38,-0.030,-0.030,-0.030,0.000,0.000,0.000
1644347696008055808,2022-02-08-19:14:56,10.1.1.4,37,-0.040,-0.040,-0.040,0.000,0.000,0.000
1644347696107424000,2022-02-08-19:14:56,10.1.1.4,36,-0.050,-0.050,-0.050,0.000,0.000,0.000
1644347696207792128,2022-02-08-19:14:56,10.1.1.4,35,-0.060,-0.060,-0.060,0.000,0.000,0.000
1644347696309618944,2022-02-08-19:14:56,10.1.1.4,34,-0.070,-0.070,-0.070,0.000,0.000,0.000
1644347696408833024,2022-02-08-19:14:56,10.1.1.4,32,-0.080,-0.080,-0.080,0.000,0.000,0.000
1644347696507880960,2022-02-08-19:14:56,10.1.1.4,32,-0.090,-0.090,-0.090,0.000,0.000,0.000
1644347696608032000,2022-02-08-19:14:56,10.1.1.4,31,-0.100,-0.100,-0.100,0.000,0.000,0.000
1644347696707557888,2022-02-08-19:14:56,10.1.1.4,31,-0.090,-0.090,-0.090,0.000,0.000,0.000
1644347696807846912,2022-02-08-19:14:56,10.1.1.4,30,-0.080,-0.080,-0.080,0.000,0.000,0.000
1644347696907322880,2022-02-08-19:14:56,10.1.1.4,29,-0.070,-0.070,-0.070,0.000,0.000,0.000
1644347697007734016,2022-02-08-19:14:57,10.1.1.4,28,-0.060,-0.060,-0.060,0.000,0.000,0.000
1644347697107609088,2022-02-08-19:14:57,10.1.1.4,27,-0.050,-0.050,-0.050,0.000,0.000,0.000
1644347697207204096,2022-02-08-19:14:57,10.1.1.4,27,-0.040,-0.040,-0.040,0.000,0.000,0.000
1644347697307560960,2022-02-08-19:14:57,10.1.1.4,25,-0.030,-0.030,-0.030,0.000,0.000,0.000
1644347697408412928,2022-02-08-19:14:57,10.1.1.4,25,-0.020,-0.020,-0.020,0.000,0.000,0.000
1644347697508282880,2022-02-08-19:14:57,10.1.1.4,23,-0.010,-0.010,-0.010,0.000,0.000,0.000
1644347697607767040,2022-02-08-19:14:57,10.1.1.4,22,0.000,0.000,0.000,0.000,0.000,0.000
1644347697708167168,2022-02-08-19:14:57,10.1.1.4,22,0.010,0.010,0.010,0.000,0.000,0.000
1644347697808011008,2022-02-08-19:14:57,10.1.1.4,21,0.020,0.020,0.020,0.000,0.000,0.000
1644347697908350976,2022-02-08-19:14:57,10.1.1.4,20,0.030,0.030,0.030,0.000,0.000,0.000
1644347698008338944,2022-02-08-19:14:58,10.1.1.4,19,0.040,0.040,0.040,0.000,0.000,0.000
1644347698107554816,2022-02-08-19:14:58,10.1.1.4,19,0.049,0.049,0.049,0.000,0.000,0.000
1644347698227586048,2022-02-08-19:14:58,10.1.1.4,38,0.060,0.060,0.060,0.000,0.000,0.000
1644347698327693056,2022-02-08-19:14:58,10.1.1.4,37,0.070,0.070,0.070,0.000,0.000,0.000
1644347698427390208,2022-02-08-19:14:58,10.1.1.4,37,0.080,0.080,0.080,0.000,0.000,0.000
1644347698527051008,2022-02-08-19:14:58,10.1.1.4,36,0.090,0.090,0.090,0.000,0.000,0.000
1644347698628300032,2022-02-08-19:14:58,10.1.1.4,34,0.100,0.100,0.100,0.000,0.000,0.000
1644347698727938048,2022-02-08-19:14:58,10.1.1.4,33,0.090,0.090,0.090,0.000,0.000,0.000
1644347698827483904,2022-02-08-19:14:58,10.1.1.4,33,0.080,0.080,0.080,0.000,0.000,0.000
1644347698927207936,2022-02-08-19:14:58,10.1.1.4,32,0.070,0.070,0.070,0.000,0.000,0.000
1644347699028100096,2022-02-08-19:14:59,10.1.1.4,32,0.060,0.060,0.060,0.000,0.000,0.000
1644347699128071936,2022-02-08-19:14:59,10.1.1.4,31,0.050,0.050,0.050,0.000,0.000,0.000
1644347699227768832,2022-02-08-19:14:59,10.1.1.4,30,0.040,0.040,0.040,0.000,0.000,0.000
1644347699327817984,2022-02-08-19:14:59,10.1.1.4,29,0.030,0.030,0.030,0.000,0.000,0.000
1644347699428109056,2022-02-08-19:14:59,10.1.1.4,28,0.020,0.020,0.020,0.000,0.000,0.000
1644347699528963072,2022-02-08-19:14:59,10.1.1.4,28,0.010,0.010,0.010,0.000,0.000,0.000
1644347699627661824,2022-02-08-19:14:59,10.1.1.4,25,0.000,0.000,0.000,0.000,0.000,0.000
1644347699728504064,2022-02-08-19:14:59,10.1.1.4,24,-0.010,-0.010,-0.010,0.000,0.000,0.000
1644347699828061184,2022-02-08-19:14:59,10.1.1.4,23,-0.020,-0.020,-0.020,0.000,0.000,0.000
1644347699928963840,2022-02-08-19:14:59,10.1.1.4,22,-0.030,-0.030,-0.030,0.000,0.000,0.000
1644347700032304896,2022-02-08-19:15:00,10.1.1.4,21,-0.040,-0.040,-0.040,0.000,0.000,0.000
1644347700127465984,2022-02-08-19:15:00,10.1.1.4,19,-0.049,-0.049,-0.049,0.000,0.000,0.000
1644347700246708992,2022-02-08-19:15:00,10.1.1.4,38,-0.060,-0.060,-0.060,0.000,0.000,0.000
1644347700347739904,2022-02-08-19:15:00,10.1.1.4,38,-0.070,-0.070,-0.070,0.000,0.000,0.000
1644347700447824128,2022-02-08-19:15:00,10.1.1.4,37,-0.080,-0.080,-0.080,0.000,0.000,0.000
1644347700547826176,2022-02-08-19:15:00,10.1.1.4,37,-0.090,-0.090,-0.090,0.000,0.000,0.000
1644347700648020992,2022-02-08-19:15:00,10.1.1.4,35,-0.100,-0.100,-0.100,0.000,0.000,0.000
1644347700748006144,2022-02-08-19:15:00,10.1.1.4,34,-0.090,-0.090,-0.090,0.000,0.000,0.000
1644347700847464192,2022-02-08-19:15:00,10.1.1.4,33,-0.080,-0.080,-0.080,0.000,0.000,0.000
1644347700948463872,2022-02-08-19:15:00,10.1.1.4,31,-0.070,-0.070,-0.070,0.000,0.000,0.000
1644347701048957952,2022-02-08-19:15:01,10.1.1.4,29,-0.060,-0.060,-0.060,0.000,0.000,0.000
1644347701164779008,2022-02-08-19:15:01,10.1.1.4,29,-0.050,-0.050,-0.050,0.000,0.000,0.000
1644347701248080128,2022-02-08-19:15:01,10.1.1.4,27,-0.040,-0.040,-0.040,0.000,0.000,0.000
1644347701368989952,2022-02-08-19:15:01,10.1.1.4,37,-0.030,-0.030,-0.030,0.000,0.000,0.000
1644347701468208128,2022-02-08-19:15:01,10.1.1.4,32,-0.020,-0.020,-0.020,0.000,0.000,0.000
1644347701592279040,2022-02-08-19:15:01,10.1.1.4,32,-0.010,-0.010,-0.010,0.000,0.000,0.000
1644347701667514112,2022-02-08-19:15:01,10.1.1.4,31,0.000,0.000,0.000,0.000,0.000,0.000
1644347701767705088,2022-02-08-19:15:01,10.1.1.4,30,0.010,0.010,0.010,0.000,0.000,0.000
1644347701867994112,2022-02-08-19:15:01,10.1.1.4,29,0.020,0.020,0.020,0.000,0.000,0.000
1644347701969254912,2022-02-08-19:15:01,10.1.1.4,28,0.030,0.030,0.030,0.000,0.000,0.000
1644347702068089856,2022-02-08-19:15:02,10.1.1.4,27,0.040,0.040,0.040,0.000,0.000,0.000
1644347702167853056,2022-02-08-19:15:02,10.1.1.4,27,0.050,0.050,0.050,0.000,0.000,0.000
1644347702267555840,2022-02-08-19:15:02,10.1.1.4,26,0.060,0.060,0.060,0.000,0.000,0.000
1644347702367790080,2022-02-08-19:15:02,10.1.1.4,25,0.070,0.070,0.070,0.000,0.000,0.000
1644347702468849920,2022-02-08-19:15:02,10.1.1.4,23,0.080,0.080,0.080,0.000,0.000,0.000
1644347702570398208,2022-02-08-19:15:02,10.1.1.4,22,0.090,0.090,0.090,0.000,0.000,0.000
1644347702689213952,2022-02-08-19:15:02,10.1.1.4,38,0.100,0.100,0.100,0.000,0.000,0.000
1644347702787531008,2022-02-08-19:15:02,10.1.1.4,37,0.090,0.090,0.090,0.000,0.000,0.000
1644347702888782080,2022-02-08-19:15:02,10.1.1.4,36,0.080,0.080,0.080,0.000,0.000,0.000
1644347702989415936,2022-02-08-19:15:02,10.1.1.4,35,0.070,0.070,0.070,0.000,0.000,0.000
1644347703089662976,2022-02-08-19:15:03,10.1.1.4,33,0.060,0.060,0.060,0.000,0.000,0.000
1644347703187813888,2022-02-08-19:15:03,10.1.1.4,33,0.050,0.050,0.050,0.000,0.000,0.000
1644347703287950080,2022-02-08-19:15:03,10.1.1.4,32,0.040,0.040,0.040,0.000,0.000,0.000
1644347703387751168,2022-02-08-19:15:03,10.1.1.4,32,0.030,0.030,0.030,0.000,0.000,0.000
1644347703488428032,2022-02-08-19:15:03,10.1.1.4,31,0.020,0.020,0.020,0.000,0.000,0.000
1644347703588478208,2022-02-08-19:15:03,10.1.1.4,30,0.010,0.010,0.010,0.000,0.000,0.000
1644347703687726080,2022-02-08-19:15:03,10.1.1.4,30,0.000,0.000,0.000,0.000,0.000,0.000
1644347703788075008,2022-02-08-19:15:03,10.1.1.4,29,-0.010,-0.010,-0.010,0.000,0.000,0.000
1644347703888560896,2022-02-08-19:15:03,10.1.1.4,29,-0.020,-0.020,-0.020,0.000,0.000,0.000
1644347703988647936,2022-02-08-19:15:03,10.1.1.4,28,-0.030,-0.030,-0.030,0.000,0.000,0.000
1644347704088231936,2022-02-08-19:15:04,10.1.1.4,28,-0.040,-0.040,-0.040,0.000,0.000,0.000
1644347704188129792,2022-02-08-19:15:04,10.1.1.4,27,-0.050,-0.050,-0.050,0.000,0.000,0.000
1644347704288872960,2022-02-08-19:15:04,10.1.1.4,26,-0.060,-0.060,-0.060,0.000,0.000,0.000
1644347704388793088,2022-02-08-19:15:04,10.1.1.4,25,-0.070,-0.070,-0.070,0.000,0.000,0.000
1644347704488496896,2022-02-08-19:15:04,10.1.1.4,24,-0.080,-0.080,-0.080,0.000,0.000,0.000
1644347704587584000,2022-02-08-19:15:04,10.1.1.4,23,-0.090,-0.090,-0.090,0.000,0.000,0.000
1644347704687902976,2022-02-08-19:15:04,10.1.1.4,23,-0.100,-0.100,-0.100,0.000,0.000,0.000
1644347704787705856,2022-02-08-19:15:04,10.1.1.4,22,-0.090,-0.090,-0.090,0.000,0.000,0.000
1644347704888199168,2022-02-08-19:15:04,10.1.1.4,21,-0.080,-0.080,-0.080,0.000,0.000,0.000
1644347704987724032,2022-02-08-19:15:04,10.1.1.4,21,-0.070,-0.070,-0.070,0.000,0.000,0.000
1644347705088186112,2022-02-08-19:15:05,10.1.1.4,20,-0.060,-0.060,-0.060,0.000,0.000,0.000
1644347705189537024,2022-02-08-19:15:05,10.1.1.4,20,-0.050,-0.050,-0.050,0.000,0.000,0.000
1644347705309046016,2022-02-08-19:15:05,10.1.1.4,38,-0.040,-0.040,-0.040,0.000,0.000,0.000
1644347705407394048,2022-02-08-19:15:05,10.1.1.4,38,-0.030,-0.030,-0.030,0.000,0.000,0.000
1644347705507427072,2022-02-08-19:15:05,10.1.1.4,37,-0.020,-0.020,-0.020,0.000,0.000,0.000
1644347705607695104,2022-02-08-19:15:05,10.1.1.4,36,-0.010,-0.010,-0.010,0.000,0.000,0.000
1644347705707737856,2022-02-08-19:15:05,10.1.1.4,35,0.000,0.000,0.000,0.000,0.000,0.000
1644347705808068096,2022-02-08-19:15:05,10.1.1.4,34,0.010,0.010,0.010,0.000,0.000,0.000
1644347705907251968,2022-02-08-19:15:05,10.1.1.4,33,0.020,0.020,0.020,0.000,0.000,0.000
1644347706006795008,2022-02-08-19:15:06,10.1.1.4,32,0.030,0.030,0.030,0.000,0.000,0.000
1644347706107320064,2022-02-08-19:15:06,10.1.1.4,31,0.040,0.040,0.040,0.000,0.000,0.000
1644347706208060928,2022-02-08-19:15:06,10.1.1.4,31,0.050,0.050,0.050,0.000,0.000,0.000
1644347706307343104,2022-02-08-19:15:06,10.1.1.4,30,0.060,0.060,0.060,0.000,0.000,0.000
1644347706408293120,2022-02-08-19:15:06,10.1.1.4,30,0.070,0.070,0.070,0.000,0.000,0.000
1644347706507636992,2022-02-08-19:15:06,10.1.1.4,30,0.080,0.080,0.080,0.000,0.000,0.000
1644347706607777024,2022-02-08-19:15:06,10.1.1.4,29,0.090,0.090,0.090,0.000,0.000,0.000
1644347706708608000,2022-02-08-19:15:06,10.1.1.4,29,0.100,0.100,0.100,0.000,0.000,0.000
1644347706807862016,2022-02-08-19:15:06,10.1.1.4,28,0.090,0.090,0.090,0.000,0.000,0.000
1644347706908382976,2022-02-08-19:15:06,10.1.1.4,26,0.080,0.080,0.080,0.000,0.000,0.000
1644347707007181824,2022-02-08-19:15:07,10.1.1.4,24,0.070,0.070,0.070,0.000,0.000,0.000
1644347707107821824,2022-02-08-19:15:07,10.1.1.4,23,0.060,0.060,0.060,0.000,0.000,0.000
1644347707207534080,2022-02-08-19:15:07,10.1.1.4,23,0.050,0.050,0.050,0.000,0.000,0.000
1644347707308649984,2022-02-08-19:15:07,10.1.1.4,22,0.040,0.040,0.040,0.000,0.000,0.000
1644347707407272960,2022-02-08-19:15:07,10.1.1.4,22,0.030,0.030,0.030,0.000,0.000,0.000
1644347707507599104,2022-02-08-19:15:07,10.1.1.4,21,0.020,0.020,0.020,0.000,0.000,0.000
1644347707607255808,2022-02-08-19:15:07,10.1.1.4,20,0.010,0.010,0.010,0.000,0.000,0.000
1644347707727917056,2022-02-08-19:15:07,10.1.1.4,38,0.000,0.000,0.000,0.000,0.000,0.000
1644347707827848960,2022-02-08-19:15:07,10.1.1.4,38,-0.010,-0.010,-0.010,0.000,0.000,0.000
1644347707927606016,2022-02-08-19:15:07,10.1.1.4,37,-0.020,-0.020,-0.020,0.000,0.000,0.000
1644347708028534784,2022-02-08-19:15:08,10.1.1.4,35,-0.030,-0.030,-0.030,0.000,0.000,0.000
1644347708127821056,2022-02-08-19:15:08,10.1.1.4,35,-0.040,-0.040,-0.040,0.000,0.000,0.000
1644347708227868928,2022-02-08-19:15:08,10.1.1.4,34,-0.050,-0.050,-0.050,0.000,0.000,0.000
1644347708327709952,2022-02-08-19:15:08,10.1.1.4,33,-0.060,-0.060,-0.060,0.000,0.000,0.000
1644347708428332032,2022-02-08-19:15:08,10.1.1.4,33,-0.070,-0.070,-0.070,0.000,0.000,0.000
1644347708528143872,2022-02-08-19:15:08,10.1.1.4,32,-0.080,-0.080,-0.080,0.000,0.000,0.000
1644347708628706816,2022-02-08-19:15:08,10.1.1.4,31,-0.090,-0.090,-0.090,0.000,0.000,0.000
1644347708729223936,2022-02-08-19:15:08,10.1.1.4,30,-0.100,-0.100,-0.100,0.000,0.000,0.000
1644347708827825152,2022-02-08-19:15:08,10.1.1.4,29,-0.090,-0.090,-0.090,0.000,0.000,0.000
1644347708947855872,2022-02-08-19:15:08,10.1.1.4,28,-0.080,-0.080,-0.080,0.000,0.000,0.000
1644347709150114048,2022-02-08-19:15:09,10.1.1.4,30,-0.060,-0.060,-0.060,0.000,0.000,0.000
1644347709247708160,2022-02-08-19:15:09,10.1.1.4,30,-0.050,-0.050,-0.050,0.000,0.000,0.000
1644347709348068096,2022-02-08-19:15:09,10.1.1.4,23,-0.040,-0.040,-0.040,0.000,0.000,0.000
1644347709452366080,2022-02-08-19:15:09,10.1.1.4,22,-0.030,-0.030,-0.030,0.000,0.000,0.000
1644347709547481088,2022-02-08-19:15:09,10.1.1.4,22,-0.020,-0.020,-0.020,0.000,0.000,0.000
1644347709647757056,2022-02-08-19:15:09,10.1.1.4,21,-0.010,-0.010,-0.010,0.000,0.000,0.000
1644347709747603968,2022-02-08-19:15:09,10.1.1.4,21,0.000,0.000,0.000,0.000,0.000,0.000
1644347709847922176,2022-02-08-19:15:09,10.1.1.4,21,0.010,0.010,0.010,0.000,0.000,0.000
1644347709947010048,2022-02-08-19:15:09,10.1.1.4,20,0.020,0.020,0.020,0.000,0.000,0.000
1644347710047225088,2022-02-08-19:15:10,10.1.1.4,20,0.030,0.030,0.030,0.000,0.000,0.000
1644347710147918848,2022-02-08-19:15:10,10.1.1.4,19,0.040,0.040,0.040,0.000,0.000,0.000
1644347710246546944,2022-02-08-19:15:10,10.1.1.4,19,0.049,0.049,0.049,0.000,0.000,0.000
1644347710366916864,2022-02-08-19:15:10,10.1.1.4,39,0.060,0.060,0.060,0.000,0.000,0.000
1644347710467483904,2022-02-08-19:15:10,10.1.1.4,38,0.070,0.070,0.070,0.000,0.000,0.000
1644347710567948032,2022-02-08-19:15:10,10.1.1.4,38,0.080,0.080,0.080,0.000,0.000,0.000
1644347710669174784,2022-02-08-19:15:10,10.1.1.4,37,0.090,0.090,0.090,0.000,0.000,0.000
1644347710768739840,2022-02-08-19:15:10,10.1.1.4,37,0.100,0.100,0.100,0.000,0.000,0.000
1644347710870877952,2022-02-08-19:15:10,10.1.1.4,36,0.090,0.090,0.090,0.000,0.000,0.000
1644347710967917824,2022-02-08-19:15:10,10.1.1.4,34,0.080,0.080,0.080,0.000,0.000,0.000
1644347711068409856,2022-02-08-19:15:11,10.1.1.4,33,0.070,0.070,0.070,0.000,0.000,0.000
1644347711168293888,2022-02-08-19:15:11,10.1.1.4,33,0.060,0.060,0.060,0.000,0.000,0.000
1644347711268978176,2022-02-08-19:15:11,10.1.1.4,32,0.050,0.050,0.050,0.000,0.000,0.000
1644347711368182016,2022-02-08-19:15:11,10.1.1.4,31,0.040,0.040,0.040,0.000,0.000,0.000
1644347711468216064,2022-02-08-19:15:11,10.1.1.4,31,0.030,0.030,0.030,0.000,0.000,0.000
1644347711568235008,2022-02-08-19:15:11,10.1.1.4,30,0.020,0.020,0.020,0.000,0.000,0.000
1644347711668209920,2022-02-08-19:15:11,10.1.1.4,30,0.010,0.010,0.010,0.000,0.000,0.000
1644347711768229120,2022-02-08-19:15:11,10.1.1.4,29,0.000,0.000,0.000,0.000,0.000,0.000
1644347711867672832,2022-02-08-19:15:11,10.1.1.4,28,-0.010,-0.010,-0.010,0.000,0.000,0.000
1644347711968615168,2022-02-08-19:15:11,10.1.1.4,28,-0.020,-0.020,-0.020,0.000,0.000,0.000
1644347712068259840,2022-02-08-19:15:12,10.1.1.4,27,-0.030,-0.030,-0.030,0.000,0.000,0.000
1644347712168364032,2022-02-08-19:15:12,10.1.1.4,26,-0.040,-0.040,-0.040,0.000,0.000,0.000
1644347712268608000,2022-02-08-19:15:12,10.1.1.4,25,-0.050,-0.050,-0.050,0.000,0.000,0.000
1644347712367845120,2022-02-08-19:15:12,10.1.1.4,24,-0.060,-0.060,-0.060,0.000,0.000,0.000
1644347712467505920,2022-02-08-19:15:12,10.1.1.4,23,-0.070,-0.070,-0.070,0.000,0.000,0.000
1644347712568449024,2022-02-08-19:15:12,10.1.1.4,22,-0.080,-0.080,-0.080,0.000,0.000,0.000
1644347712668150016,2022-02-08-19:15:12,10.1.1.4,20,-0.090,-0.090,-0.090,0.000,0.000,0.000
1644347712768107776,2022-02-08-19:15:12,10.1.1.4,20,-0.100,-0.100,-0.100,0.000,0.000,0.000
1644347712867749888,2022-02-08-19:15:12,10.1.1.4,19,-0.090,-0.090,-0.090,0.000,0.000,0.000
1644347712967924224,2022-02-08-19:15:12,10.1.1.4,19,-0.081,-0.081,-0.081,0.000,0.000,0.000
1644347713089207808,2022-02-08-19:15:13,10.1.1.4,38,-0.070,-0.070,-0.070,0.000,0.000,0.000
1644347713187490816,2022-02-08-19:15:13,10.1.1.4,37,-0.060,-0.060,-0.060,0.000,0.000,0.000
1644347713287609088,2022-02-08-19:15:13,10.1.1.4,35,-0.050,-0.050,-0.050,0.000,0.000,0.000
1644347713387533056,2022-02-08-19:15:13,10.1.1.4,34,-0.040,-0.040,-0.040,0.000,0.000,0.000
1644347713488406016,2022-02-08-19:15:13,10.1.1.4,34,-0.030,-0.030,-0.030,0.000,0.000,0.000
1644347713588075008,2022-02-08-19:15:13,10.1.1.4,33,-0.020,-0.020,-0.020,0.000,0.000,0.000
1644347713688247808,2022-02-08-19:15:13,10.1.1.4,32,-0.010,-0.010,-0.010,0.000,0.000,0.000
1644347713787622912,2022-02-08-19:15:13,10.1.1.4,32,0.000,0.000,0.000,0.000,0.000,0.000
1644347713888830976,2022-02-08-19:15:13,10.1.1.4,31,0.010,0.010,0.010,0.000,0.000,0.000
1644347713988070912,2022-02-08-19:15:13,10.1.1.4,30,0.020,0.020,0.020,0.000,0.000,0.000
1644347714089032960,2022-02-08-19:15:14,10.1.1.4,30,0.030,0.030,0.030,0.000,0.000,0.000
1644347714188038144,2022-02-08-19:15:14,10.1.1.4,29,0.040,0.040,0.040,0.000,0.000,0.000
1644347714287703040,2022-02-08-19:15:14,10.1.1.4,28,0.050,0.050,0.050,0.000,0.000,0.000
1644347714389230080,2022-02-08-19:15:14,10.1.1.4,28,0.060,0.060,0.060,0.000,0.000,0.000
1644347714487656192,2022-02-08-19:15:14,10.1.1.4,27,0.070,0.070,0.070,0.000,0.000,0.000
1644347714587287808,2022-02-08-19:15:14,10.1.1.4,26,0.080,0.080,0.080,0.000,0.000,0.000
1644347714687066112,2022-02-08-19:15:14,10.1.1.4,25,0.090,0.090,0.090,0.000,0.000,0.000
1644347714786995968,2022-02-08-19:15:14,10.1.1.4,25,0.100,0.100,0.100,0.000,0.000,0.000
1644347714887463168,2022-02-08-19:15:14,10.1.1.4,25,0.090,0.090,0.090,0.000,0.000,0.000
1644347714986831872,2022-02-08-19:15:14,10.1.1.4,24,0.080,0.080,0.080,0.000,0.000,0.000
1644347715087662848,2022-02-08-19:15:15,10.1.1.4,24,0.070,0.070,0.070,0.000,0.000,0.000
1644347715187133184,2022-02-08-19:15:15,10.1.1.4,23,0.060,0.060,0.060,0.000,0.000,0.000
1644347715287527168,2022-02-08-19:15:15,10.1.1.4,23,0.050,0.050,0.050,0.000,0.000,0.000
1644347715387409920,2022-02-08-19:15:15,10.1.1.4,22,0.040,0.040,0.040,0.000,0.000,0.000
1644347715487998976,2022-02-08-19:15:15,10.1.1.4,22,0.030,0.030,0.030,0.000,0.000,0.000
1644347715588407040,2022-02-08-19:15:15,10.1.1.4,22,0.020,0.020,0.020,0.000,0.000,0.000
1644347715689303040,2022-02-08-19:15:15,10.1.1.4,20,0.010,0.010,0.010,0.000,0.000,0.000
1644347715809107968,2022-02-08-19:15:15,10.1.1.4,37,0.000,0.000,0.000,0.000,0.000,0.000
1644347715908009984,2022-02-08-19:15:15,10.1.1.4,34,-0.010,-0.010,-0.010,0.000,0.000,0.000
1644347716007323136,2022-02-08-19:15:16,10.1.1.4,33,-0.020,-0.020,-0.020,0.000,0.000,0.000
1644347716107916032,2022-02-08-19:15:16,10.1.1.4,32,-0.030,-0.030,-0.030,0.000,0.000,0.000
1644347716207768064,2022-02-08-19:15:16,10.1.1.4,32,-0.040,-0.040,-0.040,0.000,0.000,0.000
1644347716307544832,2022-02-08-19:15:16,10.1.1.4,31,-0.050,-0.050,-0.050,0.000,0.000,0.000
1644347716408231936,2022-02-08-19:15:16,10.1.1.4,30,-0.060,-0.060,-0.060,0.000,0.000,0.000
1644347716507923968,2022-02-08-19:15:16,10.1.1.4,29,-0.070,-0.070,-0.070,0.000,0.000,0.000
1644347716608263936,2022-02-08-19:15:16,10.1.1.4,29,-0.080,-0.080,-0.080,0.000,0.000,0.000
1644347716708350976,2022-02-08-19:15:16,10.1.1.4,27,-0.090,-0.090,-0.090,0.000,0.000,0.000
1644347716807895040,2022-02-08-19:15:16,10.1.1.4,26,-0.100,-0.100,-0.100,0.000,0.000,0.000
1644347716907459072,2022-02-08-19:15:16,10.1.1.4,25,-0.090,-0.090,-0.090,0.000,0.000,0.000
1644347717007323136,2022-02-08-19:15:17,10.1.1.4,24,-0.080,-0.080,-0.080,0.000,0.000,0.000
1644347717107569920,2022-02-08-19:15:17,10.1.1.4,23,-0.070,-0.070,-0.070,0.000,0.000,0.000
1644347717207994112,2022-02-08-19:15:17,10.1.1.4,22,-0.060,-0.060,-0.060,0.000,0.000,0.000
1644347717307463936,2022-02-08-19:15:17,10.1.1.4,21,-0.050,-0.050,-0.050,0.000,0.000,0.000
1644347717408425984,2022-02-08-19:15:17,10.1.1.4,20,-0.040,-0.040,-0.040,0.000,0.000,0.000
1644347717507078912,2022-02-08-19:15:17,10.1.1.4,19,-0.030,-0.030,-0.030,0.000,0.000,0.000
1644347717627990016,2022-02-08-19:15:17,10.1.1.4,38,-0.020,-0.020,-0.020,0.000,0.000,0.000
1644347717727664896,2022-02-08-19:15:17,10.1.1.4,36,-0.010,-0.010,-0.010,0.000,0.000,0.000
1644347717827922944,2022-02-08-19:15:17,10.1.1.4,35,0.000,0.000,0.000,0.000,0.000,0.000
1644347717927740928,2022-02-08-19:15:17,10.1.1.4,33,0.010,0.010,0.010,0.000,0.000,0.000
1644347718027749888,2022-02-08-19:15:18,10.1.1.4,32,0.020,0.020,0.020,0.000,0.000,0.000
1644347718128052992,2022-02-08-19:15:18,10.1.1.4,31,0.030,0.030,0.030,0.000,0.000,0.000
1644347718227752960,2022-02-08-19:15:18,10.1.1.4,31,0.040,0.040,0.040,0.000,0.000,0.000
1644347718327366144,2022-02-08-19:15:18,10.1.1.4,29,0.050,0.050,0.050,0.000,0.000,0.000
1644347718428082944,2022-02-08-19:15:18,10.1.1.4,29,0.060,0.060,0.060,0.000,0.000,0.000
1644347718528038144,2022-02-08-19:15:18,10.1.1.4,28,0.070,0.070,0.070,0.000,0.000,0.000
1644347718628467200,2022-02-08-19:15:18,10.1.1.4,26,0.080,0.080,0.080,0.000,0.000,0.000
1644347718727360000,2022-02-08-19:15:18,10.1.1.4,25,0.090,0.090,0.090,0.000,0.000,0.000
1644347718827748096,2022-02-08-19:15:18,10.1.1.4,23,0.100,0.100,0.100,0.000,0.000,0.000
1644347718927671808,2022-02-08-19:15:18,10.1.1.4,22,0.090,0.090,0.090,0.000,0.000,0.000
1644347719027219968,2022-02-08-19:15:19,10.1.1.4,21,0.080,0.080,0.080,0.000,0.000,0.000
1644347719127481088,2022-02-08-19:15:19,10.1.1.4,21,0.070,0.070,0.070,0.000,0.000,0.000
1644347719227504128,2022-02-08-19:15:19,10.1.1.4,20,0.060,0.060,0.060,0.000,0.000,0.000
1644347719327245056,2022-02-08-19:15:19,10.1.1.4,19,0.051,0.051,0.051,0.000,0.000,0.000
1644347719447827968,2022-02-08-19:15:19,10.1.1.4,38,0.040,0.040,0.040,0.000,0.000,0.000
1644347719548350976,2022-02-08-19:15:19,10.1.1.4,37,0.030,0.030,0.030,0.000,0.000,0.000
1644347719647774976,2022-02-08-19:15:19,10.1.1.4,37,0.020,0.020,0.020,0.000,0.000,0.000
1644347719748105984,2022-02-08-19:15:19,10.1.1.4,35,0.010,0.010,0.010,0.000,0.000,0.000
1644347719808822016,2022-02-08-19:15:19,10.1.1.4,-7,0.010,0.010,0.010,0.000,0.000,0.000
1644347719948179968,2022-02-08-19:15:19,10.1.1.4,32,-0.010,-0.010,-0.010,0.000,0.000,0.000
1644347720048193024,2022-02-08-19:15:20,10.1.1.4,32,-0.020,-0.020,-0.020,0.000,0.000,0.000
1644347720148448000,2022-02-08-19:15:20,10.1.1.4,31,-0.030,-0.030,-0.030,0.000,0.000,0.000
1644347720247582976,2022-02-08-19:15:20,10.1.1.4,30,-0.040,-0.040,-0.040,0.000,0.000,0.000
1644347720348241152,2022-02-08-19:15:20,10.1.1.4,30,-0.050,-0.050,-0.050,0.000,0.000,0.000
1644347720447554048,2022-02-08-19:15:20,10.1.1.4,29,-0.060,-0.060,-0.060,0.000,0.000,0.000
1644347720547254016,2022-02-08-19:15:20,10.1.1.4,29,-0.070,-0.070,-0.070,0.000,0.000,0.000
1644347720648088064,2022-02-08-19:15:20,10.1.1.4,28,-0.080,-0.080,-0.080,0.000,0.000,0.000
1644347720747473920,2022-02-08-19:15:20,10.1.1.4,27,-0.090,-0.090,-0.090,0.000,0.000,0.000
1644347720847947008,2022-02-08-19:15:20,10.1.1.4,25,-0.100,-0.100,-0.100,0.000,0.000,0.000
1644347720947949056,2022-02-08-19:15:20,10.1.1.4,23,-0.090,-0.090,-0.090,0.000,0.000,0.000
1644347721047293952,2022-02-08-19:15:21,10.1.1.4,21,-0.080,-0.080,-0.080,0.000,0.000,0.000
1644347721148451072,2022-02-08-19:15:21,10.1.1.4,20,-0.070,-0.070,-0.070,0.000,0.000,0.000
1644347721247746048,2022-02-08-19:15:21,10.1.1.4,19,-0.060,-0.060,-0.060,0.000,0.000,0.000
1644347721347905024,2022-02-08-19:15:21,10.1.1.4,19,-0.051,-0.051,-0.051,0.000,0.000,0.000
1644347721467344128,2022-02-08-19:15:21,10.1.1.4,38,-0.040,-0.040,-0.040,0.000,0.000,0.000
1644347721567864064,2022-02-08-19:15:21,10.1.1.4,38,-0.030,-0.030,-0.030,0.000,0.000,0.000
1644347721668009984,2022-02-08-19:15:21,10.1.1.4,25,-0.020,-0.020,-0.020,0.000,0.000,0.000
1644347721767808000,2022-02-08-19:15:21,10.1.1.4,24,-0.010,-0.010,-0.010,0.000,0.000,0.000
1644347721867657984,2022-02-08-19:15:21,10.1.1.4,24,0.000,0.000,0.000,0.000,0.000,0.000
1644347721968108032,2022-02-08-19:15:21,10.1.1.4,23,0.010,0.010,0.010,0.000,0.000,0.000
1644347722068072960,2022-02-08-19:15:22,10.1.1.4,22,0.020,0.020,0.020,0.000,0.000,0.000
1644347722167890176,2022-02-08-19:15:22,10.1.1.4,21,0.030,0.030,0.030,0.000,0.000,0.000
1644347722267781120,2022-02-08-19:15:22,10.1.1.4,21,0.040,0.040,0.040,0.000,0.000,0.000
1644347722367696128,2022-02-08-19:15:22,10.1.1.4,20,0.050,0.050,0.050,0.000,0.000,0.000
1644347722467793920,2022-02-08-19:15:22,10.1.1.4,19,0.060,0.060,0.060,0.000,0.000,0.000
1644347722568563968,2022-02-08-19:15:22,10.1.1.4,19,0.069,0.069,0.069,0.000,0.000,0.000
1644347722687680000,2022-02-08-19:15:22,10.1.1.4,38,0.080,0.080,0.080,0.000,0.000,0.000
1644347722787680000,2022-02-08-19:15:22,10.1.1.4,37,0.090,0.090,0.090,0.000,0.000,0.000
1644347722888577024,2022-02-08-19:15:22,10.1.1.4,36,0.100,0.100,0.100,0.000,0.000,0.000
1644347722987673088,2022-02-08-19:15:22,10.1.1.4,35,0.090,0.090,0.090,0.000,0.000,0.000
1644347723087666944,2022-02-08-19:15:23,10.1.1.4,34,0.080,0.080,0.080,0.000,0.000,0.000
1644347723186827008,2022-02-08-19:15:23,10.1.1.4,33,0.070,0.070,0.070,0.000,0.000,0.000
1644347723289177856,2022-02-08-19:15:23,10.1.1.4,33,0.060,0.060,0.060,0.000,0.000,0.000
1644347723387660032,2022-02-08-19:15:23,10.1.1.4,32,0.050,0.050,0.050,0.000,0.000,0.000
1644347723488209920,2022-02-08-19:15:23,10.1.1.4,32,0.040,0.040,0.040,0.000,0.000,0.000
1644347723588082944,2022-02-08-19:15:23,10.1.1.4,31,0.030,0.030,0.030,0.000,0.000,0.000
1644347723687879936,2022-02-08-19:15:23,10.1.1.4,30,0.020,0.020,0.020,0.000,0.000,0.000
1644347723787241984,2022-02-08-19:15:23,10.1.1.4,29,0.010,0.010,0.010,0.000,0.000,0.000
1644347723886909952,2022-02-08-19:15:23,10.1.1.4,29,0.000,0.000,0.000,0.000,0.000,0.000
1644347723986970880,2022-02-08-19:15:23,10.1.1.4,28,-0.010,-0.010,-0.010,0.000,0.000,0.000
1644347724087596032,2022-02-08-19:15:24,10.1.1.4,28,-0.020,-0.020,-0.020,0.000,0.000,0.000
1644347724187706880,2022-02-08-19:15:24,10.1.1.4,27,-0.030,-0.030,-0.030,0.000,0.000,0.000
1644347724288156928,2022-02-08-19:15:24,10.1.1.4,27,-0.040,-0.040,-0.040,0.000,0.000,0.000
1644347724387597056,2022-02-08-19:15:24,10.1.1.4,26,-0.050,-0.050,-0.050,0.000,0.000,0.000
1644347724487814912,2022-02-08-19:15:24,10.1.1.4,25,-0.060,-0.060,-0.060,0.000,0.000,0.000
1644347724587383040,2022-02-08-19:15:24,10.1.1.4,25,-0.070,-0.070,-0.070,0.000,0.000,0.000
1644347724687158016,2022-02-08-19:15:24,10.1.1.4,24,-0.080,-0.080,-0.080,0.000,0.000,0.000
1644347724787578112,2022-02-08-19:15:24,10.1.1.4,23,-0.090,-0.090,-0.090,0.000,0.000,0.000
1644347724887589888,2022-02-08-19:15:24,10.1.1.4,22,-0.100,-0.100,-0.100,0.000,0.000,0.000
1644347724987962880,2022-02-08-19:15:24,10.1.1.4,22,-0.090,-0.090,-0.090,0.000,0.000,0.000
1644347725087369984,2022-02-08-19:15:25,10.1.1.4,21,-0.080,-0.080,-0.080,0.000,0.000,0.000
1644347725187119104,2022-02-08-19:15:25,10.1.1.4,20,-0.070,-0.070,-0.070,0.000,0.000,0.000
1644347725288507904,2022-02-08-19:15:25,10.1.1.4,19,-0.061,-0.061,-0.061,0.000,0.000,0.000
1644347725407185152,2022-02-08-19:15:25,10.1.1.4,35,-0.050,-0.050,-0.050,0.000,0.000,0.000
1644347725507798784,2022-02-08-19:15:25,10.1.1.4,34,-0.040,-0.040,-0.040,0.000,0.000,0.000
1644347725607369984,2022-02-08-19:15:25,10.1.1.4,33,-0.030,-0.030,-0.030,0.000,0.000,0.000
1644347725707856896,2022-02-08-19:15:25,10.1.1.4,32,-0.020,-0.020,-0.020,0.000,0.000,0.000
1644347725808104960,2022-02-08-19:15:25,10.1.1.4,32,-0.010,-0.010,-0.010,0.000,0.000,0.000
1644347725907533056,2022-02-08-19:15:25,10.1.1.4,31,0.000,0.000,0.000,0.000,0.000,0.000
1644347726008743936,2022-02-08-19:15:26,10.1.1.4,31,0.010,0.010,0.010,0.000,0.000,0.000
1644347726107687936,2022-02-08-19:15:26,10.1.1.4,30,0.020,0.020,0.020,0.000,0.000,0.000
1644347726208385024,2022-02-08-19:15:26,10.1.1.4,30,0.030,0.030,0.030,0.000,0.000,0.000
1644347726308145920,2022-02-08-19:15:26,10.1.1.4,30,0.040,0.040,0.040,0.000,0.000,0.000
1644347726408317184,2022-02-08-19:15:26,10.1.1.4,29,0.050,0.050,0.050,0.000,0.000,0.000
1644347726507725056,2022-02-08-19:15:26,10.1.1.4,28,0.060,0.060,0.060,0.000,0.000,0.000
1644347726608257024,2022-02-08-19:15:26,10.1.1.4,27,0.070,0.070,0.070,0.000,0.000,0.000
1644347726708073984,2022-02-08-19:15:26,10.1.1.4,27,0.080,0.080,0.080,0.000,0.000,0.000
1644347726807960064,2022-02-08-19:15:26,10.1.1.4,26,0.090,0.090,0.090,0.000,0.000,0.000
1644347726908751872,2022-02-08-19:15:26,10.1.1.4,24,0.100,0.100,0.100,0.000,0.000,0.000
1644347727007283968,2022-02-08-19:15:27,10.1.1.4,21,0.090,0.090,0.090,0.000,0.000,0.000
1644347727106971904,2022-02-08-19:15:27,10.1.1.4,20,0.080,0.080,0.080,0.000,0.000,0.000
1644347727207632128,2022-02-08-19:15:27,10.1.1.4,20,0.070,0.070,0.070,0.000,0.000,0.000
1644347727308617216,2022-02-08-19:15:27,10.1.1.4,19,0.060,0.060,0.060,0.000,0.000,0.000
1644347727407470848,2022-02-08-19:15:27,10.1.1.4,19,0.051,0.051,0.051,0.000,0.000,0.000
1644347727527581952,2022-02-08-19:15:27,10.1.1.4,38,0.040,0.040,0.040,0.000,0.000,0.000
1644347727627680000,2022-02-08-19:15:27,10.1.1.4,38,0.030,0.030,0.030,0.000,0.000,0.000
1644347727728167168,2022-02-08-19:15:27,10.1.1.4,37,0.020,0.020,0.020,0.000,0.000,0.000
1644347727829668096,2022-02-08-19:15:27,10.1.1.4,35,0.010,0.010,0.010,0.000,0.000,0.000
1644347727927511808,2022-02-08-19:15:27,10.1.1.4,32,0.000,0.000,0.000,0.000,0.000,0.000
1644347728028173056,2022-02-08-19:15:28,10.1.1.4,31,-0.010,-0.010,-0.010,0.000,0.000,0.000
1644347728127373056,2022-02-08-19:15:28,10.1.1.4,31,-0.020,-0.020,-0.020,0.000,0.000,0.000
1644347728226944000,2022-02-08-19:15:28,10.1.1.4,30,-0.030,-0.030,-0.030,0.000,0.000,0.000
1644347728327928064,2022-02-08-19:15:28,10.1.1.4,30,-0.040,-0.040,-0.040,0.000,0.000,0.000
1644347728427880960,2022-02-08-19:15:28,10.1.1.4,29,-0.050,-0.050,-0.050,0.000,0.000,0.000
1644347728528572928,2022-02-08-19:15:28,10.1.1.4,29,-0.060,-0.060,-0.060,0.000,0.000,0.000
1644347728627980032,2022-02-08-19:15:28,10.1.1.4,28,-0.070,-0.070,-0.070,0.000,0.000,0.000
1644347728728092928,2022-02-08-19:15:28,10.1.1.4,27,-0.080,-0.080,-0.080,0.000,0.000,0.000
1644347728828033024,2022-02-08-19:15:28,10.1.1.4,27,-0.090,-0.090,-0.090,0.000,0.000,0.000
1644347728927738880,2022-02-08-19:15:28,10.1.1.4,26,-0.100,-0.100,-0.100,0.000,0.000,0.000
1644347729027539968,2022-02-08-19:15:29,10.1.1.4,25,-0.090,-0.090,-0.090,0.000,0.000,0.000
1644347729127623936,2022-02-08-19:15:29,10.1.1.4,25,-0.080,-0.080,-0.080,0.000,0.000,0.000
1644347729228497152,2022-02-08-19:15:29,10.1.1.4,25,-0.070,-0.070,-0.070,0.000,0.000,0.000
1644347729327994112,2022-02-08-19:15:29,10.1.1.4,24,-0.060,-0.060,-0.060,0.000,0.000,0.000
1644347729427768064,2022-02-08-19:15:29,10.1.1.4,23,-0.050,-0.050,-0.050,0.000,0.000,0.000
1644347729528436992,2022-02-08-19:15:29,10.1.1.4,23,-0.040,-0.040,-0.040,0.000,0.000,0.000
1644347729628268032,2022-02-08-19:15:29,10.1.1.4,22,-0.030,-0.030,-0.030,0.000,0.000,0.000
1644347729728649984,2022-02-08-19:15:29,10.1.1.4,22,-0.020,-0.020,-0.020,0.000,0.000,0.000
1644347729828325120,2022-02-08-19:15:29,10.1.1.4,21,-0.010,-0.010,-0.010,0.000,0.000,0.000
1644347729927895040,2022-02-08-19:15:29,10.1.1.4,20,-0.000,-0.000,-0.000,0.000,0.000,0.000
1644347730027930880,2022-02-08-19:15:30,10.1.1.4,19,0.010,0.010,0.010,0.000,0.000,0.000
1644347730127762944,2022-02-08-19:15:30,10.1.1.4,19,0.019,0.019,0.019,0.000,0.000,0.000
1644347730228352000,2022-02-08-19:15:30,10.1.1.4,19,0.029,0.029,0.029,0.000,0.000,0.000
1644347730348019968,2022-02-08-19:15:30,10.1.1.4,37,0.040,0.040,0.040,0.000,0.000,0.000
1644347730448153856,2022-02-08-19:15:30,10.1.1.4,37,0.050,0.050,0.050,0.000,0.000,0.000
1644347730548017920,2022-02-08-19:15:30,10.1.1.4,36,0.060,0.060,0.060,0.000,0.000,0.000
1644347730648189184,2022-02-08-19:15:30,10.1.1.4,36,0.070,0.070,0.070,0.000,0.000,0.000
1644347730748652032,2022-02-08-19:15:30,10.1.1.4,35,0.080,0.080,0.080,0.000,0.000,0.000
1644347730847446016,2022-02-08-19:15:30,10.1.1.4,34,0.090,0.090,0.090,0.000,0.000,0.000
1644347730948240128,2022-02-08-19:15:30,10.1.1.4,34,0.100,0.100,0.100,0.000,0.000,0.000
1644347731047486976,2022-02-08-19:15:31,10.1.1.4,33,0.090,0.090,0.090,0.000,0.000,0.000
1644347731147557888,2022-02-08-19:15:31,10.1.1.4,32,0.080,0.080,0.080,0.000,0.000,0.000
1644347731247940096,2022-02-08-19:15:31,10.1.1.4,32,0.070,0.070,0.070,0.000,0.000,0.000
1644347731348231936,2022-02-08-19:15:31,10.1.1.4,31,0.060,0.060,0.060,0.000,0.000,0.000
1644347731448123904,2022-02-08-19:15:31,10.1.1.4,31,0.050,0.050,0.050,0.000,0.000,0.000
1644347731549007872,2022-02-08-19:15:31,10.1.1.4,29,0.040,0.040,0.040,0.000,0.000,0.000
1644347731647358976,2022-02-08-19:15:31,10.1.1.4,28,0.030,0.030,0.030,0.000,0.000,0.000
1644347731748194048,2022-02-08-19:15:31,10.1.1.4,28,0.020,0.020,0.020,0.000,0.000,0.000
1644347731849137920,2022-02-08-19:15:31,10.1.1.4,27,0.010,0.010,0.010,0.000,0.000,0.000
1644347731948020992,2022-02-08-19:15:31,10.1.1.4,26,0.000,0.000,0.000,0.000,0.000,0.000
1644347732047537920,2022-02-08-19:15:32,10.1.1.4,25,-0.010,-0.010,-0.010,0.000,0.000,0.000
1644347732148027904,2022-02-08-19:15:32,10.1.1.4,23,-0.020,-0.020,-0.020,0.000,0.000,0.000
1644347732247787008,2022-02-08-19:15:32,10.1.1.4,21,-0.030,-0.030,-0.030,0.000,0.000,0.000
1644347732348076032,2022-02-08-19:15:32,10.1.1.4,20,-0.040,-0.040,-0.040,0.000,0.000,0.000
1644347732450789888,2022-02-08-19:15:32,10.1.1.4,19,-0.050,-0.050,-0.050,0.000,0.000,0.000
1644347732567353856,2022-02-08-19:15:32,10.1.1.4,38,-0.060,-0.060,-0.060,0.000,0.000,0.000
1644347732667442944,2022-02-08-19:15:32,10.1.1.4,38,-0.070,-0.070,-0.070,0.000,0.000,0.000
1644347732767205120,2022-02-08-19:15:32,10.1.1.4,38,-0.080,-0.080,-0.080,0.000,0.000,0.000
1644347732867769856,2022-02-08-19:15:32,10.1.1.4,37,-0.090,-0.090,-0.090,0.000,0.000,0.000
1644347732967351040,2022-02-08-19:15:32,10.1.1.4,37,-0.100,-0.100,-0.100,0.000,0.000,0.000
1644347733067127040,2022-02-08-19:15:33,10.1.1.4,36,-0.090,-0.090,-0.090,0.000,0.000,0.000
1644347733167390208,2022-02-08-19:15:33,10.1.1.4,35,-0.080,-0.080,-0.080,0.000,0.000,0.000
1644347733267767808,2022-02-08-19:15:33,10.1.1.4,34,-0.070,-0.070,-0.070,0.000,0.000,0.000
1644347733367679232,2022-02-08-19:15:33,10.1.1.4,33,-0.060,-0.060,-0.060,0.000,0.000,0.000
1644347733467424000,2022-02-08-19:15:33,10.1.1.4,33,-0.050,-0.050,-0.050,0.000,0.000,0.000
1644347733568186880,2022-02-08-19:15:33,10.1.1.4,32,-0.040,-0.040,-0.040,0.000,0.000,0.000
1644347733668404992,2022-02-08-19:15:33,10.1.1.4,31,-0.030,-0.030,-0.030,0.000,0.000,0.000
1644347733782072064,2022-02-08-19:15:33,10.1.1.4,30,-0.020,-0.020,-0.020,0.000,0.000,0.000
1644347733867675904,2022-02-08-19:15:33,10.1.1.4,30,-0.010,-0.010,-0.010,0.000,0.000,0.000
1644347733967675904,2022-02-08-19:15:33,10.1.1.4,30,0.000,0.000,0.000,0.000,0.000,0.000
1644347734067277824,2022-02-08-19:15:34,10.1.1.4,30,0.010,0.010,0.010,0.000,0.000,0.000
1644347734167174144,2022-02-08-19:15:34,10.1.1.4,29,0.020,0.020,0.020,0.000,0.000,0.000
1644347734268573952,2022-02-08-19:15:34,10.1.1.4,29,0.030,0.030,0.030,0.000,0.000,0.000
1644347734368503040,2022-02-08-19:15:34,10.1.1.4,28,0.040,0.040,0.040,0.000,0.000,0.000
1644347734468049920,2022-02-08-19:15:34,10.1.1.4,26,0.050,0.050,0.050,0.000,0.000,0.000
1644347734568238848,2022-02-08-19:15:34,10.1.1.4,25,0.060,0.060,0.060,0.000,0.000,0.000
1644347734667654144,2022-02-08-19:15:34,10.1.1.4,24,0.070,0.070,0.070,0.000,0.000,0.000
1644347734767674880,2022-02-08-19:15:34,10.1.1.4,24,0.080,0.080,0.080,0.000,0.000,0.000
1644347734867693056,2022-02-08-19:15:34,10.1.1.4,23,0.090,0.090,0.090,0.000,0.000,0.000
1644347734967364096,2022-02-08-19:15:34,10.1.1.4,23,0.100,0.100,0.100,0.000,0.000,0.000
1644347735067537920,2022-02-08-19:15:35,10.1.1.4,22,0.090,0.090,0.090,0.000,0.000,0.000
1644347735168198144,2022-02-08-19:15:35,10.1.1.4,21,0.080,0.080,0.080,0.000,0.000,0.000
1644347735269064960,2022-02-08-19:15:35,10.1.1.4,20,0.070,0.070,0.070,0.000,0.000,0.000
1644347735368272128,2022-02-08-19:15:35,10.1.1.4,20,0.060,0.060,0.060,0.000,0.000,0.000
1644347735467591936,2022-02-08-19:15:35,10.1.1.4,19,0.051,0.051,0.051,0.000,0.000,0.000
1644347735588583936,2022-02-08-19:15:35,10.1.1.4,37,0.040,0.040,0.040,0.000,0.000,0.000
1644347735691191040,2022-02-08-19:15:35,10.1.1.4,35,0.030,0.030,0.030,0.000,0.000,0.000
1644347735788230912,2022-02-08-19:15:35,10.1.1.4,34,0.020,0.020,0.020,0.000,0.000,0.000
1644347735887504128,2022-02-08-19:15:35,10.1.1.4,33,0.010,0.010,0.010,0.000,0.000,0.000
1644347735988035840,2022-02-08-19:15:35,10.1.1.4,33,0.000,0.000,0.000,0.000,0.000,0.000
1644347736089241088,2022-02-08-19:15:36,10.1.1.4,32,-0.010,-0.010,-0.010,0.000,0.000,0.000
1644347736189225984,2022-02-08-19:15:36,10.1.1.4,31,-0.020,-0.020,-0.020,0.000,0.000,0.000
1644347736288103168,2022-02-08-19:15:36,10.1.1.4,30,-0.030,-0.030,-0.030,0.000,0.000,0.000
1644347736388716032,2022-02-08-19:15:36,10.1.1.4,30,-0.040,-0.040,-0.040,0.000,0.000,0.000
1644347736488976896,2022-02-08-19:15:36,10.1.1.4,29,-0.050,-0.050,-0.050,0.000,0.000,0.000
1644347736588335104,2022-02-08-19:15:36,10.1.1.4,28,-0.060,-0.060,-0.060,0.000,0.000,0.000
1644347736687428096,2022-02-08-19:15:36,10.1.1.4,28,-0.070,-0.070,-0.070,0.000,0.000,0.000
1644347736788228096,2022-02-08-19:15:36,10.1.1.4,27,-0.080,-0.080,-0.080,0.000,0.000,0.000
1644347736888897792,2022-02-08-19:15:36,10.1.1.4,27,-0.090,-0.090,-0.090,0.000,0.000,0.000
1644347736987938816,2022-02-08-19:15:36,10.1.1.4,26,-0.100,-0.100,-0.100,0.000,0.000,0.000
1644347737087929856,2022-02-08-19:15:37,10.1.1.4,25,-0.090,-0.090,-0.090,0.000,0.000,0.000
1644347737187911936,2022-02-08-19:15:37,10.1.1.4,25,-0.080,-0.080,-0.080,0.000,0.000,0.000
1644347737288485120,2022-02-08-19:15:37,10.1.1.4,24,-0.070,-0.070,-0.070,0.000,0.000,0.000
1644347737388894208,2022-02-08-19:15:37,10.1.1.4,22,-0.060,-0.060,-0.060,0.000,0.000,0.000
1644347737487684864,2022-02-08-19:15:37,10.1.1.4,21,-0.050,-0.050,-0.050,0.000,0.000,0.000
1644347737587721216,2022-02-08-19:15:37,10.1.1.4,20,-0.040,-0.040,-0.040,0.000,0.000,0.000
1644347737687518976,2022-02-08-19:15:37,10.1.1.4,19,-0.030,-0.030,-0.030,0.000,0.000,0.000
1644347737788882944,2022-02-08-19:15:37,10.1.1.4,19,-0.020,-0.020,-0.020,0.000,0.000,0.000
1644347737907542016,2022-02-08-19:15:37,10.1.1.4,38,-0.010,-0.010,-0.010,0.000,0.000,0.000
1644347738008393984,2022-02-08-19:15:38,10.1.1.4,37,0.000,0.000,0.000,0.000,0.000,0.000
1644347738108148224,2022-02-08-19:15:38,10.1.1.4,36,0.010,0.010,0.010,0.000,0.000,0.000
1644347738208212992,2022-02-08-19:15:38,10.1.1.4,35,0.020,0.020,0.020,0.000,0.000,0.000
1644347738307507968,2022-02-08-19:15:38,10.1.1.4,34,0.030,0.030,0.030,0.000,0.000,0.000
1644347738408730112,2022-02-08-19:15:38,10.1.1.4,32,0.040,0.040,0.040,0.000,0.000,0.000
1644347738507154944,2022-02-08-19:15:38,10.1.1.4,32,0.050,0.050,0.050,0.000,0.000,0.000
1644347738607229952,2022-02-08-19:15:38,10.1.1.4,31,0.060,0.060,0.060,0.000,0.000,0.000
1644347738708288000,2022-02-08-19:15:38,10.1.1.4,30,0.070,0.070,0.070,0.000,0.000,0.000
1644347738813757952,2022-02-08-19:15:38,10.1.1.4,30,0.080,0.080,0.080,0.000,0.000,0.000
1644347738909540864,2022-02-08-19:15:38,10.1.1.4,29,0.090,0.090,0.090,0.000,0.000,0.000
1644347739007373056,2022-02-08-19:15:39,10.1.1.4,28,0.100,0.100,0.100,0.000,0.000,0.000
1644347739107536128,2022-02-08-19:15:39,10.1.1.4,28,0.090,0.090,0.090,0.000,0.000,0.000
1644347739212393984,2022-02-08-19:15:39,10.1.1.4,27,0.080,0.080,0.080,0.000,0.000,0.000
1644347739308936960,2022-02-08-19:15:39,10.1.1.4,27,0.070,0.070,0.070,0.000,0.000,0.000
1644347739409667072,2022-02-08-19:15:39,10.1.1.4,25,0.060,0.060,0.060,0.000,0.000,0.000
1644347739508308992,2022-02-08-19:15:39,10.1.1.4,21,0.050,0.050,0.050,0.000,0.000,0.000
1644347739609623808,2022-02-08-19:15:39,10.1.1.4,20,0.040,0.040,0.040,0.000,0.000,0.000
1644347739708797952,2022-02-08-19:15:39,10.1.1.4,19,0.030,0.030,0.030,0.000,0.000,0.000
1644347739829783808,2022-02-08-19:15:39,10.1.1.4,38,0.020,0.020,0.020,0.000,0.000,0.000
1644347739927671808,2022-02-08-19:15:39,10.1.1.4,37,0.010,0.010,0.010,0.000,0.000,0.000
1644347740028965888,2022-02-08-19:15:40,10.1.1.4,37,0.000,0.000,0.000,0.000,0.000,0.000
1644347740128876800,2022-02-08-19:15:40,10.1.1.4,36,-0.010,-0.010,-0.010,0.000,0.000,0.000
1644347740229566208,2022-02-08-19:15:40,10.1.1.4,35,-0.020,-0.020,-0.020,0.000,0.000,0.000
1644347740327899904,2022-02-08-19:15:40,10.1.1.4,34,-0.030,-0.030,-0.030,0.000,0.000,0.000
1644347740389939968,2022-02-08-19:15:40,10.1.1.4,-7,-0.030,-0.030,-0.030,0.000,0.000,0.000
1644347740527724032,2022-02-08-19:15:40,10.1.1.4,32,-0.050,-0.050,-0.050,0.000,0.000,0.000
1644347740627581952,2022-02-08-19:15:40,10.1.1.4,31,-0.060,-0.060,-0.060,0.000,0.000,0.000
1644347740728089088,2022-02-08-19:15:40,10.1.1.4,31,-0.070,-0.070,-0.070,0.000,0.000,0.000
1644347740827572224,2022-02-08-19:15:40,10.1.1.4,29,-0.080,-0.080,-0.080,0.000,0.000,0.000
1644347740928715008,2022-02-08-19:15:40,10.1.1.4,29,-0.090,-0.090,-0.090,0.000,0.000,0.000
1644347741028219904,2022-02-08-19:15:41,10.1.1.4,28,-0.100,-0.100,-0.100,0.000,0.000,0.000
1644347741128436992,2022-02-08-19:15:41,10.1.1.4,27,-0.090,-0.090,-0.090,0.000,0.000,0.000
1644347741228660992,2022-02-08-19:15:41,10.1.1.4,25,-0.080,-0.080,-0.080,0.000,0.000,0.000
1644347741328713984,2022-02-08-19:15:41,10.1.1.4,24,-0.070,-0.070,-0.070,0.000,0.000,0.000
1644347741428261888,2022-02-08-19:15:41,10.1.1.4,24,-0.060,-0.060,-0.060,0.000,0.000,0.000
1644347741528441856,2022-02-08-19:15:41,10.1.1.4,23,-0.050,-0.050,-0.050,0.000,0.000,0.000
1644347741628424960,2022-02-08-19:15:41,10.1.1.4,23,-0.040,-0.040,-0.040,0.000,0.000,0.000
1644347741728189952,2022-02-08-19:15:41,10.1.1.4,22,-0.030,-0.030,-0.030,0.000,0.000,0.000
1644347741828866048,2022-02-08-19:15:41,10.1.1.4,20,-0.020,-0.020,-0.020,0.000,0.000,0.000
1644347741928059136,2022-02-08-19:15:41,10.1.1.4,19,-0.011,-0.011,-0.011,0.000,0.000,0.000
1644347742048416000,2022-02-08-19:15:42,10.1.1.4,39,0.000,0.000,0.000,0.000,0.000,0.000
1644347742148691968,2022-02-08-19:15:42,10.1.1.4,38,0.010,0.010,0.010,0.000,0.000,0.000
1644347742248052992,2022-02-08-19:15:42,10.1.1.4,37,0.020,0.020,0.020,0.000,0.000,0.000
1644347742347905024,2022-02-08-19:15:42,10.1.1.4,36,0.030,0.030,0.030,0.000,0.000,0.000
1644347742448848128,2022-02-08-19:15:42,10.1.1.4,36,0.040,0.040,0.040,0.000,0.000,0.000
1644347742508305920,2022-02-08-19:15:42,10.1.1.4,-6,0.040,0.040,0.040,0.000,0.000,0.000
1644347742650299904,2022-02-08-19:15:42,10.1.1.4,33,0.060,0.060,0.060,0.000,0.000,0.000
1644347742747975168,2022-02-08-19:15:42,10.1.1.4,32,0.070,0.070,0.070,0.000,0.000,0.000
1644347742847837952,2022-02-08-19:15:42,10.1.1.4,31,0.080,0.080,0.080,0.000,0.000,0.000
1644347742948016896,2022-02-08-19:15:42,10.1.1.4,31,0.090,0.090,0.090,0.000,0.000,0.000
1644347743051193856,2022-02-08-19:15:43,10.1.1.4,30,0.100,0.100,0.100,0.000,0.000,0.000
1644347743150132992,2022-02-08-19:15:43,10.1.1.4,29,0.090,0.090,0.090,0.000,0.000,0.000
1644347743247960064,2022-02-08-19:15:43,10.1.1.4,28,0.080,0.080,0.080,0.000,0.000,0.000
1644347743347724800,2022-02-08-19:15:43,10.1.1.4,28,0.070,0.070,0.070,0.000,0.000,0.000
1644347743447601920,2022-02-08-19:15:43,10.1.1.4,27,0.060,0.060,0.060,0.000,0.000,0.000
1644347743549979904,2022-02-08-19:15:43,10.1.1.4,26,0.050,0.050,0.050,0.000,0.000,0.000
1644347743649018112,2022-02-08-19:15:43,10.1.1.4,24,0.040,0.040,0.040,0.000,0.000,0.000
1644347743749730048,2022-02-08-19:15:43,10.1.1.4,23,0.030,0.030,0.030,0.000,0.000,0.000
1644347743849203968,2022-02-08-19:15:43,10.1.1.4,23,0.020,0.020,0.020,0.000,0.000,0.000
1644347743948630016,2022-02-08-19:15:43,10.1.1.4,22,0.010,0.010,0.010,0.000,0.000,0.000
1644347744047909120,2022-02-08-19:15:44,10.1.1.4,20,0.000,0.000,0.000,0.000,0.000,0.000
1644347744148912896,2022-02-08-19:15:44,10.1.1.4,19,-0.009,-0.009,-0.009,0.000,0.000,0.000
1644347744267725056,2022-02-08-19:15:44,10.1.1.4,38,-0.020,-0.020,-0.020,0.000,0.000,0.000
1644347744367837952,2022-02-08-19:15:44,10.1.1.4,37,-0.030,-0.030,-0.030,0.000,0.000,0.000
1644347744467845888,2022-02-08-19:15:44,10.1.1.4,36,-0.040,-0.040,-0.040,0.000,0.000,0.000
1644347744567717120,2022-02-08-19:15:44,10.1.1.4,36,-0.050,-0.050,-0.050,0.000,0.000,0.000
1644347744667296768,2022-02-08-19:15:44,10.1.1.4,35,-0.060,-0.060,-0.060,0.000,0.000,0.000
1644347744768034048,2022-02-08-19:15:44,10.1.1.4,31,-0.070,-0.070,-0.070,0.000,0.000,0.000
1644347744867347968,2022-02-08-19:15:44,10.1.1.4,31,-0.080,-0.080,-0.080,0.000,0.000,0.000
1644347744967348224,2022-02-08-19:15:44,10.1.1.4,30,-0.090,-0.090,-0.090,0.000,0.000,0.000
1644347745067106048,2022-02-08-19:15:45,10.1.1.4,29,-0.100,-0.100,-0.100,0.000,0.000,0.000
1644347745167197952,2022-02-08-19:15:45,10.1.1.4,29,-0.090,-0.090,-0.090,0.000,0.000,0.000
1644347745267517952,2022-02-08-19:15:45,10.1.1.4,28,-0.080,-0.080,-0.080,0.000,0.000,0.000
1644347745367269120,2022-02-08-19:15:45,10.1.1.4,28,-0.070,-0.070,-0.070,0.000,0.000,0.000
1644347745467613952,2022-02-08-19:15:45,10.1.1.4,27,-0.060,-0.060,-0.060,0.000,0.000,0.000
1644347745567399936,2022-02-08-19:15:45,10.1.1.4,27,-0.050,-0.050,-0.050,0.000,0.000,0.000
1644347745668072960,2022-02-08-19:15:45,10.1.1.4,26,-0.040,-0.040,-0.040,0.000,0.000,0.000
1644347745768279040,2022-02-08-19:15:45,10.1.1.4,26,-0.030,-0.030,-0.030,0.000,0.000,0.000
1644347745867849984,2022-02-08-19:15:45,10.1.1.4,25,-0.020,-0.020,-0.020,0.000,0.000,0.000
1644347745967576064,2022-02-08-19:15:45,10.1.1.4,24,-0.010,-0.010,-0.010,0.000,0.000,0.000
1644347746067864832,2022-02-08-19:15:46,10.1.1.4,24,0.000,0.000,0.000,0.000,0.000,0.000
1644347746168515072,2022-02-08-19:15:46,10.1.1.4,23,0.010,0.010,0.010,0.000,0.000,0.000
1644347746267652864,2022-02-08-19:15:46,10.1.1.4,23,0.020,0.020,0.020,0.000,0.000,0.000
1644347746367671040,2022-02-08-19:15:46,10.1.1.4,23,0.030,0.030,0.030,0.000,0.000,0.000
1644347746468118784,2022-02-08-19:15:46,10.1.1.4,22,0.040,0.040,0.040,0.000,0.000,0.000
1644347746567749120,2022-02-08-19:15:46,10.1.1.4,21,0.050,0.050,0.050,0.000,0.000,0.000
1644347746667545088,2022-02-08-19:15:46,10.1.1.4,21,0.060,0.060,0.060,0.000,0.000,0.000
1644347746767666176,2022-02-08-19:15:46,10.1.1.4,20,0.070,0.070,0.070,0.000,0.000,0.000
1644347746867248128,2022-02-08-19:15:46,10.1.1.4,20,0.080,0.080,0.080,0.000,0.000,0.000
1644347746967513088,2022-02-08-19:15:46,10.1.1.4,19,0.090,0.090,0.090,0.000,0.000,0.000
1644347747087848960,2022-02-08-19:15:47,10.1.1.4,38,0.100,0.100,0.100,0.000,0.000,0.000
1644347747187447040,2022-02-08-19:15:47,10.1.1.4,38,0.090,0.090,0.090,0.000,0.000,0.000
1644347747287666944,2022-02-08-19:15:47,10.1.1.4,37,0.080,0.080,0.080,0.000,0.000,0.000
1644347747387378944,2022-02-08-19:15:47,10.1.1.4,37,0.070,0.070,0.070,0.000,0.000,0.000
1644347747487737856,2022-02-08-19:15:47,10.1.1.4,36,0.060,0.060,0.060,0.000,0.000,0.000
1644347747587686144,2022-02-08-19:15:47,10.1.1.4,36,0.050,0.050,0.050,0.000,0.000,0.000
1644347747687244800,2022-02-08-19:15:47,10.1.1.4,35,0.040,0.040,0.040,0.000,0.000,0.000
1644347747787853056,2022-02-08-19:15:47,10.1.1.4,35,0.030,0.030,0.030,0.000,0.000,0.000
1644347747887793152,2022-02-08-19:15:47,10.1.1.4,34,0.020,0.020,0.020,0.000,0.000,0.000
1644347747987915008,2022-02-08-19:15:47,10.1.1.4,34,0.010,0.010,0.010,0.000,0.000,0.000
1644347748087393024,2022-02-08-19:15:48,10.1.1.4,33,0.000,0.000,0.000,0.000,0.000,0.000
