FedericoMungari/DigitalTwin_service/01_WiredScenario/Output/Output_script/script_rosapi_2_output_robots8_freq0_7.txt
timestamp,date,node,latency,joint_1,joint_2,joint_3,joint_4,joint_5,joint_6
1644915526448808960,2022-02-15-08:58:46,10.1.1.8,14,-0.100,-0.100,-0.100,-0.000,-0.000,-0.000
1644915526509134080,2022-02-15-08:58:46,10.1.1.8,23,-0.090,-0.090,-0.090,0.000,0.000,0.000
1644915526809190912,2022-02-15-08:58:46,10.1.1.8,20,-0.030,-0.030,-0.030,0.000,0.000,0.000
1644915526931202816,2022-02-15-08:58:46,10.1.1.8,25,-0.010,-0.010,-0.010,0.000,0.000,0.000
1644915526989110016,2022-02-15-08:58:46,10.1.1.8,34,0.000,0.000,0.000,0.000,0.000,0.000
1644915527028646912,2022-02-15-08:58:47,10.1.1.8,23,0.010,0.010,0.010,0.000,0.000,0.000
1644915527089037824,2022-02-15-08:58:47,10.1.1.8,33,0.020,0.020,0.020,0.000,0.000,0.000
1644915527351651072,2022-02-15-08:58:47,10.1.1.8,39,0.070,0.070,0.070,0.000,0.000,0.000
1644915527389636096,2022-02-15-08:58:47,10.1.1.8,24,0.080,0.080,0.080,0.000,0.000,0.000
1644915527448882944,2022-02-15-08:58:47,10.1.1.8,33,0.090,0.090,0.090,0.000,0.000,0.000
1644915527529118976,2022-02-15-08:58:47,10.1.1.8,11,0.090,0.090,0.090,0.000,0.000,0.000
1644915527709629184,2022-02-15-08:58:47,10.1.1.8,39,0.060,0.060,0.060,0.000,0.000,0.000
1644915527748465152,2022-02-15-08:58:47,10.1.1.8,28,0.050,0.050,0.050,0.000,0.000,0.000
1644915527809242880,2022-02-15-08:58:47,10.1.1.8,37,0.040,0.040,0.040,0.000,0.000,0.000
1644915527849161984,2022-02-15-08:58:47,10.1.1.8,26,0.030,0.030,0.030,0.000,0.000,0.000
1644915527908766976,2022-02-15-08:58:47,10.1.1.8,36,0.020,0.020,0.020,0.000,0.000,0.000
1644915527948666112,2022-02-15-08:58:47,10.1.1.8,25,0.010,0.010,0.010,0.000,0.000,0.000
1644915528009329152,2022-02-15-08:58:48,10.1.1.8,34,0.000,0.000,0.000,0.000,0.000,0.000
1644915528048803072,2022-02-15-08:58:48,10.1.1.8,23,-0.010,-0.010,-0.010,0.000,0.000,0.000
1644915528369501184,2022-02-15-08:58:48,10.1.1.8,39,-0.070,-0.070,-0.070,0.000,0.000,0.000
1644915528409010944,2022-02-15-08:58:48,10.1.1.8,28,-0.080,-0.080,-0.080,0.000,0.000,0.000
1644915528468864000,2022-02-15-08:58:48,10.1.1.8,37,-0.090,-0.090,-0.090,0.000,0.000,0.000
1644915528509819904,2022-02-15-08:58:48,10.1.1.8,27,-0.100,-0.100,-0.100,0.000,0.000,0.000
1644915528569560064,2022-02-15-08:58:48,10.1.1.8,36,-0.090,-0.090,-0.090,0.000,0.000,0.000
1644915528609394944,2022-02-15-08:58:48,10.1.1.8,25,-0.080,-0.080,-0.080,0.000,0.000,0.000
1644915528668786944,2022-02-15-08:58:48,10.1.1.8,35,-0.070,-0.070,-0.070,0.000,0.000,0.000
1644915528709422080,2022-02-15-08:58:48,10.1.1.8,24,-0.060,-0.060,-0.060,0.000,0.000,0.000
1644915528769617920,2022-02-15-08:58:48,10.1.1.8,34,-0.050,-0.050,-0.050,0.000,0.000,0.000
1644915528809235200,2022-02-15-08:58:48,10.1.1.8,23,-0.040,-0.040,-0.040,0.000,0.000,0.000
1644915529069385984,2022-02-15-08:58:49,10.1.1.8,29,0.010,0.010,0.010,0.000,0.000,0.000
1644915529128993024,2022-02-15-08:58:49,10.1.1.8,39,0.020,0.020,0.020,0.000,0.000,0.000
1644915529169524992,2022-02-15-08:58:49,10.1.1.8,28,0.030,0.030,0.030,0.000,0.000,0.000
1644915529228431872,2022-02-15-08:58:49,10.1.1.8,38,0.040,0.040,0.040,0.000,0.000,0.000
1644915529269453056,2022-02-15-08:58:49,10.1.1.8,27,0.050,0.050,0.050,0.000,0.000,0.000
1644915529329318912,2022-02-15-08:58:49,10.1.1.8,36,0.060,0.060,0.060,0.000,0.000,0.000
1644915529369544960,2022-02-15-08:58:49,10.1.1.8,26,0.070,0.070,0.070,0.000,0.000,0.000
1644915529528630016,2022-02-15-08:58:49,10.1.1.8,30,0.100,0.100,0.100,0.000,0.000,0.000
1644915529588764928,2022-02-15-08:58:49,10.1.1.8,39,0.090,0.090,0.090,0.000,0.000,0.000
1644915529629678080,2022-02-15-08:58:49,10.1.1.8,29,0.080,0.080,0.080,0.000,0.000,0.000
1644915529689182976,2022-02-15-08:58:49,10.1.1.8,38,0.070,0.070,0.070,0.000,0.000,0.000
1644915529729246976,2022-02-15-08:58:49,10.1.1.8,27,0.060,0.060,0.060,0.000,0.000,0.000
1644915529788573952,2022-02-15-08:58:49,10.1.1.8,37,0.050,0.050,0.050,0.000,0.000,0.000
1644915529829318912,2022-02-15-08:58:49,10.1.1.8,26,0.040,0.040,0.040,0.000,0.000,0.000
1644915529889168896,2022-02-15-08:58:49,10.1.1.8,35,0.030,0.030,0.030,0.000,0.000,0.000
1644915529929178880,2022-02-15-08:58:49,10.1.1.8,23,0.020,0.020,0.020,0.000,0.000,0.000
1644915530228972032,2022-02-15-08:58:50,10.1.1.8,20,-0.040,-0.040,-0.040,0.000,0.000,0.000
1644915530349628928,2022-02-15-08:58:50,10.1.1.8,39,-0.060,-0.060,-0.060,0.000,0.000,0.000
1644915530389026048,2022-02-15-08:58:50,10.1.1.8,27,-0.070,-0.070,-0.070,0.000,0.000,0.000
1644915530449139968,2022-02-15-08:58:50,10.1.1.8,36,-0.080,-0.080,-0.080,0.000,0.000,0.000
1644915530489114880,2022-02-15-08:58:50,10.1.1.8,26,-0.090,-0.090,-0.090,0.000,0.000,0.000
1644915530548549888,2022-02-15-08:58:50,10.1.1.8,36,-0.100,-0.100,-0.100,0.000,0.000,0.000
1644915530589160960,2022-02-15-08:58:50,10.1.1.8,25,-0.090,-0.090,-0.090,0.000,0.000,0.000
1644915530648692992,2022-02-15-08:58:50,10.1.1.8,35,-0.080,-0.080,-0.080,0.000,0.000,0.000
1644915530688994048,2022-02-15-08:58:50,10.1.1.8,24,-0.070,-0.070,-0.070,0.000,0.000,0.000
1644915530748622848,2022-02-15-08:58:50,10.1.1.8,33,-0.060,-0.060,-0.060,0.000,0.000,0.000
1644915530948983808,2022-02-15-08:58:50,10.1.1.8,28,-0.020,-0.020,-0.020,0.000,0.000,0.000
1644915531008471040,2022-02-15-08:58:51,10.1.1.8,37,-0.010,-0.010,-0.010,0.000,0.000,0.000
1644915531049415168,2022-02-15-08:58:51,10.1.1.8,26,0.000,0.000,0.000,0.000,0.000,0.000
1644915531108773888,2022-02-15-08:58:51,10.1.1.8,36,0.010,0.010,0.010,0.000,0.000,0.000
1644915531149033984,2022-02-15-08:58:51,10.1.1.8,25,0.020,0.020,0.020,0.000,0.000,0.000
1644915531209011200,2022-02-15-08:58:51,10.1.1.8,35,0.030,0.030,0.030,0.000,0.000,0.000
1644915531249053952,2022-02-15-08:58:51,10.1.1.8,24,0.040,0.040,0.040,0.000,0.000,0.000
1644915531348454912,2022-02-15-08:58:51,10.1.1.8,23,0.060,0.060,0.060,0.000,0.000,0.000
1644915531508448000,2022-02-15-08:58:51,10.1.1.8,29,0.090,0.090,0.090,0.000,0.000,0.000
1644915531568865024,2022-02-15-08:58:51,10.1.1.8,37,0.100,0.100,0.100,0.000,0.000,0.000
1644915531609240064,2022-02-15-08:58:51,10.1.1.8,26,0.090,0.090,0.090,0.000,0.000,0.000
1644915531669137920,2022-02-15-08:58:51,10.1.1.8,36,0.080,0.080,0.080,0.000,0.000,0.000
1644915531708559872,2022-02-15-08:58:51,10.1.1.8,25,0.070,0.070,0.070,0.000,0.000,0.000
1644915532028433152,2022-02-15-08:58:52,10.1.1.8,39,0.010,0.010,0.010,0.000,0.000,0.000
1644915532069156864,2022-02-15-08:58:52,10.1.1.8,28,0.000,0.000,0.000,0.000,0.000,0.000
1644915532129091072,2022-02-15-08:58:52,10.1.1.8,38,-0.010,-0.010,-0.010,0.000,0.000,0.000
1644915532168847104,2022-02-15-08:58:52,10.1.1.8,23,-0.020,-0.020,-0.020,0.000,0.000,0.000
1644915532529481984,2022-02-15-08:58:52,10.1.1.8,28,-0.090,-0.090,-0.090,0.000,0.000,0.000
1644915532589103104,2022-02-15-08:58:52,10.1.1.8,36,-0.100,-0.100,-0.100,0.000,0.000,0.000
1644915532628884992,2022-02-15-08:58:52,10.1.1.8,26,-0.090,-0.090,-0.090,0.000,0.000,0.000
1644915532689199872,2022-02-15-08:58:52,10.1.1.8,35,-0.080,-0.080,-0.080,0.000,0.000,0.000
1644915532728997888,2022-02-15-08:58:52,10.1.1.8,25,-0.070,-0.070,-0.070,0.000,0.000,0.000
1644915532788790016,2022-02-15-08:58:52,10.1.1.8,34,-0.060,-0.060,-0.060,0.000,0.000,0.000
1644915532829106176,2022-02-15-08:58:52,10.1.1.8,24,-0.050,-0.050,-0.050,0.000,0.000,0.000
1644915532889229056,2022-02-15-08:58:52,10.1.1.8,33,-0.040,-0.040,-0.040,0.000,0.000,0.000
1644915532988337920,2022-02-15-08:58:52,10.1.1.8,29,-0.020,-0.020,-0.020,0.000,0.000,0.000
1644915533049532928,2022-02-15-08:58:53,10.1.1.8,38,-0.010,-0.010,-0.010,0.000,0.000,0.000
1644915533089099008,2022-02-15-08:58:53,10.1.1.8,26,0.000,0.000,0.000,0.000,0.000,0.000
1644915533148989952,2022-02-15-08:58:53,10.1.1.8,36,0.010,0.010,0.010,0.000,0.000,0.000
1644915533188646144,2022-02-15-08:58:53,10.1.1.8,25,0.020,0.020,0.020,0.000,0.000,0.000
1644915533248557056,2022-02-15-08:58:53,10.1.1.8,35,0.030,0.030,0.030,0.000,0.000,0.000
1644915533289330944,2022-02-15-08:58:53,10.1.1.8,25,0.040,0.040,0.040,0.000,0.000,0.000
1644915533349107968,2022-02-15-08:58:53,10.1.1.8,34,0.050,0.050,0.050,0.000,0.000,0.000
1644915533389285120,2022-02-15-08:58:53,10.1.1.8,24,0.060,0.060,0.060,0.000,0.000,0.000
1644915533717334016,2022-02-15-08:58:53,10.1.1.8,36,0.080,0.080,0.080,0.000,0.000,0.000
1644915533748340992,2022-02-15-08:58:53,10.1.1.8,26,0.070,0.070,0.070,0.000,0.000,0.000
1644915533810956032,2022-02-15-08:58:53,10.1.1.8,34,0.060,0.060,0.060,0.000,0.000,0.000
1644915534429568000,2022-02-15-08:58:54,10.1.1.8,29,-0.060,-0.060,-0.060,0.000,0.000,0.000
1644915534491094016,2022-02-15-08:58:54,10.1.1.8,39,-0.070,-0.070,-0.070,0.000,0.000,0.000
1644915534528876032,2022-02-15-08:58:54,10.1.1.8,29,-0.080,-0.080,-0.080,0.000,0.000,0.000
1644915534588795904,2022-02-15-08:58:54,10.1.1.8,38,-0.090,-0.090,-0.090,0.000,0.000,0.000
1644915534628691968,2022-02-15-08:58:54,10.1.1.8,27,-0.100,-0.100,-0.100,0.000,0.000,0.000
1644915534688817152,2022-02-15-08:58:54,10.1.1.8,37,-0.090,-0.090,-0.090,0.000,0.000,0.000
1644915534728952832,2022-02-15-08:58:54,10.1.1.8,26,-0.080,-0.080,-0.080,0.000,0.000,0.000
1644915534788530176,2022-02-15-08:58:54,10.1.1.8,35,-0.070,-0.070,-0.070,0.000,0.000,0.000
1644915534828720128,2022-02-15-08:58:54,10.1.1.8,25,-0.060,-0.060,-0.060,0.000,0.000,0.000
1644915534888902912,2022-02-15-08:58:54,10.1.1.8,35,-0.050,-0.050,-0.050,0.000,0.000,0.000
1644915534929068032,2022-02-15-08:58:54,10.1.1.8,24,-0.040,-0.040,-0.040,0.000,0.000,0.000
1644915534989521152,2022-02-15-08:58:54,10.1.1.8,33,-0.030,-0.030,-0.030,0.000,0.000,0.000
1644915535029115904,2022-02-15-08:58:55,10.1.1.8,23,-0.020,-0.020,-0.020,0.000,0.000,0.000
1644915535349752832,2022-02-15-08:58:55,10.1.1.8,39,0.040,0.040,0.040,0.000,0.000,0.000
1644915535389564928,2022-02-15-08:58:55,10.1.1.8,29,0.050,0.050,0.050,0.000,0.000,0.000
1644915535448684032,2022-02-15-08:58:55,10.1.1.8,38,0.060,0.060,0.060,0.000,0.000,0.000
1644915535488717056,2022-02-15-08:58:55,10.1.1.8,28,0.070,0.070,0.070,0.000,0.000,0.000
1644915535548798976,2022-02-15-08:58:55,10.1.1.8,37,0.080,0.080,0.080,0.000,0.000,0.000
1644915535589181952,2022-02-15-08:58:55,10.1.1.8,26,0.090,0.090,0.090,0.000,0.000,0.000
1644915535648516864,2022-02-15-08:58:55,10.1.1.8,35,0.100,0.100,0.100,0.000,0.000,0.000
1644915535689165056,2022-02-15-08:58:55,10.1.1.8,25,0.090,0.090,0.090,0.000,0.000,0.000
1644915535749005056,2022-02-15-08:58:55,10.1.1.8,35,0.080,0.080,0.080,0.000,0.000,0.000
1644915535789096192,2022-02-15-08:58:55,10.1.1.8,24,0.070,0.070,0.070,0.000,0.000,0.000
1644915535849149952,2022-02-15-08:58:55,10.1.1.8,34,0.060,0.060,0.060,0.000,0.000,0.000
1644915535889437952,2022-02-15-08:58:55,10.1.1.8,23,0.050,0.050,0.050,0.000,0.000,0.000
1644915536288430080,2022-02-15-08:58:56,10.1.1.8,20,-0.030,-0.030,-0.030,0.000,0.000,0.000
1644915536408193024,2022-02-15-08:58:56,10.1.1.8,39,-0.050,-0.050,-0.050,0.000,0.000,0.000
1644915536449178880,2022-02-15-08:58:56,10.1.1.8,28,-0.060,-0.060,-0.060,0.000,0.000,0.000
1644915536509272064,2022-02-15-08:58:56,10.1.1.8,38,-0.070,-0.070,-0.070,0.000,0.000,0.000
1644915536549138176,2022-02-15-08:58:56,10.1.1.8,27,-0.080,-0.080,-0.080,0.000,0.000,0.000
1644915536609373952,2022-02-15-08:58:56,10.1.1.8,37,-0.090,-0.090,-0.090,0.000,0.000,0.000
1644915536648855808,2022-02-15-08:58:56,10.1.1.8,26,-0.100,-0.100,-0.100,0.000,0.000,0.000
1644915536708931840,2022-02-15-08:58:56,10.1.1.8,36,-0.090,-0.090,-0.090,0.000,0.000,0.000
1644915536749201920,2022-02-15-08:58:56,10.1.1.8,25,-0.080,-0.080,-0.080,0.000,0.000,0.000
1644915536809317120,2022-02-15-08:58:56,10.1.1.8,35,-0.070,-0.070,-0.070,0.000,0.000,0.000
1644915536849054976,2022-02-15-08:58:56,10.1.1.8,24,-0.060,-0.060,-0.060,0.000,0.000,0.000
1644915536909379072,2022-02-15-08:58:56,10.1.1.8,34,-0.050,-0.050,-0.050,0.000,0.000,0.000
1644915536948896000,2022-02-15-08:58:56,10.1.1.8,23,-0.040,-0.040,-0.040,0.000,0.000,0.000
1644915537209187072,2022-02-15-08:58:57,10.1.1.8,29,0.010,0.010,0.010,0.000,0.000,0.000
1644915537268527872,2022-02-15-08:58:57,10.1.1.8,36,0.020,0.020,0.020,0.000,0.000,0.000
1644915537308711168,2022-02-15-08:58:57,10.1.1.8,26,0.030,0.030,0.030,0.000,0.000,0.000
1644915537369164032,2022-02-15-08:58:57,10.1.1.8,35,0.040,0.040,0.040,0.000,0.000,0.000
1644915537408996096,2022-02-15-08:58:57,10.1.1.8,25,0.050,0.050,0.050,0.000,0.000,0.000
1644915537468902144,2022-02-15-08:58:57,10.1.1.8,35,0.060,0.060,0.060,0.000,0.000,0.000
1644915537508716032,2022-02-15-08:58:57,10.1.1.8,24,0.070,0.070,0.070,0.000,0.000,0.000
1644915537609004032,2022-02-15-08:58:57,10.1.1.8,23,0.090,0.090,0.090,0.000,0.000,0.000
1644915537736013824,2022-02-15-08:58:57,10.1.1.8,1,0.090,0.090,0.090,0.000,0.000,0.000
1644915537828985088,2022-02-15-08:58:57,10.1.1.8,20,0.070,0.070,0.070,0.000,0.000,0.000
1644915537889116928,2022-02-15-08:58:57,10.1.1.8,29,0.060,0.060,0.060,0.000,0.000,0.000
1644915537949100032,2022-02-15-08:58:57,10.1.1.8,37,0.050,0.050,0.050,0.000,0.000,0.000
1644915537990320896,2022-02-15-08:58:57,10.1.1.8,26,0.040,0.040,0.040,0.000,0.000,0.000
1644915538049264896,2022-02-15-08:58:58,10.1.1.8,35,0.030,0.030,0.030,0.000,0.000,0.000
1644915538088919040,2022-02-15-08:58:58,10.1.1.8,25,0.020,0.020,0.020,0.000,0.000,0.000
1644915538148961024,2022-02-15-08:58:58,10.1.1.8,34,0.010,0.010,0.010,0.000,0.000,0.000
1644915538189203968,2022-02-15-08:58:58,10.1.1.8,23,0.000,0.000,0.000,0.000,0.000,0.000
1644915538568681984,2022-02-15-08:58:58,10.1.1.8,29,-0.070,-0.070,-0.070,0.000,0.000,0.000
1644915538629748992,2022-02-15-08:58:58,10.1.1.8,35,-0.080,-0.080,-0.080,0.000,0.000,0.000
1644915538668890880,2022-02-15-08:58:58,10.1.1.8,25,-0.090,-0.090,-0.090,0.000,0.000,0.000
1644915538729188864,2022-02-15-08:58:58,10.1.1.8,34,-0.100,-0.100,-0.100,0.000,0.000,0.000
1644915538769933824,2022-02-15-08:58:58,10.1.1.8,23,-0.090,-0.090,-0.090,0.000,0.000,0.000
1644915539030055168,2022-02-15-08:58:59,10.1.1.8,30,-0.040,-0.040,-0.040,0.000,0.000,0.000
1644915539089651200,2022-02-15-08:58:59,10.1.1.8,39,-0.030,-0.030,-0.030,0.000,0.000,0.000
1644915539129306112,2022-02-15-08:58:59,10.1.1.8,28,-0.020,-0.020,-0.020,0.000,0.000,0.000
1644915539189541120,2022-02-15-08:58:59,10.1.1.8,37,-0.010,-0.010,-0.010,0.000,0.000,0.000
1644915539229559808,2022-02-15-08:58:59,10.1.1.8,26,0.000,0.000,0.000,0.000,0.000,0.000
1644915539289634048,2022-02-15-08:58:59,10.1.1.8,36,0.010,0.010,0.010,0.000,0.000,0.000
1644915539328717056,2022-02-15-08:58:59,10.1.1.8,25,0.020,0.020,0.020,0.000,0.000,0.000
1644915539390452992,2022-02-15-08:58:59,10.1.1.8,34,0.030,0.030,0.030,0.000,0.000,0.000
1644915539428877056,2022-02-15-08:58:59,10.1.1.8,24,0.040,0.040,0.040,0.000,0.000,0.000
1644915539488871168,2022-02-15-08:58:59,10.1.1.8,33,0.050,0.050,0.050,0.000,0.000,0.000
1644915539750895872,2022-02-15-08:58:59,10.1.1.8,39,0.100,0.100,0.100,0.000,0.000,0.000
1644915539789678080,2022-02-15-08:58:59,10.1.1.8,29,0.090,0.090,0.090,0.000,0.000,0.000
1644915539849118976,2022-02-15-08:58:59,10.1.1.8,38,0.080,0.080,0.080,0.000,0.000,0.000
1644915539889745920,2022-02-15-08:58:59,10.1.1.8,27,0.070,0.070,0.070,0.000,0.000,0.000
1644915539950375168,2022-02-15-08:58:59,10.1.1.8,36,0.060,0.060,0.060,0.000,0.000,0.000
1644915539989264128,2022-02-15-08:58:59,10.1.1.8,26,0.050,0.050,0.050,0.000,0.000,0.000
1644915540049440000,2022-02-15-08:59:00,10.1.1.8,35,0.040,0.040,0.040,0.000,0.000,0.000
1644915540089266176,2022-02-15-08:59:00,10.1.1.8,25,0.030,0.030,0.030,0.000,0.000,0.000
1644915540149369856,2022-02-15-08:59:00,10.1.1.8,33,0.020,0.020,0.020,0.000,0.000,0.000
1644915540371846912,2022-02-15-08:59:00,10.1.1.8,39,-0.020,-0.020,-0.020,0.000,0.000,0.000
1644915540409826048,2022-02-15-08:59:00,10.1.1.8,28,-0.030,-0.030,-0.030,0.000,0.000,0.000
1644915540468796928,2022-02-15-08:59:00,10.1.1.8,36,-0.040,-0.040,-0.040,0.000,0.000,0.000
1644915540509074944,2022-02-15-08:59:00,10.1.1.8,26,-0.050,-0.050,-0.050,0.000,0.000,0.000
1644915540568867840,2022-02-15-08:59:00,10.1.1.8,35,-0.060,-0.060,-0.060,0.000,0.000,0.000
1644915540609332992,2022-02-15-08:59:00,10.1.1.8,25,-0.070,-0.070,-0.070,0.000,0.000,0.000
1644915540668806144,2022-02-15-08:59:00,10.1.1.8,34,-0.080,-0.080,-0.080,0.000,0.000,0.000
1644915540708704000,2022-02-15-08:59:00,10.1.1.8,23,-0.090,-0.090,-0.090,0.000,0.000,0.000
1644915540769364992,2022-02-15-08:59:00,10.1.1.8,33,-0.100,-0.100,-0.100,0.000,0.000,0.000
1644915541169661952,2022-02-15-08:59:01,10.1.1.8,30,-0.020,-0.020,-0.020,0.000,0.000,0.000
1644915541229604864,2022-02-15-08:59:01,10.1.1.8,39,-0.010,-0.010,-0.010,0.000,0.000,0.000
1644915541269248000,2022-02-15-08:59:01,10.1.1.8,28,0.000,0.000,0.000,0.000,0.000,0.000
1644915541329080064,2022-02-15-08:59:01,10.1.1.8,38,0.010,0.010,0.010,0.000,0.000,0.000
1644915541369167104,2022-02-15-08:59:01,10.1.1.8,27,0.020,0.020,0.020,0.000,0.000,0.000
1644915541429296128,2022-02-15-08:59:01,10.1.1.8,36,0.030,0.030,0.030,0.000,0.000,0.000
1644915541469115904,2022-02-15-08:59:01,10.1.1.8,26,0.040,0.040,0.040,0.000,0.000,0.000
1644915541528928000,2022-02-15-08:59:01,10.1.1.8,35,0.050,0.050,0.050,0.000,0.000,0.000
1644915541569312000,2022-02-15-08:59:01,10.1.1.8,26,0.060,0.060,0.060,0.000,0.000,0.000
1644915541629640192,2022-02-15-08:59:01,10.1.1.8,35,0.070,0.070,0.070,0.000,0.000,0.000
1644915541668776960,2022-02-15-08:59:01,10.1.1.8,24,0.080,0.080,0.080,0.000,0.000,0.000
1644915541729029888,2022-02-15-08:59:01,10.1.1.8,33,0.090,0.090,0.090,0.000,0.000,0.000
1644915541809165056,2022-02-15-08:59:01,10.1.1.8,11,0.090,0.090,0.090,0.000,0.000,0.000
1644915541929414912,2022-02-15-08:59:01,10.1.1.8,30,0.070,0.070,0.070,0.000,0.000,0.000
1644915541989357056,2022-02-15-08:59:01,10.1.1.8,39,0.060,0.060,0.060,0.000,0.000,0.000
1644915542041064960,2022-02-15-08:59:02,10.1.1.8,28,0.050,0.050,0.050,0.000,0.000,0.000
1644915542150411008,2022-02-15-08:59:02,10.1.1.8,28,0.030,0.030,0.030,0.000,0.000,0.000
1644915542209541120,2022-02-15-08:59:02,10.1.1.8,37,0.020,0.020,0.020,0.000,0.000,0.000
1644915542248590848,2022-02-15-08:59:02,10.1.1.8,26,0.010,0.010,0.010,0.000,0.000,0.000
1644915542309083904,2022-02-15-08:59:02,10.1.1.8,36,0.000,0.000,0.000,0.000,0.000,0.000
1644915542348802048,2022-02-15-08:59:02,10.1.1.8,26,-0.010,-0.010,-0.010,0.000,0.000,0.000
1644915542421587968,2022-02-15-08:59:02,10.1.1.8,34,-0.020,-0.020,-0.020,0.000,0.000,0.000
1644915542469299200,2022-02-15-08:59:02,10.1.1.8,39,-0.030,-0.030,-0.030,0.000,0.000,0.000
1644915542508809216,2022-02-15-08:59:02,10.1.1.8,28,-0.040,-0.040,-0.040,0.000,0.000,0.000
1644915542568705024,2022-02-15-08:59:02,10.1.1.8,38,-0.050,-0.050,-0.050,0.000,0.000,0.000
1644915542609185024,2022-02-15-08:59:02,10.1.1.8,27,-0.060,-0.060,-0.060,0.000,0.000,0.000
1644915542668792064,2022-02-15-08:59:02,10.1.1.8,36,-0.070,-0.070,-0.070,0.000,0.000,0.000
1644915542709036032,2022-02-15-08:59:02,10.1.1.8,26,-0.080,-0.080,-0.080,0.000,0.000,0.000
1644915542769068032,2022-02-15-08:59:02,10.1.1.8,36,-0.090,-0.090,-0.090,0.000,0.000,0.000
1644915542809063936,2022-02-15-08:59:02,10.1.1.8,25,-0.100,-0.100,-0.100,0.000,0.000,0.000
1644915542868707840,2022-02-15-08:59:02,10.1.1.8,35,-0.090,-0.090,-0.090,0.000,0.000,0.000
1644915542908720896,2022-02-15-08:59:02,10.1.1.8,24,-0.080,-0.080,-0.080,0.000,0.000,0.000
1644915543108663040,2022-02-15-08:59:03,10.1.1.8,35,-0.050,-0.050,-0.050,0.000,0.000,0.000
1644915543150494208,2022-02-15-08:59:03,10.1.1.8,25,-0.040,-0.040,-0.040,0.000,0.000,0.000
1644915543209274112,2022-02-15-08:59:03,10.1.1.8,34,-0.030,-0.030,-0.030,0.000,0.000,0.000
1644915543249010944,2022-02-15-08:59:03,10.1.1.8,24,-0.020,-0.020,-0.020,0.000,0.000,0.000
1644915543308864000,2022-02-15-08:59:03,10.1.1.8,33,-0.010,-0.010,-0.010,0.000,0.000,0.000
1644915543768807936,2022-02-15-08:59:03,10.1.1.8,39,0.080,0.080,0.080,0.000,0.000,0.000
1644915543875858176,2022-02-15-08:59:03,10.1.1.8,38,0.100,0.100,0.100,0.000,0.000,0.000
1644915543909102848,2022-02-15-08:59:03,10.1.1.8,23,0.090,0.090,0.090,0.000,0.000,0.000
1644915544010219008,2022-02-15-08:59:04,10.1.1.8,23,0.070,0.070,0.070,0.000,0.000,0.000
1644915544073648896,2022-02-15-08:59:04,10.1.1.8,23,0.060,0.060,0.060,0.000,0.000,0.000
1644915544428900864,2022-02-15-08:59:04,10.1.1.8,29,-0.010,-0.010,-0.010,0.000,0.000,0.000
1644915544490673152,2022-02-15-08:59:04,10.1.1.8,39,-0.020,-0.020,-0.020,0.000,0.000,0.000
1644915544529850112,2022-02-15-08:59:04,10.1.1.8,27,-0.030,-0.030,-0.030,0.000,0.000,0.000
1644915544588681984,2022-02-15-08:59:04,10.1.1.8,36,-0.040,-0.040,-0.040,0.000,0.000,0.000
1644915544628983040,2022-02-15-08:59:04,10.1.1.8,26,-0.050,-0.050,-0.050,0.000,0.000,0.000
1644915544689605888,2022-02-15-08:59:04,10.1.1.8,35,-0.060,-0.060,-0.060,0.000,0.000,0.000
1644915544728598016,2022-02-15-08:59:04,10.1.1.8,24,-0.070,-0.070,-0.070,0.000,0.000,0.000
1644915545028968192,2022-02-15-08:59:05,10.1.1.8,19,-0.070,-0.070,-0.070,0.000,0.000,0.000
1644915545089132032,2022-02-15-08:59:05,10.1.1.8,29,-0.060,-0.060,-0.060,0.000,0.000,0.000
1644915545148999936,2022-02-15-08:59:05,10.1.1.8,39,-0.050,-0.050,-0.050,0.000,0.000,0.000
1644915545188715008,2022-02-15-08:59:05,10.1.1.8,28,-0.040,-0.040,-0.040,0.000,0.000,0.000
1644915545249185024,2022-02-15-08:59:05,10.1.1.8,37,-0.030,-0.030,-0.030,0.000,0.000,0.000
1644915545289248000,2022-02-15-08:59:05,10.1.1.8,27,-0.020,-0.020,-0.020,0.000,0.000,0.000
1644915545349916928,2022-02-15-08:59:05,10.1.1.8,36,-0.010,-0.010,-0.010,0.000,0.000,0.000
1644915545388705024,2022-02-15-08:59:05,10.1.1.8,25,0.000,0.000,0.000,0.000,0.000,0.000
1644915545448960000,2022-02-15-08:59:05,10.1.1.8,34,0.010,0.010,0.010,0.000,0.000,0.000
1644915545489000960,2022-02-15-08:59:05,10.1.1.8,24,0.020,0.020,0.020,0.000,0.000,0.000
1644915545548815872,2022-02-15-08:59:05,10.1.1.8,34,0.030,0.030,0.030,0.000,0.000,0.000
1644915545588665088,2022-02-15-08:59:05,10.1.1.8,23,0.040,0.040,0.040,0.000,0.000,0.000
1644915545889283840,2022-02-15-08:59:05,10.1.1.8,20,0.100,0.100,0.100,0.000,0.000,0.000
1644915546009054976,2022-02-15-08:59:06,10.1.1.8,38,0.080,0.080,0.080,0.000,0.000,0.000
1644915546049289984,2022-02-15-08:59:06,10.1.1.8,28,0.070,0.070,0.070,0.000,0.000,0.000
1644915546108999936,2022-02-15-08:59:06,10.1.1.8,36,0.060,0.060,0.060,0.000,0.000,0.000
1644915546149081088,2022-02-15-08:59:06,10.1.1.8,25,0.050,0.050,0.050,0.000,0.000,0.000
1644915546209454080,2022-02-15-08:59:06,10.1.1.8,35,0.040,0.040,0.040,0.000,0.000,0.000
1644915546248737024,2022-02-15-08:59:06,10.1.1.8,25,0.030,0.030,0.030,0.000,0.000,0.000
1644915546308728832,2022-02-15-08:59:06,10.1.1.8,34,0.020,0.020,0.020,0.000,0.000,0.000
1644915546349252864,2022-02-15-08:59:06,10.1.1.8,24,0.010,0.010,0.010,0.000,0.000,0.000
1644915546409298944,2022-02-15-08:59:06,10.1.1.8,33,0.000,0.000,0.000,0.000,0.000,0.000
1644915546449107968,2022-02-15-08:59:06,10.1.1.8,23,-0.010,-0.010,-0.010,0.000,0.000,0.000
1644915546869248000,2022-02-15-08:59:06,10.1.1.8,39,-0.090,-0.090,-0.090,0.000,0.000,0.000
1644915546909065984,2022-02-15-08:59:06,10.1.1.8,28,-0.100,-0.100,-0.100,0.000,0.000,0.000
1644915546968897024,2022-02-15-08:59:06,10.1.1.8,37,-0.090,-0.090,-0.090,0.000,0.000,0.000
1644915547009327872,2022-02-15-08:59:07,10.1.1.8,27,-0.080,-0.080,-0.080,0.000,0.000,0.000
1644915547069426944,2022-02-15-08:59:07,10.1.1.8,36,-0.070,-0.070,-0.070,0.000,0.000,0.000
1644915547109468928,2022-02-15-08:59:07,10.1.1.8,26,-0.060,-0.060,-0.060,0.000,0.000,0.000
1644915547168536064,2022-02-15-08:59:07,10.1.1.8,35,-0.050,-0.050,-0.050,0.000,0.000,0.000
1644915547209206016,2022-02-15-08:59:07,10.1.1.8,25,-0.040,-0.040,-0.040,0.000,0.000,0.000
1644915547268609024,2022-02-15-08:59:07,10.1.1.8,34,-0.030,-0.030,-0.030,0.000,0.000,0.000
1644915547309510912,2022-02-15-08:59:07,10.1.1.8,23,-0.020,-0.020,-0.020,0.000,0.000,0.000
1644915547508869888,2022-02-15-08:59:07,10.1.1.8,19,0.020,0.020,0.020,0.000,0.000,0.000
1644915547568655872,2022-02-15-08:59:07,10.1.1.8,29,0.030,0.030,0.030,0.000,0.000,0.000
1644915547629371904,2022-02-15-08:59:07,10.1.1.8,38,0.040,0.040,0.040,0.000,0.000,0.000
1644915547672705024,2022-02-15-08:59:07,10.1.1.8,27,0.050,0.050,0.050,0.000,0.000,0.000
1644915547730706944,2022-02-15-08:59:07,10.1.1.8,36,0.060,0.060,0.060,0.000,0.000,0.000
1644915547769065984,2022-02-15-08:59:07,10.1.1.8,25,0.070,0.070,0.070,0.000,0.000,0.000
1644915547829726976,2022-02-15-08:59:07,10.1.1.8,35,0.080,0.080,0.080,0.000,0.000,0.000
1644915547868659968,2022-02-15-08:59:07,10.1.1.8,24,0.090,0.090,0.090,0.000,0.000,0.000
1644915547929021952,2022-02-15-08:59:07,10.1.1.8,34,0.100,0.100,0.100,0.000,0.000,0.000
1644915547968961024,2022-02-15-08:59:07,10.1.1.8,23,0.090,0.090,0.090,0.000,0.000,0.000
1644915548329766144,2022-02-15-08:59:08,10.1.1.8,29,0.020,0.020,0.020,0.000,0.000,0.000
1644915548389053952,2022-02-15-08:59:08,10.1.1.8,39,0.010,0.010,0.010,0.000,0.000,0.000
1644915548429022976,2022-02-15-08:59:08,10.1.1.8,29,0.000,0.000,0.000,0.000,0.000,0.000
1644915548488557056,2022-02-15-08:59:08,10.1.1.8,38,-0.010,-0.010,-0.010,0.000,0.000,0.000
1644915548529050112,2022-02-15-08:59:08,10.1.1.8,27,-0.020,-0.020,-0.020,0.000,0.000,0.000
1644915548588962048,2022-02-15-08:59:08,10.1.1.8,36,-0.030,-0.030,-0.030,0.000,0.000,0.000
1644915548629268992,2022-02-15-08:59:08,10.1.1.8,26,-0.040,-0.040,-0.040,0.000,0.000,0.000
1644915548689063168,2022-02-15-08:59:08,10.1.1.8,36,-0.050,-0.050,-0.050,0.000,0.000,0.000
1644915548729264128,2022-02-15-08:59:08,10.1.1.8,25,-0.060,-0.060,-0.060,0.000,0.000,0.000
1644915548789468928,2022-02-15-08:59:08,10.1.1.8,35,-0.070,-0.070,-0.070,0.000,0.000,0.000
1644915548828572160,2022-02-15-08:59:08,10.1.1.8,24,-0.080,-0.080,-0.080,0.000,0.000,0.000
1644915548888765952,2022-02-15-08:59:08,10.1.1.8,34,-0.090,-0.090,-0.090,0.000,0.000,0.000
1644915548929233920,2022-02-15-08:59:08,10.1.1.8,23,-0.100,-0.100,-0.100,0.000,0.000,0.000
1644915549228580864,2022-02-15-08:59:09,10.1.1.8,20,-0.040,-0.040,-0.040,0.000,0.000,0.000
1644915549288718080,2022-02-15-08:59:09,10.1.1.8,29,-0.030,-0.030,-0.030,0.000,0.000,0.000
1644915549349323008,2022-02-15-08:59:09,10.1.1.8,39,-0.020,-0.020,-0.020,0.000,0.000,0.000
1644915549391969792,2022-02-15-08:59:09,10.1.1.8,28,-0.010,-0.010,-0.010,0.000,0.000,0.000
1644915549458964992,2022-02-15-08:59:09,10.1.1.8,36,0.000,0.000,0.000,0.000,0.000,0.000
1644915549488965120,2022-02-15-08:59:09,10.1.1.8,26,0.010,0.010,0.010,0.000,0.000,0.000
1644915549548667904,2022-02-15-08:59:09,10.1.1.8,35,0.020,0.020,0.020,0.000,0.000,0.000
1644915549589061120,2022-02-15-08:59:09,10.1.1.8,24,0.030,0.030,0.030,0.000,0.000,0.000
1644915549949234944,2022-02-15-08:59:09,10.1.1.8,29,0.100,0.100,0.100,0.000,0.000,0.000
1644915550369265152,2022-02-15-08:59:10,10.1.1.8,29,0.020,0.020,0.020,0.000,0.000,0.000
1644915550428772096,2022-02-15-08:59:10,10.1.1.8,37,0.010,0.010,0.010,0.000,0.000,0.000
1644915550469320960,2022-02-15-08:59:10,10.1.1.8,25,0.000,0.000,0.000,0.000,0.000,0.000
1644915550528431872,2022-02-15-08:59:10,10.1.1.8,35,-0.010,-0.010,-0.010,0.000,0.000,0.000
1644915550568454912,2022-02-15-08:59:10,10.1.1.8,24,-0.020,-0.020,-0.020,0.000,0.000,0.000
1644915550828677888,2022-02-15-08:59:10,10.1.1.8,28,-0.070,-0.070,-0.070,0.000,0.000,0.000
1644915550889168128,2022-02-15-08:59:10,10.1.1.8,37,-0.080,-0.080,-0.080,0.000,0.000,0.000
1644915550929529856,2022-02-15-08:59:10,10.1.1.8,26,-0.090,-0.090,-0.090,0.000,0.000,0.000
1644915550988982016,2022-02-15-08:59:10,10.1.1.8,35,-0.100,-0.100,-0.100,0.000,0.000,0.000
1644915551029009152,2022-02-15-08:59:11,10.1.1.8,24,-0.090,-0.090,-0.090,0.000,0.000,0.000
1644915551088980992,2022-02-15-08:59:11,10.1.1.8,34,-0.080,-0.080,-0.080,0.000,0.000,0.000
1644915551288496896,2022-02-15-08:59:11,10.1.1.8,29,-0.040,-0.040,-0.040,0.000,0.000,0.000
1644915551349529856,2022-02-15-08:59:11,10.1.1.8,39,-0.030,-0.030,-0.030,0.000,0.000,0.000
1644915551389036800,2022-02-15-08:59:11,10.1.1.8,28,-0.020,-0.020,-0.020,0.000,0.000,0.000
1644915551449076992,2022-02-15-08:59:11,10.1.1.8,37,-0.010,-0.010,-0.010,0.000,0.000,0.000
1644915551489423104,2022-02-15-08:59:11,10.1.1.8,27,0.000,0.000,0.000,0.000,0.000,0.000
1644915551550322944,2022-02-15-08:59:11,10.1.1.8,36,0.010,0.010,0.010,0.000,0.000,0.000
1644915551769305856,2022-02-15-08:59:11,10.1.1.8,29,0.050,0.050,0.050,0.000,0.000,0.000
1644915551829616128,2022-02-15-08:59:11,10.1.1.8,39,0.060,0.060,0.060,0.000,0.000,0.000
1644915551929435136,2022-02-15-08:59:11,10.1.1.8,37,0.080,0.080,0.080,0.000,0.000,0.000
1644915551969018880,2022-02-15-08:59:11,10.1.1.8,25,0.090,0.090,0.090,0.000,0.000,0.000
1644915552028752128,2022-02-15-08:59:12,10.1.1.8,35,0.100,0.100,0.100,0.000,0.000,0.000
1644915552069670912,2022-02-15-08:59:12,10.1.1.8,25,0.090,0.090,0.090,0.000,0.000,0.000
1644915552128922112,2022-02-15-08:59:12,10.1.1.8,34,0.080,0.080,0.080,0.000,0.000,0.000
1644915552169114112,2022-02-15-08:59:12,10.1.1.8,23,0.070,0.070,0.070,0.000,0.000,0.000
1644915552328710144,2022-02-15-08:59:12,10.1.1.8,29,0.040,0.040,0.040,0.000,0.000,0.000
1644915552389138944,2022-02-15-08:59:12,10.1.1.8,38,0.030,0.030,0.030,0.000,0.000,0.000
1644915552429317888,2022-02-15-08:59:12,10.1.1.8,28,0.020,0.020,0.020,0.000,0.000,0.000
1644915552489271040,2022-02-15-08:59:12,10.1.1.8,37,0.010,0.010,0.010,0.000,0.000,0.000
1644915552530713088,2022-02-15-08:59:12,10.1.1.8,26,0.000,0.000,0.000,0.000,0.000,0.000
1644915552629394944,2022-02-15-08:59:12,10.1.1.8,19,-0.020,-0.020,-0.020,0.000,0.000,0.000
1644915552689281024,2022-02-15-08:59:12,10.1.1.8,28,-0.030,-0.030,-0.030,0.000,0.000,0.000
1644915552749259008,2022-02-15-08:59:12,10.1.1.8,37,-0.040,-0.040,-0.040,0.000,0.000,0.000
1644915552789362944,2022-02-15-08:59:12,10.1.1.8,26,-0.050,-0.050,-0.050,0.000,0.000,0.000
1644915552849024000,2022-02-15-08:59:12,10.1.1.8,36,-0.060,-0.060,-0.060,0.000,0.000,0.000
1644915552889502976,2022-02-15-08:59:12,10.1.1.8,25,-0.070,-0.070,-0.070,0.000,0.000,0.000
1644915553149240064,2022-02-15-08:59:13,10.1.1.8,36,-0.090,-0.090,-0.090,0.000,0.000,0.000
1644915553189483008,2022-02-15-08:59:13,10.1.1.8,24,-0.080,-0.080,-0.080,0.000,0.000,0.000
1644915553249097984,2022-02-15-08:59:13,10.1.1.8,33,-0.070,-0.070,-0.070,0.000,0.000,0.000
1644915553489185024,2022-02-15-08:59:13,10.1.1.8,20,-0.020,-0.020,-0.020,0.000,0.000,0.000
1644915553608995840,2022-02-15-08:59:13,10.1.1.8,37,0.000,0.000,0.000,0.000,0.000,0.000
1644915553648921088,2022-02-15-08:59:13,10.1.1.8,27,0.010,0.010,0.010,0.000,0.000,0.000
1644915553709577984,2022-02-15-08:59:13,10.1.1.8,36,0.020,0.020,0.020,0.000,0.000,0.000
1644915553751557120,2022-02-15-08:59:13,10.1.1.8,25,0.030,0.030,0.030,0.000,0.000,0.000
1644915554149434112,2022-02-15-08:59:14,10.1.1.8,20,0.090,0.090,0.090,0.000,0.000,0.000
1644915554209341952,2022-02-15-08:59:14,10.1.1.8,29,0.080,0.080,0.080,0.000,0.000,0.000
1644915554323993088,2022-02-15-08:59:14,10.1.1.8,25,0.060,0.060,0.060,0.000,0.000,0.000
1644915554368750080,2022-02-15-08:59:14,10.1.1.8,33,0.050,0.050,0.050,0.000,0.000,0.000
1644915554629021952,2022-02-15-08:59:14,10.1.1.8,36,0.000,0.000,0.000,0.000,0.000,0.000
1644915554668962048,2022-02-15-08:59:14,10.1.1.8,25,-0.010,-0.010,-0.010,0.000,0.000,0.000
1644915554729213952,2022-02-15-08:59:14,10.1.1.8,35,-0.020,-0.020,-0.020,0.000,0.000,0.000
1644915554769062144,2022-02-15-08:59:14,10.1.1.8,24,-0.030,-0.030,-0.030,0.000,0.000,0.000
1644915554829071104,2022-02-15-08:59:14,10.1.1.8,34,-0.040,-0.040,-0.040,0.000,0.000,0.000
1644915554888973056,2022-02-15-08:59:14,10.1.1.8,43,-0.050,-0.050,-0.050,0.000,0.000,0.000
1644915555348980992,2022-02-15-08:59:15,10.1.1.8,29,-0.070,-0.070,-0.070,0.000,0.000,0.000
1644915555408989952,2022-02-15-08:59:15,10.1.1.8,38,-0.060,-0.060,-0.060,0.000,0.000,0.000
1644915555449351936,2022-02-15-08:59:15,10.1.1.8,27,-0.050,-0.050,-0.050,0.000,0.000,0.000
1644915555509186048,2022-02-15-08:59:15,10.1.1.8,36,-0.040,-0.040,-0.040,0.000,0.000,0.000
1644915555548908032,2022-02-15-08:59:15,10.1.1.8,26,-0.030,-0.030,-0.030,0.000,0.000,0.000
1644915555609292032,2022-02-15-08:59:15,10.1.1.8,36,-0.020,-0.020,-0.020,0.000,0.000,0.000
1644915555649199872,2022-02-15-08:59:15,10.1.1.8,25,-0.010,-0.010,-0.010,0.000,0.000,0.000
1644915555708954112,2022-02-15-08:59:15,10.1.1.8,34,0.000,0.000,0.000,0.000,0.000,0.000
1644915555753089792,2022-02-15-08:59:15,10.1.1.8,26,0.010,0.010,0.010,0.000,0.000,0.000
1644915555909666048,2022-02-15-08:59:15,10.1.1.8,28,0.040,0.040,0.040,0.000,0.000,0.000
1644915556072134144,2022-02-15-08:59:16,10.1.1.8,36,0.070,0.070,0.070,0.000,0.000,0.000
1644915556170697984,2022-02-15-08:59:16,10.1.1.8,34,0.090,0.090,0.090,0.000,0.000,0.000
1644915556213783040,2022-02-15-08:59:16,10.1.1.8,24,0.100,0.100,0.100,0.000,0.000,0.000
1644915556471273984,2022-02-15-08:59:16,10.1.1.8,30,0.050,0.050,0.050,0.000,0.000,0.000
1644915556531830016,2022-02-15-08:59:16,10.1.1.8,38,0.040,0.040,0.040,0.000,0.000,0.000
1644915556569292032,2022-02-15-08:59:16,10.1.1.8,27,0.030,0.030,0.030,0.000,0.000,0.000
1644915556675868160,2022-02-15-08:59:16,10.1.1.8,31,0.010,0.010,0.010,0.000,0.000,0.000
1644915556730420992,2022-02-15-08:59:16,10.1.1.8,33,0.000,0.000,0.000,0.000,0.000,0.000
1644915556930185984,2022-02-15-08:59:16,10.1.1.8,29,-0.040,-0.040,-0.040,0.000,0.000,0.000
1644915556995002112,2022-02-15-08:59:16,10.1.1.8,38,-0.050,-0.050,-0.050,0.000,0.000,0.000
1644915557388935936,2022-02-15-08:59:17,10.1.1.8,28,-0.070,-0.070,-0.070,0.000,0.000,0.000
1644915557450345984,2022-02-15-08:59:17,10.1.1.8,39,-0.060,-0.060,-0.060,0.000,0.000,0.000
1644915557489244928,2022-02-15-08:59:17,10.1.1.8,27,-0.050,-0.050,-0.050,0.000,0.000,0.000
1644915557549485824,2022-02-15-08:59:17,10.1.1.8,37,-0.040,-0.040,-0.040,0.000,0.000,0.000
1644915557589577984,2022-02-15-08:59:17,10.1.1.8,26,-0.030,-0.030,-0.030,0.000,0.000,0.000
1644915557650456064,2022-02-15-08:59:17,10.1.1.8,36,-0.020,-0.020,-0.020,0.000,0.000,0.000
1644915557690659072,2022-02-15-08:59:17,10.1.1.8,25,-0.010,-0.010,-0.010,0.000,0.000,0.000
1644915557749635072,2022-02-15-08:59:17,10.1.1.8,34,0.000,0.000,0.000,0.000,0.000,0.000
1644915557850403072,2022-02-15-08:59:17,10.1.1.8,32,0.020,0.020,0.020,0.000,0.000,0.000
1644915557949344000,2022-02-15-08:59:17,10.1.1.8,29,0.040,0.040,0.040,0.000,0.000,0.000
1644915558008920064,2022-02-15-08:59:18,10.1.1.8,38,0.050,0.050,0.050,0.000,0.000,0.000
1644915558049699072,2022-02-15-08:59:18,10.1.1.8,26,0.060,0.060,0.060,0.000,0.000,0.000
1644915558110016000,2022-02-15-08:59:18,10.1.1.8,36,0.070,0.070,0.070,0.000,0.000,0.000
1644915558148902912,2022-02-15-08:59:18,10.1.1.8,25,0.080,0.080,0.080,0.000,0.000,0.000
1644915558209338880,2022-02-15-08:59:18,10.1.1.8,34,0.090,0.090,0.090,0.000,0.000,0.000
1644915558249256960,2022-02-15-08:59:18,10.1.1.8,23,0.100,0.100,0.100,0.000,0.000,0.000
1644915558409868032,2022-02-15-08:59:18,10.1.1.8,29,0.070,0.070,0.070,0.000,0.000,0.000
1644915558469299200,2022-02-15-08:59:18,10.1.1.8,38,0.060,0.060,0.060,0.000,0.000,0.000
1644915558509819136,2022-02-15-08:59:18,10.1.1.8,27,0.050,0.050,0.050,0.000,0.000,0.000
1644915558569881088,2022-02-15-08:59:18,10.1.1.8,37,0.040,0.040,0.040,0.000,0.000,0.000
1644915558609153024,2022-02-15-08:59:18,10.1.1.8,25,0.030,0.030,0.030,0.000,0.000,0.000
1644915558669657856,2022-02-15-08:59:18,10.1.1.8,34,0.020,0.020,0.020,0.000,0.000,0.000
1644915558709000192,2022-02-15-08:59:18,10.1.1.8,24,0.010,0.010,0.010,0.000,0.000,0.000
1644915558768999936,2022-02-15-08:59:18,10.1.1.8,33,0.000,0.000,0.000,0.000,0.000,0.000
1644915558929757184,2022-02-15-08:59:18,10.1.1.8,39,-0.030,-0.030,-0.030,0.000,0.000,0.000
1644915558969414912,2022-02-15-08:59:18,10.1.1.8,25,-0.040,-0.040,-0.040,0.000,0.000,0.000
1644915559030103808,2022-02-15-08:59:19,10.1.1.8,35,-0.050,-0.050,-0.050,0.000,0.000,0.000
1644915559069165056,2022-02-15-08:59:19,10.1.1.8,24,-0.060,-0.060,-0.060,0.000,0.000,0.000
1644915559389287936,2022-02-15-08:59:19,10.1.1.8,38,-0.080,-0.080,-0.080,0.000,0.000,0.000
1644915559429519872,2022-02-15-08:59:19,10.1.1.8,28,-0.070,-0.070,-0.070,0.000,0.000,0.000
1644915559490616064,2022-02-15-08:59:19,10.1.1.8,37,-0.060,-0.060,-0.060,0.000,0.000,0.000
1644915559530159872,2022-02-15-08:59:19,10.1.1.8,25,-0.050,-0.050,-0.050,0.000,0.000,0.000
1644915559589419008,2022-02-15-08:59:19,10.1.1.8,34,-0.040,-0.040,-0.040,0.000,0.000,0.000
1644915559804489984,2022-02-15-08:59:19,10.1.1.8,27,0.000,0.000,0.000,0.000,0.000,0.000
1644915559849911040,2022-02-15-08:59:19,10.1.1.8,36,0.010,0.010,0.010,0.000,0.000,0.000
1644915559889383936,2022-02-15-08:59:19,10.1.1.8,23,0.020,0.020,0.020,0.000,0.000,0.000
1644915560149550080,2022-02-15-08:59:20,10.1.1.8,29,0.070,0.070,0.070,0.000,0.000,0.000
1644915560209117952,2022-02-15-08:59:20,10.1.1.8,37,0.080,0.080,0.080,0.000,0.000,0.000
1644915560249485056,2022-02-15-08:59:20,10.1.1.8,26,0.090,0.090,0.090,0.000,0.000,0.000
1644915560309602048,2022-02-15-08:59:20,10.1.1.8,35,0.100,0.100,0.100,0.000,0.000,0.000
1644915560357980928,2022-02-15-08:59:20,10.1.1.8,25,0.090,0.090,0.090,0.000,0.000,0.000
1644915560708948992,2022-02-15-08:59:20,10.1.1.8,29,0.020,0.020,0.020,0.000,0.000,0.000
1644915560769300992,2022-02-15-08:59:20,10.1.1.8,38,0.010,0.010,0.010,0.000,0.000,0.000
1644915560809292032,2022-02-15-08:59:20,10.1.1.8,28,0.000,0.000,0.000,0.000,0.000,0.000
1644915560869008896,2022-02-15-08:59:20,10.1.1.8,35,-0.010,-0.010,-0.010,0.000,0.000,0.000
1644915560909127936,2022-02-15-08:59:20,10.1.1.8,24,-0.020,-0.020,-0.020,0.000,0.000,0.000
1644915561069006080,2022-02-15-08:59:21,10.1.1.8,29,-0.050,-0.050,-0.050,0.000,0.000,0.000
1644915561129033984,2022-02-15-08:59:21,10.1.1.8,36,-0.060,-0.060,-0.060,0.000,0.000,0.000
1644915561169207040,2022-02-15-08:59:21,10.1.1.8,24,-0.070,-0.070,-0.070,0.000,0.000,0.000
1644915561269665024,2022-02-15-08:59:21,10.1.1.8,20,-0.090,-0.090,-0.090,0.000,0.000,0.000
1644915561329276160,2022-02-15-08:59:21,10.1.1.8,28,-0.100,-0.100,-0.100,0.000,0.000,0.000
1644915561389876992,2022-02-15-08:59:21,10.1.1.8,37,-0.090,-0.090,-0.090,0.000,0.000,0.000
1644915561428915968,2022-02-15-08:59:21,10.1.1.8,27,-0.080,-0.080,-0.080,0.000,0.000,0.000
1644915561501643776,2022-02-15-08:59:21,10.1.1.8,30,-0.070,-0.070,-0.070,0.000,0.000,0.000
1644915561549936128,2022-02-15-08:59:21,10.1.1.8,36,-0.060,-0.060,-0.060,0.000,0.000,0.000
1644915561615483904,2022-02-15-08:59:21,10.1.1.8,35,-0.050,-0.050,-0.050,0.000,0.000,0.000
1644915561649363968,2022-02-15-08:59:21,10.1.1.8,23,-0.040,-0.040,-0.040,0.000,0.000,0.000
1644915561769220096,2022-02-15-08:59:21,10.1.1.8,37,-0.020,-0.020,-0.020,0.000,0.000,0.000
1644915561809760000,2022-02-15-08:59:21,10.1.1.8,26,-0.010,-0.010,-0.010,0.000,0.000,0.000
1644915561868779008,2022-02-15-08:59:21,10.1.1.8,35,0.000,0.000,0.000,0.000,0.000,0.000
1644915561909477120,2022-02-15-08:59:21,10.1.1.8,24,0.010,0.010,0.010,0.000,0.000,0.000
1644915562069549056,2022-02-15-08:59:22,10.1.1.8,29,0.040,0.040,0.040,0.000,0.000,0.000
1644915562130137088,2022-02-15-08:59:22,10.1.1.8,39,0.050,0.050,0.050,0.000,0.000,0.000
1644915562169564928,2022-02-15-08:59:22,10.1.1.8,27,0.060,0.060,0.060,0.000,0.000,0.000
1644915562229513984,2022-02-15-08:59:22,10.1.1.8,37,0.070,0.070,0.070,0.000,0.000,0.000
1644915562269422080,2022-02-15-08:59:22,10.1.1.8,26,0.080,0.080,0.080,0.000,0.000,0.000
1644915562329090048,2022-02-15-08:59:22,10.1.1.8,33,0.090,0.090,0.090,0.000,0.000,0.000
1644915562411098112,2022-02-15-08:59:22,10.1.1.8,11,0.090,0.090,0.090,0.000,0.000,0.000
1644915562528801792,2022-02-15-08:59:22,10.1.1.8,29,0.070,0.070,0.070,0.000,0.000,0.000
1644915562589072896,2022-02-15-08:59:22,10.1.1.8,39,0.060,0.060,0.060,0.000,0.000,0.000
1644915562630071040,2022-02-15-08:59:22,10.1.1.8,28,0.050,0.050,0.050,0.000,0.000,0.000
1644915562689351936,2022-02-15-08:59:22,10.1.1.8,37,0.040,0.040,0.040,0.000,0.000,0.000
1644915562729171968,2022-02-15-08:59:22,10.1.1.8,26,0.030,0.030,0.030,0.000,0.000,0.000
1644915562789791232,2022-02-15-08:59:22,10.1.1.8,35,0.020,0.020,0.020,0.000,0.000,0.000
1644915562994738944,2022-02-15-08:59:22,10.1.1.8,29,-0.020,-0.020,-0.020,0.000,0.000,0.000
1644915563050632960,2022-02-15-08:59:23,10.1.1.8,39,-0.030,-0.030,-0.030,0.000,0.000,0.000
1644915563094010112,2022-02-15-08:59:23,10.1.1.8,28,-0.040,-0.040,-0.040,0.000,0.000,0.000
1644915563160360192,2022-02-15-08:59:23,10.1.1.8,26,-0.050,-0.050,-0.050,0.000,0.000,0.000
1644915563209795840,2022-02-15-08:59:23,10.1.1.8,35,-0.060,-0.060,-0.060,0.000,0.000,0.000
1644915563249562880,2022-02-15-08:59:23,10.1.1.8,25,-0.070,-0.070,-0.070,0.000,0.000,0.000
1644915563534117888,2022-02-15-08:59:23,10.1.1.8,0,-0.070,-0.070,-0.070,0.000,0.000,0.000
1644915563668745984,2022-02-15-08:59:23,10.1.1.8,38,-0.050,-0.050,-0.050,0.000,0.000,0.000
1644915563869126912,2022-02-15-08:59:23,10.1.1.8,35,-0.020,-0.020,-0.020,0.000,0.000,0.000
1644915563910244096,2022-02-15-08:59:23,10.1.1.8,24,-0.010,-0.010,-0.010,0.000,0.000,0.000
1644915564329336832,2022-02-15-08:59:24,10.1.1.8,27,0.070,0.070,0.070,0.000,0.000,0.000
1644915564389523968,2022-02-15-08:59:24,10.1.1.8,36,0.080,0.080,0.080,0.000,0.000,0.000
1644915564429257984,2022-02-15-08:59:24,10.1.1.8,25,0.090,0.090,0.090,0.000,0.000,0.000
1644915564489711104,2022-02-15-08:59:24,10.1.1.8,35,0.100,0.100,0.100,0.000,0.000,0.000
1644915564529992960,2022-02-15-08:59:24,10.1.1.8,24,0.090,0.090,0.090,0.000,0.000,0.000
1644915564589445120,2022-02-15-08:59:24,10.1.1.8,34,0.080,0.080,0.080,0.000,0.000,0.000
1644915564630747136,2022-02-15-08:59:24,10.1.1.8,23,0.070,0.070,0.070,0.000,0.000,0.000
1644915564789026048,2022-02-15-08:59:24,10.1.1.8,29,0.040,0.040,0.040,0.000,0.000,0.000
1644915564849637120,2022-02-15-08:59:24,10.1.1.8,39,0.030,0.030,0.030,0.000,0.000,0.000
1644915564893734912,2022-02-15-08:59:24,10.1.1.8,28,0.020,0.020,0.020,0.000,0.000,0.000
1644915565049336832,2022-02-15-08:59:25,10.1.1.8,30,-0.010,-0.010,-0.010,0.000,0.000,0.000
1644915565109634048,2022-02-15-08:59:25,10.1.1.8,38,-0.020,-0.020,-0.020,0.000,0.000,0.000
1644915565149342976,2022-02-15-08:59:25,10.1.1.8,27,-0.030,-0.030,-0.030,0.000,0.000,0.000
1644915565209483008,2022-02-15-08:59:25,10.1.1.8,37,-0.040,-0.040,-0.040,0.000,0.000,0.000
1644915565249243904,2022-02-15-08:59:25,10.1.1.8,26,-0.050,-0.050,-0.050,0.000,0.000,0.000
1644915565309291008,2022-02-15-08:59:25,10.1.1.8,36,-0.060,-0.060,-0.060,0.000,0.000,0.000
1644915565349122048,2022-02-15-08:59:25,10.1.1.8,24,-0.070,-0.070,-0.070,0.000,0.000,0.000
1644915565515825920,2022-02-15-08:59:25,10.1.1.8,36,-0.090,-0.090,-0.090,0.000,0.000,0.000
1644915565558617088,2022-02-15-08:59:25,10.1.1.8,33,-0.100,-0.100,-0.100,0.000,0.000,0.000
1644915565949761024,2022-02-15-08:59:25,10.1.1.8,26,-0.030,-0.030,-0.030,0.000,0.000,0.000
1644915566009166848,2022-02-15-08:59:26,10.1.1.8,35,-0.020,-0.020,-0.020,0.000,0.000,0.000
1644915566049304064,2022-02-15-08:59:26,10.1.1.8,24,-0.010,-0.010,-0.010,0.000,0.000,0.000
1644915566229090816,2022-02-15-08:59:26,10.1.1.8,35,0.020,0.020,0.020,0.000,0.000,0.000
1644915566269203968,2022-02-15-08:59:26,10.1.1.8,25,0.030,0.030,0.030,0.000,0.000,0.000
1644915566369057024,2022-02-15-08:59:26,10.1.1.8,24,0.050,0.050,0.050,0.000,0.000,0.000
1644915566430091008,2022-02-15-08:59:26,10.1.1.8,33,0.060,0.060,0.060,0.000,0.000,0.000
1644915566629885952,2022-02-15-08:59:26,10.1.1.8,30,0.100,0.100,0.100,0.000,0.000,0.000
1644915566689019904,2022-02-15-08:59:26,10.1.1.8,39,0.090,0.090,0.090,0.000,0.000,0.000
1644915566729462016,2022-02-15-08:59:26,10.1.1.8,28,0.080,0.080,0.080,0.000,0.000,0.000
1644915566949256960,2022-02-15-08:59:26,10.1.1.8,39,0.040,0.040,0.040,0.000,0.000,0.000
1644915566989267968,2022-02-15-08:59:26,10.1.1.8,29,0.030,0.030,0.030,0.000,0.000,0.000
1644915567053389056,2022-02-15-08:59:27,10.1.1.8,38,0.020,0.020,0.020,0.000,0.000,0.000
1644915567089120000,2022-02-15-08:59:27,10.1.1.8,26,0.010,0.010,0.010,0.000,0.000,0.000
1644915567149346048,2022-02-15-08:59:27,10.1.1.8,36,0.000,0.000,0.000,0.000,0.000,0.000
1644915567189736960,2022-02-15-08:59:27,10.1.1.8,25,-0.010,-0.010,-0.010,0.000,0.000,0.000
1644915567249147904,2022-02-15-08:59:27,10.1.1.8,34,-0.020,-0.020,-0.020,0.000,0.000,0.000
1644915567289176832,2022-02-15-08:59:27,10.1.1.8,24,-0.030,-0.030,-0.030,0.000,0.000,0.000
1644915567780347136,2022-02-15-08:59:27,10.1.1.8,38,-0.080,-0.080,-0.080,0.000,0.000,0.000
1644915568035494144,2022-02-15-08:59:28,10.1.1.8,36,-0.030,-0.030,-0.030,0.000,0.000,0.000
1644915568113846016,2022-02-15-08:59:28,10.1.1.8,25,-0.020,-0.020,-0.020,0.000,0.000,0.000
1644915568157760000,2022-02-15-08:59:28,10.1.1.8,34,-0.010,-0.010,-0.010,0.000,0.000,0.000
1644915568196300032,2022-02-15-08:59:28,10.1.1.8,23,0.000,0.000,0.000,0.000,0.000,0.000
1644915568349526016,2022-02-15-08:59:28,10.1.1.8,26,0.030,0.030,0.030,0.000,0.000,0.000
1644915568376136192,2022-02-15-08:59:28,10.1.1.8,-6,0.030,0.030,0.030,0.000,0.000,0.000
1644915568456926976,2022-02-15-08:59:28,10.1.1.8,24,0.050,0.050,0.050,0.000,0.000,0.000
1644915568622643968,2022-02-15-08:59:28,10.1.1.8,25,0.080,0.080,0.080,0.000,0.000,0.000
1644915568669317888,2022-02-15-08:59:28,10.1.1.8,34,0.090,0.090,0.090,0.000,0.000,0.000
1644915568729216000,2022-02-15-08:59:28,10.1.1.8,35,0.100,0.100,0.100,0.000,0.000,0.000
1644915568769642240,2022-02-15-08:59:28,10.1.1.8,25,0.090,0.090,0.090,0.000,0.000,0.000
1644915568874896128,2022-02-15-08:59:28,10.1.1.8,23,0.070,0.070,0.070,0.000,0.000,0.000
1644915568929584128,2022-02-15-08:59:28,10.1.1.8,33,0.060,0.060,0.060,0.000,0.000,0.000
1644915569169416960,2022-02-15-08:59:29,10.1.1.8,20,0.010,0.010,0.010,0.000,0.000,0.000
1644915569229048064,2022-02-15-08:59:29,10.1.1.8,29,0.000,0.000,0.000,0.000,0.000,0.000
1644915569289505024,2022-02-15-08:59:29,10.1.1.8,39,-0.010,-0.010,-0.010,0.000,0.000,0.000
1644915569332956160,2022-02-15-08:59:29,10.1.1.8,28,-0.020,-0.020,-0.020,0.000,0.000,0.000
1644915569389697024,2022-02-15-08:59:29,10.1.1.8,37,-0.030,-0.030,-0.030,0.000,0.000,0.000
1644915569428925952,2022-02-15-08:59:29,10.1.1.8,26,-0.040,-0.040,-0.040,0.000,0.000,0.000
1644915569649739008,2022-02-15-08:59:29,10.1.1.8,38,-0.080,-0.080,-0.080,0.000,0.000,0.000
1644915569695291904,2022-02-15-08:59:29,10.1.1.8,28,-0.090,-0.090,-0.090,0.000,0.000,0.000
1644915569789548032,2022-02-15-08:59:29,10.1.1.8,27,-0.090,-0.090,-0.090,0.000,0.000,0.000
1644915570009769984,2022-02-15-08:59:30,10.1.1.8,39,-0.050,-0.050,-0.050,0.000,0.000,0.000
1644915570048744960,2022-02-15-08:59:30,10.1.1.8,28,-0.040,-0.040,-0.040,0.000,0.000,0.000
1644915570109304832,2022-02-15-08:59:30,10.1.1.8,38,-0.030,-0.030,-0.030,0.000,0.000,0.000
1644915570153558016,2022-02-15-08:59:30,10.1.1.8,28,-0.020,-0.020,-0.020,0.000,0.000,0.000
1644915570210074880,2022-02-15-08:59:30,10.1.1.8,37,-0.010,-0.010,-0.010,0.000,0.000,0.000
1644915570253249024,2022-02-15-08:59:30,10.1.1.8,26,0.000,0.000,0.000,0.000,0.000,0.000
1644915570309676032,2022-02-15-08:59:30,10.1.1.8,36,0.010,0.010,0.010,0.000,0.000,0.000
1644915570349996032,2022-02-15-08:59:30,10.1.1.8,25,0.020,0.020,0.020,0.000,0.000,0.000
1644915570423494144,2022-02-15-08:59:30,10.1.1.8,34,0.030,0.030,0.030,0.000,0.000,0.000
1644915570509340160,2022-02-15-08:59:30,10.1.1.8,27,0.050,0.050,0.050,0.000,0.000,0.000
1644915570569704960,2022-02-15-08:59:30,10.1.1.8,34,0.060,0.060,0.060,0.000,0.000,0.000
1644915570615747072,2022-02-15-08:59:30,10.1.1.8,24,0.070,0.070,0.070,0.000,0.000,0.000
1644915570675385856,2022-02-15-08:59:30,10.1.1.8,33,0.080,0.080,0.080,0.000,0.000,0.000
1644915570729785856,2022-02-15-08:59:30,10.1.1.8,35,0.090,0.090,0.090,0.000,0.000,0.000
1644915570769893888,2022-02-15-08:59:30,10.1.1.8,23,0.100,0.100,0.100,0.000,0.000,0.000
1644915570832624896,2022-02-15-08:59:30,10.1.1.8,30,0.090,0.090,0.090,0.000,0.000,0.000
1644915570889204992,2022-02-15-08:59:30,10.1.1.8,39,0.080,0.080,0.080,0.000,0.000,0.000
1644915570929956864,2022-02-15-08:59:30,10.1.1.8,24,0.070,0.070,0.070,0.000,0.000,0.000
1644915571249288192,2022-02-15-08:59:31,10.1.1.8,38,0.010,0.010,0.010,0.000,0.000,0.000
1644915571289401088,2022-02-15-08:59:31,10.1.1.8,28,0.000,0.000,0.000,0.000,0.000,0.000
1644915571349052928,2022-02-15-08:59:31,10.1.1.8,36,-0.010,-0.010,-0.010,0.000,0.000,0.000
1644915571389370880,2022-02-15-08:59:31,10.1.1.8,26,-0.020,-0.020,-0.020,0.000,0.000,0.000
1644915571449477888,2022-02-15-08:59:31,10.1.1.8,36,-0.030,-0.030,-0.030,0.000,0.000,0.000
1644915571494427904,2022-02-15-08:59:31,10.1.1.8,24,-0.040,-0.040,-0.040,0.000,0.000,0.000
1644915571549523200,2022-02-15-08:59:31,10.1.1.8,34,-0.050,-0.050,-0.050,0.000,0.000,0.000
1644915571809089024,2022-02-15-08:59:31,10.1.1.8,35,-0.100,-0.100,-0.100,0.000,0.000,0.000
1644915571850807808,2022-02-15-08:59:31,10.1.1.8,25,-0.090,-0.090,-0.090,0.000,0.000,0.000
1644915571909408000,2022-02-15-08:59:31,10.1.1.8,35,-0.080,-0.080,-0.080,0.000,0.000,0.000
1644915572108918016,2022-02-15-08:59:32,10.1.1.8,29,-0.040,-0.040,-0.040,0.000,0.000,0.000
1644915572168941056,2022-02-15-08:59:32,10.1.1.8,38,-0.030,-0.030,-0.030,0.000,0.000,0.000
1644915572208997888,2022-02-15-08:59:32,10.1.1.8,26,-0.020,-0.020,-0.020,0.000,0.000,0.000
1644915572269435904,2022-02-15-08:59:32,10.1.1.8,36,-0.010,-0.010,-0.010,0.000,0.000,0.000
1644915572309129984,2022-02-15-08:59:32,10.1.1.8,25,0.000,0.000,0.000,0.000,0.000,0.000
1644915572369299968,2022-02-15-08:59:32,10.1.1.8,35,0.010,0.010,0.010,0.000,0.000,0.000
1644915572409037056,2022-02-15-08:59:32,10.1.1.8,24,0.020,0.020,0.020,0.000,0.000,0.000
1644915572683448064,2022-02-15-08:59:32,10.1.1.8,29,0.070,0.070,0.070,0.000,0.000,0.000
1644915572729062144,2022-02-15-08:59:32,10.1.1.8,36,0.080,0.080,0.080,0.000,0.000,0.000
1644915572909334016,2022-02-15-08:59:32,10.1.1.8,5,0.080,0.080,0.080,0.000,0.000,0.000
1644915572988976896,2022-02-15-08:59:32,10.1.1.8,34,0.070,0.070,0.070,0.000,0.000,0.000
1644915573028847104,2022-02-15-08:59:33,10.1.1.8,24,0.060,0.060,0.060,0.000,0.000,0.000
1644915573209328896,2022-02-15-08:59:33,10.1.1.8,28,0.030,0.030,0.030,0.000,0.000,0.000
1644915573269337856,2022-02-15-08:59:33,10.1.1.8,37,0.020,0.020,0.020,0.000,0.000,0.000
1644915573309537792,2022-02-15-08:59:33,10.1.1.8,26,0.010,0.010,0.010,0.000,0.000,0.000
1644915573369748224,2022-02-15-08:59:33,10.1.1.8,36,0.000,0.000,0.000,0.000,0.000,0.000
1644915573409895936,2022-02-15-08:59:33,10.1.1.8,26,-0.010,-0.010,-0.010,0.000,0.000,0.000
1644915573469837824,2022-02-15-08:59:33,10.1.1.8,35,-0.020,-0.020,-0.020,0.000,0.000,0.000
1644915573509465088,2022-02-15-08:59:33,10.1.1.8,25,-0.030,-0.030,-0.030,0.000,0.000,0.000
1644915573569558016,2022-02-15-08:59:33,10.1.1.8,35,-0.040,-0.040,-0.040,0.000,0.000,0.000
1644915573609168128,2022-02-15-08:59:33,10.1.1.8,24,-0.050,-0.050,-0.050,0.000,0.000,0.000
1644915573668549888,2022-02-15-08:59:33,10.1.1.8,34,-0.060,-0.060,-0.060,0.000,0.000,0.000
1644915573709165056,2022-02-15-08:59:33,10.1.1.8,23,-0.070,-0.070,-0.070,0.000,0.000,0.000
1644915573870036992,2022-02-15-08:59:33,10.1.1.8,29,-0.100,-0.100,-0.100,0.000,0.000,0.000
1644915573928976896,2022-02-15-08:59:33,10.1.1.8,35,-0.090,-0.090,-0.090,0.000,0.000,0.000
1644915574138263040,2022-02-15-08:59:34,10.1.1.8,27,-0.050,-0.050,-0.050,0.000,0.000,0.000
1644915574195666944,2022-02-15-08:59:34,10.1.1.8,35,-0.040,-0.040,-0.040,0.000,0.000,0.000
1644915574229986048,2022-02-15-08:59:34,10.1.1.8,24,-0.030,-0.030,-0.030,0.000,0.000,0.000
1644915574289577984,2022-02-15-08:59:34,10.1.1.8,27,-0.020,-0.020,-0.020,0.000,0.000,0.000
1644915574349387776,2022-02-15-08:59:34,10.1.1.8,35,-0.010,-0.010,-0.010,0.000,0.000,0.000
1644915574389867008,2022-02-15-08:59:34,10.1.1.8,25,0.000,0.000,0.000,0.000,0.000,0.000
1644915574449857024,2022-02-15-08:59:34,10.1.1.8,34,0.010,0.010,0.010,0.000,0.000,0.000
1644915574489462016,2022-02-15-08:59:34,10.1.1.8,23,0.020,0.020,0.020,0.000,0.000,0.000
1644915574608845056,2022-02-15-08:59:34,10.1.1.8,38,0.040,0.040,0.040,0.000,0.000,0.000
1644915574649388032,2022-02-15-08:59:34,10.1.1.8,25,0.050,0.050,0.050,0.000,0.000,0.000
1644915574709259008,2022-02-15-08:59:34,10.1.1.8,35,0.060,0.060,0.060,0.000,0.000,0.000
1644915574749633024,2022-02-15-08:59:34,10.1.1.8,24,0.070,0.070,0.070,0.000,0.000,0.000
1644915574869245952,2022-02-15-08:59:34,10.1.1.8,36,0.090,0.090,0.090,0.000,0.000,0.000
1644915574909657856,2022-02-15-08:59:34,10.1.1.8,23,0.100,0.100,0.100,0.000,0.000,0.000
1644915575069434880,2022-02-15-08:59:35,10.1.1.8,27,0.070,0.070,0.070,0.000,0.000,0.000
1644915575509434112,2022-02-15-08:59:35,10.1.1.8,37,-0.010,-0.010,-0.010,0.000,0.000,0.000
1644915575573204992,2022-02-15-08:59:35,10.1.1.8,27,-0.020,-0.020,-0.020,0.000,0.000,0.000
1644915575629177088,2022-02-15-08:59:35,10.1.1.8,37,-0.030,-0.030,-0.030,0.000,0.000,0.000
1644915575686512896,2022-02-15-08:59:35,10.1.1.8,26,-0.040,-0.040,-0.040,0.000,0.000,0.000
1644915575729593088,2022-02-15-08:59:35,10.1.1.8,35,-0.050,-0.050,-0.050,0.000,0.000,0.000
1644915575770225920,2022-02-15-08:59:35,10.1.1.8,24,-0.060,-0.060,-0.060,0.000,0.000,0.000
1644915576029515008,2022-02-15-08:59:36,10.1.1.8,28,-0.090,-0.090,-0.090,0.000,0.000,0.000
1644915576089165056,2022-02-15-08:59:36,10.1.1.8,35,-0.080,-0.080,-0.080,0.000,0.000,0.000
1644915576129406976,2022-02-15-08:59:36,10.1.1.8,23,-0.070,-0.070,-0.070,0.000,0.000,0.000
1644915576189334016,2022-02-15-08:59:36,10.1.1.8,33,-0.060,-0.060,-0.060,0.000,0.000,0.000
1644915576289377024,2022-02-15-08:59:36,10.1.1.8,29,-0.040,-0.040,-0.040,0.000,0.000,0.000
1644915576350946816,2022-02-15-08:59:36,10.1.1.8,36,-0.030,-0.030,-0.030,0.000,0.000,0.000
1644915576389694976,2022-02-15-08:59:36,10.1.1.8,26,-0.020,-0.020,-0.020,0.000,0.000,0.000
1644915576449146880,2022-02-15-08:59:36,10.1.1.8,36,-0.010,-0.010,-0.010,0.000,0.000,0.000
1644915576490659840,2022-02-15-08:59:36,10.1.1.8,25,0.000,0.000,0.000,0.000,0.000,0.000
1644915576549827072,2022-02-15-08:59:36,10.1.1.8,34,0.010,0.010,0.010,0.000,0.000,0.000
1644915576589297152,2022-02-15-08:59:36,10.1.1.8,24,0.020,0.020,0.020,0.000,0.000,0.000
1644915576649755904,2022-02-15-08:59:36,10.1.1.8,34,0.030,0.030,0.030,0.000,0.000,0.000
1644915576689764864,2022-02-15-08:59:36,10.1.1.8,23,0.040,0.040,0.040,0.000,0.000,0.000
1644915576813110016,2022-02-15-08:59:36,10.1.1.8,39,0.060,0.060,0.060,0.000,0.000,0.000
1644915576849865984,2022-02-15-08:59:36,10.1.1.8,27,0.070,0.070,0.070,0.000,0.000,0.000
1644915576909074944,2022-02-15-08:59:36,10.1.1.8,36,0.080,0.080,0.080,0.000,0.000,0.000
1644915576950237952,2022-02-15-08:59:36,10.1.1.8,25,0.090,0.090,0.090,0.000,0.000,0.000
1644915577029879040,2022-02-15-08:59:37,10.1.1.8,1,0.090,0.090,0.090,0.000,0.000,0.000
1644915577112550912,2022-02-15-08:59:37,10.1.1.8,29,0.080,0.080,0.080,0.000,0.000,0.000
1644915577174043904,2022-02-15-08:59:37,10.1.1.8,37,0.070,0.070,0.070,0.000,0.000,0.000
1644915577211076864,2022-02-15-08:59:37,10.1.1.8,26,0.060,0.060,0.060,0.000,0.000,0.000
1644915577269953024,2022-02-15-08:59:37,10.1.1.8,36,0.050,0.050,0.050,0.000,0.000,0.000
1644915577309362944,2022-02-15-08:59:37,10.1.1.8,25,0.040,0.040,0.040,0.000,0.000,0.000
1644915577370019840,2022-02-15-08:59:37,10.1.1.8,34,0.030,0.030,0.030,0.000,0.000,0.000
1644915577569896960,2022-02-15-08:59:37,10.1.1.8,27,-0.010,-0.010,-0.010,0.000,0.000,0.000
1644915577628873984,2022-02-15-08:59:37,10.1.1.8,36,-0.020,-0.020,-0.020,0.000,0.000,0.000
1644915577669831936,2022-02-15-08:59:37,10.1.1.8,25,-0.030,-0.030,-0.030,0.000,0.000,0.000
1644915577733513984,2022-02-15-08:59:37,10.1.1.8,35,-0.040,-0.040,-0.040,0.000,0.000,0.000
1644915577769680896,2022-02-15-08:59:37,10.1.1.8,24,-0.050,-0.050,-0.050,0.000,0.000,0.000
1644915578169004032,2022-02-15-08:59:38,10.1.1.8,29,-0.080,-0.080,-0.080,0.000,0.000,0.000
1644915578229403904,2022-02-15-08:59:38,10.1.1.8,39,-0.070,-0.070,-0.070,0.000,0.000,0.000
1644915578269581056,2022-02-15-08:59:38,10.1.1.8,28,-0.060,-0.060,-0.060,0.000,0.000,0.000
1644915578329801984,2022-02-15-08:59:38,10.1.1.8,38,-0.050,-0.050,-0.050,0.000,0.000,0.000
1644915578369415936,2022-02-15-08:59:38,10.1.1.8,28,-0.040,-0.040,-0.040,0.000,0.000,0.000
1644915578428966144,2022-02-15-08:59:38,10.1.1.8,37,-0.030,-0.030,-0.030,0.000,0.000,0.000
1644915578468935936,2022-02-15-08:59:38,10.1.1.8,26,-0.020,-0.020,-0.020,0.000,0.000,0.000
1644915578529378048,2022-02-15-08:59:38,10.1.1.8,36,-0.010,-0.010,-0.010,0.000,0.000,0.000
1644915578568873984,2022-02-15-08:59:38,10.1.1.8,25,0.000,0.000,0.000,0.000,0.000,0.000
1644915578629116160,2022-02-15-08:59:38,10.1.1.8,35,0.010,0.010,0.010,0.000,0.000,0.000
1644915578670031104,2022-02-15-08:59:38,10.1.1.8,25,0.020,0.020,0.020,0.000,0.000,0.000
1644915578729177088,2022-02-15-08:59:38,10.1.1.8,35,0.030,0.030,0.030,0.000,0.000,0.000
1644915578769485056,2022-02-15-08:59:38,10.1.1.8,24,0.040,0.040,0.040,0.000,0.000,0.000
1644915578828843008,2022-02-15-08:59:38,10.1.1.8,33,0.050,0.050,0.050,0.000,0.000,0.000
1644915578869324800,2022-02-15-08:59:38,10.1.1.8,23,0.060,0.060,0.060,0.000,0.000,0.000
1644915579259072000,2022-02-15-08:59:39,10.1.1.8,-22,0.060,0.060,0.060,0.000,0.000,0.000
1644915579329381888,2022-02-15-08:59:39,10.1.1.8,28,0.050,0.050,0.050,0.000,0.000,0.000
1644915579389128960,2022-02-15-08:59:39,10.1.1.8,37,0.040,0.040,0.040,0.000,0.000,0.000
1644915579429264896,2022-02-15-08:59:39,10.1.1.8,26,0.030,0.030,0.030,0.000,0.000,0.000
1644915579489437184,2022-02-15-08:59:39,10.1.1.8,36,0.020,0.020,0.020,0.000,0.000,0.000
1644915579529167872,2022-02-15-08:59:39,10.1.1.8,26,0.010,0.010,0.010,0.000,0.000,0.000
1644915579588844032,2022-02-15-08:59:39,10.1.1.8,35,0.000,0.000,0.000,0.000,0.000,0.000
1644915579709693952,2022-02-15-08:59:39,10.1.1.8,-57,-0.010,-0.010,-0.010,0.000,0.000,0.000
1644915580029555200,2022-02-15-08:59:40,10.1.1.8,39,-0.080,-0.080,-0.080,0.000,0.000,0.000
1644915580074970880,2022-02-15-08:59:40,10.1.1.8,28,-0.090,-0.090,-0.090,0.000,0.000,0.000
1644915580129709056,2022-02-15-08:59:40,10.1.1.8,38,-0.100,-0.100,-0.100,0.000,0.000,0.000
1644915580170135040,2022-02-15-08:59:40,10.1.1.8,27,-0.090,-0.090,-0.090,0.000,0.000,0.000
1644915580229538816,2022-02-15-08:59:40,10.1.1.8,37,-0.080,-0.080,-0.080,0.000,0.000,0.000
1644915580272704000,2022-02-15-08:59:40,10.1.1.8,26,-0.070,-0.070,-0.070,0.000,0.000,0.000
1644915580329881856,2022-02-15-08:59:40,10.1.1.8,35,-0.060,-0.060,-0.060,0.000,0.000,0.000
1644915580435676160,2022-02-15-08:59:40,10.1.1.8,34,-0.040,-0.040,-0.040,0.000,0.000,0.000
1644915580470073856,2022-02-15-08:59:40,10.1.1.8,24,-0.030,-0.030,-0.030,0.000,0.000,0.000
1644915580729434112,2022-02-15-08:59:40,10.1.1.8,30,0.020,0.020,0.020,0.000,0.000,0.000
1644915580790273024,2022-02-15-08:59:40,10.1.1.8,39,0.030,0.030,0.030,0.000,0.000,0.000
1644915580889362944,2022-02-15-08:59:40,10.1.1.8,38,0.040,0.040,0.040,0.000,0.000,0.000
1644915580928937984,2022-02-15-08:59:40,10.1.1.8,26,0.050,0.050,0.050,0.000,0.000,0.000
1644915580993886976,2022-02-15-08:59:40,10.1.1.8,35,0.060,0.060,0.060,0.000,0.000,0.000
1644915581189030912,2022-02-15-08:59:41,10.1.1.8,29,0.100,0.100,0.100,0.000,0.000,0.000
1644915581248984064,2022-02-15-08:59:41,10.1.1.8,35,0.090,0.090,0.090,0.000,0.000,0.000
1644915581289364992,2022-02-15-08:59:41,10.1.1.8,25,0.080,0.080,0.080,0.000,0.000,0.000
1644915581349634816,2022-02-15-08:59:41,10.1.1.8,34,0.070,0.070,0.070,0.000,0.000,0.000
1644915581393611008,2022-02-15-08:59:41,10.1.1.8,23,0.060,0.060,0.060,0.000,0.000,0.000
1644915581653321984,2022-02-15-08:59:41,10.1.1.8,27,0.010,0.010,0.010,0.000,0.000,0.000
1644915581709383936,2022-02-15-08:59:41,10.1.1.8,36,0.000,0.000,0.000,0.000,0.000,0.000
1644915581749783040,2022-02-15-08:59:41,10.1.1.8,25,-0.010,-0.010,-0.010,0.000,0.000,0.000
1644915581809520128,2022-02-15-08:59:41,10.1.1.8,34,-0.020,-0.020,-0.020,0.000,0.000,0.000
1644915581850766848,2022-02-15-08:59:41,10.1.1.8,23,-0.030,-0.030,-0.030,0.000,0.000,0.000
1644915582109639936,2022-02-15-08:59:42,10.1.1.8,26,-0.080,-0.080,-0.080,0.000,0.000,0.000
1644915582174563840,2022-02-15-08:59:42,10.1.1.8,34,-0.090,-0.090,-0.090,0.000,0.000,0.000
1644915582209402112,2022-02-15-08:59:42,10.1.1.8,23,-0.100,-0.100,-0.100,0.000,0.000,0.000
1644915582649498112,2022-02-15-08:59:42,10.1.1.8,36,-0.020,-0.020,-0.020,0.000,0.000,0.000
1644915582690308096,2022-02-15-08:59:42,10.1.1.8,26,-0.010,-0.010,-0.010,0.000,0.000,0.000
1644915582751305216,2022-02-15-08:59:42,10.1.1.8,34,0.000,0.000,0.000,0.000,0.000,0.000
1644915582789212928,2022-02-15-08:59:42,10.1.1.8,23,0.010,0.010,0.010,0.000,0.000,0.000
1644915582949393920,2022-02-15-08:59:42,10.1.1.8,29,0.040,0.040,0.040,0.000,0.000,0.000
1644915583009182976,2022-02-15-08:59:43,10.1.1.8,39,0.050,0.050,0.050,0.000,0.000,0.000
1644915583049207808,2022-02-15-08:59:43,10.1.1.8,27,0.060,0.060,0.060,0.000,0.000,0.000
1644915583109363968,2022-02-15-08:59:43,10.1.1.8,37,0.070,0.070,0.070,0.000,0.000,0.000
1644915583148914944,2022-02-15-08:59:43,10.1.1.8,26,0.080,0.080,0.080,0.000,0.000,0.000
1644915583209009920,2022-02-15-08:59:43,10.1.1.8,35,0.090,0.090,0.090,0.000,0.000,0.000
1644915583249317888,2022-02-15-08:59:43,10.1.1.8,24,0.100,0.100,0.100,0.000,0.000,0.000
1644915583309263104,2022-02-15-08:59:43,10.1.1.8,33,0.090,0.090,0.090,0.000,0.000,0.000
1644915583669528064,2022-02-15-08:59:43,10.1.1.8,39,0.020,0.020,0.020,0.000,0.000,0.000
1644915583709723904,2022-02-15-08:59:43,10.1.1.8,28,0.010,0.010,0.010,0.000,0.000,0.000
1644915583768752128,2022-02-15-08:59:43,10.1.1.8,38,0.000,0.000,0.000,0.000,0.000,0.000
1644915583809122048,2022-02-15-08:59:43,10.1.1.8,27,-0.010,-0.010,-0.010,0.000,0.000,0.000
1644915583884673024,2022-02-15-08:59:43,10.1.1.8,36,-0.020,-0.020,-0.020,0.000,0.000,0.000
1644915584129270016,2022-02-15-08:59:44,10.1.1.8,24,-0.060,-0.060,-0.060,0.000,0.000,0.000
1644915584189393152,2022-02-15-08:59:44,10.1.1.8,33,-0.070,-0.070,-0.070,0.000,0.000,0.000
1644915584449886208,2022-02-15-08:59:44,10.1.1.8,36,-0.080,-0.080,-0.080,0.000,0.000,0.000
1644915584609089024,2022-02-15-08:59:44,10.1.1.8,33,-0.050,-0.050,-0.050,0.000,0.000,0.000
1644915584829384960,2022-02-15-08:59:44,10.1.1.8,26,-0.010,-0.010,-0.010,0.000,0.000,0.000
1644915584889218048,2022-02-15-08:59:44,10.1.1.8,35,0.000,0.000,0.000,0.000,0.000,0.000
1644915584929178880,2022-02-15-08:59:44,10.1.1.8,25,0.010,0.010,0.010,0.000,0.000,0.000
1644915584989137920,2022-02-15-08:59:44,10.1.1.8,33,0.020,0.020,0.020,0.000,0.000,0.000
1644915585029916160,2022-02-15-08:59:45,10.1.1.8,23,0.030,0.030,0.030,0.000,0.000,0.000
1644915585389699840,2022-02-15-08:59:45,10.1.1.8,29,0.100,0.100,0.100,0.000,0.000,0.000
1644915585450125824,2022-02-15-08:59:45,10.1.1.8,38,0.090,0.090,0.090,0.000,0.000,0.000
1644915585489069056,2022-02-15-08:59:45,10.1.1.8,27,0.080,0.080,0.080,0.000,0.000,0.000
1644915585548806912,2022-02-15-08:59:45,10.1.1.8,37,0.070,0.070,0.070,0.000,0.000,0.000
1644915585612905984,2022-02-15-08:59:45,10.1.1.8,27,0.060,0.060,0.060,0.000,0.000,0.000
1644915585708996096,2022-02-15-08:59:45,10.1.1.8,34,0.040,0.040,0.040,0.000,0.000,0.000
1644915585749882880,2022-02-15-08:59:45,10.1.1.8,24,0.030,0.030,0.030,0.000,0.000,0.000
1644915585809179136,2022-02-15-08:59:45,10.1.1.8,34,0.020,0.020,0.020,0.000,0.000,0.000
1644915586268922112,2022-02-15-08:59:46,10.1.1.8,38,-0.070,-0.070,-0.070,0.000,0.000,0.000
1644915586309715968,2022-02-15-08:59:46,10.1.1.8,28,-0.080,-0.080,-0.080,0.000,0.000,0.000
1644915586369199872,2022-02-15-08:59:46,10.1.1.8,37,-0.090,-0.090,-0.090,0.000,0.000,0.000
1644915586409699072,2022-02-15-08:59:46,10.1.1.8,27,-0.100,-0.100,-0.100,0.000,0.000,0.000
1644915586468930048,2022-02-15-08:59:46,10.1.1.8,36,-0.090,-0.090,-0.090,0.000,0.000,0.000
1644915586508837888,2022-02-15-08:59:46,10.1.1.8,26,-0.080,-0.080,-0.080,0.000,0.000,0.000
1644915586569058816,2022-02-15-08:59:46,10.1.1.8,35,-0.070,-0.070,-0.070,0.000,0.000,0.000
1644915586769452032,2022-02-15-08:59:46,10.1.1.8,29,-0.030,-0.030,-0.030,0.000,0.000,0.000
1644915586829235968,2022-02-15-08:59:46,10.1.1.8,39,-0.020,-0.020,-0.020,0.000,0.000,0.000
1644915586869143040,2022-02-15-08:59:46,10.1.1.8,27,-0.010,-0.010,-0.010,0.000,0.000,0.000
1644915586929371136,2022-02-15-08:59:46,10.1.1.8,37,0.000,0.000,0.000,0.000,0.000,0.000
1644915586969236992,2022-02-15-08:59:46,10.1.1.8,26,0.010,0.010,0.010,0.000,0.000,0.000
1644915587029388032,2022-02-15-08:59:47,10.1.1.8,36,0.020,0.020,0.020,0.000,0.000,0.000
1644915587069464064,2022-02-15-08:59:47,10.1.1.8,24,0.030,0.030,0.030,0.000,0.000,0.000
1644915587228818944,2022-02-15-08:59:47,10.1.1.8,28,0.060,0.060,0.060,0.000,0.000,0.000
1644915587289419008,2022-02-15-08:59:47,10.1.1.8,38,0.070,0.070,0.070,0.000,0.000,0.000
1644915587329748992,2022-02-15-08:59:47,10.1.1.8,27,0.080,0.080,0.080,0.000,0.000,0.000
1644915587388897792,2022-02-15-08:59:47,10.1.1.8,36,0.090,0.090,0.090,0.000,0.000,0.000
1644915587430143232,2022-02-15-08:59:47,10.1.1.8,25,0.100,0.100,0.100,0.000,0.000,0.000
1644915587549325824,2022-02-15-08:59:47,10.1.1.8,39,0.080,0.080,0.080,0.000,0.000,0.000
1644915587589606912,2022-02-15-08:59:47,10.1.1.8,28,0.070,0.070,0.070,0.000,0.000,0.000
1644915587649574912,2022-02-15-08:59:47,10.1.1.8,37,0.060,0.060,0.060,0.000,0.000,0.000
1644915587689399040,2022-02-15-08:59:47,10.1.1.8,23,0.050,0.050,0.050,0.000,0.000,0.000
1644915587914149120,2022-02-15-08:59:47,10.1.1.8,38,0.010,0.010,0.010,0.000,0.000,0.000
1644915587949722880,2022-02-15-08:59:47,10.1.1.8,27,0.000,0.000,0.000,0.000,0.000,0.000
1644915588009722880,2022-02-15-08:59:48,10.1.1.8,37,-0.010,-0.010,-0.010,0.000,0.000,0.000
1644915588049325056,2022-02-15-08:59:48,10.1.1.8,26,-0.020,-0.020,-0.020,0.000,0.000,0.000
1644915588109405952,2022-02-15-08:59:48,10.1.1.8,35,-0.030,-0.030,-0.030,0.000,0.000,0.000
1644915588149097984,2022-02-15-08:59:48,10.1.1.8,25,-0.040,-0.040,-0.040,0.000,0.000,0.000
1644915588209506048,2022-02-15-08:59:48,10.1.1.8,34,-0.050,-0.050,-0.050,0.000,0.000,0.000
1644915588409095936,2022-02-15-08:59:48,10.1.1.8,29,-0.090,-0.090,-0.090,0.000,0.000,0.000
1644915588469985024,2022-02-15-08:59:48,10.1.1.8,38,-0.100,-0.100,-0.100,0.000,0.000,0.000
1644915588509031168,2022-02-15-08:59:48,10.1.1.8,28,-0.090,-0.090,-0.090,0.000,0.000,0.000
1644915588569473024,2022-02-15-08:59:48,10.1.1.8,37,-0.080,-0.080,-0.080,0.000,0.000,0.000
1644915588609142016,2022-02-15-08:59:48,10.1.1.8,26,-0.070,-0.070,-0.070,0.000,0.000,0.000
1644915588669063168,2022-02-15-08:59:48,10.1.1.8,36,-0.060,-0.060,-0.060,0.000,0.000,0.000
1644915588829596928,2022-02-15-08:59:48,10.1.1.8,38,-0.030,-0.030,-0.030,0.000,0.000,0.000
1644915588869352960,2022-02-15-08:59:48,10.1.1.8,26,-0.020,-0.020,-0.020,0.000,0.000,0.000
1644915588929522944,2022-02-15-08:59:48,10.1.1.8,36,-0.010,-0.010,-0.010,0.000,0.000,0.000
1644915588970097152,2022-02-15-08:59:48,10.1.1.8,25,0.000,0.000,0.000,0.000,0.000,0.000
1644915589028971008,2022-02-15-08:59:49,10.1.1.8,35,0.010,0.010,0.010,0.000,0.000,0.000
1644915589069020928,2022-02-15-08:59:49,10.1.1.8,24,0.020,0.020,0.020,0.000,0.000,0.000
1644915589129561856,2022-02-15-08:59:49,10.1.1.8,33,0.030,0.030,0.030,0.000,0.000,0.000
1644915589329030912,2022-02-15-08:59:49,10.1.1.8,29,0.070,0.070,0.070,0.000,0.000,0.000
1644915589389751808,2022-02-15-08:59:49,10.1.1.8,38,0.080,0.080,0.080,0.000,0.000,0.000
1644915589429243136,2022-02-15-08:59:49,10.1.1.8,28,0.090,0.090,0.090,0.000,0.000,0.000
1644915589525419008,2022-02-15-08:59:49,10.1.1.8,-35,0.090,0.090,0.090,0.000,0.000,0.000
1644915589609184000,2022-02-15-08:59:49,10.1.1.8,34,0.080,0.080,0.080,0.000,0.000,0.000
1644915589649696000,2022-02-15-08:59:49,10.1.1.8,23,0.070,0.070,0.070,0.000,0.000,0.000
1644915589809595136,2022-02-15-08:59:49,10.1.1.8,26,0.040,0.040,0.040,0.000,0.000,0.000
1644915589869335808,2022-02-15-08:59:49,10.1.1.8,36,0.030,0.030,0.030,0.000,0.000,0.000
1644915589909060864,2022-02-15-08:59:49,10.1.1.8,24,0.020,0.020,0.020,0.000,0.000,0.000
1644915589969163008,2022-02-15-08:59:49,10.1.1.8,33,0.010,0.010,0.010,0.000,0.000,0.000
1644915590349358080,2022-02-15-08:59:50,10.1.1.8,29,-0.060,-0.060,-0.060,0.000,0.000,0.000
1644915590409086976,2022-02-15-08:59:50,10.1.1.8,39,-0.070,-0.070,-0.070,0.000,0.000,0.000
1644915590449345024,2022-02-15-08:59:50,10.1.1.8,28,-0.080,-0.080,-0.080,0.000,0.000,0.000
1644915590509046016,2022-02-15-08:59:50,10.1.1.8,37,-0.090,-0.090,-0.090,0.000,0.000,0.000
1644915590549360896,2022-02-15-08:59:50,10.1.1.8,26,-0.100,-0.100,-0.100,0.000,0.000,0.000
1644915590608936192,2022-02-15-08:59:50,10.1.1.8,36,-0.090,-0.090,-0.090,0.000,0.000,0.000
1644915590648814848,2022-02-15-08:59:50,10.1.1.8,25,-0.080,-0.080,-0.080,0.000,0.000,0.000
1644915590709441792,2022-02-15-08:59:50,10.1.1.8,35,-0.070,-0.070,-0.070,0.000,0.000,0.000
1644915590749440000,2022-02-15-08:59:50,10.1.1.8,24,-0.060,-0.060,-0.060,0.000,0.000,0.000
1644915590909146112,2022-02-15-08:59:50,10.1.1.8,29,-0.030,-0.030,-0.030,0.000,0.000,0.000
1644915590969463040,2022-02-15-08:59:50,10.1.1.8,37,-0.020,-0.020,-0.020,0.000,0.000,0.000
1644915591009372928,2022-02-15-08:59:51,10.1.1.8,27,-0.010,-0.010,-0.010,0.000,0.000,0.000
1644915591069792000,2022-02-15-08:59:51,10.1.1.8,36,0.000,0.000,0.000,0.000,0.000,0.000
1644915591109131008,2022-02-15-08:59:51,10.1.1.8,25,0.010,0.010,0.010,0.000,0.000,0.000
1644915591169990912,2022-02-15-08:59:51,10.1.1.8,35,0.020,0.020,0.020,0.000,0.000,0.000
1644915591208893184,2022-02-15-08:59:51,10.1.1.8,24,0.030,0.030,0.030,0.000,0.000,0.000
1644915591269531904,2022-02-15-08:59:51,10.1.1.8,33,0.040,0.040,0.040,0.000,0.000,0.000
1644915591308676096,2022-02-15-08:59:51,10.1.1.8,22,0.050,0.050,0.050,0.000,0.000,0.000
1644915591529256960,2022-02-15-08:59:51,10.1.1.8,39,0.090,0.090,0.090,0.000,0.000,0.000
1644915591570415104,2022-02-15-08:59:51,10.1.1.8,29,0.100,0.100,0.100,0.000,0.000,0.000
1644915591629147904,2022-02-15-08:59:51,10.1.1.8,39,0.090,0.090,0.090,0.000,0.000,0.000
1644915591669187072,2022-02-15-08:59:51,10.1.1.8,28,0.080,0.080,0.080,0.000,0.000,0.000
1644915591729931008,2022-02-15-08:59:51,10.1.1.8,36,0.070,0.070,0.070,0.000,0.000,0.000
1644915591769198848,2022-02-15-08:59:51,10.1.1.8,25,0.060,0.060,0.060,0.000,0.000,0.000
1644915591830110976,2022-02-15-08:59:51,10.1.1.8,33,0.050,0.050,0.050,0.000,0.000,0.000
1644915591929357056,2022-02-15-08:59:51,10.1.1.8,24,0.030,0.030,0.030,0.000,0.000,0.000
1644915592149180928,2022-02-15-08:59:52,10.1.1.8,38,-0.010,-0.010,-0.010,0.000,0.000,0.000
1644915592189972992,2022-02-15-08:59:52,10.1.1.8,27,-0.020,-0.020,-0.020,0.000,0.000,0.000
1644915592249099008,2022-02-15-08:59:52,10.1.1.8,36,-0.030,-0.030,-0.030,0.000,0.000,0.000
1644915592289798912,2022-02-15-08:59:52,10.1.1.8,25,-0.040,-0.040,-0.040,0.000,0.000,0.000
1644915592349612032,2022-02-15-08:59:52,10.1.1.8,35,-0.050,-0.050,-0.050,0.000,0.000,0.000
1644915592509583872,2022-02-15-08:59:52,10.1.1.8,36,-0.080,-0.080,-0.080,0.000,0.000,0.000
1644915592549441024,2022-02-15-08:59:52,10.1.1.8,25,-0.090,-0.090,-0.090,0.000,0.000,0.000
1644915592629786112,2022-02-15-08:59:52,10.1.1.8,0,-0.090,-0.090,-0.090,0.000,0.000,0.000
1644915592769437952,2022-02-15-08:59:52,10.1.1.8,37,-0.070,-0.070,-0.070,0.000,0.000,0.000
1644915592811860992,2022-02-15-08:59:52,10.1.1.8,26,-0.060,-0.060,-0.060,0.000,0.000,0.000
1644915592870126848,2022-02-15-08:59:52,10.1.1.8,35,-0.050,-0.050,-0.050,0.000,0.000,0.000
1644915593073364992,2022-02-15-08:59:53,10.1.1.8,29,-0.010,-0.010,-0.010,0.000,0.000,0.000
1644915593129762816,2022-02-15-08:59:53,10.1.1.8,33,0.000,0.000,0.000,0.000,0.000,0.000
1644915593289635840,2022-02-15-08:59:53,10.1.1.8,35,0.030,0.030,0.030,0.000,0.000,0.000
1644915593332120832,2022-02-15-08:59:53,10.1.1.8,23,0.040,0.040,0.040,0.000,0.000,0.000
1644915593496096000,2022-02-15-08:59:53,10.1.1.8,26,0.070,0.070,0.070,0.000,0.000,0.000
1644915593549595136,2022-02-15-08:59:53,10.1.1.8,36,0.080,0.080,0.080,0.000,0.000,0.000
1644915593589353984,2022-02-15-08:59:53,10.1.1.8,25,0.090,0.090,0.090,0.000,0.000,0.000
1644915593649505024,2022-02-15-08:59:53,10.1.1.8,34,0.100,0.100,0.100,0.000,0.000,0.000
1644915593693420800,2022-02-15-08:59:53,10.1.1.8,24,0.090,0.090,0.090,0.000,0.000,0.000
1644915593749419008,2022-02-15-08:59:53,10.1.1.8,29,0.080,0.080,0.080,0.000,0.000,0.000
1644915593809843968,2022-02-15-08:59:53,10.1.1.8,39,0.070,0.070,0.070,0.000,0.000,0.000
1644915593848977920,2022-02-15-08:59:53,10.1.1.8,28,0.060,0.060,0.060,0.000,0.000,0.000
1644915594132265216,2022-02-15-08:59:54,10.1.1.8,37,0.010,0.010,0.010,0.000,0.000,0.000
1644915594448983040,2022-02-15-08:59:54,10.1.1.8,39,-0.050,-0.050,-0.050,0.000,0.000,0.000
1644915594489614848,2022-02-15-08:59:54,10.1.1.8,29,-0.060,-0.060,-0.060,0.000,0.000,0.000
1644915594549421056,2022-02-15-08:59:54,10.1.1.8,38,-0.070,-0.070,-0.070,0.000,0.000,0.000
1644915594589544960,2022-02-15-08:59:54,10.1.1.8,27,-0.080,-0.080,-0.080,0.000,0.000,0.000
1644915594649256960,2022-02-15-08:59:54,10.1.1.8,36,-0.090,-0.090,-0.090,0.000,0.000,0.000
1644915594689199872,2022-02-15-08:59:54,10.1.1.8,25,-0.100,-0.100,-0.100,0.000,0.000,0.000
1644915594749666816,2022-02-15-08:59:54,10.1.1.8,34,-0.090,-0.090,-0.090,0.000,0.000,0.000
1644915594949726976,2022-02-15-08:59:54,10.1.1.8,36,-0.060,-0.060,-0.060,0.000,0.000,0.000
1644915594990152960,2022-02-15-08:59:54,10.1.1.8,25,-0.050,-0.050,-0.050,0.000,0.000,0.000
1644915595049762048,2022-02-15-08:59:55,10.1.1.8,35,-0.040,-0.040,-0.040,0.000,0.000,0.000
1644915595089405184,2022-02-15-08:59:55,10.1.1.8,24,-0.030,-0.030,-0.030,0.000,0.000,0.000
1644915595149168128,2022-02-15-08:59:55,10.1.1.8,34,-0.020,-0.020,-0.020,0.000,0.000,0.000
1644915595189534976,2022-02-15-08:59:55,10.1.1.8,23,-0.010,-0.010,-0.010,0.000,0.000,0.000
1644915595509401088,2022-02-15-08:59:55,10.1.1.8,38,0.050,0.050,0.050,0.000,0.000,0.000
1644915595572758016,2022-02-15-08:59:55,10.1.1.8,26,0.060,0.060,0.060,0.000,0.000,0.000
1644915595629009920,2022-02-15-08:59:55,10.1.1.8,38,0.070,0.070,0.070,0.000,0.000,0.000
1644915595670008064,2022-02-15-08:59:55,10.1.1.8,27,0.080,0.080,0.080,0.000,0.000,0.000
1644915595753516800,2022-02-15-08:59:55,10.1.1.8,27,0.090,0.090,0.090,0.000,0.000,0.000
1644915595809196032,2022-02-15-08:59:55,10.1.1.8,1,0.090,0.090,0.090,0.000,0.000,0.000
1644915595893316096,2022-02-15-08:59:55,10.1.1.8,26,0.080,0.080,0.080,0.000,0.000,0.000
1644915595949413888,2022-02-15-08:59:55,10.1.1.8,36,0.070,0.070,0.070,0.000,0.000,0.000
1644915595990248960,2022-02-15-08:59:55,10.1.1.8,25,0.060,0.060,0.060,0.000,0.000,0.000
1644915596049385984,2022-02-15-08:59:56,10.1.1.8,35,0.050,0.050,0.050,0.000,0.000,0.000
1644915596089344000,2022-02-15-08:59:56,10.1.1.8,25,0.040,0.040,0.040,0.000,0.000,0.000
1644915596149522944,2022-02-15-08:59:56,10.1.1.8,33,0.030,0.030,0.030,0.000,0.000,0.000
1644915596189376000,2022-02-15-08:59:56,10.1.1.8,23,0.020,0.020,0.020,0.000,0.000,0.000
1644915596458505984,2022-02-15-08:59:56,10.1.1.8,27,-0.030,-0.030,-0.030,0.000,0.000,0.000
1644915596574093056,2022-02-15-08:59:56,10.1.1.8,35,-0.050,-0.050,-0.050,0.000,0.000,0.000
1644915596609455104,2022-02-15-08:59:56,10.1.1.8,25,-0.060,-0.060,-0.060,0.000,0.000,0.000
1644915596669583104,2022-02-15-08:59:56,10.1.1.8,34,-0.070,-0.070,-0.070,0.000,0.000,0.000
1644915596709799936,2022-02-15-08:59:56,10.1.1.8,23,-0.080,-0.080,-0.080,0.000,0.000,0.000
1644915596890052096,2022-02-15-08:59:56,10.1.1.8,0,-0.080,-0.080,-0.080,0.000,0.000,0.000
1644915597029591040,2022-02-15-08:59:57,10.1.1.8,36,-0.060,-0.060,-0.060,0.000,0.000,0.000
1644915597072033024,2022-02-15-08:59:57,10.1.1.8,24,-0.050,-0.050,-0.050,0.000,0.000,0.000
1644915597129758976,2022-02-15-08:59:57,10.1.1.8,33,-0.040,-0.040,-0.040,0.000,0.000,0.000
1644915597349603840,2022-02-15-08:59:57,10.1.1.8,24,0.000,0.000,0.000,0.000,0.000,0.000
1644915597409524992,2022-02-15-08:59:57,10.1.1.8,33,0.010,0.010,0.010,0.000,0.000,0.000
1644915597769186048,2022-02-15-08:59:57,10.1.1.8,27,0.070,0.070,0.070,0.000,0.000,0.000
1644915597829199104,2022-02-15-08:59:57,10.1.1.8,35,0.080,0.080,0.080,0.000,0.000,0.000
1644915597869159936,2022-02-15-08:59:57,10.1.1.8,24,0.090,0.090,0.090,0.000,0.000,0.000
1644915597929419008,2022-02-15-08:59:57,10.1.1.8,34,0.100,0.100,0.100,0.000,0.000,0.000
1644915598089155840,2022-02-15-08:59:58,10.1.1.8,35,0.070,0.070,0.070,0.000,0.000,0.000
1644915598129127936,2022-02-15-08:59:58,10.1.1.8,24,0.060,0.060,0.060,0.000,0.000,0.000
1644915598189042944,2022-02-15-08:59:58,10.1.1.8,34,0.050,0.050,0.050,0.000,0.000,0.000
1644915598389132032,2022-02-15-08:59:58,10.1.1.8,29,0.010,0.010,0.010,0.000,0.000,0.000
1644915598449433088,2022-02-15-08:59:58,10.1.1.8,39,0.000,0.000,0.000,0.000,0.000,0.000
1644915598489281792,2022-02-15-08:59:58,10.1.1.8,27,-0.010,-0.010,-0.010,0.000,0.000,0.000
1644915598549027072,2022-02-15-08:59:58,10.1.1.8,36,-0.020,-0.020,-0.020,0.000,0.000,0.000
1644915598589271040,2022-02-15-08:59:58,10.1.1.8,24,-0.030,-0.030,-0.030,0.000,0.000,0.000
1644915598749732864,2022-02-15-08:59:58,10.1.1.8,29,-0.060,-0.060,-0.060,0.000,0.000,0.000
1644915598809160960,2022-02-15-08:59:58,10.1.1.8,38,-0.070,-0.070,-0.070,0.000,0.000,0.000
1644915598849797120,2022-02-15-08:59:58,10.1.1.8,28,-0.080,-0.080,-0.080,0.000,0.000,0.000
1644915598909065984,2022-02-15-08:59:58,10.1.1.8,37,-0.090,-0.090,-0.090,0.000,0.000,0.000
1644915598948910080,2022-02-15-08:59:58,10.1.1.8,26,-0.100,-0.100,-0.100,0.000,0.000,0.000
1644915599109530880,2022-02-15-08:59:59,10.1.1.8,29,-0.070,-0.070,-0.070,0.000,0.000,0.000
1644915599169327872,2022-02-15-08:59:59,10.1.1.8,39,-0.060,-0.060,-0.060,0.000,0.000,0.000
1644915599209352960,2022-02-15-08:59:59,10.1.1.8,28,-0.050,-0.050,-0.050,0.000,0.000,0.000
1644915599269028864,2022-02-15-08:59:59,10.1.1.8,37,-0.040,-0.040,-0.040,0.000,0.000,0.000
1644915599309377024,2022-02-15-08:59:59,10.1.1.8,24,-0.030,-0.030,-0.030,0.000,0.000,0.000
1644915599529803008,2022-02-15-08:59:59,10.1.1.8,39,0.010,0.010,0.010,0.000,0.000,0.000
1644915599569480960,2022-02-15-08:59:59,10.1.1.8,29,0.020,0.020,0.020,0.000,0.000,0.000
1644915599631630848,2022-02-15-08:59:59,10.1.1.8,38,0.030,0.030,0.030,0.000,0.000,0.000
1644915599670171904,2022-02-15-08:59:59,10.1.1.8,27,0.040,0.040,0.040,0.000,0.000,0.000
1644915599730270976,2022-02-15-08:59:59,10.1.1.8,35,0.050,0.050,0.050,0.000,0.000,0.000
1644915599769906944,2022-02-15-08:59:59,10.1.1.8,24,0.060,0.060,0.060,0.000,0.000,0.000
1644915599829894912,2022-02-15-08:59:59,10.1.1.8,34,0.070,0.070,0.070,0.000,0.000,0.000
1644915599956596992,2022-02-15-08:59:59,10.1.1.8,37,0.090,0.090,0.090,0.000,0.000,0.000
1644915599990214144,2022-02-15-08:59:59,10.1.1.8,25,0.100,0.100,0.100,0.000,0.000,0.000
1644915600049448960,2022-02-15-09:00:00,10.1.1.8,35,0.090,0.090,0.090,0.000,0.000,0.000
1644915600093061888,2022-02-15-09:00:00,10.1.1.8,23,0.080,0.080,0.080,0.000,0.000,0.000
1644915600250014976,2022-02-15-09:00:00,10.1.1.8,29,0.050,0.050,0.050,0.000,0.000,0.000
1644915600309664000,2022-02-15-09:00:00,10.1.1.8,35,0.040,0.040,0.040,0.000,0.000,0.000
1644915600349669888,2022-02-15-09:00:00,10.1.1.8,25,0.030,0.030,0.030,0.000,0.000,0.000
1644915600442898944,2022-02-15-09:00:00,10.1.1.8,34,0.020,0.020,0.020,0.000,0.000,0.000
1644915600549367808,2022-02-15-09:00:00,10.1.1.8,26,0.000,0.000,0.000,0.000,0.000,0.000
1644915600608998144,2022-02-15-09:00:00,10.1.1.8,36,-0.010,-0.010,-0.010,0.000,0.000,0.000
1644915600649393152,2022-02-15-09:00:00,10.1.1.8,25,-0.020,-0.020,-0.020,0.000,0.000,0.000
1644915600709561088,2022-02-15-09:00:00,10.1.1.8,34,-0.030,-0.030,-0.030,0.000,0.000,0.000
1644915600749377024,2022-02-15-09:00:00,10.1.1.8,23,-0.040,-0.040,-0.040,0.000,0.000,0.000
1644915600809886976,2022-02-15-09:00:00,10.1.1.8,33,-0.050,-0.050,-0.050,0.000,0.000,0.000
1644915601069112064,2022-02-15-09:00:01,10.1.1.8,39,-0.100,-0.100,-0.100,0.000,0.000,0.000
1644915601110188032,2022-02-15-09:00:01,10.1.1.8,28,-0.090,-0.090,-0.090,0.000,0.000,0.000
1644915601268716032,2022-02-15-09:00:01,10.1.1.8,38,-0.070,-0.070,-0.070,0.000,0.000,0.000
1644915601309047040,2022-02-15-09:00:01,10.1.1.8,27,-0.060,-0.060,-0.060,0.000,0.000,0.000
1644915601369604096,2022-02-15-09:00:01,10.1.1.8,37,-0.050,-0.050,-0.050,0.000,0.000,0.000
1644915601409239040,2022-02-15-09:00:01,10.1.1.8,27,-0.040,-0.040,-0.040,0.000,0.000,0.000
1644915601470377984,2022-02-15-09:00:01,10.1.1.8,36,-0.030,-0.030,-0.030,0.000,0.000,0.000
1644915601509401088,2022-02-15-09:00:01,10.1.1.8,25,-0.020,-0.020,-0.020,0.000,0.000,0.000
1644915601729996800,2022-02-15-09:00:01,10.1.1.8,39,0.020,0.020,0.020,0.000,0.000,0.000
1644915601769396992,2022-02-15-09:00:01,10.1.1.8,29,0.030,0.030,0.030,0.000,0.000,0.000
1644915601829204992,2022-02-15-09:00:01,10.1.1.8,38,0.040,0.040,0.040,0.000,0.000,0.000
1644915601868989952,2022-02-15-09:00:01,10.1.1.8,27,0.050,0.050,0.050,0.000,0.000,0.000
1644915601929212928,2022-02-15-09:00:01,10.1.1.8,37,0.060,0.060,0.060,0.000,0.000,0.000
1644915601968827136,2022-02-15-09:00:01,10.1.1.8,26,0.070,0.070,0.070,0.000,0.000,0.000
1644915602029155072,2022-02-15-09:00:02,10.1.1.8,36,0.080,0.080,0.080,0.000,0.000,0.000
1644915602069627904,2022-02-15-09:00:02,10.1.1.8,25,0.090,0.090,0.090,0.000,0.000,0.000
1644915602129185024,2022-02-15-09:00:02,10.1.1.8,33,0.100,0.100,0.100,0.000,0.000,0.000
1644915602169168896,2022-02-15-09:00:02,10.1.1.8,23,0.090,0.090,0.090,0.000,0.000,0.000
1644915602429086976,2022-02-15-09:00:02,10.1.1.8,30,0.040,0.040,0.040,0.000,0.000,0.000
1644915602469543936,2022-02-15-09:00:02,10.1.1.8,20,0.030,0.030,0.030,0.000,0.000,0.000
1644915602529238016,2022-02-15-09:00:02,10.1.1.8,29,0.020,0.020,0.020,0.000,0.000,0.000
1644915602589464832,2022-02-15-09:00:02,10.1.1.8,37,0.010,0.010,0.010,0.000,0.000,0.000
1644915602628911872,2022-02-15-09:00:02,10.1.1.8,27,0.000,0.000,0.000,0.000,0.000,0.000
1644915602689400064,2022-02-15-09:00:02,10.1.1.8,37,-0.010,-0.010,-0.010,0.000,0.000,0.000
1644915602728969216,2022-02-15-09:00:02,10.1.1.8,26,-0.020,-0.020,-0.020,0.000,0.000,0.000
1644915602789050112,2022-02-15-09:00:02,10.1.1.8,35,-0.030,-0.030,-0.030,0.000,0.000,0.000
1644915602829433088,2022-02-15-09:00:02,10.1.1.8,24,-0.040,-0.040,-0.040,0.000,0.000,0.000
1644915603049531904,2022-02-15-09:00:03,10.1.1.8,38,-0.080,-0.080,-0.080,0.000,0.000,0.000
1644915603089092096,2022-02-15-09:00:03,10.1.1.8,27,-0.090,-0.090,-0.090,0.000,0.000,0.000
1644915603149377024,2022-02-15-09:00:03,10.1.1.8,37,-0.100,-0.100,-0.100,0.000,0.000,0.000
1644915603190383872,2022-02-15-09:00:03,10.1.1.8,26,-0.090,-0.090,-0.090,0.000,0.000,0.000
1644915603249701120,2022-02-15-09:00:03,10.1.1.8,35,-0.080,-0.080,-0.080,0.000,0.000,0.000
1644915603290024960,2022-02-15-09:00:03,10.1.1.8,24,-0.070,-0.070,-0.070,0.000,0.000,0.000
1644915603509742848,2022-02-15-09:00:03,10.1.1.8,39,-0.030,-0.030,-0.030,0.000,0.000,0.000
1644915603549325824,2022-02-15-09:00:03,10.1.1.8,28,-0.020,-0.020,-0.020,0.000,0.000,0.000
1644915603709413120,2022-02-15-09:00:03,10.1.1.8,34,0.010,0.010,0.010,0.000,0.000,0.000
1644915603749027840,2022-02-15-09:00:03,10.1.1.8,23,0.020,0.020,0.020,0.000,0.000,0.000
1644915604069224960,2022-02-15-09:00:04,10.1.1.8,39,0.080,0.080,0.080,0.000,0.000,0.000
1644915604110057984,2022-02-15-09:00:04,10.1.1.8,29,0.090,0.090,0.090,0.000,0.000,0.000
1644915604170002944,2022-02-15-09:00:04,10.1.1.8,39,0.100,0.100,0.100,0.000,0.000,0.000
1644915604209480960,2022-02-15-09:00:04,10.1.1.8,28,0.090,0.090,0.090,0.000,0.000,0.000
1644915604273110016,2022-02-15-09:00:04,10.1.1.8,37,0.080,0.080,0.080,0.000,0.000,0.000
1644915604309495808,2022-02-15-09:00:04,10.1.1.8,27,0.070,0.070,0.070,0.000,0.000,0.000
1644915604374916096,2022-02-15-09:00:04,10.1.1.8,36,0.060,0.060,0.060,0.000,0.000,0.000
1644915604409254912,2022-02-15-09:00:04,10.1.1.8,25,0.050,0.050,0.050,0.000,0.000,0.000
1644915604469736192,2022-02-15-09:00:04,10.1.1.8,35,0.040,0.040,0.040,0.000,0.000,0.000
1644915604512698880,2022-02-15-09:00:04,10.1.1.8,24,0.030,0.030,0.030,0.000,0.000,0.000
1644915604569842944,2022-02-15-09:00:04,10.1.1.8,33,0.020,0.020,0.020,0.000,0.000,0.000
1644915604774471168,2022-02-15-09:00:04,10.1.1.8,28,-0.020,-0.020,-0.020,0.000,0.000,0.000
1644915604829822976,2022-02-15-09:00:04,10.1.1.8,38,-0.030,-0.030,-0.030,0.000,0.000,0.000
1644915604870050048,2022-02-15-09:00:04,10.1.1.8,28,-0.040,-0.040,-0.040,0.000,0.000,0.000
1644915604929945088,2022-02-15-09:00:04,10.1.1.8,37,-0.050,-0.050,-0.050,0.000,0.000,0.000
1644915604975141888,2022-02-15-09:00:04,10.1.1.8,27,-0.060,-0.060,-0.060,0.000,0.000,0.000
1644915605030189056,2022-02-15-09:00:05,10.1.1.8,36,-0.070,-0.070,-0.070,0.000,0.000,0.000
1644915605076424960,2022-02-15-09:00:05,10.1.1.8,25,-0.080,-0.080,-0.080,0.000,0.000,0.000
1644915605130032896,2022-02-15-09:00:05,10.1.1.8,33,-0.090,-0.090,-0.090,0.000,0.000,0.000
1644915605213728000,2022-02-15-09:00:05,10.1.1.8,12,-0.090,-0.090,-0.090,0.000,0.000,0.000
1644915605349082112,2022-02-15-09:00:05,10.1.1.8,37,-0.070,-0.070,-0.070,0.000,0.000,0.000
1644915605389560064,2022-02-15-09:00:05,10.1.1.8,26,-0.060,-0.060,-0.060,0.000,0.000,0.000
1644915605449613056,2022-02-15-09:00:05,10.1.1.8,35,-0.050,-0.050,-0.050,0.000,0.000,0.000
1644915605489115904,2022-02-15-09:00:05,10.1.1.8,25,-0.040,-0.040,-0.040,0.000,0.000,0.000
1644915605580249088,2022-02-15-09:00:05,10.1.1.8,35,-0.030,-0.030,-0.030,0.000,0.000,0.000
1644915605613362944,2022-02-15-09:00:05,10.1.1.8,-44,-0.030,-0.030,-0.030,0.000,0.000,0.000
1644915605689652992,2022-02-15-09:00:05,10.1.1.8,26,-0.010,-0.010,-0.010,0.000,0.000,0.000
1644915605889238016,2022-02-15-09:00:05,10.1.1.8,29,0.020,0.020,0.020,0.000,0.000,0.000
1644915605949428992,2022-02-15-09:00:05,10.1.1.8,39,0.030,0.030,0.030,0.000,0.000,0.000
1644915605989395968,2022-02-15-09:00:05,10.1.1.8,28,0.040,0.040,0.040,0.000,0.000,0.000
1644915606049125888,2022-02-15-09:00:06,10.1.1.8,37,0.050,0.050,0.050,0.000,0.000,0.000
1644915606090104064,2022-02-15-09:00:06,10.1.1.8,26,0.060,0.060,0.060,0.000,0.000,0.000
1644915606149178112,2022-02-15-09:00:06,10.1.1.8,36,0.070,0.070,0.070,0.000,0.000,0.000
1644915606189035776,2022-02-15-09:00:06,10.1.1.8,25,0.080,0.080,0.080,0.000,0.000,0.000
1644915606249808128,2022-02-15-09:00:06,10.1.1.8,35,0.090,0.090,0.090,0.000,0.000,0.000
1644915606289608960,2022-02-15-09:00:06,10.1.1.8,23,0.100,0.100,0.100,0.000,0.000,0.000
1644915606509565952,2022-02-15-09:00:06,10.1.1.8,34,0.060,0.060,0.060,0.000,0.000,0.000
1644915606573811968,2022-02-15-09:00:06,10.1.1.8,23,0.050,0.050,0.050,0.000,0.000,0.000
1644915606869040128,2022-02-15-09:00:06,10.1.1.8,39,-0.010,-0.010,-0.010,0.000,0.000,0.000
1644915606909732096,2022-02-15-09:00:06,10.1.1.8,29,-0.020,-0.020,-0.020,0.000,0.000,0.000
1644915606969538048,2022-02-15-09:00:06,10.1.1.8,38,-0.030,-0.030,-0.030,0.000,0.000,0.000
1644915607009486848,2022-02-15-09:00:07,10.1.1.8,27,-0.040,-0.040,-0.040,0.000,0.000,0.000
1644915607069334016,2022-02-15-09:00:07,10.1.1.8,37,-0.050,-0.050,-0.050,0.000,0.000,0.000
1644915607109328896,2022-02-15-09:00:07,10.1.1.8,25,-0.060,-0.060,-0.060,0.000,0.000,0.000
1644915607169241856,2022-02-15-09:00:07,10.1.1.8,35,-0.070,-0.070,-0.070,0.000,0.000,0.000
1644915607209238016,2022-02-15-09:00:07,10.1.1.8,23,-0.080,-0.080,-0.080,0.000,0.000,0.000
1644915607390914048,2022-02-15-09:00:07,10.1.1.8,0,-0.080,-0.080,-0.080,0.000,0.000,0.000
1644915607529519104,2022-02-15-09:00:07,10.1.1.8,38,-0.060,-0.060,-0.060,0.000,0.000,0.000
1644915607570337024,2022-02-15-09:00:07,10.1.1.8,27,-0.050,-0.050,-0.050,0.000,0.000,0.000
1644915607629035008,2022-02-15-09:00:07,10.1.1.8,36,-0.040,-0.040,-0.040,0.000,0.000,0.000
1644915607669233920,2022-02-15-09:00:07,10.1.1.8,25,-0.030,-0.030,-0.030,0.000,0.000,0.000
1644915607730674944,2022-02-15-09:00:07,10.1.1.8,35,-0.020,-0.020,-0.020,0.000,0.000,0.000
1644915607770358016,2022-02-15-09:00:07,10.1.1.8,24,-0.010,-0.010,-0.010,0.000,0.000,0.000
1644915607949040896,2022-02-15-09:00:07,10.1.1.8,36,0.020,0.020,0.020,0.000,0.000,0.000
1644915607989298944,2022-02-15-09:00:07,10.1.1.8,25,0.030,0.030,0.030,0.000,0.000,0.000
1644915608049141760,2022-02-15-09:00:08,10.1.1.8,35,0.040,0.040,0.040,0.000,0.000,0.000
1644915608089043968,2022-02-15-09:00:08,10.1.1.8,24,0.050,0.050,0.050,0.000,0.000,0.000
1644915608149410048,2022-02-15-09:00:08,10.1.1.8,34,0.060,0.060,0.060,0.000,0.000,0.000
1644915608189274112,2022-02-15-09:00:08,10.1.1.8,23,0.070,0.070,0.070,0.000,0.000,0.000
1644915608449565952,2022-02-15-09:00:08,10.1.1.8,29,0.080,0.080,0.080,0.000,0.000,0.000
1644915608509105920,2022-02-15-09:00:08,10.1.1.8,35,0.070,0.070,0.070,0.000,0.000,0.000
1644915608549079808,2022-02-15-09:00:08,10.1.1.8,25,0.060,0.060,0.060,0.000,0.000,0.000
1644915608609438976,2022-02-15-09:00:08,10.1.1.8,27,0.050,0.050,0.050,0.000,0.000,0.000
1644915608709337088,2022-02-15-09:00:08,10.1.1.8,23,0.030,0.030,0.030,0.000,0.000,0.000
1644915609029110784,2022-02-15-09:00:09,10.1.1.8,39,-0.030,-0.030,-0.030,0.000,0.000,0.000
1644915609069526016,2022-02-15-09:00:09,10.1.1.8,28,-0.040,-0.040,-0.040,0.000,0.000,0.000
1644915609128809984,2022-02-15-09:00:09,10.1.1.8,37,-0.050,-0.050,-0.050,0.000,0.000,0.000
1644915609169316096,2022-02-15-09:00:09,10.1.1.8,27,-0.060,-0.060,-0.060,0.000,0.000,0.000
1644915609228809984,2022-02-15-09:00:09,10.1.1.8,36,-0.070,-0.070,-0.070,0.000,0.000,0.000
1644915609269069824,2022-02-15-09:00:09,10.1.1.8,26,-0.080,-0.080,-0.080,0.000,0.000,0.000
1644915609328982016,2022-02-15-09:00:09,10.1.1.8,34,-0.090,-0.090,-0.090,0.000,0.000,0.000
1644915609409163008,2022-02-15-09:00:09,10.1.1.8,11,-0.090,-0.090,-0.090,0.000,0.000,0.000
1644915609589140992,2022-02-15-09:00:09,10.1.1.8,39,-0.060,-0.060,-0.060,0.000,0.000,0.000
1644915609709260032,2022-02-15-09:00:09,10.1.1.8,24,-0.040,-0.040,-0.040,0.000,0.000,0.000
1644915609769105920,2022-02-15-09:00:09,10.1.1.8,34,-0.030,-0.030,-0.030,0.000,0.000,0.000
1644915609809144064,2022-02-15-09:00:09,10.1.1.8,24,-0.020,-0.020,-0.020,0.000,0.000,0.000
1644915609870112000,2022-02-15-09:00:09,10.1.1.8,34,-0.010,-0.010,-0.010,0.000,0.000,0.000
1644915609909251840,2022-02-15-09:00:09,10.1.1.8,23,0.000,0.000,0.000,0.000,0.000,0.000
1644915610129774080,2022-02-15-09:00:10,10.1.1.8,40,0.040,0.040,0.040,0.000,0.000,0.000
1644915610169254144,2022-02-15-09:00:10,10.1.1.8,29,0.050,0.050,0.050,0.000,0.000,0.000
1644915610228985088,2022-02-15-09:00:10,10.1.1.8,38,0.060,0.060,0.060,0.000,0.000,0.000
1644915610269661952,2022-02-15-09:00:10,10.1.1.8,27,0.070,0.070,0.070,0.000,0.000,0.000
1644915610328762112,2022-02-15-09:00:10,10.1.1.8,37,0.080,0.080,0.080,0.000,0.000,0.000
1644915610370946816,2022-02-15-09:00:10,10.1.1.8,27,0.090,0.090,0.090,0.000,0.000,0.000
1644915610428898048,2022-02-15-09:00:10,10.1.1.8,36,0.100,0.100,0.100,0.000,0.000,0.000
1644915610468943104,2022-02-15-09:00:10,10.1.1.8,26,0.090,0.090,0.090,0.000,0.000,0.000
1644915610529321984,2022-02-15-09:00:10,10.1.1.8,35,0.080,0.080,0.080,0.000,0.000,0.000
1644915610569086976,2022-02-15-09:00:10,10.1.1.8,25,0.070,0.070,0.070,0.000,0.000,0.000
1644915610629175808,2022-02-15-09:00:10,10.1.1.8,34,0.060,0.060,0.060,0.000,0.000,0.000
1644915610669270016,2022-02-15-09:00:10,10.1.1.8,24,0.050,0.050,0.050,0.000,0.000,0.000
1644915610888769024,2022-02-15-09:00:10,10.1.1.8,39,0.010,0.010,0.010,0.000,0.000,0.000
1644915610929536000,2022-02-15-09:00:10,10.1.1.8,29,0.000,0.000,0.000,0.000,0.000,0.000
1644915610989329152,2022-02-15-09:00:10,10.1.1.8,38,-0.010,-0.010,-0.010,0.000,0.000,0.000
1644915611029486848,2022-02-15-09:00:11,10.1.1.8,27,-0.020,-0.020,-0.020,0.000,0.000,0.000
1644915611089377024,2022-02-15-09:00:11,10.1.1.8,35,-0.030,-0.030,-0.030,0.000,0.000,0.000
1644915611128901888,2022-02-15-09:00:11,10.1.1.8,24,-0.040,-0.040,-0.040,0.000,0.000,0.000
1644915611189337856,2022-02-15-09:00:11,10.1.1.8,34,-0.050,-0.050,-0.050,0.000,0.000,0.000
1644915611229357056,2022-02-15-09:00:11,10.1.1.8,23,-0.060,-0.060,-0.060,0.000,0.000,0.000
1644915611489342976,2022-02-15-09:00:11,10.1.1.8,30,-0.090,-0.090,-0.090,0.000,0.000,0.000
1644915611549508096,2022-02-15-09:00:11,10.1.1.8,36,-0.080,-0.080,-0.080,0.000,0.000,0.000
1644915611593724928,2022-02-15-09:00:11,10.1.1.8,25,-0.070,-0.070,-0.070,0.000,0.000,0.000
1644915611649605888,2022-02-15-09:00:11,10.1.1.8,35,-0.060,-0.060,-0.060,0.000,0.000,0.000
1644915611749321984,2022-02-15-09:00:11,10.1.1.8,29,-0.040,-0.040,-0.040,0.000,0.000,0.000
1644915611815531008,2022-02-15-09:00:11,10.1.1.8,36,-0.030,-0.030,-0.030,0.000,0.000,0.000
1644915611849314816,2022-02-15-09:00:11,10.1.1.8,25,-0.020,-0.020,-0.020,0.000,0.000,0.000
1644915611916353024,2022-02-15-09:00:11,10.1.1.8,33,-0.010,-0.010,-0.010,0.000,0.000,0.000
1644915612109991936,2022-02-15-09:00:12,10.1.1.8,29,0.030,0.030,0.030,0.000,0.000,0.000
1644915612169466880,2022-02-15-09:00:12,10.1.1.8,36,0.040,0.040,0.040,0.000,0.000,0.000
1644915612209816064,2022-02-15-09:00:12,10.1.1.8,24,0.050,0.050,0.050,0.000,0.000,0.000
1644915612268888064,2022-02-15-09:00:12,10.1.1.8,33,0.060,0.060,0.060,0.000,0.000,0.000
1644915612589689856,2022-02-15-09:00:12,10.1.1.8,25,0.080,0.080,0.080,0.000,0.000,0.000
1644915612649543168,2022-02-15-09:00:12,10.1.1.8,35,0.070,0.070,0.070,0.000,0.000,0.000
1644915612689768192,2022-02-15-09:00:12,10.1.1.8,24,0.060,0.060,0.060,0.000,0.000,0.000
1644915612749223936,2022-02-15-09:00:12,10.1.1.8,34,0.050,0.050,0.050,0.000,0.000,0.000
1644915613009166848,2022-02-15-09:00:13,10.1.1.8,39,0.000,0.000,0.000,0.000,0.000,0.000
1644915613049380096,2022-02-15-09:00:13,10.1.1.8,27,-0.010,-0.010,-0.010,0.000,0.000,0.000
1644915613111443968,2022-02-15-09:00:13,10.1.1.8,37,-0.020,-0.020,-0.020,0.000,0.000,0.000
1644915613149298944,2022-02-15-09:00:13,10.1.1.8,24,-0.030,-0.030,-0.030,0.000,0.000,0.000
1644915613308957952,2022-02-15-09:00:13,10.1.1.8,30,-0.060,-0.060,-0.060,0.000,0.000,0.000
1644915613369762816,2022-02-15-09:00:13,10.1.1.8,39,-0.070,-0.070,-0.070,0.000,0.000,0.000
1644915613409420032,2022-02-15-09:00:13,10.1.1.8,28,-0.080,-0.080,-0.080,0.000,0.000,0.000
1644915613469528064,2022-02-15-09:00:13,10.1.1.8,37,-0.090,-0.090,-0.090,0.000,0.000,0.000
1644915613508687872,2022-02-15-09:00:13,10.1.1.8,26,-0.100,-0.100,-0.100,0.000,0.000,0.000
1644915613569814016,2022-02-15-09:00:13,10.1.1.8,36,-0.090,-0.090,-0.090,0.000,0.000,0.000
1644915613609769216,2022-02-15-09:00:13,10.1.1.8,25,-0.080,-0.080,-0.080,0.000,0.000,0.000
1644915613709917952,2022-02-15-09:00:13,10.1.1.8,23,-0.060,-0.060,-0.060,0.000,0.000,0.000
1644915613869428992,2022-02-15-09:00:13,10.1.1.8,29,-0.030,-0.030,-0.030,0.000,0.000,0.000
1644915613929460992,2022-02-15-09:00:13,10.1.1.8,38,-0.020,-0.020,-0.020,0.000,0.000,0.000
1644915613969618176,2022-02-15-09:00:13,10.1.1.8,27,-0.010,-0.010,-0.010,0.000,0.000,0.000
1644915614029249792,2022-02-15-09:00:14,10.1.1.8,36,0.000,0.000,0.000,0.000,0.000,0.000
1644915614069274880,2022-02-15-09:00:14,10.1.1.8,25,0.010,0.010,0.010,0.000,0.000,0.000
1644915614228986112,2022-02-15-09:00:14,10.1.1.8,29,0.040,0.040,0.040,0.000,0.000,0.000
1644915614289596160,2022-02-15-09:00:14,10.1.1.8,38,0.050,0.050,0.050,0.000,0.000,0.000
1644915614331664128,2022-02-15-09:00:14,10.1.1.8,27,0.060,0.060,0.060,0.000,0.000,0.000
1644915614389644032,2022-02-15-09:00:14,10.1.1.8,36,0.070,0.070,0.070,0.000,0.000,0.000
1644915614429395968,2022-02-15-09:00:14,10.1.1.8,26,0.080,0.080,0.080,0.000,0.000,0.000
1644915614490320896,2022-02-15-09:00:14,10.1.1.8,35,0.090,0.090,0.090,0.000,0.000,0.000
1644915614569238784,2022-02-15-09:00:14,10.1.1.8,11,0.090,0.090,0.090,0.000,0.000,0.000
1644915614689899008,2022-02-15-09:00:14,10.1.1.8,29,0.070,0.070,0.070,0.000,0.000,0.000
1644915614754267904,2022-02-15-09:00:14,10.1.1.8,37,0.060,0.060,0.060,0.000,0.000,0.000
1644915614794086912,2022-02-15-09:00:14,10.1.1.8,27,0.050,0.050,0.050,0.000,0.000,0.000
1644915614849253888,2022-02-15-09:00:14,10.1.1.8,36,0.040,0.040,0.040,0.000,0.000,0.000
1644915614889515008,2022-02-15-09:00:14,10.1.1.8,26,0.030,0.030,0.030,0.000,0.000,0.000
1644915614949434880,2022-02-15-09:00:14,10.1.1.8,35,0.020,0.020,0.020,0.000,0.000,0.000
1644915614989090048,2022-02-15-09:00:14,10.1.1.8,24,0.010,0.010,0.010,0.000,0.000,0.000
1644915615268951040,2022-02-15-09:00:15,10.1.1.8,34,-0.030,-0.030,-0.030,0.000,0.000,0.000
1644915615409213184,2022-02-15-09:00:15,10.1.1.8,29,-0.050,-0.050,-0.050,0.000,0.000,0.000
1644915615469570048,2022-02-15-09:00:15,10.1.1.8,37,-0.060,-0.060,-0.060,0.000,0.000,0.000
1644915615509974016,2022-02-15-09:00:15,10.1.1.8,28,-0.070,-0.070,-0.070,0.000,0.000,0.000
1644915615569298944,2022-02-15-09:00:15,10.1.1.8,37,-0.080,-0.080,-0.080,0.000,0.000,0.000
1644915615609297920,2022-02-15-09:00:15,10.1.1.8,26,-0.090,-0.090,-0.090,0.000,0.000,0.000
1644915615670018048,2022-02-15-09:00:15,10.1.1.8,36,-0.100,-0.100,-0.100,0.000,0.000,0.000
1644915615711350016,2022-02-15-09:00:15,10.1.1.8,25,-0.090,-0.090,-0.090,0.000,0.000,0.000
1644915615768862976,2022-02-15-09:00:15,10.1.1.8,35,-0.080,-0.080,-0.080,0.000,0.000,0.000
1644915615808971776,2022-02-15-09:00:15,10.1.1.8,24,-0.070,-0.070,-0.070,0.000,0.000,0.000
1644915615869003008,2022-02-15-09:00:15,10.1.1.8,34,-0.060,-0.060,-0.060,0.000,0.000,0.000
1644915615908997120,2022-02-15-09:00:15,10.1.1.8,23,-0.050,-0.050,-0.050,0.000,0.000,0.000
1644915616229886976,2022-02-15-09:00:16,10.1.1.8,39,0.010,0.010,0.010,0.000,0.000,0.000
1644915616268922112,2022-02-15-09:00:16,10.1.1.8,28,0.020,0.020,0.020,0.000,0.000,0.000
1644915616329649920,2022-02-15-09:00:16,10.1.1.8,37,0.030,0.030,0.030,0.000,0.000,0.000
1644915616369456896,2022-02-15-09:00:16,10.1.1.8,27,0.040,0.040,0.040,0.000,0.000,0.000
1644915616429577216,2022-02-15-09:00:16,10.1.1.8,36,0.050,0.050,0.050,0.000,0.000,0.000
1644915616468996096,2022-02-15-09:00:16,10.1.1.8,26,0.060,0.060,0.060,0.000,0.000,0.000
1644915616529274112,2022-02-15-09:00:16,10.1.1.8,35,0.070,0.070,0.070,0.000,0.000,0.000
1644915616569636096,2022-02-15-09:00:16,10.1.1.8,25,0.080,0.080,0.080,0.000,0.000,0.000
1644915616629401856,2022-02-15-09:00:16,10.1.1.8,35,0.090,0.090,0.090,0.000,0.000,0.000
1644915616669874944,2022-02-15-09:00:16,10.1.1.8,23,0.100,0.100,0.100,0.000,0.000,0.000
1644915616929730816,2022-02-15-09:00:16,10.1.1.8,29,0.050,0.050,0.050,0.000,0.000,0.000
1644915616991755008,2022-02-15-09:00:16,10.1.1.8,39,0.040,0.040,0.040,0.000,0.000,0.000
1644915617029222912,2022-02-15-09:00:17,10.1.1.8,29,0.030,0.030,0.030,0.000,0.000,0.000
1644915617089795072,2022-02-15-09:00:17,10.1.1.8,37,0.020,0.020,0.020,0.000,0.000,0.000
1644915617129690880,2022-02-15-09:00:17,10.1.1.8,26,0.010,0.010,0.010,0.000,0.000,0.000
1644915617189528064,2022-02-15-09:00:17,10.1.1.8,36,0.000,0.000,0.000,0.000,0.000,0.000
1644915617230449920,2022-02-15-09:00:17,10.1.1.8,25,-0.010,-0.010,-0.010,0.000,0.000,0.000
1644915617291342848,2022-02-15-09:00:17,10.1.1.8,35,-0.020,-0.020,-0.020,0.000,0.000,0.000
1644915617491009024,2022-02-15-09:00:17,10.1.1.8,29,-0.060,-0.060,-0.060,0.000,0.000,0.000
1644915617549966080,2022-02-15-09:00:17,10.1.1.8,38,-0.070,-0.070,-0.070,0.000,0.000,0.000
1644915617749222144,2022-02-15-09:00:17,10.1.1.8,29,-0.090,-0.090,-0.090,0.000,0.000,0.000
1644915617808986880,2022-02-15-09:00:17,10.1.1.8,38,-0.080,-0.080,-0.080,0.000,0.000,0.000
1644915617849278976,2022-02-15-09:00:17,10.1.1.8,28,-0.070,-0.070,-0.070,0.000,0.000,0.000
1644915617909297920,2022-02-15-09:00:17,10.1.1.8,37,-0.060,-0.060,-0.060,0.000,0.000,0.000
1644915617949356032,2022-02-15-09:00:17,10.1.1.8,26,-0.050,-0.050,-0.050,0.000,0.000,0.000
1644915618008794112,2022-02-15-09:00:18,10.1.1.8,36,-0.040,-0.040,-0.040,0.000,0.000,0.000
1644915618050084096,2022-02-15-09:00:18,10.1.1.8,26,-0.030,-0.030,-0.030,0.000,0.000,0.000
1644915618109458944,2022-02-15-09:00:18,10.1.1.8,34,-0.020,-0.020,-0.020,0.000,0.000,0.000
