FedericoMungari/DigitalTwin_service/01_WiredScenario/Output/Output_script/script_rosapi_2_output_robots1_freq0_1.txt
timestamp,date,node,latency,joint_1,joint_2,joint_3,joint_4,joint_5,joint_6
1644339656811307008,2022-02-08-17:00:56,10.1.1.2,5,-0.100,-0.100,-0.100,-0.000,0.000,0.000
1644339657351150080,2022-02-08-17:00:57,10.1.1.2,40,-0.050,-0.050,-0.050,0.000,0.000,0.000
1644339657451623936,2022-02-08-17:00:57,10.1.1.2,39,-0.040,-0.040,-0.040,0.000,0.000,0.000
1644339657551644928,2022-02-08-17:00:57,10.1.1.2,39,-0.030,-0.030,-0.030,0.000,0.000,0.000
1644339657874178816,2022-02-08-17:00:57,10.1.1.2,58,-0.000,-0.000,-0.000,0.000,0.000,0.000
1644339657989561088,2022-02-08-17:00:57,10.1.1.2,72,0.010,0.010,0.010,0.000,0.000,0.000
1644339658279403008,2022-02-08-17:00:58,10.1.1.2,58,0.040,0.040,0.040,0.000,0.000,0.000
1644339658374711040,2022-02-08-17:00:58,10.1.1.2,53,0.050,0.050,0.050,0.000,0.000,0.000
1644339658600332032,2022-02-08-17:00:58,10.1.1.2,77,0.070,0.070,0.070,0.000,0.000,0.000
1644339658652959232,2022-02-08-17:00:58,10.1.1.2,29,0.080,0.080,0.080,0.000,0.000,0.000
1644339658752860160,2022-02-08-17:00:58,10.1.1.2,28,0.090,0.090,0.090,0.000,0.000,0.000
1644339658854087168,2022-02-08-17:00:58,10.1.1.2,28,0.100,0.100,0.100,0.000,0.000,0.000
1644339659215137024,2022-02-08-17:00:59,10.1.1.2,87,0.070,0.070,0.070,0.000,0.000,0.000
1644339659618072064,2022-02-08-17:00:59,10.1.1.2,84,0.030,0.030,0.030,0.000,0.000,0.000
1644339659799632128,2022-02-08-17:00:59,10.1.1.2,61,0.010,0.010,0.010,0.000,0.000,0.000
1644339659865555968,2022-02-08-17:00:59,10.1.1.2,25,0.000,0.000,0.000,0.000,0.000,0.000
1644339659972184832,2022-02-08-17:00:59,10.1.1.2,28,-0.010,-0.010,-0.010,0.000,0.000,0.000
1644339660076418048,2022-02-08-17:01:00,10.1.1.2,30,-0.020,-0.020,-0.020,0.000,0.000,0.000
1644339660175201792,2022-02-08-17:01:00,10.1.1.2,29,-0.030,-0.030,-0.030,0.000,0.000,0.000
1644339660897854208,2022-02-08-17:01:00,10.1.1.2,39,-0.100,-0.100,-0.100,0.000,0.000,0.000
1644339661298584832,2022-02-08-17:01:01,10.1.1.2,29,-0.060,-0.060,-0.060,0.000,0.000,0.000
1644339661765785856,2022-02-08-17:01:01,10.1.1.2,91,-0.020,-0.020,-0.020,0.000,0.000,0.000
1644339661799098880,2022-02-08-17:01:01,10.1.1.2,23,-0.010,-0.010,-0.010,0.000,0.000,0.000
1644339662417025024,2022-02-08-17:01:02,10.1.1.2,32,0.050,0.050,0.050,0.000,0.000,0.000
1644339662571691008,2022-02-08-17:01:02,10.1.1.2,80,0.060,0.060,0.060,0.000,0.000,0.000
1644339662753990912,2022-02-08-17:01:02,10.1.1.2,58,0.080,0.080,0.080,0.000,0.000,0.000
1644339662858240000,2022-02-08-17:01:02,10.1.1.2,58,0.090,0.090,0.090,0.000,0.000,0.000
1644339662932003072,2022-02-08-17:01:02,10.1.1.2,27,0.100,0.100,0.100,0.000,0.000,0.000
1644339663069355008,2022-02-08-17:01:03,10.1.1.2,64,0.090,0.090,0.090,0.000,0.000,0.000
1644339663143495168,2022-02-08-17:01:03,10.1.1.2,37,0.080,0.080,0.080,0.000,0.000,0.000
1644339663266001920,2022-02-08-17:01:03,10.1.1.2,53,0.070,0.070,0.070,0.000,0.000,0.000
1644339664470864896,2022-02-08-17:01:04,10.1.1.2,38,-0.050,-0.050,-0.050,0.000,0.000,0.000
1644339665169449984,2022-02-08-17:01:05,10.1.1.2,30,-0.080,-0.080,-0.080,0.000,0.000,0.000
1644339665269697792,2022-02-08-17:01:05,10.1.1.2,29,-0.070,-0.070,-0.070,0.000,0.000,0.000
1644339665369394944,2022-02-08-17:01:05,10.1.1.2,28,-0.060,-0.060,-0.060,0.000,0.000,0.000
1644339665699243008,2022-02-08-17:01:05,10.1.1.2,23,-0.030,-0.030,-0.030,0.000,0.000,0.000
1644339665804502016,2022-02-08-17:01:05,10.1.1.2,46,-0.020,-0.020,-0.020,0.000,0.000,0.000
1644339665886905856,2022-02-08-17:01:05,10.1.1.2,27,-0.010,-0.010,-0.010,0.000,0.000,0.000
1644339666391730176,2022-02-08-17:01:06,10.1.1.2,28,0.040,0.040,0.040,0.000,0.000,0.000
1644339666503362048,2022-02-08-17:01:06,10.1.1.2,39,0.050,0.050,0.050,0.000,0.000,0.000
1644339666651344128,2022-02-08-17:01:06,10.1.1.2,84,0.060,0.060,0.060,0.000,0.000,0.000
1644339666814026240,2022-02-08-17:01:06,10.1.1.2,38,0.080,0.080,0.080,0.000,0.000,0.000
1644339666926909952,2022-02-08-17:01:06,10.1.1.2,47,0.090,0.090,0.090,0.000,0.000,0.000
1644339667005705216,2022-02-08-17:01:07,10.1.1.2,26,0.100,0.100,0.100,0.000,0.000,0.000
1644339667715794944,2022-02-08-17:01:07,10.1.1.2,29,0.030,0.030,0.030,0.000,0.000,0.000
1644339668021445888,2022-02-08-17:01:08,10.1.1.2,27,0.000,0.000,0.000,0.000,0.000,0.000
1644339668333477888,2022-02-08-17:01:08,10.1.1.2,37,-0.030,-0.030,-0.030,0.000,0.000,0.000
1644339668832823040,2022-02-08-17:01:08,10.1.1.2,32,-0.080,-0.080,-0.080,0.000,0.000,0.000
1644339669214097920,2022-02-08-17:01:09,10.1.1.2,9,-0.080,-0.080,-0.080,0.000,0.000,0.000
1644339669333571840,2022-02-08-17:01:09,10.1.1.2,28,-0.070,-0.070,-0.070,0.000,0.000,0.000
1644339669433883904,2022-02-08-17:01:09,10.1.1.2,27,-0.060,-0.060,-0.060,0.000,0.000,0.000
1644339669636545792,2022-02-08-17:01:09,10.1.1.2,29,-0.040,-0.040,-0.040,0.000,0.000,0.000
1644339669736803072,2022-02-08-17:01:09,10.1.1.2,28,-0.030,-0.030,-0.030,0.000,0.000,0.000
1644339670776360960,2022-02-08-17:01:10,10.1.1.2,38,0.070,0.070,0.070,0.000,0.000,0.000
1644339671025089024,2022-02-08-17:01:11,10.1.1.2,87,0.090,0.090,0.090,0.000,0.000,0.000
1644339671061264128,2022-02-08-17:01:11,10.1.1.2,21,0.100,0.100,0.100,0.000,0.000,0.000
1644339671227781120,2022-02-08-17:01:11,10.1.1.2,87,0.090,0.090,0.090,0.000,0.000,0.000
1644339671267298048,2022-02-08-17:01:11,10.1.1.2,25,0.080,0.080,0.080,0.000,0.000,0.000
1644339671577339904,2022-02-08-17:01:11,10.1.1.2,29,0.050,0.050,0.050,0.000,0.000,0.000
1644339671676446976,2022-02-08-17:01:11,10.1.1.2,29,0.040,0.040,0.040,0.000,0.000,0.000
1644339671990191104,2022-02-08-17:01:11,10.1.1.2,36,0.010,0.010,0.010,0.000,0.000,0.000
1644339672406013952,2022-02-08-17:01:12,10.1.1.2,47,-0.030,-0.030,-0.030,0.000,0.000,0.000
1644339672825323008,2022-02-08-17:01:12,10.1.1.2,60,-0.070,-0.070,-0.070,0.000,0.000,0.000
1644339672895028224,2022-02-08-17:01:12,10.1.1.2,29,-0.080,-0.080,-0.080,0.000,0.000,0.000
1644339672996788992,2022-02-08-17:01:12,10.1.1.2,30,-0.090,-0.090,-0.090,0.000,0.000,0.000
1644339673178329856,2022-02-08-17:01:13,10.1.1.2,10,-0.090,-0.090,-0.090,0.000,0.000,0.000
1644339673823970048,2022-02-08-17:01:13,10.1.1.2,46,-0.030,-0.030,-0.030,0.000,0.000,0.000
1644339674215232000,2022-02-08-17:01:14,10.1.1.2,26,0.010,0.010,0.010,0.000,0.000,0.000
1644339674741861120,2022-02-08-17:01:14,10.1.1.2,46,0.060,0.060,0.060,0.000,0.000,0.000
1644339674841756160,2022-02-08-17:01:14,10.1.1.2,44,0.070,0.070,0.070,0.000,0.000,0.000
1644339675243699200,2022-02-08-17:01:15,10.1.1.2,35,0.090,0.090,0.090,0.000,0.000,0.000
1644339675382579968,2022-02-08-17:01:15,10.1.1.2,71,0.080,0.080,0.080,0.000,0.000,0.000
1644339675651294976,2022-02-08-17:01:15,10.1.1.2,39,0.050,0.050,0.050,0.000,0.000,0.000
1644339675752217088,2022-02-08-17:01:15,10.1.1.2,38,0.040,0.040,0.040,0.000,0.000,0.000
1644339675950705152,2022-02-08-17:01:15,10.1.1.2,37,0.020,0.020,0.020,0.000,0.000,0.000
1644339676450998016,2022-02-08-17:01:16,10.1.1.2,32,-0.030,-0.030,-0.030,0.000,0.000,0.000
1644339676870830080,2022-02-08-17:01:16,10.1.1.2,39,-0.070,-0.070,-0.070,0.000,0.000,0.000
1644339676994220032,2022-02-08-17:01:16,10.1.1.2,57,-0.080,-0.080,-0.080,0.000,0.000,0.000
1644339677074259968,2022-02-08-17:01:17,10.1.1.2,37,-0.090,-0.090,-0.090,0.000,0.000,0.000
1644339677189971968,2022-02-08-17:01:17,10.1.1.2,51,-0.100,-0.100,-0.100,0.000,0.000,0.000
1644339677889064960,2022-02-08-17:01:17,10.1.1.2,39,-0.030,-0.030,-0.030,0.000,0.000,0.000
1644339677988365824,2022-02-08-17:01:17,10.1.1.2,36,-0.020,-0.020,-0.020,0.000,0.000,0.000
1644339678082385152,2022-02-08-17:01:18,10.1.1.2,28,-0.010,-0.010,-0.010,0.000,0.000,0.000
1644339678404397056,2022-02-08-17:01:18,10.1.1.2,46,0.020,0.020,0.020,0.000,0.000,0.000
1644339678517036032,2022-02-08-17:01:18,10.1.1.2,58,0.030,0.030,0.030,0.000,0.000,0.000
1644339678585628160,2022-02-08-17:01:18,10.1.1.2,26,0.040,0.040,0.040,0.000,0.000,0.000
1644339679301785088,2022-02-08-17:01:19,10.1.1.2,30,0.090,0.090,0.090,0.000,0.000,0.000
1644339679409563136,2022-02-08-17:01:19,10.1.1.2,37,0.080,0.080,0.080,0.000,0.000,0.000
1644339679517019904,2022-02-08-17:01:19,10.1.1.2,44,0.070,0.070,0.070,0.000,0.000,0.000
1644339680117559040,2022-02-08-17:01:20,10.1.1.2,39,0.010,0.010,0.010,0.000,0.000,0.000
1644339680217794048,2022-02-08-17:01:20,10.1.1.2,38,0.000,0.000,0.000,0.000,0.000,0.000
1644339680418062080,2022-02-08-17:01:20,10.1.1.2,29,-0.020,-0.020,-0.020,0.000,0.000,0.000
1644339680517591040,2022-02-08-17:01:20,10.1.1.2,28,-0.030,-0.030,-0.030,0.000,0.000,0.000
1644339681138034176,2022-02-08-17:01:21,10.1.1.2,39,-0.090,-0.090,-0.090,0.000,0.000,0.000
1644339681239627008,2022-02-08-17:01:21,10.1.1.2,38,-0.100,-0.100,-0.100,0.000,0.000,0.000
1644339681338447104,2022-02-08-17:01:21,10.1.1.2,37,-0.090,-0.090,-0.090,0.000,0.000,0.000
1644339681640779008,2022-02-08-17:01:21,10.1.1.2,35,-0.060,-0.060,-0.060,0.000,0.000,0.000
1644339681963597056,2022-02-08-17:01:21,10.1.1.2,55,-0.030,-0.030,-0.030,0.000,0.000,0.000
1644339682253984000,2022-02-08-17:01:22,10.1.1.2,37,0.000,0.000,0.000,0.000,0.000,0.000
1644339682353341952,2022-02-08-17:01:22,10.1.1.2,36,0.010,0.010,0.010,0.000,0.000,0.000
1644339683373581824,2022-02-08-17:01:23,10.1.1.2,39,0.090,0.090,0.090,0.000,0.000,0.000
1644339683473094912,2022-02-08-17:01:23,10.1.1.2,38,0.080,0.080,0.080,0.000,0.000,0.000
1644339683572343040,2022-02-08-17:01:23,10.1.1.2,37,0.070,0.070,0.070,0.000,0.000,0.000
1644339683673852928,2022-02-08-17:01:23,10.1.1.2,37,0.060,0.060,0.060,0.000,0.000,0.000
1644339684417582080,2022-02-08-17:01:24,10.1.1.2,72,-0.010,-0.010,-0.010,0.000,0.000,0.000
1644339684485244928,2022-02-08-17:01:24,10.1.1.2,39,-0.020,-0.020,-0.020,0.000,0.000,0.000
1644339684727206912,2022-02-08-17:01:24,10.1.1.2,77,-0.040,-0.040,-0.040,0.000,0.000,0.000
1644339684998660096,2022-02-08-17:01:24,10.1.1.2,38,-0.070,-0.070,-0.070,0.000,0.000,0.000
1644339685097954048,2022-02-08-17:01:25,10.1.1.2,37,-0.080,-0.080,-0.080,0.000,0.000,0.000
1644339685197287936,2022-02-08-17:01:25,10.1.1.2,37,-0.090,-0.090,-0.090,0.000,0.000,0.000
1644339685383268096,2022-02-08-17:01:25,10.1.1.2,21,-0.090,-0.090,-0.090,0.000,0.000,0.000
1644339685697320960,2022-02-08-17:01:25,10.1.1.2,29,-0.060,-0.060,-0.060,0.000,0.000,0.000
1644339685797650176,2022-02-08-17:01:25,10.1.1.2,27,-0.050,-0.050,-0.050,0.000,0.000,0.000
1644339686005963008,2022-02-08-17:01:26,10.1.1.2,24,-0.030,-0.030,-0.030,0.000,0.000,0.000
1644339686241157888,2022-02-08-17:01:26,10.1.1.2,59,-0.010,-0.010,-0.010,0.000,0.000,0.000
1644339686743983872,2022-02-08-17:01:26,10.1.1.2,52,0.040,0.040,0.040,0.000,0.000,0.000
1644339686831772160,2022-02-08-17:01:26,10.1.1.2,37,0.050,0.050,0.050,0.000,0.000,0.000
1644339686930100992,2022-02-08-17:01:26,10.1.1.2,36,0.060,0.060,0.060,0.000,0.000,0.000
1644339687630803200,2022-02-08-17:01:27,10.1.1.2,29,0.070,0.070,0.070,0.000,0.000,0.000
1644339687730850048,2022-02-08-17:01:27,10.1.1.2,27,0.060,0.060,0.060,0.000,0.000,0.000
1644339688244239104,2022-02-08-17:01:28,10.1.1.2,33,0.010,0.010,0.010,0.000,0.000,0.000
1644339688340687104,2022-02-08-17:01:28,10.1.1.2,26,0.000,0.000,0.000,0.000,0.000,0.000
1644339688560672000,2022-02-08-17:01:28,10.1.1.2,44,-0.020,-0.020,-0.020,0.000,0.000,0.000
1644339688949115136,2022-02-08-17:01:28,10.1.1.2,29,-0.060,-0.060,-0.060,0.000,0.000,0.000
1644339689050052864,2022-02-08-17:01:29,10.1.1.2,28,-0.070,-0.070,-0.070,0.000,0.000,0.000
1644339689149692928,2022-02-08-17:01:29,10.1.1.2,28,-0.080,-0.080,-0.080,0.000,0.000,0.000
1644339689249913856,2022-02-08-17:01:29,10.1.1.2,27,-0.090,-0.090,-0.090,0.000,0.000,0.000
1644339689351385088,2022-02-08-17:01:29,10.1.1.2,26,-0.100,-0.100,-0.100,0.000,0.000,0.000
1644339689655884032,2022-02-08-17:01:29,10.1.1.2,28,-0.070,-0.070,-0.070,0.000,0.000,0.000
1644339689881652992,2022-02-08-17:01:29,10.1.1.2,47,-0.050,-0.050,-0.050,0.000,0.000,0.000
1644339690070682112,2022-02-08-17:01:30,10.1.1.2,35,-0.030,-0.030,-0.030,0.000,0.000,0.000
1644339690171872000,2022-02-08-17:01:30,10.1.1.2,35,-0.020,-0.020,-0.020,0.000,0.000,0.000
1644339690269819136,2022-02-08-17:01:30,10.1.1.2,32,-0.010,-0.010,-0.010,0.000,0.000,0.000
1644339690573654784,2022-02-08-17:01:30,10.1.1.2,29,0.020,0.020,0.020,0.000,0.000,0.000
1644339690673777152,2022-02-08-17:01:30,10.1.1.2,26,0.030,0.030,0.030,0.000,0.000,0.000
1644339690878864128,2022-02-08-17:01:30,10.1.1.2,28,0.050,0.050,0.050,0.000,0.000,0.000
1644339691177596160,2022-02-08-17:01:31,10.1.1.2,24,0.080,0.080,0.080,0.000,0.000,0.000
1644339691398062848,2022-02-08-17:01:31,10.1.1.2,39,0.100,0.100,0.100,0.000,0.000,0.000
1644339691497016064,2022-02-08-17:01:31,10.1.1.2,38,0.090,0.090,0.090,0.000,0.000,0.000
1644339691597785856,2022-02-08-17:01:31,10.1.1.2,37,0.080,0.080,0.080,0.000,0.000,0.000
1644339691697374976,2022-02-08-17:01:31,10.1.1.2,36,0.070,0.070,0.070,0.000,0.000,0.000
1644339691998084096,2022-02-08-17:01:31,10.1.1.2,33,0.040,0.040,0.040,0.000,0.000,0.000
1644339692298084864,2022-02-08-17:01:32,10.1.1.2,30,0.010,0.010,0.010,0.000,0.000,0.000
1644339692401871872,2022-02-08-17:01:32,10.1.1.2,32,0.000,0.000,0.000,0.000,0.000,0.000
1644339692916652800,2022-02-08-17:01:32,10.1.1.2,39,-0.050,-0.050,-0.050,0.000,0.000,0.000
1644339693015945984,2022-02-08-17:01:33,10.1.1.2,29,-0.060,-0.060,-0.060,0.000,0.000,0.000
1644339693316987904,2022-02-08-17:01:33,10.1.1.2,29,-0.090,-0.090,-0.090,0.000,0.000,0.000
1644339693417455872,2022-02-08-17:01:33,10.1.1.2,28,-0.100,-0.100,-0.100,0.000,0.000,0.000
1644339693537763072,2022-02-08-17:01:33,10.1.1.2,46,-0.090,-0.090,-0.090,0.000,0.000,0.000
1644339694137809920,2022-02-08-17:01:34,10.1.1.2,39,-0.030,-0.030,-0.030,0.000,0.000,0.000
1644339694237971968,2022-02-08-17:01:34,10.1.1.2,38,-0.020,-0.020,-0.020,0.000,0.000,0.000
1644339694338077952,2022-02-08-17:01:34,10.1.1.2,37,-0.010,-0.010,-0.010,0.000,0.000,0.000
1644339694738887168,2022-02-08-17:01:34,10.1.1.2,29,0.030,0.030,0.030,0.000,0.000,0.000
1644339695368016896,2022-02-08-17:01:35,10.1.1.2,48,0.090,0.090,0.090,0.000,0.000,0.000
1644339695457884160,2022-02-08-17:01:35,10.1.1.2,34,0.100,0.100,0.100,0.000,0.000,0.000
1644339695560313088,2022-02-08-17:01:35,10.1.1.2,37,0.090,0.090,0.090,0.000,0.000,0.000
1644339695859411968,2022-02-08-17:01:35,10.1.1.2,27,0.060,0.060,0.060,0.000,0.000,0.000
1644339696070236928,2022-02-08-17:01:36,10.1.1.2,36,0.040,0.040,0.040,0.000,0.000,0.000
1644339696678496000,2022-02-08-17:01:36,10.1.1.2,38,-0.020,-0.020,-0.020,0.000,0.000,0.000
1644339697507355904,2022-02-08-17:01:37,10.1.1.2,46,-0.100,-0.100,-0.100,0.000,0.000,0.000
1644339697896784896,2022-02-08-17:01:37,10.1.1.2,29,-0.060,-0.060,-0.060,0.000,0.000,0.000
1644339697997380096,2022-02-08-17:01:37,10.1.1.2,29,-0.050,-0.050,-0.050,0.000,0.000,0.000
1644339698097347072,2022-02-08-17:01:38,10.1.1.2,28,-0.040,-0.040,-0.040,0.000,0.000,0.000
1644339698197537792,2022-02-08-17:01:38,10.1.1.2,27,-0.030,-0.030,-0.030,0.000,0.000,0.000
1644339698617484032,2022-02-08-17:01:38,10.1.1.2,39,0.010,0.010,0.010,0.000,0.000,0.000
1644339698716613888,2022-02-08-17:01:38,10.1.1.2,38,0.020,0.020,0.020,0.000,0.000,0.000
1644339698816802048,2022-02-08-17:01:38,10.1.1.2,37,0.030,0.030,0.030,0.000,0.000,0.000
1644339699416937984,2022-02-08-17:01:39,10.1.1.2,29,0.090,0.090,0.090,0.000,0.000,0.000
1644339699516398080,2022-02-08-17:01:39,10.1.1.2,28,0.100,0.100,0.100,0.000,0.000,0.000
1644339699836920064,2022-02-08-17:01:39,10.1.1.2,39,0.070,0.070,0.070,0.000,0.000,0.000
1644339699932851968,2022-02-08-17:01:39,10.1.1.2,34,0.060,0.060,0.060,0.000,0.000,0.000
1644339700038841856,2022-02-08-17:01:40,10.1.1.2,39,0.050,0.050,0.050,0.000,0.000,0.000
1644339700136413184,2022-02-08-17:01:40,10.1.1.2,36,0.040,0.040,0.040,0.000,0.000,0.000
1644339700241914880,2022-02-08-17:01:40,10.1.1.2,37,0.030,0.030,0.030,0.000,0.000,0.000
1644339700333576960,2022-02-08-17:01:40,10.1.1.2,26,0.020,0.020,0.020,0.000,0.000,0.000
1644339700651737856,2022-02-08-17:01:40,10.1.1.2,39,-0.010,-0.010,-0.010,0.000,0.000,0.000
1644339700739765760,2022-02-08-17:01:40,10.1.1.2,26,-0.020,-0.020,-0.020,0.000,0.000,0.000
1644339701063386880,2022-02-08-17:01:41,10.1.1.2,42,-0.050,-0.050,-0.050,0.000,0.000,0.000
1644339701159353088,2022-02-08-17:01:41,10.1.1.2,37,-0.060,-0.060,-0.060,0.000,0.000,0.000
1644339701258878976,2022-02-08-17:01:41,10.1.1.2,36,-0.070,-0.070,-0.070,0.000,0.000,0.000
1644339701461710848,2022-02-08-17:01:41,10.1.1.2,37,-0.090,-0.090,-0.090,0.000,0.000,0.000
1644339701643479040,2022-02-08-17:01:41,10.1.1.2,6,-0.090,-0.090,-0.090,0.000,0.000,0.000
1644339702162686208,2022-02-08-17:01:42,10.1.1.2,22,-0.040,-0.040,-0.040,0.000,0.000,0.000
1644339702273389056,2022-02-08-17:01:42,10.1.1.2,38,-0.030,-0.030,-0.030,0.000,0.000,0.000
1644339702373752064,2022-02-08-17:01:42,10.1.1.2,37,-0.020,-0.020,-0.020,0.000,0.000,0.000
1644339702473959936,2022-02-08-17:01:42,10.1.1.2,37,-0.010,-0.010,-0.010,0.000,0.000,0.000
1644339702674091008,2022-02-08-17:01:42,10.1.1.2,29,0.010,0.010,0.010,0.000,0.000,0.000
1644339702773583872,2022-02-08-17:01:42,10.1.1.2,28,0.020,0.020,0.020,0.000,0.000,0.000
1644339702952675072,2022-02-08-17:01:42,10.1.1.2,102,0.030,0.030,0.030,0.000,0.000,0.000
1644339703018821888,2022-02-08-17:01:43,10.1.1.2,67,0.040,0.040,0.040,0.000,0.000,0.000
1644339703179132928,2022-02-08-17:01:43,10.1.1.2,25,0.060,0.060,0.060,0.000,0.000,0.000
1644339703285538816,2022-02-08-17:01:43,10.1.1.2,26,0.070,0.070,0.070,0.000,0.000,0.000
1644339703481926912,2022-02-08-17:01:43,10.1.1.2,22,0.090,0.090,0.090,0.000,0.000,0.000
1644339703631640064,2022-02-08-17:01:43,10.1.1.2,71,0.100,0.100,0.100,0.000,0.000,0.000
1644339704410650880,2022-02-08-17:01:44,10.1.1.2,36,0.020,0.020,0.020,0.000,0.000,0.000
1644339704515085056,2022-02-08-17:01:44,10.1.1.2,40,0.010,0.010,0.010,0.000,0.000,0.000
1644339704912035840,2022-02-08-17:01:44,10.1.1.2,32,-0.030,-0.030,-0.030,0.000,0.000,0.000
1644339705111490048,2022-02-08-17:01:45,10.1.1.2,29,-0.050,-0.050,-0.050,0.000,0.000,0.000
1644339705211344128,2022-02-08-17:01:45,10.1.1.2,29,-0.060,-0.060,-0.060,0.000,0.000,0.000
1644339705513634048,2022-02-08-17:01:45,10.1.1.2,24,-0.090,-0.090,-0.090,0.000,0.000,0.000
1644339705698224128,2022-02-08-17:01:45,10.1.1.2,6,-0.090,-0.090,-0.090,0.000,0.000,0.000
1644339706036669952,2022-02-08-17:01:46,10.1.1.2,38,-0.060,-0.060,-0.060,0.000,0.000,0.000
1644339706136707072,2022-02-08-17:01:46,10.1.1.2,36,-0.050,-0.050,-0.050,0.000,0.000,0.000
1644339706338092032,2022-02-08-17:01:46,10.1.1.2,34,-0.030,-0.030,-0.030,0.000,0.000,0.000
1644339707163908864,2022-02-08-17:01:47,10.1.1.2,46,0.050,0.050,0.050,0.000,0.000,0.000
1644339707246080000,2022-02-08-17:01:47,10.1.1.2,21,0.060,0.060,0.060,0.000,0.000,0.000
1644339707357847808,2022-02-08-17:01:47,10.1.1.2,38,0.070,0.070,0.070,0.000,0.000,0.000
1644339707457651968,2022-02-08-17:01:47,10.1.1.2,37,0.080,0.080,0.080,0.000,0.000,0.000
1644339707777376768,2022-02-08-17:01:47,10.1.1.2,48,0.090,0.090,0.090,0.000,0.000,0.000
1644339707896621056,2022-02-08-17:01:47,10.1.1.2,65,0.080,0.080,0.080,0.000,0.000,0.000
1644339708160013824,2022-02-08-17:01:48,10.1.1.2,27,0.050,0.050,0.050,0.000,0.000,0.000
1644339708270735872,2022-02-08-17:01:48,10.1.1.2,35,0.040,0.040,0.040,0.000,0.000,0.000
1644339708682872064,2022-02-08-17:01:48,10.1.1.2,41,0.000,0.000,0.000,0.000,0.000,0.000
1644339708799444992,2022-02-08-17:01:48,10.1.1.2,55,-0.010,-0.010,-0.010,0.000,0.000,0.000
1644339708871383040,2022-02-08-17:01:48,10.1.1.2,26,-0.020,-0.020,-0.020,0.000,0.000,0.000
1644339709390690048,2022-02-08-17:01:49,10.1.1.2,39,-0.070,-0.070,-0.070,0.000,0.000,0.000
1644339709491600128,2022-02-08-17:01:49,10.1.1.2,38,-0.080,-0.080,-0.080,0.000,0.000,0.000
1644339709574939136,2022-02-08-17:01:49,10.1.1.2,22,-0.090,-0.090,-0.090,0.000,0.000,0.000
1644339709692035840,2022-02-08-17:01:49,10.1.1.2,36,-0.100,-0.100,-0.100,0.000,0.000,0.000
1644339709992482816,2022-02-08-17:01:49,10.1.1.2,27,-0.070,-0.070,-0.070,0.000,0.000,0.000
1644339710491159040,2022-02-08-17:01:50,10.1.1.2,20,-0.020,-0.020,-0.020,0.000,0.000,0.000
1644339710610609920,2022-02-08-17:01:50,10.1.1.2,38,-0.010,-0.010,-0.010,0.000,0.000,0.000
1644339710710644992,2022-02-08-17:01:50,10.1.1.2,37,0.000,0.000,0.000,0.000,0.000,0.000
1644339710811297024,2022-02-08-17:01:50,10.1.1.2,36,0.010,0.010,0.010,0.000,0.000,0.000
1644339711310508032,2022-02-08-17:01:51,10.1.1.2,28,0.060,0.060,0.060,0.000,0.000,0.000
1644339711410940928,2022-02-08-17:01:51,10.1.1.2,26,0.070,0.070,0.070,0.000,0.000,0.000
1644339712010662912,2022-02-08-17:01:52,10.1.1.2,19,0.070,0.070,0.070,0.000,0.000,0.000
1644339712130403072,2022-02-08-17:01:52,10.1.1.2,38,0.060,0.060,0.060,0.000,0.000,0.000
1644339712230456064,2022-02-08-17:01:52,10.1.1.2,37,0.050,0.050,0.050,0.000,0.000,0.000
1644339712532217856,2022-02-08-17:01:52,10.1.1.2,29,0.020,0.020,0.020,0.000,0.000,0.000
1644339712630672896,2022-02-08-17:01:52,10.1.1.2,28,0.010,0.010,0.010,0.000,0.000,0.000
1644339712731781120,2022-02-08-17:01:52,10.1.1.2,27,0.000,0.000,0.000,0.000,0.000,0.000
1644339712934059008,2022-02-08-17:01:52,10.1.1.2,18,-0.020,-0.020,-0.020,0.000,0.000,0.000
1644339713352314112,2022-02-08-17:01:53,10.1.1.2,25,-0.060,-0.060,-0.060,0.000,0.000,0.000
1644339713466471936,2022-02-08-17:01:53,10.1.1.2,37,-0.070,-0.070,-0.070,0.000,0.000,0.000
1644339714052290816,2022-02-08-17:01:54,10.1.1.2,11,-0.070,-0.070,-0.070,0.000,0.000,0.000
1644339714273235968,2022-02-08-17:01:54,10.1.1.2,28,-0.050,-0.050,-0.050,0.000,0.000,0.000
1644339714372759040,2022-02-08-17:01:54,10.1.1.2,26,-0.040,-0.040,-0.040,0.000,0.000,0.000
1644339714593811968,2022-02-08-17:01:54,10.1.1.2,38,-0.020,-0.020,-0.020,0.000,0.000,0.000
1644339714693082112,2022-02-08-17:01:54,10.1.1.2,38,-0.010,-0.010,-0.010,0.000,0.000,0.000
1644339714799199232,2022-02-08-17:01:54,10.1.1.2,40,0.000,0.000,0.000,0.000,0.000,0.000
1644339715002074880,2022-02-08-17:01:55,10.1.1.2,38,0.020,0.020,0.020,0.000,0.000,0.000
1644339715292644096,2022-02-08-17:01:55,10.1.1.2,29,0.050,0.050,0.050,0.000,0.000,0.000
1644339715494525952,2022-02-08-17:01:55,10.1.1.2,29,0.070,0.070,0.070,0.000,0.000,0.000
1644339715601774080,2022-02-08-17:01:55,10.1.1.2,29,0.080,0.080,0.080,0.000,0.000,0.000
1644339715901093888,2022-02-08-17:01:55,10.1.1.2,24,0.090,0.090,0.090,0.000,0.000,0.000
1644339716217174016,2022-02-08-17:01:56,10.1.1.2,43,0.060,0.060,0.060,0.000,0.000,0.000
1644339716317204992,2022-02-08-17:01:56,10.1.1.2,42,0.050,0.050,0.050,0.000,0.000,0.000
1644339716413424128,2022-02-08-17:01:56,10.1.1.2,37,0.040,0.040,0.040,0.000,0.000,0.000
1644339716718908160,2022-02-08-17:01:56,10.1.1.2,39,0.010,0.010,0.010,0.000,0.000,0.000
1644339716817915904,2022-02-08-17:01:56,10.1.1.2,38,0.000,0.000,0.000,0.000,0.000,0.000
1644339716918704128,2022-02-08-17:01:56,10.1.1.2,36,-0.010,-0.010,-0.010,0.000,0.000,0.000
1644339717649074944,2022-02-08-17:01:57,10.1.1.2,61,-0.080,-0.080,-0.080,0.000,0.000,0.000
1644339717818995968,2022-02-08-17:01:57,10.1.1.2,29,-0.100,-0.100,-0.100,0.000,0.000,0.000
1644339717910782976,2022-02-08-17:01:57,10.1.1.2,19,-0.090,-0.090,-0.090,0.000,0.000,0.000
1644339718018598144,2022-02-08-17:01:58,10.1.1.2,26,-0.080,-0.080,-0.080,0.000,0.000,0.000
1644339718539027968,2022-02-08-17:01:58,10.1.1.2,39,-0.030,-0.030,-0.030,0.000,0.000,0.000
1644339719038669056,2022-02-08-17:01:59,10.1.1.2,27,0.020,0.020,0.020,0.000,0.000,0.000
1644339719140151040,2022-02-08-17:01:59,10.1.1.2,26,0.030,0.030,0.030,0.000,0.000,0.000
1644339719341936128,2022-02-08-17:01:59,10.1.1.2,26,0.050,0.050,0.050,0.000,0.000,0.000
1644339719652014080,2022-02-08-17:01:59,10.1.1.2,29,0.080,0.080,0.080,0.000,0.000,0.000
1644339719751116032,2022-02-08-17:01:59,10.1.1.2,26,0.090,0.090,0.090,0.000,0.000,0.000
1644339719934099968,2022-02-08-17:01:59,10.1.1.2,6,0.090,0.090,0.090,0.000,0.000,0.000
1644339720054577152,2022-02-08-17:02:00,10.1.1.2,23,0.080,0.080,0.080,0.000,0.000,0.000
1644339720474600192,2022-02-08-17:02:00,10.1.1.2,39,0.040,0.040,0.040,0.000,0.000,0.000
1644339720573359104,2022-02-08-17:02:00,10.1.1.2,37,0.030,0.030,0.030,0.000,0.000,0.000
1644339720674955008,2022-02-08-17:02:00,10.1.1.2,37,0.020,0.020,0.020,0.000,0.000,0.000
1644339720975666944,2022-02-08-17:02:00,10.1.1.2,28,-0.010,-0.010,-0.010,0.000,0.000,0.000
1644339721073069056,2022-02-08-17:02:01,10.1.1.2,26,-0.020,-0.020,-0.020,0.000,0.000,0.000
1644339721794734080,2022-02-08-17:02:01,10.1.1.2,39,-0.090,-0.090,-0.090,0.000,0.000,0.000
1644339721894360064,2022-02-08-17:02:01,10.1.1.2,39,-0.100,-0.100,-0.100,0.000,0.000,0.000
1644339721993739008,2022-02-08-17:02:01,10.1.1.2,38,-0.090,-0.090,-0.090,0.000,0.000,0.000
1644339722093346048,2022-02-08-17:02:02,10.1.1.2,36,-0.080,-0.080,-0.080,0.000,0.000,0.000
1644339722494247936,2022-02-08-17:02:02,10.1.1.2,28,-0.040,-0.040,-0.040,0.000,0.000,0.000
1644339722593094144,2022-02-08-17:02:02,10.1.1.2,27,-0.030,-0.030,-0.030,0.000,0.000,0.000
1644339722694036992,2022-02-08-17:02:02,10.1.1.2,26,-0.020,-0.020,-0.020,0.000,0.000,0.000
1644339723314152960,2022-02-08-17:02:03,10.1.1.2,39,0.040,0.040,0.040,0.000,0.000,0.000
1644339724035814912,2022-02-08-17:02:04,10.1.1.2,51,0.090,0.090,0.090,0.000,0.000,0.000
1644339724217579008,2022-02-08-17:02:04,10.1.1.2,31,0.070,0.070,0.070,0.000,0.000,0.000
1644339724316263936,2022-02-08-17:02:04,10.1.1.2,29,0.060,0.060,0.060,0.000,0.000,0.000
1644339724528569088,2022-02-08-17:02:04,10.1.1.2,38,0.040,0.040,0.040,0.000,0.000,0.000
1644339724617607168,2022-02-08-17:02:04,10.1.1.2,27,0.030,0.030,0.030,0.000,0.000,0.000
1644339724718571776,2022-02-08-17:02:04,10.1.1.2,26,0.020,0.020,0.020,0.000,0.000,0.000
1644339724918227968,2022-02-08-17:02:04,10.1.1.2,24,0.000,0.000,0.000,0.000,0.000,0.000
1644339725240848896,2022-02-08-17:02:05,10.1.1.2,41,-0.030,-0.030,-0.030,0.000,0.000,0.000
1644339725322042880,2022-02-08-17:02:05,10.1.1.2,22,-0.039,-0.039,-0.039,0.000,0.000,0.000
1644339725439412224,2022-02-08-17:02:05,10.1.1.2,39,-0.050,-0.050,-0.050,0.000,0.000,0.000
1644339725539129088,2022-02-08-17:02:05,10.1.1.2,38,-0.060,-0.060,-0.060,0.000,0.000,0.000
1644339725638347008,2022-02-08-17:02:05,10.1.1.2,37,-0.070,-0.070,-0.070,0.000,0.000,0.000
1644339725739488000,2022-02-08-17:02:05,10.1.1.2,36,-0.080,-0.080,-0.080,0.000,0.000,0.000
1644339726112421888,2022-02-08-17:02:06,10.1.1.2,5,-0.080,-0.080,-0.080,0.000,0.000,0.000
1644339726337945856,2022-02-08-17:02:06,10.1.1.2,27,-0.060,-0.060,-0.060,0.000,0.000,0.000
1644339726965743104,2022-02-08-17:02:06,10.1.1.2,39,0.000,0.000,0.000,0.000,0.000,0.000
1644339727557825024,2022-02-08-17:02:07,10.1.1.2,27,0.060,0.060,0.060,0.000,0.000,0.000
1644339727657419008,2022-02-08-17:02:07,10.1.1.2,26,0.070,0.070,0.070,0.000,0.000,0.000
1644339728258471936,2022-02-08-17:02:08,10.1.1.2,19,0.070,0.070,0.070,0.000,0.000,0.000
1644339728377594112,2022-02-08-17:02:08,10.1.1.2,38,0.060,0.060,0.060,0.000,0.000,0.000
1644339729277703168,2022-02-08-17:02:09,10.1.1.2,28,-0.030,-0.030,-0.030,0.000,0.000,0.000
1644339729377572096,2022-02-08-17:02:09,10.1.1.2,27,-0.040,-0.040,-0.040,0.000,0.000,0.000
1644339729704929024,2022-02-08-17:02:09,10.1.1.2,43,-0.070,-0.070,-0.070,0.000,0.000,0.000
1644339729797602816,2022-02-08-17:02:09,10.1.1.2,37,-0.080,-0.080,-0.080,0.000,0.000,0.000
1644339729897741056,2022-02-08-17:02:09,10.1.1.2,35,-0.090,-0.090,-0.090,0.000,0.000,0.000
1644339730085125888,2022-02-08-17:02:10,10.1.1.2,12,-0.090,-0.090,-0.090,0.000,0.000,0.000
1644339730397263104,2022-02-08-17:02:10,10.1.1.2,28,-0.060,-0.060,-0.060,0.000,0.000,0.000
1644339730496768000,2022-02-08-17:02:10,10.1.1.2,26,-0.050,-0.050,-0.050,0.000,0.000,0.000
1644339731002192128,2022-02-08-17:02:11,10.1.1.2,28,0.000,0.000,0.000,0.000,0.000,0.000
1644339731213082112,2022-02-08-17:02:11,10.1.1.2,37,0.020,0.020,0.020,0.000,0.000,0.000
1644339731713264896,2022-02-08-17:02:11,10.1.1.2,30,0.070,0.070,0.070,0.000,0.000,0.000
1644339732111982080,2022-02-08-17:02:12,10.1.1.2,20,0.089,0.089,0.089,0.000,0.000,0.000
1644339732232489216,2022-02-08-17:02:12,10.1.1.2,36,0.080,0.080,0.080,0.000,0.000,0.000
1644339732835449088,2022-02-08-17:02:12,10.1.1.2,28,0.020,0.020,0.020,0.000,0.000,0.000
1644339732934305024,2022-02-08-17:02:12,10.1.1.2,27,0.010,0.010,0.010,0.000,0.000,0.000
1644339733556078848,2022-02-08-17:02:13,10.1.1.2,39,-0.050,-0.050,-0.050,0.000,0.000,0.000
1644339733654799104,2022-02-08-17:02:13,10.1.1.2,37,-0.060,-0.060,-0.060,0.000,0.000,0.000
1644339733756270848,2022-02-08-17:02:13,10.1.1.2,36,-0.070,-0.070,-0.070,0.000,0.000,0.000
1644339734173104896,2022-02-08-17:02:14,10.1.1.2,48,-0.090,-0.090,-0.090,0.000,0.000,0.000
1644339734356583168,2022-02-08-17:02:14,10.1.1.2,30,-0.070,-0.070,-0.070,0.000,0.000,0.000
1644339734455659008,2022-02-08-17:02:14,10.1.1.2,28,-0.060,-0.060,-0.060,0.000,0.000,0.000
1644339734555768064,2022-02-08-17:02:14,10.1.1.2,27,-0.050,-0.050,-0.050,0.000,0.000,0.000
1644339734655694848,2022-02-08-17:02:14,10.1.1.2,26,-0.040,-0.040,-0.040,0.000,0.000,0.000
1644339735475272960,2022-02-08-17:02:15,10.1.1.2,39,0.040,0.040,0.040,0.000,0.000,0.000
1644339735576345088,2022-02-08-17:02:15,10.1.1.2,38,0.050,0.050,0.050,0.000,0.000,0.000
1644339735675620096,2022-02-08-17:02:15,10.1.1.2,38,0.060,0.060,0.060,0.000,0.000,0.000
1644339735772787968,2022-02-08-17:02:15,10.1.1.2,34,0.070,0.070,0.070,0.000,0.000,0.000
1644339735875636992,2022-02-08-17:02:15,10.1.1.2,37,0.080,0.080,0.080,0.000,0.000,0.000
1644339735976016896,2022-02-08-17:02:15,10.1.1.2,36,0.090,0.090,0.090,0.000,0.000,0.000
1644339736154746112,2022-02-08-17:02:16,10.1.1.2,14,0.090,0.090,0.090,0.000,0.000,0.000
1644339736775801856,2022-02-08-17:02:16,10.1.1.2,30,0.030,0.030,0.030,0.000,0.000,0.000
1644339736875268096,2022-02-08-17:02:16,10.1.1.2,29,0.020,0.020,0.020,0.000,0.000,0.000
1644339736975251968,2022-02-08-17:02:16,10.1.1.2,27,0.010,0.010,0.010,0.000,0.000,0.000
1644339737075851008,2022-02-08-17:02:17,10.1.1.2,26,0.000,0.000,0.000,0.000,0.000,0.000
1644339737895576832,2022-02-08-17:02:17,10.1.1.2,38,-0.080,-0.080,-0.080,0.000,0.000,0.000
1644339737995976960,2022-02-08-17:02:17,10.1.1.2,37,-0.090,-0.090,-0.090,0.000,0.000,0.000
1644339738096930048,2022-02-08-17:02:18,10.1.1.2,37,-0.100,-0.100,-0.100,0.000,0.000,0.000
1644339738413927168,2022-02-08-17:02:18,10.1.1.2,50,-0.070,-0.070,-0.070,0.000,0.000,0.000
1644339738493108992,2022-02-08-17:02:18,10.1.1.2,28,-0.060,-0.060,-0.060,0.000,0.000,0.000
1644339738616632832,2022-02-08-17:02:18,10.1.1.2,52,-0.050,-0.050,-0.050,0.000,0.000,0.000
1644339738712718848,2022-02-08-17:02:18,10.1.1.2,44,-0.040,-0.040,-0.040,0.000,0.000,0.000
1644339738844891904,2022-02-08-17:02:18,10.1.1.2,76,-0.030,-0.030,-0.030,0.000,0.000,0.000
1644339740168354048,2022-02-08-17:02:20,10.1.1.2,71,0.100,0.100,0.100,0.000,0.000,0.000
1644339740358833920,2022-02-08-17:02:20,10.1.1.2,54,0.080,0.080,0.080,0.000,0.000,0.000
1644339740638091008,2022-02-08-17:02:20,10.1.1.2,29,0.050,0.050,0.050,0.000,0.000,0.000
1644339740738102016,2022-02-08-17:02:20,10.1.1.2,28,0.040,0.040,0.040,0.000,0.000,0.000
1644339740838622976,2022-02-08-17:02:20,10.1.1.2,28,0.030,0.030,0.030,0.000,0.000,0.000
1644339740938504960,2022-02-08-17:02:20,10.1.1.2,27,0.020,0.020,0.020,0.000,0.000,0.000
1644339741656564992,2022-02-08-17:02:21,10.1.1.2,34,-0.050,-0.050,-0.050,0.000,0.000,0.000
1644339741753155840,2022-02-08-17:02:21,10.1.1.2,30,-0.060,-0.060,-0.060,0.000,0.000,0.000
1644339741858279936,2022-02-08-17:02:21,10.1.1.2,37,-0.070,-0.070,-0.070,0.000,0.000,0.000
1644339742441613056,2022-02-08-17:02:22,10.1.1.2,6,-0.070,-0.070,-0.070,0.000,0.000,0.000
1644339742565623040,2022-02-08-17:02:22,10.1.1.2,27,-0.060,-0.060,-0.060,0.000,0.000,0.000
1644339742767930880,2022-02-08-17:02:22,10.1.1.2,28,-0.040,-0.040,-0.040,0.000,0.000,0.000
1644339743076910080,2022-02-08-17:02:23,10.1.1.2,29,-0.010,-0.010,-0.010,0.000,0.000,0.000
1644339743176742912,2022-02-08-17:02:23,10.1.1.2,29,0.000,0.000,0.000,0.000,0.000,0.000
1644339743276557824,2022-02-08-17:02:23,10.1.1.2,26,0.010,0.010,0.010,0.000,0.000,0.000
1644339743824950016,2022-02-08-17:02:23,10.1.1.2,67,0.060,0.060,0.060,0.000,0.000,0.000
1644339744574462976,2022-02-08-17:02:24,10.1.1.2,9,0.060,0.060,0.060,0.000,0.000,0.000
1644339744695280128,2022-02-08-17:02:24,10.1.1.2,27,0.050,0.050,0.050,0.000,0.000,0.000
1644339745314093056,2022-02-08-17:02:25,10.1.1.2,39,-0.010,-0.010,-0.010,0.000,0.000,0.000
1644339745414233856,2022-02-08-17:02:25,10.1.1.2,38,-0.020,-0.020,-0.020,0.000,0.000,0.000
1644339745514408192,2022-02-08-17:02:25,10.1.1.2,37,-0.030,-0.030,-0.030,0.000,0.000,0.000
1644339745816838912,2022-02-08-17:02:25,10.1.1.2,37,-0.060,-0.060,-0.060,0.000,0.000,0.000
1644339746417232896,2022-02-08-17:02:26,10.1.1.2,29,-0.080,-0.080,-0.080,0.000,0.000,0.000
1644339746533406976,2022-02-08-17:02:26,10.1.1.2,45,-0.070,-0.070,-0.070,0.000,0.000,0.000
1644339746716612096,2022-02-08-17:02:26,10.1.1.2,26,-0.050,-0.050,-0.050,0.000,0.000,0.000
1644339747236801024,2022-02-08-17:02:27,10.1.1.2,39,0.000,0.000,0.000,0.000,0.000,0.000
1644339747338588928,2022-02-08-17:02:27,10.1.1.2,37,0.010,0.010,0.010,0.000,0.000,0.000
1644339747539393792,2022-02-08-17:02:27,10.1.1.2,27,0.030,0.030,0.030,0.000,0.000,0.000
1644339747664664064,2022-02-08-17:02:27,10.1.1.2,51,0.040,0.040,0.040,0.000,0.000,0.000
1644339747749649152,2022-02-08-17:02:27,10.1.1.2,36,0.050,0.050,0.050,0.000,0.000,0.000
1644339748158994944,2022-02-08-17:02:28,10.1.1.2,38,0.090,0.090,0.090,0.000,0.000,0.000
1644339748259608064,2022-02-08-17:02:28,10.1.1.2,37,0.100,0.100,0.100,0.000,0.000,0.000
1644339749275173888,2022-02-08-17:02:29,10.1.1.2,39,0.000,0.000,0.000,0.000,0.000,0.000
1644339749375057920,2022-02-08-17:02:29,10.1.1.2,38,-0.010,-0.010,-0.010,0.000,0.000,0.000
1644339749475367936,2022-02-08-17:02:29,10.1.1.2,38,-0.020,-0.020,-0.020,0.000,0.000,0.000
1644339749575587072,2022-02-08-17:02:29,10.1.1.2,37,-0.030,-0.030,-0.030,0.000,0.000,0.000
1644339749674726912,2022-02-08-17:02:29,10.1.1.2,36,-0.040,-0.040,-0.040,0.000,0.000,0.000
1644339749866411008,2022-02-08-17:02:29,10.1.1.2,22,-0.060,-0.060,-0.060,0.000,0.000,0.000
1644339749968729856,2022-02-08-17:02:29,10.1.1.2,23,-0.070,-0.070,-0.070,0.000,0.000,0.000
1644339750175152128,2022-02-08-17:02:30,10.1.1.2,29,-0.090,-0.090,-0.090,0.000,0.000,0.000
1644339750275547904,2022-02-08-17:02:30,10.1.1.2,27,-0.100,-0.100,-0.100,0.000,0.000,0.000
1644339750481430016,2022-02-08-17:02:30,10.1.1.2,29,-0.080,-0.080,-0.080,0.000,0.000,0.000
1644339750581743104,2022-02-08-17:02:30,10.1.1.2,28,-0.070,-0.070,-0.070,0.000,0.000,0.000
1644339750894859008,2022-02-08-17:02:30,10.1.1.2,38,-0.040,-0.040,-0.040,0.000,0.000,0.000
1644339750999773952,2022-02-08-17:02:30,10.1.1.2,38,-0.030,-0.030,-0.030,0.000,0.000,0.000
1644339751591020032,2022-02-08-17:02:31,10.1.1.2,29,0.030,0.030,0.030,0.000,0.000,0.000
1644339751689757952,2022-02-08-17:02:31,10.1.1.2,28,0.040,0.040,0.040,0.000,0.000,0.000
1644339751797756928,2022-02-08-17:02:31,10.1.1.2,33,0.050,0.050,0.050,0.000,0.000,0.000
1644339751997463040,2022-02-08-17:02:31,10.1.1.2,29,0.070,0.070,0.070,0.000,0.000,0.000
1644339752097115904,2022-02-08-17:02:32,10.1.1.2,27,0.080,0.080,0.080,0.000,0.000,0.000
1644339752196978176,2022-02-08-17:02:32,10.1.1.2,27,0.090,0.090,0.090,0.000,0.000,0.000
1644339752297568000,2022-02-08-17:02:32,10.1.1.2,26,0.100,0.100,0.100,0.000,0.000,0.000
1644339752716139008,2022-02-08-17:02:32,10.1.1.2,39,0.060,0.060,0.060,0.000,0.000,0.000
1644339752817356032,2022-02-08-17:02:32,10.1.1.2,38,0.050,0.050,0.050,0.000,0.000,0.000
1644339752917831936,2022-02-08-17:02:32,10.1.1.2,37,0.040,0.040,0.040,0.000,0.000,0.000
1644339753016477952,2022-02-08-17:02:33,10.1.1.2,36,0.030,0.030,0.030,0.000,0.000,0.000
1644339753617537024,2022-02-08-17:02:33,10.1.1.2,29,-0.030,-0.030,-0.030,0.000,0.000,0.000
1644339753717299968,2022-02-08-17:02:33,10.1.1.2,28,-0.040,-0.040,-0.040,0.000,0.000,0.000
1644339753816878080,2022-02-08-17:02:33,10.1.1.2,27,-0.050,-0.050,-0.050,0.000,0.000,0.000
1644339753916624896,2022-02-08-17:02:33,10.1.1.2,27,-0.060,-0.060,-0.060,0.000,0.000,0.000
1644339754537235968,2022-02-08-17:02:34,10.1.1.2,37,-0.080,-0.080,-0.080,0.000,0.000,0.000
1644339755137378816,2022-02-08-17:02:35,10.1.1.2,29,-0.020,-0.020,-0.020,0.000,0.000,0.000
1644339755237231872,2022-02-08-17:02:35,10.1.1.2,28,-0.010,-0.010,-0.010,0.000,0.000,0.000
1644339755758167040,2022-02-08-17:02:35,10.1.1.2,39,0.040,0.040,0.040,0.000,0.000,0.000
1644339755857980928,2022-02-08-17:02:35,10.1.1.2,38,0.050,0.050,0.050,0.000,0.000,0.000
1644339755957856000,2022-02-08-17:02:35,10.1.1.2,36,0.060,0.060,0.060,0.000,0.000,0.000
1644339756259665920,2022-02-08-17:02:36,10.1.1.2,29,0.090,0.090,0.090,0.000,0.000,0.000
1644339756358760960,2022-02-08-17:02:36,10.1.1.2,28,0.100,0.100,0.100,0.000,0.000,0.000
1644339756478940928,2022-02-08-17:02:36,10.1.1.2,44,0.090,0.090,0.090,0.000,0.000,0.000
1644339756658725120,2022-02-08-17:02:36,10.1.1.2,19,0.070,0.070,0.070,0.000,0.000,0.000
1644339756778838016,2022-02-08-17:02:36,10.1.1.2,38,0.060,0.060,0.060,0.000,0.000,0.000
1644339756878789888,2022-02-08-17:02:36,10.1.1.2,37,0.050,0.050,0.050,0.000,0.000,0.000
1644339756978296064,2022-02-08-17:02:36,10.1.1.2,36,0.040,0.040,0.040,0.000,0.000,0.000
1644339757378601984,2022-02-08-17:02:37,10.1.1.2,28,0.000,0.000,0.000,0.000,0.000,0.000
1644339757713228032,2022-02-08-17:02:37,10.1.1.2,56,-0.030,-0.030,-0.030,0.000,0.000,0.000
1644339757895031808,2022-02-08-17:02:37,10.1.1.2,34,-0.050,-0.050,-0.050,0.000,0.000,0.000
1644339758213159936,2022-02-08-17:02:38,10.1.1.2,49,-0.080,-0.080,-0.080,0.000,0.000,0.000
1644339758346575872,2022-02-08-17:02:38,10.1.1.2,79,-0.090,-0.090,-0.090,0.000,0.000,0.000
1644339758477132032,2022-02-08-17:02:38,10.1.1.2,5,-0.090,-0.090,-0.090,0.000,0.000,0.000
1644339758902894848,2022-02-08-17:02:38,10.1.1.2,27,-0.050,-0.050,-0.050,0.000,0.000,0.000
1644339759011874816,2022-02-08-17:02:39,10.1.1.2,36,-0.040,-0.040,-0.040,0.000,0.000,0.000
1644339759513456128,2022-02-08-17:02:39,10.1.1.2,28,0.010,0.010,0.010,0.000,0.000,0.000
1644339759613251072,2022-02-08-17:02:39,10.1.1.2,26,0.020,0.020,0.020,0.000,0.000,0.000
1644339759711790080,2022-02-08-17:02:39,10.1.1.2,25,0.030,0.030,0.030,0.000,0.000,0.000
1644339760133219840,2022-02-08-17:02:40,10.1.1.2,39,0.070,0.070,0.070,0.000,0.000,0.000
1644339760231672064,2022-02-08-17:02:40,10.1.1.2,38,0.080,0.080,0.080,0.000,0.000,0.000
1644339760332498176,2022-02-08-17:02:40,10.1.1.2,37,0.090,0.090,0.090,0.000,0.000,0.000
1644339760422987008,2022-02-08-17:02:40,10.1.1.2,25,0.100,0.100,0.100,0.000,0.000,0.000
1644339760632946944,2022-02-08-17:02:40,10.1.1.2,30,0.080,0.080,0.080,0.000,0.000,0.000
1644339760831901952,2022-02-08-17:02:40,10.1.1.2,29,0.060,0.060,0.060,0.000,0.000,0.000
1644339760932168960,2022-02-08-17:02:40,10.1.1.2,25,0.050,0.050,0.050,0.000,0.000,0.000
1644339761452285952,2022-02-08-17:02:41,10.1.1.2,39,0.000,0.000,0.000,0.000,0.000,0.000
1644339761553549056,2022-02-08-17:02:41,10.1.1.2,39,-0.010,-0.010,-0.010,0.000,0.000,0.000
1644339761641725952,2022-02-08-17:02:41,10.1.1.2,26,-0.020,-0.020,-0.020,0.000,0.000,0.000
1644339761946187008,2022-02-08-17:02:41,10.1.1.2,26,-0.050,-0.050,-0.050,0.000,0.000,0.000
1644339762556104960,2022-02-08-17:02:42,10.1.1.2,29,-0.090,-0.090,-0.090,0.000,0.000,0.000
1644339762655757824,2022-02-08-17:02:42,10.1.1.2,28,-0.080,-0.080,-0.080,0.000,0.000,0.000
1644339762755596032,2022-02-08-17:02:42,10.1.1.2,26,-0.070,-0.070,-0.070,0.000,0.000,0.000
1644339762856036864,2022-02-08-17:02:42,10.1.1.2,26,-0.060,-0.060,-0.060,0.000,0.000,0.000
1644339762955727104,2022-02-08-17:02:42,10.1.1.2,25,-0.050,-0.050,-0.050,0.000,0.000,0.000
1644339763472562944,2022-02-08-17:02:43,10.1.1.2,35,0.000,0.000,0.000,0.000,0.000,0.000
1644339763881628160,2022-02-08-17:02:43,10.1.1.2,39,0.040,0.040,0.040,0.000,0.000,0.000
1644339763979834112,2022-02-08-17:02:43,10.1.1.2,38,0.050,0.050,0.050,0.000,0.000,0.000
1644339764079979008,2022-02-08-17:02:44,10.1.1.2,38,0.060,0.060,0.060,0.000,0.000,0.000
1644339764180440064,2022-02-08-17:02:44,10.1.1.2,37,0.070,0.070,0.070,0.000,0.000,0.000
1644339764271538944,2022-02-08-17:02:44,10.1.1.2,26,0.080,0.080,0.080,0.000,0.000,0.000
1644339764672071936,2022-02-08-17:02:44,10.1.1.2,20,0.080,0.080,0.080,0.000,0.000,0.000
1644339764780553216,2022-02-08-17:02:44,10.1.1.2,26,0.070,0.070,0.070,0.000,0.000,0.000
1644339765399329024,2022-02-08-17:02:45,10.1.1.2,39,0.010,0.010,0.010,0.000,0.000,0.000
1644339765599219968,2022-02-08-17:02:45,10.1.1.2,29,-0.010,-0.010,-0.010,0.000,0.000,0.000
1644339765699043072,2022-02-08-17:02:45,10.1.1.2,28,-0.020,-0.020,-0.020,0.000,0.000,0.000
1644339766218532096,2022-02-08-17:02:46,10.1.1.2,39,-0.070,-0.070,-0.070,0.000,0.000,0.000
1644339766319098880,2022-02-08-17:02:46,10.1.1.2,37,-0.080,-0.080,-0.080,0.000,0.000,0.000
1644339766619034880,2022-02-08-17:02:46,10.1.1.2,29,-0.090,-0.090,-0.090,0.000,0.000,0.000
1644339766718981888,2022-02-08-17:02:46,10.1.1.2,29,-0.080,-0.080,-0.080,0.000,0.000,0.000
1644339766818914048,2022-02-08-17:02:46,10.1.1.2,28,-0.070,-0.070,-0.070,0.000,0.000,0.000
1644339767139454976,2022-02-08-17:02:47,10.1.1.2,39,-0.040,-0.040,-0.040,0.000,0.000,0.000
1644339767238526208,2022-02-08-17:02:47,10.1.1.2,39,-0.030,-0.030,-0.030,0.000,0.000,0.000
1644339767339111168,2022-02-08-17:02:47,10.1.1.2,38,-0.020,-0.020,-0.020,0.000,0.000,0.000
1644339767739064832,2022-02-08-17:02:47,10.1.1.2,29,0.020,0.020,0.020,0.000,0.000,0.000
1644339767839067904,2022-02-08-17:02:47,10.1.1.2,28,0.030,0.030,0.030,0.000,0.000,0.000
1644339767939887104,2022-02-08-17:02:47,10.1.1.2,27,0.040,0.040,0.040,0.000,0.000,0.000
1644339768039501056,2022-02-08-17:02:48,10.1.1.2,26,0.050,0.050,0.050,0.000,0.000,0.000
1644339768659725056,2022-02-08-17:02:48,10.1.1.2,39,0.090,0.090,0.090,0.000,0.000,0.000
1644339769456357120,2022-02-08-17:02:49,10.1.1.2,29,0.010,0.010,0.010,0.000,0.000,0.000
1644339769555246080,2022-02-08-17:02:49,10.1.1.2,28,0.000,0.000,0.000,0.000,0.000,0.000
1644339769655579136,2022-02-08-17:02:49,10.1.1.2,27,-0.010,-0.010,-0.010,0.000,0.000,0.000
1644339769754839808,2022-02-08-17:02:49,10.1.1.2,26,-0.020,-0.020,-0.020,0.000,0.000,0.000
1644339769854887936,2022-02-08-17:02:49,10.1.1.2,25,-0.030,-0.030,-0.030,0.000,0.000,0.000
1644339770059444992,2022-02-08-17:02:50,10.1.1.2,23,-0.050,-0.050,-0.050,0.000,0.000,0.000
1644339770373384960,2022-02-08-17:02:50,10.1.1.2,39,-0.080,-0.080,-0.080,0.000,0.000,0.000
1644339770472901120,2022-02-08-17:02:50,10.1.1.2,38,-0.090,-0.090,-0.090,0.000,0.000,0.000
1644339770562108928,2022-02-08-17:02:50,10.1.1.2,26,-0.100,-0.100,-0.100,0.000,0.000,0.000
1644339770971561984,2022-02-08-17:02:50,10.1.1.2,25,-0.060,-0.060,-0.060,0.000,0.000,0.000
1644339771171107072,2022-02-08-17:02:51,10.1.1.2,23,-0.040,-0.040,-0.040,0.000,0.000,0.000
1644339771498011136,2022-02-08-17:02:51,10.1.1.2,40,-0.010,-0.010,-0.010,0.000,0.000,0.000
1644339771691091968,2022-02-08-17:02:51,10.1.1.2,36,0.010,0.010,0.010,0.000,0.000,0.000
1644339771793588992,2022-02-08-17:02:51,10.1.1.2,38,0.020,0.020,0.020,0.000,0.000,0.000
1644339771900630016,2022-02-08-17:02:51,10.1.1.2,35,0.030,0.030,0.030,0.000,0.000,0.000
1644339772195204864,2022-02-08-17:02:52,10.1.1.2,34,0.060,0.060,0.060,0.000,0.000,0.000
1644339772593697024,2022-02-08-17:02:52,10.1.1.2,29,0.100,0.100,0.100,0.000,0.000,0.000
1644339772803673856,2022-02-08-17:02:52,10.1.1.2,34,0.080,0.080,0.080,0.000,0.000,0.000
1644339772947367936,2022-02-08-17:02:52,10.1.1.2,81,0.070,0.070,0.070,0.000,0.000,0.000
1644339772986545152,2022-02-08-17:02:52,10.1.1.2,19,0.060,0.060,0.060,0.000,0.000,0.000
1644339773299388928,2022-02-08-17:02:53,10.1.1.2,26,0.030,0.030,0.030,0.000,0.000,0.000
1644339773618882816,2022-02-08-17:02:53,10.1.1.2,34,0.000,0.000,0.000,0.000,0.000,0.000
1644339774533189888,2022-02-08-17:02:54,10.1.1.2,39,-0.090,-0.090,-0.090,0.000,0.000,0.000
1644339774632925952,2022-02-08-17:02:54,10.1.1.2,38,-0.100,-0.100,-0.100,0.000,0.000,0.000
1644339774731906048,2022-02-08-17:02:54,10.1.1.2,37,-0.090,-0.090,-0.090,0.000,0.000,0.000
1644339775232302848,2022-02-08-17:02:55,10.1.1.2,28,-0.040,-0.040,-0.040,0.000,0.000,0.000
1644339775332942848,2022-02-08-17:02:55,10.1.1.2,28,-0.030,-0.030,-0.030,0.000,0.000,0.000
1644339775433099008,2022-02-08-17:02:55,10.1.1.2,26,-0.020,-0.020,-0.020,0.000,0.000,0.000
1644339775954725120,2022-02-08-17:02:55,10.1.1.2,40,0.030,0.030,0.030,0.000,0.000,0.000
1644339776166592000,2022-02-08-17:02:56,10.1.1.2,49,0.050,0.050,0.050,0.000,0.000,0.000
1644339776266292992,2022-02-08-17:02:56,10.1.1.2,47,0.060,0.060,0.060,0.000,0.000,0.000
1644339776357965824,2022-02-08-17:02:56,10.1.1.2,36,0.070,0.070,0.070,0.000,0.000,0.000
1644339776570106112,2022-02-08-17:02:56,10.1.1.2,45,0.090,0.090,0.090,0.000,0.000,0.000
1644339776731077888,2022-02-08-17:02:56,10.1.1.2,6,0.090,0.090,0.090,0.000,0.000,0.000
1644339777361169152,2022-02-08-17:02:57,10.1.1.2,30,0.030,0.030,0.030,0.000,0.000,0.000
1644339777460655872,2022-02-08-17:02:57,10.1.1.2,29,0.020,0.020,0.020,0.000,0.000,0.000
1644339777774813952,2022-02-08-17:02:57,10.1.1.2,38,-0.010,-0.010,-0.010,0.000,0.000,0.000
1644339777875236864,2022-02-08-17:02:57,10.1.1.2,38,-0.020,-0.020,-0.020,0.000,0.000,0.000
1644339777990784000,2022-02-08-17:02:57,10.1.1.2,53,-0.030,-0.030,-0.030,0.000,0.000,0.000
1644339778073887232,2022-02-08-17:02:58,10.1.1.2,36,-0.040,-0.040,-0.040,0.000,0.000,0.000
1644339778175493888,2022-02-08-17:02:58,10.1.1.2,37,-0.049,-0.049,-0.049,0.000,0.000,0.000
1644339778274929920,2022-02-08-17:02:58,10.1.1.2,35,-0.060,-0.060,-0.060,0.000,0.000,0.000
1644339778398551040,2022-02-08-17:02:58,10.1.1.2,57,-0.070,-0.070,-0.070,0.000,0.000,0.000
1644339778488756992,2022-02-08-17:02:58,10.1.1.2,45,-0.080,-0.080,-0.080,0.000,0.000,0.000
1644339778574095104,2022-02-08-17:02:58,10.1.1.2,29,-0.090,-0.090,-0.090,0.000,0.000,0.000
1644339778693636864,2022-02-08-17:02:58,10.1.1.2,48,-0.100,-0.100,-0.100,0.000,0.000,0.000
1644339778775979008,2022-02-08-17:02:58,10.1.1.2,31,-0.090,-0.090,-0.090,0.000,0.000,0.000
1644339778875346944,2022-02-08-17:02:58,10.1.1.2,28,-0.080,-0.080,-0.080,0.000,0.000,0.000
1644339778973756160,2022-02-08-17:02:58,10.1.1.2,26,-0.070,-0.070,-0.070,0.000,0.000,0.000
1644339779694107904,2022-02-08-17:02:59,10.1.1.2,39,0.000,0.000,0.000,0.000,0.000,0.000
1644339779793256960,2022-02-08-17:02:59,10.1.1.2,38,0.010,0.010,0.010,0.000,0.000,0.000
1644339779893693952,2022-02-08-17:02:59,10.1.1.2,38,0.020,0.020,0.020,0.000,0.000,0.000
1644339779993388032,2022-02-08-17:02:59,10.1.1.2,36,0.030,0.030,0.030,0.000,0.000,0.000
1644339780093740032,2022-02-08-17:03:00,10.1.1.2,36,0.040,0.040,0.040,0.000,0.000,0.000
1644339780396753152,2022-02-08-17:03:00,10.1.1.2,36,0.070,0.070,0.070,0.000,0.000,0.000
1644339780969922048,2022-02-08-17:03:00,10.1.1.2,6,0.070,0.070,0.070,0.000,0.000,0.000
1644339781145565952,2022-02-08-17:03:01,10.1.1.2,80,0.060,0.060,0.060,0.000,0.000,0.000
1644339781212866048,2022-02-08-17:03:01,10.1.1.2,47,0.050,0.050,0.050,0.000,0.000,0.000
1644339781295624960,2022-02-08-17:03:01,10.1.1.2,29,0.040,0.040,0.040,0.000,0.000,0.000
1644339781396465152,2022-02-08-17:03:01,10.1.1.2,28,0.030,0.030,0.030,0.000,0.000,0.000
1644339781496040960,2022-02-08-17:03:01,10.1.1.2,27,0.020,0.020,0.020,0.000,0.000,0.000
1644339781596771072,2022-02-08-17:03:01,10.1.1.2,26,0.010,0.010,0.010,0.000,0.000,0.000
1644339781696156928,2022-02-08-17:03:01,10.1.1.2,25,0.000,0.000,0.000,0.000,0.000,0.000
1644339782201472000,2022-02-08-17:03:02,10.1.1.2,23,-0.050,-0.050,-0.050,0.000,0.000,0.000
1644339782360272896,2022-02-08-17:03:02,10.1.1.2,82,-0.060,-0.060,-0.060,0.000,0.000,0.000
1644339782418305024,2022-02-08-17:03:02,10.1.1.2,39,-0.070,-0.070,-0.070,0.000,0.000,0.000
1644339782570818048,2022-02-08-17:03:02,10.1.1.2,85,-0.080,-0.080,-0.080,0.000,0.000,0.000
1644339782660232960,2022-02-08-17:03:02,10.1.1.2,73,-0.090,-0.090,-0.090,0.000,0.000,0.000
1644339782743819008,2022-02-08-17:03:02,10.1.1.2,37,-0.100,-0.100,-0.100,0.000,0.000,0.000
1644339782922464000,2022-02-08-17:03:02,10.1.1.2,26,-0.080,-0.080,-0.080,0.000,0.000,0.000
1644339783032133120,2022-02-08-17:03:03,10.1.1.2,29,-0.070,-0.070,-0.070,0.000,0.000,0.000
1644339783131938816,2022-02-08-17:03:03,10.1.1.2,28,-0.060,-0.060,-0.060,0.000,0.000,0.000
1644339783232764928,2022-02-08-17:03:03,10.1.1.2,27,-0.050,-0.050,-0.050,0.000,0.000,0.000
1644339783333364992,2022-02-08-17:03:03,10.1.1.2,26,-0.040,-0.040,-0.040,0.000,0.000,0.000
1644339783661669888,2022-02-08-17:03:03,10.1.1.2,51,-0.010,-0.010,-0.010,0.000,0.000,0.000
1644339783953084928,2022-02-08-17:03:03,10.1.1.2,40,0.020,0.020,0.020,0.000,0.000,0.000
1644339784052444928,2022-02-08-17:03:04,10.1.1.2,38,0.030,0.030,0.030,0.000,0.000,0.000
1644339784218478848,2022-02-08-17:03:04,10.1.1.2,104,0.040,0.040,0.040,0.000,0.000,0.000
1644339784247544064,2022-02-08-17:03:04,10.1.1.2,30,0.050,0.050,0.050,0.000,0.000,0.000
1644339784397936128,2022-02-08-17:03:04,10.1.1.2,79,0.060,0.060,0.060,0.000,0.000,0.000
1644339784458327040,2022-02-08-17:03:04,10.1.1.2,38,0.070,0.070,0.070,0.000,0.000,0.000
1644339784558018816,2022-02-08-17:03:04,10.1.1.2,37,0.080,0.080,0.080,0.000,0.000,0.000
1644339784658771968,2022-02-08-17:03:04,10.1.1.2,37,0.090,0.090,0.090,0.000,0.000,0.000
1644339784757361920,2022-02-08-17:03:04,10.1.1.2,35,0.100,0.100,0.100,0.000,0.000,0.000
1644339784960539136,2022-02-08-17:03:04,10.1.1.2,36,0.080,0.080,0.080,0.000,0.000,0.000
1644339785152434944,2022-02-08-17:03:05,10.1.1.2,25,0.060,0.060,0.060,0.000,0.000,0.000
1644339785677721088,2022-02-08-17:03:05,10.1.1.2,45,0.010,0.010,0.010,0.000,0.000,0.000
1644339785961928960,2022-02-08-17:03:05,10.1.1.2,26,-0.020,-0.020,-0.020,0.000,0.000,0.000
1644339786157552896,2022-02-08-17:03:06,10.1.1.2,20,-0.040,-0.040,-0.040,0.000,0.000,0.000
1644339786276838144,2022-02-08-17:03:06,10.1.1.2,37,-0.050,-0.050,-0.050,0.000,0.000,0.000
1644339786368706048,2022-02-08-17:03:06,10.1.1.2,26,-0.060,-0.060,-0.060,0.000,0.000,0.000
1644339787090833920,2022-02-08-17:03:07,10.1.1.2,39,-0.070,-0.070,-0.070,0.000,0.000,0.000
1644339787190833152,2022-02-08-17:03:07,10.1.1.2,36,-0.060,-0.060,-0.060,0.000,0.000,0.000
1644339787915778048,2022-02-08-17:03:07,10.1.1.2,50,0.010,0.010,0.010,0.000,0.000,0.000
1644339788414220032,2022-02-08-17:03:08,10.1.1.2,42,0.060,0.060,0.060,0.000,0.000,0.000
1644339788556435968,2022-02-08-17:03:08,10.1.1.2,83,0.070,0.070,0.070,0.000,0.000,0.000
1644339788597594112,2022-02-08-17:03:08,10.1.1.2,22,0.080,0.080,0.080,0.000,0.000,0.000
1644339788822221056,2022-02-08-17:03:08,10.1.1.2,46,0.100,0.100,0.100,0.000,0.000,0.000
1644339789310081024,2022-02-08-17:03:09,10.1.1.2,28,0.050,0.050,0.050,0.000,0.000,0.000
1644339789411319040,2022-02-08-17:03:09,10.1.1.2,28,0.040,0.040,0.040,0.000,0.000,0.000
1644339789511213056,2022-02-08-17:03:09,10.1.1.2,26,0.030,0.030,0.030,0.000,0.000,0.000
1644339790134856960,2022-02-08-17:03:10,10.1.1.2,39,-0.030,-0.030,-0.030,0.000,0.000,0.000
1644339790219805952,2022-02-08-17:03:10,10.1.1.2,23,-0.040,-0.040,-0.040,0.000,0.000,0.000
1644339790535429120,2022-02-08-17:03:10,10.1.1.2,36,-0.070,-0.070,-0.070,0.000,0.000,0.000
1644339791117413120,2022-02-08-17:03:11,10.1.1.2,2,-0.070,-0.070,-0.070,0.000,0.000,0.000
1644339791355688192,2022-02-08-17:03:11,10.1.1.2,39,-0.050,-0.050,-0.050,0.000,0.000,0.000
1644339791467035136,2022-02-08-17:03:11,10.1.1.2,48,-0.040,-0.040,-0.040,0.000,0.000,0.000
1644339791580076032,2022-02-08-17:03:11,10.1.1.2,61,-0.030,-0.030,-0.030,0.000,0.000,0.000
1644339791776231936,2022-02-08-17:03:11,10.1.1.2,55,-0.010,-0.010,-0.010,0.000,0.000,0.000
1644339792256977152,2022-02-08-17:03:12,10.1.1.2,26,0.040,0.040,0.040,0.000,0.000,0.000
1644339792556637952,2022-02-08-17:03:12,10.1.1.2,22,0.070,0.070,0.070,0.000,0.000,0.000
1644339792775119104,2022-02-08-17:03:12,10.1.1.2,39,0.090,0.090,0.090,0.000,0.000,0.000
1644339792956248064,2022-02-08-17:03:12,10.1.1.2,16,0.090,0.090,0.090,0.000,0.000,0.000
1644339793476304896,2022-02-08-17:03:13,10.1.1.2,29,0.040,0.040,0.040,0.000,0.000,0.000
1644339793575298048,2022-02-08-17:03:13,10.1.1.2,28,0.030,0.030,0.030,0.000,0.000,0.000
1644339793679883008,2022-02-08-17:03:13,10.1.1.2,28,0.020,0.020,0.020,0.000,0.000,0.000
1644339793777451008,2022-02-08-17:03:13,10.1.1.2,27,0.010,0.010,0.010,0.000,0.000,0.000
1644339794490820864,2022-02-08-17:03:14,10.1.1.2,28,-0.060,-0.060,-0.060,0.000,0.000,0.000
1644339794590779904,2022-02-08-17:03:14,10.1.1.2,26,-0.070,-0.070,-0.070,0.000,0.000,0.000
1644339794690679040,2022-02-08-17:03:14,10.1.1.2,25,-0.080,-0.080,-0.080,0.000,0.000,0.000
1644339795092428800,2022-02-08-17:03:15,10.1.1.2,20,-0.080,-0.080,-0.080,0.000,0.000,0.000
1644339795211895040,2022-02-08-17:03:15,10.1.1.2,39,-0.070,-0.070,-0.070,0.000,0.000,0.000
1644339795310866944,2022-02-08-17:03:15,10.1.1.2,37,-0.060,-0.060,-0.060,0.000,0.000,0.000
1644339795814811904,2022-02-08-17:03:15,10.1.1.2,30,-0.010,-0.010,-0.010,0.000,0.000,0.000
1644339796219463168,2022-02-08-17:03:16,10.1.1.2,29,0.030,0.030,0.030,0.000,0.000,0.000
1644339796318516992,2022-02-08-17:03:16,10.1.1.2,28,0.040,0.040,0.040,0.000,0.000,0.000
1644339796419116032,2022-02-08-17:03:16,10.1.1.2,26,0.050,0.050,0.050,0.000,0.000,0.000
1644339796534387200,2022-02-08-17:03:16,10.1.1.2,40,0.060,0.060,0.060,0.000,0.000,0.000
1644339796618993920,2022-02-08-17:03:16,10.1.1.2,24,0.070,0.070,0.070,0.000,0.000,0.000
1644339796922439936,2022-02-08-17:03:16,10.1.1.2,25,0.100,0.100,0.100,0.000,0.000,0.000
1644339797125251072,2022-02-08-17:03:17,10.1.1.2,26,0.080,0.080,0.080,0.000,0.000,0.000
1644339797466331904,2022-02-08-17:03:17,10.1.1.2,61,0.050,0.050,0.050,0.000,0.000,0.000
1644339797742897920,2022-02-08-17:03:17,10.1.1.2,33,0.020,0.020,0.020,0.000,0.000,0.000
1644339797845440000,2022-02-08-17:03:17,10.1.1.2,33,0.010,0.010,0.010,0.000,0.000,0.000
1644339798255979008,2022-02-08-17:03:18,10.1.1.2,38,-0.030,-0.030,-0.030,0.000,0.000,0.000
1644339798355922944,2022-02-08-17:03:18,10.1.1.2,37,-0.040,-0.040,-0.040,0.000,0.000,0.000
1644339798456566016,2022-02-08-17:03:18,10.1.1.2,37,-0.050,-0.050,-0.050,0.000,0.000,0.000
1644339798661952000,2022-02-08-17:03:18,10.1.1.2,37,-0.070,-0.070,-0.070,0.000,0.000,0.000
1644339798766971136,2022-02-08-17:03:18,10.1.1.2,41,-0.080,-0.080,-0.080,0.000,0.000,0.000
1644339798847558912,2022-02-08-17:03:18,10.1.1.2,21,-0.090,-0.090,-0.090,0.000,0.000,0.000
1644339799033946880,2022-02-08-17:03:19,10.1.1.2,5,-0.090,-0.090,-0.090,0.000,0.000,0.000
1644339799157468928,2022-02-08-17:03:19,10.1.1.2,28,-0.080,-0.080,-0.080,0.000,0.000,0.000
1644339799257436928,2022-02-08-17:03:19,10.1.1.2,27,-0.070,-0.070,-0.070,0.000,0.000,0.000
1644339799377787136,2022-02-08-17:03:19,10.1.1.2,46,-0.060,-0.060,-0.060,0.000,0.000,0.000
1644339799677584896,2022-02-08-17:03:19,10.1.1.2,39,-0.030,-0.030,-0.030,0.000,0.000,0.000
1644339799887258112,2022-02-08-17:03:19,10.1.1.2,41,-0.010,-0.010,-0.010,0.000,0.000,0.000
1644339800177294080,2022-02-08-17:03:20,10.1.1.2,29,0.020,0.020,0.020,0.000,0.000,0.000
1644339800797070080,2022-02-08-17:03:20,10.1.1.2,37,0.080,0.080,0.080,0.000,0.000,0.000
1644339801097423104,2022-02-08-17:03:21,10.1.1.2,33,0.090,0.090,0.090,0.000,0.000,0.000
1644339801397833216,2022-02-08-17:03:21,10.1.1.2,29,0.060,0.060,0.060,0.000,0.000,0.000
1644339801501472000,2022-02-08-17:03:21,10.1.1.2,30,0.050,0.050,0.050,0.000,0.000,0.000
1644339801710308096,2022-02-08-17:03:21,10.1.1.2,37,0.030,0.030,0.030,0.000,0.000,0.000
1644339801809459968,2022-02-08-17:03:21,10.1.1.2,36,0.020,0.020,0.020,0.000,0.000,0.000
1644339802309230080,2022-02-08-17:03:22,10.1.1.2,29,-0.030,-0.030,-0.030,0.000,0.000,0.000
1644339802411576064,2022-02-08-17:03:22,10.1.1.2,28,-0.040,-0.040,-0.040,0.000,0.000,0.000
1644339802510649856,2022-02-08-17:03:22,10.1.1.2,28,-0.050,-0.050,-0.050,0.000,0.000,0.000
1644339802610757120,2022-02-08-17:03:22,10.1.1.2,26,-0.060,-0.060,-0.060,0.000,0.000,0.000
1644339802719144960,2022-02-08-17:03:22,10.1.1.2,26,-0.070,-0.070,-0.070,0.000,0.000,0.000
1644339803309766144,2022-02-08-17:03:23,10.1.1.2,19,-0.070,-0.070,-0.070,0.000,0.000,0.000
1644339803437433088,2022-02-08-17:03:23,10.1.1.2,41,-0.060,-0.060,-0.060,0.000,0.000,0.000
1644339803530784000,2022-02-08-17:03:23,10.1.1.2,36,-0.050,-0.050,-0.050,0.000,0.000,0.000
1644339803930288128,2022-02-08-17:03:23,10.1.1.2,28,-0.010,-0.010,-0.010,0.000,0.000,0.000
1644339804550137088,2022-02-08-17:03:24,10.1.1.2,39,0.050,0.050,0.050,0.000,0.000,0.000
1644339804650157056,2022-02-08-17:03:24,10.1.1.2,37,0.060,0.060,0.060,0.000,0.000,0.000
1644339804750217984,2022-02-08-17:03:24,10.1.1.2,37,0.070,0.070,0.070,0.000,0.000,0.000
1644339804859918080,2022-02-08-17:03:24,10.1.1.2,46,0.080,0.080,0.080,0.000,0.000,0.000
1644339805230392064,2022-02-08-17:03:25,10.1.1.2,11,0.080,0.080,0.080,0.000,0.000,0.000
1644339805349352960,2022-02-08-17:03:25,10.1.1.2,30,0.070,0.070,0.070,0.000,0.000,0.000
1644339805451070976,2022-02-08-17:03:25,10.1.1.2,30,0.060,0.060,0.060,0.000,0.000,0.000
1644339805550354944,2022-02-08-17:03:25,10.1.1.2,28,0.050,0.050,0.050,0.000,0.000,0.000
1644339806178478080,2022-02-08-17:03:26,10.1.1.2,47,-0.010,-0.010,-0.010,0.000,0.000,0.000
1644339806257937920,2022-02-08-17:03:26,10.1.1.2,26,-0.020,-0.020,-0.020,0.000,0.000,0.000
1644339806377639168,2022-02-08-17:03:26,10.1.1.2,46,-0.030,-0.030,-0.030,0.000,0.000,0.000
1644339806878823168,2022-02-08-17:03:26,10.1.1.2,39,-0.080,-0.080,-0.080,0.000,0.000,0.000
1644339806978948096,2022-02-08-17:03:26,10.1.1.2,39,-0.090,-0.090,-0.090,0.000,0.000,0.000
1644339807079031040,2022-02-08-17:03:27,10.1.1.2,38,-0.100,-0.100,-0.100,0.000,0.000,0.000
1644339807177690112,2022-02-08-17:03:27,10.1.1.2,36,-0.090,-0.090,-0.090,0.000,0.000,0.000
1644339807282097152,2022-02-08-17:03:27,10.1.1.2,40,-0.080,-0.080,-0.080,0.000,0.000,0.000
1644339807475630080,2022-02-08-17:03:27,10.1.1.2,32,-0.060,-0.060,-0.060,0.000,0.000,0.000
1644339807895385856,2022-02-08-17:03:27,10.1.1.2,35,-0.020,-0.020,-0.020,0.000,0.000,0.000
1644339808321376000,2022-02-08-17:03:28,10.1.1.2,58,0.020,0.020,0.020,0.000,0.000,0.000
1644339808593725952,2022-02-08-17:03:28,10.1.1.2,27,0.050,0.050,0.050,0.000,0.000,0.000
1644339808924877824,2022-02-08-17:03:28,10.1.1.2,52,0.080,0.080,0.080,0.000,0.000,0.000
1644339809214802944,2022-02-08-17:03:29,10.1.1.2,37,0.090,0.090,0.090,0.000,0.000,0.000
1644339809815380992,2022-02-08-17:03:29,10.1.1.2,29,0.030,0.030,0.030,0.000,0.000,0.000
1644339809915271168,2022-02-08-17:03:29,10.1.1.2,28,0.020,0.020,0.020,0.000,0.000,0.000
1644339810015420928,2022-02-08-17:03:30,10.1.1.2,27,0.010,0.010,0.010,0.000,0.000,0.000
1644339810115532032,2022-02-08-17:03:30,10.1.1.2,26,0.000,0.000,0.000,0.000,0.000,0.000
1644339810214787072,2022-02-08-17:03:30,10.1.1.2,25,-0.010,-0.010,-0.010,0.000,0.000,0.000
1644339810935642880,2022-02-08-17:03:30,10.1.1.2,39,-0.080,-0.080,-0.080,0.000,0.000,0.000
1644339811035575040,2022-02-08-17:03:31,10.1.1.2,39,-0.090,-0.090,-0.090,0.000,0.000,0.000
1644339811135281920,2022-02-08-17:03:31,10.1.1.2,36,-0.100,-0.100,-0.100,0.000,0.000,0.000
1644339811735714048,2022-02-08-17:03:31,10.1.1.2,29,-0.040,-0.040,-0.040,0.000,0.000,0.000
1644339811834682112,2022-02-08-17:03:31,10.1.1.2,28,-0.030,-0.030,-0.030,0.000,0.000,0.000
1644339812255378944,2022-02-08-17:03:32,10.1.1.2,38,0.010,0.010,0.010,0.000,0.000,0.000
1644339812354578944,2022-02-08-17:03:32,10.1.1.2,37,0.020,0.020,0.020,0.000,0.000,0.000
1644339812440492032,2022-02-08-17:03:32,10.1.1.2,22,0.030,0.030,0.030,0.000,0.000,0.000
1644339812752724992,2022-02-08-17:03:32,10.1.1.2,29,0.060,0.060,0.060,0.000,0.000,0.000
1644339812852253952,2022-02-08-17:03:32,10.1.1.2,28,0.070,0.070,0.070,0.000,0.000,0.000
1644339812952114944,2022-02-08-17:03:32,10.1.1.2,26,0.080,0.080,0.080,0.000,0.000,0.000
1644339813333879040,2022-02-08-17:03:33,10.1.1.2,2,0.080,0.080,0.080,0.000,0.000,0.000
1644339813573007104,2022-02-08-17:03:33,10.1.1.2,39,0.060,0.060,0.060,0.000,0.000,0.000
1644339813674467072,2022-02-08-17:03:33,10.1.1.2,37,0.050,0.050,0.050,0.000,0.000,0.000
1644339814172563200,2022-02-08-17:03:34,10.1.1.2,28,0.000,0.000,0.000,0.000,0.000,0.000
1644339814272214784,2022-02-08-17:03:34,10.1.1.2,27,-0.010,-0.010,-0.010,0.000,0.000,0.000
1644339814372872960,2022-02-08-17:03:34,10.1.1.2,26,-0.020,-0.020,-0.020,0.000,0.000,0.000
1644339814690223104,2022-02-08-17:03:34,10.1.1.2,34,-0.050,-0.050,-0.050,0.000,0.000,0.000
1644339815090863104,2022-02-08-17:03:35,10.1.1.2,29,-0.090,-0.090,-0.090,0.000,0.000,0.000
1644339815190534144,2022-02-08-17:03:35,10.1.1.2,28,-0.100,-0.100,-0.100,0.000,0.000,0.000
1644339815290600960,2022-02-08-17:03:35,10.1.1.2,27,-0.090,-0.090,-0.090,0.000,0.000,0.000
1644339815390522880,2022-02-08-17:03:35,10.1.1.2,26,-0.080,-0.080,-0.080,0.000,0.000,0.000
1644339815710649856,2022-02-08-17:03:35,10.1.1.2,39,-0.050,-0.050,-0.050,0.000,0.000,0.000
1644339815810044160,2022-02-08-17:03:35,10.1.1.2,38,-0.040,-0.040,-0.040,0.000,0.000,0.000
1644339816011044096,2022-02-08-17:03:36,10.1.1.2,34,-0.020,-0.020,-0.020,0.000,0.000,0.000
1644339816422575104,2022-02-08-17:03:36,10.1.1.2,37,0.020,0.020,0.020,0.000,0.000,0.000
1644339816512989952,2022-02-08-17:03:36,10.1.1.2,32,0.030,0.030,0.030,0.000,0.000,0.000
1644339816721281024,2022-02-08-17:03:36,10.1.1.2,27,0.050,0.050,0.050,0.000,0.000,0.000
1644339816934034176,2022-02-08-17:03:36,10.1.1.2,39,0.070,0.070,0.070,0.000,0.000,0.000
1644339817033776128,2022-02-08-17:03:37,10.1.1.2,38,0.080,0.080,0.080,0.000,0.000,0.000
1644339817134007808,2022-02-08-17:03:37,10.1.1.2,37,0.090,0.090,0.090,0.000,0.000,0.000
1644339817322198016,2022-02-08-17:03:37,10.1.1.2,17,0.090,0.090,0.090,0.000,0.000,0.000
1644339817433757184,2022-02-08-17:03:37,10.1.1.2,33,0.080,0.080,0.080,0.000,0.000,0.000
1644339817733501952,2022-02-08-17:03:37,10.1.1.2,29,0.050,0.050,0.050,0.000,0.000,0.000
1644339817953775872,2022-02-08-17:03:37,10.1.1.2,38,0.030,0.030,0.030,0.000,0.000,0.000
1644339818037821952,2022-02-08-17:03:38,10.1.1.2,19,0.020,0.020,0.020,0.000,0.000,0.000
1644339818753808128,2022-02-08-17:03:38,10.1.1.2,28,-0.050,-0.050,-0.050,0.000,0.000,0.000
1644339818853060096,2022-02-08-17:03:38,10.1.1.2,27,-0.060,-0.060,-0.060,0.000,0.000,0.000
1644339818953891072,2022-02-08-17:03:38,10.1.1.2,26,-0.070,-0.070,-0.070,0.000,0.000,0.000
1644339819373648896,2022-02-08-17:03:39,10.1.1.2,39,-0.090,-0.090,-0.090,0.000,0.000,0.000
1644339819473474048,2022-02-08-17:03:39,10.1.1.2,38,-0.080,-0.080,-0.080,0.000,0.000,0.000
1644339819572933888,2022-02-08-17:03:39,10.1.1.2,37,-0.070,-0.070,-0.070,0.000,0.000,0.000
1644339819674021120,2022-02-08-17:03:39,10.1.1.2,36,-0.060,-0.060,-0.060,0.000,0.000,0.000
1644339819773734144,2022-02-08-17:03:39,10.1.1.2,35,-0.050,-0.050,-0.050,0.000,0.000,0.000
1644339820274820096,2022-02-08-17:03:40,10.1.1.2,29,0.000,0.000,0.000,0.000,0.000,0.000
1644339820773536000,2022-02-08-17:03:40,10.1.1.2,20,0.050,0.050,0.050,0.000,0.000,0.000
1644339820872216832,2022-02-08-17:03:40,10.1.1.2,19,0.060,0.060,0.060,0.000,0.000,0.000
1644339820993565184,2022-02-08-17:03:40,10.1.1.2,38,0.070,0.070,0.070,0.000,0.000,0.000
1644339821193582080,2022-02-08-17:03:41,10.1.1.2,29,0.090,0.090,0.090,0.000,0.000,0.000
1644339821372584960,2022-02-08-17:03:41,10.1.1.2,3,0.090,0.090,0.090,0.000,0.000,0.000
1644339821813848064,2022-02-08-17:03:41,10.1.1.2,39,0.050,0.050,0.050,0.000,0.000,0.000
1644339821912939008,2022-02-08-17:03:41,10.1.1.2,38,0.040,0.040,0.040,0.000,0.000,0.000
1644339822013712896,2022-02-08-17:03:42,10.1.1.2,38,0.030,0.030,0.030,0.000,0.000,0.000
1644339822123310080,2022-02-08-17:03:42,10.1.1.2,43,0.020,0.020,0.020,0.000,0.000,0.000
1644339822223977984,2022-02-08-17:03:42,10.1.1.2,36,0.010,0.010,0.010,0.000,0.000,0.000
1644339822813267968,2022-02-08-17:03:42,10.1.1.2,30,-0.050,-0.050,-0.050,0.000,0.000,0.000
1644339822913142016,2022-02-08-17:03:42,10.1.1.2,29,-0.060,-0.060,-0.060,0.000,0.000,0.000
1644339823013427968,2022-02-08-17:03:43,10.1.1.2,27,-0.070,-0.070,-0.070,0.000,0.000,0.000
1644339823113778176,2022-02-08-17:03:43,10.1.1.2,26,-0.080,-0.080,-0.080,0.000,0.000,0.000
1644339823213747968,2022-02-08-17:03:43,10.1.1.2,25,-0.090,-0.090,-0.090,0.000,0.000,0.000
1644339823393102848,2022-02-08-17:03:43,10.1.1.2,3,-0.090,-0.090,-0.090,0.000,0.000,0.000
1644339823713591040,2022-02-08-17:03:43,10.1.1.2,20,-0.060,-0.060,-0.060,0.000,0.000,0.000
1644339823833116160,2022-02-08-17:03:43,10.1.1.2,38,-0.050,-0.050,-0.050,0.000,0.000,0.000
1644339823933541888,2022-02-08-17:03:43,10.1.1.2,38,-0.040,-0.040,-0.040,0.000,0.000,0.000
1644339824238673920,2022-02-08-17:03:44,10.1.1.2,36,-0.010,-0.010,-0.010,0.000,0.000,0.000
1644339824341865984,2022-02-08-17:03:44,10.1.1.2,35,0.000,0.000,0.000,0.000,0.000,0.000
1644339824432540928,2022-02-08-17:03:44,10.1.1.2,29,0.010,0.010,0.010,0.000,0.000,0.000
1644339824833849856,2022-02-08-17:03:44,10.1.1.2,26,0.050,0.050,0.050,0.000,0.000,0.000
1644339824934832128,2022-02-08-17:03:44,10.1.1.2,27,0.060,0.060,0.060,0.000,0.000,0.000
1644339825453625088,2022-02-08-17:03:45,10.1.1.2,39,0.090,0.090,0.090,0.000,0.000,0.000
1644339825553587968,2022-02-08-17:03:45,10.1.1.2,38,0.080,0.080,0.080,0.000,0.000,0.000
1644339825654690048,2022-02-08-17:03:45,10.1.1.2,37,0.070,0.070,0.070,0.000,0.000,0.000
1644339825754129920,2022-02-08-17:03:45,10.1.1.2,36,0.060,0.060,0.060,0.000,0.000,0.000
1644339826053325056,2022-02-08-17:03:46,10.1.1.2,29,0.030,0.030,0.030,0.000,0.000,0.000
1644339826154898944,2022-02-08-17:03:46,10.1.1.2,29,0.020,0.020,0.020,0.000,0.000,0.000
1644339826253638144,2022-02-08-17:03:46,10.1.1.2,27,0.010,0.010,0.010,0.000,0.000,0.000
1644339826353899008,2022-02-08-17:03:46,10.1.1.2,26,0.000,0.000,0.000,0.000,0.000,0.000
1644339826452737024,2022-02-08-17:03:46,10.1.1.2,25,-0.010,-0.010,-0.010,0.000,0.000,0.000
1644339826953305856,2022-02-08-17:03:46,10.1.1.2,20,-0.060,-0.060,-0.060,0.000,0.000,0.000
1644339827074248960,2022-02-08-17:03:47,10.1.1.2,36,-0.070,-0.070,-0.070,0.000,0.000,0.000
1644339827486063872,2022-02-08-17:03:47,10.1.1.2,41,-0.090,-0.090,-0.090,0.000,0.000,0.000
1644339827573857024,2022-02-08-17:03:47,10.1.1.2,26,-0.080,-0.080,-0.080,0.000,0.000,0.000
1644339828089530112,2022-02-08-17:03:48,10.1.1.2,36,-0.030,-0.030,-0.030,0.000,0.000,0.000
1644339828182652928,2022-02-08-17:03:48,10.1.1.2,28,-0.020,-0.020,-0.020,0.000,0.000,0.000
1644339828292890112,2022-02-08-17:03:48,10.1.1.2,37,-0.010,-0.010,-0.010,0.000,0.000,0.000
1644339828392105984,2022-02-08-17:03:48,10.1.1.2,36,0.000,0.000,0.000,0.000,0.000,0.000
1644339828493140992,2022-02-08-17:03:48,10.1.1.2,35,0.010,0.010,0.010,0.000,0.000,0.000
1644339828793271040,2022-02-08-17:03:48,10.1.1.2,29,0.040,0.040,0.040,0.000,0.000,0.000
1644339828891706112,2022-02-08-17:03:48,10.1.1.2,28,0.050,0.050,0.050,0.000,0.000,0.000
1644339828992333824,2022-02-08-17:03:48,10.1.1.2,27,0.060,0.060,0.060,0.000,0.000,0.000
1644339829093265920,2022-02-08-17:03:49,10.1.1.2,26,0.070,0.070,0.070,0.000,0.000,0.000
1644339829513412096,2022-02-08-17:03:49,10.1.1.2,39,0.090,0.090,0.090,0.000,0.000,0.000
1644339829612668160,2022-02-08-17:03:49,10.1.1.2,37,0.080,0.080,0.080,0.000,0.000,0.000
1644339829713720064,2022-02-08-17:03:49,10.1.1.2,36,0.070,0.070,0.070,0.000,0.000,0.000
1644339829813330944,2022-02-08-17:03:49,10.1.1.2,35,0.060,0.060,0.060,0.000,0.000,0.000
1644339830212534784,2022-02-08-17:03:50,10.1.1.2,29,0.020,0.020,0.020,0.000,0.000,0.000
1644339830733604864,2022-02-08-17:03:50,10.1.1.2,37,-0.030,-0.030,-0.030,0.000,0.000,0.000
1644339830833702144,2022-02-08-17:03:50,10.1.1.2,36,-0.040,-0.040,-0.040,0.000,0.000,0.000
1644339831233349120,2022-02-08-17:03:51,10.1.1.2,30,-0.080,-0.080,-0.080,0.000,0.000,0.000
1644339831351757056,2022-02-08-17:03:51,10.1.1.2,48,-0.090,-0.090,-0.090,0.000,0.000,0.000
1644339831513690112,2022-02-08-17:03:51,10.1.1.2,8,-0.090,-0.090,-0.090,0.000,0.000,0.000
1644339831634676992,2022-02-08-17:03:51,10.1.1.2,27,-0.080,-0.080,-0.080,0.000,0.000,0.000
1644339831733928960,2022-02-08-17:03:51,10.1.1.2,26,-0.070,-0.070,-0.070,0.000,0.000,0.000
1644339831833688064,2022-02-08-17:03:51,10.1.1.2,26,-0.060,-0.060,-0.060,0.000,0.000,0.000
1644339832138318080,2022-02-08-17:03:52,10.1.1.2,26,-0.030,-0.030,-0.030,0.000,0.000,0.000
1644339832238897920,2022-02-08-17:03:52,10.1.1.2,26,-0.020,-0.020,-0.020,0.000,0.000,0.000
1644339832440006144,2022-02-08-17:03:52,10.1.1.2,25,0.000,0.000,0.000,0.000,0.000,0.000
1644339832850029056,2022-02-08-17:03:52,10.1.1.2,30,0.040,0.040,0.040,0.000,0.000,0.000
1644339832960237056,2022-02-08-17:03:52,10.1.1.2,39,0.050,0.050,0.050,0.000,0.000,0.000
1644339833062021120,2022-02-08-17:03:53,10.1.1.2,39,0.060,0.060,0.060,0.000,0.000,0.000
1644339833171098880,2022-02-08-17:03:53,10.1.1.2,48,0.070,0.070,0.070,0.000,0.000,0.000
1644339833672497152,2022-02-08-17:03:53,10.1.1.2,39,0.080,0.080,0.080,0.000,0.000,0.000
1644339833771552000,2022-02-08-17:03:53,10.1.1.2,38,0.070,0.070,0.070,0.000,0.000,0.000
1644339833871907840,2022-02-08-17:03:53,10.1.1.2,37,0.060,0.060,0.060,0.000,0.000,0.000
1644339833971960064,2022-02-08-17:03:53,10.1.1.2,37,0.050,0.050,0.050,0.000,0.000,0.000
1644339834072290816,2022-02-08-17:03:54,10.1.1.2,35,0.040,0.040,0.040,0.000,0.000,0.000
1644339834175256064,2022-02-08-17:03:54,10.1.1.2,38,0.030,0.030,0.030,0.000,0.000,0.000
1644339834274812928,2022-02-08-17:03:54,10.1.1.2,37,0.020,0.020,0.020,0.000,0.000,0.000
1644339834371084032,2022-02-08-17:03:54,10.1.1.2,32,0.010,0.010,0.010,0.000,0.000,0.000
1644339834774617856,2022-02-08-17:03:54,10.1.1.2,29,-0.030,-0.030,-0.030,0.000,0.000,0.000
1644339834874363904,2022-02-08-17:03:54,10.1.1.2,28,-0.040,-0.040,-0.040,0.000,0.000,0.000
1644339834974881792,2022-02-08-17:03:54,10.1.1.2,28,-0.050,-0.050,-0.050,0.000,0.000,0.000
1644339835074642944,2022-02-08-17:03:55,10.1.1.2,27,-0.060,-0.060,-0.060,0.000,0.000,0.000
1644339835174999040,2022-02-08-17:03:55,10.1.1.2,26,-0.070,-0.070,-0.070,0.000,0.000,0.000
1644339835594543872,2022-02-08-17:03:55,10.1.1.2,39,-0.090,-0.090,-0.090,0.000,0.000,0.000
1644339835694989824,2022-02-08-17:03:55,10.1.1.2,38,-0.080,-0.080,-0.080,0.000,0.000,0.000
1644339835795218944,2022-02-08-17:03:55,10.1.1.2,36,-0.070,-0.070,-0.070,0.000,0.000,0.000
1644339836294814208,2022-02-08-17:03:56,10.1.1.2,29,-0.020,-0.020,-0.020,0.000,0.000,0.000
1644339836397475072,2022-02-08-17:03:56,10.1.1.2,31,-0.010,-0.010,-0.010,0.000,0.000,0.000
1644339836508344832,2022-02-08-17:03:56,10.1.1.2,41,0.000,0.000,0.000,0.000,0.000,0.000
1644339836594508800,2022-02-08-17:03:56,10.1.1.2,26,0.010,0.010,0.010,0.000,0.000,0.000
1644339837317147904,2022-02-08-17:03:57,10.1.1.2,35,0.080,0.080,0.080,0.000,0.000,0.000
1644339837520009984,2022-02-08-17:03:57,10.1.1.2,34,0.100,0.100,0.100,0.000,0.000,0.000
1644339837726504960,2022-02-08-17:03:57,10.1.1.2,36,0.080,0.080,0.080,0.000,0.000,0.000
1644339837817995008,2022-02-08-17:03:57,10.1.1.2,26,0.070,0.070,0.070,0.000,0.000,0.000
1644339838180608000,2022-02-08-17:03:58,10.1.1.2,82,0.040,0.040,0.040,0.000,0.000,0.000
1644339838340337920,2022-02-08-17:03:58,10.1.1.2,36,0.020,0.020,0.020,0.000,0.000,0.000
1644339838439184896,2022-02-08-17:03:58,10.1.1.2,35,0.010,0.010,0.010,0.000,0.000,0.000
1644339838539584000,2022-02-08-17:03:58,10.1.1.2,31,0.000,0.000,0.000,0.000,0.000,0.000
1644339838739660032,2022-02-08-17:03:58,10.1.1.2,27,-0.020,-0.020,-0.020,0.000,0.000,0.000
1644339838859620096,2022-02-08-17:03:58,10.1.1.2,46,-0.030,-0.030,-0.030,0.000,0.000,0.000
1644339838942269184,2022-02-08-17:03:58,10.1.1.2,28,-0.040,-0.040,-0.040,0.000,0.000,0.000
1644339839052963072,2022-02-08-17:03:59,10.1.1.2,38,-0.050,-0.050,-0.050,0.000,0.000,0.000
1644339839252506112,2022-02-08-17:03:59,10.1.1.2,30,-0.070,-0.070,-0.070,0.000,0.000,0.000
1644339839357733888,2022-02-08-17:03:59,10.1.1.2,26,-0.080,-0.080,-0.080,0.000,0.000,0.000
1644339839558574848,2022-02-08-17:03:59,10.1.1.2,29,-0.100,-0.100,-0.100,0.000,0.000,0.000
1644339839878774784,2022-02-08-17:03:59,10.1.1.2,39,-0.070,-0.070,-0.070,0.000,0.000,0.000
1644339839977651968,2022-02-08-17:03:59,10.1.1.2,38,-0.060,-0.060,-0.060,0.000,0.000,0.000
1644339840079750144,2022-02-08-17:04:00,10.1.1.2,38,-0.050,-0.050,-0.050,0.000,0.000,0.000
1644339840280119808,2022-02-08-17:04:00,10.1.1.2,33,-0.030,-0.030,-0.030,0.000,0.000,0.000
1644339840375587072,2022-02-08-17:04:00,10.1.1.2,28,-0.020,-0.020,-0.020,0.000,0.000,0.000
1644339840475878912,2022-02-08-17:04:00,10.1.1.2,25,-0.010,-0.010,-0.010,0.000,0.000,0.000
1644339840737155072,2022-02-08-17:04:00,10.1.1.2,86,0.010,0.010,0.010,0.000,0.000,0.000
1644339841198142976,2022-02-08-17:04:01,10.1.1.2,39,0.060,0.060,0.060,0.000,0.000,0.000
1644339841297903104,2022-02-08-17:04:01,10.1.1.2,37,0.070,0.070,0.070,0.000,0.000,0.000
1644339841397779968,2022-02-08-17:04:01,10.1.1.2,37,0.080,0.080,0.080,0.000,0.000,0.000
1644339841496710144,2022-02-08-17:04:01,10.1.1.2,36,0.090,0.090,0.090,0.000,0.000,0.000
1644339841676893952,2022-02-08-17:04:01,10.1.1.2,11,0.090,0.090,0.090,0.000,0.000,0.000
1644339841898087936,2022-02-08-17:04:01,10.1.1.2,29,0.070,0.070,0.070,0.000,0.000,0.000
1644339841997107968,2022-02-08-17:04:01,10.1.1.2,28,0.060,0.060,0.060,0.000,0.000,0.000
1644339842097677056,2022-02-08-17:04:02,10.1.1.2,27,0.050,0.050,0.050,0.000,0.000,0.000
1644339842197817088,2022-02-08-17:04:02,10.1.1.2,25,0.040,0.040,0.040,0.000,0.000,0.000
1644339842617360128,2022-02-08-17:04:02,10.1.1.2,39,0.000,0.000,0.000,0.000,0.000,0.000
1644339842717197056,2022-02-08-17:04:02,10.1.1.2,38,-0.010,-0.010,-0.010,0.000,0.000,0.000
1644339842817522176,2022-02-08-17:04:02,10.1.1.2,37,-0.020,-0.020,-0.020,0.000,0.000,0.000
1644339842917232128,2022-02-08-17:04:02,10.1.1.2,36,-0.030,-0.030,-0.030,0.000,0.000,0.000
1644339843117517056,2022-02-08-17:04:03,10.1.1.2,29,-0.050,-0.050,-0.050,0.000,0.000,0.000
1644339843217498112,2022-02-08-17:04:03,10.1.1.2,28,-0.060,-0.060,-0.060,0.000,0.000,0.000
1644339843317581056,2022-02-08-17:04:03,10.1.1.2,27,-0.070,-0.070,-0.070,0.000,0.000,0.000
1644339843418049024,2022-02-08-17:04:03,10.1.1.2,27,-0.080,-0.080,-0.080,0.000,0.000,0.000
1644339843814214912,2022-02-08-17:04:03,10.1.1.2,17,-0.080,-0.080,-0.080,0.000,0.000,0.000
1644339843942287872,2022-02-08-17:04:03,10.1.1.2,44,-0.070,-0.070,-0.070,0.000,0.000,0.000
1644339844038707968,2022-02-08-17:04:04,10.1.1.2,39,-0.060,-0.060,-0.060,0.000,0.000,0.000
1644339844139174912,2022-02-08-17:04:04,10.1.1.2,37,-0.050,-0.050,-0.050,0.000,0.000,0.000
1644339844440670976,2022-02-08-17:04:04,10.1.1.2,32,-0.020,-0.020,-0.020,0.000,0.000,0.000
1644339844639121152,2022-02-08-17:04:04,10.1.1.2,29,0.000,0.000,0.000,0.000,0.000,0.000
1644339844739717120,2022-02-08-17:04:04,10.1.1.2,27,0.010,0.010,0.010,0.000,0.000,0.000
1644339844839168000,2022-02-08-17:04:04,10.1.1.2,26,0.020,0.020,0.020,0.000,0.000,0.000
1644339845068704000,2022-02-08-17:04:05,10.1.1.2,53,0.040,0.040,0.040,0.000,0.000,0.000
1644339845255930880,2022-02-08-17:04:05,10.1.1.2,36,0.060,0.060,0.060,0.000,0.000,0.000
1644339845656008960,2022-02-08-17:04:05,10.1.1.2,29,0.100,0.100,0.100,0.000,0.000,0.000
1644339845756145920,2022-02-08-17:04:05,10.1.1.2,28,0.090,0.090,0.090,0.000,0.000,0.000
1644339845855087872,2022-02-08-17:04:05,10.1.1.2,27,0.080,0.080,0.080,0.000,0.000,0.000
1644339845954484992,2022-02-08-17:04:05,10.1.1.2,26,0.070,0.070,0.070,0.000,0.000,0.000
1644339846081351936,2022-02-08-17:04:06,10.1.1.2,51,0.060,0.060,0.060,0.000,0.000,0.000
1644339846161971968,2022-02-08-17:04:06,10.1.1.2,27,0.050,0.050,0.050,0.000,0.000,0.000
1644339846864540928,2022-02-08-17:04:06,10.1.1.2,29,-0.020,-0.020,-0.020,0.000,0.000,0.000
1644339846980729088,2022-02-08-17:04:06,10.1.1.2,44,-0.030,-0.030,-0.030,0.000,0.000,0.000
1644339847613826048,2022-02-08-17:04:07,10.1.1.2,72,-0.090,-0.090,-0.090,0.000,0.000,0.000
1644339847665026048,2022-02-08-17:04:07,10.1.1.2,21,-0.100,-0.100,-0.100,0.000,0.000,0.000
1644339847865117952,2022-02-08-17:04:07,10.1.1.2,20,-0.080,-0.080,-0.080,0.000,0.000,0.000
1644339847986898944,2022-02-08-17:04:07,10.1.1.2,43,-0.070,-0.070,-0.070,0.000,0.000,0.000
1644339848194248960,2022-02-08-17:04:08,10.1.1.2,48,-0.050,-0.050,-0.050,0.000,0.000,0.000
1644339848276401152,2022-02-08-17:04:08,10.1.1.2,29,-0.040,-0.040,-0.040,0.000,0.000,0.000
1644339848394382848,2022-02-08-17:04:08,10.1.1.2,46,-0.030,-0.030,-0.030,0.000,0.000,0.000
1644339848614108160,2022-02-08-17:04:08,10.1.1.2,64,-0.010,-0.010,-0.010,0.000,0.000,0.000
1644339848709559040,2022-02-08-17:04:08,10.1.1.2,57,0.000,0.000,0.000,0.000,0.000,0.000
1644339848779660032,2022-02-08-17:04:08,10.1.1.2,27,0.010,0.010,0.010,0.000,0.000,0.000
1644339848878488064,2022-02-08-17:04:08,10.1.1.2,26,0.020,0.020,0.020,0.000,0.000,0.000
1644339848997566976,2022-02-08-17:04:08,10.1.1.2,38,0.030,0.030,0.030,0.000,0.000,0.000
1644339849478768128,2022-02-08-17:04:09,10.1.1.2,22,0.080,0.080,0.080,0.000,0.000,0.000
1644339849798245888,2022-02-08-17:04:09,10.1.1.2,39,0.090,0.090,0.090,0.000,0.000,0.000
1644339849898108928,2022-02-08-17:04:09,10.1.1.2,38,0.080,0.080,0.080,0.000,0.000,0.000
1644339849998647808,2022-02-08-17:04:09,10.1.1.2,38,0.070,0.070,0.070,0.000,0.000,0.000
1644339850098548992,2022-02-08-17:04:10,10.1.1.2,37,0.060,0.060,0.060,0.000,0.000,0.000
1644339850199875072,2022-02-08-17:04:10,10.1.1.2,36,0.050,0.050,0.050,0.000,0.000,0.000
1644339850299514112,2022-02-08-17:04:10,10.1.1.2,35,0.040,0.040,0.040,0.000,0.000,0.000
1644339851196628992,2022-02-08-17:04:11,10.1.1.2,25,-0.050,-0.050,-0.050,0.000,0.000,0.000
1644339851530725888,2022-02-08-17:04:11,10.1.1.2,57,-0.080,-0.080,-0.080,0.000,0.000,0.000
1644339851601899008,2022-02-08-17:04:11,10.1.1.2,27,-0.090,-0.090,-0.090,0.000,0.000,0.000
1644339851711590144,2022-02-08-17:04:11,10.1.1.2,33,-0.100,-0.100,-0.100,0.000,0.000,0.000
1644339851929892096,2022-02-08-17:04:11,10.1.1.2,49,-0.080,-0.080,-0.080,0.000,0.000,0.000
1644339852212402176,2022-02-08-17:04:12,10.1.1.2,25,-0.050,-0.050,-0.050,0.000,0.000,0.000
1644339852313357056,2022-02-08-17:04:12,10.1.1.2,26,-0.040,-0.040,-0.040,0.000,0.000,0.000
1644339852515356160,2022-02-08-17:04:12,10.1.1.2,25,-0.020,-0.020,-0.020,0.000,0.000,0.000
1644339852814696960,2022-02-08-17:04:12,10.1.1.2,19,0.010,0.010,0.010,0.000,0.000,0.000
1644339852935228160,2022-02-08-17:04:12,10.1.1.2,34,0.020,0.020,0.020,0.000,0.000,0.000
1644339853134702080,2022-02-08-17:04:13,10.1.1.2,36,0.040,0.040,0.040,0.000,0.000,0.000
1644339853535536128,2022-02-08-17:04:13,10.1.1.2,29,0.080,0.080,0.080,0.000,0.000,0.000
1644339853634695168,2022-02-08-17:04:13,10.1.1.2,28,0.090,0.090,0.090,0.000,0.000,0.000
1644339853816090112,2022-02-08-17:04:13,10.1.1.2,3,0.090,0.090,0.090,0.000,0.000,0.000
1644339854045145088,2022-02-08-17:04:14,10.1.1.2,24,0.071,0.071,0.071,0.000,0.000,0.000
1644339854758153984,2022-02-08-17:04:14,10.1.1.2,29,0.000,0.000,0.000,0.000,0.000,0.000
1644339854875726848,2022-02-08-17:04:14,10.1.1.2,38,-0.010,-0.010,-0.010,0.000,0.000,0.000
1644339855011895040,2022-02-08-17:04:15,10.1.1.2,72,-0.020,-0.020,-0.020,0.000,0.000,0.000
1644339855061654016,2022-02-08-17:04:15,10.1.1.2,20,-0.030,-0.030,-0.030,0.000,0.000,0.000
1644339855213709056,2022-02-08-17:04:15,10.1.1.2,62,-0.040,-0.040,-0.040,0.000,0.000,0.000
1644339855376877056,2022-02-08-17:04:15,10.1.1.2,20,-0.060,-0.060,-0.060,0.000,0.000,0.000
1644339855485224960,2022-02-08-17:04:15,10.1.1.2,29,-0.070,-0.070,-0.070,0.000,0.000,0.000
1644339855597544960,2022-02-08-17:04:15,10.1.1.2,39,-0.080,-0.080,-0.080,0.000,0.000,0.000
1644339855696196096,2022-02-08-17:04:15,10.1.1.2,38,-0.090,-0.090,-0.090,0.000,0.000,0.000
1644339855876349952,2022-02-08-17:04:15,10.1.1.2,13,-0.090,-0.090,-0.090,0.000,0.000,0.000
1644339856295017984,2022-02-08-17:04:16,10.1.1.2,27,-0.050,-0.050,-0.050,0.000,0.000,0.000
1644339856400881152,2022-02-08-17:04:16,10.1.1.2,31,-0.040,-0.040,-0.040,0.000,0.000,0.000
1644339856495145984,2022-02-08-17:04:16,10.1.1.2,26,-0.030,-0.030,-0.030,0.000,0.000,0.000
1644339857198586880,2022-02-08-17:04:17,10.1.1.2,20,0.040,0.040,0.040,0.000,0.000,0.000
1644339857419513088,2022-02-08-17:04:17,10.1.1.2,39,0.060,0.060,0.060,0.000,0.000,0.000
1644339857541585920,2022-02-08-17:04:17,10.1.1.2,61,0.070,0.070,0.070,0.000,0.000,0.000
1644339858030891008,2022-02-08-17:04:18,10.1.1.2,39,0.080,0.080,0.080,0.000,0.000,0.000
1644339858264915968,2022-02-08-17:04:18,10.1.1.2,71,0.060,0.060,0.060,0.000,0.000,0.000
1644339858330487040,2022-02-08-17:04:18,10.1.1.2,35,0.050,0.050,0.050,0.000,0.000,0.000
1644339858432508928,2022-02-08-17:04:18,10.1.1.2,37,0.040,0.040,0.040,0.000,0.000,0.000
1644339858736596992,2022-02-08-17:04:18,10.1.1.2,34,0.010,0.010,0.010,0.000,0.000,0.000
1644339859002646016,2022-02-08-17:04:19,10.1.1.2,102,-0.010,-0.010,-0.010,0.000,0.000,0.000
1644339859023369984,2022-02-08-17:04:19,10.1.1.2,22,-0.020,-0.020,-0.020,0.000,0.000,0.000
1644339859334341120,2022-02-08-17:04:19,10.1.1.2,30,-0.050,-0.050,-0.050,0.000,0.000,0.000
1644339859435347968,2022-02-08-17:04:19,10.1.1.2,26,-0.060,-0.060,-0.060,0.000,0.000,0.000
1644339859534231808,2022-02-08-17:04:19,10.1.1.2,25,-0.070,-0.070,-0.070,0.000,0.000,0.000
1644339860118603008,2022-02-08-17:04:20,10.1.1.2,0,-0.070,-0.070,-0.070,0.000,0.000,0.000
1644339860447731968,2022-02-08-17:04:20,10.1.1.2,19,-0.040,-0.040,-0.040,0.000,0.000,0.000
1644339860553487104,2022-02-08-17:04:20,10.1.1.2,31,-0.030,-0.030,-0.030,0.000,0.000,0.000
1644339860766675968,2022-02-08-17:04:20,10.1.1.2,38,-0.010,-0.010,-0.010,0.000,0.000,0.000
1644339860857705984,2022-02-08-17:04:20,10.1.1.2,29,0.000,0.000,0.000,0.000,0.000,0.000
1644339860958870784,2022-02-08-17:04:20,10.1.1.2,27,0.010,0.010,0.010,0.000,0.000,0.000
1644339861677490944,2022-02-08-17:04:21,10.1.1.2,37,0.080,0.080,0.080,0.000,0.000,0.000
1644339861777734144,2022-02-08-17:04:21,10.1.1.2,35,0.090,0.090,0.090,0.000,0.000,0.000
1644339861957572864,2022-02-08-17:04:21,10.1.1.2,14,0.090,0.090,0.090,0.000,0.000,0.000
1644339862278116864,2022-02-08-17:04:22,10.1.1.2,26,0.060,0.060,0.060,0.000,0.000,0.000
1644339862797817088,2022-02-08-17:04:22,10.1.1.2,38,0.010,0.010,0.010,0.000,0.000,0.000
1644339862897499136,2022-02-08-17:04:22,10.1.1.2,38,-0.000,-0.000,-0.000,0.000,0.000,0.000
1644339862996882944,2022-02-08-17:04:22,10.1.1.2,37,-0.010,-0.010,-0.010,0.000,0.000,0.000
1644339863108577024,2022-02-08-17:04:23,10.1.1.2,37,-0.020,-0.020,-0.020,0.000,0.000,0.000
1644339863198905856,2022-02-08-17:04:23,10.1.1.2,34,-0.030,-0.030,-0.030,0.000,0.000,0.000
1644339863418263808,2022-02-08-17:04:23,10.1.1.2,52,-0.050,-0.050,-0.050,0.000,0.000,0.000
1644339863699026944,2022-02-08-17:04:23,10.1.1.2,27,-0.080,-0.080,-0.080,0.000,0.000,0.000
1644339863799015168,2022-02-08-17:04:23,10.1.1.2,27,-0.090,-0.090,-0.090,0.000,0.000,0.000
1644339863898912000,2022-02-08-17:04:23,10.1.1.2,26,-0.100,-0.100,-0.100,0.000,0.000,0.000
1644339864417974016,2022-02-08-17:04:24,10.1.1.2,40,-0.050,-0.050,-0.050,0.000,0.000,0.000
1644339864816329984,2022-02-08-17:04:24,10.1.1.2,37,-0.010,-0.010,-0.010,0.000,0.000,0.000
1644339865008691968,2022-02-08-17:04:25,10.1.1.2,27,0.010,0.010,0.010,0.000,0.000,0.000
1644339865118514176,2022-02-08-17:04:25,10.1.1.2,36,0.020,0.020,0.020,0.000,0.000,0.000
1644339865218760960,2022-02-08-17:04:25,10.1.1.2,36,0.030,0.030,0.030,0.000,0.000,0.000
1644339865318541056,2022-02-08-17:04:25,10.1.1.2,35,0.040,0.040,0.040,0.000,0.000,0.000
1644339865422569984,2022-02-08-17:04:25,10.1.1.2,38,0.050,0.050,0.050,0.000,0.000,0.000
1644339865820743168,2022-02-08-17:04:25,10.1.1.2,28,0.090,0.090,0.090,0.000,0.000,0.000
1644339865918690816,2022-02-08-17:04:25,10.1.1.2,26,0.100,0.100,0.100,0.000,0.000,0.000
1644339866019268096,2022-02-08-17:04:26,10.1.1.2,25,0.090,0.090,0.090,0.000,0.000,0.000
1644339866135922944,2022-02-08-17:04:26,10.1.1.2,41,0.080,0.080,0.080,0.000,0.000,0.000
1644339866537832960,2022-02-08-17:04:26,10.1.1.2,38,0.040,0.040,0.040,0.000,0.000,0.000
1644339866639954944,2022-02-08-17:04:26,10.1.1.2,38,0.030,0.030,0.030,0.000,0.000,0.000
1644339866838612992,2022-02-08-17:04:26,10.1.1.2,29,0.010,0.010,0.010,0.000,0.000,0.000
1644339867259307008,2022-02-08-17:04:27,10.1.1.2,35,-0.030,-0.030,-0.030,0.000,0.000,0.000
1644339867358565120,2022-02-08-17:04:27,10.1.1.2,29,-0.040,-0.040,-0.040,0.000,0.000,0.000
1644339867458832128,2022-02-08-17:04:27,10.1.1.2,27,-0.050,-0.050,-0.050,0.000,0.000,0.000
1644339867558280960,2022-02-08-17:04:27,10.1.1.2,27,-0.060,-0.060,-0.060,0.000,0.000,0.000
1644339867659123968,2022-02-08-17:04:27,10.1.1.2,26,-0.070,-0.070,-0.070,0.000,0.000,0.000
1644339868065368832,2022-02-08-17:04:28,10.1.1.2,28,-0.090,-0.090,-0.090,0.000,0.000,0.000
1644339868214840832,2022-02-08-17:04:28,10.1.1.2,76,-0.080,-0.080,-0.080,0.000,0.000,0.000
1644339868269102080,2022-02-08-17:04:28,10.1.1.2,26,-0.070,-0.070,-0.070,0.000,0.000,0.000
1644339868370369024,2022-02-08-17:04:28,10.1.1.2,26,-0.060,-0.060,-0.060,0.000,0.000,0.000
1644339868471968768,2022-02-08-17:04:28,10.1.1.2,27,-0.050,-0.050,-0.050,0.000,0.000,0.000
1644339868571819008,2022-02-08-17:04:28,10.1.1.2,26,-0.040,-0.040,-0.040,0.000,0.000,0.000
1644339868991650048,2022-02-08-17:04:28,10.1.1.2,38,0.000,0.000,0.000,0.000,0.000,0.000
1644339869102038016,2022-02-08-17:04:29,10.1.1.2,48,0.010,0.010,0.010,0.000,0.000,0.000
1644339869180676864,2022-02-08-17:04:29,10.1.1.2,25,0.020,0.020,0.020,0.000,0.000,0.000
1644339869803886848,2022-02-08-17:04:29,10.1.1.2,42,0.080,0.080,0.080,0.000,0.000,0.000
1644339870097307904,2022-02-08-17:04:30,10.1.1.2,25,0.090,0.090,0.090,0.000,0.000,0.000
1644339870448996096,2022-02-08-17:04:30,10.1.1.2,73,0.060,0.060,0.060,0.000,0.000,0.000
1644339870619117056,2022-02-08-17:04:30,10.1.1.2,37,0.040,0.040,0.040,0.000,0.000,0.000
1644339870854289152,2022-02-08-17:04:30,10.1.1.2,69,0.020,0.020,0.020,0.000,0.000,0.000
1644339870963597056,2022-02-08-17:04:30,10.1.1.2,78,0.010,0.010,0.010,0.000,0.000,0.000
1644339871013169920,2022-02-08-17:04:31,10.1.1.2,27,0.000,0.000,0.000,0.000,0.000,0.000
1644339871135207936,2022-02-08-17:04:31,10.1.1.2,47,-0.010,-0.010,-0.010,0.000,0.000,0.000
1644339871223427072,2022-02-08-17:04:31,10.1.1.2,25,-0.020,-0.020,-0.020,0.000,0.000,0.000
1644339871434318080,2022-02-08-17:04:31,10.1.1.2,34,-0.040,-0.040,-0.040,0.000,0.000,0.000
1644339871975707904,2022-02-08-17:04:31,10.1.1.2,68,-0.090,-0.090,-0.090,0.000,0.000,0.000
1644339872113217024,2022-02-08-17:04:32,10.1.1.2,2,-0.090,-0.090,-0.090,0.000,0.000,0.000
1644339872352516864,2022-02-08-17:04:32,10.1.1.2,39,-0.070,-0.070,-0.070,0.000,0.000,0.000
1644339872452520960,2022-02-08-17:04:32,10.1.1.2,36,-0.060,-0.060,-0.060,0.000,0.000,0.000
1644339872551840000,2022-02-08-17:04:32,10.1.1.2,36,-0.050,-0.050,-0.050,0.000,0.000,0.000
1644339873154385920,2022-02-08-17:04:33,10.1.1.2,29,0.010,0.010,0.010,0.000,0.000,0.000
1644339873252357888,2022-02-08-17:04:33,10.1.1.2,27,0.020,0.020,0.020,0.000,0.000,0.000
1644339873571825920,2022-02-08-17:04:33,10.1.1.2,39,0.050,0.050,0.050,0.000,0.000,0.000
1644339873672478976,2022-02-08-17:04:33,10.1.1.2,39,0.060,0.060,0.060,0.000,0.000,0.000
1644339873773360896,2022-02-08-17:04:33,10.1.1.2,38,0.070,0.070,0.070,0.000,0.000,0.000
1644339873872659968,2022-02-08-17:04:33,10.1.1.2,37,0.080,0.080,0.080,0.000,0.000,0.000
1644339873973236992,2022-02-08-17:04:33,10.1.1.2,36,0.090,0.090,0.090,0.000,0.000,0.000
1644339874152865792,2022-02-08-17:04:34,10.1.1.2,13,0.090,0.090,0.090,0.000,0.000,0.000
1644339874272883968,2022-02-08-17:04:34,10.1.1.2,30,0.080,0.080,0.080,0.000,0.000,0.000
1644339874372011776,2022-02-08-17:04:34,10.1.1.2,29,0.070,0.070,0.070,0.000,0.000,0.000
1644339874472513024,2022-02-08-17:04:34,10.1.1.2,26,0.060,0.060,0.060,0.000,0.000,0.000
1644339875092086016,2022-02-08-17:04:35,10.1.1.2,38,0.000,0.000,0.000,0.000,0.000,0.000
1644339875192580096,2022-02-08-17:04:35,10.1.1.2,37,-0.010,-0.010,-0.010,0.000,0.000,0.000
1644339875292550144,2022-02-08-17:04:35,10.1.1.2,36,-0.020,-0.020,-0.020,0.000,0.000,0.000
1644339875392435200,2022-02-08-17:04:35,10.1.1.2,35,-0.030,-0.030,-0.030,0.000,0.000,0.000
1644339875599687168,2022-02-08-17:04:35,10.1.1.2,39,-0.050,-0.050,-0.050,0.000,0.000,0.000
1644339875700123904,2022-02-08-17:04:35,10.1.1.2,38,-0.060,-0.060,-0.060,0.000,0.000,0.000
1644339875799866880,2022-02-08-17:04:35,10.1.1.2,37,-0.070,-0.070,-0.070,0.000,0.000,0.000
1644339875899883008,2022-02-08-17:04:35,10.1.1.2,36,-0.080,-0.080,-0.080,0.000,0.000,0.000
1644339876273614848,2022-02-08-17:04:36,10.1.1.2,0,-0.080,-0.080,-0.080,0.000,0.000,0.000
1644339876417980928,2022-02-08-17:04:36,10.1.1.2,45,-0.070,-0.070,-0.070,0.000,0.000,0.000
1644339876508384000,2022-02-08-17:04:36,10.1.1.2,34,-0.060,-0.060,-0.060,0.000,0.000,0.000
1644339877018685952,2022-02-08-17:04:37,10.1.1.2,39,-0.010,-0.010,-0.010,0.000,0.000,0.000
1644339877119411968,2022-02-08-17:04:37,10.1.1.2,38,0.000,0.000,0.000,0.000,0.000,0.000
1644339877219590912,2022-02-08-17:04:37,10.1.1.2,38,0.010,0.010,0.010,0.000,0.000,0.000
1644339877319222016,2022-02-08-17:04:37,10.1.1.2,37,0.020,0.020,0.020,0.000,0.000,0.000
1644339877418445056,2022-02-08-17:04:37,10.1.1.2,36,0.030,0.030,0.030,0.000,0.000,0.000
1644339877918844928,2022-02-08-17:04:37,10.1.1.2,27,0.080,0.080,0.080,0.000,0.000,0.000
1644339878018338816,2022-02-08-17:04:38,10.1.1.2,26,0.090,0.090,0.090,0.000,0.000,0.000
1644339878218961920,2022-02-08-17:04:38,10.1.1.2,21,0.090,0.090,0.090,0.000,0.000,0.000
1644339878440013056,2022-02-08-17:04:38,10.1.1.2,39,0.070,0.070,0.070,0.000,0.000,0.000
1644339878537198080,2022-02-08-17:04:38,10.1.1.2,38,0.060,0.060,0.060,0.000,0.000,0.000
1644339878638904064,2022-02-08-17:04:38,10.1.1.2,36,0.050,0.050,0.050,0.000,0.000,0.000
1644339878738477824,2022-02-08-17:04:38,10.1.1.2,36,0.040,0.040,0.040,0.000,0.000,0.000
1644339879139260928,2022-02-08-17:04:39,10.1.1.2,30,0.000,0.000,0.000,0.000,0.000,0.000
1644339879238029056,2022-02-08-17:04:39,10.1.1.2,29,-0.010,-0.010,-0.010,0.000,0.000,0.000
1644339879355940096,2022-02-08-17:04:39,10.1.1.2,45,-0.020,-0.020,-0.020,0.000,0.000,0.000
1644339879756140032,2022-02-08-17:04:39,10.1.1.2,39,-0.060,-0.060,-0.060,0.000,0.000,0.000
1644339879854984960,2022-02-08-17:04:39,10.1.1.2,38,-0.070,-0.070,-0.070,0.000,0.000,0.000
1644339879955596032,2022-02-08-17:04:39,10.1.1.2,37,-0.080,-0.080,-0.080,0.000,0.000,0.000
1644339880054836992,2022-02-08-17:04:40,10.1.1.2,36,-0.090,-0.090,-0.090,0.000,0.000,0.000
1644339880231147008,2022-02-08-17:04:40,10.1.1.2,9,-0.090,-0.090,-0.090,0.000,0.000,0.000
1644339880980096000,2022-02-08-17:04:40,10.1.1.2,36,-0.020,-0.020,-0.020,0.000,0.000,0.000
1644339881078697984,2022-02-08-17:04:41,10.1.1.2,35,-0.010,-0.010,-0.010,0.000,0.000,0.000
1644339881271645952,2022-02-08-17:04:41,10.1.1.2,22,0.010,0.010,0.010,0.000,0.000,0.000
1644339881597475072,2022-02-08-17:04:41,10.1.1.2,46,0.040,0.040,0.040,0.000,0.000,0.000
1644339881691982080,2022-02-08-17:04:41,10.1.1.2,38,0.050,0.050,0.050,0.000,0.000,0.000
1644339881791054848,2022-02-08-17:04:41,10.1.1.2,36,0.060,0.060,0.060,0.000,0.000,0.000
1644339881901650944,2022-02-08-17:04:41,10.1.1.2,46,0.070,0.070,0.070,0.000,0.000,0.000
1644339882097736960,2022-02-08-17:04:42,10.1.1.2,40,0.090,0.090,0.090,0.000,0.000,0.000
1644339882197268992,2022-02-08-17:04:42,10.1.1.2,39,0.100,0.100,0.100,0.000,0.000,0.000
1644339882297113856,2022-02-08-17:04:42,10.1.1.2,38,0.090,0.090,0.090,0.000,0.000,0.000
1644339882397720064,2022-02-08-17:04:42,10.1.1.2,38,0.080,0.080,0.080,0.000,0.000,0.000
1644339882500430080,2022-02-08-17:04:42,10.1.1.2,37,0.070,0.070,0.070,0.000,0.000,0.000
1644339882805447936,2022-02-08-17:04:42,10.1.1.2,40,0.040,0.040,0.040,0.000,0.000,0.000
1644339883209714944,2022-02-08-17:04:43,10.1.1.2,41,0.000,0.000,0.000,0.000,0.000,0.000
1644339883319886080,2022-02-08-17:04:43,10.1.1.2,50,-0.010,-0.010,-0.010,0.000,0.000,0.000
1644339883399668992,2022-02-08-17:04:43,10.1.1.2,29,-0.020,-0.020,-0.020,0.000,0.000,0.000
1644339883500414976,2022-02-08-17:04:43,10.1.1.2,29,-0.030,-0.030,-0.030,0.000,0.000,0.000
1644339883599237888,2022-02-08-17:04:43,10.1.1.2,28,-0.040,-0.040,-0.040,0.000,0.000,0.000
1644339883699779072,2022-02-08-17:04:43,10.1.1.2,27,-0.050,-0.050,-0.050,0.000,0.000,0.000
1644339883800018944,2022-02-08-17:04:43,10.1.1.2,26,-0.060,-0.060,-0.060,0.000,0.000,0.000
1644339883899806976,2022-02-08-17:04:43,10.1.1.2,26,-0.070,-0.070,-0.070,0.000,0.000,0.000
1644339884113821952,2022-02-08-17:04:44,10.1.1.2,37,-0.090,-0.090,-0.090,0.000,0.000,0.000
1644339884212541952,2022-02-08-17:04:44,10.1.1.2,36,-0.100,-0.100,-0.100,0.000,0.000,0.000
1644339884313147904,2022-02-08-17:04:44,10.1.1.2,35,-0.090,-0.090,-0.090,0.000,0.000,0.000
1644339884616663040,2022-02-08-17:04:44,10.1.1.2,36,-0.060,-0.060,-0.060,0.000,0.000,0.000
1644339885019516928,2022-02-08-17:04:45,10.1.1.2,37,-0.020,-0.020,-0.020,0.000,0.000,0.000
1644339885156179968,2022-02-08-17:04:45,10.1.1.2,72,-0.010,-0.010,-0.010,0.000,0.000,0.000
1644339885283832064,2022-02-08-17:04:45,10.1.1.2,99,0.000,0.000,0.000,0.000,0.000,0.000
1644339885320834048,2022-02-08-17:04:45,10.1.1.2,36,0.010,0.010,0.010,0.000,0.000,0.000
1644339885418968832,2022-02-08-17:04:45,10.1.1.2,33,0.020,0.020,0.020,0.000,0.000,0.000
1644339885822092032,2022-02-08-17:04:45,10.1.1.2,33,0.060,0.060,0.060,0.000,0.000,0.000
1644339885913203968,2022-02-08-17:04:45,10.1.1.2,22,0.070,0.070,0.070,0.000,0.000,0.000
1644339886057270016,2022-02-08-17:04:46,10.1.1.2,67,0.080,0.080,0.080,0.000,0.000,0.000
1644339886149733120,2022-02-08-17:04:46,10.1.1.2,57,0.090,0.090,0.090,0.000,0.000,0.000
1644339886246473984,2022-02-08-17:04:46,10.1.1.2,54,0.100,0.100,0.100,0.000,0.000,0.000
1644339886626488832,2022-02-08-17:04:46,10.1.1.2,25,0.060,0.060,0.060,0.000,0.000,0.000
1644339886827090944,2022-02-08-17:04:46,10.1.1.2,25,0.040,0.040,0.040,0.000,0.000,0.000
1644339887537570048,2022-02-08-17:04:47,10.1.1.2,29,-0.030,-0.030,-0.030,0.000,0.000,0.000
1644339887636303872,2022-02-08-17:04:47,10.1.1.2,28,-0.040,-0.040,-0.040,0.000,0.000,0.000
1644339887736614912,2022-02-08-17:04:47,10.1.1.2,27,-0.050,-0.050,-0.050,0.000,0.000,0.000
1644339887836515840,2022-02-08-17:04:47,10.1.1.2,26,-0.060,-0.060,-0.060,0.000,0.000,0.000
1644339887937094912,2022-02-08-17:04:47,10.1.1.2,26,-0.070,-0.070,-0.070,0.000,0.000,0.000
1644339888536801024,2022-02-08-17:04:48,10.1.1.2,19,-0.070,-0.070,-0.070,0.000,0.000,0.000
1644339888656939008,2022-02-08-17:04:48,10.1.1.2,37,-0.060,-0.060,-0.060,0.000,0.000,0.000
1644339888762994176,2022-02-08-17:04:48,10.1.1.2,41,-0.050,-0.050,-0.050,0.000,0.000,0.000
1644339888858313984,2022-02-08-17:04:48,10.1.1.2,35,-0.040,-0.040,-0.040,0.000,0.000,0.000
1644339889187010048,2022-02-08-17:04:49,10.1.1.2,59,-0.010,-0.010,-0.010,0.000,0.000,0.000
1644339889257107968,2022-02-08-17:04:49,10.1.1.2,29,0.000,0.000,0.000,0.000,0.000,0.000
1644339889356581888,2022-02-08-17:04:49,10.1.1.2,27,0.010,0.010,0.010,0.000,0.000,0.000
1644339889579298048,2022-02-08-17:04:49,10.1.1.2,48,0.030,0.030,0.030,0.000,0.000,0.000
1644339889963313152,2022-02-08-17:04:49,10.1.1.2,25,0.070,0.070,0.070,0.000,0.000,0.000
1644339890494415872,2022-02-08-17:04:50,10.1.1.2,52,0.080,0.080,0.080,0.000,0.000,0.000
1644339890567537920,2022-02-08-17:04:50,10.1.1.2,25,0.070,0.070,0.070,0.000,0.000,0.000
1644339891277854976,2022-02-08-17:04:51,10.1.1.2,28,0.000,0.000,0.000,0.000,0.000,0.000
1644339891376531968,2022-02-08-17:04:51,10.1.1.2,27,-0.010,-0.010,-0.010,0.000,0.000,0.000
1644339891477106176,2022-02-08-17:04:51,10.1.1.2,27,-0.020,-0.020,-0.020,0.000,0.000,0.000
1644339891576709888,2022-02-08-17:04:51,10.1.1.2,26,-0.030,-0.030,-0.030,0.000,0.000,0.000
1644339892395833088,2022-02-08-17:04:52,10.1.1.2,35,-0.090,-0.090,-0.090,0.000,0.000,0.000
1644339892541357056,2022-02-08-17:04:52,10.1.1.2,82,-0.080,-0.080,-0.080,0.000,0.000,0.000
1644339892691472896,2022-02-08-17:04:52,10.1.1.2,29,-0.060,-0.060,-0.060,0.000,0.000,0.000
1644339892791950080,2022-02-08-17:04:52,10.1.1.2,27,-0.050,-0.050,-0.050,0.000,0.000,0.000
1644339892892705792,2022-02-08-17:04:52,10.1.1.2,26,-0.040,-0.040,-0.040,0.000,0.000,0.000
1644339893610939136,2022-02-08-17:04:53,10.1.1.2,36,0.030,0.030,0.030,0.000,0.000,0.000
1644339893811325184,2022-02-08-17:04:53,10.1.1.2,32,0.050,0.050,0.050,0.000,0.000,0.000
1644339894111361024,2022-02-08-17:04:54,10.1.1.2,29,0.080,0.080,0.080,0.000,0.000,0.000
1644339894211048960,2022-02-08-17:04:54,10.1.1.2,28,0.090,0.090,0.090,0.000,0.000,0.000
1644339894311860992,2022-02-08-17:04:54,10.1.1.2,28,0.100,0.100,0.100,0.000,0.000,0.000
1644339894434382080,2022-02-08-17:04:54,10.1.1.2,47,0.090,0.090,0.090,0.000,0.000,0.000
1644339894618125824,2022-02-08-17:04:54,10.1.1.2,29,0.070,0.070,0.070,0.000,0.000,0.000
1644339894719801856,2022-02-08-17:04:54,10.1.1.2,28,0.060,0.060,0.060,0.000,0.000,0.000
1644339895338802944,2022-02-08-17:04:55,10.1.1.2,39,0.000,0.000,0.000,0.000,0.000,0.000
1644339895439163904,2022-02-08-17:04:55,10.1.1.2,38,-0.010,-0.010,-0.010,0.000,0.000,0.000
1644339895539601920,2022-02-08-17:04:55,10.1.1.2,37,-0.020,-0.020,-0.020,0.000,0.000,0.000
1644339895638091008,2022-02-08-17:04:55,10.1.1.2,36,-0.030,-0.030,-0.030,0.000,0.000,0.000
1644339895739731968,2022-02-08-17:04:55,10.1.1.2,36,-0.040,-0.040,-0.040,0.000,0.000,0.000
1644339895942120192,2022-02-08-17:04:55,10.1.1.2,28,-0.060,-0.060,-0.060,0.000,0.000,0.000
1644339896141053952,2022-02-08-17:04:56,10.1.1.2,20,-0.080,-0.080,-0.080,0.000,0.000,0.000
1644339896362853888,2022-02-08-17:04:56,10.1.1.2,36,-0.100,-0.100,-0.100,0.000,0.000,0.000
1644339896460977152,2022-02-08-17:04:56,10.1.1.2,29,-0.090,-0.090,-0.090,0.000,0.000,0.000
1644339896560281088,2022-02-08-17:04:56,10.1.1.2,27,-0.080,-0.080,-0.080,0.000,0.000,0.000
1644339896758497024,2022-02-08-17:04:56,10.1.1.2,19,-0.060,-0.060,-0.060,0.000,0.000,0.000
1644339896879225856,2022-02-08-17:04:56,10.1.1.2,39,-0.050,-0.050,-0.050,0.000,0.000,0.000
1644339896977978112,2022-02-08-17:04:56,10.1.1.2,37,-0.040,-0.040,-0.040,0.000,0.000,0.000
1644339897078361088,2022-02-08-17:04:57,10.1.1.2,37,-0.030,-0.030,-0.030,0.000,0.000,0.000
1644339897180018944,2022-02-08-17:04:57,10.1.1.2,38,-0.020,-0.020,-0.020,0.000,0.000,0.000
1644339897678316032,2022-02-08-17:04:57,10.1.1.2,29,0.030,0.030,0.030,0.000,0.000,0.000
1644339897778534912,2022-02-08-17:04:57,10.1.1.2,27,0.040,0.040,0.040,0.000,0.000,0.000
1644339897884185088,2022-02-08-17:04:57,10.1.1.2,32,0.050,0.050,0.050,0.000,0.000,0.000
1644339898417701888,2022-02-08-17:04:58,10.1.1.2,56,0.100,0.100,0.100,0.000,0.000,0.000
1644339898488097792,2022-02-08-17:04:58,10.1.1.2,26,0.090,0.090,0.090,0.000,0.000,0.000
1644339898997611008,2022-02-08-17:04:58,10.1.1.2,29,0.040,0.040,0.040,0.000,0.000,0.000
1644339899096880896,2022-02-08-17:04:59,10.1.1.2,27,0.030,0.030,0.030,0.000,0.000,0.000
1644339899197997056,2022-02-08-17:04:59,10.1.1.2,26,0.020,0.020,0.020,0.000,0.000,0.000
1644339899616925952,2022-02-08-17:04:59,10.1.1.2,39,-0.020,-0.020,-0.020,0.000,0.000,0.000
1644339900126409984,2022-02-08-17:05:00,10.1.1.2,34,-0.070,-0.070,-0.070,0.000,0.000,0.000
1644339900217958912,2022-02-08-17:05:00,10.1.1.2,29,-0.080,-0.080,-0.080,0.000,0.000,0.000
1644339900317633024,2022-02-08-17:05:00,10.1.1.2,27,-0.090,-0.090,-0.090,0.000,0.000,0.000
1644339900411345920,2022-02-08-17:05:00,10.1.1.2,20,-0.100,-0.100,-0.100,0.000,0.000,0.000
1644339900937426176,2022-02-08-17:05:00,10.1.1.2,39,-0.050,-0.050,-0.050,0.000,0.000,0.000
1644339901237651968,2022-02-08-17:05:01,10.1.1.2,27,-0.020,-0.020,-0.020,0.000,0.000,0.000
