FedericoMungari/DigitalTwin_service/01_WiredScenario/Output/Output_script/script_rosapi_2_output_robots2_freq0_2.txt
timestamp,date,node,latency,joint_1,joint_2,joint_3,joint_4,joint_5,joint_6
1644342094419756032,2022-02-08-17:41:34,10.1.1.3,0,-0.100,-0.100,-0.100,-0.000,-0.000,0.000
1644342094556310784,2022-02-08-17:41:34,10.1.1.3,34,-0.090,-0.090,-0.090,0.000,0.000,0.000
1644342094656105984,2022-02-08-17:41:34,10.1.1.3,34,-0.080,-0.080,-0.080,0.000,0.000,0.000
1644342094758225920,2022-02-08-17:41:34,10.1.1.3,32,-0.070,-0.070,-0.070,0.000,0.000,0.000
1644342094856452096,2022-02-08-17:41:34,10.1.1.3,31,-0.060,-0.060,-0.060,0.000,0.000,0.000
1644342094955944960,2022-02-08-17:41:34,10.1.1.3,30,-0.050,-0.050,-0.050,0.000,0.000,0.000
1644342095055320064,2022-02-08-17:41:35,10.1.1.3,30,-0.040,-0.040,-0.040,0.000,0.000,0.000
1644342095157170944,2022-02-08-17:41:35,10.1.1.3,27,-0.030,-0.030,-0.030,0.000,0.000,0.000
1644342095255492864,2022-02-08-17:41:35,10.1.1.3,26,-0.020,-0.020,-0.020,0.000,0.000,0.000
1644342095355602944,2022-02-08-17:41:35,10.1.1.3,25,-0.010,-0.010,-0.010,0.000,0.000,0.000
1644342095454991104,2022-02-08-17:41:35,10.1.1.3,22,0.000,0.000,0.000,0.000,0.000,0.000
1644342095556698112,2022-02-08-17:41:35,10.1.1.3,21,0.010,0.010,0.010,0.000,0.000,0.000
1644342095675927040,2022-02-08-17:41:35,10.1.1.3,37,0.020,0.020,0.020,0.000,0.000,0.000
1644342095776338176,2022-02-08-17:41:35,10.1.1.3,35,0.030,0.030,0.030,0.000,0.000,0.000
1644342095875462912,2022-02-08-17:41:35,10.1.1.3,34,0.040,0.040,0.040,0.000,0.000,0.000
1644342095975281920,2022-02-08-17:41:35,10.1.1.3,33,0.050,0.050,0.050,0.000,0.000,0.000
1644342096075386880,2022-02-08-17:41:36,10.1.1.3,33,0.060,0.060,0.060,0.000,0.000,0.000
1644342096175055872,2022-02-08-17:41:36,10.1.1.3,32,0.070,0.070,0.070,0.000,0.000,0.000
1644342096276109056,2022-02-08-17:41:36,10.1.1.3,31,0.080,0.080,0.080,0.000,0.000,0.000
1644342096375591936,2022-02-08-17:41:36,10.1.1.3,30,0.090,0.090,0.090,0.000,0.000,0.000
1644342096475558144,2022-02-08-17:41:36,10.1.1.3,28,0.100,0.100,0.100,0.000,0.000,0.000
1644342096575396096,2022-02-08-17:41:36,10.1.1.3,27,0.090,0.090,0.090,0.000,0.000,0.000
1644342096675558144,2022-02-08-17:41:36,10.1.1.3,26,0.080,0.080,0.080,0.000,0.000,0.000
1644342096775415808,2022-02-08-17:41:36,10.1.1.3,25,0.070,0.070,0.070,0.000,0.000,0.000
1644342096875945984,2022-02-08-17:41:36,10.1.1.3,23,0.060,0.060,0.060,0.000,0.000,0.000
1644342096975544064,2022-02-08-17:41:36,10.1.1.3,22,0.050,0.050,0.050,0.000,0.000,0.000
1644342097076827136,2022-02-08-17:41:37,10.1.1.3,22,0.040,0.040,0.040,0.000,0.000,0.000
1644342097176574976,2022-02-08-17:41:37,10.1.1.3,21,0.030,0.030,0.030,0.000,0.000,0.000
1644342097296264960,2022-02-08-17:41:37,10.1.1.3,39,0.020,0.020,0.020,0.000,0.000,0.000
1644342097395569920,2022-02-08-17:41:37,10.1.1.3,38,0.010,0.010,0.010,0.000,0.000,0.000
1644342097495683072,2022-02-08-17:41:37,10.1.1.3,37,0.000,0.000,0.000,0.000,0.000,0.000
1644342097595496960,2022-02-08-17:41:37,10.1.1.3,36,-0.010,-0.010,-0.010,0.000,0.000,0.000
1644342097695603968,2022-02-08-17:41:37,10.1.1.3,34,-0.020,-0.020,-0.020,0.000,0.000,0.000
1644342097795569920,2022-02-08-17:41:37,10.1.1.3,33,-0.030,-0.030,-0.030,0.000,0.000,0.000
1644342097895662080,2022-02-08-17:41:37,10.1.1.3,32,-0.040,-0.040,-0.040,0.000,0.000,0.000
1644342097995774976,2022-02-08-17:41:37,10.1.1.3,31,-0.050,-0.050,-0.050,0.000,0.000,0.000
1644342098095451136,2022-02-08-17:41:38,10.1.1.3,29,-0.060,-0.060,-0.060,0.000,0.000,0.000
1644342098195670016,2022-02-08-17:41:38,10.1.1.3,27,-0.070,-0.070,-0.070,0.000,0.000,0.000
1644342098296250112,2022-02-08-17:41:38,10.1.1.3,26,-0.080,-0.080,-0.080,0.000,0.000,0.000
1644342098396069888,2022-02-08-17:41:38,10.1.1.3,25,-0.090,-0.090,-0.090,0.000,0.000,0.000
1644342098494973952,2022-02-08-17:41:38,10.1.1.3,25,-0.100,-0.100,-0.100,0.000,0.000,0.000
1644342098595323136,2022-02-08-17:41:38,10.1.1.3,23,-0.090,-0.090,-0.090,0.000,0.000,0.000
1644342098695697920,2022-02-08-17:41:38,10.1.1.3,22,-0.080,-0.080,-0.080,0.000,0.000,0.000
1644342098795784960,2022-02-08-17:41:38,10.1.1.3,21,-0.070,-0.070,-0.070,0.000,0.000,0.000
1644342098896301056,2022-02-08-17:41:38,10.1.1.3,21,-0.060,-0.060,-0.060,0.000,0.000,0.000
1644342098995933952,2022-02-08-17:41:38,10.1.1.3,20,-0.050,-0.050,-0.050,0.000,0.000,0.000
1644342099115777024,2022-02-08-17:41:39,10.1.1.3,39,-0.040,-0.040,-0.040,0.000,0.000,0.000
1644342099215724032,2022-02-08-17:41:39,10.1.1.3,38,-0.030,-0.030,-0.030,0.000,0.000,0.000
1644342099316028160,2022-02-08-17:41:39,10.1.1.3,36,-0.020,-0.020,-0.020,0.000,0.000,0.000
1644342099415396096,2022-02-08-17:41:39,10.1.1.3,35,-0.010,-0.010,-0.010,0.000,0.000,0.000
1644342099515762176,2022-02-08-17:41:39,10.1.1.3,34,0.000,0.000,0.000,0.000,0.000,0.000
1644342099616611072,2022-02-08-17:41:39,10.1.1.3,33,0.010,0.010,0.010,0.000,0.000,0.000
1644342099715650048,2022-02-08-17:41:39,10.1.1.3,32,0.020,0.020,0.020,0.000,0.000,0.000
1644342099815877888,2022-02-08-17:41:39,10.1.1.3,31,0.030,0.030,0.030,0.000,0.000,0.000
1644342099915160064,2022-02-08-17:41:39,10.1.1.3,27,0.040,0.040,0.040,0.000,0.000,0.000
1644342100015668992,2022-02-08-17:41:40,10.1.1.3,26,0.050,0.050,0.050,0.000,0.000,0.000
1644342100117501952,2022-02-08-17:41:40,10.1.1.3,22,0.060,0.060,0.060,0.000,0.000,0.000
1644342100215180032,2022-02-08-17:41:40,10.1.1.3,20,0.070,0.070,0.070,0.000,0.000,0.000
1644342100335202816,2022-02-08-17:41:40,10.1.1.3,39,0.080,0.080,0.080,0.000,0.000,0.000
1644342100435003904,2022-02-08-17:41:40,10.1.1.3,38,0.090,0.090,0.090,0.000,0.000,0.000
1644342100536172032,2022-02-08-17:41:40,10.1.1.3,37,0.100,0.100,0.100,0.000,0.000,0.000
1644342100635809024,2022-02-08-17:41:40,10.1.1.3,36,0.090,0.090,0.090,0.000,0.000,0.000
1644342100735929088,2022-02-08-17:41:40,10.1.1.3,34,0.080,0.080,0.080,0.000,0.000,0.000
1644342100835126016,2022-02-08-17:41:40,10.1.1.3,32,0.070,0.070,0.070,0.000,0.000,0.000
1644342100935555840,2022-02-08-17:41:40,10.1.1.3,31,0.060,0.060,0.060,0.000,0.000,0.000
1644342101035975936,2022-02-08-17:41:41,10.1.1.3,30,0.050,0.050,0.050,0.000,0.000,0.000
1644342101136836096,2022-02-08-17:41:41,10.1.1.3,29,0.040,0.040,0.040,0.000,0.000,0.000
1644342101236315136,2022-02-08-17:41:41,10.1.1.3,27,0.030,0.030,0.030,0.000,0.000,0.000
1644342101335844096,2022-02-08-17:41:41,10.1.1.3,26,0.020,0.020,0.020,0.000,0.000,0.000
1644342101435138816,2022-02-08-17:41:41,10.1.1.3,25,0.010,0.010,0.010,0.000,0.000,0.000
1644342101535149056,2022-02-08-17:41:41,10.1.1.3,21,0.000,0.000,0.000,0.000,0.000,0.000
1644342101635375104,2022-02-08-17:41:41,10.1.1.3,20,-0.010,-0.010,-0.010,0.000,0.000,0.000
1644342101756007936,2022-02-08-17:41:41,10.1.1.3,39,-0.020,-0.020,-0.020,0.000,0.000,0.000
1644342101855339008,2022-02-08-17:41:41,10.1.1.3,38,-0.030,-0.030,-0.030,0.000,0.000,0.000
1644342101965476864,2022-02-08-17:41:41,10.1.1.3,46,-0.040,-0.040,-0.040,0.000,0.000,0.000
1644342102055674112,2022-02-08-17:41:42,10.1.1.3,35,-0.050,-0.050,-0.050,0.000,0.000,0.000
1644342102155680768,2022-02-08-17:41:42,10.1.1.3,34,-0.060,-0.060,-0.060,0.000,0.000,0.000
1644342102255256064,2022-02-08-17:41:42,10.1.1.3,32,-0.070,-0.070,-0.070,0.000,0.000,0.000
1644342102355403008,2022-02-08-17:41:42,10.1.1.3,31,-0.080,-0.080,-0.080,0.000,0.000,0.000
1644342102455323904,2022-02-08-17:41:42,10.1.1.3,31,-0.090,-0.090,-0.090,0.000,0.000,0.000
1644342102634483200,2022-02-08-17:41:42,10.1.1.3,9,-0.090,-0.090,-0.090,0.000,0.000,0.000
1644342102754585088,2022-02-08-17:41:42,10.1.1.3,29,-0.080,-0.080,-0.080,0.000,0.000,0.000
1644342102856034048,2022-02-08-17:41:42,10.1.1.3,28,-0.070,-0.070,-0.070,0.000,0.000,0.000
1644342102955395072,2022-02-08-17:41:42,10.1.1.3,27,-0.060,-0.060,-0.060,0.000,0.000,0.000
1644342103064837888,2022-02-08-17:41:43,10.1.1.3,25,-0.050,-0.050,-0.050,0.000,0.000,0.000
1644342103155049984,2022-02-08-17:41:43,10.1.1.3,24,-0.040,-0.040,-0.040,0.000,0.000,0.000
1644342103254775040,2022-02-08-17:41:43,10.1.1.3,24,-0.030,-0.030,-0.030,0.000,0.000,0.000
1644342103354860032,2022-02-08-17:41:43,10.1.1.3,23,-0.020,-0.020,-0.020,0.000,0.000,0.000
1644342103454624000,2022-02-08-17:41:43,10.1.1.3,22,-0.010,-0.010,-0.010,0.000,0.000,0.000
1644342103554843904,2022-02-08-17:41:43,10.1.1.3,22,0.000,0.000,0.000,0.000,0.000,0.000
1644342103655452928,2022-02-08-17:41:43,10.1.1.3,21,0.010,0.010,0.010,0.000,0.000,0.000
1644342103755105024,2022-02-08-17:41:43,10.1.1.3,20,0.020,0.020,0.020,0.000,0.000,0.000
1644342103855278848,2022-02-08-17:41:43,10.1.1.3,20,0.030,0.030,0.030,0.000,0.000,0.000
1644342103975224064,2022-02-08-17:41:43,10.1.1.3,39,0.040,0.040,0.040,0.000,0.000,0.000
1644342104074883840,2022-02-08-17:41:44,10.1.1.3,38,0.050,0.050,0.050,0.000,0.000,0.000
1644342104175027968,2022-02-08-17:41:44,10.1.1.3,37,0.060,0.060,0.060,0.000,0.000,0.000
1644342104274920960,2022-02-08-17:41:44,10.1.1.3,36,0.070,0.070,0.070,0.000,0.000,0.000
1644342104375451136,2022-02-08-17:41:44,10.1.1.3,36,0.080,0.080,0.080,0.000,0.000,0.000
1644342104475273984,2022-02-08-17:41:44,10.1.1.3,35,0.090,0.090,0.090,0.000,0.000,0.000
1644342104575486976,2022-02-08-17:41:44,10.1.1.3,34,0.100,0.100,0.100,0.000,0.000,0.000
1644342104675916032,2022-02-08-17:41:44,10.1.1.3,33,0.090,0.090,0.090,0.000,0.000,0.000
1644342104875625984,2022-02-08-17:41:44,10.1.1.3,26,0.070,0.070,0.070,0.000,0.000,0.000
1644342104975897088,2022-02-08-17:41:44,10.1.1.3,23,0.060,0.060,0.060,0.000,0.000,0.000
1644342105075616000,2022-02-08-17:41:45,10.1.1.3,22,0.050,0.050,0.050,0.000,0.000,0.000
1644342105187302144,2022-02-08-17:41:45,10.1.1.3,21,0.040,0.040,0.040,0.000,0.000,0.000
1644342105275432192,2022-02-08-17:41:45,10.1.1.3,20,0.030,0.030,0.030,0.000,0.000,0.000
1644342105395496960,2022-02-08-17:41:45,10.1.1.3,39,0.020,0.020,0.020,0.000,0.000,0.000
1644342105496651008,2022-02-08-17:41:45,10.1.1.3,38,0.010,0.010,0.010,0.000,0.000,0.000
1644342105596674048,2022-02-08-17:41:45,10.1.1.3,36,0.000,0.000,0.000,0.000,0.000,0.000
1644342105695291136,2022-02-08-17:41:45,10.1.1.3,35,-0.010,-0.010,-0.010,0.000,0.000,0.000
1644342105795279104,2022-02-08-17:41:45,10.1.1.3,34,-0.020,-0.020,-0.020,0.000,0.000,0.000
1644342105895272960,2022-02-08-17:41:45,10.1.1.3,33,-0.030,-0.030,-0.030,0.000,0.000,0.000
1644342105996292096,2022-02-08-17:41:45,10.1.1.3,31,-0.040,-0.040,-0.040,0.000,0.000,0.000
1644342106095226880,2022-02-08-17:41:46,10.1.1.3,30,-0.050,-0.050,-0.050,0.000,0.000,0.000
1644342106195661056,2022-02-08-17:41:46,10.1.1.3,29,-0.060,-0.060,-0.060,0.000,0.000,0.000
1644342106295224832,2022-02-08-17:41:46,10.1.1.3,28,-0.070,-0.070,-0.070,0.000,0.000,0.000
1644342106395517184,2022-02-08-17:41:46,10.1.1.3,26,-0.080,-0.080,-0.080,0.000,0.000,0.000
1644342106495700992,2022-02-08-17:41:46,10.1.1.3,23,-0.090,-0.090,-0.090,0.000,0.000,0.000
1644342106596368128,2022-02-08-17:41:46,10.1.1.3,22,-0.100,-0.100,-0.100,0.000,0.000,0.000
1644342106815407104,2022-02-08-17:41:46,10.1.1.3,28,-0.080,-0.080,-0.080,0.000,0.000,0.000
1644342106915695872,2022-02-08-17:41:46,10.1.1.3,27,-0.070,-0.070,-0.070,0.000,0.000,0.000
1644342107015515136,2022-02-08-17:41:47,10.1.1.3,23,-0.060,-0.060,-0.060,0.000,0.000,0.000
1644342107115982080,2022-02-08-17:41:47,10.1.1.3,23,-0.050,-0.050,-0.050,0.000,0.000,0.000
1644342107215159040,2022-02-08-17:41:47,10.1.1.3,22,-0.040,-0.040,-0.040,0.000,0.000,0.000
1644342107315246080,2022-02-08-17:41:47,10.1.1.3,21,-0.030,-0.030,-0.030,0.000,0.000,0.000
1644342107535962112,2022-02-08-17:41:47,10.1.1.3,38,-0.010,-0.010,-0.010,0.000,0.000,0.000
1644342107636158976,2022-02-08-17:41:47,10.1.1.3,37,-0.000,-0.000,-0.000,0.000,0.000,0.000
1644342107735452928,2022-02-08-17:41:47,10.1.1.3,35,0.010,0.010,0.010,0.000,0.000,0.000
1644342107835760128,2022-02-08-17:41:47,10.1.1.3,35,0.020,0.020,0.020,0.000,0.000,0.000
1644342107935170048,2022-02-08-17:41:47,10.1.1.3,33,0.030,0.030,0.030,0.000,0.000,0.000
1644342108035620864,2022-02-08-17:41:48,10.1.1.3,32,0.040,0.040,0.040,0.000,0.000,0.000
1644342108136652032,2022-02-08-17:41:48,10.1.1.3,28,0.050,0.050,0.050,0.000,0.000,0.000
1644342108235724800,2022-02-08-17:41:48,10.1.1.3,27,0.060,0.060,0.060,0.000,0.000,0.000
1644342108336921088,2022-02-08-17:41:48,10.1.1.3,25,0.070,0.070,0.070,0.000,0.000,0.000
1644342108436157952,2022-02-08-17:41:48,10.1.1.3,22,0.080,0.080,0.080,0.000,0.000,0.000
1644342108536660992,2022-02-08-17:41:48,10.1.1.3,21,0.090,0.090,0.090,0.000,0.000,0.000
1644342108636164864,2022-02-08-17:41:48,10.1.1.3,20,0.100,0.100,0.100,0.000,0.000,0.000
1644342108756423936,2022-02-08-17:41:48,10.1.1.3,39,0.090,0.090,0.090,0.000,0.000,0.000
1644342108856632064,2022-02-08-17:41:48,10.1.1.3,38,0.080,0.080,0.080,0.000,0.000,0.000
1644342108956535040,2022-02-08-17:41:48,10.1.1.3,34,0.070,0.070,0.070,0.000,0.000,0.000
1644342109055984128,2022-02-08-17:41:49,10.1.1.3,33,0.060,0.060,0.060,0.000,0.000,0.000
1644342109155746048,2022-02-08-17:41:49,10.1.1.3,31,0.050,0.050,0.050,0.000,0.000,0.000
1644342109357146880,2022-02-08-17:41:49,10.1.1.3,26,0.030,0.030,0.030,0.000,0.000,0.000
1644342109456468224,2022-02-08-17:41:49,10.1.1.3,25,0.020,0.020,0.020,0.000,0.000,0.000
1644342109555289088,2022-02-08-17:41:49,10.1.1.3,22,0.010,0.010,0.010,0.000,0.000,0.000
1644342109655468032,2022-02-08-17:41:49,10.1.1.3,20,0.000,0.000,0.000,0.000,0.000,0.000
1644342109776536064,2022-02-08-17:41:49,10.1.1.3,39,-0.010,-0.010,-0.010,0.000,0.000,0.000
1644342109876052992,2022-02-08-17:41:49,10.1.1.3,38,-0.020,-0.020,-0.020,0.000,0.000,0.000
1644342109976228864,2022-02-08-17:41:49,10.1.1.3,37,-0.030,-0.030,-0.030,0.000,0.000,0.000
1644342110075982080,2022-02-08-17:41:50,10.1.1.3,35,-0.040,-0.040,-0.040,0.000,0.000,0.000
1644342110176989184,2022-02-08-17:41:50,10.1.1.3,35,-0.050,-0.050,-0.050,0.000,0.000,0.000
1644342110275441920,2022-02-08-17:41:50,10.1.1.3,34,-0.060,-0.060,-0.060,0.000,0.000,0.000
1644342110375767040,2022-02-08-17:41:50,10.1.1.3,31,-0.070,-0.070,-0.070,0.000,0.000,0.000
1644342110475457024,2022-02-08-17:41:50,10.1.1.3,28,-0.080,-0.080,-0.080,0.000,0.000,0.000
1644342110575824896,2022-02-08-17:41:50,10.1.1.3,27,-0.090,-0.090,-0.090,0.000,0.000,0.000
1644342110675409920,2022-02-08-17:41:50,10.1.1.3,25,-0.100,-0.100,-0.100,0.000,0.000,0.000
1644342110775352064,2022-02-08-17:41:50,10.1.1.3,23,-0.090,-0.090,-0.090,0.000,0.000,0.000
1644342110875305984,2022-02-08-17:41:50,10.1.1.3,22,-0.080,-0.080,-0.080,0.000,0.000,0.000
1644342110975675136,2022-02-08-17:41:50,10.1.1.3,22,-0.070,-0.070,-0.070,0.000,0.000,0.000
1644342111075709184,2022-02-08-17:41:51,10.1.1.3,21,-0.060,-0.060,-0.060,0.000,0.000,0.000
1644342111195997952,2022-02-08-17:41:51,10.1.1.3,40,-0.050,-0.050,-0.050,0.000,0.000,0.000
1644342111295158016,2022-02-08-17:41:51,10.1.1.3,38,-0.040,-0.040,-0.040,0.000,0.000,0.000
1644342111355951104,2022-02-08-17:41:51,10.1.1.3,-4,-0.040,-0.040,-0.040,0.000,0.000,0.000
1644342111495472896,2022-02-08-17:41:51,10.1.1.3,35,-0.020,-0.020,-0.020,0.000,0.000,0.000
1644342111595441152,2022-02-08-17:41:51,10.1.1.3,34,-0.010,-0.010,-0.010,0.000,0.000,0.000
1644342111695357184,2022-02-08-17:41:51,10.1.1.3,33,0.000,0.000,0.000,0.000,0.000,0.000
1644342111895540992,2022-02-08-17:41:51,10.1.1.3,28,0.020,0.020,0.020,0.000,0.000,0.000
1644342111995638016,2022-02-08-17:41:51,10.1.1.3,28,0.030,0.030,0.030,0.000,0.000,0.000
1644342112095642112,2022-02-08-17:41:52,10.1.1.3,26,0.040,0.040,0.040,0.000,0.000,0.000
1644342112195346176,2022-02-08-17:41:52,10.1.1.3,24,0.050,0.050,0.050,0.000,0.000,0.000
1644342112296058880,2022-02-08-17:41:52,10.1.1.3,23,0.060,0.060,0.060,0.000,0.000,0.000
1644342112396069888,2022-02-08-17:41:52,10.1.1.3,21,0.070,0.070,0.070,0.000,0.000,0.000
1644342112495791872,2022-02-08-17:41:52,10.1.1.3,20,0.080,0.080,0.080,0.000,0.000,0.000
1644342112615556864,2022-02-08-17:41:52,10.1.1.3,39,0.090,0.090,0.090,0.000,0.000,0.000
1644342112716250880,2022-02-08-17:41:52,10.1.1.3,37,0.100,0.100,0.100,0.000,0.000,0.000
1644342112816256000,2022-02-08-17:41:52,10.1.1.3,36,0.090,0.090,0.090,0.000,0.000,0.000
1644342112915771904,2022-02-08-17:41:52,10.1.1.3,35,0.080,0.080,0.080,0.000,0.000,0.000
1644342113016009216,2022-02-08-17:41:53,10.1.1.3,35,0.070,0.070,0.070,0.000,0.000,0.000
1644342113118604032,2022-02-08-17:41:53,10.1.1.3,37,0.060,0.060,0.060,0.000,0.000,0.000
1644342113215614208,2022-02-08-17:41:53,10.1.1.3,32,0.050,0.050,0.050,0.000,0.000,0.000
1644342113315716864,2022-02-08-17:41:53,10.1.1.3,31,0.040,0.040,0.040,0.000,0.000,0.000
1644342113416513792,2022-02-08-17:41:53,10.1.1.3,27,0.030,0.030,0.030,0.000,0.000,0.000
1644342113515521024,2022-02-08-17:41:53,10.1.1.3,26,0.020,0.020,0.020,0.000,0.000,0.000
1644342113615659008,2022-02-08-17:41:53,10.1.1.3,22,0.010,0.010,0.010,0.000,0.000,0.000
1644342113715816960,2022-02-08-17:41:53,10.1.1.3,21,0.000,0.000,0.000,0.000,0.000,0.000
1644342113835793920,2022-02-08-17:41:53,10.1.1.3,39,-0.010,-0.010,-0.010,0.000,0.000,0.000
1644342113935390976,2022-02-08-17:41:53,10.1.1.3,36,-0.020,-0.020,-0.020,0.000,0.000,0.000
1644342114038185984,2022-02-08-17:41:54,10.1.1.3,34,-0.030,-0.030,-0.030,0.000,0.000,0.000
1644342114136677120,2022-02-08-17:41:54,10.1.1.3,29,-0.040,-0.040,-0.040,0.000,0.000,0.000
1644342114235572224,2022-02-08-17:41:54,10.1.1.3,27,-0.050,-0.050,-0.050,0.000,0.000,0.000
1644342114335309056,2022-02-08-17:41:54,10.1.1.3,25,-0.060,-0.060,-0.060,0.000,0.000,0.000
1644342114436299008,2022-02-08-17:41:54,10.1.1.3,21,-0.070,-0.070,-0.070,0.000,0.000,0.000
1644342114535653120,2022-02-08-17:41:54,10.1.1.3,20,-0.080,-0.080,-0.080,0.000,0.000,0.000
1644342114635572992,2022-02-08-17:41:54,10.1.1.3,20,-0.090,-0.090,-0.090,0.000,0.000,0.000
1644342114757664000,2022-02-08-17:41:54,10.1.1.3,40,-0.100,-0.100,-0.100,0.000,0.000,0.000
1644342114855602944,2022-02-08-17:41:54,10.1.1.3,38,-0.090,-0.090,-0.090,0.000,0.000,0.000
1644342114956079872,2022-02-08-17:41:54,10.1.1.3,37,-0.080,-0.080,-0.080,0.000,0.000,0.000
1644342115055038976,2022-02-08-17:41:55,10.1.1.3,36,-0.070,-0.070,-0.070,0.000,0.000,0.000
1644342115255534848,2022-02-08-17:41:55,10.1.1.3,32,-0.050,-0.050,-0.050,0.000,0.000,0.000
1644342115355586048,2022-02-08-17:41:55,10.1.1.3,31,-0.040,-0.040,-0.040,0.000,0.000,0.000
1644342115456523776,2022-02-08-17:41:55,10.1.1.3,28,-0.030,-0.030,-0.030,0.000,0.000,0.000
1644342115555522048,2022-02-08-17:41:55,10.1.1.3,27,-0.020,-0.020,-0.020,0.000,0.000,0.000
1644342115655309056,2022-02-08-17:41:55,10.1.1.3,27,-0.010,-0.010,-0.010,0.000,0.000,0.000
1644342115755283968,2022-02-08-17:41:55,10.1.1.3,26,0.000,0.000,0.000,0.000,0.000,0.000
1644342115855251968,2022-02-08-17:41:55,10.1.1.3,21,0.010,0.010,0.010,0.000,0.000,0.000
1644342115956548096,2022-02-08-17:41:55,10.1.1.3,20,0.020,0.020,0.020,0.000,0.000,0.000
1644342116076001792,2022-02-08-17:41:56,10.1.1.3,37,0.030,0.030,0.030,0.000,0.000,0.000
1644342116175388928,2022-02-08-17:41:56,10.1.1.3,36,0.040,0.040,0.040,0.000,0.000,0.000
1644342116276495872,2022-02-08-17:41:56,10.1.1.3,35,0.050,0.050,0.050,0.000,0.000,0.000
1644342116375659008,2022-02-08-17:41:56,10.1.1.3,33,0.060,0.060,0.060,0.000,0.000,0.000
1644342116475604992,2022-02-08-17:41:56,10.1.1.3,29,0.070,0.070,0.070,0.000,0.000,0.000
1644342116575116032,2022-02-08-17:41:56,10.1.1.3,28,0.080,0.080,0.080,0.000,0.000,0.000
1644342116675492096,2022-02-08-17:41:56,10.1.1.3,25,0.090,0.090,0.090,0.000,0.000,0.000
1644342116776770048,2022-02-08-17:41:56,10.1.1.3,23,0.100,0.100,0.100,0.000,0.000,0.000
1644342116875363072,2022-02-08-17:41:56,10.1.1.3,22,0.090,0.090,0.090,0.000,0.000,0.000
1644342116975881216,2022-02-08-17:41:56,10.1.1.3,21,0.080,0.080,0.080,0.000,0.000,0.000
1644342117196134144,2022-02-08-17:41:57,10.1.1.3,39,0.060,0.060,0.060,0.000,0.000,0.000
1644342117295633920,2022-02-08-17:41:57,10.1.1.3,38,0.050,0.050,0.050,0.000,0.000,0.000
1644342117396064000,2022-02-08-17:41:57,10.1.1.3,37,0.040,0.040,0.040,0.000,0.000,0.000
1644342117495631872,2022-02-08-17:41:57,10.1.1.3,35,0.030,0.030,0.030,0.000,0.000,0.000
1644342117595578880,2022-02-08-17:41:57,10.1.1.3,31,0.020,0.020,0.020,0.000,0.000,0.000
1644342117695631104,2022-02-08-17:41:57,10.1.1.3,34,0.010,0.010,0.010,0.000,0.000,0.000
1644342117795514112,2022-02-08-17:41:57,10.1.1.3,33,0.000,0.000,0.000,0.000,0.000,0.000
1644342117896037120,2022-02-08-17:41:57,10.1.1.3,33,-0.010,-0.010,-0.010,0.000,0.000,0.000
1644342117995798016,2022-02-08-17:41:57,10.1.1.3,32,-0.020,-0.020,-0.020,0.000,0.000,0.000
1644342118095712000,2022-02-08-17:41:58,10.1.1.3,30,-0.030,-0.030,-0.030,0.000,0.000,0.000
1644342118196089856,2022-02-08-17:41:58,10.1.1.3,29,-0.040,-0.040,-0.040,0.000,0.000,0.000
1644342118296086016,2022-02-08-17:41:58,10.1.1.3,24,-0.050,-0.050,-0.050,0.000,0.000,0.000
1644342118395844096,2022-02-08-17:41:58,10.1.1.3,23,-0.060,-0.060,-0.060,0.000,0.000,0.000
1644342118496002816,2022-02-08-17:41:58,10.1.1.3,21,-0.070,-0.070,-0.070,0.000,0.000,0.000
1644342118615091968,2022-02-08-17:41:58,10.1.1.3,39,-0.080,-0.080,-0.080,0.000,0.000,0.000
1644342118715795968,2022-02-08-17:41:58,10.1.1.3,38,-0.090,-0.090,-0.090,0.000,0.000,0.000
1644342118815401984,2022-02-08-17:41:58,10.1.1.3,37,-0.100,-0.100,-0.100,0.000,0.000,0.000
1644342118915816960,2022-02-08-17:41:58,10.1.1.3,36,-0.090,-0.090,-0.090,0.000,0.000,0.000
1644342119016032000,2022-02-08-17:41:59,10.1.1.3,34,-0.080,-0.080,-0.080,0.000,0.000,0.000
1644342119115809024,2022-02-08-17:41:59,10.1.1.3,34,-0.070,-0.070,-0.070,0.000,0.000,0.000
1644342119215169024,2022-02-08-17:41:59,10.1.1.3,32,-0.060,-0.060,-0.060,0.000,0.000,0.000
1644342119415527936,2022-02-08-17:41:59,10.1.1.3,30,-0.040,-0.040,-0.040,0.000,0.000,0.000
1644342119515651072,2022-02-08-17:41:59,10.1.1.3,29,-0.030,-0.030,-0.030,0.000,0.000,0.000
1644342119615473152,2022-02-08-17:41:59,10.1.1.3,25,-0.020,-0.020,-0.020,0.000,0.000,0.000
1644342119715582976,2022-02-08-17:41:59,10.1.1.3,24,-0.010,-0.010,-0.010,0.000,0.000,0.000
1644342119816188928,2022-02-08-17:41:59,10.1.1.3,23,0.000,0.000,0.000,0.000,0.000,0.000
1644342119915751936,2022-02-08-17:41:59,10.1.1.3,22,0.010,0.010,0.010,0.000,0.000,0.000
1644342120016302080,2022-02-08-17:42:00,10.1.1.3,22,0.020,0.020,0.020,0.000,0.000,0.000
1644342120115736064,2022-02-08-17:42:00,10.1.1.3,21,0.030,0.030,0.030,0.000,0.000,0.000
1644342120334903040,2022-02-08-17:42:00,10.1.1.3,39,0.050,0.050,0.050,0.000,0.000,0.000
1644342120435844864,2022-02-08-17:42:00,10.1.1.3,38,0.060,0.060,0.060,0.000,0.000,0.000
1644342120535718912,2022-02-08-17:42:00,10.1.1.3,37,0.070,0.070,0.070,0.000,0.000,0.000
1644342120636049920,2022-02-08-17:42:00,10.1.1.3,35,0.080,0.080,0.080,0.000,0.000,0.000
1644342120735848960,2022-02-08-17:42:00,10.1.1.3,34,0.090,0.090,0.090,0.000,0.000,0.000
1644342120835968000,2022-02-08-17:42:00,10.1.1.3,33,0.100,0.100,0.100,0.000,0.000,0.000
1644342120936274176,2022-02-08-17:42:00,10.1.1.3,32,0.090,0.090,0.090,0.000,0.000,0.000
1644342121035985920,2022-02-08-17:42:01,10.1.1.3,31,0.080,0.080,0.080,0.000,0.000,0.000
1644342121335428864,2022-02-08-17:42:01,10.1.1.3,28,0.050,0.050,0.050,0.000,0.000,0.000
1644342121436194048,2022-02-08-17:42:01,10.1.1.3,26,0.040,0.040,0.040,0.000,0.000,0.000
1644342121536550144,2022-02-08-17:42:01,10.1.1.3,26,0.030,0.030,0.030,0.000,0.000,0.000
1644342121635577856,2022-02-08-17:42:01,10.1.1.3,23,0.020,0.020,0.020,0.000,0.000,0.000
1644342121736005120,2022-02-08-17:42:01,10.1.1.3,22,0.010,0.010,0.010,0.000,0.000,0.000
1644342121835648000,2022-02-08-17:42:01,10.1.1.3,21,0.000,0.000,0.000,0.000,0.000,0.000
1644342121936225024,2022-02-08-17:42:01,10.1.1.3,20,-0.010,-0.010,-0.010,0.000,0.000,0.000
1644342122055737088,2022-02-08-17:42:02,10.1.1.3,39,-0.020,-0.020,-0.020,0.000,0.000,0.000
1644342122155726848,2022-02-08-17:42:02,10.1.1.3,39,-0.030,-0.030,-0.030,0.000,0.000,0.000
1644342122254962944,2022-02-08-17:42:02,10.1.1.3,38,-0.040,-0.040,-0.040,0.000,0.000,0.000
1644342122355506944,2022-02-08-17:42:02,10.1.1.3,37,-0.050,-0.050,-0.050,0.000,0.000,0.000
1644342122455986944,2022-02-08-17:42:02,10.1.1.3,32,-0.060,-0.060,-0.060,0.000,0.000,0.000
1644342122555984128,2022-02-08-17:42:02,10.1.1.3,31,-0.070,-0.070,-0.070,0.000,0.000,0.000
1644342122756116992,2022-02-08-17:42:02,10.1.1.3,29,-0.090,-0.090,-0.090,0.000,0.000,0.000
1644342122855544064,2022-02-08-17:42:02,10.1.1.3,28,-0.100,-0.100,-0.100,0.000,0.000,0.000
1644342122955919104,2022-02-08-17:42:02,10.1.1.3,27,-0.090,-0.090,-0.090,0.000,0.000,0.000
1644342123056302080,2022-02-08-17:42:03,10.1.1.3,26,-0.080,-0.080,-0.080,0.000,0.000,0.000
1644342123155599104,2022-02-08-17:42:03,10.1.1.3,25,-0.070,-0.070,-0.070,0.000,0.000,0.000
1644342123256834048,2022-02-08-17:42:03,10.1.1.3,25,-0.060,-0.060,-0.060,0.000,0.000,0.000
1644342123355729152,2022-02-08-17:42:03,10.1.1.3,22,-0.050,-0.050,-0.050,0.000,0.000,0.000
1644342123456534016,2022-02-08-17:42:03,10.1.1.3,22,-0.040,-0.040,-0.040,0.000,0.000,0.000
1644342123555478016,2022-02-08-17:42:03,10.1.1.3,21,-0.030,-0.030,-0.030,0.000,0.000,0.000
1644342123675201792,2022-02-08-17:42:03,10.1.1.3,39,-0.020,-0.020,-0.020,0.000,0.000,0.000
1644342123775415040,2022-02-08-17:42:03,10.1.1.3,38,-0.010,-0.010,-0.010,0.000,0.000,0.000
1644342123875716096,2022-02-08-17:42:03,10.1.1.3,36,0.000,0.000,0.000,0.000,0.000,0.000
1644342123975806976,2022-02-08-17:42:03,10.1.1.3,35,0.010,0.010,0.010,0.000,0.000,0.000
1644342124077917952,2022-02-08-17:42:04,10.1.1.3,36,0.020,0.020,0.020,0.000,0.000,0.000
1644342124175890944,2022-02-08-17:42:04,10.1.1.3,33,0.030,0.030,0.030,0.000,0.000,0.000
1644342124275703040,2022-02-08-17:42:04,10.1.1.3,32,0.040,0.040,0.040,0.000,0.000,0.000
1644342124375636992,2022-02-08-17:42:04,10.1.1.3,31,0.050,0.050,0.050,0.000,0.000,0.000
1644342124476293120,2022-02-08-17:42:04,10.1.1.3,27,0.060,0.060,0.060,0.000,0.000,0.000
1644342124576142080,2022-02-08-17:42:04,10.1.1.3,25,0.070,0.070,0.070,0.000,0.000,0.000
1644342124675404032,2022-02-08-17:42:04,10.1.1.3,21,0.080,0.080,0.080,0.000,0.000,0.000
1644342124775259904,2022-02-08-17:42:04,10.1.1.3,20,0.090,0.090,0.090,0.000,0.000,0.000
1644342124896180992,2022-02-08-17:42:04,10.1.1.3,38,0.100,0.100,0.100,0.000,0.000,0.000
1644342124996303104,2022-02-08-17:42:04,10.1.1.3,37,0.090,0.090,0.090,0.000,0.000,0.000
1644342125095812096,2022-02-08-17:42:05,10.1.1.3,33,0.080,0.080,0.080,0.000,0.000,0.000
1644342125195723008,2022-02-08-17:42:05,10.1.1.3,32,0.070,0.070,0.070,0.000,0.000,0.000
1644342125296451072,2022-02-08-17:42:05,10.1.1.3,29,0.060,0.060,0.060,0.000,0.000,0.000
1644342125395365120,2022-02-08-17:42:05,10.1.1.3,28,0.050,0.050,0.050,0.000,0.000,0.000
1644342125495333888,2022-02-08-17:42:05,10.1.1.3,27,0.040,0.040,0.040,0.000,0.000,0.000
1644342125595906048,2022-02-08-17:42:05,10.1.1.3,26,0.030,0.030,0.030,0.000,0.000,0.000
1644342125695436032,2022-02-08-17:42:05,10.1.1.3,24,0.020,0.020,0.020,0.000,0.000,0.000
1644342125795703040,2022-02-08-17:42:05,10.1.1.3,22,0.010,0.010,0.010,0.000,0.000,0.000
1644342125903120896,2022-02-08-17:42:05,10.1.1.3,28,-0.000,-0.000,-0.000,0.000,0.000,0.000
1644342125995881984,2022-02-08-17:42:05,10.1.1.3,19,-0.010,-0.010,-0.010,0.000,0.000,0.000
1644342126115592960,2022-02-08-17:42:06,10.1.1.3,38,-0.020,-0.020,-0.020,0.000,0.000,0.000
1644342126215732224,2022-02-08-17:42:06,10.1.1.3,37,-0.030,-0.030,-0.030,0.000,0.000,0.000
1644342126315489024,2022-02-08-17:42:06,10.1.1.3,35,-0.040,-0.040,-0.040,0.000,0.000,0.000
1644342126416441088,2022-02-08-17:42:06,10.1.1.3,34,-0.050,-0.050,-0.050,0.000,0.000,0.000
1644342126515127040,2022-02-08-17:42:06,10.1.1.3,33,-0.060,-0.060,-0.060,0.000,0.000,0.000
1644342126615899136,2022-02-08-17:42:06,10.1.1.3,32,-0.070,-0.070,-0.070,0.000,0.000,0.000
1644342126715934976,2022-02-08-17:42:06,10.1.1.3,31,-0.080,-0.080,-0.080,0.000,0.000,0.000
1644342126815318016,2022-02-08-17:42:06,10.1.1.3,30,-0.090,-0.090,-0.090,0.000,0.000,0.000
1644342126915738112,2022-02-08-17:42:06,10.1.1.3,29,-0.100,-0.100,-0.100,0.000,0.000,0.000
1644342127015353088,2022-02-08-17:42:07,10.1.1.3,27,-0.090,-0.090,-0.090,0.000,0.000,0.000
1644342127115289088,2022-02-08-17:42:07,10.1.1.3,26,-0.080,-0.080,-0.080,0.000,0.000,0.000
1644342127215313920,2022-02-08-17:42:07,10.1.1.3,25,-0.070,-0.070,-0.070,0.000,0.000,0.000
1644342127315821056,2022-02-08-17:42:07,10.1.1.3,22,-0.060,-0.060,-0.060,0.000,0.000,0.000
1644342127415899904,2022-02-08-17:42:07,10.1.1.3,21,-0.050,-0.050,-0.050,0.000,0.000,0.000
1644342127636208128,2022-02-08-17:42:07,10.1.1.3,38,-0.030,-0.030,-0.030,0.000,0.000,0.000
1644342127735322112,2022-02-08-17:42:07,10.1.1.3,33,-0.020,-0.020,-0.020,0.000,0.000,0.000
1644342127835963136,2022-02-08-17:42:07,10.1.1.3,33,-0.010,-0.010,-0.010,0.000,0.000,0.000
1644342127936291840,2022-02-08-17:42:07,10.1.1.3,29,0.000,0.000,0.000,0.000,0.000,0.000
1644342128036911104,2022-02-08-17:42:08,10.1.1.3,26,0.010,0.010,0.010,0.000,0.000,0.000
1644342128135936000,2022-02-08-17:42:08,10.1.1.3,26,0.020,0.020,0.020,0.000,0.000,0.000
1644342128235901184,2022-02-08-17:42:08,10.1.1.3,25,0.030,0.030,0.030,0.000,0.000,0.000
1644342128335917056,2022-02-08-17:42:08,10.1.1.3,23,0.040,0.040,0.040,0.000,0.000,0.000
1644342128435235072,2022-02-08-17:42:08,10.1.1.3,21,0.050,0.050,0.050,0.000,0.000,0.000
1644342128556519936,2022-02-08-17:42:08,10.1.1.3,38,0.060,0.060,0.060,0.000,0.000,0.000
1644342128655245056,2022-02-08-17:42:08,10.1.1.3,36,0.070,0.070,0.070,0.000,0.000,0.000
1644342128763216896,2022-02-08-17:42:08,10.1.1.3,40,0.080,0.080,0.080,0.000,0.000,0.000
1644342128855873024,2022-02-08-17:42:08,10.1.1.3,34,0.090,0.090,0.090,0.000,0.000,0.000
1644342128955662080,2022-02-08-17:42:08,10.1.1.3,33,0.100,0.100,0.100,0.000,0.000,0.000
1644342129056941056,2022-02-08-17:42:09,10.1.1.3,31,0.090,0.090,0.090,0.000,0.000,0.000
1644342129155736832,2022-02-08-17:42:09,10.1.1.3,29,0.080,0.080,0.080,0.000,0.000,0.000
1644342129255599104,2022-02-08-17:42:09,10.1.1.3,28,0.070,0.070,0.070,0.000,0.000,0.000
1644342129356193024,2022-02-08-17:42:09,10.1.1.3,27,0.060,0.060,0.060,0.000,0.000,0.000
1644342129456582144,2022-02-08-17:42:09,10.1.1.3,25,0.050,0.050,0.050,0.000,0.000,0.000
1644342129556000000,2022-02-08-17:42:09,10.1.1.3,25,0.040,0.040,0.040,0.000,0.000,0.000
1644342129655535872,2022-02-08-17:42:09,10.1.1.3,23,0.030,0.030,0.030,0.000,0.000,0.000
1644342129755394816,2022-02-08-17:42:09,10.1.1.3,22,0.020,0.020,0.020,0.000,0.000,0.000
1644342129856594176,2022-02-08-17:42:09,10.1.1.3,21,0.010,0.010,0.010,0.000,0.000,0.000
1644342129955284992,2022-02-08-17:42:09,10.1.1.3,20,0.000,0.000,0.000,0.000,0.000,0.000
1644342130076407808,2022-02-08-17:42:10,10.1.1.3,39,-0.010,-0.010,-0.010,0.000,0.000,0.000
1644342130175523072,2022-02-08-17:42:10,10.1.1.3,38,-0.020,-0.020,-0.020,0.000,0.000,0.000
1644342130281008896,2022-02-08-17:42:10,10.1.1.3,42,-0.030,-0.030,-0.030,0.000,0.000,0.000
1644342130376115968,2022-02-08-17:42:10,10.1.1.3,35,-0.040,-0.040,-0.040,0.000,0.000,0.000
1644342130475200000,2022-02-08-17:42:10,10.1.1.3,35,-0.050,-0.050,-0.050,0.000,0.000,0.000
1644342130575536896,2022-02-08-17:42:10,10.1.1.3,34,-0.060,-0.060,-0.060,0.000,0.000,0.000
1644342130675323136,2022-02-08-17:42:10,10.1.1.3,33,-0.070,-0.070,-0.070,0.000,0.000,0.000
1644342130775672064,2022-02-08-17:42:10,10.1.1.3,32,-0.080,-0.080,-0.080,0.000,0.000,0.000
1644342130875585024,2022-02-08-17:42:10,10.1.1.3,31,-0.090,-0.090,-0.090,0.000,0.000,0.000
1644342130975350016,2022-02-08-17:42:10,10.1.1.3,30,-0.100,-0.100,-0.100,0.000,0.000,0.000
1644342131075182848,2022-02-08-17:42:11,10.1.1.3,29,-0.090,-0.090,-0.090,0.000,0.000,0.000
1644342131175529984,2022-02-08-17:42:11,10.1.1.3,28,-0.080,-0.080,-0.080,0.000,0.000,0.000
1644342131276004096,2022-02-08-17:42:11,10.1.1.3,27,-0.070,-0.070,-0.070,0.000,0.000,0.000
1644342131375330816,2022-02-08-17:42:11,10.1.1.3,26,-0.060,-0.060,-0.060,0.000,0.000,0.000
1644342131475505152,2022-02-08-17:42:11,10.1.1.3,26,-0.050,-0.050,-0.050,0.000,0.000,0.000
1644342131575820800,2022-02-08-17:42:11,10.1.1.3,25,-0.040,-0.040,-0.040,0.000,0.000,0.000
1644342131675636992,2022-02-08-17:42:11,10.1.1.3,23,-0.030,-0.030,-0.030,0.000,0.000,0.000
1644342131775710976,2022-02-08-17:42:11,10.1.1.3,23,-0.020,-0.020,-0.020,0.000,0.000,0.000
1644342131875612928,2022-02-08-17:42:11,10.1.1.3,21,-0.010,-0.010,-0.010,0.000,0.000,0.000
1644342131975788032,2022-02-08-17:42:11,10.1.1.3,20,0.000,0.000,0.000,0.000,0.000,0.000
1644342132095917824,2022-02-08-17:42:12,10.1.1.3,38,0.010,0.010,0.010,0.000,0.000,0.000
1644342132195763968,2022-02-08-17:42:12,10.1.1.3,37,0.020,0.020,0.020,0.000,0.000,0.000
1644342132299240960,2022-02-08-17:42:12,10.1.1.3,40,0.030,0.030,0.030,0.000,0.000,0.000
1644342132395941120,2022-02-08-17:42:12,10.1.1.3,34,0.040,0.040,0.040,0.000,0.000,0.000
1644342132495795968,2022-02-08-17:42:12,10.1.1.3,34,0.050,0.050,0.050,0.000,0.000,0.000
1644342132599814912,2022-02-08-17:42:12,10.1.1.3,37,0.060,0.060,0.060,0.000,0.000,0.000
1644342132696103936,2022-02-08-17:42:12,10.1.1.3,31,0.070,0.070,0.070,0.000,0.000,0.000
1644342132795581184,2022-02-08-17:42:12,10.1.1.3,30,0.080,0.080,0.080,0.000,0.000,0.000
1644342132895233024,2022-02-08-17:42:12,10.1.1.3,29,0.090,0.090,0.090,0.000,0.000,0.000
1644342132995877888,2022-02-08-17:42:12,10.1.1.3,28,0.100,0.100,0.100,0.000,0.000,0.000
1644342133095627008,2022-02-08-17:42:13,10.1.1.3,27,0.090,0.090,0.090,0.000,0.000,0.000
1644342133194683904,2022-02-08-17:42:13,10.1.1.3,25,0.080,0.080,0.080,0.000,0.000,0.000
1644342133295557120,2022-02-08-17:42:13,10.1.1.3,24,0.070,0.070,0.070,0.000,0.000,0.000
1644342133397581056,2022-02-08-17:42:13,10.1.1.3,23,0.060,0.060,0.060,0.000,0.000,0.000
1644342133495448064,2022-02-08-17:42:13,10.1.1.3,21,0.050,0.050,0.050,0.000,0.000,0.000
1644342133595889920,2022-02-08-17:42:13,10.1.1.3,20,0.040,0.040,0.040,0.000,0.000,0.000
1644342133715820032,2022-02-08-17:42:13,10.1.1.3,39,0.030,0.030,0.030,0.000,0.000,0.000
1644342133815709184,2022-02-08-17:42:13,10.1.1.3,38,0.020,0.020,0.020,0.000,0.000,0.000
1644342133915137024,2022-02-08-17:42:13,10.1.1.3,37,0.010,0.010,0.010,0.000,0.000,0.000
1644342134017908224,2022-02-08-17:42:14,10.1.1.3,35,0.000,0.000,0.000,0.000,0.000,0.000
1644342134116372992,2022-02-08-17:42:14,10.1.1.3,34,-0.010,-0.010,-0.010,0.000,0.000,0.000
1644342134215266816,2022-02-08-17:42:14,10.1.1.3,33,-0.020,-0.020,-0.020,0.000,0.000,0.000
1644342134315681024,2022-02-08-17:42:14,10.1.1.3,31,-0.030,-0.030,-0.030,0.000,0.000,0.000
1644342134415451136,2022-02-08-17:42:14,10.1.1.3,30,-0.040,-0.040,-0.040,0.000,0.000,0.000
1644342134515985920,2022-02-08-17:42:14,10.1.1.3,25,-0.050,-0.050,-0.050,0.000,0.000,0.000
1644342134615888128,2022-02-08-17:42:14,10.1.1.3,22,-0.060,-0.060,-0.060,0.000,0.000,0.000
1644342134715426816,2022-02-08-17:42:14,10.1.1.3,21,-0.070,-0.070,-0.070,0.000,0.000,0.000
1644342134815130880,2022-02-08-17:42:14,10.1.1.3,20,-0.080,-0.080,-0.080,0.000,0.000,0.000
1644342134915862016,2022-02-08-17:42:14,10.1.1.3,20,-0.090,-0.090,-0.090,0.000,0.000,0.000
1644342135035815936,2022-02-08-17:42:15,10.1.1.3,37,-0.100,-0.100,-0.100,0.000,0.000,0.000
1644342135136606976,2022-02-08-17:42:15,10.1.1.3,35,-0.090,-0.090,-0.090,0.000,0.000,0.000
1644342135236212992,2022-02-08-17:42:15,10.1.1.3,34,-0.080,-0.080,-0.080,0.000,0.000,0.000
1644342135335392000,2022-02-08-17:42:15,10.1.1.3,33,-0.070,-0.070,-0.070,0.000,0.000,0.000
1644342135436194048,2022-02-08-17:42:15,10.1.1.3,32,-0.060,-0.060,-0.060,0.000,0.000,0.000
1644342135535603968,2022-02-08-17:42:15,10.1.1.3,31,-0.050,-0.050,-0.050,0.000,0.000,0.000
1644342135636311040,2022-02-08-17:42:15,10.1.1.3,30,-0.040,-0.040,-0.040,0.000,0.000,0.000
1644342135735964928,2022-02-08-17:42:15,10.1.1.3,29,-0.030,-0.030,-0.030,0.000,0.000,0.000
1644342135835463168,2022-02-08-17:42:15,10.1.1.3,28,-0.020,-0.020,-0.020,0.000,0.000,0.000
1644342135936094976,2022-02-08-17:42:15,10.1.1.3,26,-0.010,-0.010,-0.010,0.000,0.000,0.000
1644342136035228928,2022-02-08-17:42:16,10.1.1.3,26,0.000,0.000,0.000,0.000,0.000,0.000
1644342136135993088,2022-02-08-17:42:16,10.1.1.3,21,0.010,0.010,0.010,0.000,0.000,0.000
1644342136355269888,2022-02-08-17:42:16,10.1.1.3,38,0.030,0.030,0.030,0.000,0.000,0.000
1644342136456774912,2022-02-08-17:42:16,10.1.1.3,37,0.040,0.040,0.040,0.000,0.000,0.000
1644342136554646016,2022-02-08-17:42:16,10.1.1.3,36,0.050,0.050,0.050,0.000,0.000,0.000
1644342136657083904,2022-02-08-17:42:16,10.1.1.3,37,0.060,0.060,0.060,0.000,0.000,0.000
1644342136755213056,2022-02-08-17:42:16,10.1.1.3,34,0.070,0.070,0.070,0.000,0.000,0.000
1644342136855289856,2022-02-08-17:42:16,10.1.1.3,34,0.080,0.080,0.080,0.000,0.000,0.000
1644342136955118848,2022-02-08-17:42:16,10.1.1.3,33,0.090,0.090,0.090,0.000,0.000,0.000
1644342137054958080,2022-02-08-17:42:17,10.1.1.3,32,0.100,0.100,0.100,0.000,0.000,0.000
1644342137156236800,2022-02-08-17:42:17,10.1.1.3,31,0.090,0.090,0.090,0.000,0.000,0.000
1644342137255599104,2022-02-08-17:42:17,10.1.1.3,30,0.080,0.080,0.080,0.000,0.000,0.000
1644342137355855104,2022-02-08-17:42:17,10.1.1.3,29,0.070,0.070,0.070,0.000,0.000,0.000
1644342137455748096,2022-02-08-17:42:17,10.1.1.3,28,0.060,0.060,0.060,0.000,0.000,0.000
1644342137555486976,2022-02-08-17:42:17,10.1.1.3,27,0.050,0.050,0.050,0.000,0.000,0.000
1644342137655463936,2022-02-08-17:42:17,10.1.1.3,27,0.040,0.040,0.040,0.000,0.000,0.000
1644342137755944960,2022-02-08-17:42:17,10.1.1.3,26,0.030,0.030,0.030,0.000,0.000,0.000
1644342137856162048,2022-02-08-17:42:17,10.1.1.3,25,0.020,0.020,0.020,0.000,0.000,0.000
1644342137955923968,2022-02-08-17:42:17,10.1.1.3,23,0.010,0.010,0.010,0.000,0.000,0.000
1644342138055514112,2022-02-08-17:42:18,10.1.1.3,22,0.000,0.000,0.000,0.000,0.000,0.000
1644342138155965952,2022-02-08-17:42:18,10.1.1.3,21,-0.010,-0.010,-0.010,0.000,0.000,0.000
1644342138276484864,2022-02-08-17:42:18,10.1.1.3,36,-0.020,-0.020,-0.020,0.000,0.000,0.000
1644342138375523072,2022-02-08-17:42:18,10.1.1.3,35,-0.030,-0.030,-0.030,0.000,0.000,0.000
1644342138475763968,2022-02-08-17:42:18,10.1.1.3,33,-0.040,-0.040,-0.040,0.000,0.000,0.000
1644342138575890176,2022-02-08-17:42:18,10.1.1.3,31,-0.050,-0.050,-0.050,0.000,0.000,0.000
1644342138675142144,2022-02-08-17:42:18,10.1.1.3,30,-0.060,-0.060,-0.060,0.000,0.000,0.000
1644342138875518208,2022-02-08-17:42:18,10.1.1.3,28,-0.080,-0.080,-0.080,0.000,0.000,0.000
1644342138975770112,2022-02-08-17:42:18,10.1.1.3,28,-0.090,-0.090,-0.090,0.000,0.000,0.000
1644342139076355840,2022-02-08-17:42:19,10.1.1.3,26,-0.100,-0.100,-0.100,0.000,0.000,0.000
1644342139177388032,2022-02-08-17:42:19,10.1.1.3,27,-0.090,-0.090,-0.090,0.000,0.000,0.000
1644342139275804928,2022-02-08-17:42:19,10.1.1.3,22,-0.080,-0.080,-0.080,0.000,0.000,0.000
1644342139376040960,2022-02-08-17:42:19,10.1.1.3,22,-0.070,-0.070,-0.070,0.000,0.000,0.000
1644342139475570944,2022-02-08-17:42:19,10.1.1.3,21,-0.060,-0.060,-0.060,0.000,0.000,0.000
1644342139675446016,2022-02-08-17:42:19,10.1.1.3,19,-0.040,-0.040,-0.040,0.000,0.000,0.000
1644342139795640832,2022-02-08-17:42:19,10.1.1.3,38,-0.030,-0.030,-0.030,0.000,0.000,0.000
1644342139895934208,2022-02-08-17:42:19,10.1.1.3,36,-0.020,-0.020,-0.020,0.000,0.000,0.000
1644342139996728064,2022-02-08-17:42:19,10.1.1.3,35,-0.010,-0.010,-0.010,0.000,0.000,0.000
1644342140095366912,2022-02-08-17:42:20,10.1.1.3,34,0.000,0.000,0.000,0.000,0.000,0.000
1644342140196329216,2022-02-08-17:42:20,10.1.1.3,33,0.010,0.010,0.010,0.000,0.000,0.000
1644342140296328192,2022-02-08-17:42:20,10.1.1.3,33,0.020,0.020,0.020,0.000,0.000,0.000
1644342140498541056,2022-02-08-17:42:20,10.1.1.3,31,0.040,0.040,0.040,0.000,0.000,0.000
1644342140595494912,2022-02-08-17:42:20,10.1.1.3,30,0.050,0.050,0.050,0.000,0.000,0.000
1644342140695784960,2022-02-08-17:42:20,10.1.1.3,29,0.060,0.060,0.060,0.000,0.000,0.000
1644342140796226048,2022-02-08-17:42:20,10.1.1.3,28,0.070,0.070,0.070,0.000,0.000,0.000
1644342140895442944,2022-02-08-17:42:20,10.1.1.3,28,0.080,0.080,0.080,0.000,0.000,0.000
1644342140995718912,2022-02-08-17:42:20,10.1.1.3,27,0.090,0.090,0.090,0.000,0.000,0.000
1644342141095798016,2022-02-08-17:42:21,10.1.1.3,26,0.100,0.100,0.100,0.000,0.000,0.000
1644342141195732992,2022-02-08-17:42:21,10.1.1.3,25,0.090,0.090,0.090,0.000,0.000,0.000
1644342141295299072,2022-02-08-17:42:21,10.1.1.3,23,0.080,0.080,0.080,0.000,0.000,0.000
1644342141395037952,2022-02-08-17:42:21,10.1.1.3,22,0.070,0.070,0.070,0.000,0.000,0.000
1644342141496112128,2022-02-08-17:42:21,10.1.1.3,21,0.060,0.060,0.060,0.000,0.000,0.000
1644342141595480832,2022-02-08-17:42:21,10.1.1.3,20,0.050,0.050,0.050,0.000,0.000,0.000
1644342141815890176,2022-02-08-17:42:21,10.1.1.3,30,0.030,0.030,0.030,0.000,0.000,0.000
1644342141934779904,2022-02-08-17:42:21,10.1.1.3,48,0.020,0.020,0.020,0.000,0.000,0.000
1644342142014875904,2022-02-08-17:42:22,10.1.1.3,27,0.010,0.010,0.010,0.000,0.000,0.000
1644342142122469888,2022-02-08-17:42:22,10.1.1.3,32,0.000,0.000,0.000,0.000,0.000,0.000
1644342142241027072,2022-02-08-17:42:22,10.1.1.3,45,-0.010,-0.010,-0.010,0.000,0.000,0.000
1644342142314861056,2022-02-08-17:42:22,10.1.1.3,22,-0.020,-0.020,-0.020,0.000,0.000,0.000
1644342142439450112,2022-02-08-17:42:22,10.1.1.3,45,-0.030,-0.030,-0.030,0.000,0.000,0.000
1644342142534918144,2022-02-08-17:42:22,10.1.1.3,37,-0.040,-0.040,-0.040,0.000,0.000,0.000
1644342142636957952,2022-02-08-17:42:22,10.1.1.3,38,-0.050,-0.050,-0.050,0.000,0.000,0.000
1644342142737128960,2022-02-08-17:42:22,10.1.1.3,36,-0.060,-0.060,-0.060,0.000,0.000,0.000
1644342142835244032,2022-02-08-17:42:22,10.1.1.3,35,-0.070,-0.070,-0.070,0.000,0.000,0.000
1644342142935031808,2022-02-08-17:42:22,10.1.1.3,33,-0.080,-0.080,-0.080,0.000,0.000,0.000
1644342143034782976,2022-02-08-17:42:23,10.1.1.3,30,-0.090,-0.090,-0.090,0.000,0.000,0.000
1644342143215565824,2022-02-08-17:42:23,10.1.1.3,8,-0.090,-0.090,-0.090,0.000,0.000,0.000
1644342143334916096,2022-02-08-17:42:23,10.1.1.3,27,-0.080,-0.080,-0.080,0.000,0.000,0.000
1644342143434845952,2022-02-08-17:42:23,10.1.1.3,26,-0.070,-0.070,-0.070,0.000,0.000,0.000
1644342143537748992,2022-02-08-17:42:23,10.1.1.3,29,-0.060,-0.060,-0.060,0.000,0.000,0.000
1644342143635087104,2022-02-08-17:42:23,10.1.1.3,24,-0.050,-0.050,-0.050,0.000,0.000,0.000
1644342143736174080,2022-02-08-17:42:23,10.1.1.3,25,-0.040,-0.040,-0.040,0.000,0.000,0.000
1644342143837019904,2022-02-08-17:42:23,10.1.1.3,25,-0.030,-0.030,-0.030,0.000,0.000,0.000
1644342143934781952,2022-02-08-17:42:23,10.1.1.3,22,-0.020,-0.020,-0.020,0.000,0.000,0.000
1644342144036461056,2022-02-08-17:42:24,10.1.1.3,21,-0.010,-0.010,-0.010,0.000,0.000,0.000
1644342144136288000,2022-02-08-17:42:24,10.1.1.3,22,0.000,0.000,0.000,0.000,0.000,0.000
1644342144258790144,2022-02-08-17:42:24,10.1.1.3,42,0.010,0.010,0.010,0.000,0.000,0.000
1644342144355796992,2022-02-08-17:42:24,10.1.1.3,38,0.020,0.020,0.020,0.000,0.000,0.000
1644342144455532032,2022-02-08-17:42:24,10.1.1.3,37,0.030,0.030,0.030,0.000,0.000,0.000
1644342144555655936,2022-02-08-17:42:24,10.1.1.3,35,0.040,0.040,0.040,0.000,0.000,0.000
1644342144655424000,2022-02-08-17:42:24,10.1.1.3,34,0.050,0.050,0.050,0.000,0.000,0.000
1644342144755832832,2022-02-08-17:42:24,10.1.1.3,33,0.060,0.060,0.060,0.000,0.000,0.000
1644342144855547904,2022-02-08-17:42:24,10.1.1.3,31,0.070,0.070,0.070,0.000,0.000,0.000
1644342145054703872,2022-02-08-17:42:25,10.1.1.3,28,0.090,0.090,0.090,0.000,0.000,0.000
1644342145155787008,2022-02-08-17:42:25,10.1.1.3,27,0.100,0.100,0.100,0.000,0.000,0.000
1644342145254810112,2022-02-08-17:42:25,10.1.1.3,27,0.090,0.090,0.090,0.000,0.000,0.000
1644342145354631936,2022-02-08-17:42:25,10.1.1.3,25,0.080,0.080,0.080,0.000,0.000,0.000
1644342145454575104,2022-02-08-17:42:25,10.1.1.3,24,0.070,0.070,0.070,0.000,0.000,0.000
1644342145554913024,2022-02-08-17:42:25,10.1.1.3,23,0.060,0.060,0.060,0.000,0.000,0.000
1644342145655107072,2022-02-08-17:42:25,10.1.1.3,23,0.050,0.050,0.050,0.000,0.000,0.000
1644342145755075072,2022-02-08-17:42:25,10.1.1.3,22,0.040,0.040,0.040,0.000,0.000,0.000
1644342145855457024,2022-02-08-17:42:25,10.1.1.3,22,0.030,0.030,0.030,0.000,0.000,0.000
1644342145955969024,2022-02-08-17:42:25,10.1.1.3,21,0.020,0.020,0.020,0.000,0.000,0.000
1644342146055887872,2022-02-08-17:42:26,10.1.1.3,21,0.010,0.010,0.010,0.000,0.000,0.000
1644342146175169024,2022-02-08-17:42:26,10.1.1.3,39,0.000,0.000,0.000,0.000,0.000,0.000
1644342146275341056,2022-02-08-17:42:26,10.1.1.3,39,-0.010,-0.010,-0.010,0.000,0.000,0.000
1644342146375632896,2022-02-08-17:42:26,10.1.1.3,38,-0.020,-0.020,-0.020,0.000,0.000,0.000
1644342146475766784,2022-02-08-17:42:26,10.1.1.3,37,-0.030,-0.030,-0.030,0.000,0.000,0.000
1644342146676244992,2022-02-08-17:42:26,10.1.1.3,34,-0.050,-0.050,-0.050,0.000,0.000,0.000
1644342146775714048,2022-02-08-17:42:26,10.1.1.3,33,-0.060,-0.060,-0.060,0.000,0.000,0.000
1644342146875892992,2022-02-08-17:42:26,10.1.1.3,32,-0.070,-0.070,-0.070,0.000,0.000,0.000
1644342146975700992,2022-02-08-17:42:26,10.1.1.3,31,-0.080,-0.080,-0.080,0.000,0.000,0.000
1644342147085662976,2022-02-08-17:42:27,10.1.1.3,40,-0.090,-0.090,-0.090,0.000,0.000,0.000
1644342147178867968,2022-02-08-17:42:27,10.1.1.3,33,-0.100,-0.100,-0.100,0.000,0.000,0.000
1644342147375233024,2022-02-08-17:42:27,10.1.1.3,28,-0.080,-0.080,-0.080,0.000,0.000,0.000
1644342147476485120,2022-02-08-17:42:27,10.1.1.3,26,-0.070,-0.070,-0.070,0.000,0.000,0.000
1644342147576292864,2022-02-08-17:42:27,10.1.1.3,25,-0.060,-0.060,-0.060,0.000,0.000,0.000
1644342147679981056,2022-02-08-17:42:27,10.1.1.3,24,-0.050,-0.050,-0.050,0.000,0.000,0.000
1644342147775268096,2022-02-08-17:42:27,10.1.1.3,22,-0.040,-0.040,-0.040,0.000,0.000,0.000
1644342147875328000,2022-02-08-17:42:27,10.1.1.3,21,-0.030,-0.030,-0.030,0.000,0.000,0.000
1644342147977540096,2022-02-08-17:42:27,10.1.1.3,21,-0.020,-0.020,-0.020,0.000,0.000,0.000
1644342148095952896,2022-02-08-17:42:28,10.1.1.3,39,-0.010,-0.010,-0.010,0.000,0.000,0.000
1644342148195027968,2022-02-08-17:42:28,10.1.1.3,38,0.000,0.000,0.000,0.000,0.000,0.000
1644342148296343040,2022-02-08-17:42:28,10.1.1.3,37,0.010,0.010,0.010,0.000,0.000,0.000
1644342148356295168,2022-02-08-17:42:28,10.1.1.3,-4,0.010,0.010,0.010,0.000,0.000,0.000
1644342148495470080,2022-02-08-17:42:28,10.1.1.3,34,0.030,0.030,0.030,0.000,0.000,0.000
1644342148595585024,2022-02-08-17:42:28,10.1.1.3,33,0.040,0.040,0.040,0.000,0.000,0.000
1644342148695552000,2022-02-08-17:42:28,10.1.1.3,29,0.050,0.050,0.050,0.000,0.000,0.000
1644342148796536064,2022-02-08-17:42:28,10.1.1.3,29,0.060,0.060,0.060,0.000,0.000,0.000
1644342148896230912,2022-02-08-17:42:28,10.1.1.3,26,0.070,0.070,0.070,0.000,0.000,0.000
1644342148995439104,2022-02-08-17:42:28,10.1.1.3,24,0.080,0.080,0.080,0.000,0.000,0.000
1644342149095880960,2022-02-08-17:42:29,10.1.1.3,23,0.090,0.090,0.090,0.000,0.000,0.000
1644342149196978944,2022-02-08-17:42:29,10.1.1.3,22,0.100,0.100,0.100,0.000,0.000,0.000
1644342149295419904,2022-02-08-17:42:29,10.1.1.3,21,0.090,0.090,0.090,0.000,0.000,0.000
1644342149395890944,2022-02-08-17:42:29,10.1.1.3,20,0.080,0.080,0.080,0.000,0.000,0.000
1644342149517690880,2022-02-08-17:42:29,10.1.1.3,39,0.070,0.070,0.070,0.000,0.000,0.000
1644342149615225088,2022-02-08-17:42:29,10.1.1.3,38,0.060,0.060,0.060,0.000,0.000,0.000
1644342149715523840,2022-02-08-17:42:29,10.1.1.3,37,0.050,0.050,0.050,0.000,0.000,0.000
1644342149815321856,2022-02-08-17:42:29,10.1.1.3,34,0.040,0.040,0.040,0.000,0.000,0.000
1644342149915272960,2022-02-08-17:42:29,10.1.1.3,33,0.030,0.030,0.030,0.000,0.000,0.000
1644342150015642880,2022-02-08-17:42:30,10.1.1.3,32,0.020,0.020,0.020,0.000,0.000,0.000
1644342150115134976,2022-02-08-17:42:30,10.1.1.3,31,0.010,0.010,0.010,0.000,0.000,0.000
1644342150215377152,2022-02-08-17:42:30,10.1.1.3,30,0.000,0.000,0.000,0.000,0.000,0.000
1644342150315661056,2022-02-08-17:42:30,10.1.1.3,29,-0.010,-0.010,-0.010,0.000,0.000,0.000
1644342150415163136,2022-02-08-17:42:30,10.1.1.3,28,-0.020,-0.020,-0.020,0.000,0.000,0.000
1644342150515568896,2022-02-08-17:42:30,10.1.1.3,26,-0.030,-0.030,-0.030,0.000,0.000,0.000
1644342150615803904,2022-02-08-17:42:30,10.1.1.3,25,-0.040,-0.040,-0.040,0.000,0.000,0.000
1644342150715261952,2022-02-08-17:42:30,10.1.1.3,23,-0.050,-0.050,-0.050,0.000,0.000,0.000
1644342150816984832,2022-02-08-17:42:30,10.1.1.3,22,-0.060,-0.060,-0.060,0.000,0.000,0.000
1644342150916492032,2022-02-08-17:42:30,10.1.1.3,21,-0.070,-0.070,-0.070,0.000,0.000,0.000
1644342151015484928,2022-02-08-17:42:31,10.1.1.3,19,-0.080,-0.080,-0.080,0.000,0.000,0.000
1644342151135926016,2022-02-08-17:42:31,10.1.1.3,38,-0.090,-0.090,-0.090,0.000,0.000,0.000
1644342151236096000,2022-02-08-17:42:31,10.1.1.3,37,-0.100,-0.100,-0.100,0.000,0.000,0.000
1644342151335963136,2022-02-08-17:42:31,10.1.1.3,36,-0.090,-0.090,-0.090,0.000,0.000,0.000
1644342151436674048,2022-02-08-17:42:31,10.1.1.3,35,-0.080,-0.080,-0.080,0.000,0.000,0.000
1644342151535597056,2022-02-08-17:42:31,10.1.1.3,34,-0.070,-0.070,-0.070,0.000,0.000,0.000
1644342151636431872,2022-02-08-17:42:31,10.1.1.3,35,-0.060,-0.060,-0.060,0.000,0.000,0.000
1644342151735718912,2022-02-08-17:42:31,10.1.1.3,32,-0.050,-0.050,-0.050,0.000,0.000,0.000
1644342151835113984,2022-02-08-17:42:31,10.1.1.3,31,-0.040,-0.040,-0.040,0.000,0.000,0.000
1644342151935249920,2022-02-08-17:42:31,10.1.1.3,28,-0.030,-0.030,-0.030,0.000,0.000,0.000
1644342152035741952,2022-02-08-17:42:32,10.1.1.3,27,-0.020,-0.020,-0.020,0.000,0.000,0.000
1644342152139642112,2022-02-08-17:42:32,10.1.1.3,29,-0.010,-0.010,-0.010,0.000,0.000,0.000
1644342152238465024,2022-02-08-17:42:32,10.1.1.3,23,0.000,0.000,0.000,0.000,0.000,0.000
1644342152341527040,2022-02-08-17:42:32,10.1.1.3,26,0.010,0.010,0.010,0.000,0.000,0.000
1644342152455931904,2022-02-08-17:42:32,10.1.1.3,39,0.020,0.020,0.020,0.000,0.000,0.000
1644342152555299072,2022-02-08-17:42:32,10.1.1.3,38,0.030,0.030,0.030,0.000,0.000,0.000
1644342152657143040,2022-02-08-17:42:32,10.1.1.3,37,0.040,0.040,0.040,0.000,0.000,0.000
1644342152755749888,2022-02-08-17:42:32,10.1.1.3,32,0.050,0.050,0.050,0.000,0.000,0.000
1644342152855542016,2022-02-08-17:42:32,10.1.1.3,31,0.060,0.060,0.060,0.000,0.000,0.000
1644342152955562240,2022-02-08-17:42:32,10.1.1.3,28,0.070,0.070,0.070,0.000,0.000,0.000
1644342153055548928,2022-02-08-17:42:33,10.1.1.3,27,0.080,0.080,0.080,0.000,0.000,0.000
1644342153156256000,2022-02-08-17:42:33,10.1.1.3,26,0.090,0.090,0.090,0.000,0.000,0.000
1644342153255001088,2022-02-08-17:42:33,10.1.1.3,25,0.100,0.100,0.100,0.000,0.000,0.000
1644342153355860992,2022-02-08-17:42:33,10.1.1.3,24,0.090,0.090,0.090,0.000,0.000,0.000
1644342153455316992,2022-02-08-17:42:33,10.1.1.3,21,0.080,0.080,0.080,0.000,0.000,0.000
1644342153555891968,2022-02-08-17:42:33,10.1.1.3,20,0.070,0.070,0.070,0.000,0.000,0.000
1644342153777142016,2022-02-08-17:42:33,10.1.1.3,38,0.050,0.050,0.050,0.000,0.000,0.000
1644342153875835904,2022-02-08-17:42:33,10.1.1.3,37,0.040,0.040,0.040,0.000,0.000,0.000
1644342153975371008,2022-02-08-17:42:33,10.1.1.3,35,0.030,0.030,0.030,0.000,0.000,0.000
1644342154077626112,2022-02-08-17:42:34,10.1.1.3,34,0.020,0.020,0.020,0.000,0.000,0.000
1644342154175904000,2022-02-08-17:42:34,10.1.1.3,33,0.010,0.010,0.010,0.000,0.000,0.000
1644342154275814144,2022-02-08-17:42:34,10.1.1.3,32,0.000,0.000,0.000,0.000,0.000,0.000
1644342154376323072,2022-02-08-17:42:34,10.1.1.3,31,-0.010,-0.010,-0.010,0.000,0.000,0.000
1644342154575560960,2022-02-08-17:42:34,10.1.1.3,26,-0.030,-0.030,-0.030,0.000,0.000,0.000
1644342154675538944,2022-02-08-17:42:34,10.1.1.3,24,-0.040,-0.040,-0.040,0.000,0.000,0.000
1644342154775448064,2022-02-08-17:42:34,10.1.1.3,22,-0.050,-0.050,-0.050,0.000,0.000,0.000
1644342154875772928,2022-02-08-17:42:34,10.1.1.3,22,-0.060,-0.060,-0.060,0.000,0.000,0.000
1644342154976123136,2022-02-08-17:42:34,10.1.1.3,21,-0.070,-0.070,-0.070,0.000,0.000,0.000
1644342155195642112,2022-02-08-17:42:35,10.1.1.3,37,-0.090,-0.090,-0.090,0.000,0.000,0.000
1644342155295427072,2022-02-08-17:42:35,10.1.1.3,34,-0.100,-0.100,-0.100,0.000,0.000,0.000
1644342155395736064,2022-02-08-17:42:35,10.1.1.3,33,-0.090,-0.090,-0.090,0.000,0.000,0.000
1644342155495353856,2022-02-08-17:42:35,10.1.1.3,31,-0.080,-0.080,-0.080,0.000,0.000,0.000
1644342155596229120,2022-02-08-17:42:35,10.1.1.3,29,-0.070,-0.070,-0.070,0.000,0.000,0.000
1644342155698106112,2022-02-08-17:42:35,10.1.1.3,30,-0.060,-0.060,-0.060,0.000,0.000,0.000
1644342155795236096,2022-02-08-17:42:35,10.1.1.3,26,-0.050,-0.050,-0.050,0.000,0.000,0.000
1644342155895507200,2022-02-08-17:42:35,10.1.1.3,23,-0.040,-0.040,-0.040,0.000,0.000,0.000
1644342155995632896,2022-02-08-17:42:35,10.1.1.3,22,-0.030,-0.030,-0.030,0.000,0.000,0.000
1644342156095265024,2022-02-08-17:42:36,10.1.1.3,21,-0.020,-0.020,-0.020,0.000,0.000,0.000
1644342156195599104,2022-02-08-17:42:36,10.1.1.3,21,-0.010,-0.010,-0.010,0.000,0.000,0.000
1644342156296037888,2022-02-08-17:42:36,10.1.1.3,19,0.000,0.000,0.000,0.000,0.000,0.000
1644342156415802112,2022-02-08-17:42:36,10.1.1.3,38,0.010,0.010,0.010,0.000,0.000,0.000
1644342156516431104,2022-02-08-17:42:36,10.1.1.3,37,0.020,0.020,0.020,0.000,0.000,0.000
1644342156615919104,2022-02-08-17:42:36,10.1.1.3,36,0.030,0.030,0.030,0.000,0.000,0.000
1644342156715836160,2022-02-08-17:42:36,10.1.1.3,35,0.040,0.040,0.040,0.000,0.000,0.000
1644342156815314176,2022-02-08-17:42:36,10.1.1.3,34,0.050,0.050,0.050,0.000,0.000,0.000
1644342156915642112,2022-02-08-17:42:36,10.1.1.3,33,0.060,0.060,0.060,0.000,0.000,0.000
1644342157017890816,2022-02-08-17:42:37,10.1.1.3,34,0.070,0.070,0.070,0.000,0.000,0.000
1644342157115072000,2022-02-08-17:42:37,10.1.1.3,31,0.080,0.080,0.080,0.000,0.000,0.000
1644342157215360000,2022-02-08-17:42:37,10.1.1.3,30,0.090,0.090,0.090,0.000,0.000,0.000
1644342157315412992,2022-02-08-17:42:37,10.1.1.3,29,0.100,0.100,0.100,0.000,0.000,0.000
1644342157415677184,2022-02-08-17:42:37,10.1.1.3,28,0.090,0.090,0.090,0.000,0.000,0.000
1644342157516038912,2022-02-08-17:42:37,10.1.1.3,27,0.080,0.080,0.080,0.000,0.000,0.000
1644342157615710976,2022-02-08-17:42:37,10.1.1.3,23,0.070,0.070,0.070,0.000,0.000,0.000
1644342157716061952,2022-02-08-17:42:37,10.1.1.3,22,0.060,0.060,0.060,0.000,0.000,0.000
1644342157815977216,2022-02-08-17:42:37,10.1.1.3,22,0.050,0.050,0.050,0.000,0.000,0.000
1644342157915569920,2022-02-08-17:42:37,10.1.1.3,21,0.040,0.040,0.040,0.000,0.000,0.000
1644342158035752960,2022-02-08-17:42:38,10.1.1.3,39,0.030,0.030,0.030,0.000,0.000,0.000
1644342158135324928,2022-02-08-17:42:38,10.1.1.3,39,0.020,0.020,0.020,0.000,0.000,0.000
1644342158235270144,2022-02-08-17:42:38,10.1.1.3,38,0.010,0.010,0.010,0.000,0.000,0.000
1644342158336364032,2022-02-08-17:42:38,10.1.1.3,37,0.000,0.000,0.000,0.000,0.000,0.000
1644342158436983040,2022-02-08-17:42:38,10.1.1.3,34,-0.010,-0.010,-0.010,0.000,0.000,0.000
1644342158535608064,2022-02-08-17:42:38,10.1.1.3,33,-0.020,-0.020,-0.020,0.000,0.000,0.000
1644342158635430144,2022-02-08-17:42:38,10.1.1.3,32,-0.030,-0.030,-0.030,0.000,0.000,0.000
1644342158735173888,2022-02-08-17:42:38,10.1.1.3,31,-0.040,-0.040,-0.040,0.000,0.000,0.000
1644342158835444992,2022-02-08-17:42:38,10.1.1.3,28,-0.050,-0.050,-0.050,0.000,0.000,0.000
1644342159035369984,2022-02-08-17:42:39,10.1.1.3,20,-0.070,-0.070,-0.070,0.000,0.000,0.000
1644342159155335936,2022-02-08-17:42:39,10.1.1.3,39,-0.080,-0.080,-0.080,0.000,0.000,0.000
1644342159255919872,2022-02-08-17:42:39,10.1.1.3,38,-0.090,-0.090,-0.090,0.000,0.000,0.000
1644342159355529984,2022-02-08-17:42:39,10.1.1.3,38,-0.100,-0.100,-0.100,0.000,0.000,0.000
1644342159455200000,2022-02-08-17:42:39,10.1.1.3,35,-0.090,-0.090,-0.090,0.000,0.000,0.000
1644342159555740160,2022-02-08-17:42:39,10.1.1.3,34,-0.080,-0.080,-0.080,0.000,0.000,0.000
1644342159655896064,2022-02-08-17:42:39,10.1.1.3,33,-0.070,-0.070,-0.070,0.000,0.000,0.000
1644342159755578112,2022-02-08-17:42:39,10.1.1.3,32,-0.060,-0.060,-0.060,0.000,0.000,0.000
1644342159855699968,2022-02-08-17:42:39,10.1.1.3,31,-0.050,-0.050,-0.050,0.000,0.000,0.000
1644342159955124992,2022-02-08-17:42:39,10.1.1.3,30,-0.040,-0.040,-0.040,0.000,0.000,0.000
1644342160056818944,2022-02-08-17:42:40,10.1.1.3,30,-0.030,-0.030,-0.030,0.000,0.000,0.000
1644342160155505920,2022-02-08-17:42:40,10.1.1.3,29,-0.020,-0.020,-0.020,0.000,0.000,0.000
1644342160255728896,2022-02-08-17:42:40,10.1.1.3,27,-0.010,-0.010,-0.010,0.000,0.000,0.000
1644342160355223040,2022-02-08-17:42:40,10.1.1.3,26,0.000,0.000,0.000,0.000,0.000,0.000
1644342160455324928,2022-02-08-17:42:40,10.1.1.3,24,0.010,0.010,0.010,0.000,0.000,0.000
1644342160558042112,2022-02-08-17:42:40,10.1.1.3,25,0.020,0.020,0.020,0.000,0.000,0.000
1644342160655950080,2022-02-08-17:42:40,10.1.1.3,22,0.030,0.030,0.030,0.000,0.000,0.000
1644342160756695040,2022-02-08-17:42:40,10.1.1.3,21,0.040,0.040,0.040,0.000,0.000,0.000
1644342160858978048,2022-02-08-17:42:40,10.1.1.3,23,0.050,0.050,0.050,0.000,0.000,0.000
1644342160960377856,2022-02-08-17:42:40,10.1.1.3,24,0.060,0.060,0.060,0.000,0.000,0.000
1644342161075710976,2022-02-08-17:42:41,10.1.1.3,39,0.070,0.070,0.070,0.000,0.000,0.000
1644342161175597056,2022-02-08-17:42:41,10.1.1.3,38,0.080,0.080,0.080,0.000,0.000,0.000
1644342161276369152,2022-02-08-17:42:41,10.1.1.3,37,0.090,0.090,0.090,0.000,0.000,0.000
1644342161375662080,2022-02-08-17:42:41,10.1.1.3,35,0.100,0.100,0.100,0.000,0.000,0.000
1644342161475673088,2022-02-08-17:42:41,10.1.1.3,35,0.090,0.090,0.090,0.000,0.000,0.000
1644342161576536064,2022-02-08-17:42:41,10.1.1.3,34,0.080,0.080,0.080,0.000,0.000,0.000
1644342161675587840,2022-02-08-17:42:41,10.1.1.3,33,0.070,0.070,0.070,0.000,0.000,0.000
1644342161776196864,2022-02-08-17:42:41,10.1.1.3,29,0.060,0.060,0.060,0.000,0.000,0.000
1644342161875271936,2022-02-08-17:42:41,10.1.1.3,28,0.050,0.050,0.050,0.000,0.000,0.000
1644342162077049856,2022-02-08-17:42:42,10.1.1.3,29,0.030,0.030,0.030,0.000,0.000,0.000
1644342162175578112,2022-02-08-17:42:42,10.1.1.3,26,0.020,0.020,0.020,0.000,0.000,0.000
1644342162275644928,2022-02-08-17:42:42,10.1.1.3,23,0.010,0.010,0.010,0.000,0.000,0.000
1644342162375124992,2022-02-08-17:42:42,10.1.1.3,22,0.000,0.000,0.000,0.000,0.000,0.000
1644342162475187968,2022-02-08-17:42:42,10.1.1.3,21,-0.010,-0.010,-0.010,0.000,0.000,0.000
1644342162575237120,2022-02-08-17:42:42,10.1.1.3,21,-0.020,-0.020,-0.020,0.000,0.000,0.000
1644342162695641088,2022-02-08-17:42:42,10.1.1.3,38,-0.030,-0.030,-0.030,0.000,0.000,0.000
1644342162795828992,2022-02-08-17:42:42,10.1.1.3,36,-0.040,-0.040,-0.040,0.000,0.000,0.000
1644342162901182976,2022-02-08-17:42:42,10.1.1.3,38,-0.050,-0.050,-0.050,0.000,0.000,0.000
1644342162995147008,2022-02-08-17:42:42,10.1.1.3,34,-0.060,-0.060,-0.060,0.000,0.000,0.000
1644342163096012032,2022-02-08-17:42:43,10.1.1.3,33,-0.070,-0.070,-0.070,0.000,0.000,0.000
1644342163195159040,2022-02-08-17:42:43,10.1.1.3,32,-0.080,-0.080,-0.080,0.000,0.000,0.000
1644342163295087104,2022-02-08-17:42:43,10.1.1.3,32,-0.090,-0.090,-0.090,0.000,0.000,0.000
1644342163395421952,2022-02-08-17:42:43,10.1.1.3,23,-0.100,-0.100,-0.100,0.000,0.000,0.000
1644342163495374080,2022-02-08-17:42:43,10.1.1.3,22,-0.090,-0.090,-0.090,0.000,0.000,0.000
1644342163595928832,2022-02-08-17:42:43,10.1.1.3,21,-0.080,-0.080,-0.080,0.000,0.000,0.000
1644342163695910912,2022-02-08-17:42:43,10.1.1.3,20,-0.070,-0.070,-0.070,0.000,0.000,0.000
1644342163815608064,2022-02-08-17:42:43,10.1.1.3,39,-0.060,-0.060,-0.060,0.000,0.000,0.000
1644342163916090880,2022-02-08-17:42:43,10.1.1.3,38,-0.050,-0.050,-0.050,0.000,0.000,0.000
1644342164015811072,2022-02-08-17:42:44,10.1.1.3,35,-0.040,-0.040,-0.040,0.000,0.000,0.000
1644342164216537856,2022-02-08-17:42:44,10.1.1.3,33,-0.020,-0.020,-0.020,0.000,0.000,0.000
1644342164315749888,2022-02-08-17:42:44,10.1.1.3,32,-0.010,-0.010,-0.010,0.000,0.000,0.000
1644342164415340800,2022-02-08-17:42:44,10.1.1.3,29,0.000,0.000,0.000,0.000,0.000,0.000
1644342164518189056,2022-02-08-17:42:44,10.1.1.3,28,0.010,0.010,0.010,0.000,0.000,0.000
1644342164615963904,2022-02-08-17:42:44,10.1.1.3,27,0.020,0.020,0.020,0.000,0.000,0.000
1644342164715503872,2022-02-08-17:42:44,10.1.1.3,24,0.030,0.030,0.030,0.000,0.000,0.000
1644342164815124992,2022-02-08-17:42:44,10.1.1.3,22,0.040,0.040,0.040,0.000,0.000,0.000
1644342164915538944,2022-02-08-17:42:44,10.1.1.3,20,0.050,0.050,0.050,0.000,0.000,0.000
1644342165036269824,2022-02-08-17:42:45,10.1.1.3,37,0.060,0.060,0.060,0.000,0.000,0.000
1644342165138664960,2022-02-08-17:42:45,10.1.1.3,39,0.070,0.070,0.070,0.000,0.000,0.000
1644342165235478016,2022-02-08-17:42:45,10.1.1.3,35,0.080,0.080,0.080,0.000,0.000,0.000
1644342165335661056,2022-02-08-17:42:45,10.1.1.3,34,0.090,0.090,0.090,0.000,0.000,0.000
1644342165435750912,2022-02-08-17:42:45,10.1.1.3,31,0.100,0.100,0.100,0.000,0.000,0.000
1644342165536137984,2022-02-08-17:42:45,10.1.1.3,30,0.090,0.090,0.090,0.000,0.000,0.000
1644342165636247040,2022-02-08-17:42:45,10.1.1.3,28,0.080,0.080,0.080,0.000,0.000,0.000
1644342165735331072,2022-02-08-17:42:45,10.1.1.3,27,0.070,0.070,0.070,0.000,0.000,0.000
1644342165835721984,2022-02-08-17:42:45,10.1.1.3,26,0.060,0.060,0.060,0.000,0.000,0.000
1644342165935342080,2022-02-08-17:42:45,10.1.1.3,25,0.050,0.050,0.050,0.000,0.000,0.000
1644342166035588864,2022-02-08-17:42:46,10.1.1.3,22,0.040,0.040,0.040,0.000,0.000,0.000
1644342166136879872,2022-02-08-17:42:46,10.1.1.3,22,0.030,0.030,0.030,0.000,0.000,0.000
1644342166235496960,2022-02-08-17:42:46,10.1.1.3,21,0.020,0.020,0.020,0.000,0.000,0.000
1644342166335313152,2022-02-08-17:42:46,10.1.1.3,20,0.010,0.010,0.010,0.000,0.000,0.000
1644342166456209920,2022-02-08-17:42:46,10.1.1.3,39,0.000,0.000,0.000,0.000,0.000,0.000
1644342166555456000,2022-02-08-17:42:46,10.1.1.3,37,-0.010,-0.010,-0.010,0.000,0.000,0.000
1644342166655216896,2022-02-08-17:42:46,10.1.1.3,36,-0.020,-0.020,-0.020,0.000,0.000,0.000
1644342166755908864,2022-02-08-17:42:46,10.1.1.3,35,-0.030,-0.030,-0.030,0.000,0.000,0.000
1644342166855441152,2022-02-08-17:42:46,10.1.1.3,34,-0.040,-0.040,-0.040,0.000,0.000,0.000
1644342166956034816,2022-02-08-17:42:46,10.1.1.3,33,-0.050,-0.050,-0.050,0.000,0.000,0.000
1644342167056395008,2022-02-08-17:42:47,10.1.1.3,30,-0.060,-0.060,-0.060,0.000,0.000,0.000
1644342167155352064,2022-02-08-17:42:47,10.1.1.3,27,-0.070,-0.070,-0.070,0.000,0.000,0.000
1644342167255676928,2022-02-08-17:42:47,10.1.1.3,26,-0.080,-0.080,-0.080,0.000,0.000,0.000
1644342167355355904,2022-02-08-17:42:47,10.1.1.3,25,-0.090,-0.090,-0.090,0.000,0.000,0.000
1644342167455864832,2022-02-08-17:42:47,10.1.1.3,24,-0.100,-0.100,-0.100,0.000,0.000,0.000
1644342167555937024,2022-02-08-17:42:47,10.1.1.3,22,-0.090,-0.090,-0.090,0.000,0.000,0.000
1644342167655045120,2022-02-08-17:42:47,10.1.1.3,21,-0.080,-0.080,-0.080,0.000,0.000,0.000
1644342167775090944,2022-02-08-17:42:47,10.1.1.3,39,-0.070,-0.070,-0.070,0.000,0.000,0.000
1644342167855011840,2022-02-08-17:42:47,10.1.1.3,18,-0.060,-0.060,-0.060,0.000,0.000,0.000
1644342168074444032,2022-02-08-17:42:48,10.1.1.3,35,-0.040,-0.040,-0.040,0.000,0.000,0.000
1644342168176968192,2022-02-08-17:42:48,10.1.1.3,35,-0.030,-0.030,-0.030,0.000,0.000,0.000
1644342168275535104,2022-02-08-17:42:48,10.1.1.3,34,-0.020,-0.020,-0.020,0.000,0.000,0.000
1644342168376111104,2022-02-08-17:42:48,10.1.1.3,29,-0.010,-0.010,-0.010,0.000,0.000,0.000
1644342168475776000,2022-02-08-17:42:48,10.1.1.3,28,0.000,0.000,0.000,0.000,0.000,0.000
1644342168576049152,2022-02-08-17:42:48,10.1.1.3,27,0.010,0.010,0.010,0.000,0.000,0.000
1644342168775517952,2022-02-08-17:42:48,10.1.1.3,23,0.030,0.030,0.030,0.000,0.000,0.000
1644342168995459072,2022-02-08-17:42:48,10.1.1.3,38,0.050,0.050,0.050,0.000,0.000,0.000
1644342169095393024,2022-02-08-17:42:49,10.1.1.3,37,0.060,0.060,0.060,0.000,0.000,0.000
1644342169195108864,2022-02-08-17:42:49,10.1.1.3,35,0.070,0.070,0.070,0.000,0.000,0.000
1644342169295887104,2022-02-08-17:42:49,10.1.1.3,35,0.080,0.080,0.080,0.000,0.000,0.000
1644342169395563008,2022-02-08-17:42:49,10.1.1.3,34,0.090,0.090,0.090,0.000,0.000,0.000
1644342169495641088,2022-02-08-17:42:49,10.1.1.3,33,0.100,0.100,0.100,0.000,0.000,0.000
1644342169594630912,2022-02-08-17:42:49,10.1.1.3,28,0.090,0.090,0.090,0.000,0.000,0.000
1644342169695563008,2022-02-08-17:42:49,10.1.1.3,31,0.080,0.080,0.080,0.000,0.000,0.000
1644342169796276992,2022-02-08-17:42:49,10.1.1.3,29,0.070,0.070,0.070,0.000,0.000,0.000
1644342169895632128,2022-02-08-17:42:49,10.1.1.3,28,0.060,0.060,0.060,0.000,0.000,0.000
1644342169995981824,2022-02-08-17:42:49,10.1.1.3,27,0.050,0.050,0.050,0.000,0.000,0.000
1644342170095838976,2022-02-08-17:42:50,10.1.1.3,27,0.040,0.040,0.040,0.000,0.000,0.000
1644342170196402944,2022-02-08-17:42:50,10.1.1.3,25,0.030,0.030,0.030,0.000,0.000,0.000
1644342170295558912,2022-02-08-17:42:50,10.1.1.3,24,0.020,0.020,0.020,0.000,0.000,0.000
1644342170395469056,2022-02-08-17:42:50,10.1.1.3,21,0.010,0.010,0.010,0.000,0.000,0.000
1644342170498085888,2022-02-08-17:42:50,10.1.1.3,21,0.000,0.000,0.000,0.000,0.000,0.000
1644342170615164928,2022-02-08-17:42:50,10.1.1.3,37,-0.010,-0.010,-0.010,0.000,0.000,0.000
1644342170715636992,2022-02-08-17:42:50,10.1.1.3,36,-0.020,-0.020,-0.020,0.000,0.000,0.000
1644342170815124992,2022-02-08-17:42:50,10.1.1.3,35,-0.030,-0.030,-0.030,0.000,0.000,0.000
1644342170915185920,2022-02-08-17:42:50,10.1.1.3,34,-0.040,-0.040,-0.040,0.000,0.000,0.000
1644342171014950144,2022-02-08-17:42:51,10.1.1.3,34,-0.050,-0.050,-0.050,0.000,0.000,0.000
1644342171115174912,2022-02-08-17:42:51,10.1.1.3,32,-0.060,-0.060,-0.060,0.000,0.000,0.000
1644342171214850816,2022-02-08-17:42:51,10.1.1.3,31,-0.070,-0.070,-0.070,0.000,0.000,0.000
1644342171315201024,2022-02-08-17:42:51,10.1.1.3,31,-0.080,-0.080,-0.080,0.000,0.000,0.000
1644342171414985984,2022-02-08-17:42:51,10.1.1.3,30,-0.090,-0.090,-0.090,0.000,0.000,0.000
1644342171515141888,2022-02-08-17:42:51,10.1.1.3,29,-0.100,-0.100,-0.100,0.000,0.000,0.000
1644342171615169024,2022-02-08-17:42:51,10.1.1.3,29,-0.090,-0.090,-0.090,0.000,0.000,0.000
1644342171716211200,2022-02-08-17:42:51,10.1.1.3,28,-0.080,-0.080,-0.080,0.000,0.000,0.000
1644342171815290880,2022-02-08-17:42:51,10.1.1.3,27,-0.070,-0.070,-0.070,0.000,0.000,0.000
1644342171915308032,2022-02-08-17:42:51,10.1.1.3,27,-0.060,-0.060,-0.060,0.000,0.000,0.000
1644342172016498176,2022-02-08-17:42:52,10.1.1.3,26,-0.050,-0.050,-0.050,0.000,0.000,0.000
1644342172115355904,2022-02-08-17:42:52,10.1.1.3,25,-0.040,-0.040,-0.040,0.000,0.000,0.000
1644342172216730112,2022-02-08-17:42:52,10.1.1.3,23,-0.030,-0.030,-0.030,0.000,0.000,0.000
1644342172318459136,2022-02-08-17:42:52,10.1.1.3,24,-0.020,-0.020,-0.020,0.000,0.000,0.000
1644342172415627008,2022-02-08-17:42:52,10.1.1.3,21,-0.010,-0.010,-0.010,0.000,0.000,0.000
1644342172635072000,2022-02-08-17:42:52,10.1.1.3,38,0.010,0.010,0.010,0.000,0.000,0.000
1644342172735186944,2022-02-08-17:42:52,10.1.1.3,38,0.020,0.020,0.020,0.000,0.000,0.000
1644342172835820800,2022-02-08-17:42:52,10.1.1.3,36,0.030,0.030,0.030,0.000,0.000,0.000
1644342172935664896,2022-02-08-17:42:52,10.1.1.3,35,0.040,0.040,0.040,0.000,0.000,0.000
1644342173036258816,2022-02-08-17:42:53,10.1.1.3,35,0.050,0.050,0.050,0.000,0.000,0.000
1644342173136804096,2022-02-08-17:42:53,10.1.1.3,33,0.060,0.060,0.060,0.000,0.000,0.000
1644342173235392000,2022-02-08-17:42:53,10.1.1.3,32,0.070,0.070,0.070,0.000,0.000,0.000
1644342173435936000,2022-02-08-17:42:53,10.1.1.3,29,0.090,0.090,0.090,0.000,0.000,0.000
1644342173536120832,2022-02-08-17:42:53,10.1.1.3,28,0.100,0.100,0.100,0.000,0.000,0.000
1644342173734970112,2022-02-08-17:42:53,10.1.1.3,25,0.080,0.080,0.080,0.000,0.000,0.000
1644342173835311872,2022-02-08-17:42:53,10.1.1.3,24,0.070,0.070,0.070,0.000,0.000,0.000
1644342173935694848,2022-02-08-17:42:53,10.1.1.3,23,0.060,0.060,0.060,0.000,0.000,0.000
1644342174035341056,2022-02-08-17:42:54,10.1.1.3,22,0.050,0.050,0.050,0.000,0.000,0.000
1644342174134702848,2022-02-08-17:42:54,10.1.1.3,21,0.040,0.040,0.040,0.000,0.000,0.000
1644342174237067008,2022-02-08-17:42:54,10.1.1.3,21,0.030,0.030,0.030,0.000,0.000,0.000
1644342174335619072,2022-02-08-17:42:54,10.1.1.3,20,0.020,0.020,0.020,0.000,0.000,0.000
1644342174455485184,2022-02-08-17:42:54,10.1.1.3,39,0.010,0.010,0.010,0.000,0.000,0.000
1644342174555779840,2022-02-08-17:42:54,10.1.1.3,36,0.000,0.000,0.000,0.000,0.000,0.000
1644342174655663872,2022-02-08-17:42:54,10.1.1.3,35,-0.010,-0.010,-0.010,0.000,0.000,0.000
1644342174755289088,2022-02-08-17:42:54,10.1.1.3,32,-0.020,-0.020,-0.020,0.000,0.000,0.000
1644342174855511808,2022-02-08-17:42:54,10.1.1.3,31,-0.030,-0.030,-0.030,0.000,0.000,0.000
1644342174956294144,2022-02-08-17:42:54,10.1.1.3,30,-0.040,-0.040,-0.040,0.000,0.000,0.000
1644342175055955968,2022-02-08-17:42:55,10.1.1.3,29,-0.050,-0.050,-0.050,0.000,0.000,0.000
1644342175155337984,2022-02-08-17:42:55,10.1.1.3,27,-0.060,-0.060,-0.060,0.000,0.000,0.000
1644342175255537920,2022-02-08-17:42:55,10.1.1.3,26,-0.070,-0.070,-0.070,0.000,0.000,0.000
1644342175355244032,2022-02-08-17:42:55,10.1.1.3,24,-0.080,-0.080,-0.080,0.000,0.000,0.000
1644342175456090880,2022-02-08-17:42:55,10.1.1.3,23,-0.090,-0.090,-0.090,0.000,0.000,0.000
1644342175555480832,2022-02-08-17:42:55,10.1.1.3,22,-0.100,-0.100,-0.100,0.000,0.000,0.000
1644342175655201024,2022-02-08-17:42:55,10.1.1.3,21,-0.090,-0.090,-0.090,0.000,0.000,0.000
1644342175755384832,2022-02-08-17:42:55,10.1.1.3,20,-0.080,-0.080,-0.080,0.000,0.000,0.000
1644342175875554048,2022-02-08-17:42:55,10.1.1.3,39,-0.070,-0.070,-0.070,0.000,0.000,0.000
1644342175975259904,2022-02-08-17:42:55,10.1.1.3,38,-0.060,-0.060,-0.060,0.000,0.000,0.000
1644342176075568896,2022-02-08-17:42:56,10.1.1.3,38,-0.050,-0.050,-0.050,0.000,0.000,0.000
1644342176176263936,2022-02-08-17:42:56,10.1.1.3,36,-0.040,-0.040,-0.040,0.000,0.000,0.000
1644342176275484928,2022-02-08-17:42:56,10.1.1.3,33,-0.030,-0.030,-0.030,0.000,0.000,0.000
1644342176376329984,2022-02-08-17:42:56,10.1.1.3,32,-0.020,-0.020,-0.020,0.000,0.000,0.000
1644342176475409152,2022-02-08-17:42:56,10.1.1.3,31,-0.010,-0.010,-0.010,0.000,0.000,0.000
1644342176576220160,2022-02-08-17:42:56,10.1.1.3,30,0.000,0.000,0.000,0.000,0.000,0.000
1644342176675252992,2022-02-08-17:42:56,10.1.1.3,29,0.010,0.010,0.010,0.000,0.000,0.000
1644342176775820032,2022-02-08-17:42:56,10.1.1.3,28,0.020,0.020,0.020,0.000,0.000,0.000
1644342176877160960,2022-02-08-17:42:56,10.1.1.3,27,0.030,0.030,0.030,0.000,0.000,0.000
1644342176975938048,2022-02-08-17:42:56,10.1.1.3,27,0.040,0.040,0.040,0.000,0.000,0.000
1644342177076016896,2022-02-08-17:42:57,10.1.1.3,26,0.050,0.050,0.050,0.000,0.000,0.000
1644342177176815872,2022-02-08-17:42:57,10.1.1.3,25,0.060,0.060,0.060,0.000,0.000,0.000
1644342177275173888,2022-02-08-17:42:57,10.1.1.3,23,0.070,0.070,0.070,0.000,0.000,0.000
1644342177378080000,2022-02-08-17:42:57,10.1.1.3,22,0.080,0.080,0.080,0.000,0.000,0.000
1644342177476972032,2022-02-08-17:42:57,10.1.1.3,22,0.090,0.090,0.090,0.000,0.000,0.000
1644342177575568896,2022-02-08-17:42:57,10.1.1.3,20,0.100,0.100,0.100,0.000,0.000,0.000
1644342177695043072,2022-02-08-17:42:57,10.1.1.3,36,0.090,0.090,0.090,0.000,0.000,0.000
1644342177796020992,2022-02-08-17:42:57,10.1.1.3,35,0.080,0.080,0.080,0.000,0.000,0.000
1644342177896140032,2022-02-08-17:42:57,10.1.1.3,34,0.070,0.070,0.070,0.000,0.000,0.000
1644342177996075008,2022-02-08-17:42:57,10.1.1.3,33,0.060,0.060,0.060,0.000,0.000,0.000
1644342178095268864,2022-02-08-17:42:58,10.1.1.3,29,0.050,0.050,0.050,0.000,0.000,0.000
1644342178195305984,2022-02-08-17:42:58,10.1.1.3,28,0.040,0.040,0.040,0.000,0.000,0.000
1644342178294800896,2022-02-08-17:42:58,10.1.1.3,27,0.030,0.030,0.030,0.000,0.000,0.000
1644342178395095040,2022-02-08-17:42:58,10.1.1.3,26,0.020,0.020,0.020,0.000,0.000,0.000
1644342178495182080,2022-02-08-17:42:58,10.1.1.3,26,0.010,0.010,0.010,0.000,0.000,0.000
1644342178594589952,2022-02-08-17:42:58,10.1.1.3,26,0.000,0.000,0.000,0.000,0.000,0.000
1644342178695086848,2022-02-08-17:42:58,10.1.1.3,25,-0.010,-0.010,-0.010,0.000,0.000,0.000
1644342178795726080,2022-02-08-17:42:58,10.1.1.3,24,-0.020,-0.020,-0.020,0.000,0.000,0.000
1644342178895564032,2022-02-08-17:42:58,10.1.1.3,23,-0.030,-0.030,-0.030,0.000,0.000,0.000
1644342178995107840,2022-02-08-17:42:58,10.1.1.3,22,-0.040,-0.040,-0.040,0.000,0.000,0.000
1644342179095310080,2022-02-08-17:42:59,10.1.1.3,21,-0.050,-0.050,-0.050,0.000,0.000,0.000
1644342179195537920,2022-02-08-17:42:59,10.1.1.3,21,-0.060,-0.060,-0.060,0.000,0.000,0.000
1644342179316297984,2022-02-08-17:42:59,10.1.1.3,37,-0.070,-0.070,-0.070,0.000,0.000,0.000
1644342179415792896,2022-02-08-17:42:59,10.1.1.3,36,-0.080,-0.080,-0.080,0.000,0.000,0.000
1644342179515321856,2022-02-08-17:42:59,10.1.1.3,33,-0.090,-0.090,-0.090,0.000,0.000,0.000
1644342179616919040,2022-02-08-17:42:59,10.1.1.3,31,-0.100,-0.100,-0.100,0.000,0.000,0.000
1644342179716187904,2022-02-08-17:42:59,10.1.1.3,28,-0.090,-0.090,-0.090,0.000,0.000,0.000
1644342179816380928,2022-02-08-17:42:59,10.1.1.3,27,-0.080,-0.080,-0.080,0.000,0.000,0.000
1644342179915563008,2022-02-08-17:42:59,10.1.1.3,27,-0.070,-0.070,-0.070,0.000,0.000,0.000
1644342180016105984,2022-02-08-17:43:00,10.1.1.3,25,-0.060,-0.060,-0.060,0.000,0.000,0.000
1644342180115849984,2022-02-08-17:43:00,10.1.1.3,24,-0.050,-0.050,-0.050,0.000,0.000,0.000
1644342180216192000,2022-02-08-17:43:00,10.1.1.3,22,-0.040,-0.040,-0.040,0.000,0.000,0.000
1644342180316411904,2022-02-08-17:43:00,10.1.1.3,21,-0.030,-0.030,-0.030,0.000,0.000,0.000
1644342180415489024,2022-02-08-17:43:00,10.1.1.3,21,-0.020,-0.020,-0.020,0.000,0.000,0.000
1644342180515321856,2022-02-08-17:43:00,10.1.1.3,20,-0.010,-0.010,-0.010,0.000,0.000,0.000
1644342180635247104,2022-02-08-17:43:00,10.1.1.3,37,0.000,0.000,0.000,0.000,0.000,0.000
1644342180735745792,2022-02-08-17:43:00,10.1.1.3,35,0.010,0.010,0.010,0.000,0.000,0.000
1644342180836493056,2022-02-08-17:43:00,10.1.1.3,33,0.020,0.020,0.020,0.000,0.000,0.000
1644342180935739904,2022-02-08-17:43:00,10.1.1.3,32,0.030,0.030,0.030,0.000,0.000,0.000
1644342181035581184,2022-02-08-17:43:01,10.1.1.3,31,0.040,0.040,0.040,0.000,0.000,0.000
1644342181135601152,2022-02-08-17:43:01,10.1.1.3,31,0.050,0.050,0.050,0.000,0.000,0.000
1644342181235794176,2022-02-08-17:43:01,10.1.1.3,30,0.060,0.060,0.060,0.000,0.000,0.000
1644342181335534080,2022-02-08-17:43:01,10.1.1.3,29,0.070,0.070,0.070,0.000,0.000,0.000
1644342181436228864,2022-02-08-17:43:01,10.1.1.3,27,0.080,0.080,0.080,0.000,0.000,0.000
1644342181536366848,2022-02-08-17:43:01,10.1.1.3,26,0.090,0.090,0.090,0.000,0.000,0.000
1644342181637101056,2022-02-08-17:43:01,10.1.1.3,25,0.100,0.100,0.100,0.000,0.000,0.000
1644342181736284928,2022-02-08-17:43:01,10.1.1.3,22,0.090,0.090,0.090,0.000,0.000,0.000
1644342181835622912,2022-02-08-17:43:01,10.1.1.3,20,0.080,0.080,0.080,0.000,0.000,0.000
1644342181956148992,2022-02-08-17:43:01,10.1.1.3,39,0.070,0.070,0.070,0.000,0.000,0.000
1644342182056068864,2022-02-08-17:43:02,10.1.1.3,37,0.060,0.060,0.060,0.000,0.000,0.000
1644342182156090880,2022-02-08-17:43:02,10.1.1.3,36,0.050,0.050,0.050,0.000,0.000,0.000
1644342182257040896,2022-02-08-17:43:02,10.1.1.3,37,0.040,0.040,0.040,0.000,0.000,0.000
1644342182355777024,2022-02-08-17:43:02,10.1.1.3,34,0.030,0.030,0.030,0.000,0.000,0.000
1644342182456082944,2022-02-08-17:43:02,10.1.1.3,33,0.020,0.020,0.020,0.000,0.000,0.000
1644342182556166912,2022-02-08-17:43:02,10.1.1.3,31,0.010,0.010,0.010,0.000,0.000,0.000
1644342182655992064,2022-02-08-17:43:02,10.1.1.3,29,0.000,0.000,0.000,0.000,0.000,0.000
1644342182856768000,2022-02-08-17:43:02,10.1.1.3,26,-0.020,-0.020,-0.020,0.000,0.000,0.000
1644342182957506048,2022-02-08-17:43:02,10.1.1.3,25,-0.030,-0.030,-0.030,0.000,0.000,0.000
1644342183056168960,2022-02-08-17:43:03,10.1.1.3,21,-0.040,-0.040,-0.040,0.000,0.000,0.000
1644342183275260928,2022-02-08-17:43:03,10.1.1.3,39,-0.060,-0.060,-0.060,0.000,0.000,0.000
1644342183376116992,2022-02-08-17:43:03,10.1.1.3,38,-0.070,-0.070,-0.070,0.000,0.000,0.000
1644342183475620864,2022-02-08-17:43:03,10.1.1.3,37,-0.080,-0.080,-0.080,0.000,0.000,0.000
1644342183576640000,2022-02-08-17:43:03,10.1.1.3,35,-0.090,-0.090,-0.090,0.000,0.000,0.000
1644342183675280128,2022-02-08-17:43:03,10.1.1.3,34,-0.100,-0.100,-0.100,0.000,0.000,0.000
1644342183775965952,2022-02-08-17:43:03,10.1.1.3,33,-0.090,-0.090,-0.090,0.000,0.000,0.000
1644342183876382976,2022-02-08-17:43:03,10.1.1.3,32,-0.080,-0.080,-0.080,0.000,0.000,0.000
1644342183975522048,2022-02-08-17:43:03,10.1.1.3,31,-0.070,-0.070,-0.070,0.000,0.000,0.000
1644342184174976000,2022-02-08-17:43:04,10.1.1.3,29,-0.050,-0.050,-0.050,0.000,0.000,0.000
1644342184275368960,2022-02-08-17:43:04,10.1.1.3,28,-0.040,-0.040,-0.040,0.000,0.000,0.000
1644342184376076032,2022-02-08-17:43:04,10.1.1.3,27,-0.030,-0.030,-0.030,0.000,0.000,0.000
1644342184475936768,2022-02-08-17:43:04,10.1.1.3,26,-0.020,-0.020,-0.020,0.000,0.000,0.000
1644342184576299008,2022-02-08-17:43:04,10.1.1.3,23,-0.010,-0.010,-0.010,0.000,0.000,0.000
1644342184675834880,2022-02-08-17:43:04,10.1.1.3,22,0.000,0.000,0.000,0.000,0.000,0.000
1644342184775322880,2022-02-08-17:43:04,10.1.1.3,20,0.010,0.010,0.010,0.000,0.000,0.000
1644342184895590912,2022-02-08-17:43:04,10.1.1.3,39,0.020,0.020,0.020,0.000,0.000,0.000
1644342184997073920,2022-02-08-17:43:04,10.1.1.3,37,0.030,0.030,0.030,0.000,0.000,0.000
1644342185095515904,2022-02-08-17:43:05,10.1.1.3,33,0.040,0.040,0.040,0.000,0.000,0.000
1644342185195405056,2022-02-08-17:43:05,10.1.1.3,33,0.050,0.050,0.050,0.000,0.000,0.000
1644342185296210944,2022-02-08-17:43:05,10.1.1.3,32,0.060,0.060,0.060,0.000,0.000,0.000
1644342185395750912,2022-02-08-17:43:05,10.1.1.3,31,0.070,0.070,0.070,0.000,0.000,0.000
1644342185509670912,2022-02-08-17:43:05,10.1.1.3,35,0.080,0.080,0.080,0.000,0.000,0.000
1644342185596275200,2022-02-08-17:43:05,10.1.1.3,29,0.090,0.090,0.090,0.000,0.000,0.000
1644342185695662848,2022-02-08-17:43:05,10.1.1.3,28,0.100,0.100,0.100,0.000,0.000,0.000
1644342185796094976,2022-02-08-17:43:05,10.1.1.3,27,0.090,0.090,0.090,0.000,0.000,0.000
1644342185895436032,2022-02-08-17:43:05,10.1.1.3,27,0.080,0.080,0.080,0.000,0.000,0.000
1644342185995346944,2022-02-08-17:43:05,10.1.1.3,25,0.070,0.070,0.070,0.000,0.000,0.000
1644342186095627008,2022-02-08-17:43:06,10.1.1.3,24,0.060,0.060,0.060,0.000,0.000,0.000
1644342186195396864,2022-02-08-17:43:06,10.1.1.3,22,0.050,0.050,0.050,0.000,0.000,0.000
1644342186295824896,2022-02-08-17:43:06,10.1.1.3,21,0.040,0.040,0.040,0.000,0.000,0.000
1644342186515186176,2022-02-08-17:43:06,10.1.1.3,39,0.020,0.020,0.020,0.000,0.000,0.000
1644342186621203968,2022-02-08-17:43:06,10.1.1.3,41,0.010,0.010,0.010,0.000,0.000,0.000
1644342186715691008,2022-02-08-17:43:06,10.1.1.3,35,0.000,0.000,0.000,0.000,0.000,0.000
1644342186815581952,2022-02-08-17:43:06,10.1.1.3,34,-0.010,-0.010,-0.010,0.000,0.000,0.000
1644342186927376128,2022-02-08-17:43:06,10.1.1.3,45,-0.020,-0.020,-0.020,0.000,0.000,0.000
1644342187017026816,2022-02-08-17:43:07,10.1.1.3,34,-0.030,-0.030,-0.030,0.000,0.000,0.000
1644342187119996160,2022-02-08-17:43:07,10.1.1.3,33,-0.040,-0.040,-0.040,0.000,0.000,0.000
1644342187217192960,2022-02-08-17:43:07,10.1.1.3,30,-0.050,-0.050,-0.050,0.000,0.000,0.000
1644342187317209856,2022-02-08-17:43:07,10.1.1.3,29,-0.060,-0.060,-0.060,0.000,0.000,0.000
1644342187417895168,2022-02-08-17:43:07,10.1.1.3,24,-0.070,-0.070,-0.070,0.000,0.000,0.000
1644342187516935168,2022-02-08-17:43:07,10.1.1.3,22,-0.080,-0.080,-0.080,0.000,0.000,0.000
1644342187618566144,2022-02-08-17:43:07,10.1.1.3,21,-0.090,-0.090,-0.090,0.000,0.000,0.000
1644342187717084928,2022-02-08-17:43:07,10.1.1.3,20,-0.100,-0.100,-0.100,0.000,0.000,0.000
1644342187937214976,2022-02-08-17:43:07,10.1.1.3,38,-0.080,-0.080,-0.080,0.000,0.000,0.000
1644342188039005952,2022-02-08-17:43:08,10.1.1.3,36,-0.070,-0.070,-0.070,0.000,0.000,0.000
1644342188138118912,2022-02-08-17:43:08,10.1.1.3,35,-0.060,-0.060,-0.060,0.000,0.000,0.000
1644342188236838144,2022-02-08-17:43:08,10.1.1.3,34,-0.050,-0.050,-0.050,0.000,0.000,0.000
1644342188336649984,2022-02-08-17:43:08,10.1.1.3,33,-0.040,-0.040,-0.040,0.000,0.000,0.000
1644342188436058880,2022-02-08-17:43:08,10.1.1.3,33,-0.030,-0.030,-0.030,0.000,0.000,0.000
1644342188537203200,2022-02-08-17:43:08,10.1.1.3,32,-0.020,-0.020,-0.020,0.000,0.000,0.000
1644342188638788096,2022-02-08-17:43:08,10.1.1.3,33,-0.010,-0.010,-0.010,0.000,0.000,0.000
1644342188736851968,2022-02-08-17:43:08,10.1.1.3,31,0.000,0.000,0.000,0.000,0.000,0.000
1644342188837660160,2022-02-08-17:43:08,10.1.1.3,29,0.010,0.010,0.010,0.000,0.000,0.000
1644342188937036032,2022-02-08-17:43:08,10.1.1.3,27,0.020,0.020,0.020,0.000,0.000,0.000
1644342189036344064,2022-02-08-17:43:09,10.1.1.3,26,0.030,0.030,0.030,0.000,0.000,0.000
1644342189136208128,2022-02-08-17:43:09,10.1.1.3,26,0.040,0.040,0.040,0.000,0.000,0.000
1644342189237425152,2022-02-08-17:43:09,10.1.1.3,25,0.050,0.050,0.050,0.000,0.000,0.000
1644342189339417856,2022-02-08-17:43:09,10.1.1.3,23,0.060,0.060,0.060,0.000,0.000,0.000
1644342189437009152,2022-02-08-17:43:09,10.1.1.3,22,0.070,0.070,0.070,0.000,0.000,0.000
1644342189537187072,2022-02-08-17:43:09,10.1.1.3,21,0.080,0.080,0.080,0.000,0.000,0.000
1644342189636858112,2022-02-08-17:43:09,10.1.1.3,20,0.090,0.090,0.090,0.000,0.000,0.000
1644342189756217856,2022-02-08-17:43:09,10.1.1.3,39,0.100,0.100,0.100,0.000,0.000,0.000
1644342189856494848,2022-02-08-17:43:09,10.1.1.3,38,0.090,0.090,0.090,0.000,0.000,0.000
1644342189957253888,2022-02-08-17:43:09,10.1.1.3,38,0.080,0.080,0.080,0.000,0.000,0.000
1644342190056984064,2022-02-08-17:43:10,10.1.1.3,37,0.070,0.070,0.070,0.000,0.000,0.000
1644342190156267776,2022-02-08-17:43:10,10.1.1.3,36,0.060,0.060,0.060,0.000,0.000,0.000
1644342190256731136,2022-02-08-17:43:10,10.1.1.3,34,0.050,0.050,0.050,0.000,0.000,0.000
1644342190357368064,2022-02-08-17:43:10,10.1.1.3,33,0.040,0.040,0.040,0.000,0.000,0.000
1644342190457186816,2022-02-08-17:43:10,10.1.1.3,32,0.030,0.030,0.030,0.000,0.000,0.000
1644342190557549056,2022-02-08-17:43:10,10.1.1.3,31,0.020,0.020,0.020,0.000,0.000,0.000
1644342190657716992,2022-02-08-17:43:10,10.1.1.3,30,0.010,0.010,0.010,0.000,0.000,0.000
1644342190759174144,2022-02-08-17:43:10,10.1.1.3,29,0.000,0.000,0.000,0.000,0.000,0.000
1644342190856782848,2022-02-08-17:43:10,10.1.1.3,29,-0.010,-0.010,-0.010,0.000,0.000,0.000
1644342190957267968,2022-02-08-17:43:10,10.1.1.3,27,-0.020,-0.020,-0.020,0.000,0.000,0.000
1644342191057924864,2022-02-08-17:43:11,10.1.1.3,25,-0.030,-0.030,-0.030,0.000,0.000,0.000
1644342191157152000,2022-02-08-17:43:11,10.1.1.3,23,-0.040,-0.040,-0.040,0.000,0.000,0.000
1644342191257760000,2022-02-08-17:43:11,10.1.1.3,22,-0.050,-0.050,-0.050,0.000,0.000,0.000
1644342191356594176,2022-02-08-17:43:11,10.1.1.3,21,-0.060,-0.060,-0.060,0.000,0.000,0.000
1644342191577425920,2022-02-08-17:43:11,10.1.1.3,39,-0.080,-0.080,-0.080,0.000,0.000,0.000
1644342191677235968,2022-02-08-17:43:11,10.1.1.3,37,-0.090,-0.090,-0.090,0.000,0.000,0.000
1644342191738266880,2022-02-08-17:43:11,10.1.1.3,-5,-0.090,-0.090,-0.090,0.000,0.000,0.000
1644342191878763008,2022-02-08-17:43:11,10.1.1.3,34,-0.090,-0.090,-0.090,0.000,0.000,0.000
1644342191976613120,2022-02-08-17:43:11,10.1.1.3,32,-0.080,-0.080,-0.080,0.000,0.000,0.000
1644342192077383168,2022-02-08-17:43:12,10.1.1.3,31,-0.070,-0.070,-0.070,0.000,0.000,0.000
1644342192177757952,2022-02-08-17:43:12,10.1.1.3,30,-0.060,-0.060,-0.060,0.000,0.000,0.000
1644342192277383168,2022-02-08-17:43:12,10.1.1.3,29,-0.050,-0.050,-0.050,0.000,0.000,0.000
1644342192376795904,2022-02-08-17:43:12,10.1.1.3,28,-0.040,-0.040,-0.040,0.000,0.000,0.000
1644342192476926208,2022-02-08-17:43:12,10.1.1.3,25,-0.030,-0.030,-0.030,0.000,0.000,0.000
1644342192576977920,2022-02-08-17:43:12,10.1.1.3,24,-0.020,-0.020,-0.020,0.000,0.000,0.000
1644342192676577024,2022-02-08-17:43:12,10.1.1.3,20,-0.010,-0.010,-0.010,0.000,0.000,0.000
1644342192797378048,2022-02-08-17:43:12,10.1.1.3,39,0.000,0.000,0.000,0.000,0.000,0.000
1644342192897392896,2022-02-08-17:43:12,10.1.1.3,37,0.010,0.010,0.010,0.000,0.000,0.000
1644342192996913920,2022-02-08-17:43:12,10.1.1.3,35,0.020,0.020,0.020,0.000,0.000,0.000
1644342193098329088,2022-02-08-17:43:13,10.1.1.3,34,0.030,0.030,0.030,0.000,0.000,0.000
1644342193197967104,2022-02-08-17:43:13,10.1.1.3,33,0.040,0.040,0.040,0.000,0.000,0.000
1644342193297091072,2022-02-08-17:43:13,10.1.1.3,32,0.050,0.050,0.050,0.000,0.000,0.000
1644342193396929024,2022-02-08-17:43:13,10.1.1.3,31,0.060,0.060,0.060,0.000,0.000,0.000
1644342193497266944,2022-02-08-17:43:13,10.1.1.3,30,0.070,0.070,0.070,0.000,0.000,0.000
1644342193596702208,2022-02-08-17:43:13,10.1.1.3,30,0.080,0.080,0.080,0.000,0.000,0.000
1644342193696728832,2022-02-08-17:43:13,10.1.1.3,29,0.090,0.090,0.090,0.000,0.000,0.000
1644342193797574144,2022-02-08-17:43:13,10.1.1.3,27,0.100,0.100,0.100,0.000,0.000,0.000
1644342193916770816,2022-02-08-17:43:13,10.1.1.3,44,0.090,0.090,0.090,0.000,0.000,0.000
1644342193997972992,2022-02-08-17:43:13,10.1.1.3,23,0.080,0.080,0.080,0.000,0.000,0.000
1644342194097358848,2022-02-08-17:43:14,10.1.1.3,22,0.070,0.070,0.070,0.000,0.000,0.000
1644342194197736960,2022-02-08-17:43:14,10.1.1.3,21,0.060,0.060,0.060,0.000,0.000,0.000
1644342194319891968,2022-02-08-17:43:14,10.1.1.3,39,0.050,0.050,0.050,0.000,0.000,0.000
1644342194418087936,2022-02-08-17:43:14,10.1.1.3,38,0.040,0.040,0.040,0.000,0.000,0.000
1644342194517224960,2022-02-08-17:43:14,10.1.1.3,37,0.030,0.030,0.030,0.000,0.000,0.000
1644342194625079040,2022-02-08-17:43:14,10.1.1.3,35,0.020,0.020,0.020,0.000,0.000,0.000
1644342194716624896,2022-02-08-17:43:14,10.1.1.3,34,0.010,0.010,0.010,0.000,0.000,0.000
1644342194817492992,2022-02-08-17:43:14,10.1.1.3,33,0.000,0.000,0.000,0.000,0.000,0.000
1644342194917783040,2022-02-08-17:43:14,10.1.1.3,32,-0.010,-0.010,-0.010,0.000,0.000,0.000
1644342195017070080,2022-02-08-17:43:15,10.1.1.3,31,-0.020,-0.020,-0.020,0.000,0.000,0.000
1644342195117091840,2022-02-08-17:43:15,10.1.1.3,30,-0.030,-0.030,-0.030,0.000,0.000,0.000
1644342195317056768,2022-02-08-17:43:15,10.1.1.3,29,-0.050,-0.050,-0.050,0.000,0.000,0.000
1644342195417555968,2022-02-08-17:43:15,10.1.1.3,27,-0.060,-0.060,-0.060,0.000,0.000,0.000
1644342195518074880,2022-02-08-17:43:15,10.1.1.3,26,-0.070,-0.070,-0.070,0.000,0.000,0.000
1644342195618372864,2022-02-08-17:43:15,10.1.1.3,26,-0.080,-0.080,-0.080,0.000,0.000,0.000
1644342195716049920,2022-02-08-17:43:15,10.1.1.3,25,-0.090,-0.090,-0.090,0.000,0.000,0.000
1644342195816483072,2022-02-08-17:43:15,10.1.1.3,24,-0.100,-0.100,-0.100,0.000,0.000,0.000
1644342195918017024,2022-02-08-17:43:15,10.1.1.3,24,-0.090,-0.090,-0.090,0.000,0.000,0.000
1644342196017105152,2022-02-08-17:43:16,10.1.1.3,23,-0.080,-0.080,-0.080,0.000,0.000,0.000
1644342196117984000,2022-02-08-17:43:16,10.1.1.3,22,-0.070,-0.070,-0.070,0.000,0.000,0.000
1644342196219006976,2022-02-08-17:43:16,10.1.1.3,21,-0.060,-0.060,-0.060,0.000,0.000,0.000
1644342196316939008,2022-02-08-17:43:16,10.1.1.3,20,-0.050,-0.050,-0.050,0.000,0.000,0.000
1644342196437457920,2022-02-08-17:43:16,10.1.1.3,39,-0.040,-0.040,-0.040,0.000,0.000,0.000
1644342196537345024,2022-02-08-17:43:16,10.1.1.3,38,-0.030,-0.030,-0.030,0.000,0.000,0.000
1644342196636980992,2022-02-08-17:43:16,10.1.1.3,36,-0.020,-0.020,-0.020,0.000,0.000,0.000
1644342196737808896,2022-02-08-17:43:16,10.1.1.3,34,-0.010,-0.010,-0.010,0.000,0.000,0.000
1644342196937042944,2022-02-08-17:43:16,10.1.1.3,32,0.010,0.010,0.010,0.000,0.000,0.000
1644342197037359104,2022-02-08-17:43:17,10.1.1.3,31,0.020,0.020,0.020,0.000,0.000,0.000
1644342197136914944,2022-02-08-17:43:17,10.1.1.3,27,0.030,0.030,0.030,0.000,0.000,0.000
1644342197238130176,2022-02-08-17:43:17,10.1.1.3,27,0.040,0.040,0.040,0.000,0.000,0.000
1644342197337191936,2022-02-08-17:43:17,10.1.1.3,26,0.050,0.050,0.050,0.000,0.000,0.000
1644342197436958976,2022-02-08-17:43:17,10.1.1.3,25,0.060,0.060,0.060,0.000,0.000,0.000
1644342197536952064,2022-02-08-17:43:17,10.1.1.3,23,0.070,0.070,0.070,0.000,0.000,0.000
1644342197639080960,2022-02-08-17:43:17,10.1.1.3,23,0.080,0.080,0.080,0.000,0.000,0.000
1644342197739036928,2022-02-08-17:43:17,10.1.1.3,21,0.090,0.090,0.090,0.000,0.000,0.000
1644342197838298112,2022-02-08-17:43:17,10.1.1.3,20,0.100,0.100,0.100,0.000,0.000,0.000
1644342197958297856,2022-02-08-17:43:17,10.1.1.3,39,0.090,0.090,0.090,0.000,0.000,0.000
1644342198056955136,2022-02-08-17:43:18,10.1.1.3,38,0.080,0.080,0.080,0.000,0.000,0.000
1644342198157052160,2022-02-08-17:43:18,10.1.1.3,37,0.070,0.070,0.070,0.000,0.000,0.000
1644342198256713984,2022-02-08-17:43:18,10.1.1.3,35,0.060,0.060,0.060,0.000,0.000,0.000
1644342198357306880,2022-02-08-17:43:18,10.1.1.3,35,0.050,0.050,0.050,0.000,0.000,0.000
1644342198456971776,2022-02-08-17:43:18,10.1.1.3,34,0.040,0.040,0.040,0.000,0.000,0.000
1644342198556803840,2022-02-08-17:43:18,10.1.1.3,31,0.030,0.030,0.030,0.000,0.000,0.000
1644342198659810048,2022-02-08-17:43:18,10.1.1.3,30,0.020,0.020,0.020,0.000,0.000,0.000
1644342198856739072,2022-02-08-17:43:18,10.1.1.3,28,0.000,0.000,0.000,0.000,0.000,0.000
1644342198956385024,2022-02-08-17:43:18,10.1.1.3,27,-0.010,-0.010,-0.010,0.000,0.000,0.000
1644342199056581888,2022-02-08-17:43:19,10.1.1.3,26,-0.020,-0.020,-0.020,0.000,0.000,0.000
1644342199157025024,2022-02-08-17:43:19,10.1.1.3,24,-0.030,-0.030,-0.030,0.000,0.000,0.000
1644342199257213184,2022-02-08-17:43:19,10.1.1.3,24,-0.040,-0.040,-0.040,0.000,0.000,0.000
1644342199356396032,2022-02-08-17:43:19,10.1.1.3,23,-0.050,-0.050,-0.050,0.000,0.000,0.000
1644342199476893952,2022-02-08-17:43:19,10.1.1.3,39,-0.060,-0.060,-0.060,0.000,0.000,0.000
1644342199577513984,2022-02-08-17:43:19,10.1.1.3,36,-0.070,-0.070,-0.070,0.000,0.000,0.000
1644342199676276992,2022-02-08-17:43:19,10.1.1.3,34,-0.080,-0.080,-0.080,0.000,0.000,0.000
1644342199776460032,2022-02-08-17:43:19,10.1.1.3,34,-0.090,-0.090,-0.090,0.000,0.000,0.000
1644342199876275968,2022-02-08-17:43:19,10.1.1.3,33,-0.100,-0.100,-0.100,0.000,0.000,0.000
1644342199977729024,2022-02-08-17:43:19,10.1.1.3,32,-0.090,-0.090,-0.090,0.000,0.000,0.000
1644342200077411840,2022-02-08-17:43:20,10.1.1.3,31,-0.080,-0.080,-0.080,0.000,0.000,0.000
1644342200176142080,2022-02-08-17:43:20,10.1.1.3,30,-0.070,-0.070,-0.070,0.000,0.000,0.000
1644342200276026112,2022-02-08-17:43:20,10.1.1.3,29,-0.060,-0.060,-0.060,0.000,0.000,0.000
1644342200376041984,2022-02-08-17:43:20,10.1.1.3,29,-0.050,-0.050,-0.050,0.000,0.000,0.000
1644342200477080064,2022-02-08-17:43:20,10.1.1.3,28,-0.040,-0.040,-0.040,0.000,0.000,0.000
1644342200576477952,2022-02-08-17:43:20,10.1.1.3,28,-0.030,-0.030,-0.030,0.000,0.000,0.000
1644342200676166144,2022-02-08-17:43:20,10.1.1.3,27,-0.020,-0.020,-0.020,0.000,0.000,0.000
1644342200776158208,2022-02-08-17:43:20,10.1.1.3,26,-0.010,-0.010,-0.010,0.000,0.000,0.000
1644342200876696064,2022-02-08-17:43:20,10.1.1.3,26,0.000,0.000,0.000,0.000,0.000,0.000
1644342200976712960,2022-02-08-17:43:20,10.1.1.3,25,0.010,0.010,0.010,0.000,0.000,0.000
1644342201097421056,2022-02-08-17:43:21,10.1.1.3,38,0.020,0.020,0.020,0.000,0.000,0.000
1644342201196180992,2022-02-08-17:43:21,10.1.1.3,36,0.030,0.030,0.030,0.000,0.000,0.000
1644342201297841920,2022-02-08-17:43:21,10.1.1.3,35,0.040,0.040,0.040,0.000,0.000,0.000
1644342201397133056,2022-02-08-17:43:21,10.1.1.3,34,0.050,0.050,0.050,0.000,0.000,0.000
1644342201497373184,2022-02-08-17:43:21,10.1.1.3,33,0.060,0.060,0.060,0.000,0.000,0.000
1644342201596712192,2022-02-08-17:43:21,10.1.1.3,32,0.070,0.070,0.070,0.000,0.000,0.000
1644342201697150976,2022-02-08-17:43:21,10.1.1.3,31,0.080,0.080,0.080,0.000,0.000,0.000
1644342201797199104,2022-02-08-17:43:21,10.1.1.3,29,0.090,0.090,0.090,0.000,0.000,0.000
1644342201896240896,2022-02-08-17:43:21,10.1.1.3,27,0.100,0.100,0.100,0.000,0.000,0.000
1644342201996257024,2022-02-08-17:43:21,10.1.1.3,24,0.090,0.090,0.090,0.000,0.000,0.000
1644342202097017088,2022-02-08-17:43:22,10.1.1.3,23,0.080,0.080,0.080,0.000,0.000,0.000
1644342202196243968,2022-02-08-17:43:22,10.1.1.3,22,0.070,0.070,0.070,0.000,0.000,0.000
1644342202297188096,2022-02-08-17:43:22,10.1.1.3,22,0.060,0.060,0.060,0.000,0.000,0.000
1644342202397422080,2022-02-08-17:43:22,10.1.1.3,20,0.050,0.050,0.050,0.000,0.000,0.000
1644342202517586944,2022-02-08-17:43:22,10.1.1.3,39,0.040,0.040,0.040,0.000,0.000,0.000
1644342202617562112,2022-02-08-17:43:22,10.1.1.3,37,0.030,0.030,0.030,0.000,0.000,0.000
1644342202716563968,2022-02-08-17:43:22,10.1.1.3,35,0.020,0.020,0.020,0.000,0.000,0.000
1644342202816771072,2022-02-08-17:43:22,10.1.1.3,32,0.010,0.010,0.010,0.000,0.000,0.000
1644342202917536000,2022-02-08-17:43:22,10.1.1.3,31,0.000,0.000,0.000,0.000,0.000,0.000
1644342203016956160,2022-02-08-17:43:23,10.1.1.3,30,-0.010,-0.010,-0.010,0.000,0.000,0.000
1644342203117526016,2022-02-08-17:43:23,10.1.1.3,29,-0.020,-0.020,-0.020,0.000,0.000,0.000
1644342203216592128,2022-02-08-17:43:23,10.1.1.3,29,-0.030,-0.030,-0.030,0.000,0.000,0.000
1644342203316958976,2022-02-08-17:43:23,10.1.1.3,26,-0.040,-0.040,-0.040,0.000,0.000,0.000
1644342203516644864,2022-02-08-17:43:23,10.1.1.3,24,-0.060,-0.060,-0.060,0.000,0.000,0.000
1644342203618611200,2022-02-08-17:43:23,10.1.1.3,23,-0.070,-0.070,-0.070,0.000,0.000,0.000
1644342203717485824,2022-02-08-17:43:23,10.1.1.3,22,-0.080,-0.080,-0.080,0.000,0.000,0.000
1644342203817603072,2022-02-08-17:43:23,10.1.1.3,21,-0.090,-0.090,-0.090,0.000,0.000,0.000
1644342203917468160,2022-02-08-17:43:23,10.1.1.3,20,-0.100,-0.100,-0.100,0.000,0.000,0.000
1644342204037587968,2022-02-08-17:43:24,10.1.1.3,39,-0.090,-0.090,-0.090,0.000,0.000,0.000
1644342204137347072,2022-02-08-17:43:24,10.1.1.3,38,-0.080,-0.080,-0.080,0.000,0.000,0.000
1644342204237524992,2022-02-08-17:43:24,10.1.1.3,34,-0.070,-0.070,-0.070,0.000,0.000,0.000
1644342204336982016,2022-02-08-17:43:24,10.1.1.3,33,-0.060,-0.060,-0.060,0.000,0.000,0.000
1644342204437633024,2022-02-08-17:43:24,10.1.1.3,30,-0.050,-0.050,-0.050,0.000,0.000,0.000
1644342204637504000,2022-02-08-17:43:24,10.1.1.3,28,-0.030,-0.030,-0.030,0.000,0.000,0.000
1644342204737875968,2022-02-08-17:43:24,10.1.1.3,27,-0.020,-0.020,-0.020,0.000,0.000,0.000
1644342204837491968,2022-02-08-17:43:24,10.1.1.3,26,-0.010,-0.010,-0.010,0.000,0.000,0.000
1644342204940846848,2022-02-08-17:43:24,10.1.1.3,27,0.000,0.000,0.000,0.000,0.000,0.000
1644342205038692096,2022-02-08-17:43:25,10.1.1.3,26,0.010,0.010,0.010,0.000,0.000,0.000
1644342205137320960,2022-02-08-17:43:25,10.1.1.3,23,0.020,0.020,0.020,0.000,0.000,0.000
1644342205236442112,2022-02-08-17:43:25,10.1.1.3,22,0.030,0.030,0.030,0.000,0.000,0.000
1644342205337922048,2022-02-08-17:43:25,10.1.1.3,21,0.040,0.040,0.040,0.000,0.000,0.000
1644342205437014016,2022-02-08-17:43:25,10.1.1.3,20,0.050,0.050,0.050,0.000,0.000,0.000
1644342205657116928,2022-02-08-17:43:25,10.1.1.3,39,0.070,0.070,0.070,0.000,0.000,0.000
1644342205757758976,2022-02-08-17:43:25,10.1.1.3,38,0.080,0.080,0.080,0.000,0.000,0.000
1644342205857569024,2022-02-08-17:43:25,10.1.1.3,36,0.090,0.090,0.090,0.000,0.000,0.000
1644342205957134080,2022-02-08-17:43:25,10.1.1.3,35,0.100,0.100,0.100,0.000,0.000,0.000
1644342206056879104,2022-02-08-17:43:26,10.1.1.3,30,0.090,0.090,0.090,0.000,0.000,0.000
1644342206157108992,2022-02-08-17:43:26,10.1.1.3,27,0.080,0.080,0.080,0.000,0.000,0.000
1644342206256614912,2022-02-08-17:43:26,10.1.1.3,25,0.070,0.070,0.070,0.000,0.000,0.000
1644342206376604160,2022-02-08-17:43:26,10.1.1.3,38,0.060,0.060,0.060,0.000,0.000,0.000
1644342206477478912,2022-02-08-17:43:26,10.1.1.3,38,0.050,0.050,0.050,0.000,0.000,0.000
1644342206577112832,2022-02-08-17:43:26,10.1.1.3,37,0.040,0.040,0.040,0.000,0.000,0.000
1644342206679470080,2022-02-08-17:43:26,10.1.1.3,39,0.030,0.030,0.030,0.000,0.000,0.000
1644342206777654016,2022-02-08-17:43:26,10.1.1.3,35,0.020,0.020,0.020,0.000,0.000,0.000
1644342206878161920,2022-02-08-17:43:26,10.1.1.3,34,0.010,0.010,0.010,0.000,0.000,0.000
1644342206976526080,2022-02-08-17:43:26,10.1.1.3,33,0.000,0.000,0.000,0.000,0.000,0.000
1644342207077459968,2022-02-08-17:43:27,10.1.1.3,32,-0.010,-0.010,-0.010,0.000,0.000,0.000
1644342207176722944,2022-02-08-17:43:27,10.1.1.3,32,-0.020,-0.020,-0.020,0.000,0.000,0.000
1644342207277017088,2022-02-08-17:43:27,10.1.1.3,31,-0.030,-0.030,-0.030,0.000,0.000,0.000
1644342207378238976,2022-02-08-17:43:27,10.1.1.3,30,-0.040,-0.040,-0.040,0.000,0.000,0.000
1644342207476893952,2022-02-08-17:43:27,10.1.1.3,28,-0.050,-0.050,-0.050,0.000,0.000,0.000
1644342207577786880,2022-02-08-17:43:27,10.1.1.3,27,-0.060,-0.060,-0.060,0.000,0.000,0.000
1644342207676800000,2022-02-08-17:43:27,10.1.1.3,26,-0.070,-0.070,-0.070,0.000,0.000,0.000
1644342207776977152,2022-02-08-17:43:27,10.1.1.3,26,-0.080,-0.080,-0.080,0.000,0.000,0.000
1644342207877463040,2022-02-08-17:43:27,10.1.1.3,24,-0.090,-0.090,-0.090,0.000,0.000,0.000
1644342207977210112,2022-02-08-17:43:27,10.1.1.3,23,-0.100,-0.100,-0.100,0.000,0.000,0.000
1644342208077467904,2022-02-08-17:43:28,10.1.1.3,23,-0.090,-0.090,-0.090,0.000,0.000,0.000
1644342208177169920,2022-02-08-17:43:28,10.1.1.3,22,-0.080,-0.080,-0.080,0.000,0.000,0.000
1644342208277344000,2022-02-08-17:43:28,10.1.1.3,21,-0.070,-0.070,-0.070,0.000,0.000,0.000
1644342208376724992,2022-02-08-17:43:28,10.1.1.3,20,-0.060,-0.060,-0.060,0.000,0.000,0.000
1644342208498816000,2022-02-08-17:43:28,10.1.1.3,38,-0.050,-0.050,-0.050,0.000,0.000,0.000
1644342208596488960,2022-02-08-17:43:28,10.1.1.3,36,-0.040,-0.040,-0.040,0.000,0.000,0.000
1644342208697140992,2022-02-08-17:43:28,10.1.1.3,33,-0.030,-0.030,-0.030,0.000,0.000,0.000
1644342208796060160,2022-02-08-17:43:28,10.1.1.3,32,-0.020,-0.020,-0.020,0.000,0.000,0.000
1644342208896528896,2022-02-08-17:43:28,10.1.1.3,31,-0.010,-0.010,-0.010,0.000,0.000,0.000
1644342208996455936,2022-02-08-17:43:28,10.1.1.3,31,0.000,0.000,0.000,0.000,0.000,0.000
1644342209096468992,2022-02-08-17:43:29,10.1.1.3,30,0.010,0.010,0.010,0.000,0.000,0.000
1644342209196429056,2022-02-08-17:43:29,10.1.1.3,29,0.020,0.020,0.020,0.000,0.000,0.000
1644342209297647872,2022-02-08-17:43:29,10.1.1.3,25,0.030,0.030,0.030,0.000,0.000,0.000
1644342209397975808,2022-02-08-17:43:29,10.1.1.3,24,0.040,0.040,0.040,0.000,0.000,0.000
1644342209517060096,2022-02-08-17:43:29,10.1.1.3,38,0.050,0.050,0.050,0.000,0.000,0.000
1644342209617693952,2022-02-08-17:43:29,10.1.1.3,36,0.060,0.060,0.060,0.000,0.000,0.000
1644342209716737024,2022-02-08-17:43:29,10.1.1.3,34,0.070,0.070,0.070,0.000,0.000,0.000
1644342209817516032,2022-02-08-17:43:29,10.1.1.3,33,0.080,0.080,0.080,0.000,0.000,0.000
1644342209916744960,2022-02-08-17:43:29,10.1.1.3,32,0.090,0.090,0.090,0.000,0.000,0.000
1644342210017252096,2022-02-08-17:43:30,10.1.1.3,32,0.100,0.100,0.100,0.000,0.000,0.000
1644342210117896960,2022-02-08-17:43:30,10.1.1.3,30,0.090,0.090,0.090,0.000,0.000,0.000
1644342210216993024,2022-02-08-17:43:30,10.1.1.3,29,0.080,0.080,0.080,0.000,0.000,0.000
1644342210316946944,2022-02-08-17:43:30,10.1.1.3,28,0.070,0.070,0.070,0.000,0.000,0.000
1644342210416961792,2022-02-08-17:43:30,10.1.1.3,27,0.060,0.060,0.060,0.000,0.000,0.000
1644342210516871936,2022-02-08-17:43:30,10.1.1.3,26,0.050,0.050,0.050,0.000,0.000,0.000
1644342210619023104,2022-02-08-17:43:30,10.1.1.3,25,0.040,0.040,0.040,0.000,0.000,0.000
1644342210716203008,2022-02-08-17:43:30,10.1.1.3,24,0.030,0.030,0.030,0.000,0.000,0.000
1644342210818106880,2022-02-08-17:43:30,10.1.1.3,22,0.020,0.020,0.020,0.000,0.000,0.000
1644342210916482048,2022-02-08-17:43:30,10.1.1.3,20,0.010,0.010,0.010,0.000,0.000,0.000
1644342211018119168,2022-02-08-17:43:31,10.1.1.3,20,0.000,0.000,0.000,0.000,0.000,0.000
1644342211137742080,2022-02-08-17:43:31,10.1.1.3,39,-0.010,-0.010,-0.010,0.000,0.000,0.000
