FedericoMungari/DigitalTwin_service/01_WiredScenario/Output/Output_script/script_ROSAPI_output_robots12_freq0_1.txt.csv
timestamp,node,latency,joint_1,joint_2,joint_3,joint_4,joint_5,joint_6
1640078413546232064,"2021-12-21,09:20:13",10.1.1.2,4415,0.000,0.000,0.000,0.000,0.000,0.000
1640078415081330944,"2021-12-21,09:20:15",10.1.1.2,454,-0.010,-0.010,-0.010,0.000,0.000,0.000
1640078415110374912,"2021-12-21,09:20:15",10.1.1.2,0.48368096351623535,-0.010,-0.010,-0.010,0.000,0.000,0.000
1640078415500935936,"2021-12-21,09:20:15",10.1.1.2,384,-0.020,-0.020,-0.020,0.000,0.000,0.000
1640078415577274112,"2021-12-21,09:20:15",10.1.1.2,0.46113014221191406,-0.020,-0.020,-0.020,0.000,0.000,0.000
1640078416069912064,"2021-12-21,09:20:16",10.1.1.2,490,-0.030,-0.030,-0.030,0.000,0.000,0.000
1640078416100677888,"2021-12-21,09:20:16",10.1.1.2,0.5217130184173584,-0.030,-0.030,-0.030,0.000,0.000,0.000
1640078416490923008,"2021-12-21,09:20:16",10.1.1.2,388,-0.040,-0.040,-0.040,0.000,0.000,0.000
1640078416539540992,"2021-12-21,09:20:16",10.1.1.2,0.43723082542419434,-0.040,-0.040,-0.040,0.000,0.000,0.000
1640078416999469056,"2021-12-21,09:20:16",10.1.1.2,408,-0.050,-0.050,-0.050,0.000,0.000,0.000
1640078417024488960,"2021-12-21,09:20:17",10.1.1.2,0.43347597122192383,-0.050,-0.050,-0.050,0.000,0.000,0.000
1640078417379467008,"2021-12-21,09:20:17",10.1.1.2,353,-0.060,-0.060,-0.060,0.000,0.000,0.000
1640078417408834816,"2021-12-21,09:20:17",10.1.1.2,0.3830409049987793,-0.060,-0.060,-0.060,0.000,0.000,0.000
1640078417800043008,"2021-12-21,09:20:17",10.1.1.2,389,-0.070,-0.070,-0.070,0.000,0.000,0.000
1640078417823326976,"2021-12-21,09:20:17",10.1.1.2,0.4128608703613281,-0.070,-0.070,-0.070,0.000,0.000,0.000
1640078418228702976,"2021-12-21,09:20:18",10.1.1.2,402,-0.080,-0.080,-0.080,0.000,0.000,0.000
1640078418267316224,"2021-12-21,09:20:18",10.1.1.2,0.441133975982666,-0.080,-0.080,-0.080,0.000,0.000,0.000
1640078418609585152,"2021-12-21,09:20:18",10.1.1.2,340,-0.090,-0.090,-0.090,0.000,0.000,0.000
1640078418644901120,"2021-12-21,09:20:18",10.1.1.2,0.37601494789123535,-0.090,-0.090,-0.090,0.000,0.000,0.000
1640078419088429824,"2021-12-21,09:20:19",10.1.1.2,432,-0.100,-0.100,-0.100,0.000,0.000,0.000
1640078419128568832,"2021-12-21,09:20:19",10.1.1.2,0.47249698638916016,-0.100,-0.100,-0.100,0.000,0.000,0.000
1640078419568293120,"2021-12-21,09:20:19",10.1.1.2,432,-0.110,-0.110,-0.110,0.000,0.000,0.000
1640078419607689984,"2021-12-21,09:20:19",10.1.1.2,0.47193288803100586,-0.110,-0.110,-0.110,0.000,0.000,0.000
1640078420027930880,"2021-12-21,09:20:20",10.1.1.2,418,-0.120,-0.120,-0.120,0.000,0.000,0.000
1640078420049506816,"2021-12-21,09:20:20",10.1.1.2,0.4398231506347656,-0.120,-0.120,-0.120,0.000,0.000,0.000
1640078420649221888,"2021-12-21,09:20:20",10.1.1.2,591,-0.130,-0.130,-0.130,0.000,0.000,0.000
1640078420672935936,"2021-12-21,09:20:20",10.1.1.2,0.6151771545410156,-0.130,-0.130,-0.130,0.000,0.000,0.000
1640078421076921088,"2021-12-21,09:20:21",10.1.1.2,402,-0.140,-0.140,-0.140,0.000,0.000,0.000
1640078421102739200,"2021-12-21,09:20:21",10.1.1.2,0.4280428886413574,-0.140,-0.140,-0.140,0.000,0.000,0.000
1640078426646663936,"2021-12-21,09:20:21",10.1.1.2,456,-0.150,-0.150,-0.150,0.000,0.000,0.000
1640078433001084928,"2021-12-21,09:20:26",10.1.1.2,5.822062015533447,-0.150,-0.150,-0.150,0.000,0.000,0.000
1640078433940492032,"2021-12-21,09:20:33",10.1.1.2,827,-0.160,-0.160,-0.160,0.000,0.000,0.000
1640078433961300992,"2021-12-21,09:20:33",10.1.1.2,0.8487739562988281,-0.160,-0.160,-0.160,0.000,0.000,0.000
1640078434270497024,"2021-12-21,09:20:34",10.1.1.2,307,-0.170,-0.170,-0.170,0.000,0.000,0.000
1640078434312425984,"2021-12-21,09:20:34",10.1.1.2,0.3493471145629883,-0.170,-0.170,-0.170,0.000,0.000,0.000
1640078434619713024,"2021-12-21,09:20:34",10.1.1.2,305,-0.180,-0.180,-0.180,0.000,0.000,0.000
1640078434643655168,"2021-12-21,09:20:34",10.1.1.2,0.3284330368041992,-0.180,-0.180,-0.180,0.000,0.000,0.000
1640078434979406080,"2021-12-21,09:20:34",10.1.1.2,333,-0.190,-0.190,-0.190,0.000,0.000,0.000
1640078435000771072,"2021-12-21,09:20:35",10.1.1.2,0.35541391372680664,-0.190,-0.190,-0.190,0.000,0.000,0.000
1640078435358237952,"2021-12-21,09:20:35",10.1.1.2,356,-0.200,-0.200,-0.200,0.000,0.000,0.000
1640078435363084032,"2021-12-21,09:20:35",10.1.1.2,0.3609459400177002,-0.200,-0.200,-0.200,0.000,0.000,0.000
1640078438149966848,"2021-12-21,09:20:38",10.1.1.2,1313,-0.210,-0.210,-0.210,0.000,0.000,0.000
1640078438173091840,"2021-12-21,09:20:38",10.1.1.2,1.336864948272705,-0.210,-0.210,-0.210,0.000,0.000,0.000
1640078438484049920,"2021-12-21,09:20:38",10.1.1.2,309,-0.220,-0.220,-0.220,0.000,0.000,0.000
1640078438511977984,"2021-12-21,09:20:38",10.1.1.2,0.3377101421356201,-0.220,-0.220,-0.220,0.000,0.000,0.000
1640078438844954112,"2021-12-21,09:20:38",10.1.1.2,0.331693172454834,-0.230,-0.230,-0.230,0.000,0.000,0.000
1640078438845332992,"2021-12-21,09:20:38",10.1.1.2,332,-0.230,-0.230,-0.230,0.000,0.000,0.000
1640078439153854976,"2021-12-21,09:20:39",10.1.1.2,307,-0.240,-0.240,-0.240,0.000,0.000,0.000
1640078439226605824,"2021-12-21,09:20:39",10.1.1.2,0.38044309616088867,-0.240,-0.240,-0.240,0.000,0.000,0.000
1640078439522588928,"2021-12-21,09:20:39",10.1.1.2,294,-0.250,-0.250,-0.250,0.000,0.000,0.000
1640078439552988928,"2021-12-21,09:20:39",10.1.1.2,0.32493090629577637,-0.250,-0.250,-0.250,0.000,0.000,0.000
1640078439882105088,"2021-12-21,09:20:39",10.1.1.2,327,-0.260,-0.260,-0.260,0.000,0.000,0.000
1640078439898222848,"2021-12-21,09:20:39",10.1.1.2,0.34363794326782227,-0.260,-0.260,-0.260,0.000,0.000,0.000
1640078440200964864,"2021-12-21,09:20:40",10.1.1.2,300,-0.270,-0.270,-0.270,0.000,0.000,0.000
1640078440236377088,"2021-12-21,09:20:40",10.1.1.2,0.33632802963256836,-0.270,-0.270,-0.270,0.000,0.000,0.000
1640078440561184768,"2021-12-21,09:20:40",10.1.1.2,322,-0.280,-0.280,-0.280,0.000,0.000,0.000
1640078440590025984,"2021-12-21,09:20:40",10.1.1.2,0.35167598724365234,-0.280,-0.280,-0.280,0.000,0.000,0.000
1640078440940176896,"2021-12-21,09:20:40",10.1.1.2,348,-0.290,-0.290,-0.290,0.000,0.000,0.000
1640078441024966912,"2021-12-21,09:20:41",10.1.1.2,0.4333980083465576,-0.290,-0.290,-0.290,0.000,0.000,0.000
1640078441360902912,"2021-12-21,09:20:41",10.1.1.2,334,-0.300,-0.300,-0.300,0.000,0.000,0.000
1640078441376797952,"2021-12-21,09:20:41",10.1.1.2,0.3504631519317627,-0.300,-0.300,-0.300,0.000,0.000,0.000
1640078441699691008,"2021-12-21,09:20:41",10.1.1.2,321,-0.310,-0.310,-0.310,0.000,0.000,0.000
1640078441741644032,"2021-12-21,09:20:41",10.1.1.2,0.36339306831359863,-0.310,-0.310,-0.310,0.000,0.000,0.000
1640078442088762880,"2021-12-21,09:20:42",10.1.1.2,345,-0.320,-0.320,-0.320,0.000,0.000,0.000
1640078442104726016,"2021-12-21,09:20:42",10.1.1.2,0.3524169921875,-0.320,-0.320,-0.320,0.000,0.000,0.000
1640078442468158976,"2021-12-21,09:20:42",10.1.1.2,361,-0.330,-0.330,-0.330,0.000,0.000,0.000
1640078442507303936,"2021-12-21,09:20:42",10.1.1.2,0.401170015335083,-0.330,-0.330,-0.330,0.000,0.000,0.000
1640078442841144064,"2021-12-21,09:20:42",10.1.1.2,332,-0.340,-0.340,-0.340,0.000,0.000,0.000
1640078442914360064,"2021-12-21,09:20:42",10.1.1.2,0.405562162399292,-0.340,-0.340,-0.340,0.000,0.000,0.000
1640078443257410048,"2021-12-21,09:20:43",10.1.1.2,341,-0.350,-0.350,-0.350,0.000,0.000,0.000
1640078443323738112,"2021-12-21,09:20:43",10.1.1.2,0.4079158306121826,-0.350,-0.350,-0.350,0.000,0.000,0.000
1640078444059500032,"2021-12-21,09:20:43",10.1.1.2,411,-0.360,-0.360,-0.360,0.000,0.000,0.000
1640078444114022912,"2021-12-21,09:20:44",10.1.1.2,0.7883520126342773,-0.360,-0.360,-0.360,0.000,0.000,0.000
1640078444496047104,"2021-12-21,09:20:44",10.1.1.2,377,-0.370,-0.370,-0.370,0.000,0.000,0.000
1640078444543579136,"2021-12-21,09:20:44",10.1.1.2,0.42601513862609863,-0.370,-0.370,-0.370,0.000,0.000,0.000
1640078444884449024,"2021-12-21,09:20:44",10.1.1.2,338,-0.380,-0.380,-0.380,0.000,0.000,0.000
1640078444951553024,"2021-12-21,09:20:44",10.1.1.2,0.4059410095214844,-0.380,-0.380,-0.380,0.000,0.000,0.000
1640078445433881088,"2021-12-21,09:20:45",10.1.1.2,479,-0.390,-0.390,-0.390,0.000,0.000,0.000
1640078445459281920,"2021-12-21,09:20:45",10.1.1.2,0.5048620700836182,-0.390,-0.390,-0.390,0.000,0.000,0.000
1640078445793981952,"2021-12-21,09:20:45",10.1.1.2,332,-0.400,-0.400,-0.400,0.000,0.000,0.000
1640078445843152128,"2021-12-21,09:20:45",10.1.1.2,0.3819611072540283,-0.400,-0.400,-0.400,0.000,0.000,0.000
1640078446202646016,"2021-12-21,09:20:46",10.1.1.2,352,-0.410,-0.410,-0.410,0.000,0.000,0.000
1640078446244712960,"2021-12-21,09:20:46",10.1.1.2,0.3955059051513672,-0.410,-0.410,-0.410,0.000,0.000,0.000
1640078446572474880,"2021-12-21,09:20:46",10.1.1.2,323,-0.420,-0.420,-0.420,0.000,0.000,0.000
1640078446619214080,"2021-12-21,09:20:46",10.1.1.2,0.3704261779785156,-0.420,-0.420,-0.420,0.000,0.000,0.000
1640078447020585984,"2021-12-21,09:20:47",10.1.1.2,399,-0.430,-0.430,-0.430,0.000,0.000,0.000
1640078447076188928,"2021-12-21,09:20:47",10.1.1.2,0.4531979560852051,-0.430,-0.430,-0.430,0.000,0.000,0.000
1640078447500442880,"2021-12-21,09:20:47",10.1.1.2,421,-0.440,-0.440,-0.440,0.000,0.000,0.000
1640078447516449024,"2021-12-21,09:20:47",10.1.1.2,0.43807291984558105,-0.440,-0.440,-0.440,0.000,0.000,0.000
1640078448109659904,"2021-12-21,09:20:48",10.1.1.2,587,-0.450,-0.450,-0.450,0.000,0.000,0.000
1640078448158379008,"2021-12-21,09:20:48",10.1.1.2,0.6367969512939453,-0.450,-0.450,-0.450,0.000,0.000,0.000
1640078448651045120,"2021-12-21,09:20:48",10.1.1.2,490,-0.460,-0.460,-0.460,0.000,0.000,0.000
1640078448708992000,"2021-12-21,09:20:48",10.1.1.2,0.5492091178894043,-0.460,-0.460,-0.460,0.000,0.000,0.000
1640078449117724928,"2021-12-21,09:20:49",10.1.1.2,400,-0.470,-0.470,-0.470,0.000,0.000,0.000
1640078449177234944,"2021-12-21,09:20:49",10.1.1.2,0.4605560302734375,-0.470,-0.470,-0.470,0.000,0.000,0.000
1640078449588260864,"2021-12-21,09:20:49",10.1.1.2,392,-0.480,-0.480,-0.480,0.000,0.000,0.000
1640078453551582976,"2021-12-21,09:20:53",10.1.1.2,4.355849027633667,-0.480,-0.480,-0.480,0.000,0.000,0.000
1640078453900768000,"2021-12-21,09:20:53",10.1.1.2,347,-0.490,-0.490,-0.490,0.000,0.000,0.000
1640078453956101888,"2021-12-21,09:20:53",10.1.1.2,0.40271687507629395,-0.490,-0.490,-0.490,0.000,0.000,0.000
1640078454310606848,"2021-12-21,09:20:54",10.1.1.2,352,-0.480,-0.480,-0.480,0.000,0.000,0.000
1640078454354913024,"2021-12-21,09:20:54",10.1.1.2,0.39670705795288086,-0.480,-0.480,-0.480,0.000,0.000,0.000
1640078454779185152,"2021-12-21,09:20:54",10.1.1.2,421,-0.470,-0.470,-0.470,0.000,0.000,0.000
1640078454826988032,"2021-12-21,09:20:54",10.1.1.2,0.46927809715270996,-0.470,-0.470,-0.470,0.000,0.000,0.000
1640078455224868096,"2021-12-21,09:20:55",10.1.1.2,396,-0.460,-0.460,-0.460,0.000,0.000,0.000
1640078455237467904,"2021-12-21,09:20:55",10.1.1.2,0.408951997756958,-0.460,-0.460,-0.460,0.000,0.000,0.000
1640078455592578816,"2021-12-21,09:20:55",10.1.1.2,348,-0.450,-0.450,-0.450,0.000,0.000,0.000
1640078455652614144,"2021-12-21,09:20:55",10.1.1.2,0.4083240032196045,-0.450,-0.450,-0.450,0.000,0.000,0.000
1640078455996164096,"2021-12-21,09:20:55",10.1.1.2,341,-0.440,-0.440,-0.440,0.000,0.000,0.000
1640078456066867200,"2021-12-21,09:20:56",10.1.1.2,0.41260790824890137,-0.440,-0.440,-0.440,0.000,0.000,0.000
1640078456395691008,"2021-12-21,09:20:56",10.1.1.2,327,-0.430,-0.430,-0.430,0.000,0.000,0.000
1640078456453024000,"2021-12-21,09:20:56",10.1.1.2,0.3846311569213867,-0.430,-0.430,-0.430,0.000,0.000,0.000
1640078456856455936,"2021-12-21,09:20:56",10.1.1.2,402,-0.420,-0.420,-0.420,0.000,0.000,0.000
1640078456876564992,"2021-12-21,09:20:56",10.1.1.2,0.4215230941772461,-0.420,-0.420,-0.420,0.000,0.000,0.000
1640078457236660992,"2021-12-21,09:20:57",10.1.1.2,355,-0.410,-0.410,-0.410,0.000,0.000,0.000
1640078457282476032,"2021-12-21,09:20:57",10.1.1.2,0.4035649299621582,-0.410,-0.410,-0.410,0.000,0.000,0.000
1640078457658171904,"2021-12-21,09:20:57",10.1.1.2,366,-0.400,-0.400,-0.400,0.000,0.000,0.000
1640078457710066176,"2021-12-21,09:20:57",10.1.1.2,0.4179818630218506,-0.400,-0.400,-0.400,0.000,0.000,0.000
1640078458091264000,"2021-12-21,09:20:58",10.1.1.2,379,-0.390,-0.390,-0.390,0.000,0.000,0.000
1640078458181510912,"2021-12-21,09:20:58",10.1.1.2,0.469897985458374,-0.390,-0.390,-0.390,0.000,0.000,0.000
1640078458584012032,"2021-12-21,09:20:58",10.1.1.2,400,-0.380,-0.380,-0.380,0.000,0.000,0.000
1640078458638642944,"2021-12-21,09:20:58",10.1.1.2,0.4552018642425537,-0.380,-0.380,-0.380,0.000,0.000,0.000
1640078459168093952,"2021-12-21,09:20:59",10.1.1.2,0.5270209312438965,-0.370,-0.370,-0.370,0.000,0.000,0.000
1640078459176568064,"2021-12-21,09:20:59",10.1.1.2,535,-0.370,-0.370,-0.370,0.000,0.000,0.000
1640078459590696192,"2021-12-21,09:20:59",10.1.1.2,405,-0.360,-0.360,-0.360,0.000,0.000,0.000
1640078459699660032,"2021-12-21,09:20:59",10.1.1.2,0.5147898197174072,-0.360,-0.360,-0.360,0.000,0.000,0.000
1640078463626729984,"2021-12-21,09:21:03",10.1.1.2,3924,-0.350,-0.350,-0.350,0.000,0.000,0.000
1640078463671638016,"2021-12-21,09:21:03",10.1.1.2,3.9706969261169434,-0.350,-0.350,-0.350,0.000,0.000,0.000
1640078464113315072,"2021-12-21,09:21:04",10.1.1.2,0.4308037757873535,-0.340,-0.340,-0.340,0.000,0.000,0.000
1640078465094350080,"2021-12-21,09:21:04",10.1.1.2,642,-0.330,-0.330,-0.330,0.000,0.000,0.000
1640078465116121088,"2021-12-21,09:21:05",10.1.1.2,0.992124080657959,-0.330,-0.330,-0.330,0.000,0.000,0.000
1640078465531853056,"2021-12-21,09:21:05",10.1.1.2,411,-0.320,-0.320,-0.320,0.000,0.000,0.000
1640078465578729984,"2021-12-21,09:21:05",10.1.1.2,0.4582698345184326,-0.320,-0.320,-0.320,0.000,0.000,0.000
1640078465923535104,"2021-12-21,09:21:05",10.1.1.2,343,-0.310,-0.310,-0.310,0.000,0.000,0.000
1640078465943290880,"2021-12-21,09:21:05",10.1.1.2,0.36301398277282715,-0.310,-0.310,-0.310,0.000,0.000,0.000
1640078466395930112,"2021-12-21,09:21:06",10.1.1.2,450,-0.300,-0.300,-0.300,0.000,0.000,0.000
1640078466448612864,"2021-12-21,09:21:06",10.1.1.2,0.5027401447296143,-0.300,-0.300,-0.300,0.000,0.000,0.000
1640078466789594880,"2021-12-21,09:21:06",10.1.1.2,339,-0.290,-0.290,-0.290,0.000,0.000,0.000
1640078466797886976,"2021-12-21,09:21:06",10.1.1.2,0.3477630615234375,-0.290,-0.290,-0.290,0.000,0.000,0.000
1640078467165270016,"2021-12-21,09:21:07",10.1.1.2,365,-0.280,-0.280,-0.280,0.000,0.000,0.000
1640078467204029952,"2021-12-21,09:21:07",10.1.1.2,0.4047689437866211,-0.280,-0.280,-0.280,0.000,0.000,0.000
1640078467540481024,"2021-12-21,09:21:07",10.1.1.2,334,-0.270,-0.270,-0.270,0.000,0.000,0.000
1640078467622374144,"2021-12-21,09:21:07",10.1.1.2,0.4170651435852051,-0.270,-0.270,-0.270,0.000,0.000,0.000
1640078468011847936,"2021-12-21,09:21:08",10.1.1.2,387,-0.260,-0.260,-0.260,0.000,0.000,0.000
1640078468035634944,"2021-12-21,09:21:08",10.1.1.2,0.4117100238800049,-0.260,-0.260,-0.260,0.000,0.000,0.000
1640078468385175040,"2021-12-21,09:21:08",10.1.1.2,347,-0.250,-0.250,-0.250,0.000,0.000,0.000
1640078468445797888,"2021-12-21,09:21:08",10.1.1.2,0.4084329605102539,-0.250,-0.250,-0.250,0.000,0.000,0.000
1640078468861512960,"2021-12-21,09:21:08",10.1.1.2,406,-0.240,-0.240,-0.240,0.000,0.000,0.000
1640078468872454912,"2021-12-21,09:21:08",10.1.1.2,0.4172990322113037,-0.240,-0.240,-0.240,0.000,0.000,0.000
1640078469252768000,"2021-12-21,09:21:09",10.1.1.2,378,-0.230,-0.230,-0.230,0.000,0.000,0.000
1640078469280994048,"2021-12-21,09:21:09",10.1.1.2,0.40713000297546387,-0.230,-0.230,-0.230,0.000,0.000,0.000
1640078469796222976,"2021-12-21,09:21:09",10.1.1.2,507,-0.220,-0.220,-0.220,0.000,0.000,0.000
1640078469812713984,"2021-12-21,09:21:09",10.1.1.2,0.5249879360198975,-0.220,-0.220,-0.220,0.000,0.000,0.000
1640078470245210880,"2021-12-21,09:21:10",10.1.1.2,430,-0.210,-0.210,-0.210,0.000,0.000,0.000
1640078470311415040,"2021-12-21,09:21:10",10.1.1.2,0.49714112281799316,-0.210,-0.210,-0.210,0.000,0.000,0.000
1640078470727226112,"2021-12-21,09:21:10",10.1.1.2,413,-0.200,-0.200,-0.200,0.000,0.000,0.000
1640078470797817856,"2021-12-21,09:21:10",10.1.1.2,0.4844839572906494,-0.200,-0.200,-0.200,0.000,0.000,0.000
1640078471203346944,"2021-12-21,09:21:11",10.1.1.2,402,-0.190,-0.190,-0.190,0.000,0.000,0.000
1640078471226586112,"2021-12-21,09:21:11",10.1.1.2,0.4257781505584717,-0.190,-0.190,-0.190,0.000,0.000,0.000
1640078471604209920,"2021-12-21,09:21:11",10.1.1.2,372,-0.180,-0.180,-0.180,0.000,0.000,0.000
1640078471631681792,"2021-12-21,09:21:11",10.1.1.2,0.39969897270202637,-0.180,-0.180,-0.180,0.000,0.000,0.000
1640078472095259904,"2021-12-21,09:21:12",10.1.1.2,0.46205997467041016,-0.170,-0.170,-0.170,0.000,0.000,0.000
1640078472448296960,"2021-12-21,09:21:12",10.1.1.2,351,-0.160,-0.160,-0.160,0.000,0.000,0.000
1640078472502404096,"2021-12-21,09:21:12",10.1.1.2,0.4053170680999756,-0.160,-0.160,-0.160,0.000,0.000,0.000
1640078472855628032,"2021-12-21,09:21:12",10.1.1.2,351,-0.150,-0.150,-0.150,0.000,0.000,0.000
1640078472873922048,"2021-12-21,09:21:12",10.1.1.2,0.3660399913787842,-0.150,-0.150,-0.150,0.000,0.000,0.000
1640078473238791936,"2021-12-21,09:21:13",10.1.1.2,363,-0.140,-0.140,-0.140,0.000,0.000,0.000
1640078473283250944,"2021-12-21,09:21:13",10.1.1.2,0.4075510501861572,-0.140,-0.140,-0.140,0.000,0.000,0.000
1640078473660340992,"2021-12-21,09:21:13",10.1.1.2,375,-0.130,-0.130,-0.130,0.000,0.000,0.000
1640078473683175168,"2021-12-21,09:21:13",10.1.1.2,0.396604061126709,-0.130,-0.130,-0.130,0.000,0.000,0.000
1640078474020625152,"2021-12-21,09:21:14",10.1.1.2,334,-0.120,-0.120,-0.120,0.000,0.000,0.000
1640078474124594944,"2021-12-21,09:21:14",10.1.1.2,0.4382619857788086,-0.120,-0.120,-0.120,0.000,0.000,0.000
1640078474611596032,"2021-12-21,09:21:14",10.1.1.2,481,-0.110,-0.110,-0.110,0.000,0.000,0.000
1640078474753752832,"2021-12-21,09:21:14",10.1.1.2,0.6231257915496826,-0.110,-0.110,-0.110,0.000,0.000,0.000
1640078475284719872,"2021-12-21,09:21:15",10.1.1.2,513,-0.100,-0.100,-0.100,0.000,0.000,0.000
1640078475359085056,"2021-12-21,09:21:15",10.1.1.2,0.5903799533843994,-0.100,-0.100,-0.100,0.000,0.000,0.000
1640078475783639040,"2021-12-21,09:21:15",10.1.1.2,389,-0.090,-0.090,-0.090,0.000,0.000,0.000
1640078475823525888,"2021-12-21,09:21:15",10.1.1.2,0.4295499324798584,-0.090,-0.090,-0.090,0.000,0.000,0.000
1640078476174695936,"2021-12-21,09:21:16",10.1.1.2,349,-0.080,-0.080,-0.080,0.000,0.000,0.000
1640078476192267776,"2021-12-21,09:21:16",10.1.1.2,0.36739492416381836,-0.080,-0.080,-0.080,0.000,0.000,0.000
1640078476505681920,"2021-12-21,09:21:16",10.1.1.2,303,-0.070,-0.070,-0.070,0.000,0.000,0.000
1640078476545730048,"2021-12-21,09:21:16",10.1.1.2,0.34363389015197754,-0.070,-0.070,-0.070,0.000,0.000,0.000
1640078476955384064,"2021-12-21,09:21:16",10.1.1.2,404,-0.060,-0.060,-0.060,0.000,0.000,0.000
1640078476991930880,"2021-12-21,09:21:16",10.1.1.2,0.441025972366333,-0.060,-0.060,-0.060,0.000,0.000,0.000
1640078477405417984,"2021-12-21,09:21:17",10.1.1.2,411,-0.050,-0.050,-0.050,0.000,0.000,0.000
1640078477454884096,"2021-12-21,09:21:17",10.1.1.2,0.46096205711364746,-0.050,-0.050,-0.050,0.000,0.000,0.000
1640078477806605056,"2021-12-21,09:21:17",10.1.1.2,350,-0.040,-0.040,-0.040,0.000,0.000,0.000
1640078477848733952,"2021-12-21,09:21:17",10.1.1.2,0.39263391494750977,-0.040,-0.040,-0.040,0.000,0.000,0.000
1640078478178011904,"2021-12-21,09:21:18",10.1.1.2,326,-0.030,-0.030,-0.030,0.000,0.000,0.000
1640078478218127104,"2021-12-21,09:21:18",10.1.1.2,0.36702680587768555,-0.030,-0.030,-0.030,0.000,0.000,0.000
1640078478579099904,"2021-12-21,09:21:18",10.1.1.2,352,-0.020,-0.020,-0.020,0.000,0.000,0.000
1640078478677409792,"2021-12-21,09:21:18",10.1.1.2,0.45084500312805176,-0.020,-0.020,-0.020,0.000,0.000,0.000
1640078479011902976,"2021-12-21,09:21:19",10.1.1.2,332,-0.010,-0.010,-0.010,0.000,0.000,0.000
1640078479059984896,"2021-12-21,09:21:19",10.1.1.2,0.38084983825683594,-0.010,-0.010,-0.010,0.000,0.000,0.000
1640078479769051904,"2021-12-21,09:21:19",10.1.1.2,704,0.000,0.000,0.000,0.000,0.000,0.000
1640078479816845824,"2021-12-21,09:21:19",10.1.1.2,0.7522718906402588,0.000,0.000,0.000,0.000,0.000,0.000
1640078480279144960,"2021-12-21,09:21:20",10.1.1.2,459,-0.010,-0.010,-0.010,0.000,0.000,0.000
1640078480350415104,"2021-12-21,09:21:20",10.1.1.2,0.5310831069946289,-0.010,-0.010,-0.010,0.000,0.000,0.000
1640078480709788160,"2021-12-21,09:21:20",10.1.1.2,357,-0.020,-0.020,-0.020,0.000,0.000,0.000
1640078480757752832,"2021-12-21,09:21:20",10.1.1.2,0.40583205223083496,-0.020,-0.020,-0.020,0.000,0.000,0.000
1640078481139878144,"2021-12-21,09:21:21",10.1.1.2,380,-0.030,-0.030,-0.030,0.000,0.000,0.000
1640078481172035072,"2021-12-21,09:21:21",10.1.1.2,0.41259288787841797,-0.030,-0.030,-0.030,0.000,0.000,0.000
1640078481580025856,"2021-12-21,09:21:21",10.1.1.2,406,-0.040,-0.040,-0.040,0.000,0.000,0.000
1640078481618145024,"2021-12-21,09:21:21",10.1.1.2,0.4442009925842285,-0.040,-0.040,-0.040,0.000,0.000,0.000
1640078482029979904,"2021-12-21,09:21:22",10.1.1.2,402,-0.050,-0.050,-0.050,0.000,0.000,0.000
1640078482067947008,"2021-12-21,09:21:22",10.1.1.2,0.4405961036682129,-0.050,-0.050,-0.050,0.000,0.000,0.000
1640078482450202112,"2021-12-21,09:21:22",10.1.1.2,380,-0.060,-0.060,-0.060,0.000,0.000,0.000
1640078482500092928,"2021-12-21,09:21:22",10.1.1.2,0.430325984954834,-0.060,-0.060,-0.060,0.000,0.000,0.000
1640078482931535872,"2021-12-21,09:21:22",10.1.1.2,426,-0.070,-0.070,-0.070,0.000,0.000,0.000
1640078482989818112,"2021-12-21,09:21:22",10.1.1.2,0.4857330322265625,-0.070,-0.070,-0.070,0.000,0.000,0.000
1640078483781580800,"2021-12-21,09:21:23",10.1.1.2,787,-0.080,-0.080,-0.080,0.000,0.000,0.000
1640078483838032128,"2021-12-21,09:21:23",10.1.1.2,0.8438990116119385,-0.080,-0.080,-0.080,0.000,0.000,0.000
1640078484282182912,"2021-12-21,09:21:24",10.1.1.2,442,-0.090,-0.090,-0.090,0.000,0.000,0.000
1640078484313648896,"2021-12-21,09:21:24",10.1.1.2,0.47419095039367676,-0.090,-0.090,-0.090,0.000,0.000,0.000
1640078484761635072,"2021-12-21,09:21:24",10.1.1.2,439,-0.100,-0.100,-0.100,0.000,0.000,0.000
1640078484783369984,"2021-12-21,09:21:24",10.1.1.2,0.46141600608825684,-0.100,-0.100,-0.100,0.000,0.000,0.000
1640078485152379136,"2021-12-21,09:21:25",10.1.1.2,359,-0.110,-0.110,-0.110,0.000,0.000,0.000
1640078485185499904,"2021-12-21,09:21:25",10.1.1.2,0.3927459716796875,-0.110,-0.110,-0.110,0.000,0.000,0.000
1640078485591826944,"2021-12-21,09:21:25",10.1.1.2,403,-0.120,-0.120,-0.120,0.000,0.000,0.000
1640078485604614912,"2021-12-21,09:21:25",10.1.1.2,0.41622495651245117,-0.120,-0.120,-0.120,0.000,0.000,0.000
1640078485991132928,"2021-12-21,09:21:25",10.1.1.2,384,-0.130,-0.130,-0.130,0.000,0.000,0.000
1640078486013530880,"2021-12-21,09:21:26",10.1.1.2,0.40743279457092285,-0.130,-0.130,-0.130,0.000,0.000,0.000
1640078486381033984,"2021-12-21,09:21:26",10.1.1.2,360,-0.140,-0.140,-0.140,0.000,0.000,0.000
1640078486428251136,"2021-12-21,09:21:26",10.1.1.2,0.41202807426452637,-0.140,-0.140,-0.140,0.000,0.000,0.000
1640078489136580864,"2021-12-21,09:21:29",10.1.1.2,2662,-0.150,-0.150,-0.150,0.000,0.000,0.000
1640078489158164992,"2021-12-21,09:21:29",10.1.1.2,2.7191860675811768,-0.150,-0.150,-0.150,0.000,0.000,0.000
1640078489675008000,"2021-12-21,09:21:29",10.1.1.2,508,-0.160,-0.160,-0.160,0.000,0.000,0.000
1640078489706778112,"2021-12-21,09:21:29",10.1.1.2,0.54398512840271,-0.160,-0.160,-0.160,0.000,0.000,0.000
1640078490089204992,"2021-12-21,09:21:30",10.1.1.2,380,-0.170,-0.170,-0.170,0.000,0.000,0.000
1640078490208549120,"2021-12-21,09:21:30",10.1.1.2,0.49972105026245117,-0.170,-0.170,-0.170,0.000,0.000,0.000
1640078490797007104,"2021-12-21,09:21:30",10.1.1.2,557,-0.180,-0.180,-0.180,0.000,0.000,0.000
1640078500810860032,"2021-12-21,09:21:30",10.1.1.2,0.7075099945068359,-0.180,-0.180,-0.180,0.000,0.000,0.000
1640078505700982016,"2021-12-21,09:21:45",10.1.1.2,4004,-0.190,-0.190,-0.190,0.000,0.000,0.000
1640078505736641792,"2021-12-21,09:21:45",10.1.1.2,4.3537280559539795,-0.190,-0.190,-0.190,0.000,0.000,0.000
1640078506056634880,"2021-12-21,09:21:46",10.1.1.2,318,-0.200,-0.200,-0.200,0.000,0.000,0.000
1640078506066402048,"2021-12-21,09:21:46",10.1.1.2,0.3285529613494873,-0.200,-0.200,-0.200,0.000,0.000,0.000
1640078506397696000,"2021-12-21,09:21:46",10.1.1.2,328,-0.210,-0.210,-0.210,0.000,0.000,0.000
1640078506421245184,"2021-12-21,09:21:46",10.1.1.2,0.35228395462036133,-0.210,-0.210,-0.210,0.000,0.000,0.000
1640078506736926976,"2021-12-21,09:21:46",10.1.1.2,313,-0.220,-0.220,-0.220,0.000,0.000,0.000
1640078506754238976,"2021-12-21,09:21:46",10.1.1.2,0.3311889171600342,-0.220,-0.220,-0.220,0.000,0.000,0.000
1640078507295766016,"2021-12-21,09:21:47",10.1.1.2,303,-0.230,-0.230,-0.230,0.000,0.000,0.000
1640078507338639872,"2021-12-21,09:21:47",10.1.1.2,0.346142053604126,-0.230,-0.230,-0.230,0.000,0.000,0.000
1640078507665124864,"2021-12-21,09:21:47",10.1.1.2,324,-0.240,-0.240,-0.240,0.000,0.000,0.000
1640078507681537024,"2021-12-21,09:21:47",10.1.1.2,0.34049320220947266,-0.240,-0.240,-0.240,0.000,0.000,0.000
1640078508644002816,"2021-12-21,09:21:48",10.1.1.2,960,-0.250,-0.250,-0.250,0.000,0.000,0.000
1640078508736243968,"2021-12-21,09:21:48",10.1.1.2,1.05259108543396,-0.250,-0.250,-0.250,0.000,0.000,0.000
1640078509092582912,"2021-12-21,09:21:49",10.1.1.2,353,-0.260,-0.260,-0.260,0.000,0.000,0.000
1640078509120282880,"2021-12-21,09:21:49",10.1.1.2,0.3811638355255127,-0.260,-0.260,-0.260,0.000,0.000,0.000
1640078511010552832,"2021-12-21,09:21:51",10.1.1.2,1888,-0.270,-0.270,-0.270,0.000,0.000,0.000
1640078511052290816,"2021-12-21,09:21:51",10.1.1.2,1.9306919574737549,-0.270,-0.270,-0.270,0.000,0.000,0.000
1640078516142302976,"2021-12-21,09:21:53",10.1.1.2,2673,-0.280,-0.280,-0.280,0.000,0.000,0.000
1640078516221144064,"2021-12-21,09:21:56",10.1.1.2,5.167026996612549,-0.280,-0.280,-0.280,0.000,0.000,0.000
1640078517023261184,"2021-12-21,09:21:57",10.1.1.2,793,-0.290,-0.290,-0.290,0.000,0.000,0.000
1640078517052005888,"2021-12-21,09:21:57",10.1.1.2,0.8227510452270508,-0.290,-0.290,-0.290,0.000,0.000,0.000
1640078524516374016,"2021-12-21,09:21:57",10.1.1.2,836,-0.300,-0.300,-0.300,0.000,0.000,0.000
1640078524779038976,"2021-12-21,09:22:04",10.1.1.2,7.7250401973724365,-0.300,-0.300,-0.300,0.000,0.000,0.000
1640078526913974016,"2021-12-21,09:22:06",10.1.1.2,1947,-0.310,-0.310,-0.310,0.000,0.000,0.000
1640078526982778112,"2021-12-21,09:22:06",10.1.1.2,2.199892044067383,-0.310,-0.310,-0.310,0.000,0.000,0.000
1640078527735486976,"2021-12-21,09:22:07",10.1.1.2,747,-0.320,-0.320,-0.320,0.000,0.000,0.000
1640078527759990016,"2021-12-21,09:22:07",10.1.1.2,0.7721700668334961,-0.320,-0.320,-0.320,0.000,0.000,0.000
1640078538064946944,"2021-12-21,09:22:08",10.1.1.2,340,-0.330,-0.330,-0.330,0.000,0.000,0.000
1640078542839724032,"2021-12-21,09:22:18",10.1.1.2,11.15610408782959,-0.330,-0.330,-0.330,0.000,0.000,0.000
1640078551412491008,"2021-12-21,09:22:26",10.1.1.2,2139,-0.340,-0.340,-0.340,0.000,0.000,0.000
1640078551839842048,"2021-12-21,09:22:31",10.1.1.2,7.2396838665008545,-0.340,-0.340,-0.340,0.000,0.000,0.000
1640078555320713984,"2021-12-21,09:22:35",10.1.1.2,3473,-0.350,-0.350,-0.350,0.000,0.000,0.000
1640078555375924992,"2021-12-21,09:22:35",10.1.1.2,3.528433084487915,-0.350,-0.350,-0.350,0.000,0.000,0.000
1640078555708656128,"2021-12-21,09:22:35",10.1.1.2,331,-0.360,-0.360,-0.360,0.000,0.000,0.000
1640078555778223104,"2021-12-21,09:22:35",10.1.1.2,0.40105199813842773,-0.360,-0.360,-0.360,0.000,0.000,0.000
1640078556158266112,"2021-12-21,09:22:36",10.1.1.2,375,-0.370,-0.370,-0.370,0.000,0.000,0.000
1640078556190043904,"2021-12-21,09:22:36",10.1.1.2,0.4073300361633301,-0.370,-0.370,-0.370,0.000,0.000,0.000
1640078556570115072,"2021-12-21,09:22:36",10.1.1.2,364,-0.380,-0.380,-0.380,0.000,0.000,0.000
1640078556636996096,"2021-12-21,09:22:36",10.1.1.2,0.4315769672393799,-0.380,-0.380,-0.380,0.000,0.000,0.000
1640078557033456128,"2021-12-21,09:22:36",10.1.1.2,350,-0.390,-0.390,-0.390,0.000,0.000,0.000
1640078557059675904,"2021-12-21,09:22:37",10.1.1.2,0.42055702209472656,-0.390,-0.390,-0.390,0.000,0.000,0.000
1640078557485960960,"2021-12-21,09:22:37",10.1.1.2,417,-0.400,-0.400,-0.400,0.000,0.000,0.000
1640078557525332992,"2021-12-21,09:22:37",10.1.1.2,0.45742106437683105,-0.400,-0.400,-0.400,0.000,0.000,0.000
1640078557896284160,"2021-12-21,09:22:37",10.1.1.2,369,-0.410,-0.410,-0.410,0.000,0.000,0.000
1640078557941911808,"2021-12-21,09:22:37",10.1.1.2,0.41474413871765137,-0.410,-0.410,-0.410,0.000,0.000,0.000
1640078558334448128,"2021-12-21,09:22:38",10.1.1.2,391,-0.420,-0.420,-0.420,0.000,0.000,0.000
1640078558350647808,"2021-12-21,09:22:38",10.1.1.2,0.40749382972717285,-0.420,-0.420,-0.420,0.000,0.000,0.000
1640078558665863936,"2021-12-21,09:22:38",10.1.1.2,312,-0.430,-0.430,-0.430,0.000,0.000,0.000
1640078558711457024,"2021-12-21,09:22:38",10.1.1.2,0.35824108123779297,-0.430,-0.430,-0.430,0.000,0.000,0.000
1640078559048780800,"2021-12-21,09:22:39",10.1.1.2,335,-0.440,-0.440,-0.440,0.000,0.000,0.000
1640078559095745024,"2021-12-21,09:22:39",10.1.1.2,0.3825721740722656,-0.440,-0.440,-0.440,0.000,0.000,0.000
1640078559463456000,"2021-12-21,09:22:39",10.1.1.2,366,-0.450,-0.450,-0.450,0.000,0.000,0.000
1640078559540101120,"2021-12-21,09:22:39",10.1.1.2,0.4410099983215332,-0.450,-0.450,-0.450,0.000,0.000,0.000
1640078559952392192,"2021-12-21,09:22:39",10.1.1.2,407,-0.460,-0.460,-0.460,0.000,0.000,0.000
1640078559959453952,"2021-12-21,09:22:39",10.1.1.2,0.4148409366607666,-0.460,-0.460,-0.460,0.000,0.000,0.000
1640078560724025856,"2021-12-21,09:22:40",10.1.1.2,760,-0.470,-0.470,-0.470,0.000,0.000,0.000
1640078560831182080,"2021-12-21,09:22:40",10.1.1.2,0.8674499988555908,-0.470,-0.470,-0.470,0.000,0.000,0.000
1640078561190084864,"2021-12-21,09:22:41",10.1.1.2,355,-0.480,-0.480,-0.480,0.000,0.000,0.000
1640078561233655808,"2021-12-21,09:22:41",10.1.1.2,0.3992598056793213,-0.480,-0.480,-0.480,0.000,0.000,0.000
1640078561728486144,"2021-12-21,09:22:41",10.1.1.2,491,-0.490,-0.490,-0.490,0.000,0.000,0.000
1640078561753809920,"2021-12-21,09:22:41",10.1.1.2,0.5169389247894287,-0.490,-0.490,-0.490,0.000,0.000,0.000
1640078562657776128,"2021-12-21,09:22:42",10.1.1.2,901,-0.480,-0.480,-0.480,0.000,0.000,0.000
1640078562710571008,"2021-12-21,09:22:42",10.1.1.2,0.9528090953826904,-0.480,-0.480,-0.480,0.000,0.000,0.000
1640078563068190976,"2021-12-21,09:22:43",10.1.1.2,356,-0.470,-0.470,-0.470,0.000,0.000,0.000
1640078563136281856,"2021-12-21,09:22:43",10.1.1.2,0.42423486709594727,-0.470,-0.470,-0.470,0.000,0.000,0.000
1640078563633374976,"2021-12-21,09:22:43",10.1.1.2,495,-0.460,-0.460,-0.460,0.000,0.000,0.000
1640078563712215808,"2021-12-21,09:22:43",10.1.1.2,0.5744011402130127,-0.460,-0.460,-0.460,0.000,0.000,0.000
1640078564244167168,"2021-12-21,09:22:44",10.1.1.2,496,-0.450,-0.450,-0.450,0.000,0.000,0.000
1640078564441345024,"2021-12-21,09:22:44",10.1.1.2,0.6938388347625732,-0.450,-0.450,-0.450,0.000,0.000,0.000
1640078564767979008,"2021-12-21,09:22:44",10.1.1.2,320,-0.440,-0.440,-0.440,0.000,0.000,0.000
1640078564812150016,"2021-12-21,09:22:44",10.1.1.2,0.36774611473083496,-0.440,-0.440,-0.440,0.000,0.000,0.000
1640078565164984064,"2021-12-21,09:22:45",10.1.1.2,350,-0.430,-0.430,-0.430,0.000,0.000,0.000
1640078565185689088,"2021-12-21,09:22:45",10.1.1.2,0.37233805656433105,-0.430,-0.430,-0.430,0.000,0.000,0.000
1640078565629451008,"2021-12-21,09:22:45",10.1.1.2,439,-0.420,-0.420,-0.420,0.000,0.000,0.000
1640078565665019904,"2021-12-21,09:22:45",10.1.1.2,0.4728090763092041,-0.420,-0.420,-0.420,0.000,0.000,0.000
1640078567135693056,"2021-12-21,09:22:46",10.1.1.2,1004,-0.410,-0.410,-0.410,0.000,0.000,0.000
1640078567176147968,"2021-12-21,09:22:47",10.1.1.2,1.5096368789672852,-0.410,-0.410,-0.410,0.000,0.000,0.000
1640078567569478912,"2021-12-21,09:22:47",10.1.1.2,390,-0.400,-0.400,-0.400,0.000,0.000,0.000
1640078567648588032,"2021-12-21,09:22:47",10.1.1.2,0.4690399169921875,-0.400,-0.400,-0.400,0.000,0.000,0.000
1640078568028295936,"2021-12-21,09:22:48",10.1.1.2,378,-0.390,-0.390,-0.390,0.000,0.000,0.000
1640078568076802048,"2021-12-21,09:22:48",10.1.1.2,0.42676496505737305,-0.390,-0.390,-0.390,0.000,0.000,0.000
1640078568621856000,"2021-12-21,09:22:48",10.1.1.2,542,-0.380,-0.380,-0.380,0.000,0.000,0.000
1640078568646287872,"2021-12-21,09:22:48",10.1.1.2,0.5670709609985352,-0.380,-0.380,-0.380,0.000,0.000,0.000
1640078568996530176,"2021-12-21,09:22:48",10.1.1.2,348,-0.370,-0.370,-0.370,0.000,0.000,0.000
1640078569041969152,"2021-12-21,09:22:49",10.1.1.2,0.3943300247192383,-0.370,-0.370,-0.370,0.000,0.000,0.000
1640078569435260160,"2021-12-21,09:22:49",10.1.1.2,390,-0.360,-0.360,-0.360,0.000,0.000,0.000
1640078569513804800,"2021-12-21,09:22:49",10.1.1.2,0.46935606002807617,-0.360,-0.360,-0.360,0.000,0.000,0.000
1640078569862906880,"2021-12-21,09:22:49",10.1.1.2,342,-0.350,-0.350,-0.350,0.000,0.000,0.000
1640078569916098048,"2021-12-21,09:22:49",10.1.1.2,0.39615702629089355,-0.350,-0.350,-0.350,0.000,0.000,0.000
1640078570740609792,"2021-12-21,09:22:50",10.1.1.2,816,-0.340,-0.340,-0.340,0.000,0.000,0.000
1640078570768058112,"2021-12-21,09:22:50",10.1.1.2,0.8442690372467041,-0.340,-0.340,-0.340,0.000,0.000,0.000
1640078574336289024,"2021-12-21,09:22:54",10.1.1.2,3566,-0.330,-0.330,-0.330,0.000,0.000,0.000
1640078574415291904,"2021-12-21,09:22:54",10.1.1.2,3.6455750465393066,-0.330,-0.330,-0.330,0.000,0.000,0.000
1640078574767577856,"2021-12-21,09:22:54",10.1.1.2,350,-0.320,-0.320,-0.320,0.000,0.000,0.000
1640078574796081152,"2021-12-21,09:22:54",10.1.1.2,0.37888002395629883,-0.320,-0.320,-0.320,0.000,0.000,0.000
1640078575691600128,"2021-12-21,09:22:55",10.1.1.2,0.8941471576690674,-0.310,-0.310,-0.310,0.000,0.000,0.000
1640078575704377856,"2021-12-21,09:22:55",10.1.1.2,907,-0.310,-0.310,-0.310,0.000,0.000,0.000
1640078576137335040,"2021-12-21,09:22:56",10.1.1.2,379,-0.300,-0.300,-0.300,0.000,0.000,0.000
1640078576216558080,"2021-12-21,09:22:56",10.1.1.2,0.4605400562286377,-0.300,-0.300,-0.300,0.000,0.000,0.000
1640078576545126912,"2021-12-21,09:22:56",10.1.1.2,324,-0.290,-0.290,-0.290,0.000,0.000,0.000
1640078576634157056,"2021-12-21,09:22:56",10.1.1.2,0.4133141040802002,-0.290,-0.290,-0.290,0.000,0.000,0.000
1640078576981985024,"2021-12-21,09:22:56",10.1.1.2,345,-0.280,-0.280,-0.280,0.000,0.000,0.000
1640078577097404928,"2021-12-21,09:22:57",10.1.1.2,0.4614269733428955,-0.280,-0.280,-0.280,0.000,0.000,0.000
1640078577440918016,"2021-12-21,09:22:57",10.1.1.2,340,-0.270,-0.270,-0.270,0.000,0.000,0.000
1640078577506260992,"2021-12-21,09:22:57",10.1.1.2,0.4061868190765381,-0.270,-0.270,-0.270,0.000,0.000,0.000
1640078577830188032,"2021-12-21,09:22:57",10.1.1.2,321,-0.260,-0.260,-0.260,0.000,0.000,0.000
1640078577900731136,"2021-12-21,09:22:57",10.1.1.2,0.392564058303833,-0.260,-0.260,-0.260,0.000,0.000,0.000
1640078578256715008,"2021-12-21,09:22:58",10.1.1.2,354,-0.250,-0.250,-0.250,0.000,0.000,0.000
1640078578315859200,"2021-12-21,09:22:58",10.1.1.2,0.41320300102233887,-0.250,-0.250,-0.250,0.000,0.000,0.000
1640078578729190144,"2021-12-21,09:22:58",10.1.1.2,409,-0.240,-0.240,-0.240,0.000,0.000,0.000
1640078578747373056,"2021-12-21,09:22:58",10.1.1.2,0.42794084548950195,-0.240,-0.240,-0.240,0.000,0.000,0.000
1640078579130589952,"2021-12-21,09:22:59",10.1.1.2,381,-0.230,-0.230,-0.230,0.000,0.000,0.000
1640078579177440768,"2021-12-21,09:22:59",10.1.1.2,0.42815208435058594,-0.230,-0.230,-0.230,0.000,0.000,0.000
1640078579538616064,"2021-12-21,09:22:59",10.1.1.2,358,-0.220,-0.220,-0.220,0.000,0.000,0.000
1640078579597050880,"2021-12-21,09:22:59",10.1.1.2,0.4174160957336426,-0.220,-0.220,-0.220,0.000,0.000,0.000
1640078579977384960,"2021-12-21,09:22:59",10.1.1.2,378,-0.210,-0.210,-0.210,0.000,0.000,0.000
1640078580007478016,"2021-12-21,09:23:00",10.1.1.2,0.409135103225708,-0.210,-0.210,-0.210,0.000,0.000,0.000
1640078580359333120,"2021-12-21,09:23:00",10.1.1.2,350,-0.200,-0.200,-0.200,0.000,0.000,0.000
1640078580445574144,"2021-12-21,09:23:00",10.1.1.2,0.43659305572509766,-0.200,-0.200,-0.200,0.000,0.000,0.000
1640078581528220928,"2021-12-21,09:23:00",10.1.1.2,308,-0.190,-0.190,-0.190,0.000,0.000,0.000
1640078581550120960,"2021-12-21,09:23:01",10.1.1.2,1.1011159420013428,-0.190,-0.190,-0.190,0.000,0.000,0.000
1640078581913537024,"2021-12-21,09:23:01",10.1.1.2,359,-0.180,-0.180,-0.180,0.000,0.000,0.000
1640078581961167104,"2021-12-21,09:23:01",10.1.1.2,0.4073631763458252,-0.180,-0.180,-0.180,0.000,0.000,0.000
1640078582272627200,"2021-12-21,09:23:02",10.1.1.2,310,-0.170,-0.170,-0.170,0.000,0.000,0.000
1640078582306873088,"2021-12-21,09:23:02",10.1.1.2,0.34424614906311035,-0.170,-0.170,-0.170,0.000,0.000,0.000
1640078582642260992,"2021-12-21,09:23:02",10.1.1.2,332,-0.160,-0.160,-0.160,0.000,0.000,0.000
1640078582664707840,"2021-12-21,09:23:02",10.1.1.2,0.35501599311828613,-0.160,-0.160,-0.160,0.000,0.000,0.000
1640078582982225920,"2021-12-21,09:23:02",10.1.1.2,315,-0.150,-0.150,-0.150,0.000,0.000,0.000
1640078583033150976,"2021-12-21,09:23:03",10.1.1.2,0.3664379119873047,-0.150,-0.150,-0.150,0.000,0.000,0.000
1640078583371510016,"2021-12-21,09:23:03",10.1.1.2,334,-0.140,-0.140,-0.140,0.000,0.000,0.000
1640078583400791808,"2021-12-21,09:23:03",10.1.1.2,0.3637571334838867,-0.140,-0.140,-0.140,0.000,0.000,0.000
1640078583801212928,"2021-12-21,09:23:03",10.1.1.2,398,-0.130,-0.130,-0.130,0.000,0.000,0.000
1640078583816354048,"2021-12-21,09:23:03",10.1.1.2,0.4138181209564209,-0.130,-0.130,-0.130,0.000,0.000,0.000
1640078584181047040,"2021-12-21,09:23:04",10.1.1.2,362,-0.120,-0.120,-0.120,0.000,0.000,0.000
1640078584196747008,"2021-12-21,09:23:04",10.1.1.2,0.37903690338134766,-0.120,-0.120,-0.120,0.000,0.000,0.000
1640078584628813056,"2021-12-21,09:23:04",10.1.1.2,427,-0.110,-0.110,-0.110,0.000,0.000,0.000
1640078584675853056,"2021-12-21,09:23:04",10.1.1.2,0.47490715980529785,-0.110,-0.110,-0.110,0.000,0.000,0.000
1640078584998880000,"2021-12-21,09:23:04",10.1.1.2,313,-0.100,-0.100,-0.100,0.000,0.000,0.000
1640078585066704128,"2021-12-21,09:23:05",10.1.1.2,0.38141703605651855,-0.100,-0.100,-0.100,0.000,0.000,0.000
1640078585427826944,"2021-12-21,09:23:05",10.1.1.2,359,-0.090,-0.090,-0.090,0.000,0.000,0.000
1640078585448302080,"2021-12-21,09:23:05",10.1.1.2,0.38022303581237793,-0.090,-0.090,-0.090,0.000,0.000,0.000
1640078585797591808,"2021-12-21,09:23:05",10.1.1.2,344,-0.080,-0.080,-0.080,0.000,0.000,0.000
1640078585851959040,"2021-12-21,09:23:05",10.1.1.2,0.3994300365447998,-0.080,-0.080,-0.080,0.000,0.000,0.000
1640078586175666944,"2021-12-21,09:23:06",10.1.1.2,322,-0.070,-0.070,-0.070,0.000,0.000,0.000
1640078586242682880,"2021-12-21,09:23:06",10.1.1.2,0.3892691135406494,-0.070,-0.070,-0.070,0.000,0.000,0.000
1640078586605287168,"2021-12-21,09:23:06",10.1.1.2,361,-0.060,-0.060,-0.060,0.000,0.000,0.000
1640078586687974912,"2021-12-21,09:23:06",10.1.1.2,0.4439229965209961,-0.060,-0.060,-0.060,0.000,0.000,0.000
1640078586995488000,"2021-12-21,09:23:06",10.1.1.2,305,-0.050,-0.050,-0.050,0.000,0.000,0.000
1640078587042174208,"2021-12-21,09:23:07",10.1.1.2,0.35245585441589355,-0.050,-0.050,-0.050,0.000,0.000,0.000
1640078587374184960,"2021-12-21,09:23:07",10.1.1.2,329,-0.040,-0.040,-0.040,0.000,0.000,0.000
1640078587439315200,"2021-12-21,09:23:07",10.1.1.2,0.39508795738220215,-0.040,-0.040,-0.040,0.000,0.000,0.000
1640078587733206016,"2021-12-21,09:23:07",10.1.1.2,292,-0.030,-0.030,-0.030,0.000,0.000,0.000
1640078587777619968,"2021-12-21,09:23:07",10.1.1.2,0.3365910053253174,-0.030,-0.030,-0.030,0.000,0.000,0.000
1640078588083276032,"2021-12-21,09:23:08",10.1.1.2,304,-0.020,-0.020,-0.020,0.000,0.000,0.000
1640078588143311872,"2021-12-21,09:23:08",10.1.1.2,0.3643009662628174,-0.020,-0.020,-0.020,0.000,0.000,0.000
1640078588535171072,"2021-12-21,09:23:08",10.1.1.2,389,-0.010,-0.010,-0.010,0.000,0.000,0.000
1640078588547841024,"2021-12-21,09:23:08",10.1.1.2,0.40287280082702637,-0.010,-0.010,-0.010,0.000,0.000,0.000
1640078588883412992,"2021-12-21,09:23:08",10.1.1.2,333,0.000,0.000,0.000,0.000,0.000,0.000
1640078588898899200,"2021-12-21,09:23:08",10.1.1.2,0.349092960357666,0.000,0.000,0.000,0.000,0.000,0.000
1640078590907526144,"2021-12-21,09:23:09",10.1.1.2,0.3813049793243408,-0.010,-0.010,-0.010,0.000,0.000,0.000
1640078597881349120,"2021-12-21,09:23:14",10.1.1.2,5645,-0.010,-0.010,-0.010,0.000,0.000,0.000
1640078606521846016,"2021-12-21,09:23:19",10.1.1.2,1459,-0.020,-0.020,-0.020,0.000,0.000,0.000
1640078607308304128,"2021-12-21,09:23:27",10.1.1.2,9.284919023513794,-0.020,-0.020,-0.020,0.000,0.000,0.000
1640079373744334080,"2021-12-21,09:36:12",10.1.1.2,764.7022938728333,-0.030,-0.030,-0.030,0.000,0.000,0.000
1640079383128467200,"2021-12-21,09:36:21",10.1.1.2,7.0406670570373535,-0.040,-0.040,-0.040,0.000,0.000,0.000
1640079394332372992,"2021-12-21,09:36:31",10.1.1.2,8.091223955154419,-0.050,-0.050,-0.050,0.000,0.000,0.000
1640079395549201920,"2021-12-21,09:36:35",10.1.1.2,0.8656718730926514,-0.060,-0.060,-0.060,0.000,0.000,0.000
1640079399776567808,"2021-12-21,09:36:37",10.1.1.2,1.6115920543670654,-0.070,-0.070,-0.070,0.000,0.000,0.000
1640079407066404096,"2021-12-21,09:36:43",10.1.1.2,3.739377975463867,-0.080,-0.080,-0.080,0.000,0.000,0.000
1640079421453644032,"2021-12-21,09:36:59",10.1.1.2,10.697114944458008,-0.090,-0.090,-0.090,0.000,0.000,0.000
1640079436295383040,"2021-12-21,09:37:14",10.1.1.2,12.452245950698853,-0.100,-0.100,-0.100,0.000,0.000,0.000
1640079440642105088,"2021-12-21,09:37:19",10.1.1.2,2.265458822250366,-0.110,-0.110,-0.110,0.000,0.000,0.000
1640079450910331136,"2021-12-21,09:37:29",10.1.1.2,8.528709888458252,-0.120,-0.120,-0.120,0.000,0.000,0.000
1640079460220722944,"2021-12-21,09:37:38",10.1.1.2,7.779825925827026,-0.130,-0.130,-0.130,0.000,0.000,0.000
1640079477376452864,"2021-12-21,09:37:54",10.1.1.2,13.276615142822266,-0.140,-0.140,-0.140,0.000,0.000,0.000
1640079503925874944,"2021-12-21,09:38:12",10.1.1.2,12.981465101242065,-0.150,-0.150,-0.150,0.000,0.000,0.000
1640079510150672896,"2021-12-21,09:38:26",10.1.1.2,2.0545260906219482,-0.160,-0.160,-0.160,0.000,0.000,0.000
1640079527557938176,"2021-12-21,09:38:47",10.1.1.2,16.95732593536377,-0.170,-0.170,-0.170,0.000,0.000,0.000
1640079528697124864,"2021-12-21,09:38:48",10.1.1.2,1137,-0.180,-0.180,-0.180,0.000,0.000,0.000
1640079528800600064,"2021-12-21,09:38:48",10.1.1.2,1.2410321235656738,-0.180,-0.180,-0.180,0.000,0.000,0.000
1640079529616084224,"2021-12-21,09:38:49",10.1.1.2,800,-0.190,-0.190,-0.190,0.000,0.000,0.000
1640079529765244928,"2021-12-21,09:38:49",10.1.1.2,0.9496121406555176,-0.190,-0.190,-0.190,0.000,0.000,0.000
1640079530711843072,"2021-12-21,09:38:50",10.1.1.2,928,-0.200,-0.200,-0.200,0.000,0.000,0.000
1640079530881037824,"2021-12-21,09:38:50",10.1.1.2,1.0978219509124756,-0.200,-0.200,-0.200,0.000,0.000,0.000
1640079531865227008,"2021-12-21,09:38:51",10.1.1.2,938,-0.210,-0.210,-0.210,0.000,0.000,0.000
1640079532270848000,"2021-12-21,09:38:52",10.1.1.2,1.3467071056365967,-0.210,-0.210,-0.210,0.000,0.000,0.000
1640079533012401152,"2021-12-21,09:38:53",10.1.1.2,724,-0.220,-0.220,-0.220,0.000,0.000,0.000
1640079533139655168,"2021-12-21,09:38:53",10.1.1.2,0.8521311283111572,-0.220,-0.220,-0.220,0.000,0.000,0.000
1640079533766675968,"2021-12-21,09:38:53",10.1.1.2,609,-0.230,-0.230,-0.230,0.000,0.000,0.000
1640079533943741184,"2021-12-21,09:38:53",10.1.1.2,0.7869868278503418,-0.230,-0.230,-0.230,0.000,0.000,0.000
1640079535363347968,"2021-12-21,09:38:55",10.1.1.2,1399,-0.240,-0.240,-0.240,0.000,0.000,0.000
1640079535538579968,"2021-12-21,09:38:55",10.1.1.2,1.5748569965362549,-0.240,-0.240,-0.240,0.000,0.000,0.000
1640079536994467072,"2021-12-21,09:38:56",10.1.1.2,1189,-0.250,-0.250,-0.250,0.000,0.000,0.000
1640079537055619072,"2021-12-21,09:38:57",10.1.1.2,1.4561800956726074,-0.250,-0.250,-0.250,0.000,0.000,0.000
1640079537832973056,"2021-12-21,09:38:57",10.1.1.2,0.7760260105133057,-0.260,-0.260,-0.260,0.000,0.000,0.000
1640079537782663168,"2021-12-21,09:38:57",10.1.1.2,725,-0.260,-0.260,-0.260,0.000,0.000,0.000
1640079538665560064,"2021-12-21,09:38:58",10.1.1.2,0.7194910049438477,-0.270,-0.270,-0.270,0.000,0.000,0.000
1640079538666029824,"2021-12-21,09:38:58",10.1.1.2,720,-0.270,-0.270,-0.270,0.000,0.000,0.000
1640079539560708096,"2021-12-21,09:38:59",10.1.1.2,864,-0.280,-0.280,-0.280,0.000,0.000,0.000
1640079539625726976,"2021-12-21,09:38:59",10.1.1.2,0.9464619159698486,-0.280,-0.280,-0.280,0.000,0.000,0.000
1640079540221342976,"2021-12-21,09:39:00",10.1.1.2,590,-0.290,-0.290,-0.290,0.000,0.000,0.000
1640079540314755840,"2021-12-21,09:39:00",10.1.1.2,0.6841449737548828,-0.290,-0.290,-0.290,0.000,0.000,0.000
1640079541279427072,"2021-12-21,09:39:01",10.1.1.2,0.9357600212097168,-0.300,-0.300,-0.300,0.000,0.000,0.000
1640079541989416960,"2021-12-21,09:39:01",10.1.1.2,692,-0.310,-0.310,-0.310,0.000,0.000,0.000
1640079542045014016,"2021-12-21,09:39:02",10.1.1.2,0.7482290267944336,-0.310,-0.310,-0.310,0.000,0.000,0.000
1640079542824513792,"2021-12-21,09:39:02",10.1.1.2,759,-0.320,-0.320,-0.320,0.000,0.000,0.000
1640079543081360128,"2021-12-21,09:39:03",10.1.1.2,1.018369197845459,-0.320,-0.320,-0.320,0.000,0.000,0.000
1640079543752176896,"2021-12-21,09:39:03",10.1.1.2,650,-0.330,-0.330,-0.330,0.000,0.000,0.000
1640079543984206080,"2021-12-21,09:39:03",10.1.1.2,0.8823909759521484,-0.330,-0.330,-0.330,0.000,0.000,0.000
1640079544637232896,"2021-12-21,09:39:04",10.1.1.2,643,-0.340,-0.340,-0.340,0.000,0.000,0.000
1640079545038029824,"2021-12-21,09:39:05",10.1.1.2,1.0445640087127686,-0.340,-0.340,-0.340,0.000,0.000,0.000
1640079545953840896,"2021-12-21,09:39:05",10.1.1.2,904,-0.350,-0.350,-0.350,0.000,0.000,0.000
1640079546024219904,"2021-12-21,09:39:06",10.1.1.2,0.9753360748291016,-0.350,-0.350,-0.350,0.000,0.000,0.000
1640079547781053952,"2021-12-21,09:39:07",10.1.1.2,1726,-0.360,-0.360,-0.360,0.000,0.000,0.000
1640079548014540032,"2021-12-21,09:39:08",10.1.1.2,1.9603309631347656,-0.360,-0.360,-0.360,0.000,0.000,0.000
1640079549159787776,"2021-12-21,09:39:09",10.1.1.2,1115,-0.370,-0.370,-0.370,0.000,0.000,0.000
1640079549334839040,"2021-12-21,09:39:09",10.1.1.2,1.2909698486328125,-0.370,-0.370,-0.370,0.000,0.000,0.000
1640079550159825920,"2021-12-21,09:39:10",10.1.1.2,799,-0.380,-0.380,-0.380,0.000,0.000,0.000
1640079550267222016,"2021-12-21,09:39:10",10.1.1.2,0.9008841514587402,-0.380,-0.380,-0.380,0.000,0.000,0.000
1640079551050166016,"2021-12-21,09:39:11",10.1.1.2,720,-0.390,-0.390,-0.390,0.000,0.000,0.000
1640079551087235072,"2021-12-21,09:39:11",10.1.1.2,0.757943868637085,-0.390,-0.390,-0.390,0.000,0.000,0.000
1640079551820357120,"2021-12-21,09:39:11",10.1.1.2,707,-0.400,-0.400,-0.400,0.000,0.000,0.000
1640079552020325888,"2021-12-21,09:39:12",10.1.1.2,0.9070899486541748,-0.400,-0.400,-0.400,0.000,0.000,0.000
1640079552648206080,"2021-12-21,09:39:12",10.1.1.2,603,-0.410,-0.410,-0.410,0.000,0.000,0.000
1640079552909997824,"2021-12-21,09:39:12",10.1.1.2,0.8656389713287354,-0.410,-0.410,-0.410,0.000,0.000,0.000
1640079553786362880,"2021-12-21,09:39:13",10.1.1.2,0.8598611354827881,-0.420,-0.420,-0.420,0.000,0.000,0.000
1640079554755309056,"2021-12-21,09:39:14",10.1.1.2,962,-0.430,-0.430,-0.430,0.000,0.000,0.000
1640079554793112064,"2021-12-21,09:39:14",10.1.1.2,1.0007131099700928,-0.430,-0.430,-0.430,0.000,0.000,0.000
1640079555423016192,"2021-12-21,09:39:15",10.1.1.2,627,-0.440,-0.440,-0.440,0.000,0.000,0.000
1640079555541107968,"2021-12-21,09:39:15",10.1.1.2,0.7459249496459961,-0.440,-0.440,-0.440,0.000,0.000,0.000
1640079556400764928,"2021-12-21,09:39:16",10.1.1.2,782,-0.450,-0.450,-0.450,0.000,0.000,0.000
1640079556485341184,"2021-12-21,09:39:16",10.1.1.2,0.8690359592437744,-0.450,-0.450,-0.450,0.000,0.000,0.000
1640079557124667904,"2021-12-21,09:39:17",10.1.1.2,637,-0.460,-0.460,-0.460,0.000,0.000,0.000
1640079557261917952,"2021-12-21,09:39:17",10.1.1.2,0.7746391296386719,-0.460,-0.460,-0.460,0.000,0.000,0.000
1640079557800372992,"2021-12-21,09:39:17",10.1.1.2,526,-0.470,-0.470,-0.470,0.000,0.000,0.000
1640079558051654144,"2021-12-21,09:39:18",10.1.1.2,0.7782862186431885,-0.470,-0.470,-0.470,0.000,0.000,0.000
1640079558976676096,"2021-12-21,09:39:18",10.1.1.2,899,-0.480,-0.480,-0.480,0.000,0.000,0.000
1640079559287623936,"2021-12-21,09:39:19",10.1.1.2,1.210197925567627,-0.480,-0.480,-0.480,0.000,0.000,0.000
1640079560157492992,"2021-12-21,09:39:20",10.1.1.2,786,-0.490,-0.490,-0.490,0.000,0.000,0.000
1640079560522528768,"2021-12-21,09:39:20",10.1.1.2,1.1516540050506592,-0.490,-0.490,-0.490,0.000,0.000,0.000
1640079561080577024,"2021-12-21,09:39:21",10.1.1.2,554,-0.480,-0.480,-0.480,0.000,0.000,0.000
1640079561217329152,"2021-12-21,09:39:21",10.1.1.2,0.673321008682251,-0.480,-0.480,-0.480,0.000,0.000,0.000
1640079562047296000,"2021-12-21,09:39:22",10.1.1.2,820,-0.470,-0.470,-0.470,0.000,0.000,0.000
1640079562158260992,"2021-12-21,09:39:22",10.1.1.2,0.9313158988952637,-0.470,-0.470,-0.470,0.000,0.000,0.000
1640079562802952960,"2021-12-21,09:39:22",10.1.1.2,626,-0.460,-0.460,-0.460,0.000,0.000,0.000
1640079563042560000,"2021-12-21,09:39:23",10.1.1.2,0.8663740158081055,-0.460,-0.460,-0.460,0.000,0.000,0.000
1640079563696947968,"2021-12-21,09:39:23",10.1.1.2,641,-0.450,-0.450,-0.450,0.000,0.000,0.000
1640079564033276928,"2021-12-21,09:39:24",10.1.1.2,0.9777560234069824,-0.450,-0.450,-0.450,0.000,0.000,0.000
1640079564640648960,"2021-12-21,09:39:24",10.1.1.2,580,-0.440,-0.440,-0.440,0.000,0.000,0.000
1640079564821233152,"2021-12-21,09:39:24",10.1.1.2,0.7507290840148926,-0.440,-0.440,-0.440,0.000,0.000,0.000
1640079565433396992,"2021-12-21,09:39:25",10.1.1.2,592,-0.430,-0.430,-0.430,0.000,0.000,0.000
1640079565635580928,"2021-12-21,09:39:25",10.1.1.2,0.7982020378112793,-0.430,-0.430,-0.430,0.000,0.000,0.000
1640079566266432000,"2021-12-21,09:39:26",10.1.1.2,610,-0.420,-0.420,-0.420,0.000,0.000,0.000
1640079566491944192,"2021-12-21,09:39:26",10.1.1.2,0.8365521430969238,-0.420,-0.420,-0.420,0.000,0.000,0.000
1640079567200172032,"2021-12-21,09:39:27",10.1.1.2,648,-0.410,-0.410,-0.410,0.000,0.000,0.000
1640079567343964160,"2021-12-21,09:39:27",10.1.1.2,0.7924301624298096,-0.410,-0.410,-0.410,0.000,0.000,0.000
1640079567931981056,"2021-12-21,09:39:27",10.1.1.2,585,-0.400,-0.400,-0.400,0.000,0.000,0.000
1640079567983171840,"2021-12-21,09:39:27",10.1.1.2,0.6355400085449219,-0.400,-0.400,-0.400,0.000,0.000,0.000
1640079568509145088,"2021-12-21,09:39:28",10.1.1.2,496,-0.390,-0.390,-0.390,0.000,0.000,0.000
1640079568724022016,"2021-12-21,09:39:28",10.1.1.2,0.7284340858459473,-0.390,-0.390,-0.390,0.000,0.000,0.000
1640079569373581824,"2021-12-21,09:39:29",10.1.1.2,638,-0.380,-0.380,-0.380,0.000,0.000,0.000
1640079569537496064,"2021-12-21,09:39:29",10.1.1.2,0.7885880470275879,-0.380,-0.380,-0.380,0.000,0.000,0.000
1640079570018552064,"2021-12-21,09:39:30",10.1.1.2,467,-0.370,-0.370,-0.370,0.000,0.000,0.000
1640079570141549056,"2021-12-21,09:39:30",10.1.1.2,0.594249963760376,-0.370,-0.370,-0.370,0.000,0.000,0.000
1640079570862077952,"2021-12-21,09:39:30",10.1.1.2,714,-0.360,-0.360,-0.360,0.000,0.000,0.000
1640079571052614912,"2021-12-21,09:39:31",10.1.1.2,0.9051599502563477,-0.360,-0.360,-0.360,0.000,0.000,0.000
1640079571888394240,"2021-12-21,09:39:31",10.1.1.2,831,-0.350,-0.350,-0.350,0.000,0.000,0.000
1640079572083619072,"2021-12-21,09:39:32",10.1.1.2,1.0270040035247803,-0.350,-0.350,-0.350,0.000,0.000,0.000
1640079572894961152,"2021-12-21,09:39:32",10.1.1.2,647,-0.340,-0.340,-0.340,0.000,0.000,0.000
1640079572951986944,"2021-12-21,09:39:32",10.1.1.2,0.7384989261627197,-0.340,-0.340,-0.340,0.000,0.000,0.000
1640079573521790976,"2021-12-21,09:39:33",10.1.1.2,568,-0.330,-0.330,-0.330,0.000,0.000,0.000
1640079573684459008,"2021-12-21,09:39:33",10.1.1.2,0.7311019897460938,-0.330,-0.330,-0.330,0.000,0.000,0.000
1640079574543083008,"2021-12-21,09:39:34",10.1.1.2,857,-0.320,-0.320,-0.320,0.000,0.000,0.000
1640079574637378816,"2021-12-21,09:39:34",10.1.1.2,0.9515271186828613,-0.320,-0.320,-0.320,0.000,0.000,0.000
1640079574640919040,"2021-12-21,09:39:34",10.1.1.2,-1,-0.310,-0.310,-0.310,0.000,0.000,0.000
1640079575356750080,"2021-12-21,09:39:35",10.1.1.2,0.7180290222167969,-0.310,-0.310,-0.310,0.000,0.000,0.000
1640079576109901824,"2021-12-21,09:39:36",10.1.1.2,646,-0.300,-0.300,-0.300,0.000,0.000,0.000
1640079576204487936,"2021-12-21,09:39:36",10.1.1.2,0.7740719318389893,-0.300,-0.300,-0.300,0.000,0.000,0.000
1640079576903105024,"2021-12-21,09:39:36",10.1.1.2,689,-0.290,-0.290,-0.290,0.000,0.000,0.000
1640079577018065920,"2021-12-21,09:39:37",10.1.1.2,0.8050150871276855,-0.290,-0.290,-0.290,0.000,0.000,0.000
1640079577544635904,"2021-12-21,09:39:37",10.1.1.2,516,-0.280,-0.280,-0.280,0.000,0.000,0.000
1640079577727570944,"2021-12-21,09:39:37",10.1.1.2,0.7000958919525146,-0.280,-0.280,-0.280,0.000,0.000,0.000
1640079578822061056,"2021-12-21,09:39:38",10.1.1.2,1092,-0.270,-0.270,-0.270,0.000,0.000,0.000
1640079578994771968,"2021-12-21,09:39:38",10.1.1.2,1.2655930519104004,-0.270,-0.270,-0.270,0.000,0.000,0.000
1640079579135592960,"2021-12-21,09:39:39",10.1.1.2,-1,-0.260,-0.260,-0.260,0.000,0.000,0.000
1640079579864558848,"2021-12-21,09:39:39",10.1.1.2,0.8460879325866699,-0.260,-0.260,-0.260,0.000,0.000,0.000
1640079580508560896,"2021-12-21,09:39:40",10.1.1.2,619,-0.250,-0.250,-0.250,0.000,0.000,0.000
1640079580647707904,"2021-12-21,09:39:40",10.1.1.2,0.758432149887085,-0.250,-0.250,-0.250,0.000,0.000,0.000
1640079581537185792,"2021-12-21,09:39:41",10.1.1.2,832,-0.240,-0.240,-0.240,0.000,0.000,0.000
1640079581713735168,"2021-12-21,09:39:41",10.1.1.2,1.0088269710540771,-0.240,-0.240,-0.240,0.000,0.000,0.000
1640079582500608000,"2021-12-21,09:39:42",10.1.1.2,746,-0.230,-0.230,-0.230,0.000,0.000,0.000
1640079582784449024,"2021-12-21,09:39:42",10.1.1.2,1.0480718612670898,-0.230,-0.230,-0.230,0.000,0.000,0.000
1640079583617537024,"2021-12-21,09:39:43",10.1.1.2,786,-0.220,-0.220,-0.220,0.000,0.000,0.000
1640079583956356096,"2021-12-21,09:39:43",10.1.1.2,1.1256861686706543,-0.220,-0.220,-0.220,0.000,0.000,0.000
1640079584544377088,"2021-12-21,09:39:44",10.1.1.2,576,-0.210,-0.210,-0.210,0.000,0.000,0.000
1640079584936760064,"2021-12-21,09:39:44",10.1.1.2,0.9714231491088867,-0.210,-0.210,-0.210,0.000,0.000,0.000
1640079585557521152,"2021-12-21,09:39:45",10.1.1.2,618,-0.200,-0.200,-0.200,0.000,0.000,0.000
1640079585725070848,"2021-12-21,09:39:45",10.1.1.2,0.7864210605621338,-0.200,-0.200,-0.200,0.000,0.000,0.000
1640079586529465856,"2021-12-21,09:39:46",10.1.1.2,788,-0.190,-0.190,-0.190,0.000,0.000,0.000
1640079586651181824,"2021-12-21,09:39:46",10.1.1.2,0.9097139835357666,-0.190,-0.190,-0.190,0.000,0.000,0.000
1640079587437356032,"2021-12-21,09:39:47",10.1.1.2,782,-0.180,-0.180,-0.180,0.000,0.000,0.000
1640079587573684992,"2021-12-21,09:39:47",10.1.1.2,0.9193658828735352,-0.180,-0.180,-0.180,0.000,0.000,0.000
1640079588490864128,"2021-12-21,09:39:48",10.1.1.2,912,-0.170,-0.170,-0.170,0.000,0.000,0.000
1640079588511090944,"2021-12-21,09:39:48",10.1.1.2,0.9192829132080078,-0.170,-0.170,-0.170,0.000,0.000,0.000
1640079589135046912,"2021-12-21,09:39:49",10.1.1.2,582,-0.160,-0.160,-0.160,0.000,0.000,0.000
1640079589196218880,"2021-12-21,09:39:49",10.1.1.2,0.6546270847320557,-0.160,-0.160,-0.160,0.000,0.000,0.000
1640079590013107968,"2021-12-21,09:39:50",10.1.1.2,801,-0.150,-0.150,-0.150,0.000,0.000,0.000
1640079590073084160,"2021-12-21,09:39:50",10.1.1.2,0.8614809513092041,-0.150,-0.150,-0.150,0.000,0.000,0.000
1640079590776299008,"2021-12-21,09:39:50",10.1.1.2,675,-0.140,-0.140,-0.140,0.000,0.000,0.000
1640079590895553024,"2021-12-21,09:39:50",10.1.1.2,0.7947390079498291,-0.140,-0.140,-0.140,0.000,0.000,0.000
1640079591592392960,"2021-12-21,09:39:51",10.1.1.2,650,-0.130,-0.130,-0.130,0.000,0.000,0.000
1640079591761181184,"2021-12-21,09:39:51",10.1.1.2,0.8188509941101074,-0.130,-0.130,-0.130,0.000,0.000,0.000
1640079592365762048,"2021-12-21,09:39:52",10.1.1.2,584,-0.120,-0.120,-0.120,0.000,0.000,0.000
1640079592473484032,"2021-12-21,09:39:52",10.1.1.2,0.6925928592681885,-0.120,-0.120,-0.120,0.000,0.000,0.000
1640079593080115968,"2021-12-21,09:39:53",10.1.1.2,0.5915539264678955,-0.110,-0.110,-0.110,0.000,0.000,0.000
1640079593067732992,"2021-12-21,09:39:53",10.1.1.2,566,-0.110,-0.110,-0.110,0.000,0.000,0.000
1640079593745547008,"2021-12-21,09:39:53",10.1.1.2,663,-0.100,-0.100,-0.100,0.000,0.000,0.000
1640079593871516928,"2021-12-21,09:39:53",10.1.1.2,0.78985595703125,-0.100,-0.100,-0.100,0.000,0.000,0.000
1640079594401664000,"2021-12-21,09:39:54",10.1.1.2,521,-0.090,-0.090,-0.090,0.000,0.000,0.000
1640079594583431936,"2021-12-21,09:39:54",10.1.1.2,0.7053520679473877,-0.090,-0.090,-0.090,0.000,0.000,0.000
1640079595306004992,"2021-12-21,09:39:55",10.1.1.2,702,-0.080,-0.080,-0.080,0.000,0.000,0.000
1640079595452519936,"2021-12-21,09:39:55",10.1.1.2,0.8492209911346436,-0.080,-0.080,-0.080,0.000,0.000,0.000
1640079595998432000,"2021-12-21,09:39:55",10.1.1.2,541,-0.070,-0.070,-0.070,0.000,0.000,0.000
1640079596085896960,"2021-12-21,09:39:56",10.1.1.2,0.6285340785980225,-0.070,-0.070,-0.070,0.000,0.000,0.000
1640079596102144000,"2021-12-21,09:39:56",10.1.1.2,-14,-0.060,-0.060,-0.060,0.000,0.000,0.000
1640079597108654080,"2021-12-21,09:39:57",10.1.1.2,1.0081720352172852,-0.060,-0.060,-0.060,0.000,0.000,0.000
1640079597741675008,"2021-12-21,09:39:57",10.1.1.2,610,-0.050,-0.050,-0.050,0.000,0.000,0.000
1640079597936083968,"2021-12-21,09:39:57",10.1.1.2,0.8082370758056641,-0.050,-0.050,-0.050,0.000,0.000,0.000
1640079598604937984,"2021-12-21,09:39:58",10.1.1.2,638,-0.040,-0.040,-0.040,0.000,0.000,0.000
1640079598723352064,"2021-12-21,09:39:58",10.1.1.2,0.7573118209838867,-0.040,-0.040,-0.040,0.000,0.000,0.000
1640079599335900160,"2021-12-21,09:39:59",10.1.1.2,606,-0.030,-0.030,-0.030,0.000,0.000,0.000
1640079599518703872,"2021-12-21,09:39:59",10.1.1.2,0.7896571159362793,-0.030,-0.030,-0.030,0.000,0.000,0.000
1640079600293911040,"2021-12-21,09:40:00",10.1.1.2,705,-0.020,-0.020,-0.020,0.000,0.000,0.000
1640079600452105984,"2021-12-21,09:40:00",10.1.1.2,0.8643739223480225,-0.020,-0.020,-0.020,0.000,0.000,0.000
1640079601040384000,"2021-12-21,09:40:01",10.1.1.2,586,-0.010,-0.010,-0.010,0.000,0.000,0.000
1640079601198776064,"2021-12-21,09:40:01",10.1.1.2,0.7452130317687988,-0.010,-0.010,-0.010,0.000,0.000,0.000
1640079601782539008,"2021-12-21,09:40:01",10.1.1.2,552,0.000,0.000,0.000,0.000,0.000,0.000
1640079601873384960,"2021-12-21,09:40:01",10.1.1.2,0.6445598602294922,0.000,0.000,0.000,0.000,0.000,0.000
1640079602568882944,"2021-12-21,09:40:02",10.1.1.2,441,-0.010,-0.010,-0.010,0.000,0.000,0.000
1640079602995377152,"2021-12-21,09:40:02",10.1.1.2,0.8679859638214111,-0.010,-0.010,-0.010,0.000,0.000,0.000
1640079603550400000,"2021-12-21,09:40:03",10.1.1.2,490,-0.020,-0.020,-0.020,0.000,0.000,0.000
1640079603761636096,"2021-12-21,09:40:03",10.1.1.2,0.702009916305542,-0.020,-0.020,-0.020,0.000,0.000,0.000
1640079604439264000,"2021-12-21,09:40:04",10.1.1.2,666,-0.030,-0.030,-0.030,0.000,0.000,0.000
1640079604576435968,"2021-12-21,09:40:04",10.1.1.2,0.8127920627593994,-0.030,-0.030,-0.030,0.000,0.000,0.000
1640079605342420224,"2021-12-21,09:40:05",10.1.1.2,708,-0.040,-0.040,-0.040,0.000,0.000,0.000
1640079605542550016,"2021-12-21,09:40:05",10.1.1.2,0.9094429016113281,-0.040,-0.040,-0.040,0.000,0.000,0.000
1640079606177954048,"2021-12-21,09:40:06",10.1.1.2,610,-0.050,-0.050,-0.050,0.000,0.000,0.000
1640079606553723136,"2021-12-21,09:40:06",10.1.1.2,0.9815409183502197,-0.050,-0.050,-0.050,0.000,0.000,0.000
1640079607386452992,"2021-12-21,09:40:07",10.1.1.2,828,-0.060,-0.060,-0.060,0.000,0.000,0.000
1640079607708566784,"2021-12-21,09:40:07",10.1.1.2,1.1507210731506348,-0.060,-0.060,-0.060,0.000,0.000,0.000
1640079608346777088,"2021-12-21,09:40:08",10.1.1.2,591,-0.070,-0.070,-0.070,0.000,0.000,0.000
1640079608571420928,"2021-12-21,09:40:08",10.1.1.2,0.8188681602478027,-0.070,-0.070,-0.070,0.000,0.000,0.000
1640079609345378048,"2021-12-21,09:40:09",10.1.1.2,771,-0.080,-0.080,-0.080,0.000,0.000,0.000
1640079609369939968,"2021-12-21,09:40:09",10.1.1.2,0.7966668605804443,-0.080,-0.080,-0.080,0.000,0.000,0.000
1640079610030972928,"2021-12-21,09:40:10",10.1.1.2,651,-0.090,-0.090,-0.090,0.000,0.000,0.000
1640079610190411008,"2021-12-21,09:40:10",10.1.1.2,0.7889258861541748,-0.090,-0.090,-0.090,0.000,0.000,0.000
1640079610829978880,"2021-12-21,09:40:10",10.1.1.2,596,-0.100,-0.100,-0.100,0.000,0.000,0.000
1640079610976929024,"2021-12-21,09:40:10",10.1.1.2,0.7746238708496094,-0.100,-0.100,-0.100,0.000,0.000,0.000
1640079611894908928,"2021-12-21,09:40:11",10.1.1.2,900,-0.110,-0.110,-0.110,0.000,0.000,0.000
1640079612116879872,"2021-12-21,09:40:12",10.1.1.2,1.1221609115600586,-0.110,-0.110,-0.110,0.000,0.000,0.000
1640079612879260160,"2021-12-21,09:40:12",10.1.1.2,738,-0.120,-0.120,-0.120,0.000,0.000,0.000
1640079613167473152,"2021-12-21,09:40:13",10.1.1.2,1.021939992904663,-0.120,-0.120,-0.120,0.000,0.000,0.000
1640079613711386880,"2021-12-21,09:40:13",10.1.1.2,541,-0.130,-0.130,-0.130,0.000,0.000,0.000
1640079613819472128,"2021-12-21,09:40:13",10.1.1.2,0.6493949890136719,-0.130,-0.130,-0.130,0.000,0.000,0.000
1640079614312844032,"2021-12-21,09:40:14",10.1.1.2,484,-0.140,-0.140,-0.140,0.000,0.000,0.000
1640079614433000192,"2021-12-21,09:40:14",10.1.1.2,0.6043179035186768,-0.140,-0.140,-0.140,0.000,0.000,0.000
1640079615079566848,"2021-12-21,09:40:15",10.1.1.2,608,-0.150,-0.150,-0.150,0.000,0.000,0.000
1640079615181950976,"2021-12-21,09:40:15",10.1.1.2,0.7226331233978271,-0.150,-0.150,-0.150,0.000,0.000,0.000
1640079615863988992,"2021-12-21,09:40:15",10.1.1.2,680,-0.160,-0.160,-0.160,0.000,0.000,0.000
1640079615984219904,"2021-12-21,09:40:15",10.1.1.2,0.8007140159606934,-0.160,-0.160,-0.160,0.000,0.000,0.000
1640079616555233024,"2021-12-21,09:40:16",10.1.1.2,562,-0.170,-0.170,-0.170,0.000,0.000,0.000
1640079616647054848,"2021-12-21,09:40:16",10.1.1.2,0.6472599506378174,-0.170,-0.170,-0.170,0.000,0.000,0.000
1640079617588530176,"2021-12-21,09:40:17",10.1.1.2,938,-0.180,-0.180,-0.180,0.000,0.000,0.000
1640079617763313920,"2021-12-21,09:40:17",10.1.1.2,1.1133558750152588,-0.180,-0.180,-0.180,0.000,0.000,0.000
1640079618547878144,"2021-12-21,09:40:18",10.1.1.2,746,-0.190,-0.190,-0.190,0.000,0.000,0.000
1640079618622412800,"2021-12-21,09:40:18",10.1.1.2,0.8209741115570068,-0.190,-0.190,-0.190,0.000,0.000,0.000
1640079619285107968,"2021-12-21,09:40:19",10.1.1.2,576,-0.200,-0.200,-0.200,0.000,0.000,0.000
1640079619517492992,"2021-12-21,09:40:19",10.1.1.2,0.8612720966339111,-0.200,-0.200,-0.200,0.000,0.000,0.000
1640079620160086016,"2021-12-21,09:40:20",10.1.1.2,612,-0.210,-0.210,-0.210,0.000,0.000,0.000
1640079620260385024,"2021-12-21,09:40:20",10.1.1.2,0.7135670185089111,-0.210,-0.210,-0.210,0.000,0.000,0.000
1640079621005613056,"2021-12-21,09:40:21",10.1.1.2,742,-0.220,-0.220,-0.220,0.000,0.000,0.000
1640079621084633088,"2021-12-21,09:40:21",10.1.1.2,0.8136429786682129,-0.220,-0.220,-0.220,0.000,0.000,0.000
1640079621607625984,"2021-12-21,09:40:21",10.1.1.2,513,-0.230,-0.230,-0.230,0.000,0.000,0.000
1640079621662990080,"2021-12-21,09:40:21",10.1.1.2,0.5691559314727783,-0.230,-0.230,-0.230,0.000,0.000,0.000
1640079621752680960,"2021-12-21,09:40:21",10.1.1.2,-68,-0.240,-0.240,-0.240,0.000,0.000,0.000
1640079622624008960,"2021-12-21,09:40:22",10.1.1.2,0.8917920589447021,-0.240,-0.240,-0.240,0.000,0.000,0.000
1640079623207200000,"2021-12-21,09:40:23",10.1.1.2,581,-0.250,-0.250,-0.250,0.000,0.000,0.000
1640079623432899840,"2021-12-21,09:40:23",10.1.1.2,0.8075730800628662,-0.250,-0.250,-0.250,0.000,0.000,0.000
1640079623989792000,"2021-12-21,09:40:23",10.1.1.2,550,-0.260,-0.260,-0.260,0.000,0.000,0.000
1640079624092238848,"2021-12-21,09:40:24",10.1.1.2,0.6532740592956543,-0.260,-0.260,-0.260,0.000,0.000,0.000
1640079624134258944,"2021-12-21,09:40:24",10.1.1.2,-5,-0.270,-0.270,-0.270,0.000,0.000,0.000
1640079625044675072,"2021-12-21,09:40:25",10.1.1.2,0.9483380317687988,-0.270,-0.270,-0.270,0.000,0.000,0.000
1640079625883905792,"2021-12-21,09:40:25",10.1.1.2,824,-0.280,-0.280,-0.280,0.000,0.000,0.000
1640079626064966912,"2021-12-21,09:40:26",10.1.1.2,1.0056381225585938,-0.280,-0.280,-0.280,0.000,0.000,0.000
1640079626804756992,"2021-12-21,09:40:26",10.1.1.2,707,-0.290,-0.290,-0.290,0.000,0.000,0.000
1640079626980082944,"2021-12-21,09:40:26",10.1.1.2,0.8952150344848633,-0.290,-0.290,-0.290,0.000,0.000,0.000
1640079627596946944,"2021-12-21,09:40:27",10.1.1.2,598,-0.300,-0.300,-0.300,0.000,0.000,0.000
1640079627886621952,"2021-12-21,09:40:27",10.1.1.2,0.8887078762054443,-0.300,-0.300,-0.300,0.000,0.000,0.000
1640079628685476096,"2021-12-21,09:40:28",10.1.1.2,796,-0.310,-0.310,-0.310,0.000,0.000,0.000
1640079628990993920,"2021-12-21,09:40:28",10.1.1.2,1.1025760173797607,-0.310,-0.310,-0.310,0.000,0.000,0.000
1640079629594384896,"2021-12-21,09:40:29",10.1.1.2,591,-0.320,-0.320,-0.320,0.000,0.000,0.000
1640079629699017984,"2021-12-21,09:40:29",10.1.1.2,0.6985058784484863,-0.320,-0.320,-0.320,0.000,0.000,0.000
1640079630400772096,"2021-12-21,09:40:30",10.1.1.2,671,-0.330,-0.330,-0.330,0.000,0.000,0.000
1640079630624030976,"2021-12-21,09:40:30",10.1.1.2,0.8952288627624512,-0.330,-0.330,-0.330,0.000,0.000,0.000
1640079631081583104,"2021-12-21,09:40:31",10.1.1.2,439,-0.340,-0.340,-0.340,0.000,0.000,0.000
1640079631359333888,"2021-12-21,09:40:31",10.1.1.2,0.717087984085083,-0.340,-0.340,-0.340,0.000,0.000,0.000
1640079631937707008,"2021-12-21,09:40:31",10.1.1.2,482,-0.350,-0.350,-0.350,0.000,0.000,0.000
1640079632054331904,"2021-12-21,09:40:32",10.1.1.2,0.5992789268493652,-0.350,-0.350,-0.350,0.000,0.000,0.000
1640079632681494016,"2021-12-21,09:40:32",10.1.1.2,599,-0.360,-0.360,-0.360,0.000,0.000,0.000
1640079632868036096,"2021-12-21,09:40:32",10.1.1.2,0.7865707874298096,-0.360,-0.360,-0.360,0.000,0.000,0.000
1640079633565174016,"2021-12-21,09:40:33",10.1.1.2,659,-0.370,-0.370,-0.370,0.000,0.000,0.000
1640079633767330048,"2021-12-21,09:40:33",10.1.1.2,0.8618059158325195,-0.370,-0.370,-0.370,0.000,0.000,0.000
1640079633822315008,"2021-12-21,09:40:33",10.1.1.2,-8,-0.380,-0.380,-0.380,0.000,0.000,0.000
1640079634650800896,"2021-12-21,09:40:34",10.1.1.2,0.8289968967437744,-0.380,-0.380,-0.380,0.000,0.000,0.000
1640079635205143808,"2021-12-21,09:40:35",10.1.1.2,552,-0.390,-0.390,-0.390,0.000,0.000,0.000
1640079635361504000,"2021-12-21,09:40:35",10.1.1.2,0.7088761329650879,-0.390,-0.390,-0.390,0.000,0.000,0.000
1640079635975608064,"2021-12-21,09:40:35",10.1.1.2,603,-0.400,-0.400,-0.400,0.000,0.000,0.000
1640079636178560000,"2021-12-21,09:40:36",10.1.1.2,0.8069829940795898,-0.400,-0.400,-0.400,0.000,0.000,0.000
1640079636956254976,"2021-12-21,09:40:36",10.1.1.2,771,-0.410,-0.410,-0.410,0.000,0.000,0.000
1640079637049792000,"2021-12-21,09:40:37",10.1.1.2,0.8655970096588135,-0.410,-0.410,-0.410,0.000,0.000,0.000
1640079637716974080,"2021-12-21,09:40:37",10.1.1.2,650,-0.420,-0.420,-0.420,0.000,0.000,0.000
1640079637901332992,"2021-12-21,09:40:37",10.1.1.2,0.8351700305938721,-0.420,-0.420,-0.420,0.000,0.000,0.000
1640079638434277120,"2021-12-21,09:40:38",10.1.1.2,525,-0.430,-0.430,-0.430,0.000,0.000,0.000
1640079638620142080,"2021-12-21,09:40:38",10.1.1.2,0.711536169052124,-0.430,-0.430,-0.430,0.000,0.000,0.000
1640079639387033088,"2021-12-21,09:40:39",10.1.1.2,0.7582428455352783,-0.440,-0.440,-0.440,0.000,0.000,0.000
1640079639976392960,"2021-12-21,09:40:39",10.1.1.2,586,-0.450,-0.450,-0.450,0.000,0.000,0.000
1640079640081677824,"2021-12-21,09:40:40",10.1.1.2,0.6921379566192627,-0.450,-0.450,-0.450,0.000,0.000,0.000
1640079640674530048,"2021-12-21,09:40:40",10.1.1.2,540,-0.460,-0.460,-0.460,0.000,0.000,0.000
1640079640760293888,"2021-12-21,09:40:40",10.1.1.2,0.6331081390380859,-0.460,-0.460,-0.460,0.000,0.000,0.000
1640079641464977920,"2021-12-21,09:40:41",10.1.1.2,697,-0.470,-0.470,-0.470,0.000,0.000,0.000
1640079641661420032,"2021-12-21,09:40:41",10.1.1.2,0.8942070007324219,-0.470,-0.470,-0.470,0.000,0.000,0.000
1640079642345102080,"2021-12-21,09:40:42",10.1.1.2,662,-0.480,-0.480,-0.480,0.000,0.000,0.000
1640079642450414848,"2021-12-21,09:40:42",10.1.1.2,0.7741460800170898,-0.480,-0.480,-0.480,0.000,0.000,0.000
1640079643007134976,"2021-12-21,09:40:43",10.1.1.2,524,-0.490,-0.490,-0.490,0.000,0.000,0.000
1640079643155384064,"2021-12-21,09:40:43",10.1.1.2,0.680117130279541,-0.490,-0.490,-0.490,0.000,0.000,0.000
1640079643757133056,"2021-12-21,09:40:43",10.1.1.2,590,-0.480,-0.480,-0.480,0.000,0.000,0.000
1640079643924545024,"2021-12-21,09:40:43",10.1.1.2,0.7577779293060303,-0.480,-0.480,-0.480,0.000,0.000,0.000
1640079644447757056,"2021-12-21,09:40:44",10.1.1.2,520,-0.470,-0.470,-0.470,0.000,0.000,0.000
1640079644541054976,"2021-12-21,09:40:44",10.1.1.2,0.6143298149108887,-0.470,-0.470,-0.470,0.000,0.000,0.000
1640079645020886016,"2021-12-21,09:40:45",10.1.1.2,464,-0.460,-0.460,-0.460,0.000,0.000,0.000
1640079645228125184,"2021-12-21,09:40:45",10.1.1.2,0.6767420768737793,-0.460,-0.460,-0.460,0.000,0.000,0.000
1640079645759335168,"2021-12-21,09:40:45",10.1.1.2,519,-0.450,-0.450,-0.450,0.000,0.000,0.000
1640079645847099136,"2021-12-21,09:40:45",10.1.1.2,0.6083710193634033,-0.450,-0.450,-0.450,0.000,0.000,0.000
1640079646443907072,"2021-12-21,09:40:46",10.1.1.2,592,-0.440,-0.440,-0.440,0.000,0.000,0.000
1640079646552608000,"2021-12-21,09:40:46",10.1.1.2,0.7017579078674316,-0.440,-0.440,-0.440,0.000,0.000,0.000
1640079647013513984,"2021-12-21,09:40:47",10.1.1.2,457,-0.430,-0.430,-0.430,0.000,0.000,0.000
1640079647074494976,"2021-12-21,09:40:47",10.1.1.2,0.5181119441986084,-0.430,-0.430,-0.430,0.000,0.000,0.000
1640079647650494976,"2021-12-21,09:40:47",10.1.1.2,550,-0.420,-0.420,-0.420,0.000,0.000,0.000
1640079647810283776,"2021-12-21,09:40:47",10.1.1.2,0.7105629444122314,-0.420,-0.420,-0.420,0.000,0.000,0.000
1640079648295284992,"2021-12-21,09:40:48",10.1.1.2,482,-0.410,-0.410,-0.410,0.000,0.000,0.000
1640079648367467008,"2021-12-21,09:40:48",10.1.1.2,0.5550620555877686,-0.410,-0.410,-0.410,0.000,0.000,0.000
1640079648866231040,"2021-12-21,09:40:48",10.1.1.2,495,-0.400,-0.400,-0.400,0.000,0.000,0.000
1640079648934923776,"2021-12-21,09:40:48",10.1.1.2,0.5644559860229492,-0.400,-0.400,-0.400,0.000,0.000,0.000
1640079649520111104,"2021-12-21,09:40:49",10.1.1.2,582,-0.390,-0.390,-0.390,0.000,0.000,0.000
1640079649639405056,"2021-12-21,09:40:49",10.1.1.2,0.70176100730896,-0.390,-0.390,-0.390,0.000,0.000,0.000
1640079650143193088,"2021-12-21,09:40:50",10.1.1.2,498,-0.380,-0.380,-0.380,0.000,0.000,0.000
1640079650387763968,"2021-12-21,09:40:50",10.1.1.2,0.7433888912200928,-0.380,-0.380,-0.380,0.000,0.000,0.000
1640079650921144064,"2021-12-21,09:40:50",10.1.1.2,501,-0.370,-0.370,-0.370,0.000,0.000,0.000
1640079651112536832,"2021-12-21,09:40:51",10.1.1.2,0.6932761669158936,-0.370,-0.370,-0.370,0.000,0.000,0.000
1640079651536923904,"2021-12-21,09:40:51",10.1.1.2,417,-0.360,-0.360,-0.360,0.000,0.000,0.000
1640079651739622144,"2021-12-21,09:40:51",10.1.1.2,0.620358943939209,-0.360,-0.360,-0.360,0.000,0.000,0.000
1640079652431844864,"2021-12-21,09:40:52",10.1.1.2,688,-0.350,-0.350,-0.350,0.000,0.000,0.000
1640079652686839040,"2021-12-21,09:40:52",10.1.1.2,0.9434840679168701,-0.350,-0.350,-0.350,0.000,0.000,0.000
1640079653250657024,"2021-12-21,09:40:53",10.1.1.2,543,-0.340,-0.340,-0.340,0.000,0.000,0.000
1640079653433996032,"2021-12-21,09:40:53",10.1.1.2,0.7285778522491455,-0.340,-0.340,-0.340,0.000,0.000,0.000
1640079653921658112,"2021-12-21,09:40:53",10.1.1.2,485,-0.330,-0.330,-0.330,0.000,0.000,0.000
1640079654103187968,"2021-12-21,09:40:54",10.1.1.2,0.6670670509338379,-0.330,-0.330,-0.330,0.000,0.000,0.000
1640079654555591936,"2021-12-21,09:40:54",10.1.1.2,439,-0.320,-0.320,-0.320,0.000,0.000,0.000
1640079654758307072,"2021-12-21,09:40:54",10.1.1.2,0.642603874206543,-0.320,-0.320,-0.320,0.000,0.000,0.000
1640079655259418880,"2021-12-21,09:40:55",10.1.1.2,487,-0.310,-0.310,-0.310,0.000,0.000,0.000
1640079655497529088,"2021-12-21,09:40:55",10.1.1.2,0.7260041236877441,-0.310,-0.310,-0.310,0.000,0.000,0.000
1640079656011975936,"2021-12-21,09:40:56",10.1.1.2,491,-0.300,-0.300,-0.300,0.000,0.000,0.000
1640079656181174016,"2021-12-21,09:40:56",10.1.1.2,0.6613061428070068,-0.300,-0.300,-0.300,0.000,0.000,0.000
1640079656199464960,"2021-12-21,09:40:56",10.1.1.2,-11,-0.290,-0.290,-0.290,0.000,0.000,0.000
1640079657017294848,"2021-12-21,09:40:57",10.1.1.2,0.8243129253387451,-0.290,-0.290,-0.290,0.000,0.000,0.000
1640079657751979008,"2021-12-21,09:40:57",10.1.1.2,723,-0.280,-0.280,-0.280,0.000,0.000,0.000
1640079658117774080,"2021-12-21,09:40:58",10.1.1.2,1.0891799926757812,-0.280,-0.280,-0.280,0.000,0.000,0.000
1640079658639987968,"2021-12-21,09:40:58",10.1.1.2,519,-0.270,-0.270,-0.270,0.000,0.000,0.000
1640079658899627008,"2021-12-21,09:40:58",10.1.1.2,0.7721831798553467,-0.270,-0.270,-0.270,0.000,0.000,0.000
1640079659536578048,"2021-12-21,09:40:59",10.1.1.2,603,-0.260,-0.260,-0.260,0.000,0.000,0.000
1640079659663075840,"2021-12-21,09:40:59",10.1.1.2,0.7298440933227539,-0.260,-0.260,-0.260,0.000,0.000,0.000
1640079660121690112,"2021-12-21,09:41:00",10.1.1.2,456,-0.250,-0.250,-0.250,0.000,0.000,0.000
1640079660561395968,"2021-12-21,09:41:00",10.1.1.2,0.8967859745025635,-0.250,-0.250,-0.250,0.000,0.000,0.000
1640079661183870976,"2021-12-21,09:41:01",10.1.1.2,603,-0.240,-0.240,-0.240,0.000,0.000,0.000
1640079661468450048,"2021-12-21,09:41:01",10.1.1.2,0.8878719806671143,-0.240,-0.240,-0.240,0.000,0.000,0.000
1640079662013971200,"2021-12-21,09:41:02",10.1.1.2,532,-0.230,-0.230,-0.230,0.000,0.000,0.000
1640079662225187072,"2021-12-21,09:41:02",10.1.1.2,0.7433240413665771,-0.230,-0.230,-0.230,0.000,0.000,0.000
1640079662999303168,"2021-12-21,09:41:02",10.1.1.2,766,-0.220,-0.220,-0.220,0.000,0.000,0.000
1640079663240344064,"2021-12-21,09:41:03",10.1.1.2,1.007774829864502,-0.220,-0.220,-0.220,0.000,0.000,0.000
1640079663337033984,"2021-12-21,09:41:03",10.1.1.2,-8,-0.210,-0.210,-0.210,0.000,0.000,0.000
1640079664020561920,"2021-12-21,09:41:04",10.1.1.2,0.7454128265380859,-0.210,-0.210,-0.210,0.000,0.000,0.000
1640079664647644160,"2021-12-21,09:41:04",10.1.1.2,606,-0.200,-0.200,-0.200,0.000,0.000,0.000
1640079665019661824,"2021-12-21,09:41:05",10.1.1.2,0.9782660007476807,-0.200,-0.200,-0.200,0.000,0.000,0.000
1640079665794928128,"2021-12-21,09:41:05",10.1.1.2,622,-0.190,-0.190,-0.190,0.000,0.000,0.000
1640079665866555904,"2021-12-21,09:41:05",10.1.1.2,0.7586309909820557,-0.190,-0.190,-0.190,0.000,0.000,0.000
1640079666538211072,"2021-12-21,09:41:06",10.1.1.2,652,-0.180,-0.180,-0.180,0.000,0.000,0.000
1640079666737304832,"2021-12-21,09:41:06",10.1.1.2,0.8511819839477539,-0.180,-0.180,-0.180,0.000,0.000,0.000
1640079667223988992,"2021-12-21,09:41:07",10.1.1.2,476,-0.170,-0.170,-0.170,0.000,0.000,0.000
1640079667286545920,"2021-12-21,09:41:07",10.1.1.2,0.5390231609344482,-0.170,-0.170,-0.170,0.000,0.000,0.000
1640079668013451008,"2021-12-21,09:41:08",10.1.1.2,721,-0.160,-0.160,-0.160,0.000,0.000,0.000
1640079668078696960,"2021-12-21,09:41:08",10.1.1.2,0.7864990234375,-0.160,-0.160,-0.160,0.000,0.000,0.000
1640079668609555968,"2021-12-21,09:41:08",10.1.1.2,522,-0.150,-0.150,-0.150,0.000,0.000,0.000
1640079668648516864,"2021-12-21,09:41:08",10.1.1.2,0.5616350173950195,-0.150,-0.150,-0.150,0.000,0.000,0.000
1640079669212655104,"2021-12-21,09:41:09",10.1.1.2,524,-0.140,-0.140,-0.140,0.000,0.000,0.000
1640079669371272192,"2021-12-21,09:41:09",10.1.1.2,0.6801149845123291,-0.140,-0.140,-0.140,0.000,0.000,0.000
1640079670151361024,"2021-12-21,09:41:10",10.1.1.2,774,-0.130,-0.130,-0.130,0.000,0.000,0.000
1640079670320386048,"2021-12-21,09:41:10",10.1.1.2,0.9460880756378174,-0.130,-0.130,-0.130,0.000,0.000,0.000
1640079670400903936,"2021-12-21,09:41:10",10.1.1.2,-29,-0.120,-0.120,-0.120,0.000,0.000,0.000
1640079671312912896,"2021-12-21,09:41:11",10.1.1.2,0.963798999786377,-0.120,-0.120,-0.120,0.000,0.000,0.000
1640079671846034176,"2021-12-21,09:41:11",10.1.1.2,522,-0.110,-0.110,-0.110,0.000,0.000,0.000
1640079672075056128,"2021-12-21,09:41:12",10.1.1.2,0.7514810562133789,-0.110,-0.110,-0.110,0.000,0.000,0.000
1640079672672934912,"2021-12-21,09:41:12",10.1.1.2,588,-0.100,-0.100,-0.100,0.000,0.000,0.000
1640079672906632960,"2021-12-21,09:41:12",10.1.1.2,0.8293948173522949,-0.100,-0.100,-0.100,0.000,0.000,0.000
1640079673529388800,"2021-12-21,09:41:13",10.1.1.2,586,-0.090,-0.090,-0.090,0.000,0.000,0.000
1640079673699273216,"2021-12-21,09:41:13",10.1.1.2,0.7563250064849854,-0.090,-0.090,-0.090,0.000,0.000,0.000
1640079674248904960,"2021-12-21,09:41:14",10.1.1.2,534,-0.080,-0.080,-0.080,0.000,0.000,0.000
1640079674536839936,"2021-12-21,09:41:14",10.1.1.2,0.8225090503692627,-0.080,-0.080,-0.080,0.000,0.000,0.000
1640079675064961792,"2021-12-21,09:41:15",10.1.1.2,524,-0.070,-0.070,-0.070,0.000,0.000,0.000
1640079675272463104,"2021-12-21,09:41:15",10.1.1.2,0.7318940162658691,-0.070,-0.070,-0.070,0.000,0.000,0.000
1640079675878896896,"2021-12-21,09:41:15",10.1.1.2,601,-0.060,-0.060,-0.060,0.000,0.000,0.000
1640079676145576960,"2021-12-21,09:41:16",10.1.1.2,0.871412992477417,-0.060,-0.060,-0.060,0.000,0.000,0.000
1640079676574734848,"2021-12-21,09:41:16",10.1.1.2,413,-0.050,-0.050,-0.050,0.000,0.000,0.000
1640079676672214016,"2021-12-21,09:41:16",10.1.1.2,0.5131909847259521,-0.050,-0.050,-0.050,0.000,0.000,0.000
1640079677192645120,"2021-12-21,09:41:17",10.1.1.2,512,-0.040,-0.040,-0.040,0.000,0.000,0.000
1640079677432365824,"2021-12-21,09:41:17",10.1.1.2,0.7581229209899902,-0.040,-0.040,-0.040,0.000,0.000,0.000
1640079677883922944,"2021-12-21,09:41:17",10.1.1.2,449,-0.030,-0.030,-0.030,0.000,0.000,0.000
1640079677998866944,"2021-12-21,09:41:17",10.1.1.2,0.5649290084838867,-0.030,-0.030,-0.030,0.000,0.000,0.000
1640079678539475968,"2021-12-21,09:41:18",10.1.1.2,455,-0.020,-0.020,-0.020,0.000,0.000,0.000
1640079678623555072,"2021-12-21,09:41:18",10.1.1.2,0.5432679653167725,-0.020,-0.020,-0.020,0.000,0.000,0.000
1640079679120974080,"2021-12-21,09:41:19",10.1.1.2,495,-0.010,-0.010,-0.010,0.000,0.000,0.000
1640079679299251968,"2021-12-21,09:41:19",10.1.1.2,0.6740131378173828,-0.010,-0.010,-0.010,0.000,0.000,0.000
1640079679769287936,"2021-12-21,09:41:19",10.1.1.2,468,0.000,0.000,0.000,0.000,0.000,0.000
1640079679885231872,"2021-12-21,09:41:19",10.1.1.2,0.584434986114502,0.000,0.000,0.000,0.000,0.000,0.000
