FedericoMungari/DigitalTwin_service/01_WiredScenario/Output/Output_script/script_rosapi_2_output_robots12_freq0_1.txt
timestamp,date,node,latency,joint_1,joint_2,joint_3,joint_4,joint_5,joint_6
1644939381207475968,2022-02-15-15:36:21,10.1.1.2,29,-0.100,-0.100,-0.100,0.000,0.000,0.000
1644939381266673152,2022-02-15-15:36:21,10.1.1.2,38,-0.090,-0.090,-0.090,0.000,0.000,0.000
1644939381767121920,2022-02-15-15:36:21,10.1.1.2,29,0.010,0.010,0.010,0.000,0.000,0.000
1644939382066294016,2022-02-15-15:36:22,10.1.1.2,19,0.070,0.070,0.070,0.000,0.000,0.000
1644939382137221120,2022-02-15-15:36:22,10.1.1.2,39,0.080,0.080,0.080,0.000,0.000,0.000
1644939382176517888,2022-02-15-15:36:22,10.1.1.2,28,0.090,0.090,0.090,0.000,0.000,0.000
1644939382226023936,2022-02-15-15:36:22,10.1.1.2,28,0.100,0.100,0.100,0.000,0.000,0.000
1644939382905915136,2022-02-15-15:36:22,10.1.1.2,39,-0.030,-0.030,-0.030,0.000,0.000,0.000
1644939383406292992,2022-02-15-15:36:23,10.1.1.2,30,-0.070,-0.070,-0.070,0.000,0.000,0.000
1644939383807616000,2022-02-15-15:36:23,10.1.1.2,20,0.010,0.010,0.010,0.000,0.000,0.000
1644939383877711104,2022-02-15-15:36:23,10.1.1.2,39,0.020,0.020,0.020,0.000,0.000,0.000
1644939384425605888,2022-02-15-15:36:24,10.1.1.2,29,0.070,0.070,0.070,0.000,0.000,0.000
1644939384525875968,2022-02-15-15:36:24,10.1.1.2,28,0.050,0.050,0.050,0.000,0.000,0.000
1644939384936593920,2022-02-15-15:36:24,10.1.1.2,29,-0.030,-0.030,-0.030,0.000,0.000,0.000
1644939385296785152,2022-02-15-15:36:25,10.1.1.2,28,-0.100,-0.100,-0.100,0.000,0.000,0.000
1644939385747088896,2022-02-15-15:36:25,10.1.1.2,20,-0.010,-0.010,-0.010,0.000,0.000,0.000
1644939386167229952,2022-02-15-15:36:26,10.1.1.2,32,0.070,0.070,0.070,0.000,0.000,0.000
1644939386265535232,2022-02-15-15:36:26,10.1.1.2,30,0.090,0.090,0.090,0.000,0.000,0.000
1644939386346574080,2022-02-15-15:36:26,10.1.1.2,6,0.090,0.090,0.090,0.000,0.000,0.000
1644939386626744064,2022-02-15-15:36:26,10.1.1.2,30,0.040,0.040,0.040,0.000,0.000,0.000
1644939386737636096,2022-02-15-15:36:26,10.1.1.2,39,0.020,0.020,0.020,0.000,0.000,0.000
1644939387795852032,2022-02-15-15:36:27,10.1.1.2,50,-0.020,-0.020,-0.020,0.000,0.000,0.000
1644939387825575168,2022-02-15-15:36:27,10.1.1.2,28,-0.010,-0.010,-0.010,0.000,0.000,0.000
1644939388746695936,2022-02-15-15:36:28,10.1.1.2,30,0.030,0.030,0.030,0.000,0.000,0.000
1644939389665713152,2022-02-15-15:36:29,10.1.1.2,30,-0.050,-0.050,-0.050,0.000,0.000,0.000
1644939390675232768,2022-02-15-15:36:30,10.1.1.2,40,0.090,0.090,0.090,0.000,0.000,0.000
1644939391025222144,2022-02-15-15:36:31,10.1.1.2,30,0.020,0.020,0.020,0.000,0.000,0.000
1644939391085339136,2022-02-15-15:36:31,10.1.1.2,38,0.010,0.010,0.010,0.000,0.000,0.000
1644939393011842048,2022-02-15-15:36:31,10.1.1.2,29,-0.080,-0.080,-0.080,0.000,0.000,0.000
1644939393212388096,2022-02-15-15:36:33,10.1.1.2,16,-0.080,-0.080,-0.080,0.000,0.000,0.000
1644939393865967872,2022-02-15-15:36:33,10.1.1.2,39,0.050,0.050,0.050,0.000,0.000,0.000
1644939395097014784,2022-02-15-15:36:34,10.1.1.2,20,0.060,0.060,0.060,0.000,0.000,0.000
1644939395165390848,2022-02-15-15:36:35,10.1.1.2,19,0.040,0.040,0.040,0.000,0.000,0.000
1644939395236544000,2022-02-15-15:36:35,10.1.1.2,39,0.030,0.030,0.030,0.000,0.000,0.000
1644939395287249152,2022-02-15-15:36:35,10.1.1.2,38,0.020,0.020,0.020,0.000,0.000,0.000
1644939395845622016,2022-02-15-15:36:35,10.1.1.2,28,-0.090,-0.090,-0.090,0.000,0.000,0.000
1644939395946411008,2022-02-15-15:36:35,10.1.1.2,-15,-0.090,-0.090,-0.090,0.000,0.000,0.000
1644939396874223872,2022-02-15-15:36:36,10.1.1.2,29,-0.020,-0.020,-0.020,0.000,0.000,0.000
1644939397255651840,2022-02-15-15:36:37,10.1.1.2,29,0.060,0.060,0.060,0.000,0.000,0.000
1644939397645415936,2022-02-15-15:36:37,10.1.1.2,13,0.060,0.060,0.060,0.000,0.000,0.000
1644939397876662016,2022-02-15-15:36:37,10.1.1.2,38,0.020,0.020,0.020,0.000,0.000,0.000
1644939399812370944,2022-02-15-15:36:38,10.1.1.2,29,-0.090,-0.090,-0.090,0.000,0.000,0.000
1644939399846931968,2022-02-15-15:36:39,10.1.1.2,38,-0.100,-0.100,-0.100,0.000,0.000,0.000
1644939403606502144,2022-02-15-15:36:40,10.1.1.2,29,0.050,0.050,0.050,0.000,0.000,0.000
1644939404145366784,2022-02-15-15:36:44,10.1.1.2,13,0.050,0.050,0.050,0.000,0.000,0.000
1644939406287895808,2022-02-15-15:36:45,10.1.1.2,49,-0.090,-0.090,-0.090,0.000,0.000,0.000
1644939410642684928,2022-02-15-15:36:49,10.1.1.2,39,0.050,0.050,0.050,0.000,0.000,0.000
1644939412085139968,2022-02-15-15:36:51,10.1.1.2,6,0.050,0.050,0.050,0.000,0.000,0.000
1644939412886016000,2022-02-15-15:36:52,10.1.1.2,19,-0.090,-0.090,-0.090,0.000,0.000,0.000
1644939412945657088,2022-02-15-15:36:52,10.1.1.2,29,-0.080,-0.080,-0.080,0.000,0.000,0.000
1644939414786155008,2022-02-15-15:36:53,10.1.1.2,29,0.000,0.000,0.000,0.000,0.000,0.000
1644939415418865920,2022-02-15-15:36:55,10.1.1.2,39,0.080,0.080,0.080,0.000,0.000,0.000
1644939415486624000,2022-02-15-15:36:55,10.1.1.2,20,0.100,0.100,0.100,0.000,0.000,0.000
1644939415607748096,2022-02-15-15:36:55,10.1.1.2,39,0.080,0.080,0.080,0.000,0.000,0.000
1644939416185555968,2022-02-15-15:36:56,10.1.1.2,29,-0.030,-0.030,-0.030,0.000,0.000,0.000
1644939417263384064,2022-02-15-15:36:56,10.1.1.2,13,-0.030,-0.030,-0.030,0.000,0.000,0.000
1644939417645592064,2022-02-15-15:36:57,10.1.1.2,29,0.050,0.050,0.050,0.000,0.000,0.000
1644939418165300992,2022-02-15-15:36:58,10.1.1.2,19,0.050,0.050,0.050,0.000,0.000,0.000
1644939419985121024,2022-02-15-15:36:58,10.1.1.2,39,-0.090,-0.090,-0.090,0.000,0.000,0.000
1644939420047250944,2022-02-15-15:37:00,10.1.1.2,11,-0.090,-0.090,-0.090,0.000,0.000,0.000
1644939420216343040,2022-02-15-15:37:00,10.1.1.2,29,-0.060,-0.060,-0.060,0.000,0.000,0.000
1644939420597328896,2022-02-15-15:37:00,10.1.1.2,39,0.010,0.010,0.010,0.000,0.000,0.000
1644939421789875968,2022-02-15-15:37:01,10.1.1.2,28,0.100,0.100,0.100,0.000,0.000,0.000
1644939421866108928,2022-02-15-15:37:01,10.1.1.2,29,0.080,0.080,0.080,0.000,0.000,0.000
1644939421916389888,2022-02-15-15:37:01,10.1.1.2,29,0.070,0.070,0.070,0.000,0.000,0.000
1644939421977989888,2022-02-15-15:37:01,10.1.1.2,39,0.060,0.060,0.060,0.000,0.000,0.000
1644939422789146880,2022-02-15-15:37:02,10.1.1.2,50,-0.030,-0.030,-0.030,0.000,0.000,0.000
1644939422804902912,2022-02-15-15:37:02,10.1.1.2,19,-0.040,-0.040,-0.040,0.000,0.000,0.000
1644939422875616000,2022-02-15-15:37:02,10.1.1.2,39,-0.050,-0.050,-0.050,0.000,0.000,0.000
1644939423345446144,2022-02-15-15:37:03,10.1.1.2,29,-0.060,-0.060,-0.060,0.000,0.000,0.000
1644939424096206848,2022-02-15-15:37:04,10.1.1.2,29,0.090,0.090,0.090,0.000,0.000,0.000
1644939424186832896,2022-02-15-15:37:04,10.1.1.2,12,0.090,0.090,0.090,0.000,0.000,0.000
1644939424308062976,2022-02-15-15:37:04,10.1.1.2,29,0.070,0.070,0.070,0.000,0.000,0.000
1644939424362540032,2022-02-15-15:37:04,10.1.1.2,20,0.060,0.060,0.060,0.000,0.000,0.000
1644939424416577024,2022-02-15-15:37:04,10.1.1.2,28,0.050,0.050,0.050,0.000,0.000,0.000
1644939426419020800,2022-02-15-15:37:05,10.1.1.2,48,0.010,0.010,0.010,0.000,0.000,0.000
1644939426925668096,2022-02-15-15:37:06,10.1.1.2,40,0.090,0.090,0.090,0.000,0.000,0.000
1644939430286525952,2022-02-15-15:37:08,10.1.1.2,49,-0.040,-0.040,-0.040,0.000,0.000,0.000
1644939430629262080,2022-02-15-15:37:10,10.1.1.2,28,0.030,0.030,0.030,0.000,0.000,0.000
1644939430935916800,2022-02-15-15:37:10,10.1.1.2,29,0.090,0.090,0.090,0.000,0.000,0.000
1644939431037452032,2022-02-15-15:37:11,10.1.1.2,16,0.090,0.090,0.090,0.000,0.000,0.000
1644939432126457088,2022-02-15-15:37:11,10.1.1.2,39,-0.080,-0.080,-0.080,0.000,0.000,0.000
1644939432289985792,2022-02-15-15:37:12,10.1.1.2,11,-0.080,-0.080,-0.080,0.000,0.000,0.000
1644939432955362048,2022-02-15-15:37:12,10.1.1.2,49,0.040,0.040,0.040,0.000,0.000,0.000
1644939433316192000,2022-02-15-15:37:13,10.1.1.2,28,0.090,0.090,0.090,0.000,0.000,0.000
1644939434166425088,2022-02-15-15:37:14,10.1.1.2,29,-0.060,-0.060,-0.060,0.000,0.000,0.000
1644939434168088832,2022-02-15-15:37:14,10.1.1.2,-8,-0.060,-0.060,-0.060,0.000,0.000,0.000
1644939434318119168,2022-02-15-15:37:14,10.1.1.2,30,-0.090,-0.090,-0.090,0.000,0.000,0.000
1644939434357275136,2022-02-15-15:37:14,10.1.1.2,39,-0.100,-0.100,-0.100,0.000,0.000,0.000
1644939435585711872,2022-02-15-15:37:15,10.1.1.2,29,0.080,0.080,0.080,0.000,0.000,0.000
1644939436597079040,2022-02-15-15:37:16,10.1.1.2,49,-0.090,-0.090,-0.090,0.000,0.000,0.000
1644939436626658816,2022-02-15-15:37:16,10.1.1.2,29,-0.100,-0.100,-0.100,0.000,0.000,0.000
1644939438633079040,2022-02-15-15:37:18,10.1.1.2,29,-0.020,-0.020,-0.020,0.000,0.000,0.000
1644939439317276928,2022-02-15-15:37:19,10.1.1.2,29,-0.040,-0.040,-0.040,0.000,0.000,0.000
1644939439366099968,2022-02-15-15:37:19,10.1.1.2,29,-0.030,-0.030,-0.030,0.000,0.000,0.000
1644939439436418048,2022-02-15-15:37:19,10.1.1.2,48,-0.020,-0.020,-0.020,0.000,0.000,0.000
1644939439736907008,2022-02-15-15:37:19,10.1.1.2,30,0.040,0.040,0.040,0.000,0.000,0.000
1644939439885085952,2022-02-15-15:37:19,10.1.1.2,29,0.060,0.060,0.060,0.000,0.000,0.000
1644939440278553856,2022-02-15-15:37:20,10.1.1.2,39,0.080,0.080,0.080,0.000,0.000,0.000
1644939440494079232,2022-02-15-15:37:20,10.1.1.2,29,0.040,0.040,0.040,0.000,0.000,0.000
1644939441085577984,2022-02-15-15:37:21,10.1.1.2,20,-0.080,-0.080,-0.080,0.000,0.000,0.000
1644939441246267136,2022-02-15-15:37:21,10.1.1.2,28,-0.090,-0.090,-0.090,0.000,0.000,0.000
1644939442776040960,2022-02-15-15:37:22,10.1.1.2,38,0.070,0.070,0.070,0.000,0.000,0.000
1644939443046648064,2022-02-15-15:37:23,10.1.1.2,21,0.070,0.070,0.070,0.000,0.000,0.000
1644939443205622784,2022-02-15-15:37:23,10.1.1.2,29,0.040,0.040,0.040,0.000,0.000,0.000
1644939446061902080,2022-02-15-15:37:24,10.1.1.2,29,0.020,0.020,0.020,0.000,0.000,0.000
1644939453010729984,2022-02-15-15:37:30,10.1.1.2,28,-0.090,-0.090,-0.090,0.000,0.000,0.000
1644939456973944064,2022-02-15-15:37:33,10.1.1.2,29,-0.030,-0.030,-0.030,0.000,0.000,0.000
1644939463004834816,2022-02-15-15:37:41,10.1.1.2,20,-0.030,-0.030,-0.030,0.000,0.000,0.000
1644939463165922048,2022-02-15-15:37:43,10.1.1.2,38,-0.060,-0.060,-0.060,0.000,0.000,0.000
1644939463559726848,2022-02-15-15:37:43,10.1.1.2,2,-0.060,-0.060,-0.060,0.000,0.000,0.000
1644939463765677824,2022-02-15-15:37:43,10.1.1.2,19,-0.020,-0.020,-0.020,0.000,0.000,0.000
1644939471309808896,2022-02-15-15:37:48,10.1.1.2,6,-0.020,-0.020,-0.020,0.000,0.000,0.000
1644939479786056960,2022-02-15-15:37:56,10.1.1.2,-2976,-0.020,-0.020,-0.020,0.000,0.000,0.000
1644939498944720128,2022-02-15-15:38:12,10.1.1.2,30,0.090,0.090,0.090,0.000,0.000,0.000
1644939499049729024,2022-02-15-15:38:19,10.1.1.2,38,0.080,0.080,0.080,0.000,0.000,0.000
1644939499946838016,2022-02-15-15:38:19,10.1.1.2,39,-0.090,-0.090,-0.090,0.000,0.000,0.000
1644939500025152000,2022-02-15-15:38:20,10.1.1.2,16,-0.090,-0.090,-0.090,0.000,0.000,0.000
1644939500605995008,2022-02-15-15:38:20,10.1.1.2,30,0.020,0.020,0.020,0.000,0.000,0.000
1644939500966536960,2022-02-15-15:38:20,10.1.1.2,30,0.090,0.090,0.090,0.000,0.000,0.000
1644939501046291200,2022-02-15-15:38:21,10.1.1.2,8,0.090,0.090,0.090,0.000,0.000,0.000
1644939501125509120,2022-02-15-15:38:21,10.1.1.2,38,0.080,0.080,0.080,0.000,0.000,0.000
1644939501585532928,2022-02-15-15:38:21,10.1.1.2,39,-0.010,-0.010,-0.010,0.000,0.000,0.000
1644939501625448960,2022-02-15-15:38:21,10.1.1.2,29,-0.020,-0.020,-0.020,0.000,0.000,0.000
1644939501685473024,2022-02-15-15:38:21,10.1.1.2,39,-0.030,-0.030,-0.030,0.000,0.000,0.000
1644939502045145088,2022-02-15-15:38:22,10.1.1.2,29,-0.100,-0.100,-0.100,0.000,0.000,0.000
1644939502145977088,2022-02-15-15:38:22,10.1.1.2,28,-0.080,-0.080,-0.080,0.000,0.000,0.000
1644939502905472000,2022-02-15-15:38:22,10.1.1.2,29,0.070,0.070,0.070,0.000,0.000,0.000
1644939502965080064,2022-02-15-15:38:22,10.1.1.2,38,0.080,0.080,0.080,0.000,0.000,0.000
1644939503157227008,2022-02-15-15:38:23,10.1.1.2,21,0.080,0.080,0.080,0.000,0.000,0.000
1644939503205256960,2022-02-15-15:38:23,10.1.1.2,19,0.070,0.070,0.070,0.000,0.000,0.000
1644939503265961984,2022-02-15-15:38:23,10.1.1.2,29,0.060,0.060,0.060,0.000,0.000,0.000
1644939503545881088,2022-02-15-15:38:23,10.1.1.2,28,0.010,0.010,0.010,0.000,0.000,0.000
1644939504445815040,2022-02-15-15:38:24,10.1.1.2,30,-0.040,-0.040,-0.040,0.000,0.000,0.000
1644939504505254912,2022-02-15-15:38:24,10.1.1.2,39,-0.030,-0.030,-0.030,0.000,0.000,0.000
1644939505306565120,2022-02-15-15:38:25,10.1.1.2,20,0.070,0.070,0.070,0.000,0.000,0.000
1644939505366147072,2022-02-15-15:38:25,10.1.1.2,29,0.060,0.060,0.060,0.000,0.000,0.000
1644939505685595904,2022-02-15-15:38:25,10.1.1.2,39,0.000,0.000,0.000,0.000,0.000,0.000
1644939506197350144,2022-02-15-15:38:26,10.1.1.2,28,-0.100,-0.100,-0.100,0.000,0.000,0.000
1644939506605541888,2022-02-15-15:38:26,10.1.1.2,29,-0.020,-0.020,-0.020,0.000,0.000,0.000
1644939507215364096,2022-02-15-15:38:27,10.1.1.2,28,0.100,0.100,0.100,0.000,0.000,0.000
1644939508306981120,2022-02-15-15:38:28,10.1.1.2,38,-0.090,-0.090,-0.090,0.000,0.000,0.000
1644939509115948800,2022-02-15-15:38:29,10.1.1.2,29,0.070,0.070,0.070,0.000,0.000,0.000
1644939509165683968,2022-02-15-15:38:29,10.1.1.2,28,0.080,0.080,0.080,0.000,0.000,0.000
1644939509357424128,2022-02-15-15:38:29,10.1.1.2,15,0.080,0.080,0.080,0.000,0.000,0.000
1644939509765860096,2022-02-15-15:38:29,10.1.1.2,20,0.000,0.000,0.000,0.000,0.000,0.000
1644939510188308992,2022-02-15-15:38:30,10.1.1.2,29,-0.070,-0.070,-0.070,0.000,0.000,0.000
1644939510819287040,2022-02-15-15:38:30,10.1.1.2,49,-0.010,-0.010,-0.010,0.000,0.000,0.000
1644939511836897024,2022-02-15-15:38:31,10.1.1.2,39,0.010,0.010,0.010,0.000,0.000,0.000
1644939512946568960,2022-02-15-15:38:32,10.1.1.2,19,0.010,0.010,0.010,0.000,0.000,0.000
1644939513566017024,2022-02-15-15:38:33,10.1.1.2,29,0.070,0.070,0.070,0.000,0.000,0.000
1644939514126377984,2022-02-15-15:38:34,10.1.1.2,30,-0.040,-0.040,-0.040,0.000,0.000,0.000
1644939514186016000,2022-02-15-15:38:34,10.1.1.2,39,-0.050,-0.050,-0.050,0.000,0.000,0.000
1644939514241483008,2022-02-15-15:38:34,10.1.1.2,39,-0.060,-0.060,-0.060,0.000,0.000,0.000
1644939514637547008,2022-02-15-15:38:34,10.1.1.2,28,-0.060,-0.060,-0.060,0.000,0.000,0.000
1644939514858266112,2022-02-15-15:38:34,10.1.1.2,39,-0.020,-0.020,-0.020,0.000,0.000,0.000
1644939516046083072,2022-02-15-15:38:36,10.1.1.2,29,0.080,0.080,0.080,0.000,0.000,0.000
1644939516306080000,2022-02-15-15:38:36,10.1.1.2,29,0.030,0.030,0.030,0.000,0.000,0.000
1644939516365500928,2022-02-15-15:38:36,10.1.1.2,38,0.020,0.020,0.020,0.000,0.000,0.000
1644939516586796032,2022-02-15-15:38:36,10.1.1.2,39,-0.020,-0.020,-0.020,0.000,0.000,0.000
1644939516627002880,2022-02-15-15:38:36,10.1.1.2,28,-0.030,-0.030,-0.030,0.000,0.000,0.000
1644939517365402880,2022-02-15-15:38:37,10.1.1.2,23,-0.030,-0.030,-0.030,0.000,0.000,0.000
1644939517567148032,2022-02-15-15:38:37,10.1.1.2,21,0.010,0.010,0.010,0.000,0.000,0.000
1644939517626128896,2022-02-15-15:38:37,10.1.1.2,30,0.020,0.020,0.020,0.000,0.000,0.000
1644939518417844992,2022-02-15-15:38:38,10.1.1.2,10,0.020,0.020,0.020,0.000,0.000,0.000
1644939518486407168,2022-02-15-15:38:38,10.1.1.2,29,0.010,0.010,0.010,0.000,0.000,0.000
1644939518545945856,2022-02-15-15:38:38,10.1.1.2,38,0.000,0.000,0.000,0.000,0.000,0.000
1644939518585760000,2022-02-15-15:38:38,10.1.1.2,28,-0.010,-0.010,-0.010,0.000,0.000,0.000
1644939519346107904,2022-02-15-15:38:39,10.1.1.2,30,-0.040,-0.040,-0.040,0.000,0.000,0.000
1644939519405945088,2022-02-15-15:38:39,10.1.1.2,39,-0.030,-0.030,-0.030,0.000,0.000,0.000
1644939519946194944,2022-02-15-15:38:39,10.1.1.2,19,0.080,0.080,0.080,0.000,0.000,0.000
1644939520155803904,2022-02-15-15:38:40,10.1.1.2,27,0.080,0.080,0.080,0.000,0.000,0.000
1644939520626610944,2022-02-15-15:38:40,10.1.1.2,40,-0.010,-0.010,-0.010,0.000,0.000,0.000
1644939521126540032,2022-02-15-15:38:41,10.1.1.2,30,-0.090,-0.090,-0.090,0.000,0.000,0.000
1644939521546139904,2022-02-15-15:38:41,10.1.1.2,38,-0.010,-0.010,-0.010,0.000,0.000,0.000
1644939522245188096,2022-02-15-15:38:42,10.1.1.2,39,0.080,0.080,0.080,0.000,0.000,0.000
1644939523876261120,2022-02-15-15:38:43,10.1.1.2,40,0.040,0.040,0.040,0.000,0.000,0.000
1644939524481985024,2022-02-15-15:38:44,10.1.1.2,3,0.040,0.040,0.040,0.000,0.000,0.000
1644939524904957184,2022-02-15-15:38:44,10.1.1.2,29,-0.040,-0.040,-0.040,0.000,0.000,0.000
1644939525525564928,2022-02-15-15:38:45,10.1.1.2,21,-0.040,-0.040,-0.040,0.000,0.000,0.000
1644939525585537024,2022-02-15-15:38:45,10.1.1.2,30,-0.030,-0.030,-0.030,0.000,0.000,0.000
1644939525645869056,2022-02-15-15:38:45,10.1.1.2,39,-0.020,-0.020,-0.020,0.000,0.000,0.000
1644939526306572800,2022-02-15-15:38:46,10.1.1.2,39,0.090,0.090,0.090,0.000,0.000,0.000
1644939526357470976,2022-02-15-15:38:46,10.1.1.2,38,0.080,0.080,0.080,0.000,0.000,0.000
1644939526976696064,2022-02-15-15:38:46,10.1.1.2,39,-0.040,-0.040,-0.040,0.000,0.000,0.000
1644939527027043072,2022-02-15-15:38:47,10.1.1.2,39,-0.050,-0.050,-0.050,0.000,0.000,0.000
1644939527435858944,2022-02-15-15:38:47,10.1.1.2,30,-0.070,-0.070,-0.070,0.000,0.000,0.000
1644939527485095936,2022-02-15-15:38:47,10.1.1.2,29,-0.060,-0.060,-0.060,0.000,0.000,0.000
1644939527596252928,2022-02-15-15:38:47,10.1.1.2,28,-0.040,-0.040,-0.040,0.000,0.000,0.000
1644939528035182848,2022-02-15-15:38:48,10.1.1.2,49,0.040,0.040,0.040,0.000,0.000,0.000
1644939528324930048,2022-02-15-15:38:48,10.1.1.2,29,0.100,0.100,0.100,0.000,0.000,0.000
1644939528394951936,2022-02-15-15:38:48,10.1.1.2,48,0.090,0.090,0.090,0.000,0.000,0.000
1644939529036829952,2022-02-15-15:38:49,10.1.1.2,29,-0.030,-0.030,-0.030,0.000,0.000,0.000
1644939529767172096,2022-02-15-15:38:49,10.1.1.2,-6,-0.030,-0.030,-0.030,0.000,0.000,0.000
1644939529945827840,2022-02-15-15:38:49,10.1.1.2,30,0.000,0.000,0.000,0.000,0.000,0.000
1644939530005229056,2022-02-15-15:38:50,10.1.1.2,38,0.010,0.010,0.010,0.000,0.000,0.000
1644939530455506176,2022-02-15-15:38:50,10.1.1.2,29,0.100,0.100,0.100,0.000,0.000,0.000
1644939530515481856,2022-02-15-15:38:50,10.1.1.2,39,0.090,0.090,0.090,0.000,0.000,0.000
1644939530565201152,2022-02-15-15:38:50,10.1.1.2,38,0.080,0.080,0.080,0.000,0.000,0.000
1644939530965436928,2022-02-15-15:38:50,10.1.1.2,29,0.000,0.000,0.000,0.000,0.000,0.000
1644939531015033856,2022-02-15-15:38:51,10.1.1.2,28,-0.010,-0.010,-0.010,0.000,0.000,0.000
1644939531276884992,2022-02-15-15:38:51,10.1.1.2,29,-0.060,-0.060,-0.060,0.000,0.000,0.000
1644939531335954944,2022-02-15-15:38:51,10.1.1.2,39,-0.070,-0.070,-0.070,0.000,0.000,0.000
1644939531616559104,2022-02-15-15:38:51,10.1.1.2,15,-0.070,-0.070,-0.070,0.000,0.000,0.000
1644939532244859904,2022-02-15-15:38:52,10.1.1.2,29,0.050,0.050,0.050,0.000,0.000,0.000
1644939532296036864,2022-02-15-15:38:52,10.1.1.2,29,0.060,0.060,0.060,0.000,0.000,0.000
1644939532686320128,2022-02-15-15:38:52,10.1.1.2,12,0.060,0.060,0.060,0.000,0.000,0.000
1644939532815671040,2022-02-15-15:38:52,10.1.1.2,39,0.040,0.040,0.040,0.000,0.000,0.000
1644939532857243136,2022-02-15-15:38:52,10.1.1.2,29,0.030,0.030,0.030,0.000,0.000,0.000
1644939533477498112,2022-02-15-15:38:53,10.1.1.2,39,-0.090,-0.090,-0.090,0.000,0.000,0.000
1644939533557060096,2022-02-15-15:38:53,10.1.1.2,16,-0.090,-0.090,-0.090,0.000,0.000,0.000
1644939534026112000,2022-02-15-15:38:54,10.1.1.2,29,0.000,0.000,0.000,0.000,0.000,0.000
1644939534086194944,2022-02-15-15:38:54,10.1.1.2,39,0.010,0.010,0.010,0.000,0.000,0.000
1644939534126418944,2022-02-15-15:38:54,10.1.1.2,28,0.020,0.020,0.020,0.000,0.000,0.000
1644939534497844992,2022-02-15-15:38:54,10.1.1.2,38,0.090,0.090,0.090,0.000,0.000,0.000
1644939534574884864,2022-02-15-15:38:54,10.1.1.2,15,0.090,0.090,0.090,0.000,0.000,0.000
1644939534886243072,2022-02-15-15:38:54,10.1.1.2,20,0.030,0.030,0.030,0.000,0.000,0.000
1644939535406294016,2022-02-15-15:38:55,10.1.1.2,29,-0.070,-0.070,-0.070,0.000,0.000,0.000
1644939535476957952,2022-02-15-15:38:55,10.1.1.2,48,-0.080,-0.080,-0.080,0.000,0.000,0.000
1644939535656048896,2022-02-15-15:38:55,10.1.1.2,23,-0.080,-0.080,-0.080,0.000,0.000,0.000
1644939536085086976,2022-02-15-15:38:56,10.1.1.2,29,0.000,0.000,0.000,0.000,0.000,0.000
1644939536618156800,2022-02-15-15:38:56,10.1.1.2,49,0.100,0.100,0.100,0.000,0.000,0.000
1644939537829760000,2022-02-15-15:38:57,10.1.1.2,29,-0.050,-0.050,-0.050,0.000,0.000,0.000
1644939538065093888,2022-02-15-15:38:58,10.1.1.2,29,-0.100,-0.100,-0.100,0.000,0.000,0.000
1644939538397822976,2022-02-15-15:38:58,10.1.1.2,49,-0.040,-0.040,-0.040,0.000,0.000,0.000
1644939539349211904,2022-02-15-15:38:59,10.1.1.2,19,0.050,0.050,0.050,0.000,0.000,0.000
1644939539405396992,2022-02-15-15:38:59,10.1.1.2,29,0.040,0.040,0.040,0.000,0.000,0.000
1644939539465984000,2022-02-15-15:38:59,10.1.1.2,38,0.030,0.030,0.030,0.000,0.000,0.000
1644939539915553024,2022-02-15-15:38:59,10.1.1.2,30,-0.060,-0.060,-0.060,0.000,0.000,0.000
1644939539965008128,2022-02-15-15:38:59,10.1.1.2,29,-0.070,-0.070,-0.070,0.000,0.000,0.000
1644939540257314816,2022-02-15-15:39:00,10.1.1.2,4,-0.070,-0.070,-0.070,0.000,0.000,0.000
1644939540715930880,2022-02-15-15:39:00,10.1.1.2,39,0.010,0.010,0.010,0.000,0.000,0.000
1644939540975683840,2022-02-15-15:39:00,10.1.1.2,39,0.060,0.060,0.060,0.000,0.000,0.000
1644939541015908096,2022-02-15-15:39:01,10.1.1.2,28,0.070,0.070,0.070,0.000,0.000,0.000
1644939541307313920,2022-02-15-15:39:01,10.1.1.2,14,0.070,0.070,0.070,0.000,0.000,0.000
1644939541397785856,2022-02-15-15:39:01,10.1.1.2,40,0.060,0.060,0.060,0.000,0.000,0.000
1644939541438465024,2022-02-15-15:39:01,10.1.1.2,29,0.050,0.050,0.050,0.000,0.000,0.000
1644939541485975040,2022-02-15-15:39:01,10.1.1.2,29,0.040,0.040,0.040,0.000,0.000,0.000
1644939541536078080,2022-02-15-15:39:01,10.1.1.2,29,0.030,0.030,0.030,0.000,0.000,0.000
1644939541595143168,2022-02-15-15:39:01,10.1.1.2,38,0.020,0.020,0.020,0.000,0.000,0.000
1644939542467116032,2022-02-15-15:39:02,10.1.1.2,19,-0.050,-0.050,-0.050,0.000,0.000,0.000
1644939542526643968,2022-02-15-15:39:02,10.1.1.2,29,-0.040,-0.040,-0.040,0.000,0.000,0.000
1644939543946204928,2022-02-15-15:39:03,10.1.1.2,29,-0.030,-0.030,-0.030,0.000,0.000,0.000
1644939544115997184,2022-02-15-15:39:04,10.1.1.2,39,-0.060,-0.060,-0.060,0.000,0.000,0.000
1644939544175507968,2022-02-15-15:39:04,10.1.1.2,49,-0.070,-0.070,-0.070,0.000,0.000,0.000
1644939544445865984,2022-02-15-15:39:04,10.1.1.2,15,-0.070,-0.070,-0.070,0.000,0.000,0.000
1644939544625893120,2022-02-15-15:39:04,10.1.1.2,39,-0.040,-0.040,-0.040,0.000,0.000,0.000
1644939545555556096,2022-02-15-15:39:05,10.1.1.2,28,0.070,0.070,0.070,0.000,0.000,0.000
1644939546056456960,2022-02-15-15:39:06,10.1.1.2,29,-0.020,-0.020,-0.020,0.000,0.000,0.000
1644939546128231936,2022-02-15-15:39:06,10.1.1.2,38,-0.030,-0.030,-0.030,0.000,0.000,0.000
1644939546376349952,2022-02-15-15:39:06,10.1.1.2,39,-0.080,-0.080,-0.080,0.000,0.000,0.000
1644939546565831936,2022-02-15-15:39:06,10.1.1.2,23,-0.080,-0.080,-0.080,0.000,0.000,0.000
1644939546775881984,2022-02-15-15:39:06,10.1.1.2,29,-0.040,-0.040,-0.040,0.000,0.000,0.000
1644939546841300992,2022-02-15-15:39:06,10.1.1.2,38,-0.030,-0.030,-0.030,0.000,0.000,0.000
1644939547296722944,2022-02-15-15:39:07,10.1.1.2,30,0.060,0.060,0.060,0.000,0.000,0.000
1644939547354417920,2022-02-15-15:39:07,10.1.1.2,28,0.070,0.070,0.070,0.000,0.000,0.000
1644939547646390016,2022-02-15-15:39:07,10.1.1.2,6,0.070,0.070,0.070,0.000,0.000,0.000
1644939547835587072,2022-02-15-15:39:07,10.1.1.2,29,0.040,0.040,0.040,0.000,0.000,0.000
1644939548165168896,2022-02-15-15:39:08,10.1.1.2,30,-0.020,-0.020,-0.020,0.000,0.000,0.000
1644939548236016128,2022-02-15-15:39:08,10.1.1.2,48,-0.030,-0.030,-0.030,0.000,0.000,0.000
1644939548688955904,2022-02-15-15:39:08,10.1.1.2,30,-0.090,-0.090,-0.090,0.000,0.000,0.000
1644939549645238016,2022-02-15-15:39:09,10.1.1.2,30,0.100,0.100,0.100,0.000,0.000,0.000
1644939549929415936,2022-02-15-15:39:09,10.1.1.2,29,0.050,0.050,0.050,0.000,0.000,0.000
1644939550736726016,2022-02-15-15:39:10,10.1.1.2,48,-0.090,-0.090,-0.090,0.000,0.000,0.000
1644939550795345920,2022-02-15-15:39:10,10.1.1.2,7,-0.090,-0.090,-0.090,0.000,0.000,0.000
1644939550974584064,2022-02-15-15:39:10,10.1.1.2,28,-0.060,-0.060,-0.060,0.000,0.000,0.000
1644939551455035904,2022-02-15-15:39:11,10.1.1.2,39,0.030,0.030,0.030,0.000,0.000,0.000
1644939552116923136,2022-02-15-15:39:12,10.1.1.2,31,0.040,0.040,0.040,0.000,0.000,0.000
1644939552936666112,2022-02-15-15:39:12,10.1.1.2,29,-0.080,-0.080,-0.080,0.000,0.000,0.000
1644939553466369024,2022-02-15-15:39:13,10.1.1.2,29,0.020,0.020,0.020,0.000,0.000,0.000
1644939553745672960,2022-02-15-15:39:13,10.1.1.2,39,0.060,0.060,0.060,0.000,0.000,0.000
1644939553785076992,2022-02-15-15:39:13,10.1.1.2,29,0.070,0.070,0.070,0.000,0.000,0.000
1644939553839497216,2022-02-15-15:39:13,10.1.1.2,28,0.080,0.080,0.080,0.000,0.000,0.000
1644939554005700096,2022-02-15-15:39:14,10.1.1.2,40,0.090,0.090,0.090,0.000,0.000,0.000
1644939555388015104,2022-02-15-15:39:15,10.1.1.2,20,-0.020,-0.020,-0.020,0.000,0.000,0.000
1644939556056009984,2022-02-15-15:39:16,10.1.1.2,30,0.090,0.090,0.090,0.000,0.000,0.000
1644939556776811008,2022-02-15-15:39:16,10.1.1.2,39,-0.050,-0.050,-0.050,0.000,0.000,0.000
1644939556833784064,2022-02-15-15:39:16,10.1.1.2,39,-0.060,-0.060,-0.060,0.000,0.000,0.000
1644939556975528960,2022-02-15-15:39:16,10.1.1.2,20,-0.090,-0.090,-0.090,0.000,0.000,0.000
1644939557066071040,2022-02-15-15:39:17,10.1.1.2,6,-0.090,-0.090,-0.090,0.000,0.000,0.000
1644939557302968064,2022-02-15-15:39:17,10.1.1.2,39,-0.050,-0.050,-0.050,0.000,0.000,0.000
1644939557715920896,2022-02-15-15:39:17,10.1.1.2,39,0.030,0.030,0.030,0.000,0.000,0.000
1644939558417232128,2022-02-15-15:39:18,10.1.1.2,20,0.030,0.030,0.030,0.000,0.000,0.000
1644939558635924992,2022-02-15-15:39:18,10.1.1.2,37,-0.010,-0.010,-0.010,0.000,0.000,0.000
1644939559095959808,2022-02-15-15:39:19,10.1.1.2,39,-0.100,-0.100,-0.100,0.000,0.000,0.000
1644939559156014080,2022-02-15-15:39:19,10.1.1.2,50,-0.090,-0.090,-0.090,0.000,0.000,0.000
1644939559794678016,2022-02-15-15:39:19,10.1.1.2,29,0.040,0.040,0.040,0.000,0.000,0.000
1644939560354739968,2022-02-15-15:39:20,10.1.1.2,29,0.050,0.050,0.050,0.000,0.000,0.000
1644939561692034048,2022-02-15-15:39:21,10.1.1.2,49,-0.080,-0.080,-0.080,0.000,0.000,0.000
1644939562076551936,2022-02-15-15:39:22,10.1.1.2,29,0.000,0.000,0.000,0.000,0.000,0.000
1644939562126588160,2022-02-15-15:39:22,10.1.1.2,29,0.010,0.010,0.010,0.000,0.000,0.000
1644939562694972160,2022-02-15-15:39:22,10.1.1.2,29,0.080,0.080,0.080,0.000,0.000,0.000
1644939562965202944,2022-02-15-15:39:22,10.1.1.2,39,0.030,0.030,0.030,0.000,0.000,0.000
1644939563005654016,2022-02-15-15:39:23,10.1.1.2,29,0.020,0.020,0.020,0.000,0.000,0.000
1644939563175578112,2022-02-15-15:39:23,10.1.1.2,40,-0.010,-0.010,-0.010,0.000,0.000,0.000
1644939563215162112,2022-02-15-15:39:23,10.1.1.2,29,-0.020,-0.020,-0.020,0.000,0.000,0.000
1644939563264800000,2022-02-15-15:39:23,10.1.1.2,29,-0.030,-0.030,-0.030,0.000,0.000,0.000
1644939563325918976,2022-02-15-15:39:23,10.1.1.2,39,-0.040,-0.040,-0.040,0.000,0.000,0.000
1644939563926050048,2022-02-15-15:39:23,10.1.1.2,10,-0.040,-0.040,-0.040,0.000,0.000,0.000
1644939564031717120,2022-02-15-15:39:23,10.1.1.2,19,-0.030,-0.030,-0.030,0.000,0.000,0.000
1644939564576353024,2022-02-15-15:39:24,10.1.1.2,39,0.080,0.080,0.080,0.000,0.000,0.000
1644939564757607936,2022-02-15-15:39:24,10.1.1.2,16,0.080,0.080,0.080,0.000,0.000,0.000
1644939565836702208,2022-02-15-15:39:25,10.1.1.2,29,-0.070,-0.070,-0.070,0.000,0.000,0.000
1644939566298664192,2022-02-15-15:39:26,10.1.1.2,30,0.020,0.020,0.020,0.000,0.000,0.000
1644939567106556928,2022-02-15-15:39:27,10.1.1.2,15,0.020,0.020,0.020,0.000,0.000,0.000
1644939567525603072,2022-02-15-15:39:27,10.1.1.2,29,-0.060,-0.060,-0.060,0.000,0.000,0.000
1644939567927892992,2022-02-15-15:39:27,10.1.1.2,16,-0.060,-0.060,-0.060,0.000,0.000,0.000
1644939568206471936,2022-02-15-15:39:28,10.1.1.2,39,-0.010,-0.010,-0.010,0.000,0.000,0.000
1644939569319165952,2022-02-15-15:39:29,10.1.1.2,2,-0.010,-0.010,-0.010,0.000,0.000,0.000
1644939569577303040,2022-02-15-15:39:29,10.1.1.2,49,-0.050,-0.050,-0.050,0.000,0.000,0.000
1644939569875161856,2022-02-15-15:39:29,10.1.1.2,39,-0.090,-0.090,-0.090,0.000,0.000,0.000
1644939569936265984,2022-02-15-15:39:29,10.1.1.2,49,-0.080,-0.080,-0.080,0.000,0.000,0.000
1644939570239156992,2022-02-15-15:39:30,10.1.1.2,39,-0.020,-0.020,-0.020,0.000,0.000,0.000
1644939570691014144,2022-02-15-15:39:30,10.1.1.2,29,0.020,0.020,0.020,0.000,0.000,0.000
1644939571485323008,2022-02-15-15:39:31,10.1.1.2,9,0.020,0.020,0.020,0.000,0.000,0.000
1644939571617542912,2022-02-15-15:39:31,10.1.1.2,38,0.000,0.000,0.000,0.000,0.000,0.000
1644939572325265920,2022-02-15-15:39:32,10.1.1.2,30,-0.060,-0.060,-0.060,0.000,0.000,0.000
1644939572606241024,2022-02-15-15:39:32,10.1.1.2,30,-0.010,-0.010,-0.010,0.000,0.000,0.000
1644939572665290240,2022-02-15-15:39:32,10.1.1.2,38,0.000,0.000,0.000,0.000,0.000,0.000
1644939573372771072,2022-02-15-15:39:33,10.1.1.2,29,0.060,0.060,0.060,0.000,0.000,0.000
1644939573425774080,2022-02-15-15:39:33,10.1.1.2,38,0.050,0.050,0.050,0.000,0.000,0.000
1644939573786211840,2022-02-15-15:39:33,10.1.1.2,30,-0.020,-0.020,-0.020,0.000,0.000,0.000
1644939573847213056,2022-02-15-15:39:33,10.1.1.2,39,-0.030,-0.030,-0.030,0.000,0.000,0.000
1644939573896176128,2022-02-15-15:39:33,10.1.1.2,38,-0.040,-0.040,-0.040,0.000,0.000,0.000
1644939574145967104,2022-02-15-15:39:34,10.1.1.2,29,-0.090,-0.090,-0.090,0.000,0.000,0.000
1644939574225615104,2022-02-15-15:39:34,10.1.1.2,6,-0.090,-0.090,-0.090,0.000,0.000,0.000
1644939574675714048,2022-02-15-15:39:34,10.1.1.2,29,-0.010,-0.010,-0.010,0.000,0.000,0.000
1644939575369826048,2022-02-15-15:39:35,10.1.1.2,29,0.080,0.080,0.080,0.000,0.000,0.000
1644939575764643840,2022-02-15-15:39:35,10.1.1.2,20,0.010,0.010,0.010,0.000,0.000,0.000
1644939576249412096,2022-02-15-15:39:36,10.1.1.2,20,-0.080,-0.080,-0.080,0.000,0.000,0.000
1644939576659707904,2022-02-15-15:39:36,10.1.1.2,16,-0.080,-0.080,-0.080,0.000,0.000,0.000
1644939576818711040,2022-02-15-15:39:36,10.1.1.2,39,-0.050,-0.050,-0.050,0.000,0.000,0.000
1644939576854878976,2022-02-15-15:39:36,10.1.1.2,29,-0.040,-0.040,-0.040,0.000,0.000,0.000
1644939576905618944,2022-02-15-15:39:36,10.1.1.2,28,-0.030,-0.030,-0.030,0.000,0.000,0.000
1644939578305071104,2022-02-15-15:39:38,10.1.1.2,39,-0.020,-0.020,-0.020,0.000,0.000,0.000
1644939578345398016,2022-02-15-15:39:38,10.1.1.2,29,-0.030,-0.030,-0.030,0.000,0.000,0.000
1644939578935579904,2022-02-15-15:39:38,10.1.1.2,30,-0.060,-0.060,-0.060,0.000,0.000,0.000
1644939579359148032,2022-02-15-15:39:39,10.1.1.2,39,0.020,0.020,0.020,0.000,0.000,0.000
1644939579407855872,2022-02-15-15:39:39,10.1.1.2,38,0.030,0.030,0.030,0.000,0.000,0.000
1644939580106679040,2022-02-15-15:39:40,10.1.1.2,5,0.030,0.030,0.030,0.000,0.000,0.000
1644939581135616000,2022-02-15-15:39:40,10.1.1.2,49,-0.080,-0.080,-0.080,0.000,0.000,0.000
1644939583065051136,2022-02-15-15:39:43,10.1.1.2,13,-0.080,-0.080,-0.080,0.000,0.000,0.000
1644939583286199040,2022-02-15-15:39:43,10.1.1.2,12,-0.080,-0.080,-0.080,0.000,0.000,0.000
1644939583474941952,2022-02-15-15:39:43,10.1.1.2,30,-0.050,-0.050,-0.050,0.000,0.000,0.000
1644939585386307072,2022-02-15-15:39:45,10.1.1.2,-34,-0.050,-0.050,-0.050,0.000,0.000,0.000
1644939585942816000,2022-02-15-15:39:45,10.1.1.2,5,-0.050,-0.050,-0.050,0.000,0.000,0.000
1644939587026828032,2022-02-15-15:39:47,10.1.1.2,30,0.040,0.040,0.040,0.000,0.000,0.000
1644939588517595904,2022-02-15-15:39:48,10.1.1.2,15,0.040,0.040,0.040,0.000,0.000,0.000
1644939589496391168,2022-02-15-15:39:48,10.1.1.2,29,0.100,0.100,0.100,0.000,0.000,0.000
1644939590007243008,2022-02-15-15:39:50,10.1.1.2,39,0.000,0.000,0.000,0.000,0.000,0.000
1644939590207330048,2022-02-15-15:39:50,10.1.1.2,29,-0.040,-0.040,-0.040,0.000,0.000,0.000
1644939590756290816,2022-02-15-15:39:50,10.1.1.2,30,-0.060,-0.060,-0.060,0.000,0.000,0.000
1644939590929270016,2022-02-15-15:39:50,10.1.1.2,30,-0.030,-0.030,-0.030,0.000,0.000,0.000
1644939591182080000,2022-02-15-15:39:51,10.1.1.2,39,0.010,0.010,0.010,0.000,0.000,0.000
1644939592239088128,2022-02-15-15:39:52,10.1.1.2,-110,0.030,0.030,0.030,0.000,0.000,0.000
1644939593307732224,2022-02-15-15:39:53,10.1.1.2,11,-0.050,-0.050,-0.050,0.000,0.000,0.000
1644939594727586048,2022-02-15-15:39:54,10.1.1.2,39,-0.020,-0.020,-0.020,0.000,0.000,0.000
1644939594887043072,2022-02-15-15:39:54,10.1.1.2,39,-0.050,-0.050,-0.050,0.000,0.000,0.000
1644939594928457984,2022-02-15-15:39:54,10.1.1.2,28,-0.060,-0.060,-0.060,0.000,0.000,0.000
1644939595327601920,2022-02-15-15:39:55,10.1.1.2,23,-0.060,-0.060,-0.060,0.000,0.000,0.000
1644939596207190016,2022-02-15-15:39:56,10.1.1.2,29,0.090,0.090,0.090,0.000,0.000,0.000
1644939596267313920,2022-02-15-15:39:56,10.1.1.2,39,0.080,0.080,0.080,0.000,0.000,0.000
1644939597449188864,2022-02-15-15:39:57,10.1.1.2,29,-0.050,-0.050,-0.050,0.000,0.000,0.000
1644939597506590976,2022-02-15-15:39:57,10.1.1.2,39,-0.040,-0.040,-0.040,0.000,0.000,0.000
1644939598927564032,2022-02-15-15:39:58,10.1.1.2,20,-0.040,-0.040,-0.040,0.000,0.000,0.000
1644939598987009024,2022-02-15-15:39:58,10.1.1.2,29,-0.050,-0.050,-0.050,0.000,0.000,0.000
1644939599487771904,2022-02-15-15:39:59,10.1.1.2,19,-0.050,-0.050,-0.050,0.000,0.000,0.000
1644939600207034112,2022-02-15-15:40:00,10.1.1.2,29,0.090,0.090,0.090,0.000,0.000,0.000
1644939600287035904,2022-02-15-15:40:00,10.1.1.2,8,0.090,0.090,0.090,0.000,0.000,0.000
1644939600966823936,2022-02-15-15:40:00,10.1.1.2,29,-0.040,-0.040,-0.040,0.000,0.000,0.000
1644939601027069184,2022-02-15-15:40:01,10.1.1.2,38,-0.050,-0.050,-0.050,0.000,0.000,0.000
1644939601511646976,2022-02-15-15:40:01,10.1.1.2,11,-0.050,-0.050,-0.050,0.000,0.000,0.000
1644939602050436864,2022-02-15-15:40:02,10.1.1.2,39,0.050,0.050,0.050,0.000,0.000,0.000
1644939602087372032,2022-02-15-15:40:02,10.1.1.2,29,0.060,0.060,0.060,0.000,0.000,0.000
1644939602147162880,2022-02-15-15:40:02,10.1.1.2,39,0.070,0.070,0.070,0.000,0.000,0.000
1644939602188944128,2022-02-15-15:40:02,10.1.1.2,28,0.080,0.080,0.080,0.000,0.000,0.000
1644939602386673920,2022-02-15-15:40:02,10.1.1.2,24,0.080,0.080,0.080,0.000,0.000,0.000
1644939602806755072,2022-02-15-15:40:02,10.1.1.2,39,0.000,0.000,0.000,0.000,0.000,0.000
1644939602847011072,2022-02-15-15:40:02,10.1.1.2,29,-0.010,-0.010,-0.010,0.000,0.000,0.000
1644939602908904192,2022-02-15-15:40:02,10.1.1.2,39,-0.020,-0.020,-0.020,0.000,0.000,0.000
1644939602946531072,2022-02-15-15:40:02,10.1.1.2,28,-0.030,-0.030,-0.030,0.000,0.000,0.000
1644939603006993152,2022-02-15-15:40:03,10.1.1.2,37,-0.040,-0.040,-0.040,0.000,0.000,0.000
1644939603506823936,2022-02-15-15:40:03,10.1.1.2,29,-0.060,-0.060,-0.060,0.000,0.000,0.000
1644939603566953984,2022-02-15-15:40:03,10.1.1.2,38,-0.050,-0.050,-0.050,0.000,0.000,0.000
1644939604027224064,2022-02-15-15:40:04,10.1.1.2,39,0.040,0.040,0.040,0.000,0.000,0.000
1644939604067208960,2022-02-15-15:40:04,10.1.1.2,28,0.050,0.050,0.050,0.000,0.000,0.000
1644939604567521024,2022-02-15-15:40:04,10.1.1.2,23,0.050,0.050,0.050,0.000,0.000,0.000
1644939604887027968,2022-02-15-15:40:04,10.1.1.2,38,-0.010,-0.010,-0.010,0.000,0.000,0.000
1644939605798789120,2022-02-15-15:40:05,10.1.1.2,7,-0.010,-0.010,-0.010,0.000,0.000,0.000
1644939606027044096,2022-02-15-15:40:06,10.1.1.2,39,0.030,0.030,0.030,0.000,0.000,0.000
1644939606387289088,2022-02-15-15:40:06,10.1.1.2,39,0.100,0.100,0.100,0.000,0.000,0.000
1644939606547232000,2022-02-15-15:40:06,10.1.1.2,29,0.070,0.070,0.070,0.000,0.000,0.000
1644939606607426816,2022-02-15-15:40:06,10.1.1.2,39,0.060,0.060,0.060,0.000,0.000,0.000
1644939606648083968,2022-02-15-15:40:06,10.1.1.2,29,0.050,0.050,0.050,0.000,0.000,0.000
1644939607747488000,2022-02-15-15:40:07,10.1.1.2,29,-0.040,-0.040,-0.040,0.000,0.000,0.000
1644939607806874880,2022-02-15-15:40:07,10.1.1.2,38,-0.030,-0.030,-0.030,0.000,0.000,0.000
1644939608167237120,2022-02-15-15:40:08,10.1.1.2,39,0.040,0.040,0.040,0.000,0.000,0.000
1644939608428188160,2022-02-15-15:40:08,10.1.1.2,21,0.090,0.090,0.090,0.000,0.000,0.000
1644939608527899904,2022-02-15-15:40:08,10.1.1.2,17,0.090,0.090,0.090,0.000,0.000,0.000
1644939608909040896,2022-02-15-15:40:08,10.1.1.2,29,0.020,0.020,0.020,0.000,0.000,0.000
1644939609966694144,2022-02-15-15:40:09,10.1.1.2,29,-0.020,-0.020,-0.020,0.000,0.000,0.000
1644939610027587840,2022-02-15-15:40:10,10.1.1.2,38,-0.010,-0.010,-0.010,0.000,0.000,0.000
1644939610548235008,2022-02-15-15:40:10,10.1.1.2,30,0.090,0.090,0.090,0.000,0.000,0.000
1644939610627454976,2022-02-15-15:40:10,10.1.1.2,6,0.090,0.090,0.090,0.000,0.000,0.000
1644939610707629056,2022-02-15-15:40:10,10.1.1.2,29,0.080,0.080,0.080,0.000,0.000,0.000
1644939611477340928,2022-02-15-15:40:11,10.1.1.2,39,-0.060,-0.060,-0.060,0.000,0.000,0.000
1644939611519463168,2022-02-15-15:40:11,10.1.1.2,28,-0.070,-0.070,-0.070,0.000,0.000,0.000
1644939611567015936,2022-02-15-15:40:11,10.1.1.2,38,-0.080,-0.080,-0.080,0.000,0.000,0.000
1644939611746948864,2022-02-15-15:40:11,10.1.1.2,15,-0.080,-0.080,-0.080,0.000,0.000,0.000
1644939612226562048,2022-02-15-15:40:12,10.1.1.2,39,0.010,0.010,0.010,0.000,0.000,0.000
1644939612269041152,2022-02-15-15:40:12,10.1.1.2,29,0.020,0.020,0.020,0.000,0.000,0.000
1644939612326548992,2022-02-15-15:40:12,10.1.1.2,38,0.030,0.030,0.030,0.000,0.000,0.000
1644939613007463936,2022-02-15-15:40:13,10.1.1.2,11,0.030,0.030,0.030,0.000,0.000,0.000
1644939613226792960,2022-02-15-15:40:13,10.1.1.2,29,-0.010,-0.010,-0.010,0.000,0.000,0.000
1644939613286930944,2022-02-15-15:40:13,10.1.1.2,39,-0.020,-0.020,-0.020,0.000,0.000,0.000
1644939614067280896,2022-02-15-15:40:14,10.1.1.2,10,-0.020,-0.020,-0.020,0.000,0.000,0.000
1644939614132481024,2022-02-15-15:40:14,10.1.1.2,20,-0.010,-0.010,-0.010,0.000,0.000,0.000
1644939614191576832,2022-02-15-15:40:14,10.1.1.2,29,0.000,0.000,0.000,0.000,0.000,0.000
1644939614246886912,2022-02-15-15:40:14,10.1.1.2,38,0.010,0.010,0.010,0.000,0.000,0.000
1644939614507097088,2022-02-15-15:40:14,10.1.1.2,39,0.060,0.060,0.060,0.000,0.000,0.000
1644939614547517952,2022-02-15-15:40:14,10.1.1.2,28,0.070,0.070,0.070,0.000,0.000,0.000
1644939614846896896,2022-02-15-15:40:14,10.1.1.2,24,0.070,0.070,0.070,0.000,0.000,0.000
1644939615208007936,2022-02-15-15:40:15,10.1.1.2,30,0.000,0.000,0.000,0.000,0.000,0.000
1644939615266955008,2022-02-15-15:40:15,10.1.1.2,39,-0.010,-0.010,-0.010,0.000,0.000,0.000
1644939615311419136,2022-02-15-15:40:15,10.1.1.2,32,-0.020,-0.020,-0.020,0.000,0.000,0.000
1644939616127207168,2022-02-15-15:40:16,10.1.1.2,19,-0.020,-0.020,-0.020,0.000,0.000,0.000
1644939616186928896,2022-02-15-15:40:16,10.1.1.2,29,-0.010,-0.010,-0.010,0.000,0.000,0.000
1644939616246884096,2022-02-15-15:40:16,10.1.1.2,38,0.000,0.000,0.000,0.000,0.000,0.000
1644939617007086080,2022-02-15-15:40:17,10.1.1.2,28,0.050,0.050,0.050,0.000,0.000,0.000
1644939617507448064,2022-02-15-15:40:17,10.1.1.2,19,-0.050,-0.050,-0.050,0.000,0.000,0.000
1644939617568301824,2022-02-15-15:40:17,10.1.1.2,29,-0.060,-0.060,-0.060,0.000,0.000,0.000
1644939617628016896,2022-02-15-15:40:17,10.1.1.2,38,-0.070,-0.070,-0.070,0.000,0.000,0.000
1644939617907016960,2022-02-15-15:40:17,10.1.1.2,14,-0.070,-0.070,-0.070,0.000,0.000,0.000
1644939618327065856,2022-02-15-15:40:18,10.1.1.2,29,0.010,0.010,0.010,0.000,0.000,0.000
1644939618386576896,2022-02-15-15:40:18,10.1.1.2,39,0.020,0.020,0.020,0.000,0.000,0.000
1644939619166851072,2022-02-15-15:40:19,10.1.1.2,10,0.020,0.020,0.020,0.000,0.000,0.000
1644939619227572992,2022-02-15-15:40:19,10.1.1.2,19,0.010,0.010,0.010,0.000,0.000,0.000
1644939619288079872,2022-02-15-15:40:19,10.1.1.2,29,0.000,0.000,0.000,0.000,0.000,0.000
1644939619446626816,2022-02-15-15:40:19,10.1.1.2,29,-0.030,-0.030,-0.030,0.000,0.000,0.000
1644939619506670080,2022-02-15-15:40:19,10.1.1.2,38,-0.040,-0.040,-0.040,0.000,0.000,0.000
1644939620086874880,2022-02-15-15:40:20,10.1.1.2,9,-0.040,-0.040,-0.040,0.000,0.000,0.000
1644939620167083008,2022-02-15-15:40:20,10.1.1.2,39,-0.030,-0.030,-0.030,0.000,0.000,0.000
1644939620207196928,2022-02-15-15:40:20,10.1.1.2,28,-0.020,-0.020,-0.020,0.000,0.000,0.000
1644939621226946048,2022-02-15-15:40:21,10.1.1.2,30,0.020,0.020,0.020,0.000,0.000,0.000
1644939621287547136,2022-02-15-15:40:21,10.1.1.2,39,0.010,0.010,0.010,0.000,0.000,0.000
1644939621786662144,2022-02-15-15:40:21,10.1.1.2,29,-0.090,-0.090,-0.090,0.000,0.000,0.000
1644939621846713088,2022-02-15-15:40:21,10.1.1.2,39,-0.100,-0.100,-0.100,0.000,0.000,0.000
1644939621886387968,2022-02-15-15:40:21,10.1.1.2,28,-0.090,-0.090,-0.090,0.000,0.000,0.000
1644939622647176960,2022-02-15-15:40:22,10.1.1.2,29,0.060,0.060,0.060,0.000,0.000,0.000
1644939622747046912,2022-02-15-15:40:22,10.1.1.2,28,0.080,0.080,0.080,0.000,0.000,0.000
1644939622927354112,2022-02-15-15:40:22,10.1.1.2,6,0.080,0.080,0.080,0.000,0.000,0.000
1644939623467068928,2022-02-15-15:40:23,10.1.1.2,39,-0.020,-0.020,-0.020,0.000,0.000,0.000
1644939623567486976,2022-02-15-15:40:23,10.1.1.2,38,-0.040,-0.040,-0.040,0.000,0.000,0.000
1644939624148852992,2022-02-15-15:40:24,10.1.1.2,11,-0.040,-0.040,-0.040,0.000,0.000,0.000
1644939624987545856,2022-02-15-15:40:24,10.1.1.2,39,0.080,0.080,0.080,0.000,0.000,0.000
1644939625690501888,2022-02-15-15:40:25,10.1.1.2,19,-0.060,-0.060,-0.060,0.000,0.000,0.000
1644939626109069056,2022-02-15-15:40:26,10.1.1.2,24,-0.060,-0.060,-0.060,0.000,0.000,0.000
1644939626408094976,2022-02-15-15:40:26,10.1.1.2,19,0.000,0.000,0.000,0.000,0.000,0.000
1644939626887203840,2022-02-15-15:40:26,10.1.1.2,39,0.090,0.090,0.090,0.000,0.000,0.000
1644939626967268864,2022-02-15-15:40:26,10.1.1.2,16,0.090,0.090,0.090,0.000,0.000,0.000
1644939627187283968,2022-02-15-15:40:27,10.1.1.2,29,0.050,0.050,0.050,0.000,0.000,0.000
1644939627247112960,2022-02-15-15:40:27,10.1.1.2,38,0.040,0.040,0.040,0.000,0.000,0.000
1644939627687117056,2022-02-15-15:40:27,10.1.1.2,20,-0.050,-0.050,-0.050,0.000,0.000,0.000
1644939627747507968,2022-02-15-15:40:27,10.1.1.2,29,-0.060,-0.060,-0.060,0.000,0.000,0.000
1644939628147556096,2022-02-15-15:40:28,10.1.1.2,13,-0.060,-0.060,-0.060,0.000,0.000,0.000
1644939628467138048,2022-02-15-15:40:28,10.1.1.2,28,0.000,0.000,0.000,0.000,0.000,0.000
1644939628766571008,2022-02-15-15:40:28,10.1.1.2,20,0.060,0.060,0.060,0.000,0.000,0.000
1644939628827521024,2022-02-15-15:40:28,10.1.1.2,30,0.070,0.070,0.070,0.000,0.000,0.000
1644939628886583040,2022-02-15-15:40:28,10.1.1.2,38,0.080,0.080,0.080,0.000,0.000,0.000
1644939629066989824,2022-02-15-15:40:29,10.1.1.2,13,0.080,0.080,0.080,0.000,0.000,0.000
1644939630466823168,2022-02-15-15:40:30,10.1.1.2,29,-0.010,-0.010,-0.010,0.000,0.000,0.000
1644939630527097856,2022-02-15-15:40:30,10.1.1.2,38,0.000,0.000,0.000,0.000,0.000,0.000
1644939631386495232,2022-02-15-15:40:31,10.1.1.2,29,0.030,0.030,0.030,0.000,0.000,0.000
1644939631446587136,2022-02-15-15:40:31,10.1.1.2,38,0.020,0.020,0.020,0.000,0.000,0.000
1644939632667707904,2022-02-15-15:40:32,10.1.1.2,12,0.020,0.020,0.020,0.000,0.000,0.000
1644939632846801920,2022-02-15-15:40:32,10.1.1.2,39,0.050,0.050,0.050,0.000,0.000,0.000
1644939632897038848,2022-02-15-15:40:32,10.1.1.2,29,0.060,0.060,0.060,0.000,0.000,0.000
1644939632953543936,2022-02-15-15:40:32,10.1.1.2,38,0.070,0.070,0.070,0.000,0.000,0.000
1644939633248729088,2022-02-15-15:40:33,10.1.1.2,6,0.070,0.070,0.070,0.000,0.000,0.000
1644939633607438080,2022-02-15-15:40:33,10.1.1.2,39,0.010,0.010,0.010,0.000,0.000,0.000
1644939633649676032,2022-02-15-15:40:33,10.1.1.2,29,0.000,0.000,0.000,0.000,0.000,0.000
1644939633686738944,2022-02-15-15:40:33,10.1.1.2,18,-0.010,-0.010,-0.010,0.000,0.000,0.000
1644939634207675904,2022-02-15-15:40:34,10.1.1.2,29,-0.090,-0.090,-0.090,0.000,0.000,0.000
1644939634768331008,2022-02-15-15:40:34,10.1.1.2,29,0.020,0.020,0.020,0.000,0.000,0.000
1644939634831651840,2022-02-15-15:40:34,10.1.1.2,38,0.030,0.030,0.030,0.000,0.000,0.000
1644939635387155968,2022-02-15-15:40:35,10.1.1.2,39,0.060,0.060,0.060,0.000,0.000,0.000
1644939637066322944,2022-02-15-15:40:37,10.1.1.2,-33,0.060,0.060,0.060,0.000,0.000,0.000
1644939637610789120,2022-02-15-15:40:37,10.1.1.2,-107,0.060,0.060,0.060,0.000,0.000,0.000
1644939637970309120,2022-02-15-15:40:37,10.1.1.2,39,-0.010,-0.010,-0.010,0.000,0.000,0.000
1644939638007047936,2022-02-15-15:40:38,10.1.1.2,28,-0.020,-0.020,-0.020,0.000,0.000,0.000
1644939638757348096,2022-02-15-15:40:38,10.1.1.2,30,-0.040,-0.040,-0.040,0.000,0.000,0.000
1644939639006978048,2022-02-15-15:40:39,10.1.1.2,38,0.000,0.000,0.000,0.000,0.000,0.000
1644939639409355008,2022-02-15-15:40:39,10.1.1.2,30,0.080,0.080,0.080,0.000,0.000,0.000
1644939639468504832,2022-02-15-15:40:39,10.1.1.2,39,0.090,0.090,0.090,0.000,0.000,0.000
1644939639546667008,2022-02-15-15:40:39,10.1.1.2,13,0.090,0.090,0.090,0.000,0.000,0.000
1644939639727238912,2022-02-15-15:40:39,10.1.1.2,39,0.060,0.060,0.060,0.000,0.000,0.000
1644939640187076096,2022-02-15-15:40:40,10.1.1.2,28,-0.020,-0.020,-0.020,0.000,0.000,0.000
1644939641027057920,2022-02-15-15:40:41,10.1.1.2,21,-0.020,-0.020,-0.020,0.000,0.000,0.000
1644939641467066112,2022-02-15-15:40:41,10.1.1.2,30,0.060,0.060,0.060,0.000,0.000,0.000
1644939641867608064,2022-02-15-15:40:41,10.1.1.2,19,0.060,0.060,0.060,0.000,0.000,0.000
1644939642148022016,2022-02-15-15:40:42,10.1.1.2,39,0.010,0.010,0.010,0.000,0.000,0.000
1644939643266967040,2022-02-15-15:40:43,10.1.1.2,21,0.010,0.010,0.010,0.000,0.000,0.000
1644939643327943936,2022-02-15-15:40:43,10.1.1.2,29,0.020,0.020,0.020,0.000,0.000,0.000
1644939643431963904,2022-02-15-15:40:43,10.1.1.2,20,0.040,0.040,0.040,0.000,0.000,0.000
1644939643490510080,2022-02-15-15:40:43,10.1.1.2,29,0.050,0.050,0.050,0.000,0.000,0.000
1644939643906423040,2022-02-15-15:40:43,10.1.1.2,28,0.070,0.070,0.070,0.000,0.000,0.000
1644939643966777088,2022-02-15-15:40:43,10.1.1.2,38,0.060,0.060,0.060,0.000,0.000,0.000
1644939645187947008,2022-02-15-15:40:45,10.1.1.2,28,-0.030,-0.030,-0.030,0.000,0.000,0.000
1644939645607486976,2022-02-15-15:40:45,10.1.1.2,39,0.050,0.050,0.050,0.000,0.000,0.000
1644939645647396096,2022-02-15-15:40:45,10.1.1.2,28,0.060,0.060,0.060,0.000,0.000,0.000
1644939646067826944,2022-02-15-15:40:46,10.1.1.2,21,0.060,0.060,0.060,0.000,0.000,0.000
1644939646348830976,2022-02-15-15:40:46,10.1.1.2,31,0.010,0.010,0.010,0.000,0.000,0.000
1644939646413836032,2022-02-15-15:40:46,10.1.1.2,39,0.000,0.000,0.000,0.000,0.000,0.000
1644939647467566848,2022-02-15-15:40:47,10.1.1.2,10,0.000,0.000,0.000,0.000,0.000,0.000
1644939647553256960,2022-02-15-15:40:47,10.1.1.2,39,0.010,0.010,0.010,0.000,0.000,0.000
1644939648547486976,2022-02-15-15:40:48,10.1.1.2,16,0.010,0.010,0.010,0.000,0.000,0.000
1644939649071666944,2022-02-15-15:40:49,10.1.1.2,29,-0.090,-0.090,-0.090,0.000,0.000,0.000
1644939649148161024,2022-02-15-15:40:49,10.1.1.2,7,-0.090,-0.090,-0.090,0.000,0.000,0.000
1644939650428206080,2022-02-15-15:40:50,10.1.1.2,39,0.050,0.050,0.050,0.000,0.000,0.000
1644939651947932928,2022-02-15-15:40:51,10.1.1.2,10,0.050,0.050,0.050,0.000,0.000,0.000
1644939652027033088,2022-02-15-15:40:52,10.1.1.2,39,0.060,0.060,0.060,0.000,0.000,0.000
1644939652066756096,2022-02-15-15:40:52,10.1.1.2,28,0.070,0.070,0.070,0.000,0.000,0.000
1644939652366596096,2022-02-15-15:40:52,10.1.1.2,21,0.070,0.070,0.070,0.000,0.000,0.000
1644939652427164928,2022-02-15-15:40:52,10.1.1.2,30,0.060,0.060,0.060,0.000,0.000,0.000
1644939653728524800,2022-02-15-15:40:53,10.1.1.2,39,-0.010,-0.010,-0.010,0.000,0.000,0.000
1644939654487503104,2022-02-15-15:40:54,10.1.1.2,29,0.060,0.060,0.060,0.000,0.000,0.000
1644939656226789120,2022-02-15-15:40:56,10.1.1.2,17,0.060,0.060,0.060,0.000,0.000,0.000
1644939657955799040,2022-02-15-15:40:56,10.1.1.2,24,0.060,0.060,0.060,0.000,0.000,0.000
1644939659587894016,2022-02-15-15:40:59,10.1.1.2,5,0.060,0.060,0.060,0.000,0.000,0.000
1644939660026972160,2022-02-15-15:41:00,10.1.1.2,10,0.060,0.060,0.060,0.000,0.000,0.000
1644939660867672832,2022-02-15-15:41:00,10.1.1.2,29,-0.100,-0.100,-0.100,0.000,0.000,0.000
1644939661447892992,2022-02-15-15:41:01,10.1.1.2,39,0.010,0.010,0.010,0.000,0.000,0.000
1644939661487056128,2022-02-15-15:41:01,10.1.1.2,29,0.020,0.020,0.020,0.000,0.000,0.000
1644939661547076864,2022-02-15-15:41:01,10.1.1.2,38,0.030,0.030,0.030,0.000,0.000,0.000
1644939662226944000,2022-02-15-15:41:02,10.1.1.2,9,0.030,0.030,0.030,0.000,0.000,0.000
1644939662866810112,2022-02-15-15:41:02,10.1.1.2,38,-0.090,-0.090,-0.090,0.000,0.000,0.000
1644939662950481920,2022-02-15-15:41:02,10.1.1.2,17,-0.090,-0.090,-0.090,0.000,0.000,0.000
1644939663947139072,2022-02-15-15:41:03,10.1.1.2,39,0.090,0.090,0.090,0.000,0.000,0.000
1644939663986555136,2022-02-15-15:41:03,10.1.1.2,29,0.100,0.100,0.100,0.000,0.000,0.000
1644939664746885120,2022-02-15-15:41:04,10.1.1.2,29,-0.050,-0.050,-0.050,0.000,0.000,0.000
1644939664807430144,2022-02-15-15:41:04,10.1.1.2,39,-0.060,-0.060,-0.060,0.000,0.000,0.000
1644939665108659968,2022-02-15-15:41:05,10.1.1.2,29,-0.080,-0.080,-0.080,0.000,0.000,0.000
1644939665827414016,2022-02-15-15:41:05,10.1.1.2,29,0.060,0.060,0.060,0.000,0.000,0.000
1644939665887390976,2022-02-15-15:41:05,10.1.1.2,38,0.070,0.070,0.070,0.000,0.000,0.000
1644939666167035136,2022-02-15-15:41:06,10.1.1.2,11,0.070,0.070,0.070,0.000,0.000,0.000
1644939666286860032,2022-02-15-15:41:06,10.1.1.2,29,0.050,0.050,0.050,0.000,0.000,0.000
1644939666932712192,2022-02-15-15:41:06,10.1.1.2,29,-0.070,-0.070,-0.070,0.000,0.000,0.000
1644939666992790016,2022-02-15-15:41:06,10.1.1.2,39,-0.080,-0.080,-0.080,0.000,0.000,0.000
1644939667168695040,2022-02-15-15:41:07,10.1.1.2,14,-0.080,-0.080,-0.080,0.000,0.000,0.000
1644939667966831872,2022-02-15-15:41:07,10.1.1.2,19,0.070,0.070,0.070,0.000,0.000,0.000
1644939668028152832,2022-02-15-15:41:08,10.1.1.2,28,0.080,0.080,0.080,0.000,0.000,0.000
1644939668246746112,2022-02-15-15:41:08,10.1.1.2,5,0.080,0.080,0.080,0.000,0.000,0.000
1644939668587496960,2022-02-15-15:41:08,10.1.1.2,19,0.010,0.010,0.010,0.000,0.000,0.000
1644939669049228032,2022-02-15-15:41:09,10.1.1.2,20,-0.070,-0.070,-0.070,0.000,0.000,0.000
1644939669350938112,2022-02-15-15:41:09,10.1.1.2,11,-0.070,-0.070,-0.070,0.000,0.000,0.000
1644939669726936064,2022-02-15-15:41:09,10.1.1.2,29,0.000,0.000,0.000,0.000,0.000,0.000
1644939669767415040,2022-02-15-15:41:09,10.1.1.2,19,0.010,0.010,0.010,0.000,0.000,0.000
1644939670689007872,2022-02-15-15:41:10,10.1.1.2,10,0.010,0.010,0.010,0.000,0.000,0.000
1644939670867072000,2022-02-15-15:41:10,10.1.1.2,38,-0.020,-0.020,-0.020,0.000,0.000,0.000
1644939671671817984,2022-02-15-15:41:11,10.1.1.2,-15,-0.020,-0.020,-0.020,0.000,0.000,0.000
1644939672246972160,2022-02-15-15:41:12,10.1.1.2,29,0.090,0.090,0.090,0.000,0.000,0.000
1644939672307110912,2022-02-15-15:41:12,10.1.1.2,39,0.100,0.100,0.100,0.000,0.000,0.000
1644939672967474944,2022-02-15-15:41:12,10.1.1.2,39,-0.030,-0.030,-0.030,0.000,0.000,0.000
1644939673628043776,2022-02-15-15:41:13,10.1.1.2,39,-0.040,-0.040,-0.040,0.000,0.000,0.000
1644939673668098048,2022-02-15-15:41:13,10.1.1.2,29,-0.030,-0.030,-0.030,0.000,0.000,0.000
1644939673927361024,2022-02-15-15:41:13,10.1.1.2,29,0.020,0.020,0.020,0.000,0.000,0.000
1644939673987921920,2022-02-15-15:41:13,10.1.1.2,39,0.030,0.030,0.030,0.000,0.000,0.000
1644939674707389184,2022-02-15-15:41:14,10.1.1.2,25,0.030,0.030,0.030,0.000,0.000,0.000
1644939675408668928,2022-02-15-15:41:15,10.1.1.2,19,-0.100,-0.100,-0.100,0.000,0.000,0.000
1644939675467802112,2022-02-15-15:41:15,10.1.1.2,29,-0.090,-0.090,-0.090,0.000,0.000,0.000
1644939675977184000,2022-02-15-15:41:15,10.1.1.2,19,-0.020,-0.020,-0.020,0.000,0.000,0.000
1644939676507010816,2022-02-15-15:41:16,10.1.1.2,29,0.090,0.090,0.090,0.000,0.000,0.000
1644939676566966016,2022-02-15-15:41:16,10.1.1.2,39,0.100,0.100,0.100,0.000,0.000,0.000
1644939676607355136,2022-02-15-15:41:16,10.1.1.2,28,0.090,0.090,0.090,0.000,0.000,0.000
1644939678167159040,2022-02-15-15:41:18,10.1.1.2,20,0.020,0.020,0.020,0.000,0.000,0.000
1644939678227072000,2022-02-15-15:41:18,10.1.1.2,29,0.030,0.030,0.030,0.000,0.000,0.000
1644939678287107840,2022-02-15-15:41:18,10.1.1.2,38,0.040,0.040,0.040,0.000,0.000,0.000
1644939678887247104,2022-02-15-15:41:18,10.1.1.2,21,0.040,0.040,0.040,0.000,0.000,0.000
1644939679007635200,2022-02-15-15:41:19,10.1.1.2,38,0.020,0.020,0.020,0.000,0.000,0.000
1644939679367512832,2022-02-15-15:41:19,10.1.1.2,39,-0.050,-0.050,-0.050,0.000,0.000,0.000
1644939679828783872,2022-02-15-15:41:19,10.1.1.2,39,-0.060,-0.060,-0.060,0.000,0.000,0.000
1644939681446800896,2022-02-15-15:41:21,10.1.1.2,17,-0.060,-0.060,-0.060,0.000,0.000,0.000
1644939681827388160,2022-02-15-15:41:21,10.1.1.2,40,-0.070,-0.070,-0.070,0.000,0.000,0.000
1644939682327559936,2022-02-15-15:41:22,10.1.1.2,29,0.030,0.030,0.030,0.000,0.000,0.000
1644939682913170944,2022-02-15-15:41:22,10.1.1.2,39,0.060,0.060,0.060,0.000,0.000,0.000
1644939682947716096,2022-02-15-15:41:22,10.1.1.2,29,0.050,0.050,0.050,0.000,0.000,0.000
1644939683007217920,2022-02-15-15:41:23,10.1.1.2,39,0.040,0.040,0.040,0.000,0.000,0.000
1644939683047014912,2022-02-15-15:41:23,10.1.1.2,28,0.030,0.030,0.030,0.000,0.000,0.000
1644939683607119104,2022-02-15-15:41:23,10.1.1.2,29,-0.080,-0.080,-0.080,0.000,0.000,0.000
1644939683786784768,2022-02-15-15:41:23,10.1.1.2,7,-0.080,-0.080,-0.080,0.000,0.000,0.000
1644939684367501056,2022-02-15-15:41:24,10.1.1.2,29,0.030,0.030,0.030,0.000,0.000,0.000
1644939684427959808,2022-02-15-15:41:24,10.1.1.2,40,0.040,0.040,0.040,0.000,0.000,0.000
1644939685006609920,2022-02-15-15:41:25,10.1.1.2,11,0.040,0.040,0.040,0.000,0.000,0.000
1644939686046714112,2022-02-15-15:41:26,10.1.1.2,29,-0.040,-0.040,-0.040,0.000,0.000,0.000
1644939686506774784,2022-02-15-15:41:26,10.1.1.2,30,0.050,0.050,0.050,0.000,0.000,0.000
1644939686566584064,2022-02-15-15:41:26,10.1.1.2,39,0.060,0.060,0.060,0.000,0.000,0.000
1644939686606753024,2022-02-15-15:41:26,10.1.1.2,28,0.070,0.070,0.070,0.000,0.000,0.000
1644939686906793216,2022-02-15-15:41:26,10.1.1.2,23,0.070,0.070,0.070,0.000,0.000,0.000
1644939687167119872,2022-02-15-15:41:27,10.1.1.2,29,0.020,0.020,0.020,0.000,0.000,0.000
1644939687727489024,2022-02-15-15:41:27,10.1.1.2,30,-0.090,-0.090,-0.090,0.000,0.000,0.000
1644939687807609088,2022-02-15-15:41:27,10.1.1.2,9,-0.090,-0.090,-0.090,0.000,0.000,0.000
1644939688546746880,2022-02-15-15:41:28,10.1.1.2,29,0.050,0.050,0.050,0.000,0.000,0.000
1644939688607438080,2022-02-15-15:41:28,10.1.1.2,38,0.060,0.060,0.060,0.000,0.000,0.000
1644939688986657024,2022-02-15-15:41:28,10.1.1.2,12,0.060,0.060,0.060,0.000,0.000,0.000
1644939689467456000,2022-02-15-15:41:29,10.1.1.2,30,-0.030,-0.030,-0.030,0.000,0.000,0.000
1644939689527321088,2022-02-15-15:41:29,10.1.1.2,38,-0.040,-0.040,-0.040,0.000,0.000,0.000
1644939690127553024,2022-02-15-15:41:30,10.1.1.2,24,-0.040,-0.040,-0.040,0.000,0.000,0.000
1644939690707025152,2022-02-15-15:41:30,10.1.1.2,39,0.070,0.070,0.070,0.000,0.000,0.000
1644939690907435008,2022-02-15-15:41:30,10.1.1.2,30,0.090,0.090,0.090,0.000,0.000,0.000
1644939691068218112,2022-02-15-15:41:31,10.1.1.2,30,0.060,0.060,0.060,0.000,0.000,0.000
1644939691546669056,2022-02-15-15:41:31,10.1.1.2,39,-0.030,-0.030,-0.030,0.000,0.000,0.000
1644939692247284992,2022-02-15-15:41:32,10.1.1.2,24,-0.030,-0.030,-0.030,0.000,0.000,0.000
1644939693567761920,2022-02-15-15:41:33,10.1.1.2,30,0.000,0.000,0.000,0.000,0.000,0.000
1644939693627433984,2022-02-15-15:41:33,10.1.1.2,39,-0.010,-0.010,-0.010,0.000,0.000,0.000
1644939694230593024,2022-02-15-15:41:34,10.1.1.2,29,-0.070,-0.070,-0.070,0.000,0.000,0.000
1644939694287194112,2022-02-15-15:41:34,10.1.1.2,39,-0.060,-0.060,-0.060,0.000,0.000,0.000
1644939694327644160,2022-02-15-15:41:34,10.1.1.2,29,-0.050,-0.050,-0.050,0.000,0.000,0.000
1644939695386974208,2022-02-15-15:41:35,10.1.1.2,39,0.050,0.050,0.050,0.000,0.000,0.000
1644939695886536960,2022-02-15-15:41:35,10.1.1.2,28,-0.050,-0.050,-0.050,0.000,0.000,0.000
1644939696207994880,2022-02-15-15:41:36,10.1.1.2,40,-0.090,-0.090,-0.090,0.000,0.000,0.000
1644939696247170816,2022-02-15-15:41:36,10.1.1.2,28,-0.080,-0.080,-0.080,0.000,0.000,0.000
1644939696767559168,2022-02-15-15:41:36,10.1.1.2,39,0.020,0.020,0.020,0.000,0.000,0.000
1644939697319309056,2022-02-15-15:41:37,10.1.1.2,39,0.080,0.080,0.080,0.000,0.000,0.000
1644939697627772160,2022-02-15-15:41:37,10.1.1.2,39,0.020,0.020,0.020,0.000,0.000,0.000
1644939699318167040,2022-02-15-15:41:38,10.1.1.2,39,-0.020,-0.020,-0.020,0.000,0.000,0.000
1644939699321485056,2022-02-15-15:41:39,10.1.1.2,-167,-0.020,-0.020,-0.020,0.000,0.000,0.000
1644939699606360832,2022-02-15-15:41:39,10.1.1.2,39,0.040,0.040,0.040,0.000,0.000,0.000
1644939699647529984,2022-02-15-15:41:39,10.1.1.2,29,0.050,0.050,0.050,0.000,0.000,0.000
1644939700138215936,2022-02-15-15:41:40,10.1.1.2,-1,0.050,0.050,0.050,0.000,0.000,0.000
1644939700207000064,2022-02-15-15:41:40,10.1.1.2,29,0.040,0.040,0.040,0.000,0.000,0.000
1644939700246457088,2022-02-15-15:41:40,10.1.1.2,18,0.030,0.030,0.030,0.000,0.000,0.000
1644939701287243008,2022-02-15-15:41:41,10.1.1.2,39,-0.030,-0.030,-0.030,0.000,0.000,0.000
1644939701330872064,2022-02-15-15:41:41,10.1.1.2,29,-0.020,-0.020,-0.020,0.000,0.000,0.000
1644939701955528960,2022-02-15-15:41:41,10.1.1.2,29,0.100,0.100,0.100,0.000,0.000,0.000
1644939702487764992,2022-02-15-15:41:42,10.1.1.2,39,-0.000,-0.000,-0.000,0.000,0.000,0.000
1644939704425688064,2022-02-15-15:41:43,10.1.1.2,29,-0.050,-0.050,-0.050,0.000,0.000,0.000
1644939705566939136,2022-02-15-15:41:45,10.1.1.2,29,0.020,0.020,0.020,0.000,0.000,0.000
1644939705609390848,2022-02-15-15:41:45,10.1.1.2,19,0.010,0.010,0.010,0.000,0.000,0.000
1644939706247205120,2022-02-15-15:41:46,10.1.1.2,39,-0.090,-0.090,-0.090,0.000,0.000,0.000
1644939706890065920,2022-02-15-15:41:46,10.1.1.2,38,0.020,0.020,0.020,0.000,0.000,0.000
1644939706895097856,2022-02-15-15:41:46,10.1.1.2,-20,0.020,0.020,0.020,0.000,0.000,0.000
1644939707447267072,2022-02-15-15:41:47,10.1.1.2,39,0.070,0.070,0.070,0.000,0.000,0.000
1644939708167643136,2022-02-15-15:41:48,10.1.1.2,39,-0.060,-0.060,-0.060,0.000,0.000,0.000
1644939708567305984,2022-02-15-15:41:48,10.1.1.2,6,-0.060,-0.060,-0.060,0.000,0.000,0.000
1644939708628966144,2022-02-15-15:41:48,10.1.1.2,-16,-0.060,-0.060,-0.060,0.000,0.000,0.000
1644939709887769088,2022-02-15-15:41:49,10.1.1.2,39,0.030,0.030,0.030,0.000,0.000,0.000
1644939714622420992,2022-02-15-15:41:51,10.1.1.2,39,-0.040,-0.040,-0.040,0.000,0.000,0.000
1644939720049241088,2022-02-15-15:41:55,10.1.1.2,39,0.030,0.030,0.030,0.000,0.000,0.000
1644939724929658880,2022-02-15-15:42:01,10.1.1.2,10,0.030,0.030,0.030,0.000,0.000,0.000
1644939730441836032,2022-02-15-15:42:05,10.1.1.2,39,-0.030,-0.030,-0.030,0.000,0.000,0.000
1644939736087159040,2022-02-15-15:42:11,10.1.1.2,13,-0.030,-0.030,-0.030,0.000,0.000,0.000
1644939740393436928,2022-02-15-15:42:17,10.1.1.2,39,0.040,0.040,0.040,0.000,0.000,0.000
1644939741758333952,2022-02-15-15:42:21,10.1.1.2,39,-0.090,-0.090,-0.090,0.000,0.000,0.000
1644939746843625984,2022-02-15-15:42:24,10.1.1.2,15,-0.090,-0.090,-0.090,0.000,0.000,0.000
1644939750016419840,2022-02-15-15:42:27,10.1.1.2,-3267,-0.090,-0.090,-0.090,0.000,0.000,0.000
1644939750165330944,2022-02-15-15:42:30,10.1.1.2,-3752,-0.090,-0.090,-0.090,0.000,0.000,0.000
1644939750830209024,2022-02-15-15:42:30,10.1.1.2,38,0.030,0.030,0.030,0.000,0.000,0.000
1644939751197430016,2022-02-15-15:42:31,10.1.1.2,29,0.100,0.100,0.100,0.000,0.000,0.000
1644939751406967040,2022-02-15-15:42:31,10.1.1.2,30,0.060,0.060,0.060,0.000,0.000,0.000
1644939753879179008,2022-02-15-15:42:31,10.1.1.2,30,0.020,0.020,0.020,0.000,0.000,0.000
1644939757261376000,2022-02-15-15:42:34,10.1.1.2,38,0.000,0.000,0.000,0.000,0.000,0.000
1644939757589739008,2022-02-15-15:42:37,10.1.1.2,29,-0.050,-0.050,-0.050,0.000,0.000,0.000
1644939758107961856,2022-02-15-15:42:38,10.1.1.2,21,-0.050,-0.050,-0.050,0.000,0.000,0.000
1644939761017128960,2022-02-15-15:42:38,10.1.1.2,29,0.070,0.070,0.070,0.000,0.000,0.000
1644939762223361024,2022-02-15-15:42:42,10.1.1.2,-261,0.070,0.070,0.070,0.000,0.000,0.000
1644939762949227008,2022-02-15-15:42:42,10.1.1.2,39,-0.010,-0.010,-0.010,0.000,0.000,0.000
1644939766043854080,2022-02-15-15:42:45,10.1.1.2,7,-0.010,-0.010,-0.010,0.000,0.000,0.000
1644939769326868992,2022-02-15-15:42:48,10.1.1.2,30,-0.030,-0.030,-0.030,0.000,0.000,0.000
1644939771975213056,2022-02-15-15:42:49,10.1.1.2,39,-0.070,-0.070,-0.070,0.000,0.000,0.000
1644939775837105920,2022-02-15-15:42:53,10.1.1.2,-1297,-0.070,-0.070,-0.070,0.000,0.000,0.000
1644939776876861184,2022-02-15-15:42:56,10.1.1.2,39,0.050,0.050,0.050,0.000,0.000,0.000
1644939777347207168,2022-02-15-15:42:57,10.1.1.2,14,0.050,0.050,0.050,0.000,0.000,0.000
1644939778289523968,2022-02-15-15:42:58,10.1.1.2,29,-0.070,-0.070,-0.070,0.000,0.000,0.000
1644939778347979008,2022-02-15-15:42:58,10.1.1.2,39,-0.060,-0.060,-0.060,0.000,0.000,0.000
1644939779908195072,2022-02-15-15:42:59,10.1.1.2,39,-0.040,-0.040,-0.040,0.000,0.000,0.000
1644939780167896064,2022-02-15-15:43:00,10.1.1.2,29,-0.090,-0.090,-0.090,0.000,0.000,0.000
1644939780247628800,2022-02-15-15:43:00,10.1.1.2,6,-0.090,-0.090,-0.090,0.000,0.000,0.000
1644939781607516160,2022-02-15-15:43:01,10.1.1.2,29,0.030,0.030,0.030,0.000,0.000,0.000
1644939782698934016,2022-02-15-15:43:02,10.1.1.2,29,-0.080,-0.080,-0.080,0.000,0.000,0.000
1644939782786972928,2022-02-15-15:43:02,10.1.1.2,39,-0.060,-0.060,-0.060,0.000,0.000,0.000
1644939782987715840,2022-02-15-15:43:02,10.1.1.2,29,-0.020,-0.020,-0.020,0.000,0.000,0.000
1644939783210063872,2022-02-15-15:43:03,10.1.1.2,39,0.020,0.020,0.020,0.000,0.000,0.000
1644939784046791168,2022-02-15-15:43:04,10.1.1.2,22,0.020,0.020,0.020,0.000,0.000,0.000
1644939784108059904,2022-02-15-15:43:04,10.1.1.2,21,0.010,0.010,0.010,0.000,0.000,0.000
1644939784822021120,2022-02-15-15:43:04,10.1.1.2,29,-0.100,-0.100,-0.100,0.000,0.000,0.000
1644939785247073792,2022-02-15-15:43:05,10.1.1.2,30,-0.020,-0.020,-0.020,0.000,0.000,0.000
1644939786386782976,2022-02-15-15:43:06,10.1.1.2,29,0.000,0.000,0.000,0.000,0.000,0.000
1644939786446665984,2022-02-15-15:43:06,10.1.1.2,39,-0.010,-0.010,-0.010,0.000,0.000,0.000
1644939786486968064,2022-02-15-15:43:06,10.1.1.2,29,-0.020,-0.020,-0.020,0.000,0.000,0.000
1644939786866405888,2022-02-15-15:43:06,10.1.1.2,29,-0.090,-0.090,-0.090,0.000,0.000,0.000
1644939786969368064,2022-02-15-15:43:06,10.1.1.2,19,-0.090,-0.090,-0.090,0.000,0.000,0.000
1644939787047749888,2022-02-15-15:43:07,10.1.1.2,39,-0.080,-0.080,-0.080,0.000,0.000,0.000
1644939788147977216,2022-02-15-15:43:08,10.1.1.2,13,0.090,0.090,0.090,0.000,0.000,0.000
1644939788273148160,2022-02-15-15:43:08,10.1.1.2,19,0.070,0.070,0.070,0.000,0.000,0.000
1644939790192071936,2022-02-15-15:43:10,10.1.1.2,-1,0.070,0.070,0.070,0.000,0.000,0.000
1644939790287168000,2022-02-15-15:43:10,10.1.1.2,28,0.090,0.090,0.090,0.000,0.000,0.000
1644939790396609024,2022-02-15-15:43:10,10.1.1.2,-24,0.090,0.090,0.090,0.000,0.000,0.000
1644939791861555200,2022-02-15-15:43:11,10.1.1.2,40,-0.060,-0.060,-0.060,0.000,0.000,0.000
1644939795813310976,2022-02-15-15:43:13,10.1.1.2,39,0.000,0.000,0.000,0.000,0.000,0.000
1644939798241309952,2022-02-15-15:43:16,10.1.1.2,30,-0.030,-0.030,-0.030,0.000,0.000,0.000
1644939799126991872,2022-02-15-15:43:19,10.1.1.2,26,-0.030,-0.030,-0.030,0.000,0.000,0.000
1644939800632368128,2022-02-15-15:43:20,10.1.1.2,15,-0.030,-0.030,-0.030,0.000,0.000,0.000
1644939801127286016,2022-02-15-15:43:21,10.1.1.2,29,-0.070,-0.070,-0.070,0.000,0.000,0.000
1644939802644864000,2022-02-15-15:43:22,10.1.1.2,29,0.060,0.060,0.060,0.000,0.000,0.000
1644939803086534912,2022-02-15-15:43:23,10.1.1.2,39,-0.030,-0.030,-0.030,0.000,0.000,0.000
1644939803803236864,2022-02-15-15:43:23,10.1.1.2,9,-0.030,-0.030,-0.030,0.000,0.000,0.000
1644939804279171840,2022-02-15-15:43:23,10.1.1.2,39,0.000,0.000,0.000,0.000,0.000,0.000
1644939804807419136,2022-02-15-15:43:24,10.1.1.2,29,0.080,0.080,0.080,0.000,0.000,0.000
1644939805027745024,2022-02-15-15:43:25,10.1.1.2,21,0.080,0.080,0.080,0.000,0.000,0.000
1644939807030951936,2022-02-15-15:43:26,10.1.1.2,39,0.010,0.010,0.010,0.000,0.000,0.000
1644939809462999040,2022-02-15-15:43:28,10.1.1.2,6,0.010,0.010,0.010,0.000,0.000,0.000
1644939810905700864,2022-02-15-15:43:30,10.1.1.2,38,-0.060,-0.060,-0.060,0.000,0.000,0.000
1644939812910985984,2022-02-15-15:43:32,10.1.1.2,9,-0.060,-0.060,-0.060,0.000,0.000,0.000
1644939813047288064,2022-02-15-15:43:33,10.1.1.2,40,-0.090,-0.090,-0.090,0.000,0.000,0.000
1644939813131048960,2022-02-15-15:43:33,10.1.1.2,17,-0.090,-0.090,-0.090,0.000,0.000,0.000
1644939813547031040,2022-02-15-15:43:33,10.1.1.2,29,-0.010,-0.010,-0.010,0.000,0.000,0.000
1644939814327750912,2022-02-15-15:43:34,10.1.1.2,40,0.060,0.060,0.060,0.000,0.000,0.000
1644939814846832896,2022-02-15-15:43:34,10.1.1.2,39,-0.030,-0.030,-0.030,0.000,0.000,0.000
1644939815246903040,2022-02-15-15:43:35,10.1.1.2,39,-0.090,-0.090,-0.090,0.000,0.000,0.000
1644939816560025856,2022-02-15-15:43:36,10.1.1.2,30,0.080,0.080,0.080,0.000,0.000,0.000
1644939816647257088,2022-02-15-15:43:36,10.1.1.2,29,0.100,0.100,0.100,0.000,0.000,0.000
1644939817626974208,2022-02-15-15:43:37,10.1.1.2,29,-0.090,-0.090,-0.090,0.000,0.000,0.000
1644939817687086080,2022-02-15-15:43:37,10.1.1.2,38,-0.100,-0.100,-0.100,0.000,0.000,0.000
1644939818733135104,2022-02-15-15:43:38,10.1.1.2,38,0.080,0.080,0.080,0.000,0.000,0.000
1644939818768034048,2022-02-15-15:43:38,10.1.1.2,39,0.090,0.090,0.090,0.000,0.000,0.000
1644939820348263936,2022-02-15-15:43:40,10.1.1.2,39,-0.060,-0.060,-0.060,0.000,0.000,0.000
1644939821308478208,2022-02-15-15:43:41,10.1.1.2,29,0.030,0.030,0.030,0.000,0.000,0.000
1644939823047145984,2022-02-15-15:43:42,10.1.1.2,38,0.040,0.040,0.040,0.000,0.000,0.000
1644939824009165056,2022-02-15-15:43:43,10.1.1.2,39,-0.050,-0.050,-0.050,0.000,0.000,0.000
1644939824347651072,2022-02-15-15:43:44,10.1.1.2,29,-0.080,-0.080,-0.080,0.000,0.000,0.000
1644939826522939904,2022-02-15-15:43:46,10.1.1.2,20,-0.040,-0.040,-0.040,0.000,0.000,0.000
1644939826908122112,2022-02-15-15:43:46,10.1.1.2,29,-0.080,-0.080,-0.080,0.000,0.000,0.000
1644939827267750144,2022-02-15-15:43:47,10.1.1.2,29,-0.010,-0.010,-0.010,0.000,0.000,0.000
1644939831055335168,2022-02-15-15:43:47,10.1.1.2,39,0.100,0.100,0.100,0.000,0.000,0.000
1644939833049660928,2022-02-15-15:43:51,10.1.1.2,29,0.010,0.010,0.010,0.000,0.000,0.000
1644939833427716864,2022-02-15-15:43:53,10.1.1.2,39,-0.060,-0.060,-0.060,0.000,0.000,0.000
1644939833834027008,2022-02-15-15:43:53,10.1.1.2,-18,-0.060,-0.060,-0.060,0.000,0.000,0.000
1644939834787347968,2022-02-15-15:43:54,10.1.1.2,39,0.100,0.100,0.100,0.000,0.000,0.000
1644939837054866944,2022-02-15-15:43:56,10.1.1.2,0,0.100,0.100,0.100,0.000,0.000,0.000
1644939839150077952,2022-02-15-15:43:59,10.1.1.2,11,0.100,0.100,0.100,0.000,0.000,0.000
1644939841751138816,2022-02-15-15:44:00,10.1.1.2,30,0.020,0.020,0.020,0.000,0.000,0.000
1644939842146737152,2022-02-15-15:44:02,10.1.1.2,40,0.100,0.100,0.100,0.000,0.000,0.000
1644939842186419968,2022-02-15-15:44:02,10.1.1.2,28,0.090,0.090,0.090,0.000,0.000,0.000
1644939843077177088,2022-02-15-15:44:03,10.1.1.2,39,-0.070,-0.070,-0.070,0.000,0.000,0.000
1644939843346971904,2022-02-15-15:44:03,10.1.1.2,9,-0.070,-0.070,-0.070,0.000,0.000,0.000
1644939845752867840,2022-02-15-15:44:04,10.1.1.2,39,0.060,0.060,0.060,0.000,0.000,0.000
1644939847259226112,2022-02-15-15:44:06,10.1.1.2,25,0.060,0.060,0.060,0.000,0.000,0.000
1644939848411802112,2022-02-15-15:44:08,10.1.1.2,29,-0.090,-0.090,-0.090,0.000,0.000,0.000
1644939849944806144,2022-02-15-15:44:09,10.1.1.2,30,0.080,0.080,0.080,0.000,0.000,0.000
1644939850645939968,2022-02-15-15:44:10,10.1.1.2,29,-0.030,-0.030,-0.030,0.000,0.000,0.000
1644939852913180160,2022-02-15-15:44:11,10.1.1.2,19,-0.060,-0.060,-0.060,0.000,0.000,0.000
1644939857243325952,2022-02-15-15:44:16,10.1.1.2,29,0.080,0.080,0.080,0.000,0.000,0.000
1644939863533729024,2022-02-15-15:44:21,10.1.1.2,29,0.060,0.060,0.060,0.000,0.000,0.000
1644939867181212928,2022-02-15-15:44:26,10.1.1.2,40,-0.020,-0.020,-0.020,0.000,0.000,0.000
1644939877650641920,2022-02-15-15:44:34,10.1.1.2,11,-0.040,-0.040,-0.040,0.000,0.000,0.000
1644939879952980992,2022-02-15-15:44:38,10.1.1.2,0,-0.040,-0.040,-0.040,0.000,0.000,0.000
1644939885844706048,2022-02-15-15:44:45,10.1.1.2,40,0.030,0.030,0.030,0.000,0.000,0.000
1644939892541467904,2022-02-15-15:44:48,10.1.1.2,-59,0.030,0.030,0.030,0.000,0.000,0.000
1644939906583770112,2022-02-15-15:45:04,10.1.1.2,-4433,0.040,0.040,0.040,0.000,0.000,0.000
1644939928734949120,2022-02-15-15:45:21,10.1.1.2,-2021,-0.070,-0.070,-0.070,0.000,0.000,0.000
1644939944437241088,2022-02-15-15:45:29,10.1.1.2,23,-0.070,-0.070,-0.070,0.000,0.000,0.000
1644939952222432000,2022-02-15-15:45:46,10.1.1.2,39,0.000,0.000,0.000,0.000,0.000,0.000
1644939952587801088,2022-02-15-15:45:52,10.1.1.2,39,0.070,0.070,0.070,0.000,0.000,0.000
1644939952946945024,2022-02-15-15:45:52,10.1.1.2,12,0.070,0.070,0.070,0.000,0.000,0.000
1644939954885999872,2022-02-15-15:45:54,10.1.1.2,22,0.070,0.070,0.070,0.000,0.000,0.000
1644939955047112960,2022-02-15-15:45:55,10.1.1.2,29,0.100,0.100,0.100,0.000,0.000,0.000
1644939956166994944,2022-02-15-15:45:56,10.1.1.2,29,-0.080,-0.080,-0.080,0.000,0.000,0.000
1644939957066587904,2022-02-15-15:45:57,10.1.1.2,39,0.090,0.090,0.090,0.000,0.000,0.000
1644939957147404032,2022-02-15-15:45:57,10.1.1.2,18,0.090,0.090,0.090,0.000,0.000,0.000
1644939958496710144,2022-02-15-15:45:58,10.1.1.2,29,-0.050,-0.050,-0.050,0.000,0.000,0.000
1644939958929030912,2022-02-15-15:45:58,10.1.1.2,29,0.040,0.040,0.040,0.000,0.000,0.000
1644939959547077888,2022-02-15-15:45:59,10.1.1.2,19,0.040,0.040,0.040,0.000,0.000,0.000
1644939960127357952,2022-02-15-15:46:00,10.1.1.2,39,-0.070,-0.070,-0.070,0.000,0.000,0.000
1644939960406599168,2022-02-15-15:46:00,10.1.1.2,13,-0.070,-0.070,-0.070,0.000,0.000,0.000
1644939960527500032,2022-02-15-15:46:00,10.1.1.2,29,-0.050,-0.050,-0.050,0.000,0.000,0.000
1644939962087183872,2022-02-15-15:46:02,10.1.1.2,11,-0.050,-0.050,-0.050,0.000,0.000,0.000
1644939962239592192,2022-02-15-15:46:02,10.1.1.2,29,-0.070,-0.070,-0.070,0.000,0.000,0.000
1644939962506507008,2022-02-15-15:46:02,10.1.1.2,7,-0.070,-0.070,-0.070,0.000,0.000,0.000
1644939963306380032,2022-02-15-15:46:03,10.1.1.2,39,0.080,0.080,0.080,0.000,0.000,0.000
1644939963486563072,2022-02-15-15:46:03,10.1.1.2,14,0.080,0.080,0.080,0.000,0.000,0.000
1644939963947219968,2022-02-15-15:46:03,10.1.1.2,39,0.000,0.000,0.000,0.000,0.000,0.000
1644939964307065856,2022-02-15-15:46:04,10.1.1.2,39,-0.070,-0.070,-0.070,0.000,0.000,0.000
1644939964606616064,2022-02-15-15:46:04,10.1.1.2,25,-0.070,-0.070,-0.070,0.000,0.000,0.000
1644939965686171136,2022-02-15-15:46:05,10.1.1.2,29,0.060,0.060,0.060,0.000,0.000,0.000
1644939966206080000,2022-02-15-15:46:06,10.1.1.2,39,-0.040,-0.040,-0.040,0.000,0.000,0.000
1644939966806365952,2022-02-15-15:46:06,10.1.1.2,22,-0.040,-0.040,-0.040,0.000,0.000,0.000
1644939968246596096,2022-02-15-15:46:08,10.1.1.2,22,-0.040,-0.040,-0.040,0.000,0.000,0.000
1644939968827665920,2022-02-15-15:46:08,10.1.1.2,40,-0.050,-0.050,-0.050,0.000,0.000,0.000
1644939969286845952,2022-02-15-15:46:09,10.1.1.2,39,0.040,0.040,0.040,0.000,0.000,0.000
1644939969867099136,2022-02-15-15:46:09,10.1.1.2,6,0.040,0.040,0.040,0.000,0.000,0.000
1644939970567368960,2022-02-15-15:46:10,10.1.1.2,39,-0.090,-0.090,-0.090,0.000,0.000,0.000
1644939970647151104,2022-02-15-15:46:10,10.1.1.2,18,-0.090,-0.090,-0.090,0.000,0.000,0.000
1644939971026643968,2022-02-15-15:46:11,10.1.1.2,39,-0.020,-0.020,-0.020,0.000,0.000,0.000
1644939972308257024,2022-02-15-15:46:12,10.1.1.2,10,-0.020,-0.020,-0.020,0.000,0.000,0.000
1644939973127460864,2022-02-15-15:46:13,10.1.1.2,15,-0.020,-0.020,-0.020,0.000,0.000,0.000
1644939973606553088,2022-02-15-15:46:13,10.1.1.2,40,0.070,0.070,0.070,0.000,0.000,0.000
1644939973886137088,2022-02-15-15:46:13,10.1.1.2,13,0.070,0.070,0.070,0.000,0.000,0.000
1644939974166948096,2022-02-15-15:46:14,10.1.1.2,39,0.020,0.020,0.020,0.000,0.000,0.000
1644939975266918912,2022-02-15-15:46:15,10.1.1.2,19,0.000,0.000,0.000,0.000,0.000,0.000
1644939976286793984,2022-02-15-15:46:16,10.1.1.2,18,0.000,0.000,0.000,0.000,0.000,0.000
1644939977308713984,2022-02-15-15:46:17,10.1.1.2,20,0.000,0.000,0.000,0.000,0.000,0.000
1644939978329634048,2022-02-15-15:46:18,10.1.1.2,19,0.000,0.000,0.000,0.000,0.000,0.000
1644939978806749952,2022-02-15-15:46:18,10.1.1.2,40,-0.090,-0.090,-0.090,0.000,0.000,0.000
1644939978886513920,2022-02-15-15:46:18,10.1.1.2,18,-0.090,-0.090,-0.090,0.000,0.000,0.000
1644939979506685952,2022-02-15-15:46:19,10.1.1.2,29,0.030,0.030,0.030,0.000,0.000,0.000
1644939980126701056,2022-02-15-15:46:20,10.1.1.2,39,0.050,0.050,0.050,0.000,0.000,0.000
1644939981186439936,2022-02-15-15:46:21,10.1.1.2,29,-0.040,-0.040,-0.040,0.000,0.000,0.000
1644939981846487040,2022-02-15-15:46:21,10.1.1.2,29,0.090,0.090,0.090,0.000,0.000,0.000
1644939981928365056,2022-02-15-15:46:21,10.1.1.2,7,0.090,0.090,0.090,0.000,0.000,0.000
1644939982486296064,2022-02-15-15:46:22,10.1.1.2,39,-0.010,-0.010,-0.010,0.000,0.000,0.000
1644939983386789120,2022-02-15-15:46:23,10.1.1.2,25,-0.010,-0.010,-0.010,0.000,0.000,0.000
1644939983806953984,2022-02-15-15:46:23,10.1.1.2,39,0.070,0.070,0.070,0.000,0.000,0.000
1644939984086697984,2022-02-15-15:46:24,10.1.1.2,14,0.070,0.070,0.070,0.000,0.000,0.000
1644939984566926080,2022-02-15-15:46:24,10.1.1.2,39,-0.020,-0.020,-0.020,0.000,0.000,0.000
1644939984606537984,2022-02-15-15:46:24,10.1.1.2,29,-0.030,-0.030,-0.030,0.000,0.000,0.000
1644939985306124032,2022-02-15-15:46:25,10.1.1.2,20,-0.030,-0.030,-0.030,0.000,0.000,0.000
1644939986626555904,2022-02-15-15:46:26,10.1.1.2,25,-0.030,-0.030,-0.030,0.000,0.000,0.000
1644939987147404032,2022-02-15-15:46:27,10.1.1.2,40,-0.070,-0.070,-0.070,0.000,0.000,0.000
1644939987886955008,2022-02-15-15:46:27,10.1.1.2,20,0.080,0.080,0.080,0.000,0.000,0.000
1644939987946862848,2022-02-15-15:46:27,10.1.1.2,30,0.090,0.090,0.090,0.000,0.000,0.000
1644939988026350848,2022-02-15-15:46:28,10.1.1.2,8,0.090,0.090,0.090,0.000,0.000,0.000
1644939988406928128,2022-02-15-15:46:28,10.1.1.2,35,0.020,0.020,0.020,0.000,0.000,0.000
1644939989606228224,2022-02-15-15:46:29,10.1.1.2,19,0.020,0.020,0.020,0.000,0.000,0.000
1644939989666671872,2022-02-15-15:46:29,10.1.1.2,29,0.030,0.030,0.030,0.000,0.000,0.000
1644939990327999232,2022-02-15-15:46:30,10.1.1.2,30,0.040,0.040,0.040,0.000,0.000,0.000
1644939990385796096,2022-02-15-15:46:30,10.1.1.2,39,0.030,0.030,0.030,0.000,0.000,0.000
1644939991387595008,2022-02-15-15:46:31,10.1.1.2,29,-0.030,-0.030,-0.030,0.000,0.000,0.000
1644939992646496000,2022-02-15-15:46:32,10.1.1.2,20,-0.020,-0.020,-0.020,0.000,0.000,0.000
1644939993446984960,2022-02-15-15:46:33,10.1.1.2,10,-0.020,-0.020,-0.020,0.000,0.000,0.000
1644939993526458112,2022-02-15-15:46:33,10.1.1.2,39,-0.010,-0.010,-0.010,0.000,0.000,0.000
1644939994386046976,2022-02-15-15:46:34,10.1.1.2,38,0.040,0.040,0.040,0.000,0.000,0.000
1644939995088279040,2022-02-15-15:46:35,10.1.1.2,29,-0.100,-0.100,-0.100,0.000,0.000,0.000
1644939996046770176,2022-02-15-15:46:36,10.1.1.2,30,0.090,0.090,0.090,0.000,0.000,0.000
1644939996127773952,2022-02-15-15:46:36,10.1.1.2,8,0.090,0.090,0.090,0.000,0.000,0.000
1644939996906413056,2022-02-15-15:46:36,10.1.1.2,29,-0.060,-0.060,-0.060,0.000,0.000,0.000
1644939997306204928,2022-02-15-15:46:37,10.1.1.2,23,-0.060,-0.060,-0.060,0.000,0.000,0.000
1644939997506964992,2022-02-15-15:46:37,10.1.1.2,20,-0.020,-0.020,-0.020,0.000,0.000,0.000
1644939998326402816,2022-02-15-15:46:38,10.1.1.2,29,0.060,0.060,0.060,0.000,0.000,0.000
1644939999187171072,2022-02-15-15:46:39,10.1.1.2,29,-0.090,-0.090,-0.090,0.000,0.000,0.000
1644939999906336000,2022-02-15-15:46:39,10.1.1.2,39,0.050,0.050,0.050,0.000,0.000,0.000
1644940000386646016,2022-02-15-15:46:40,10.1.1.2,11,0.050,0.050,0.050,0.000,0.000,0.000
1644940000506072064,2022-02-15-15:46:40,10.1.1.2,29,0.030,0.030,0.030,0.000,0.000,0.000
1644940001165816064,2022-02-15-15:46:41,10.1.1.2,29,-0.100,-0.100,-0.100,0.000,0.000,0.000
1644940001827062016,2022-02-15-15:46:41,10.1.1.2,30,0.030,0.030,0.030,0.000,0.000,0.000
1644940002526448128,2022-02-15-15:46:42,10.1.1.2,21,0.030,0.030,0.030,0.000,0.000,0.000
1644940002686409984,2022-02-15-15:46:42,10.1.1.2,29,0.000,0.000,0.000,0.000,0.000,0.000
1644940003686203904,2022-02-15-15:46:43,10.1.1.2,15,0.000,0.000,0.000,0.000,0.000,0.000
1644940004706548992,2022-02-15-15:46:44,10.1.1.2,21,0.000,0.000,0.000,0.000,0.000,0.000
1644940004966450944,2022-02-15-15:46:44,10.1.1.2,29,-0.050,-0.050,-0.050,0.000,0.000,0.000
1644940005466417152,2022-02-15-15:46:45,10.1.1.2,23,-0.050,-0.050,-0.050,0.000,0.000,0.000
1644940005727761920,2022-02-15-15:46:45,10.1.1.2,30,0.000,0.000,0.000,0.000,0.000,0.000
1644940006728663808,2022-02-15-15:46:46,10.1.1.2,14,0.000,0.000,0.000,0.000,0.000,0.000
1644940007206494208,2022-02-15-15:46:47,10.1.1.2,40,-0.090,-0.090,-0.090,0.000,0.000,0.000
1644940007246241024,2022-02-15-15:46:47,10.1.1.2,29,-0.100,-0.100,-0.100,0.000,0.000,0.000
1644940007947091200,2022-02-15-15:46:47,10.1.1.2,20,0.040,0.040,0.040,0.000,0.000,0.000
1644940008066245120,2022-02-15-15:46:48,10.1.1.2,39,0.060,0.060,0.060,0.000,0.000,0.000
1644940008447529984,2022-02-15-15:46:48,10.1.1.2,12,0.060,0.060,0.060,0.000,0.000,0.000
1644940008627433984,2022-02-15-15:46:48,10.1.1.2,39,0.030,0.030,0.030,0.000,0.000,0.000
1644940009926310144,2022-02-15-15:46:49,10.1.1.2,21,0.030,0.030,0.030,0.000,0.000,0.000
1644940010629829888,2022-02-15-15:46:50,10.1.1.2,10,0.030,0.030,0.030,0.000,0.000,0.000
1644940011947645952,2022-02-15-15:46:51,10.1.1.2,15,0.030,0.030,0.030,0.000,0.000,0.000
1644940012466085888,2022-02-15-15:46:52,10.1.1.2,29,0.070,0.070,0.070,0.000,0.000,0.000
1644940013266642176,2022-02-15-15:46:53,10.1.1.2,20,-0.090,-0.090,-0.090,0.000,0.000,0.000
1644940013327855104,2022-02-15-15:46:53,10.1.1.2,29,-0.100,-0.100,-0.100,0.000,0.000,0.000
1644940015108108032,2022-02-15-15:46:55,10.1.1.2,39,-0.050,-0.050,-0.050,0.000,0.000,0.000
1644940015586426880,2022-02-15-15:46:55,10.1.1.2,13,-0.050,-0.050,-0.050,0.000,0.000,0.000
1644940015966391040,2022-02-15-15:46:55,10.1.1.2,39,0.020,0.020,0.020,0.000,0.000,0.000
1644940016747046912,2022-02-15-15:46:56,10.1.1.2,10,0.020,0.020,0.020,0.000,0.000,0.000
1644940016827714048,2022-02-15-15:46:56,10.1.1.2,39,0.010,0.010,0.010,0.000,0.000,0.000
1644940017426274048,2022-02-15-15:46:57,10.1.1.2,29,-0.090,-0.090,-0.090,0.000,0.000,0.000
1644940018346317056,2022-02-15-15:46:58,10.1.1.2,39,0.090,0.090,0.090,0.000,0.000,0.000
1644940018427649024,2022-02-15-15:46:58,10.1.1.2,18,0.090,0.090,0.090,0.000,0.000,0.000
1644940019046635008,2022-02-15-15:46:59,10.1.1.2,29,-0.030,-0.030,-0.030,0.000,0.000,0.000
1644940019106790144,2022-02-15-15:46:59,10.1.1.2,39,-0.040,-0.040,-0.040,0.000,0.000,0.000
1644940019686148864,2022-02-15-15:46:59,10.1.1.2,11,-0.040,-0.040,-0.040,0.000,0.000,0.000
1644940020727633920,2022-02-15-15:47:00,10.1.1.2,39,0.040,0.040,0.040,0.000,0.000,0.000
1644940021526403072,2022-02-15-15:47:01,10.1.1.2,29,-0.080,-0.080,-0.080,0.000,0.000,0.000
1644940023346669824,2022-02-15-15:47:03,10.1.1.2,23,-0.080,-0.080,-0.080,0.000,0.000,0.000
1644940023546656000,2022-02-15-15:47:03,10.1.1.2,21,-0.080,-0.080,-0.080,0.000,0.000,0.000
1644940023707532800,2022-02-15-15:47:03,10.1.1.2,29,-0.050,-0.050,-0.050,0.000,0.000,0.000
1644940024566848000,2022-02-15-15:47:04,10.1.1.2,30,0.080,0.080,0.080,0.000,0.000,0.000
1644940024828037888,2022-02-15-15:47:04,10.1.1.2,29,0.030,0.030,0.030,0.000,0.000,0.000
1644940024886115072,2022-02-15-15:47:04,10.1.1.2,39,0.020,0.020,0.020,0.000,0.000,0.000
1644940025447522048,2022-02-15-15:47:05,10.1.1.2,39,-0.090,-0.090,-0.090,0.000,0.000,0.000
1644940025527127040,2022-02-15-15:47:05,10.1.1.2,18,-0.090,-0.090,-0.090,0.000,0.000,0.000
1644940026246365952,2022-02-15-15:47:06,10.1.1.2,29,0.050,0.050,0.050,0.000,0.000,0.000
1644940026747250944,2022-02-15-15:47:06,10.1.1.2,20,0.050,0.050,0.050,0.000,0.000,0.000
1644940027927028992,2022-02-15-15:47:07,10.1.1.2,29,-0.020,-0.020,-0.020,0.000,0.000,0.000
1644940028347174912,2022-02-15-15:47:08,10.1.1.2,39,0.060,0.060,0.060,0.000,0.000,0.000
1644940028726903040,2022-02-15-15:47:08,10.1.1.2,14,0.060,0.060,0.060,0.000,0.000,0.000
1644940029246062080,2022-02-15-15:47:09,10.1.1.2,29,-0.040,-0.040,-0.040,0.000,0.000,0.000
1644940029846260992,2022-02-15-15:47:09,10.1.1.2,21,-0.040,-0.040,-0.040,0.000,0.000,0.000
1644940030067770112,2022-02-15-15:47:10,10.1.1.2,39,0.000,0.000,0.000,0.000,0.000,0.000
1644940031026259968,2022-02-15-15:47:11,10.1.1.2,29,0.010,0.010,0.010,0.000,0.000,0.000
1644940031687126016,2022-02-15-15:47:11,10.1.1.2,30,-0.080,-0.080,-0.080,0.000,0.000,0.000
1644940032006757888,2022-02-15-15:47:12,10.1.1.2,40,-0.020,-0.020,-0.020,0.000,0.000,0.000
1644940032055071232,2022-02-15-15:47:12,10.1.1.2,29,-0.010,-0.010,-0.010,0.000,0.000,0.000
1644940032086462976,2022-02-15-15:47:12,10.1.1.2,18,0.000,0.000,0.000,0.000,0.000,0.000
1644940032767497984,2022-02-15-15:47:12,10.1.1.2,39,0.070,0.070,0.070,0.000,0.000,0.000
1644940033334126080,2022-02-15-15:47:13,10.1.1.2,40,-0.040,-0.040,-0.040,0.000,0.000,0.000
1644940033906488832,2022-02-15-15:47:13,10.1.1.2,9,-0.040,-0.040,-0.040,0.000,0.000,0.000
1644940034351553792,2022-02-15-15:47:14,10.1.1.2,39,0.040,0.040,0.040,0.000,0.000,0.000
1644940034950877952,2022-02-15-15:47:14,10.1.1.2,16,0.040,0.040,0.040,0.000,0.000,0.000
1644940035006884096,2022-02-15-15:47:15,10.1.1.2,39,0.030,0.030,0.030,0.000,0.000,0.000
1644940035308103936,2022-02-15-15:47:15,10.1.1.2,30,-0.030,-0.030,-0.030,0.000,0.000,0.000
1644940036006955008,2022-02-15-15:47:16,10.1.1.2,20,-0.030,-0.030,-0.030,0.000,0.000,0.000
1644940037328986880,2022-02-15-15:47:17,10.1.1.2,14,-0.030,-0.030,-0.030,0.000,0.000,0.000
1644940037646523904,2022-02-15-15:47:17,10.1.1.2,29,-0.090,-0.090,-0.090,0.000,0.000,0.000
1644940037705879808,2022-02-15-15:47:17,10.1.1.2,39,-0.100,-0.100,-0.100,0.000,0.000,0.000
1644940038366188032,2022-02-15-15:47:18,10.1.1.2,39,0.030,0.030,0.030,0.000,0.000,0.000
1644940039046804992,2022-02-15-15:47:19,10.1.1.2,9,0.030,0.030,0.030,0.000,0.000,0.000
1644940040372237824,2022-02-15-15:47:20,10.1.1.2,9,0.030,0.030,0.030,0.000,0.000,0.000
1644940041087353088,2022-02-15-15:47:21,10.1.1.2,17,0.030,0.030,0.030,0.000,0.000,0.000
1644940042107000064,2022-02-15-15:47:22,10.1.1.2,20,-0.030,-0.030,-0.030,0.000,0.000,0.000
1644940042666382080,2022-02-15-15:47:22,10.1.1.2,20,0.080,0.080,0.080,0.000,0.000,0.000
1644940042866929152,2022-02-15-15:47:22,10.1.1.2,17,0.080,0.080,0.080,0.000,0.000,0.000
1644940043446491904,2022-02-15-15:47:23,10.1.1.2,39,-0.030,-0.030,-0.030,0.000,0.000,0.000
1644940044128536064,2022-02-15-15:47:24,10.1.1.2,7,-0.030,-0.030,-0.030,0.000,0.000,0.000
1644940044606565888,2022-02-15-15:47:24,10.1.1.2,30,0.060,0.060,0.060,0.000,0.000,0.000
1644940045007191808,2022-02-15-15:47:25,10.1.1.2,20,0.060,0.060,0.060,0.000,0.000,0.000
1644940045727471104,2022-02-15-15:47:25,10.1.1.2,30,-0.080,-0.080,-0.080,0.000,0.000,0.000
1644940045908099840,2022-02-15-15:47:25,10.1.1.2,6,-0.080,-0.080,-0.080,0.000,0.000,0.000
1644940047747399168,2022-02-15-15:47:27,10.1.1.2,18,-0.080,-0.080,-0.080,0.000,0.000,0.000
1644940047947108864,2022-02-15-15:47:27,10.1.1.2,16,-0.080,-0.080,-0.080,0.000,0.000,0.000
1644940048327433216,2022-02-15-15:47:28,10.1.1.2,39,-0.010,-0.010,-0.010,0.000,0.000,0.000
1644940049027430144,2022-02-15-15:47:29,10.1.1.2,30,0.070,0.070,0.070,0.000,0.000,0.000
1644940049587024896,2022-02-15-15:47:29,10.1.1.2,29,-0.040,-0.040,-0.040,0.000,0.000,0.000
1644940049647536128,2022-02-15-15:47:29,10.1.1.2,38,-0.050,-0.050,-0.050,0.000,0.000,0.000
1644940050126440960,2022-02-15-15:47:30,10.1.1.2,11,-0.050,-0.050,-0.050,0.000,0.000,0.000
1644940051226860032,2022-02-15-15:47:31,10.1.1.2,39,0.040,0.040,0.040,0.000,0.000,0.000
1644940051766625792,2022-02-15-15:47:31,10.1.1.2,20,-0.070,-0.070,-0.070,0.000,0.000,0.000
1644940052066343168,2022-02-15-15:47:32,10.1.1.2,12,-0.070,-0.070,-0.070,0.000,0.000,0.000
1644940053807790080,2022-02-15-15:47:33,10.1.1.2,20,-0.070,-0.070,-0.070,0.000,0.000,0.000
1644940054107283968,2022-02-15-15:47:34,10.1.1.2,11,-0.070,-0.070,-0.070,0.000,0.000,0.000
1644940055146625024,2022-02-15-15:47:35,10.1.1.2,29,0.070,0.070,0.070,0.000,0.000,0.000
1644940055606651136,2022-02-15-15:47:35,10.1.1.2,29,-0.020,-0.020,-0.020,0.000,0.000,0.000
1644940056406025984,2022-02-15-15:47:36,10.1.1.2,9,-0.020,-0.020,-0.020,0.000,0.000,0.000
1644940057006768896,2022-02-15-15:47:37,10.1.1.2,39,0.090,0.090,0.090,0.000,0.000,0.000
1644940057086818816,2022-02-15-15:47:37,10.1.1.2,18,0.090,0.090,0.090,0.000,0.000,0.000
1644940057306895872,2022-02-15-15:47:37,10.1.1.2,30,0.050,0.050,0.050,0.000,0.000,0.000
1644940057626415872,2022-02-15-15:47:37,10.1.1.2,39,-0.010,-0.010,-0.010,0.000,0.000,0.000
1644940058505884928,2022-02-15-15:47:38,10.1.1.2,39,-0.020,-0.020,-0.020,0.000,0.000,0.000
1644940058546467072,2022-02-15-15:47:38,10.1.1.2,29,-0.010,-0.010,-0.010,0.000,0.000,0.000
1644940059006930944,2022-02-15-15:47:39,10.1.1.2,30,0.080,0.080,0.080,0.000,0.000,0.000
1644940059206275072,2022-02-15-15:47:39,10.1.1.2,24,0.080,0.080,0.080,0.000,0.000,0.000
1644940059886512128,2022-02-15-15:47:39,10.1.1.2,30,-0.050,-0.050,-0.050,0.000,0.000,0.000
1644940059946060032,2022-02-15-15:47:39,10.1.1.2,39,-0.060,-0.060,-0.060,0.000,0.000,0.000
1644940060326948864,2022-02-15-15:47:40,10.1.1.2,12,-0.060,-0.060,-0.060,0.000,0.000,0.000
1644940061966500096,2022-02-15-15:47:41,10.1.1.2,24,-0.060,-0.060,-0.060,0.000,0.000,0.000
1644940062367139072,2022-02-15-15:47:42,10.1.1.2,16,-0.060,-0.060,-0.060,0.000,0.000,0.000
1644940062886856192,2022-02-15-15:47:42,10.1.1.2,29,0.040,0.040,0.040,0.000,0.000,0.000
1644940063486545920,2022-02-15-15:47:43,10.1.1.2,16,0.040,0.040,0.040,0.000,0.000,0.000
1644940064006257152,2022-02-15-15:47:44,10.1.1.2,29,-0.060,-0.060,-0.060,0.000,0.000,0.000
1644940064406852096,2022-02-15-15:47:44,10.1.1.2,24,-0.060,-0.060,-0.060,0.000,0.000,0.000
1644940065126898176,2022-02-15-15:47:45,10.1.1.2,29,0.080,0.080,0.080,0.000,0.000,0.000
1644940065327884032,2022-02-15-15:47:45,10.1.1.2,24,0.080,0.080,0.080,0.000,0.000,0.000
1644940065586356992,2022-02-15-15:47:45,10.1.1.2,30,0.030,0.030,0.030,0.000,0.000,0.000
1644940066145832960,2022-02-15-15:47:46,10.1.1.2,29,-0.080,-0.080,-0.080,0.000,0.000,0.000
1644940066347198976,2022-02-15-15:47:46,10.1.1.2,26,-0.080,-0.080,-0.080,0.000,0.000,0.000
1644940066707130880,2022-02-15-15:47:46,10.1.1.2,30,-0.010,-0.010,-0.010,0.000,0.000,0.000
1644940067826354944,2022-02-15-15:47:47,10.1.1.2,27,-0.010,-0.010,-0.010,0.000,0.000,0.000
1644940068226212864,2022-02-15-15:47:48,10.1.1.2,20,-0.090,-0.090,-0.090,0.000,0.000,0.000
1644940068326749952,2022-02-15-15:47:48,10.1.1.2,19,-0.090,-0.090,-0.090,0.000,0.000,0.000
1644940069586416128,2022-02-15-15:47:49,10.1.1.2,20,0.050,0.050,0.050,0.000,0.000,0.000
1644940071106684928,2022-02-15-15:47:51,10.1.1.2,11,0.050,0.050,0.050,0.000,0.000,0.000
1644940071626097920,2022-02-15-15:47:51,10.1.1.2,21,0.050,0.050,0.050,0.000,0.000,0.000
1644940073166017024,2022-02-15-15:47:53,10.1.1.2,25,0.050,0.050,0.050,0.000,0.000,0.000
1644940073666595072,2022-02-15-15:47:53,10.1.1.2,12,0.050,0.050,0.050,0.000,0.000,0.000
1644940074446500096,2022-02-15-15:47:54,10.1.1.2,30,-0.100,-0.100,-0.100,0.000,0.000,0.000
1644940075767753984,2022-02-15-15:47:55,10.1.1.2,20,0.040,0.040,0.040,0.000,0.000,0.000
1644940077185939968,2022-02-15-15:47:57,10.1.1.2,21,0.040,0.040,0.040,0.000,0.000,0.000
1644940077306808832,2022-02-15-15:47:57,10.1.1.2,40,0.060,0.060,0.060,0.000,0.000,0.000
1644940077347074048,2022-02-15-15:47:57,10.1.1.2,29,0.070,0.070,0.070,0.000,0.000,0.000
1644940077647044864,2022-02-15-15:47:57,10.1.1.2,24,0.070,0.070,0.070,0.000,0.000,0.000
1644940078866137088,2022-02-15-15:47:58,10.1.1.2,29,-0.030,-0.030,-0.030,0.000,0.000,0.000
1644940079665963776,2022-02-15-15:47:59,10.1.1.2,19,0.070,0.070,0.070,0.000,0.000,0.000
1644940079726759936,2022-02-15-15:47:59,10.1.1.2,29,0.060,0.060,0.060,0.000,0.000,0.000
1644940080686446848,2022-02-15-15:48:00,10.1.1.2,39,-0.080,-0.080,-0.080,0.000,0.000,0.000
1644940082486476800,2022-02-15-15:48:02,10.1.1.2,13,-0.080,-0.080,-0.080,0.000,0.000,0.000
1644940082701707008,2022-02-15-15:48:02,10.1.1.2,-8,-0.080,-0.080,-0.080,0.000,0.000,0.000
1644940083046205952,2022-02-15-15:48:03,10.1.1.2,30,-0.020,-0.020,-0.020,0.000,0.000,0.000
1644940084246254080,2022-02-15-15:48:04,10.1.1.2,11,-0.020,-0.020,-0.020,0.000,0.000,0.000
1644940084466945792,2022-02-15-15:48:04,10.1.1.2,29,-0.060,-0.060,-0.060,0.000,0.000,0.000
1644940084867120128,2022-02-15-15:48:04,10.1.1.2,24,-0.060,-0.060,-0.060,0.000,0.000,0.000
1644940085187251200,2022-02-15-15:48:05,10.1.1.2,40,0.000,0.000,0.000,0.000,0.000,0.000
1644940086167414016,2022-02-15-15:48:06,10.1.1.2,6,0.000,0.000,0.000,0.000,0.000,0.000
1644940086487283968,2022-02-15-15:48:06,10.1.1.2,20,-0.060,-0.060,-0.060,0.000,0.000,0.000
1644940086547068160,2022-02-15-15:48:06,10.1.1.2,29,-0.070,-0.070,-0.070,0.000,0.000,0.000
1644940086607248896,2022-02-15-15:48:06,10.1.1.2,39,-0.080,-0.080,-0.080,0.000,0.000,0.000
1644940086788610816,2022-02-15-15:48:06,10.1.1.2,15,-0.080,-0.080,-0.080,0.000,0.000,0.000
1644940087207693056,2022-02-15-15:48:07,10.1.1.2,29,0.000,0.000,0.000,0.000,0.000,0.000
1644940088209736192,2022-02-15-15:48:08,10.1.1.2,14,0.000,0.000,0.000,0.000,0.000,0.000
1644940089226145024,2022-02-15-15:48:09,10.1.1.2,17,0.000,0.000,0.000,0.000,0.000,0.000
1644940090245995008,2022-02-15-15:48:10,10.1.1.2,25,0.000,0.000,0.000,0.000,0.000,0.000
1644940091246038016,2022-02-15-15:48:11,10.1.1.2,13,0.000,0.000,0.000,0.000,0.000,0.000
1644940091606013952,2022-02-15-15:48:11,10.1.1.2,19,0.070,0.070,0.070,0.000,0.000,0.000
1644940091906150144,2022-02-15-15:48:11,10.1.1.2,15,0.070,0.070,0.070,0.000,0.000,0.000
1644940092286447104,2022-02-15-15:48:12,10.1.1.2,40,0.000,0.000,0.000,0.000,0.000,0.000
1644940093045902080,2022-02-15-15:48:13,10.1.1.2,39,-0.050,-0.050,-0.050,0.000,0.000,0.000
1644940093747294976,2022-02-15-15:48:13,10.1.1.2,29,0.090,0.090,0.090,0.000,0.000,0.000
1644940093829611008,2022-02-15-15:48:13,10.1.1.2,8,0.090,0.090,0.090,0.000,0.000,0.000
1644940095766764032,2022-02-15-15:48:15,10.1.1.2,15,0.090,0.090,0.090,0.000,0.000,0.000
1644940095866070016,2022-02-15-15:48:15,10.1.1.2,14,0.090,0.090,0.090,0.000,0.000,0.000
1644940096746275072,2022-02-15-15:48:16,10.1.1.2,29,-0.080,-0.080,-0.080,0.000,0.000,0.000
1644940096927025920,2022-02-15-15:48:16,10.1.1.2,6,-0.080,-0.080,-0.080,0.000,0.000,0.000
1644940098766407936,2022-02-15-15:48:18,10.1.1.2,14,-0.080,-0.080,-0.080,0.000,0.000,0.000
1644940098967459072,2022-02-15-15:48:18,10.1.1.2,12,-0.080,-0.080,-0.080,0.000,0.000,0.000
1644940099906371072,2022-02-15-15:48:19,10.1.1.2,39,0.100,0.100,0.100,0.000,0.000,0.000
1644940101907288064,2022-02-15-15:48:21,10.1.1.2,5,0.100,0.100,0.100,0.000,0.000,0.000
1644940103545939968,2022-02-15-15:48:23,10.1.1.2,20,0.020,0.020,0.020,0.000,0.000,0.000
1644940103806607104,2022-02-15-15:48:23,10.1.1.2,27,0.070,0.070,0.070,0.000,0.000,0.000
1644940104106713088,2022-02-15-15:48:24,10.1.1.2,23,0.070,0.070,0.070,0.000,0.000,0.000
1644940105828804864,2022-02-15-15:48:25,10.1.1.2,21,0.070,0.070,0.070,0.000,0.000,0.000
1644940106127660032,2022-02-15-15:48:26,10.1.1.2,16,0.070,0.070,0.070,0.000,0.000,0.000
1644940106686288128,2022-02-15-15:48:26,10.1.1.2,20,-0.040,-0.040,-0.040,0.000,0.000,0.000
1644940107286448128,2022-02-15-15:48:27,10.1.1.2,13,-0.040,-0.040,-0.040,0.000,0.000,0.000
1644940108527152128,2022-02-15-15:48:28,10.1.1.2,30,0.000,0.000,0.000,0.000,0.000,0.000
1644940109534363136,2022-02-15-15:48:29,10.1.1.2,16,0.000,0.000,0.000,0.000,0.000,0.000
1644940110551675136,2022-02-15-15:48:30,10.1.1.2,5,0.000,0.000,0.000,0.000,0.000,0.000
1644940111566705920,2022-02-15-15:48:31,10.1.1.2,11,0.000,0.000,0.000,0.000,0.000,0.000
1644940111689526016,2022-02-15-15:48:31,10.1.1.2,30,0.020,0.020,0.020,0.000,0.000,0.000
1644940112487479040,2022-02-15-15:48:32,10.1.1.2,19,0.020,0.020,0.020,0.000,0.000,0.000
1644940113727833088,2022-02-15-15:48:33,10.1.1.2,17,0.020,0.020,0.020,0.000,0.000,0.000
1644940114546985984,2022-02-15-15:48:34,10.1.1.2,22,0.020,0.020,0.020,0.000,0.000,0.000
1644940114646521088,2022-02-15-15:48:34,10.1.1.2,20,0.000,0.000,0.000,0.000,0.000,0.000
1644940115665721856,2022-02-15-15:48:35,10.1.1.2,22,0.000,0.000,0.000,0.000,0.000,0.000
1644940116426512128,2022-02-15-15:48:36,10.1.1.2,20,0.050,0.050,0.050,0.000,0.000,0.000
1644940117566731008,2022-02-15-15:48:37,10.1.1.2,39,-0.030,-0.030,-0.030,0.000,0.000,0.000
1644940118225971968,2022-02-15-15:48:38,10.1.1.2,39,0.100,0.100,0.100,0.000,0.000,0.000
1644940118785720064,2022-02-15-15:48:38,10.1.1.2,39,-0.010,-0.010,-0.010,0.000,0.000,0.000
1644940119346409984,2022-02-15-15:48:39,10.1.1.2,39,-0.080,-0.080,-0.080,0.000,0.000,0.000
1644940121147418880,2022-02-15-15:48:41,10.1.1.2,7,-0.080,-0.080,-0.080,0.000,0.000,0.000
1644940121366272000,2022-02-15-15:48:41,10.1.1.2,24,-0.080,-0.080,-0.080,0.000,0.000,0.000
1644940122706497792,2022-02-15-15:48:42,10.1.1.2,29,0.020,0.020,0.020,0.000,0.000,0.000
1644940123726676992,2022-02-15-15:48:43,10.1.1.2,29,-0.020,-0.020,-0.020,0.000,0.000,0.000
1644940124186233088,2022-02-15-15:48:44,10.1.1.2,30,0.070,0.070,0.070,0.000,0.000,0.000
1644940124486522880,2022-02-15-15:48:44,10.1.1.2,24,0.070,0.070,0.070,0.000,0.000,0.000
1644940125047751936,2022-02-15-15:48:45,10.1.1.2,20,-0.040,-0.040,-0.040,0.000,0.000,0.000
1644940125427473152,2022-02-15-15:48:45,10.1.1.2,39,-0.090,-0.090,-0.090,0.000,0.000,0.000
1644940126066158080,2022-02-15-15:48:46,10.1.1.2,22,0.040,0.040,0.040,0.000,0.000,0.000
1644940126666126080,2022-02-15-15:48:46,10.1.1.2,12,0.040,0.040,0.040,0.000,0.000,0.000
1644940126886482944,2022-02-15-15:48:46,10.1.1.2,30,0.000,0.000,0.000,0.000,0.000,0.000
1644940126946121984,2022-02-15-15:48:46,10.1.1.2,39,-0.010,-0.010,-0.010,0.000,0.000,0.000
1644940127546643968,2022-02-15-15:48:47,10.1.1.2,29,-0.070,-0.070,-0.070,0.000,0.000,0.000
1644940128266361088,2022-02-15-15:48:48,10.1.1.2,39,0.070,0.070,0.070,0.000,0.000,0.000
1644940128546386944,2022-02-15-15:48:48,10.1.1.2,15,0.070,0.070,0.070,0.000,0.000,0.000
1644940130267433984,2022-02-15-15:48:50,10.1.1.2,12,0.070,0.070,0.070,0.000,0.000,0.000
1644940130574908928,2022-02-15-15:48:50,10.1.1.2,7,0.070,0.070,0.070,0.000,0.000,0.000
1644940131286814976,2022-02-15-15:48:51,10.1.1.2,19,-0.070,-0.070,-0.070,0.000,0.000,0.000
1644940131586607872,2022-02-15-15:48:51,10.1.1.2,16,-0.070,-0.070,-0.070,0.000,0.000,0.000
1644940132206994944,2022-02-15-15:48:52,10.1.1.2,30,0.050,0.050,0.050,0.000,0.000,0.000
1644940132266657024,2022-02-15-15:48:52,10.1.1.2,39,0.060,0.060,0.060,0.000,0.000,0.000
1644940132646138880,2022-02-15-15:48:52,10.1.1.2,15,0.060,0.060,0.060,0.000,0.000,0.000
1644940133025942016,2022-02-15-15:48:53,10.1.1.2,39,-0.010,-0.010,-0.010,0.000,0.000,0.000
1644940133925880832,2022-02-15-15:48:53,10.1.1.2,27,-0.010,-0.010,-0.010,0.000,0.000,0.000
1644940134587182080,2022-02-15-15:48:54,10.1.1.2,30,0.080,0.080,0.080,0.000,0.000,0.000
1644940135706469120,2022-02-15-15:48:55,10.1.1.2,39,-0.060,-0.060,-0.060,0.000,0.000,0.000
1644940136506174208,2022-02-15-15:48:56,10.1.1.2,30,0.100,0.100,0.100,0.000,0.000,0.000
1644940138527427840,2022-02-15-15:48:58,10.1.1.2,21,0.100,0.100,0.100,0.000,0.000,0.000
1644940140546909952,2022-02-15-15:49:00,10.1.1.2,16,0.100,0.100,0.100,0.000,0.000,0.000
1644940141686400768,2022-02-15-15:49:01,10.1.1.2,39,-0.080,-0.080,-0.080,0.000,0.000,0.000
1644940143245521920,2022-02-15-15:49:03,10.1.1.2,30,-0.030,-0.030,-0.030,0.000,0.000,0.000
1644940143947415040,2022-02-15-15:49:03,10.1.1.2,20,-0.030,-0.030,-0.030,0.000,0.000,0.000
1644940144865480960,2022-02-15-15:49:04,10.1.1.2,29,0.050,0.050,0.050,0.000,0.000,0.000
1644940145725831936,2022-02-15-15:49:05,10.1.1.2,29,-0.080,-0.080,-0.080,0.000,0.000,0.000
1644940147525970944,2022-02-15-15:49:07,10.1.1.2,7,-0.080,-0.080,-0.080,0.000,0.000,0.000
1644940147746516992,2022-02-15-15:49:07,10.1.1.2,25,-0.080,-0.080,-0.080,0.000,0.000,0.000
1644940148207056128,2022-02-15-15:49:08,10.1.1.2,29,0.010,0.010,0.010,0.000,0.000,0.000
1644940149106519040,2022-02-15-15:49:09,10.1.1.2,18,0.010,0.010,0.010,0.000,0.000,0.000
1644940150226979072,2022-02-15-15:49:10,10.1.1.2,26,0.010,0.010,0.010,0.000,0.000,0.000
1644940150746084864,2022-02-15-15:49:10,10.1.1.2,39,0.090,0.090,0.090,0.000,0.000,0.000
1644940151686824192,2022-02-15-15:49:11,10.1.1.2,20,-0.100,-0.100,-0.100,0.000,0.000,0.000
1644940152646910976,2022-02-15-15:49:12,10.1.1.2,19,0.090,0.090,0.090,0.000,0.000,0.000
1644940152707019008,2022-02-15-15:49:12,10.1.1.2,29,0.100,0.100,0.100,0.000,0.000,0.000
1644940153466489088,2022-02-15-15:49:13,10.1.1.2,29,-0.050,-0.050,-0.050,0.000,0.000,0.000
1644940153527024128,2022-02-15-15:49:13,10.1.1.2,39,-0.060,-0.060,-0.060,0.000,0.000,0.000
1644940153907201024,2022-02-15-15:49:13,10.1.1.2,14,-0.060,-0.060,-0.060,0.000,0.000,0.000
1644940154326468864,2022-02-15-15:49:14,10.1.1.2,29,0.020,0.020,0.020,0.000,0.000,0.000
1644940155126116096,2022-02-15-15:49:15,10.1.1.2,20,0.020,0.020,0.020,0.000,0.000,0.000
1644940155185992960,2022-02-15-15:49:15,10.1.1.2,29,0.010,0.010,0.010,0.000,0.000,0.000
1644940156147408128,2022-02-15-15:49:16,10.1.1.2,29,-0.020,-0.020,-0.020,0.000,0.000,0.000
1644940157125916928,2022-02-15-15:49:17,10.1.1.2,39,0.030,0.030,0.030,0.000,0.000,0.000
1644940157166441984,2022-02-15-15:49:17,10.1.1.2,29,0.020,0.020,0.020,0.000,0.000,0.000
1644940158365752064,2022-02-15-15:49:18,10.1.1.2,9,0.020,0.020,0.020,0.000,0.000,0.000
1644940159006000896,2022-02-15-15:49:19,10.1.1.2,39,0.060,0.060,0.060,0.000,0.000,0.000
1644940159706876160,2022-02-15-15:49:19,10.1.1.2,29,-0.080,-0.080,-0.080,0.000,0.000,0.000
1644940159805885952,2022-02-15-15:49:19,10.1.1.2,28,-0.100,-0.100,-0.100,0.000,0.000,0.000
1644940160827428096,2022-02-15-15:49:20,10.1.1.2,39,0.100,0.100,0.100,0.000,0.000,0.000
1644940161466545152,2022-02-15-15:49:21,10.1.1.2,19,-0.030,-0.030,-0.030,0.000,0.000,0.000
1644940162167006976,2022-02-15-15:49:22,10.1.1.2,9,-0.030,-0.030,-0.030,0.000,0.000,0.000
1644940162745908992,2022-02-15-15:49:22,10.1.1.2,29,0.080,0.080,0.080,0.000,0.000,0.000
1644940162946324992,2022-02-15-15:49:22,10.1.1.2,26,0.080,0.080,0.080,0.000,0.000,0.000
1644940164767375104,2022-02-15-15:49:24,10.1.1.2,7,0.080,0.080,0.080,0.000,0.000,0.000
1644940164987226112,2022-02-15-15:49:24,10.1.1.2,22,0.080,0.080,0.080,0.000,0.000,0.000
1644940165647576064,2022-02-15-15:49:25,10.1.1.2,19,-0.050,-0.050,-0.050,0.000,0.000,0.000
1644940166157135872,2022-02-15-15:49:26,10.1.1.2,6,-0.050,-0.050,-0.050,0.000,0.000,0.000
1644940166786982144,2022-02-15-15:49:26,10.1.1.2,39,0.070,0.070,0.070,0.000,0.000,0.000
1644940167066539008,2022-02-15-15:49:27,10.1.1.2,15,0.070,0.070,0.070,0.000,0.000,0.000
1644940167546554112,2022-02-15-15:49:27,10.1.1.2,39,-0.020,-0.020,-0.020,0.000,0.000,0.000
1644940168345676800,2022-02-15-15:49:28,10.1.1.2,23,-0.020,-0.020,-0.020,0.000,0.000,0.000
1644940169566294784,2022-02-15-15:49:29,10.1.1.2,7,-0.020,-0.020,-0.020,0.000,0.000,0.000
1644940170346457856,2022-02-15-15:49:30,10.1.1.2,29,-0.030,-0.030,-0.030,0.000,0.000,0.000
1644940171072707840,2022-02-15-15:49:31,10.1.1.2,39,0.090,0.090,0.090,0.000,0.000,0.000
1644940172966273024,2022-02-15-15:49:32,10.1.1.2,14,0.090,0.090,0.090,0.000,0.000,0.000
1644940173065451008,2022-02-15-15:49:33,10.1.1.2,13,0.090,0.090,0.090,0.000,0.000,0.000
