FedericoMungari/DigitalTwin_service/01_WiredScenario/Output/Output_script/script_rosapi_2_output_robots4_freq0_2.txt
timestamp,date,node,latency,joint_1,joint_2,joint_3,joint_4,joint_5,joint_6
1644895899343596032,2022-02-15-03:31:39,10.1.1.3,14,-0.100,-0.100,-0.100,-0.000,-0.000,-0.000
1644895899402760960,2022-02-15-03:31:39,10.1.1.3,23,-0.090,-0.090,-0.090,0.000,0.000,0.000
1644895899463226112,2022-02-15-03:31:39,10.1.1.3,32,-0.080,-0.080,-0.080,0.000,0.000,0.000
1644895899564461824,2022-02-15-03:31:39,10.1.1.3,28,-0.060,-0.060,-0.060,0.000,0.000,0.000
1644895899624208896,2022-02-15-03:31:39,10.1.1.3,33,-0.050,-0.050,-0.050,0.000,0.000,0.000
1644895899662861056,2022-02-15-03:31:39,10.1.1.3,22,-0.040,-0.040,-0.040,0.000,0.000,0.000
1644895899723911936,2022-02-15-03:31:39,10.1.1.3,31,-0.030,-0.030,-0.030,0.000,0.000,0.000
1644895899823092992,2022-02-15-03:31:39,10.1.1.3,29,-0.010,-0.010,-0.010,0.000,0.000,0.000
1644895899882839808,2022-02-15-03:31:39,10.1.1.3,38,0.000,0.000,0.000,0.000,0.000,0.000
1644895899924093952,2022-02-15-03:31:39,10.1.1.3,26,0.010,0.010,0.010,0.000,0.000,0.000
1644895899983115008,2022-02-15-03:31:39,10.1.1.3,36,0.020,0.020,0.020,0.000,0.000,0.000
1644895900022998016,2022-02-15-03:31:40,10.1.1.3,25,0.030,0.030,0.030,0.000,0.000,0.000
1644895900083006976,2022-02-15-03:31:40,10.1.1.3,34,0.040,0.040,0.040,0.000,0.000,0.000
1644895900131720192,2022-02-15-03:31:40,10.1.1.3,22,0.050,0.050,0.050,0.000,0.000,0.000
1644895900243427072,2022-02-15-03:31:40,10.1.1.3,38,0.070,0.070,0.070,0.000,0.000,0.000
1644895900283049984,2022-02-15-03:31:40,10.1.1.3,26,0.080,0.080,0.080,0.000,0.000,0.000
1644895900343342080,2022-02-15-03:31:40,10.1.1.3,35,0.090,0.090,0.090,0.000,0.000,0.000
1644895900384232960,2022-02-15-03:31:40,10.1.1.3,23,0.100,0.100,0.100,0.000,0.000,0.000
1644895900443543040,2022-02-15-03:31:40,10.1.1.3,32,0.090,0.090,0.090,0.000,0.000,0.000
1644895900604182016,2022-02-15-03:31:40,10.1.1.3,38,0.060,0.060,0.060,0.000,0.000,0.000
1644895900642998016,2022-02-15-03:31:40,10.1.1.3,26,0.050,0.050,0.050,0.000,0.000,0.000
1644895900702955008,2022-02-15-03:31:40,10.1.1.3,35,0.040,0.040,0.040,0.000,0.000,0.000
1644895900743377920,2022-02-15-03:31:40,10.1.1.3,24,0.030,0.030,0.030,0.000,0.000,0.000
1644895900803878912,2022-02-15-03:31:40,10.1.1.3,33,0.020,0.020,0.020,0.000,0.000,0.000
1644895900843265024,2022-02-15-03:31:40,10.1.1.3,22,0.010,0.010,0.010,0.000,0.000,0.000
1644895901003043840,2022-02-15-03:31:41,10.1.1.3,29,-0.020,-0.020,-0.020,0.000,0.000,0.000
1644895901063185920,2022-02-15-03:31:41,10.1.1.3,38,-0.030,-0.030,-0.030,0.000,0.000,0.000
1644895901103353088,2022-02-15-03:31:41,10.1.1.3,27,-0.040,-0.040,-0.040,0.000,0.000,0.000
1644895901163172096,2022-02-15-03:31:41,10.1.1.3,36,-0.050,-0.050,-0.050,0.000,0.000,0.000
1644895901202893056,2022-02-15-03:31:41,10.1.1.3,25,-0.060,-0.060,-0.060,0.000,0.000,0.000
1644895901263292160,2022-02-15-03:31:41,10.1.1.3,34,-0.070,-0.070,-0.070,0.000,0.000,0.000
1644895901302853120,2022-02-15-03:31:41,10.1.1.3,23,-0.080,-0.080,-0.080,0.000,0.000,0.000
1644895901363593984,2022-02-15-03:31:41,10.1.1.3,31,-0.090,-0.090,-0.090,0.000,0.000,0.000
1644895901443015168,2022-02-15-03:31:41,10.1.1.3,10,-0.090,-0.090,-0.090,0.000,0.000,0.000
1644895901523232000,2022-02-15-03:31:41,10.1.1.3,39,-0.080,-0.080,-0.080,0.000,0.000,0.000
1644895901563618816,2022-02-15-03:31:41,10.1.1.3,25,-0.070,-0.070,-0.070,0.000,0.000,0.000
1644895901622728192,2022-02-15-03:31:41,10.1.1.3,34,-0.060,-0.060,-0.060,0.000,0.000,0.000
1644895901664033024,2022-02-15-03:31:41,10.1.1.3,23,-0.050,-0.050,-0.050,0.000,0.000,0.000
1644895901782963968,2022-02-15-03:31:41,10.1.1.3,39,-0.030,-0.030,-0.030,0.000,0.000,0.000
1644895901823005952,2022-02-15-03:31:41,10.1.1.3,28,-0.020,-0.020,-0.020,0.000,0.000,0.000
1644895901882822144,2022-02-15-03:31:41,10.1.1.3,36,-0.010,-0.010,-0.010,0.000,0.000,0.000
1644895901923553024,2022-02-15-03:31:41,10.1.1.3,26,0.000,0.000,0.000,0.000,0.000,0.000
1644895901982768128,2022-02-15-03:31:41,10.1.1.3,35,0.010,0.010,0.010,0.000,0.000,0.000
1644895902023966976,2022-02-15-03:31:42,10.1.1.3,25,0.020,0.020,0.020,0.000,0.000,0.000
1644895902082861056,2022-02-15-03:31:42,10.1.1.3,33,0.030,0.030,0.030,0.000,0.000,0.000
1644895902123517952,2022-02-15-03:31:42,10.1.1.3,23,0.040,0.040,0.040,0.000,0.000,0.000
1644895902183237120,2022-02-15-03:31:42,10.1.1.3,32,0.050,0.050,0.050,0.000,0.000,0.000
1644895902383192064,2022-02-15-03:31:42,10.1.1.3,28,0.090,0.090,0.090,0.000,0.000,0.000
1644895902442951936,2022-02-15-03:31:42,10.1.1.3,37,0.100,0.100,0.100,0.000,0.000,0.000
1644895902482866944,2022-02-15-03:31:42,10.1.1.3,27,0.090,0.090,0.090,0.000,0.000,0.000
1644895902543776000,2022-02-15-03:31:42,10.1.1.3,36,0.080,0.080,0.080,0.000,0.000,0.000
1644895902583548160,2022-02-15-03:31:42,10.1.1.3,26,0.070,0.070,0.070,0.000,0.000,0.000
1644895902642715904,2022-02-15-03:31:42,10.1.1.3,34,0.060,0.060,0.060,0.000,0.000,0.000
1644895902683557120,2022-02-15-03:31:42,10.1.1.3,24,0.050,0.050,0.050,0.000,0.000,0.000
1644895902743410176,2022-02-15-03:31:42,10.1.1.3,33,0.040,0.040,0.040,0.000,0.000,0.000
1644895902782910208,2022-02-15-03:31:42,10.1.1.3,22,0.030,0.030,0.030,0.000,0.000,0.000
1644895902942951936,2022-02-15-03:31:42,10.1.1.3,29,0.000,0.000,0.000,0.000,0.000,0.000
1644895903002827008,2022-02-15-03:31:43,10.1.1.3,39,-0.010,-0.010,-0.010,0.000,0.000,0.000
1644895903043015936,2022-02-15-03:31:43,10.1.1.3,28,-0.020,-0.020,-0.020,0.000,0.000,0.000
1644895903102910976,2022-02-15-03:31:43,10.1.1.3,37,-0.030,-0.030,-0.030,0.000,0.000,0.000
1644895903143095040,2022-02-15-03:31:43,10.1.1.3,26,-0.040,-0.040,-0.040,0.000,0.000,0.000
1644895903204071168,2022-02-15-03:31:43,10.1.1.3,35,-0.050,-0.050,-0.050,0.000,0.000,0.000
1644895903242811904,2022-02-15-03:31:43,10.1.1.3,24,-0.060,-0.060,-0.060,0.000,0.000,0.000
1644895903303038976,2022-02-15-03:31:43,10.1.1.3,32,-0.070,-0.070,-0.070,0.000,0.000,0.000
1644895903343020800,2022-02-15-03:31:43,10.1.1.3,22,-0.080,-0.080,-0.080,0.000,0.000,0.000
1644895903463385088,2022-02-15-03:31:43,10.1.1.3,39,-0.100,-0.100,-0.100,0.000,0.000,0.000
1644895903502692096,2022-02-15-03:31:43,10.1.1.3,28,-0.090,-0.090,-0.090,0.000,0.000,0.000
1644895903563361024,2022-02-15-03:31:43,10.1.1.3,37,-0.080,-0.080,-0.080,0.000,0.000,0.000
1644895903603409152,2022-02-15-03:31:43,10.1.1.3,26,-0.070,-0.070,-0.070,0.000,0.000,0.000
1644895903663016960,2022-02-15-03:31:43,10.1.1.3,33,-0.060,-0.060,-0.060,0.000,0.000,0.000
1644895903706247168,2022-02-15-03:31:43,10.1.1.3,22,-0.050,-0.050,-0.050,0.000,0.000,0.000
1644895903763326976,2022-02-15-03:31:43,10.1.1.3,31,-0.040,-0.040,-0.040,0.000,0.000,0.000
1644895903923939840,2022-02-15-03:31:43,10.1.1.3,39,-0.010,-0.010,-0.010,0.000,0.000,0.000
1644895903963099904,2022-02-15-03:31:43,10.1.1.3,28,0.000,0.000,0.000,0.000,0.000,0.000
1644895904022817024,2022-02-15-03:31:44,10.1.1.3,37,0.010,0.010,0.010,0.000,0.000,0.000
1644895904063450112,2022-02-15-03:31:44,10.1.1.3,26,0.020,0.020,0.020,0.000,0.000,0.000
1644895904122652160,2022-02-15-03:31:44,10.1.1.3,35,0.030,0.030,0.030,0.000,0.000,0.000
1644895904162830080,2022-02-15-03:31:44,10.1.1.3,23,0.040,0.040,0.040,0.000,0.000,0.000
1644895904222848768,2022-02-15-03:31:44,10.1.1.3,31,0.050,0.050,0.050,0.000,0.000,0.000
1644895904383151104,2022-02-15-03:31:44,10.1.1.3,39,0.080,0.080,0.080,0.000,0.000,0.000
1644895904423019776,2022-02-15-03:31:44,10.1.1.3,27,0.090,0.090,0.090,0.000,0.000,0.000
1644895904483261952,2022-02-15-03:31:44,10.1.1.3,37,0.100,0.100,0.100,0.000,0.000,0.000
1644895904522937088,2022-02-15-03:31:44,10.1.1.3,25,0.090,0.090,0.090,0.000,0.000,0.000
1644895904643333888,2022-02-15-03:31:44,10.1.1.3,39,0.070,0.070,0.070,0.000,0.000,0.000
1644895904682441984,2022-02-15-03:31:44,10.1.1.3,27,0.060,0.060,0.060,0.000,0.000,0.000
1644895904742778112,2022-02-15-03:31:44,10.1.1.3,36,0.050,0.050,0.050,0.000,0.000,0.000
1644895904783371008,2022-02-15-03:31:44,10.1.1.3,25,0.040,0.040,0.040,0.000,0.000,0.000
1644895904843362048,2022-02-15-03:31:44,10.1.1.3,33,0.030,0.030,0.030,0.000,0.000,0.000
1644895904903459072,2022-02-15-03:31:44,10.1.1.3,39,0.020,0.020,0.020,0.000,0.000,0.000
1644895904942991104,2022-02-15-03:31:44,10.1.1.3,28,0.010,0.010,0.010,0.000,0.000,0.000
1644895905003247104,2022-02-15-03:31:45,10.1.1.3,37,0.000,0.000,0.000,0.000,0.000,0.000
1644895905042726144,2022-02-15-03:31:45,10.1.1.3,26,-0.010,-0.010,-0.010,0.000,0.000,0.000
1644895905103259136,2022-02-15-03:31:45,10.1.1.3,35,-0.020,-0.020,-0.020,0.000,0.000,0.000
1644895905142827008,2022-02-15-03:31:45,10.1.1.3,24,-0.030,-0.030,-0.030,0.000,0.000,0.000
1644895905202866176,2022-02-15-03:31:45,10.1.1.3,34,-0.040,-0.040,-0.040,0.000,0.000,0.000
1644895905243236096,2022-02-15-03:31:45,10.1.1.3,23,-0.050,-0.050,-0.050,0.000,0.000,0.000
1644895905303417856,2022-02-15-03:31:45,10.1.1.3,32,-0.060,-0.060,-0.060,0.000,0.000,0.000
1644895905342515968,2022-02-15-03:31:45,10.1.1.3,21,-0.070,-0.070,-0.070,0.000,0.000,0.000
1644895905563016960,2022-02-15-03:31:45,10.1.1.3,38,-0.090,-0.090,-0.090,0.000,0.000,0.000
1644895905603051776,2022-02-15-03:31:45,10.1.1.3,27,-0.080,-0.080,-0.080,0.000,0.000,0.000
1644895905662754048,2022-02-15-03:31:45,10.1.1.3,36,-0.070,-0.070,-0.070,0.000,0.000,0.000
1644895905702846976,2022-02-15-03:31:45,10.1.1.3,25,-0.060,-0.060,-0.060,0.000,0.000,0.000
1644895905762784000,2022-02-15-03:31:45,10.1.1.3,35,-0.050,-0.050,-0.050,0.000,0.000,0.000
1644895905802906112,2022-02-15-03:31:45,10.1.1.3,24,-0.040,-0.040,-0.040,0.000,0.000,0.000
1644895905862582016,2022-02-15-03:31:45,10.1.1.3,32,-0.030,-0.030,-0.030,0.000,0.000,0.000
1644895905903224832,2022-02-15-03:31:45,10.1.1.3,22,-0.020,-0.020,-0.020,0.000,0.000,0.000
1644895906122685952,2022-02-15-03:31:46,10.1.1.3,39,0.020,0.020,0.020,0.000,0.000,0.000
1644895906162708992,2022-02-15-03:31:46,10.1.1.3,27,0.030,0.030,0.030,0.000,0.000,0.000
1644895906222758912,2022-02-15-03:31:46,10.1.1.3,35,0.040,0.040,0.040,0.000,0.000,0.000
1644895906262892032,2022-02-15-03:31:46,10.1.1.3,24,0.050,0.050,0.050,0.000,0.000,0.000
1644895906323128064,2022-02-15-03:31:46,10.1.1.3,33,0.060,0.060,0.060,0.000,0.000,0.000
1644895906362651136,2022-02-15-03:31:46,10.1.1.3,22,0.070,0.070,0.070,0.000,0.000,0.000
1644895906482682880,2022-02-15-03:31:46,10.1.1.3,39,0.090,0.090,0.090,0.000,0.000,0.000
1644895906522564864,2022-02-15-03:31:46,10.1.1.3,29,0.100,0.100,0.100,0.000,0.000,0.000
1644895906582882816,2022-02-15-03:31:46,10.1.1.3,38,0.090,0.090,0.090,0.000,0.000,0.000
1644895906622425088,2022-02-15-03:31:46,10.1.1.3,27,0.080,0.080,0.080,0.000,0.000,0.000
1644895906683414016,2022-02-15-03:31:46,10.1.1.3,36,0.070,0.070,0.070,0.000,0.000,0.000
1644895906722697984,2022-02-15-03:31:46,10.1.1.3,25,0.060,0.060,0.060,0.000,0.000,0.000
1644895906782960896,2022-02-15-03:31:46,10.1.1.3,34,0.050,0.050,0.050,0.000,0.000,0.000
1644895906823456000,2022-02-15-03:31:46,10.1.1.3,23,0.040,0.040,0.040,0.000,0.000,0.000
1644895906883454208,2022-02-15-03:31:46,10.1.1.3,32,0.030,0.030,0.030,0.000,0.000,0.000
1644895907043972864,2022-02-15-03:31:47,10.1.1.3,39,0.000,0.000,0.000,0.000,0.000,0.000
1644895907083180032,2022-02-15-03:31:47,10.1.1.3,28,-0.010,-0.010,-0.010,0.000,0.000,0.000
1644895907142935040,2022-02-15-03:31:47,10.1.1.3,36,-0.020,-0.020,-0.020,0.000,0.000,0.000
1644895907183568128,2022-02-15-03:31:47,10.1.1.3,24,-0.030,-0.030,-0.030,0.000,0.000,0.000
1644895907242701056,2022-02-15-03:31:47,10.1.1.3,33,-0.040,-0.040,-0.040,0.000,0.000,0.000
1644895907283027968,2022-02-15-03:31:47,10.1.1.3,22,-0.050,-0.050,-0.050,0.000,0.000,0.000
1644895907342996992,2022-02-15-03:31:47,10.1.1.3,31,-0.060,-0.060,-0.060,0.000,0.000,0.000
1644895907403134976,2022-02-15-03:31:47,10.1.1.3,39,-0.070,-0.070,-0.070,0.000,0.000,0.000
1644895907443734784,2022-02-15-03:31:47,10.1.1.3,28,-0.080,-0.080,-0.080,0.000,0.000,0.000
1644895907503254016,2022-02-15-03:31:47,10.1.1.3,37,-0.090,-0.090,-0.090,0.000,0.000,0.000
1644895907542945024,2022-02-15-03:31:47,10.1.1.3,26,-0.100,-0.100,-0.100,0.000,0.000,0.000
1644895907603408128,2022-02-15-03:31:47,10.1.1.3,35,-0.090,-0.090,-0.090,0.000,0.000,0.000
1644895907643249920,2022-02-15-03:31:47,10.1.1.3,23,-0.080,-0.080,-0.080,0.000,0.000,0.000
1644895907703533056,2022-02-15-03:31:47,10.1.1.3,32,-0.070,-0.070,-0.070,0.000,0.000,0.000
1644895907802624000,2022-02-15-03:31:47,10.1.1.3,29,-0.050,-0.050,-0.050,0.000,0.000,0.000
1644895907864131840,2022-02-15-03:31:47,10.1.1.3,38,-0.040,-0.040,-0.040,0.000,0.000,0.000
1644895907903700224,2022-02-15-03:31:47,10.1.1.3,27,-0.030,-0.030,-0.030,0.000,0.000,0.000
1644895907963732992,2022-02-15-03:31:47,10.1.1.3,35,-0.020,-0.020,-0.020,0.000,0.000,0.000
1644895908003308032,2022-02-15-03:31:48,10.1.1.3,22,-0.010,-0.010,-0.010,0.000,0.000,0.000
1644895908123112960,2022-02-15-03:31:48,10.1.1.3,39,0.010,0.010,0.010,0.000,0.000,0.000
1644895908163703808,2022-02-15-03:31:48,10.1.1.3,29,0.020,0.020,0.020,0.000,0.000,0.000
1644895908223283968,2022-02-15-03:31:48,10.1.1.3,37,0.030,0.030,0.030,0.000,0.000,0.000
1644895908263244032,2022-02-15-03:31:48,10.1.1.3,25,0.040,0.040,0.040,0.000,0.000,0.000
1644895908323525888,2022-02-15-03:31:48,10.1.1.3,34,0.050,0.050,0.050,0.000,0.000,0.000
1644895908363761920,2022-02-15-03:31:48,10.1.1.3,23,0.060,0.060,0.060,0.000,0.000,0.000
1644895908423588864,2022-02-15-03:31:48,10.1.1.3,31,0.070,0.070,0.070,0.000,0.000,0.000
1644895908583188992,2022-02-15-03:31:48,10.1.1.3,39,0.100,0.100,0.100,0.000,0.000,0.000
1644895908623193856,2022-02-15-03:31:48,10.1.1.3,28,0.090,0.090,0.090,0.000,0.000,0.000
1644895908683127040,2022-02-15-03:31:48,10.1.1.3,37,0.080,0.080,0.080,0.000,0.000,0.000
1644895908722894080,2022-02-15-03:31:48,10.1.1.3,25,0.070,0.070,0.070,0.000,0.000,0.000
1644895908782848000,2022-02-15-03:31:48,10.1.1.3,34,0.060,0.060,0.060,0.000,0.000,0.000
1644895908823483904,2022-02-15-03:31:48,10.1.1.3,24,0.050,0.050,0.050,0.000,0.000,0.000
1644895908884470016,2022-02-15-03:31:48,10.1.1.3,32,0.040,0.040,0.040,0.000,0.000,0.000
1644895908923538944,2022-02-15-03:31:48,10.1.1.3,21,0.030,0.030,0.030,0.000,0.000,0.000
1644895909043021056,2022-02-15-03:31:49,10.1.1.3,39,0.010,0.010,0.010,0.000,0.000,0.000
1644895909083433984,2022-02-15-03:31:49,10.1.1.3,27,0.000,0.000,0.000,0.000,0.000,0.000
1644895909142842112,2022-02-15-03:31:49,10.1.1.3,36,-0.010,-0.010,-0.010,0.000,0.000,0.000
1644895909182863872,2022-02-15-03:31:49,10.1.1.3,25,-0.020,-0.020,-0.020,0.000,0.000,0.000
1644895909242727168,2022-02-15-03:31:49,10.1.1.3,34,-0.030,-0.030,-0.030,0.000,0.000,0.000
1644895909283906816,2022-02-15-03:31:49,10.1.1.3,23,-0.040,-0.040,-0.040,0.000,0.000,0.000
1644895909344110848,2022-02-15-03:31:49,10.1.1.3,32,-0.050,-0.050,-0.050,0.000,0.000,0.000
1644895909502792960,2022-02-15-03:31:49,10.1.1.3,39,-0.080,-0.080,-0.080,0.000,0.000,0.000
1644895909542908928,2022-02-15-03:31:49,10.1.1.3,26,-0.090,-0.090,-0.090,0.000,0.000,0.000
1644895909603604992,2022-02-15-03:31:49,10.1.1.3,36,-0.100,-0.100,-0.100,0.000,0.000,0.000
1644895909643004928,2022-02-15-03:31:49,10.1.1.3,24,-0.090,-0.090,-0.090,0.000,0.000,0.000
1644895909703171072,2022-02-15-03:31:49,10.1.1.3,32,-0.080,-0.080,-0.080,0.000,0.000,0.000
1644895909743008000,2022-02-15-03:31:49,10.1.1.3,22,-0.070,-0.070,-0.070,0.000,0.000,0.000
1644895909903028992,2022-02-15-03:31:49,10.1.1.3,29,-0.040,-0.040,-0.040,0.000,0.000,0.000
1644895909962814976,2022-02-15-03:31:49,10.1.1.3,38,-0.030,-0.030,-0.030,0.000,0.000,0.000
1644895910002656000,2022-02-15-03:31:50,10.1.1.3,26,-0.020,-0.020,-0.020,0.000,0.000,0.000
1644895910062884096,2022-02-15-03:31:50,10.1.1.3,33,-0.010,-0.010,-0.010,0.000,0.000,0.000
1644895910102910976,2022-02-15-03:31:50,10.1.1.3,23,0.000,0.000,0.000,0.000,0.000,0.000
1644895910163710976,2022-02-15-03:31:50,10.1.1.3,32,0.010,0.010,0.010,0.000,0.000,0.000
1644895910322561024,2022-02-15-03:31:50,10.1.1.3,39,0.040,0.040,0.040,0.000,0.000,0.000
1644895910363528960,2022-02-15-03:31:50,10.1.1.3,27,0.050,0.050,0.050,0.000,0.000,0.000
1644895910422841088,2022-02-15-03:31:50,10.1.1.3,35,0.060,0.060,0.060,0.000,0.000,0.000
1644895910462662912,2022-02-15-03:31:50,10.1.1.3,24,0.070,0.070,0.070,0.000,0.000,0.000
1644895910522818048,2022-02-15-03:31:50,10.1.1.3,33,0.080,0.080,0.080,0.000,0.000,0.000
1644895910563309824,2022-02-15-03:31:50,10.1.1.3,22,0.090,0.090,0.090,0.000,0.000,0.000
1644895910622572032,2022-02-15-03:31:50,10.1.1.3,28,0.100,0.100,0.100,0.000,0.000,0.000
1644895910682801920,2022-02-15-03:31:50,10.1.1.3,37,0.090,0.090,0.090,0.000,0.000,0.000
1644895910723376128,2022-02-15-03:31:50,10.1.1.3,26,0.080,0.080,0.080,0.000,0.000,0.000
1644895910783139072,2022-02-15-03:31:50,10.1.1.3,35,0.070,0.070,0.070,0.000,0.000,0.000
1644895910822889216,2022-02-15-03:31:50,10.1.1.3,25,0.060,0.060,0.060,0.000,0.000,0.000
1644895910882356992,2022-02-15-03:31:50,10.1.1.3,34,0.050,0.050,0.050,0.000,0.000,0.000
1644895910922782976,2022-02-15-03:31:50,10.1.1.3,23,0.040,0.040,0.040,0.000,0.000,0.000
1644895910982548992,2022-02-15-03:31:50,10.1.1.3,32,0.030,0.030,0.030,0.000,0.000,0.000
1644895911022597120,2022-02-15-03:31:51,10.1.1.3,22,0.020,0.020,0.020,0.000,0.000,0.000
1644895911082986240,2022-02-15-03:31:51,10.1.1.3,31,0.010,0.010,0.010,0.000,0.000,0.000
1644895911183154176,2022-02-15-03:31:51,10.1.1.3,30,-0.010,-0.010,-0.010,0.000,0.000,0.000
1644895911242764032,2022-02-15-03:31:51,10.1.1.3,39,-0.020,-0.020,-0.020,0.000,0.000,0.000
1644895911283489024,2022-02-15-03:31:51,10.1.1.3,28,-0.030,-0.030,-0.030,0.000,0.000,0.000
1644895911343492096,2022-02-15-03:31:51,10.1.1.3,37,-0.040,-0.040,-0.040,0.000,0.000,0.000
1644895911382173184,2022-02-15-03:31:51,10.1.1.3,26,-0.050,-0.050,-0.050,0.000,0.000,0.000
1644895911442106880,2022-02-15-03:31:51,10.1.1.3,35,-0.060,-0.060,-0.060,0.000,0.000,0.000
1644895911482810112,2022-02-15-03:31:51,10.1.1.3,25,-0.070,-0.070,-0.070,0.000,0.000,0.000
1644895911543569920,2022-02-15-03:31:51,10.1.1.3,34,-0.080,-0.080,-0.080,0.000,0.000,0.000
1644895911582664960,2022-02-15-03:31:51,10.1.1.3,22,-0.090,-0.090,-0.090,0.000,0.000,0.000
1644895911642676992,2022-02-15-03:31:51,10.1.1.3,31,-0.100,-0.100,-0.100,0.000,0.000,0.000
1644895911742883072,2022-02-15-03:31:51,10.1.1.3,29,-0.080,-0.080,-0.080,0.000,0.000,0.000
1644895911803384064,2022-02-15-03:31:51,10.1.1.3,39,-0.070,-0.070,-0.070,0.000,0.000,0.000
1644895911842927872,2022-02-15-03:31:51,10.1.1.3,28,-0.060,-0.060,-0.060,0.000,0.000,0.000
1644895911903058944,2022-02-15-03:31:51,10.1.1.3,37,-0.050,-0.050,-0.050,0.000,0.000,0.000
1644895911942703104,2022-02-15-03:31:51,10.1.1.3,26,-0.040,-0.040,-0.040,0.000,0.000,0.000
1644895912002771968,2022-02-15-03:31:52,10.1.1.3,35,-0.030,-0.030,-0.030,0.000,0.000,0.000
1644895912042653952,2022-02-15-03:31:52,10.1.1.3,25,-0.020,-0.020,-0.020,0.000,0.000,0.000
1644895912102641152,2022-02-15-03:31:52,10.1.1.3,34,-0.010,-0.010,-0.010,0.000,0.000,0.000
1644895912143165184,2022-02-15-03:31:52,10.1.1.3,23,0.000,0.000,0.000,0.000,0.000,0.000
1644895912203180032,2022-02-15-03:31:52,10.1.1.3,32,0.010,0.010,0.010,0.000,0.000,0.000
1644895912243275776,2022-02-15-03:31:52,10.1.1.3,22,0.020,0.020,0.020,0.000,0.000,0.000
1644895912362654976,2022-02-15-03:31:52,10.1.1.3,39,0.040,0.040,0.040,0.000,0.000,0.000
1644895912403290880,2022-02-15-03:31:52,10.1.1.3,27,0.050,0.050,0.050,0.000,0.000,0.000
1644895912462627840,2022-02-15-03:31:52,10.1.1.3,36,0.060,0.060,0.060,0.000,0.000,0.000
1644895912502456832,2022-02-15-03:31:52,10.1.1.3,25,0.070,0.070,0.070,0.000,0.000,0.000
1644895912564222208,2022-02-15-03:31:52,10.1.1.3,35,0.080,0.080,0.080,0.000,0.000,0.000
1644895912602669056,2022-02-15-03:31:52,10.1.1.3,24,0.090,0.090,0.090,0.000,0.000,0.000
1644895912662475008,2022-02-15-03:31:52,10.1.1.3,34,0.100,0.100,0.100,0.000,0.000,0.000
1644895912702938112,2022-02-15-03:31:52,10.1.1.3,23,0.090,0.090,0.090,0.000,0.000,0.000
1644895912763046144,2022-02-15-03:31:52,10.1.1.3,32,0.080,0.080,0.080,0.000,0.000,0.000
1644895912803085056,2022-02-15-03:31:52,10.1.1.3,22,0.070,0.070,0.070,0.000,0.000,0.000
1644895912962654208,2022-02-15-03:31:52,10.1.1.3,29,0.040,0.040,0.040,0.000,0.000,0.000
1644895913022629120,2022-02-15-03:31:53,10.1.1.3,37,0.030,0.030,0.030,0.000,0.000,0.000
1644895913122915072,2022-02-15-03:31:53,10.1.1.3,34,0.010,0.010,0.010,0.000,0.000,0.000
1644895913163072000,2022-02-15-03:31:53,10.1.1.3,23,0.000,0.000,0.000,0.000,0.000,0.000
1644895913224452096,2022-02-15-03:31:53,10.1.1.3,33,-0.010,-0.010,-0.010,0.000,0.000,0.000
1644895913382620160,2022-02-15-03:31:53,10.1.1.3,39,-0.040,-0.040,-0.040,0.000,0.000,0.000
1644895913422699008,2022-02-15-03:31:53,10.1.1.3,23,-0.050,-0.050,-0.050,0.000,0.000,0.000
1644895913482612992,2022-02-15-03:31:53,10.1.1.3,31,-0.060,-0.060,-0.060,0.000,0.000,0.000
1644895913642726912,2022-02-15-03:31:53,10.1.1.3,39,-0.090,-0.090,-0.090,0.000,0.000,0.000
1644895913682905856,2022-02-15-03:31:53,10.1.1.3,28,-0.100,-0.100,-0.100,0.000,0.000,0.000
1644895913743154944,2022-02-15-03:31:53,10.1.1.3,37,-0.090,-0.090,-0.090,0.000,0.000,0.000
1644895913783032064,2022-02-15-03:31:53,10.1.1.3,26,-0.080,-0.080,-0.080,0.000,0.000,0.000
1644895913844605952,2022-02-15-03:31:53,10.1.1.3,34,-0.070,-0.070,-0.070,0.000,0.000,0.000
1644895913883429120,2022-02-15-03:31:53,10.1.1.3,23,-0.060,-0.060,-0.060,0.000,0.000,0.000
1644895913943609856,2022-02-15-03:31:53,10.1.1.3,33,-0.050,-0.050,-0.050,0.000,0.000,0.000
1644895913982953984,2022-02-15-03:31:53,10.1.1.3,21,-0.040,-0.040,-0.040,0.000,0.000,0.000
1644895914103526144,2022-02-15-03:31:54,10.1.1.3,39,-0.020,-0.020,-0.020,0.000,0.000,0.000
1644895914142914048,2022-02-15-03:31:54,10.1.1.3,28,-0.010,-0.010,-0.010,0.000,0.000,0.000
1644895914203730176,2022-02-15-03:31:54,10.1.1.3,37,0.000,0.000,0.000,0.000,0.000,0.000
1644895914242968064,2022-02-15-03:31:54,10.1.1.3,26,0.010,0.010,0.010,0.000,0.000,0.000
1644895914302912000,2022-02-15-03:31:54,10.1.1.3,35,0.020,0.020,0.020,0.000,0.000,0.000
1644895914343437056,2022-02-15-03:31:54,10.1.1.3,25,0.030,0.030,0.030,0.000,0.000,0.000
1644895914402903040,2022-02-15-03:31:54,10.1.1.3,34,0.040,0.040,0.040,0.000,0.000,0.000
1644895914443139072,2022-02-15-03:31:54,10.1.1.3,23,0.050,0.050,0.050,0.000,0.000,0.000
1644895914502641920,2022-02-15-03:31:54,10.1.1.3,32,0.060,0.060,0.060,0.000,0.000,0.000
1644895914662776832,2022-02-15-03:31:54,10.1.1.3,39,0.090,0.090,0.090,0.000,0.000,0.000
1644895914702838016,2022-02-15-03:31:54,10.1.1.3,28,0.100,0.100,0.100,0.000,0.000,0.000
1644895914763216896,2022-02-15-03:31:54,10.1.1.3,37,0.090,0.090,0.090,0.000,0.000,0.000
1644895914803601152,2022-02-15-03:31:54,10.1.1.3,26,0.080,0.080,0.080,0.000,0.000,0.000
1644895914863485184,2022-02-15-03:31:54,10.1.1.3,35,0.070,0.070,0.070,0.000,0.000,0.000
1644895914903830016,2022-02-15-03:31:54,10.1.1.3,25,0.060,0.060,0.060,0.000,0.000,0.000
1644895914963289088,2022-02-15-03:31:54,10.1.1.3,34,0.050,0.050,0.050,0.000,0.000,0.000
1644895915003043840,2022-02-15-03:31:55,10.1.1.3,23,0.040,0.040,0.040,0.000,0.000,0.000
1644895915122670848,2022-02-15-03:31:55,10.1.1.3,39,0.020,0.020,0.020,0.000,0.000,0.000
1644895915163544064,2022-02-15-03:31:55,10.1.1.3,28,0.010,0.010,0.010,0.000,0.000,0.000
1644895915223268096,2022-02-15-03:31:55,10.1.1.3,37,0.000,0.000,0.000,0.000,0.000,0.000
1644895915262515968,2022-02-15-03:31:55,10.1.1.3,26,-0.010,-0.010,-0.010,0.000,0.000,0.000
1644895915322884096,2022-02-15-03:31:55,10.1.1.3,35,-0.020,-0.020,-0.020,0.000,0.000,0.000
1644895915362989056,2022-02-15-03:31:55,10.1.1.3,24,-0.030,-0.030,-0.030,0.000,0.000,0.000
1644895915422521088,2022-02-15-03:31:55,10.1.1.3,32,-0.040,-0.040,-0.040,0.000,0.000,0.000
1644895915463276032,2022-02-15-03:31:55,10.1.1.3,21,-0.050,-0.050,-0.050,0.000,0.000,0.000
1644895915584291072,2022-02-15-03:31:55,10.1.1.3,39,-0.070,-0.070,-0.070,0.000,0.000,0.000
1644895915622809856,2022-02-15-03:31:55,10.1.1.3,29,-0.080,-0.080,-0.080,0.000,0.000,0.000
1644895915683289088,2022-02-15-03:31:55,10.1.1.3,38,-0.090,-0.090,-0.090,0.000,0.000,0.000
1644895915722692864,2022-02-15-03:31:55,10.1.1.3,27,-0.100,-0.100,-0.100,0.000,0.000,0.000
1644895915782970880,2022-02-15-03:31:55,10.1.1.3,36,-0.090,-0.090,-0.090,0.000,0.000,0.000
1644895915822836992,2022-02-15-03:31:55,10.1.1.3,25,-0.080,-0.080,-0.080,0.000,0.000,0.000
1644895915883687936,2022-02-15-03:31:55,10.1.1.3,34,-0.070,-0.070,-0.070,0.000,0.000,0.000
1644895915922470144,2022-02-15-03:31:55,10.1.1.3,22,-0.060,-0.060,-0.060,0.000,0.000,0.000
1644895916083215104,2022-02-15-03:31:56,10.1.1.3,29,-0.030,-0.030,-0.030,0.000,0.000,0.000
1644895916142828032,2022-02-15-03:31:56,10.1.1.3,38,-0.020,-0.020,-0.020,0.000,0.000,0.000
1644895916182952960,2022-02-15-03:31:56,10.1.1.3,26,-0.010,-0.010,-0.010,0.000,0.000,0.000
1644895916242834944,2022-02-15-03:31:56,10.1.1.3,35,0.000,0.000,0.000,0.000,0.000,0.000
1644895916283019008,2022-02-15-03:31:56,10.1.1.3,24,0.010,0.010,0.010,0.000,0.000,0.000
1644895916343005952,2022-02-15-03:31:56,10.1.1.3,33,0.020,0.020,0.020,0.000,0.000,0.000
1644895916383572992,2022-02-15-03:31:56,10.1.1.3,22,0.030,0.030,0.030,0.000,0.000,0.000
1644895916443000064,2022-02-15-03:31:56,10.1.1.3,32,0.040,0.040,0.040,0.000,0.000,0.000
1644895916603124992,2022-02-15-03:31:56,10.1.1.3,39,0.070,0.070,0.070,0.000,0.000,0.000
1644895916642776064,2022-02-15-03:31:56,10.1.1.3,28,0.080,0.080,0.080,0.000,0.000,0.000
1644895916702543872,2022-02-15-03:31:56,10.1.1.3,37,0.090,0.090,0.090,0.000,0.000,0.000
1644895916742989056,2022-02-15-03:31:56,10.1.1.3,26,0.100,0.100,0.100,0.000,0.000,0.000
1644895916803216896,2022-02-15-03:31:56,10.1.1.3,36,0.090,0.090,0.090,0.000,0.000,0.000
1644895916842830848,2022-02-15-03:31:56,10.1.1.3,25,0.080,0.080,0.080,0.000,0.000,0.000
1644895916902908160,2022-02-15-03:31:56,10.1.1.3,34,0.070,0.070,0.070,0.000,0.000,0.000
1644895916942337024,2022-02-15-03:31:56,10.1.1.3,23,0.060,0.060,0.060,0.000,0.000,0.000
1644895917003256064,2022-02-15-03:31:57,10.1.1.3,32,0.050,0.050,0.050,0.000,0.000,0.000
1644895917103454976,2022-02-15-03:31:57,10.1.1.3,30,0.030,0.030,0.030,0.000,0.000,0.000
1644895917162820096,2022-02-15-03:31:57,10.1.1.3,38,0.020,0.020,0.020,0.000,0.000,0.000
1644895917202969088,2022-02-15-03:31:57,10.1.1.3,25,0.010,0.010,0.010,0.000,0.000,0.000
1644895917262878976,2022-02-15-03:31:57,10.1.1.3,34,0.000,0.000,0.000,0.000,0.000,0.000
1644895917302866944,2022-02-15-03:31:57,10.1.1.3,23,-0.010,-0.010,-0.010,0.000,0.000,0.000
1644895917363652864,2022-02-15-03:31:57,10.1.1.3,32,-0.020,-0.020,-0.020,0.000,0.000,0.000
1644895917403419136,2022-02-15-03:31:57,10.1.1.3,22,-0.030,-0.030,-0.030,0.000,0.000,0.000
1644895917462825984,2022-02-15-03:31:57,10.1.1.3,31,-0.040,-0.040,-0.040,0.000,0.000,0.000
1644895917622798848,2022-02-15-03:31:57,10.1.1.3,38,-0.070,-0.070,-0.070,0.000,0.000,0.000
1644895917663604992,2022-02-15-03:31:57,10.1.1.3,27,-0.080,-0.080,-0.080,0.000,0.000,0.000
1644895917723138048,2022-02-15-03:31:57,10.1.1.3,37,-0.090,-0.090,-0.090,0.000,0.000,0.000
1644895917763331840,2022-02-15-03:31:57,10.1.1.3,24,-0.100,-0.100,-0.100,0.000,0.000,0.000
1644895917824076800,2022-02-15-03:31:57,10.1.1.3,34,-0.090,-0.090,-0.090,0.000,0.000,0.000
1644895917862344960,2022-02-15-03:31:57,10.1.1.3,22,-0.080,-0.080,-0.080,0.000,0.000,0.000
1644895917922953984,2022-02-15-03:31:57,10.1.1.3,31,-0.070,-0.070,-0.070,0.000,0.000,0.000
1644895917983334144,2022-02-15-03:31:57,10.1.1.3,39,-0.060,-0.060,-0.060,0.000,0.000,0.000
1644895918022664192,2022-02-15-03:31:58,10.1.1.3,28,-0.050,-0.050,-0.050,0.000,0.000,0.000
1644895918084047104,2022-02-15-03:31:58,10.1.1.3,38,-0.040,-0.040,-0.040,0.000,0.000,0.000
1644895918123083008,2022-02-15-03:31:58,10.1.1.3,25,-0.030,-0.030,-0.030,0.000,0.000,0.000
1644895918184329984,2022-02-15-03:31:58,10.1.1.3,34,-0.020,-0.020,-0.020,0.000,0.000,0.000
1644895918222956800,2022-02-15-03:31:58,10.1.1.3,23,-0.010,-0.010,-0.010,0.000,0.000,0.000
1644895918283454976,2022-02-15-03:31:58,10.1.1.3,31,0.000,0.000,0.000,0.000,0.000,0.000
1644895918382865920,2022-02-15-03:31:58,10.1.1.3,29,0.020,0.020,0.020,0.000,0.000,0.000
1644895918443217920,2022-02-15-03:31:58,10.1.1.3,38,0.030,0.030,0.030,0.000,0.000,0.000
1644895918483473920,2022-02-15-03:31:58,10.1.1.3,26,0.040,0.040,0.040,0.000,0.000,0.000
1644895918543243008,2022-02-15-03:31:58,10.1.1.3,35,0.050,0.050,0.050,0.000,0.000,0.000
1644895918583273984,2022-02-15-03:31:58,10.1.1.3,24,0.060,0.060,0.060,0.000,0.000,0.000
1644895918702497024,2022-02-15-03:31:58,10.1.1.3,39,0.080,0.080,0.080,0.000,0.000,0.000
1644895918742688768,2022-02-15-03:31:58,10.1.1.3,28,0.090,0.090,0.090,0.000,0.000,0.000
1644895918802306816,2022-02-15-03:31:58,10.1.1.3,37,0.100,0.100,0.100,0.000,0.000,0.000
1644895918843569152,2022-02-15-03:31:58,10.1.1.3,27,0.090,0.090,0.090,0.000,0.000,0.000
1644895918903623936,2022-02-15-03:31:58,10.1.1.3,36,0.080,0.080,0.080,0.000,0.000,0.000
1644895918943319040,2022-02-15-03:31:58,10.1.1.3,25,0.070,0.070,0.070,0.000,0.000,0.000
1644895919003185920,2022-02-15-03:31:59,10.1.1.3,34,0.060,0.060,0.060,0.000,0.000,0.000
1644895919043635968,2022-02-15-03:31:59,10.1.1.3,24,0.050,0.050,0.050,0.000,0.000,0.000
1644895919103334912,2022-02-15-03:31:59,10.1.1.3,33,0.040,0.040,0.040,0.000,0.000,0.000
1644895919143054080,2022-02-15-03:31:59,10.1.1.3,22,0.030,0.030,0.030,0.000,0.000,0.000
1644895919203116032,2022-02-15-03:31:59,10.1.1.3,31,0.020,0.020,0.020,0.000,0.000,0.000
1644895919363121152,2022-02-15-03:31:59,10.1.1.3,39,-0.010,-0.010,-0.010,0.000,0.000,0.000
1644895919403002880,2022-02-15-03:31:59,10.1.1.3,28,-0.020,-0.020,-0.020,0.000,0.000,0.000
1644895919463388928,2022-02-15-03:31:59,10.1.1.3,37,-0.030,-0.030,-0.030,0.000,0.000,0.000
1644895919502842880,2022-02-15-03:31:59,10.1.1.3,25,-0.040,-0.040,-0.040,0.000,0.000,0.000
1644895919563139840,2022-02-15-03:31:59,10.1.1.3,35,-0.050,-0.050,-0.050,0.000,0.000,0.000
1644895919602896896,2022-02-15-03:31:59,10.1.1.3,24,-0.060,-0.060,-0.060,0.000,0.000,0.000
1644895919662729984,2022-02-15-03:31:59,10.1.1.3,33,-0.070,-0.070,-0.070,0.000,0.000,0.000
1644895919703012096,2022-02-15-03:31:59,10.1.1.3,22,-0.080,-0.080,-0.080,0.000,0.000,0.000
1644895919763042048,2022-02-15-03:31:59,10.1.1.3,31,-0.090,-0.090,-0.090,0.000,0.000,0.000
1644895919842694144,2022-02-15-03:31:59,10.1.1.3,10,-0.090,-0.090,-0.090,0.000,0.000,0.000
1644895919922626048,2022-02-15-03:31:59,10.1.1.3,39,-0.080,-0.080,-0.080,0.000,0.000,0.000
1644895919963347968,2022-02-15-03:31:59,10.1.1.3,28,-0.070,-0.070,-0.070,0.000,0.000,0.000
1644895920023052032,2022-02-15-03:32:00,10.1.1.3,37,-0.060,-0.060,-0.060,0.000,0.000,0.000
1644895920063343104,2022-02-15-03:32:00,10.1.1.3,26,-0.050,-0.050,-0.050,0.000,0.000,0.000
1644895920122968064,2022-02-15-03:32:00,10.1.1.3,35,-0.040,-0.040,-0.040,0.000,0.000,0.000
1644895920162883072,2022-02-15-03:32:00,10.1.1.3,23,-0.030,-0.030,-0.030,0.000,0.000,0.000
1644895920223283968,2022-02-15-03:32:00,10.1.1.3,33,-0.020,-0.020,-0.020,0.000,0.000,0.000
1644895920263375872,2022-02-15-03:32:00,10.1.1.3,21,-0.010,-0.010,-0.010,0.000,0.000,0.000
1644895920382989824,2022-02-15-03:32:00,10.1.1.3,39,0.010,0.010,0.010,0.000,0.000,0.000
1644895920422686208,2022-02-15-03:32:00,10.1.1.3,26,0.020,0.020,0.020,0.000,0.000,0.000
1644895920482414848,2022-02-15-03:32:00,10.1.1.3,35,0.030,0.030,0.030,0.000,0.000,0.000
1644895920523044096,2022-02-15-03:32:00,10.1.1.3,24,0.040,0.040,0.040,0.000,0.000,0.000
1644895920582957056,2022-02-15-03:32:00,10.1.1.3,33,0.050,0.050,0.050,0.000,0.000,0.000
1644895920623030016,2022-02-15-03:32:00,10.1.1.3,22,0.060,0.060,0.060,0.000,0.000,0.000
1644895920782644992,2022-02-15-03:32:00,10.1.1.3,29,0.090,0.090,0.090,0.000,0.000,0.000
1644895920843453952,2022-02-15-03:32:00,10.1.1.3,37,0.100,0.100,0.100,0.000,0.000,0.000
1644895920883156992,2022-02-15-03:32:00,10.1.1.3,27,0.090,0.090,0.090,0.000,0.000,0.000
1644895920942636032,2022-02-15-03:32:00,10.1.1.3,35,0.080,0.080,0.080,0.000,0.000,0.000
1644895920983011072,2022-02-15-03:32:00,10.1.1.3,25,0.070,0.070,0.070,0.000,0.000,0.000
1644895921043472896,2022-02-15-03:32:01,10.1.1.3,34,0.060,0.060,0.060,0.000,0.000,0.000
1644895921083322112,2022-02-15-03:32:01,10.1.1.3,23,0.050,0.050,0.050,0.000,0.000,0.000
1644895921143066880,2022-02-15-03:32:01,10.1.1.3,32,0.040,0.040,0.040,0.000,0.000,0.000
1644895921243041024,2022-02-15-03:32:01,10.1.1.3,27,0.020,0.020,0.020,0.000,0.000,0.000
1644895921302969088,2022-02-15-03:32:01,10.1.1.3,36,0.010,0.010,0.010,0.000,0.000,0.000
1644895921343044096,2022-02-15-03:32:01,10.1.1.3,24,0.000,0.000,0.000,0.000,0.000,0.000
1644895921403181056,2022-02-15-03:32:01,10.1.1.3,33,-0.010,-0.010,-0.010,0.000,0.000,0.000
1644895921442672128,2022-02-15-03:32:01,10.1.1.3,23,-0.020,-0.020,-0.020,0.000,0.000,0.000
1644895921502788096,2022-02-15-03:32:01,10.1.1.3,32,-0.030,-0.030,-0.030,0.000,0.000,0.000
1644895921702748928,2022-02-15-03:32:01,10.1.1.3,29,-0.070,-0.070,-0.070,0.000,0.000,0.000
1644895921763169024,2022-02-15-03:32:01,10.1.1.3,38,-0.080,-0.080,-0.080,0.000,0.000,0.000
1644895921802830848,2022-02-15-03:32:01,10.1.1.3,25,-0.090,-0.090,-0.090,0.000,0.000,0.000
1644895921863680000,2022-02-15-03:32:01,10.1.1.3,34,-0.100,-0.100,-0.100,0.000,0.000,0.000
1644895921902848000,2022-02-15-03:32:01,10.1.1.3,23,-0.090,-0.090,-0.090,0.000,0.000,0.000
1644895921962575872,2022-02-15-03:32:01,10.1.1.3,32,-0.080,-0.080,-0.080,0.000,0.000,0.000
1644895922063488000,2022-02-15-03:32:02,10.1.1.3,28,-0.060,-0.060,-0.060,0.000,0.000,0.000
1644895922123051776,2022-02-15-03:32:02,10.1.1.3,37,-0.050,-0.050,-0.050,0.000,0.000,0.000
1644895922162859008,2022-02-15-03:32:02,10.1.1.3,27,-0.040,-0.040,-0.040,0.000,0.000,0.000
1644895922223379968,2022-02-15-03:32:02,10.1.1.3,35,-0.030,-0.030,-0.030,0.000,0.000,0.000
1644895922264525056,2022-02-15-03:32:02,10.1.1.3,24,-0.020,-0.020,-0.020,0.000,0.000,0.000
1644895922322810880,2022-02-15-03:32:02,10.1.1.3,33,-0.010,-0.010,-0.010,0.000,0.000,0.000
1644895922364243968,2022-02-15-03:32:02,10.1.1.3,22,0.000,0.000,0.000,0.000,0.000,0.000
1644895922483027968,2022-02-15-03:32:02,10.1.1.3,39,0.020,0.020,0.020,0.000,0.000,0.000
1644895922523184128,2022-02-15-03:32:02,10.1.1.3,29,0.030,0.030,0.030,0.000,0.000,0.000
1644895922582724096,2022-02-15-03:32:02,10.1.1.3,36,0.040,0.040,0.040,0.000,0.000,0.000
1644895922623248128,2022-02-15-03:32:02,10.1.1.3,25,0.050,0.050,0.050,0.000,0.000,0.000
1644895922683271936,2022-02-15-03:32:02,10.1.1.3,34,0.060,0.060,0.060,0.000,0.000,0.000
1644895922723873024,2022-02-15-03:32:02,10.1.1.3,23,0.070,0.070,0.070,0.000,0.000,0.000
1644895922783302144,2022-02-15-03:32:02,10.1.1.3,32,0.080,0.080,0.080,0.000,0.000,0.000
1644895922943033856,2022-02-15-03:32:02,10.1.1.3,39,0.090,0.090,0.090,0.000,0.000,0.000
1644895922985309952,2022-02-15-03:32:02,10.1.1.3,28,0.080,0.080,0.080,0.000,0.000,0.000
1644895923043035904,2022-02-15-03:32:03,10.1.1.3,36,0.070,0.070,0.070,0.000,0.000,0.000
1644895923082711808,2022-02-15-03:32:03,10.1.1.3,25,0.060,0.060,0.060,0.000,0.000,0.000
1644895923143202048,2022-02-15-03:32:03,10.1.1.3,34,0.050,0.050,0.050,0.000,0.000,0.000
1644895923183237120,2022-02-15-03:32:03,10.1.1.3,23,0.040,0.040,0.040,0.000,0.000,0.000
1644895923242883072,2022-02-15-03:32:03,10.1.1.3,32,0.030,0.030,0.030,0.000,0.000,0.000
1644895923282663936,2022-02-15-03:32:03,10.1.1.3,22,0.020,0.020,0.020,0.000,0.000,0.000
1644895923442825984,2022-02-15-03:32:03,10.1.1.3,29,-0.010,-0.010,-0.010,0.000,0.000,0.000
1644895923503217920,2022-02-15-03:32:03,10.1.1.3,39,-0.020,-0.020,-0.020,0.000,0.000,0.000
1644895923542743808,2022-02-15-03:32:03,10.1.1.3,27,-0.030,-0.030,-0.030,0.000,0.000,0.000
1644895923602638848,2022-02-15-03:32:03,10.1.1.3,36,-0.040,-0.040,-0.040,0.000,0.000,0.000
1644895923643301120,2022-02-15-03:32:03,10.1.1.3,25,-0.050,-0.050,-0.050,0.000,0.000,0.000
1644895923702594048,2022-02-15-03:32:03,10.1.1.3,34,-0.060,-0.060,-0.060,0.000,0.000,0.000
1644895923743474944,2022-02-15-03:32:03,10.1.1.3,23,-0.070,-0.070,-0.070,0.000,0.000,0.000
1644895923804041984,2022-02-15-03:32:03,10.1.1.3,32,-0.080,-0.080,-0.080,0.000,0.000,0.000
1644895923843206912,2022-02-15-03:32:03,10.1.1.3,22,-0.090,-0.090,-0.090,0.000,0.000,0.000
1644895923923672064,2022-02-15-03:32:03,10.1.1.3,-1,-0.090,-0.090,-0.090,0.000,0.000,0.000
1644895924002848000,2022-02-15-03:32:04,10.1.1.3,27,-0.080,-0.080,-0.080,0.000,0.000,0.000
1644895924063098880,2022-02-15-03:32:04,10.1.1.3,36,-0.070,-0.070,-0.070,0.000,0.000,0.000
1644895924102561024,2022-02-15-03:32:04,10.1.1.3,25,-0.060,-0.060,-0.060,0.000,0.000,0.000
1644895924163404032,2022-02-15-03:32:04,10.1.1.3,35,-0.050,-0.050,-0.050,0.000,0.000,0.000
1644895924202950912,2022-02-15-03:32:04,10.1.1.3,23,-0.040,-0.040,-0.040,0.000,0.000,0.000
1644895924263058944,2022-02-15-03:32:04,10.1.1.3,32,-0.030,-0.030,-0.030,0.000,0.000,0.000
1644895924422774016,2022-02-15-03:32:04,10.1.1.3,38,0.000,0.000,0.000,0.000,0.000,0.000
1644895924462574080,2022-02-15-03:32:04,10.1.1.3,27,0.010,0.010,0.010,0.000,0.000,0.000
1644895924523278080,2022-02-15-03:32:04,10.1.1.3,36,0.020,0.020,0.020,0.000,0.000,0.000
1644895924562576896,2022-02-15-03:32:04,10.1.1.3,26,0.030,0.030,0.030,0.000,0.000,0.000
1644895924622412800,2022-02-15-03:32:04,10.1.1.3,34,0.040,0.040,0.040,0.000,0.000,0.000
1644895924664331008,2022-02-15-03:32:04,10.1.1.3,23,0.050,0.050,0.050,0.000,0.000,0.000
1644895924724647168,2022-02-15-03:32:04,10.1.1.3,32,0.060,0.060,0.060,0.000,0.000,0.000
1644895924764292864,2022-02-15-03:32:04,10.1.1.3,21,0.070,0.070,0.070,0.000,0.000,0.000
1644895924924338944,2022-02-15-03:32:04,10.1.1.3,29,0.100,0.100,0.100,0.000,0.000,0.000
1644895924982668032,2022-02-15-03:32:04,10.1.1.3,37,0.090,0.090,0.090,0.000,0.000,0.000
1644895925022758912,2022-02-15-03:32:05,10.1.1.3,26,0.080,0.080,0.080,0.000,0.000,0.000
1644895925084166144,2022-02-15-03:32:05,10.1.1.3,35,0.070,0.070,0.070,0.000,0.000,0.000
1644895925123028992,2022-02-15-03:32:05,10.1.1.3,23,0.060,0.060,0.060,0.000,0.000,0.000
1644895925283731968,2022-02-15-03:32:05,10.1.1.3,28,0.030,0.030,0.030,0.000,0.000,0.000
1644895925343440128,2022-02-15-03:32:05,10.1.1.3,38,0.020,0.020,0.020,0.000,0.000,0.000
1644895925382875904,2022-02-15-03:32:05,10.1.1.3,27,0.010,0.010,0.010,0.000,0.000,0.000
1644895925443069952,2022-02-15-03:32:05,10.1.1.3,36,0.000,0.000,0.000,0.000,0.000,0.000
1644895925482781952,2022-02-15-03:32:05,10.1.1.3,23,-0.010,-0.010,-0.010,0.000,0.000,0.000
1644895925543613952,2022-02-15-03:32:05,10.1.1.3,33,-0.020,-0.020,-0.020,0.000,0.000,0.000
1644895925583278848,2022-02-15-03:32:05,10.1.1.3,21,-0.030,-0.030,-0.030,0.000,0.000,0.000
1644895925702840064,2022-02-15-03:32:05,10.1.1.3,38,-0.050,-0.050,-0.050,0.000,0.000,0.000
1644895925744179968,2022-02-15-03:32:05,10.1.1.3,26,-0.060,-0.060,-0.060,0.000,0.000,0.000
1644895925804681984,2022-02-15-03:32:05,10.1.1.3,35,-0.070,-0.070,-0.070,0.000,0.000,0.000
1644895925903254016,2022-02-15-03:32:05,10.1.1.3,31,-0.090,-0.090,-0.090,0.000,0.000,0.000
1644895925984258048,2022-02-15-03:32:05,10.1.1.3,2,-0.090,-0.090,-0.090,0.000,0.000,0.000
1644895926222984960,2022-02-15-03:32:06,10.1.1.3,38,-0.050,-0.050,-0.050,0.000,0.000,0.000
1644895926263204096,2022-02-15-03:32:06,10.1.1.3,27,-0.040,-0.040,-0.040,0.000,0.000,0.000
1644895926323281152,2022-02-15-03:32:06,10.1.1.3,36,-0.030,-0.030,-0.030,0.000,0.000,0.000
1644895926363010816,2022-02-15-03:32:06,10.1.1.3,25,-0.020,-0.020,-0.020,0.000,0.000,0.000
1644895926422868992,2022-02-15-03:32:06,10.1.1.3,34,-0.010,-0.010,-0.010,0.000,0.000,0.000
1644895926463025920,2022-02-15-03:32:06,10.1.1.3,24,0.000,0.000,0.000,0.000,0.000,0.000
1644895926523356928,2022-02-15-03:32:06,10.1.1.3,32,0.010,0.010,0.010,0.000,0.000,0.000
1644895926683008000,2022-02-15-03:32:06,10.1.1.3,39,0.040,0.040,0.040,0.000,0.000,0.000
1644895926722915840,2022-02-15-03:32:06,10.1.1.3,28,0.050,0.050,0.050,0.000,0.000,0.000
1644895926783025920,2022-02-15-03:32:06,10.1.1.3,36,0.060,0.060,0.060,0.000,0.000,0.000
1644895926822789888,2022-02-15-03:32:06,10.1.1.3,25,0.070,0.070,0.070,0.000,0.000,0.000
1644895926883002112,2022-02-15-03:32:06,10.1.1.3,34,0.080,0.080,0.080,0.000,0.000,0.000
1644895926923712000,2022-02-15-03:32:06,10.1.1.3,22,0.090,0.090,0.090,0.000,0.000,0.000
1644895927003226112,2022-02-15-03:32:07,10.1.1.3,-1,0.090,0.090,0.090,0.000,0.000,0.000
1644895927082714112,2022-02-15-03:32:07,10.1.1.3,27,0.080,0.080,0.080,0.000,0.000,0.000
1644895927143467008,2022-02-15-03:32:07,10.1.1.3,36,0.070,0.070,0.070,0.000,0.000,0.000
1644895927183372032,2022-02-15-03:32:07,10.1.1.3,25,0.060,0.060,0.060,0.000,0.000,0.000
1644895927243008000,2022-02-15-03:32:07,10.1.1.3,34,0.050,0.050,0.050,0.000,0.000,0.000
1644895927283624960,2022-02-15-03:32:07,10.1.1.3,23,0.040,0.040,0.040,0.000,0.000,0.000
1644895927342884096,2022-02-15-03:32:07,10.1.1.3,32,0.030,0.030,0.030,0.000,0.000,0.000
1644895927502507008,2022-02-15-03:32:07,10.1.1.3,38,0.000,0.000,0.000,0.000,0.000,0.000
1644895927542913024,2022-02-15-03:32:07,10.1.1.3,26,-0.010,-0.010,-0.010,0.000,0.000,0.000
1644895927603427840,2022-02-15-03:32:07,10.1.1.3,35,-0.020,-0.020,-0.020,0.000,0.000,0.000
1644895927642893056,2022-02-15-03:32:07,10.1.1.3,24,-0.030,-0.030,-0.030,0.000,0.000,0.000
1644895927702838784,2022-02-15-03:32:07,10.1.1.3,32,-0.040,-0.040,-0.040,0.000,0.000,0.000
1644895927862672128,2022-02-15-03:32:07,10.1.1.3,39,-0.070,-0.070,-0.070,0.000,0.000,0.000
1644895927904192000,2022-02-15-03:32:07,10.1.1.3,27,-0.080,-0.080,-0.080,0.000,0.000,0.000
1644895927963133184,2022-02-15-03:32:07,10.1.1.3,35,-0.090,-0.090,-0.090,0.000,0.000,0.000
1644895928002674944,2022-02-15-03:32:08,10.1.1.3,24,-0.100,-0.100,-0.100,0.000,0.000,0.000
1644895928063172096,2022-02-15-03:32:08,10.1.1.3,33,-0.090,-0.090,-0.090,0.000,0.000,0.000
1644895928102960128,2022-02-15-03:32:08,10.1.1.3,22,-0.080,-0.080,-0.080,0.000,0.000,0.000
1644895928263607040,2022-02-15-03:32:08,10.1.1.3,29,-0.050,-0.050,-0.050,0.000,0.000,0.000
1644895928323065088,2022-02-15-03:32:08,10.1.1.3,36,-0.040,-0.040,-0.040,0.000,0.000,0.000
1644895928365012992,2022-02-15-03:32:08,10.1.1.3,24,-0.030,-0.030,-0.030,0.000,0.000,0.000
1644895928422884096,2022-02-15-03:32:08,10.1.1.3,32,-0.020,-0.020,-0.020,0.000,0.000,0.000
1644895928462883840,2022-02-15-03:32:08,10.1.1.3,21,-0.010,-0.010,-0.010,0.000,0.000,0.000
1644895928582993152,2022-02-15-03:32:08,10.1.1.3,39,0.010,0.010,0.010,0.000,0.000,0.000
1644895928622787840,2022-02-15-03:32:08,10.1.1.3,27,0.020,0.020,0.020,0.000,0.000,0.000
1644895928682784000,2022-02-15-03:32:08,10.1.1.3,36,0.030,0.030,0.030,0.000,0.000,0.000
1644895928727521024,2022-02-15-03:32:08,10.1.1.3,25,0.040,0.040,0.040,0.000,0.000,0.000
1644895928792279040,2022-02-15-03:32:08,10.1.1.3,34,0.050,0.050,0.050,0.000,0.000,0.000
1644895928822140928,2022-02-15-03:32:08,10.1.1.3,24,0.060,0.060,0.060,0.000,0.000,0.000
1644895928882690816,2022-02-15-03:32:08,10.1.1.3,33,0.070,0.070,0.070,0.000,0.000,0.000
1644895928922863104,2022-02-15-03:32:08,10.1.1.3,23,0.080,0.080,0.080,0.000,0.000,0.000
1644895928982629120,2022-02-15-03:32:08,10.1.1.3,33,0.090,0.090,0.090,0.000,0.000,0.000
1644895929022448896,2022-02-15-03:32:09,10.1.1.3,22,0.100,0.100,0.100,0.000,0.000,0.000
1644895929082278912,2022-02-15-03:32:09,10.1.1.3,32,0.090,0.090,0.090,0.000,0.000,0.000
1644895929142435072,2022-02-15-03:32:09,10.1.1.3,41,0.080,0.080,0.080,0.000,0.000,0.000
1644895929342323968,2022-02-15-03:32:09,10.1.1.3,39,0.040,0.040,0.040,0.000,0.000,0.000
1644895929382388992,2022-02-15-03:32:09,10.1.1.3,28,0.030,0.030,0.030,0.000,0.000,0.000
1644895929442825984,2022-02-15-03:32:09,10.1.1.3,38,0.020,0.020,0.020,0.000,0.000,0.000
1644895929482605056,2022-02-15-03:32:09,10.1.1.3,27,0.010,0.010,0.010,0.000,0.000,0.000
1644895929542469888,2022-02-15-03:32:09,10.1.1.3,36,0.000,0.000,0.000,0.000,0.000,0.000
1644895929583062016,2022-02-15-03:32:09,10.1.1.3,25,-0.010,-0.010,-0.010,0.000,0.000,0.000
1644895929642576896,2022-02-15-03:32:09,10.1.1.3,35,-0.020,-0.020,-0.020,0.000,0.000,0.000
1644895929682406912,2022-02-15-03:32:09,10.1.1.3,24,-0.030,-0.030,-0.030,0.000,0.000,0.000
1644895929742369024,2022-02-15-03:32:09,10.1.1.3,33,-0.040,-0.040,-0.040,0.000,0.000,0.000
1644895929782945024,2022-02-15-03:32:09,10.1.1.3,22,-0.050,-0.050,-0.050,0.000,0.000,0.000
1644895929842747904,2022-02-15-03:32:09,10.1.1.3,32,-0.060,-0.060,-0.060,0.000,0.000,0.000
1644895929882354944,2022-02-15-03:32:09,10.1.1.3,21,-0.070,-0.070,-0.070,0.000,0.000,0.000
1644895930043350016,2022-02-15-03:32:10,10.1.1.3,29,-0.100,-0.100,-0.100,0.000,0.000,0.000
1644895930102860032,2022-02-15-03:32:10,10.1.1.3,38,-0.090,-0.090,-0.090,0.000,0.000,0.000
1644895930143577088,2022-02-15-03:32:10,10.1.1.3,27,-0.080,-0.080,-0.080,0.000,0.000,0.000
1644895930203150080,2022-02-15-03:32:10,10.1.1.3,36,-0.070,-0.070,-0.070,0.000,0.000,0.000
1644895930242609152,2022-02-15-03:32:10,10.1.1.3,25,-0.060,-0.060,-0.060,0.000,0.000,0.000
1644895930303364096,2022-02-15-03:32:10,10.1.1.3,34,-0.050,-0.050,-0.050,0.000,0.000,0.000
1644895930342849024,2022-02-15-03:32:10,10.1.1.3,23,-0.040,-0.040,-0.040,0.000,0.000,0.000
1644895930403104000,2022-02-15-03:32:10,10.1.1.3,32,-0.030,-0.030,-0.030,0.000,0.000,0.000
1644895930564002048,2022-02-15-03:32:10,10.1.1.3,39,0.000,0.000,0.000,0.000,0.000,0.000
1644895930602859008,2022-02-15-03:32:10,10.1.1.3,28,0.010,0.010,0.010,0.000,0.000,0.000
1644895930662867968,2022-02-15-03:32:10,10.1.1.3,37,0.020,0.020,0.020,0.000,0.000,0.000
1644895930703174144,2022-02-15-03:32:10,10.1.1.3,26,0.030,0.030,0.030,0.000,0.000,0.000
1644895930763886848,2022-02-15-03:32:10,10.1.1.3,35,0.040,0.040,0.040,0.000,0.000,0.000
1644895930803493120,2022-02-15-03:32:10,10.1.1.3,22,0.050,0.050,0.050,0.000,0.000,0.000
1644895930863323904,2022-02-15-03:32:10,10.1.1.3,31,0.060,0.060,0.060,0.000,0.000,0.000
1644895931023232000,2022-02-15-03:32:11,10.1.1.3,39,0.090,0.090,0.090,0.000,0.000,0.000
1644895931062639872,2022-02-15-03:32:11,10.1.1.3,28,0.100,0.100,0.100,0.000,0.000,0.000
1644895931123214848,2022-02-15-03:32:11,10.1.1.3,36,0.090,0.090,0.090,0.000,0.000,0.000
1644895931163080960,2022-02-15-03:32:11,10.1.1.3,25,0.080,0.080,0.080,0.000,0.000,0.000
1644895931223373056,2022-02-15-03:32:11,10.1.1.3,33,0.070,0.070,0.070,0.000,0.000,0.000
1644895931263660032,2022-02-15-03:32:11,10.1.1.3,22,0.060,0.060,0.060,0.000,0.000,0.000
1644895931423102976,2022-02-15-03:32:11,10.1.1.3,29,0.030,0.030,0.030,0.000,0.000,0.000
1644895931483620864,2022-02-15-03:32:11,10.1.1.3,38,0.020,0.020,0.020,0.000,0.000,0.000
1644895931523022848,2022-02-15-03:32:11,10.1.1.3,27,0.010,0.010,0.010,0.000,0.000,0.000
1644895931582792960,2022-02-15-03:32:11,10.1.1.3,36,0.000,0.000,0.000,0.000,0.000,0.000
1644895931623517952,2022-02-15-03:32:11,10.1.1.3,25,-0.010,-0.010,-0.010,0.000,0.000,0.000
1644895931683582976,2022-02-15-03:32:11,10.1.1.3,34,-0.020,-0.020,-0.020,0.000,0.000,0.000
1644895931723336960,2022-02-15-03:32:11,10.1.1.3,22,-0.030,-0.030,-0.030,0.000,0.000,0.000
1644895931783698944,2022-02-15-03:32:11,10.1.1.3,32,-0.040,-0.040,-0.040,0.000,0.000,0.000
1644895931942747136,2022-02-15-03:32:11,10.1.1.3,39,-0.070,-0.070,-0.070,0.000,0.000,0.000
1644895931983508224,2022-02-15-03:32:11,10.1.1.3,26,-0.080,-0.080,-0.080,0.000,0.000,0.000
1644895932042881024,2022-02-15-03:32:12,10.1.1.3,35,-0.090,-0.090,-0.090,0.000,0.000,0.000
1644895932082760960,2022-02-15-03:32:12,10.1.1.3,24,-0.100,-0.100,-0.100,0.000,0.000,0.000
1644895932143072000,2022-02-15-03:32:12,10.1.1.3,33,-0.090,-0.090,-0.090,0.000,0.000,0.000
1644895932184238848,2022-02-15-03:32:12,10.1.1.3,22,-0.080,-0.080,-0.080,0.000,0.000,0.000
1644895932343123968,2022-02-15-03:32:12,10.1.1.3,28,-0.050,-0.050,-0.050,0.000,0.000,0.000
1644895932402759936,2022-02-15-03:32:12,10.1.1.3,34,-0.040,-0.040,-0.040,0.000,0.000,0.000
1644895932443737088,2022-02-15-03:32:12,10.1.1.3,23,-0.030,-0.030,-0.030,0.000,0.000,0.000
1644895932502564864,2022-02-15-03:32:12,10.1.1.3,32,-0.020,-0.020,-0.020,0.000,0.000,0.000
1644895932543271936,2022-02-15-03:32:12,10.1.1.3,22,-0.010,-0.010,-0.010,0.000,0.000,0.000
1644895932603169024,2022-02-15-03:32:12,10.1.1.3,31,0.000,0.000,0.000,0.000,0.000,0.000
1644895932703158016,2022-02-15-03:32:12,10.1.1.3,29,0.020,0.020,0.020,0.000,0.000,0.000
1644895932762940928,2022-02-15-03:32:12,10.1.1.3,38,0.030,0.030,0.030,0.000,0.000,0.000
1644895932805963008,2022-02-15-03:32:12,10.1.1.3,26,0.040,0.040,0.040,0.000,0.000,0.000
1644895932863694080,2022-02-15-03:32:12,10.1.1.3,35,0.050,0.050,0.050,0.000,0.000,0.000
1644895932902910976,2022-02-15-03:32:12,10.1.1.3,23,0.060,0.060,0.060,0.000,0.000,0.000
1644895932963599872,2022-02-15-03:32:12,10.1.1.3,32,0.070,0.070,0.070,0.000,0.000,0.000
1644895933003380992,2022-02-15-03:32:13,10.1.1.3,21,0.080,0.080,0.080,0.000,0.000,0.000
1644895933122791936,2022-02-15-03:32:13,10.1.1.3,39,0.100,0.100,0.100,0.000,0.000,0.000
1644895933163194880,2022-02-15-03:32:13,10.1.1.3,28,0.090,0.090,0.090,0.000,0.000,0.000
1644895933223525120,2022-02-15-03:32:13,10.1.1.3,37,0.080,0.080,0.080,0.000,0.000,0.000
1644895933263912960,2022-02-15-03:32:13,10.1.1.3,25,0.070,0.070,0.070,0.000,0.000,0.000
1644895933322778112,2022-02-15-03:32:13,10.1.1.3,34,0.060,0.060,0.060,0.000,0.000,0.000
1644895933363159808,2022-02-15-03:32:13,10.1.1.3,23,0.050,0.050,0.050,0.000,0.000,0.000
1644895933422914048,2022-02-15-03:32:13,10.1.1.3,32,0.040,0.040,0.040,0.000,0.000,0.000
1644895933463282176,2022-02-15-03:32:13,10.1.1.3,21,0.030,0.030,0.030,0.000,0.000,0.000
1644895933623600896,2022-02-15-03:32:13,10.1.1.3,29,0.000,0.000,0.000,0.000,0.000,0.000
1644895933683175936,2022-02-15-03:32:13,10.1.1.3,36,-0.010,-0.010,-0.010,0.000,0.000,0.000
1644895933723259904,2022-02-15-03:32:13,10.1.1.3,25,-0.020,-0.020,-0.020,0.000,0.000,0.000
1644895933843095040,2022-02-15-03:32:13,10.1.1.3,38,-0.040,-0.040,-0.040,0.000,0.000,0.000
1644895933883559936,2022-02-15-03:32:13,10.1.1.3,26,-0.050,-0.050,-0.050,0.000,0.000,0.000
1644895933943123200,2022-02-15-03:32:13,10.1.1.3,36,-0.060,-0.060,-0.060,0.000,0.000,0.000
1644895933985096960,2022-02-15-03:32:13,10.1.1.3,24,-0.070,-0.070,-0.070,0.000,0.000,0.000
1644895934043875072,2022-02-15-03:32:14,10.1.1.3,34,-0.080,-0.080,-0.080,0.000,0.000,0.000
1644895934084470016,2022-02-15-03:32:14,10.1.1.3,23,-0.090,-0.090,-0.090,0.000,0.000,0.000
1644895934143254016,2022-02-15-03:32:14,10.1.1.3,32,-0.100,-0.100,-0.100,0.000,0.000,0.000
1644895934243348992,2022-02-15-03:32:14,10.1.1.3,30,-0.080,-0.080,-0.080,0.000,0.000,0.000
1644895934302771200,2022-02-15-03:32:14,10.1.1.3,38,-0.070,-0.070,-0.070,0.000,0.000,0.000
1644895934343135232,2022-02-15-03:32:14,10.1.1.3,27,-0.060,-0.060,-0.060,0.000,0.000,0.000
1644895934402956032,2022-02-15-03:32:14,10.1.1.3,36,-0.050,-0.050,-0.050,0.000,0.000,0.000
1644895934444269056,2022-02-15-03:32:14,10.1.1.3,25,-0.040,-0.040,-0.040,0.000,0.000,0.000
1644895934502621952,2022-02-15-03:32:14,10.1.1.3,35,-0.030,-0.030,-0.030,0.000,0.000,0.000
1644895934544027136,2022-02-15-03:32:14,10.1.1.3,23,-0.020,-0.020,-0.020,0.000,0.000,0.000
1644895934603010048,2022-02-15-03:32:14,10.1.1.3,32,-0.010,-0.010,-0.010,0.000,0.000,0.000
1644895934702941952,2022-02-15-03:32:14,10.1.1.3,30,0.010,0.010,0.010,0.000,0.000,0.000
1644895934763194112,2022-02-15-03:32:14,10.1.1.3,39,0.020,0.020,0.020,0.000,0.000,0.000
1644895934863632896,2022-02-15-03:32:14,10.1.1.3,29,0.040,0.040,0.040,0.000,0.000,0.000
1644895934923345152,2022-02-15-03:32:14,10.1.1.3,38,0.050,0.050,0.050,0.000,0.000,0.000
1644895934964262912,2022-02-15-03:32:14,10.1.1.3,26,0.060,0.060,0.060,0.000,0.000,0.000
1644895935022981888,2022-02-15-03:32:15,10.1.1.3,35,0.070,0.070,0.070,0.000,0.000,0.000
1644895935062712832,2022-02-15-03:32:15,10.1.1.3,24,0.080,0.080,0.080,0.000,0.000,0.000
1644895935123016960,2022-02-15-03:32:15,10.1.1.3,33,0.090,0.090,0.090,0.000,0.000,0.000
1644895935163127040,2022-02-15-03:32:15,10.1.1.3,23,0.100,0.100,0.100,0.000,0.000,0.000
1644895935224019968,2022-02-15-03:32:15,10.1.1.3,32,0.090,0.090,0.090,0.000,0.000,0.000
1644895935382865920,2022-02-15-03:32:15,10.1.1.3,39,0.060,0.060,0.060,0.000,0.000,0.000
1644895935422854912,2022-02-15-03:32:15,10.1.1.3,24,0.050,0.050,0.050,0.000,0.000,0.000
1644895935483130880,2022-02-15-03:32:15,10.1.1.3,33,0.040,0.040,0.040,0.000,0.000,0.000
1644895935523075072,2022-02-15-03:32:15,10.1.1.3,22,0.030,0.030,0.030,0.000,0.000,0.000
1644895935583211776,2022-02-15-03:32:15,10.1.1.3,31,0.020,0.020,0.020,0.000,0.000,0.000
1644895935682764032,2022-02-15-03:32:15,10.1.1.3,27,0.000,0.000,0.000,0.000,0.000,0.000
1644895935743694080,2022-02-15-03:32:15,10.1.1.3,35,-0.010,-0.010,-0.010,0.000,0.000,0.000
1644895935783660800,2022-02-15-03:32:15,10.1.1.3,23,-0.020,-0.020,-0.020,0.000,0.000,0.000
1644895935843488000,2022-02-15-03:32:15,10.1.1.3,32,-0.030,-0.030,-0.030,0.000,0.000,0.000
1644895935942512128,2022-02-15-03:32:15,10.1.1.3,28,-0.050,-0.050,-0.050,0.000,0.000,0.000
1644895936003115008,2022-02-15-03:32:16,10.1.1.3,37,-0.060,-0.060,-0.060,0.000,0.000,0.000
1644895936043045120,2022-02-15-03:32:16,10.1.1.3,26,-0.070,-0.070,-0.070,0.000,0.000,0.000
1644895936102828032,2022-02-15-03:32:16,10.1.1.3,35,-0.080,-0.080,-0.080,0.000,0.000,0.000
1644895936142924032,2022-02-15-03:32:16,10.1.1.3,23,-0.090,-0.090,-0.090,0.000,0.000,0.000
1644895936203272192,2022-02-15-03:32:16,10.1.1.3,33,-0.100,-0.100,-0.100,0.000,0.000,0.000
1644895936242616064,2022-02-15-03:32:16,10.1.1.3,22,-0.090,-0.090,-0.090,0.000,0.000,0.000
1644895936302977024,2022-02-15-03:32:16,10.1.1.3,32,-0.080,-0.080,-0.080,0.000,0.000,0.000
1644895936343288064,2022-02-15-03:32:16,10.1.1.3,21,-0.070,-0.070,-0.070,0.000,0.000,0.000
1644895936503219968,2022-02-15-03:32:16,10.1.1.3,29,-0.040,-0.040,-0.040,0.000,0.000,0.000
1644895936542905088,2022-02-15-03:32:16,10.1.1.3,17,-0.030,-0.030,-0.030,0.000,0.000,0.000
1644895936602564096,2022-02-15-03:32:16,10.1.1.3,27,-0.020,-0.020,-0.020,0.000,0.000,0.000
1644895936662972928,2022-02-15-03:32:16,10.1.1.3,36,-0.010,-0.010,-0.010,0.000,0.000,0.000
1644895936702703872,2022-02-15-03:32:16,10.1.1.3,25,0.000,0.000,0.000,0.000,0.000,0.000
1644895936763177984,2022-02-15-03:32:16,10.1.1.3,34,0.010,0.010,0.010,0.000,0.000,0.000
1644895936863249152,2022-02-15-03:32:16,10.1.1.3,27,0.030,0.030,0.030,0.000,0.000,0.000
1644895936922981888,2022-02-15-03:32:16,10.1.1.3,36,0.040,0.040,0.040,0.000,0.000,0.000
1644895936964310016,2022-02-15-03:32:16,10.1.1.3,25,0.050,0.050,0.050,0.000,0.000,0.000
1644895937022712832,2022-02-15-03:32:17,10.1.1.3,33,0.060,0.060,0.060,0.000,0.000,0.000
1644895937062764032,2022-02-15-03:32:17,10.1.1.3,22,0.070,0.070,0.070,0.000,0.000,0.000
1644895937184034048,2022-02-15-03:32:17,10.1.1.3,39,0.090,0.090,0.090,0.000,0.000,0.000
1644895937222971904,2022-02-15-03:32:17,10.1.1.3,28,0.100,0.100,0.100,0.000,0.000,0.000
1644895937283636992,2022-02-15-03:32:17,10.1.1.3,37,0.090,0.090,0.090,0.000,0.000,0.000
1644895937324173824,2022-02-15-03:32:17,10.1.1.3,26,0.080,0.080,0.080,0.000,0.000,0.000
1644895937383446016,2022-02-15-03:32:17,10.1.1.3,35,0.070,0.070,0.070,0.000,0.000,0.000
1644895937422771968,2022-02-15-03:32:17,10.1.1.3,25,0.060,0.060,0.060,0.000,0.000,0.000
1644895937482511104,2022-02-15-03:32:17,10.1.1.3,34,0.050,0.050,0.050,0.000,0.000,0.000
1644895937522778112,2022-02-15-03:32:17,10.1.1.3,23,0.040,0.040,0.040,0.000,0.000,0.000
1644895937583019008,2022-02-15-03:32:17,10.1.1.3,32,0.030,0.030,0.030,0.000,0.000,0.000
1644895937742377984,2022-02-15-03:32:17,10.1.1.3,39,0.000,0.000,0.000,0.000,0.000,0.000
1644895937783345920,2022-02-15-03:32:17,10.1.1.3,29,-0.010,-0.010,-0.010,0.000,0.000,0.000
1644895937843312128,2022-02-15-03:32:17,10.1.1.3,37,-0.020,-0.020,-0.020,0.000,0.000,0.000
1644895937884182016,2022-02-15-03:32:17,10.1.1.3,26,-0.030,-0.030,-0.030,0.000,0.000,0.000
1644895937943672832,2022-02-15-03:32:17,10.1.1.3,34,-0.040,-0.040,-0.040,0.000,0.000,0.000
1644895937983072000,2022-02-15-03:32:17,10.1.1.3,24,-0.050,-0.050,-0.050,0.000,0.000,0.000
1644895938042921984,2022-02-15-03:32:18,10.1.1.3,33,-0.060,-0.060,-0.060,0.000,0.000,0.000
1644895938083361024,2022-02-15-03:32:18,10.1.1.3,22,-0.070,-0.070,-0.070,0.000,0.000,0.000
1644895938143148032,2022-02-15-03:32:18,10.1.1.3,32,-0.080,-0.080,-0.080,0.000,0.000,0.000
1644895938183044864,2022-02-15-03:32:18,10.1.1.3,21,-0.090,-0.090,-0.090,0.000,0.000,0.000
1644895938262438912,2022-02-15-03:32:18,10.1.1.3,0,-0.090,-0.090,-0.090,0.000,0.000,0.000
1644895938342867968,2022-02-15-03:32:18,10.1.1.3,29,-0.080,-0.080,-0.080,0.000,0.000,0.000
1644895938402784000,2022-02-15-03:32:18,10.1.1.3,38,-0.070,-0.070,-0.070,0.000,0.000,0.000
1644895938443517952,2022-02-15-03:32:18,10.1.1.3,27,-0.060,-0.060,-0.060,0.000,0.000,0.000
1644895938502799104,2022-02-15-03:32:18,10.1.1.3,37,-0.050,-0.050,-0.050,0.000,0.000,0.000
1644895938543003136,2022-02-15-03:32:18,10.1.1.3,26,-0.040,-0.040,-0.040,0.000,0.000,0.000
1644895938602649856,2022-02-15-03:32:18,10.1.1.3,35,-0.030,-0.030,-0.030,0.000,0.000,0.000
1644895938643759104,2022-02-15-03:32:18,10.1.1.3,24,-0.020,-0.020,-0.020,0.000,0.000,0.000
1644895938702753024,2022-02-15-03:32:18,10.1.1.3,33,-0.010,-0.010,-0.010,0.000,0.000,0.000
1644895938743859968,2022-02-15-03:32:18,10.1.1.3,22,0.000,0.000,0.000,0.000,0.000,0.000
1644895938902818048,2022-02-15-03:32:18,10.1.1.3,28,0.030,0.030,0.030,0.000,0.000,0.000
1644895938962896128,2022-02-15-03:32:18,10.1.1.3,37,0.040,0.040,0.040,0.000,0.000,0.000
1644895939002672896,2022-02-15-03:32:19,10.1.1.3,26,0.050,0.050,0.050,0.000,0.000,0.000
1644895939062627072,2022-02-15-03:32:19,10.1.1.3,35,0.060,0.060,0.060,0.000,0.000,0.000
1644895939102562048,2022-02-15-03:32:19,10.1.1.3,24,0.070,0.070,0.070,0.000,0.000,0.000
1644895939163067136,2022-02-15-03:32:19,10.1.1.3,33,0.080,0.080,0.080,0.000,0.000,0.000
1644895939202728960,2022-02-15-03:32:19,10.1.1.3,23,0.090,0.090,0.090,0.000,0.000,0.000
1644895939283193088,2022-02-15-03:32:19,10.1.1.3,-1,0.090,0.090,0.090,0.000,0.000,0.000
1644895939363086080,2022-02-15-03:32:19,10.1.1.3,28,0.080,0.080,0.080,0.000,0.000,0.000
1644895939422673920,2022-02-15-03:32:19,10.1.1.3,37,0.070,0.070,0.070,0.000,0.000,0.000
1644895939462708992,2022-02-15-03:32:19,10.1.1.3,25,0.060,0.060,0.060,0.000,0.000,0.000
1644895939522834176,2022-02-15-03:32:19,10.1.1.3,35,0.050,0.050,0.050,0.000,0.000,0.000
1644895939563198208,2022-02-15-03:32:19,10.1.1.3,23,0.040,0.040,0.040,0.000,0.000,0.000
1644895939622874112,2022-02-15-03:32:19,10.1.1.3,32,0.030,0.030,0.030,0.000,0.000,0.000
1644895939662619136,2022-02-15-03:32:19,10.1.1.3,22,0.020,0.020,0.020,0.000,0.000,0.000
1644895939822691840,2022-02-15-03:32:19,10.1.1.3,29,-0.010,-0.010,-0.010,0.000,0.000,0.000
1644895939882720000,2022-02-15-03:32:19,10.1.1.3,38,-0.020,-0.020,-0.020,0.000,0.000,0.000
1644895939923695104,2022-02-15-03:32:19,10.1.1.3,27,-0.030,-0.030,-0.030,0.000,0.000,0.000
1644895939983129088,2022-02-15-03:32:19,10.1.1.3,36,-0.040,-0.040,-0.040,0.000,0.000,0.000
1644895940022865152,2022-02-15-03:32:20,10.1.1.3,24,-0.050,-0.050,-0.050,0.000,0.000,0.000
1644895940082706944,2022-02-15-03:32:20,10.1.1.3,33,-0.060,-0.060,-0.060,0.000,0.000,0.000
1644895940124238848,2022-02-15-03:32:20,10.1.1.3,22,-0.070,-0.070,-0.070,0.000,0.000,0.000
1644895940182943232,2022-02-15-03:32:20,10.1.1.3,30,-0.080,-0.080,-0.080,0.000,0.000,0.000
1644895940242952192,2022-02-15-03:32:20,10.1.1.3,38,-0.090,-0.090,-0.090,0.000,0.000,0.000
1644895940282717952,2022-02-15-03:32:20,10.1.1.3,27,-0.100,-0.100,-0.100,0.000,0.000,0.000
1644895940342953984,2022-02-15-03:32:20,10.1.1.3,36,-0.090,-0.090,-0.090,0.000,0.000,0.000
1644895940382865920,2022-02-15-03:32:20,10.1.1.3,25,-0.080,-0.080,-0.080,0.000,0.000,0.000
1644895940442946048,2022-02-15-03:32:20,10.1.1.3,32,-0.070,-0.070,-0.070,0.000,0.000,0.000
1644895940482984960,2022-02-15-03:32:20,10.1.1.3,21,-0.060,-0.060,-0.060,0.000,0.000,0.000
1644895940602885888,2022-02-15-03:32:20,10.1.1.3,39,-0.040,-0.040,-0.040,0.000,0.000,0.000
1644895940642622976,2022-02-15-03:32:20,10.1.1.3,28,-0.030,-0.030,-0.030,0.000,0.000,0.000
1644895940702876928,2022-02-15-03:32:20,10.1.1.3,38,-0.020,-0.020,-0.020,0.000,0.000,0.000
1644895940742737152,2022-02-15-03:32:20,10.1.1.3,26,-0.010,-0.010,-0.010,0.000,0.000,0.000
1644895940802814976,2022-02-15-03:32:20,10.1.1.3,35,0.000,0.000,0.000,0.000,0.000,0.000
1644895940843576832,2022-02-15-03:32:20,10.1.1.3,24,0.010,0.010,0.010,0.000,0.000,0.000
1644895940902991104,2022-02-15-03:32:20,10.1.1.3,33,0.020,0.020,0.020,0.000,0.000,0.000
1644895940943044864,2022-02-15-03:32:20,10.1.1.3,21,0.030,0.030,0.030,0.000,0.000,0.000
1644895941163100928,2022-02-15-03:32:21,10.1.1.3,39,0.070,0.070,0.070,0.000,0.000,0.000
1644895941202824960,2022-02-15-03:32:21,10.1.1.3,27,0.080,0.080,0.080,0.000,0.000,0.000
1644895941262626048,2022-02-15-03:32:21,10.1.1.3,37,0.090,0.090,0.090,0.000,0.000,0.000
1644895941302834944,2022-02-15-03:32:21,10.1.1.3,26,0.100,0.100,0.100,0.000,0.000,0.000
1644895941363131904,2022-02-15-03:32:21,10.1.1.3,33,0.090,0.090,0.090,0.000,0.000,0.000
1644895941403276032,2022-02-15-03:32:21,10.1.1.3,22,0.080,0.080,0.080,0.000,0.000,0.000
1644895941464078848,2022-02-15-03:32:21,10.1.1.3,32,0.070,0.070,0.070,0.000,0.000,0.000
1644895941763149056,2022-02-15-03:32:21,10.1.1.3,34,0.020,0.020,0.020,0.000,0.000,0.000
1644895941925601024,2022-02-15-03:32:21,10.1.1.3,38,-0.010,-0.010,-0.010,0.000,0.000,0.000
1644895942024748032,2022-02-15-03:32:22,10.1.1.3,37,-0.030,-0.030,-0.030,0.000,0.000,0.000
1644895942062149120,2022-02-15-03:32:22,10.1.1.3,25,-0.040,-0.040,-0.040,0.000,0.000,0.000
1644895942122513920,2022-02-15-03:32:22,10.1.1.3,35,-0.050,-0.050,-0.050,0.000,0.000,0.000
1644895942177086208,2022-02-15-03:32:22,10.1.1.3,36,-0.060,-0.060,-0.060,0.000,0.000,0.000
1644895942223687936,2022-02-15-03:32:22,10.1.1.3,33,-0.070,-0.070,-0.070,0.000,0.000,0.000
1644895942329123072,2022-02-15-03:32:22,10.1.1.3,32,-0.090,-0.090,-0.090,0.000,0.000,0.000
1644895942362471936,2022-02-15-03:32:22,10.1.1.3,22,-0.100,-0.100,-0.100,0.000,0.000,0.000
1644895942415475968,2022-02-15-03:32:22,10.1.1.3,24,-0.090,-0.090,-0.090,0.000,0.000,0.000
1644895942483143936,2022-02-15-03:32:22,10.1.1.3,38,-0.080,-0.080,-0.080,0.000,0.000,0.000
1644895942538935040,2022-02-15-03:32:22,10.1.1.3,27,-0.070,-0.070,-0.070,0.000,0.000,0.000
1644895942583142912,2022-02-15-03:32:22,10.1.1.3,37,-0.060,-0.060,-0.060,0.000,0.000,0.000
1644895942623985920,2022-02-15-03:32:22,10.1.1.3,27,-0.050,-0.050,-0.050,0.000,0.000,0.000
1644895942683028992,2022-02-15-03:32:22,10.1.1.3,36,-0.040,-0.040,-0.040,0.000,0.000,0.000
1644895942724883200,2022-02-15-03:32:22,10.1.1.3,27,-0.030,-0.030,-0.030,0.000,0.000,0.000
1644895942822498048,2022-02-15-03:32:22,10.1.1.3,24,-0.010,-0.010,-0.010,0.000,0.000,0.000
1644895942882348032,2022-02-15-03:32:22,10.1.1.3,33,0.000,0.000,0.000,0.000,0.000,0.000
1644895942985889024,2022-02-15-03:32:22,10.1.1.3,33,0.020,0.020,0.020,0.000,0.000,0.000
1644895943023106048,2022-02-15-03:32:23,10.1.1.3,21,0.030,0.030,0.030,0.000,0.000,0.000
1644895943122508032,2022-02-15-03:32:23,10.1.1.3,20,0.050,0.050,0.050,0.000,0.000,0.000
1644895943182385920,2022-02-15-03:32:23,10.1.1.3,29,0.060,0.060,0.060,0.000,0.000,0.000
1644895943242322944,2022-02-15-03:32:23,10.1.1.3,38,0.070,0.070,0.070,0.000,0.000,0.000
1644895943282490880,2022-02-15-03:32:23,10.1.1.3,27,0.080,0.080,0.080,0.000,0.000,0.000
1644895943342225152,2022-02-15-03:32:23,10.1.1.3,37,0.090,0.090,0.090,0.000,0.000,0.000
1644895943402390016,2022-02-15-03:32:23,10.1.1.3,35,0.100,0.100,0.100,0.000,0.000,0.000
1644895943442283008,2022-02-15-03:32:23,10.1.1.3,24,0.090,0.090,0.090,0.000,0.000,0.000
1644895943502403072,2022-02-15-03:32:23,10.1.1.3,34,0.080,0.080,0.080,0.000,0.000,0.000
1644895943542393856,2022-02-15-03:32:23,10.1.1.3,23,0.070,0.070,0.070,0.000,0.000,0.000
1644895943602341888,2022-02-15-03:32:23,10.1.1.3,33,0.060,0.060,0.060,0.000,0.000,0.000
1644895943642518016,2022-02-15-03:32:23,10.1.1.3,22,0.050,0.050,0.050,0.000,0.000,0.000
1644895943703259904,2022-02-15-03:32:23,10.1.1.3,32,0.040,0.040,0.040,0.000,0.000,0.000
1644895943802148096,2022-02-15-03:32:23,10.1.1.3,29,0.020,0.020,0.020,0.000,0.000,0.000
1644895943862087936,2022-02-15-03:32:23,10.1.1.3,39,0.010,0.010,0.010,0.000,0.000,0.000
1644895943902707968,2022-02-15-03:32:23,10.1.1.3,28,0.000,0.000,0.000,0.000,0.000,0.000
1644895943963213824,2022-02-15-03:32:23,10.1.1.3,37,-0.010,-0.010,-0.010,0.000,0.000,0.000
1644895944003276032,2022-02-15-03:32:24,10.1.1.3,26,-0.020,-0.020,-0.020,0.000,0.000,0.000
1644895944062572032,2022-02-15-03:32:24,10.1.1.3,35,-0.030,-0.030,-0.030,0.000,0.000,0.000
1644895944103187200,2022-02-15-03:32:24,10.1.1.3,24,-0.040,-0.040,-0.040,0.000,0.000,0.000
1644895944163297792,2022-02-15-03:32:24,10.1.1.3,33,-0.050,-0.050,-0.050,0.000,0.000,0.000
1644895944323187200,2022-02-15-03:32:24,10.1.1.3,39,-0.080,-0.080,-0.080,0.000,0.000,0.000
1644895944363840000,2022-02-15-03:32:24,10.1.1.3,29,-0.090,-0.090,-0.090,0.000,0.000,0.000
1644895944426678784,2022-02-15-03:32:24,10.1.1.3,37,-0.100,-0.100,-0.100,0.000,0.000,0.000
1644895944461991168,2022-02-15-03:32:24,10.1.1.3,24,-0.090,-0.090,-0.090,0.000,0.000,0.000
1644895944522561024,2022-02-15-03:32:24,10.1.1.3,33,-0.080,-0.080,-0.080,0.000,0.000,0.000
1644895944562855936,2022-02-15-03:32:24,10.1.1.3,23,-0.070,-0.070,-0.070,0.000,0.000,0.000
1644895944622523136,2022-02-15-03:32:24,10.1.1.3,32,-0.060,-0.060,-0.060,0.000,0.000,0.000
1644895944662697984,2022-02-15-03:32:24,10.1.1.3,21,-0.050,-0.050,-0.050,0.000,0.000,0.000
1644895944822350080,2022-02-15-03:32:24,10.1.1.3,29,-0.020,-0.020,-0.020,0.000,0.000,0.000
1644895944882142976,2022-02-15-03:32:24,10.1.1.3,39,-0.010,-0.010,-0.010,0.000,0.000,0.000
1644895944923294976,2022-02-15-03:32:24,10.1.1.3,28,0.000,0.000,0.000,0.000,0.000,0.000
1644895944983734016,2022-02-15-03:32:24,10.1.1.3,37,0.010,0.010,0.010,0.000,0.000,0.000
1644895945023065088,2022-02-15-03:32:25,10.1.1.3,25,0.020,0.020,0.020,0.000,0.000,0.000
1644895945082444800,2022-02-15-03:32:25,10.1.1.3,34,0.030,0.030,0.030,0.000,0.000,0.000
1644895945142305024,2022-02-15-03:32:25,10.1.1.3,43,0.040,0.040,0.040,0.000,0.000,0.000
1644895945182932992,2022-02-15-03:32:25,10.1.1.3,33,0.050,0.050,0.050,0.000,0.000,0.000
1644895945222525952,2022-02-15-03:32:25,10.1.1.3,23,0.060,0.060,0.060,0.000,0.000,0.000
1644895945282926080,2022-02-15-03:32:25,10.1.1.3,32,0.070,0.070,0.070,0.000,0.000,0.000
1644895945442620160,2022-02-15-03:32:25,10.1.1.3,39,0.100,0.100,0.100,0.000,0.000,0.000
1644895945482546944,2022-02-15-03:32:25,10.1.1.3,29,0.090,0.090,0.090,0.000,0.000,0.000
1644895945542264064,2022-02-15-03:32:25,10.1.1.3,38,0.080,0.080,0.080,0.000,0.000,0.000
1644895945582145024,2022-02-15-03:32:25,10.1.1.3,27,0.070,0.070,0.070,0.000,0.000,0.000
1644895945642558208,2022-02-15-03:32:25,10.1.1.3,37,0.060,0.060,0.060,0.000,0.000,0.000
1644895945682116096,2022-02-15-03:32:25,10.1.1.3,27,0.050,0.050,0.050,0.000,0.000,0.000
1644895945742261760,2022-02-15-03:32:25,10.1.1.3,36,0.040,0.040,0.040,0.000,0.000,0.000
1644895945782833152,2022-02-15-03:32:25,10.1.1.3,25,0.030,0.030,0.030,0.000,0.000,0.000
1644895945842216960,2022-02-15-03:32:25,10.1.1.3,35,0.020,0.020,0.020,0.000,0.000,0.000
1644895945882825984,2022-02-15-03:32:25,10.1.1.3,25,0.010,0.010,0.010,0.000,0.000,0.000
1644895945943414016,2022-02-15-03:32:25,10.1.1.3,32,0.000,0.000,0.000,0.000,0.000,0.000
1644895946106460928,2022-02-15-03:32:26,10.1.1.3,39,-0.030,-0.030,-0.030,0.000,0.000,0.000
1644895946143352064,2022-02-15-03:32:26,10.1.1.3,26,-0.040,-0.040,-0.040,0.000,0.000,0.000
1644895946202405888,2022-02-15-03:32:26,10.1.1.3,34,-0.050,-0.050,-0.050,0.000,0.000,0.000
1644895946243088896,2022-02-15-03:32:26,10.1.1.3,23,-0.060,-0.060,-0.060,0.000,0.000,0.000
1644895946302777088,2022-02-15-03:32:26,10.1.1.3,32,-0.070,-0.070,-0.070,0.000,0.000,0.000
1644895946463172864,2022-02-15-03:32:26,10.1.1.3,39,-0.100,-0.100,-0.100,0.000,0.000,0.000
1644895946502052096,2022-02-15-03:32:26,10.1.1.3,29,-0.090,-0.090,-0.090,0.000,0.000,0.000
1644895946562066944,2022-02-15-03:32:26,10.1.1.3,38,-0.080,-0.080,-0.080,0.000,0.000,0.000
1644895946602072832,2022-02-15-03:32:26,10.1.1.3,27,-0.070,-0.070,-0.070,0.000,0.000,0.000
1644895946662405120,2022-02-15-03:32:26,10.1.1.3,36,-0.060,-0.060,-0.060,0.000,0.000,0.000
1644895946703328000,2022-02-15-03:32:26,10.1.1.3,26,-0.050,-0.050,-0.050,0.000,0.000,0.000
1644895946763998976,2022-02-15-03:32:26,10.1.1.3,35,-0.040,-0.040,-0.040,0.000,0.000,0.000
1644895946803127040,2022-02-15-03:32:26,10.1.1.3,24,-0.030,-0.030,-0.030,0.000,0.000,0.000
1644895946862676992,2022-02-15-03:32:26,10.1.1.3,33,-0.020,-0.020,-0.020,0.000,0.000,0.000
1644895946903186944,2022-02-15-03:32:26,10.1.1.3,22,-0.010,-0.010,-0.010,0.000,0.000,0.000
1644895947063397888,2022-02-15-03:32:27,10.1.1.3,29,0.020,0.020,0.020,0.000,0.000,0.000
1644895947124943104,2022-02-15-03:32:27,10.1.1.3,38,0.030,0.030,0.030,0.000,0.000,0.000
1644895947163940864,2022-02-15-03:32:27,10.1.1.3,26,0.040,0.040,0.040,0.000,0.000,0.000
1644895947222800896,2022-02-15-03:32:27,10.1.1.3,35,0.050,0.050,0.050,0.000,0.000,0.000
1644895947264036864,2022-02-15-03:32:27,10.1.1.3,24,0.060,0.060,0.060,0.000,0.000,0.000
1644895947323046912,2022-02-15-03:32:27,10.1.1.3,33,0.070,0.070,0.070,0.000,0.000,0.000
1644895947363096064,2022-02-15-03:32:27,10.1.1.3,22,0.080,0.080,0.080,0.000,0.000,0.000
1644895947488936960,2022-02-15-03:32:27,10.1.1.3,39,0.100,0.100,0.100,0.000,0.000,0.000
1644895947522547968,2022-02-15-03:32:27,10.1.1.3,28,0.090,0.090,0.090,0.000,0.000,0.000
1644895947582871040,2022-02-15-03:32:27,10.1.1.3,37,0.080,0.080,0.080,0.000,0.000,0.000
1644895947622701824,2022-02-15-03:32:27,10.1.1.3,27,0.070,0.070,0.070,0.000,0.000,0.000
1644895947682970880,2022-02-15-03:32:27,10.1.1.3,35,0.060,0.060,0.060,0.000,0.000,0.000
1644895947722562048,2022-02-15-03:32:27,10.1.1.3,24,0.050,0.050,0.050,0.000,0.000,0.000
1644895947782872064,2022-02-15-03:32:27,10.1.1.3,33,0.040,0.040,0.040,0.000,0.000,0.000
1644895947822422016,2022-02-15-03:32:27,10.1.1.3,21,0.030,0.030,0.030,0.000,0.000,0.000
1644895947982530048,2022-02-15-03:32:27,10.1.1.3,28,0.000,0.000,0.000,0.000,0.000,0.000
1644895948042674176,2022-02-15-03:32:28,10.1.1.3,36,-0.010,-0.010,-0.010,0.000,0.000,0.000
1644895948085878016,2022-02-15-03:32:28,10.1.1.3,25,-0.020,-0.020,-0.020,0.000,0.000,0.000
1644895948143281920,2022-02-15-03:32:28,10.1.1.3,34,-0.030,-0.030,-0.030,0.000,0.000,0.000
1644895948302308096,2022-02-15-03:32:28,10.1.1.3,39,-0.060,-0.060,-0.060,0.000,0.000,0.000
1644895948343168000,2022-02-15-03:32:28,10.1.1.3,29,-0.070,-0.070,-0.070,0.000,0.000,0.000
1644895948402816000,2022-02-15-03:32:28,10.1.1.3,38,-0.080,-0.080,-0.080,0.000,0.000,0.000
1644895948444340992,2022-02-15-03:32:28,10.1.1.3,26,-0.090,-0.090,-0.090,0.000,0.000,0.000
1644895948503374080,2022-02-15-03:32:28,10.1.1.3,35,-0.100,-0.100,-0.100,0.000,0.000,0.000
1644895948543302144,2022-02-15-03:32:28,10.1.1.3,24,-0.090,-0.090,-0.090,0.000,0.000,0.000
1644895948602814976,2022-02-15-03:32:28,10.1.1.3,32,-0.080,-0.080,-0.080,0.000,0.000,0.000
1644895948644387072,2022-02-15-03:32:28,10.1.1.3,23,-0.070,-0.070,-0.070,0.000,0.000,0.000
1644895948702196992,2022-02-15-03:32:28,10.1.1.3,24,-0.060,-0.060,-0.060,0.000,0.000,0.000
1644895948762300928,2022-02-15-03:32:28,10.1.1.3,33,-0.050,-0.050,-0.050,0.000,0.000,0.000
1644895948802611200,2022-02-15-03:32:28,10.1.1.3,22,-0.040,-0.040,-0.040,0.000,0.000,0.000
1644895948862588928,2022-02-15-03:32:28,10.1.1.3,32,-0.030,-0.030,-0.030,0.000,0.000,0.000
1644895949022418944,2022-02-15-03:32:29,10.1.1.3,39,0.000,0.000,0.000,0.000,0.000,0.000
1644895949062799104,2022-02-15-03:32:29,10.1.1.3,28,0.010,0.010,0.010,0.000,0.000,0.000
1644895949122435072,2022-02-15-03:32:29,10.1.1.3,38,0.020,0.020,0.020,0.000,0.000,0.000
1644895949163021056,2022-02-15-03:32:29,10.1.1.3,26,0.030,0.030,0.030,0.000,0.000,0.000
1644895949222614016,2022-02-15-03:32:29,10.1.1.3,36,0.040,0.040,0.040,0.000,0.000,0.000
1644895949263355136,2022-02-15-03:32:29,10.1.1.3,25,0.050,0.050,0.050,0.000,0.000,0.000
1644895949325728000,2022-02-15-03:32:29,10.1.1.3,34,0.060,0.060,0.060,0.000,0.000,0.000
1644895949362457088,2022-02-15-03:32:29,10.1.1.3,23,0.070,0.070,0.070,0.000,0.000,0.000
1644895949423005952,2022-02-15-03:32:29,10.1.1.3,33,0.080,0.080,0.080,0.000,0.000,0.000
1644895949462755840,2022-02-15-03:32:29,10.1.1.3,22,0.090,0.090,0.090,0.000,0.000,0.000
1644895949530409984,2022-02-15-03:32:29,10.1.1.3,31,0.100,0.100,0.100,0.000,0.000,0.000
1644895949623051776,2022-02-15-03:32:29,10.1.1.3,27,0.080,0.080,0.080,0.000,0.000,0.000
1644895949686373120,2022-02-15-03:32:29,10.1.1.3,37,0.070,0.070,0.070,0.000,0.000,0.000
1644895949723313152,2022-02-15-03:32:29,10.1.1.3,26,0.060,0.060,0.060,0.000,0.000,0.000
1644895949782934784,2022-02-15-03:32:29,10.1.1.3,26,0.050,0.050,0.050,0.000,0.000,0.000
1644895949844261888,2022-02-15-03:32:29,10.1.1.3,35,0.040,0.040,0.040,0.000,0.000,0.000
1644895949882518016,2022-02-15-03:32:29,10.1.1.3,24,0.030,0.030,0.030,0.000,0.000,0.000
1644895949942732032,2022-02-15-03:32:29,10.1.1.3,32,0.020,0.020,0.020,0.000,0.000,0.000
1644895949982424064,2022-02-15-03:32:29,10.1.1.3,21,0.010,0.010,0.010,0.000,0.000,0.000
1644895950042210048,2022-02-15-03:32:30,10.1.1.3,31,0.000,0.000,0.000,0.000,0.000,0.000
1644895950242481920,2022-02-15-03:32:30,10.1.1.3,28,-0.040,-0.040,-0.040,0.000,0.000,0.000
1644895950302508032,2022-02-15-03:32:30,10.1.1.3,37,-0.050,-0.050,-0.050,0.000,0.000,0.000
1644895950342703104,2022-02-15-03:32:30,10.1.1.3,27,-0.060,-0.060,-0.060,0.000,0.000,0.000
1644895950402750976,2022-02-15-03:32:30,10.1.1.3,36,-0.070,-0.070,-0.070,0.000,0.000,0.000
1644895950449191936,2022-02-15-03:32:30,10.1.1.3,25,-0.080,-0.080,-0.080,0.000,0.000,0.000
1644895950502747136,2022-02-15-03:32:30,10.1.1.3,34,-0.090,-0.090,-0.090,0.000,0.000,0.000
1644895950542592000,2022-02-15-03:32:30,10.1.1.3,23,-0.100,-0.100,-0.100,0.000,0.000,0.000
1644895950602582016,2022-02-15-03:32:30,10.1.1.3,32,-0.090,-0.090,-0.090,0.000,0.000,0.000
1644895950642299904,2022-02-15-03:32:30,10.1.1.3,21,-0.080,-0.080,-0.080,0.000,0.000,0.000
1644895950702330112,2022-02-15-03:32:30,10.1.1.3,29,-0.070,-0.070,-0.070,0.000,0.000,0.000
1644895950762630912,2022-02-15-03:32:30,10.1.1.3,39,-0.060,-0.060,-0.060,0.000,0.000,0.000
1644895950805246976,2022-02-15-03:32:30,10.1.1.3,27,-0.050,-0.050,-0.050,0.000,0.000,0.000
1644895950862288896,2022-02-15-03:32:30,10.1.1.3,36,-0.040,-0.040,-0.040,0.000,0.000,0.000
1644895950902547968,2022-02-15-03:32:30,10.1.1.3,26,-0.030,-0.030,-0.030,0.000,0.000,0.000
1644895950962937088,2022-02-15-03:32:30,10.1.1.3,35,-0.020,-0.020,-0.020,0.000,0.000,0.000
1644895951002641920,2022-02-15-03:32:31,10.1.1.3,25,-0.010,-0.010,-0.010,0.000,0.000,0.000
1644895951065542912,2022-02-15-03:32:31,10.1.1.3,34,0.000,0.000,0.000,0.000,0.000,0.000
1644895951122137088,2022-02-15-03:32:31,10.1.1.3,37,0.010,0.010,0.010,0.000,0.000,0.000
1644895951163104000,2022-02-15-03:32:31,10.1.1.3,26,0.020,0.020,0.020,0.000,0.000,0.000
1644895951222633984,2022-02-15-03:32:31,10.1.1.3,36,0.030,0.030,0.030,0.000,0.000,0.000
1644895951264056832,2022-02-15-03:32:31,10.1.1.3,25,0.040,0.040,0.040,0.000,0.000,0.000
1644895951322524928,2022-02-15-03:32:31,10.1.1.3,34,0.050,0.050,0.050,0.000,0.000,0.000
1644895951362461184,2022-02-15-03:32:31,10.1.1.3,23,0.060,0.060,0.060,0.000,0.000,0.000
1644895951422390016,2022-02-15-03:32:31,10.1.1.3,32,0.070,0.070,0.070,0.000,0.000,0.000
1644895951482017024,2022-02-15-03:32:31,10.1.1.3,39,0.080,0.080,0.080,0.000,0.000,0.000
1644895951521958144,2022-02-15-03:32:31,10.1.1.3,28,0.090,0.090,0.090,0.000,0.000,0.000
1644895951582437888,2022-02-15-03:32:31,10.1.1.3,37,0.100,0.100,0.100,0.000,0.000,0.000
1644895951622791936,2022-02-15-03:32:31,10.1.1.3,26,0.090,0.090,0.090,0.000,0.000,0.000
1644895951682260992,2022-02-15-03:32:31,10.1.1.3,35,0.080,0.080,0.080,0.000,0.000,0.000
1644895951722421760,2022-02-15-03:32:31,10.1.1.3,25,0.070,0.070,0.070,0.000,0.000,0.000
1644895951782198016,2022-02-15-03:32:31,10.1.1.3,34,0.060,0.060,0.060,0.000,0.000,0.000
1644895951822153984,2022-02-15-03:32:31,10.1.1.3,23,0.050,0.050,0.050,0.000,0.000,0.000
1644895951983475968,2022-02-15-03:32:31,10.1.1.3,27,0.020,0.020,0.020,0.000,0.000,0.000
1644895952042224896,2022-02-15-03:32:32,10.1.1.3,36,0.010,0.010,0.010,0.000,0.000,0.000
1644895952082166784,2022-02-15-03:32:32,10.1.1.3,25,0.000,0.000,0.000,0.000,0.000,0.000
1644895952142231040,2022-02-15-03:32:32,10.1.1.3,34,-0.010,-0.010,-0.010,0.000,0.000,0.000
1644895952182118912,2022-02-15-03:32:32,10.1.1.3,24,-0.020,-0.020,-0.020,0.000,0.000,0.000
1644895952241990144,2022-02-15-03:32:32,10.1.1.3,33,-0.030,-0.030,-0.030,0.000,0.000,0.000
1644895952282159104,2022-02-15-03:32:32,10.1.1.3,22,-0.040,-0.040,-0.040,0.000,0.000,0.000
1644895952342225920,2022-02-15-03:32:32,10.1.1.3,32,-0.050,-0.050,-0.050,0.000,0.000,0.000
1644895952382633984,2022-02-15-03:32:32,10.1.1.3,22,-0.060,-0.060,-0.060,0.000,0.000,0.000
1644895952442102784,2022-02-15-03:32:32,10.1.1.3,31,-0.070,-0.070,-0.070,0.000,0.000,0.000
1644895952482296064,2022-02-15-03:32:32,10.1.1.3,21,-0.080,-0.080,-0.080,0.000,0.000,0.000
1644895952642652928,2022-02-15-03:32:32,10.1.1.3,28,-0.090,-0.090,-0.090,0.000,0.000,0.000
1644895952702812928,2022-02-15-03:32:32,10.1.1.3,37,-0.080,-0.080,-0.080,0.000,0.000,0.000
1644895952742518784,2022-02-15-03:32:32,10.1.1.3,24,-0.070,-0.070,-0.070,0.000,0.000,0.000
1644895952803023104,2022-02-15-03:32:32,10.1.1.3,33,-0.060,-0.060,-0.060,0.000,0.000,0.000
1644895952963105024,2022-02-15-03:32:32,10.1.1.3,39,-0.030,-0.030,-0.030,0.000,0.000,0.000
1644895953003582976,2022-02-15-03:32:33,10.1.1.3,28,-0.020,-0.020,-0.020,0.000,0.000,0.000
1644895953063888128,2022-02-15-03:32:33,10.1.1.3,35,-0.010,-0.010,-0.010,0.000,0.000,0.000
1644895953102753024,2022-02-15-03:32:33,10.1.1.3,23,0.000,0.000,0.000,0.000,0.000,0.000
1644895953163244032,2022-02-15-03:32:33,10.1.1.3,32,0.010,0.010,0.010,0.000,0.000,0.000
1644895953202158848,2022-02-15-03:32:33,10.1.1.3,22,0.020,0.020,0.020,0.000,0.000,0.000
1644895953423825920,2022-02-15-03:32:33,10.1.1.3,39,0.060,0.060,0.060,0.000,0.000,0.000
1644895953463098112,2022-02-15-03:32:33,10.1.1.3,27,0.070,0.070,0.070,0.000,0.000,0.000
1644895953524130048,2022-02-15-03:32:33,10.1.1.3,36,0.080,0.080,0.080,0.000,0.000,0.000
1644895953563981056,2022-02-15-03:32:33,10.1.1.3,25,0.090,0.090,0.090,0.000,0.000,0.000
1644895953623265024,2022-02-15-03:32:33,10.1.1.3,34,0.100,0.100,0.100,0.000,0.000,0.000
1644895953663058944,2022-02-15-03:32:33,10.1.1.3,23,0.090,0.090,0.090,0.000,0.000,0.000
1644895953924186880,2022-02-15-03:32:33,10.1.1.3,29,0.040,0.040,0.040,0.000,0.000,0.000
1644895953983409920,2022-02-15-03:32:33,10.1.1.3,38,0.030,0.030,0.030,0.000,0.000,0.000
1644895954022509056,2022-02-15-03:32:34,10.1.1.3,27,0.020,0.020,0.020,0.000,0.000,0.000
1644895954086123008,2022-02-15-03:32:34,10.1.1.3,36,0.010,0.010,0.010,0.000,0.000,0.000
1644895954123269120,2022-02-15-03:32:34,10.1.1.3,26,0.000,0.000,0.000,0.000,0.000,0.000
1644895954182909952,2022-02-15-03:32:34,10.1.1.3,35,-0.010,-0.010,-0.010,0.000,0.000,0.000
1644895954222385920,2022-02-15-03:32:34,10.1.1.3,24,-0.020,-0.020,-0.020,0.000,0.000,0.000
1644895954322099968,2022-02-15-03:32:34,10.1.1.3,22,-0.040,-0.040,-0.040,0.000,0.000,0.000
1644895954382603776,2022-02-15-03:32:34,10.1.1.3,32,-0.050,-0.050,-0.050,0.000,0.000,0.000
1644895954642475008,2022-02-15-03:32:34,10.1.1.3,29,-0.100,-0.100,-0.100,0.000,0.000,0.000
1644895954702388992,2022-02-15-03:32:34,10.1.1.3,38,-0.090,-0.090,-0.090,0.000,0.000,0.000
1644895954742616064,2022-02-15-03:32:34,10.1.1.3,28,-0.080,-0.080,-0.080,0.000,0.000,0.000
1644895954804964096,2022-02-15-03:32:34,10.1.1.3,37,-0.070,-0.070,-0.070,0.000,0.000,0.000
1644895954842760192,2022-02-15-03:32:34,10.1.1.3,26,-0.060,-0.060,-0.060,0.000,0.000,0.000
1644895954902589952,2022-02-15-03:32:34,10.1.1.3,35,-0.050,-0.050,-0.050,0.000,0.000,0.000
1644895954942769152,2022-02-15-03:32:34,10.1.1.3,24,-0.040,-0.040,-0.040,0.000,0.000,0.000
1644895955002540032,2022-02-15-03:32:35,10.1.1.3,33,-0.030,-0.030,-0.030,0.000,0.000,0.000
1644895955042650880,2022-02-15-03:32:35,10.1.1.3,23,-0.020,-0.020,-0.020,0.000,0.000,0.000
1644895955107103232,2022-02-15-03:32:35,10.1.1.3,32,-0.010,-0.010,-0.010,0.000,0.000,0.000
1644895955142993920,2022-02-15-03:32:35,10.1.1.3,21,0.000,0.000,0.000,0.000,0.000,0.000
1644895955362437888,2022-02-15-03:32:35,10.1.1.3,39,0.040,0.040,0.040,0.000,0.000,0.000
1644895955402625024,2022-02-15-03:32:35,10.1.1.3,28,0.050,0.050,0.050,0.000,0.000,0.000
1644895955462696960,2022-02-15-03:32:35,10.1.1.3,38,0.060,0.060,0.060,0.000,0.000,0.000
1644895955502720000,2022-02-15-03:32:35,10.1.1.3,27,0.070,0.070,0.070,0.000,0.000,0.000
1644895955562434816,2022-02-15-03:32:35,10.1.1.3,37,0.080,0.080,0.080,0.000,0.000,0.000
1644895955602078976,2022-02-15-03:32:35,10.1.1.3,26,0.090,0.090,0.090,0.000,0.000,0.000
1644895955662617856,2022-02-15-03:32:35,10.1.1.3,36,0.100,0.100,0.100,0.000,0.000,0.000
1644895955702647040,2022-02-15-03:32:35,10.1.1.3,25,0.090,0.090,0.090,0.000,0.000,0.000
1644895955762590976,2022-02-15-03:32:35,10.1.1.3,35,0.080,0.080,0.080,0.000,0.000,0.000
1644895955802427904,2022-02-15-03:32:35,10.1.1.3,24,0.070,0.070,0.070,0.000,0.000,0.000
1644895955862351872,2022-02-15-03:32:35,10.1.1.3,33,0.060,0.060,0.060,0.000,0.000,0.000
1644895955902363136,2022-02-15-03:32:35,10.1.1.3,23,0.050,0.050,0.050,0.000,0.000,0.000
1644895955962565888,2022-02-15-03:32:35,10.1.1.3,32,0.040,0.040,0.040,0.000,0.000,0.000
1644895956002413056,2022-02-15-03:32:36,10.1.1.3,22,0.030,0.030,0.030,0.000,0.000,0.000
1644895956062619904,2022-02-15-03:32:36,10.1.1.3,31,0.020,0.020,0.020,0.000,0.000,0.000
1644895956222650112,2022-02-15-03:32:36,10.1.1.3,39,-0.010,-0.010,-0.010,0.000,0.000,0.000
1644895956263089920,2022-02-15-03:32:36,10.1.1.3,29,-0.020,-0.020,-0.020,0.000,0.000,0.000
1644895956322841856,2022-02-15-03:32:36,10.1.1.3,38,-0.030,-0.030,-0.030,0.000,0.000,0.000
1644895956362451968,2022-02-15-03:32:36,10.1.1.3,26,-0.040,-0.040,-0.040,0.000,0.000,0.000
1644895956422405888,2022-02-15-03:32:36,10.1.1.3,35,-0.050,-0.050,-0.050,0.000,0.000,0.000
1644895956462409984,2022-02-15-03:32:36,10.1.1.3,25,-0.060,-0.060,-0.060,0.000,0.000,0.000
1644895956522448128,2022-02-15-03:32:36,10.1.1.3,34,-0.070,-0.070,-0.070,0.000,0.000,0.000
1644895956562691840,2022-02-15-03:32:36,10.1.1.3,23,-0.080,-0.080,-0.080,0.000,0.000,0.000
1644895956622458880,2022-02-15-03:32:36,10.1.1.3,33,-0.090,-0.090,-0.090,0.000,0.000,0.000
1644895956662955008,2022-02-15-03:32:36,10.1.1.3,22,-0.100,-0.100,-0.100,0.000,0.000,0.000
1644895956722322944,2022-02-15-03:32:36,10.1.1.3,32,-0.090,-0.090,-0.090,0.000,0.000,0.000
1644895956763001088,2022-02-15-03:32:36,10.1.1.3,21,-0.080,-0.080,-0.080,0.000,0.000,0.000
1644895956982523904,2022-02-15-03:32:36,10.1.1.3,39,-0.040,-0.040,-0.040,0.000,0.000,0.000
1644895957022275840,2022-02-15-03:32:37,10.1.1.3,29,-0.030,-0.030,-0.030,0.000,0.000,0.000
1644895957082642176,2022-02-15-03:32:37,10.1.1.3,38,-0.020,-0.020,-0.020,0.000,0.000,0.000
1644895957122716928,2022-02-15-03:32:37,10.1.1.3,27,-0.010,-0.010,-0.010,0.000,0.000,0.000
1644895957182321152,2022-02-15-03:32:37,10.1.1.3,36,0.000,0.000,0.000,0.000,0.000,0.000
1644895957222605056,2022-02-15-03:32:37,10.1.1.3,25,0.010,0.010,0.010,0.000,0.000,0.000
1644895957282445824,2022-02-15-03:32:37,10.1.1.3,35,0.020,0.020,0.020,0.000,0.000,0.000
1644895957322628864,2022-02-15-03:32:37,10.1.1.3,24,0.030,0.030,0.030,0.000,0.000,0.000
1644895957383209984,2022-02-15-03:32:37,10.1.1.3,33,0.040,0.040,0.040,0.000,0.000,0.000
1644895957422403072,2022-02-15-03:32:37,10.1.1.3,23,0.050,0.050,0.050,0.000,0.000,0.000
1644895957482696960,2022-02-15-03:32:37,10.1.1.3,32,0.060,0.060,0.060,0.000,0.000,0.000
1644895957522864128,2022-02-15-03:32:37,10.1.1.3,22,0.070,0.070,0.070,0.000,0.000,0.000
1644895957685272832,2022-02-15-03:32:37,10.1.1.3,29,0.100,0.100,0.100,0.000,0.000,0.000
1644895957743261952,2022-02-15-03:32:37,10.1.1.3,37,0.090,0.090,0.090,0.000,0.000,0.000
1644895957783469056,2022-02-15-03:32:37,10.1.1.3,23,0.080,0.080,0.080,0.000,0.000,0.000
1644895957843003136,2022-02-15-03:32:37,10.1.1.3,33,0.070,0.070,0.070,0.000,0.000,0.000
1644895957883016192,2022-02-15-03:32:37,10.1.1.3,21,0.060,0.060,0.060,0.000,0.000,0.000
1644895958043241984,2022-02-15-03:32:38,10.1.1.3,29,0.030,0.030,0.030,0.000,0.000,0.000
1644895958103899904,2022-02-15-03:32:38,10.1.1.3,37,0.020,0.020,0.020,0.000,0.000,0.000
1644895958143412992,2022-02-15-03:32:38,10.1.1.3,26,0.010,0.010,0.010,0.000,0.000,0.000
1644895958203516928,2022-02-15-03:32:38,10.1.1.3,35,0.000,0.000,0.000,0.000,0.000,0.000
1644895958243591168,2022-02-15-03:32:38,10.1.1.3,24,-0.010,-0.010,-0.010,0.000,0.000,0.000
1644895958302964992,2022-02-15-03:32:38,10.1.1.3,34,-0.020,-0.020,-0.020,0.000,0.000,0.000
1644895958343451136,2022-02-15-03:32:38,10.1.1.3,22,-0.030,-0.030,-0.030,0.000,0.000,0.000
1644895958402777856,2022-02-15-03:32:38,10.1.1.3,32,-0.040,-0.040,-0.040,0.000,0.000,0.000
1644895958563291136,2022-02-15-03:32:38,10.1.1.3,39,-0.070,-0.070,-0.070,0.000,0.000,0.000
1644895958602832128,2022-02-15-03:32:38,10.1.1.3,28,-0.080,-0.080,-0.080,0.000,0.000,0.000
1644895958670471936,2022-02-15-03:32:38,10.1.1.3,42,-0.090,-0.090,-0.090,0.000,0.000,0.000
1644895958702803968,2022-02-15-03:32:38,10.1.1.3,26,-0.100,-0.100,-0.100,0.000,0.000,0.000
1644895958764195840,2022-02-15-03:32:38,10.1.1.3,34,-0.090,-0.090,-0.090,0.000,0.000,0.000
1644895958803184896,2022-02-15-03:32:38,10.1.1.3,23,-0.080,-0.080,-0.080,0.000,0.000,0.000
1644895958863223040,2022-02-15-03:32:38,10.1.1.3,32,-0.070,-0.070,-0.070,0.000,0.000,0.000
1644895958902728960,2022-02-15-03:32:38,10.1.1.3,21,-0.060,-0.060,-0.060,0.000,0.000,0.000
1644895959022579968,2022-02-15-03:32:39,10.1.1.3,39,-0.040,-0.040,-0.040,0.000,0.000,0.000
1644895959062948096,2022-02-15-03:32:39,10.1.1.3,27,-0.030,-0.030,-0.030,0.000,0.000,0.000
1644895959123323904,2022-02-15-03:32:39,10.1.1.3,36,-0.020,-0.020,-0.020,0.000,0.000,0.000
1644895959162846208,2022-02-15-03:32:39,10.1.1.3,25,-0.010,-0.010,-0.010,0.000,0.000,0.000
1644895959222438144,2022-02-15-03:32:39,10.1.1.3,34,0.000,0.000,0.000,0.000,0.000,0.000
1644895959262482944,2022-02-15-03:32:39,10.1.1.3,23,0.010,0.010,0.010,0.000,0.000,0.000
1644895959327496960,2022-02-15-03:32:39,10.1.1.3,32,0.020,0.020,0.020,0.000,0.000,0.000
1644895959363341056,2022-02-15-03:32:39,10.1.1.3,21,0.030,0.030,0.030,0.000,0.000,0.000
1644895959583304960,2022-02-15-03:32:39,10.1.1.3,39,0.070,0.070,0.070,0.000,0.000,0.000
1644895959623596800,2022-02-15-03:32:39,10.1.1.3,28,0.080,0.080,0.080,0.000,0.000,0.000
1644895959683203840,2022-02-15-03:32:39,10.1.1.3,37,0.090,0.090,0.090,0.000,0.000,0.000
1644895959722811904,2022-02-15-03:32:39,10.1.1.3,26,0.100,0.100,0.100,0.000,0.000,0.000
1644895959783309824,2022-02-15-03:32:39,10.1.1.3,35,0.090,0.090,0.090,0.000,0.000,0.000
1644895959822906880,2022-02-15-03:32:39,10.1.1.3,24,0.080,0.080,0.080,0.000,0.000,0.000
1644895959882970112,2022-02-15-03:32:39,10.1.1.3,32,0.070,0.070,0.070,0.000,0.000,0.000
1644895959942580992,2022-02-15-03:32:39,10.1.1.3,38,0.060,0.060,0.060,0.000,0.000,0.000
1644895959983107072,2022-02-15-03:32:39,10.1.1.3,26,0.050,0.050,0.050,0.000,0.000,0.000
1644895960042742016,2022-02-15-03:32:40,10.1.1.3,34,0.040,0.040,0.040,0.000,0.000,0.000
1644895960082669056,2022-02-15-03:32:40,10.1.1.3,23,0.030,0.030,0.030,0.000,0.000,0.000
1644895960243159040,2022-02-15-03:32:40,10.1.1.3,27,0.000,0.000,0.000,0.000,0.000,0.000
1644895960302984960,2022-02-15-03:32:40,10.1.1.3,35,-0.010,-0.010,-0.010,0.000,0.000,0.000
1644895960343259136,2022-02-15-03:32:40,10.1.1.3,24,-0.020,-0.020,-0.020,0.000,0.000,0.000
1644895960404004096,2022-02-15-03:32:40,10.1.1.3,32,-0.030,-0.030,-0.030,0.000,0.000,0.000
1644895960503710976,2022-02-15-03:32:40,10.1.1.3,29,-0.050,-0.050,-0.050,0.000,0.000,0.000
1644895960563458816,2022-02-15-03:32:40,10.1.1.3,38,-0.060,-0.060,-0.060,0.000,0.000,0.000
1644895960602849024,2022-02-15-03:32:40,10.1.1.3,27,-0.070,-0.070,-0.070,0.000,0.000,0.000
1644895960663260928,2022-02-15-03:32:40,10.1.1.3,36,-0.080,-0.080,-0.080,0.000,0.000,0.000
1644895960702928128,2022-02-15-03:32:40,10.1.1.3,24,-0.090,-0.090,-0.090,0.000,0.000,0.000
1644895960762983936,2022-02-15-03:32:40,10.1.1.3,33,-0.100,-0.100,-0.100,0.000,0.000,0.000
1644895960923015168,2022-02-15-03:32:40,10.1.1.3,38,-0.070,-0.070,-0.070,0.000,0.000,0.000
1644895960963247104,2022-02-15-03:32:40,10.1.1.3,26,-0.060,-0.060,-0.060,0.000,0.000,0.000
1644895961022648064,2022-02-15-03:32:41,10.1.1.3,35,-0.050,-0.050,-0.050,0.000,0.000,0.000
1644895961063175936,2022-02-15-03:32:41,10.1.1.3,22,-0.040,-0.040,-0.040,0.000,0.000,0.000
1644895961223138048,2022-02-15-03:32:41,10.1.1.3,29,-0.010,-0.010,-0.010,0.000,0.000,0.000
1644895961284089088,2022-02-15-03:32:41,10.1.1.3,37,0.000,0.000,0.000,0.000,0.000,0.000
1644895961322814976,2022-02-15-03:32:41,10.1.1.3,25,0.010,0.010,0.010,0.000,0.000,0.000
1644895961383332864,2022-02-15-03:32:41,10.1.1.3,33,0.020,0.020,0.020,0.000,0.000,0.000
1644895961422713088,2022-02-15-03:32:41,10.1.1.3,21,0.030,0.030,0.030,0.000,0.000,0.000
1644895961524446976,2022-02-15-03:32:41,10.1.1.3,20,0.050,0.050,0.050,0.000,0.000,0.000
1644895961584374784,2022-02-15-03:32:41,10.1.1.3,27,0.060,0.060,0.060,0.000,0.000,0.000
1644895961644045056,2022-02-15-03:32:41,10.1.1.3,35,0.070,0.070,0.070,0.000,0.000,0.000
1644895961683491072,2022-02-15-03:32:41,10.1.1.3,23,0.080,0.080,0.080,0.000,0.000,0.000
1644895961743760128,2022-02-15-03:32:41,10.1.1.3,33,0.090,0.090,0.090,0.000,0.000,0.000
1644895961783296000,2022-02-15-03:32:41,10.1.1.3,22,0.100,0.100,0.100,0.000,0.000,0.000
1644895961843120128,2022-02-15-03:32:41,10.1.1.3,31,0.090,0.090,0.090,0.000,0.000,0.000
1644895962002988032,2022-02-15-03:32:42,10.1.1.3,39,0.060,0.060,0.060,0.000,0.000,0.000
1644895962042895104,2022-02-15-03:32:42,10.1.1.3,26,0.050,0.050,0.050,0.000,0.000,0.000
1644895962102971904,2022-02-15-03:32:42,10.1.1.3,35,0.040,0.040,0.040,0.000,0.000,0.000
1644895962144375040,2022-02-15-03:32:42,10.1.1.3,24,0.030,0.030,0.030,0.000,0.000,0.000
1644895962203425024,2022-02-15-03:32:42,10.1.1.3,33,0.020,0.020,0.020,0.000,0.000,0.000
1644895962242872064,2022-02-15-03:32:42,10.1.1.3,22,0.010,0.010,0.010,0.000,0.000,0.000
1644895962303136000,2022-02-15-03:32:42,10.1.1.3,32,0.000,0.000,0.000,0.000,0.000,0.000
1644895962403831040,2022-02-15-03:32:42,10.1.1.3,29,-0.020,-0.020,-0.020,0.000,0.000,0.000
1644895962463567872,2022-02-15-03:32:42,10.1.1.3,35,-0.030,-0.030,-0.030,0.000,0.000,0.000
1644895962503515904,2022-02-15-03:32:42,10.1.1.3,24,-0.040,-0.040,-0.040,0.000,0.000,0.000
1644895962563425024,2022-02-15-03:32:42,10.1.1.3,32,-0.050,-0.050,-0.050,0.000,0.000,0.000
1644895962604059904,2022-02-15-03:32:42,10.1.1.3,22,-0.060,-0.060,-0.060,0.000,0.000,0.000
1644895962723197952,2022-02-15-03:32:42,10.1.1.3,39,-0.080,-0.080,-0.080,0.000,0.000,0.000
1644895962763161856,2022-02-15-03:32:42,10.1.1.3,28,-0.090,-0.090,-0.090,0.000,0.000,0.000
1644895962822767104,2022-02-15-03:32:42,10.1.1.3,37,-0.100,-0.100,-0.100,0.000,0.000,0.000
1644895962862668032,2022-02-15-03:32:42,10.1.1.3,25,-0.090,-0.090,-0.090,0.000,0.000,0.000
1644895962923630080,2022-02-15-03:32:42,10.1.1.3,34,-0.080,-0.080,-0.080,0.000,0.000,0.000
1644895962963188992,2022-02-15-03:32:42,10.1.1.3,23,-0.070,-0.070,-0.070,0.000,0.000,0.000
1644895963023200000,2022-02-15-03:32:43,10.1.1.3,31,-0.060,-0.060,-0.060,0.000,0.000,0.000
1644895963083354880,2022-02-15-03:32:43,10.1.1.3,39,-0.050,-0.050,-0.050,0.000,0.000,0.000
1644895963123457792,2022-02-15-03:32:43,10.1.1.3,27,-0.040,-0.040,-0.040,0.000,0.000,0.000
1644895963183024896,2022-02-15-03:32:43,10.1.1.3,36,-0.030,-0.030,-0.030,0.000,0.000,0.000
1644895963223171072,2022-02-15-03:32:43,10.1.1.3,23,-0.020,-0.020,-0.020,0.000,0.000,0.000
1644895963282139136,2022-02-15-03:32:43,10.1.1.3,31,-0.010,-0.010,-0.010,0.000,0.000,0.000
1644895963383641088,2022-02-15-03:32:43,10.1.1.3,29,0.010,0.010,0.010,0.000,0.000,0.000
1644895963443140096,2022-02-15-03:32:43,10.1.1.3,37,0.020,0.020,0.020,0.000,0.000,0.000
1644895963483077120,2022-02-15-03:32:43,10.1.1.3,25,0.030,0.030,0.030,0.000,0.000,0.000
1644895963542728960,2022-02-15-03:32:43,10.1.1.3,31,0.040,0.040,0.040,0.000,0.000,0.000
1644895963643275008,2022-02-15-03:32:43,10.1.1.3,29,0.060,0.060,0.060,0.000,0.000,0.000
1644895963702783232,2022-02-15-03:32:43,10.1.1.3,33,0.070,0.070,0.070,0.000,0.000,0.000
1644895963803201024,2022-02-15-03:32:43,10.1.1.3,29,0.090,0.090,0.090,0.000,0.000,0.000
1644895963863447808,2022-02-15-03:32:43,10.1.1.3,37,0.100,0.100,0.100,0.000,0.000,0.000
1644895963902849024,2022-02-15-03:32:43,10.1.1.3,26,0.090,0.090,0.090,0.000,0.000,0.000
1644895963963105024,2022-02-15-03:32:43,10.1.1.3,35,0.080,0.080,0.080,0.000,0.000,0.000
1644895964003113984,2022-02-15-03:32:44,10.1.1.3,22,0.070,0.070,0.070,0.000,0.000,0.000
1644895964063065088,2022-02-15-03:32:44,10.1.1.3,29,0.060,0.060,0.060,0.000,0.000,0.000
1644895964123044864,2022-02-15-03:32:44,10.1.1.3,38,0.050,0.050,0.050,0.000,0.000,0.000
1644895964162905856,2022-02-15-03:32:44,10.1.1.3,27,0.040,0.040,0.040,0.000,0.000,0.000
1644895964222727168,2022-02-15-03:32:44,10.1.1.3,36,0.030,0.030,0.030,0.000,0.000,0.000
1644895964262785024,2022-02-15-03:32:44,10.1.1.3,25,0.020,0.020,0.020,0.000,0.000,0.000
1644895964323659776,2022-02-15-03:32:44,10.1.1.3,34,0.010,0.010,0.010,0.000,0.000,0.000
1644895964363662848,2022-02-15-03:32:44,10.1.1.3,23,0.000,0.000,0.000,0.000,0.000,0.000
1644895964422717184,2022-02-15-03:32:44,10.1.1.3,32,-0.010,-0.010,-0.010,0.000,0.000,0.000
1644895964462932224,2022-02-15-03:32:44,10.1.1.3,22,-0.020,-0.020,-0.020,0.000,0.000,0.000
1644895964583102976,2022-02-15-03:32:44,10.1.1.3,39,-0.040,-0.040,-0.040,0.000,0.000,0.000
1644895964623213056,2022-02-15-03:32:44,10.1.1.3,28,-0.050,-0.050,-0.050,0.000,0.000,0.000
1644895964683275008,2022-02-15-03:32:44,10.1.1.3,37,-0.060,-0.060,-0.060,0.000,0.000,0.000
1644895964723846912,2022-02-15-03:32:44,10.1.1.3,26,-0.070,-0.070,-0.070,0.000,0.000,0.000
1644895964783054080,2022-02-15-03:32:44,10.1.1.3,35,-0.080,-0.080,-0.080,0.000,0.000,0.000
1644895964822937856,2022-02-15-03:32:44,10.1.1.3,23,-0.090,-0.090,-0.090,0.000,0.000,0.000
1644895964903342080,2022-02-15-03:32:44,10.1.1.3,-2,-0.090,-0.090,-0.090,0.000,0.000,0.000
1644895964982755840,2022-02-15-03:32:44,10.1.1.3,28,-0.080,-0.080,-0.080,0.000,0.000,0.000
1644895965042360064,2022-02-15-03:32:45,10.1.1.3,37,-0.070,-0.070,-0.070,0.000,0.000,0.000
1644895965082851840,2022-02-15-03:32:45,10.1.1.3,26,-0.060,-0.060,-0.060,0.000,0.000,0.000
1644895965143325952,2022-02-15-03:32:45,10.1.1.3,35,-0.050,-0.050,-0.050,0.000,0.000,0.000
1644895965183758080,2022-02-15-03:32:45,10.1.1.3,24,-0.040,-0.040,-0.040,0.000,0.000,0.000
1644895965243310848,2022-02-15-03:32:45,10.1.1.3,34,-0.030,-0.030,-0.030,0.000,0.000,0.000
1644895965282802176,2022-02-15-03:32:45,10.1.1.3,23,-0.020,-0.020,-0.020,0.000,0.000,0.000
1644895965342833152,2022-02-15-03:32:45,10.1.1.3,32,-0.010,-0.010,-0.010,0.000,0.000,0.000
1644895965383256832,2022-02-15-03:32:45,10.1.1.3,21,0.000,0.000,0.000,0.000,0.000,0.000
1644895965543024896,2022-02-15-03:32:45,10.1.1.3,30,0.030,0.030,0.030,0.000,0.000,0.000
1644895965602772992,2022-02-15-03:32:45,10.1.1.3,38,0.040,0.040,0.040,0.000,0.000,0.000
1644895965643009792,2022-02-15-03:32:45,10.1.1.3,27,0.050,0.050,0.050,0.000,0.000,0.000
1644895965702887168,2022-02-15-03:32:45,10.1.1.3,35,0.060,0.060,0.060,0.000,0.000,0.000
1644895965743112960,2022-02-15-03:32:45,10.1.1.3,24,0.070,0.070,0.070,0.000,0.000,0.000
1644895965803040000,2022-02-15-03:32:45,10.1.1.3,34,0.080,0.080,0.080,0.000,0.000,0.000
1644895965863176960,2022-02-15-03:32:45,10.1.1.3,40,0.090,0.090,0.090,0.000,0.000,0.000
1644895965902508032,2022-02-15-03:32:45,10.1.1.3,27,0.100,0.100,0.100,0.000,0.000,0.000
1644895965963078912,2022-02-15-03:32:45,10.1.1.3,36,0.090,0.090,0.090,0.000,0.000,0.000
1644895966004802048,2022-02-15-03:32:46,10.1.1.3,23,0.080,0.080,0.080,0.000,0.000,0.000
1644895966063542016,2022-02-15-03:32:46,10.1.1.3,33,0.070,0.070,0.070,0.000,0.000,0.000
1644895966102540032,2022-02-15-03:32:46,10.1.1.3,22,0.060,0.060,0.060,0.000,0.000,0.000
1644895966163011072,2022-02-15-03:32:46,10.1.1.3,31,0.050,0.050,0.050,0.000,0.000,0.000
1644895966263176960,2022-02-15-03:32:46,10.1.1.3,29,0.030,0.030,0.030,0.000,0.000,0.000
1644895966323406848,2022-02-15-03:32:46,10.1.1.3,38,0.020,0.020,0.020,0.000,0.000,0.000
1644895966364594944,2022-02-15-03:32:46,10.1.1.3,27,0.010,0.010,0.010,0.000,0.000,0.000
1644895966423064064,2022-02-15-03:32:46,10.1.1.3,36,0.000,0.000,0.000,0.000,0.000,0.000
1644895966463341824,2022-02-15-03:32:46,10.1.1.3,25,-0.010,-0.010,-0.010,0.000,0.000,0.000
1644895966522897920,2022-02-15-03:32:46,10.1.1.3,34,-0.020,-0.020,-0.020,0.000,0.000,0.000
1644895966563162112,2022-02-15-03:32:46,10.1.1.3,23,-0.030,-0.030,-0.030,0.000,0.000,0.000
1644895966622809856,2022-02-15-03:32:46,10.1.1.3,32,-0.040,-0.040,-0.040,0.000,0.000,0.000
1644895966783526912,2022-02-15-03:32:46,10.1.1.3,39,-0.070,-0.070,-0.070,0.000,0.000,0.000
1644895966822604800,2022-02-15-03:32:46,10.1.1.3,25,-0.080,-0.080,-0.080,0.000,0.000,0.000
1644895966882780928,2022-02-15-03:32:46,10.1.1.3,34,-0.090,-0.090,-0.090,0.000,0.000,0.000
1644895966924515072,2022-02-15-03:32:46,10.1.1.3,23,-0.100,-0.100,-0.100,0.000,0.000,0.000
1644895966983747840,2022-02-15-03:32:46,10.1.1.3,32,-0.090,-0.090,-0.090,0.000,0.000,0.000
1644895967023070208,2022-02-15-03:32:47,10.1.1.3,21,-0.080,-0.080,-0.080,0.000,0.000,0.000
1644895967142831104,2022-02-15-03:32:47,10.1.1.3,39,-0.060,-0.060,-0.060,0.000,0.000,0.000
1644895967184340992,2022-02-15-03:32:47,10.1.1.3,29,-0.050,-0.050,-0.050,0.000,0.000,0.000
1644895967243078912,2022-02-15-03:32:47,10.1.1.3,38,-0.040,-0.040,-0.040,0.000,0.000,0.000
1644895967284212992,2022-02-15-03:32:47,10.1.1.3,27,-0.030,-0.030,-0.030,0.000,0.000,0.000
1644895967343164928,2022-02-15-03:32:47,10.1.1.3,36,-0.020,-0.020,-0.020,0.000,0.000,0.000
1644895967382808064,2022-02-15-03:32:47,10.1.1.3,26,-0.010,-0.010,-0.010,0.000,0.000,0.000
1644895967442877952,2022-02-15-03:32:47,10.1.1.3,34,0.000,0.000,0.000,0.000,0.000,0.000
1644895967482938880,2022-02-15-03:32:47,10.1.1.3,23,0.010,0.010,0.010,0.000,0.000,0.000
1644895967543264000,2022-02-15-03:32:47,10.1.1.3,32,0.020,0.020,0.020,0.000,0.000,0.000
1644895967583056896,2022-02-15-03:32:47,10.1.1.3,21,0.030,0.030,0.030,0.000,0.000,0.000
1644895967743035136,2022-02-15-03:32:47,10.1.1.3,28,0.060,0.060,0.060,0.000,0.000,0.000
1644895967803198208,2022-02-15-03:32:47,10.1.1.3,37,0.070,0.070,0.070,0.000,0.000,0.000
1644895967842633984,2022-02-15-03:32:47,10.1.1.3,26,0.080,0.080,0.080,0.000,0.000,0.000
1644895967903521024,2022-02-15-03:32:47,10.1.1.3,35,0.090,0.090,0.090,0.000,0.000,0.000
1644895967943345920,2022-02-15-03:32:47,10.1.1.3,25,0.100,0.100,0.100,0.000,0.000,0.000
1644895968002924800,2022-02-15-03:32:48,10.1.1.3,33,0.090,0.090,0.090,0.000,0.000,0.000
1644895968042757120,2022-02-15-03:32:48,10.1.1.3,22,0.080,0.080,0.080,0.000,0.000,0.000
1644895968103534848,2022-02-15-03:32:48,10.1.1.3,31,0.070,0.070,0.070,0.000,0.000,0.000
1644895968204602880,2022-02-15-03:32:48,10.1.1.3,28,0.050,0.050,0.050,0.000,0.000,0.000
1644895968263117056,2022-02-15-03:32:48,10.1.1.3,35,0.040,0.040,0.040,0.000,0.000,0.000
