FedericoMungari/DigitalTwin_service/01_WiredScenario/Output/Output_script/script_rosapi_2_output_robots10_freq0_3.txt
timestamp,date,node,latency,joint_1,joint_2,joint_3,joint_4,joint_5,joint_6
1644362088768534784,2022-02-08-23:14:48,10.1.1.4,7,-0.100,-0.100,-0.100,0.000,0.000,0.000
1644362088888345088,2022-02-08-23:14:48,10.1.1.4,27,-0.090,-0.090,-0.090,0.000,0.000,0.000
1644362088990199040,2022-02-08-23:14:48,10.1.1.4,26,-0.080,-0.080,-0.080,0.000,0.000,0.000
1644362089088763904,2022-02-08-23:14:49,10.1.1.4,25,-0.070,-0.070,-0.070,0.000,0.000,0.000
1644362089189662976,2022-02-08-23:14:49,10.1.1.4,25,-0.060,-0.060,-0.060,0.000,0.000,0.000
1644362089788746240,2022-02-08-23:14:49,10.1.1.4,21,0.000,0.000,0.000,0.000,0.000,0.000
1644362090008088064,2022-02-08-23:14:50,10.1.1.4,39,0.020,0.020,0.020,0.000,0.000,0.000
1644362090108614912,2022-02-08-23:14:50,10.1.1.4,39,0.030,0.030,0.030,0.000,0.000,0.000
1644362090208368128,2022-02-08-23:14:50,10.1.1.4,38,0.040,0.040,0.040,0.000,0.000,0.000
1644362090309597952,2022-02-08-23:14:50,10.1.1.4,36,0.050,0.050,0.050,0.000,0.000,0.000
1644362090408963840,2022-02-08-23:14:50,10.1.1.4,36,0.060,0.060,0.060,0.000,0.000,0.000
1644362090508572160,2022-02-08-23:14:50,10.1.1.4,36,0.070,0.070,0.070,0.000,0.000,0.000
1644362090608439040,2022-02-08-23:14:50,10.1.1.4,34,0.080,0.080,0.080,0.000,0.000,0.000
1644362090988188928,2022-02-08-23:14:50,10.1.1.4,12,0.080,0.080,0.080,0.000,0.000,0.000
1644362091408244992,2022-02-08-23:14:51,10.1.1.4,29,0.040,0.040,0.040,0.000,0.000,0.000
1644362091509466880,2022-02-08-23:14:51,10.1.1.4,28,0.030,0.030,0.030,0.000,0.000,0.000
1644362091608403968,2022-02-08-23:14:51,10.1.1.4,28,0.020,0.020,0.020,0.000,0.000,0.000
1644362091708734976,2022-02-08-23:14:51,10.1.1.4,26,0.010,0.010,0.010,0.000,0.000,0.000
1644362091809016832,2022-02-08-23:14:51,10.1.1.4,26,0.000,0.000,0.000,0.000,0.000,0.000
1644362091909581056,2022-02-08-23:14:51,10.1.1.4,26,-0.010,-0.010,-0.010,0.000,0.000,0.000
1644362092008279040,2022-02-08-23:14:52,10.1.1.4,25,-0.020,-0.020,-0.020,0.000,0.000,0.000
1644362092808227072,2022-02-08-23:14:52,10.1.1.4,20,-0.100,-0.100,-0.100,0.000,0.000,0.000
1644362092928529920,2022-02-08-23:14:52,10.1.1.4,39,-0.090,-0.090,-0.090,0.000,0.000,0.000
1644362093029409024,2022-02-08-23:14:53,10.1.1.4,38,-0.080,-0.080,-0.080,0.000,0.000,0.000
1644362093128315904,2022-02-08-23:14:53,10.1.1.4,37,-0.070,-0.070,-0.070,0.000,0.000,0.000
1644362093228108032,2022-02-08-23:14:53,10.1.1.4,37,-0.060,-0.060,-0.060,0.000,0.000,0.000
1644362093729451008,2022-02-08-23:14:53,10.1.1.4,29,-0.010,-0.010,-0.010,0.000,0.000,0.000
1644362093830948096,2022-02-08-23:14:53,10.1.1.4,29,0.000,0.000,0.000,0.000,0.000,0.000
1644362093929508864,2022-02-08-23:14:53,10.1.1.4,27,0.010,0.010,0.010,0.000,0.000,0.000
1644362094028975104,2022-02-08-23:14:54,10.1.1.4,26,0.020,0.020,0.020,0.000,0.000,0.000
1644362094128531968,2022-02-08-23:14:54,10.1.1.4,26,0.030,0.030,0.030,0.000,0.000,0.000
1644362094228310016,2022-02-08-23:14:54,10.1.1.4,26,0.040,0.040,0.040,0.000,0.000,0.000
1644362094928147200,2022-02-08-23:14:54,10.1.1.4,19,0.090,0.090,0.090,0.000,0.000,0.000
1644362095048930048,2022-02-08-23:14:55,10.1.1.4,39,0.080,0.080,0.080,0.000,0.000,0.000
1644362095148636160,2022-02-08-23:14:55,10.1.1.4,39,0.070,0.070,0.070,0.000,0.000,0.000
1644362095248755968,2022-02-08-23:14:55,10.1.1.4,38,0.060,0.060,0.060,0.000,0.000,0.000
1644362095348526080,2022-02-08-23:14:55,10.1.1.4,38,0.050,0.050,0.050,0.000,0.000,0.000
1644362095448498944,2022-02-08-23:14:55,10.1.1.4,37,0.040,0.040,0.040,0.000,0.000,0.000
1644362095550044928,2022-02-08-23:14:55,10.1.1.4,36,0.030,0.030,0.030,0.000,0.000,0.000
1644362095649776896,2022-02-08-23:14:55,10.1.1.4,35,0.020,0.020,0.020,0.000,0.000,0.000
1644362095751308800,2022-02-08-23:14:55,10.1.1.4,35,0.010,0.010,0.010,0.000,0.000,0.000
1644362096448519936,2022-02-08-23:14:56,10.1.1.4,29,-0.060,-0.060,-0.060,0.000,0.000,0.000
1644362096548822016,2022-02-08-23:14:56,10.1.1.4,28,-0.070,-0.070,-0.070,0.000,0.000,0.000
1644362096648819968,2022-02-08-23:14:56,10.1.1.4,27,-0.080,-0.080,-0.080,0.000,0.000,0.000
1644362096750370048,2022-02-08-23:14:56,10.1.1.4,26,-0.090,-0.090,-0.090,0.000,0.000,0.000
1644362096950354944,2022-02-08-23:14:56,10.1.1.4,21,-0.090,-0.090,-0.090,0.000,0.000,0.000
1644362097148623872,2022-02-08-23:14:57,10.1.1.4,19,-0.070,-0.070,-0.070,0.000,0.000,0.000
1644362097269453056,2022-02-08-23:14:57,10.1.1.4,39,-0.060,-0.060,-0.060,0.000,0.000,0.000
1644362097368473088,2022-02-08-23:14:57,10.1.1.4,38,-0.050,-0.050,-0.050,0.000,0.000,0.000
1644362097468705024,2022-02-08-23:14:57,10.1.1.4,37,-0.040,-0.040,-0.040,0.000,0.000,0.000
1644362097568644096,2022-02-08-23:14:57,10.1.1.4,37,-0.030,-0.030,-0.030,0.000,0.000,0.000
1644362097668969984,2022-02-08-23:14:57,10.1.1.4,36,-0.020,-0.020,-0.020,0.000,0.000,0.000
1644362097768708864,2022-02-08-23:14:57,10.1.1.4,35,-0.010,-0.010,-0.010,0.000,0.000,0.000
1644362098268423936,2022-02-08-23:14:58,10.1.1.4,29,0.040,0.040,0.040,0.000,0.000,0.000
1644362098368385024,2022-02-08-23:14:58,10.1.1.4,28,0.050,0.050,0.050,0.000,0.000,0.000
1644362098468295936,2022-02-08-23:14:58,10.1.1.4,27,0.060,0.060,0.060,0.000,0.000,0.000
1644362098568766976,2022-02-08-23:14:58,10.1.1.4,27,0.070,0.070,0.070,0.000,0.000,0.000
1644362098788190976,2022-02-08-23:14:58,10.1.1.4,38,0.090,0.090,0.090,0.000,0.000,0.000
1644362098888027904,2022-02-08-23:14:58,10.1.1.4,38,0.100,0.100,0.100,0.000,0.000,0.000
1644362098988461056,2022-02-08-23:14:58,10.1.1.4,37,0.090,0.090,0.090,0.000,0.000,0.000
1644362099088304896,2022-02-08-23:14:59,10.1.1.4,37,0.080,0.080,0.080,0.000,0.000,0.000
1644362099188713984,2022-02-08-23:14:59,10.1.1.4,36,0.070,0.070,0.070,0.000,0.000,0.000
1644362099288060928,2022-02-08-23:14:59,10.1.1.4,35,0.060,0.060,0.060,0.000,0.000,0.000
1644362100091080960,2022-02-08-23:15:00,10.1.1.4,29,-0.020,-0.020,-0.020,0.000,0.000,0.000
1644362100188570880,2022-02-08-23:15:00,10.1.1.4,28,-0.030,-0.030,-0.030,0.000,0.000,0.000
1644362100289732864,2022-02-08-23:15:00,10.1.1.4,27,-0.040,-0.040,-0.040,0.000,0.000,0.000
1644362100389071872,2022-02-08-23:15:00,10.1.1.4,26,-0.050,-0.050,-0.050,0.000,0.000,0.000
1644362100487983104,2022-02-08-23:15:00,10.1.1.4,25,-0.060,-0.060,-0.060,0.000,0.000,0.000
1644362100588659968,2022-02-08-23:15:00,10.1.1.4,25,-0.070,-0.070,-0.070,0.000,0.000,0.000
1644362101011929088,2022-02-08-23:15:01,10.1.1.4,37,-0.090,-0.090,-0.090,0.000,0.000,0.000
1644362101214382848,2022-02-08-23:15:01,10.1.1.4,40,-0.070,-0.070,-0.070,0.000,0.000,0.000
1644362101310937856,2022-02-08-23:15:01,10.1.1.4,35,-0.060,-0.060,-0.060,0.000,0.000,0.000
1644362102234744064,2022-02-08-23:15:02,10.1.1.4,37,0.030,0.030,0.030,0.000,0.000,0.000
1644362102329271040,2022-02-08-23:15:02,10.1.1.4,36,0.040,0.040,0.040,0.000,0.000,0.000
1644362102430044928,2022-02-08-23:15:02,10.1.1.4,35,0.050,0.050,0.050,0.000,0.000,0.000
1644362103031579136,2022-02-08-23:15:03,10.1.1.4,31,0.090,0.090,0.090,0.000,0.000,0.000
1644362103229859072,2022-02-08-23:15:03,10.1.1.4,27,0.070,0.070,0.070,0.000,0.000,0.000
1644362103330163968,2022-02-08-23:15:03,10.1.1.4,26,0.060,0.060,0.060,0.000,0.000,0.000
1644362103432101888,2022-02-08-23:15:03,10.1.1.4,25,0.050,0.050,0.050,0.000,0.000,0.000
1644362103570234112,2022-02-08-23:15:03,10.1.1.4,36,0.040,0.040,0.040,0.000,0.000,0.000
1644362103670966016,2022-02-08-23:15:03,10.1.1.4,35,0.030,0.030,0.030,0.000,0.000,0.000
1644362104069915136,2022-02-08-23:15:04,10.1.1.4,30,-0.010,-0.010,-0.010,0.000,0.000,0.000
1644362104269649920,2022-02-08-23:15:04,10.1.1.4,29,-0.030,-0.030,-0.030,0.000,0.000,0.000
1644362104369492992,2022-02-08-23:15:04,10.1.1.4,28,-0.040,-0.040,-0.040,0.000,0.000,0.000
1644362104470121984,2022-02-08-23:15:04,10.1.1.4,27,-0.050,-0.050,-0.050,0.000,0.000,0.000
1644362104569047040,2022-02-08-23:15:04,10.1.1.4,27,-0.060,-0.060,-0.060,0.000,0.000,0.000
1644362104671144960,2022-02-08-23:15:04,10.1.1.4,26,-0.070,-0.070,-0.070,0.000,0.000,0.000
1644362104769700096,2022-02-08-23:15:04,10.1.1.4,26,-0.080,-0.080,-0.080,0.000,0.000,0.000
1644362104870964992,2022-02-08-23:15:04,10.1.1.4,25,-0.090,-0.090,-0.090,0.000,0.000,0.000
1644362105089189120,2022-02-08-23:15:05,10.1.1.4,13,-0.090,-0.090,-0.090,0.000,0.000,0.000
1644362105508534016,2022-02-08-23:15:05,10.1.1.4,29,-0.050,-0.050,-0.050,0.000,0.000,0.000
1644362105608382976,2022-02-08-23:15:05,10.1.1.4,28,-0.040,-0.040,-0.040,0.000,0.000,0.000
1644362105709022976,2022-02-08-23:15:05,10.1.1.4,27,-0.030,-0.030,-0.030,0.000,0.000,0.000
1644362105808208896,2022-02-08-23:15:05,10.1.1.4,26,-0.020,-0.020,-0.020,0.000,0.000,0.000
1644362105908404992,2022-02-08-23:15:05,10.1.1.4,26,-0.010,-0.010,-0.010,0.000,0.000,0.000
1644362106348215040,2022-02-08-23:15:06,10.1.1.4,39,0.030,0.030,0.030,0.000,0.000,0.000
1644362106448466176,2022-02-08-23:15:06,10.1.1.4,38,0.040,0.040,0.040,0.000,0.000,0.000
1644362106648602112,2022-02-08-23:15:06,10.1.1.4,34,0.060,0.060,0.060,0.000,0.000,0.000
1644362107448559872,2022-02-08-23:15:07,10.1.1.4,20,0.060,0.060,0.060,0.000,0.000,0.000
1644362107568434944,2022-02-08-23:15:07,10.1.1.4,37,0.050,0.050,0.050,0.000,0.000,0.000
1644362107668865024,2022-02-08-23:15:07,10.1.1.4,36,0.040,0.040,0.040,0.000,0.000,0.000
1644362107768475904,2022-02-08-23:15:07,10.1.1.4,35,0.030,0.030,0.030,0.000,0.000,0.000
1644362108471015936,2022-02-08-23:15:08,10.1.1.4,29,-0.040,-0.040,-0.040,0.000,0.000,0.000
1644362108568495104,2022-02-08-23:15:08,10.1.1.4,29,-0.050,-0.050,-0.050,0.000,0.000,0.000
1644362108668220928,2022-02-08-23:15:08,10.1.1.4,28,-0.060,-0.060,-0.060,0.000,0.000,0.000
1644362108768739072,2022-02-08-23:15:08,10.1.1.4,27,-0.070,-0.070,-0.070,0.000,0.000,0.000
1644362108868343040,2022-02-08-23:15:08,10.1.1.4,26,-0.080,-0.080,-0.080,0.000,0.000,0.000
1644362108990111232,2022-02-08-23:15:08,10.1.1.4,38,-0.090,-0.090,-0.090,0.000,0.000,0.000
1644362109090179840,2022-02-08-23:15:09,10.1.1.4,37,-0.100,-0.100,-0.100,0.000,0.000,0.000
1644362109188738048,2022-02-08-23:15:09,10.1.1.4,37,-0.090,-0.090,-0.090,0.000,0.000,0.000
1644362109289249792,2022-02-08-23:15:09,10.1.1.4,35,-0.080,-0.080,-0.080,0.000,0.000,0.000
1644362109989171968,2022-02-08-23:15:09,10.1.1.4,30,-0.010,-0.010,-0.010,0.000,0.000,0.000
1644362110089308928,2022-02-08-23:15:10,10.1.1.4,29,0.000,0.000,0.000,0.000,0.000,0.000
1644362110215459072,2022-02-08-23:15:10,10.1.1.4,26,0.010,0.010,0.010,0.000,0.000,0.000
1644362110309044992,2022-02-08-23:15:10,10.1.1.4,25,0.020,0.020,0.020,0.000,0.000,0.000
1644362110828183040,2022-02-08-23:15:10,10.1.1.4,39,0.070,0.070,0.070,0.000,0.000,0.000
1644362110929789184,2022-02-08-23:15:10,10.1.1.4,38,0.080,0.080,0.080,0.000,0.000,0.000
1644362111028539904,2022-02-08-23:15:11,10.1.1.4,36,0.090,0.090,0.090,0.000,0.000,0.000
1644362111128460032,2022-02-08-23:15:11,10.1.1.4,36,0.100,0.100,0.100,0.000,0.000,0.000
1644362111528129024,2022-02-08-23:15:11,10.1.1.4,29,0.060,0.060,0.060,0.000,0.000,0.000
1644362111628036864,2022-02-08-23:15:11,10.1.1.4,28,0.050,0.050,0.050,0.000,0.000,0.000
1644362111729444864,2022-02-08-23:15:11,10.1.1.4,25,0.040,0.040,0.040,0.000,0.000,0.000
1644362112389904128,2022-02-08-23:15:12,10.1.1.4,39,-0.020,-0.020,-0.020,0.000,0.000,0.000
1644362112488078080,2022-02-08-23:15:12,10.1.1.4,37,-0.030,-0.030,-0.030,0.000,0.000,0.000
1644362112608066048,2022-02-08-23:15:12,10.1.1.4,35,-0.040,-0.040,-0.040,0.000,0.000,0.000
1644362113408787968,2022-02-08-23:15:13,10.1.1.4,29,-0.080,-0.080,-0.080,0.000,0.000,0.000
1644362113508482048,2022-02-08-23:15:13,10.1.1.4,26,-0.070,-0.070,-0.070,0.000,0.000,0.000
1644362113608513024,2022-02-08-23:15:13,10.1.1.4,24,-0.060,-0.060,-0.060,0.000,0.000,0.000
1644362114128109056,2022-02-08-23:15:14,10.1.1.4,36,-0.010,-0.010,-0.010,0.000,0.000,0.000
1644362114628722944,2022-02-08-23:15:14,10.1.1.4,29,0.040,0.040,0.040,0.000,0.000,0.000
1644362114728744960,2022-02-08-23:15:14,10.1.1.4,29,0.050,0.050,0.050,0.000,0.000,0.000
1644362114828527872,2022-02-08-23:15:14,10.1.1.4,28,0.060,0.060,0.060,0.000,0.000,0.000
1644362114928883968,2022-02-08-23:15:14,10.1.1.4,27,0.070,0.070,0.070,0.000,0.000,0.000
1644362115028481024,2022-02-08-23:15:15,10.1.1.4,27,0.080,0.080,0.080,0.000,0.000,0.000
1644362115128628992,2022-02-08-23:15:15,10.1.1.4,26,0.090,0.090,0.090,0.000,0.000,0.000
1644362115229351936,2022-02-08-23:15:15,10.1.1.4,25,0.100,0.100,0.100,0.000,0.000,0.000
1644362115849047808,2022-02-08-23:15:15,10.1.1.4,39,0.040,0.040,0.040,0.000,0.000,0.000
1644362115950865920,2022-02-08-23:15:15,10.1.1.4,36,0.030,0.030,0.030,0.000,0.000,0.000
1644362116050147072,2022-02-08-23:15:16,10.1.1.4,35,0.020,0.020,0.020,0.000,0.000,0.000
1644362116348425984,2022-02-08-23:15:16,10.1.1.4,27,-0.010,-0.010,-0.010,0.000,0.000,0.000
1644362116888468992,2022-02-08-23:15:16,10.1.1.4,39,-0.060,-0.060,-0.060,0.000,0.000,0.000
1644362116987945984,2022-02-08-23:15:16,10.1.1.4,38,-0.070,-0.070,-0.070,0.000,0.000,0.000
1644362117088616960,2022-02-08-23:15:17,10.1.1.4,37,-0.080,-0.080,-0.080,0.000,0.000,0.000
1644362117188382976,2022-02-08-23:15:17,10.1.1.4,37,-0.090,-0.090,-0.090,0.000,0.000,0.000
1644362117288327936,2022-02-08-23:15:17,10.1.1.4,36,-0.100,-0.100,-0.100,0.000,0.000,0.000
1644362117388392960,2022-02-08-23:15:17,10.1.1.4,36,-0.090,-0.090,-0.090,0.000,0.000,0.000
1644362117488432896,2022-02-08-23:15:17,10.1.1.4,35,-0.080,-0.080,-0.080,0.000,0.000,0.000
1644362117588995072,2022-02-08-23:15:17,10.1.1.4,35,-0.070,-0.070,-0.070,0.000,0.000,0.000
1644362118489221120,2022-02-08-23:15:18,10.1.1.4,29,0.020,0.020,0.020,0.000,0.000,0.000
1644362118588672000,2022-02-08-23:15:18,10.1.1.4,29,0.030,0.030,0.030,0.000,0.000,0.000
1644362118688667904,2022-02-08-23:15:18,10.1.1.4,28,0.040,0.040,0.040,0.000,0.000,0.000
1644362118790242816,2022-02-08-23:15:18,10.1.1.4,27,0.050,0.050,0.050,0.000,0.000,0.000
1644362118888371968,2022-02-08-23:15:18,10.1.1.4,27,0.060,0.060,0.060,0.000,0.000,0.000
1644362118988301056,2022-02-08-23:15:18,10.1.1.4,27,0.070,0.070,0.070,0.000,0.000,0.000
1644362119088612096,2022-02-08-23:15:19,10.1.1.4,26,0.080,0.080,0.080,0.000,0.000,0.000
1644362119189709056,2022-02-08-23:15:19,10.1.1.4,26,0.090,0.090,0.090,0.000,0.000,0.000
1644362119288256768,2022-02-08-23:15:19,10.1.1.4,25,0.100,0.100,0.100,0.000,0.000,0.000
1644362120108753920,2022-02-08-23:15:20,10.1.1.4,39,0.020,0.020,0.020,0.000,0.000,0.000
1644362120208643840,2022-02-08-23:15:20,10.1.1.4,39,0.010,0.010,0.010,0.000,0.000,0.000
1644362120308990976,2022-02-08-23:15:20,10.1.1.4,38,0.000,0.000,0.000,0.000,0.000,0.000
1644362120408720128,2022-02-08-23:15:20,10.1.1.4,37,-0.010,-0.010,-0.010,0.000,0.000,0.000
1644362120508118016,2022-02-08-23:15:20,10.1.1.4,36,-0.020,-0.020,-0.020,0.000,0.000,0.000
1644362120608369152,2022-02-08-23:15:20,10.1.1.4,36,-0.030,-0.030,-0.030,0.000,0.000,0.000
1644362120710977024,2022-02-08-23:15:20,10.1.1.4,36,-0.040,-0.040,-0.040,0.000,0.000,0.000
1644362120808485888,2022-02-08-23:15:20,10.1.1.4,35,-0.050,-0.050,-0.050,0.000,0.000,0.000
1644362120908224000,2022-02-08-23:15:20,10.1.1.4,35,-0.060,-0.060,-0.060,0.000,0.000,0.000
1644362121709011200,2022-02-08-23:15:21,10.1.1.4,21,-0.060,-0.060,-0.060,0.000,0.000,0.000
1644362121828849152,2022-02-08-23:15:21,10.1.1.4,40,-0.050,-0.050,-0.050,0.000,0.000,0.000
1644362122427930112,2022-02-08-23:15:22,10.1.1.4,30,0.010,0.010,0.010,0.000,0.000,0.000
1644362122528251904,2022-02-08-23:15:22,10.1.1.4,29,0.020,0.020,0.020,0.000,0.000,0.000
1644362122630897152,2022-02-08-23:15:22,10.1.1.4,29,0.030,0.030,0.030,0.000,0.000,0.000
1644362122729028864,2022-02-08-23:15:22,10.1.1.4,28,0.040,0.040,0.040,0.000,0.000,0.000
1644362122828208896,2022-02-08-23:15:22,10.1.1.4,28,0.050,0.050,0.050,0.000,0.000,0.000
1644362122928075008,2022-02-08-23:15:22,10.1.1.4,27,0.060,0.060,0.060,0.000,0.000,0.000
1644362123028445952,2022-02-08-23:15:23,10.1.1.4,26,0.070,0.070,0.070,0.000,0.000,0.000
1644362123128166912,2022-02-08-23:15:23,10.1.1.4,26,0.080,0.080,0.080,0.000,0.000,0.000
1644362123228907008,2022-02-08-23:15:23,10.1.1.4,26,0.090,0.090,0.090,0.000,0.000,0.000
1644362123328018944,2022-02-08-23:15:23,10.1.1.4,25,0.100,0.100,0.100,0.000,0.000,0.000
1644362123428608768,2022-02-08-23:15:23,10.1.1.4,25,0.090,0.090,0.090,0.000,0.000,0.000
1644362124248013056,2022-02-08-23:15:24,10.1.1.4,40,0.010,0.010,0.010,0.000,0.000,0.000
1644362124348087040,2022-02-08-23:15:24,10.1.1.4,39,0.000,0.000,0.000,0.000,0.000,0.000
1644362124450061056,2022-02-08-23:15:24,10.1.1.4,39,-0.010,-0.010,-0.010,0.000,0.000,0.000
1644362124549242880,2022-02-08-23:15:24,10.1.1.4,38,-0.020,-0.020,-0.020,0.000,0.000,0.000
1644362124647852032,2022-02-08-23:15:24,10.1.1.4,38,-0.030,-0.030,-0.030,0.000,0.000,0.000
1644362124748186112,2022-02-08-23:15:24,10.1.1.4,37,-0.040,-0.040,-0.040,0.000,0.000,0.000
1644362124849294848,2022-02-08-23:15:24,10.1.1.4,37,-0.050,-0.050,-0.050,0.000,0.000,0.000
1644362124947969024,2022-02-08-23:15:24,10.1.1.4,36,-0.060,-0.060,-0.060,0.000,0.000,0.000
1644362125547944192,2022-02-08-23:15:25,10.1.1.4,29,-0.080,-0.080,-0.080,0.000,0.000,0.000
1644362125648525056,2022-02-08-23:15:25,10.1.1.4,29,-0.070,-0.070,-0.070,0.000,0.000,0.000
1644362125748986112,2022-02-08-23:15:25,10.1.1.4,29,-0.060,-0.060,-0.060,0.000,0.000,0.000
1644362125848514048,2022-02-08-23:15:25,10.1.1.4,28,-0.050,-0.050,-0.050,0.000,0.000,0.000
1644362125947812096,2022-02-08-23:15:25,10.1.1.4,25,-0.040,-0.040,-0.040,0.000,0.000,0.000
1644362126075762944,2022-02-08-23:15:26,10.1.1.4,38,-0.030,-0.030,-0.030,0.000,0.000,0.000
1644362126168016896,2022-02-08-23:15:26,10.1.1.4,38,-0.020,-0.020,-0.020,0.000,0.000,0.000
1644362126268729088,2022-02-08-23:15:26,10.1.1.4,37,-0.010,-0.010,-0.010,0.000,0.000,0.000
1644362126368036864,2022-02-08-23:15:26,10.1.1.4,37,0.000,0.000,0.000,0.000,0.000,0.000
1644362126468231936,2022-02-08-23:15:26,10.1.1.4,36,0.010,0.010,0.010,0.000,0.000,0.000
1644362126568388864,2022-02-08-23:15:26,10.1.1.4,35,0.020,0.020,0.020,0.000,0.000,0.000
1644362126668306176,2022-02-08-23:15:26,10.1.1.4,35,0.030,0.030,0.030,0.000,0.000,0.000
1644362126768553984,2022-02-08-23:15:26,10.1.1.4,35,0.040,0.040,0.040,0.000,0.000,0.000
1644362127668497920,2022-02-08-23:15:27,10.1.1.4,30,0.070,0.070,0.070,0.000,0.000,0.000
1644362127768338944,2022-02-08-23:15:27,10.1.1.4,29,0.060,0.060,0.060,0.000,0.000,0.000
1644362127868190976,2022-02-08-23:15:27,10.1.1.4,29,0.050,0.050,0.050,0.000,0.000,0.000
1644362127968649984,2022-02-08-23:15:27,10.1.1.4,29,0.040,0.040,0.040,0.000,0.000,0.000
1644362128067954176,2022-02-08-23:15:28,10.1.1.4,25,0.030,0.030,0.030,0.000,0.000,0.000
1644362128689184000,2022-02-08-23:15:28,10.1.1.4,39,-0.030,-0.030,-0.030,0.000,0.000,0.000
1644362128888950016,2022-02-08-23:15:28,10.1.1.4,29,-0.050,-0.050,-0.050,0.000,0.000,0.000
1644362128988441088,2022-02-08-23:15:28,10.1.1.4,28,-0.060,-0.060,-0.060,0.000,0.000,0.000
1644362129091885056,2022-02-08-23:15:29,10.1.1.4,28,-0.070,-0.070,-0.070,0.000,0.000,0.000
1644362129189479168,2022-02-08-23:15:29,10.1.1.4,27,-0.080,-0.080,-0.080,0.000,0.000,0.000
1644362129289278976,2022-02-08-23:15:29,10.1.1.4,26,-0.090,-0.090,-0.090,0.000,0.000,0.000
1644362129489274880,2022-02-08-23:15:29,10.1.1.4,20,-0.090,-0.090,-0.090,0.000,0.000,0.000
1644362129608932864,2022-02-08-23:15:29,10.1.1.4,38,-0.080,-0.080,-0.080,0.000,0.000,0.000
1644362129710488064,2022-02-08-23:15:29,10.1.1.4,38,-0.070,-0.070,-0.070,0.000,0.000,0.000
1644362129809048064,2022-02-08-23:15:29,10.1.1.4,37,-0.060,-0.060,-0.060,0.000,0.000,0.000
1644362129910985984,2022-02-08-23:15:29,10.1.1.4,38,-0.050,-0.050,-0.050,0.000,0.000,0.000
1644362130010160896,2022-02-08-23:15:30,10.1.1.4,37,-0.040,-0.040,-0.040,0.000,0.000,0.000
1644362130409771008,2022-02-08-23:15:30,10.1.1.4,30,0.000,0.000,0.000,0.000,0.000,0.000
1644362130511250944,2022-02-08-23:15:30,10.1.1.4,31,0.010,0.010,0.010,0.000,0.000,0.000
1644362130608110848,2022-02-08-23:15:30,10.1.1.4,29,0.020,0.020,0.020,0.000,0.000,0.000
1644362130708689920,2022-02-08-23:15:30,10.1.1.4,28,0.030,0.030,0.030,0.000,0.000,0.000
1644362130808132864,2022-02-08-23:15:30,10.1.1.4,28,0.040,0.040,0.040,0.000,0.000,0.000
1644362130908318976,2022-02-08-23:15:30,10.1.1.4,26,0.050,0.050,0.050,0.000,0.000,0.000
1644362131008342016,2022-02-08-23:15:31,10.1.1.4,25,0.060,0.060,0.060,0.000,0.000,0.000
1644362131108922880,2022-02-08-23:15:31,10.1.1.4,25,0.070,0.070,0.070,0.000,0.000,0.000
1644362131528256000,2022-02-08-23:15:31,10.1.1.4,28,0.090,0.090,0.090,0.000,0.000,0.000
1644362131628406016,2022-02-08-23:15:31,10.1.1.4,27,0.080,0.080,0.080,0.000,0.000,0.000
1644362131728691968,2022-02-08-23:15:31,10.1.1.4,27,0.070,0.070,0.070,0.000,0.000,0.000
1644362131831283200,2022-02-08-23:15:31,10.1.1.4,26,0.060,0.060,0.060,0.000,0.000,0.000
1644362131928657920,2022-02-08-23:15:31,10.1.1.4,25,0.050,0.050,0.050,0.000,0.000,0.000
1644362133248130048,2022-02-08-23:15:33,10.1.1.4,39,-0.080,-0.080,-0.080,0.000,0.000,0.000
1644362133448903168,2022-02-08-23:15:33,10.1.1.4,39,-0.100,-0.100,-0.100,0.000,0.000,0.000
1644362133549072896,2022-02-08-23:15:33,10.1.1.4,38,-0.090,-0.090,-0.090,0.000,0.000,0.000
1644362133648854016,2022-02-08-23:15:33,10.1.1.4,38,-0.080,-0.080,-0.080,0.000,0.000,0.000
1644362133748801024,2022-02-08-23:15:33,10.1.1.4,38,-0.070,-0.070,-0.070,0.000,0.000,0.000
1644362133848453888,2022-02-08-23:15:33,10.1.1.4,37,-0.060,-0.060,-0.060,0.000,0.000,0.000
1644362133948705024,2022-02-08-23:15:33,10.1.1.4,37,-0.050,-0.050,-0.050,0.000,0.000,0.000
1644362134049531904,2022-02-08-23:15:34,10.1.1.4,36,-0.040,-0.040,-0.040,0.000,0.000,0.000
1644362134150651904,2022-02-08-23:15:34,10.1.1.4,36,-0.030,-0.030,-0.030,0.000,0.000,0.000
1644362134250929152,2022-02-08-23:15:34,10.1.1.4,35,-0.020,-0.020,-0.020,0.000,0.000,0.000
1644362134349044992,2022-02-08-23:15:34,10.1.1.4,35,-0.010,-0.010,-0.010,0.000,0.000,0.000
1644362134450571008,2022-02-08-23:15:34,10.1.1.4,35,0.000,0.000,0.000,0.000,0.000,0.000
1644362135149945088,2022-02-08-23:15:35,10.1.1.4,27,0.070,0.070,0.070,0.000,0.000,0.000
1644362135249219840,2022-02-08-23:15:35,10.1.1.4,27,0.080,0.080,0.080,0.000,0.000,0.000
1644362135350383104,2022-02-08-23:15:35,10.1.1.4,26,0.090,0.090,0.090,0.000,0.000,0.000
1644362135451545088,2022-02-08-23:15:35,10.1.1.4,25,0.100,0.100,0.100,0.000,0.000,0.000
1644362136668307968,2022-02-08-23:15:36,10.1.1.4,38,-0.020,-0.020,-0.020,0.000,0.000,0.000
1644362137169581056,2022-02-08-23:15:37,10.1.1.4,29,-0.070,-0.070,-0.070,0.000,0.000,0.000
1644362137268347136,2022-02-08-23:15:37,10.1.1.4,28,-0.080,-0.080,-0.080,0.000,0.000,0.000
1644362137369218048,2022-02-08-23:15:37,10.1.1.4,25,-0.090,-0.090,-0.090,0.000,0.000,0.000
1644362137549936128,2022-02-08-23:15:37,10.1.1.4,3,-0.090,-0.090,-0.090,0.000,0.000,0.000
1644362137788631808,2022-02-08-23:15:37,10.1.1.4,39,-0.070,-0.070,-0.070,0.000,0.000,0.000
1644362137888623872,2022-02-08-23:15:37,10.1.1.4,39,-0.060,-0.060,-0.060,0.000,0.000,0.000
1644362137988785920,2022-02-08-23:15:37,10.1.1.4,38,-0.050,-0.050,-0.050,0.000,0.000,0.000
1644362138089023232,2022-02-08-23:15:38,10.1.1.4,38,-0.040,-0.040,-0.040,0.000,0.000,0.000
1644362138188978944,2022-02-08-23:15:38,10.1.1.4,37,-0.030,-0.030,-0.030,0.000,0.000,0.000
1644362138288644096,2022-02-08-23:15:38,10.1.1.4,37,-0.020,-0.020,-0.020,0.000,0.000,0.000
1644362138389182976,2022-02-08-23:15:38,10.1.1.4,37,-0.010,-0.010,-0.010,0.000,0.000,0.000
1644362138489588992,2022-02-08-23:15:38,10.1.1.4,36,0.000,0.000,0.000,0.000,0.000,0.000
1644362138590385920,2022-02-08-23:15:38,10.1.1.4,36,0.010,0.010,0.010,0.000,0.000,0.000
1644362138688538112,2022-02-08-23:15:38,10.1.1.4,35,0.020,0.020,0.020,0.000,0.000,0.000
1644362138788235776,2022-02-08-23:15:38,10.1.1.4,35,0.030,0.030,0.030,0.000,0.000,0.000
1644362139188525824,2022-02-08-23:15:39,10.1.1.4,29,0.070,0.070,0.070,0.000,0.000,0.000
1644362139288652032,2022-02-08-23:15:39,10.1.1.4,28,0.080,0.080,0.080,0.000,0.000,0.000
1644362139388852992,2022-02-08-23:15:39,10.1.1.4,28,0.090,0.090,0.090,0.000,0.000,0.000
1644362139488585984,2022-02-08-23:15:39,10.1.1.4,27,0.100,0.100,0.100,0.000,0.000,0.000
1644362139591542016,2022-02-08-23:15:39,10.1.1.4,27,0.090,0.090,0.090,0.000,0.000,0.000
1644362139689037056,2022-02-08-23:15:39,10.1.1.4,26,0.080,0.080,0.080,0.000,0.000,0.000
1644362139789099008,2022-02-08-23:15:39,10.1.1.4,26,0.070,0.070,0.070,0.000,0.000,0.000
1644362139888397056,2022-02-08-23:15:39,10.1.1.4,25,0.060,0.060,0.060,0.000,0.000,0.000
1644362140508899840,2022-02-08-23:15:40,10.1.1.4,39,0.000,0.000,0.000,0.000,0.000,0.000
1644362140611074048,2022-02-08-23:15:40,10.1.1.4,38,-0.010,-0.010,-0.010,0.000,0.000,0.000
1644362140708865792,2022-02-08-23:15:40,10.1.1.4,38,-0.020,-0.020,-0.020,0.000,0.000,0.000
1644362140808136960,2022-02-08-23:15:40,10.1.1.4,37,-0.030,-0.030,-0.030,0.000,0.000,0.000
1644362140909209856,2022-02-08-23:15:40,10.1.1.4,37,-0.040,-0.040,-0.040,0.000,0.000,0.000
1644362141008934144,2022-02-08-23:15:41,10.1.1.4,37,-0.050,-0.050,-0.050,0.000,0.000,0.000
1644362141109294848,2022-02-08-23:15:41,10.1.1.4,36,-0.060,-0.060,-0.060,0.000,0.000,0.000
1644362141209126912,2022-02-08-23:15:41,10.1.1.4,35,-0.070,-0.070,-0.070,0.000,0.000,0.000
1644362141788477952,2022-02-08-23:15:41,10.1.1.4,10,-0.070,-0.070,-0.070,0.000,0.000,0.000
1644362142209379840,2022-02-08-23:15:42,10.1.1.4,29,-0.030,-0.030,-0.030,0.000,0.000,0.000
1644362142308638976,2022-02-08-23:15:42,10.1.1.4,28,-0.020,-0.020,-0.020,0.000,0.000,0.000
1644362142408777984,2022-02-08-23:15:42,10.1.1.4,27,-0.010,-0.010,-0.010,0.000,0.000,0.000
1644362142509121792,2022-02-08-23:15:42,10.1.1.4,26,0.000,0.000,0.000,0.000,0.000,0.000
1644362142609692928,2022-02-08-23:15:42,10.1.1.4,25,0.010,0.010,0.010,0.000,0.000,0.000
1644362142709383936,2022-02-08-23:15:42,10.1.1.4,25,0.020,0.020,0.020,0.000,0.000,0.000
1644362143228695040,2022-02-08-23:15:43,10.1.1.4,39,0.070,0.070,0.070,0.000,0.000,0.000
1644362143328784896,2022-02-08-23:15:43,10.1.1.4,39,0.080,0.080,0.080,0.000,0.000,0.000
1644362143430129920,2022-02-08-23:15:43,10.1.1.4,38,0.090,0.090,0.090,0.000,0.000,0.000
1644362143530814976,2022-02-08-23:15:43,10.1.1.4,38,0.100,0.100,0.100,0.000,0.000,0.000
1644362144030531840,2022-02-08-23:15:44,10.1.1.4,26,0.050,0.050,0.050,0.000,0.000,0.000
1644362144130045952,2022-02-08-23:15:44,10.1.1.4,25,0.040,0.040,0.040,0.000,0.000,0.000
1644362144330523904,2022-02-08-23:15:44,10.1.1.4,24,0.020,0.020,0.020,0.000,0.000,0.000
1644362144648788992,2022-02-08-23:15:44,10.1.1.4,37,-0.010,-0.010,-0.010,0.000,0.000,0.000
1644362144751385856,2022-02-08-23:15:44,10.1.1.4,37,-0.020,-0.020,-0.020,0.000,0.000,0.000
1644362144847926016,2022-02-08-23:15:44,10.1.1.4,36,-0.030,-0.030,-0.030,0.000,0.000,0.000
1644362144948592896,2022-02-08-23:15:44,10.1.1.4,36,-0.040,-0.040,-0.040,0.000,0.000,0.000
1644362145049202944,2022-02-08-23:15:45,10.1.1.4,36,-0.050,-0.050,-0.050,0.000,0.000,0.000
1644362145150432000,2022-02-08-23:15:45,10.1.1.4,35,-0.060,-0.060,-0.060,0.000,0.000,0.000
1644362145248822016,2022-02-08-23:15:45,10.1.1.4,35,-0.070,-0.070,-0.070,0.000,0.000,0.000
1644362145348936960,2022-02-08-23:15:45,10.1.1.4,35,-0.080,-0.080,-0.080,0.000,0.000,0.000
1644362145729128960,2022-02-08-23:15:45,10.1.1.4,11,-0.080,-0.080,-0.080,0.000,0.000,0.000
1644362145948976128,2022-02-08-23:15:45,10.1.1.4,30,-0.060,-0.060,-0.060,0.000,0.000,0.000
1644362146050910976,2022-02-08-23:15:46,10.1.1.4,30,-0.050,-0.050,-0.050,0.000,0.000,0.000
1644362146149127936,2022-02-08-23:15:46,10.1.1.4,29,-0.040,-0.040,-0.040,0.000,0.000,0.000
1644362146248900864,2022-02-08-23:15:46,10.1.1.4,29,-0.030,-0.030,-0.030,0.000,0.000,0.000
1644362147408210944,2022-02-08-23:15:47,10.1.1.4,39,0.080,0.080,0.080,0.000,0.000,0.000
1644362147490550016,2022-02-08-23:15:47,10.1.1.4,20,0.090,0.090,0.090,0.000,0.000,0.000
1644362147688812032,2022-02-08-23:15:47,10.1.1.4,7,0.090,0.090,0.090,0.000,0.000,0.000
1644362147808718848,2022-02-08-23:15:47,10.1.1.4,27,0.080,0.080,0.080,0.000,0.000,0.000
1644362147908546816,2022-02-08-23:15:47,10.1.1.4,26,0.070,0.070,0.070,0.000,0.000,0.000
1644362148012691968,2022-02-08-23:15:48,10.1.1.4,25,0.060,0.060,0.060,0.000,0.000,0.000
1644362148108578048,2022-02-08-23:15:48,10.1.1.4,25,0.050,0.050,0.050,0.000,0.000,0.000
1644362148209861120,2022-02-08-23:15:48,10.1.1.4,24,0.040,0.040,0.040,0.000,0.000,0.000
1644362148440995072,2022-02-08-23:15:48,10.1.1.4,37,0.020,0.020,0.020,0.000,0.000,0.000
1644362148648530944,2022-02-08-23:15:48,10.1.1.4,39,0.000,0.000,0.000,0.000,0.000,0.000
1644362148748331008,2022-02-08-23:15:48,10.1.1.4,36,-0.010,-0.010,-0.010,0.000,0.000,0.000
1644362149148841984,2022-02-08-23:15:49,10.1.1.4,27,-0.050,-0.050,-0.050,0.000,0.000,0.000
1644362149248392960,2022-02-08-23:15:49,10.1.1.4,26,-0.060,-0.060,-0.060,0.000,0.000,0.000
1644362149348648192,2022-02-08-23:15:49,10.1.1.4,25,-0.070,-0.070,-0.070,0.000,0.000,0.000
1644362149873684992,2022-02-08-23:15:49,10.1.1.4,38,-0.080,-0.080,-0.080,0.000,0.000,0.000
1644362149969991936,2022-02-08-23:15:49,10.1.1.4,38,-0.070,-0.070,-0.070,0.000,0.000,0.000
1644362150069287168,2022-02-08-23:15:50,10.1.1.4,37,-0.060,-0.060,-0.060,0.000,0.000,0.000
1644362150169198080,2022-02-08-23:15:50,10.1.1.4,36,-0.050,-0.050,-0.050,0.000,0.000,0.000
1644362150269200128,2022-02-08-23:15:50,10.1.1.4,36,-0.040,-0.040,-0.040,0.000,0.000,0.000
1644362150368987136,2022-02-08-23:15:50,10.1.1.4,36,-0.030,-0.030,-0.030,0.000,0.000,0.000
1644362150469691136,2022-02-08-23:15:50,10.1.1.4,35,-0.020,-0.020,-0.020,0.000,0.000,0.000
1644362150770692096,2022-02-08-23:15:50,10.1.1.4,27,0.010,0.010,0.010,0.000,0.000,0.000
1644362150869408000,2022-02-08-23:15:50,10.1.1.4,27,0.020,0.020,0.020,0.000,0.000,0.000
1644362150969829120,2022-02-08-23:15:50,10.1.1.4,25,0.030,0.030,0.030,0.000,0.000,0.000
1644362152388881920,2022-02-08-23:15:52,10.1.1.4,17,0.030,0.030,0.030,0.000,0.000,0.000
1644362152509197824,2022-02-08-23:15:52,10.1.1.4,36,0.020,0.020,0.020,0.000,0.000,0.000
1644362152608465920,2022-02-08-23:15:52,10.1.1.4,36,0.010,0.010,0.010,0.000,0.000,0.000
1644362152708107008,2022-02-08-23:15:52,10.1.1.4,35,0.000,0.000,0.000,0.000,0.000,0.000
1644362152808253952,2022-02-08-23:15:52,10.1.1.4,34,-0.010,-0.010,-0.010,0.000,0.000,0.000
1644362153119127040,2022-02-08-23:15:53,10.1.1.4,28,-0.040,-0.040,-0.040,0.000,0.000,0.000
1644362153209355008,2022-02-08-23:15:53,10.1.1.4,25,-0.050,-0.050,-0.050,0.000,0.000,0.000
1644362153308958976,2022-02-08-23:15:53,10.1.1.4,25,-0.060,-0.060,-0.060,0.000,0.000,0.000
1644362153731077888,2022-02-08-23:15:53,10.1.1.4,37,-0.100,-0.100,-0.100,0.000,0.000,0.000
1644362153832112128,2022-02-08-23:15:53,10.1.1.4,38,-0.090,-0.090,-0.090,0.000,0.000,0.000
1644362153928091904,2022-02-08-23:15:53,10.1.1.4,36,-0.080,-0.080,-0.080,0.000,0.000,0.000
1644362154028484096,2022-02-08-23:15:54,10.1.1.4,35,-0.070,-0.070,-0.070,0.000,0.000,0.000
1644362154128128000,2022-02-08-23:15:54,10.1.1.4,35,-0.060,-0.060,-0.060,0.000,0.000,0.000
1644362154228823040,2022-02-08-23:15:54,10.1.1.4,35,-0.050,-0.050,-0.050,0.000,0.000,0.000
1644362154931275008,2022-02-08-23:15:54,10.1.1.4,30,0.020,0.020,0.020,0.000,0.000,0.000
1644362155029622016,2022-02-08-23:15:55,10.1.1.4,29,0.030,0.030,0.030,0.000,0.000,0.000
1644362155131100928,2022-02-08-23:15:55,10.1.1.4,28,0.040,0.040,0.040,0.000,0.000,0.000
1644362155230659072,2022-02-08-23:15:55,10.1.1.4,28,0.050,0.050,0.050,0.000,0.000,0.000
1644362155351124992,2022-02-08-23:15:55,10.1.1.4,27,0.060,0.060,0.060,0.000,0.000,0.000
1644362155429702912,2022-02-08-23:15:55,10.1.1.4,26,0.070,0.070,0.070,0.000,0.000,0.000
1644362155530781952,2022-02-08-23:15:55,10.1.1.4,25,0.080,0.080,0.080,0.000,0.000,0.000
1644362155629677056,2022-02-08-23:15:55,10.1.1.4,25,0.090,0.090,0.090,0.000,0.000,0.000
1644362155810631936,2022-02-08-23:15:55,10.1.1.4,4,0.090,0.090,0.090,0.000,0.000,0.000
1644362156650237952,2022-02-08-23:15:56,10.1.1.4,39,0.010,0.010,0.010,0.000,0.000,0.000
1644362156749926144,2022-02-08-23:15:56,10.1.1.4,39,-0.000,-0.000,-0.000,0.000,0.000,0.000
1644362156849682944,2022-02-08-23:15:56,10.1.1.4,38,-0.010,-0.010,-0.010,0.000,0.000,0.000
1644362156949974016,2022-02-08-23:15:56,10.1.1.4,38,-0.020,-0.020,-0.020,0.000,0.000,0.000
1644362157048957184,2022-02-08-23:15:57,10.1.1.4,37,-0.030,-0.030,-0.030,0.000,0.000,0.000
1644362157189719040,2022-02-08-23:15:57,10.1.1.4,36,-0.040,-0.040,-0.040,0.000,0.000,0.000
1644362157251364864,2022-02-08-23:15:57,10.1.1.4,35,-0.050,-0.050,-0.050,0.000,0.000,0.000
1644362157350130944,2022-02-08-23:15:57,10.1.1.4,35,-0.060,-0.060,-0.060,0.000,0.000,0.000
1644362157448481024,2022-02-08-23:15:57,10.1.1.4,35,-0.070,-0.070,-0.070,0.000,0.000,0.000
1644362158030371840,2022-02-08-23:15:58,10.1.1.4,11,-0.070,-0.070,-0.070,0.000,0.000,0.000
1644362158449981952,2022-02-08-23:15:58,10.1.1.4,29,-0.030,-0.030,-0.030,0.000,0.000,0.000
1644362158551139072,2022-02-08-23:15:58,10.1.1.4,28,-0.020,-0.020,-0.020,0.000,0.000,0.000
1644362158650598144,2022-02-08-23:15:58,10.1.1.4,27,-0.010,-0.010,-0.010,0.000,0.000,0.000
1644362158749670912,2022-02-08-23:15:58,10.1.1.4,27,0.000,0.000,0.000,0.000,0.000,0.000
1644362158849852160,2022-02-08-23:15:58,10.1.1.4,26,0.010,0.010,0.010,0.000,0.000,0.000
1644362158948843008,2022-02-08-23:15:58,10.1.1.4,26,0.020,0.020,0.020,0.000,0.000,0.000
1644362159049424896,2022-02-08-23:15:59,10.1.1.4,25,0.030,0.030,0.030,0.000,0.000,0.000
1644362159163252224,2022-02-08-23:15:59,10.1.1.4,25,0.040,0.040,0.040,0.000,0.000,0.000
1644362160172032000,2022-02-08-23:16:00,10.1.1.4,39,0.060,0.060,0.060,0.000,0.000,0.000
1644362160268737024,2022-02-08-23:16:00,10.1.1.4,38,0.050,0.050,0.050,0.000,0.000,0.000
1644362160371504128,2022-02-08-23:16:00,10.1.1.4,38,0.040,0.040,0.040,0.000,0.000,0.000
1644362160470673152,2022-02-08-23:16:00,10.1.1.4,38,0.030,0.030,0.030,0.000,0.000,0.000
1644362160570611968,2022-02-08-23:16:00,10.1.1.4,37,0.020,0.020,0.020,0.000,0.000,0.000
1644362160670908928,2022-02-08-23:16:00,10.1.1.4,36,0.010,0.010,0.010,0.000,0.000,0.000
1644362160768548096,2022-02-08-23:16:00,10.1.1.4,35,0.000,0.000,0.000,0.000,0.000,0.000
1644362160868411136,2022-02-08-23:16:00,10.1.1.4,35,-0.010,-0.010,-0.010,0.000,0.000,0.000
1644362160970980864,2022-02-08-23:16:00,10.1.1.4,35,-0.020,-0.020,-0.020,0.000,0.000,0.000
1644362161668752896,2022-02-08-23:16:01,10.1.1.4,29,-0.090,-0.090,-0.090,0.000,0.000,0.000
1644362161768434944,2022-02-08-23:16:01,10.1.1.4,29,-0.100,-0.100,-0.100,0.000,0.000,0.000
1644362161868037888,2022-02-08-23:16:01,10.1.1.4,28,-0.090,-0.090,-0.090,0.000,0.000,0.000
1644362161968497920,2022-02-08-23:16:01,10.1.1.4,28,-0.080,-0.080,-0.080,0.000,0.000,0.000
1644362162068973056,2022-02-08-23:16:02,10.1.1.4,29,-0.070,-0.070,-0.070,0.000,0.000,0.000
1644362162168977920,2022-02-08-23:16:02,10.1.1.4,27,-0.060,-0.060,-0.060,0.000,0.000,0.000
1644362162275203072,2022-02-08-23:16:02,10.1.1.4,26,-0.050,-0.050,-0.050,0.000,0.000,0.000
1644362163288439040,2022-02-08-23:16:03,10.1.1.4,39,0.050,0.050,0.050,0.000,0.000,0.000
1644362163388050944,2022-02-08-23:16:03,10.1.1.4,39,0.060,0.060,0.060,0.000,0.000,0.000
1644362163488809216,2022-02-08-23:16:03,10.1.1.4,39,0.070,0.070,0.070,0.000,0.000,0.000
1644362163588517888,2022-02-08-23:16:03,10.1.1.4,38,0.080,0.080,0.080,0.000,0.000,0.000
1644362163689651968,2022-02-08-23:16:03,10.1.1.4,37,0.090,0.090,0.090,0.000,0.000,0.000
1644362163791668992,2022-02-08-23:16:03,10.1.1.4,36,0.100,0.100,0.100,0.000,0.000,0.000
1644362163888884992,2022-02-08-23:16:03,10.1.1.4,36,0.090,0.090,0.090,0.000,0.000,0.000
1644362163990232832,2022-02-08-23:16:03,10.1.1.4,35,0.080,0.080,0.080,0.000,0.000,0.000
1644362164089539072,2022-02-08-23:16:04,10.1.1.4,35,0.070,0.070,0.070,0.000,0.000,0.000
1644362164991616000,2022-02-08-23:16:04,10.1.1.4,30,-0.020,-0.020,-0.020,0.000,0.000,0.000
1644362165088924928,2022-02-08-23:16:05,10.1.1.4,29,-0.030,-0.030,-0.030,0.000,0.000,0.000
1644362165188910080,2022-02-08-23:16:05,10.1.1.4,28,-0.040,-0.040,-0.040,0.000,0.000,0.000
1644362165288093184,2022-02-08-23:16:05,10.1.1.4,28,-0.050,-0.050,-0.050,0.000,0.000,0.000
1644362165388627968,2022-02-08-23:16:05,10.1.1.4,27,-0.060,-0.060,-0.060,0.000,0.000,0.000
1644362165488368896,2022-02-08-23:16:05,10.1.1.4,27,-0.070,-0.070,-0.070,0.000,0.000,0.000
1644362165588443904,2022-02-08-23:16:05,10.1.1.4,27,-0.080,-0.080,-0.080,0.000,0.000,0.000
1644362165689372928,2022-02-08-23:16:05,10.1.1.4,26,-0.090,-0.090,-0.090,0.000,0.000,0.000
1644362165789508096,2022-02-08-23:16:05,10.1.1.4,27,-0.100,-0.100,-0.100,0.000,0.000,0.000
1644362165888137984,2022-02-08-23:16:05,10.1.1.4,25,-0.090,-0.090,-0.090,0.000,0.000,0.000
1644362165991862016,2022-02-08-23:16:05,10.1.1.4,25,-0.080,-0.080,-0.080,0.000,0.000,0.000
1644362166088604928,2022-02-08-23:16:06,10.1.1.4,24,-0.070,-0.070,-0.070,0.000,0.000,0.000
1644362167008083200,2022-02-08-23:16:07,10.1.1.4,39,0.020,0.020,0.020,0.000,0.000,0.000
1644362167109208064,2022-02-08-23:16:07,10.1.1.4,39,0.030,0.030,0.030,0.000,0.000,0.000
1644362167208246016,2022-02-08-23:16:07,10.1.1.4,38,0.040,0.040,0.040,0.000,0.000,0.000
1644362167308270848,2022-02-08-23:16:07,10.1.1.4,38,0.050,0.050,0.050,0.000,0.000,0.000
1644362167408150784,2022-02-08-23:16:07,10.1.1.4,37,0.060,0.060,0.060,0.000,0.000,0.000
1644362167509851904,2022-02-08-23:16:07,10.1.1.4,36,0.070,0.070,0.070,0.000,0.000,0.000
1644362167608153088,2022-02-08-23:16:07,10.1.1.4,35,0.080,0.080,0.080,0.000,0.000,0.000
1644362167992721152,2022-02-08-23:16:07,10.1.1.4,12,0.080,0.080,0.080,0.000,0.000,0.000
1644362168308391936,2022-02-08-23:16:08,10.1.1.4,29,0.050,0.050,0.050,0.000,0.000,0.000
1644362168408620032,2022-02-08-23:16:08,10.1.1.4,28,0.040,0.040,0.040,0.000,0.000,0.000
1644362168509737984,2022-02-08-23:16:08,10.1.1.4,28,0.030,0.030,0.030,0.000,0.000,0.000
1644362168608741120,2022-02-08-23:16:08,10.1.1.4,26,0.020,0.020,0.020,0.000,0.000,0.000
1644362168709091840,2022-02-08-23:16:08,10.1.1.4,25,0.010,0.010,0.010,0.000,0.000,0.000
1644362169228683008,2022-02-08-23:16:09,10.1.1.4,39,-0.040,-0.040,-0.040,0.000,0.000,0.000
1644362169328583936,2022-02-08-23:16:09,10.1.1.4,39,-0.050,-0.050,-0.050,0.000,0.000,0.000
1644362169429382144,2022-02-08-23:16:09,10.1.1.4,39,-0.060,-0.060,-0.060,0.000,0.000,0.000
1644362169528475904,2022-02-08-23:16:09,10.1.1.4,38,-0.070,-0.070,-0.070,0.000,0.000,0.000
1644362169628744960,2022-02-08-23:16:09,10.1.1.4,37,-0.080,-0.080,-0.080,0.000,0.000,0.000
1644362169728642048,2022-02-08-23:16:09,10.1.1.4,37,-0.090,-0.090,-0.090,0.000,0.000,0.000
1644362169828697088,2022-02-08-23:16:09,10.1.1.4,36,-0.100,-0.100,-0.100,0.000,0.000,0.000
1644362169931563008,2022-02-08-23:16:09,10.1.1.4,37,-0.090,-0.090,-0.090,0.000,0.000,0.000
1644362170029262080,2022-02-08-23:16:10,10.1.1.4,36,-0.080,-0.080,-0.080,0.000,0.000,0.000
1644362171128571904,2022-02-08-23:16:11,10.1.1.4,29,0.030,0.030,0.030,0.000,0.000,0.000
1644362171228729856,2022-02-08-23:16:11,10.1.1.4,28,0.040,0.040,0.040,0.000,0.000,0.000
1644362171329339136,2022-02-08-23:16:11,10.1.1.4,28,0.050,0.050,0.050,0.000,0.000,0.000
1644362171428561920,2022-02-08-23:16:11,10.1.1.4,27,0.060,0.060,0.060,0.000,0.000,0.000
1644362171528583168,2022-02-08-23:16:11,10.1.1.4,27,0.070,0.070,0.070,0.000,0.000,0.000
1644362171628765184,2022-02-08-23:16:11,10.1.1.4,26,0.080,0.080,0.080,0.000,0.000,0.000
1644362171728126976,2022-02-08-23:16:11,10.1.1.4,26,0.090,0.090,0.090,0.000,0.000,0.000
1644362171828676096,2022-02-08-23:16:11,10.1.1.4,25,0.100,0.100,0.100,0.000,0.000,0.000
1644362171928410880,2022-02-08-23:16:11,10.1.1.4,25,0.090,0.090,0.090,0.000,0.000,0.000
1644362172028780032,2022-02-08-23:16:12,10.1.1.4,24,0.080,0.080,0.080,0.000,0.000,0.000
1644362172748488960,2022-02-08-23:16:12,10.1.1.4,39,0.010,0.010,0.010,0.000,0.000,0.000
1644362172848488960,2022-02-08-23:16:12,10.1.1.4,39,0.000,0.000,0.000,0.000,0.000,0.000
1644362172948137984,2022-02-08-23:16:12,10.1.1.4,38,-0.010,-0.010,-0.010,0.000,0.000,0.000
1644362173049331968,2022-02-08-23:16:13,10.1.1.4,38,-0.020,-0.020,-0.020,0.000,0.000,0.000
1644362173149117952,2022-02-08-23:16:13,10.1.1.4,37,-0.030,-0.030,-0.030,0.000,0.000,0.000
1644362173248326912,2022-02-08-23:16:13,10.1.1.4,37,-0.040,-0.040,-0.040,0.000,0.000,0.000
1644362173448705024,2022-02-08-23:16:13,10.1.1.4,35,-0.060,-0.060,-0.060,0.000,0.000,0.000
1644362174149138944,2022-02-08-23:16:14,10.1.1.4,30,-0.070,-0.070,-0.070,0.000,0.000,0.000
1644362174349443072,2022-02-08-23:16:14,10.1.1.4,29,-0.050,-0.050,-0.050,0.000,0.000,0.000
1644362174449306112,2022-02-08-23:16:14,10.1.1.4,29,-0.040,-0.040,-0.040,0.000,0.000,0.000
1644362174550825216,2022-02-08-23:16:14,10.1.1.4,28,-0.030,-0.030,-0.030,0.000,0.000,0.000
1644362174649046016,2022-02-08-23:16:14,10.1.1.4,28,-0.020,-0.020,-0.020,0.000,0.000,0.000
1644362174748657920,2022-02-08-23:16:14,10.1.1.4,27,-0.010,-0.010,-0.010,0.000,0.000,0.000
1644362174848176896,2022-02-08-23:16:14,10.1.1.4,27,0.000,0.000,0.000,0.000,0.000,0.000
1644362174948389120,2022-02-08-23:16:14,10.1.1.4,26,0.010,0.010,0.010,0.000,0.000,0.000
1644362175048993024,2022-02-08-23:16:15,10.1.1.4,26,0.020,0.020,0.020,0.000,0.000,0.000
1644362175149904896,2022-02-08-23:16:15,10.1.1.4,26,0.030,0.030,0.030,0.000,0.000,0.000
1644362175251111936,2022-02-08-23:16:15,10.1.1.4,25,0.040,0.040,0.040,0.000,0.000,0.000
1644362175348275968,2022-02-08-23:16:15,10.1.1.4,25,0.050,0.050,0.050,0.000,0.000,0.000
1644362175451478016,2022-02-08-23:16:15,10.1.1.4,24,0.060,0.060,0.060,0.000,0.000,0.000
1644362175548211200,2022-02-08-23:16:15,10.1.1.4,24,0.070,0.070,0.070,0.000,0.000,0.000
1644362176148292096,2022-02-08-23:16:16,10.1.1.4,20,0.070,0.070,0.070,0.000,0.000,0.000
1644362176268076032,2022-02-08-23:16:16,10.1.1.4,39,0.060,0.060,0.060,0.000,0.000,0.000
1644362176368361984,2022-02-08-23:16:16,10.1.1.4,39,0.050,0.050,0.050,0.000,0.000,0.000
1644362176468976128,2022-02-08-23:16:16,10.1.1.4,39,0.040,0.040,0.040,0.000,0.000,0.000
1644362176669080064,2022-02-08-23:16:16,10.1.1.4,37,0.020,0.020,0.020,0.000,0.000,0.000
1644362176768589056,2022-02-08-23:16:16,10.1.1.4,37,0.010,0.010,0.010,0.000,0.000,0.000
1644362176868876032,2022-02-08-23:16:16,10.1.1.4,36,0.000,0.000,0.000,0.000,0.000,0.000
1644362176968238080,2022-02-08-23:16:16,10.1.1.4,36,-0.010,-0.010,-0.010,0.000,0.000,0.000
1644362177068051200,2022-02-08-23:16:17,10.1.1.4,36,-0.020,-0.020,-0.020,0.000,0.000,0.000
1644362178269143040,2022-02-08-23:16:18,10.1.1.4,29,-0.060,-0.060,-0.060,0.000,0.000,0.000
1644362178369404928,2022-02-08-23:16:18,10.1.1.4,29,-0.050,-0.050,-0.050,0.000,0.000,0.000
1644362178468094208,2022-02-08-23:16:18,10.1.1.4,28,-0.040,-0.040,-0.040,0.000,0.000,0.000
1644362178568361984,2022-02-08-23:16:18,10.1.1.4,27,-0.030,-0.030,-0.030,0.000,0.000,0.000
1644362178668742912,2022-02-08-23:16:18,10.1.1.4,27,-0.020,-0.020,-0.020,0.000,0.000,0.000
1644362178768030976,2022-02-08-23:16:18,10.1.1.4,26,-0.010,-0.010,-0.010,0.000,0.000,0.000
1644362178868338176,2022-02-08-23:16:18,10.1.1.4,26,0.000,0.000,0.000,0.000,0.000,0.000
1644362179388973056,2022-02-08-23:16:19,10.1.1.4,39,0.050,0.050,0.050,0.000,0.000,0.000
1644362179488698880,2022-02-08-23:16:19,10.1.1.4,39,0.060,0.060,0.060,0.000,0.000,0.000
1644362179590750976,2022-02-08-23:16:19,10.1.1.4,39,0.070,0.070,0.070,0.000,0.000,0.000
1644362179688110080,2022-02-08-23:16:19,10.1.1.4,38,0.080,0.080,0.080,0.000,0.000,0.000
1644362179788850176,2022-02-08-23:16:19,10.1.1.4,37,0.090,0.090,0.090,0.000,0.000,0.000
1644362179888380928,2022-02-08-23:16:19,10.1.1.4,36,0.100,0.100,0.100,0.000,0.000,0.000
1644362180988646912,2022-02-08-23:16:20,10.1.1.4,29,-0.010,-0.010,-0.010,0.000,0.000,0.000
1644362181088728064,2022-02-08-23:16:21,10.1.1.4,29,-0.020,-0.020,-0.020,0.000,0.000,0.000
1644362181189235968,2022-02-08-23:16:21,10.1.1.4,28,-0.030,-0.030,-0.030,0.000,0.000,0.000
1644362181288430848,2022-02-08-23:16:21,10.1.1.4,28,-0.040,-0.040,-0.040,0.000,0.000,0.000
1644362181389612800,2022-02-08-23:16:21,10.1.1.4,28,-0.050,-0.050,-0.050,0.000,0.000,0.000
1644362181491137024,2022-02-08-23:16:21,10.1.1.4,27,-0.060,-0.060,-0.060,0.000,0.000,0.000
1644362181588182016,2022-02-08-23:16:21,10.1.1.4,27,-0.070,-0.070,-0.070,0.000,0.000,0.000
1644362181688327936,2022-02-08-23:16:21,10.1.1.4,26,-0.080,-0.080,-0.080,0.000,0.000,0.000
1644362181789312000,2022-02-08-23:16:21,10.1.1.4,26,-0.090,-0.090,-0.090,0.000,0.000,0.000
1644362181888495872,2022-02-08-23:16:21,10.1.1.4,25,-0.100,-0.100,-0.100,0.000,0.000,0.000
1644362181988434944,2022-02-08-23:16:21,10.1.1.4,25,-0.090,-0.090,-0.090,0.000,0.000,0.000
1644362182889265152,2022-02-08-23:16:22,10.1.1.4,20,-0.000,-0.000,-0.000,0.000,0.000,0.000
1644362183009399040,2022-02-08-23:16:23,10.1.1.4,38,0.010,0.010,0.010,0.000,0.000,0.000
1644362183108110848,2022-02-08-23:16:23,10.1.1.4,38,0.020,0.020,0.020,0.000,0.000,0.000
1644362183208879104,2022-02-08-23:16:23,10.1.1.4,37,0.030,0.030,0.030,0.000,0.000,0.000
1644362183308211968,2022-02-08-23:16:23,10.1.1.4,37,0.040,0.040,0.040,0.000,0.000,0.000
1644362183409511168,2022-02-08-23:16:23,10.1.1.4,36,0.050,0.050,0.050,0.000,0.000,0.000
1644362183517524992,2022-02-08-23:16:23,10.1.1.4,36,0.060,0.060,0.060,0.000,0.000,0.000
1644362183608760064,2022-02-08-23:16:23,10.1.1.4,36,0.070,0.070,0.070,0.000,0.000,0.000
1644362183710475008,2022-02-08-23:16:23,10.1.1.4,35,0.080,0.080,0.080,0.000,0.000,0.000
1644362183808804864,2022-02-08-23:16:23,10.1.1.4,35,0.090,0.090,0.090,0.000,0.000,0.000
1644362183988305920,2022-02-08-23:16:23,10.1.1.4,13,0.090,0.090,0.090,0.000,0.000,0.000
1644362184509358848,2022-02-08-23:16:24,10.1.1.4,30,0.040,0.040,0.040,0.000,0.000,0.000
1644362184609195008,2022-02-08-23:16:24,10.1.1.4,29,0.030,0.030,0.030,0.000,0.000,0.000
1644362184709033984,2022-02-08-23:16:24,10.1.1.4,29,0.020,0.020,0.020,0.000,0.000,0.000
1644362184808465920,2022-02-08-23:16:24,10.1.1.4,28,0.010,0.010,0.010,0.000,0.000,0.000
1644362184908400896,2022-02-08-23:16:24,10.1.1.4,28,0.000,0.000,0.000,0.000,0.000,0.000
1644362185008587008,2022-02-08-23:16:25,10.1.1.4,28,-0.010,-0.010,-0.010,0.000,0.000,0.000
1644362185108772096,2022-02-08-23:16:25,10.1.1.4,27,-0.020,-0.020,-0.020,0.000,0.000,0.000
1644362185208637952,2022-02-08-23:16:25,10.1.1.4,27,-0.030,-0.030,-0.030,0.000,0.000,0.000
1644362185309477120,2022-02-08-23:16:25,10.1.1.4,26,-0.040,-0.040,-0.040,0.000,0.000,0.000
1644362185808470016,2022-02-08-23:16:25,10.1.1.4,20,-0.090,-0.090,-0.090,0.000,0.000,0.000
1644362185928436992,2022-02-08-23:16:25,10.1.1.4,39,-0.100,-0.100,-0.100,0.000,0.000,0.000
1644362186029563904,2022-02-08-23:16:26,10.1.1.4,38,-0.090,-0.090,-0.090,0.000,0.000,0.000
1644362186128268032,2022-02-08-23:16:26,10.1.1.4,38,-0.080,-0.080,-0.080,0.000,0.000,0.000
1644362186227823872,2022-02-08-23:16:26,10.1.1.4,36,-0.070,-0.070,-0.070,0.000,0.000,0.000
1644362186328475904,2022-02-08-23:16:26,10.1.1.4,36,-0.060,-0.060,-0.060,0.000,0.000,0.000
1644362186428288000,2022-02-08-23:16:26,10.1.1.4,35,-0.050,-0.050,-0.050,0.000,0.000,0.000
1644362186970308096,2022-02-08-23:16:26,10.1.1.4,37,0.000,0.000,0.000,0.000,0.000,0.000
1644362187068474112,2022-02-08-23:16:27,10.1.1.4,37,0.010,0.010,0.010,0.000,0.000,0.000
1644362187168681984,2022-02-08-23:16:27,10.1.1.4,36,0.020,0.020,0.020,0.000,0.000,0.000
1644362187268407040,2022-02-08-23:16:27,10.1.1.4,36,0.030,0.030,0.030,0.000,0.000,0.000
1644362187369088000,2022-02-08-23:16:27,10.1.1.4,36,0.040,0.040,0.040,0.000,0.000,0.000
1644362188468549120,2022-02-08-23:16:28,10.1.1.4,28,0.050,0.050,0.050,0.000,0.000,0.000
1644362188568193024,2022-02-08-23:16:28,10.1.1.4,28,0.040,0.040,0.040,0.000,0.000,0.000
1644362188668311040,2022-02-08-23:16:28,10.1.1.4,27,0.030,0.030,0.030,0.000,0.000,0.000
1644362188768487936,2022-02-08-23:16:28,10.1.1.4,27,0.020,0.020,0.020,0.000,0.000,0.000
1644362188868169984,2022-02-08-23:16:28,10.1.1.4,27,0.010,0.010,0.010,0.000,0.000,0.000
1644362188968143104,2022-02-08-23:16:28,10.1.1.4,26,0.000,0.000,0.000,0.000,0.000,0.000
1644362189069099008,2022-02-08-23:16:29,10.1.1.4,25,-0.010,-0.010,-0.010,0.000,0.000,0.000
1644362189168354048,2022-02-08-23:16:29,10.1.1.4,25,-0.020,-0.020,-0.020,0.000,0.000,0.000
1644362190189291008,2022-02-08-23:16:30,10.1.1.4,39,-0.080,-0.080,-0.080,0.000,0.000,0.000
1644362190288592128,2022-02-08-23:16:30,10.1.1.4,39,-0.070,-0.070,-0.070,0.000,0.000,0.000
1644362190369371904,2022-02-08-23:16:30,10.1.1.4,18,-0.060,-0.060,-0.060,0.000,0.000,0.000
1644362190489700096,2022-02-08-23:16:30,10.1.1.4,38,-0.050,-0.050,-0.050,0.000,0.000,0.000
1644362190591847936,2022-02-08-23:16:30,10.1.1.4,38,-0.040,-0.040,-0.040,0.000,0.000,0.000
1644362190690906112,2022-02-08-23:16:30,10.1.1.4,37,-0.030,-0.030,-0.030,0.000,0.000,0.000
1644362190794949120,2022-02-08-23:16:30,10.1.1.4,38,-0.020,-0.020,-0.020,0.000,0.000,0.000
1644362190892795136,2022-02-08-23:16:30,10.1.1.4,36,-0.010,-0.010,-0.010,0.000,0.000,0.000
1644362190993393920,2022-02-08-23:16:30,10.1.1.4,35,0.000,0.000,0.000,0.000,0.000,0.000
1644362191791049984,2022-02-08-23:16:31,10.1.1.4,28,0.080,0.080,0.080,0.000,0.000,0.000
1644362192111372032,2022-02-08-23:16:32,10.1.1.4,39,0.090,0.090,0.090,0.000,0.000,0.000
1644362192211307008,2022-02-08-23:16:32,10.1.1.4,39,0.080,0.080,0.080,0.000,0.000,0.000
1644362192311013888,2022-02-08-23:16:32,10.1.1.4,38,0.070,0.070,0.070,0.000,0.000,0.000
1644362192411410944,2022-02-08-23:16:32,10.1.1.4,37,0.060,0.060,0.060,0.000,0.000,0.000
1644362192510919936,2022-02-08-23:16:32,10.1.1.4,37,0.050,0.050,0.050,0.000,0.000,0.000
1644362192611056128,2022-02-08-23:16:32,10.1.1.4,36,0.040,0.040,0.040,0.000,0.000,0.000
1644362192711049984,2022-02-08-23:16:32,10.1.1.4,35,0.030,0.030,0.030,0.000,0.000,0.000
1644362192808947968,2022-02-08-23:16:32,10.1.1.4,34,0.020,0.020,0.020,0.000,0.000,0.000
1644362193609144064,2022-02-08-23:16:33,10.1.1.4,29,-0.060,-0.060,-0.060,0.000,0.000,0.000
1644362193711170048,2022-02-08-23:16:33,10.1.1.4,29,-0.070,-0.070,-0.070,0.000,0.000,0.000
1644362193808857856,2022-02-08-23:16:33,10.1.1.4,28,-0.080,-0.080,-0.080,0.000,0.000,0.000
1644362193908529920,2022-02-08-23:16:33,10.1.1.4,27,-0.090,-0.090,-0.090,0.000,0.000,0.000
1644362194011400960,2022-02-08-23:16:34,10.1.1.4,27,-0.100,-0.100,-0.100,0.000,0.000,0.000
1644362194108908032,2022-02-08-23:16:34,10.1.1.4,26,-0.090,-0.090,-0.090,0.000,0.000,0.000
1644362194209031936,2022-02-08-23:16:34,10.1.1.4,25,-0.080,-0.080,-0.080,0.000,0.000,0.000
1644362194930255872,2022-02-08-23:16:34,10.1.1.4,37,-0.010,-0.010,-0.010,0.000,0.000,0.000
1644362195030478080,2022-02-08-23:16:35,10.1.1.4,37,0.000,0.000,0.000,0.000,0.000,0.000
1644362195128557056,2022-02-08-23:16:35,10.1.1.4,36,0.010,0.010,0.010,0.000,0.000,0.000
1644362195230691840,2022-02-08-23:16:35,10.1.1.4,35,0.020,0.020,0.020,0.000,0.000,0.000
1644362196031598080,2022-02-08-23:16:36,10.1.1.4,30,0.100,0.100,0.100,0.000,0.000,0.000
1644362196129029120,2022-02-08-23:16:36,10.1.1.4,28,0.090,0.090,0.090,0.000,0.000,0.000
1644362196229192960,2022-02-08-23:16:36,10.1.1.4,28,0.080,0.080,0.080,0.000,0.000,0.000
1644362196332942848,2022-02-08-23:16:36,10.1.1.4,27,0.070,0.070,0.070,0.000,0.000,0.000
1644362196429430016,2022-02-08-23:16:36,10.1.1.4,26,0.060,0.060,0.060,0.000,0.000,0.000
1644362196529072896,2022-02-08-23:16:36,10.1.1.4,26,0.050,0.050,0.050,0.000,0.000,0.000
1644362196629415936,2022-02-08-23:16:36,10.1.1.4,25,0.040,0.040,0.040,0.000,0.000,0.000
1644362197249093888,2022-02-08-23:16:37,10.1.1.4,39,-0.020,-0.020,-0.020,0.000,0.000,0.000
1644362197349054208,2022-02-08-23:16:37,10.1.1.4,38,-0.030,-0.030,-0.030,0.000,0.000,0.000
1644362197448622080,2022-02-08-23:16:37,10.1.1.4,37,-0.040,-0.040,-0.040,0.000,0.000,0.000
1644362197549638912,2022-02-08-23:16:37,10.1.1.4,36,-0.050,-0.050,-0.050,0.000,0.000,0.000
1644362197648924160,2022-02-08-23:16:37,10.1.1.4,36,-0.060,-0.060,-0.060,0.000,0.000,0.000
1644362197748492032,2022-02-08-23:16:37,10.1.1.4,35,-0.070,-0.070,-0.070,0.000,0.000,0.000
1644362198329377024,2022-02-08-23:16:38,10.1.1.4,11,-0.070,-0.070,-0.070,0.000,0.000,0.000
1644362198549007872,2022-02-08-23:16:38,10.1.1.4,29,-0.050,-0.050,-0.050,0.000,0.000,0.000
1644362198650029824,2022-02-08-23:16:38,10.1.1.4,28,-0.040,-0.040,-0.040,0.000,0.000,0.000
1644362198749882880,2022-02-08-23:16:38,10.1.1.4,28,-0.030,-0.030,-0.030,0.000,0.000,0.000
1644362198851006976,2022-02-08-23:16:38,10.1.1.4,27,-0.020,-0.020,-0.020,0.000,0.000,0.000
1644362198951617024,2022-02-08-23:16:38,10.1.1.4,27,-0.010,-0.010,-0.010,0.000,0.000,0.000
1644362199051625984,2022-02-08-23:16:39,10.1.1.4,26,0.000,0.000,0.000,0.000,0.000,0.000
1644362199149197056,2022-02-08-23:16:39,10.1.1.4,25,0.010,0.010,0.010,0.000,0.000,0.000
1644362200069256192,2022-02-08-23:16:40,10.1.1.4,38,0.100,0.100,0.100,0.000,0.000,0.000
1644362200169225984,2022-02-08-23:16:40,10.1.1.4,38,0.090,0.090,0.090,0.000,0.000,0.000
1644362200252321024,2022-02-08-23:16:40,10.1.1.4,19,0.080,0.080,0.080,0.000,0.000,0.000
1644362200568141824,2022-02-08-23:16:40,10.1.1.4,34,0.050,0.050,0.050,0.000,0.000,0.000
1644362201468905984,2022-02-08-23:16:41,10.1.1.4,28,-0.040,-0.040,-0.040,0.000,0.000,0.000
1644362201569231104,2022-02-08-23:16:41,10.1.1.4,27,-0.050,-0.050,-0.050,0.000,0.000,0.000
1644362201668258048,2022-02-08-23:16:41,10.1.1.4,26,-0.060,-0.060,-0.060,0.000,0.000,0.000
1644362201768747008,2022-02-08-23:16:41,10.1.1.4,25,-0.070,-0.070,-0.070,0.000,0.000,0.000
1644362201868468992,2022-02-08-23:16:41,10.1.1.4,25,-0.080,-0.080,-0.080,0.000,0.000,0.000
1644362202267962880,2022-02-08-23:16:42,10.1.1.4,21,-0.080,-0.080,-0.080,0.000,0.000,0.000
1644362202589238784,2022-02-08-23:16:42,10.1.1.4,39,-0.050,-0.050,-0.050,0.000,0.000,0.000
1644362202688847104,2022-02-08-23:16:42,10.1.1.4,38,-0.040,-0.040,-0.040,0.000,0.000,0.000
1644362202788423936,2022-02-08-23:16:42,10.1.1.4,37,-0.030,-0.030,-0.030,0.000,0.000,0.000
1644362202888354048,2022-02-08-23:16:42,10.1.1.4,36,-0.020,-0.020,-0.020,0.000,0.000,0.000
1644362202988471040,2022-02-08-23:16:42,10.1.1.4,36,-0.010,-0.010,-0.010,0.000,0.000,0.000
1644362203088551168,2022-02-08-23:16:43,10.1.1.4,34,0.000,0.000,0.000,0.000,0.000,0.000
1644362203488610048,2022-02-08-23:16:43,10.1.1.4,29,0.040,0.040,0.040,0.000,0.000,0.000
1644362203588340992,2022-02-08-23:16:43,10.1.1.4,29,0.050,0.050,0.050,0.000,0.000,0.000
1644362203691142144,2022-02-08-23:16:43,10.1.1.4,28,0.060,0.060,0.060,0.000,0.000,0.000
1644362203788151040,2022-02-08-23:16:43,10.1.1.4,28,0.070,0.070,0.070,0.000,0.000,0.000
1644362203888097024,2022-02-08-23:16:43,10.1.1.4,27,0.080,0.080,0.080,0.000,0.000,0.000
1644362203989666048,2022-02-08-23:16:43,10.1.1.4,27,0.090,0.090,0.090,0.000,0.000,0.000
1644362204089266944,2022-02-08-23:16:44,10.1.1.4,25,0.100,0.100,0.100,0.000,0.000,0.000
1644362204808429056,2022-02-08-23:16:44,10.1.1.4,39,0.030,0.030,0.030,0.000,0.000,0.000
1644362204910331904,2022-02-08-23:16:44,10.1.1.4,39,0.020,0.020,0.020,0.000,0.000,0.000
1644362205008733952,2022-02-08-23:16:45,10.1.1.4,39,0.010,0.010,0.010,0.000,0.000,0.000
1644362205109368064,2022-02-08-23:16:45,10.1.1.4,37,0.000,0.000,0.000,0.000,0.000,0.000
1644362205211353088,2022-02-08-23:16:45,10.1.1.4,37,-0.010,-0.010,-0.010,0.000,0.000,0.000
1644362205310498048,2022-02-08-23:16:45,10.1.1.4,36,-0.020,-0.020,-0.020,0.000,0.000,0.000
1644362205411126016,2022-02-08-23:16:45,10.1.1.4,36,-0.030,-0.030,-0.030,0.000,0.000,0.000
1644362205509135104,2022-02-08-23:16:45,10.1.1.4,35,-0.040,-0.040,-0.040,0.000,0.000,0.000
1644362205608977152,2022-02-08-23:16:45,10.1.1.4,35,-0.050,-0.050,-0.050,0.000,0.000,0.000
1644362206594723840,2022-02-08-23:16:46,10.1.1.4,9,-0.050,-0.050,-0.050,0.000,0.000,0.000
1644362206710215168,2022-02-08-23:16:46,10.1.1.4,29,-0.040,-0.040,-0.040,0.000,0.000,0.000
1644362206811330048,2022-02-08-23:16:46,10.1.1.4,29,-0.030,-0.030,-0.030,0.000,0.000,0.000
1644362206908595968,2022-02-08-23:16:46,10.1.1.4,28,-0.020,-0.020,-0.020,0.000,0.000,0.000
1644362207009206016,2022-02-08-23:16:47,10.1.1.4,28,-0.010,-0.010,-0.010,0.000,0.000,0.000
1644362207110657024,2022-02-08-23:16:47,10.1.1.4,28,-0.000,-0.000,-0.000,0.000,0.000,0.000
1644362207210361088,2022-02-08-23:16:47,10.1.1.4,27,0.010,0.010,0.010,0.000,0.000,0.000
1644362207308774912,2022-02-08-23:16:47,10.1.1.4,26,0.020,0.020,0.020,0.000,0.000,0.000
1644362207410653184,2022-02-08-23:16:47,10.1.1.4,25,0.030,0.030,0.030,0.000,0.000,0.000
1644362208211364096,2022-02-08-23:16:48,10.1.1.4,20,0.090,0.090,0.090,0.000,0.000,0.000
1644362208330202112,2022-02-08-23:16:48,10.1.1.4,39,0.080,0.080,0.080,0.000,0.000,0.000
1644362208428764160,2022-02-08-23:16:48,10.1.1.4,38,0.070,0.070,0.070,0.000,0.000,0.000
1644362208533908992,2022-02-08-23:16:48,10.1.1.4,38,0.060,0.060,0.060,0.000,0.000,0.000
1644362208628964864,2022-02-08-23:16:48,10.1.1.4,36,0.050,0.050,0.050,0.000,0.000,0.000
1644362208730212096,2022-02-08-23:16:48,10.1.1.4,35,0.040,0.040,0.040,0.000,0.000,0.000
1644362208828416000,2022-02-08-23:16:48,10.1.1.4,35,0.030,0.030,0.030,0.000,0.000,0.000
1644362209631906048,2022-02-08-23:16:49,10.1.1.4,29,-0.050,-0.050,-0.050,0.000,0.000,0.000
1644362209730843904,2022-02-08-23:16:49,10.1.1.4,29,-0.060,-0.060,-0.060,0.000,0.000,0.000
1644362209833092096,2022-02-08-23:16:49,10.1.1.4,27,-0.070,-0.070,-0.070,0.000,0.000,0.000
1644362209930116864,2022-02-08-23:16:49,10.1.1.4,26,-0.080,-0.080,-0.080,0.000,0.000,0.000
1644362210028803072,2022-02-08-23:16:50,10.1.1.4,25,-0.090,-0.090,-0.090,0.000,0.000,0.000
1644362210208825088,2022-02-08-23:16:50,10.1.1.4,3,-0.090,-0.090,-0.090,0.000,0.000,0.000
1644362210648793856,2022-02-08-23:16:50,10.1.1.4,39,-0.050,-0.050,-0.050,0.000,0.000,0.000
1644362210749014016,2022-02-08-23:16:50,10.1.1.4,38,-0.040,-0.040,-0.040,0.000,0.000,0.000
1644362210849908224,2022-02-08-23:16:50,10.1.1.4,37,-0.030,-0.030,-0.030,0.000,0.000,0.000
1644362210950781952,2022-02-08-23:16:50,10.1.1.4,37,-0.020,-0.020,-0.020,0.000,0.000,0.000
1644362211048425984,2022-02-08-23:16:51,10.1.1.4,37,-0.010,-0.010,-0.010,0.000,0.000,0.000
1644362211148442880,2022-02-08-23:16:51,10.1.1.4,36,0.000,0.000,0.000,0.000,0.000,0.000
1644362211249001984,2022-02-08-23:16:51,10.1.1.4,36,0.010,0.010,0.010,0.000,0.000,0.000
1644362211348833024,2022-02-08-23:16:51,10.1.1.4,36,0.020,0.020,0.020,0.000,0.000,0.000
1644362211449327104,2022-02-08-23:16:51,10.1.1.4,35,0.030,0.030,0.030,0.000,0.000,0.000
1644362211549097984,2022-02-08-23:16:51,10.1.1.4,34,0.040,0.040,0.040,0.000,0.000,0.000
1644362211948944128,2022-02-08-23:16:51,10.1.1.4,30,0.080,0.080,0.080,0.000,0.000,0.000
1644362212050757888,2022-02-08-23:16:52,10.1.1.4,29,0.090,0.090,0.090,0.000,0.000,0.000
1644362212150476032,2022-02-08-23:16:52,10.1.1.4,28,0.100,0.100,0.100,0.000,0.000,0.000
1644362212248192000,2022-02-08-23:16:52,10.1.1.4,27,0.090,0.090,0.090,0.000,0.000,0.000
1644362212348523008,2022-02-08-23:16:52,10.1.1.4,26,0.080,0.080,0.080,0.000,0.000,0.000
1644362212448268800,2022-02-08-23:16:52,10.1.1.4,26,0.070,0.070,0.070,0.000,0.000,0.000
1644362212548867072,2022-02-08-23:16:52,10.1.1.4,25,0.060,0.060,0.060,0.000,0.000,0.000
1644362212648390912,2022-02-08-23:16:52,10.1.1.4,25,0.050,0.050,0.050,0.000,0.000,0.000
1644362212758296064,2022-02-08-23:16:52,10.1.1.4,25,0.040,0.040,0.040,0.000,0.000,0.000
1644362213468329984,2022-02-08-23:16:53,10.1.1.4,39,-0.030,-0.030,-0.030,0.000,0.000,0.000
1644362213990322176,2022-02-08-23:16:53,10.1.1.4,29,-0.080,-0.080,-0.080,0.000,0.000,0.000
1644362214088556032,2022-02-08-23:16:54,10.1.1.4,29,-0.090,-0.090,-0.090,0.000,0.000,0.000
1644362214191150848,2022-02-08-23:16:54,10.1.1.4,29,-0.100,-0.100,-0.100,0.000,0.000,0.000
1644362214288246016,2022-02-08-23:16:54,10.1.1.4,28,-0.090,-0.090,-0.090,0.000,0.000,0.000
1644362214389286912,2022-02-08-23:16:54,10.1.1.4,27,-0.080,-0.080,-0.080,0.000,0.000,0.000
1644362214490802944,2022-02-08-23:16:54,10.1.1.4,27,-0.070,-0.070,-0.070,0.000,0.000,0.000
1644362214590141952,2022-02-08-23:16:54,10.1.1.4,25,-0.060,-0.060,-0.060,0.000,0.000,0.000
1644362215211087872,2022-02-08-23:16:55,10.1.1.4,38,0.000,0.000,0.000,0.000,0.000,0.000
1644362215311203840,2022-02-08-23:16:55,10.1.1.4,38,0.010,0.010,0.010,0.000,0.000,0.000
1644362215411183104,2022-02-08-23:16:55,10.1.1.4,37,0.020,0.020,0.020,0.000,0.000,0.000
1644362215511254016,2022-02-08-23:16:55,10.1.1.4,37,0.030,0.030,0.030,0.000,0.000,0.000
1644362215610588160,2022-02-08-23:16:55,10.1.1.4,36,0.040,0.040,0.040,0.000,0.000,0.000
1644362215709306112,2022-02-08-23:16:55,10.1.1.4,36,0.050,0.050,0.050,0.000,0.000,0.000
1644362215809912064,2022-02-08-23:16:55,10.1.1.4,35,0.060,0.060,0.060,0.000,0.000,0.000
1644362215908711936,2022-02-08-23:16:55,10.1.1.4,35,0.070,0.070,0.070,0.000,0.000,0.000
1644362216488414976,2022-02-08-23:16:56,10.1.1.4,10,0.070,0.070,0.070,0.000,0.000,0.000
1644362216608791040,2022-02-08-23:16:56,10.1.1.4,29,0.060,0.060,0.060,0.000,0.000,0.000
1644362216708509952,2022-02-08-23:16:56,10.1.1.4,28,0.050,0.050,0.050,0.000,0.000,0.000
1644362216809726976,2022-02-08-23:16:56,10.1.1.4,28,0.040,0.040,0.040,0.000,0.000,0.000
1644362216908485888,2022-02-08-23:16:56,10.1.1.4,27,0.030,0.030,0.030,0.000,0.000,0.000
1644362217008233984,2022-02-08-23:16:57,10.1.1.4,27,0.020,0.020,0.020,0.000,0.000,0.000
1644362217111091968,2022-02-08-23:16:57,10.1.1.4,25,0.010,0.010,0.010,0.000,0.000,0.000
1644362217409729024,2022-02-08-23:16:57,10.1.1.4,19,-0.020,-0.020,-0.020,0.000,0.000,0.000
1644362217528556032,2022-02-08-23:16:57,10.1.1.4,38,-0.030,-0.030,-0.030,0.000,0.000,0.000
1644362217628364032,2022-02-08-23:16:57,10.1.1.4,38,-0.040,-0.040,-0.040,0.000,0.000,0.000
1644362217729414912,2022-02-08-23:16:57,10.1.1.4,37,-0.050,-0.050,-0.050,0.000,0.000,0.000
1644362217828823040,2022-02-08-23:16:57,10.1.1.4,37,-0.060,-0.060,-0.060,0.000,0.000,0.000
1644362217928601088,2022-02-08-23:16:57,10.1.1.4,35,-0.070,-0.070,-0.070,0.000,0.000,0.000
1644362218508282880,2022-02-08-23:16:58,10.1.1.4,11,-0.070,-0.070,-0.070,0.000,0.000,0.000
1644362218730329088,2022-02-08-23:16:58,10.1.1.4,29,-0.050,-0.050,-0.050,0.000,0.000,0.000
1644362218828641792,2022-02-08-23:16:58,10.1.1.4,29,-0.040,-0.040,-0.040,0.000,0.000,0.000
1644362218929320960,2022-02-08-23:16:58,10.1.1.4,29,-0.030,-0.030,-0.030,0.000,0.000,0.000
1644362219028691968,2022-02-08-23:16:59,10.1.1.4,28,-0.020,-0.020,-0.020,0.000,0.000,0.000
1644362219128713984,2022-02-08-23:16:59,10.1.1.4,27,-0.010,-0.010,-0.010,0.000,0.000,0.000
1644362219228641024,2022-02-08-23:16:59,10.1.1.4,27,0.000,0.000,0.000,0.000,0.000,0.000
1644362219330984192,2022-02-08-23:16:59,10.1.1.4,26,0.010,0.010,0.010,0.000,0.000,0.000
1644362219429356032,2022-02-08-23:16:59,10.1.1.4,25,0.020,0.020,0.020,0.000,0.000,0.000
1644362219951456000,2022-02-08-23:16:59,10.1.1.4,39,0.070,0.070,0.070,0.000,0.000,0.000
1644362220150782976,2022-02-08-23:17:00,10.1.1.4,39,0.090,0.090,0.090,0.000,0.000,0.000
1644362220250153984,2022-02-08-23:17:00,10.1.1.4,38,0.100,0.100,0.100,0.000,0.000,0.000
1644362220348714240,2022-02-08-23:17:00,10.1.1.4,38,0.090,0.090,0.090,0.000,0.000,0.000
1644362220448952064,2022-02-08-23:17:00,10.1.1.4,37,0.080,0.080,0.080,0.000,0.000,0.000
1644362220551481088,2022-02-08-23:17:00,10.1.1.4,36,0.070,0.070,0.070,0.000,0.000,0.000
1644362220649960960,2022-02-08-23:17:00,10.1.1.4,36,0.060,0.060,0.060,0.000,0.000,0.000
1644362221249456896,2022-02-08-23:17:01,10.1.1.4,29,0.000,0.000,0.000,0.000,0.000,0.000
1644362221348579840,2022-02-08-23:17:01,10.1.1.4,28,-0.010,-0.010,-0.010,0.000,0.000,0.000
1644362221450351872,2022-02-08-23:17:01,10.1.1.4,28,-0.020,-0.020,-0.020,0.000,0.000,0.000
1644362221550832128,2022-02-08-23:17:01,10.1.1.4,27,-0.030,-0.030,-0.030,0.000,0.000,0.000
1644362221649445888,2022-02-08-23:17:01,10.1.1.4,26,-0.040,-0.040,-0.040,0.000,0.000,0.000
1644362221750494976,2022-02-08-23:17:01,10.1.1.4,25,-0.050,-0.050,-0.050,0.000,0.000,0.000
1644362222749691136,2022-02-08-23:17:02,10.1.1.4,19,-0.050,-0.050,-0.050,0.000,0.000,0.000
1644362222869816064,2022-02-08-23:17:02,10.1.1.4,39,-0.040,-0.040,-0.040,0.000,0.000,0.000
1644362222969688064,2022-02-08-23:17:02,10.1.1.4,38,-0.030,-0.030,-0.030,0.000,0.000,0.000
1644362223068721920,2022-02-08-23:17:03,10.1.1.4,37,-0.020,-0.020,-0.020,0.000,0.000,0.000
1644362223169626112,2022-02-08-23:17:03,10.1.1.4,36,-0.010,-0.010,-0.010,0.000,0.000,0.000
1644362223269148160,2022-02-08-23:17:03,10.1.1.4,35,0.000,0.000,0.000,0.000,0.000,0.000
1644362223368738816,2022-02-08-23:17:03,10.1.1.4,35,0.010,0.010,0.010,0.000,0.000,0.000
1644362223780944128,2022-02-08-23:17:03,10.1.1.4,29,0.050,0.050,0.050,0.000,0.000,0.000
1644362223868436224,2022-02-08-23:17:03,10.1.1.4,28,0.060,0.060,0.060,0.000,0.000,0.000
1644362224068832000,2022-02-08-23:17:04,10.1.1.4,28,0.080,0.080,0.080,0.000,0.000,0.000
1644362224168997120,2022-02-08-23:17:04,10.1.1.4,27,0.090,0.090,0.090,0.000,0.000,0.000
1644362224269696000,2022-02-08-23:17:04,10.1.1.4,27,0.100,0.100,0.100,0.000,0.000,0.000
1644362224371591936,2022-02-08-23:17:04,10.1.1.4,26,0.090,0.090,0.090,0.000,0.000,0.000
1644362224468559872,2022-02-08-23:17:04,10.1.1.4,26,0.080,0.080,0.080,0.000,0.000,0.000
1644362224568974848,2022-02-08-23:17:04,10.1.1.4,25,0.070,0.070,0.070,0.000,0.000,0.000
1644362225389010944,2022-02-08-23:17:05,10.1.1.4,39,-0.010,-0.010,-0.010,0.000,0.000,0.000
1644362225489326080,2022-02-08-23:17:05,10.1.1.4,38,-0.020,-0.020,-0.020,0.000,0.000,0.000
1644362225593616896,2022-02-08-23:17:05,10.1.1.4,38,-0.030,-0.030,-0.030,0.000,0.000,0.000
1644362225688846080,2022-02-08-23:17:05,10.1.1.4,36,-0.040,-0.040,-0.040,0.000,0.000,0.000
1644362225789192960,2022-02-08-23:17:05,10.1.1.4,35,-0.050,-0.050,-0.050,0.000,0.000,0.000
1644362225889086976,2022-02-08-23:17:05,10.1.1.4,34,-0.060,-0.060,-0.060,0.000,0.000,0.000
1644362225988652032,2022-02-08-23:17:05,10.1.1.4,34,-0.070,-0.070,-0.070,0.000,0.000,0.000
1644362226569108992,2022-02-08-23:17:06,10.1.1.4,11,-0.070,-0.070,-0.070,0.000,0.000,0.000
1644362226788872960,2022-02-08-23:17:06,10.1.1.4,29,-0.050,-0.050,-0.050,0.000,0.000,0.000
1644362226893953024,2022-02-08-23:17:06,10.1.1.4,28,-0.040,-0.040,-0.040,0.000,0.000,0.000
1644362226988966912,2022-02-08-23:17:06,10.1.1.4,27,-0.030,-0.030,-0.030,0.000,0.000,0.000
1644362227088969984,2022-02-08-23:17:07,10.1.1.4,27,-0.020,-0.020,-0.020,0.000,0.000,0.000
1644362227188910848,2022-02-08-23:17:07,10.1.1.4,26,-0.010,-0.010,-0.010,0.000,0.000,0.000
1644362227289916160,2022-02-08-23:17:07,10.1.1.4,26,0.000,0.000,0.000,0.000,0.000,0.000
1644362227388365056,2022-02-08-23:17:07,10.1.1.4,25,0.010,0.010,0.010,0.000,0.000,0.000
1644362227909692928,2022-02-08-23:17:07,10.1.1.4,38,0.060,0.060,0.060,0.000,0.000,0.000
1644362228009248000,2022-02-08-23:17:08,10.1.1.4,38,0.070,0.070,0.070,0.000,0.000,0.000
1644362228109527040,2022-02-08-23:17:08,10.1.1.4,37,0.080,0.080,0.080,0.000,0.000,0.000
1644362228208736000,2022-02-08-23:17:08,10.1.1.4,36,0.090,0.090,0.090,0.000,0.000,0.000
1644362228308557056,2022-02-08-23:17:08,10.1.1.4,35,0.100,0.100,0.100,0.000,0.000,0.000
1644362229209267968,2022-02-08-23:17:09,10.1.1.4,29,0.010,0.010,0.010,0.000,0.000,0.000
1644362229310728192,2022-02-08-23:17:09,10.1.1.4,28,0.000,0.000,0.000,0.000,0.000,0.000
1644362229410640128,2022-02-08-23:17:09,10.1.1.4,28,-0.010,-0.010,-0.010,0.000,0.000,0.000
1644362229509798144,2022-02-08-23:17:09,10.1.1.4,28,-0.020,-0.020,-0.020,0.000,0.000,0.000
1644362229608966144,2022-02-08-23:17:09,10.1.1.4,27,-0.030,-0.030,-0.030,0.000,0.000,0.000
1644362229709472000,2022-02-08-23:17:09,10.1.1.4,26,-0.040,-0.040,-0.040,0.000,0.000,0.000
1644362229809252864,2022-02-08-23:17:09,10.1.1.4,26,-0.050,-0.050,-0.050,0.000,0.000,0.000
1644362229908897024,2022-02-08-23:17:09,10.1.1.4,25,-0.060,-0.060,-0.060,0.000,0.000,0.000
1644362230709049856,2022-02-08-23:17:10,10.1.1.4,20,-0.060,-0.060,-0.060,0.000,0.000,0.000
1644362230829894144,2022-02-08-23:17:10,10.1.1.4,39,-0.050,-0.050,-0.050,0.000,0.000,0.000
1644362230928862208,2022-02-08-23:17:10,10.1.1.4,39,-0.040,-0.040,-0.040,0.000,0.000,0.000
1644362231029037056,2022-02-08-23:17:11,10.1.1.4,38,-0.030,-0.030,-0.030,0.000,0.000,0.000
1644362231128832000,2022-02-08-23:17:11,10.1.1.4,38,-0.020,-0.020,-0.020,0.000,0.000,0.000
1644362231230923776,2022-02-08-23:17:11,10.1.1.4,38,-0.010,-0.010,-0.010,0.000,0.000,0.000
1644362231328833024,2022-02-08-23:17:11,10.1.1.4,37,-0.000,-0.000,-0.000,0.000,0.000,0.000
1644362231429686016,2022-02-08-23:17:11,10.1.1.4,36,0.010,0.010,0.010,0.000,0.000,0.000
1644362231529180928,2022-02-08-23:17:11,10.1.1.4,35,0.020,0.020,0.020,0.000,0.000,0.000
1644362231629734144,2022-02-08-23:17:11,10.1.1.4,35,0.030,0.030,0.030,0.000,0.000,0.000
1644362231729819904,2022-02-08-23:17:11,10.1.1.4,35,0.040,0.040,0.040,0.000,0.000,0.000
1644362231829363200,2022-02-08-23:17:11,10.1.1.4,34,0.050,0.050,0.050,0.000,0.000,0.000
1644362232329633024,2022-02-08-23:17:12,10.1.1.4,29,0.100,0.100,0.100,0.000,0.000,0.000
1644362232428994048,2022-02-08-23:17:12,10.1.1.4,28,0.090,0.090,0.090,0.000,0.000,0.000
1644362232529454080,2022-02-08-23:17:12,10.1.1.4,28,0.080,0.080,0.080,0.000,0.000,0.000
1644362232630960896,2022-02-08-23:17:12,10.1.1.4,28,0.070,0.070,0.070,0.000,0.000,0.000
1644362232730307072,2022-02-08-23:17:12,10.1.1.4,27,0.060,0.060,0.060,0.000,0.000,0.000
1644362232829485056,2022-02-08-23:17:12,10.1.1.4,27,0.050,0.050,0.050,0.000,0.000,0.000
1644362232929976064,2022-02-08-23:17:12,10.1.1.4,27,0.040,0.040,0.040,0.000,0.000,0.000
1644362233029978112,2022-02-08-23:17:13,10.1.1.4,26,0.030,0.030,0.030,0.000,0.000,0.000
1644362233130363904,2022-02-08-23:17:13,10.1.1.4,25,0.020,0.020,0.020,0.000,0.000,0.000
1644362233229721088,2022-02-08-23:17:13,10.1.1.4,25,0.010,0.010,0.010,0.000,0.000,0.000
1644362233329242880,2022-02-08-23:17:13,10.1.1.4,24,0.000,0.000,0.000,0.000,0.000,0.000
1644362233429820160,2022-02-08-23:17:13,10.1.1.4,24,-0.010,-0.010,-0.010,0.000,0.000,0.000
1644362234055511040,2022-02-08-23:17:14,10.1.1.4,36,-0.070,-0.070,-0.070,0.000,0.000,0.000
1644362234149487872,2022-02-08-23:17:14,10.1.1.4,35,-0.080,-0.080,-0.080,0.000,0.000,0.000
1644362234249555968,2022-02-08-23:17:14,10.1.1.4,35,-0.090,-0.090,-0.090,0.000,0.000,0.000
1644362234350178048,2022-02-08-23:17:14,10.1.1.4,34,-0.100,-0.100,-0.100,0.000,0.000,0.000
1644362234449691904,2022-02-08-23:17:14,10.1.1.4,34,-0.090,-0.090,-0.090,0.000,0.000,0.000
1644362235449374976,2022-02-08-23:17:15,10.1.1.4,29,0.010,0.010,0.010,0.000,0.000,0.000
1644362235550939136,2022-02-08-23:17:15,10.1.1.4,29,0.020,0.020,0.020,0.000,0.000,0.000
1644362235650601984,2022-02-08-23:17:15,10.1.1.4,28,0.030,0.030,0.030,0.000,0.000,0.000
1644362235751128064,2022-02-08-23:17:15,10.1.1.4,28,0.040,0.040,0.040,0.000,0.000,0.000
1644362235850119168,2022-02-08-23:17:15,10.1.1.4,27,0.050,0.050,0.050,0.000,0.000,0.000
1644362235950912000,2022-02-08-23:17:15,10.1.1.4,26,0.060,0.060,0.060,0.000,0.000,0.000
1644362236049870848,2022-02-08-23:17:16,10.1.1.4,25,0.070,0.070,0.070,0.000,0.000,0.000
1644362236149740032,2022-02-08-23:17:16,10.1.1.4,24,0.080,0.080,0.080,0.000,0.000,0.000
1644362236470208000,2022-02-08-23:17:16,10.1.1.4,39,0.090,0.090,0.090,0.000,0.000,0.000
1644362236570915840,2022-02-08-23:17:16,10.1.1.4,38,0.080,0.080,0.080,0.000,0.000,0.000
1644362236671688192,2022-02-08-23:17:16,10.1.1.4,37,0.070,0.070,0.070,0.000,0.000,0.000
1644362236770759936,2022-02-08-23:17:16,10.1.1.4,36,0.060,0.060,0.060,0.000,0.000,0.000
1644362236871942144,2022-02-08-23:17:16,10.1.1.4,36,0.050,0.050,0.050,0.000,0.000,0.000
1644362236969428992,2022-02-08-23:17:16,10.1.1.4,35,0.040,0.040,0.040,0.000,0.000,0.000
1644362237071607040,2022-02-08-23:17:17,10.1.1.4,35,0.030,0.030,0.030,0.000,0.000,0.000
1644362237170196992,2022-02-08-23:17:17,10.1.1.4,35,0.020,0.020,0.020,0.000,0.000,0.000
1644362237270895104,2022-02-08-23:17:17,10.1.1.4,34,0.010,0.010,0.010,0.000,0.000,0.000
1644362237370038016,2022-02-08-23:17:17,10.1.1.4,34,0.000,0.000,0.000,0.000,0.000,0.000
1644362237817961984,2022-02-08-23:17:17,10.1.1.4,28,-0.040,-0.040,-0.040,0.000,0.000,0.000
1644362237870776832,2022-02-08-23:17:17,10.1.1.4,27,-0.050,-0.050,-0.050,0.000,0.000,0.000
1644362237969625856,2022-02-08-23:17:17,10.1.1.4,27,-0.060,-0.060,-0.060,0.000,0.000,0.000
1644362238071849984,2022-02-08-23:17:18,10.1.1.4,27,-0.070,-0.070,-0.070,0.000,0.000,0.000
1644362238170919936,2022-02-08-23:17:18,10.1.1.4,26,-0.080,-0.080,-0.080,0.000,0.000,0.000
1644362238271041024,2022-02-08-23:17:18,10.1.1.4,26,-0.090,-0.090,-0.090,0.000,0.000,0.000
1644362238370834176,2022-02-08-23:17:18,10.1.1.4,25,-0.100,-0.100,-0.100,0.000,0.000,0.000
1644362238470093056,2022-02-08-23:17:18,10.1.1.4,24,-0.090,-0.090,-0.090,0.000,0.000,0.000
1644362238570054144,2022-02-08-23:17:18,10.1.1.4,24,-0.080,-0.080,-0.080,0.000,0.000,0.000
1644362239289881088,2022-02-08-23:17:19,10.1.1.4,39,-0.010,-0.010,-0.010,0.000,0.000,0.000
1644362239389821952,2022-02-08-23:17:19,10.1.1.4,39,0.000,0.000,0.000,0.000,0.000,0.000
1644362239491591936,2022-02-08-23:17:19,10.1.1.4,39,0.010,0.010,0.010,0.000,0.000,0.000
1644362239591623936,2022-02-08-23:17:19,10.1.1.4,39,0.020,0.020,0.020,0.000,0.000,0.000
1644362239689771776,2022-02-08-23:17:19,10.1.1.4,38,0.030,0.030,0.030,0.000,0.000,0.000
1644362239789376000,2022-02-08-23:17:19,10.1.1.4,37,0.040,0.040,0.040,0.000,0.000,0.000
1644362239890850048,2022-02-08-23:17:19,10.1.1.4,37,0.050,0.050,0.050,0.000,0.000,0.000
1644362239989590016,2022-02-08-23:17:19,10.1.1.4,36,0.060,0.060,0.060,0.000,0.000,0.000
1644362240089972992,2022-02-08-23:17:20,10.1.1.4,36,0.070,0.070,0.070,0.000,0.000,0.000
1644362240191091968,2022-02-08-23:17:20,10.1.1.4,35,0.080,0.080,0.080,0.000,0.000,0.000
1644362240290071040,2022-02-08-23:17:20,10.1.1.4,35,0.090,0.090,0.090,0.000,0.000,0.000
1644362240390448128,2022-02-08-23:17:20,10.1.1.4,35,0.100,0.100,0.100,0.000,0.000,0.000
1644362240489652992,2022-02-08-23:17:20,10.1.1.4,34,0.090,0.090,0.090,0.000,0.000,0.000
1644362241189459200,2022-02-08-23:17:21,10.1.1.4,29,0.020,0.020,0.020,0.000,0.000,0.000
1644362241291055872,2022-02-08-23:17:21,10.1.1.4,29,0.010,0.010,0.010,0.000,0.000,0.000
1644362241389668864,2022-02-08-23:17:21,10.1.1.4,28,0.000,0.000,0.000,0.000,0.000,0.000
1644362241490076928,2022-02-08-23:17:21,10.1.1.4,28,-0.010,-0.010,-0.010,0.000,0.000,0.000
1644362241590930944,2022-02-08-23:17:21,10.1.1.4,28,-0.020,-0.020,-0.020,0.000,0.000,0.000
1644362241689678848,2022-02-08-23:17:21,10.1.1.4,27,-0.030,-0.030,-0.030,0.000,0.000,0.000
1644362241789791232,2022-02-08-23:17:21,10.1.1.4,26,-0.040,-0.040,-0.040,0.000,0.000,0.000
1644362241889507072,2022-02-08-23:17:21,10.1.1.4,25,-0.050,-0.050,-0.050,0.000,0.000,0.000
1644362242710076928,2022-02-08-23:17:22,10.1.1.4,40,-0.070,-0.070,-0.070,0.000,0.000,0.000
1644362242809811200,2022-02-08-23:17:22,10.1.1.4,39,-0.060,-0.060,-0.060,0.000,0.000,0.000
1644362242910012928,2022-02-08-23:17:22,10.1.1.4,39,-0.050,-0.050,-0.050,0.000,0.000,0.000
1644362243010473984,2022-02-08-23:17:23,10.1.1.4,38,-0.040,-0.040,-0.040,0.000,0.000,0.000
1644362243110691072,2022-02-08-23:17:23,10.1.1.4,38,-0.030,-0.030,-0.030,0.000,0.000,0.000
1644362243210351104,2022-02-08-23:17:23,10.1.1.4,36,-0.020,-0.020,-0.020,0.000,0.000,0.000
1644362243315237888,2022-02-08-23:17:23,10.1.1.4,36,-0.010,-0.010,-0.010,0.000,0.000,0.000
1644362243410723072,2022-02-08-23:17:23,10.1.1.4,35,0.000,0.000,0.000,0.000,0.000,0.000
1644362243510916864,2022-02-08-23:17:23,10.1.1.4,35,0.010,0.010,0.010,0.000,0.000,0.000
1644362243612018176,2022-02-08-23:17:23,10.1.1.4,34,0.020,0.020,0.020,0.000,0.000,0.000
1644362244310900992,2022-02-08-23:17:24,10.1.1.4,28,0.090,0.090,0.090,0.000,0.000,0.000
1644362244416451072,2022-02-08-23:17:24,10.1.1.4,27,0.100,0.100,0.100,0.000,0.000,0.000
1644362244509743872,2022-02-08-23:17:24,10.1.1.4,25,0.090,0.090,0.090,0.000,0.000,0.000
1644362244610019072,2022-02-08-23:17:24,10.1.1.4,25,0.080,0.080,0.080,0.000,0.000,0.000
1644362244710928896,2022-02-08-23:17:24,10.1.1.4,24,0.070,0.070,0.070,0.000,0.000,0.000
1644362244809751040,2022-02-08-23:17:24,10.1.1.4,23,0.060,0.060,0.060,0.000,0.000,0.000
1644362245431003136,2022-02-08-23:17:25,10.1.1.4,37,0.000,0.000,0.000,0.000,0.000,0.000
1644362245531534080,2022-02-08-23:17:25,10.1.1.4,36,-0.010,-0.010,-0.010,0.000,0.000,0.000
1644362245630727936,2022-02-08-23:17:25,10.1.1.4,36,-0.020,-0.020,-0.020,0.000,0.000,0.000
1644362245729996800,2022-02-08-23:17:25,10.1.1.4,35,-0.030,-0.030,-0.030,0.000,0.000,0.000
1644362245831767040,2022-02-08-23:17:25,10.1.1.4,34,-0.040,-0.040,-0.040,0.000,0.000,0.000
1644362245930795008,2022-02-08-23:17:25,10.1.1.4,34,-0.050,-0.050,-0.050,0.000,0.000,0.000
1644362246730341888,2022-02-08-23:17:26,10.1.1.4,29,-0.070,-0.070,-0.070,0.000,0.000,0.000
1644362246829652992,2022-02-08-23:17:26,10.1.1.4,28,-0.060,-0.060,-0.060,0.000,0.000,0.000
1644362246930633984,2022-02-08-23:17:26,10.1.1.4,28,-0.050,-0.050,-0.050,0.000,0.000,0.000
1644362247030926848,2022-02-08-23:17:27,10.1.1.4,28,-0.040,-0.040,-0.040,0.000,0.000,0.000
1644362247129971968,2022-02-08-23:17:27,10.1.1.4,26,-0.030,-0.030,-0.030,0.000,0.000,0.000
1644362247229612032,2022-02-08-23:17:27,10.1.1.4,26,-0.020,-0.020,-0.020,0.000,0.000,0.000
1644362247330033920,2022-02-08-23:17:27,10.1.1.4,25,-0.010,-0.010,-0.010,0.000,0.000,0.000
1644362247430319104,2022-02-08-23:17:27,10.1.1.4,24,0.000,0.000,0.000,0.000,0.000,0.000
1644362247530055168,2022-02-08-23:17:27,10.1.1.4,23,0.010,0.010,0.010,0.000,0.000,0.000
1644362247630791936,2022-02-08-23:17:27,10.1.1.4,23,0.020,0.020,0.020,0.000,0.000,0.000
1644362248129536000,2022-02-08-23:17:28,10.1.1.4,20,0.070,0.070,0.070,0.000,0.000,0.000
1644362248450164992,2022-02-08-23:17:28,10.1.1.4,39,0.100,0.100,0.100,0.000,0.000,0.000
1644362248550215936,2022-02-08-23:17:28,10.1.1.4,38,0.090,0.090,0.090,0.000,0.000,0.000
1644362248655469056,2022-02-08-23:17:28,10.1.1.4,37,0.080,0.080,0.080,0.000,0.000,0.000
1644362248750328064,2022-02-08-23:17:28,10.1.1.4,37,0.070,0.070,0.070,0.000,0.000,0.000
1644362248849495040,2022-02-08-23:17:28,10.1.1.4,36,0.060,0.060,0.060,0.000,0.000,0.000
1644362248950196992,2022-02-08-23:17:28,10.1.1.4,35,0.050,0.050,0.050,0.000,0.000,0.000
1644362249050790912,2022-02-08-23:17:29,10.1.1.4,35,0.040,0.040,0.040,0.000,0.000,0.000
1644362249150960896,2022-02-08-23:17:29,10.1.1.4,34,0.030,0.030,0.030,0.000,0.000,0.000
1644362249250825984,2022-02-08-23:17:29,10.1.1.4,34,0.020,0.020,0.020,0.000,0.000,0.000
1644362249350841088,2022-02-08-23:17:29,10.1.1.4,34,0.010,0.010,0.010,0.000,0.000,0.000
1644362250051568128,2022-02-08-23:17:30,10.1.1.4,29,-0.060,-0.060,-0.060,0.000,0.000,0.000
1644362250150584832,2022-02-08-23:17:30,10.1.1.4,29,-0.070,-0.070,-0.070,0.000,0.000,0.000
1644362250250088960,2022-02-08-23:17:30,10.1.1.4,28,-0.080,-0.080,-0.080,0.000,0.000,0.000
1644362250353069056,2022-02-08-23:17:30,10.1.1.4,28,-0.090,-0.090,-0.090,0.000,0.000,0.000
1644362250450510080,2022-02-08-23:17:30,10.1.1.4,27,-0.100,-0.100,-0.100,0.000,0.000,0.000
1644362250551429888,2022-02-08-23:17:30,10.1.1.4,27,-0.090,-0.090,-0.090,0.000,0.000,0.000
1644362250651441152,2022-02-08-23:17:30,10.1.1.4,25,-0.080,-0.080,-0.080,0.000,0.000,0.000
1644362250750336000,2022-02-08-23:17:30,10.1.1.4,24,-0.070,-0.070,-0.070,0.000,0.000,0.000
1644362250851752960,2022-02-08-23:17:30,10.1.1.4,24,-0.060,-0.060,-0.060,0.000,0.000,0.000
1644362251277296128,2022-02-08-23:17:31,10.1.1.4,35,-0.020,-0.020,-0.020,0.000,0.000,0.000
1644362251369977856,2022-02-08-23:17:31,10.1.1.4,34,-0.010,-0.010,-0.010,0.000,0.000,0.000
1644362251470267904,2022-02-08-23:17:31,10.1.1.4,34,0.000,0.000,0.000,0.000,0.000,0.000
1644362251970213888,2022-02-08-23:17:31,10.1.1.4,30,0.050,0.050,0.050,0.000,0.000,0.000
1644362252070478848,2022-02-08-23:17:32,10.1.1.4,29,0.060,0.060,0.060,0.000,0.000,0.000
1644362252171022848,2022-02-08-23:17:32,10.1.1.4,29,0.070,0.070,0.070,0.000,0.000,0.000
1644362252270086144,2022-02-08-23:17:32,10.1.1.4,28,0.080,0.080,0.080,0.000,0.000,0.000
1644362252370362880,2022-02-08-23:17:32,10.1.1.4,27,0.090,0.090,0.090,0.000,0.000,0.000
1644362252471787008,2022-02-08-23:17:32,10.1.1.4,27,0.100,0.100,0.100,0.000,0.000,0.000
1644362252911043840,2022-02-08-23:17:32,10.1.1.4,30,0.060,0.060,0.060,0.000,0.000,0.000
1644362253011149824,2022-02-08-23:17:33,10.1.1.4,29,0.050,0.050,0.050,0.000,0.000,0.000
1644362253112214016,2022-02-08-23:17:33,10.1.1.4,28,0.040,0.040,0.040,0.000,0.000,0.000
1644362253210406912,2022-02-08-23:17:33,10.1.1.4,27,0.030,0.030,0.030,0.000,0.000,0.000
1644362253310686976,2022-02-08-23:17:33,10.1.1.4,27,0.020,0.020,0.020,0.000,0.000,0.000
1644362253410525184,2022-02-08-23:17:33,10.1.1.4,24,0.010,0.010,0.010,0.000,0.000,0.000
1644362254032293120,2022-02-08-23:17:34,10.1.1.4,39,-0.050,-0.050,-0.050,0.000,0.000,0.000
1644362254131459840,2022-02-08-23:17:34,10.1.1.4,38,-0.060,-0.060,-0.060,0.000,0.000,0.000
1644362254231958016,2022-02-08-23:17:34,10.1.1.4,38,-0.070,-0.070,-0.070,0.000,0.000,0.000
1644362254533163008,2022-02-08-23:17:34,10.1.1.4,30,-0.100,-0.100,-0.100,0.000,0.000,0.000
1644362254631827200,2022-02-08-23:17:34,10.1.1.4,29,-0.090,-0.090,-0.090,0.000,0.000,0.000
1644362254731462912,2022-02-08-23:17:34,10.1.1.4,29,-0.080,-0.080,-0.080,0.000,0.000,0.000
1644362254831779840,2022-02-08-23:17:34,10.1.1.4,28,-0.070,-0.070,-0.070,0.000,0.000,0.000
1644362254932070144,2022-02-08-23:17:34,10.1.1.4,27,-0.060,-0.060,-0.060,0.000,0.000,0.000
1644362255032787968,2022-02-08-23:17:35,10.1.1.4,27,-0.050,-0.050,-0.050,0.000,0.000,0.000
1644362255129736960,2022-02-08-23:17:35,10.1.1.4,26,-0.040,-0.040,-0.040,0.000,0.000,0.000
1644362255231076096,2022-02-08-23:17:35,10.1.1.4,26,-0.030,-0.030,-0.030,0.000,0.000,0.000
1644362255331681024,2022-02-08-23:17:35,10.1.1.4,25,-0.020,-0.020,-0.020,0.000,0.000,0.000
1644362255431788800,2022-02-08-23:17:35,10.1.1.4,25,-0.010,-0.010,-0.010,0.000,0.000,0.000
1644362256350873088,2022-02-08-23:17:36,10.1.1.4,39,0.080,0.080,0.080,0.000,0.000,0.000
1644362256450846976,2022-02-08-23:17:36,10.1.1.4,39,0.090,0.090,0.090,0.000,0.000,0.000
1644362256550603008,2022-02-08-23:17:36,10.1.1.4,38,0.100,0.100,0.100,0.000,0.000,0.000
1644362256650272000,2022-02-08-23:17:36,10.1.1.4,38,0.090,0.090,0.090,0.000,0.000,0.000
1644362256752136960,2022-02-08-23:17:36,10.1.1.4,37,0.080,0.080,0.080,0.000,0.000,0.000
1644362256850128896,2022-02-08-23:17:36,10.1.1.4,37,0.070,0.070,0.070,0.000,0.000,0.000
1644362256950990080,2022-02-08-23:17:36,10.1.1.4,36,0.060,0.060,0.060,0.000,0.000,0.000
1644362257050494976,2022-02-08-23:17:37,10.1.1.4,35,0.050,0.050,0.050,0.000,0.000,0.000
1644362257151202048,2022-02-08-23:17:37,10.1.1.4,34,0.040,0.040,0.040,0.000,0.000,0.000
1644362257251224064,2022-02-08-23:17:37,10.1.1.4,34,0.030,0.030,0.030,0.000,0.000,0.000
1644362257392396032,2022-02-08-23:17:37,10.1.1.4,28,0.020,0.020,0.020,0.000,0.000,0.000
1644362257450088960,2022-02-08-23:17:37,10.1.1.4,27,0.010,0.010,0.010,0.000,0.000,0.000
1644362257550868992,2022-02-08-23:17:37,10.1.1.4,26,0.000,0.000,0.000,0.000,0.000,0.000
1644362258070683904,2022-02-08-23:17:38,10.1.1.4,39,-0.050,-0.050,-0.050,0.000,0.000,0.000
1644362258170077952,2022-02-08-23:17:38,10.1.1.4,39,-0.060,-0.060,-0.060,0.000,0.000,0.000
1644362258271270144,2022-02-08-23:17:38,10.1.1.4,38,-0.070,-0.070,-0.070,0.000,0.000,0.000
1644362258369846016,2022-02-08-23:17:38,10.1.1.4,38,-0.080,-0.080,-0.080,0.000,0.000,0.000
1644362258470443008,2022-02-08-23:17:38,10.1.1.4,37,-0.090,-0.090,-0.090,0.000,0.000,0.000
1644362258570832128,2022-02-08-23:17:38,10.1.1.4,37,-0.100,-0.100,-0.100,0.000,0.000,0.000
1644362258669686016,2022-02-08-23:17:38,10.1.1.4,37,-0.090,-0.090,-0.090,0.000,0.000,0.000
1644362258770641152,2022-02-08-23:17:38,10.1.1.4,36,-0.080,-0.080,-0.080,0.000,0.000,0.000
1644362258869793024,2022-02-08-23:17:38,10.1.1.4,35,-0.070,-0.070,-0.070,0.000,0.000,0.000
1644362258970683136,2022-02-08-23:17:38,10.1.1.4,35,-0.060,-0.060,-0.060,0.000,0.000,0.000
1644362259071571968,2022-02-08-23:17:39,10.1.1.4,34,-0.050,-0.050,-0.050,0.000,0.000,0.000
1644362259170855936,2022-02-08-23:17:39,10.1.1.4,34,-0.040,-0.040,-0.040,0.000,0.000,0.000
1644362259270315008,2022-02-08-23:17:39,10.1.1.4,34,-0.030,-0.030,-0.030,0.000,0.000,0.000
1644362259371117056,2022-02-08-23:17:39,10.1.1.4,33,-0.020,-0.020,-0.020,0.000,0.000,0.000
1644362259970833152,2022-02-08-23:17:39,10.1.1.4,30,0.040,0.040,0.040,0.000,0.000,0.000
1644362260170450944,2022-02-08-23:17:40,10.1.1.4,29,0.060,0.060,0.060,0.000,0.000,0.000
1644362260270577920,2022-02-08-23:17:40,10.1.1.4,29,0.070,0.070,0.070,0.000,0.000,0.000
1644362260371157760,2022-02-08-23:17:40,10.1.1.4,28,0.080,0.080,0.080,0.000,0.000,0.000
1644362260471639040,2022-02-08-23:17:40,10.1.1.4,28,0.090,0.090,0.090,0.000,0.000,0.000
1644362260569986048,2022-02-08-23:17:40,10.1.1.4,28,0.100,0.100,0.100,0.000,0.000,0.000
1644362260670214912,2022-02-08-23:17:40,10.1.1.4,27,0.090,0.090,0.090,0.000,0.000,0.000
1644362260770315008,2022-02-08-23:17:40,10.1.1.4,27,0.080,0.080,0.080,0.000,0.000,0.000
1644362260875959040,2022-02-08-23:17:40,10.1.1.4,25,0.070,0.070,0.070,0.000,0.000,0.000
1644362260970524928,2022-02-08-23:17:40,10.1.1.4,24,0.060,0.060,0.060,0.000,0.000,0.000
1644362261071563008,2022-02-08-23:17:41,10.1.1.4,23,0.050,0.050,0.050,0.000,0.000,0.000
1644362261170604032,2022-02-08-23:17:41,10.1.1.4,23,0.040,0.040,0.040,0.000,0.000,0.000
1644362261789799936,2022-02-08-23:17:41,10.1.1.4,39,-0.020,-0.020,-0.020,0.000,0.000,0.000
1644362261891160064,2022-02-08-23:17:41,10.1.1.4,38,-0.030,-0.030,-0.030,0.000,0.000,0.000
1644362261990253824,2022-02-08-23:17:41,10.1.1.4,37,-0.040,-0.040,-0.040,0.000,0.000,0.000
1644362262094223104,2022-02-08-23:17:42,10.1.1.4,37,-0.050,-0.050,-0.050,0.000,0.000,0.000
1644362262190490880,2022-02-08-23:17:42,10.1.1.4,35,-0.060,-0.060,-0.060,0.000,0.000,0.000
1644362262290856960,2022-02-08-23:17:42,10.1.1.4,34,-0.070,-0.070,-0.070,0.000,0.000,0.000
1644362262391446016,2022-02-08-23:17:42,10.1.1.4,33,-0.080,-0.080,-0.080,0.000,0.000,0.000
1644362262770937088,2022-02-08-23:17:42,10.1.1.4,10,-0.080,-0.080,-0.080,0.000,0.000,0.000
1644362262891886080,2022-02-08-23:17:42,10.1.1.4,30,-0.070,-0.070,-0.070,0.000,0.000,0.000
1644362262991527936,2022-02-08-23:17:42,10.1.1.4,29,-0.060,-0.060,-0.060,0.000,0.000,0.000
1644362263091495936,2022-02-08-23:17:43,10.1.1.4,28,-0.050,-0.050,-0.050,0.000,0.000,0.000
1644362263191816192,2022-02-08-23:17:43,10.1.1.4,26,-0.040,-0.040,-0.040,0.000,0.000,0.000
1644362263291107840,2022-02-08-23:17:43,10.1.1.4,25,-0.030,-0.030,-0.030,0.000,0.000,0.000
1644362263391913984,2022-02-08-23:17:43,10.1.1.4,25,-0.020,-0.020,-0.020,0.000,0.000,0.000
1644362263490981120,2022-02-08-23:17:43,10.1.1.4,23,-0.010,-0.010,-0.010,0.000,0.000,0.000
1644362263591696896,2022-02-08-23:17:43,10.1.1.4,23,0.000,0.000,0.000,0.000,0.000,0.000
1644362263991767808,2022-02-08-23:17:43,10.1.1.4,20,0.040,0.040,0.040,0.000,0.000,0.000
1644362264113008896,2022-02-08-23:17:44,10.1.1.4,39,0.050,0.050,0.050,0.000,0.000,0.000
1644362264210949888,2022-02-08-23:17:44,10.1.1.4,38,0.060,0.060,0.060,0.000,0.000,0.000
1644362264311376128,2022-02-08-23:17:44,10.1.1.4,38,0.070,0.070,0.070,0.000,0.000,0.000
1644362264410573056,2022-02-08-23:17:44,10.1.1.4,37,0.080,0.080,0.080,0.000,0.000,0.000
1644362264510956032,2022-02-08-23:17:44,10.1.1.4,36,0.090,0.090,0.090,0.000,0.000,0.000
1644362264610904064,2022-02-08-23:17:44,10.1.1.4,35,0.100,0.100,0.100,0.000,0.000,0.000
1644362264710752000,2022-02-08-23:17:44,10.1.1.4,34,0.090,0.090,0.090,0.000,0.000,0.000
1644362264810273792,2022-02-08-23:17:44,10.1.1.4,33,0.080,0.080,0.080,0.000,0.000,0.000
1644362264911668992,2022-02-08-23:17:44,10.1.1.4,33,0.070,0.070,0.070,0.000,0.000,0.000
1644362265511392000,2022-02-08-23:17:45,10.1.1.4,29,0.010,0.010,0.010,0.000,0.000,0.000
1644362265610651136,2022-02-08-23:17:45,10.1.1.4,29,0.000,0.000,0.000,0.000,0.000,0.000
1644362265711132160,2022-02-08-23:17:45,10.1.1.4,28,-0.010,-0.010,-0.010,0.000,0.000,0.000
1644362265810910976,2022-02-08-23:17:45,10.1.1.4,28,-0.020,-0.020,-0.020,0.000,0.000,0.000
1644362265911308032,2022-02-08-23:17:45,10.1.1.4,28,-0.030,-0.030,-0.030,0.000,0.000,0.000
1644362266012887040,2022-02-08-23:17:46,10.1.1.4,29,-0.040,-0.040,-0.040,0.000,0.000,0.000
1644362266111581184,2022-02-08-23:17:46,10.1.1.4,27,-0.050,-0.050,-0.050,0.000,0.000,0.000
1644362266211008000,2022-02-08-23:17:46,10.1.1.4,27,-0.060,-0.060,-0.060,0.000,0.000,0.000
1644362266310748160,2022-02-08-23:17:46,10.1.1.4,26,-0.070,-0.070,-0.070,0.000,0.000,0.000
1644362266411891968,2022-02-08-23:17:46,10.1.1.4,26,-0.080,-0.080,-0.080,0.000,0.000,0.000
1644362266511433984,2022-02-08-23:17:46,10.1.1.4,25,-0.090,-0.090,-0.090,0.000,0.000,0.000
1644362266610877952,2022-02-08-23:17:46,10.1.1.4,24,-0.100,-0.100,-0.100,0.000,0.000,0.000
1644362266711267840,2022-02-08-23:17:46,10.1.1.4,24,-0.090,-0.090,-0.090,0.000,0.000,0.000
1644362266810918144,2022-02-08-23:17:46,10.1.1.4,23,-0.080,-0.080,-0.080,0.000,0.000,0.000
1644362266910660864,2022-02-08-23:17:46,10.1.1.4,23,-0.070,-0.070,-0.070,0.000,0.000,0.000
1644362267632536832,2022-02-08-23:17:47,10.1.1.4,39,0.000,0.000,0.000,0.000,0.000,0.000
1644362267730827008,2022-02-08-23:17:47,10.1.1.4,38,0.010,0.010,0.010,0.000,0.000,0.000
1644362267830082048,2022-02-08-23:17:47,10.1.1.4,37,0.020,0.020,0.020,0.000,0.000,0.000
1644362267930644992,2022-02-08-23:17:47,10.1.1.4,37,0.030,0.030,0.030,0.000,0.000,0.000
1644362268030862080,2022-02-08-23:17:48,10.1.1.4,37,0.040,0.040,0.040,0.000,0.000,0.000
1644362268131459072,2022-02-08-23:17:48,10.1.1.4,36,0.050,0.050,0.050,0.000,0.000,0.000
1644362268231017984,2022-02-08-23:17:48,10.1.1.4,35,0.060,0.060,0.060,0.000,0.000,0.000
1644362268331866880,2022-02-08-23:17:48,10.1.1.4,35,0.070,0.070,0.070,0.000,0.000,0.000
1644362268430886912,2022-02-08-23:17:48,10.1.1.4,34,0.080,0.080,0.080,0.000,0.000,0.000
1644362268531436800,2022-02-08-23:17:48,10.1.1.4,33,0.090,0.090,0.090,0.000,0.000,0.000
1644362268631802112,2022-02-08-23:17:48,10.1.1.4,33,0.100,0.100,0.100,0.000,0.000,0.000
1644362268832710144,2022-02-08-23:17:48,10.1.1.4,32,0.080,0.080,0.080,0.000,0.000,0.000
1644362269031729920,2022-02-08-23:17:49,10.1.1.4,28,0.060,0.060,0.060,0.000,0.000,0.000
1644362269130940928,2022-02-08-23:17:49,10.1.1.4,27,0.050,0.050,0.050,0.000,0.000,0.000
1644362269231105024,2022-02-08-23:17:49,10.1.1.4,27,0.040,0.040,0.040,0.000,0.000,0.000
1644362269331217152,2022-02-08-23:17:49,10.1.1.4,26,0.030,0.030,0.030,0.000,0.000,0.000
1644362269431143168,2022-02-08-23:17:49,10.1.1.4,26,0.020,0.020,0.020,0.000,0.000,0.000
1644362269530690816,2022-02-08-23:17:49,10.1.1.4,25,0.010,0.010,0.010,0.000,0.000,0.000
1644362269632499968,2022-02-08-23:17:49,10.1.1.4,25,0.000,0.000,0.000,0.000,0.000,0.000
1644362269730551040,2022-02-08-23:17:49,10.1.1.4,24,-0.010,-0.010,-0.010,0.000,0.000,0.000
1644362269832574976,2022-02-08-23:17:49,10.1.1.4,24,-0.020,-0.020,-0.020,0.000,0.000,0.000
1644362271152657152,2022-02-08-23:17:51,10.1.1.4,28,-0.050,-0.050,-0.050,0.000,0.000,0.000
1644362271250752000,2022-02-08-23:17:51,10.1.1.4,27,-0.040,-0.040,-0.040,0.000,0.000,0.000
1644362271352353024,2022-02-08-23:17:51,10.1.1.4,27,-0.030,-0.030,-0.030,0.000,0.000,0.000
1644362271450757120,2022-02-08-23:17:51,10.1.1.4,27,-0.020,-0.020,-0.020,0.000,0.000,0.000
1644362271551193088,2022-02-08-23:17:51,10.1.1.4,26,-0.010,-0.010,-0.010,0.000,0.000,0.000
1644362271650624000,2022-02-08-23:17:51,10.1.1.4,26,0.000,0.000,0.000,0.000,0.000,0.000
1644362271750883072,2022-02-08-23:17:51,10.1.1.4,26,0.010,0.010,0.010,0.000,0.000,0.000
1644362271851109888,2022-02-08-23:17:51,10.1.1.4,25,0.020,0.020,0.020,0.000,0.000,0.000
1644362271952156928,2022-02-08-23:17:51,10.1.1.4,24,0.030,0.030,0.030,0.000,0.000,0.000
1644362272051714048,2022-02-08-23:17:52,10.1.1.4,24,0.040,0.040,0.040,0.000,0.000,0.000
1644362272152730112,2022-02-08-23:17:52,10.1.1.4,23,0.050,0.050,0.050,0.000,0.000,0.000
1644362272252636928,2022-02-08-23:17:52,10.1.1.4,23,0.060,0.060,0.060,0.000,0.000,0.000
1644362272351771136,2022-02-08-23:17:52,10.1.1.4,23,0.070,0.070,0.070,0.000,0.000,0.000
1644362272551301120,2022-02-08-23:17:52,10.1.1.4,22,0.090,0.090,0.090,0.000,0.000,0.000
1644362272730240000,2022-02-08-23:17:52,10.1.1.4,1,0.090,0.090,0.090,0.000,0.000,0.000
1644362273172174848,2022-02-08-23:17:53,10.1.1.4,39,0.050,0.050,0.050,0.000,0.000,0.000
1644362273271651072,2022-02-08-23:17:53,10.1.1.4,39,0.040,0.040,0.040,0.000,0.000,0.000
1644362273370891008,2022-02-08-23:17:53,10.1.1.4,38,0.030,0.030,0.030,0.000,0.000,0.000
1644362273470819072,2022-02-08-23:17:53,10.1.1.4,38,0.020,0.020,0.020,0.000,0.000,0.000
1644362273571630080,2022-02-08-23:17:53,10.1.1.4,33,0.010,0.010,0.010,0.000,0.000,0.000
1644362274171793920,2022-02-08-23:17:54,10.1.1.4,28,-0.050,-0.050,-0.050,0.000,0.000,0.000
1644362274271287808,2022-02-08-23:17:54,10.1.1.4,28,-0.060,-0.060,-0.060,0.000,0.000,0.000
1644362274370521088,2022-02-08-23:17:54,10.1.1.4,27,-0.070,-0.070,-0.070,0.000,0.000,0.000
1644362274471074048,2022-02-08-23:17:54,10.1.1.4,27,-0.080,-0.080,-0.080,0.000,0.000,0.000
1644362274571016960,2022-02-08-23:17:54,10.1.1.4,26,-0.090,-0.090,-0.090,0.000,0.000,0.000
1644362274670480128,2022-02-08-23:17:54,10.1.1.4,25,-0.100,-0.100,-0.100,0.000,0.000,0.000
1644362274770417920,2022-02-08-23:17:54,10.1.1.4,24,-0.090,-0.090,-0.090,0.000,0.000,0.000
1644362274870529024,2022-02-08-23:17:54,10.1.1.4,23,-0.080,-0.080,-0.080,0.000,0.000,0.000
1644362274971271936,2022-02-08-23:17:54,10.1.1.4,23,-0.070,-0.070,-0.070,0.000,0.000,0.000
1644362275072012032,2022-02-08-23:17:55,10.1.1.4,23,-0.060,-0.060,-0.060,0.000,0.000,0.000
1644362275691536896,2022-02-08-23:17:55,10.1.1.4,39,0.000,0.000,0.000,0.000,0.000,0.000
1644362275790508032,2022-02-08-23:17:55,10.1.1.4,39,0.010,0.010,0.010,0.000,0.000,0.000
1644362275890876160,2022-02-08-23:17:55,10.1.1.4,38,0.020,0.020,0.020,0.000,0.000,0.000
1644362275991183104,2022-02-08-23:17:55,10.1.1.4,37,0.030,0.030,0.030,0.000,0.000,0.000
1644362276091272192,2022-02-08-23:17:56,10.1.1.4,37,0.040,0.040,0.040,0.000,0.000,0.000
1644362276190348032,2022-02-08-23:17:56,10.1.1.4,36,0.050,0.050,0.050,0.000,0.000,0.000
1644362276290995968,2022-02-08-23:17:56,10.1.1.4,36,0.060,0.060,0.060,0.000,0.000,0.000
1644362276390716928,2022-02-08-23:17:56,10.1.1.4,35,0.070,0.070,0.070,0.000,0.000,0.000
1644362276491187968,2022-02-08-23:17:56,10.1.1.4,34,0.080,0.080,0.080,0.000,0.000,0.000
1644362276590516992,2022-02-08-23:17:56,10.1.1.4,34,0.090,0.090,0.090,0.000,0.000,0.000
1644362276692082944,2022-02-08-23:17:56,10.1.1.4,34,0.100,0.100,0.100,0.000,0.000,0.000
1644362276791081984,2022-02-08-23:17:56,10.1.1.4,33,0.090,0.090,0.090,0.000,0.000,0.000
1644362276890626816,2022-02-08-23:17:56,10.1.1.4,33,0.080,0.080,0.080,0.000,0.000,0.000
1644362276991022080,2022-02-08-23:17:56,10.1.1.4,33,0.070,0.070,0.070,0.000,0.000,0.000
1644362277591811840,2022-02-08-23:17:57,10.1.1.4,29,0.010,0.010,0.010,0.000,0.000,0.000
1644362277690609920,2022-02-08-23:17:57,10.1.1.4,29,0.000,0.000,0.000,0.000,0.000,0.000
1644362277791016192,2022-02-08-23:17:57,10.1.1.4,28,-0.010,-0.010,-0.010,0.000,0.000,0.000
1644362277890723840,2022-02-08-23:17:57,10.1.1.4,27,-0.020,-0.020,-0.020,0.000,0.000,0.000
1644362277990976000,2022-02-08-23:17:57,10.1.1.4,27,-0.030,-0.030,-0.030,0.000,0.000,0.000
1644362278090926848,2022-02-08-23:17:58,10.1.1.4,26,-0.040,-0.040,-0.040,0.000,0.000,0.000
1644362278190989056,2022-02-08-23:17:58,10.1.1.4,26,-0.050,-0.050,-0.050,0.000,0.000,0.000
1644362278290926080,2022-02-08-23:17:58,10.1.1.4,26,-0.060,-0.060,-0.060,0.000,0.000,0.000
1644362278391598848,2022-02-08-23:17:58,10.1.1.4,25,-0.070,-0.070,-0.070,0.000,0.000,0.000
1644362278491156224,2022-02-08-23:17:58,10.1.1.4,25,-0.080,-0.080,-0.080,0.000,0.000,0.000
1644362278591206912,2022-02-08-23:17:58,10.1.1.4,24,-0.090,-0.090,-0.090,0.000,0.000,0.000
1644362278691049984,2022-02-08-23:17:58,10.1.1.4,24,-0.100,-0.100,-0.100,0.000,0.000,0.000
1644362278790527232,2022-02-08-23:17:58,10.1.1.4,23,-0.090,-0.090,-0.090,0.000,0.000,0.000
1644362278892189952,2022-02-08-23:17:58,10.1.1.4,23,-0.080,-0.080,-0.080,0.000,0.000,0.000
1644362278991499008,2022-02-08-23:17:58,10.1.1.4,22,-0.070,-0.070,-0.070,0.000,0.000,0.000
1644362279491185920,2022-02-08-23:17:59,10.1.1.4,19,-0.020,-0.020,-0.020,0.000,0.000,0.000
1644362279611201024,2022-02-08-23:17:59,10.1.1.4,39,-0.010,-0.010,-0.010,0.000,0.000,0.000
1644362279710365952,2022-02-08-23:17:59,10.1.1.4,38,0.000,0.000,0.000,0.000,0.000,0.000
1644362279811162880,2022-02-08-23:17:59,10.1.1.4,37,0.010,0.010,0.010,0.000,0.000,0.000
1644362279911479040,2022-02-08-23:17:59,10.1.1.4,37,0.020,0.020,0.020,0.000,0.000,0.000
1644362280010816000,2022-02-08-23:18:00,10.1.1.4,37,0.030,0.030,0.030,0.000,0.000,0.000
1644362280112161024,2022-02-08-23:18:00,10.1.1.4,36,0.040,0.040,0.040,0.000,0.000,0.000
1644362280210928896,2022-02-08-23:18:00,10.1.1.4,36,0.050,0.050,0.050,0.000,0.000,0.000
1644362280311373056,2022-02-08-23:18:00,10.1.1.4,36,0.060,0.060,0.060,0.000,0.000,0.000
1644362280411111168,2022-02-08-23:18:00,10.1.1.4,35,0.070,0.070,0.070,0.000,0.000,0.000
1644362280510659840,2022-02-08-23:18:00,10.1.1.4,34,0.080,0.080,0.080,0.000,0.000,0.000
1644362280610987008,2022-02-08-23:18:00,10.1.1.4,34,0.090,0.090,0.090,0.000,0.000,0.000
1644362280711813888,2022-02-08-23:18:00,10.1.1.4,34,0.100,0.100,0.100,0.000,0.000,0.000
1644362280810440960,2022-02-08-23:18:00,10.1.1.4,33,0.090,0.090,0.090,0.000,0.000,0.000
1644362281311123968,2022-02-08-23:18:01,10.1.1.4,29,0.040,0.040,0.040,0.000,0.000,0.000
1644362281410550016,2022-02-08-23:18:01,10.1.1.4,29,0.030,0.030,0.030,0.000,0.000,0.000
1644362281511904000,2022-02-08-23:18:01,10.1.1.4,28,0.020,0.020,0.020,0.000,0.000,0.000
1644362281611949056,2022-02-08-23:18:01,10.1.1.4,28,0.010,0.010,0.010,0.000,0.000,0.000
1644362281711403008,2022-02-08-23:18:01,10.1.1.4,27,0.000,0.000,0.000,0.000,0.000,0.000
1644362281811302912,2022-02-08-23:18:01,10.1.1.4,27,-0.010,-0.010,-0.010,0.000,0.000,0.000
1644362281910942976,2022-02-08-23:18:01,10.1.1.4,26,-0.020,-0.020,-0.020,0.000,0.000,0.000
1644362282133152000,2022-02-08-23:18:02,10.1.1.4,36,-0.040,-0.040,-0.040,0.000,0.000,0.000
1644362282232422144,2022-02-08-23:18:02,10.1.1.4,36,-0.050,-0.050,-0.050,0.000,0.000,0.000
1644362282330814976,2022-02-08-23:18:02,10.1.1.4,36,-0.060,-0.060,-0.060,0.000,0.000,0.000
1644362282430787072,2022-02-08-23:18:02,10.1.1.4,35,-0.070,-0.070,-0.070,0.000,0.000,0.000
1644362282530913024,2022-02-08-23:18:02,10.1.1.4,34,-0.080,-0.080,-0.080,0.000,0.000,0.000
1644362282630573056,2022-02-08-23:18:02,10.1.1.4,34,-0.090,-0.090,-0.090,0.000,0.000,0.000
1644362282730725120,2022-02-08-23:18:02,10.1.1.4,34,-0.100,-0.100,-0.100,0.000,0.000,0.000
1644362282831134208,2022-02-08-23:18:02,10.1.1.4,33,-0.090,-0.090,-0.090,0.000,0.000,0.000
1644362282930738944,2022-02-08-23:18:02,10.1.1.4,33,-0.080,-0.080,-0.080,0.000,0.000,0.000
1644362283031035904,2022-02-08-23:18:03,10.1.1.4,32,-0.070,-0.070,-0.070,0.000,0.000,0.000
1644362283131324928,2022-02-08-23:18:03,10.1.1.4,32,-0.060,-0.060,-0.060,0.000,0.000,0.000
1644362283230617088,2022-02-08-23:18:03,10.1.1.4,32,-0.050,-0.050,-0.050,0.000,0.000,0.000
1644362283631491072,2022-02-08-23:18:03,10.1.1.4,29,-0.010,-0.010,-0.010,0.000,0.000,0.000
1644362283730712064,2022-02-08-23:18:03,10.1.1.4,28,0.000,0.000,0.000,0.000,0.000,0.000
1644362283830737152,2022-02-08-23:18:03,10.1.1.4,28,0.010,0.010,0.010,0.000,0.000,0.000
1644362283931247872,2022-02-08-23:18:03,10.1.1.4,27,0.020,0.020,0.020,0.000,0.000,0.000
