FedericoMungari/DigitalTwin_service/01_WiredScenario/Output/Output_script/script_rosapi_2_output_robots8_freq0_6.txt
timestamp,date,node,latency,joint_1,joint_2,joint_3,joint_4,joint_5,joint_6
1641207848016908800,2022-01-03-11:04:08,10.1.1.7,164,-0.010,-0.010,-0.010,0.000,0.000,0.000
1641207848228705792,2022-01-03-11:04:08,10.1.1.7,174,-0.020,-0.020,-0.020,0.000,0.000,0.000
1641207848426907136,2022-01-03-11:04:08,10.1.1.7,172,-0.030,-0.030,-0.030,0.000,0.000,0.000
1641207848627321088,2022-01-03-11:04:08,10.1.1.7,172,-0.040,-0.040,-0.040,0.000,0.000,0.000
1641207848825516032,2022-01-03-11:04:08,10.1.1.7,169,-0.050,-0.050,-0.050,0.000,0.000,0.000
1641207849036302080,2022-01-03-11:04:09,10.1.1.7,179,-0.060,-0.060,-0.060,0.000,0.000,0.000
1641207849236697856,2022-01-03-11:04:09,10.1.1.7,177,-0.070,-0.070,-0.070,0.000,0.000,0.000
1641207849427761920,2022-01-03-11:04:09,10.1.1.7,166,-0.080,-0.080,-0.080,0.000,0.000,0.000
1641207849629043968,2022-01-03-11:04:09,10.1.1.7,166,-0.090,-0.090,-0.090,0.000,0.000,0.000
1641207849830168064,2022-01-03-11:04:09,10.1.1.7,166,-0.100,-0.100,-0.100,0.000,0.000,0.000
1641207850031024896,2022-01-03-11:04:10,10.1.1.7,166,-0.110,-0.110,-0.110,0.000,0.000,0.000
1641207850233145088,2022-01-03-11:04:10,10.1.1.7,166,-0.120,-0.120,-0.120,0.000,0.000,0.000
1641207850443141888,2022-01-03-11:04:10,10.1.1.7,175,-0.130,-0.130,-0.130,0.000,0.000,0.000
1641207850643096064,2022-01-03-11:04:10,10.1.1.7,174,-0.140,-0.140,-0.140,0.000,0.000,0.000
1641207850864291072,2022-01-03-11:04:10,10.1.1.7,194,-0.150,-0.150,-0.150,0.000,0.000,0.000
1641207851045099008,2022-01-03-11:04:11,10.1.1.7,174,-0.160,-0.160,-0.160,0.000,0.000,0.000
1641207851265849088,2022-01-03-11:04:11,10.1.1.7,194,-0.170,-0.170,-0.170,0.000,0.000,0.000
1641207851457056000,2022-01-03-11:04:11,10.1.1.7,184,-0.180,-0.180,-0.180,0.000,0.000,0.000
1641207851667064064,2022-01-03-11:04:11,10.1.1.7,192,-0.190,-0.190,-0.190,0.000,0.000,0.000
1641207851871640832,2022-01-03-11:04:11,10.1.1.7,195,-0.200,-0.200,-0.200,0.000,0.000,0.000
1641207852048762112,2022-01-03-11:04:12,10.1.1.7,171,-0.210,-0.210,-0.210,0.000,0.000,0.000
1641207852259448064,2022-01-03-11:04:12,10.1.1.7,182,-0.220,-0.220,-0.220,0.000,0.000,0.000
1641207852469649920,2022-01-03-11:04:12,10.1.1.7,191,-0.230,-0.230,-0.230,0.000,0.000,0.000
1641207852660919040,2022-01-03-11:04:12,10.1.1.7,182,-0.240,-0.240,-0.240,0.000,0.000,0.000
1641207852861864192,2022-01-03-11:04:12,10.1.1.7,182,-0.250,-0.250,-0.250,0.000,0.000,0.000
1641207853062172928,2022-01-03-11:04:13,10.1.1.7,182,-0.260,-0.260,-0.260,0.000,0.000,0.000
1641207853263122176,2022-01-03-11:04:13,10.1.1.7,181,-0.270,-0.270,-0.270,0.000,0.000,0.000
1641207853462518016,2022-01-03-11:04:13,10.1.1.7,180,-0.280,-0.280,-0.280,0.000,0.000,0.000
1641207853663544064,2022-01-03-11:04:13,10.1.1.7,180,-0.290,-0.290,-0.290,0.000,0.000,0.000
1641207853877085952,2022-01-03-11:04:13,10.1.1.7,191,-0.300,-0.300,-0.300,0.000,0.000,0.000
1641207854064729088,2022-01-03-11:04:14,10.1.1.7,178,-0.310,-0.310,-0.310,0.000,0.000,0.000
1641207854273603072,2022-01-03-11:04:14,10.1.1.7,186,-0.320,-0.320,-0.320,0.000,0.000,0.000
1641207854674795008,2022-01-03-11:04:14,10.1.1.7,184,-0.340,-0.340,-0.340,0.000,0.000,0.000
1641207854888529152,2022-01-03-11:04:14,10.1.1.7,197,-0.350,-0.350,-0.350,0.000,0.000,0.000
1641207855078488064,2022-01-03-11:04:15,10.1.1.7,186,-0.360,-0.360,-0.360,0.000,0.000,0.000
1641207855277467904,2022-01-03-11:04:15,10.1.1.7,183,-0.370,-0.370,-0.370,0.000,0.000,0.000
1641207855485961984,2022-01-03-11:04:15,10.1.1.7,191,-0.380,-0.380,-0.380,0.000,0.000,0.000
1641207855695390976,2022-01-03-11:04:15,10.1.1.7,199,-0.390,-0.390,-0.390,0.000,0.000,0.000
1641207855896905984,2022-01-03-11:04:15,10.1.1.7,199,-0.400,-0.400,-0.400,0.000,0.000,0.000
1641207856096768000,2022-01-03-11:04:16,10.1.1.7,199,-0.410,-0.410,-0.410,0.000,0.000,0.000
1641207856287408128,2022-01-03-11:04:16,10.1.1.7,188,-0.420,-0.420,-0.420,0.000,0.000,0.000
1641207856488753152,2022-01-03-11:04:16,10.1.1.7,190,-0.430,-0.430,-0.430,0.000,0.000,0.000
1641207856686870016,2022-01-03-11:04:16,10.1.1.7,187,-0.440,-0.440,-0.440,0.000,0.000,0.000
1641207856886995200,2022-01-03-11:04:16,10.1.1.7,187,-0.450,-0.450,-0.450,0.000,0.000,0.000
1641207857088087040,2022-01-03-11:04:17,10.1.1.7,187,-0.460,-0.460,-0.460,0.000,0.000,0.000
1641207857297497088,2022-01-03-11:04:17,10.1.1.7,196,-0.470,-0.470,-0.470,0.000,0.000,0.000
1641207857488763136,2022-01-03-11:04:17,10.1.1.7,187,-0.480,-0.480,-0.480,0.000,0.000,0.000
1641207857704196864,2022-01-03-11:04:17,10.1.1.7,187,-0.490,-0.490,-0.490,0.000,0.000,0.000
1641207857897579008,2022-01-03-11:04:17,10.1.1.7,192,-0.480,-0.480,-0.480,0.000,0.000,0.000
1641207858097667840,2022-01-03-11:04:18,10.1.1.7,191,-0.470,-0.470,-0.470,0.000,0.000,0.000
1641207858287951872,2022-01-03-11:04:18,10.1.1.7,180,-0.460,-0.460,-0.460,0.000,0.000,0.000
1641207858489892096,2022-01-03-11:04:18,10.1.1.7,181,-0.450,-0.450,-0.450,0.000,0.000,0.000
1641207858689176064,2022-01-03-11:04:18,10.1.1.7,179,-0.440,-0.440,-0.440,0.000,0.000,0.000
1641207858908265216,2022-01-03-11:04:18,10.1.1.7,198,-0.430,-0.430,-0.430,0.000,0.000,0.000
1641207859108793088,2022-01-03-11:04:19,10.1.1.7,197,-0.420,-0.420,-0.420,0.000,0.000,0.000
1641207859297966080,2022-01-03-11:04:19,10.1.1.7,186,-0.410,-0.410,-0.410,0.000,0.000,0.000
1641207859499095808,2022-01-03-11:04:19,10.1.1.7,187,-0.400,-0.400,-0.400,0.000,0.000,0.000
1641207859908702976,2022-01-03-11:04:19,10.1.1.7,195,-0.380,-0.380,-0.380,0.000,0.000,0.000
1641207860108104960,2022-01-03-11:04:20,10.1.1.7,194,-0.370,-0.370,-0.370,0.000,0.000,0.000
1641207860308792064,2022-01-03-11:04:20,10.1.1.7,194,-0.360,-0.360,-0.360,0.000,0.000,0.000
1641207860708444160,2022-01-03-11:04:20,10.1.1.7,193,-0.340,-0.340,-0.340,0.000,0.000,0.000
1641207860938894080,2022-01-03-11:04:20,10.1.1.7,190,-0.330,-0.330,-0.330,0.000,0.000,0.000
1641207861128218880,2022-01-03-11:04:21,10.1.1.7,189,-0.320,-0.320,-0.320,0.000,0.000,0.000
1641207861329026816,2022-01-03-11:04:21,10.1.1.7,188,-0.310,-0.310,-0.310,0.000,0.000,0.000
1641207861532324096,2022-01-03-11:04:21,10.1.1.7,190,-0.300,-0.300,-0.300,0.000,0.000,0.000
1641207861729201920,2022-01-03-11:04:21,10.1.1.7,186,-0.290,-0.290,-0.290,0.000,0.000,0.000
1641207861928390144,2022-01-03-11:04:21,10.1.1.7,185,-0.280,-0.280,-0.280,0.000,0.000,0.000
1641207862139476992,2022-01-03-11:04:22,10.1.1.7,195,-0.270,-0.270,-0.270,0.000,0.000,0.000
1641207862337494016,2022-01-03-11:04:22,10.1.1.7,193,-0.260,-0.260,-0.260,0.000,0.000,0.000
1641207862527569152,2022-01-03-11:04:22,10.1.1.7,182,-0.250,-0.250,-0.250,0.000,0.000,0.000
1641207862739040000,2022-01-03-11:04:22,10.1.1.7,192,-0.240,-0.240,-0.240,0.000,0.000,0.000
1641207862937704960,2022-01-03-11:04:22,10.1.1.7,190,-0.230,-0.230,-0.230,0.000,0.000,0.000
1641207863127268096,2022-01-03-11:04:23,10.1.1.7,179,-0.220,-0.220,-0.220,0.000,0.000,0.000
1641207863348072960,2022-01-03-11:04:23,10.1.1.7,198,-0.210,-0.210,-0.210,0.000,0.000,0.000
1641207863537308928,2022-01-03-11:04:23,10.1.1.7,187,-0.200,-0.200,-0.200,0.000,0.000,0.000
1641207863736762880,2022-01-03-11:04:23,10.1.1.7,185,-0.190,-0.190,-0.190,0.000,0.000,0.000
1641207863936846080,2022-01-03-11:04:23,10.1.1.7,183,-0.180,-0.180,-0.180,0.000,0.000,0.000
1641207864146977024,2022-01-03-11:04:24,10.1.1.7,192,-0.170,-0.170,-0.170,0.000,0.000,0.000
1641207864356077824,2022-01-03-11:04:24,10.1.1.7,198,-0.160,-0.160,-0.160,0.000,0.000,0.000
1641207864557223168,2022-01-03-11:04:24,10.1.1.7,198,-0.150,-0.150,-0.150,0.000,0.000,0.000
1641207864756567040,2022-01-03-11:04:24,10.1.1.7,196,-0.140,-0.140,-0.140,0.000,0.000,0.000
1641207864946863872,2022-01-03-11:04:24,10.1.1.7,186,-0.130,-0.130,-0.130,0.000,0.000,0.000
1641207865156760064,2022-01-03-11:04:25,10.1.1.7,195,-0.120,-0.120,-0.120,0.000,0.000,0.000
1641207865347201024,2022-01-03-11:04:25,10.1.1.7,185,-0.110,-0.110,-0.110,0.000,0.000,0.000
1641207865546564096,2022-01-03-11:04:25,10.1.1.7,183,-0.100,-0.100,-0.100,0.000,0.000,0.000
1641207865755284992,2022-01-03-11:04:25,10.1.1.7,191,-0.090,-0.090,-0.090,0.000,0.000,0.000
1641207865959045888,2022-01-03-11:04:25,10.1.1.7,187,-0.080,-0.080,-0.080,0.000,0.000,0.000
1641207866354841088,2022-01-03-11:04:26,10.1.1.7,180,-0.060,-0.060,-0.060,0.000,0.000,0.000
1641207866575587072,2022-01-03-11:04:26,10.1.1.7,200,-0.050,-0.050,-0.050,0.000,0.000,0.000
1641207866763995904,2022-01-03-11:04:26,10.1.1.7,187,-0.040,-0.040,-0.040,0.000,0.000,0.000
1641207866973699072,2022-01-03-11:04:26,10.1.1.7,195,-0.030,-0.030,-0.030,0.000,0.000,0.000
1641207867168681984,2022-01-03-11:04:27,10.1.1.7,189,-0.020,-0.020,-0.020,0.000,0.000,0.000
1641207867363115008,2022-01-03-11:04:27,10.1.1.7,182,-0.010,-0.010,-0.010,0.000,0.000,0.000
1641207867573651200,2022-01-03-11:04:27,10.1.1.7,192,0.000,0.000,0.000,0.000,0.000,0.000
1641207867765752064,2022-01-03-11:04:27,10.1.1.7,184,-0.010,-0.010,-0.010,0.000,0.000,0.000
1641207867972857856,2022-01-03-11:04:27,10.1.1.7,190,-0.020,-0.020,-0.020,0.000,0.000,0.000
1641207868163813120,2022-01-03-11:04:28,10.1.1.7,180,-0.030,-0.030,-0.030,0.000,0.000,0.000
1641207868362543104,2022-01-03-11:04:28,10.1.1.7,179,-0.040,-0.040,-0.040,0.000,0.000,0.000
1641207868562246912,2022-01-03-11:04:28,10.1.1.7,178,-0.050,-0.050,-0.050,0.000,0.000,0.000
1641207868761789952,2022-01-03-11:04:28,10.1.1.7,176,-0.060,-0.060,-0.060,0.000,0.000,0.000
1641207868962512128,2022-01-03-11:04:28,10.1.1.7,175,-0.070,-0.070,-0.070,0.000,0.000,0.000
1641207869181750016,2022-01-03-11:04:29,10.1.1.7,190,-0.080,-0.080,-0.080,0.000,0.000,0.000
1641207869391181056,2022-01-03-11:04:29,10.1.1.7,199,-0.090,-0.090,-0.090,0.000,0.000,0.000
1641207869570846208,2022-01-03-11:04:29,10.1.1.7,178,-0.100,-0.100,-0.100,0.000,0.000,0.000
1641207869780236032,2022-01-03-11:04:29,10.1.1.7,187,-0.110,-0.110,-0.110,0.000,0.000,0.000
1641207869970548992,2022-01-03-11:04:29,10.1.1.7,176,-0.120,-0.120,-0.120,0.000,0.000,0.000
1641207870170281984,2022-01-03-11:04:30,10.1.1.7,175,-0.130,-0.130,-0.130,0.000,0.000,0.000
1641207870392080896,2022-01-03-11:04:30,10.1.1.7,196,-0.140,-0.140,-0.140,0.000,0.000,0.000
1641207870579353088,2022-01-03-11:04:30,10.1.1.7,183,-0.150,-0.150,-0.150,0.000,0.000,0.000
1641207870779606016,2022-01-03-11:04:30,10.1.1.7,183,-0.160,-0.160,-0.160,0.000,0.000,0.000
1641207870968844800,2022-01-03-11:04:30,10.1.1.7,171,-0.170,-0.170,-0.170,0.000,0.000,0.000
1641207871188796160,2022-01-03-11:04:31,10.1.1.7,190,-0.180,-0.180,-0.180,0.000,0.000,0.000
1641207871392471040,2022-01-03-11:04:31,10.1.1.7,193,-0.190,-0.190,-0.190,0.000,0.000,0.000
1641207871589137920,2022-01-03-11:04:31,10.1.1.7,187,-0.200,-0.200,-0.200,0.000,0.000,0.000
1641207871777931008,2022-01-03-11:04:31,10.1.1.7,176,-0.210,-0.210,-0.210,0.000,0.000,0.000
1641207871978835200,2022-01-03-11:04:31,10.1.1.7,176,-0.220,-0.220,-0.220,0.000,0.000,0.000
1641207872187645952,2022-01-03-11:04:32,10.1.1.7,183,-0.230,-0.230,-0.230,0.000,0.000,0.000
1641207872377038848,2022-01-03-11:04:32,10.1.1.7,171,-0.240,-0.240,-0.240,0.000,0.000,0.000
1641207872586638080,2022-01-03-11:04:32,10.1.1.7,180,-0.250,-0.250,-0.250,0.000,0.000,0.000
1641207872777126144,2022-01-03-11:04:32,10.1.1.7,170,-0.260,-0.260,-0.260,0.000,0.000,0.000
1641207872977140992,2022-01-03-11:04:32,10.1.1.7,170,-0.270,-0.270,-0.270,0.000,0.000,0.000
1641207873176192000,2022-01-03-11:04:33,10.1.1.7,169,-0.280,-0.280,-0.280,0.000,0.000,0.000
1641207873385942016,2022-01-03-11:04:33,10.1.1.7,177,-0.290,-0.290,-0.290,0.000,0.000,0.000
1641207873595917824,2022-01-03-11:04:33,10.1.1.7,186,-0.300,-0.300,-0.300,0.000,0.000,0.000
1641207873794938112,2022-01-03-11:04:33,10.1.1.7,183,-0.310,-0.310,-0.310,0.000,0.000,0.000
1641207873995104000,2022-01-03-11:04:33,10.1.1.7,183,-0.320,-0.320,-0.320,0.000,0.000,0.000
1641207874184439040,2022-01-03-11:04:34,10.1.1.7,172,-0.330,-0.330,-0.330,0.000,0.000,0.000
1641207874394573824,2022-01-03-11:04:34,10.1.1.7,181,-0.340,-0.340,-0.340,0.000,0.000,0.000
1641207874584065792,2022-01-03-11:04:34,10.1.1.7,170,-0.350,-0.350,-0.350,0.000,0.000,0.000
1641207874784003072,2022-01-03-11:04:34,10.1.1.7,170,-0.360,-0.360,-0.360,0.000,0.000,0.000
1641207874993127168,2022-01-03-11:04:34,10.1.1.7,178,-0.370,-0.370,-0.370,0.000,0.000,0.000
1641207875192665088,2022-01-03-11:04:35,10.1.1.7,177,-0.380,-0.380,-0.380,0.000,0.000,0.000
1641207875402435072,2022-01-03-11:04:35,10.1.1.7,186,-0.390,-0.390,-0.390,0.000,0.000,0.000
1641207875592425216,2022-01-03-11:04:35,10.1.1.7,175,-0.400,-0.400,-0.400,0.000,0.000,0.000
1641207875792920064,2022-01-03-11:04:35,10.1.1.7,174,-0.410,-0.410,-0.410,0.000,0.000,0.000
1641207875992100864,2022-01-03-11:04:35,10.1.1.7,172,-0.420,-0.420,-0.420,0.000,0.000,0.000
1641207876191476992,2022-01-03-11:04:36,10.1.1.7,171,-0.430,-0.430,-0.430,0.000,0.000,0.000
1641207876391612160,2022-01-03-11:04:36,10.1.1.7,171,-0.440,-0.440,-0.440,0.000,0.000,0.000
1641207876591180032,2022-01-03-11:04:36,10.1.1.7,169,-0.450,-0.450,-0.450,0.000,0.000,0.000
1641207876791243008,2022-01-03-11:04:36,10.1.1.7,169,-0.460,-0.460,-0.460,0.000,0.000,0.000
1641207876991390976,2022-01-03-11:04:36,10.1.1.7,168,-0.470,-0.470,-0.470,0.000,0.000,0.000
1641207877190557952,2022-01-03-11:04:37,10.1.1.7,167,-0.480,-0.480,-0.480,0.000,0.000,0.000
1641207877424263936,2022-01-03-11:04:37,10.1.1.7,200,-0.490,-0.490,-0.490,0.000,0.000,0.000
1641207877589449984,2022-01-03-11:04:37,10.1.1.7,165,-0.480,-0.480,-0.480,0.000,0.000,0.000
1641207877799469056,2022-01-03-11:04:37,10.1.1.7,174,-0.470,-0.470,-0.470,0.000,0.000,0.000
1641207877998833920,2022-01-03-11:04:37,10.1.1.7,173,-0.460,-0.460,-0.460,0.000,0.000,0.000
1641207878188685824,2022-01-03-11:04:38,10.1.1.7,162,-0.450,-0.450,-0.450,0.000,0.000,0.000
1641207878398051072,2022-01-03-11:04:38,10.1.1.7,171,-0.440,-0.440,-0.440,0.000,0.000,0.000
1641207878589134848,2022-01-03-11:04:38,10.1.1.7,162,-0.430,-0.430,-0.430,0.000,0.000,0.000
1641207878788781824,2022-01-03-11:04:38,10.1.1.7,161,-0.420,-0.420,-0.420,0.000,0.000,0.000
1641207879006836992,2022-01-03-11:04:39,10.1.1.7,178,-0.410,-0.410,-0.410,0.000,0.000,0.000
1641207879216873984,2022-01-03-11:04:39,10.1.1.7,188,-0.400,-0.400,-0.400,0.000,0.000,0.000
1641207879416624128,2022-01-03-11:04:39,10.1.1.7,187,-0.390,-0.390,-0.390,0.000,0.000,0.000
1641207879622930944,2022-01-03-11:04:39,10.1.1.7,193,-0.380,-0.380,-0.380,0.000,0.000,0.000
1641207879816348160,2022-01-03-11:04:39,10.1.1.7,186,-0.370,-0.370,-0.370,0.000,0.000,0.000
1641207879995812864,2022-01-03-11:04:39,10.1.1.7,165,-0.360,-0.360,-0.360,0.000,0.000,0.000
1641207880197381120,2022-01-03-11:04:40,10.1.1.7,164,-0.350,-0.350,-0.350,0.000,0.000,0.000
1641207880415108864,2022-01-03-11:04:40,10.1.1.7,180,-0.340,-0.340,-0.340,0.000,0.000,0.000
1641207880605537792,2022-01-03-11:04:40,10.1.1.7,170,-0.330,-0.330,-0.330,0.000,0.000,0.000
1641207880814137856,2022-01-03-11:04:40,10.1.1.7,178,-0.320,-0.320,-0.320,0.000,0.000,0.000
1641207881013846016,2022-01-03-11:04:41,10.1.1.7,177,-0.310,-0.310,-0.310,0.000,0.000,0.000
1641207881195041024,2022-01-03-11:04:41,10.1.1.7,158,-0.300,-0.300,-0.300,0.000,0.000,0.000
1641207881406508032,2022-01-03-11:04:41,10.1.1.7,169,-0.290,-0.290,-0.290,0.000,0.000,0.000
1641207881606946048,2022-01-03-11:04:41,10.1.1.7,169,-0.280,-0.280,-0.280,0.000,0.000,0.000
1641207881808985088,2022-01-03-11:04:41,10.1.1.7,170,-0.270,-0.270,-0.270,0.000,0.000,0.000
1641207882009566976,2022-01-03-11:04:42,10.1.1.7,171,-0.260,-0.260,-0.260,0.000,0.000,0.000
1641207882211740928,2022-01-03-11:04:42,10.1.1.7,172,-0.250,-0.250,-0.250,0.000,0.000,0.000
1641207882414225152,2022-01-03-11:04:42,10.1.1.7,173,-0.240,-0.240,-0.240,0.000,0.000,0.000
1641207882612084992,2022-01-03-11:04:42,10.1.1.7,170,-0.230,-0.230,-0.230,0.000,0.000,0.000
1641207882814193920,2022-01-03-11:04:42,10.1.1.7,170,-0.220,-0.220,-0.220,0.000,0.000,0.000
1641207883014298880,2022-01-03-11:04:43,10.1.1.7,170,-0.210,-0.210,-0.210,0.000,0.000,0.000
1641207883214381056,2022-01-03-11:04:43,10.1.1.7,169,-0.200,-0.200,-0.200,0.000,0.000,0.000
1641207883416336128,2022-01-03-11:04:43,10.1.1.7,170,-0.190,-0.190,-0.190,0.000,0.000,0.000
1641207883626425856,2022-01-03-11:04:43,10.1.1.7,179,-0.180,-0.180,-0.180,0.000,0.000,0.000
1641207883826791936,2022-01-03-11:04:43,10.1.1.7,179,-0.170,-0.170,-0.170,0.000,0.000,0.000
1641207884038269952,2022-01-03-11:04:44,10.1.1.7,188,-0.160,-0.160,-0.160,0.000,0.000,0.000
1641207884248041984,2022-01-03-11:04:44,10.1.1.7,198,-0.150,-0.150,-0.150,0.000,0.000,0.000
1641207884428560128,2022-01-03-11:04:44,10.1.1.7,178,-0.140,-0.140,-0.140,0.000,0.000,0.000
1641207884628982016,2022-01-03-11:04:44,10.1.1.7,178,-0.130,-0.130,-0.130,0.000,0.000,0.000
1641207884840249088,2022-01-03-11:04:44,10.1.1.7,188,-0.120,-0.120,-0.120,0.000,0.000,0.000
1641207885044158976,2022-01-03-11:04:45,10.1.1.7,192,-0.110,-0.110,-0.110,0.000,0.000,0.000
1641207885231592960,2022-01-03-11:04:45,10.1.1.7,179,-0.100,-0.100,-0.100,0.000,0.000,0.000
1641207885431677952,2022-01-03-11:04:45,10.1.1.7,178,-0.090,-0.090,-0.090,0.000,0.000,0.000
1641207885651725056,2022-01-03-11:04:45,10.1.1.7,198,-0.080,-0.080,-0.080,0.000,0.000,0.000
1641207885832572928,2022-01-03-11:04:45,10.1.1.7,178,-0.070,-0.070,-0.070,0.000,0.000,0.000
1641207886043240960,2022-01-03-11:04:46,10.1.1.7,188,-0.060,-0.060,-0.060,0.000,0.000,0.000
1641207886243870976,2022-01-03-11:04:46,10.1.1.7,188,-0.050,-0.050,-0.050,0.000,0.000,0.000
1641207886444396032,2022-01-03-11:04:46,10.1.1.7,189,-0.040,-0.040,-0.040,0.000,0.000,0.000
1641207886645332224,2022-01-03-11:04:46,10.1.1.7,189,-0.030,-0.030,-0.030,0.000,0.000,0.000
1641207886844777216,2022-01-03-11:04:46,10.1.1.7,188,-0.020,-0.020,-0.020,0.000,0.000,0.000
1641207887034668032,2022-01-03-11:04:47,10.1.1.7,177,-0.010,-0.010,-0.010,0.000,0.000,0.000
1641207887235500032,2022-01-03-11:04:47,10.1.1.7,177,-0.000,-0.000,-0.000,0.000,0.000,0.000
1641207887457199104,2022-01-03-11:04:47,10.1.1.7,198,-0.010,-0.010,-0.010,0.000,0.000,0.000
1641207887645894912,2022-01-03-11:04:47,10.1.1.7,185,-0.020,-0.020,-0.020,0.000,0.000,0.000
1641207888047463936,2022-01-03-11:04:48,10.1.1.7,185,-0.040,-0.040,-0.040,0.000,0.000,0.000
1641207888256336896,2022-01-03-11:04:48,10.1.1.7,193,-0.050,-0.050,-0.050,0.000,0.000,0.000
1641207888446444032,2022-01-03-11:04:48,10.1.1.7,181,-0.060,-0.060,-0.060,0.000,0.000,0.000
1641207888647212032,2022-01-03-11:04:48,10.1.1.7,181,-0.070,-0.070,-0.070,0.000,0.000,0.000
1641207888847644928,2022-01-03-11:04:48,10.1.1.7,181,-0.080,-0.080,-0.080,0.000,0.000,0.000
1641207889046957056,2022-01-03-11:04:49,10.1.1.7,180,-0.090,-0.090,-0.090,0.000,0.000,0.000
1641207889247510784,2022-01-03-11:04:49,10.1.1.7,180,-0.100,-0.100,-0.100,0.000,0.000,0.000
1641207889448779008,2022-01-03-11:04:49,10.1.1.7,180,-0.110,-0.110,-0.110,0.000,0.000,0.000
1641207890257679104,2022-01-03-11:04:50,10.1.1.7,187,-0.150,-0.150,-0.150,0.000,0.000,0.000
1641207890458761984,2022-01-03-11:04:50,10.1.1.7,187,-0.160,-0.160,-0.160,0.000,0.000,0.000
1641207890658472960,2022-01-03-11:04:50,10.1.1.7,187,-0.170,-0.170,-0.170,0.000,0.000,0.000
1641207890858292992,2022-01-03-11:04:50,10.1.1.7,186,-0.180,-0.180,-0.180,0.000,0.000,0.000
1641207891268783104,2022-01-03-11:04:51,10.1.1.7,194,-0.200,-0.200,-0.200,0.000,0.000,0.000
1641207891469315072,2022-01-03-11:04:51,10.1.1.7,194,-0.210,-0.210,-0.210,0.000,0.000,0.000
1641207891669043968,2022-01-03-11:04:51,10.1.1.7,193,-0.220,-0.220,-0.220,0.000,0.000,0.000
1641207892068883968,2022-01-03-11:04:52,10.1.1.7,192,-0.240,-0.240,-0.240,0.000,0.000,0.000
1641207892268589056,2022-01-03-11:04:52,10.1.1.7,191,-0.250,-0.250,-0.250,0.000,0.000,0.000
1641207892468655104,2022-01-03-11:04:52,10.1.1.7,190,-0.260,-0.260,-0.260,0.000,0.000,0.000
1641207892668067840,2022-01-03-11:04:52,10.1.1.7,189,-0.270,-0.270,-0.270,0.000,0.000,0.000
1641207892868726016,2022-01-03-11:04:52,10.1.1.7,189,-0.280,-0.280,-0.280,0.000,0.000,0.000
1641207893068667904,2022-01-03-11:04:53,10.1.1.7,188,-0.290,-0.290,-0.290,0.000,0.000,0.000
1641207893268491008,2022-01-03-11:04:53,10.1.1.7,187,-0.300,-0.300,-0.300,0.000,0.000,0.000
1641207893468008960,2022-01-03-11:04:53,10.1.1.7,186,-0.310,-0.310,-0.310,0.000,0.000,0.000
1641207893668466944,2022-01-03-11:04:53,10.1.1.7,186,-0.320,-0.320,-0.320,0.000,0.000,0.000
1641207893867628032,2022-01-03-11:04:53,10.1.1.7,184,-0.330,-0.330,-0.330,0.000,0.000,0.000
1641207894077568000,2022-01-03-11:04:54,10.1.1.7,194,-0.340,-0.340,-0.340,0.000,0.000,0.000
1641207894267666176,2022-01-03-11:04:54,10.1.1.7,183,-0.350,-0.350,-0.350,0.000,0.000,0.000
1641207894469047040,2022-01-03-11:04:54,10.1.1.7,184,-0.360,-0.360,-0.360,0.000,0.000,0.000
1641207894686345984,2022-01-03-11:04:54,10.1.1.7,201,-0.370,-0.370,-0.370,0.000,0.000,0.000
1641207894877953024,2022-01-03-11:04:54,10.1.1.7,190,-0.380,-0.380,-0.380,0.000,0.000,0.000
1641207895288414976,2022-01-03-11:04:55,10.1.1.7,198,-0.400,-0.400,-0.400,0.000,0.000,0.000
1641207895486827008,2022-01-03-11:04:55,10.1.1.7,196,-0.410,-0.410,-0.410,0.000,0.000,0.000
1641207895889946880,2022-01-03-11:04:55,10.1.1.7,196,-0.430,-0.430,-0.430,0.000,0.000,0.000
1641207896092035072,2022-01-03-11:04:56,10.1.1.7,199,-0.440,-0.440,-0.440,0.000,0.000,0.000
1641207896277043968,2022-01-03-11:04:56,10.1.1.7,184,-0.450,-0.450,-0.450,0.000,0.000,0.000
1641207896686129920,2022-01-03-11:04:56,10.1.1.7,191,-0.470,-0.470,-0.470,0.000,0.000,0.000
1641207896886061824,2022-01-03-11:04:56,10.1.1.7,191,-0.480,-0.480,-0.480,0.000,0.000,0.000
1641207897086124032,2022-01-03-11:04:57,10.1.1.7,190,-0.490,-0.490,-0.490,0.000,0.000,0.000
1641207897295758848,2022-01-03-11:04:57,10.1.1.7,199,-0.480,-0.480,-0.480,0.000,0.000,0.000
1641207897476126976,2022-01-03-11:04:57,10.1.1.7,179,-0.470,-0.470,-0.470,0.000,0.000,0.000
1641207897675329024,2022-01-03-11:04:57,10.1.1.7,178,-0.460,-0.460,-0.460,0.000,0.000,0.000
1641207897895896064,2022-01-03-11:04:57,10.1.1.7,198,-0.450,-0.450,-0.450,0.000,0.000,0.000
1641207898085587968,2022-01-03-11:04:58,10.1.1.7,187,-0.440,-0.440,-0.440,0.000,0.000,0.000
1641207898295238144,2022-01-03-11:04:58,10.1.1.7,196,-0.430,-0.430,-0.430,0.000,0.000,0.000
1641207898495986944,2022-01-03-11:04:58,10.1.1.7,197,-0.420,-0.420,-0.420,0.000,0.000,0.000
1641207898694447872,2022-01-03-11:04:58,10.1.1.7,194,-0.410,-0.410,-0.410,0.000,0.000,0.000
1641207898886540032,2022-01-03-11:04:58,10.1.1.7,185,-0.400,-0.400,-0.400,0.000,0.000,0.000
1641207899084628992,2022-01-03-11:04:59,10.1.1.7,182,-0.390,-0.390,-0.390,0.000,0.000,0.000
1641207899284486144,2022-01-03-11:04:59,10.1.1.7,181,-0.380,-0.380,-0.380,0.000,0.000,0.000
1641207899493492992,2022-01-03-11:04:59,10.1.1.7,190,-0.370,-0.370,-0.370,0.000,0.000,0.000
1641207899693378816,2022-01-03-11:04:59,10.1.1.7,190,-0.360,-0.360,-0.360,0.000,0.000,0.000
1641207899892888064,2022-01-03-11:04:59,10.1.1.7,189,-0.350,-0.350,-0.350,0.000,0.000,0.000
1641207900092833024,2022-01-03-11:05:00,10.1.1.7,188,-0.340,-0.340,-0.340,0.000,0.000,0.000
1641207900282438912,2022-01-03-11:05:00,10.1.1.7,177,-0.330,-0.330,-0.330,0.000,0.000,0.000
1641207900483973120,2022-01-03-11:05:00,10.1.1.7,178,-0.320,-0.320,-0.320,0.000,0.000,0.000
1641207900692337920,2022-01-03-11:05:00,10.1.1.7,186,-0.310,-0.310,-0.310,0.000,0.000,0.000
1641207900882157056,2022-01-03-11:05:00,10.1.1.7,175,-0.300,-0.300,-0.300,0.000,0.000,0.000
1641207901081914880,2022-01-03-11:05:01,10.1.1.7,174,-0.290,-0.290,-0.290,0.000,0.000,0.000
1641207901281555968,2022-01-03-11:05:01,10.1.1.7,173,-0.280,-0.280,-0.280,0.000,0.000,0.000
1641207901491489024,2022-01-03-11:05:01,10.1.1.7,183,-0.270,-0.270,-0.270,0.000,0.000,0.000
1641207901700822016,2022-01-03-11:05:01,10.1.1.7,192,-0.260,-0.260,-0.260,0.000,0.000,0.000
1641207902090349824,2022-01-03-11:05:02,10.1.1.7,180,-0.240,-0.240,-0.240,0.000,0.000,0.000
1641207902289961216,2022-01-03-11:05:02,10.1.1.7,179,-0.230,-0.230,-0.230,0.000,0.000,0.000
1641207902509699072,2022-01-03-11:05:02,10.1.1.7,198,-0.220,-0.220,-0.220,0.000,0.000,0.000
1641207902690188800,2022-01-03-11:05:02,10.1.1.7,178,-0.210,-0.210,-0.210,0.000,0.000,0.000
1641207902889508096,2022-01-03-11:05:02,10.1.1.7,177,-0.200,-0.200,-0.200,0.000,0.000,0.000
1641207903099926016,2022-01-03-11:05:03,10.1.1.7,187,-0.190,-0.190,-0.190,0.000,0.000,0.000
1641207903298834944,2022-01-03-11:05:03,10.1.1.7,184,-0.180,-0.180,-0.180,0.000,0.000,0.000
1641207903499291904,2022-01-03-11:05:03,10.1.1.7,183,-0.170,-0.170,-0.170,0.000,0.000,0.000
1641207903698589184,2022-01-03-11:05:03,10.1.1.7,182,-0.160,-0.160,-0.160,0.000,0.000,0.000
1641207903897965824,2022-01-03-11:05:03,10.1.1.7,181,-0.150,-0.150,-0.150,0.000,0.000,0.000
1641207904107415808,2022-01-03-11:05:04,10.1.1.7,189,-0.140,-0.140,-0.140,0.000,0.000,0.000
1641207904298029824,2022-01-03-11:05:04,10.1.1.7,179,-0.130,-0.130,-0.130,0.000,0.000,0.000
1641207904498088960,2022-01-03-11:05:04,10.1.1.7,179,-0.120,-0.120,-0.120,0.000,0.000,0.000
1641207904696762112,2022-01-03-11:05:04,10.1.1.7,177,-0.110,-0.110,-0.110,0.000,0.000,0.000
1641207904906441984,2022-01-03-11:05:04,10.1.1.7,186,-0.100,-0.100,-0.100,0.000,0.000,0.000
1641207905106228224,2022-01-03-11:05:05,10.1.1.7,185,-0.090,-0.090,-0.090,0.000,0.000,0.000
1641207905296545024,2022-01-03-11:05:05,10.1.1.7,175,-0.080,-0.080,-0.080,0.000,0.000,0.000
1641207905496056064,2022-01-03-11:05:05,10.1.1.7,173,-0.070,-0.070,-0.070,0.000,0.000,0.000
1641207905705997056,2022-01-03-11:05:05,10.1.1.7,183,-0.060,-0.060,-0.060,0.000,0.000,0.000
1641207905906130176,2022-01-03-11:05:05,10.1.1.7,183,-0.050,-0.050,-0.050,0.000,0.000,0.000
1641207906106721024,2022-01-03-11:05:06,10.1.1.7,182,-0.040,-0.040,-0.040,0.000,0.000,0.000
1641207906304508928,2022-01-03-11:05:06,10.1.1.7,179,-0.030,-0.030,-0.030,0.000,0.000,0.000
1641207906504841216,2022-01-03-11:05:06,10.1.1.7,179,-0.020,-0.020,-0.020,0.000,0.000,0.000
1641207906704389120,2022-01-03-11:05:06,10.1.1.7,178,-0.010,-0.010,-0.010,0.000,0.000,0.000
1641207906893723136,2022-01-03-11:05:06,10.1.1.7,167,-0.000,-0.000,-0.000,0.000,0.000,0.000
1641207907106692096,2022-01-03-11:05:07,10.1.1.7,179,-0.010,-0.010,-0.010,0.000,0.000,0.000
1641207907313262848,2022-01-03-11:05:07,10.1.1.7,184,-0.020,-0.020,-0.020,0.000,0.000,0.000
1641207907503515904,2022-01-03-11:05:07,10.1.1.7,174,-0.030,-0.030,-0.030,0.000,0.000,0.000
1641207907723005184,2022-01-03-11:05:07,10.1.1.7,193,-0.040,-0.040,-0.040,0.000,0.000,0.000
1641207907901854976,2022-01-03-11:05:07,10.1.1.7,172,-0.050,-0.050,-0.050,0.000,0.000,0.000
1641207908113303040,2022-01-03-11:05:08,10.1.1.7,182,-0.060,-0.060,-0.060,0.000,0.000,0.000
1641207908302136064,2022-01-03-11:05:08,10.1.1.7,170,-0.070,-0.070,-0.070,0.000,0.000,0.000
1641207908501313024,2022-01-03-11:05:08,10.1.1.7,169,-0.080,-0.080,-0.080,0.000,0.000,0.000
1641207908717325056,2022-01-03-11:05:08,10.1.1.7,184,-0.090,-0.090,-0.090,0.000,0.000,0.000
1641207908912069120,2022-01-03-11:05:08,10.1.1.7,178,-0.100,-0.100,-0.100,0.000,0.000,0.000
1641207909122646016,2022-01-03-11:05:09,10.1.1.7,187,-0.110,-0.110,-0.110,0.000,0.000,0.000
1641207909312509184,2022-01-03-11:05:09,10.1.1.7,172,-0.120,-0.120,-0.120,0.000,0.000,0.000
1641207909519813888,2022-01-03-11:05:09,10.1.1.7,180,-0.130,-0.130,-0.130,0.000,0.000,0.000
1641207909720824832,2022-01-03-11:05:09,10.1.1.7,180,-0.140,-0.140,-0.140,0.000,0.000,0.000
1641207909909692160,2022-01-03-11:05:09,10.1.1.7,163,-0.150,-0.150,-0.150,0.000,0.000,0.000
1641207910109236992,2022-01-03-11:05:10,10.1.1.7,162,-0.160,-0.160,-0.160,0.000,0.000,0.000
1641207910330548992,2022-01-03-11:05:10,10.1.1.7,181,-0.170,-0.170,-0.170,0.000,0.000,0.000
1641207910520342016,2022-01-03-11:05:10,10.1.1.7,170,-0.180,-0.180,-0.180,0.000,0.000,0.000
1641207910727767040,2022-01-03-11:05:10,10.1.1.7,177,-0.190,-0.190,-0.190,0.000,0.000,0.000
1641207910928119040,2022-01-03-11:05:10,10.1.1.7,177,-0.200,-0.200,-0.200,0.000,0.000,0.000
1641207911119369984,2022-01-03-11:05:11,10.1.1.7,166,-0.210,-0.210,-0.210,0.000,0.000,0.000
1641207911317081088,2022-01-03-11:05:11,10.1.1.7,164,-0.220,-0.220,-0.220,0.000,0.000,0.000
1641207911517505024,2022-01-03-11:05:11,10.1.1.7,164,-0.230,-0.230,-0.230,0.000,0.000,0.000
1641207911727216896,2022-01-03-11:05:11,10.1.1.7,173,-0.240,-0.240,-0.240,0.000,0.000,0.000
1641207911915920128,2022-01-03-11:05:11,10.1.1.7,161,-0.250,-0.250,-0.250,0.000,0.000,0.000
1641207912115678976,2022-01-03-11:05:12,10.1.1.7,161,-0.260,-0.260,-0.260,0.000,0.000,0.000
1641207912315666944,2022-01-03-11:05:12,10.1.1.7,159,-0.270,-0.270,-0.270,0.000,0.000,0.000
1641207912539158016,2022-01-03-11:05:12,10.1.1.7,182,-0.280,-0.280,-0.280,0.000,0.000,0.000
1641207912735057152,2022-01-03-11:05:12,10.1.1.7,177,-0.290,-0.290,-0.290,0.000,0.000,0.000
1641207912931513088,2022-01-03-11:05:12,10.1.1.7,166,-0.300,-0.300,-0.300,0.000,0.000,0.000
1641207913135514112,2022-01-03-11:05:13,10.1.1.7,176,-0.310,-0.310,-0.310,0.000,0.000,0.000
1641207913333615104,2022-01-03-11:05:13,10.1.1.7,173,-0.320,-0.320,-0.320,0.000,0.000,0.000
1641207913534221824,2022-01-03-11:05:13,10.1.1.7,173,-0.330,-0.330,-0.330,0.000,0.000,0.000
1641207913734048000,2022-01-03-11:05:13,10.1.1.7,172,-0.340,-0.340,-0.340,0.000,0.000,0.000
1641207913925540864,2022-01-03-11:05:13,10.1.1.7,164,-0.350,-0.350,-0.350,0.000,0.000,0.000
1641207914123235072,2022-01-03-11:05:14,10.1.1.7,161,-0.360,-0.360,-0.360,0.000,0.000,0.000
1641207914335180032,2022-01-03-11:05:14,10.1.1.7,172,-0.370,-0.370,-0.370,0.000,0.000,0.000
1641207914525846016,2022-01-03-11:05:14,10.1.1.7,162,-0.380,-0.380,-0.380,0.000,0.000,0.000
1641207914736669184,2022-01-03-11:05:14,10.1.1.7,173,-0.390,-0.390,-0.390,0.000,0.000,0.000
1641207914938076928,2022-01-03-11:05:14,10.1.1.7,173,-0.400,-0.400,-0.400,0.000,0.000,0.000
1641207915133511936,2022-01-03-11:05:15,10.1.1.7,168,-0.410,-0.410,-0.410,0.000,0.000,0.000
1641207915339840000,2022-01-03-11:05:15,10.1.1.7,174,-0.420,-0.420,-0.420,0.000,0.000,0.000
1641207915530400000,2022-01-03-11:05:15,10.1.1.7,164,-0.430,-0.430,-0.430,0.000,0.000,0.000
1641207915741552128,2022-01-03-11:05:15,10.1.1.7,175,-0.440,-0.440,-0.440,0.000,0.000,0.000
1641207915932353024,2022-01-03-11:05:15,10.1.1.7,165,-0.450,-0.450,-0.450,0.000,0.000,0.000
1641207916143446016,2022-01-03-11:05:16,10.1.1.7,175,-0.460,-0.460,-0.460,0.000,0.000,0.000
1641207916343284992,2022-01-03-11:05:16,10.1.1.7,174,-0.470,-0.470,-0.470,0.000,0.000,0.000
1641207916544369920,2022-01-03-11:05:16,10.1.1.7,174,-0.480,-0.480,-0.480,0.000,0.000,0.000
1641207916745207040,2022-01-03-11:05:16,10.1.1.7,174,-0.490,-0.490,-0.490,0.000,0.000,0.000
1641207916946479104,2022-01-03-11:05:16,10.1.1.7,175,-0.480,-0.480,-0.480,0.000,0.000,0.000
1641207917157836032,2022-01-03-11:05:17,10.1.1.7,186,-0.470,-0.470,-0.470,0.000,0.000,0.000
1641207917357551104,2022-01-03-11:05:17,10.1.1.7,185,-0.460,-0.460,-0.460,0.000,0.000,0.000
1641207917567462912,2022-01-03-11:05:17,10.1.1.7,194,-0.450,-0.450,-0.450,0.000,0.000,0.000
1641207917748044032,2022-01-03-11:05:17,10.1.1.7,174,-0.440,-0.440,-0.440,0.000,0.000,0.000
1641207917958672896,2022-01-03-11:05:17,10.1.1.7,184,-0.430,-0.430,-0.430,0.000,0.000,0.000
1641207918161235200,2022-01-03-11:05:18,10.1.1.7,186,-0.420,-0.420,-0.420,0.000,0.000,0.000
1641207918350747136,2022-01-03-11:05:18,10.1.1.7,175,-0.410,-0.410,-0.410,0.000,0.000,0.000
1641207918570742016,2022-01-03-11:05:18,10.1.1.7,192,-0.400,-0.400,-0.400,0.000,0.000,0.000
1641207918761025792,2022-01-03-11:05:18,10.1.1.7,179,-0.390,-0.390,-0.390,0.000,0.000,0.000
1641207918971558144,2022-01-03-11:05:18,10.1.1.7,189,-0.380,-0.380,-0.380,0.000,0.000,0.000
1641207919172027136,2022-01-03-11:05:19,10.1.1.7,189,-0.370,-0.370,-0.370,0.000,0.000,0.000
1641207919372514048,2022-01-03-11:05:19,10.1.1.7,189,-0.360,-0.360,-0.360,0.000,0.000,0.000
1641207919574268160,2022-01-03-11:05:19,10.1.1.7,190,-0.350,-0.350,-0.350,0.000,0.000,0.000
1641207919773662208,2022-01-03-11:05:19,10.1.1.7,189,-0.340,-0.340,-0.340,0.000,0.000,0.000
1641207919964365056,2022-01-03-11:05:19,10.1.1.7,179,-0.330,-0.330,-0.330,0.000,0.000,0.000
1641207920174848000,2022-01-03-11:05:20,10.1.1.7,188,-0.320,-0.320,-0.320,0.000,0.000,0.000
1641207920374723840,2022-01-03-11:05:20,10.1.1.7,187,-0.310,-0.310,-0.310,0.000,0.000,0.000
1641207920574670080,2022-01-03-11:05:20,10.1.1.7,185,-0.300,-0.300,-0.300,0.000,0.000,0.000
1641207920774411008,2022-01-03-11:05:20,10.1.1.7,183,-0.290,-0.290,-0.290,0.000,0.000,0.000
1641207920974894080,2022-01-03-11:05:20,10.1.1.7,183,-0.280,-0.280,-0.280,0.000,0.000,0.000
1641207921175513088,2022-01-03-11:05:21,10.1.1.7,184,-0.270,-0.270,-0.270,0.000,0.000,0.000
1641207921585465856,2022-01-03-11:05:21,10.1.1.7,192,-0.250,-0.250,-0.250,0.000,0.000,0.000
1641207921777071104,2022-01-03-11:05:21,10.1.1.7,183,-0.240,-0.240,-0.240,0.000,0.000,0.000
1641207921986104064,2022-01-03-11:05:21,10.1.1.7,192,-0.230,-0.230,-0.230,0.000,0.000,0.000
1641207922176128000,2022-01-03-11:05:22,10.1.1.7,181,-0.220,-0.220,-0.220,0.000,0.000,0.000
1641207922388222976,2022-01-03-11:05:22,10.1.1.7,192,-0.210,-0.210,-0.210,0.000,0.000,0.000
1641207922586839040,2022-01-03-11:05:22,10.1.1.7,190,-0.200,-0.200,-0.200,0.000,0.000,0.000
1641207922787662080,2022-01-03-11:05:22,10.1.1.7,190,-0.190,-0.190,-0.190,0.000,0.000,0.000
1641207922996852992,2022-01-03-11:05:22,10.1.1.7,199,-0.180,-0.180,-0.180,0.000,0.000,0.000
1641207923187171840,2022-01-03-11:05:23,10.1.1.7,189,-0.170,-0.170,-0.170,0.000,0.000,0.000
1641207923387924992,2022-01-03-11:05:23,10.1.1.7,189,-0.160,-0.160,-0.160,0.000,0.000,0.000
1641207923797095936,2022-01-03-11:05:23,10.1.1.7,193,-0.140,-0.140,-0.140,0.000,0.000,0.000
1641207923987073792,2022-01-03-11:05:23,10.1.1.7,181,-0.130,-0.130,-0.130,0.000,0.000,0.000
1641207924198009856,2022-01-03-11:05:24,10.1.1.7,191,-0.120,-0.120,-0.120,0.000,0.000,0.000
1641207924387995904,2022-01-03-11:05:24,10.1.1.7,181,-0.110,-0.110,-0.110,0.000,0.000,0.000
1641207924587165184,2022-01-03-11:05:24,10.1.1.7,179,-0.100,-0.100,-0.100,0.000,0.000,0.000
1641207924797595904,2022-01-03-11:05:24,10.1.1.7,188,-0.090,-0.090,-0.090,0.000,0.000,0.000
1641207925208583168,2022-01-03-11:05:25,10.1.1.7,195,-0.070,-0.070,-0.070,0.000,0.000,0.000
1641207925407416064,2022-01-03-11:05:25,10.1.1.7,194,-0.060,-0.060,-0.060,0.000,0.000,0.000
1641207925607023104,2022-01-03-11:05:25,10.1.1.7,193,-0.050,-0.050,-0.050,0.000,0.000,0.000
1641207925797581824,2022-01-03-11:05:25,10.1.1.7,182,-0.040,-0.040,-0.040,0.000,0.000,0.000
1641207926006962176,2022-01-03-11:05:26,10.1.1.7,192,-0.030,-0.030,-0.030,0.000,0.000,0.000
1641207926214145792,2022-01-03-11:05:26,10.1.1.7,197,-0.020,-0.020,-0.020,0.000,0.000,0.000
1641207926416985088,2022-01-03-11:05:26,10.1.1.7,198,-0.010,-0.010,-0.010,0.000,0.000,0.000
1641207926607554048,2022-01-03-11:05:26,10.1.1.7,188,0.000,0.000,0.000,0.000,0.000,0.000
1641207926807739136,2022-01-03-11:05:26,10.1.1.7,188,-0.010,-0.010,-0.010,0.000,0.000,0.000
1641207927006679040,2022-01-03-11:05:27,10.1.1.7,186,-0.020,-0.020,-0.020,0.000,0.000,0.000
1641207927217363968,2022-01-03-11:05:27,10.1.1.7,196,-0.030,-0.030,-0.030,0.000,0.000,0.000
1641207927417624064,2022-01-03-11:05:27,10.1.1.7,195,-0.040,-0.040,-0.040,0.000,0.000,0.000
1641207927616430080,2022-01-03-11:05:27,10.1.1.7,188,-0.050,-0.050,-0.050,0.000,0.000,0.000
1641207928235985152,2022-01-03-11:05:28,10.1.1.7,200,-0.080,-0.080,-0.080,0.000,0.000,0.000
1641207928436512000,2022-01-03-11:05:28,10.1.1.7,200,-0.090,-0.090,-0.090,0.000,0.000,0.000
1641207928626002176,2022-01-03-11:05:28,10.1.1.7,188,-0.100,-0.100,-0.100,0.000,0.000,0.000
1641207928816243968,2022-01-03-11:05:28,10.1.1.7,178,-0.110,-0.110,-0.110,0.000,0.000,0.000
1641207929038414848,2022-01-03-11:05:29,10.1.1.7,199,-0.120,-0.120,-0.120,0.000,0.000,0.000
1641207929225581056,2022-01-03-11:05:29,10.1.1.7,186,-0.130,-0.130,-0.130,0.000,0.000,0.000
1641207929435945984,2022-01-03-11:05:29,10.1.1.7,195,-0.140,-0.140,-0.140,0.000,0.000,0.000
1641207929635144960,2022-01-03-11:05:29,10.1.1.7,193,-0.150,-0.150,-0.150,0.000,0.000,0.000
1641207929835357952,2022-01-03-11:05:29,10.1.1.7,193,-0.160,-0.160,-0.160,0.000,0.000,0.000
1641207930024621056,2022-01-03-11:05:30,10.1.1.7,182,-0.170,-0.170,-0.170,0.000,0.000,0.000
1641207930237634816,2022-01-03-11:05:30,10.1.1.7,194,-0.180,-0.180,-0.180,0.000,0.000,0.000
1641207930424628992,2022-01-03-11:05:30,10.1.1.7,181,-0.190,-0.190,-0.190,0.000,0.000,0.000
1641207930625309952,2022-01-03-11:05:30,10.1.1.7,181,-0.200,-0.200,-0.200,0.000,0.000,0.000
1641207930834654208,2022-01-03-11:05:30,10.1.1.7,181,-0.210,-0.210,-0.210,0.000,0.000,0.000
1641207931035000064,2022-01-03-11:05:31,10.1.1.7,181,-0.220,-0.220,-0.220,0.000,0.000,0.000
1641207931455475200,2022-01-03-11:05:31,10.1.1.7,200,-0.240,-0.240,-0.240,0.000,0.000,0.000
1641207931643908864,2022-01-03-11:05:31,10.1.1.7,186,-0.250,-0.250,-0.250,0.000,0.000,0.000
1641207931843913984,2022-01-03-11:05:31,10.1.1.7,185,-0.260,-0.260,-0.260,0.000,0.000,0.000
1641207932043962880,2022-01-03-11:05:32,10.1.1.7,185,-0.270,-0.270,-0.270,0.000,0.000,0.000
1641207932243695872,2022-01-03-11:05:32,10.1.1.7,184,-0.280,-0.280,-0.280,0.000,0.000,0.000
1641207932453249024,2022-01-03-11:05:32,10.1.1.7,193,-0.290,-0.290,-0.290,0.000,0.000,0.000
1641207932654071040,2022-01-03-11:05:32,10.1.1.7,190,-0.300,-0.300,-0.300,0.000,0.000,0.000
1641207932844517888,2022-01-03-11:05:32,10.1.1.7,179,-0.310,-0.310,-0.310,0.000,0.000,0.000
1641207933054403072,2022-01-03-11:05:33,10.1.1.7,190,-0.320,-0.320,-0.320,0.000,0.000,0.000
1641207933271992832,2022-01-03-11:05:33,10.1.1.7,193,-0.330,-0.330,-0.330,0.000,0.000,0.000
1641207933462172928,2022-01-03-11:05:33,10.1.1.7,182,-0.340,-0.340,-0.340,0.000,0.000,0.000
1641207933671412992,2022-01-03-11:05:33,10.1.1.7,191,-0.350,-0.350,-0.350,0.000,0.000,0.000
1641207933861552896,2022-01-03-11:05:33,10.1.1.7,180,-0.360,-0.360,-0.360,0.000,0.000,0.000
1641207934072416000,2022-01-03-11:05:34,10.1.1.7,190,-0.370,-0.370,-0.370,0.000,0.000,0.000
1641207934261540864,2022-01-03-11:05:34,10.1.1.7,178,-0.380,-0.380,-0.380,0.000,0.000,0.000
1641207934484596992,2022-01-03-11:05:34,10.1.1.7,193,-0.390,-0.390,-0.390,0.000,0.000,0.000
1641207934670501888,2022-01-03-11:05:34,10.1.1.7,178,-0.400,-0.400,-0.400,0.000,0.000,0.000
1641207934890582016,2022-01-03-11:05:34,10.1.1.7,197,-0.410,-0.410,-0.410,0.000,0.000,0.000
1641207935080276992,2022-01-03-11:05:35,10.1.1.7,186,-0.420,-0.420,-0.420,0.000,0.000,0.000
1641207935283725056,2022-01-03-11:05:35,10.1.1.7,186,-0.430,-0.430,-0.430,0.000,0.000,0.000
1641207935490475008,2022-01-03-11:05:35,10.1.1.7,194,-0.440,-0.440,-0.440,0.000,0.000,0.000
1641207935678913024,2022-01-03-11:05:35,10.1.1.7,181,-0.450,-0.450,-0.450,0.000,0.000,0.000
1641207935879154944,2022-01-03-11:05:35,10.1.1.7,180,-0.460,-0.460,-0.460,0.000,0.000,0.000
1641207936088887040,2022-01-03-11:05:36,10.1.1.7,189,-0.470,-0.470,-0.470,0.000,0.000,0.000
1641207936288093184,2022-01-03-11:05:36,10.1.1.7,188,-0.480,-0.480,-0.480,0.000,0.000,0.000
1641207936491550976,2022-01-03-11:05:36,10.1.1.7,190,-0.490,-0.490,-0.490,0.000,0.000,0.000
1641207936687544064,2022-01-03-11:05:36,10.1.1.7,185,-0.480,-0.480,-0.480,0.000,0.000,0.000
1641207936886944000,2022-01-03-11:05:36,10.1.1.7,184,-0.470,-0.470,-0.470,0.000,0.000,0.000
1641207937077739008,2022-01-03-11:05:37,10.1.1.7,174,-0.460,-0.460,-0.460,0.000,0.000,0.000
1641207937286454016,2022-01-03-11:05:37,10.1.1.7,182,-0.450,-0.450,-0.450,0.000,0.000,0.000
1641207937476384000,2022-01-03-11:05:37,10.1.1.7,172,-0.440,-0.440,-0.440,0.000,0.000,0.000
1641207937686507008,2022-01-03-11:05:37,10.1.1.7,181,-0.430,-0.430,-0.430,0.000,0.000,0.000
1641207937875986176,2022-01-03-11:05:37,10.1.1.7,170,-0.420,-0.420,-0.420,0.000,0.000,0.000
1641207938086148864,2022-01-03-11:05:38,10.1.1.7,180,-0.410,-0.410,-0.410,0.000,0.000,0.000
1641207938285795072,2022-01-03-11:05:38,10.1.1.7,179,-0.400,-0.400,-0.400,0.000,0.000,0.000
1641207938475558144,2022-01-03-11:05:38,10.1.1.7,167,-0.390,-0.390,-0.390,0.000,0.000,0.000
1641207938694437888,2022-01-03-11:05:38,10.1.1.7,184,-0.380,-0.380,-0.380,0.000,0.000,0.000
1641207938884697088,2022-01-03-11:05:38,10.1.1.7,174,-0.370,-0.370,-0.370,0.000,0.000,0.000
1641207939104219904,2022-01-03-11:05:39,10.1.1.7,193,-0.360,-0.360,-0.360,0.000,0.000,0.000
1641207939294738176,2022-01-03-11:05:39,10.1.1.7,183,-0.350,-0.350,-0.350,0.000,0.000,0.000
1641207939504622848,2022-01-03-11:05:39,10.1.1.7,193,-0.340,-0.340,-0.340,0.000,0.000,0.000
1641207939702920960,2022-01-03-11:05:39,10.1.1.7,190,-0.330,-0.330,-0.330,0.000,0.000,0.000
1641207939890330112,2022-01-03-11:05:39,10.1.1.7,177,-0.320,-0.320,-0.320,0.000,0.000,0.000
1641207940102754048,2022-01-03-11:05:40,10.1.1.7,189,-0.310,-0.310,-0.310,0.000,0.000,0.000
1641207940282004992,2022-01-03-11:05:40,10.1.1.7,168,-0.300,-0.300,-0.300,0.000,0.000,0.000
1641207940481921792,2022-01-03-11:05:40,10.1.1.7,167,-0.290,-0.290,-0.290,0.000,0.000,0.000
1641207940681801984,2022-01-03-11:05:40,10.1.1.7,167,-0.280,-0.280,-0.280,0.000,0.000,0.000
1641207940901196032,2022-01-03-11:05:40,10.1.1.7,185,-0.270,-0.270,-0.270,0.000,0.000,0.000
1641207941083395072,2022-01-03-11:05:41,10.1.1.7,167,-0.260,-0.260,-0.260,0.000,0.000,0.000
1641207941281423104,2022-01-03-11:05:41,10.1.1.7,164,-0.250,-0.250,-0.250,0.000,0.000,0.000
1641207941480909056,2022-01-03-11:05:41,10.1.1.7,163,-0.240,-0.240,-0.240,0.000,0.000,0.000
1641207941680145152,2022-01-03-11:05:41,10.1.1.7,162,-0.230,-0.230,-0.230,0.000,0.000,0.000
1641207941894115840,2022-01-03-11:05:41,10.1.1.7,175,-0.220,-0.220,-0.220,0.000,0.000,0.000
1641207942089245952,2022-01-03-11:05:42,10.1.1.7,169,-0.210,-0.210,-0.210,0.000,0.000,0.000
1641207942289267968,2022-01-03-11:05:42,10.1.1.7,169,-0.200,-0.200,-0.200,0.000,0.000,0.000
1641207942499335936,2022-01-03-11:05:42,10.1.1.7,178,-0.190,-0.190,-0.190,0.000,0.000,0.000
1641207942698595072,2022-01-03-11:05:42,10.1.1.7,176,-0.180,-0.180,-0.180,0.000,0.000,0.000
1641207942888129024,2022-01-03-11:05:42,10.1.1.7,165,-0.170,-0.170,-0.170,0.000,0.000,0.000
1641207943097979136,2022-01-03-11:05:43,10.1.1.7,174,-0.160,-0.160,-0.160,0.000,0.000,0.000
1641207943287867904,2022-01-03-11:05:43,10.1.1.7,164,-0.150,-0.150,-0.150,0.000,0.000,0.000
1641207943487889152,2022-01-03-11:05:43,10.1.1.7,163,-0.140,-0.140,-0.140,0.000,0.000,0.000
1641207943687334144,2022-01-03-11:05:43,10.1.1.7,162,-0.130,-0.130,-0.130,0.000,0.000,0.000
1641207943896513024,2022-01-03-11:05:43,10.1.1.7,170,-0.120,-0.120,-0.120,0.000,0.000,0.000
1641207944086568192,2022-01-03-11:05:44,10.1.1.7,160,-0.110,-0.110,-0.110,0.000,0.000,0.000
1641207944285986816,2022-01-03-11:05:44,10.1.1.7,158,-0.100,-0.100,-0.100,0.000,0.000,0.000
1641207944496118016,2022-01-03-11:05:44,10.1.1.7,168,-0.090,-0.090,-0.090,0.000,0.000,0.000
1641207944706118144,2022-01-03-11:05:44,10.1.1.7,177,-0.080,-0.080,-0.080,0.000,0.000,0.000
1641207944895279872,2022-01-03-11:05:44,10.1.1.7,165,-0.070,-0.070,-0.070,0.000,0.000,0.000
1641207945105516800,2022-01-03-11:05:45,10.1.1.7,173,-0.060,-0.060,-0.060,0.000,0.000,0.000
1641207945304347136,2022-01-03-11:05:45,10.1.1.7,171,-0.050,-0.050,-0.050,0.000,0.000,0.000
1641207945504293888,2022-01-03-11:05:45,10.1.1.7,170,-0.040,-0.040,-0.040,0.000,0.000,0.000
1641207945715235840,2022-01-03-11:05:45,10.1.1.7,180,-0.030,-0.030,-0.030,0.000,0.000,0.000
1641207945905466112,2022-01-03-11:05:45,10.1.1.7,170,-0.020,-0.020,-0.020,0.000,0.000,0.000
1641207946104318976,2022-01-03-11:05:46,10.1.1.7,167,-0.010,-0.010,-0.010,0.000,0.000,0.000
1641207946295438080,2022-01-03-11:05:46,10.1.1.7,157,-0.000,-0.000,-0.000,0.000,0.000,0.000
1641207946507889152,2022-01-03-11:05:46,10.1.1.7,169,-0.010,-0.010,-0.010,0.000,0.000,0.000
1641207946707456000,2022-01-03-11:05:46,10.1.1.7,168,-0.020,-0.020,-0.020,0.000,0.000,0.000
1641207946908381952,2022-01-03-11:05:46,10.1.1.7,167,-0.030,-0.030,-0.030,0.000,0.000,0.000
1641207947109328128,2022-01-03-11:05:47,10.1.1.7,167,-0.040,-0.040,-0.040,0.000,0.000,0.000
1641207947320669952,2022-01-03-11:05:47,10.1.1.7,176,-0.050,-0.050,-0.050,0.000,0.000,0.000
1641207947511291136,2022-01-03-11:05:47,10.1.1.7,166,-0.060,-0.060,-0.060,0.000,0.000,0.000
1641207947712529920,2022-01-03-11:05:47,10.1.1.7,166,-0.070,-0.070,-0.070,0.000,0.000,0.000
1641207947913000192,2022-01-03-11:05:47,10.1.1.7,166,-0.080,-0.080,-0.080,0.000,0.000,0.000
1641207948113712128,2022-01-03-11:05:48,10.1.1.7,166,-0.090,-0.090,-0.090,0.000,0.000,0.000
1641207948314887936,2022-01-03-11:05:48,10.1.1.7,167,-0.100,-0.100,-0.100,0.000,0.000,0.000
1641207948515682816,2022-01-03-11:05:48,10.1.1.7,166,-0.110,-0.110,-0.110,0.000,0.000,0.000
1641207948736702976,2022-01-03-11:05:48,10.1.1.7,187,-0.120,-0.120,-0.120,0.000,0.000,0.000
1641207948936815104,2022-01-03-11:05:48,10.1.1.7,185,-0.130,-0.130,-0.130,0.000,0.000,0.000
1641207949138465024,2022-01-03-11:05:49,10.1.1.7,186,-0.140,-0.140,-0.140,0.000,0.000,0.000
1641207949338373888,2022-01-03-11:05:49,10.1.1.7,185,-0.150,-0.150,-0.150,0.000,0.000,0.000
1641207949540360960,2022-01-03-11:05:49,10.1.1.7,187,-0.160,-0.160,-0.160,0.000,0.000,0.000
1641207949738987008,2022-01-03-11:05:49,10.1.1.7,185,-0.170,-0.170,-0.170,0.000,0.000,0.000
1641207949929694976,2022-01-03-11:05:49,10.1.1.7,175,-0.180,-0.180,-0.180,0.000,0.000,0.000
1641207950129720832,2022-01-03-11:05:50,10.1.1.7,173,-0.190,-0.190,-0.190,0.000,0.000,0.000
1641207950350545920,2022-01-03-11:05:50,10.1.1.7,193,-0.200,-0.200,-0.200,0.000,0.000,0.000
1641207950541335040,2022-01-03-11:05:50,10.1.1.7,183,-0.210,-0.210,-0.210,0.000,0.000,0.000
1641207950741899008,2022-01-03-11:05:50,10.1.1.7,183,-0.220,-0.220,-0.220,0.000,0.000,0.000
1641207950942539008,2022-01-03-11:05:50,10.1.1.7,183,-0.230,-0.230,-0.230,0.000,0.000,0.000
1641207951142880000,2022-01-03-11:05:51,10.1.1.7,183,-0.240,-0.240,-0.240,0.000,0.000,0.000
1641207951352609024,2022-01-03-11:05:51,10.1.1.7,192,-0.250,-0.250,-0.250,0.000,0.000,0.000
1641207951543505920,2022-01-03-11:05:51,10.1.1.7,181,-0.260,-0.260,-0.260,0.000,0.000,0.000
1641207951753103872,2022-01-03-11:05:51,10.1.1.7,188,-0.270,-0.270,-0.270,0.000,0.000,0.000
1641207951944632064,2022-01-03-11:05:51,10.1.1.7,178,-0.280,-0.280,-0.280,0.000,0.000,0.000
1641207952155138048,2022-01-03-11:05:52,10.1.1.7,186,-0.290,-0.290,-0.290,0.000,0.000,0.000
1641207952364764928,2022-01-03-11:05:52,10.1.1.7,196,-0.300,-0.300,-0.300,0.000,0.000,0.000
1641207952966003968,2022-01-03-11:05:52,10.1.1.7,194,-0.330,-0.330,-0.330,0.000,0.000,0.000
1641207953155979008,2022-01-03-11:05:53,10.1.1.7,183,-0.340,-0.340,-0.340,0.000,0.000,0.000
1641207953356017152,2022-01-03-11:05:53,10.1.1.7,182,-0.350,-0.350,-0.350,0.000,0.000,0.000
1641207954157722112,2022-01-03-11:05:54,10.1.1.7,180,-0.390,-0.390,-0.390,0.000,0.000,0.000
1641207954366991872,2022-01-03-11:05:54,10.1.1.7,188,-0.400,-0.400,-0.400,0.000,0.000,0.000
1641207954576924160,2022-01-03-11:05:54,10.1.1.7,197,-0.410,-0.410,-0.410,0.000,0.000,0.000
1641207954768779008,2022-01-03-11:05:54,10.1.1.7,189,-0.420,-0.420,-0.420,0.000,0.000,0.000
1641207954967577856,2022-01-03-11:05:54,10.1.1.7,187,-0.430,-0.430,-0.430,0.000,0.000,0.000
1641207955167335936,2022-01-03-11:05:55,10.1.1.7,186,-0.440,-0.440,-0.440,0.000,0.000,0.000
1641207955377594880,2022-01-03-11:05:55,10.1.1.7,196,-0.450,-0.450,-0.450,0.000,0.000,0.000
1641207955567533056,2022-01-03-11:05:55,10.1.1.7,184,-0.460,-0.460,-0.460,0.000,0.000,0.000
1641207955767698176,2022-01-03-11:05:55,10.1.1.7,184,-0.470,-0.470,-0.470,0.000,0.000,0.000
1641207955977902848,2022-01-03-11:05:55,10.1.1.7,193,-0.480,-0.480,-0.480,0.000,0.000,0.000
1641207956167906048,2022-01-03-11:05:56,10.1.1.7,182,-0.490,-0.490,-0.490,0.000,0.000,0.000
1641207956368453120,2022-01-03-11:05:56,10.1.1.7,182,-0.480,-0.480,-0.480,0.000,0.000,0.000
1641207956567820032,2022-01-03-11:05:56,10.1.1.7,180,-0.470,-0.470,-0.470,0.000,0.000,0.000
1641207956768111872,2022-01-03-11:05:56,10.1.1.7,180,-0.460,-0.460,-0.460,0.000,0.000,0.000
1641207956967518976,2022-01-03-11:05:56,10.1.1.7,179,-0.450,-0.450,-0.450,0.000,0.000,0.000
1641207957178109952,2022-01-03-11:05:57,10.1.1.7,189,-0.440,-0.440,-0.440,0.000,0.000,0.000
1641207957580044032,2022-01-03-11:05:57,10.1.1.7,189,-0.420,-0.420,-0.420,0.000,0.000,0.000
1641207957977626112,2022-01-03-11:05:57,10.1.1.7,184,-0.400,-0.400,-0.400,0.000,0.000,0.000
1641207958187483904,2022-01-03-11:05:58,10.1.1.7,193,-0.390,-0.390,-0.390,0.000,0.000,0.000
1641207958577913088,2022-01-03-11:05:58,10.1.1.7,180,-0.370,-0.370,-0.370,0.000,0.000,0.000
1641207958777623040,2022-01-03-11:05:58,10.1.1.7,179,-0.360,-0.360,-0.360,0.000,0.000,0.000
1641207958997304064,2022-01-03-11:05:58,10.1.1.7,198,-0.350,-0.350,-0.350,0.000,0.000,0.000
1641207959197303040,2022-01-03-11:05:59,10.1.1.7,198,-0.340,-0.340,-0.340,0.000,0.000,0.000
1641207959387201024,2022-01-03-11:05:59,10.1.1.7,187,-0.330,-0.330,-0.330,0.000,0.000,0.000
1641207959597276928,2022-01-03-11:05:59,10.1.1.7,197,-0.320,-0.320,-0.320,0.000,0.000,0.000
1641207959787661056,2022-01-03-11:05:59,10.1.1.7,186,-0.310,-0.310,-0.310,0.000,0.000,0.000
1641207959996788992,2022-01-03-11:05:59,10.1.1.7,195,-0.300,-0.300,-0.300,0.000,0.000,0.000
1641207960186579968,2022-01-03-11:06:00,10.1.1.7,184,-0.290,-0.290,-0.290,0.000,0.000,0.000
1641207960386769152,2022-01-03-11:06:00,10.1.1.7,184,-0.280,-0.280,-0.280,0.000,0.000,0.000
1641207960586828032,2022-01-03-11:06:00,10.1.1.7,183,-0.270,-0.270,-0.270,0.000,0.000,0.000
1641207960797820160,2022-01-03-11:06:00,10.1.1.7,193,-0.260,-0.260,-0.260,0.000,0.000,0.000
1641207960996488960,2022-01-03-11:06:00,10.1.1.7,191,-0.250,-0.250,-0.250,0.000,0.000,0.000
1641207961196409856,2022-01-03-11:06:01,10.1.1.7,190,-0.240,-0.240,-0.240,0.000,0.000,0.000
1641207961396044032,2022-01-03-11:06:01,10.1.1.7,189,-0.230,-0.230,-0.230,0.000,0.000,0.000
1641207961585800960,2022-01-03-11:06:01,10.1.1.7,178,-0.220,-0.220,-0.220,0.000,0.000,0.000
1641207961795336960,2022-01-03-11:06:01,10.1.1.7,187,-0.210,-0.210,-0.210,0.000,0.000,0.000
1641207962006118912,2022-01-03-11:06:02,10.1.1.7,196,-0.200,-0.200,-0.200,0.000,0.000,0.000
1641207962206428928,2022-01-03-11:06:02,10.1.1.7,195,-0.190,-0.190,-0.190,0.000,0.000,0.000
1641207962395340032,2022-01-03-11:06:02,10.1.1.7,184,-0.180,-0.180,-0.180,0.000,0.000,0.000
1641207962595385088,2022-01-03-11:06:02,10.1.1.7,184,-0.170,-0.170,-0.170,0.000,0.000,0.000
1641207962794953216,2022-01-03-11:06:02,10.1.1.7,183,-0.160,-0.160,-0.160,0.000,0.000,0.000
1641207963207547904,2022-01-03-11:06:03,10.1.1.7,194,-0.140,-0.140,-0.140,0.000,0.000,0.000
1641207963404707072,2022-01-03-11:06:03,10.1.1.7,190,-0.130,-0.130,-0.130,0.000,0.000,0.000
1641207963614473984,2022-01-03-11:06:03,10.1.1.7,199,-0.120,-0.120,-0.120,0.000,0.000,0.000
1641207963814137088,2022-01-03-11:06:03,10.1.1.7,199,-0.110,-0.110,-0.110,0.000,0.000,0.000
1641207964005521152,2022-01-03-11:06:04,10.1.1.7,189,-0.100,-0.100,-0.100,0.000,0.000,0.000
1641207964213041152,2022-01-03-11:06:04,10.1.1.7,195,-0.090,-0.090,-0.090,0.000,0.000,0.000
1641207964413549824,2022-01-03-11:06:04,10.1.1.7,193,-0.080,-0.080,-0.080,0.000,0.000,0.000
1641207964612678144,2022-01-03-11:06:04,10.1.1.7,192,-0.070,-0.070,-0.070,0.000,0.000,0.000
1641207964812872960,2022-01-03-11:06:04,10.1.1.7,191,-0.060,-0.060,-0.060,0.000,0.000,0.000
1641207965002834944,2022-01-03-11:06:05,10.1.1.7,180,-0.050,-0.050,-0.050,0.000,0.000,0.000
1641207965202722048,2022-01-03-11:06:05,10.1.1.7,179,-0.040,-0.040,-0.040,0.000,0.000,0.000
1641207965412123904,2022-01-03-11:06:05,10.1.1.7,188,-0.030,-0.030,-0.030,0.000,0.000,0.000
1641207965612710912,2022-01-03-11:06:05,10.1.1.7,188,-0.020,-0.020,-0.020,0.000,0.000,0.000
1641207965812896000,2022-01-03-11:06:05,10.1.1.7,187,-0.010,-0.010,-0.010,0.000,0.000,0.000
1641207966001379840,2022-01-03-11:06:06,10.1.1.7,174,-0.000,-0.000,-0.000,0.000,0.000,0.000
1641207966202102016,2022-01-03-11:06:06,10.1.1.7,174,-0.010,-0.010,-0.010,0.000,0.000,0.000
1641207966610656000,2022-01-03-11:06:06,10.1.1.7,181,-0.030,-0.030,-0.030,0.000,0.000,0.000
1641207966821156096,2022-01-03-11:06:06,10.1.1.7,191,-0.040,-0.040,-0.040,0.000,0.000,0.000
1641207967009989888,2022-01-03-11:06:07,10.1.1.7,180,-0.050,-0.050,-0.050,0.000,0.000,0.000
1641207967230423808,2022-01-03-11:06:07,10.1.1.7,199,-0.060,-0.060,-0.060,0.000,0.000,0.000
1641207967409645056,2022-01-03-11:06:07,10.1.1.7,178,-0.070,-0.070,-0.070,0.000,0.000,0.000
1641207967629570048,2022-01-03-11:06:07,10.1.1.7,198,-0.080,-0.080,-0.080,0.000,0.000,0.000
1641207967809431040,2022-01-03-11:06:07,10.1.1.7,177,-0.090,-0.090,-0.090,0.000,0.000,0.000
1641207968010734080,2022-01-03-11:06:08,10.1.1.7,177,-0.100,-0.100,-0.100,0.000,0.000,0.000
1641207968220168192,2022-01-03-11:06:08,10.1.1.7,186,-0.110,-0.110,-0.110,0.000,0.000,0.000
1641207968408096000,2022-01-03-11:06:08,10.1.1.7,173,-0.120,-0.120,-0.120,0.000,0.000,0.000
1641207968608193024,2022-01-03-11:06:08,10.1.1.7,173,-0.130,-0.130,-0.130,0.000,0.000,0.000
1641207968807555840,2022-01-03-11:06:08,10.1.1.7,171,-0.140,-0.140,-0.140,0.000,0.000,0.000
1641207969013391872,2022-01-03-11:06:09,10.1.1.7,173,-0.150,-0.150,-0.150,0.000,0.000,0.000
1641207969217317120,2022-01-03-11:06:09,10.1.1.7,179,-0.160,-0.160,-0.160,0.000,0.000,0.000
1641207969417117184,2022-01-03-11:06:09,10.1.1.7,179,-0.170,-0.170,-0.170,0.000,0.000,0.000
1641207969616337920,2022-01-03-11:06:09,10.1.1.7,178,-0.180,-0.180,-0.180,0.000,0.000,0.000
1641207969815993088,2022-01-03-11:06:09,10.1.1.7,177,-0.190,-0.190,-0.190,0.000,0.000,0.000
1641207970025818112,2022-01-03-11:06:10,10.1.1.7,186,-0.200,-0.200,-0.200,0.000,0.000,0.000
1641207970225519872,2022-01-03-11:06:10,10.1.1.7,184,-0.210,-0.210,-0.210,0.000,0.000,0.000
1641207970425250048,2022-01-03-11:06:10,10.1.1.7,184,-0.220,-0.220,-0.220,0.000,0.000,0.000
1641207970616261120,2022-01-03-11:06:10,10.1.1.7,174,-0.230,-0.230,-0.230,0.000,0.000,0.000
1641207970824814080,2022-01-03-11:06:10,10.1.1.7,182,-0.240,-0.240,-0.240,0.000,0.000,0.000
1641207971014548992,2022-01-03-11:06:11,10.1.1.7,171,-0.250,-0.250,-0.250,0.000,0.000,0.000
1641207971224869120,2022-01-03-11:06:11,10.1.1.7,181,-0.260,-0.260,-0.260,0.000,0.000,0.000
1641207971414274048,2022-01-03-11:06:11,10.1.1.7,170,-0.270,-0.270,-0.270,0.000,0.000,0.000
1641207971613601024,2022-01-03-11:06:11,10.1.1.7,168,-0.280,-0.280,-0.280,0.000,0.000,0.000
1641207971813245952,2022-01-03-11:06:11,10.1.1.7,168,-0.290,-0.290,-0.290,0.000,0.000,0.000
1641207972023098112,2022-01-03-11:06:12,10.1.1.7,177,-0.300,-0.300,-0.300,0.000,0.000,0.000
1641207972213229056,2022-01-03-11:06:12,10.1.1.7,167,-0.310,-0.310,-0.310,0.000,0.000,0.000
1641207972422534912,2022-01-03-11:06:12,10.1.1.7,175,-0.320,-0.320,-0.320,0.000,0.000,0.000
1641207972622577920,2022-01-03-11:06:12,10.1.1.7,175,-0.330,-0.330,-0.330,0.000,0.000,0.000
1641207972823843072,2022-01-03-11:06:12,10.1.1.7,176,-0.340,-0.340,-0.340,0.000,0.000,0.000
1641207973021248000,2022-01-03-11:06:13,10.1.1.7,173,-0.350,-0.350,-0.350,0.000,0.000,0.000
1641207973231193088,2022-01-03-11:06:13,10.1.1.7,182,-0.360,-0.360,-0.360,0.000,0.000,0.000
1641207973430850048,2022-01-03-11:06:13,10.1.1.7,180,-0.370,-0.370,-0.370,0.000,0.000,0.000
1641207973620150016,2022-01-03-11:06:13,10.1.1.7,169,-0.380,-0.380,-0.380,0.000,0.000,0.000
1641207973831192064,2022-01-03-11:06:13,10.1.1.7,179,-0.390,-0.390,-0.390,0.000,0.000,0.000
1641207974031117824,2022-01-03-11:06:14,10.1.1.7,178,-0.400,-0.400,-0.400,0.000,0.000,0.000
1641207974230520064,2022-01-03-11:06:14,10.1.1.7,177,-0.410,-0.410,-0.410,0.000,0.000,0.000
1641207974419353856,2022-01-03-11:06:14,10.1.1.7,166,-0.420,-0.420,-0.420,0.000,0.000,0.000
1641207974619098880,2022-01-03-11:06:14,10.1.1.7,165,-0.430,-0.430,-0.430,0.000,0.000,0.000
1641207974818589952,2022-01-03-11:06:14,10.1.1.7,164,-0.440,-0.440,-0.440,0.000,0.000,0.000
1641207975018192896,2022-01-03-11:06:15,10.1.1.7,163,-0.450,-0.450,-0.450,0.000,0.000,0.000
1641207975227868928,2022-01-03-11:06:15,10.1.1.7,172,-0.460,-0.460,-0.460,0.000,0.000,0.000
1641207975448534016,2022-01-03-11:06:15,10.1.1.7,192,-0.470,-0.470,-0.470,0.000,0.000,0.000
1641207975637536000,2022-01-03-11:06:15,10.1.1.7,181,-0.480,-0.480,-0.480,0.000,0.000,0.000
1641207975827992064,2022-01-03-11:06:15,10.1.1.7,170,-0.490,-0.490,-0.490,0.000,0.000,0.000
1641207976017170944,2022-01-03-11:06:16,10.1.1.7,159,-0.480,-0.480,-0.480,0.000,0.000,0.000
1641207976226511872,2022-01-03-11:06:16,10.1.1.7,168,-0.470,-0.470,-0.470,0.000,0.000,0.000
1641207976427334912,2022-01-03-11:06:16,10.1.1.7,168,-0.460,-0.460,-0.460,0.000,0.000,0.000
1641207976626025984,2022-01-03-11:06:16,10.1.1.7,166,-0.450,-0.450,-0.450,0.000,0.000,0.000
1641207976835772928,2022-01-03-11:06:16,10.1.1.7,175,-0.440,-0.440,-0.440,0.000,0.000,0.000
1641207977026196992,2022-01-03-11:06:17,10.1.1.7,165,-0.430,-0.430,-0.430,0.000,0.000,0.000
1641207977230142976,2022-01-03-11:06:17,10.1.1.7,169,-0.420,-0.420,-0.420,0.000,0.000,0.000
1641207977435723008,2022-01-03-11:06:17,10.1.1.7,174,-0.410,-0.410,-0.410,0.000,0.000,0.000
1641207977624115968,2022-01-03-11:06:17,10.1.1.7,162,-0.400,-0.400,-0.400,0.000,0.000,0.000
1641207977824420864,2022-01-03-11:06:17,10.1.1.7,161,-0.390,-0.390,-0.390,0.000,0.000,0.000
1641207978024674048,2022-01-03-11:06:18,10.1.1.7,161,-0.380,-0.380,-0.380,0.000,0.000,0.000
1641207978224828928,2022-01-03-11:06:18,10.1.1.7,160,-0.370,-0.370,-0.370,0.000,0.000,0.000
1641207978439735040,2022-01-03-11:06:18,10.1.1.7,174,-0.360,-0.360,-0.360,0.000,0.000,0.000
1641207978628484864,2022-01-03-11:06:18,10.1.1.7,162,-0.350,-0.350,-0.350,0.000,0.000,0.000
1641207978828295936,2022-01-03-11:06:18,10.1.1.7,160,-0.340,-0.340,-0.340,0.000,0.000,0.000
1641207979049197056,2022-01-03-11:06:19,10.1.1.7,180,-0.330,-0.330,-0.330,0.000,0.000,0.000
1641207979240210176,2022-01-03-11:06:19,10.1.1.7,169,-0.320,-0.320,-0.320,0.000,0.000,0.000
1641207979451121152,2022-01-03-11:06:19,10.1.1.7,180,-0.310,-0.310,-0.310,0.000,0.000,0.000
1641207979661978112,2022-01-03-11:06:19,10.1.1.7,190,-0.300,-0.300,-0.300,0.000,0.000,0.000
1641207979862951936,2022-01-03-11:06:19,10.1.1.7,191,-0.290,-0.290,-0.290,0.000,0.000,0.000
1641207980054404864,2022-01-03-11:06:20,10.1.1.7,182,-0.280,-0.280,-0.280,0.000,0.000,0.000
1641207980254862080,2022-01-03-11:06:20,10.1.1.7,182,-0.270,-0.270,-0.270,0.000,0.000,0.000
1641207980445547008,2022-01-03-11:06:20,10.1.1.7,171,-0.260,-0.260,-0.260,0.000,0.000,0.000
1641207980666135040,2022-01-03-11:06:20,10.1.1.7,190,-0.250,-0.250,-0.250,0.000,0.000,0.000
1641207980857007872,2022-01-03-11:06:20,10.1.1.7,180,-0.240,-0.240,-0.240,0.000,0.000,0.000
1641207981059788032,2022-01-03-11:06:21,10.1.1.7,182,-0.230,-0.230,-0.230,0.000,0.000,0.000
1641207981249538048,2022-01-03-11:06:21,10.1.1.7,172,-0.220,-0.220,-0.220,0.000,0.000,0.000
1641207981458816000,2022-01-03-11:06:21,10.1.1.7,181,-0.210,-0.210,-0.210,0.000,0.000,0.000
1641207981659862016,2022-01-03-11:06:21,10.1.1.7,181,-0.200,-0.200,-0.200,0.000,0.000,0.000
1641207981869946880,2022-01-03-11:06:21,10.1.1.7,191,-0.190,-0.190,-0.190,0.000,0.000,0.000
1641207982060286976,2022-01-03-11:06:22,10.1.1.7,181,-0.180,-0.180,-0.180,0.000,0.000,0.000
1641207982263337984,2022-01-03-11:06:22,10.1.1.7,183,-0.170,-0.170,-0.170,0.000,0.000,0.000
1641207982471479040,2022-01-03-11:06:22,10.1.1.7,190,-0.160,-0.160,-0.160,0.000,0.000,0.000
1641207982671564032,2022-01-03-11:06:22,10.1.1.7,190,-0.150,-0.150,-0.150,0.000,0.000,0.000
1641207982872751872,2022-01-03-11:06:22,10.1.1.7,190,-0.140,-0.140,-0.140,0.000,0.000,0.000
1641207983064404992,2022-01-03-11:06:23,10.1.1.7,182,-0.130,-0.130,-0.130,0.000,0.000,0.000
1641207983263417088,2022-01-03-11:06:23,10.1.1.7,180,-0.120,-0.120,-0.120,0.000,0.000,0.000
1641207983464015872,2022-01-03-11:06:23,10.1.1.7,180,-0.110,-0.110,-0.110,0.000,0.000,0.000
1641207983673986048,2022-01-03-11:06:23,10.1.1.7,190,-0.100,-0.100,-0.100,0.000,0.000,0.000
1641207983864547072,2022-01-03-11:06:23,10.1.1.7,180,-0.090,-0.090,-0.090,0.000,0.000,0.000
1641207984064681984,2022-01-03-11:06:24,10.1.1.7,179,-0.080,-0.080,-0.080,0.000,0.000,0.000
1641207984275664128,2022-01-03-11:06:24,10.1.1.7,190,-0.070,-0.070,-0.070,0.000,0.000,0.000
1641207984475582976,2022-01-03-11:06:24,10.1.1.7,189,-0.060,-0.060,-0.060,0.000,0.000,0.000
1641207984666130944,2022-01-03-11:06:24,10.1.1.7,179,-0.050,-0.050,-0.050,0.000,0.000,0.000
1641207984875930112,2022-01-03-11:06:24,10.1.1.7,189,-0.040,-0.040,-0.040,0.000,0.000,0.000
1641207985076176896,2022-01-03-11:06:25,10.1.1.7,188,-0.030,-0.030,-0.030,0.000,0.000,0.000
1641207985287473920,2022-01-03-11:06:25,10.1.1.7,198,-0.020,-0.020,-0.020,0.000,0.000,0.000
1641207985477005056,2022-01-03-11:06:25,10.1.1.7,187,-0.010,-0.010,-0.010,0.000,0.000,0.000
1641207985678221824,2022-01-03-11:06:25,10.1.1.7,188,0.000,0.000,0.000,0.000,0.000,0.000
1641207985886877184,2022-01-03-11:06:25,10.1.1.7,196,-0.010,-0.010,-0.010,0.000,0.000,0.000
1641207986087493888,2022-01-03-11:06:26,10.1.1.7,196,-0.020,-0.020,-0.020,0.000,0.000,0.000
1641207986277265920,2022-01-03-11:06:26,10.1.1.7,185,-0.030,-0.030,-0.030,0.000,0.000,0.000
1641207986688081920,2022-01-03-11:06:26,10.1.1.7,195,-0.050,-0.050,-0.050,0.000,0.000,0.000
1641207986877963008,2022-01-03-11:06:26,10.1.1.7,183,-0.060,-0.060,-0.060,0.000,0.000,0.000
1641207987085718016,2022-01-03-11:06:27,10.1.1.7,190,-0.070,-0.070,-0.070,0.000,0.000,0.000
1641207987290075136,2022-01-03-11:06:27,10.1.1.7,193,-0.080,-0.080,-0.080,0.000,0.000,0.000
1641207987699091968,2022-01-03-11:06:27,10.1.1.7,200,-0.100,-0.100,-0.100,0.000,0.000,0.000
1641207987898368000,2022-01-03-11:06:27,10.1.1.7,198,-0.110,-0.110,-0.110,0.000,0.000,0.000
1641207988098576128,2022-01-03-11:06:28,10.1.1.7,198,-0.120,-0.120,-0.120,0.000,0.000,0.000
1641207988298234112,2022-01-03-11:06:28,10.1.1.7,197,-0.130,-0.130,-0.130,0.000,0.000,0.000
1641207988498373888,2022-01-03-11:06:28,10.1.1.7,197,-0.140,-0.140,-0.140,0.000,0.000,0.000
1641207988698590976,2022-01-03-11:06:28,10.1.1.7,196,-0.150,-0.150,-0.150,0.000,0.000,0.000
1641207988899461120,2022-01-03-11:06:28,10.1.1.7,196,-0.160,-0.160,-0.160,0.000,0.000,0.000
1641207989102462976,2022-01-03-11:06:29,10.1.1.7,199,-0.170,-0.170,-0.170,0.000,0.000,0.000
1641207989298283008,2022-01-03-11:06:29,10.1.1.7,195,-0.180,-0.180,-0.180,0.000,0.000,0.000
1641207989498755840,2022-01-03-11:06:29,10.1.1.7,194,-0.190,-0.190,-0.190,0.000,0.000,0.000
1641207989698138112,2022-01-03-11:06:29,10.1.1.7,193,-0.200,-0.200,-0.200,0.000,0.000,0.000
1641207989899201024,2022-01-03-11:06:29,10.1.1.7,194,-0.210,-0.210,-0.210,0.000,0.000,0.000
1641207990098117120,2022-01-03-11:06:30,10.1.1.7,192,-0.220,-0.220,-0.220,0.000,0.000,0.000
1641207990297977088,2022-01-03-11:06:30,10.1.1.7,191,-0.230,-0.230,-0.230,0.000,0.000,0.000
1641207990499028992,2022-01-03-11:06:30,10.1.1.7,191,-0.240,-0.240,-0.240,0.000,0.000,0.000
1641207990698498048,2022-01-03-11:06:30,10.1.1.7,190,-0.250,-0.250,-0.250,0.000,0.000,0.000
1641207990898360064,2022-01-03-11:06:30,10.1.1.7,189,-0.260,-0.260,-0.260,0.000,0.000,0.000
1641207991307780864,2022-01-03-11:06:31,10.1.1.7,198,-0.280,-0.280,-0.280,0.000,0.000,0.000
1641207991497723136,2022-01-03-11:06:31,10.1.1.7,187,-0.290,-0.290,-0.290,0.000,0.000,0.000
1641207991707721984,2022-01-03-11:06:31,10.1.1.7,196,-0.300,-0.300,-0.300,0.000,0.000,0.000
1641207991907352832,2022-01-03-11:06:31,10.1.1.7,194,-0.310,-0.310,-0.310,0.000,0.000,0.000
1641207992107388928,2022-01-03-11:06:32,10.1.1.7,193,-0.320,-0.320,-0.320,0.000,0.000,0.000
1641207992308877056,2022-01-03-11:06:32,10.1.1.7,194,-0.330,-0.330,-0.330,0.000,0.000,0.000
1641207992897012992,2022-01-03-11:06:32,10.1.1.7,181,-0.360,-0.360,-0.360,0.000,0.000,0.000
1641207993096491008,2022-01-03-11:06:33,10.1.1.7,180,-0.370,-0.370,-0.370,0.000,0.000,0.000
1641207993297081856,2022-01-03-11:06:33,10.1.1.7,180,-0.380,-0.380,-0.380,0.000,0.000,0.000
1641207993496065024,2022-01-03-11:06:33,10.1.1.7,178,-0.390,-0.390,-0.390,0.000,0.000,0.000
1641207993717092864,2022-01-03-11:06:33,10.1.1.7,199,-0.400,-0.400,-0.400,0.000,0.000,0.000
1641207994117580032,2022-01-03-11:06:34,10.1.1.7,198,-0.420,-0.420,-0.420,0.000,0.000,0.000
1641207994316150016,2022-01-03-11:06:34,10.1.1.7,196,-0.430,-0.430,-0.430,0.000,0.000,0.000
1641207994507975936,2022-01-03-11:06:34,10.1.1.7,187,-0.440,-0.440,-0.440,0.000,0.000,0.000
1641207994705820928,2022-01-03-11:06:34,10.1.1.7,184,-0.450,-0.450,-0.450,0.000,0.000,0.000
1641207994915133952,2022-01-03-11:06:34,10.1.1.7,193,-0.460,-0.460,-0.460,0.000,0.000,0.000
1641207995115366912,2022-01-03-11:06:35,10.1.1.7,193,-0.470,-0.470,-0.470,0.000,0.000,0.000
1641207995314949120,2022-01-03-11:06:35,10.1.1.7,192,-0.480,-0.480,-0.480,0.000,0.000,0.000
1641207995505844224,2022-01-03-11:06:35,10.1.1.7,183,-0.490,-0.490,-0.490,0.000,0.000,0.000
1641207995704460032,2022-01-03-11:06:35,10.1.1.7,181,-0.480,-0.480,-0.480,0.000,0.000,0.000
1641207995904717824,2022-01-03-11:06:35,10.1.1.7,180,-0.470,-0.470,-0.470,0.000,0.000,0.000
1641207996117300992,2022-01-03-11:06:36,10.1.1.7,192,-0.460,-0.460,-0.460,0.000,0.000,0.000
1641207996314373120,2022-01-03-11:06:36,10.1.1.7,188,-0.450,-0.450,-0.450,0.000,0.000,0.000
1641207996503969024,2022-01-03-11:06:36,10.1.1.7,177,-0.440,-0.440,-0.440,0.000,0.000,0.000
1641207996704043008,2022-01-03-11:06:36,10.1.1.7,176,-0.430,-0.430,-0.430,0.000,0.000,0.000
1641207996913166080,2022-01-03-11:06:36,10.1.1.7,185,-0.420,-0.420,-0.420,0.000,0.000,0.000
1641207997112626176,2022-01-03-11:06:37,10.1.1.7,184,-0.410,-0.410,-0.410,0.000,0.000,0.000
1641207997312886016,2022-01-03-11:06:37,10.1.1.7,184,-0.400,-0.400,-0.400,0.000,0.000,0.000
1641207997517160960,2022-01-03-11:06:37,10.1.1.7,186,-0.390,-0.390,-0.390,0.000,0.000,0.000
1641207997722543872,2022-01-03-11:06:37,10.1.1.7,193,-0.380,-0.380,-0.380,0.000,0.000,0.000
1641207997922429952,2022-01-03-11:06:37,10.1.1.7,192,-0.370,-0.370,-0.370,0.000,0.000,0.000
1641207998321835008,2022-01-03-11:06:38,10.1.1.7,191,-0.350,-0.350,-0.350,0.000,0.000,0.000
1641207998511506176,2022-01-03-11:06:38,10.1.1.7,180,-0.340,-0.340,-0.340,0.000,0.000,0.000
1641207998731451904,2022-01-03-11:06:38,10.1.1.7,199,-0.330,-0.330,-0.330,0.000,0.000,0.000
1641207998911379968,2022-01-03-11:06:38,10.1.1.7,178,-0.320,-0.320,-0.320,0.000,0.000,0.000
1641207999310470144,2022-01-03-11:06:39,10.1.1.7,176,-0.300,-0.300,-0.300,0.000,0.000,0.000
1641207999520314880,2022-01-03-11:06:39,10.1.1.7,185,-0.290,-0.290,-0.290,0.000,0.000,0.000
1641207999730747904,2022-01-03-11:06:39,10.1.1.7,194,-0.280,-0.280,-0.280,0.000,0.000,0.000
1641207999919825920,2022-01-03-11:06:39,10.1.1.7,182,-0.270,-0.270,-0.270,0.000,0.000,0.000
1641208000129447936,2022-01-03-11:06:40,10.1.1.7,191,-0.260,-0.260,-0.260,0.000,0.000,0.000
1641208000329012992,2022-01-03-11:06:40,10.1.1.7,190,-0.250,-0.250,-0.250,0.000,0.000,0.000
1641208000518668032,2022-01-03-11:06:40,10.1.1.7,179,-0.240,-0.240,-0.240,0.000,0.000,0.000
1641208000718981120,2022-01-03-11:06:40,10.1.1.7,179,-0.230,-0.230,-0.230,0.000,0.000,0.000
1641208000944504064,2022-01-03-11:06:40,10.1.1.7,202,-0.220,-0.220,-0.220,0.000,0.000,0.000
1641208001118321920,2022-01-03-11:06:41,10.1.1.7,173,-0.210,-0.210,-0.210,0.000,0.000,0.000
1641208001317527040,2022-01-03-11:06:41,10.1.1.7,171,-0.200,-0.200,-0.200,0.000,0.000,0.000
1641208001518782976,2022-01-03-11:06:41,10.1.1.7,172,-0.190,-0.190,-0.190,0.000,0.000,0.000
1641208001717860096,2022-01-03-11:06:41,10.1.1.7,170,-0.180,-0.180,-0.180,0.000,0.000,0.000
1641208001932166144,2022-01-03-11:06:41,10.1.1.7,184,-0.170,-0.170,-0.170,0.000,0.000,0.000
1641208002128549120,2022-01-03-11:06:42,10.1.1.7,176,-0.160,-0.160,-0.160,0.000,0.000,0.000
1641208002326718976,2022-01-03-11:06:42,10.1.1.7,174,-0.150,-0.150,-0.150,0.000,0.000,0.000
1641208002526334976,2022-01-03-11:06:42,10.1.1.7,172,-0.140,-0.140,-0.140,0.000,0.000,0.000
1641208002745629952,2022-01-03-11:06:42,10.1.1.7,191,-0.130,-0.130,-0.130,0.000,0.000,0.000
1641208002925805056,2022-01-03-11:06:42,10.1.1.7,170,-0.120,-0.120,-0.120,0.000,0.000,0.000
1641208003345190144,2022-01-03-11:06:43,10.1.1.7,187,-0.100,-0.100,-0.100,0.000,0.000,0.000
1641208003535366912,2022-01-03-11:06:43,10.1.1.7,177,-0.090,-0.090,-0.090,0.000,0.000,0.000
1641208003734489088,2022-01-03-11:06:43,10.1.1.7,175,-0.080,-0.080,-0.080,0.000,0.000,0.000
1641208003934237952,2022-01-03-11:06:43,10.1.1.7,174,-0.070,-0.070,-0.070,0.000,0.000,0.000
1641208004133618176,2022-01-03-11:06:44,10.1.1.7,173,-0.060,-0.060,-0.060,0.000,0.000,0.000
1641208004343219968,2022-01-03-11:06:44,10.1.1.7,182,-0.050,-0.050,-0.050,0.000,0.000,0.000
1641208004533132032,2022-01-03-11:06:44,10.1.1.7,172,-0.040,-0.040,-0.040,0.000,0.000,0.000
1641208004742664192,2022-01-03-11:06:44,10.1.1.7,181,-0.030,-0.030,-0.030,0.000,0.000,0.000
1641208004933744896,2022-01-03-11:06:44,10.1.1.7,171,-0.020,-0.020,-0.020,0.000,0.000,0.000
1641208005193293056,2022-01-03-11:06:45,10.1.1.7,165,-0.010,-0.010,-0.010,0.000,0.000,0.000
1641208005421428992,2022-01-03-11:06:45,10.1.1.7,192,0.000,0.000,0.000,0.000,0.000,0.000
1641208005601580032,2022-01-03-11:06:45,10.1.1.7,172,-0.010,-0.010,-0.010,0.000,0.000,0.000
1641208005821505024,2022-01-03-11:06:45,10.1.1.7,191,-0.020,-0.020,-0.020,0.000,0.000,0.000
1641208006010825984,2022-01-03-11:06:46,10.1.1.7,179,-0.030,-0.030,-0.030,0.000,0.000,0.000
1641208006220130048,2022-01-03-11:06:46,10.1.1.7,188,-0.040,-0.040,-0.040,0.000,0.000,0.000
1641208006420617984,2022-01-03-11:06:46,10.1.1.7,188,-0.050,-0.050,-0.050,0.000,0.000,0.000
1641208006614103040,2022-01-03-11:06:46,10.1.1.7,181,-0.060,-0.060,-0.060,0.000,0.000,0.000
1641208006799513088,2022-01-03-11:06:46,10.1.1.7,165,-0.070,-0.070,-0.070,0.000,0.000,0.000
1641208007010638080,2022-01-03-11:06:47,10.1.1.7,175,-0.080,-0.080,-0.080,0.000,0.000,0.000
1641208007199420928,2022-01-03-11:06:47,10.1.1.7,163,-0.090,-0.090,-0.090,0.000,0.000,0.000
1641208007398617856,2022-01-03-11:06:47,10.1.1.7,162,-0.100,-0.100,-0.100,0.000,0.000,0.000
1641208007598144000,2022-01-03-11:06:47,10.1.1.7,161,-0.110,-0.110,-0.110,0.000,0.000,0.000
1641208007812123904,2022-01-03-11:06:47,10.1.1.7,174,-0.120,-0.120,-0.120,0.000,0.000,0.000
1641208008007991040,2022-01-03-11:06:48,10.1.1.7,169,-0.130,-0.130,-0.130,0.000,0.000,0.000
1641208008207549184,2022-01-03-11:06:48,10.1.1.7,169,-0.140,-0.140,-0.140,0.000,0.000,0.000
1641208008407131904,2022-01-03-11:06:48,10.1.1.7,167,-0.150,-0.150,-0.150,0.000,0.000,0.000
1641208008607512064,2022-01-03-11:06:48,10.1.1.7,167,-0.160,-0.160,-0.160,0.000,0.000,0.000
1641208008820302080,2022-01-03-11:06:48,10.1.1.7,179,-0.170,-0.170,-0.170,0.000,0.000,0.000
1641208009016248064,2022-01-03-11:06:49,10.1.1.7,174,-0.180,-0.180,-0.180,0.000,0.000,0.000
1641208009216101888,2022-01-03-11:06:49,10.1.1.7,173,-0.190,-0.190,-0.190,0.000,0.000,0.000
1641208009407272960,2022-01-03-11:06:49,10.1.1.7,163,-0.200,-0.200,-0.200,0.000,0.000,0.000
1641208009605451008,2022-01-03-11:06:49,10.1.1.7,161,-0.210,-0.210,-0.210,0.000,0.000,0.000
1641208009804829952,2022-01-03-11:06:49,10.1.1.7,160,-0.220,-0.220,-0.220,0.000,0.000,0.000
1641208010005046016,2022-01-03-11:06:50,10.1.1.7,160,-0.230,-0.230,-0.230,0.000,0.000,0.000
1641208010205693952,2022-01-03-11:06:50,10.1.1.7,160,-0.240,-0.240,-0.240,0.000,0.000,0.000
1641208010406446080,2022-01-03-11:06:50,10.1.1.7,160,-0.250,-0.250,-0.250,0.000,0.000,0.000
1641208010608130816,2022-01-03-11:06:50,10.1.1.7,161,-0.260,-0.260,-0.260,0.000,0.000,0.000
1641208010819313920,2022-01-03-11:06:50,10.1.1.7,172,-0.270,-0.270,-0.270,0.000,0.000,0.000
1641208011011270912,2022-01-03-11:06:51,10.1.1.7,163,-0.280,-0.280,-0.280,0.000,0.000,0.000
1641208011225981952,2022-01-03-11:06:51,10.1.1.7,177,-0.290,-0.290,-0.290,0.000,0.000,0.000
1641208011442349824,2022-01-03-11:06:51,10.1.1.7,193,-0.300,-0.300,-0.300,0.000,0.000,0.000
1641208011642690816,2022-01-03-11:06:51,10.1.1.7,193,-0.310,-0.310,-0.310,0.000,0.000,0.000
1641208011824335104,2022-01-03-11:06:51,10.1.1.7,174,-0.320,-0.320,-0.320,0.000,0.000,0.000
1641208012026396928,2022-01-03-11:06:52,10.1.1.7,175,-0.330,-0.330,-0.330,0.000,0.000,0.000
1641208012236711936,2022-01-03-11:06:52,10.1.1.7,184,-0.340,-0.340,-0.340,0.000,0.000,0.000
1641208012426522880,2022-01-03-11:06:52,10.1.1.7,175,-0.350,-0.350,-0.350,0.000,0.000,0.000
1641208012646693888,2022-01-03-11:06:52,10.1.1.7,194,-0.360,-0.360,-0.360,0.000,0.000,0.000
1641208012837811968,2022-01-03-11:06:52,10.1.1.7,185,-0.370,-0.370,-0.370,0.000,0.000,0.000
1641208013037810944,2022-01-03-11:06:53,10.1.1.7,185,-0.380,-0.380,-0.380,0.000,0.000,0.000
1641208013239296000,2022-01-03-11:06:53,10.1.1.7,186,-0.390,-0.390,-0.390,0.000,0.000,0.000
1641208013440054016,2022-01-03-11:06:53,10.1.1.7,186,-0.400,-0.400,-0.400,0.000,0.000,0.000
1641208013649748992,2022-01-03-11:06:53,10.1.1.7,195,-0.410,-0.410,-0.410,0.000,0.000,0.000
1641208013850537984,2022-01-03-11:06:53,10.1.1.7,195,-0.420,-0.420,-0.420,0.000,0.000,0.000
1641208014041747200,2022-01-03-11:06:54,10.1.1.7,186,-0.430,-0.430,-0.430,0.000,0.000,0.000
1641208014251308032,2022-01-03-11:06:54,10.1.1.7,195,-0.440,-0.440,-0.440,0.000,0.000,0.000
1641208014432308992,2022-01-03-11:06:54,10.1.1.7,175,-0.450,-0.450,-0.450,0.000,0.000,0.000
1641208014632525824,2022-01-03-11:06:54,10.1.1.7,175,-0.460,-0.460,-0.460,0.000,0.000,0.000
1641208014833594112,2022-01-03-11:06:54,10.1.1.7,175,-0.470,-0.470,-0.470,0.000,0.000,0.000
1641208015044385024,2022-01-03-11:06:55,10.1.1.7,185,-0.480,-0.480,-0.480,0.000,0.000,0.000
1641208015253997056,2022-01-03-11:06:55,10.1.1.7,193,-0.490,-0.490,-0.490,0.000,0.000,0.000
1641208015454480896,2022-01-03-11:06:55,10.1.1.7,193,-0.480,-0.480,-0.480,0.000,0.000,0.000
1641208015649189888,2022-01-03-11:06:55,10.1.1.7,187,-0.470,-0.470,-0.470,0.000,0.000,0.000
1641208015845590016,2022-01-03-11:06:55,10.1.1.7,183,-0.460,-0.460,-0.460,0.000,0.000,0.000
1641208016105210112,2022-01-03-11:06:56,10.1.1.7,-33,-0.450,-0.450,-0.450,0.000,0.000,0.000
1641208016496478976,2022-01-03-11:06:56,10.1.1.7,197,-0.430,-0.430,-0.430,0.000,0.000,0.000
1641208016697470976,2022-01-03-11:06:56,10.1.1.7,196,-0.420,-0.420,-0.420,0.000,0.000,0.000
1641208016886807040,2022-01-03-11:06:56,10.1.1.7,184,-0.410,-0.410,-0.410,0.000,0.000,0.000
1641208017096893184,2022-01-03-11:06:57,10.1.1.7,194,-0.400,-0.400,-0.400,0.000,0.000,0.000
1641208017297383168,2022-01-03-11:06:57,10.1.1.7,194,-0.390,-0.390,-0.390,0.000,0.000,0.000
1641208017497313024,2022-01-03-11:06:57,10.1.1.7,193,-0.380,-0.380,-0.380,0.000,0.000,0.000
1641208017697650944,2022-01-03-11:06:57,10.1.1.7,193,-0.370,-0.370,-0.370,0.000,0.000,0.000
1641208017888632064,2022-01-03-11:06:57,10.1.1.7,183,-0.360,-0.360,-0.360,0.000,0.000,0.000
1641208018089158144,2022-01-03-11:06:58,10.1.1.7,181,-0.350,-0.350,-0.350,0.000,0.000,0.000
1641208018297844992,2022-01-03-11:06:58,10.1.1.7,191,-0.340,-0.340,-0.340,0.000,0.000,0.000
1641208018499021056,2022-01-03-11:06:58,10.1.1.7,191,-0.330,-0.330,-0.330,0.000,0.000,0.000
1641208018708733952,2022-01-03-11:06:58,10.1.1.7,199,-0.320,-0.320,-0.320,0.000,0.000,0.000
1641208019108601088,2022-01-03-11:06:59,10.1.1.7,189,-0.300,-0.300,-0.300,0.000,0.000,0.000
1641208019333198080,2022-01-03-11:06:59,10.1.1.7,200,-0.290,-0.290,-0.290,0.000,0.000,0.000
1641208019729697024,2022-01-03-11:06:59,10.1.1.7,194,-0.270,-0.270,-0.270,0.000,0.000,0.000
1641208020118801152,2022-01-03-11:07:00,10.1.1.7,182,-0.250,-0.250,-0.250,0.000,0.000,0.000
1641208020319217920,2022-01-03-11:07:00,10.1.1.7,181,-0.240,-0.240,-0.240,0.000,0.000,0.000
1641208020561789952,2022-01-03-11:07:00,10.1.1.7,224,-0.230,-0.230,-0.230,0.000,0.000,0.000
1641208020752868864,2022-01-03-11:07:00,10.1.1.7,188,-0.220,-0.220,-0.220,0.000,0.000,0.000
1641208020959441920,2022-01-03-11:07:00,10.1.1.7,194,-0.210,-0.210,-0.210,0.000,0.000,0.000
1641208021149300224,2022-01-03-11:07:01,10.1.1.7,183,-0.200,-0.200,-0.200,0.000,0.000,0.000
1641208021348897024,2022-01-03-11:07:01,10.1.1.7,181,-0.190,-0.190,-0.190,0.000,0.000,0.000
1641208021548890112,2022-01-03-11:07:01,10.1.1.7,181,-0.180,-0.180,-0.180,0.000,0.000,0.000
1641208021759230976,2022-01-03-11:07:01,10.1.1.7,190,-0.170,-0.170,-0.170,0.000,0.000,0.000
1641208022169123840,2022-01-03-11:07:02,10.1.1.7,199,-0.150,-0.150,-0.150,0.000,0.000,0.000
1641208022568606976,2022-01-03-11:07:02,10.1.1.7,198,-0.130,-0.130,-0.130,0.000,0.000,0.000
1641208022959057152,2022-01-03-11:07:02,10.1.1.7,187,-0.110,-0.110,-0.110,0.000,0.000,0.000
1641208023168848896,2022-01-03-11:07:03,10.1.1.7,195,-0.100,-0.100,-0.100,0.000,0.000,0.000
1641208023569086976,2022-01-03-11:07:03,10.1.1.7,194,-0.080,-0.080,-0.080,0.000,0.000,0.000
1641208023768587008,2022-01-03-11:07:03,10.1.1.7,193,-0.070,-0.070,-0.070,0.000,0.000,0.000
1641208024168062976,2022-01-03-11:07:04,10.1.1.7,191,-0.050,-0.050,-0.050,0.000,0.000,0.000
1641208024357767936,2022-01-03-11:07:04,10.1.1.7,180,-0.040,-0.040,-0.040,0.000,0.000,0.000
1641208024577819136,2022-01-03-11:07:04,10.1.1.7,199,-0.030,-0.030,-0.030,0.000,0.000,0.000
1641208024767642880,2022-01-03-11:07:04,10.1.1.7,188,-0.020,-0.020,-0.020,0.000,0.000,0.000
1641208024967288064,2022-01-03-11:07:04,10.1.1.7,187,-0.010,-0.010,-0.010,0.000,0.000,0.000
1641208025167102976,2022-01-03-11:07:05,10.1.1.7,186,0.000,0.000,0.000,0.000,0.000,0.000
1641208025366854912,2022-01-03-11:07:05,10.1.1.7,185,-0.010,-0.010,-0.010,0.000,0.000,0.000
1641208025577155072,2022-01-03-11:07:05,10.1.1.7,195,-0.020,-0.020,-0.020,0.000,0.000,0.000
1641208025776062976,2022-01-03-11:07:05,10.1.1.7,193,-0.030,-0.030,-0.030,0.000,0.000,0.000
1641208025977186816,2022-01-03-11:07:05,10.1.1.7,193,-0.040,-0.040,-0.040,0.000,0.000,0.000
1641208026173012992,2022-01-03-11:07:06,10.1.1.7,189,-0.050,-0.050,-0.050,0.000,0.000,0.000
1641208026368079872,2022-01-03-11:07:06,10.1.1.7,181,-0.060,-0.060,-0.060,0.000,0.000,0.000
1641208026577452800,2022-01-03-11:07:06,10.1.1.7,189,-0.070,-0.070,-0.070,0.000,0.000,0.000
1641208026776446976,2022-01-03-11:07:06,10.1.1.7,186,-0.080,-0.080,-0.080,0.000,0.000,0.000
1641208026987528192,2022-01-03-11:07:06,10.1.1.7,197,-0.090,-0.090,-0.090,0.000,0.000,0.000
1641208027176528896,2022-01-03-11:07:07,10.1.1.7,185,-0.100,-0.100,-0.100,0.000,0.000,0.000
1641208027575025920,2022-01-03-11:07:07,10.1.1.7,183,-0.120,-0.120,-0.120,0.000,0.000,0.000
1641208027790590976,2022-01-03-11:07:07,10.1.1.7,197,-0.130,-0.130,-0.130,0.000,0.000,0.000
1641208027984546048,2022-01-03-11:07:07,10.1.1.7,185,-0.140,-0.140,-0.140,0.000,0.000,0.000
1641208028184557056,2022-01-03-11:07:08,10.1.1.7,184,-0.150,-0.150,-0.150,0.000,0.000,0.000
1641208028394095872,2022-01-03-11:07:08,10.1.1.7,193,-0.160,-0.160,-0.160,0.000,0.000,0.000
1641208028593735936,2022-01-03-11:07:08,10.1.1.7,192,-0.170,-0.170,-0.170,0.000,0.000,0.000
1641208028794008064,2022-01-03-11:07:08,10.1.1.7,192,-0.180,-0.180,-0.180,0.000,0.000,0.000
1641208028983767040,2022-01-03-11:07:08,10.1.1.7,181,-0.190,-0.190,-0.190,0.000,0.000,0.000
1641208029193826816,2022-01-03-11:07:09,10.1.1.7,189,-0.200,-0.200,-0.200,0.000,0.000,0.000
1641208029394118912,2022-01-03-11:07:09,10.1.1.7,188,-0.210,-0.210,-0.210,0.000,0.000,0.000
1641208029583507968,2022-01-03-11:07:09,10.1.1.7,176,-0.220,-0.220,-0.220,0.000,0.000,0.000
1641208029783404032,2022-01-03-11:07:09,10.1.1.7,176,-0.230,-0.230,-0.230,0.000,0.000,0.000
1641208029995552000,2022-01-03-11:07:09,10.1.1.7,187,-0.240,-0.240,-0.240,0.000,0.000,0.000
1641208030183144960,2022-01-03-11:07:10,10.1.1.7,174,-0.250,-0.250,-0.250,0.000,0.000,0.000
1641208030392589056,2022-01-03-11:07:10,10.1.1.7,183,-0.260,-0.260,-0.260,0.000,0.000,0.000
1641208030801654016,2022-01-03-11:07:10,10.1.1.7,191,-0.280,-0.280,-0.280,0.000,0.000,0.000
1641208030991380992,2022-01-03-11:07:10,10.1.1.7,180,-0.290,-0.290,-0.290,0.000,0.000,0.000
1641208031191134976,2022-01-03-11:07:11,10.1.1.7,179,-0.300,-0.300,-0.300,0.000,0.000,0.000
1641208031411200000,2022-01-03-11:07:11,10.1.1.7,199,-0.310,-0.310,-0.310,0.000,0.000,0.000
1641208031602745088,2022-01-03-11:07:11,10.1.1.7,189,-0.320,-0.320,-0.320,0.000,0.000,0.000
1641208031800553984,2022-01-03-11:07:11,10.1.1.7,187,-0.330,-0.330,-0.330,0.000,0.000,0.000
1641208032000494080,2022-01-03-11:07:12,10.1.1.7,186,-0.340,-0.340,-0.340,0.000,0.000,0.000
1641208032200005120,2022-01-03-11:07:12,10.1.1.7,184,-0.350,-0.350,-0.350,0.000,0.000,0.000
1641208032400324096,2022-01-03-11:07:12,10.1.1.7,183,-0.360,-0.360,-0.360,0.000,0.000,0.000
1641208032610745856,2022-01-03-11:07:12,10.1.1.7,192,-0.370,-0.370,-0.370,0.000,0.000,0.000
1641208032799202048,2022-01-03-11:07:12,10.1.1.7,180,-0.380,-0.380,-0.380,0.000,0.000,0.000
1641208033008614912,2022-01-03-11:07:13,10.1.1.7,189,-0.390,-0.390,-0.390,0.000,0.000,0.000
1641208033198393088,2022-01-03-11:07:13,10.1.1.7,178,-0.400,-0.400,-0.400,0.000,0.000,0.000
1641208033408982016,2022-01-03-11:07:13,10.1.1.7,188,-0.410,-0.410,-0.410,0.000,0.000,0.000
1641208033599715840,2022-01-03-11:07:13,10.1.1.7,178,-0.420,-0.420,-0.420,0.000,0.000,0.000
1641208033807785984,2022-01-03-11:07:13,10.1.1.7,185,-0.430,-0.430,-0.430,0.000,0.000,0.000
1641208033997222912,2022-01-03-11:07:13,10.1.1.7,174,-0.440,-0.440,-0.440,0.000,0.000,0.000
1641208034207459072,2022-01-03-11:07:14,10.1.1.7,184,-0.450,-0.450,-0.450,0.000,0.000,0.000
1641208034396862976,2022-01-03-11:07:14,10.1.1.7,172,-0.460,-0.460,-0.460,0.000,0.000,0.000
1641208034614222080,2022-01-03-11:07:14,10.1.1.7,189,-0.470,-0.470,-0.470,0.000,0.000,0.000
1641208034807232000,2022-01-03-11:07:14,10.1.1.7,181,-0.480,-0.480,-0.480,0.000,0.000,0.000
1641208035005750784,2022-01-03-11:07:15,10.1.1.7,179,-0.490,-0.490,-0.490,0.000,0.000,0.000
1641208035195847936,2022-01-03-11:07:15,10.1.1.7,169,-0.480,-0.480,-0.480,0.000,0.000,0.000
1641208035395154944,2022-01-03-11:07:15,10.1.1.7,168,-0.470,-0.470,-0.470,0.000,0.000,0.000
1641208035594835968,2022-01-03-11:07:15,10.1.1.7,166,-0.460,-0.460,-0.460,0.000,0.000,0.000
1641208035805406976,2022-01-03-11:07:15,10.1.1.7,176,-0.450,-0.450,-0.450,0.000,0.000,0.000
1641208036014429952,2022-01-03-11:07:16,10.1.1.7,185,-0.440,-0.440,-0.440,0.000,0.000,0.000
1641208036204644864,2022-01-03-11:07:16,10.1.1.7,172,-0.430,-0.430,-0.430,0.000,0.000,0.000
1641208036455043072,2022-01-03-11:07:16,10.1.1.7,179,-0.420,-0.420,-0.420,0.000,0.000,0.000
1641208036643971840,2022-01-03-11:07:16,10.1.1.7,166,-0.410,-0.410,-0.410,0.000,0.000,0.000
1641208036853154816,2022-01-03-11:07:16,10.1.1.7,174,-0.400,-0.400,-0.400,0.000,0.000,0.000
1641208037053036032,2022-01-03-11:07:17,10.1.1.7,174,-0.390,-0.390,-0.390,0.000,0.000,0.000
1641208037262686976,2022-01-03-11:07:17,10.1.1.7,183,-0.380,-0.380,-0.380,0.000,0.000,0.000
1641208037452951808,2022-01-03-11:07:17,10.1.1.7,172,-0.370,-0.370,-0.370,0.000,0.000,0.000
1641208037652802048,2022-01-03-11:07:17,10.1.1.7,171,-0.360,-0.360,-0.360,0.000,0.000,0.000
1641208037861917952,2022-01-03-11:07:17,10.1.1.7,179,-0.350,-0.350,-0.350,0.000,0.000,0.000
1641208038051606784,2022-01-03-11:07:18,10.1.1.7,168,-0.340,-0.340,-0.340,0.000,0.000,0.000
1641208038252630016,2022-01-03-11:07:18,10.1.1.7,169,-0.330,-0.330,-0.330,0.000,0.000,0.000
1641208038462558976,2022-01-03-11:07:18,10.1.1.7,178,-0.320,-0.320,-0.320,0.000,0.000,0.000
1641208038650515200,2022-01-03-11:07:18,10.1.1.7,166,-0.310,-0.310,-0.310,0.000,0.000,0.000
1641208038849697024,2022-01-03-11:07:18,10.1.1.7,164,-0.300,-0.300,-0.300,0.000,0.000,0.000
1641208039050141952,2022-01-03-11:07:19,10.1.1.7,164,-0.290,-0.290,-0.290,0.000,0.000,0.000
1641208039248936960,2022-01-03-11:07:19,10.1.1.7,162,-0.280,-0.280,-0.280,0.000,0.000,0.000
1641208039458728960,2022-01-03-11:07:19,10.1.1.7,171,-0.270,-0.270,-0.270,0.000,0.000,0.000
1641208039649364992,2022-01-03-11:07:19,10.1.1.7,161,-0.260,-0.260,-0.260,0.000,0.000,0.000
1641208039858778112,2022-01-03-11:07:19,10.1.1.7,170,-0.250,-0.250,-0.250,0.000,0.000,0.000
1641208040069833984,2022-01-03-11:07:20,10.1.1.7,180,-0.240,-0.240,-0.240,0.000,0.000,0.000
1641208040269134080,2022-01-03-11:07:20,10.1.1.7,179,-0.230,-0.230,-0.230,0.000,0.000,0.000
1641208040474338048,2022-01-03-11:07:20,10.1.1.7,183,-0.220,-0.220,-0.220,0.000,0.000,0.000
1641208040677340928,2022-01-03-11:07:20,10.1.1.7,185,-0.210,-0.210,-0.210,0.000,0.000,0.000
1641208040867028992,2022-01-03-11:07:20,10.1.1.7,174,-0.200,-0.200,-0.200,0.000,0.000,0.000
1641208041067145984,2022-01-03-11:07:21,10.1.1.7,174,-0.190,-0.190,-0.190,0.000,0.000,0.000
1641208041266736128,2022-01-03-11:07:21,10.1.1.7,173,-0.180,-0.180,-0.180,0.000,0.000,0.000
1641208041456410880,2022-01-03-11:07:21,10.1.1.7,162,-0.170,-0.170,-0.170,0.000,0.000,0.000
1641208041655437824,2022-01-03-11:07:21,10.1.1.7,160,-0.160,-0.160,-0.160,0.000,0.000,0.000
1641208041875323136,2022-01-03-11:07:21,10.1.1.7,180,-0.150,-0.150,-0.150,0.000,0.000,0.000
1641208042055785984,2022-01-03-11:07:22,10.1.1.7,159,-0.140,-0.140,-0.140,0.000,0.000,0.000
1641208042274959104,2022-01-03-11:07:22,10.1.1.7,177,-0.130,-0.130,-0.130,0.000,0.000,0.000
1641208042474778880,2022-01-03-11:07:22,10.1.1.7,177,-0.120,-0.120,-0.120,0.000,0.000,0.000
1641208042664418816,2022-01-03-11:07:22,10.1.1.7,166,-0.110,-0.110,-0.110,0.000,0.000,0.000
1641208042864536064,2022-01-03-11:07:22,10.1.1.7,165,-0.100,-0.100,-0.100,0.000,0.000,0.000
1641208043063955968,2022-01-03-11:07:23,10.1.1.7,164,-0.090,-0.090,-0.090,0.000,0.000,0.000
1641208043266524160,2022-01-03-11:07:23,10.1.1.7,166,-0.080,-0.080,-0.080,0.000,0.000,0.000
1641208043466860032,2022-01-03-11:07:23,10.1.1.7,165,-0.070,-0.070,-0.070,0.000,0.000,0.000
1641208043667456000,2022-01-03-11:07:23,10.1.1.7,166,-0.060,-0.060,-0.060,0.000,0.000,0.000
1641208043868557824,2022-01-03-11:07:23,10.1.1.7,166,-0.050,-0.050,-0.050,0.000,0.000,0.000
1641208044086582784,2022-01-03-11:07:24,10.1.1.7,183,-0.040,-0.040,-0.040,0.000,0.000,0.000
1641208044280385024,2022-01-03-11:07:24,10.1.1.7,176,-0.030,-0.030,-0.030,0.000,0.000,0.000
1641208044471055104,2022-01-03-11:07:24,10.1.1.7,167,-0.020,-0.020,-0.020,0.000,0.000,0.000
1641208044682168064,2022-01-03-11:07:24,10.1.1.7,177,-0.010,-0.010,-0.010,0.000,0.000,0.000
1641208044882607104,2022-01-03-11:07:24,10.1.1.7,176,0.000,0.000,0.000,0.000,0.000,0.000
1641208045073157120,2022-01-03-11:07:25,10.1.1.7,166,-0.010,-0.010,-0.010,0.000,0.000,0.000
1641208045284670208,2022-01-03-11:07:25,10.1.1.7,177,-0.020,-0.020,-0.020,0.000,0.000,0.000
1641208045485039872,2022-01-03-11:07:25,10.1.1.7,177,-0.030,-0.030,-0.030,0.000,0.000,0.000
1641208045696400896,2022-01-03-11:07:25,10.1.1.7,187,-0.040,-0.040,-0.040,0.000,0.000,0.000
1641208045886686976,2022-01-03-11:07:25,10.1.1.7,177,-0.050,-0.050,-0.050,0.000,0.000,0.000
1641208046111454976,2022-01-03-11:07:26,10.1.1.7,201,-0.060,-0.060,-0.060,0.000,0.000,0.000
1641208046290793984,2022-01-03-11:07:26,10.1.1.7,178,-0.070,-0.070,-0.070,0.000,0.000,0.000
1641208046488571904,2022-01-03-11:07:26,10.1.1.7,174,-0.080,-0.080,-0.080,0.000,0.000,0.000
1641208046688775168,2022-01-03-11:07:26,10.1.1.7,174,-0.090,-0.090,-0.090,0.000,0.000,0.000
1641208046900492800,2022-01-03-11:07:26,10.1.1.7,186,-0.100,-0.100,-0.100,0.000,0.000,0.000
1641208047090172160,2022-01-03-11:07:27,10.1.1.7,173,-0.110,-0.110,-0.110,0.000,0.000,0.000
1641208047301378048,2022-01-03-11:07:27,10.1.1.7,183,-0.120,-0.120,-0.120,0.000,0.000,0.000
1641208047502223872,2022-01-03-11:07:27,10.1.1.7,183,-0.130,-0.130,-0.130,0.000,0.000,0.000
1641208047701723136,2022-01-03-11:07:27,10.1.1.7,181,-0.140,-0.140,-0.140,0.000,0.000,0.000
1641208047902487040,2022-01-03-11:07:27,10.1.1.7,181,-0.150,-0.150,-0.150,0.000,0.000,0.000
1641208048113137920,2022-01-03-11:07:28,10.1.1.7,191,-0.160,-0.160,-0.160,0.000,0.000,0.000
1641208048303802880,2022-01-03-11:07:28,10.1.1.7,181,-0.170,-0.170,-0.170,0.000,0.000,0.000
1641208048506063872,2022-01-03-11:07:28,10.1.1.7,183,-0.180,-0.180,-0.180,0.000,0.000,0.000
1641208048704731904,2022-01-03-11:07:28,10.1.1.7,181,-0.190,-0.190,-0.190,0.000,0.000,0.000
1641208048905106176,2022-01-03-11:07:28,10.1.1.7,180,-0.200,-0.200,-0.200,0.000,0.000,0.000
1641208049114301952,2022-01-03-11:07:29,10.1.1.7,188,-0.210,-0.210,-0.210,0.000,0.000,0.000
1641208049514808832,2022-01-03-11:07:29,10.1.1.7,183,-0.230,-0.230,-0.230,0.000,0.000,0.000
1641208049715461120,2022-01-03-11:07:29,10.1.1.7,184,-0.240,-0.240,-0.240,0.000,0.000,0.000
1641208050116015872,2022-01-03-11:07:30,10.1.1.7,183,-0.260,-0.260,-0.260,0.000,0.000,0.000
1641208050328444928,2022-01-03-11:07:30,10.1.1.7,194,-0.270,-0.270,-0.270,0.000,0.000,0.000
1641208050516370944,2022-01-03-11:07:30,10.1.1.7,181,-0.280,-0.280,-0.280,0.000,0.000,0.000
1641208050917249792,2022-01-03-11:07:30,10.1.1.7,181,-0.300,-0.300,-0.300,0.000,0.000,0.000
1641208051117170176,2022-01-03-11:07:31,10.1.1.7,180,-0.310,-0.310,-0.310,0.000,0.000,0.000
1641208051317153024,2022-01-03-11:07:31,10.1.1.7,180,-0.320,-0.320,-0.320,0.000,0.000,0.000
1641208051527152128,2022-01-03-11:07:31,10.1.1.7,188,-0.330,-0.330,-0.330,0.000,0.000,0.000
1641208051737504000,2022-01-03-11:07:31,10.1.1.7,198,-0.340,-0.340,-0.340,0.000,0.000,0.000
1641208051929054976,2022-01-03-11:07:31,10.1.1.7,189,-0.350,-0.350,-0.350,0.000,0.000,0.000
1641208052137231104,2022-01-03-11:07:32,10.1.1.7,196,-0.360,-0.360,-0.360,0.000,0.000,0.000
1641208052327613952,2022-01-03-11:07:32,10.1.1.7,186,-0.370,-0.370,-0.370,0.000,0.000,0.000
1641208052528338944,2022-01-03-11:07:32,10.1.1.7,186,-0.380,-0.380,-0.380,0.000,0.000,0.000
1641208052740879104,2022-01-03-11:07:32,10.1.1.7,198,-0.390,-0.390,-0.390,0.000,0.000,0.000
1641208052928318976,2022-01-03-11:07:32,10.1.1.7,184,-0.400,-0.400,-0.400,0.000,0.000,0.000
1641208053137963008,2022-01-03-11:07:33,10.1.1.7,193,-0.410,-0.410,-0.410,0.000,0.000,0.000
1641208053338184192,2022-01-03-11:07:33,10.1.1.7,192,-0.420,-0.420,-0.420,0.000,0.000,0.000
1641208053528105984,2022-01-03-11:07:33,10.1.1.7,180,-0.430,-0.430,-0.430,0.000,0.000,0.000
1641208053740043008,2022-01-03-11:07:33,10.1.1.7,191,-0.440,-0.440,-0.440,0.000,0.000,0.000
1641208054137886976,2022-01-03-11:07:34,10.1.1.7,183,-0.460,-0.460,-0.460,0.000,0.000,0.000
1641208054338528000,2022-01-03-11:07:34,10.1.1.7,183,-0.470,-0.470,-0.470,0.000,0.000,0.000
1641208054538126080,2022-01-03-11:07:34,10.1.1.7,182,-0.480,-0.480,-0.480,0.000,0.000,0.000
1641208054938203136,2022-01-03-11:07:34,10.1.1.7,181,-0.480,-0.480,-0.480,0.000,0.000,0.000
1641208055139635968,2022-01-03-11:07:35,10.1.1.7,180,-0.470,-0.470,-0.470,0.000,0.000,0.000
1641208055358505984,2022-01-03-11:07:35,10.1.1.7,199,-0.460,-0.460,-0.460,0.000,0.000,0.000
1641208055549019136,2022-01-03-11:07:35,10.1.1.7,188,-0.450,-0.450,-0.450,0.000,0.000,0.000
1641208055748465920,2022-01-03-11:07:35,10.1.1.7,186,-0.440,-0.440,-0.440,0.000,0.000,0.000
1641208055957863168,2022-01-03-11:07:35,10.1.1.7,195,-0.430,-0.430,-0.430,0.000,0.000,0.000
1641208056157618944,2022-01-03-11:07:36,10.1.1.7,195,-0.420,-0.420,-0.420,0.000,0.000,0.000
1641208056357445120,2022-01-03-11:07:36,10.1.1.7,194,-0.410,-0.410,-0.410,0.000,0.000,0.000
1641208056557650944,2022-01-03-11:07:36,10.1.1.7,194,-0.400,-0.400,-0.400,0.000,0.000,0.000
1641208056749707008,2022-01-03-11:07:36,10.1.1.7,185,-0.390,-0.390,-0.390,0.000,0.000,0.000
1641208056958075904,2022-01-03-11:07:36,10.1.1.7,193,-0.380,-0.380,-0.380,0.000,0.000,0.000
1641208057157613056,2022-01-03-11:07:37,10.1.1.7,191,-0.370,-0.370,-0.370,0.000,0.000,0.000
1641208057346860800,2022-01-03-11:07:37,10.1.1.7,179,-0.360,-0.360,-0.360,0.000,0.000,0.000
1641208057547909888,2022-01-03-11:07:37,10.1.1.7,180,-0.350,-0.350,-0.350,0.000,0.000,0.000
1641208057757847040,2022-01-03-11:07:37,10.1.1.7,190,-0.340,-0.340,-0.340,0.000,0.000,0.000
1641208057956530176,2022-01-03-11:07:37,10.1.1.7,187,-0.330,-0.330,-0.330,0.000,0.000,0.000
1641208058157027840,2022-01-03-11:07:38,10.1.1.7,187,-0.320,-0.320,-0.320,0.000,0.000,0.000
1641208058368524032,2022-01-03-11:07:38,10.1.1.7,198,-0.310,-0.310,-0.310,0.000,0.000,0.000
1641208058566236928,2022-01-03-11:07:38,10.1.1.7,194,-0.300,-0.300,-0.300,0.000,0.000,0.000
1641208058767442944,2022-01-03-11:07:38,10.1.1.7,194,-0.290,-0.290,-0.290,0.000,0.000,0.000
1641208058956685056,2022-01-03-11:07:38,10.1.1.7,182,-0.280,-0.280,-0.280,0.000,0.000,0.000
1641208059165842944,2022-01-03-11:07:39,10.1.1.7,191,-0.270,-0.270,-0.270,0.000,0.000,0.000
1641208059566283008,2022-01-03-11:07:39,10.1.1.7,189,-0.250,-0.250,-0.250,0.000,0.000,0.000
1641208059775449088,2022-01-03-11:07:39,10.1.1.7,198,-0.240,-0.240,-0.240,0.000,0.000,0.000
1641208059955076096,2022-01-03-11:07:39,10.1.1.7,177,-0.230,-0.230,-0.230,0.000,0.000,0.000
1641208060176294144,2022-01-03-11:07:40,10.1.1.7,197,-0.220,-0.220,-0.220,0.000,0.000,0.000
1641208060365277952,2022-01-03-11:07:40,10.1.1.7,186,-0.210,-0.210,-0.210,0.000,0.000,0.000
1641208060575046912,2022-01-03-11:07:40,10.1.1.7,195,-0.200,-0.200,-0.200,0.000,0.000,0.000
1641208060774681088,2022-01-03-11:07:40,10.1.1.7,193,-0.190,-0.190,-0.190,0.000,0.000,0.000
1641208060974152960,2022-01-03-11:07:40,10.1.1.7,192,-0.180,-0.180,-0.180,0.000,0.000,0.000
1641208061173543936,2022-01-03-11:07:41,10.1.1.7,190,-0.170,-0.170,-0.170,0.000,0.000,0.000
1641208061364839168,2022-01-03-11:07:41,10.1.1.7,180,-0.160,-0.160,-0.160,0.000,0.000,0.000
1641208061574631936,2022-01-03-11:07:41,10.1.1.7,189,-0.150,-0.150,-0.150,0.000,0.000,0.000
1641208061773547008,2022-01-03-11:07:41,10.1.1.7,188,-0.140,-0.140,-0.140,0.000,0.000,0.000
1641208061973146880,2022-01-03-11:07:41,10.1.1.7,187,-0.130,-0.130,-0.130,0.000,0.000,0.000
1641208062171473920,2022-01-03-11:07:42,10.1.1.7,183,-0.120,-0.120,-0.120,0.000,0.000,0.000
1641208062376833024,2022-01-03-11:07:42,10.1.1.7,188,-0.110,-0.110,-0.110,0.000,0.000,0.000
1641208062572890880,2022-01-03-11:07:42,10.1.1.7,181,-0.100,-0.100,-0.100,0.000,0.000,0.000
1641208062781939968,2022-01-03-11:07:42,10.1.1.7,189,-0.090,-0.090,-0.090,0.000,0.000,0.000
1641208062991558144,2022-01-03-11:07:42,10.1.1.7,198,-0.080,-0.080,-0.080,0.000,0.000,0.000
1641208063191752960,2022-01-03-11:07:43,10.1.1.7,197,-0.070,-0.070,-0.070,0.000,0.000,0.000
1641208063382045952,2022-01-03-11:07:43,10.1.1.7,186,-0.060,-0.060,-0.060,0.000,0.000,0.000
1641208063571614976,2022-01-03-11:07:43,10.1.1.7,175,-0.050,-0.050,-0.050,0.000,0.000,0.000
1641208063780983040,2022-01-03-11:07:43,10.1.1.7,183,-0.040,-0.040,-0.040,0.000,0.000,0.000
1641208063990892800,2022-01-03-11:07:43,10.1.1.7,192,-0.030,-0.030,-0.030,0.000,0.000,0.000
1641208064190546944,2022-01-03-11:07:44,10.1.1.7,190,-0.020,-0.020,-0.020,0.000,0.000,0.000
1641208064382530048,2022-01-03-11:07:44,10.1.1.7,182,-0.010,-0.010,-0.010,0.000,0.000,0.000
1641208064590370048,2022-01-03-11:07:44,10.1.1.7,189,0.000,0.000,0.000,0.000,0.000,0.000
1641208064789581056,2022-01-03-11:07:44,10.1.1.7,187,-0.010,-0.010,-0.010,0.000,0.000,0.000
1641208064982319104,2022-01-03-11:07:44,10.1.1.7,179,-0.020,-0.020,-0.020,0.000,0.000,0.000
1641208065189058048,2022-01-03-11:07:45,10.1.1.7,186,-0.030,-0.030,-0.030,0.000,0.000,0.000
1641208065389432832,2022-01-03-11:07:45,10.1.1.7,185,-0.040,-0.040,-0.040,0.000,0.000,0.000
1641208065578882816,2022-01-03-11:07:45,10.1.1.7,173,-0.050,-0.050,-0.050,0.000,0.000,0.000
1641208065779140096,2022-01-03-11:07:45,10.1.1.7,173,-0.060,-0.060,-0.060,0.000,0.000,0.000
1641208065984723968,2022-01-03-11:07:45,10.1.1.7,178,-0.070,-0.070,-0.070,0.000,0.000,0.000
1641208066178944000,2022-01-03-11:07:46,10.1.1.7,171,-0.080,-0.080,-0.080,0.000,0.000,0.000
1641208066378260992,2022-01-03-11:07:46,10.1.1.7,171,-0.090,-0.090,-0.090,0.000,0.000,0.000
1641208066587717888,2022-01-03-11:07:46,10.1.1.7,179,-0.100,-0.100,-0.100,0.000,0.000,0.000
1641208066787404032,2022-01-03-11:07:46,10.1.1.7,179,-0.110,-0.110,-0.110,0.000,0.000,0.000
1641208066986615808,2022-01-03-11:07:46,10.1.1.7,177,-0.120,-0.120,-0.120,0.000,0.000,0.000
1641208067186323968,2022-01-03-11:07:47,10.1.1.7,177,-0.130,-0.130,-0.130,0.000,0.000,0.000
1641208067395649024,2022-01-03-11:07:47,10.1.1.7,185,-0.140,-0.140,-0.140,0.000,0.000,0.000
1641208067599670016,2022-01-03-11:07:47,10.1.1.7,189,-0.150,-0.150,-0.150,0.000,0.000,0.000
1641208067785073920,2022-01-03-11:07:47,10.1.1.7,173,-0.160,-0.160,-0.160,0.000,0.000,0.000
1641208067985088000,2022-01-03-11:07:47,10.1.1.7,169,-0.170,-0.170,-0.170,0.000,0.000,0.000
1641208068187084032,2022-01-03-11:07:48,10.1.1.7,171,-0.180,-0.180,-0.180,0.000,0.000,0.000
1641208068434524160,2022-01-03-11:07:48,10.1.1.7,174,-0.190,-0.190,-0.190,0.000,0.000,0.000
1641208068634153984,2022-01-03-11:07:48,10.1.1.7,168,-0.200,-0.200,-0.200,0.000,0.000,0.000
1641208068844294144,2022-01-03-11:07:48,10.1.1.7,178,-0.210,-0.210,-0.210,0.000,0.000,0.000
1641208069033734912,2022-01-03-11:07:49,10.1.1.7,167,-0.220,-0.220,-0.220,0.000,0.000,0.000
1641208069233573888,2022-01-03-11:07:49,10.1.1.7,166,-0.230,-0.230,-0.230,0.000,0.000,0.000
1641208069452840192,2022-01-03-11:07:49,10.1.1.7,184,-0.240,-0.240,-0.240,0.000,0.000,0.000
1641208069656837888,2022-01-03-11:07:49,10.1.1.7,188,-0.250,-0.250,-0.250,0.000,0.000,0.000
1641208069842833152,2022-01-03-11:07:49,10.1.1.7,173,-0.260,-0.260,-0.260,0.000,0.000,0.000
1641208070062699008,2022-01-03-11:07:50,10.1.1.7,191,-0.270,-0.270,-0.270,0.000,0.000,0.000
1641208070262062080,2022-01-03-11:07:50,10.1.1.7,190,-0.280,-0.280,-0.280,0.000,0.000,0.000
1641208070461896960,2022-01-03-11:07:50,10.1.1.7,189,-0.290,-0.290,-0.290,0.000,0.000,0.000
1641208070642093824,2022-01-03-11:07:50,10.1.1.7,169,-0.300,-0.300,-0.300,0.000,0.000,0.000
1641208070852308992,2022-01-03-11:07:50,10.1.1.7,178,-0.310,-0.310,-0.310,0.000,0.000,0.000
1641208071053380864,2022-01-03-11:07:51,10.1.1.7,174,-0.320,-0.320,-0.320,0.000,0.000,0.000
1641208071251921920,2022-01-03-11:07:51,10.1.1.7,173,-0.330,-0.330,-0.330,0.000,0.000,0.000
1641208071450315008,2022-01-03-11:07:51,10.1.1.7,168,-0.340,-0.340,-0.340,0.000,0.000,0.000
1641208071659467008,2022-01-03-11:07:51,10.1.1.7,176,-0.350,-0.350,-0.350,0.000,0.000,0.000
1641208071865391104,2022-01-03-11:07:51,10.1.1.7,182,-0.360,-0.360,-0.360,0.000,0.000,0.000
1641208072049571072,2022-01-03-11:07:52,10.1.1.7,165,-0.370,-0.370,-0.370,0.000,0.000,0.000
1641208072258776832,2022-01-03-11:07:52,10.1.1.7,174,-0.380,-0.380,-0.380,0.000,0.000,0.000
1641208072449042176,2022-01-03-11:07:52,10.1.1.7,163,-0.390,-0.390,-0.390,0.000,0.000,0.000
1641208072664720896,2022-01-03-11:07:52,10.1.1.7,173,-0.400,-0.400,-0.400,0.000,0.000,0.000
1641208072858156800,2022-01-03-11:07:52,10.1.1.7,170,-0.410,-0.410,-0.410,0.000,0.000,0.000
1641208073077056000,2022-01-03-11:07:53,10.1.1.7,188,-0.420,-0.420,-0.420,0.000,0.000,0.000
1641208073277232896,2022-01-03-11:07:53,10.1.1.7,188,-0.430,-0.430,-0.430,0.000,0.000,0.000
1641208073476525056,2022-01-03-11:07:53,10.1.1.7,186,-0.440,-0.440,-0.440,0.000,0.000,0.000
1641208073656380928,2022-01-03-11:07:53,10.1.1.7,165,-0.450,-0.450,-0.450,0.000,0.000,0.000
1641208073864353792,2022-01-03-11:07:53,10.1.1.7,172,-0.460,-0.460,-0.460,0.000,0.000,0.000
1641208074056605952,2022-01-03-11:07:54,10.1.1.7,163,-0.470,-0.470,-0.470,0.000,0.000,0.000
1641208074275137024,2022-01-03-11:07:54,10.1.1.7,181,-0.480,-0.480,-0.480,0.000,0.000,0.000
1641208074475244032,2022-01-03-11:07:54,10.1.1.7,181,-0.490,-0.490,-0.490,0.000,0.000,0.000
1641208074669182976,2022-01-03-11:07:54,10.1.1.7,174,-0.480,-0.480,-0.480,0.000,0.000,0.000
1641208074864712960,2022-01-03-11:07:54,10.1.1.7,168,-0.470,-0.470,-0.470,0.000,0.000,0.000
1641208075066610176,2022-01-03-11:07:55,10.1.1.7,168,-0.460,-0.460,-0.460,0.000,0.000,0.000
