FedericoMungari/DigitalTwin_service/01_WiredScenario/Output/Output_script/script_rosapi_2_output_robots8_freq0_8.txt
timestamp,date,node,latency,joint_1,joint_2,joint_3,joint_4,joint_5,joint_6
1641207848471826944,2022-01-03-11:04:08,10.1.1.9,164,-0.010,-0.010,-0.010,0.000,0.000,0.000
1641207848671802112,2022-01-03-11:04:08,10.1.1.9,164,-0.020,-0.020,-0.020,0.000,0.000,0.000
1641207848871369984,2022-01-03-11:04:08,10.1.1.9,161,-0.030,-0.030,-0.030,0.000,0.000,0.000
1641207849092084992,2022-01-03-11:04:09,10.1.1.9,177,-0.040,-0.040,-0.040,0.000,0.000,0.000
1641207849293786112,2022-01-03-11:04:09,10.1.1.9,178,-0.050,-0.050,-0.050,0.000,0.000,0.000
1641207849494419200,2022-01-03-11:04:09,10.1.1.9,173,-0.060,-0.060,-0.060,0.000,0.000,0.000
1641207849694871808,2022-01-03-11:04:09,10.1.1.9,172,-0.070,-0.070,-0.070,0.000,0.000,0.000
1641207849885669120,2022-01-03-11:04:09,10.1.1.9,162,-0.080,-0.080,-0.080,0.000,0.000,0.000
1641207850096941056,2022-01-03-11:04:10,10.1.1.9,172,-0.090,-0.090,-0.090,0.000,0.000,0.000
1641207850299684096,2022-01-03-11:04:10,10.1.1.9,173,-0.100,-0.100,-0.100,0.000,0.000,0.000
1641207850498253056,2022-01-03-11:04:10,10.1.1.9,170,-0.110,-0.110,-0.110,0.000,0.000,0.000
1641207850699444992,2022-01-03-11:04:10,10.1.1.9,170,-0.120,-0.120,-0.120,0.000,0.000,0.000
1641207850899576064,2022-01-03-11:04:10,10.1.1.9,170,-0.130,-0.130,-0.130,0.000,0.000,0.000
1641207851111557120,2022-01-03-11:04:11,10.1.1.9,181,-0.140,-0.140,-0.140,0.000,0.000,0.000
1641207851312137984,2022-01-03-11:04:11,10.1.1.9,180,-0.150,-0.150,-0.150,0.000,0.000,0.000
1641207851502844928,2022-01-03-11:04:11,10.1.1.9,170,-0.160,-0.160,-0.160,0.000,0.000,0.000
1641207851712811008,2022-01-03-11:04:11,10.1.1.9,176,-0.170,-0.170,-0.170,0.000,0.000,0.000
1641207851923506944,2022-01-03-11:04:11,10.1.1.9,187,-0.180,-0.180,-0.180,0.000,0.000,0.000
1641207852124259072,2022-01-03-11:04:12,10.1.1.9,185,-0.190,-0.190,-0.190,0.000,0.000,0.000
1641207852334688000,2022-01-03-11:04:12,10.1.1.9,192,-0.200,-0.200,-0.200,0.000,0.000,0.000
1641207852525583104,2022-01-03-11:04:12,10.1.1.9,183,-0.210,-0.210,-0.210,0.000,0.000,0.000
1641207852725782016,2022-01-03-11:04:12,10.1.1.9,182,-0.220,-0.220,-0.220,0.000,0.000,0.000
1641207852926411008,2022-01-03-11:04:12,10.1.1.9,181,-0.230,-0.230,-0.230,0.000,0.000,0.000
1641207853127255808,2022-01-03-11:04:13,10.1.1.9,180,-0.240,-0.240,-0.240,0.000,0.000,0.000
1641207853331528960,2022-01-03-11:04:13,10.1.1.9,183,-0.250,-0.250,-0.250,0.000,0.000,0.000
1641207853537957888,2022-01-03-11:04:13,10.1.1.9,189,-0.260,-0.260,-0.260,0.000,0.000,0.000
1641207853738259968,2022-01-03-11:04:13,10.1.1.9,188,-0.270,-0.270,-0.270,0.000,0.000,0.000
1641207853939238144,2022-01-03-11:04:13,10.1.1.9,188,-0.280,-0.280,-0.280,0.000,0.000,0.000
1641207854130625024,2022-01-03-11:04:14,10.1.1.9,179,-0.290,-0.290,-0.290,0.000,0.000,0.000
1641207854329865984,2022-01-03-11:04:14,10.1.1.9,177,-0.300,-0.300,-0.300,0.000,0.000,0.000
1641207854533289984,2022-01-03-11:04:14,10.1.1.9,179,-0.310,-0.310,-0.310,0.000,0.000,0.000
1641207854750473984,2022-01-03-11:04:14,10.1.1.9,195,-0.320,-0.320,-0.320,0.000,0.000,0.000
1641207854951133952,2022-01-03-11:04:14,10.1.1.9,195,-0.330,-0.330,-0.330,0.000,0.000,0.000
1641207855150243072,2022-01-03-11:04:15,10.1.1.9,191,-0.340,-0.340,-0.340,0.000,0.000,0.000
1641207855352616960,2022-01-03-11:04:15,10.1.1.9,192,-0.350,-0.350,-0.350,0.000,0.000,0.000
1641207855541531136,2022-01-03-11:04:15,10.1.1.9,181,-0.360,-0.360,-0.360,0.000,0.000,0.000
1641207855761206016,2022-01-03-11:04:15,10.1.1.9,200,-0.370,-0.370,-0.370,0.000,0.000,0.000
1641207855952135168,2022-01-03-11:04:15,10.1.1.9,190,-0.380,-0.380,-0.380,0.000,0.000,0.000
1641207856153121024,2022-01-03-11:04:16,10.1.1.9,190,-0.390,-0.390,-0.390,0.000,0.000,0.000
1641207856353347072,2022-01-03-11:04:16,10.1.1.9,189,-0.400,-0.400,-0.400,0.000,0.000,0.000
1641207856552040960,2022-01-03-11:04:16,10.1.1.9,187,-0.410,-0.410,-0.410,0.000,0.000,0.000
1641207856753025024,2022-01-03-11:04:16,10.1.1.9,187,-0.420,-0.420,-0.420,0.000,0.000,0.000
1641207856952796928,2022-01-03-11:04:16,10.1.1.9,186,-0.430,-0.430,-0.430,0.000,0.000,0.000
1641207857152724992,2022-01-03-11:04:17,10.1.1.9,186,-0.440,-0.440,-0.440,0.000,0.000,0.000
1641207857354475008,2022-01-03-11:04:17,10.1.1.9,187,-0.450,-0.450,-0.450,0.000,0.000,0.000
1641207857553431040,2022-01-03-11:04:17,10.1.1.9,186,-0.460,-0.460,-0.460,0.000,0.000,0.000
1641207857753637120,2022-01-03-11:04:17,10.1.1.9,184,-0.470,-0.470,-0.470,0.000,0.000,0.000
1641207857953838080,2022-01-03-11:04:17,10.1.1.9,184,-0.480,-0.480,-0.480,0.000,0.000,0.000
1641207858153934848,2022-01-03-11:04:18,10.1.1.9,183,-0.490,-0.490,-0.490,0.000,0.000,0.000
1641207858354307840,2022-01-03-11:04:18,10.1.1.9,183,-0.480,-0.480,-0.480,0.000,0.000,0.000
1641207858554573056,2022-01-03-11:04:18,10.1.1.9,182,-0.470,-0.470,-0.470,0.000,0.000,0.000
1641207858753993984,2022-01-03-11:04:18,10.1.1.9,181,-0.460,-0.460,-0.460,0.000,0.000,0.000
1641207858953244928,2022-01-03-11:04:18,10.1.1.9,179,-0.450,-0.450,-0.450,0.000,0.000,0.000
1641207859153323008,2022-01-03-11:04:19,10.1.1.9,179,-0.440,-0.440,-0.440,0.000,0.000,0.000
1641207859554408192,2022-01-03-11:04:19,10.1.1.9,178,-0.420,-0.420,-0.420,0.000,0.000,0.000
1641207859774420992,2022-01-03-11:04:19,10.1.1.9,197,-0.410,-0.410,-0.410,0.000,0.000,0.000
1641207859963555072,2022-01-03-11:04:19,10.1.1.9,186,-0.400,-0.400,-0.400,0.000,0.000,0.000
1641207860174278144,2022-01-03-11:04:20,10.1.1.9,195,-0.390,-0.390,-0.390,0.000,0.000,0.000
1641207860364231168,2022-01-03-11:04:20,10.1.1.9,185,-0.380,-0.380,-0.380,0.000,0.000,0.000
1641207860573604096,2022-01-03-11:04:20,10.1.1.9,193,-0.370,-0.370,-0.370,0.000,0.000,0.000
1641207860773885952,2022-01-03-11:04:20,10.1.1.9,193,-0.360,-0.360,-0.360,0.000,0.000,0.000
1641207860984066048,2022-01-03-11:04:20,10.1.1.9,199,-0.350,-0.350,-0.350,0.000,0.000,0.000
1641207861183651072,2022-01-03-11:04:21,10.1.1.9,198,-0.340,-0.340,-0.340,0.000,0.000,0.000
1641207861374128128,2022-01-03-11:04:21,10.1.1.9,187,-0.330,-0.330,-0.330,0.000,0.000,0.000
1641207861573828096,2022-01-03-11:04:21,10.1.1.9,185,-0.320,-0.320,-0.320,0.000,0.000,0.000
1641207861773057024,2022-01-03-11:04:21,10.1.1.9,184,-0.310,-0.310,-0.310,0.000,0.000,0.000
1641207861984588032,2022-01-03-11:04:21,10.1.1.9,194,-0.300,-0.300,-0.300,0.000,0.000,0.000
1641207862173331968,2022-01-03-11:04:22,10.1.1.9,182,-0.290,-0.290,-0.290,0.000,0.000,0.000
1641207862373780992,2022-01-03-11:04:22,10.1.1.9,181,-0.280,-0.280,-0.280,0.000,0.000,0.000
1641207862573307904,2022-01-03-11:04:22,10.1.1.9,180,-0.270,-0.270,-0.270,0.000,0.000,0.000
1641207862772880128,2022-01-03-11:04:22,10.1.1.9,179,-0.260,-0.260,-0.260,0.000,0.000,0.000
1641207862972860160,2022-01-03-11:04:22,10.1.1.9,179,-0.250,-0.250,-0.250,0.000,0.000,0.000
1641207863193448960,2022-01-03-11:04:23,10.1.1.9,199,-0.240,-0.240,-0.240,0.000,0.000,0.000
1641207863582216960,2022-01-03-11:04:23,10.1.1.9,186,-0.220,-0.220,-0.220,0.000,0.000,0.000
1641207863782622976,2022-01-03-11:04:23,10.1.1.9,186,-0.210,-0.210,-0.210,0.000,0.000,0.000
1641207864391841792,2022-01-03-11:04:24,10.1.1.9,194,-0.180,-0.180,-0.180,0.000,0.000,0.000
1641207864591407104,2022-01-03-11:04:24,10.1.1.9,192,-0.170,-0.170,-0.170,0.000,0.000,0.000
1641207865000806144,2022-01-03-11:04:25,10.1.1.9,199,-0.150,-0.150,-0.150,0.000,0.000,0.000
1641207865192274944,2022-01-03-11:04:25,10.1.1.9,190,-0.140,-0.140,-0.140,0.000,0.000,0.000
1641207865401693184,2022-01-03-11:04:25,10.1.1.9,199,-0.130,-0.130,-0.130,0.000,0.000,0.000
1641207865590235904,2022-01-03-11:04:25,10.1.1.9,187,-0.120,-0.120,-0.120,0.000,0.000,0.000
1641207865780761856,2022-01-03-11:04:25,10.1.1.9,177,-0.110,-0.110,-0.110,0.000,0.000,0.000
1641207865994370816,2022-01-03-11:04:25,10.1.1.9,189,-0.100,-0.100,-0.100,0.000,0.000,0.000
1641207866190757888,2022-01-03-11:04:26,10.1.1.9,185,-0.090,-0.090,-0.090,0.000,0.000,0.000
1641207866389775104,2022-01-03-11:04:26,10.1.1.9,183,-0.080,-0.080,-0.080,0.000,0.000,0.000
1641207866592880128,2022-01-03-11:04:26,10.1.1.9,183,-0.070,-0.070,-0.070,0.000,0.000,0.000
1641207866790153984,2022-01-03-11:04:26,10.1.1.9,182,-0.060,-0.060,-0.060,0.000,0.000,0.000
1641207866989298944,2022-01-03-11:04:26,10.1.1.9,180,-0.050,-0.050,-0.050,0.000,0.000,0.000
1641207867189963008,2022-01-03-11:04:27,10.1.1.9,180,-0.040,-0.040,-0.040,0.000,0.000,0.000
1641207867399539968,2022-01-03-11:04:27,10.1.1.9,189,-0.030,-0.030,-0.030,0.000,0.000,0.000
1641207867588337920,2022-01-03-11:04:27,10.1.1.9,177,-0.020,-0.020,-0.020,0.000,0.000,0.000
1641207867788464128,2022-01-03-11:04:27,10.1.1.9,176,-0.010,-0.010,-0.010,0.000,0.000,0.000
1641207867987979776,2022-01-03-11:04:27,10.1.1.9,174,-0.000,-0.000,-0.000,0.000,0.000,0.000
1641207868198420992,2022-01-03-11:04:28,10.1.1.9,184,-0.010,-0.010,-0.010,0.000,0.000,0.000
1641207868407598848,2022-01-03-11:04:28,10.1.1.9,192,-0.020,-0.020,-0.020,0.000,0.000,0.000
1641207868817342976,2022-01-03-11:04:28,10.1.1.9,200,-0.040,-0.040,-0.040,0.000,0.000,0.000
1641207869008148992,2022-01-03-11:04:29,10.1.1.9,190,-0.050,-0.050,-0.050,0.000,0.000,0.000
1641207869196898048,2022-01-03-11:04:29,10.1.1.9,178,-0.060,-0.060,-0.060,0.000,0.000,0.000
1641207869406640128,2022-01-03-11:04:29,10.1.1.9,187,-0.070,-0.070,-0.070,0.000,0.000,0.000
1641207869606185984,2022-01-03-11:04:29,10.1.1.9,185,-0.080,-0.080,-0.080,0.000,0.000,0.000
1641207869796244992,2022-01-03-11:04:29,10.1.1.9,173,-0.090,-0.090,-0.090,0.000,0.000,0.000
1641207870005990144,2022-01-03-11:04:30,10.1.1.9,183,-0.100,-0.100,-0.100,0.000,0.000,0.000
1641207870205046784,2022-01-03-11:04:30,10.1.1.9,181,-0.110,-0.110,-0.110,0.000,0.000,0.000
1641207870404960000,2022-01-03-11:04:30,10.1.1.9,181,-0.120,-0.120,-0.120,0.000,0.000,0.000
1641207870615056128,2022-01-03-11:04:30,10.1.1.9,190,-0.130,-0.130,-0.130,0.000,0.000,0.000
1641207870805713920,2022-01-03-11:04:30,10.1.1.9,181,-0.140,-0.140,-0.140,0.000,0.000,0.000
1641207871007983872,2022-01-03-11:04:31,10.1.1.9,182,-0.150,-0.150,-0.150,0.000,0.000,0.000
1641207871205622784,2022-01-03-11:04:31,10.1.1.9,180,-0.160,-0.160,-0.160,0.000,0.000,0.000
1641207871413747200,2022-01-03-11:04:31,10.1.1.9,187,-0.170,-0.170,-0.170,0.000,0.000,0.000
1641207871616084992,2022-01-03-11:04:31,10.1.1.9,188,-0.180,-0.180,-0.180,0.000,0.000,0.000
1641207871805031936,2022-01-03-11:04:31,10.1.1.9,178,-0.190,-0.190,-0.190,0.000,0.000,0.000
1641207872013405952,2022-01-03-11:04:32,10.1.1.9,186,-0.200,-0.200,-0.200,0.000,0.000,0.000
1641207872202503936,2022-01-03-11:04:32,10.1.1.9,174,-0.210,-0.210,-0.210,0.000,0.000,0.000
1641207872413664000,2022-01-03-11:04:32,10.1.1.9,185,-0.220,-0.220,-0.220,0.000,0.000,0.000
1641207872602116096,2022-01-03-11:04:32,10.1.1.9,173,-0.230,-0.230,-0.230,0.000,0.000,0.000
1641207872801757952,2022-01-03-11:04:32,10.1.1.9,169,-0.240,-0.240,-0.240,0.000,0.000,0.000
1641207873001195008,2022-01-03-11:04:33,10.1.1.9,168,-0.250,-0.250,-0.250,0.000,0.000,0.000
1641207873202685952,2022-01-03-11:04:33,10.1.1.9,169,-0.260,-0.260,-0.260,0.000,0.000,0.000
1641207873422516992,2022-01-03-11:04:33,10.1.1.9,188,-0.270,-0.270,-0.270,0.000,0.000,0.000
1641207873610851072,2022-01-03-11:04:33,10.1.1.9,176,-0.280,-0.280,-0.280,0.000,0.000,0.000
1641207873810662144,2022-01-03-11:04:33,10.1.1.9,175,-0.290,-0.290,-0.290,0.000,0.000,0.000
1641207874020318976,2022-01-03-11:04:34,10.1.1.9,184,-0.300,-0.300,-0.300,0.000,0.000,0.000
1641207874220033024,2022-01-03-11:04:34,10.1.1.9,183,-0.310,-0.310,-0.310,0.000,0.000,0.000
1641207874420605952,2022-01-03-11:04:34,10.1.1.9,183,-0.320,-0.320,-0.320,0.000,0.000,0.000
1641207874620250112,2022-01-03-11:04:34,10.1.1.9,182,-0.330,-0.330,-0.330,0.000,0.000,0.000
1641207874819122944,2022-01-03-11:04:34,10.1.1.9,179,-0.340,-0.340,-0.340,0.000,0.000,0.000
1641207875018701056,2022-01-03-11:04:35,10.1.1.9,178,-0.350,-0.350,-0.350,0.000,0.000,0.000
1641207875218561024,2022-01-03-11:04:35,10.1.1.9,178,-0.360,-0.360,-0.360,0.000,0.000,0.000
1641207875419292928,2022-01-03-11:04:35,10.1.1.9,178,-0.370,-0.370,-0.370,0.000,0.000,0.000
1641207875618284032,2022-01-03-11:04:35,10.1.1.9,175,-0.380,-0.380,-0.380,0.000,0.000,0.000
1641207875818490112,2022-01-03-11:04:35,10.1.1.9,176,-0.390,-0.390,-0.390,0.000,0.000,0.000
1641207876017579008,2022-01-03-11:04:36,10.1.1.9,174,-0.400,-0.400,-0.400,0.000,0.000,0.000
1641207876217096192,2022-01-03-11:04:36,10.1.1.9,172,-0.410,-0.410,-0.410,0.000,0.000,0.000
1641207876417024000,2022-01-03-11:04:36,10.1.1.9,171,-0.420,-0.420,-0.420,0.000,0.000,0.000
1641207876616194048,2022-01-03-11:04:36,10.1.1.9,170,-0.430,-0.430,-0.430,0.000,0.000,0.000
1641207876826173952,2022-01-03-11:04:36,10.1.1.9,179,-0.440,-0.440,-0.440,0.000,0.000,0.000
1641207877036299008,2022-01-03-11:04:37,10.1.1.9,174,-0.450,-0.450,-0.450,0.000,0.000,0.000
1641207877234939136,2022-01-03-11:04:37,10.1.1.9,170,-0.460,-0.460,-0.460,0.000,0.000,0.000
1641207877448101120,2022-01-03-11:04:37,10.1.1.9,183,-0.470,-0.470,-0.470,0.000,0.000,0.000
1641207877634612992,2022-01-03-11:04:37,10.1.1.9,169,-0.480,-0.480,-0.480,0.000,0.000,0.000
1641207877847368960,2022-01-03-11:04:37,10.1.1.9,181,-0.490,-0.490,-0.490,0.000,0.000,0.000
1641207878034511104,2022-01-03-11:04:38,10.1.1.9,167,-0.480,-0.480,-0.480,0.000,0.000,0.000
1641207878235869952,2022-01-03-11:04:38,10.1.1.9,168,-0.470,-0.470,-0.470,0.000,0.000,0.000
1641207878434448128,2022-01-03-11:04:38,10.1.1.9,166,-0.460,-0.460,-0.460,0.000,0.000,0.000
1641207878633622784,2022-01-03-11:04:38,10.1.1.9,165,-0.450,-0.450,-0.450,0.000,0.000,0.000
1641207878832653056,2022-01-03-11:04:38,10.1.1.9,163,-0.440,-0.440,-0.440,0.000,0.000,0.000
1641207879034710784,2022-01-03-11:04:39,10.1.1.9,164,-0.430,-0.430,-0.430,0.000,0.000,0.000
1641207879242523904,2022-01-03-11:04:39,10.1.1.9,171,-0.420,-0.420,-0.420,0.000,0.000,0.000
1641207879431662080,2022-01-03-11:04:39,10.1.1.9,160,-0.410,-0.410,-0.410,0.000,0.000,0.000
1641207879632702208,2022-01-03-11:04:39,10.1.1.9,160,-0.400,-0.400,-0.400,0.000,0.000,0.000
1641207879832165888,2022-01-03-11:04:39,10.1.1.9,159,-0.390,-0.390,-0.390,0.000,0.000,0.000
1641207880055454976,2022-01-03-11:04:40,10.1.1.9,163,-0.380,-0.380,-0.380,0.000,0.000,0.000
1641207880231728128,2022-01-03-11:04:40,10.1.1.9,158,-0.370,-0.370,-0.370,0.000,0.000,0.000
1641207880450229760,2022-01-03-11:04:40,10.1.1.9,176,-0.360,-0.360,-0.360,0.000,0.000,0.000
1641207880651213056,2022-01-03-11:04:40,10.1.1.9,176,-0.350,-0.350,-0.350,0.000,0.000,0.000
1641207880840131072,2022-01-03-11:04:40,10.1.1.9,165,-0.340,-0.340,-0.340,0.000,0.000,0.000
1641207881049341952,2022-01-03-11:04:41,10.1.1.9,174,-0.330,-0.330,-0.330,0.000,0.000,0.000
1641207881260983040,2022-01-03-11:04:41,10.1.1.9,185,-0.320,-0.320,-0.320,0.000,0.000,0.000
1641207881442032128,2022-01-03-11:04:41,10.1.1.9,165,-0.310,-0.310,-0.310,0.000,0.000,0.000
1641207881643552000,2022-01-03-11:04:41,10.1.1.9,166,-0.300,-0.300,-0.300,0.000,0.000,0.000
1641207881843913984,2022-01-03-11:04:41,10.1.1.9,166,-0.290,-0.290,-0.290,0.000,0.000,0.000
1641207882055866112,2022-01-03-11:04:42,10.1.1.9,176,-0.280,-0.280,-0.280,0.000,0.000,0.000
1641207882256783872,2022-01-03-11:04:42,10.1.1.9,176,-0.270,-0.270,-0.270,0.000,0.000,0.000
1641207882468147968,2022-01-03-11:04:42,10.1.1.9,187,-0.260,-0.260,-0.260,0.000,0.000,0.000
1641207882657600000,2022-01-03-11:04:42,10.1.1.9,176,-0.250,-0.250,-0.250,0.000,0.000,0.000
1641207882858068992,2022-01-03-11:04:42,10.1.1.9,176,-0.240,-0.240,-0.240,0.000,0.000,0.000
1641207883058973952,2022-01-03-11:04:43,10.1.1.9,176,-0.230,-0.230,-0.230,0.000,0.000,0.000
1641207883269788928,2022-01-03-11:04:43,10.1.1.9,186,-0.220,-0.220,-0.220,0.000,0.000,0.000
1641207883461206016,2022-01-03-11:04:43,10.1.1.9,177,-0.210,-0.210,-0.210,0.000,0.000,0.000
1641207883661367040,2022-01-03-11:04:43,10.1.1.9,177,-0.200,-0.200,-0.200,0.000,0.000,0.000
1641207883874573056,2022-01-03-11:04:43,10.1.1.9,189,-0.190,-0.190,-0.190,0.000,0.000,0.000
1641207884063329024,2022-01-03-11:04:44,10.1.1.9,177,-0.180,-0.180,-0.180,0.000,0.000,0.000
1641207884274009088,2022-01-03-11:04:44,10.1.1.9,187,-0.170,-0.170,-0.170,0.000,0.000,0.000
1641207884474252032,2022-01-03-11:04:44,10.1.1.9,186,-0.160,-0.160,-0.160,0.000,0.000,0.000
1641207884665330944,2022-01-03-11:04:44,10.1.1.9,177,-0.150,-0.150,-0.150,0.000,0.000,0.000
1641207884865298944,2022-01-03-11:04:44,10.1.1.9,176,-0.140,-0.140,-0.140,0.000,0.000,0.000
1641207885076889088,2022-01-03-11:04:45,10.1.1.9,187,-0.130,-0.130,-0.130,0.000,0.000,0.000
1641207885267237888,2022-01-03-11:04:45,10.1.1.9,176,-0.120,-0.120,-0.120,0.000,0.000,0.000
1641207885466790912,2022-01-03-11:04:45,10.1.1.9,175,-0.110,-0.110,-0.110,0.000,0.000,0.000
1641207885667934976,2022-01-03-11:04:45,10.1.1.9,176,-0.100,-0.100,-0.100,0.000,0.000,0.000
1641207885878055936,2022-01-03-11:04:45,10.1.1.9,185,-0.090,-0.090,-0.090,0.000,0.000,0.000
1641207886069253888,2022-01-03-11:04:46,10.1.1.9,176,-0.080,-0.080,-0.080,0.000,0.000,0.000
1641207886278223104,2022-01-03-11:04:46,10.1.1.9,180,-0.070,-0.070,-0.070,0.000,0.000,0.000
1641207886488925952,2022-01-03-11:04:46,10.1.1.9,190,-0.060,-0.060,-0.060,0.000,0.000,0.000
1641207886689254912,2022-01-03-11:04:46,10.1.1.9,190,-0.050,-0.050,-0.050,0.000,0.000,0.000
1641207886889846016,2022-01-03-11:04:46,10.1.1.9,191,-0.040,-0.040,-0.040,0.000,0.000,0.000
1641207887090477056,2022-01-03-11:04:47,10.1.1.9,191,-0.030,-0.030,-0.030,0.000,0.000,0.000
1641207887290422016,2022-01-03-11:04:47,10.1.1.9,190,-0.020,-0.020,-0.020,0.000,0.000,0.000
1641207887491276032,2022-01-03-11:04:47,10.1.1.9,191,-0.010,-0.010,-0.010,0.000,0.000,0.000
1641207887691793920,2022-01-03-11:04:47,10.1.1.9,191,0.000,0.000,0.000,0.000,0.000,0.000
1641207888091898880,2022-01-03-11:04:48,10.1.1.9,190,-0.020,-0.020,-0.020,0.000,0.000,0.000
1641207888281935872,2022-01-03-11:04:48,10.1.1.9,179,-0.030,-0.030,-0.030,0.000,0.000,0.000
1641207888491842048,2022-01-03-11:04:48,10.1.1.9,189,-0.040,-0.040,-0.040,0.000,0.000,0.000
1641207888702497024,2022-01-03-11:04:48,10.1.1.9,199,-0.050,-0.050,-0.050,0.000,0.000,0.000
1641207888902864896,2022-01-03-11:04:48,10.1.1.9,198,-0.060,-0.060,-0.060,0.000,0.000,0.000
1641207889102780160,2022-01-03-11:04:49,10.1.1.9,198,-0.070,-0.070,-0.070,0.000,0.000,0.000
1641207889293081088,2022-01-03-11:04:49,10.1.1.9,188,-0.080,-0.080,-0.080,0.000,0.000,0.000
1641207889493249024,2022-01-03-11:04:49,10.1.1.9,187,-0.090,-0.090,-0.090,0.000,0.000,0.000
1641207889693502976,2022-01-03-11:04:49,10.1.1.9,187,-0.100,-0.100,-0.100,0.000,0.000,0.000
1641207889893280000,2022-01-03-11:04:49,10.1.1.9,187,-0.110,-0.110,-0.110,0.000,0.000,0.000
1641207890092977920,2022-01-03-11:04:50,10.1.1.9,186,-0.120,-0.120,-0.120,0.000,0.000,0.000
1641207890303481088,2022-01-03-11:04:50,10.1.1.9,196,-0.130,-0.130,-0.130,0.000,0.000,0.000
1641207890503899136,2022-01-03-11:04:50,10.1.1.9,195,-0.140,-0.140,-0.140,0.000,0.000,0.000
1641207890694148096,2022-01-03-11:04:50,10.1.1.9,185,-0.150,-0.150,-0.150,0.000,0.000,0.000
1641207890893613056,2022-01-03-11:04:50,10.1.1.9,183,-0.160,-0.160,-0.160,0.000,0.000,0.000
1641207891093079040,2022-01-03-11:04:51,10.1.1.9,182,-0.170,-0.170,-0.170,0.000,0.000,0.000
1641207891293623040,2022-01-03-11:04:51,10.1.1.9,182,-0.180,-0.180,-0.180,0.000,0.000,0.000
1641207891493316864,2022-01-03-11:04:51,10.1.1.9,181,-0.190,-0.190,-0.190,0.000,0.000,0.000
1641207891693618176,2022-01-03-11:04:51,10.1.1.9,181,-0.200,-0.200,-0.200,0.000,0.000,0.000
1641207892313422848,2022-01-03-11:04:52,10.1.1.9,197,-0.230,-0.230,-0.230,0.000,0.000,0.000
1641207892514134016,2022-01-03-11:04:52,10.1.1.9,197,-0.240,-0.240,-0.240,0.000,0.000,0.000
1641207892713890048,2022-01-03-11:04:52,10.1.1.9,196,-0.250,-0.250,-0.250,0.000,0.000,0.000
1641207892913757184,2022-01-03-11:04:52,10.1.1.9,195,-0.260,-0.260,-0.260,0.000,0.000,0.000
1641207893113313792,2022-01-03-11:04:53,10.1.1.9,194,-0.270,-0.270,-0.270,0.000,0.000,0.000
1641207893313293824,2022-01-03-11:04:53,10.1.1.9,194,-0.280,-0.280,-0.280,0.000,0.000,0.000
1641207893513787136,2022-01-03-11:04:53,10.1.1.9,194,-0.290,-0.290,-0.290,0.000,0.000,0.000
1641207893713562112,2022-01-03-11:04:53,10.1.1.9,193,-0.300,-0.300,-0.300,0.000,0.000,0.000
1641207893913595904,2022-01-03-11:04:53,10.1.1.9,193,-0.310,-0.310,-0.310,0.000,0.000,0.000
1641207894113202176,2022-01-03-11:04:54,10.1.1.9,192,-0.320,-0.320,-0.320,0.000,0.000,0.000
1641207894313039104,2022-01-03-11:04:54,10.1.1.9,191,-0.330,-0.330,-0.330,0.000,0.000,0.000
1641207894513358080,2022-01-03-11:04:54,10.1.1.9,191,-0.340,-0.340,-0.340,0.000,0.000,0.000
1641207894712918016,2022-01-03-11:04:54,10.1.1.9,189,-0.350,-0.350,-0.350,0.000,0.000,0.000
1641207894922981120,2022-01-03-11:04:54,10.1.1.9,199,-0.360,-0.360,-0.360,0.000,0.000,0.000
1641207895112826112,2022-01-03-11:04:55,10.1.1.9,187,-0.370,-0.370,-0.370,0.000,0.000,0.000
1641207895312630016,2022-01-03-11:04:55,10.1.1.9,186,-0.380,-0.380,-0.380,0.000,0.000,0.000
1641207895522758912,2022-01-03-11:04:55,10.1.1.9,194,-0.390,-0.390,-0.390,0.000,0.000,0.000
1641207895713154048,2022-01-03-11:04:55,10.1.1.9,184,-0.400,-0.400,-0.400,0.000,0.000,0.000
1641207896136840192,2022-01-03-11:04:56,10.1.1.9,193,-0.420,-0.420,-0.420,0.000,0.000,0.000
1641207896534004992,2022-01-03-11:04:56,10.1.1.9,188,-0.440,-0.440,-0.440,0.000,0.000,0.000
1641207896731618048,2022-01-03-11:04:56,10.1.1.9,185,-0.450,-0.450,-0.450,0.000,0.000,0.000
1641207896931514112,2022-01-03-11:04:56,10.1.1.9,184,-0.460,-0.460,-0.460,0.000,0.000,0.000
1641207897141415168,2022-01-03-11:04:57,10.1.1.9,193,-0.470,-0.470,-0.470,0.000,0.000,0.000
1641207897331337984,2022-01-03-11:04:57,10.1.1.9,182,-0.480,-0.480,-0.480,0.000,0.000,0.000
1641207897530641152,2022-01-03-11:04:57,10.1.1.9,181,-0.490,-0.490,-0.490,0.000,0.000,0.000
1641207897730562816,2022-01-03-11:04:57,10.1.1.9,180,-0.480,-0.480,-0.480,0.000,0.000,0.000
1641207897931801088,2022-01-03-11:04:57,10.1.1.9,181,-0.470,-0.470,-0.470,0.000,0.000,0.000
1641207898132210944,2022-01-03-11:04:58,10.1.1.9,181,-0.460,-0.460,-0.460,0.000,0.000,0.000
1641207898331501056,2022-01-03-11:04:58,10.1.1.9,179,-0.450,-0.450,-0.450,0.000,0.000,0.000
1641207898530455040,2022-01-03-11:04:58,10.1.1.9,178,-0.440,-0.440,-0.440,0.000,0.000,0.000
1641207898739768064,2022-01-03-11:04:58,10.1.1.9,186,-0.430,-0.430,-0.430,0.000,0.000,0.000
1641207898951324928,2022-01-03-11:04:58,10.1.1.9,197,-0.420,-0.420,-0.420,0.000,0.000,0.000
1641207899150269952,2022-01-03-11:04:59,10.1.1.9,195,-0.410,-0.410,-0.410,0.000,0.000,0.000
1641207899349057792,2022-01-03-11:04:59,10.1.1.9,193,-0.400,-0.400,-0.400,0.000,0.000,0.000
1641207899548673024,2022-01-03-11:04:59,10.1.1.9,192,-0.390,-0.390,-0.390,0.000,0.000,0.000
1641207899749000192,2022-01-03-11:04:59,10.1.1.9,192,-0.380,-0.380,-0.380,0.000,0.000,0.000
1641207899948322048,2022-01-03-11:04:59,10.1.1.9,190,-0.370,-0.370,-0.370,0.000,0.000,0.000
1641207900148101120,2022-01-03-11:05:00,10.1.1.9,190,-0.360,-0.360,-0.360,0.000,0.000,0.000
1641207900347995904,2022-01-03-11:05:00,10.1.1.9,189,-0.350,-0.350,-0.350,0.000,0.000,0.000
1641207900557441024,2022-01-03-11:05:00,10.1.1.9,198,-0.340,-0.340,-0.340,0.000,0.000,0.000
1641207900747450112,2022-01-03-11:05:00,10.1.1.9,188,-0.330,-0.330,-0.330,0.000,0.000,0.000
1641207900937601024,2022-01-03-11:05:00,10.1.1.9,177,-0.320,-0.320,-0.320,0.000,0.000,0.000
1641207901147345152,2022-01-03-11:05:01,10.1.1.9,186,-0.310,-0.310,-0.310,0.000,0.000,0.000
1641207901356790016,2022-01-03-11:05:01,10.1.1.9,195,-0.300,-0.300,-0.300,0.000,0.000,0.000
1641207901547261952,2022-01-03-11:05:01,10.1.1.9,185,-0.290,-0.290,-0.290,0.000,0.000,0.000
1641207901736707072,2022-01-03-11:05:01,10.1.1.9,173,-0.280,-0.280,-0.280,0.000,0.000,0.000
1641207901956626944,2022-01-03-11:05:01,10.1.1.9,192,-0.270,-0.270,-0.270,0.000,0.000,0.000
1641207902146158080,2022-01-03-11:05:02,10.1.1.9,181,-0.260,-0.260,-0.260,0.000,0.000,0.000
1641207902345865984,2022-01-03-11:05:02,10.1.1.9,180,-0.250,-0.250,-0.250,0.000,0.000,0.000
1641207902545630976,2022-01-03-11:05:02,10.1.1.9,179,-0.240,-0.240,-0.240,0.000,0.000,0.000
1641207902745361152,2022-01-03-11:05:02,10.1.1.9,179,-0.230,-0.230,-0.230,0.000,0.000,0.000
1641207902945869056,2022-01-03-11:05:02,10.1.1.9,179,-0.220,-0.220,-0.220,0.000,0.000,0.000
1641207903364721152,2022-01-03-11:05:03,10.1.1.9,181,-0.200,-0.200,-0.200,0.000,0.000,0.000
1641207903564290048,2022-01-03-11:05:03,10.1.1.9,179,-0.190,-0.190,-0.190,0.000,0.000,0.000
1641207903764609024,2022-01-03-11:05:03,10.1.1.9,179,-0.180,-0.180,-0.180,0.000,0.000,0.000
1641207903963571968,2022-01-03-11:05:03,10.1.1.9,178,-0.170,-0.170,-0.170,0.000,0.000,0.000
1641207904163346176,2022-01-03-11:05:04,10.1.1.9,177,-0.160,-0.160,-0.160,0.000,0.000,0.000
1641207904362787840,2022-01-03-11:05:04,10.1.1.9,175,-0.150,-0.150,-0.150,0.000,0.000,0.000
1641207904562545152,2022-01-03-11:05:04,10.1.1.9,175,-0.140,-0.140,-0.140,0.000,0.000,0.000
1641207904762042880,2022-01-03-11:05:04,10.1.1.9,174,-0.130,-0.130,-0.130,0.000,0.000,0.000
1641207904965057024,2022-01-03-11:05:04,10.1.1.9,176,-0.120,-0.120,-0.120,0.000,0.000,0.000
1641207905182089984,2022-01-03-11:05:05,10.1.1.9,182,-0.110,-0.110,-0.110,0.000,0.000,0.000
1641207905381400064,2022-01-03-11:05:05,10.1.1.9,180,-0.100,-0.100,-0.100,0.000,0.000,0.000
1641207905581830144,2022-01-03-11:05:05,10.1.1.9,179,-0.090,-0.090,-0.090,0.000,0.000,0.000
1641207905781108992,2022-01-03-11:05:05,10.1.1.9,178,-0.080,-0.080,-0.080,0.000,0.000,0.000
1641207905981099008,2022-01-03-11:05:05,10.1.1.9,178,-0.070,-0.070,-0.070,0.000,0.000,0.000
1641207906180668160,2022-01-03-11:05:06,10.1.1.9,176,-0.060,-0.060,-0.060,0.000,0.000,0.000
1641207906380870144,2022-01-03-11:05:06,10.1.1.9,176,-0.050,-0.050,-0.050,0.000,0.000,0.000
1641207906590422016,2022-01-03-11:05:06,10.1.1.9,185,-0.040,-0.040,-0.040,0.000,0.000,0.000
1641207906789405952,2022-01-03-11:05:06,10.1.1.9,183,-0.030,-0.030,-0.030,0.000,0.000,0.000
1641207906979311104,2022-01-03-11:05:06,10.1.1.9,173,-0.020,-0.020,-0.020,0.000,0.000,0.000
1641207907179304960,2022-01-03-11:05:07,10.1.1.9,172,-0.010,-0.010,-0.010,0.000,0.000,0.000
1641207907378608896,2022-01-03-11:05:07,10.1.1.9,171,0.000,0.000,0.000,0.000,0.000,0.000
1641207907588920064,2022-01-03-11:05:07,10.1.1.9,181,-0.010,-0.010,-0.010,0.000,0.000,0.000
1641207907778810880,2022-01-03-11:05:07,10.1.1.9,170,-0.020,-0.020,-0.020,0.000,0.000,0.000
1641207907978018048,2022-01-03-11:05:07,10.1.1.9,169,-0.030,-0.030,-0.030,0.000,0.000,0.000
1641207908177730048,2022-01-03-11:05:08,10.1.1.9,168,-0.040,-0.040,-0.040,0.000,0.000,0.000
1641207908386915072,2022-01-03-11:05:08,10.1.1.9,177,-0.050,-0.050,-0.050,0.000,0.000,0.000
1641207908586599168,2022-01-03-11:05:08,10.1.1.9,176,-0.060,-0.060,-0.060,0.000,0.000,0.000
1641207908777340928,2022-01-03-11:05:08,10.1.1.9,166,-0.070,-0.070,-0.070,0.000,0.000,0.000
1641207908976579840,2022-01-03-11:05:08,10.1.1.9,164,-0.080,-0.080,-0.080,0.000,0.000,0.000
1641207909186300928,2022-01-03-11:05:09,10.1.1.9,172,-0.090,-0.090,-0.090,0.000,0.000,0.000
1641207909396090112,2022-01-03-11:05:09,10.1.1.9,181,-0.100,-0.100,-0.100,0.000,0.000,0.000
1641207909604872960,2022-01-03-11:05:09,10.1.1.9,190,-0.110,-0.110,-0.110,0.000,0.000,0.000
1641207909795223040,2022-01-03-11:05:09,10.1.1.9,179,-0.120,-0.120,-0.120,0.000,0.000,0.000
1641207909994198016,2022-01-03-11:05:09,10.1.1.9,178,-0.130,-0.130,-0.130,0.000,0.000,0.000
1641207910193768960,2022-01-03-11:05:10,10.1.1.9,176,-0.140,-0.140,-0.140,0.000,0.000,0.000
1641207910393645056,2022-01-03-11:05:10,10.1.1.9,176,-0.150,-0.150,-0.150,0.000,0.000,0.000
1641207910598653952,2022-01-03-11:05:10,10.1.1.9,180,-0.160,-0.160,-0.160,0.000,0.000,0.000
1641207910795696128,2022-01-03-11:05:10,10.1.1.9,177,-0.170,-0.170,-0.170,0.000,0.000,0.000
1641207910992744960,2022-01-03-11:05:10,10.1.1.9,173,-0.180,-0.180,-0.180,0.000,0.000,0.000
1641207911192004864,2022-01-03-11:05:11,10.1.1.9,169,-0.190,-0.190,-0.190,0.000,0.000,0.000
1641207911397524992,2022-01-03-11:05:11,10.1.1.9,173,-0.200,-0.200,-0.200,0.000,0.000,0.000
1641207911593667072,2022-01-03-11:05:11,10.1.1.9,170,-0.210,-0.210,-0.210,0.000,0.000,0.000
1641207911791919104,2022-01-03-11:05:11,10.1.1.9,167,-0.220,-0.220,-0.220,0.000,0.000,0.000
1641207911991288064,2022-01-03-11:05:11,10.1.1.9,166,-0.230,-0.230,-0.230,0.000,0.000,0.000
1641207912195769088,2022-01-03-11:05:12,10.1.1.9,170,-0.240,-0.240,-0.240,0.000,0.000,0.000
1641207912391266048,2022-01-03-11:05:12,10.1.1.9,165,-0.250,-0.250,-0.250,0.000,0.000,0.000
1641207912594072064,2022-01-03-11:05:12,10.1.1.9,165,-0.260,-0.260,-0.260,0.000,0.000,0.000
1641207912790622976,2022-01-03-11:05:12,10.1.1.9,161,-0.270,-0.270,-0.270,0.000,0.000,0.000
1641207912989974016,2022-01-03-11:05:12,10.1.1.9,159,-0.280,-0.280,-0.280,0.000,0.000,0.000
1641207913190234880,2022-01-03-11:05:13,10.1.1.9,159,-0.290,-0.290,-0.290,0.000,0.000,0.000
1641207913389146112,2022-01-03-11:05:13,10.1.1.9,158,-0.300,-0.300,-0.300,0.000,0.000,0.000
1641207913590344960,2022-01-03-11:05:13,10.1.1.9,159,-0.310,-0.310,-0.310,0.000,0.000,0.000
1641207913790679808,2022-01-03-11:05:13,10.1.1.9,158,-0.320,-0.320,-0.320,0.000,0.000,0.000
1641207913998361088,2022-01-03-11:05:13,10.1.1.9,165,-0.330,-0.330,-0.330,0.000,0.000,0.000
1641207914189678080,2022-01-03-11:05:14,10.1.1.9,156,-0.340,-0.340,-0.340,0.000,0.000,0.000
1641207914390747904,2022-01-03-11:05:14,10.1.1.9,157,-0.350,-0.350,-0.350,0.000,0.000,0.000
1641207914611947008,2022-01-03-11:05:14,10.1.1.9,178,-0.360,-0.360,-0.360,0.000,0.000,0.000
1641207914812701952,2022-01-03-11:05:14,10.1.1.9,178,-0.370,-0.370,-0.370,0.000,0.000,0.000
1641207915024896000,2022-01-03-11:05:15,10.1.1.9,187,-0.380,-0.380,-0.380,0.000,0.000,0.000
1641207915214139904,2022-01-03-11:05:15,10.1.1.9,178,-0.390,-0.390,-0.390,0.000,0.000,0.000
1641207915416591872,2022-01-03-11:05:15,10.1.1.9,181,-0.400,-0.400,-0.400,0.000,0.000,0.000
1641207915619196928,2022-01-03-11:05:15,10.1.1.9,182,-0.410,-0.410,-0.410,0.000,0.000,0.000
1641207915817556992,2022-01-03-11:05:15,10.1.1.9,181,-0.420,-0.420,-0.420,0.000,0.000,0.000
1641207916018333952,2022-01-03-11:05:16,10.1.1.9,181,-0.430,-0.430,-0.430,0.000,0.000,0.000
1641207916218578944,2022-01-03-11:05:16,10.1.1.9,180,-0.440,-0.440,-0.440,0.000,0.000,0.000
1641207916419258112,2022-01-03-11:05:16,10.1.1.9,180,-0.450,-0.450,-0.450,0.000,0.000,0.000
1641207916630352896,2022-01-03-11:05:16,10.1.1.9,190,-0.460,-0.460,-0.460,0.000,0.000,0.000
1641207916821427968,2022-01-03-11:05:16,10.1.1.9,180,-0.470,-0.470,-0.470,0.000,0.000,0.000
1641207917022120960,2022-01-03-11:05:17,10.1.1.9,180,-0.480,-0.480,-0.480,0.000,0.000,0.000
1641207917222852864,2022-01-03-11:05:17,10.1.1.9,180,-0.490,-0.490,-0.490,0.000,0.000,0.000
1641207917424190976,2022-01-03-11:05:17,10.1.1.9,181,-0.480,-0.480,-0.480,0.000,0.000,0.000
1641207917624001024,2022-01-03-11:05:17,10.1.1.9,180,-0.470,-0.470,-0.470,0.000,0.000,0.000
1641207917833865984,2022-01-03-11:05:17,10.1.1.9,189,-0.460,-0.460,-0.460,0.000,0.000,0.000
1641207918024987904,2022-01-03-11:05:18,10.1.1.9,180,-0.450,-0.450,-0.450,0.000,0.000,0.000
1641207918225536000,2022-01-03-11:05:18,10.1.1.9,180,-0.440,-0.440,-0.440,0.000,0.000,0.000
1641207918425105152,2022-01-03-11:05:18,10.1.1.9,179,-0.430,-0.430,-0.430,0.000,0.000,0.000
1641207918625995008,2022-01-03-11:05:18,10.1.1.9,179,-0.420,-0.420,-0.420,0.000,0.000,0.000
1641207918826369024,2022-01-03-11:05:18,10.1.1.9,179,-0.410,-0.410,-0.410,0.000,0.000,0.000
1641207919027923968,2022-01-03-11:05:19,10.1.1.9,180,-0.400,-0.400,-0.400,0.000,0.000,0.000
1641207919227073024,2022-01-03-11:05:19,10.1.1.9,179,-0.390,-0.390,-0.390,0.000,0.000,0.000
1641207919428692992,2022-01-03-11:05:19,10.1.1.9,180,-0.380,-0.380,-0.380,0.000,0.000,0.000
1641207919628016896,2022-01-03-11:05:19,10.1.1.9,178,-0.370,-0.370,-0.370,0.000,0.000,0.000
1641207919828735232,2022-01-03-11:05:19,10.1.1.9,179,-0.360,-0.360,-0.360,0.000,0.000,0.000
1641207920029192960,2022-01-03-11:05:20,10.1.1.9,179,-0.350,-0.350,-0.350,0.000,0.000,0.000
1641207920229602048,2022-01-03-11:05:20,10.1.1.9,178,-0.340,-0.340,-0.340,0.000,0.000,0.000
1641207920429697024,2022-01-03-11:05:20,10.1.1.9,178,-0.330,-0.330,-0.330,0.000,0.000,0.000
1641207920640259072,2022-01-03-11:05:20,10.1.1.9,188,-0.320,-0.320,-0.320,0.000,0.000,0.000
1641207920831450112,2022-01-03-11:05:20,10.1.1.9,179,-0.310,-0.310,-0.310,0.000,0.000,0.000
1641207921030368000,2022-01-03-11:05:21,10.1.1.9,177,-0.300,-0.300,-0.300,0.000,0.000,0.000
1641207921230832128,2022-01-03-11:05:21,10.1.1.9,178,-0.290,-0.290,-0.290,0.000,0.000,0.000
1641207921441977856,2022-01-03-11:05:21,10.1.1.9,188,-0.280,-0.280,-0.280,0.000,0.000,0.000
1641207921651073024,2022-01-03-11:05:21,10.1.1.9,197,-0.270,-0.270,-0.270,0.000,0.000,0.000
1641207921853720064,2022-01-03-11:05:21,10.1.1.9,199,-0.260,-0.260,-0.260,0.000,0.000,0.000
1641207922053740032,2022-01-03-11:05:22,10.1.1.9,188,-0.250,-0.250,-0.250,0.000,0.000,0.000
1641207922251214080,2022-01-03-11:05:22,10.1.1.9,181,-0.240,-0.240,-0.240,0.000,0.000,0.000
1641207922455514880,2022-01-03-11:05:22,10.1.1.9,182,-0.230,-0.230,-0.230,0.000,0.000,0.000
1641207922652052992,2022-01-03-11:05:22,10.1.1.9,178,-0.220,-0.220,-0.220,0.000,0.000,0.000
1641207922872762880,2022-01-03-11:05:22,10.1.1.9,196,-0.210,-0.210,-0.210,0.000,0.000,0.000
1641207923081850880,2022-01-03-11:05:23,10.1.1.9,203,-0.200,-0.200,-0.200,0.000,0.000,0.000
1641207923262496000,2022-01-03-11:05:23,10.1.1.9,179,-0.190,-0.190,-0.190,0.000,0.000,0.000
1641207923483053824,2022-01-03-11:05:23,10.1.1.9,199,-0.180,-0.180,-0.180,0.000,0.000,0.000
1641207923672570112,2022-01-03-11:05:23,10.1.1.9,188,-0.170,-0.170,-0.170,0.000,0.000,0.000
1641207923872761856,2022-01-03-11:05:23,10.1.1.9,185,-0.160,-0.160,-0.160,0.000,0.000,0.000
1641207924083326208,2022-01-03-11:05:24,10.1.1.9,195,-0.150,-0.150,-0.150,0.000,0.000,0.000
1641207924272478208,2022-01-03-11:05:24,10.1.1.9,182,-0.140,-0.140,-0.140,0.000,0.000,0.000
1641207924473131008,2022-01-03-11:05:24,10.1.1.9,182,-0.130,-0.130,-0.130,0.000,0.000,0.000
1641207924672339968,2022-01-03-11:05:24,10.1.1.9,181,-0.120,-0.120,-0.120,0.000,0.000,0.000
1641207924873125120,2022-01-03-11:05:24,10.1.1.9,181,-0.110,-0.110,-0.110,0.000,0.000,0.000
1641207925072730112,2022-01-03-11:05:25,10.1.1.9,180,-0.100,-0.100,-0.100,0.000,0.000,0.000
1641207925272566016,2022-01-03-11:05:25,10.1.1.9,179,-0.090,-0.090,-0.090,0.000,0.000,0.000
1641207925483810048,2022-01-03-11:05:25,10.1.1.9,190,-0.080,-0.080,-0.080,0.000,0.000,0.000
1641207925692646912,2022-01-03-11:05:25,10.1.1.9,198,-0.070,-0.070,-0.070,0.000,0.000,0.000
1641207925892636160,2022-01-03-11:05:25,10.1.1.9,194,-0.060,-0.060,-0.060,0.000,0.000,0.000
1641207926082920960,2022-01-03-11:05:26,10.1.1.9,184,-0.050,-0.050,-0.050,0.000,0.000,0.000
1641207926283570176,2022-01-03-11:05:26,10.1.1.9,184,-0.040,-0.040,-0.040,0.000,0.000,0.000
1641207926492412160,2022-01-03-11:05:26,10.1.1.9,186,-0.030,-0.030,-0.030,0.000,0.000,0.000
1641207926692493056,2022-01-03-11:05:26,10.1.1.9,186,-0.020,-0.020,-0.020,0.000,0.000,0.000
1641207926901895168,2022-01-03-11:05:26,10.1.1.9,195,-0.010,-0.010,-0.010,0.000,0.000,0.000
1641207927102009088,2022-01-03-11:05:27,10.1.1.9,187,0.000,0.000,0.000,0.000,0.000,0.000
1641207927510381056,2022-01-03-11:05:27,10.1.1.9,190,-0.020,-0.020,-0.020,0.000,0.000,0.000
1641207927713007872,2022-01-03-11:05:27,10.1.1.9,192,-0.030,-0.030,-0.030,0.000,0.000,0.000
1641207927921842176,2022-01-03-11:05:27,10.1.1.9,200,-0.040,-0.040,-0.040,0.000,0.000,0.000
1641207928103452928,2022-01-03-11:05:28,10.1.1.9,181,-0.050,-0.050,-0.050,0.000,0.000,0.000
1641207928301466880,2022-01-03-11:05:28,10.1.1.9,178,-0.060,-0.060,-0.060,0.000,0.000,0.000
1641207928511730944,2022-01-03-11:05:28,10.1.1.9,188,-0.070,-0.070,-0.070,0.000,0.000,0.000
1641207928721488896,2022-01-03-11:05:28,10.1.1.9,195,-0.080,-0.080,-0.080,0.000,0.000,0.000
1641207928910914048,2022-01-03-11:05:28,10.1.1.9,184,-0.090,-0.090,-0.090,0.000,0.000,0.000
1641207929110716160,2022-01-03-11:05:29,10.1.1.9,184,-0.100,-0.100,-0.100,0.000,0.000,0.000
1641207929310903040,2022-01-03-11:05:29,10.1.1.9,183,-0.110,-0.110,-0.110,0.000,0.000,0.000
1641207929510585088,2022-01-03-11:05:29,10.1.1.9,182,-0.120,-0.120,-0.120,0.000,0.000,0.000
1641207929710732032,2022-01-03-11:05:29,10.1.1.9,181,-0.130,-0.130,-0.130,0.000,0.000,0.000
1641207929920578048,2022-01-03-11:05:29,10.1.1.9,191,-0.140,-0.140,-0.140,0.000,0.000,0.000
1641207930110342144,2022-01-03-11:05:30,10.1.1.9,180,-0.150,-0.150,-0.150,0.000,0.000,0.000
1641207930309801984,2022-01-03-11:05:30,10.1.1.9,178,-0.160,-0.160,-0.160,0.000,0.000,0.000
1641207930510280960,2022-01-03-11:05:30,10.1.1.9,178,-0.170,-0.170,-0.170,0.000,0.000,0.000
1641207930710299904,2022-01-03-11:05:30,10.1.1.9,178,-0.180,-0.180,-0.180,0.000,0.000,0.000
1641207930929965056,2022-01-03-11:05:30,10.1.1.9,195,-0.190,-0.190,-0.190,0.000,0.000,0.000
1641207931129387008,2022-01-03-11:05:31,10.1.1.9,194,-0.200,-0.200,-0.200,0.000,0.000,0.000
1641207931329308160,2022-01-03-11:05:31,10.1.1.9,191,-0.210,-0.210,-0.210,0.000,0.000,0.000
1641207931529056000,2022-01-03-11:05:31,10.1.1.9,190,-0.220,-0.220,-0.220,0.000,0.000,0.000
1641207931728787968,2022-01-03-11:05:31,10.1.1.9,189,-0.230,-0.230,-0.230,0.000,0.000,0.000
1641207931929230848,2022-01-03-11:05:31,10.1.1.9,188,-0.240,-0.240,-0.240,0.000,0.000,0.000
1641207932128964864,2022-01-03-11:05:32,10.1.1.9,186,-0.250,-0.250,-0.250,0.000,0.000,0.000
1641207932328628992,2022-01-03-11:05:32,10.1.1.9,186,-0.260,-0.260,-0.260,0.000,0.000,0.000
1641207932528572928,2022-01-03-11:05:32,10.1.1.9,185,-0.270,-0.270,-0.270,0.000,0.000,0.000
1641207932728172032,2022-01-03-11:05:32,10.1.1.9,184,-0.280,-0.280,-0.280,0.000,0.000,0.000
1641207932937197056,2022-01-03-11:05:32,10.1.1.9,192,-0.290,-0.290,-0.290,0.000,0.000,0.000
1641207933130587136,2022-01-03-11:05:33,10.1.1.9,184,-0.300,-0.300,-0.300,0.000,0.000,0.000
1641207933337281024,2022-01-03-11:05:33,10.1.1.9,191,-0.310,-0.310,-0.310,0.000,0.000,0.000
1641207933536969984,2022-01-03-11:05:33,10.1.1.9,190,-0.320,-0.320,-0.320,0.000,0.000,0.000
1641207933730423040,2022-01-03-11:05:33,10.1.1.9,183,-0.330,-0.330,-0.330,0.000,0.000,0.000
1641207933936438016,2022-01-03-11:05:33,10.1.1.9,188,-0.340,-0.340,-0.340,0.000,0.000,0.000
1641207934137125120,2022-01-03-11:05:34,10.1.1.9,188,-0.350,-0.350,-0.350,0.000,0.000,0.000
1641207934326119936,2022-01-03-11:05:34,10.1.1.9,177,-0.360,-0.360,-0.360,0.000,0.000,0.000
1641207934525701888,2022-01-03-11:05:34,10.1.1.9,176,-0.370,-0.370,-0.370,0.000,0.000,0.000
1641207934726459904,2022-01-03-11:05:34,10.1.1.9,176,-0.380,-0.380,-0.380,0.000,0.000,0.000
1641207934925489920,2022-01-03-11:05:34,10.1.1.9,175,-0.390,-0.390,-0.390,0.000,0.000,0.000
1641207935125526784,2022-01-03-11:05:35,10.1.1.9,174,-0.400,-0.400,-0.400,0.000,0.000,0.000
1641207935334533888,2022-01-03-11:05:35,10.1.1.9,183,-0.410,-0.410,-0.410,0.000,0.000,0.000
1641207935525357056,2022-01-03-11:05:35,10.1.1.9,172,-0.420,-0.420,-0.420,0.000,0.000,0.000
1641207935728132864,2022-01-03-11:05:35,10.1.1.9,174,-0.430,-0.430,-0.430,0.000,0.000,0.000
1641207935935240960,2022-01-03-11:05:35,10.1.1.9,181,-0.440,-0.440,-0.440,0.000,0.000,0.000
1641207936133946880,2022-01-03-11:05:36,10.1.1.9,179,-0.450,-0.450,-0.450,0.000,0.000,0.000
1641207936343508992,2022-01-03-11:05:36,10.1.1.9,188,-0.460,-0.460,-0.460,0.000,0.000,0.000
1641207936542921984,2022-01-03-11:05:36,10.1.1.9,187,-0.470,-0.470,-0.470,0.000,0.000,0.000
1641207936755644928,2022-01-03-11:05:36,10.1.1.9,200,-0.480,-0.480,-0.480,0.000,0.000,0.000
1641207936933744896,2022-01-03-11:05:36,10.1.1.9,177,-0.490,-0.490,-0.490,0.000,0.000,0.000
1641207937142736896,2022-01-03-11:05:37,10.1.1.9,185,-0.480,-0.480,-0.480,0.000,0.000,0.000
1641207937342262016,2022-01-03-11:05:37,10.1.1.9,184,-0.470,-0.470,-0.470,0.000,0.000,0.000
1641207937551724800,2022-01-03-11:05:37,10.1.1.9,193,-0.460,-0.460,-0.460,0.000,0.000,0.000
1641207937741230080,2022-01-03-11:05:37,10.1.1.9,182,-0.450,-0.450,-0.450,0.000,0.000,0.000
1641207937930836992,2022-01-03-11:05:37,10.1.1.9,171,-0.440,-0.440,-0.440,0.000,0.000,0.000
1641207938140784896,2022-01-03-11:05:38,10.1.1.9,180,-0.430,-0.430,-0.430,0.000,0.000,0.000
1641207938330974208,2022-01-03-11:05:38,10.1.1.9,170,-0.420,-0.420,-0.420,0.000,0.000,0.000
1641207938540551936,2022-01-03-11:05:38,10.1.1.9,179,-0.410,-0.410,-0.410,0.000,0.000,0.000
1641207938740126976,2022-01-03-11:05:38,10.1.1.9,178,-0.400,-0.400,-0.400,0.000,0.000,0.000
1641207938939778048,2022-01-03-11:05:38,10.1.1.9,177,-0.390,-0.390,-0.390,0.000,0.000,0.000
1641207939139990016,2022-01-03-11:05:39,10.1.1.9,176,-0.380,-0.380,-0.380,0.000,0.000,0.000
1641207939339760896,2022-01-03-11:05:39,10.1.1.9,175,-0.370,-0.370,-0.370,0.000,0.000,0.000
1641207939539119104,2022-01-03-11:05:39,10.1.1.9,174,-0.360,-0.360,-0.360,0.000,0.000,0.000
1641207939738257920,2022-01-03-11:05:39,10.1.1.9,172,-0.350,-0.350,-0.350,0.000,0.000,0.000
1641207939938254080,2022-01-03-11:05:39,10.1.1.9,172,-0.340,-0.340,-0.340,0.000,0.000,0.000
1641207940137972224,2022-01-03-11:05:40,10.1.1.9,171,-0.330,-0.330,-0.330,0.000,0.000,0.000
1641207940337321984,2022-01-03-11:05:40,10.1.1.9,170,-0.320,-0.320,-0.320,0.000,0.000,0.000
1641207940537553152,2022-01-03-11:05:40,10.1.1.9,169,-0.310,-0.310,-0.310,0.000,0.000,0.000
1641207940737699072,2022-01-03-11:05:40,10.1.1.9,169,-0.300,-0.300,-0.300,0.000,0.000,0.000
1641207940936553984,2022-01-03-11:05:40,10.1.1.9,168,-0.290,-0.290,-0.290,0.000,0.000,0.000
1641207941137299968,2022-01-03-11:05:41,10.1.1.9,168,-0.280,-0.280,-0.280,0.000,0.000,0.000
1641207941336630016,2022-01-03-11:05:41,10.1.1.9,167,-0.270,-0.270,-0.270,0.000,0.000,0.000
1641207941535883776,2022-01-03-11:05:41,10.1.1.9,165,-0.260,-0.260,-0.260,0.000,0.000,0.000
1641207941735924992,2022-01-03-11:05:41,10.1.1.9,165,-0.250,-0.250,-0.250,0.000,0.000,0.000
1641207941936708864,2022-01-03-11:05:41,10.1.1.9,165,-0.240,-0.240,-0.240,0.000,0.000,0.000
1641207942144907008,2022-01-03-11:05:42,10.1.1.9,173,-0.230,-0.230,-0.230,0.000,0.000,0.000
1641207942334678784,2022-01-03-11:05:42,10.1.1.9,162,-0.220,-0.220,-0.220,0.000,0.000,0.000
1641207942533864960,2022-01-03-11:05:42,10.1.1.9,161,-0.210,-0.210,-0.210,0.000,0.000,0.000
1641207942763885056,2022-01-03-11:05:42,10.1.1.9,189,-0.200,-0.200,-0.200,0.000,0.000,0.000
1641207942953672960,2022-01-03-11:05:42,10.1.1.9,179,-0.190,-0.190,-0.190,0.000,0.000,0.000
1641207943153264896,2022-01-03-11:05:43,10.1.1.9,178,-0.180,-0.180,-0.180,0.000,0.000,0.000
1641207943353774080,2022-01-03-11:05:43,10.1.1.9,178,-0.170,-0.170,-0.170,0.000,0.000,0.000
1641207943556103936,2022-01-03-11:05:43,10.1.1.9,180,-0.160,-0.160,-0.160,0.000,0.000,0.000
1641207943762075904,2022-01-03-11:05:43,10.1.1.9,184,-0.150,-0.150,-0.150,0.000,0.000,0.000
1641207943953161984,2022-01-03-11:05:43,10.1.1.9,174,-0.140,-0.140,-0.140,0.000,0.000,0.000
1641207944141786112,2022-01-03-11:05:44,10.1.1.9,162,-0.130,-0.130,-0.130,0.000,0.000,0.000
1641207944341236992,2022-01-03-11:05:44,10.1.1.9,161,-0.120,-0.120,-0.120,0.000,0.000,0.000
1641207944560928000,2022-01-03-11:05:44,10.1.1.9,179,-0.110,-0.110,-0.110,0.000,0.000,0.000
1641207944761327872,2022-01-03-11:05:44,10.1.1.9,179,-0.100,-0.100,-0.100,0.000,0.000,0.000
1641207944950536960,2022-01-03-11:05:44,10.1.1.9,168,-0.090,-0.090,-0.090,0.000,0.000,0.000
1641207945150022144,2022-01-03-11:05:45,10.1.1.9,166,-0.080,-0.080,-0.080,0.000,0.000,0.000
1641207945360574976,2022-01-03-11:05:45,10.1.1.9,176,-0.070,-0.070,-0.070,0.000,0.000,0.000
1641207945549031936,2022-01-03-11:05:45,10.1.1.9,164,-0.060,-0.060,-0.060,0.000,0.000,0.000
1641207945750152960,2022-01-03-11:05:45,10.1.1.9,165,-0.050,-0.050,-0.050,0.000,0.000,0.000
1641207945952836864,2022-01-03-11:05:45,10.1.1.9,167,-0.040,-0.040,-0.040,0.000,0.000,0.000
1641207946160532992,2022-01-03-11:05:46,10.1.1.9,174,-0.030,-0.030,-0.030,0.000,0.000,0.000
1641207946361093888,2022-01-03-11:05:46,10.1.1.9,174,-0.020,-0.020,-0.020,0.000,0.000,0.000
1641207946552866048,2022-01-03-11:05:46,10.1.1.9,165,-0.010,-0.010,-0.010,0.000,0.000,0.000
1641207946753139968,2022-01-03-11:05:46,10.1.1.9,165,0.000,0.000,0.000,0.000,0.000,0.000
1641207946953923840,2022-01-03-11:05:46,10.1.1.9,165,-0.010,-0.010,-0.010,0.000,0.000,0.000
1641207947154810880,2022-01-03-11:05:47,10.1.1.9,165,-0.020,-0.020,-0.020,0.000,0.000,0.000
1641207947365242880,2022-01-03-11:05:47,10.1.1.9,175,-0.030,-0.030,-0.030,0.000,0.000,0.000
1641207947566332160,2022-01-03-11:05:47,10.1.1.9,176,-0.040,-0.040,-0.040,0.000,0.000,0.000
1641207947768409856,2022-01-03-11:05:47,10.1.1.9,177,-0.050,-0.050,-0.050,0.000,0.000,0.000
1641207947968538112,2022-01-03-11:05:47,10.1.1.9,177,-0.060,-0.060,-0.060,0.000,0.000,0.000
1641207948159127040,2022-01-03-11:05:48,10.1.1.9,167,-0.070,-0.070,-0.070,0.000,0.000,0.000
1641207948360265984,2022-01-03-11:05:48,10.1.1.9,168,-0.080,-0.080,-0.080,0.000,0.000,0.000
1641207948561124096,2022-01-03-11:05:48,10.1.1.9,168,-0.090,-0.090,-0.090,0.000,0.000,0.000
1641207948771769088,2022-01-03-11:05:48,10.1.1.9,178,-0.100,-0.100,-0.100,0.000,0.000,0.000
1641207948982064896,2022-01-03-11:05:48,10.1.1.9,187,-0.110,-0.110,-0.110,0.000,0.000,0.000
1641207949173073152,2022-01-03-11:05:49,10.1.1.9,178,-0.120,-0.120,-0.120,0.000,0.000,0.000
1641207949383732992,2022-01-03-11:05:49,10.1.1.9,188,-0.130,-0.130,-0.130,0.000,0.000,0.000
1641207949583776000,2022-01-03-11:05:49,10.1.1.9,187,-0.140,-0.140,-0.140,0.000,0.000,0.000
1641207949774264064,2022-01-03-11:05:49,10.1.1.9,177,-0.150,-0.150,-0.150,0.000,0.000,0.000
1641207949974571008,2022-01-03-11:05:49,10.1.1.9,177,-0.160,-0.160,-0.160,0.000,0.000,0.000
1641207950176090880,2022-01-03-11:05:50,10.1.1.9,178,-0.170,-0.170,-0.170,0.000,0.000,0.000
1641207950376039936,2022-01-03-11:05:50,10.1.1.9,177,-0.180,-0.180,-0.180,0.000,0.000,0.000
1641207950576768000,2022-01-03-11:05:50,10.1.1.9,178,-0.190,-0.190,-0.190,0.000,0.000,0.000
1641207950797048064,2022-01-03-11:05:50,10.1.1.9,197,-0.200,-0.200,-0.200,0.000,0.000,0.000
1641207950977811968,2022-01-03-11:05:50,10.1.1.9,177,-0.210,-0.210,-0.210,0.000,0.000,0.000
1641207951198287872,2022-01-03-11:05:51,10.1.1.9,191,-0.220,-0.220,-0.220,0.000,0.000,0.000
1641207951387973120,2022-01-03-11:05:51,10.1.1.9,180,-0.230,-0.230,-0.230,0.000,0.000,0.000
1641207951598575104,2022-01-03-11:05:51,10.1.1.9,190,-0.240,-0.240,-0.240,0.000,0.000,0.000
1641207951791047168,2022-01-03-11:05:51,10.1.1.9,182,-0.250,-0.250,-0.250,0.000,0.000,0.000
1641207951999112960,2022-01-03-11:05:51,10.1.1.9,189,-0.260,-0.260,-0.260,0.000,0.000,0.000
1641207952189257984,2022-01-03-11:05:52,10.1.1.9,179,-0.270,-0.270,-0.270,0.000,0.000,0.000
1641207952400048128,2022-01-03-11:05:52,10.1.1.9,188,-0.280,-0.280,-0.280,0.000,0.000,0.000
1641207952600471040,2022-01-03-11:05:52,10.1.1.9,188,-0.290,-0.290,-0.290,0.000,0.000,0.000
1641207952800461056,2022-01-03-11:05:52,10.1.1.9,187,-0.300,-0.300,-0.300,0.000,0.000,0.000
1641207952991703040,2022-01-03-11:05:52,10.1.1.9,178,-0.310,-0.310,-0.310,0.000,0.000,0.000
1641207953191459840,2022-01-03-11:05:53,10.1.1.9,178,-0.320,-0.320,-0.320,0.000,0.000,0.000
1641207953611862784,2022-01-03-11:05:53,10.1.1.9,197,-0.340,-0.340,-0.340,0.000,0.000,0.000
1641207953813338112,2022-01-03-11:05:53,10.1.1.9,197,-0.350,-0.350,-0.350,0.000,0.000,0.000
1641207954012244992,2022-01-03-11:05:54,10.1.1.9,194,-0.360,-0.360,-0.360,0.000,0.000,0.000
1641207954211991040,2022-01-03-11:05:54,10.1.1.9,192,-0.370,-0.370,-0.370,0.000,0.000,0.000
1641207954412828928,2022-01-03-11:05:54,10.1.1.9,193,-0.380,-0.380,-0.380,0.000,0.000,0.000
1641207954612570112,2022-01-03-11:05:54,10.1.1.9,192,-0.390,-0.390,-0.390,0.000,0.000,0.000
1641207954812613888,2022-01-03-11:05:54,10.1.1.9,191,-0.400,-0.400,-0.400,0.000,0.000,0.000
1641207955002867968,2022-01-03-11:05:55,10.1.1.9,181,-0.410,-0.410,-0.410,0.000,0.000,0.000
1641207955221801984,2022-01-03-11:05:55,10.1.1.9,199,-0.420,-0.420,-0.420,0.000,0.000,0.000
1641207955403127040,2022-01-03-11:05:55,10.1.1.9,180,-0.430,-0.430,-0.430,0.000,0.000,0.000
1641207955612835840,2022-01-03-11:05:55,10.1.1.9,189,-0.440,-0.440,-0.440,0.000,0.000,0.000
1641207955815326976,2022-01-03-11:05:55,10.1.1.9,191,-0.450,-0.450,-0.450,0.000,0.000,0.000
1641207956022743040,2022-01-03-11:05:56,10.1.1.9,197,-0.460,-0.460,-0.460,0.000,0.000,0.000
1641207956222856960,2022-01-03-11:05:56,10.1.1.9,197,-0.470,-0.470,-0.470,0.000,0.000,0.000
1641207956413068032,2022-01-03-11:05:56,10.1.1.9,186,-0.480,-0.480,-0.480,0.000,0.000,0.000
1641207956617257984,2022-01-03-11:05:56,10.1.1.9,189,-0.490,-0.490,-0.490,0.000,0.000,0.000
1641207956813196800,2022-01-03-11:05:56,10.1.1.9,184,-0.480,-0.480,-0.480,0.000,0.000,0.000
1641207957013562880,2022-01-03-11:05:57,10.1.1.9,184,-0.470,-0.470,-0.470,0.000,0.000,0.000
1641207957216449024,2022-01-03-11:05:57,10.1.1.9,186,-0.460,-0.460,-0.460,0.000,0.000,0.000
1641207957423373056,2022-01-03-11:05:57,10.1.1.9,193,-0.450,-0.450,-0.450,0.000,0.000,0.000
1641207957622577920,2022-01-03-11:05:57,10.1.1.9,191,-0.440,-0.440,-0.440,0.000,0.000,0.000
1641207957813057792,2022-01-03-11:05:57,10.1.1.9,181,-0.430,-0.430,-0.430,0.000,0.000,0.000
1641207958012873984,2022-01-03-11:05:58,10.1.1.9,180,-0.420,-0.420,-0.420,0.000,0.000,0.000
1641207958223887872,2022-01-03-11:05:58,10.1.1.9,190,-0.410,-0.410,-0.410,0.000,0.000,0.000
1641207958423780864,2022-01-03-11:05:58,10.1.1.9,190,-0.400,-0.400,-0.400,0.000,0.000,0.000
1641207958617286912,2022-01-03-11:05:58,10.1.1.9,183,-0.390,-0.390,-0.390,0.000,0.000,0.000
1641207958832879104,2022-01-03-11:05:58,10.1.1.9,198,-0.380,-0.380,-0.380,0.000,0.000,0.000
1641207959022979072,2022-01-03-11:05:59,10.1.1.9,188,-0.370,-0.370,-0.370,0.000,0.000,0.000
1641207959233185024,2022-01-03-11:05:59,10.1.1.9,198,-0.360,-0.360,-0.360,0.000,0.000,0.000
1641207959432566784,2022-01-03-11:05:59,10.1.1.9,197,-0.350,-0.350,-0.350,0.000,0.000,0.000
1641207959632738048,2022-01-03-11:05:59,10.1.1.9,195,-0.340,-0.340,-0.340,0.000,0.000,0.000
1641207960023211008,2022-01-03-11:06:00,10.1.1.9,184,-0.320,-0.320,-0.320,0.000,0.000,0.000
1641207960435282944,2022-01-03-11:06:00,10.1.1.9,195,-0.300,-0.300,-0.300,0.000,0.000,0.000
1641207960632588032,2022-01-03-11:06:00,10.1.1.9,192,-0.290,-0.290,-0.290,0.000,0.000,0.000
1641207960841476864,2022-01-03-11:06:00,10.1.1.9,200,-0.280,-0.280,-0.280,0.000,0.000,0.000
1641207961041344768,2022-01-03-11:06:01,10.1.1.9,199,-0.270,-0.270,-0.270,0.000,0.000,0.000
1641207961231312896,2022-01-03-11:06:01,10.1.1.9,188,-0.260,-0.260,-0.260,0.000,0.000,0.000
1641207961431319040,2022-01-03-11:06:01,10.1.1.9,188,-0.250,-0.250,-0.250,0.000,0.000,0.000
1641207961631166976,2022-01-03-11:06:01,10.1.1.9,187,-0.240,-0.240,-0.240,0.000,0.000,0.000
1641207961830800128,2022-01-03-11:06:01,10.1.1.9,186,-0.230,-0.230,-0.230,0.000,0.000,0.000
1641207962031256064,2022-01-03-11:06:02,10.1.1.9,187,-0.220,-0.220,-0.220,0.000,0.000,0.000
1641207962241017088,2022-01-03-11:06:02,10.1.1.9,196,-0.210,-0.210,-0.210,0.000,0.000,0.000
1641207962430546944,2022-01-03-11:06:02,10.1.1.9,185,-0.200,-0.200,-0.200,0.000,0.000,0.000
1641207962631773952,2022-01-03-11:06:02,10.1.1.9,185,-0.190,-0.190,-0.190,0.000,0.000,0.000
1641207962830477056,2022-01-03-11:06:02,10.1.1.9,183,-0.180,-0.180,-0.180,0.000,0.000,0.000
1641207963030318848,2022-01-03-11:06:03,10.1.1.9,183,-0.170,-0.170,-0.170,0.000,0.000,0.000
1641207963240592128,2022-01-03-11:06:03,10.1.1.9,192,-0.160,-0.160,-0.160,0.000,0.000,0.000
1641207963430704128,2022-01-03-11:06:03,10.1.1.9,182,-0.150,-0.150,-0.150,0.000,0.000,0.000
1641207963629609984,2022-01-03-11:06:03,10.1.1.9,180,-0.140,-0.140,-0.140,0.000,0.000,0.000
1641207963829728000,2022-01-03-11:06:03,10.1.1.9,180,-0.130,-0.130,-0.130,0.000,0.000,0.000
1641207964029360896,2022-01-03-11:06:04,10.1.1.9,179,-0.120,-0.120,-0.120,0.000,0.000,0.000
1641207964229399040,2022-01-03-11:06:04,10.1.1.9,179,-0.110,-0.110,-0.110,0.000,0.000,0.000
1641207964428483840,2022-01-03-11:06:04,10.1.1.9,177,-0.100,-0.100,-0.100,0.000,0.000,0.000
1641207964628372992,2022-01-03-11:06:04,10.1.1.9,177,-0.090,-0.090,-0.090,0.000,0.000,0.000
1641207964838295040,2022-01-03-11:06:04,10.1.1.9,186,-0.080,-0.080,-0.080,0.000,0.000,0.000
1641207965028557056,2022-01-03-11:06:05,10.1.1.9,176,-0.070,-0.070,-0.070,0.000,0.000,0.000
1641207965227566848,2022-01-03-11:06:05,10.1.1.9,175,-0.060,-0.060,-0.060,0.000,0.000,0.000
1641207965437124864,2022-01-03-11:06:05,10.1.1.9,184,-0.050,-0.050,-0.050,0.000,0.000,0.000
1641207965627759872,2022-01-03-11:06:05,10.1.1.9,174,-0.040,-0.040,-0.040,0.000,0.000,0.000
1641207965837222144,2022-01-03-11:06:05,10.1.1.9,183,-0.030,-0.030,-0.030,0.000,0.000,0.000
1641207966046618112,2022-01-03-11:06:06,10.1.1.9,192,-0.020,-0.020,-0.020,0.000,0.000,0.000
1641207966245955072,2022-01-03-11:06:06,10.1.1.9,191,-0.010,-0.010,-0.010,0.000,0.000,0.000
1641207966445841152,2022-01-03-11:06:06,10.1.1.9,190,0.000,0.000,0.000,0.000,0.000,0.000
1641207966645637120,2022-01-03-11:06:06,10.1.1.9,189,-0.010,-0.010,-0.010,0.000,0.000,0.000
1641207966856424192,2022-01-03-11:06:06,10.1.1.9,200,-0.020,-0.020,-0.020,0.000,0.000,0.000
1641207967045739008,2022-01-03-11:06:07,10.1.1.9,188,-0.030,-0.030,-0.030,0.000,0.000,0.000
1641207967445074944,2022-01-03-11:06:07,10.1.1.9,187,-0.050,-0.050,-0.050,0.000,0.000,0.000
1641207967644859904,2022-01-03-11:06:07,10.1.1.9,186,-0.060,-0.060,-0.060,0.000,0.000,0.000
1641207967834672896,2022-01-03-11:06:07,10.1.1.9,175,-0.070,-0.070,-0.070,0.000,0.000,0.000
1641207968044527104,2022-01-03-11:06:08,10.1.1.9,185,-0.080,-0.080,-0.080,0.000,0.000,0.000
1641207968234132992,2022-01-03-11:06:08,10.1.1.9,174,-0.090,-0.090,-0.090,0.000,0.000,0.000
1641207968453540096,2022-01-03-11:06:08,10.1.1.9,193,-0.100,-0.100,-0.100,0.000,0.000,0.000
1641207968643590912,2022-01-03-11:06:08,10.1.1.9,182,-0.110,-0.110,-0.110,0.000,0.000,0.000
1641207968843899136,2022-01-03-11:06:08,10.1.1.9,182,-0.120,-0.120,-0.120,0.000,0.000,0.000
1641207969043149824,2022-01-03-11:06:09,10.1.1.9,181,-0.130,-0.130,-0.130,0.000,0.000,0.000
1641207969233006080,2022-01-03-11:06:09,10.1.1.9,170,-0.140,-0.140,-0.140,0.000,0.000,0.000
1641207969443522816,2022-01-03-11:06:09,10.1.1.9,179,-0.150,-0.150,-0.150,0.000,0.000,0.000
1641207969643054080,2022-01-03-11:06:09,10.1.1.9,178,-0.160,-0.160,-0.160,0.000,0.000,0.000
1641207969851983104,2022-01-03-11:06:09,10.1.1.9,187,-0.170,-0.170,-0.170,0.000,0.000,0.000
1641207970046724096,2022-01-03-11:06:10,10.1.1.9,181,-0.180,-0.180,-0.180,0.000,0.000,0.000
1641207970241498880,2022-01-03-11:06:10,10.1.1.9,175,-0.190,-0.190,-0.190,0.000,0.000,0.000
1641207970441240064,2022-01-03-11:06:10,10.1.1.9,175,-0.200,-0.200,-0.200,0.000,0.000,0.000
1641207970640825088,2022-01-03-11:06:10,10.1.1.9,173,-0.210,-0.210,-0.210,0.000,0.000,0.000
1641207970840544000,2022-01-03-11:06:10,10.1.1.9,173,-0.220,-0.220,-0.220,0.000,0.000,0.000
1641207971040307968,2022-01-03-11:06:11,10.1.1.9,172,-0.230,-0.230,-0.230,0.000,0.000,0.000
1641207971240269056,2022-01-03-11:06:11,10.1.1.9,172,-0.240,-0.240,-0.240,0.000,0.000,0.000
1641207971452107008,2022-01-03-11:06:11,10.1.1.9,183,-0.250,-0.250,-0.250,0.000,0.000,0.000
1641207971639336960,2022-01-03-11:06:11,10.1.1.9,170,-0.260,-0.260,-0.260,0.000,0.000,0.000
1641207971839077120,2022-01-03-11:06:11,10.1.1.9,169,-0.270,-0.270,-0.270,0.000,0.000,0.000
1641207972041419008,2022-01-03-11:06:12,10.1.1.9,171,-0.280,-0.280,-0.280,0.000,0.000,0.000
1641207972238029056,2022-01-03-11:06:12,10.1.1.9,167,-0.290,-0.290,-0.290,0.000,0.000,0.000
1641207972441445120,2022-01-03-11:06:12,10.1.1.9,169,-0.300,-0.300,-0.300,0.000,0.000,0.000
1641207972637588992,2022-01-03-11:06:12,10.1.1.9,165,-0.310,-0.310,-0.310,0.000,0.000,0.000
1641207972837100032,2022-01-03-11:06:12,10.1.1.9,164,-0.320,-0.320,-0.320,0.000,0.000,0.000
1641207973037307136,2022-01-03-11:06:13,10.1.1.9,163,-0.330,-0.330,-0.330,0.000,0.000,0.000
1641207973257040896,2022-01-03-11:06:13,10.1.1.9,183,-0.340,-0.340,-0.340,0.000,0.000,0.000
1641207973457518080,2022-01-03-11:06:13,10.1.1.9,182,-0.350,-0.350,-0.350,0.000,0.000,0.000
1641207973647036160,2022-01-03-11:06:13,10.1.1.9,172,-0.360,-0.360,-0.360,0.000,0.000,0.000
1641207973856827136,2022-01-03-11:06:13,10.1.1.9,181,-0.370,-0.370,-0.370,0.000,0.000,0.000
1641207974045862912,2022-01-03-11:06:14,10.1.1.9,169,-0.380,-0.380,-0.380,0.000,0.000,0.000
1641207974255637760,2022-01-03-11:06:14,10.1.1.9,178,-0.390,-0.390,-0.390,0.000,0.000,0.000
1641207974455631872,2022-01-03-11:06:14,10.1.1.9,162,-0.400,-0.400,-0.400,0.000,0.000,0.000
1641207974674352896,2022-01-03-11:06:14,10.1.1.9,178,-0.410,-0.410,-0.410,0.000,0.000,0.000
1641207974874439936,2022-01-03-11:06:14,10.1.1.9,178,-0.420,-0.420,-0.420,0.000,0.000,0.000
1641207975074044928,2022-01-03-11:06:15,10.1.1.9,177,-0.430,-0.430,-0.430,0.000,0.000,0.000
1641207975273854976,2022-01-03-11:06:15,10.1.1.9,176,-0.440,-0.440,-0.440,0.000,0.000,0.000
1641207975482700032,2022-01-03-11:06:15,10.1.1.9,184,-0.450,-0.450,-0.450,0.000,0.000,0.000
1641207975682636032,2022-01-03-11:06:15,10.1.1.9,183,-0.460,-0.460,-0.460,0.000,0.000,0.000
1641207975872944128,2022-01-03-11:06:15,10.1.1.9,173,-0.470,-0.470,-0.470,0.000,0.000,0.000
1641207976062355968,2022-01-03-11:06:16,10.1.1.9,162,-0.480,-0.480,-0.480,0.000,0.000,0.000
1641207976272155904,2022-01-03-11:06:16,10.1.1.9,171,-0.490,-0.490,-0.490,0.000,0.000,0.000
1641207976461523968,2022-01-03-11:06:16,10.1.1.9,160,-0.480,-0.480,-0.480,0.000,0.000,0.000
1641207976672993024,2022-01-03-11:06:16,10.1.1.9,171,-0.470,-0.470,-0.470,0.000,0.000,0.000
1641207976861011968,2022-01-03-11:06:16,10.1.1.9,158,-0.460,-0.460,-0.460,0.000,0.000,0.000
1641207977070892032,2022-01-03-11:06:17,10.1.1.9,168,-0.450,-0.450,-0.450,0.000,0.000,0.000
1641207977270628864,2022-01-03-11:06:17,10.1.1.9,166,-0.440,-0.440,-0.440,0.000,0.000,0.000
1641207977473714944,2022-01-03-11:06:17,10.1.1.9,168,-0.430,-0.430,-0.430,0.000,0.000,0.000
1641207977669872896,2022-01-03-11:06:17,10.1.1.9,163,-0.420,-0.420,-0.420,0.000,0.000,0.000
1641207977870071808,2022-01-03-11:06:17,10.1.1.9,163,-0.410,-0.410,-0.410,0.000,0.000,0.000
1641207978069243904,2022-01-03-11:06:18,10.1.1.9,161,-0.400,-0.400,-0.400,0.000,0.000,0.000
1641207978280657920,2022-01-03-11:06:18,10.1.1.9,171,-0.390,-0.390,-0.390,0.000,0.000,0.000
1641207978471394048,2022-01-03-11:06:18,10.1.1.9,159,-0.380,-0.380,-0.380,0.000,0.000,0.000
1641207978672924160,2022-01-03-11:06:18,10.1.1.9,160,-0.370,-0.370,-0.370,0.000,0.000,0.000
1641207978883982848,2022-01-03-11:06:18,10.1.1.9,171,-0.360,-0.360,-0.360,0.000,0.000,0.000
1641207979085058048,2022-01-03-11:06:19,10.1.1.9,172,-0.350,-0.350,-0.350,0.000,0.000,0.000
1641207979286331904,2022-01-03-11:06:19,10.1.1.9,173,-0.340,-0.340,-0.340,0.000,0.000,0.000
1641207979506417152,2022-01-03-11:06:19,10.1.1.9,192,-0.330,-0.330,-0.330,0.000,0.000,0.000
1641207979687338240,2022-01-03-11:06:19,10.1.1.9,172,-0.320,-0.320,-0.320,0.000,0.000,0.000
1641207979898137088,2022-01-03-11:06:19,10.1.1.9,182,-0.310,-0.310,-0.310,0.000,0.000,0.000
1641207980099674112,2022-01-03-11:06:20,10.1.1.9,183,-0.300,-0.300,-0.300,0.000,0.000,0.000
1641207980310308864,2022-01-03-11:06:20,10.1.1.9,193,-0.290,-0.290,-0.290,0.000,0.000,0.000
1641207980504425984,2022-01-03-11:06:20,10.1.1.9,186,-0.280,-0.280,-0.280,0.000,0.000,0.000
1641207980702059008,2022-01-03-11:06:20,10.1.1.9,183,-0.270,-0.270,-0.270,0.000,0.000,0.000
1641207980902044160,2022-01-03-11:06:20,10.1.1.9,182,-0.260,-0.260,-0.260,0.000,0.000,0.000
1641207981111008000,2022-01-03-11:06:21,10.1.1.9,190,-0.250,-0.250,-0.250,0.000,0.000,0.000
1641207981304302080,2022-01-03-11:06:21,10.1.1.9,183,-0.240,-0.240,-0.240,0.000,0.000,0.000
1641207981494137088,2022-01-03-11:06:21,10.1.1.9,171,-0.230,-0.230,-0.230,0.000,0.000,0.000
1641207981706607104,2022-01-03-11:06:21,10.1.1.9,183,-0.220,-0.220,-0.220,0.000,0.000,0.000
1641207981905488896,2022-01-03-11:06:21,10.1.1.9,180,-0.210,-0.210,-0.210,0.000,0.000,0.000
1641207982105856768,2022-01-03-11:06:22,10.1.1.9,180,-0.200,-0.200,-0.200,0.000,0.000,0.000
1641207982307147008,2022-01-03-11:06:22,10.1.1.9,181,-0.190,-0.190,-0.190,0.000,0.000,0.000
1641207982506660864,2022-01-03-11:06:22,10.1.1.9,180,-0.180,-0.180,-0.180,0.000,0.000,0.000
1641207982707365120,2022-01-03-11:06:22,10.1.1.9,180,-0.170,-0.170,-0.170,0.000,0.000,0.000
1641207982907732992,2022-01-03-11:06:22,10.1.1.9,180,-0.160,-0.160,-0.160,0.000,0.000,0.000
1641207983109757952,2022-01-03-11:06:23,10.1.1.9,182,-0.150,-0.150,-0.150,0.000,0.000,0.000
1641207983309091072,2022-01-03-11:06:23,10.1.1.9,180,-0.140,-0.140,-0.140,0.000,0.000,0.000
1641207983509085952,2022-01-03-11:06:23,10.1.1.9,180,-0.130,-0.130,-0.130,0.000,0.000,0.000
1641207983709896192,2022-01-03-11:06:23,10.1.1.9,180,-0.120,-0.120,-0.120,0.000,0.000,0.000
1641207983910238976,2022-01-03-11:06:23,10.1.1.9,180,-0.110,-0.110,-0.110,0.000,0.000,0.000
1641207984110392064,2022-01-03-11:06:24,10.1.1.9,180,-0.100,-0.100,-0.100,0.000,0.000,0.000
1641207984310590976,2022-01-03-11:06:24,10.1.1.9,179,-0.090,-0.090,-0.090,0.000,0.000,0.000
1641207984510849024,2022-01-03-11:06:24,10.1.1.9,179,-0.080,-0.080,-0.080,0.000,0.000,0.000
1641207984711479808,2022-01-03-11:06:24,10.1.1.9,179,-0.070,-0.070,-0.070,0.000,0.000,0.000
1641207984911488000,2022-01-03-11:06:24,10.1.1.9,179,-0.060,-0.060,-0.060,0.000,0.000,0.000
1641207985122950912,2022-01-03-11:06:25,10.1.1.9,188,-0.050,-0.050,-0.050,0.000,0.000,0.000
1641207985331332864,2022-01-03-11:06:25,10.1.1.9,197,-0.040,-0.040,-0.040,0.000,0.000,0.000
1641207985532027904,2022-01-03-11:06:25,10.1.1.9,197,-0.030,-0.030,-0.030,0.000,0.000,0.000
1641207985932692992,2022-01-03-11:06:25,10.1.1.9,195,-0.010,-0.010,-0.010,0.000,0.000,0.000
1641207986132776960,2022-01-03-11:06:26,10.1.1.9,194,0.000,0.000,0.000,0.000,0.000,0.000
1641207986332683008,2022-01-03-11:06:26,10.1.1.9,193,-0.010,-0.010,-0.010,0.000,0.000,0.000
1641207986533431040,2022-01-03-11:06:26,10.1.1.9,193,-0.020,-0.020,-0.020,0.000,0.000,0.000
1641207986933725952,2022-01-03-11:06:26,10.1.1.9,192,-0.040,-0.040,-0.040,0.000,0.000,0.000
1641207987133445888,2022-01-03-11:06:27,10.1.1.9,192,-0.050,-0.050,-0.050,0.000,0.000,0.000
1641207987333816064,2022-01-03-11:06:27,10.1.1.9,191,-0.060,-0.060,-0.060,0.000,0.000,0.000
1641207987534750976,2022-01-03-11:06:27,10.1.1.9,192,-0.070,-0.070,-0.070,0.000,0.000,0.000
1641207987733853184,2022-01-03-11:06:27,10.1.1.9,191,-0.080,-0.080,-0.080,0.000,0.000,0.000
1641207987933559808,2022-01-03-11:06:27,10.1.1.9,190,-0.090,-0.090,-0.090,0.000,0.000,0.000
1641207988334195968,2022-01-03-11:06:28,10.1.1.9,189,-0.110,-0.110,-0.110,0.000,0.000,0.000
1641207988534321920,2022-01-03-11:06:28,10.1.1.9,189,-0.120,-0.120,-0.120,0.000,0.000,0.000
1641207988734159872,2022-01-03-11:06:28,10.1.1.9,188,-0.130,-0.130,-0.130,0.000,0.000,0.000
1641207988943803136,2022-01-03-11:06:28,10.1.1.9,197,-0.140,-0.140,-0.140,0.000,0.000,0.000
1641207989133816064,2022-01-03-11:06:29,10.1.1.9,187,-0.150,-0.150,-0.150,0.000,0.000,0.000
1641207989334206208,2022-01-03-11:06:29,10.1.1.9,187,-0.160,-0.160,-0.160,0.000,0.000,0.000
1641207989545351936,2022-01-03-11:06:29,10.1.1.9,197,-0.170,-0.170,-0.170,0.000,0.000,0.000
1641207989743256064,2022-01-03-11:06:29,10.1.1.9,194,-0.180,-0.180,-0.180,0.000,0.000,0.000
1641207989953769984,2022-01-03-11:06:29,10.1.1.9,199,-0.190,-0.190,-0.190,0.000,0.000,0.000
1641207990154999040,2022-01-03-11:06:30,10.1.1.9,199,-0.200,-0.200,-0.200,0.000,0.000,0.000
1641207990353913088,2022-01-03-11:06:30,10.1.1.9,196,-0.210,-0.210,-0.210,0.000,0.000,0.000
1641207990554121984,2022-01-03-11:06:30,10.1.1.9,194,-0.220,-0.220,-0.220,0.000,0.000,0.000
1641207990953562880,2022-01-03-11:06:30,10.1.1.9,191,-0.240,-0.240,-0.240,0.000,0.000,0.000
1641207991143624960,2022-01-03-11:06:31,10.1.1.9,180,-0.250,-0.250,-0.250,0.000,0.000,0.000
1641207991353862912,2022-01-03-11:06:31,10.1.1.9,190,-0.260,-0.260,-0.260,0.000,0.000,0.000
1641207991553446912,2022-01-03-11:06:31,10.1.1.9,189,-0.270,-0.270,-0.270,0.000,0.000,0.000
1641207991753568768,2022-01-03-11:06:31,10.1.1.9,188,-0.280,-0.280,-0.280,0.000,0.000,0.000
1641207991963195136,2022-01-03-11:06:31,10.1.1.9,197,-0.290,-0.290,-0.290,0.000,0.000,0.000
1641207992162912000,2022-01-03-11:06:32,10.1.1.9,196,-0.300,-0.300,-0.300,0.000,0.000,0.000
1641207992363441920,2022-01-03-11:06:32,10.1.1.9,195,-0.310,-0.310,-0.310,0.000,0.000,0.000
1641207992553280000,2022-01-03-11:06:32,10.1.1.9,185,-0.320,-0.320,-0.320,0.000,0.000,0.000
1641207992752617984,2022-01-03-11:06:32,10.1.1.9,183,-0.330,-0.330,-0.330,0.000,0.000,0.000
1641207992952364800,2022-01-03-11:06:32,10.1.1.9,183,-0.340,-0.340,-0.340,0.000,0.000,0.000
1641207993161967104,2022-01-03-11:06:33,10.1.1.9,191,-0.350,-0.350,-0.350,0.000,0.000,0.000
1641207993362066944,2022-01-03-11:06:33,10.1.1.9,191,-0.360,-0.360,-0.360,0.000,0.000,0.000
1641207993555247104,2022-01-03-11:06:33,10.1.1.9,183,-0.370,-0.370,-0.370,0.000,0.000,0.000
1641207993752448000,2022-01-03-11:06:33,10.1.1.9,179,-0.380,-0.380,-0.380,0.000,0.000,0.000
1641207993952406784,2022-01-03-11:06:33,10.1.1.9,178,-0.390,-0.390,-0.390,0.000,0.000,0.000
1641207994361165056,2022-01-03-11:06:34,10.1.1.9,185,-0.410,-0.410,-0.410,0.000,0.000,0.000
1641207994571516928,2022-01-03-11:06:34,10.1.1.9,194,-0.420,-0.420,-0.420,0.000,0.000,0.000
1641207995000407040,2022-01-03-11:06:35,10.1.1.9,188,-0.440,-0.440,-0.440,0.000,0.000,0.000
1641207995190365184,2022-01-03-11:06:35,10.1.1.9,176,-0.450,-0.450,-0.450,0.000,0.000,0.000
1641207995410496000,2022-01-03-11:06:35,10.1.1.9,195,-0.460,-0.460,-0.460,0.000,0.000,0.000
1641207995599586048,2022-01-03-11:06:35,10.1.1.9,183,-0.470,-0.470,-0.470,0.000,0.000,0.000
1641207995799841024,2022-01-03-11:06:35,10.1.1.9,180,-0.480,-0.480,-0.480,0.000,0.000,0.000
1641207996009373952,2022-01-03-11:06:36,10.1.1.9,189,-0.490,-0.490,-0.490,0.000,0.000,0.000
1641207996220518144,2022-01-03-11:06:36,10.1.1.9,199,-0.480,-0.480,-0.480,0.000,0.000,0.000
1641207996419409152,2022-01-03-11:06:36,10.1.1.9,197,-0.470,-0.470,-0.470,0.000,0.000,0.000
1641207996618722048,2022-01-03-11:06:36,10.1.1.9,195,-0.460,-0.460,-0.460,0.000,0.000,0.000
1641207996819041024,2022-01-03-11:06:36,10.1.1.9,195,-0.450,-0.450,-0.450,0.000,0.000,0.000
1641207997008955904,2022-01-03-11:06:37,10.1.1.9,184,-0.440,-0.440,-0.440,0.000,0.000,0.000
1641207997208164096,2022-01-03-11:06:37,10.1.1.9,182,-0.430,-0.430,-0.430,0.000,0.000,0.000
1641207997408273920,2022-01-03-11:06:37,10.1.1.9,182,-0.420,-0.420,-0.420,0.000,0.000,0.000
1641207997607898880,2022-01-03-11:06:37,10.1.1.9,180,-0.410,-0.410,-0.410,0.000,0.000,0.000
1641207997818896896,2022-01-03-11:06:37,10.1.1.9,190,-0.400,-0.400,-0.400,0.000,0.000,0.000
1641207998016811008,2022-01-03-11:06:38,10.1.1.9,187,-0.390,-0.390,-0.390,0.000,0.000,0.000
1641207998208723968,2022-01-03-11:06:38,10.1.1.9,178,-0.380,-0.380,-0.380,0.000,0.000,0.000
1641207998406696192,2022-01-03-11:06:38,10.1.1.9,176,-0.370,-0.370,-0.370,0.000,0.000,0.000
1641207998608378880,2022-01-03-11:06:38,10.1.1.9,177,-0.360,-0.360,-0.360,0.000,0.000,0.000
1641207998817268992,2022-01-03-11:06:38,10.1.1.9,185,-0.350,-0.350,-0.350,0.000,0.000,0.000
1641207999006493952,2022-01-03-11:06:39,10.1.1.9,174,-0.340,-0.340,-0.340,0.000,0.000,0.000
1641207999206437120,2022-01-03-11:06:39,10.1.1.9,173,-0.330,-0.330,-0.330,0.000,0.000,0.000
1641207999405682944,2022-01-03-11:06:39,10.1.1.9,172,-0.320,-0.320,-0.320,0.000,0.000,0.000
1641207999625752832,2022-01-03-11:06:39,10.1.1.9,192,-0.310,-0.310,-0.310,0.000,0.000,0.000
1641208000025001984,2022-01-03-11:06:40,10.1.1.9,190,-0.290,-0.290,-0.290,0.000,0.000,0.000
1641208000234204928,2022-01-03-11:06:40,10.1.1.9,198,-0.280,-0.280,-0.280,0.000,0.000,0.000
1641208000624066048,2022-01-03-11:06:40,10.1.1.9,186,-0.260,-0.260,-0.260,0.000,0.000,0.000
1641208000824555008,2022-01-03-11:06:40,10.1.1.9,185,-0.250,-0.250,-0.250,0.000,0.000,0.000
1641208001024163840,2022-01-03-11:06:41,10.1.1.9,185,-0.240,-0.240,-0.240,0.000,0.000,0.000
1641208001223675904,2022-01-03-11:06:41,10.1.1.9,183,-0.230,-0.230,-0.230,0.000,0.000,0.000
1641208001413361152,2022-01-03-11:06:41,10.1.1.9,172,-0.220,-0.220,-0.220,0.000,0.000,0.000
1641208001625839104,2022-01-03-11:06:41,10.1.1.9,184,-0.210,-0.210,-0.210,0.000,0.000,0.000
1641208001822916096,2022-01-03-11:06:41,10.1.1.9,180,-0.200,-0.200,-0.200,0.000,0.000,0.000
1641208002022039808,2022-01-03-11:06:42,10.1.1.9,179,-0.190,-0.190,-0.190,0.000,0.000,0.000
1641208002222223872,2022-01-03-11:06:42,10.1.1.9,179,-0.180,-0.180,-0.180,0.000,0.000,0.000
1641208002421394944,2022-01-03-11:06:42,10.1.1.9,178,-0.170,-0.170,-0.170,0.000,0.000,0.000
1641208002621176832,2022-01-03-11:06:42,10.1.1.9,176,-0.160,-0.160,-0.160,0.000,0.000,0.000
1641208002821455104,2022-01-03-11:06:42,10.1.1.9,176,-0.150,-0.150,-0.150,0.000,0.000,0.000
1641208003020534016,2022-01-03-11:06:43,10.1.1.9,175,-0.140,-0.140,-0.140,0.000,0.000,0.000
1641208003220252160,2022-01-03-11:06:43,10.1.1.9,174,-0.130,-0.130,-0.130,0.000,0.000,0.000
1641208003420826880,2022-01-03-11:06:43,10.1.1.9,173,-0.120,-0.120,-0.120,0.000,0.000,0.000
1641208003619788032,2022-01-03-11:06:43,10.1.1.9,172,-0.110,-0.110,-0.110,0.000,0.000,0.000
1641208003819888128,2022-01-03-11:06:43,10.1.1.9,171,-0.100,-0.100,-0.100,0.000,0.000,0.000
1641208004020296960,2022-01-03-11:06:44,10.1.1.9,171,-0.090,-0.090,-0.090,0.000,0.000,0.000
1641208004228841984,2022-01-03-11:06:44,10.1.1.9,179,-0.080,-0.080,-0.080,0.000,0.000,0.000
1641208004428569088,2022-01-03-11:06:44,10.1.1.9,178,-0.070,-0.070,-0.070,0.000,0.000,0.000
1641208004618686976,2022-01-03-11:06:44,10.1.1.9,167,-0.060,-0.060,-0.060,0.000,0.000,0.000
1641208004818450944,2022-01-03-11:06:44,10.1.1.9,166,-0.050,-0.050,-0.050,0.000,0.000,0.000
1641208005019428864,2022-01-03-11:06:45,10.1.1.9,166,-0.040,-0.040,-0.040,0.000,0.000,0.000
1641208005221158912,2022-01-03-11:06:45,10.1.1.9,167,-0.030,-0.030,-0.030,0.000,0.000,0.000
1641208005436873984,2022-01-03-11:06:45,10.1.1.9,183,-0.020,-0.020,-0.020,0.000,0.000,0.000
1641208005636837888,2022-01-03-11:06:45,10.1.1.9,182,-0.010,-0.010,-0.010,0.000,0.000,0.000
1641208005836110080,2022-01-03-11:06:45,10.1.1.9,181,0.000,0.000,0.000,0.000,0.000,0.000
1641208006036165888,2022-01-03-11:06:46,10.1.1.9,180,-0.010,-0.010,-0.010,0.000,0.000,0.000
1641208006239931136,2022-01-03-11:06:46,10.1.1.9,182,-0.020,-0.020,-0.020,0.000,0.000,0.000
1641208006435734016,2022-01-03-11:06:46,10.1.1.9,177,-0.030,-0.030,-0.030,0.000,0.000,0.000
1641208006645021952,2022-01-03-11:06:46,10.1.1.9,185,-0.040,-0.040,-0.040,0.000,0.000,0.000
1641208006835355904,2022-01-03-11:06:46,10.1.1.9,175,-0.050,-0.050,-0.050,0.000,0.000,0.000
1641208007035005952,2022-01-03-11:06:47,10.1.1.9,174,-0.060,-0.060,-0.060,0.000,0.000,0.000
1641208007234767872,2022-01-03-11:06:47,10.1.1.9,173,-0.070,-0.070,-0.070,0.000,0.000,0.000
1641208007434056960,2022-01-03-11:06:47,10.1.1.9,172,-0.080,-0.080,-0.080,0.000,0.000,0.000
1641208007623873024,2022-01-03-11:06:47,10.1.1.9,161,-0.090,-0.090,-0.090,0.000,0.000,0.000
1641208007834216960,2022-01-03-11:06:47,10.1.1.9,171,-0.100,-0.100,-0.100,0.000,0.000,0.000
1641208008046013952,2022-01-03-11:06:48,10.1.1.9,182,-0.110,-0.110,-0.110,0.000,0.000,0.000
1641208008242449920,2022-01-03-11:06:48,10.1.1.9,178,-0.120,-0.120,-0.120,0.000,0.000,0.000
1641208008432231936,2022-01-03-11:06:48,10.1.1.9,168,-0.130,-0.130,-0.130,0.000,0.000,0.000
1641208008632296192,2022-01-03-11:06:48,10.1.1.9,166,-0.140,-0.140,-0.140,0.000,0.000,0.000
1641208008831991808,2022-01-03-11:06:48,10.1.1.9,165,-0.150,-0.150,-0.150,0.000,0.000,0.000
1641208009031693056,2022-01-03-11:06:49,10.1.1.9,164,-0.160,-0.160,-0.160,0.000,0.000,0.000
1641208009231863040,2022-01-03-11:06:49,10.1.1.9,164,-0.170,-0.170,-0.170,0.000,0.000,0.000
1641208009432087040,2022-01-03-11:06:49,10.1.1.9,163,-0.180,-0.180,-0.180,0.000,0.000,0.000
1641208009631357952,2022-01-03-11:06:49,10.1.1.9,162,-0.190,-0.190,-0.190,0.000,0.000,0.000
1641208009840739072,2022-01-03-11:06:49,10.1.1.9,171,-0.200,-0.200,-0.200,0.000,0.000,0.000
1641208010030176000,2022-01-03-11:06:50,10.1.1.9,160,-0.210,-0.210,-0.210,0.000,0.000,0.000
1641208010231430144,2022-01-03-11:06:50,10.1.1.9,161,-0.220,-0.220,-0.220,0.000,0.000,0.000
1641208010444335872,2022-01-03-11:06:50,10.1.1.9,168,-0.230,-0.230,-0.230,0.000,0.000,0.000
1641208010653171968,2022-01-03-11:06:50,10.1.1.9,175,-0.240,-0.240,-0.240,0.000,0.000,0.000
1641208010854479104,2022-01-03-11:06:50,10.1.1.9,176,-0.250,-0.250,-0.250,0.000,0.000,0.000
1641208011045229824,2022-01-03-11:06:51,10.1.1.9,166,-0.260,-0.260,-0.260,0.000,0.000,0.000
1641208011256686848,2022-01-03-11:06:51,10.1.1.9,177,-0.270,-0.270,-0.270,0.000,0.000,0.000
1641208011471184896,2022-01-03-11:06:51,10.1.1.9,191,-0.280,-0.280,-0.280,0.000,0.000,0.000
1641208011668428800,2022-01-03-11:06:51,10.1.1.9,187,-0.290,-0.290,-0.290,0.000,0.000,0.000
1641208011858910976,2022-01-03-11:06:51,10.1.1.9,177,-0.300,-0.300,-0.300,0.000,0.000,0.000
1641208012060417024,2022-01-03-11:06:52,10.1.1.9,178,-0.310,-0.310,-0.310,0.000,0.000,0.000
1641208012260708096,2022-01-03-11:06:52,10.1.1.9,178,-0.320,-0.320,-0.320,0.000,0.000,0.000
1641208012461960192,2022-01-03-11:06:52,10.1.1.9,178,-0.330,-0.330,-0.330,0.000,0.000,0.000
1641208012662619136,2022-01-03-11:06:52,10.1.1.9,179,-0.340,-0.340,-0.340,0.000,0.000,0.000
1641208012862734080,2022-01-03-11:06:52,10.1.1.9,178,-0.350,-0.350,-0.350,0.000,0.000,0.000
1641208013064253952,2022-01-03-11:06:53,10.1.1.9,178,-0.360,-0.360,-0.360,0.000,0.000,0.000
1641208013264370944,2022-01-03-11:06:53,10.1.1.9,177,-0.370,-0.370,-0.370,0.000,0.000,0.000
1641208013470585088,2022-01-03-11:06:53,10.1.1.9,183,-0.380,-0.380,-0.380,0.000,0.000,0.000
1641208013665703168,2022-01-03-11:06:53,10.1.1.9,177,-0.390,-0.390,-0.390,0.000,0.000,0.000
1641208013865960960,2022-01-03-11:06:53,10.1.1.9,177,-0.400,-0.400,-0.400,0.000,0.000,0.000
1641208014066142976,2022-01-03-11:06:54,10.1.1.9,176,-0.410,-0.410,-0.410,0.000,0.000,0.000
1641208014267066112,2022-01-03-11:06:54,10.1.1.9,176,-0.420,-0.420,-0.420,0.000,0.000,0.000
1641208014467300864,2022-01-03-11:06:54,10.1.1.9,176,-0.430,-0.430,-0.430,0.000,0.000,0.000
1641208014668022016,2022-01-03-11:06:54,10.1.1.9,175,-0.440,-0.440,-0.440,0.000,0.000,0.000
1641208014868280832,2022-01-03-11:06:54,10.1.1.9,175,-0.450,-0.450,-0.450,0.000,0.000,0.000
1641208015069524992,2022-01-03-11:06:55,10.1.1.9,175,-0.460,-0.460,-0.460,0.000,0.000,0.000
1641208015279005952,2022-01-03-11:06:55,10.1.1.9,184,-0.470,-0.470,-0.470,0.000,0.000,0.000
1641208015489798144,2022-01-03-11:06:55,10.1.1.9,195,-0.480,-0.480,-0.480,0.000,0.000,0.000
1641208015685592064,2022-01-03-11:06:55,10.1.1.9,190,-0.490,-0.490,-0.490,0.000,0.000,0.000
1641208015891040000,2022-01-03-11:06:55,10.1.1.9,194,-0.480,-0.480,-0.480,0.000,0.000,0.000
1641208016091815936,2022-01-03-11:06:56,10.1.1.9,194,-0.470,-0.470,-0.470,0.000,0.000,0.000
1641208016291085056,2022-01-03-11:06:56,10.1.1.9,193,-0.460,-0.460,-0.460,0.000,0.000,0.000
1641208016892188928,2022-01-03-11:06:56,10.1.1.9,191,-0.430,-0.430,-0.430,0.000,0.000,0.000
1641208017092228864,2022-01-03-11:06:57,10.1.1.9,191,-0.420,-0.420,-0.420,0.000,0.000,0.000
1641208017292728832,2022-01-03-11:06:57,10.1.1.9,190,-0.410,-0.410,-0.410,0.000,0.000,0.000
1641208017492746240,2022-01-03-11:06:57,10.1.1.9,190,-0.400,-0.400,-0.400,0.000,0.000,0.000
1641208017692763136,2022-01-03-11:06:57,10.1.1.9,189,-0.390,-0.390,-0.390,0.000,0.000,0.000
1641208017893105920,2022-01-03-11:06:57,10.1.1.9,188,-0.380,-0.380,-0.380,0.000,0.000,0.000
1641208018093394944,2022-01-03-11:06:58,10.1.1.9,188,-0.370,-0.370,-0.370,0.000,0.000,0.000
1641208018293273088,2022-01-03-11:06:58,10.1.1.9,187,-0.360,-0.360,-0.360,0.000,0.000,0.000
1641208018504187136,2022-01-03-11:06:58,10.1.1.9,197,-0.350,-0.350,-0.350,0.000,0.000,0.000
1641208018703422976,2022-01-03-11:06:58,10.1.1.9,195,-0.340,-0.340,-0.340,0.000,0.000,0.000
1641208018897239040,2022-01-03-11:06:58,10.1.1.9,187,-0.330,-0.330,-0.330,0.000,0.000,0.000
1641208019113799168,2022-01-03-11:06:59,10.1.1.9,198,-0.320,-0.320,-0.320,0.000,0.000,0.000
1641208019314580992,2022-01-03-11:06:59,10.1.1.9,188,-0.310,-0.310,-0.310,0.000,0.000,0.000
1641208019524787968,2022-01-03-11:06:59,10.1.1.9,197,-0.300,-0.300,-0.300,0.000,0.000,0.000
1641208019713684992,2022-01-03-11:06:59,10.1.1.9,185,-0.290,-0.290,-0.290,0.000,0.000,0.000
1641208019924550144,2022-01-03-11:06:59,10.1.1.9,195,-0.280,-0.280,-0.280,0.000,0.000,0.000
1641208020114095872,2022-01-03-11:07:00,10.1.1.9,184,-0.270,-0.270,-0.270,0.000,0.000,0.000
1641208020323750912,2022-01-03-11:07:00,10.1.1.9,191,-0.260,-0.260,-0.260,0.000,0.000,0.000
1641208020521148928,2022-01-03-11:07:00,10.1.1.9,188,-0.250,-0.250,-0.250,0.000,0.000,0.000
1641208020736256000,2022-01-03-11:07:00,10.1.1.9,198,-0.240,-0.240,-0.240,0.000,0.000,0.000
1641208020938180864,2022-01-03-11:07:00,10.1.1.9,198,-0.230,-0.230,-0.230,0.000,0.000,0.000
1641208021334518784,2022-01-03-11:07:01,10.1.1.9,193,-0.210,-0.210,-0.210,0.000,0.000,0.000
1641208021524958976,2022-01-03-11:07:01,10.1.1.9,182,-0.200,-0.200,-0.200,0.000,0.000,0.000
1641208021733364224,2022-01-03-11:07:01,10.1.1.9,190,-0.190,-0.190,-0.190,0.000,0.000,0.000
1641208021934776064,2022-01-03-11:07:01,10.1.1.9,191,-0.180,-0.180,-0.180,0.000,0.000,0.000
1641208022134597120,2022-01-03-11:07:02,10.1.1.9,190,-0.170,-0.170,-0.170,0.000,0.000,0.000
1641208022334464000,2022-01-03-11:07:02,10.1.1.9,190,-0.160,-0.160,-0.160,0.000,0.000,0.000
1641208022544356096,2022-01-03-11:07:02,10.1.1.9,199,-0.150,-0.150,-0.150,0.000,0.000,0.000
1641208022734405888,2022-01-03-11:07:02,10.1.1.9,188,-0.140,-0.140,-0.140,0.000,0.000,0.000
1641208022933942016,2022-01-03-11:07:02,10.1.1.9,187,-0.130,-0.130,-0.130,0.000,0.000,0.000
1641208023133942016,2022-01-03-11:07:03,10.1.1.9,186,-0.120,-0.120,-0.120,0.000,0.000,0.000
1641208023334405888,2022-01-03-11:07:03,10.1.1.9,186,-0.110,-0.110,-0.110,0.000,0.000,0.000
1641208023545107968,2022-01-03-11:07:03,10.1.1.9,196,-0.100,-0.100,-0.100,0.000,0.000,0.000
1641208023733540096,2022-01-03-11:07:03,10.1.1.9,183,-0.090,-0.090,-0.090,0.000,0.000,0.000
1641208023933547008,2022-01-03-11:07:03,10.1.1.9,183,-0.080,-0.080,-0.080,0.000,0.000,0.000
1641208024133855232,2022-01-03-11:07:04,10.1.1.9,182,-0.070,-0.070,-0.070,0.000,0.000,0.000
1641208024333606912,2022-01-03-11:07:04,10.1.1.9,181,-0.060,-0.060,-0.060,0.000,0.000,0.000
1641208024533360896,2022-01-03-11:07:04,10.1.1.9,181,-0.050,-0.050,-0.050,0.000,0.000,0.000
1641208024733069056,2022-01-03-11:07:04,10.1.1.9,180,-0.040,-0.040,-0.040,0.000,0.000,0.000
1641208024932712192,2022-01-03-11:07:04,10.1.1.9,179,-0.030,-0.030,-0.030,0.000,0.000,0.000
1641208025352425216,2022-01-03-11:07:05,10.1.1.9,198,-0.010,-0.010,-0.010,0.000,0.000,0.000
1641208025552865024,2022-01-03-11:07:05,10.1.1.9,198,0.000,0.000,0.000,0.000,0.000,0.000
1641208025752166144,2022-01-03-11:07:05,10.1.1.9,196,-0.010,-0.010,-0.010,0.000,0.000,0.000
1641208026157296896,2022-01-03-11:07:06,10.1.1.9,200,-0.030,-0.030,-0.030,0.000,0.000,0.000
1641208026354820864,2022-01-03-11:07:06,10.1.1.9,188,-0.040,-0.040,-0.040,0.000,0.000,0.000
1641208026572786176,2022-01-03-11:07:06,10.1.1.9,198,-0.050,-0.050,-0.050,0.000,0.000,0.000
1641208026963182080,2022-01-03-11:07:06,10.1.1.9,187,-0.070,-0.070,-0.070,0.000,0.000,0.000
1641208027161434880,2022-01-03-11:07:07,10.1.1.9,185,-0.080,-0.080,-0.080,0.000,0.000,0.000
1641208027370774016,2022-01-03-11:07:07,10.1.1.9,194,-0.090,-0.090,-0.090,0.000,0.000,0.000
1641208027560679936,2022-01-03-11:07:07,10.1.1.9,183,-0.100,-0.100,-0.100,0.000,0.000,0.000
1641208027770533120,2022-01-03-11:07:07,10.1.1.9,192,-0.110,-0.110,-0.110,0.000,0.000,0.000
1641208027972850176,2022-01-03-11:07:07,10.1.1.9,194,-0.120,-0.120,-0.120,0.000,0.000,0.000
1641208028170726912,2022-01-03-11:07:08,10.1.1.9,191,-0.130,-0.130,-0.130,0.000,0.000,0.000
1641208028370381056,2022-01-03-11:07:08,10.1.1.9,191,-0.140,-0.140,-0.140,0.000,0.000,0.000
1641208028569912832,2022-01-03-11:07:08,10.1.1.9,190,-0.150,-0.150,-0.150,0.000,0.000,0.000
1641208028759213824,2022-01-03-11:07:08,10.1.1.9,179,-0.160,-0.160,-0.160,0.000,0.000,0.000
1641208028969655040,2022-01-03-11:07:08,10.1.1.9,189,-0.170,-0.170,-0.170,0.000,0.000,0.000
1641208029168876800,2022-01-03-11:07:09,10.1.1.9,186,-0.180,-0.180,-0.180,0.000,0.000,0.000
1641208029369079040,2022-01-03-11:07:09,10.1.1.9,186,-0.190,-0.190,-0.190,0.000,0.000,0.000
1641208029569438976,2022-01-03-11:07:09,10.1.1.9,186,-0.200,-0.200,-0.200,0.000,0.000,0.000
1641208029769004032,2022-01-03-11:07:09,10.1.1.9,185,-0.210,-0.210,-0.210,0.000,0.000,0.000
1641208029968965888,2022-01-03-11:07:09,10.1.1.9,184,-0.220,-0.220,-0.220,0.000,0.000,0.000
1641208030168001024,2022-01-03-11:07:10,10.1.1.9,183,-0.230,-0.230,-0.230,0.000,0.000,0.000
1641208030368068864,2022-01-03-11:07:10,10.1.1.9,182,-0.240,-0.240,-0.240,0.000,0.000,0.000
1641208030567913984,2022-01-03-11:07:10,10.1.1.9,181,-0.250,-0.250,-0.250,0.000,0.000,0.000
1641208030771339776,2022-01-03-11:07:10,10.1.1.9,182,-0.260,-0.260,-0.260,0.000,0.000,0.000
1641208030968049152,2022-01-03-11:07:10,10.1.1.9,180,-0.270,-0.270,-0.270,0.000,0.000,0.000
1641208031167357952,2022-01-03-11:07:11,10.1.1.9,179,-0.280,-0.280,-0.280,0.000,0.000,0.000
1641208031366369024,2022-01-03-11:07:11,10.1.1.9,177,-0.290,-0.290,-0.290,0.000,0.000,0.000
1641208031565897984,2022-01-03-11:07:11,10.1.1.9,176,-0.300,-0.300,-0.300,0.000,0.000,0.000
1641208031765864960,2022-01-03-11:07:11,10.1.1.9,176,-0.310,-0.310,-0.310,0.000,0.000,0.000
1641208031966226176,2022-01-03-11:07:11,10.1.1.9,175,-0.320,-0.320,-0.320,0.000,0.000,0.000
1641208032165785088,2022-01-03-11:07:12,10.1.1.9,173,-0.330,-0.330,-0.330,0.000,0.000,0.000
1641208032367290112,2022-01-03-11:07:12,10.1.1.9,174,-0.340,-0.340,-0.340,0.000,0.000,0.000
1641208032566339072,2022-01-03-11:07:12,10.1.1.9,173,-0.350,-0.350,-0.350,0.000,0.000,0.000
1641208032767469824,2022-01-03-11:07:12,10.1.1.9,173,-0.360,-0.360,-0.360,0.000,0.000,0.000
1641208032984229120,2022-01-03-11:07:12,10.1.1.9,190,-0.370,-0.370,-0.370,0.000,0.000,0.000
1641208033173501952,2022-01-03-11:07:13,10.1.1.9,179,-0.380,-0.380,-0.380,0.000,0.000,0.000
1641208033373568000,2022-01-03-11:07:13,10.1.1.9,178,-0.390,-0.390,-0.390,0.000,0.000,0.000
1641208033573255936,2022-01-03-11:07:13,10.1.1.9,177,-0.400,-0.400,-0.400,0.000,0.000,0.000
1641208033783235072,2022-01-03-11:07:13,10.1.1.9,187,-0.410,-0.410,-0.410,0.000,0.000,0.000
1641208033983032064,2022-01-03-11:07:13,10.1.1.9,186,-0.420,-0.420,-0.420,0.000,0.000,0.000
1641208034192471040,2022-01-03-11:07:14,10.1.1.9,195,-0.430,-0.430,-0.430,0.000,0.000,0.000
1641208034392286976,2022-01-03-11:07:14,10.1.1.9,194,-0.440,-0.440,-0.440,0.000,0.000,0.000
1641208034581798144,2022-01-03-11:07:14,10.1.1.9,183,-0.450,-0.450,-0.450,0.000,0.000,0.000
1641208034781368064,2022-01-03-11:07:14,10.1.1.9,182,-0.460,-0.460,-0.460,0.000,0.000,0.000
1641208034981293824,2022-01-03-11:07:14,10.1.1.9,181,-0.470,-0.470,-0.470,0.000,0.000,0.000
1641208035180646912,2022-01-03-11:07:15,10.1.1.9,180,-0.480,-0.480,-0.480,0.000,0.000,0.000
1641208035380524032,2022-01-03-11:07:15,10.1.1.9,180,-0.490,-0.490,-0.490,0.000,0.000,0.000
1641208035580914944,2022-01-03-11:07:15,10.1.1.9,179,-0.480,-0.480,-0.480,0.000,0.000,0.000
1641208035780404992,2022-01-03-11:07:15,10.1.1.9,178,-0.470,-0.470,-0.470,0.000,0.000,0.000
1641208035969454080,2022-01-03-11:07:15,10.1.1.9,167,-0.460,-0.460,-0.460,0.000,0.000,0.000
1641208036180030976,2022-01-03-11:07:16,10.1.1.9,176,-0.450,-0.450,-0.450,0.000,0.000,0.000
1641208036380412160,2022-01-03-11:07:16,10.1.1.9,176,-0.440,-0.440,-0.440,0.000,0.000,0.000
1641208036588985856,2022-01-03-11:07:16,10.1.1.9,184,-0.430,-0.430,-0.430,0.000,0.000,0.000
1641208036778467840,2022-01-03-11:07:16,10.1.1.9,173,-0.420,-0.420,-0.420,0.000,0.000,0.000
1641208036980122112,2022-01-03-11:07:16,10.1.1.9,174,-0.410,-0.410,-0.410,0.000,0.000,0.000
1641208037180803072,2022-01-03-11:07:17,10.1.1.9,174,-0.400,-0.400,-0.400,0.000,0.000,0.000
1641208037378052864,2022-01-03-11:07:17,10.1.1.9,171,-0.390,-0.390,-0.390,0.000,0.000,0.000
1641208037577513984,2022-01-03-11:07:17,10.1.1.9,170,-0.380,-0.380,-0.380,0.000,0.000,0.000
1641208037782198016,2022-01-03-11:07:17,10.1.1.9,174,-0.370,-0.370,-0.370,0.000,0.000,0.000
1641208037976914944,2022-01-03-11:07:17,10.1.1.9,165,-0.360,-0.360,-0.360,0.000,0.000,0.000
1641208038176717056,2022-01-03-11:07:18,10.1.1.9,164,-0.350,-0.350,-0.350,0.000,0.000,0.000
1641208038376861952,2022-01-03-11:07:18,10.1.1.9,164,-0.340,-0.340,-0.340,0.000,0.000,0.000
1641208038577830144,2022-01-03-11:07:18,10.1.1.9,164,-0.330,-0.330,-0.330,0.000,0.000,0.000
1641208038807197952,2022-01-03-11:07:18,10.1.1.9,193,-0.320,-0.320,-0.320,0.000,0.000,0.000
1641208038995145984,2022-01-03-11:07:18,10.1.1.9,179,-0.310,-0.310,-0.310,0.000,0.000,0.000
1641208039205099008,2022-01-03-11:07:19,10.1.1.9,189,-0.300,-0.300,-0.300,0.000,0.000,0.000
1641208039384818944,2022-01-03-11:07:19,10.1.1.9,168,-0.290,-0.290,-0.290,0.000,0.000,0.000
1641208039604610048,2022-01-03-11:07:19,10.1.1.9,186,-0.280,-0.280,-0.280,0.000,0.000,0.000
1641208039784689920,2022-01-03-11:07:19,10.1.1.9,165,-0.270,-0.270,-0.270,0.000,0.000,0.000
1641208039984075008,2022-01-03-11:07:19,10.1.1.9,164,-0.260,-0.260,-0.260,0.000,0.000,0.000
1641208040193993216,2022-01-03-11:07:20,10.1.1.9,174,-0.250,-0.250,-0.250,0.000,0.000,0.000
1641208040382808064,2022-01-03-11:07:20,10.1.1.9,162,-0.240,-0.240,-0.240,0.000,0.000,0.000
1641208040602376960,2022-01-03-11:07:20,10.1.1.9,181,-0.230,-0.230,-0.230,0.000,0.000,0.000
1641208040782593024,2022-01-03-11:07:20,10.1.1.9,161,-0.220,-0.220,-0.220,0.000,0.000,0.000
1641208040991792896,2022-01-03-11:07:20,10.1.1.9,169,-0.210,-0.210,-0.210,0.000,0.000,0.000
1641208041201980160,2022-01-03-11:07:21,10.1.1.9,179,-0.200,-0.200,-0.200,0.000,0.000,0.000
1641208041392372992,2022-01-03-11:07:21,10.1.1.9,169,-0.190,-0.190,-0.190,0.000,0.000,0.000
1641208041601579008,2022-01-03-11:07:21,10.1.1.9,177,-0.180,-0.180,-0.180,0.000,0.000,0.000
1641208041791090944,2022-01-03-11:07:21,10.1.1.9,165,-0.170,-0.170,-0.170,0.000,0.000,0.000
1641208042002401024,2022-01-03-11:07:22,10.1.1.9,175,-0.160,-0.160,-0.160,0.000,0.000,0.000
1641208042191215872,2022-01-03-11:07:22,10.1.1.9,163,-0.150,-0.150,-0.150,0.000,0.000,0.000
1641208042389539840,2022-01-03-11:07:22,10.1.1.9,161,-0.140,-0.140,-0.140,0.000,0.000,0.000
1641208042589342208,2022-01-03-11:07:22,10.1.1.9,160,-0.130,-0.130,-0.130,0.000,0.000,0.000
1641208042790665984,2022-01-03-11:07:22,10.1.1.9,161,-0.120,-0.120,-0.120,0.000,0.000,0.000
1641208042991440896,2022-01-03-11:07:22,10.1.1.9,162,-0.110,-0.110,-0.110,0.000,0.000,0.000
1641208043190520064,2022-01-03-11:07:23,10.1.1.9,159,-0.100,-0.100,-0.100,0.000,0.000,0.000
1641208043390612992,2022-01-03-11:07:23,10.1.1.9,159,-0.090,-0.090,-0.090,0.000,0.000,0.000
1641208043601700096,2022-01-03-11:07:23,10.1.1.9,169,-0.080,-0.080,-0.080,0.000,0.000,0.000
1641208043796619008,2022-01-03-11:07:23,10.1.1.9,163,-0.070,-0.070,-0.070,0.000,0.000,0.000
1641208044014051072,2022-01-03-11:07:24,10.1.1.9,180,-0.060,-0.060,-0.060,0.000,0.000,0.000
1641208044214968064,2022-01-03-11:07:24,10.1.1.9,180,-0.050,-0.050,-0.050,0.000,0.000,0.000
1641208044398215936,2022-01-03-11:07:24,10.1.1.9,163,-0.040,-0.040,-0.040,0.000,0.000,0.000
1641208044617053952,2022-01-03-11:07:24,10.1.1.9,181,-0.030,-0.030,-0.030,0.000,0.000,0.000
1641208044818216960,2022-01-03-11:07:24,10.1.1.9,182,-0.020,-0.020,-0.020,0.000,0.000,0.000
1641208045019124992,2022-01-03-11:07:25,10.1.1.9,182,-0.010,-0.010,-0.010,0.000,0.000,0.000
1641208045241650176,2022-01-03-11:07:25,10.1.1.9,189,0.000,0.000,0.000,0.000,0.000,0.000
1641208045421113856,2022-01-03-11:07:25,10.1.1.9,169,-0.010,-0.010,-0.010,0.000,0.000,0.000
1641208045631076096,2022-01-03-11:07:25,10.1.1.9,179,-0.020,-0.020,-0.020,0.000,0.000,0.000
1641208045821524992,2022-01-03-11:07:25,10.1.1.9,169,-0.030,-0.030,-0.030,0.000,0.000,0.000
1641208046022414080,2022-01-03-11:07:26,10.1.1.9,169,-0.040,-0.040,-0.040,0.000,0.000,0.000
1641208046222925056,2022-01-03-11:07:26,10.1.1.9,169,-0.050,-0.050,-0.050,0.000,0.000,0.000
1641208046424637952,2022-01-03-11:07:26,10.1.1.9,170,-0.060,-0.060,-0.060,0.000,0.000,0.000
1641208046626266880,2022-01-03-11:07:26,10.1.1.9,171,-0.070,-0.070,-0.070,0.000,0.000,0.000
1641208046836464896,2022-01-03-11:07:26,10.1.1.9,179,-0.080,-0.080,-0.080,0.000,0.000,0.000
1641208047055179008,2022-01-03-11:07:27,10.1.1.9,199,-0.090,-0.090,-0.090,0.000,0.000,0.000
1641208047245934080,2022-01-03-11:07:27,10.1.1.9,189,-0.100,-0.100,-0.100,0.000,0.000,0.000
1641208047456763136,2022-01-03-11:07:27,10.1.1.9,199,-0.110,-0.110,-0.110,0.000,0.000,0.000
1641208047650433024,2022-01-03-11:07:27,10.1.1.9,192,-0.120,-0.120,-0.120,0.000,0.000,0.000
1641208047848720128,2022-01-03-11:07:27,10.1.1.9,190,-0.130,-0.130,-0.130,0.000,0.000,0.000
1641208048048623104,2022-01-03-11:07:28,10.1.1.9,189,-0.140,-0.140,-0.140,0.000,0.000,0.000
1641208048248441856,2022-01-03-11:07:28,10.1.1.9,189,-0.150,-0.150,-0.150,0.000,0.000,0.000
1641208048448946944,2022-01-03-11:07:28,10.1.1.9,189,-0.160,-0.160,-0.160,0.000,0.000,0.000
1641208048648621056,2022-01-03-11:07:28,10.1.1.9,188,-0.170,-0.170,-0.170,0.000,0.000,0.000
1641208048850328064,2022-01-03-11:07:28,10.1.1.9,189,-0.180,-0.180,-0.180,0.000,0.000,0.000
1641208049060363008,2022-01-03-11:07:29,10.1.1.9,199,-0.190,-0.190,-0.190,0.000,0.000,0.000
1641208049259951104,2022-01-03-11:07:29,10.1.1.9,197,-0.200,-0.200,-0.200,0.000,0.000,0.000
1641208049461824000,2022-01-03-11:07:29,10.1.1.9,199,-0.210,-0.210,-0.210,0.000,0.000,0.000
1641208049640846848,2022-01-03-11:07:29,10.1.1.9,177,-0.220,-0.220,-0.220,0.000,0.000,0.000
1641208049850665216,2022-01-03-11:07:29,10.1.1.9,186,-0.230,-0.230,-0.230,0.000,0.000,0.000
1641208050051667968,2022-01-03-11:07:30,10.1.1.9,187,-0.240,-0.240,-0.240,0.000,0.000,0.000
1641208050251255040,2022-01-03-11:07:30,10.1.1.9,186,-0.250,-0.250,-0.250,0.000,0.000,0.000
1641208050462038016,2022-01-03-11:07:30,10.1.1.9,196,-0.260,-0.260,-0.260,0.000,0.000,0.000
1641208050653473024,2022-01-03-11:07:30,10.1.1.9,187,-0.270,-0.270,-0.270,0.000,0.000,0.000
1641208050851805952,2022-01-03-11:07:30,10.1.1.9,185,-0.280,-0.280,-0.280,0.000,0.000,0.000
1641208051051793152,2022-01-03-11:07:31,10.1.1.9,184,-0.290,-0.290,-0.290,0.000,0.000,0.000
1641208051252867840,2022-01-03-11:07:31,10.1.1.9,185,-0.300,-0.300,-0.300,0.000,0.000,0.000
1641208051463025920,2022-01-03-11:07:31,10.1.1.9,194,-0.310,-0.310,-0.310,0.000,0.000,0.000
1641208051660052992,2022-01-03-11:07:31,10.1.1.9,190,-0.320,-0.320,-0.320,0.000,0.000,0.000
1641208051863276032,2022-01-03-11:07:31,10.1.1.9,193,-0.330,-0.330,-0.330,0.000,0.000,0.000
1641208052052835072,2022-01-03-11:07:32,10.1.1.9,181,-0.340,-0.340,-0.340,0.000,0.000,0.000
1641208052263101952,2022-01-03-11:07:32,10.1.1.9,190,-0.350,-0.350,-0.350,0.000,0.000,0.000
1641208052463298048,2022-01-03-11:07:32,10.1.1.9,190,-0.360,-0.360,-0.360,0.000,0.000,0.000
1641208052663051008,2022-01-03-11:07:32,10.1.1.9,188,-0.370,-0.370,-0.370,0.000,0.000,0.000
1641208052863315968,2022-01-03-11:07:32,10.1.1.9,188,-0.380,-0.380,-0.380,0.000,0.000,0.000
1641208053264267008,2022-01-03-11:07:33,10.1.1.9,188,-0.400,-0.400,-0.400,0.000,0.000,0.000
1641208053474160896,2022-01-03-11:07:33,10.1.1.9,196,-0.410,-0.410,-0.410,0.000,0.000,0.000
1641208053674434816,2022-01-03-11:07:33,10.1.1.9,196,-0.420,-0.420,-0.420,0.000,0.000,0.000
1641208053874705152,2022-01-03-11:07:33,10.1.1.9,195,-0.430,-0.430,-0.430,0.000,0.000,0.000
1641208054063728128,2022-01-03-11:07:34,10.1.1.9,183,-0.440,-0.440,-0.440,0.000,0.000,0.000
1641208054273466112,2022-01-03-11:07:34,10.1.1.9,189,-0.450,-0.450,-0.450,0.000,0.000,0.000
1641208054474324992,2022-01-03-11:07:34,10.1.1.9,187,-0.460,-0.460,-0.460,0.000,0.000,0.000
1641208054883783168,2022-01-03-11:07:34,10.1.1.9,194,-0.480,-0.480,-0.480,0.000,0.000,0.000
1641208055073220096,2022-01-03-11:07:35,10.1.1.9,183,-0.490,-0.490,-0.490,0.000,0.000,0.000
1641208055274432000,2022-01-03-11:07:35,10.1.1.9,184,-0.480,-0.480,-0.480,0.000,0.000,0.000
1641208055478519040,2022-01-03-11:07:35,10.1.1.9,187,-0.470,-0.470,-0.470,0.000,0.000,0.000
1641208055673221120,2022-01-03-11:07:35,10.1.1.9,181,-0.460,-0.460,-0.460,0.000,0.000,0.000
1641208055874223104,2022-01-03-11:07:35,10.1.1.9,181,-0.450,-0.450,-0.450,0.000,0.000,0.000
1641208056072979968,2022-01-03-11:07:36,10.1.1.9,180,-0.440,-0.440,-0.440,0.000,0.000,0.000
1641208056293647104,2022-01-03-11:07:36,10.1.1.9,198,-0.430,-0.430,-0.430,0.000,0.000,0.000
1641208056493145088,2022-01-03-11:07:36,10.1.1.9,198,-0.420,-0.420,-0.420,0.000,0.000,0.000
1641208056693243136,2022-01-03-11:07:36,10.1.1.9,197,-0.410,-0.410,-0.410,0.000,0.000,0.000
1641208056893253120,2022-01-03-11:07:36,10.1.1.9,197,-0.400,-0.400,-0.400,0.000,0.000,0.000
1641208057082663936,2022-01-03-11:07:37,10.1.1.9,186,-0.390,-0.390,-0.390,0.000,0.000,0.000
1641208057292733952,2022-01-03-11:07:37,10.1.1.9,195,-0.380,-0.380,-0.380,0.000,0.000,0.000
1641208057492717056,2022-01-03-11:07:37,10.1.1.9,194,-0.370,-0.370,-0.370,0.000,0.000,0.000
1641208057692717056,2022-01-03-11:07:37,10.1.1.9,193,-0.360,-0.360,-0.360,0.000,0.000,0.000
1641208057892809984,2022-01-03-11:07:37,10.1.1.9,193,-0.350,-0.350,-0.350,0.000,0.000,0.000
1641208058091948032,2022-01-03-11:07:38,10.1.1.9,192,-0.340,-0.340,-0.340,0.000,0.000,0.000
1641208058481851136,2022-01-03-11:07:38,10.1.1.9,180,-0.320,-0.320,-0.320,0.000,0.000,0.000
1641208058691115008,2022-01-03-11:07:38,10.1.1.9,187,-0.310,-0.310,-0.310,0.000,0.000,0.000
1641208058891247104,2022-01-03-11:07:38,10.1.1.9,187,-0.300,-0.300,-0.300,0.000,0.000,0.000
1641208059090996992,2022-01-03-11:07:39,10.1.1.9,186,-0.290,-0.290,-0.290,0.000,0.000,0.000
1641208059291209984,2022-01-03-11:07:39,10.1.1.9,186,-0.280,-0.280,-0.280,0.000,0.000,0.000
1641208059500730112,2022-01-03-11:07:39,10.1.1.9,194,-0.270,-0.270,-0.270,0.000,0.000,0.000
1641208059691631104,2022-01-03-11:07:39,10.1.1.9,185,-0.260,-0.260,-0.260,0.000,0.000,0.000
1641208059900592128,2022-01-03-11:07:39,10.1.1.9,193,-0.250,-0.250,-0.250,0.000,0.000,0.000
1641208060090676992,2022-01-03-11:07:40,10.1.1.9,182,-0.240,-0.240,-0.240,0.000,0.000,0.000
1641208060290714880,2022-01-03-11:07:40,10.1.1.9,182,-0.230,-0.230,-0.230,0.000,0.000,0.000
1641208060489628160,2022-01-03-11:07:40,10.1.1.9,180,-0.220,-0.220,-0.220,0.000,0.000,0.000
1641208060690849024,2022-01-03-11:07:40,10.1.1.9,181,-0.210,-0.210,-0.210,0.000,0.000,0.000
1641208060890115072,2022-01-03-11:07:40,10.1.1.9,179,-0.200,-0.200,-0.200,0.000,0.000,0.000
1641208061090223104,2022-01-03-11:07:41,10.1.1.9,179,-0.190,-0.190,-0.190,0.000,0.000,0.000
1641208061292434944,2022-01-03-11:07:41,10.1.1.9,181,-0.180,-0.180,-0.180,0.000,0.000,0.000
1641208061488574976,2022-01-03-11:07:41,10.1.1.9,175,-0.170,-0.170,-0.170,0.000,0.000,0.000
1641208061709788928,2022-01-03-11:07:41,10.1.1.9,195,-0.160,-0.160,-0.160,0.000,0.000,0.000
1641208061900190976,2022-01-03-11:07:41,10.1.1.9,184,-0.150,-0.150,-0.150,0.000,0.000,0.000
1641208062108478976,2022-01-03-11:07:42,10.1.1.9,192,-0.140,-0.140,-0.140,0.000,0.000,0.000
1641208062308262144,2022-01-03-11:07:42,10.1.1.9,191,-0.130,-0.130,-0.130,0.000,0.000,0.000
1641208062507677184,2022-01-03-11:07:42,10.1.1.9,190,-0.120,-0.120,-0.120,0.000,0.000,0.000
1641208062708073984,2022-01-03-11:07:42,10.1.1.9,190,-0.110,-0.110,-0.110,0.000,0.000,0.000
1641208062907277056,2022-01-03-11:07:42,10.1.1.9,189,-0.100,-0.100,-0.100,0.000,0.000,0.000
1641208063107065856,2022-01-03-11:07:43,10.1.1.9,188,-0.090,-0.090,-0.090,0.000,0.000,0.000
1641208063307033088,2022-01-03-11:07:43,10.1.1.9,187,-0.080,-0.080,-0.080,0.000,0.000,0.000
1641208063510970112,2022-01-03-11:07:43,10.1.1.9,191,-0.070,-0.070,-0.070,0.000,0.000,0.000
1641208063705952768,2022-01-03-11:07:43,10.1.1.9,185,-0.060,-0.060,-0.060,0.000,0.000,0.000
1641208063905817088,2022-01-03-11:07:43,10.1.1.9,184,-0.050,-0.050,-0.050,0.000,0.000,0.000
1641208064106055936,2022-01-03-11:07:44,10.1.1.9,184,-0.040,-0.040,-0.040,0.000,0.000,0.000
1641208064305537024,2022-01-03-11:07:44,10.1.1.9,183,-0.030,-0.030,-0.030,0.000,0.000,0.000
1641208064515330048,2022-01-03-11:07:44,10.1.1.9,192,-0.020,-0.020,-0.020,0.000,0.000,0.000
1641208064715454976,2022-01-03-11:07:44,10.1.1.9,191,-0.010,-0.010,-0.010,0.000,0.000,0.000
1641208064904463104,2022-01-03-11:07:44,10.1.1.9,179,0.000,0.000,0.000,0.000,0.000,0.000
1641208065106002176,2022-01-03-11:07:45,10.1.1.9,180,-0.010,-0.010,-0.010,0.000,0.000,0.000
1641208065304482048,2022-01-03-11:07:45,10.1.1.9,178,-0.020,-0.020,-0.020,0.000,0.000,0.000
1641208065504062976,2022-01-03-11:07:45,10.1.1.9,177,-0.030,-0.030,-0.030,0.000,0.000,0.000
1641208065713435904,2022-01-03-11:07:45,10.1.1.9,185,-0.040,-0.040,-0.040,0.000,0.000,0.000
1641208065903534848,2022-01-03-11:07:45,10.1.1.9,171,-0.050,-0.050,-0.050,0.000,0.000,0.000
1641208066103315968,2022-01-03-11:07:46,10.1.1.9,170,-0.060,-0.060,-0.060,0.000,0.000,0.000
1641208066333154048,2022-01-03-11:07:46,10.1.1.9,199,-0.070,-0.070,-0.070,0.000,0.000,0.000
1641208066522268928,2022-01-03-11:07:46,10.1.1.9,187,-0.080,-0.080,-0.080,0.000,0.000,0.000
1641208066722333952,2022-01-03-11:07:46,10.1.1.9,187,-0.090,-0.090,-0.090,0.000,0.000,0.000
1641208066922131968,2022-01-03-11:07:46,10.1.1.9,186,-0.100,-0.100,-0.100,0.000,0.000,0.000
1641208067123138048,2022-01-03-11:07:47,10.1.1.9,186,-0.110,-0.110,-0.110,0.000,0.000,0.000
1641208067325520128,2022-01-03-11:07:47,10.1.1.9,182,-0.120,-0.120,-0.120,0.000,0.000,0.000
1641208067520996096,2022-01-03-11:07:47,10.1.1.9,177,-0.130,-0.130,-0.130,0.000,0.000,0.000
1641208067723095808,2022-01-03-11:07:47,10.1.1.9,179,-0.140,-0.140,-0.140,0.000,0.000,0.000
1641208067920758016,2022-01-03-11:07:47,10.1.1.9,176,-0.150,-0.150,-0.150,0.000,0.000,0.000
1641208068120398080,2022-01-03-11:07:48,10.1.1.9,175,-0.160,-0.160,-0.160,0.000,0.000,0.000
1641208068320770048,2022-01-03-11:07:48,10.1.1.9,175,-0.170,-0.170,-0.170,0.000,0.000,0.000
1641208068521368064,2022-01-03-11:07:48,10.1.1.9,171,-0.180,-0.180,-0.180,0.000,0.000,0.000
1641208068725210880,2022-01-03-11:07:48,10.1.1.9,174,-0.190,-0.190,-0.190,0.000,0.000,0.000
1641208068919297024,2022-01-03-11:07:48,10.1.1.9,168,-0.200,-0.200,-0.200,0.000,0.000,0.000
1641208069119527168,2022-01-03-11:07:49,10.1.1.9,167,-0.210,-0.210,-0.210,0.000,0.000,0.000
1641208069319401984,2022-01-03-11:07:49,10.1.1.9,167,-0.220,-0.220,-0.220,0.000,0.000,0.000
1641208069518012160,2022-01-03-11:07:49,10.1.1.9,165,-0.230,-0.230,-0.230,0.000,0.000,0.000
1641208069737478912,2022-01-03-11:07:49,10.1.1.9,182,-0.240,-0.240,-0.240,0.000,0.000,0.000
1641208069947901952,2022-01-03-11:07:49,10.1.1.9,192,-0.250,-0.250,-0.250,0.000,0.000,0.000
1641208070138725888,2022-01-03-11:07:50,10.1.1.9,182,-0.260,-0.260,-0.260,0.000,0.000,0.000
1641208070347228160,2022-01-03-11:07:50,10.1.1.9,189,-0.270,-0.270,-0.270,0.000,0.000,0.000
1641208070537444096,2022-01-03-11:07:50,10.1.1.9,177,-0.280,-0.280,-0.280,0.000,0.000,0.000
1641208070736514048,2022-01-03-11:07:50,10.1.1.9,176,-0.290,-0.290,-0.290,0.000,0.000,0.000
1641208070936783104,2022-01-03-11:07:50,10.1.1.9,175,-0.300,-0.300,-0.300,0.000,0.000,0.000
