FedericoMungari/DigitalTwin_service/01_WiredScenario/Output/Output_script/script_rosapi_2_output_robots10_freq0_1.txt
timestamp,date,node,latency,joint_1,joint_2,joint_3,joint_4,joint_5,joint_6
1644926762884614912,2022-02-15-12:06:02,10.1.1.2,-1,-0.100,-0.100,-0.100,0.000,0.000,0.000
1644926762964294912,2022-02-15-12:06:02,10.1.1.2,28,-0.090,-0.090,-0.090,0.000,0.000,0.000
1644926763024872960,2022-02-15-12:06:03,10.1.1.2,37,-0.080,-0.080,-0.080,0.000,0.000,0.000
1644926763065116928,2022-02-15-12:06:03,10.1.1.2,26,-0.070,-0.070,-0.070,0.000,0.000,0.000
1644926763124742912,2022-02-15-12:06:03,10.1.1.2,36,-0.060,-0.060,-0.060,0.000,0.000,0.000
1644926763165827072,2022-02-15-12:06:03,10.1.1.2,26,-0.050,-0.050,-0.050,0.000,0.000,0.000
1644926763224397056,2022-02-15-12:06:03,10.1.1.2,35,-0.040,-0.040,-0.040,0.000,0.000,0.000
1644926763264892928,2022-02-15-12:06:03,10.1.1.2,25,-0.030,-0.030,-0.030,0.000,0.000,0.000
1644926763324996864,2022-02-15-12:06:03,10.1.1.2,35,-0.020,-0.020,-0.020,0.000,0.000,0.000
1644926763367689984,2022-02-15-12:06:03,10.1.1.2,24,-0.010,-0.010,-0.010,0.000,0.000,0.000
1644926763424817920,2022-02-15-12:06:03,10.1.1.2,33,0.000,0.000,0.000,0.000,0.000,0.000
1644926763466862848,2022-02-15-12:06:03,10.1.1.2,22,0.010,0.010,0.010,0.000,0.000,0.000
1644926763524858112,2022-02-15-12:06:03,10.1.1.2,32,0.020,0.020,0.020,0.000,0.000,0.000
1644926763565201920,2022-02-15-12:06:03,10.1.1.2,21,0.030,0.030,0.030,0.000,0.000,0.000
1644926763625997056,2022-02-15-12:06:03,10.1.1.2,30,0.040,0.040,0.040,0.000,0.000,0.000
1644926763666371072,2022-02-15-12:06:03,10.1.1.2,19,0.049,0.049,0.049,0.000,0.000,0.000
1644926763726305024,2022-02-15-12:06:03,10.1.1.2,28,0.060,0.060,0.060,0.000,0.000,0.000
1644926763784521984,2022-02-15-12:06:03,10.1.1.2,37,0.070,0.070,0.070,0.000,0.000,0.000
1644926763825357824,2022-02-15-12:06:03,10.1.1.2,27,0.080,0.080,0.080,0.000,0.000,0.000
1644926763886534912,2022-02-15-12:06:03,10.1.1.2,36,0.090,0.090,0.090,0.000,0.000,0.000
1644926763925250048,2022-02-15-12:06:03,10.1.1.2,26,0.100,0.100,0.100,0.000,0.000,0.000
1644926763986382848,2022-02-15-12:06:03,10.1.1.2,35,0.090,0.090,0.090,0.000,0.000,0.000
1644926764025172992,2022-02-15-12:06:04,10.1.1.2,25,0.080,0.080,0.080,0.000,0.000,0.000
1644926764084871936,2022-02-15-12:06:04,10.1.1.2,35,0.070,0.070,0.070,0.000,0.000,0.000
1644926764127545088,2022-02-15-12:06:04,10.1.1.2,24,0.060,0.060,0.060,0.000,0.000,0.000
1644926764185545984,2022-02-15-12:06:04,10.1.1.2,32,0.050,0.050,0.050,0.000,0.000,0.000
1644926764224740096,2022-02-15-12:06:04,10.1.1.2,22,0.040,0.040,0.040,0.000,0.000,0.000
1644926764344419840,2022-02-15-12:06:04,10.1.1.2,36,0.020,0.020,0.020,0.000,0.000,0.000
1644926764384507904,2022-02-15-12:06:04,10.1.1.2,26,0.010,0.010,0.010,0.000,0.000,0.000
1644926764444878080,2022-02-15-12:06:04,10.1.1.2,35,0.000,0.000,0.000,0.000,0.000,0.000
1644926764487229952,2022-02-15-12:06:04,10.1.1.2,25,-0.010,-0.010,-0.010,0.000,0.000,0.000
1644926764546784000,2022-02-15-12:06:04,10.1.1.2,34,-0.020,-0.020,-0.020,0.000,0.000,0.000
1644926764584697856,2022-02-15-12:06:04,10.1.1.2,22,-0.030,-0.030,-0.030,0.000,0.000,0.000
1644926764646692864,2022-02-15-12:06:04,10.1.1.2,32,-0.040,-0.040,-0.040,0.000,0.000,0.000
1644926764684698112,2022-02-15-12:06:04,10.1.1.2,21,-0.050,-0.050,-0.050,0.000,0.000,0.000
1644926764747013120,2022-02-15-12:06:04,10.1.1.2,30,-0.060,-0.060,-0.060,0.000,0.000,0.000
1644926764785612032,2022-02-15-12:06:04,10.1.1.2,20,-0.070,-0.070,-0.070,0.000,0.000,0.000
1644926764846636032,2022-02-15-12:06:04,10.1.1.2,29,-0.080,-0.080,-0.080,0.000,0.000,0.000
1644926764886137856,2022-02-15-12:06:04,10.1.1.2,19,-0.089,-0.089,-0.089,0.000,0.000,0.000
1644926764944939008,2022-02-15-12:06:04,10.1.1.2,29,-0.100,-0.100,-0.100,0.000,0.000,0.000
1644926765005580032,2022-02-15-12:06:05,10.1.1.2,38,-0.090,-0.090,-0.090,0.000,0.000,0.000
1644926765046971136,2022-02-15-12:06:05,10.1.1.2,26,-0.080,-0.080,-0.080,0.000,0.000,0.000
1644926765107096832,2022-02-15-12:06:05,10.1.1.2,35,-0.070,-0.070,-0.070,0.000,0.000,0.000
1644926765145356032,2022-02-15-12:06:05,10.1.1.2,25,-0.060,-0.060,-0.060,0.000,0.000,0.000
1644926765205025024,2022-02-15-12:06:05,10.1.1.2,32,-0.050,-0.050,-0.050,0.000,0.000,0.000
1644926765247651072,2022-02-15-12:06:05,10.1.1.2,22,-0.040,-0.040,-0.040,0.000,0.000,0.000
1644926765305732096,2022-02-15-12:06:05,10.1.1.2,31,-0.030,-0.030,-0.030,0.000,0.000,0.000
1644926765346429952,2022-02-15-12:06:05,10.1.1.2,20,-0.020,-0.020,-0.020,0.000,0.000,0.000
1644926765405175040,2022-02-15-12:06:05,10.1.1.2,28,-0.010,-0.010,-0.010,0.000,0.000,0.000
1644926765465387008,2022-02-15-12:06:05,10.1.1.2,38,0.000,0.000,0.000,0.000,0.000,0.000
1644926765506611968,2022-02-15-12:06:05,10.1.1.2,28,0.010,0.010,0.010,0.000,0.000,0.000
1644926765564476928,2022-02-15-12:06:05,10.1.1.2,37,0.020,0.020,0.020,0.000,0.000,0.000
1644926765607158016,2022-02-15-12:06:05,10.1.1.2,26,0.030,0.030,0.030,0.000,0.000,0.000
1644926765664303104,2022-02-15-12:06:05,10.1.1.2,35,0.040,0.040,0.040,0.000,0.000,0.000
1644926765707421952,2022-02-15-12:06:05,10.1.1.2,22,0.050,0.050,0.050,0.000,0.000,0.000
1644926765766647040,2022-02-15-12:06:05,10.1.1.2,31,0.060,0.060,0.060,0.000,0.000,0.000
1644926765805534976,2022-02-15-12:06:05,10.1.1.2,21,0.070,0.070,0.070,0.000,0.000,0.000
1644926765866321920,2022-02-15-12:06:05,10.1.1.2,30,0.080,0.080,0.080,0.000,0.000,0.000
1644926765906243072,2022-02-15-12:06:05,10.1.1.2,19,0.089,0.089,0.089,0.000,0.000,0.000
1644926765967799040,2022-02-15-12:06:05,10.1.1.2,28,0.100,0.100,0.100,0.000,0.000,0.000
1644926766025176064,2022-02-15-12:06:06,10.1.1.2,38,0.090,0.090,0.090,0.000,0.000,0.000
1644926766067795968,2022-02-15-12:06:06,10.1.1.2,28,0.080,0.080,0.080,0.000,0.000,0.000
1644926766124523008,2022-02-15-12:06:06,10.1.1.2,37,0.070,0.070,0.070,0.000,0.000,0.000
1644926766165816064,2022-02-15-12:06:06,10.1.1.2,26,0.060,0.060,0.060,0.000,0.000,0.000
1644926766226918912,2022-02-15-12:06:06,10.1.1.2,33,0.050,0.050,0.050,0.000,0.000,0.000
1644926766266563840,2022-02-15-12:06:06,10.1.1.2,23,0.040,0.040,0.040,0.000,0.000,0.000
1644926766325426944,2022-02-15-12:06:06,10.1.1.2,33,0.030,0.030,0.030,0.000,0.000,0.000
1644926766367471104,2022-02-15-12:06:06,10.1.1.2,22,0.020,0.020,0.020,0.000,0.000,0.000
1644926766427017984,2022-02-15-12:06:06,10.1.1.2,32,0.010,0.010,0.010,0.000,0.000,0.000
1644926766464238848,2022-02-15-12:06:06,10.1.1.2,21,0.000,0.000,0.000,0.000,0.000,0.000
1644926766526420224,2022-02-15-12:06:06,10.1.1.2,31,-0.010,-0.010,-0.010,0.000,0.000,0.000
1644926766567110912,2022-02-15-12:06:06,10.1.1.2,20,-0.020,-0.020,-0.020,0.000,0.000,0.000
1644926766627939072,2022-02-15-12:06:06,10.1.1.2,29,-0.030,-0.030,-0.030,0.000,0.000,0.000
1644926766685286912,2022-02-15-12:06:06,10.1.1.2,39,-0.040,-0.040,-0.040,0.000,0.000,0.000
1644926766726957056,2022-02-15-12:06:06,10.1.1.2,26,-0.050,-0.050,-0.050,0.000,0.000,0.000
1644926766784601856,2022-02-15-12:06:06,10.1.1.2,35,-0.060,-0.060,-0.060,0.000,0.000,0.000
1644926766827412992,2022-02-15-12:06:06,10.1.1.2,25,-0.070,-0.070,-0.070,0.000,0.000,0.000
1644926766887876096,2022-02-15-12:06:06,10.1.1.2,33,-0.080,-0.080,-0.080,0.000,0.000,0.000
1644926766928301056,2022-02-15-12:06:06,10.1.1.2,22,-0.090,-0.090,-0.090,0.000,0.000,0.000
1644926766988704000,2022-02-15-12:06:06,10.1.1.2,32,-0.100,-0.100,-0.100,0.000,0.000,0.000
1644926767028316928,2022-02-15-12:06:07,10.1.1.2,21,-0.090,-0.090,-0.090,0.000,0.000,0.000
1644926767086883072,2022-02-15-12:06:07,10.1.1.2,31,-0.080,-0.080,-0.080,0.000,0.000,0.000
1644926767127884032,2022-02-15-12:06:07,10.1.1.2,20,-0.070,-0.070,-0.070,0.000,0.000,0.000
1644926767184660992,2022-02-15-12:06:07,10.1.1.2,30,-0.060,-0.060,-0.060,0.000,0.000,0.000
1644926767244685824,2022-02-15-12:06:07,10.1.1.2,38,-0.050,-0.050,-0.050,0.000,0.000,0.000
1644926767349832960,2022-02-15-12:06:07,10.1.1.2,27,-0.030,-0.030,-0.030,0.000,0.000,0.000
1644926767405283840,2022-02-15-12:06:07,10.1.1.2,32,-0.020,-0.020,-0.020,0.000,0.000,0.000
1644926767444564224,2022-02-15-12:06:07,10.1.1.2,22,-0.010,-0.010,-0.010,0.000,0.000,0.000
1644926767504983808,2022-02-15-12:06:07,10.1.1.2,31,0.000,0.000,0.000,0.000,0.000,0.000
1644926767545190144,2022-02-15-12:06:07,10.1.1.2,20,0.010,0.010,0.010,0.000,0.000,0.000
1644926767605614848,2022-02-15-12:06:07,10.1.1.2,29,0.020,0.020,0.020,0.000,0.000,0.000
1644926767664428032,2022-02-15-12:06:07,10.1.1.2,38,0.030,0.030,0.030,0.000,0.000,0.000
1644926767709352960,2022-02-15-12:06:07,10.1.1.2,28,0.040,0.040,0.040,0.000,0.000,0.000
1644926767764809984,2022-02-15-12:06:07,10.1.1.2,36,0.050,0.050,0.050,0.000,0.000,0.000
1644926767806607104,2022-02-15-12:06:07,10.1.1.2,25,0.060,0.060,0.060,0.000,0.000,0.000
1644926767864482048,2022-02-15-12:06:07,10.1.1.2,34,0.070,0.070,0.070,0.000,0.000,0.000
1644926767907522048,2022-02-15-12:06:07,10.1.1.2,23,0.080,0.080,0.080,0.000,0.000,0.000
1644926767964675072,2022-02-15-12:06:07,10.1.1.2,33,0.090,0.090,0.090,0.000,0.000,0.000
1644926768004847104,2022-02-15-12:06:08,10.1.1.2,22,0.100,0.100,0.100,0.000,0.000,0.000
1644926768065990912,2022-02-15-12:06:08,10.1.1.2,32,0.090,0.090,0.090,0.000,0.000,0.000
1644926768104634112,2022-02-15-12:06:08,10.1.1.2,21,0.080,0.080,0.080,0.000,0.000,0.000
1644926768165303040,2022-02-15-12:06:08,10.1.1.2,31,0.070,0.070,0.070,0.000,0.000,0.000
1644926768204480000,2022-02-15-12:06:08,10.1.1.2,21,0.060,0.060,0.060,0.000,0.000,0.000
1644926768265121024,2022-02-15-12:06:08,10.1.1.2,30,0.050,0.050,0.050,0.000,0.000,0.000
1644926768304535040,2022-02-15-12:06:08,10.1.1.2,20,0.040,0.040,0.040,0.000,0.000,0.000
1644926768365297920,2022-02-15-12:06:08,10.1.1.2,30,0.030,0.030,0.030,0.000,0.000,0.000
1644926768405117952,2022-02-15-12:06:08,10.1.1.2,19,0.020,0.020,0.020,0.000,0.000,0.000
1644926768464993024,2022-02-15-12:06:08,10.1.1.2,28,0.010,0.010,0.010,0.000,0.000,0.000
1644926768524916992,2022-02-15-12:06:08,10.1.1.2,38,0.000,0.000,0.000,0.000,0.000,0.000
1644926768564517888,2022-02-15-12:06:08,10.1.1.2,28,-0.010,-0.010,-0.010,0.000,0.000,0.000
1644926768625238784,2022-02-15-12:06:08,10.1.1.2,37,-0.020,-0.020,-0.020,0.000,0.000,0.000
1644926768667756032,2022-02-15-12:06:08,10.1.1.2,27,-0.030,-0.030,-0.030,0.000,0.000,0.000
1644926768724939008,2022-02-15-12:06:08,10.1.1.2,36,-0.040,-0.040,-0.040,0.000,0.000,0.000
1644926768764760064,2022-02-15-12:06:08,10.1.1.2,26,-0.050,-0.050,-0.050,0.000,0.000,0.000
1644926768824472064,2022-02-15-12:06:08,10.1.1.2,35,-0.060,-0.060,-0.060,0.000,0.000,0.000
1644926768866406912,2022-02-15-12:06:08,10.1.1.2,25,-0.070,-0.070,-0.070,0.000,0.000,0.000
1644926768924434944,2022-02-15-12:06:08,10.1.1.2,34,-0.080,-0.080,-0.080,0.000,0.000,0.000
1644926768967500800,2022-02-15-12:06:08,10.1.1.2,24,-0.090,-0.090,-0.090,0.000,0.000,0.000
1644926769028440832,2022-02-15-12:06:09,10.1.1.2,34,-0.100,-0.100,-0.100,0.000,0.000,0.000
1644926769064601856,2022-02-15-12:06:09,10.1.1.2,22,-0.090,-0.090,-0.090,0.000,0.000,0.000
1644926769124988160,2022-02-15-12:06:09,10.1.1.2,32,-0.080,-0.080,-0.080,0.000,0.000,0.000
1644926769164635904,2022-02-15-12:06:09,10.1.1.2,22,-0.070,-0.070,-0.070,0.000,0.000,0.000
1644926769224900864,2022-02-15-12:06:09,10.1.1.2,31,-0.060,-0.060,-0.060,0.000,0.000,0.000
1644926769264687104,2022-02-15-12:06:09,10.1.1.2,20,-0.050,-0.050,-0.050,0.000,0.000,0.000
1644926769325062144,2022-02-15-12:06:09,10.1.1.2,29,-0.040,-0.040,-0.040,0.000,0.000,0.000
1644926769366342144,2022-02-15-12:06:09,10.1.1.2,19,-0.031,-0.031,-0.031,0.000,0.000,0.000
1644926769424599808,2022-02-15-12:06:09,10.1.1.2,28,-0.020,-0.020,-0.020,0.000,0.000,0.000
1644926769488448000,2022-02-15-12:06:09,10.1.1.2,38,-0.010,-0.010,-0.010,0.000,0.000,0.000
1644926769526720000,2022-02-15-12:06:09,10.1.1.2,27,0.000,0.000,0.000,0.000,0.000,0.000
1644926769587558912,2022-02-15-12:06:09,10.1.1.2,37,0.010,0.010,0.010,0.000,0.000,0.000
1644926769624692992,2022-02-15-12:06:09,10.1.1.2,26,0.020,0.020,0.020,0.000,0.000,0.000
1644926769687431168,2022-02-15-12:06:09,10.1.1.2,36,0.030,0.030,0.030,0.000,0.000,0.000
1644926769727490048,2022-02-15-12:06:09,10.1.1.2,26,0.040,0.040,0.040,0.000,0.000,0.000
1644926769787638016,2022-02-15-12:06:09,10.1.1.2,35,0.050,0.050,0.050,0.000,0.000,0.000
1644926769826755072,2022-02-15-12:06:09,10.1.1.2,22,0.060,0.060,0.060,0.000,0.000,0.000
1644926769889336064,2022-02-15-12:06:09,10.1.1.2,32,0.070,0.070,0.070,0.000,0.000,0.000
1644926769927293952,2022-02-15-12:06:09,10.1.1.2,21,0.080,0.080,0.080,0.000,0.000,0.000
1644926769986802944,2022-02-15-12:06:09,10.1.1.2,31,0.090,0.090,0.090,0.000,0.000,0.000
1644926770027220992,2022-02-15-12:06:10,10.1.1.2,20,0.100,0.100,0.100,0.000,0.000,0.000
1644926770086958848,2022-02-15-12:06:10,10.1.1.2,30,0.090,0.090,0.090,0.000,0.000,0.000
1644926770145314048,2022-02-15-12:06:10,10.1.1.2,38,0.080,0.080,0.080,0.000,0.000,0.000
1644926770187470080,2022-02-15-12:06:10,10.1.1.2,28,0.070,0.070,0.070,0.000,0.000,0.000
1644926770247296000,2022-02-15-12:06:10,10.1.1.2,38,0.060,0.060,0.060,0.000,0.000,0.000
1644926770404987136,2022-02-15-12:06:10,10.1.1.2,20,0.040,0.040,0.040,0.000,0.000,0.000
1644926770464453888,2022-02-15-12:06:10,10.1.1.2,28,0.030,0.030,0.030,0.000,0.000,0.000
1644926770525036032,2022-02-15-12:06:10,10.1.1.2,38,0.020,0.020,0.020,0.000,0.000,0.000
1644926770564709888,2022-02-15-12:06:10,10.1.1.2,27,0.010,0.010,0.010,0.000,0.000,0.000
1644926770626482944,2022-02-15-12:06:10,10.1.1.2,37,0.000,0.000,0.000,0.000,0.000,0.000
1644926770664359168,2022-02-15-12:06:10,10.1.1.2,26,-0.010,-0.010,-0.010,0.000,0.000,0.000
1644926770726676992,2022-02-15-12:06:10,10.1.1.2,35,-0.020,-0.020,-0.020,0.000,0.000,0.000
1644926770764445952,2022-02-15-12:06:10,10.1.1.2,23,-0.030,-0.030,-0.030,0.000,0.000,0.000
1644926770826215936,2022-02-15-12:06:10,10.1.1.2,32,-0.040,-0.040,-0.040,0.000,0.000,0.000
1644926770865088000,2022-02-15-12:06:10,10.1.1.2,21,-0.050,-0.050,-0.050,0.000,0.000,0.000
1644926770925757952,2022-02-15-12:06:10,10.1.1.2,31,-0.060,-0.060,-0.060,0.000,0.000,0.000
1644926770965432832,2022-02-15-12:06:10,10.1.1.2,20,-0.070,-0.070,-0.070,0.000,0.000,0.000
1644926771024624128,2022-02-15-12:06:11,10.1.1.2,29,-0.080,-0.080,-0.080,0.000,0.000,0.000
1644926771085135872,2022-02-15-12:06:11,10.1.1.2,38,-0.090,-0.090,-0.090,0.000,0.000,0.000
1644926771124259840,2022-02-15-12:06:11,10.1.1.2,27,-0.100,-0.100,-0.100,0.000,0.000,0.000
1644926771184787968,2022-02-15-12:06:11,10.1.1.2,37,-0.090,-0.090,-0.090,0.000,0.000,0.000
1644926771225330944,2022-02-15-12:06:11,10.1.1.2,26,-0.080,-0.080,-0.080,0.000,0.000,0.000
1644926771287612928,2022-02-15-12:06:11,10.1.1.2,35,-0.070,-0.070,-0.070,0.000,0.000,0.000
1644926771326227968,2022-02-15-12:06:11,10.1.1.2,25,-0.060,-0.060,-0.060,0.000,0.000,0.000
1644926771385113088,2022-02-15-12:06:11,10.1.1.2,34,-0.050,-0.050,-0.050,0.000,0.000,0.000
1644926771424352768,2022-02-15-12:06:11,10.1.1.2,23,-0.040,-0.040,-0.040,0.000,0.000,0.000
1644926771485396992,2022-02-15-12:06:11,10.1.1.2,33,-0.030,-0.030,-0.030,0.000,0.000,0.000
1644926771526789888,2022-02-15-12:06:11,10.1.1.2,22,-0.020,-0.020,-0.020,0.000,0.000,0.000
1644926771584624128,2022-02-15-12:06:11,10.1.1.2,32,-0.010,-0.010,-0.010,0.000,0.000,0.000
1644926771626233088,2022-02-15-12:06:11,10.1.1.2,22,0.000,0.000,0.000,0.000,0.000,0.000
1644926771686196992,2022-02-15-12:06:11,10.1.1.2,31,0.010,0.010,0.010,0.000,0.000,0.000
1644926771724754176,2022-02-15-12:06:11,10.1.1.2,20,0.020,0.020,0.020,0.000,0.000,0.000
1644926771785283072,2022-02-15-12:06:11,10.1.1.2,30,0.030,0.030,0.030,0.000,0.000,0.000
1644926771831394816,2022-02-15-12:06:11,10.1.1.2,19,0.040,0.040,0.040,0.000,0.000,0.000
1644926771964393984,2022-02-15-12:06:11,10.1.1.2,36,0.060,0.060,0.060,0.000,0.000,0.000
1644926772004971008,2022-02-15-12:06:12,10.1.1.2,26,0.070,0.070,0.070,0.000,0.000,0.000
1644926772065056000,2022-02-15-12:06:12,10.1.1.2,35,0.080,0.080,0.080,0.000,0.000,0.000
1644926772105067008,2022-02-15-12:06:12,10.1.1.2,25,0.090,0.090,0.090,0.000,0.000,0.000
1644926772165303040,2022-02-15-12:06:12,10.1.1.2,32,0.100,0.100,0.100,0.000,0.000,0.000
1644926772204783872,2022-02-15-12:06:12,10.1.1.2,21,0.090,0.090,0.090,0.000,0.000,0.000
1644926772265170944,2022-02-15-12:06:12,10.1.1.2,30,0.080,0.080,0.080,0.000,0.000,0.000
1644926772304614912,2022-02-15-12:06:12,10.1.1.2,20,0.070,0.070,0.070,0.000,0.000,0.000
1644926772364717056,2022-02-15-12:06:12,10.1.1.2,29,0.060,0.060,0.060,0.000,0.000,0.000
1644926772404738048,2022-02-15-12:06:12,10.1.1.2,18,0.051,0.051,0.051,0.000,0.000,0.000
1644926772464732928,2022-02-15-12:06:12,10.1.1.2,28,0.040,0.040,0.040,0.000,0.000,0.000
1644926772524823808,2022-02-15-12:06:12,10.1.1.2,38,0.030,0.030,0.030,0.000,0.000,0.000
1644926772565046016,2022-02-15-12:06:12,10.1.1.2,27,0.020,0.020,0.020,0.000,0.000,0.000
1644926772626754048,2022-02-15-12:06:12,10.1.1.2,37,0.010,0.010,0.010,0.000,0.000,0.000
1644926772666368000,2022-02-15-12:06:12,10.1.1.2,26,0.000,0.000,0.000,0.000,0.000,0.000
1644926772724772864,2022-02-15-12:06:12,10.1.1.2,36,-0.010,-0.010,-0.010,0.000,0.000,0.000
1644926772766755072,2022-02-15-12:06:12,10.1.1.2,25,-0.020,-0.020,-0.020,0.000,0.000,0.000
1644926772826423808,2022-02-15-12:06:12,10.1.1.2,35,-0.030,-0.030,-0.030,0.000,0.000,0.000
1644926772866221824,2022-02-15-12:06:12,10.1.1.2,24,-0.040,-0.040,-0.040,0.000,0.000,0.000
1644926772925088000,2022-02-15-12:06:12,10.1.1.2,33,-0.050,-0.050,-0.050,0.000,0.000,0.000
1644926772964234240,2022-02-15-12:06:12,10.1.1.2,23,-0.060,-0.060,-0.060,0.000,0.000,0.000
1644926773027240960,2022-02-15-12:06:13,10.1.1.2,32,-0.070,-0.070,-0.070,0.000,0.000,0.000
1644926773066964992,2022-02-15-12:06:13,10.1.1.2,21,-0.080,-0.080,-0.080,0.000,0.000,0.000
1644926773126978048,2022-02-15-12:06:13,10.1.1.2,31,-0.090,-0.090,-0.090,0.000,0.000,0.000
1644926773164871936,2022-02-15-12:06:13,10.1.1.2,20,-0.100,-0.100,-0.100,0.000,0.000,0.000
1644926773227418880,2022-02-15-12:06:13,10.1.1.2,30,-0.090,-0.090,-0.090,0.000,0.000,0.000
1644926773264600064,2022-02-15-12:06:13,10.1.1.2,19,-0.080,-0.080,-0.080,0.000,0.000,0.000
1644926773325465856,2022-02-15-12:06:13,10.1.1.2,29,-0.070,-0.070,-0.070,0.000,0.000,0.000
1644926773384669184,2022-02-15-12:06:13,10.1.1.2,38,-0.060,-0.060,-0.060,0.000,0.000,0.000
1644926773424891904,2022-02-15-12:06:13,10.1.1.2,28,-0.050,-0.050,-0.050,0.000,0.000,0.000
1644926773485132032,2022-02-15-12:06:13,10.1.1.2,37,-0.040,-0.040,-0.040,0.000,0.000,0.000
1644926773524840960,2022-02-15-12:06:13,10.1.1.2,27,-0.030,-0.030,-0.030,0.000,0.000,0.000
1644926773584706048,2022-02-15-12:06:13,10.1.1.2,37,-0.020,-0.020,-0.020,0.000,0.000,0.000
1644926773625004032,2022-02-15-12:06:13,10.1.1.2,26,-0.010,-0.010,-0.010,0.000,0.000,0.000
1644926773685373184,2022-02-15-12:06:13,10.1.1.2,36,0.000,0.000,0.000,0.000,0.000,0.000
1644926773726855936,2022-02-15-12:06:13,10.1.1.2,24,0.010,0.010,0.010,0.000,0.000,0.000
1644926773786014208,2022-02-15-12:06:13,10.1.1.2,33,0.020,0.020,0.020,0.000,0.000,0.000
1644926773825118976,2022-02-15-12:06:13,10.1.1.2,23,0.030,0.030,0.030,0.000,0.000,0.000
1644926773885036032,2022-02-15-12:06:13,10.1.1.2,32,0.040,0.040,0.040,0.000,0.000,0.000
1644926773925071104,2022-02-15-12:06:13,10.1.1.2,22,0.050,0.050,0.050,0.000,0.000,0.000
1644926773985091072,2022-02-15-12:06:13,10.1.1.2,31,0.060,0.060,0.060,0.000,0.000,0.000
1644926774025108992,2022-02-15-12:06:14,10.1.1.2,21,0.070,0.070,0.070,0.000,0.000,0.000
1644926774087778048,2022-02-15-12:06:14,10.1.1.2,31,0.080,0.080,0.080,0.000,0.000,0.000
1644926774185091072,2022-02-15-12:06:14,10.1.1.2,29,0.100,0.100,0.100,0.000,0.000,0.000
1644926774245352960,2022-02-15-12:06:14,10.1.1.2,38,0.090,0.090,0.090,0.000,0.000,0.000
1644926774284805120,2022-02-15-12:06:14,10.1.1.2,26,0.080,0.080,0.080,0.000,0.000,0.000
1644926774307048192,2022-02-15-12:06:14,10.1.1.2,-5,0.080,0.080,0.080,0.000,0.000,0.000
1644926774384238080,2022-02-15-12:06:14,10.1.1.2,22,0.060,0.060,0.060,0.000,0.000,0.000
1644926774445030912,2022-02-15-12:06:14,10.1.1.2,32,0.050,0.050,0.050,0.000,0.000,0.000
1644926774486031104,2022-02-15-12:06:14,10.1.1.2,20,0.040,0.040,0.040,0.000,0.000,0.000
1644926774544975104,2022-02-15-12:06:14,10.1.1.2,29,0.030,0.030,0.030,0.000,0.000,0.000
1644926774607172864,2022-02-15-12:06:14,10.1.1.2,37,0.020,0.020,0.020,0.000,0.000,0.000
1644926774647507968,2022-02-15-12:06:14,10.1.1.2,27,0.010,0.010,0.010,0.000,0.000,0.000
1644926774704771072,2022-02-15-12:06:14,10.1.1.2,36,0.000,0.000,0.000,0.000,0.000,0.000
1644926774744636160,2022-02-15-12:06:14,10.1.1.2,25,-0.010,-0.010,-0.010,0.000,0.000,0.000
1644926774804889856,2022-02-15-12:06:14,10.1.1.2,33,-0.020,-0.020,-0.020,0.000,0.000,0.000
1644926774847331072,2022-02-15-12:06:14,10.1.1.2,22,-0.030,-0.030,-0.030,0.000,0.000,0.000
1644926774904561152,2022-02-15-12:06:14,10.1.1.2,32,-0.040,-0.040,-0.040,0.000,0.000,0.000
1644926774946924032,2022-02-15-12:06:14,10.1.1.2,21,-0.050,-0.050,-0.050,0.000,0.000,0.000
1644926775005896192,2022-02-15-12:06:15,10.1.1.2,31,-0.060,-0.060,-0.060,0.000,0.000,0.000
1644926775046475776,2022-02-15-12:06:15,10.1.1.2,20,-0.070,-0.070,-0.070,0.000,0.000,0.000
1644926775104548864,2022-02-15-12:06:15,10.1.1.2,28,-0.080,-0.080,-0.080,0.000,0.000,0.000
1644926775164320000,2022-02-15-12:06:15,10.1.1.2,38,-0.090,-0.090,-0.090,0.000,0.000,0.000
1644926775205153024,2022-02-15-12:06:15,10.1.1.2,27,-0.100,-0.100,-0.100,0.000,0.000,0.000
1644926775264980992,2022-02-15-12:06:15,10.1.1.2,36,-0.090,-0.090,-0.090,0.000,0.000,0.000
1644926775306824960,2022-02-15-12:06:15,10.1.1.2,25,-0.080,-0.080,-0.080,0.000,0.000,0.000
1644926775364887040,2022-02-15-12:06:15,10.1.1.2,33,-0.070,-0.070,-0.070,0.000,0.000,0.000
1644926775404763904,2022-02-15-12:06:15,10.1.1.2,23,-0.060,-0.060,-0.060,0.000,0.000,0.000
1644926775464782080,2022-02-15-12:06:15,10.1.1.2,32,-0.050,-0.050,-0.050,0.000,0.000,0.000
1644926775505146880,2022-02-15-12:06:15,10.1.1.2,21,-0.040,-0.040,-0.040,0.000,0.000,0.000
1644926775565211136,2022-02-15-12:06:15,10.1.1.2,31,-0.030,-0.030,-0.030,0.000,0.000,0.000
1644926775605565184,2022-02-15-12:06:15,10.1.1.2,21,-0.020,-0.020,-0.020,0.000,0.000,0.000
1644926775664225024,2022-02-15-12:06:15,10.1.1.2,29,-0.010,-0.010,-0.010,0.000,0.000,0.000
1644926775706478080,2022-02-15-12:06:15,10.1.1.2,19,-0.001,-0.001,-0.001,0.000,0.000,0.000
1644926775764662016,2022-02-15-12:06:15,10.1.1.2,28,0.010,0.010,0.010,0.000,0.000,0.000
1644926775825985792,2022-02-15-12:06:15,10.1.1.2,38,0.020,0.020,0.020,0.000,0.000,0.000
1644926775864884992,2022-02-15-12:06:15,10.1.1.2,26,0.030,0.030,0.030,0.000,0.000,0.000
1644926775924743936,2022-02-15-12:06:15,10.1.1.2,35,0.040,0.040,0.040,0.000,0.000,0.000
1644926775964325888,2022-02-15-12:06:15,10.1.1.2,24,0.050,0.050,0.050,0.000,0.000,0.000
1644926776026430976,2022-02-15-12:06:16,10.1.1.2,33,0.060,0.060,0.060,0.000,0.000,0.000
1644926776066510080,2022-02-15-12:06:16,10.1.1.2,23,0.070,0.070,0.070,0.000,0.000,0.000
1644926776126003968,2022-02-15-12:06:16,10.1.1.2,32,0.080,0.080,0.080,0.000,0.000,0.000
1644926776165894912,2022-02-15-12:06:16,10.1.1.2,22,0.090,0.090,0.090,0.000,0.000,0.000
1644926776225303808,2022-02-15-12:06:16,10.1.1.2,31,0.100,0.100,0.100,0.000,0.000,0.000
1644926776266306048,2022-02-15-12:06:16,10.1.1.2,21,0.090,0.090,0.090,0.000,0.000,0.000
1644926776326337024,2022-02-15-12:06:16,10.1.1.2,29,0.080,0.080,0.080,0.000,0.000,0.000
1644926776386630144,2022-02-15-12:06:16,10.1.1.2,38,0.070,0.070,0.070,0.000,0.000,0.000
1644926776426322944,2022-02-15-12:06:16,10.1.1.2,28,0.060,0.060,0.060,0.000,0.000,0.000
1644926776486012928,2022-02-15-12:06:16,10.1.1.2,37,0.050,0.050,0.050,0.000,0.000,0.000
1644926776527173120,2022-02-15-12:06:16,10.1.1.2,26,0.040,0.040,0.040,0.000,0.000,0.000
1644926776585105920,2022-02-15-12:06:16,10.1.1.2,35,0.030,0.030,0.030,0.000,0.000,0.000
1644926776625790208,2022-02-15-12:06:16,10.1.1.2,25,0.020,0.020,0.020,0.000,0.000,0.000
1644926776686163968,2022-02-15-12:06:16,10.1.1.2,34,0.010,0.010,0.010,0.000,0.000,0.000
1644926776724219136,2022-02-15-12:06:16,10.1.1.2,23,0.000,0.000,0.000,0.000,0.000,0.000
1644926776785075968,2022-02-15-12:06:16,10.1.1.2,33,-0.010,-0.010,-0.010,0.000,0.000,0.000
1644926776827457792,2022-02-15-12:06:16,10.1.1.2,22,-0.020,-0.020,-0.020,0.000,0.000,0.000
1644926776885370112,2022-02-15-12:06:16,10.1.1.2,31,-0.030,-0.030,-0.030,0.000,0.000,0.000
1644926776925265152,2022-02-15-12:06:16,10.1.1.2,21,-0.040,-0.040,-0.040,0.000,0.000,0.000
1644926776985433088,2022-02-15-12:06:16,10.1.1.2,30,-0.050,-0.050,-0.050,0.000,0.000,0.000
1644926777025580800,2022-02-15-12:06:17,10.1.1.2,19,-0.060,-0.060,-0.060,0.000,0.000,0.000
1644926777085285888,2022-02-15-12:06:17,10.1.1.2,28,-0.070,-0.070,-0.070,0.000,0.000,0.000
1644926777145138944,2022-02-15-12:06:17,10.1.1.2,37,-0.080,-0.080,-0.080,0.000,0.000,0.000
1644926777189678080,2022-02-15-12:06:17,10.1.1.2,26,-0.090,-0.090,-0.090,0.000,0.000,0.000
1644926777245424128,2022-02-15-12:06:17,10.1.1.2,33,-0.100,-0.100,-0.100,0.000,0.000,0.000
1644926777287138816,2022-02-15-12:06:17,10.1.1.2,20,-0.090,-0.090,-0.090,0.000,0.000,0.000
1644926777348158976,2022-02-15-12:06:17,10.1.1.2,29,-0.080,-0.080,-0.080,0.000,0.000,0.000
1644926777405415936,2022-02-15-12:06:17,10.1.1.2,38,-0.070,-0.070,-0.070,0.000,0.000,0.000
1644926777444505856,2022-02-15-12:06:17,10.1.1.2,26,-0.060,-0.060,-0.060,0.000,0.000,0.000
1644926777507499008,2022-02-15-12:06:17,10.1.1.2,35,-0.050,-0.050,-0.050,0.000,0.000,0.000
1644926777544655104,2022-02-15-12:06:17,10.1.1.2,24,-0.040,-0.040,-0.040,0.000,0.000,0.000
1644926777604870144,2022-02-15-12:06:17,10.1.1.2,33,-0.030,-0.030,-0.030,0.000,0.000,0.000
1644926777645347072,2022-02-15-12:06:17,10.1.1.2,23,-0.020,-0.020,-0.020,0.000,0.000,0.000
1644926777705204992,2022-02-15-12:06:17,10.1.1.2,31,-0.010,-0.010,-0.010,0.000,0.000,0.000
1644926777765785088,2022-02-15-12:06:17,10.1.1.2,36,0.000,0.000,0.000,0.000,0.000,0.000
1644926777806031104,2022-02-15-12:06:17,10.1.1.2,25,0.010,0.010,0.010,0.000,0.000,0.000
1644926777865214208,2022-02-15-12:06:17,10.1.1.2,33,0.020,0.020,0.020,0.000,0.000,0.000
1644926777905481984,2022-02-15-12:06:17,10.1.1.2,22,0.030,0.030,0.030,0.000,0.000,0.000
1644926777965445120,2022-02-15-12:06:17,10.1.1.2,31,0.040,0.040,0.040,0.000,0.000,0.000
1644926778005513984,2022-02-15-12:06:18,10.1.1.2,20,0.050,0.050,0.050,0.000,0.000,0.000
1644926778065329920,2022-02-15-12:06:18,10.1.1.2,29,0.060,0.060,0.060,0.000,0.000,0.000
1644926778124512000,2022-02-15-12:06:18,10.1.1.2,38,0.070,0.070,0.070,0.000,0.000,0.000
1644926778164990976,2022-02-15-12:06:18,10.1.1.2,27,0.080,0.080,0.080,0.000,0.000,0.000
1644926778224894976,2022-02-15-12:06:18,10.1.1.2,37,0.090,0.090,0.090,0.000,0.000,0.000
1644926778265608960,2022-02-15-12:06:18,10.1.1.2,26,0.100,0.100,0.100,0.000,0.000,0.000
1644926778326055936,2022-02-15-12:06:18,10.1.1.2,36,0.090,0.090,0.090,0.000,0.000,0.000
1644926778364898048,2022-02-15-12:06:18,10.1.1.2,25,0.080,0.080,0.080,0.000,0.000,0.000
1644926778425435904,2022-02-15-12:06:18,10.1.1.2,35,0.070,0.070,0.070,0.000,0.000,0.000
1644926778464366848,2022-02-15-12:06:18,10.1.1.2,24,0.060,0.060,0.060,0.000,0.000,0.000
1644926778525063936,2022-02-15-12:06:18,10.1.1.2,34,0.050,0.050,0.050,0.000,0.000,0.000
1644926778565819136,2022-02-15-12:06:18,10.1.1.2,23,0.040,0.040,0.040,0.000,0.000,0.000
1644926778626044928,2022-02-15-12:06:18,10.1.1.2,32,0.030,0.030,0.030,0.000,0.000,0.000
1644926778665137152,2022-02-15-12:06:18,10.1.1.2,22,0.020,0.020,0.020,0.000,0.000,0.000
1644926778724711936,2022-02-15-12:06:18,10.1.1.2,32,0.010,0.010,0.010,0.000,0.000,0.000
1644926778765424128,2022-02-15-12:06:18,10.1.1.2,21,0.000,0.000,0.000,0.000,0.000,0.000
1644926778826409216,2022-02-15-12:06:18,10.1.1.2,31,-0.010,-0.010,-0.010,0.000,0.000,0.000
1644926778865047808,2022-02-15-12:06:18,10.1.1.2,20,-0.020,-0.020,-0.020,0.000,0.000,0.000
1644926778924316928,2022-02-15-12:06:18,10.1.1.2,29,-0.030,-0.030,-0.030,0.000,0.000,0.000
1644926778965197056,2022-02-15-12:06:18,10.1.1.2,19,-0.040,-0.040,-0.040,0.000,0.000,0.000
1644926779024460032,2022-02-15-12:06:19,10.1.1.2,28,-0.050,-0.050,-0.050,0.000,0.000,0.000
1644926779084777216,2022-02-15-12:06:19,10.1.1.2,38,-0.060,-0.060,-0.060,0.000,0.000,0.000
1644926779125348096,2022-02-15-12:06:19,10.1.1.2,28,-0.070,-0.070,-0.070,0.000,0.000,0.000
1644926779184626944,2022-02-15-12:06:19,10.1.1.2,37,-0.080,-0.080,-0.080,0.000,0.000,0.000
1644926779225219840,2022-02-15-12:06:19,10.1.1.2,27,-0.090,-0.090,-0.090,0.000,0.000,0.000
1644926779285059840,2022-02-15-12:06:19,10.1.1.2,36,-0.100,-0.100,-0.100,0.000,0.000,0.000
1644926779325185024,2022-02-15-12:06:19,10.1.1.2,26,-0.090,-0.090,-0.090,0.000,0.000,0.000
1644926779384982016,2022-02-15-12:06:19,10.1.1.2,36,-0.080,-0.080,-0.080,0.000,0.000,0.000
1644926779425432064,2022-02-15-12:06:19,10.1.1.2,25,-0.070,-0.070,-0.070,0.000,0.000,0.000
1644926779485081856,2022-02-15-12:06:19,10.1.1.2,34,-0.060,-0.060,-0.060,0.000,0.000,0.000
1644926779524622080,2022-02-15-12:06:19,10.1.1.2,24,-0.050,-0.050,-0.050,0.000,0.000,0.000
1644926779585453056,2022-02-15-12:06:19,10.1.1.2,34,-0.040,-0.040,-0.040,0.000,0.000,0.000
1644926779625251072,2022-02-15-12:06:19,10.1.1.2,23,-0.030,-0.030,-0.030,0.000,0.000,0.000
1644926779685255168,2022-02-15-12:06:19,10.1.1.2,32,-0.020,-0.020,-0.020,0.000,0.000,0.000
1644926779725555968,2022-02-15-12:06:19,10.1.1.2,22,-0.010,-0.010,-0.010,0.000,0.000,0.000
1644926779784655104,2022-02-15-12:06:19,10.1.1.2,31,0.000,0.000,0.000,0.000,0.000,0.000
1644926779825150976,2022-02-15-12:06:19,10.1.1.2,21,0.010,0.010,0.010,0.000,0.000,0.000
1644926779885274880,2022-02-15-12:06:19,10.1.1.2,30,0.020,0.020,0.020,0.000,0.000,0.000
1644926779924745984,2022-02-15-12:06:19,10.1.1.2,19,0.030,0.030,0.030,0.000,0.000,0.000
1644926779984848896,2022-02-15-12:06:19,10.1.1.2,29,0.040,0.040,0.040,0.000,0.000,0.000
1644926780044500224,2022-02-15-12:06:20,10.1.1.2,38,0.050,0.050,0.050,0.000,0.000,0.000
1644926780084717056,2022-02-15-12:06:20,10.1.1.2,28,0.060,0.060,0.060,0.000,0.000,0.000
1644926780145543936,2022-02-15-12:06:20,10.1.1.2,34,0.070,0.070,0.070,0.000,0.000,0.000
1644926780185075968,2022-02-15-12:06:20,10.1.1.2,23,0.080,0.080,0.080,0.000,0.000,0.000
1644926780245352960,2022-02-15-12:06:20,10.1.1.2,32,0.090,0.090,0.090,0.000,0.000,0.000
1644926780285389056,2022-02-15-12:06:20,10.1.1.2,21,0.100,0.100,0.100,0.000,0.000,0.000
1644926780346829824,2022-02-15-12:06:20,10.1.1.2,28,0.090,0.090,0.090,0.000,0.000,0.000
1644926780544233984,2022-02-15-12:06:20,10.1.1.2,37,0.060,0.060,0.060,0.000,0.000,0.000
1644926780584806912,2022-02-15-12:06:20,10.1.1.2,27,0.050,0.050,0.050,0.000,0.000,0.000
1644926780645263872,2022-02-15-12:06:20,10.1.1.2,36,0.040,0.040,0.040,0.000,0.000,0.000
1644926780684772864,2022-02-15-12:06:20,10.1.1.2,26,0.030,0.030,0.030,0.000,0.000,0.000
1644926780744684032,2022-02-15-12:06:20,10.1.1.2,36,0.020,0.020,0.020,0.000,0.000,0.000
1644926780784564992,2022-02-15-12:06:20,10.1.1.2,25,0.010,0.010,0.010,0.000,0.000,0.000
1644926780844666880,2022-02-15-12:06:20,10.1.1.2,34,0.000,0.000,0.000,0.000,0.000,0.000
1644926780884546048,2022-02-15-12:06:20,10.1.1.2,23,-0.010,-0.010,-0.010,0.000,0.000,0.000
1644926780945067008,2022-02-15-12:06:20,10.1.1.2,33,-0.020,-0.020,-0.020,0.000,0.000,0.000
1644926780987056896,2022-02-15-12:06:20,10.1.1.2,23,-0.030,-0.030,-0.030,0.000,0.000,0.000
1644926781045277952,2022-02-15-12:06:21,10.1.1.2,32,-0.040,-0.040,-0.040,0.000,0.000,0.000
1644926781084323840,2022-02-15-12:06:21,10.1.1.2,21,-0.050,-0.050,-0.050,0.000,0.000,0.000
1644926781145271040,2022-02-15-12:06:21,10.1.1.2,30,-0.060,-0.060,-0.060,0.000,0.000,0.000
1644926781184510976,2022-02-15-12:06:21,10.1.1.2,20,-0.070,-0.070,-0.070,0.000,0.000,0.000
1644926781244791040,2022-02-15-12:06:21,10.1.1.2,29,-0.080,-0.080,-0.080,0.000,0.000,0.000
1644926781286672128,2022-02-15-12:06:21,10.1.1.2,19,-0.089,-0.089,-0.089,0.000,0.000,0.000
1644926781345181952,2022-02-15-12:06:21,10.1.1.2,28,-0.100,-0.100,-0.100,0.000,0.000,0.000
1644926781406252032,2022-02-15-12:06:21,10.1.1.2,31,-0.090,-0.090,-0.090,0.000,0.000,0.000
1644926781444772096,2022-02-15-12:06:21,10.1.1.2,20,-0.080,-0.080,-0.080,0.000,0.000,0.000
1644926781504964096,2022-02-15-12:06:21,10.1.1.2,22,-0.070,-0.070,-0.070,0.000,0.000,0.000
1644926781576678144,2022-02-15-12:06:21,10.1.1.2,-48,-0.070,-0.070,-0.070,0.000,0.000,0.000
1644926781666344960,2022-02-15-12:06:21,10.1.1.2,34,-0.050,-0.050,-0.050,0.000,0.000,0.000
1644926781706910976,2022-02-15-12:06:21,10.1.1.2,22,-0.040,-0.040,-0.040,0.000,0.000,0.000
1644926781768979200,2022-02-15-12:06:21,10.1.1.2,31,-0.030,-0.030,-0.030,0.000,0.000,0.000
1644926781806672128,2022-02-15-12:06:21,10.1.1.2,20,-0.020,-0.020,-0.020,0.000,0.000,0.000
1644926781866851072,2022-02-15-12:06:21,10.1.1.2,28,-0.010,-0.010,-0.010,0.000,0.000,0.000
1644926781926716160,2022-02-15-12:06:21,10.1.1.2,37,0.000,0.000,0.000,0.000,0.000,0.000
1644926781967756032,2022-02-15-12:06:21,10.1.1.2,26,0.010,0.010,0.010,0.000,0.000,0.000
1644926782069742848,2022-02-15-12:06:22,10.1.1.2,22,0.030,0.030,0.030,0.000,0.000,0.000
1644926782125299968,2022-02-15-12:06:22,10.1.1.2,32,0.040,0.040,0.040,0.000,0.000,0.000
1644926782166727168,2022-02-15-12:06:22,10.1.1.2,21,0.050,0.050,0.050,0.000,0.000,0.000
1644926782227049984,2022-02-15-12:06:22,10.1.1.2,31,0.060,0.060,0.060,0.000,0.000,0.000
1644926782267363072,2022-02-15-12:06:22,10.1.1.2,20,0.070,0.070,0.070,0.000,0.000,0.000
1644926782326734080,2022-02-15-12:06:22,10.1.1.2,30,0.080,0.080,0.080,0.000,0.000,0.000
1644926782366902016,2022-02-15-12:06:22,10.1.1.2,19,0.090,0.090,0.090,0.000,0.000,0.000
1644926782426232064,2022-02-15-12:06:22,10.1.1.2,29,0.100,0.100,0.100,0.000,0.000,0.000
1644926782486060032,2022-02-15-12:06:22,10.1.1.2,38,0.090,0.090,0.090,0.000,0.000,0.000
1644926782525679104,2022-02-15-12:06:22,10.1.1.2,28,0.080,0.080,0.080,0.000,0.000,0.000
1644926782585079040,2022-02-15-12:06:22,10.1.1.2,37,0.070,0.070,0.070,0.000,0.000,0.000
1644926782625054976,2022-02-15-12:06:22,10.1.1.2,27,0.060,0.060,0.060,0.000,0.000,0.000
1644926782686175232,2022-02-15-12:06:22,10.1.1.2,36,0.050,0.050,0.050,0.000,0.000,0.000
1644926782724997120,2022-02-15-12:06:22,10.1.1.2,25,0.040,0.040,0.040,0.000,0.000,0.000
1644926782786770944,2022-02-15-12:06:22,10.1.1.2,34,0.030,0.030,0.030,0.000,0.000,0.000
1644926782826477056,2022-02-15-12:06:22,10.1.1.2,23,0.020,0.020,0.020,0.000,0.000,0.000
1644926782887512832,2022-02-15-12:06:22,10.1.1.2,32,0.010,0.010,0.010,0.000,0.000,0.000
1644926782931515904,2022-02-15-12:06:22,10.1.1.2,21,0.000,0.000,0.000,0.000,0.000,0.000
1644926782984878080,2022-02-15-12:06:22,10.1.1.2,31,-0.010,-0.010,-0.010,0.000,0.000,0.000
1644926783027025920,2022-02-15-12:06:23,10.1.1.2,20,-0.020,-0.020,-0.020,0.000,0.000,0.000
1644926783086576896,2022-02-15-12:06:23,10.1.1.2,29,-0.030,-0.030,-0.030,0.000,0.000,0.000
1644926783127517952,2022-02-15-12:06:23,10.1.1.2,19,-0.039,-0.039,-0.039,0.000,0.000,0.000
1644926783187174912,2022-02-15-12:06:23,10.1.1.2,28,-0.050,-0.050,-0.050,0.000,0.000,0.000
1644926783246534144,2022-02-15-12:06:23,10.1.1.2,38,-0.060,-0.060,-0.060,0.000,0.000,0.000
1644926783284662016,2022-02-15-12:06:23,10.1.1.2,27,-0.070,-0.070,-0.070,0.000,0.000,0.000
1644926783344905984,2022-02-15-12:06:23,10.1.1.2,37,-0.080,-0.080,-0.080,0.000,0.000,0.000
1644926783386476032,2022-02-15-12:06:23,10.1.1.2,26,-0.090,-0.090,-0.090,0.000,0.000,0.000
1644926783444678144,2022-02-15-12:06:23,10.1.1.2,36,-0.100,-0.100,-0.100,0.000,0.000,0.000
1644926783490722048,2022-02-15-12:06:23,10.1.1.2,25,-0.090,-0.090,-0.090,0.000,0.000,0.000
1644926783546571008,2022-02-15-12:06:23,10.1.1.2,33,-0.080,-0.080,-0.080,0.000,0.000,0.000
1644926783585145088,2022-02-15-12:06:23,10.1.1.2,22,-0.070,-0.070,-0.070,0.000,0.000,0.000
1644926783644630016,2022-02-15-12:06:23,10.1.1.2,32,-0.060,-0.060,-0.060,0.000,0.000,0.000
1644926783687534080,2022-02-15-12:06:23,10.1.1.2,22,-0.050,-0.050,-0.050,0.000,0.000,0.000
1644926783749232128,2022-02-15-12:06:23,10.1.1.2,35,-0.040,-0.040,-0.040,0.000,0.000,0.000
1644926783784845056,2022-02-15-12:06:23,10.1.1.2,21,-0.030,-0.030,-0.030,0.000,0.000,0.000
1644926783844929024,2022-02-15-12:06:23,10.1.1.2,30,-0.020,-0.020,-0.020,0.000,0.000,0.000
1644926783885015040,2022-02-15-12:06:23,10.1.1.2,19,-0.011,-0.011,-0.011,0.000,0.000,0.000
1644926783945241856,2022-02-15-12:06:23,10.1.1.2,28,0.000,0.000,0.000,0.000,0.000,0.000
1644926784004771072,2022-02-15-12:06:24,10.1.1.2,38,0.010,0.010,0.010,0.000,0.000,0.000
1644926784046174976,2022-02-15-12:06:24,10.1.1.2,28,0.020,0.020,0.020,0.000,0.000,0.000
1644926784104643072,2022-02-15-12:06:24,10.1.1.2,37,0.030,0.030,0.030,0.000,0.000,0.000
1644926784144257024,2022-02-15-12:06:24,10.1.1.2,27,0.040,0.040,0.040,0.000,0.000,0.000
1644926784204816128,2022-02-15-12:06:24,10.1.1.2,36,0.050,0.050,0.050,0.000,0.000,0.000
1644926784244903936,2022-02-15-12:06:24,10.1.1.2,25,0.060,0.060,0.060,0.000,0.000,0.000
1644926784304302848,2022-02-15-12:06:24,10.1.1.2,34,0.070,0.070,0.070,0.000,0.000,0.000
1644926784346854912,2022-02-15-12:06:24,10.1.1.2,23,0.080,0.080,0.080,0.000,0.000,0.000
1644926784406963968,2022-02-15-12:06:24,10.1.1.2,33,0.090,0.090,0.090,0.000,0.000,0.000
1644926784444992000,2022-02-15-12:06:24,10.1.1.2,22,0.100,0.100,0.100,0.000,0.000,0.000
1644926784506401024,2022-02-15-12:06:24,10.1.1.2,32,0.090,0.090,0.090,0.000,0.000,0.000
1644926784545491968,2022-02-15-12:06:24,10.1.1.2,21,0.080,0.080,0.080,0.000,0.000,0.000
1644926784606308096,2022-02-15-12:06:24,10.1.1.2,31,0.070,0.070,0.070,0.000,0.000,0.000
1644926784644965888,2022-02-15-12:06:24,10.1.1.2,20,0.060,0.060,0.060,0.000,0.000,0.000
1644926784705116928,2022-02-15-12:06:24,10.1.1.2,30,0.050,0.050,0.050,0.000,0.000,0.000
1644926784745396992,2022-02-15-12:06:24,10.1.1.2,19,0.040,0.040,0.040,0.000,0.000,0.000
1644926784805680128,2022-02-15-12:06:24,10.1.1.2,29,0.030,0.030,0.030,0.000,0.000,0.000
1644926784864412928,2022-02-15-12:06:24,10.1.1.2,38,0.020,0.020,0.020,0.000,0.000,0.000
1644926784908286208,2022-02-15-12:06:24,10.1.1.2,28,0.010,0.010,0.010,0.000,0.000,0.000
1644926784964669952,2022-02-15-12:06:24,10.1.1.2,37,0.000,0.000,0.000,0.000,0.000,0.000
1644926785006347776,2022-02-15-12:06:25,10.1.1.2,26,-0.010,-0.010,-0.010,0.000,0.000,0.000
1644926785066283008,2022-02-15-12:06:25,10.1.1.2,36,-0.020,-0.020,-0.020,0.000,0.000,0.000
1644926785104826880,2022-02-15-12:06:25,10.1.1.2,25,-0.030,-0.030,-0.030,0.000,0.000,0.000
1644926785166316032,2022-02-15-12:06:25,10.1.1.2,35,-0.040,-0.040,-0.040,0.000,0.000,0.000
1644926785205188864,2022-02-15-12:06:25,10.1.1.2,24,-0.050,-0.050,-0.050,0.000,0.000,0.000
1644926785265271040,2022-02-15-12:06:25,10.1.1.2,34,-0.060,-0.060,-0.060,0.000,0.000,0.000
1644926785304555776,2022-02-15-12:06:25,10.1.1.2,23,-0.070,-0.070,-0.070,0.000,0.000,0.000
1644926785365096960,2022-02-15-12:06:25,10.1.1.2,33,-0.080,-0.080,-0.080,0.000,0.000,0.000
1644926785406033152,2022-02-15-12:06:25,10.1.1.2,22,-0.090,-0.090,-0.090,0.000,0.000,0.000
1644926785464647168,2022-02-15-12:06:25,10.1.1.2,32,-0.100,-0.100,-0.100,0.000,0.000,0.000
1644926785506711040,2022-02-15-12:06:25,10.1.1.2,22,-0.090,-0.090,-0.090,0.000,0.000,0.000
1644926785564829184,2022-02-15-12:06:25,10.1.1.2,31,-0.080,-0.080,-0.080,0.000,0.000,0.000
1644926785605495040,2022-02-15-12:06:25,10.1.1.2,21,-0.070,-0.070,-0.070,0.000,0.000,0.000
1644926785664936192,2022-02-15-12:06:25,10.1.1.2,30,-0.060,-0.060,-0.060,0.000,0.000,0.000
1644926785705329920,2022-02-15-12:06:25,10.1.1.2,20,-0.050,-0.050,-0.050,0.000,0.000,0.000
1644926785764393216,2022-02-15-12:06:25,10.1.1.2,30,-0.040,-0.040,-0.040,0.000,0.000,0.000
1644926785804737024,2022-02-15-12:06:25,10.1.1.2,19,-0.030,-0.030,-0.030,0.000,0.000,0.000
1644926785864983040,2022-02-15-12:06:25,10.1.1.2,29,-0.020,-0.020,-0.020,0.000,0.000,0.000
1644926785924563968,2022-02-15-12:06:25,10.1.1.2,38,-0.010,-0.010,-0.010,0.000,0.000,0.000
1644926785964443904,2022-02-15-12:06:25,10.1.1.2,28,0.000,0.000,0.000,0.000,0.000,0.000
1644926786025094912,2022-02-15-12:06:26,10.1.1.2,38,0.010,0.010,0.010,0.000,0.000,0.000
1644926786064758016,2022-02-15-12:06:26,10.1.1.2,27,0.020,0.020,0.020,0.000,0.000,0.000
1644926786125051136,2022-02-15-12:06:26,10.1.1.2,37,0.030,0.030,0.030,0.000,0.000,0.000
1644926786165081088,2022-02-15-12:06:26,10.1.1.2,26,0.040,0.040,0.040,0.000,0.000,0.000
1644926786224812032,2022-02-15-12:06:26,10.1.1.2,35,0.050,0.050,0.050,0.000,0.000,0.000
1644926786265240832,2022-02-15-12:06:26,10.1.1.2,25,0.060,0.060,0.060,0.000,0.000,0.000
1644926786325676800,2022-02-15-12:06:26,10.1.1.2,35,0.070,0.070,0.070,0.000,0.000,0.000
1644926786366638848,2022-02-15-12:06:26,10.1.1.2,24,0.080,0.080,0.080,0.000,0.000,0.000
1644926786425364992,2022-02-15-12:06:26,10.1.1.2,33,0.090,0.090,0.090,0.000,0.000,0.000
1644926786464664064,2022-02-15-12:06:26,10.1.1.2,22,0.100,0.100,0.100,0.000,0.000,0.000
1644926786524955136,2022-02-15-12:06:26,10.1.1.2,32,0.090,0.090,0.090,0.000,0.000,0.000
1644926786565326848,2022-02-15-12:06:26,10.1.1.2,22,0.080,0.080,0.080,0.000,0.000,0.000
1644926786629111040,2022-02-15-12:06:26,10.1.1.2,34,0.070,0.070,0.070,0.000,0.000,0.000
1644926786664398848,2022-02-15-12:06:26,10.1.1.2,20,0.060,0.060,0.060,0.000,0.000,0.000
1644926786724855040,2022-02-15-12:06:26,10.1.1.2,30,0.050,0.050,0.050,0.000,0.000,0.000
1644926786764276992,2022-02-15-12:06:26,10.1.1.2,20,0.040,0.040,0.040,0.000,0.000,0.000
1644926786825739008,2022-02-15-12:06:26,10.1.1.2,29,0.030,0.030,0.030,0.000,0.000,0.000
1644926786864772096,2022-02-15-12:06:26,10.1.1.2,18,0.021,0.021,0.021,0.000,0.000,0.000
1644926786925067776,2022-02-15-12:06:26,10.1.1.2,28,0.010,0.010,0.010,0.000,0.000,0.000
1644926786985042944,2022-02-15-12:06:26,10.1.1.2,38,0.000,0.000,0.000,0.000,0.000,0.000
1644926787025084928,2022-02-15-12:06:27,10.1.1.2,27,-0.010,-0.010,-0.010,0.000,0.000,0.000
1644926787084413952,2022-02-15-12:06:27,10.1.1.2,37,-0.020,-0.020,-0.020,0.000,0.000,0.000
1644926787124551936,2022-02-15-12:06:27,10.1.1.2,26,-0.030,-0.030,-0.030,0.000,0.000,0.000
1644926787186390016,2022-02-15-12:06:27,10.1.1.2,35,-0.040,-0.040,-0.040,0.000,0.000,0.000
1644926787225330176,2022-02-15-12:06:27,10.1.1.2,24,-0.050,-0.050,-0.050,0.000,0.000,0.000
1644926787284862976,2022-02-15-12:06:27,10.1.1.2,33,-0.060,-0.060,-0.060,0.000,0.000,0.000
1644926787324412160,2022-02-15-12:06:27,10.1.1.2,23,-0.070,-0.070,-0.070,0.000,0.000,0.000
1644926787384342784,2022-02-15-12:06:27,10.1.1.2,33,-0.080,-0.080,-0.080,0.000,0.000,0.000
1644926787424638976,2022-02-15-12:06:27,10.1.1.2,22,-0.090,-0.090,-0.090,0.000,0.000,0.000
1644926787485327104,2022-02-15-12:06:27,10.1.1.2,32,-0.100,-0.100,-0.100,0.000,0.000,0.000
1644926787524694016,2022-02-15-12:06:27,10.1.1.2,22,-0.090,-0.090,-0.090,0.000,0.000,0.000
1644926787585335040,2022-02-15-12:06:27,10.1.1.2,31,-0.080,-0.080,-0.080,0.000,0.000,0.000
1644926787625016832,2022-02-15-12:06:27,10.1.1.2,21,-0.070,-0.070,-0.070,0.000,0.000,0.000
1644926787685828096,2022-02-15-12:06:27,10.1.1.2,30,-0.060,-0.060,-0.060,0.000,0.000,0.000
1644926787727106048,2022-02-15-12:06:27,10.1.1.2,20,-0.050,-0.050,-0.050,0.000,0.000,0.000
1644926787786668032,2022-02-15-12:06:27,10.1.1.2,29,-0.040,-0.040,-0.040,0.000,0.000,0.000
1644926787846728960,2022-02-15-12:06:27,10.1.1.2,38,-0.030,-0.030,-0.030,0.000,0.000,0.000
1644926787884740096,2022-02-15-12:06:27,10.1.1.2,28,-0.020,-0.020,-0.020,0.000,0.000,0.000
1644926787945498880,2022-02-15-12:06:27,10.1.1.2,38,-0.010,-0.010,-0.010,0.000,0.000,0.000
1644926787985395968,2022-02-15-12:06:27,10.1.1.2,26,0.000,0.000,0.000,0.000,0.000,0.000
1644926788044934144,2022-02-15-12:06:28,10.1.1.2,35,0.010,0.010,0.010,0.000,0.000,0.000
1644926788085720064,2022-02-15-12:06:28,10.1.1.2,25,0.020,0.020,0.020,0.000,0.000,0.000
1644926788145628928,2022-02-15-12:06:28,10.1.1.2,35,0.030,0.030,0.030,0.000,0.000,0.000
1644926788184398848,2022-02-15-12:06:28,10.1.1.2,23,0.040,0.040,0.040,0.000,0.000,0.000
1644926788246547968,2022-02-15-12:06:28,10.1.1.2,32,0.050,0.050,0.050,0.000,0.000,0.000
1644926788285283072,2022-02-15-12:06:28,10.1.1.2,22,0.060,0.060,0.060,0.000,0.000,0.000
1644926788346611968,2022-02-15-12:06:28,10.1.1.2,32,0.070,0.070,0.070,0.000,0.000,0.000
1644926788385243904,2022-02-15-12:06:28,10.1.1.2,21,0.080,0.080,0.080,0.000,0.000,0.000
1644926788446607104,2022-02-15-12:06:28,10.1.1.2,30,0.090,0.090,0.090,0.000,0.000,0.000
1644926788485112832,2022-02-15-12:06:28,10.1.1.2,20,0.100,0.100,0.100,0.000,0.000,0.000
1644926788545618176,2022-02-15-12:06:28,10.1.1.2,29,0.090,0.090,0.090,0.000,0.000,0.000
1644926788605929984,2022-02-15-12:06:28,10.1.1.2,38,0.080,0.080,0.080,0.000,0.000,0.000
1644926788646300160,2022-02-15-12:06:28,10.1.1.2,28,0.070,0.070,0.070,0.000,0.000,0.000
1644926788705786880,2022-02-15-12:06:28,10.1.1.2,36,0.060,0.060,0.060,0.000,0.000,0.000
1644926788744969984,2022-02-15-12:06:28,10.1.1.2,25,0.050,0.050,0.050,0.000,0.000,0.000
1644926788805170176,2022-02-15-12:06:28,10.1.1.2,33,0.040,0.040,0.040,0.000,0.000,0.000
1644926788845179136,2022-02-15-12:06:28,10.1.1.2,22,0.030,0.030,0.030,0.000,0.000,0.000
1644926788905358080,2022-02-15-12:06:28,10.1.1.2,31,0.020,0.020,0.020,0.000,0.000,0.000
1644926788945915904,2022-02-15-12:06:28,10.1.1.2,21,0.010,0.010,0.010,0.000,0.000,0.000
1644926789006654976,2022-02-15-12:06:29,10.1.1.2,30,0.000,0.000,0.000,0.000,0.000,0.000
1644926789047791872,2022-02-15-12:06:29,10.1.1.2,20,-0.010,-0.010,-0.010,0.000,0.000,0.000
1644926789105488128,2022-02-15-12:06:29,10.1.1.2,30,-0.020,-0.020,-0.020,0.000,0.000,0.000
1644926789164759040,2022-02-15-12:06:29,10.1.1.2,38,-0.030,-0.030,-0.030,0.000,0.000,0.000
1644926789205935872,2022-02-15-12:06:29,10.1.1.2,27,-0.040,-0.040,-0.040,0.000,0.000,0.000
1644926789264837120,2022-02-15-12:06:29,10.1.1.2,36,-0.050,-0.050,-0.050,0.000,0.000,0.000
1644926789304971008,2022-02-15-12:06:29,10.1.1.2,25,-0.060,-0.060,-0.060,0.000,0.000,0.000
1644926789365847040,2022-02-15-12:06:29,10.1.1.2,35,-0.070,-0.070,-0.070,0.000,0.000,0.000
1644926789406706944,2022-02-15-12:06:29,10.1.1.2,23,-0.080,-0.080,-0.080,0.000,0.000,0.000
1644926789465488896,2022-02-15-12:06:29,10.1.1.2,32,-0.090,-0.090,-0.090,0.000,0.000,0.000
1644926789506563072,2022-02-15-12:06:29,10.1.1.2,22,-0.100,-0.100,-0.100,0.000,0.000,0.000
1644926789566760960,2022-02-15-12:06:29,10.1.1.2,31,-0.090,-0.090,-0.090,0.000,0.000,0.000
1644926789605773056,2022-02-15-12:06:29,10.1.1.2,21,-0.080,-0.080,-0.080,0.000,0.000,0.000
1644926789665586944,2022-02-15-12:06:29,10.1.1.2,30,-0.070,-0.070,-0.070,0.000,0.000,0.000
1644926789705074176,2022-02-15-12:06:29,10.1.1.2,19,-0.060,-0.060,-0.060,0.000,0.000,0.000
1644926789766275840,2022-02-15-12:06:29,10.1.1.2,28,-0.050,-0.050,-0.050,0.000,0.000,0.000
1644926789826241024,2022-02-15-12:06:29,10.1.1.2,37,-0.040,-0.040,-0.040,0.000,0.000,0.000
1644926789864919808,2022-02-15-12:06:29,10.1.1.2,27,-0.030,-0.030,-0.030,0.000,0.000,0.000
1644926789924632064,2022-02-15-12:06:29,10.1.1.2,36,-0.020,-0.020,-0.020,0.000,0.000,0.000
1644926789965691136,2022-02-15-12:06:29,10.1.1.2,25,-0.010,-0.010,-0.010,0.000,0.000,0.000
1644926790027833088,2022-02-15-12:06:30,10.1.1.2,35,0.000,0.000,0.000,0.000,0.000,0.000
1644926790066072832,2022-02-15-12:06:30,10.1.1.2,24,0.010,0.010,0.010,0.000,0.000,0.000
1644926790124745984,2022-02-15-12:06:30,10.1.1.2,33,0.020,0.020,0.020,0.000,0.000,0.000
1644926790164673024,2022-02-15-12:06:30,10.1.1.2,22,0.030,0.030,0.030,0.000,0.000,0.000
1644926790227528960,2022-02-15-12:06:30,10.1.1.2,31,0.040,0.040,0.040,0.000,0.000,0.000
1644926790267788032,2022-02-15-12:06:30,10.1.1.2,20,0.050,0.050,0.050,0.000,0.000,0.000
1644926790324905984,2022-02-15-12:06:30,10.1.1.2,29,0.060,0.060,0.060,0.000,0.000,0.000
1644926790388755200,2022-02-15-12:06:30,10.1.1.2,38,0.070,0.070,0.070,0.000,0.000,0.000
1644926790424980992,2022-02-15-12:06:30,10.1.1.2,27,0.080,0.080,0.080,0.000,0.000,0.000
1644926790488205056,2022-02-15-12:06:30,10.1.1.2,37,0.090,0.090,0.090,0.000,0.000,0.000
1644926790527844864,2022-02-15-12:06:30,10.1.1.2,26,0.100,0.100,0.100,0.000,0.000,0.000
1644926790587621888,2022-02-15-12:06:30,10.1.1.2,31,0.090,0.090,0.090,0.000,0.000,0.000
1644926790628637184,2022-02-15-12:06:30,10.1.1.2,20,0.080,0.080,0.080,0.000,0.000,0.000
1644926790688203008,2022-02-15-12:06:30,10.1.1.2,28,0.070,0.070,0.070,0.000,0.000,0.000
1644926790746917888,2022-02-15-12:06:30,10.1.1.2,37,0.060,0.060,0.060,0.000,0.000,0.000
1644926790784846080,2022-02-15-12:06:30,10.1.1.2,27,0.050,0.050,0.050,0.000,0.000,0.000
1644926790847300096,2022-02-15-12:06:30,10.1.1.2,36,0.040,0.040,0.040,0.000,0.000,0.000
1644926790887645952,2022-02-15-12:06:30,10.1.1.2,25,0.030,0.030,0.030,0.000,0.000,0.000
1644926790948567040,2022-02-15-12:06:30,10.1.1.2,35,0.020,0.020,0.020,0.000,0.000,0.000
1644926790987371008,2022-02-15-12:06:30,10.1.1.2,24,0.010,0.010,0.010,0.000,0.000,0.000
1644926791046881024,2022-02-15-12:06:31,10.1.1.2,33,0.000,0.000,0.000,0.000,0.000,0.000
1644926791087557120,2022-02-15-12:06:31,10.1.1.2,22,-0.010,-0.010,-0.010,0.000,0.000,0.000
1644926791144556032,2022-02-15-12:06:31,10.1.1.2,30,-0.020,-0.020,-0.020,0.000,0.000,0.000
1644926791188396032,2022-02-15-12:06:31,10.1.1.2,20,-0.030,-0.030,-0.030,0.000,0.000,0.000
1644926791246920192,2022-02-15-12:06:31,10.1.1.2,29,-0.040,-0.040,-0.040,0.000,0.000,0.000
1644926791306576896,2022-02-15-12:06:31,10.1.1.2,38,-0.050,-0.050,-0.050,0.000,0.000,0.000
1644926791348005120,2022-02-15-12:06:31,10.1.1.2,27,-0.060,-0.060,-0.060,0.000,0.000,0.000
1644926791405540864,2022-02-15-12:06:31,10.1.1.2,36,-0.070,-0.070,-0.070,0.000,0.000,0.000
1644926791447652096,2022-02-15-12:06:31,10.1.1.2,25,-0.080,-0.080,-0.080,0.000,0.000,0.000
1644926791508003840,2022-02-15-12:06:31,10.1.1.2,35,-0.090,-0.090,-0.090,0.000,0.000,0.000
1644926791556812032,2022-02-15-12:06:31,10.1.1.2,22,-0.100,-0.100,-0.100,0.000,0.000,0.000
1644926791607686144,2022-02-15-12:06:31,10.1.1.2,30,-0.090,-0.090,-0.090,0.000,0.000,0.000
1644926791665308928,2022-02-15-12:06:31,10.1.1.2,37,-0.080,-0.080,-0.080,0.000,0.000,0.000
1644926791708739072,2022-02-15-12:06:31,10.1.1.2,25,-0.070,-0.070,-0.070,0.000,0.000,0.000
1644926791787187968,2022-02-15-12:06:31,10.1.1.2,40,-0.060,-0.060,-0.060,0.000,0.000,0.000
1644926791829242112,2022-02-15-12:06:31,10.1.1.2,30,-0.050,-0.050,-0.050,0.000,0.000,0.000
1644926791932192000,2022-02-15-12:06:31,10.1.1.2,30,-0.030,-0.030,-0.030,0.000,0.000,0.000
1644926792087639040,2022-02-15-12:06:32,10.1.1.2,34,0.000,0.000,0.000,0.000,0.000,0.000
1644926792144155136,2022-02-15-12:06:32,10.1.1.2,31,0.010,0.010,0.010,0.000,0.000,0.000
1644926792203216128,2022-02-15-12:06:32,10.1.1.2,36,0.020,0.020,0.020,0.000,0.000,0.000
1644926792305545984,2022-02-15-12:06:32,10.1.1.2,34,0.040,0.040,0.040,0.000,0.000,0.000
1644926792343485184,2022-02-15-12:06:32,10.1.1.2,23,0.050,0.050,0.050,0.000,0.000,0.000
1644926792404151808,2022-02-15-12:06:32,10.1.1.2,32,0.060,0.060,0.060,0.000,0.000,0.000
1644926792443444992,2022-02-15-12:06:32,10.1.1.2,20,0.070,0.070,0.070,0.000,0.000,0.000
1644926792518680064,2022-02-15-12:06:32,10.1.1.2,28,0.080,0.080,0.080,0.000,0.000,0.000
1644926792565874176,2022-02-15-12:06:32,10.1.1.2,37,0.090,0.090,0.090,0.000,0.000,0.000
1644926792624113152,2022-02-15-12:06:32,10.1.1.2,36,0.100,0.100,0.100,0.000,0.000,0.000
1644926792683587072,2022-02-15-12:06:32,10.1.1.2,38,0.090,0.090,0.090,0.000,0.000,0.000
1644926792723129088,2022-02-15-12:06:32,10.1.1.2,27,0.080,0.080,0.080,0.000,0.000,0.000
1644926792844820992,2022-02-15-12:06:32,10.1.1.2,29,0.060,0.060,0.060,0.000,0.000,0.000
1644926792904759040,2022-02-15-12:06:32,10.1.1.2,34,0.050,0.050,0.050,0.000,0.000,0.000
1644926792945070080,2022-02-15-12:06:32,10.1.1.2,23,0.040,0.040,0.040,0.000,0.000,0.000
1644926793003251200,2022-02-15-12:06:33,10.1.1.2,32,0.030,0.030,0.030,0.000,0.000,0.000
1644926793103337984,2022-02-15-12:06:33,10.1.1.2,28,0.010,0.010,0.010,0.000,0.000,0.000
1644926793163264000,2022-02-15-12:06:33,10.1.1.2,37,0.000,0.000,0.000,0.000,0.000,0.000
1644926793203347968,2022-02-15-12:06:33,10.1.1.2,25,-0.010,-0.010,-0.010,0.000,0.000,0.000
1644926793264313088,2022-02-15-12:06:33,10.1.1.2,32,-0.020,-0.020,-0.020,0.000,0.000,0.000
1644926793304442880,2022-02-15-12:06:33,10.1.1.2,21,-0.030,-0.030,-0.030,0.000,0.000,0.000
1644926793364751104,2022-02-15-12:06:33,10.1.1.2,29,-0.040,-0.040,-0.040,0.000,0.000,0.000
1644926793424450048,2022-02-15-12:06:33,10.1.1.2,37,-0.050,-0.050,-0.050,0.000,0.000,0.000
1644926793465440000,2022-02-15-12:06:33,10.1.1.2,26,-0.060,-0.060,-0.060,0.000,0.000,0.000
1644926793555066112,2022-02-15-12:06:33,10.1.1.2,36,-0.070,-0.070,-0.070,0.000,0.000,0.000
1644926793603852032,2022-02-15-12:06:33,10.1.1.2,31,-0.080,-0.080,-0.080,0.000,0.000,0.000
1644926793644835072,2022-02-15-12:06:33,10.1.1.2,19,-0.089,-0.089,-0.089,0.000,0.000,0.000
1644926793704086016,2022-02-15-12:06:33,10.1.1.2,28,-0.100,-0.100,-0.100,0.000,0.000,0.000
1644926793763842048,2022-02-15-12:06:33,10.1.1.2,36,-0.090,-0.090,-0.090,0.000,0.000,0.000
1644926793803396096,2022-02-15-12:06:33,10.1.1.2,23,-0.080,-0.080,-0.080,0.000,0.000,0.000
1644926793864865024,2022-02-15-12:06:33,10.1.1.2,32,-0.070,-0.070,-0.070,0.000,0.000,0.000
1644926793903523072,2022-02-15-12:06:33,10.1.1.2,21,-0.060,-0.060,-0.060,0.000,0.000,0.000
1644926793963501824,2022-02-15-12:06:33,10.1.1.2,30,-0.050,-0.050,-0.050,0.000,0.000,0.000
1644926794003480064,2022-02-15-12:06:34,10.1.1.2,19,-0.040,-0.040,-0.040,0.000,0.000,0.000
1644926794063122944,2022-02-15-12:06:34,10.1.1.2,28,-0.030,-0.030,-0.030,0.000,0.000,0.000
1644926794123188992,2022-02-15-12:06:34,10.1.1.2,37,-0.020,-0.020,-0.020,0.000,0.000,0.000
1644926794163051008,2022-02-15-12:06:34,10.1.1.2,26,-0.010,-0.010,-0.010,0.000,0.000,0.000
1644926794224940032,2022-02-15-12:06:34,10.1.1.2,35,0.000,0.000,0.000,0.000,0.000,0.000
1644926794263122176,2022-02-15-12:06:34,10.1.1.2,24,0.010,0.010,0.010,0.000,0.000,0.000
1644926794323677952,2022-02-15-12:06:34,10.1.1.2,33,0.020,0.020,0.020,0.000,0.000,0.000
1644926794363634176,2022-02-15-12:06:34,10.1.1.2,22,0.030,0.030,0.030,0.000,0.000,0.000
1644926794424061184,2022-02-15-12:06:34,10.1.1.2,31,0.040,0.040,0.040,0.000,0.000,0.000
1644926794464258816,2022-02-15-12:06:34,10.1.1.2,21,0.050,0.050,0.050,0.000,0.000,0.000
1644926794525465088,2022-02-15-12:06:34,10.1.1.2,30,0.060,0.060,0.060,0.000,0.000,0.000
1644926794583734016,2022-02-15-12:06:34,10.1.1.2,38,0.070,0.070,0.070,0.000,0.000,0.000
1644926794623471872,2022-02-15-12:06:34,10.1.1.2,27,0.080,0.080,0.080,0.000,0.000,0.000
1644926794683538944,2022-02-15-12:06:34,10.1.1.2,35,0.090,0.090,0.090,0.000,0.000,0.000
1644926794723248128,2022-02-15-12:06:34,10.1.1.2,24,0.100,0.100,0.100,0.000,0.000,0.000
1644926794782919936,2022-02-15-12:06:34,10.1.1.2,33,0.090,0.090,0.090,0.000,0.000,0.000
1644926794823828992,2022-02-15-12:06:34,10.1.1.2,21,0.080,0.080,0.080,0.000,0.000,0.000
1644926794883283968,2022-02-15-12:06:34,10.1.1.2,29,0.070,0.070,0.070,0.000,0.000,0.000
1644926794947992064,2022-02-15-12:06:34,10.1.1.2,37,0.060,0.060,0.060,0.000,0.000,0.000
1644926794983536896,2022-02-15-12:06:34,10.1.1.2,25,0.050,0.050,0.050,0.000,0.000,0.000
1644926795043219968,2022-02-15-12:06:35,10.1.1.2,33,0.040,0.040,0.040,0.000,0.000,0.000
1644926795083522048,2022-02-15-12:06:35,10.1.1.2,23,0.030,0.030,0.030,0.000,0.000,0.000
1644926795143235072,2022-02-15-12:06:35,10.1.1.2,31,0.020,0.020,0.020,0.000,0.000,0.000
1644926795183373824,2022-02-15-12:06:35,10.1.1.2,20,0.010,0.010,0.010,0.000,0.000,0.000
1644926795243799040,2022-02-15-12:06:35,10.1.1.2,26,0.000,0.000,0.000,0.000,0.000,0.000
1644926795303617024,2022-02-15-12:06:35,10.1.1.2,35,-0.010,-0.010,-0.010,0.000,0.000,0.000
1644926795343333120,2022-02-15-12:06:35,10.1.1.2,24,-0.020,-0.020,-0.020,0.000,0.000,0.000
1644926795403680000,2022-02-15-12:06:35,10.1.1.2,33,-0.030,-0.030,-0.030,0.000,0.000,0.000
1644926795443527936,2022-02-15-12:06:35,10.1.1.2,22,-0.040,-0.040,-0.040,0.000,0.000,0.000
1644926795507316224,2022-02-15-12:06:35,10.1.1.2,31,-0.050,-0.050,-0.050,0.000,0.000,0.000
1644926795542988032,2022-02-15-12:06:35,10.1.1.2,20,-0.060,-0.060,-0.060,0.000,0.000,0.000
1644926795603465984,2022-02-15-12:06:35,10.1.1.2,28,-0.070,-0.070,-0.070,0.000,0.000,0.000
1644926795663429120,2022-02-15-12:06:35,10.1.1.2,38,-0.080,-0.080,-0.080,0.000,0.000,0.000
1644926795703564032,2022-02-15-12:06:35,10.1.1.2,27,-0.090,-0.090,-0.090,0.000,0.000,0.000
1644926795763660800,2022-02-15-12:06:35,10.1.1.2,36,-0.100,-0.100,-0.100,0.000,0.000,0.000
1644926795803241984,2022-02-15-12:06:35,10.1.1.2,23,-0.090,-0.090,-0.090,0.000,0.000,0.000
1644926795863151104,2022-02-15-12:06:35,10.1.1.2,32,-0.080,-0.080,-0.080,0.000,0.000,0.000
1644926795903287040,2022-02-15-12:06:35,10.1.1.2,21,-0.070,-0.070,-0.070,0.000,0.000,0.000
1644926795963202048,2022-02-15-12:06:35,10.1.1.2,30,-0.060,-0.060,-0.060,0.000,0.000,0.000
1644926796002824960,2022-02-15-12:06:36,10.1.1.2,20,-0.050,-0.050,-0.050,0.000,0.000,0.000
1644926796063561984,2022-02-15-12:06:36,10.1.1.2,29,-0.040,-0.040,-0.040,0.000,0.000,0.000
1644926796123802880,2022-02-15-12:06:36,10.1.1.2,36,-0.030,-0.030,-0.030,0.000,0.000,0.000
1644926796162926080,2022-02-15-12:06:36,10.1.1.2,25,-0.020,-0.020,-0.020,0.000,0.000,0.000
1644926796224301056,2022-02-15-12:06:36,10.1.1.2,34,-0.010,-0.010,-0.010,0.000,0.000,0.000
1644926796264211968,2022-02-15-12:06:36,10.1.1.2,23,0.000,0.000,0.000,0.000,0.000,0.000
1644926796324819968,2022-02-15-12:06:36,10.1.1.2,32,0.010,0.010,0.010,0.000,0.000,0.000
1644926796423346944,2022-02-15-12:06:36,10.1.1.2,30,0.030,0.030,0.030,0.000,0.000,0.000
1644926796483500032,2022-02-15-12:06:36,10.1.1.2,37,0.040,0.040,0.040,0.000,0.000,0.000
1644926796523474944,2022-02-15-12:06:36,10.1.1.2,26,0.050,0.050,0.050,0.000,0.000,0.000
1644926796583766016,2022-02-15-12:06:36,10.1.1.2,35,0.060,0.060,0.060,0.000,0.000,0.000
1644926796624100864,2022-02-15-12:06:36,10.1.1.2,24,0.070,0.070,0.070,0.000,0.000,0.000
1644926796683009024,2022-02-15-12:06:36,10.1.1.2,33,0.080,0.080,0.080,0.000,0.000,0.000
1644926796724536064,2022-02-15-12:06:36,10.1.1.2,21,0.090,0.090,0.090,0.000,0.000,0.000
1644926796784111104,2022-02-15-12:06:36,10.1.1.2,30,0.100,0.100,0.100,0.000,0.000,0.000
1644926796843732224,2022-02-15-12:06:36,10.1.1.2,39,0.090,0.090,0.090,0.000,0.000,0.000
1644926796883970048,2022-02-15-12:06:36,10.1.1.2,27,0.080,0.080,0.080,0.000,0.000,0.000
1644926796943943936,2022-02-15-12:06:36,10.1.1.2,36,0.070,0.070,0.070,0.000,0.000,0.000
1644926796983737856,2022-02-15-12:06:36,10.1.1.2,25,0.060,0.060,0.060,0.000,0.000,0.000
1644926797044311040,2022-02-15-12:06:37,10.1.1.2,33,0.050,0.050,0.050,0.000,0.000,0.000
1644926797083601920,2022-02-15-12:06:37,10.1.1.2,22,0.040,0.040,0.040,0.000,0.000,0.000
1644926797143627008,2022-02-15-12:06:37,10.1.1.2,32,0.030,0.030,0.030,0.000,0.000,0.000
1644926797183604992,2022-02-15-12:06:37,10.1.1.2,21,0.020,0.020,0.020,0.000,0.000,0.000
1644926797243766016,2022-02-15-12:06:37,10.1.1.2,30,0.010,0.010,0.010,0.000,0.000,0.000
1644926797283715840,2022-02-15-12:06:37,10.1.1.2,19,0.000,0.000,0.000,0.000,0.000,0.000
1644926797343635200,2022-02-15-12:06:37,10.1.1.2,28,-0.010,-0.010,-0.010,0.000,0.000,0.000
1644926797403538944,2022-02-15-12:06:37,10.1.1.2,37,-0.020,-0.020,-0.020,0.000,0.000,0.000
1644926797443070976,2022-02-15-12:06:37,10.1.1.2,26,-0.030,-0.030,-0.030,0.000,0.000,0.000
1644926797503484928,2022-02-15-12:06:37,10.1.1.2,35,-0.040,-0.040,-0.040,0.000,0.000,0.000
1644926797543471104,2022-02-15-12:06:37,10.1.1.2,24,-0.050,-0.050,-0.050,0.000,0.000,0.000
1644926797603384064,2022-02-15-12:06:37,10.1.1.2,32,-0.060,-0.060,-0.060,0.000,0.000,0.000
1644926797644434944,2022-02-15-12:06:37,10.1.1.2,21,-0.070,-0.070,-0.070,0.000,0.000,0.000
1644926797703927040,2022-02-15-12:06:37,10.1.1.2,31,-0.080,-0.080,-0.080,0.000,0.000,0.000
1644926797743602944,2022-02-15-12:06:37,10.1.1.2,20,-0.090,-0.090,-0.090,0.000,0.000,0.000
1644926797803564032,2022-02-15-12:06:37,10.1.1.2,29,-0.100,-0.100,-0.100,0.000,0.000,0.000
1644926797864093952,2022-02-15-12:06:37,10.1.1.2,38,-0.090,-0.090,-0.090,0.000,0.000,0.000
1644926797904350976,2022-02-15-12:06:37,10.1.1.2,27,-0.080,-0.080,-0.080,0.000,0.000,0.000
1644926797962994176,2022-02-15-12:06:37,10.1.1.2,35,-0.070,-0.070,-0.070,0.000,0.000,0.000
1644926798004039168,2022-02-15-12:06:38,10.1.1.2,23,-0.060,-0.060,-0.060,0.000,0.000,0.000
1644926798063496192,2022-02-15-12:06:38,10.1.1.2,32,-0.050,-0.050,-0.050,0.000,0.000,0.000
1644926798103305216,2022-02-15-12:06:38,10.1.1.2,21,-0.040,-0.040,-0.040,0.000,0.000,0.000
1644926798163492864,2022-02-15-12:06:38,10.1.1.2,30,-0.030,-0.030,-0.030,0.000,0.000,0.000
1644926798203488000,2022-02-15-12:06:38,10.1.1.2,19,-0.021,-0.021,-0.021,0.000,0.000,0.000
1644926798263379200,2022-02-15-12:06:38,10.1.1.2,27,-0.010,-0.010,-0.010,0.000,0.000,0.000
1644926798323262976,2022-02-15-12:06:38,10.1.1.2,36,0.000,0.000,0.000,0.000,0.000,0.000
1644926798363523840,2022-02-15-12:06:38,10.1.1.2,24,0.010,0.010,0.010,0.000,0.000,0.000
1644926798424000000,2022-02-15-12:06:38,10.1.1.2,33,0.020,0.020,0.020,0.000,0.000,0.000
1644926798462717952,2022-02-15-12:06:38,10.1.1.2,21,0.030,0.030,0.030,0.000,0.000,0.000
1644926798523389184,2022-02-15-12:06:38,10.1.1.2,31,0.040,0.040,0.040,0.000,0.000,0.000
1644926798563148032,2022-02-15-12:06:38,10.1.1.2,20,0.050,0.050,0.050,0.000,0.000,0.000
1644926798623575040,2022-02-15-12:06:38,10.1.1.2,29,0.060,0.060,0.060,0.000,0.000,0.000
1644926798682851072,2022-02-15-12:06:38,10.1.1.2,38,0.070,0.070,0.070,0.000,0.000,0.000
1644926798723179008,2022-02-15-12:06:38,10.1.1.2,26,0.080,0.080,0.080,0.000,0.000,0.000
1644926798783371008,2022-02-15-12:06:38,10.1.1.2,34,0.090,0.090,0.090,0.000,0.000,0.000
1644926798823458048,2022-02-15-12:06:38,10.1.1.2,23,0.100,0.100,0.100,0.000,0.000,0.000
1644926798888124928,2022-02-15-12:06:38,10.1.1.2,32,0.090,0.090,0.090,0.000,0.000,0.000
1644926798944514048,2022-02-15-12:06:38,10.1.1.2,36,0.080,0.080,0.080,0.000,0.000,0.000
1644926798983390976,2022-02-15-12:06:38,10.1.1.2,23,0.070,0.070,0.070,0.000,0.000,0.000
1644926799043503872,2022-02-15-12:06:39,10.1.1.2,32,0.060,0.060,0.060,0.000,0.000,0.000
1644926799083260160,2022-02-15-12:06:39,10.1.1.2,22,0.050,0.050,0.050,0.000,0.000,0.000
1644926799143929088,2022-02-15-12:06:39,10.1.1.2,30,0.040,0.040,0.040,0.000,0.000,0.000
1644926799204695040,2022-02-15-12:06:39,10.1.1.2,39,0.030,0.030,0.030,0.000,0.000,0.000
1644926799244740096,2022-02-15-12:06:39,10.1.1.2,27,0.020,0.020,0.020,0.000,0.000,0.000
1644926799303576064,2022-02-15-12:06:39,10.1.1.2,36,0.010,0.010,0.010,0.000,0.000,0.000
1644926799343578112,2022-02-15-12:06:39,10.1.1.2,23,0.000,0.000,0.000,0.000,0.000,0.000
1644926799403672832,2022-02-15-12:06:39,10.1.1.2,32,-0.010,-0.010,-0.010,0.000,0.000,0.000
1644926799443366144,2022-02-15-12:06:39,10.1.1.2,22,-0.020,-0.020,-0.020,0.000,0.000,0.000
1644926799503151872,2022-02-15-12:06:39,10.1.1.2,30,-0.030,-0.030,-0.030,0.000,0.000,0.000
1644926799544123904,2022-02-15-12:06:39,10.1.1.2,19,-0.039,-0.039,-0.039,0.000,0.000,0.000
1644926799603069184,2022-02-15-12:06:39,10.1.1.2,27,-0.050,-0.050,-0.050,0.000,0.000,0.000
1644926799663826944,2022-02-15-12:06:39,10.1.1.2,34,-0.060,-0.060,-0.060,0.000,0.000,0.000
1644926799703169024,2022-02-15-12:06:39,10.1.1.2,23,-0.070,-0.070,-0.070,0.000,0.000,0.000
1644926799762976000,2022-02-15-12:06:39,10.1.1.2,32,-0.080,-0.080,-0.080,0.000,0.000,0.000
1644926799803233024,2022-02-15-12:06:39,10.1.1.2,21,-0.090,-0.090,-0.090,0.000,0.000,0.000
1644926799864146944,2022-02-15-12:06:39,10.1.1.2,30,-0.100,-0.100,-0.100,0.000,0.000,0.000
1644926799903141888,2022-02-15-12:06:39,10.1.1.2,20,-0.090,-0.090,-0.090,0.000,0.000,0.000
1644926799963581952,2022-02-15-12:06:39,10.1.1.2,29,-0.080,-0.080,-0.080,0.000,0.000,0.000
1644926800030339840,2022-02-15-12:06:40,10.1.1.2,38,-0.070,-0.070,-0.070,0.000,0.000,0.000
1644926800063406848,2022-02-15-12:06:40,10.1.1.2,26,-0.060,-0.060,-0.060,0.000,0.000,0.000
1644926800123076864,2022-02-15-12:06:40,10.1.1.2,35,-0.050,-0.050,-0.050,0.000,0.000,0.000
1644926800163439872,2022-02-15-12:06:40,10.1.1.2,24,-0.040,-0.040,-0.040,0.000,0.000,0.000
1644926800223432192,2022-02-15-12:06:40,10.1.1.2,34,-0.030,-0.030,-0.030,0.000,0.000,0.000
1644926800263283968,2022-02-15-12:06:40,10.1.1.2,22,-0.020,-0.020,-0.020,0.000,0.000,0.000
1644926800323715072,2022-02-15-12:06:40,10.1.1.2,31,-0.010,-0.010,-0.010,0.000,0.000,0.000
1644926800363193088,2022-02-15-12:06:40,10.1.1.2,20,0.000,0.000,0.000,0.000,0.000,0.000
1644926800423580928,2022-02-15-12:06:40,10.1.1.2,29,0.010,0.010,0.010,0.000,0.000,0.000
1644926800483188992,2022-02-15-12:06:40,10.1.1.2,38,0.020,0.020,0.020,0.000,0.000,0.000
1644926800524142080,2022-02-15-12:06:40,10.1.1.2,26,0.030,0.030,0.030,0.000,0.000,0.000
1644926800583048192,2022-02-15-12:06:40,10.1.1.2,35,0.040,0.040,0.040,0.000,0.000,0.000
1644926800623791104,2022-02-15-12:06:40,10.1.1.2,24,0.050,0.050,0.050,0.000,0.000,0.000
1644926800683156992,2022-02-15-12:06:40,10.1.1.2,33,0.060,0.060,0.060,0.000,0.000,0.000
1644926800723392000,2022-02-15-12:06:40,10.1.1.2,22,0.070,0.070,0.070,0.000,0.000,0.000
1644926800783735040,2022-02-15-12:06:40,10.1.1.2,31,0.080,0.080,0.080,0.000,0.000,0.000
1644926800825273088,2022-02-15-12:06:40,10.1.1.2,21,0.090,0.090,0.090,0.000,0.000,0.000
1644926800884308992,2022-02-15-12:06:40,10.1.1.2,30,0.100,0.100,0.100,0.000,0.000,0.000
1644926800943667968,2022-02-15-12:06:40,10.1.1.2,38,0.090,0.090,0.090,0.000,0.000,0.000
1644926801004304896,2022-02-15-12:06:41,10.1.1.2,32,0.080,0.080,0.080,0.000,0.000,0.000
1644926801043549184,2022-02-15-12:06:41,10.1.1.2,21,0.070,0.070,0.070,0.000,0.000,0.000
1644926801104905984,2022-02-15-12:06:41,10.1.1.2,31,0.060,0.060,0.060,0.000,0.000,0.000
1644926801143069952,2022-02-15-12:06:41,10.1.1.2,20,0.050,0.050,0.050,0.000,0.000,0.000
1644926801203628032,2022-02-15-12:06:41,10.1.1.2,29,0.040,0.040,0.040,0.000,0.000,0.000
1644926801263081984,2022-02-15-12:06:41,10.1.1.2,38,0.030,0.030,0.030,0.000,0.000,0.000
1644926801304166912,2022-02-15-12:06:41,10.1.1.2,26,0.020,0.020,0.020,0.000,0.000,0.000
1644926801373414144,2022-02-15-12:06:41,10.1.1.2,33,0.010,0.010,0.010,0.000,0.000,0.000
1644926801424406016,2022-02-15-12:06:41,10.1.1.2,38,0.000,0.000,0.000,0.000,0.000,0.000
1644926801463013888,2022-02-15-12:06:41,10.1.1.2,27,-0.010,-0.010,-0.010,0.000,0.000,0.000
1644926801524379904,2022-02-15-12:06:41,10.1.1.2,36,-0.020,-0.020,-0.020,0.000,0.000,0.000
1644926801683186944,2022-02-15-12:06:41,10.1.1.2,37,-0.050,-0.050,-0.050,0.000,0.000,0.000
1644926801728819968,2022-02-15-12:06:41,10.1.1.2,27,-0.060,-0.060,-0.060,0.000,0.000,0.000
1644926801784395008,2022-02-15-12:06:41,10.1.1.2,36,-0.070,-0.070,-0.070,0.000,0.000,0.000
1644926801824760064,2022-02-15-12:06:41,10.1.1.2,25,-0.080,-0.080,-0.080,0.000,0.000,0.000
1644926801883670016,2022-02-15-12:06:41,10.1.1.2,35,-0.090,-0.090,-0.090,0.000,0.000,0.000
1644926801923924992,2022-02-15-12:06:41,10.1.1.2,24,-0.100,-0.100,-0.100,0.000,0.000,0.000
1644926801983633152,2022-02-15-12:06:41,10.1.1.2,33,-0.090,-0.090,-0.090,0.000,0.000,0.000
1644926802023502080,2022-02-15-12:06:42,10.1.1.2,23,-0.080,-0.080,-0.080,0.000,0.000,0.000
1644926802083470080,2022-02-15-12:06:42,10.1.1.2,32,-0.070,-0.070,-0.070,0.000,0.000,0.000
1644926802123313920,2022-02-15-12:06:42,10.1.1.2,21,-0.060,-0.060,-0.060,0.000,0.000,0.000
1644926802184964864,2022-02-15-12:06:42,10.1.1.2,31,-0.050,-0.050,-0.050,0.000,0.000,0.000
1644926802227021824,2022-02-15-12:06:42,10.1.1.2,20,-0.040,-0.040,-0.040,0.000,0.000,0.000
1644926802284538112,2022-02-15-12:06:42,10.1.1.2,30,-0.030,-0.030,-0.030,0.000,0.000,0.000
1644926802323952896,2022-02-15-12:06:42,10.1.1.2,19,-0.020,-0.020,-0.020,0.000,0.000,0.000
1644926802391982080,2022-02-15-12:06:42,10.1.1.2,29,-0.010,-0.010,-0.010,0.000,0.000,0.000
1644926802447668992,2022-02-15-12:06:42,10.1.1.2,38,0.000,0.000,0.000,0.000,0.000,0.000
1644926802483875072,2022-02-15-12:06:42,10.1.1.2,28,0.010,0.010,0.010,0.000,0.000,0.000
1644926802543847936,2022-02-15-12:06:42,10.1.1.2,37,0.020,0.020,0.020,0.000,0.000,0.000
1644926802583708928,2022-02-15-12:06:42,10.1.1.2,27,0.030,0.030,0.030,0.000,0.000,0.000
1644926802643090944,2022-02-15-12:06:42,10.1.1.2,36,0.040,0.040,0.040,0.000,0.000,0.000
1644926802683824128,2022-02-15-12:06:42,10.1.1.2,26,0.050,0.050,0.050,0.000,0.000,0.000
1644926802743822080,2022-02-15-12:06:42,10.1.1.2,35,0.060,0.060,0.060,0.000,0.000,0.000
1644926802784642048,2022-02-15-12:06:42,10.1.1.2,24,0.070,0.070,0.070,0.000,0.000,0.000
1644926802844224000,2022-02-15-12:06:42,10.1.1.2,34,0.080,0.080,0.080,0.000,0.000,0.000
1644926802883672064,2022-02-15-12:06:42,10.1.1.2,23,0.090,0.090,0.090,0.000,0.000,0.000
1644926802943623936,2022-02-15-12:06:42,10.1.1.2,32,0.100,0.100,0.100,0.000,0.000,0.000
1644926802983827200,2022-02-15-12:06:42,10.1.1.2,20,0.090,0.090,0.090,0.000,0.000,0.000
1644926803043510016,2022-02-15-12:06:43,10.1.1.2,30,0.080,0.080,0.080,0.000,0.000,0.000
1644926803083761920,2022-02-15-12:06:43,10.1.1.2,20,0.070,0.070,0.070,0.000,0.000,0.000
1644926803143575808,2022-02-15-12:06:43,10.1.1.2,29,0.060,0.060,0.060,0.000,0.000,0.000
1644926803183081984,2022-02-15-12:06:43,10.1.1.2,19,0.051,0.051,0.051,0.000,0.000,0.000
1644926803243674880,2022-02-15-12:06:43,10.1.1.2,28,0.040,0.040,0.040,0.000,0.000,0.000
1644926803343322112,2022-02-15-12:06:43,10.1.1.2,27,0.020,0.020,0.020,0.000,0.000,0.000
1644926803403225856,2022-02-15-12:06:43,10.1.1.2,36,0.010,0.010,0.010,0.000,0.000,0.000
1644926803443164160,2022-02-15-12:06:43,10.1.1.2,25,0.000,0.000,0.000,0.000,0.000,0.000
1644926803503232000,2022-02-15-12:06:43,10.1.1.2,35,-0.010,-0.010,-0.010,0.000,0.000,0.000
1644926803543494912,2022-02-15-12:06:43,10.1.1.2,24,-0.020,-0.020,-0.020,0.000,0.000,0.000
1644926803602756864,2022-02-15-12:06:43,10.1.1.2,34,-0.030,-0.030,-0.030,0.000,0.000,0.000
1644926803643436800,2022-02-15-12:06:43,10.1.1.2,24,-0.040,-0.040,-0.040,0.000,0.000,0.000
1644926803703416064,2022-02-15-12:06:43,10.1.1.2,33,-0.050,-0.050,-0.050,0.000,0.000,0.000
1644926803743004928,2022-02-15-12:06:43,10.1.1.2,23,-0.060,-0.060,-0.060,0.000,0.000,0.000
1644926803803158016,2022-02-15-12:06:43,10.1.1.2,32,-0.070,-0.070,-0.070,0.000,0.000,0.000
1644926803843204096,2022-02-15-12:06:43,10.1.1.2,22,-0.080,-0.080,-0.080,0.000,0.000,0.000
1644926803903273216,2022-02-15-12:06:43,10.1.1.2,31,-0.090,-0.090,-0.090,0.000,0.000,0.000
1644926803943586048,2022-02-15-12:06:43,10.1.1.2,21,-0.100,-0.100,-0.100,0.000,0.000,0.000
1644926804003671040,2022-02-15-12:06:44,10.1.1.2,30,-0.090,-0.090,-0.090,0.000,0.000,0.000
1644926804043330816,2022-02-15-12:06:44,10.1.1.2,20,-0.080,-0.080,-0.080,0.000,0.000,0.000
1644926804103183104,2022-02-15-12:06:44,10.1.1.2,29,-0.070,-0.070,-0.070,0.000,0.000,0.000
1644926804163193856,2022-02-15-12:06:44,10.1.1.2,38,-0.060,-0.060,-0.060,0.000,0.000,0.000
1644926804203239936,2022-02-15-12:06:44,10.1.1.2,26,-0.050,-0.050,-0.050,0.000,0.000,0.000
1644926804271555840,2022-02-15-12:06:44,10.1.1.2,36,-0.040,-0.040,-0.040,0.000,0.000,0.000
1644926804303028992,2022-02-15-12:06:44,10.1.1.2,25,-0.030,-0.030,-0.030,0.000,0.000,0.000
1644926804362838016,2022-02-15-12:06:44,10.1.1.2,34,-0.020,-0.020,-0.020,0.000,0.000,0.000
1644926804402991104,2022-02-15-12:06:44,10.1.1.2,23,-0.010,-0.010,-0.010,0.000,0.000,0.000
1644926804463488000,2022-02-15-12:06:44,10.1.1.2,32,0.000,0.000,0.000,0.000,0.000,0.000
1644926804503290880,2022-02-15-12:06:44,10.1.1.2,21,0.010,0.010,0.010,0.000,0.000,0.000
1644926804562594816,2022-02-15-12:06:44,10.1.1.2,30,0.020,0.020,0.020,0.000,0.000,0.000
1644926804603385088,2022-02-15-12:06:44,10.1.1.2,20,0.030,0.030,0.030,0.000,0.000,0.000
1644926804663660032,2022-02-15-12:06:44,10.1.1.2,29,0.040,0.040,0.040,0.000,0.000,0.000
1644926804703422976,2022-02-15-12:06:44,10.1.1.2,19,0.049,0.049,0.049,0.000,0.000,0.000
1644926804763124992,2022-02-15-12:06:44,10.1.1.2,28,0.060,0.060,0.060,0.000,0.000,0.000
1644926804823500032,2022-02-15-12:06:44,10.1.1.2,37,0.070,0.070,0.070,0.000,0.000,0.000
1644926804862923008,2022-02-15-12:06:44,10.1.1.2,25,0.080,0.080,0.080,0.000,0.000,0.000
1644926804923465984,2022-02-15-12:06:44,10.1.1.2,34,0.090,0.090,0.090,0.000,0.000,0.000
1644926804963319040,2022-02-15-12:06:44,10.1.1.2,23,0.100,0.100,0.100,0.000,0.000,0.000
1644926805023588864,2022-02-15-12:06:45,10.1.1.2,33,0.090,0.090,0.090,0.000,0.000,0.000
1644926805063435008,2022-02-15-12:06:45,10.1.1.2,23,0.080,0.080,0.080,0.000,0.000,0.000
1644926805124438016,2022-02-15-12:06:45,10.1.1.2,32,0.070,0.070,0.070,0.000,0.000,0.000
1644926805165064192,2022-02-15-12:06:45,10.1.1.2,21,0.060,0.060,0.060,0.000,0.000,0.000
1644926805224258048,2022-02-15-12:06:45,10.1.1.2,31,0.050,0.050,0.050,0.000,0.000,0.000
1644926805263451136,2022-02-15-12:06:45,10.1.1.2,19,0.041,0.041,0.041,0.000,0.000,0.000
1644926805323131136,2022-02-15-12:06:45,10.1.1.2,28,0.030,0.030,0.030,0.000,0.000,0.000
1644926805383450880,2022-02-15-12:06:45,10.1.1.2,38,0.020,0.020,0.020,0.000,0.000,0.000
1644926805423321088,2022-02-15-12:06:45,10.1.1.2,25,0.010,0.010,0.010,0.000,0.000,0.000
1644926805483320832,2022-02-15-12:06:45,10.1.1.2,34,0.000,0.000,0.000,0.000,0.000,0.000
1644926805523315968,2022-02-15-12:06:45,10.1.1.2,24,-0.010,-0.010,-0.010,0.000,0.000,0.000
1644926805584332032,2022-02-15-12:06:45,10.1.1.2,33,-0.020,-0.020,-0.020,0.000,0.000,0.000
1644926805626669824,2022-02-15-12:06:45,10.1.1.2,19,-0.030,-0.030,-0.030,0.000,0.000,0.000
1644926805685571840,2022-02-15-12:06:45,10.1.1.2,29,-0.040,-0.040,-0.040,0.000,0.000,0.000
1644926805743230208,2022-02-15-12:06:45,10.1.1.2,38,-0.050,-0.050,-0.050,0.000,0.000,0.000
1644926805783284992,2022-02-15-12:06:45,10.1.1.2,27,-0.060,-0.060,-0.060,0.000,0.000,0.000
1644926805843141120,2022-02-15-12:06:45,10.1.1.2,36,-0.070,-0.070,-0.070,0.000,0.000,0.000
1644926805883407104,2022-02-15-12:06:45,10.1.1.2,26,-0.080,-0.080,-0.080,0.000,0.000,0.000
1644926805947066112,2022-02-15-12:06:45,10.1.1.2,35,-0.090,-0.090,-0.090,0.000,0.000,0.000
1644926805984183040,2022-02-15-12:06:45,10.1.1.2,25,-0.100,-0.100,-0.100,0.000,0.000,0.000
1644926806043247872,2022-02-15-12:06:46,10.1.1.2,34,-0.090,-0.090,-0.090,0.000,0.000,0.000
1644926806083746048,2022-02-15-12:06:46,10.1.1.2,23,-0.080,-0.080,-0.080,0.000,0.000,0.000
1644926806143131136,2022-02-15-12:06:46,10.1.1.2,33,-0.070,-0.070,-0.070,0.000,0.000,0.000
1644926806183556096,2022-02-15-12:06:46,10.1.1.2,23,-0.060,-0.060,-0.060,0.000,0.000,0.000
1644926806243133184,2022-02-15-12:06:46,10.1.1.2,32,-0.050,-0.050,-0.050,0.000,0.000,0.000
1644926806283066112,2022-02-15-12:06:46,10.1.1.2,22,-0.040,-0.040,-0.040,0.000,0.000,0.000
1644926806343058176,2022-02-15-12:06:46,10.1.1.2,31,-0.030,-0.030,-0.030,0.000,0.000,0.000
1644926806383013120,2022-02-15-12:06:46,10.1.1.2,21,-0.020,-0.020,-0.020,0.000,0.000,0.000
1644926806443166976,2022-02-15-12:06:46,10.1.1.2,31,-0.010,-0.010,-0.010,0.000,0.000,0.000
1644926806483032064,2022-02-15-12:06:46,10.1.1.2,20,0.000,0.000,0.000,0.000,0.000,0.000
1644926806543805952,2022-02-15-12:06:46,10.1.1.2,30,0.010,0.010,0.010,0.000,0.000,0.000
1644926806602963968,2022-02-15-12:06:46,10.1.1.2,38,0.020,0.020,0.020,0.000,0.000,0.000
1644926806642957056,2022-02-15-12:06:46,10.1.1.2,28,0.030,0.030,0.030,0.000,0.000,0.000
1644926806703433984,2022-02-15-12:06:46,10.1.1.2,37,0.040,0.040,0.040,0.000,0.000,0.000
1644926806743416064,2022-02-15-12:06:46,10.1.1.2,26,0.050,0.050,0.050,0.000,0.000,0.000
1644926806803724032,2022-02-15-12:06:46,10.1.1.2,35,0.060,0.060,0.060,0.000,0.000,0.000
1644926806844014848,2022-02-15-12:06:46,10.1.1.2,25,0.070,0.070,0.070,0.000,0.000,0.000
1644926806903680000,2022-02-15-12:06:46,10.1.1.2,34,0.080,0.080,0.080,0.000,0.000,0.000
1644926806943506944,2022-02-15-12:06:46,10.1.1.2,24,0.090,0.090,0.090,0.000,0.000,0.000
1644926807003334144,2022-02-15-12:06:47,10.1.1.2,33,0.100,0.100,0.100,0.000,0.000,0.000
1644926807043385856,2022-02-15-12:06:47,10.1.1.2,23,0.090,0.090,0.090,0.000,0.000,0.000
1644926807103066880,2022-02-15-12:06:47,10.1.1.2,32,0.080,0.080,0.080,0.000,0.000,0.000
1644926807144573952,2022-02-15-12:06:47,10.1.1.2,22,0.070,0.070,0.070,0.000,0.000,0.000
1644926807203543040,2022-02-15-12:06:47,10.1.1.2,32,0.060,0.060,0.060,0.000,0.000,0.000
1644926807246608896,2022-02-15-12:06:47,10.1.1.2,20,0.050,0.050,0.050,0.000,0.000,0.000
1644926807303860992,2022-02-15-12:06:47,10.1.1.2,28,0.040,0.040,0.040,0.000,0.000,0.000
1644926807363069184,2022-02-15-12:06:47,10.1.1.2,37,0.030,0.030,0.030,0.000,0.000,0.000
1644926807403206144,2022-02-15-12:06:47,10.1.1.2,26,0.020,0.020,0.020,0.000,0.000,0.000
1644926807463980032,2022-02-15-12:06:47,10.1.1.2,36,0.010,0.010,0.010,0.000,0.000,0.000
1644926807503537920,2022-02-15-12:06:47,10.1.1.2,25,-0.000,-0.000,-0.000,0.000,0.000,0.000
1644926807563090176,2022-02-15-12:06:47,10.1.1.2,35,-0.010,-0.010,-0.010,0.000,0.000,0.000
1644926807603116032,2022-02-15-12:06:47,10.1.1.2,24,-0.020,-0.020,-0.020,0.000,0.000,0.000
1644926807663415040,2022-02-15-12:06:47,10.1.1.2,34,-0.030,-0.030,-0.030,0.000,0.000,0.000
1644926807703229952,2022-02-15-12:06:47,10.1.1.2,23,-0.040,-0.040,-0.040,0.000,0.000,0.000
1644926807763288064,2022-02-15-12:06:47,10.1.1.2,33,-0.050,-0.050,-0.050,0.000,0.000,0.000
1644926807803245056,2022-02-15-12:06:47,10.1.1.2,22,-0.060,-0.060,-0.060,0.000,0.000,0.000
1644926807863845120,2022-02-15-12:06:47,10.1.1.2,32,-0.070,-0.070,-0.070,0.000,0.000,0.000
1644926807914240000,2022-02-15-12:06:47,10.1.1.2,21,-0.080,-0.080,-0.080,0.000,0.000,0.000
1644926807963685120,2022-02-15-12:06:47,10.1.1.2,31,-0.090,-0.090,-0.090,0.000,0.000,0.000
1644926808003506944,2022-02-15-12:06:48,10.1.1.2,20,-0.100,-0.100,-0.100,0.000,0.000,0.000
1644926808063222016,2022-02-15-12:06:48,10.1.1.2,30,-0.090,-0.090,-0.090,0.000,0.000,0.000
1644926808102798848,2022-02-15-12:06:48,10.1.1.2,20,-0.080,-0.080,-0.080,0.000,0.000,0.000
1644926808162987008,2022-02-15-12:06:48,10.1.1.2,29,-0.070,-0.070,-0.070,0.000,0.000,0.000
1644926808202971904,2022-02-15-12:06:48,10.1.1.2,19,-0.060,-0.060,-0.060,0.000,0.000,0.000
1644926808263259904,2022-02-15-12:06:48,10.1.1.2,28,-0.050,-0.050,-0.050,0.000,0.000,0.000
1644926808323888896,2022-02-15-12:06:48,10.1.1.2,38,-0.040,-0.040,-0.040,0.000,0.000,0.000
1644926808363079168,2022-02-15-12:06:48,10.1.1.2,27,-0.030,-0.030,-0.030,0.000,0.000,0.000
1644926808423453184,2022-02-15-12:06:48,10.1.1.2,37,-0.020,-0.020,-0.020,0.000,0.000,0.000
1644926808463350016,2022-02-15-12:06:48,10.1.1.2,26,-0.010,-0.010,-0.010,0.000,0.000,0.000
1644926808523493120,2022-02-15-12:06:48,10.1.1.2,36,0.000,0.000,0.000,0.000,0.000,0.000
1644926808563233024,2022-02-15-12:06:48,10.1.1.2,26,0.010,0.010,0.010,0.000,0.000,0.000
1644926808622541056,2022-02-15-12:06:48,10.1.1.2,35,0.020,0.020,0.020,0.000,0.000,0.000
1644926808663561216,2022-02-15-12:06:48,10.1.1.2,24,0.030,0.030,0.030,0.000,0.000,0.000
1644926808723737856,2022-02-15-12:06:48,10.1.1.2,34,0.040,0.040,0.040,0.000,0.000,0.000
1644926808762825984,2022-02-15-12:06:48,10.1.1.2,24,0.050,0.050,0.050,0.000,0.000,0.000
1644926808823088896,2022-02-15-12:06:48,10.1.1.2,33,0.060,0.060,0.060,0.000,0.000,0.000
1644926808864124160,2022-02-15-12:06:48,10.1.1.2,23,0.070,0.070,0.070,0.000,0.000,0.000
1644926808924185088,2022-02-15-12:06:48,10.1.1.2,32,0.080,0.080,0.080,0.000,0.000,0.000
1644926808962883840,2022-02-15-12:06:48,10.1.1.2,21,0.090,0.090,0.090,0.000,0.000,0.000
1644926809023273984,2022-02-15-12:06:49,10.1.1.2,31,0.100,0.100,0.100,0.000,0.000,0.000
1644926809063566080,2022-02-15-12:06:49,10.1.1.2,21,0.090,0.090,0.090,0.000,0.000,0.000
1644926809123682048,2022-02-15-12:06:49,10.1.1.2,29,0.080,0.080,0.080,0.000,0.000,0.000
1644926809163491072,2022-02-15-12:06:49,10.1.1.2,19,0.071,0.071,0.071,0.000,0.000,0.000
1644926809224303104,2022-02-15-12:06:49,10.1.1.2,29,0.060,0.060,0.060,0.000,0.000,0.000
1644926809283513088,2022-02-15-12:06:49,10.1.1.2,38,0.050,0.050,0.050,0.000,0.000,0.000
1644926809323517184,2022-02-15-12:06:49,10.1.1.2,28,0.040,0.040,0.040,0.000,0.000,0.000
1644926809384228096,2022-02-15-12:06:49,10.1.1.2,37,0.030,0.030,0.030,0.000,0.000,0.000
1644926809424123904,2022-02-15-12:06:49,10.1.1.2,27,0.020,0.020,0.020,0.000,0.000,0.000
1644926809484199936,2022-02-15-12:06:49,10.1.1.2,36,0.010,0.010,0.010,0.000,0.000,0.000
1644926809523283968,2022-02-15-12:06:49,10.1.1.2,25,0.000,0.000,0.000,0.000,0.000,0.000
1644926809583168000,2022-02-15-12:06:49,10.1.1.2,35,-0.010,-0.010,-0.010,0.000,0.000,0.000
1644926809623044096,2022-02-15-12:06:49,10.1.1.2,24,-0.020,-0.020,-0.020,0.000,0.000,0.000
1644926809683384832,2022-02-15-12:06:49,10.1.1.2,33,-0.030,-0.030,-0.030,0.000,0.000,0.000
1644926809723390976,2022-02-15-12:06:49,10.1.1.2,22,-0.040,-0.040,-0.040,0.000,0.000,0.000
1644926809783289856,2022-02-15-12:06:49,10.1.1.2,32,-0.050,-0.050,-0.050,0.000,0.000,0.000
1644926809831213056,2022-02-15-12:06:49,10.1.1.2,21,-0.060,-0.060,-0.060,0.000,0.000,0.000
1644926809883745792,2022-02-15-12:06:49,10.1.1.2,31,-0.070,-0.070,-0.070,0.000,0.000,0.000
1644926809944557824,2022-02-15-12:06:49,10.1.1.2,27,-0.080,-0.080,-0.080,0.000,0.000,0.000
1644926810003627008,2022-02-15-12:06:50,10.1.1.2,36,-0.090,-0.090,-0.090,0.000,0.000,0.000
1644926810044410112,2022-02-15-12:06:50,10.1.1.2,26,-0.100,-0.100,-0.100,0.000,0.000,0.000
1644926810103621888,2022-02-15-12:06:50,10.1.1.2,35,-0.090,-0.090,-0.090,0.000,0.000,0.000
1644926810144093952,2022-02-15-12:06:50,10.1.1.2,24,-0.080,-0.080,-0.080,0.000,0.000,0.000
1644926810204762880,2022-02-15-12:06:50,10.1.1.2,34,-0.070,-0.070,-0.070,0.000,0.000,0.000
1644926810243534080,2022-02-15-12:06:50,10.1.1.2,23,-0.060,-0.060,-0.060,0.000,0.000,0.000
1644926810303694848,2022-02-15-12:06:50,10.1.1.2,32,-0.050,-0.050,-0.050,0.000,0.000,0.000
1644926810345335040,2022-02-15-12:06:50,10.1.1.2,22,-0.040,-0.040,-0.040,0.000,0.000,0.000
1644926810403724800,2022-02-15-12:06:50,10.1.1.2,31,-0.030,-0.030,-0.030,0.000,0.000,0.000
1644926810451044096,2022-02-15-12:06:50,10.1.1.2,20,-0.020,-0.020,-0.020,0.000,0.000,0.000
1644926810503314944,2022-02-15-12:06:50,10.1.1.2,29,-0.010,-0.010,-0.010,0.000,0.000,0.000
1644926810563246848,2022-02-15-12:06:50,10.1.1.2,35,0.000,0.000,0.000,0.000,0.000,0.000
1644926810603801088,2022-02-15-12:06:50,10.1.1.2,24,0.010,0.010,0.010,0.000,0.000,0.000
1644926810663753984,2022-02-15-12:06:50,10.1.1.2,33,0.020,0.020,0.020,0.000,0.000,0.000
1644926810704274944,2022-02-15-12:06:50,10.1.1.2,21,0.030,0.030,0.030,0.000,0.000,0.000
1644926810763841024,2022-02-15-12:06:50,10.1.1.2,31,0.040,0.040,0.040,0.000,0.000,0.000
1644926810803180032,2022-02-15-12:06:50,10.1.1.2,20,0.050,0.050,0.050,0.000,0.000,0.000
1644926810863804928,2022-02-15-12:06:50,10.1.1.2,29,0.060,0.060,0.060,0.000,0.000,0.000
1644926810903898112,2022-02-15-12:06:50,10.1.1.2,18,0.069,0.069,0.069,0.000,0.000,0.000
1644926810963944960,2022-02-15-12:06:50,10.1.1.2,28,0.080,0.080,0.080,0.000,0.000,0.000
1644926811025837824,2022-02-15-12:06:51,10.1.1.2,38,0.090,0.090,0.090,0.000,0.000,0.000
1644926811064003840,2022-02-15-12:06:51,10.1.1.2,26,0.100,0.100,0.100,0.000,0.000,0.000
1644926811123655936,2022-02-15-12:06:51,10.1.1.2,35,0.090,0.090,0.090,0.000,0.000,0.000
1644926811163589888,2022-02-15-12:06:51,10.1.1.2,24,0.080,0.080,0.080,0.000,0.000,0.000
1644926811224049152,2022-02-15-12:06:51,10.1.1.2,34,0.070,0.070,0.070,0.000,0.000,0.000
1644926811263746048,2022-02-15-12:06:51,10.1.1.2,24,0.060,0.060,0.060,0.000,0.000,0.000
1644926811324196096,2022-02-15-12:06:51,10.1.1.2,33,0.050,0.050,0.050,0.000,0.000,0.000
1644926811363944960,2022-02-15-12:06:51,10.1.1.2,21,0.040,0.040,0.040,0.000,0.000,0.000
1644926811425693952,2022-02-15-12:06:51,10.1.1.2,29,0.030,0.030,0.030,0.000,0.000,0.000
1644926811483758080,2022-02-15-12:06:51,10.1.1.2,38,0.020,0.020,0.020,0.000,0.000,0.000
1644926811523868928,2022-02-15-12:06:51,10.1.1.2,27,0.010,0.010,0.010,0.000,0.000,0.000
1644926811583624960,2022-02-15-12:06:51,10.1.1.2,36,0.000,0.000,0.000,0.000,0.000,0.000
1644926811625032960,2022-02-15-12:06:51,10.1.1.2,25,-0.010,-0.010,-0.010,0.000,0.000,0.000
1644926811724349952,2022-02-15-12:06:51,10.1.1.2,21,-0.030,-0.030,-0.030,0.000,0.000,0.000
1644926811783920128,2022-02-15-12:06:51,10.1.1.2,31,-0.040,-0.040,-0.040,0.000,0.000,0.000
1644926811824614912,2022-02-15-12:06:51,10.1.1.2,20,-0.050,-0.050,-0.050,0.000,0.000,0.000
1644926811883264000,2022-02-15-12:06:51,10.1.1.2,29,-0.060,-0.060,-0.060,0.000,0.000,0.000
1644926811943599104,2022-02-15-12:06:51,10.1.1.2,37,-0.070,-0.070,-0.070,0.000,0.000,0.000
1644926811983499008,2022-02-15-12:06:51,10.1.1.2,26,-0.080,-0.080,-0.080,0.000,0.000,0.000
1644926812043820032,2022-02-15-12:06:52,10.1.1.2,36,-0.090,-0.090,-0.090,0.000,0.000,0.000
1644926812084014848,2022-02-15-12:06:52,10.1.1.2,25,-0.100,-0.100,-0.100,0.000,0.000,0.000
1644926812144634112,2022-02-15-12:06:52,10.1.1.2,32,-0.090,-0.090,-0.090,0.000,0.000,0.000
1644926812183136000,2022-02-15-12:06:52,10.1.1.2,21,-0.080,-0.080,-0.080,0.000,0.000,0.000
1644926812243568896,2022-02-15-12:06:52,10.1.1.2,31,-0.070,-0.070,-0.070,0.000,0.000,0.000
1644926812283176960,2022-02-15-12:06:52,10.1.1.2,20,-0.060,-0.060,-0.060,0.000,0.000,0.000
1644926812343635200,2022-02-15-12:06:52,10.1.1.2,29,-0.050,-0.050,-0.050,0.000,0.000,0.000
1644926812403698944,2022-02-15-12:06:52,10.1.1.2,38,-0.040,-0.040,-0.040,0.000,0.000,0.000
1644926812443068928,2022-02-15-12:06:52,10.1.1.2,27,-0.030,-0.030,-0.030,0.000,0.000,0.000
1644926812503282176,2022-02-15-12:06:52,10.1.1.2,37,-0.020,-0.020,-0.020,0.000,0.000,0.000
1644926812543896064,2022-02-15-12:06:52,10.1.1.2,27,-0.010,-0.010,-0.010,0.000,0.000,0.000
1644926812603599104,2022-02-15-12:06:52,10.1.1.2,36,0.000,0.000,0.000,0.000,0.000,0.000
1644926812644654080,2022-02-15-12:06:52,10.1.1.2,25,0.010,0.010,0.010,0.000,0.000,0.000
1644926812703847936,2022-02-15-12:06:52,10.1.1.2,35,0.020,0.020,0.020,0.000,0.000,0.000
1644926812743742976,2022-02-15-12:06:52,10.1.1.2,23,0.030,0.030,0.030,0.000,0.000,0.000
1644926812804377088,2022-02-15-12:06:52,10.1.1.2,33,0.040,0.040,0.040,0.000,0.000,0.000
1644926812844084992,2022-02-15-12:06:52,10.1.1.2,22,0.050,0.050,0.050,0.000,0.000,0.000
1644926812903343872,2022-02-15-12:06:52,10.1.1.2,30,0.060,0.060,0.060,0.000,0.000,0.000
1644926812963720960,2022-02-15-12:06:52,10.1.1.2,38,0.070,0.070,0.070,0.000,0.000,0.000
1644926813003068928,2022-02-15-12:06:53,10.1.1.2,27,0.080,0.080,0.080,0.000,0.000,0.000
1644926813063790080,2022-02-15-12:06:53,10.1.1.2,36,0.090,0.090,0.090,0.000,0.000,0.000
1644926813103652096,2022-02-15-12:06:53,10.1.1.2,25,0.100,0.100,0.100,0.000,0.000,0.000
1644926813163568128,2022-02-15-12:06:53,10.1.1.2,34,0.090,0.090,0.090,0.000,0.000,0.000
1644926813203817984,2022-02-15-12:06:53,10.1.1.2,23,0.080,0.080,0.080,0.000,0.000,0.000
1644926813263510016,2022-02-15-12:06:53,10.1.1.2,32,0.070,0.070,0.070,0.000,0.000,0.000
1644926813303555072,2022-02-15-12:06:53,10.1.1.2,22,0.060,0.060,0.060,0.000,0.000,0.000
1644926813370317056,2022-02-15-12:06:53,10.1.1.2,31,0.050,0.050,0.050,0.000,0.000,0.000
1644926813404032000,2022-02-15-12:06:53,10.1.1.2,19,0.040,0.040,0.040,0.000,0.000,0.000
1644926813463687936,2022-02-15-12:06:53,10.1.1.2,27,0.030,0.030,0.030,0.000,0.000,0.000
1644926813523055104,2022-02-15-12:06:53,10.1.1.2,35,0.020,0.020,0.020,0.000,0.000,0.000
1644926813564559104,2022-02-15-12:06:53,10.1.1.2,23,0.010,0.010,0.010,0.000,0.000,0.000
1644926813623881984,2022-02-15-12:06:53,10.1.1.2,31,0.000,0.000,0.000,0.000,0.000,0.000
1644926813663228928,2022-02-15-12:06:53,10.1.1.2,20,-0.010,-0.010,-0.010,0.000,0.000,0.000
1644926813723825920,2022-02-15-12:06:53,10.1.1.2,29,-0.020,-0.020,-0.020,0.000,0.000,0.000
1644926813786425088,2022-02-15-12:06:53,10.1.1.2,38,-0.030,-0.030,-0.030,0.000,0.000,0.000
1644926813825683968,2022-02-15-12:06:53,10.1.1.2,28,-0.040,-0.040,-0.040,0.000,0.000,0.000
1644926813884807168,2022-02-15-12:06:53,10.1.1.2,36,-0.050,-0.050,-0.050,0.000,0.000,0.000
1644926813924435968,2022-02-15-12:06:53,10.1.1.2,26,-0.060,-0.060,-0.060,0.000,0.000,0.000
1644926813984054016,2022-02-15-12:06:53,10.1.1.2,33,-0.070,-0.070,-0.070,0.000,0.000,0.000
1644926814025262080,2022-02-15-12:06:54,10.1.1.2,23,-0.080,-0.080,-0.080,0.000,0.000,0.000
1644926814084163840,2022-02-15-12:06:54,10.1.1.2,32,-0.090,-0.090,-0.090,0.000,0.000,0.000
1644926814124768000,2022-02-15-12:06:54,10.1.1.2,22,-0.100,-0.100,-0.100,0.000,0.000,0.000
1644926814263734016,2022-02-15-12:06:54,10.1.1.2,29,-0.080,-0.080,-0.080,0.000,0.000,0.000
1644926814325462016,2022-02-15-12:06:54,10.1.1.2,37,-0.070,-0.070,-0.070,0.000,0.000,0.000
1644926814363753984,2022-02-15-12:06:54,10.1.1.2,26,-0.060,-0.060,-0.060,0.000,0.000,0.000
1644926814424158208,2022-02-15-12:06:54,10.1.1.2,36,-0.050,-0.050,-0.050,0.000,0.000,0.000
1644926814463727872,2022-02-15-12:06:54,10.1.1.2,25,-0.040,-0.040,-0.040,0.000,0.000,0.000
1644926814523684096,2022-02-15-12:06:54,10.1.1.2,34,-0.030,-0.030,-0.030,0.000,0.000,0.000
1644926814563478016,2022-02-15-12:06:54,10.1.1.2,24,-0.020,-0.020,-0.020,0.000,0.000,0.000
1644926814623217152,2022-02-15-12:06:54,10.1.1.2,33,-0.010,-0.010,-0.010,0.000,0.000,0.000
1644926814663686144,2022-02-15-12:06:54,10.1.1.2,23,0.000,0.000,0.000,0.000,0.000,0.000
1644926814725719040,2022-02-15-12:06:54,10.1.1.2,32,0.010,0.010,0.010,0.000,0.000,0.000
1644926814763556864,2022-02-15-12:06:54,10.1.1.2,21,0.020,0.020,0.020,0.000,0.000,0.000
1644926814824620032,2022-02-15-12:06:54,10.1.1.2,31,0.030,0.030,0.030,0.000,0.000,0.000
1644926814863838976,2022-02-15-12:06:54,10.1.1.2,19,0.039,0.039,0.039,0.000,0.000,0.000
1644926814924508928,2022-02-15-12:06:54,10.1.1.2,28,0.050,0.050,0.050,0.000,0.000,0.000
1644926814983180032,2022-02-15-12:06:54,10.1.1.2,37,0.060,0.060,0.060,0.000,0.000,0.000
1644926815023638016,2022-02-15-12:06:55,10.1.1.2,27,0.070,0.070,0.070,0.000,0.000,0.000
1644926815083939072,2022-02-15-12:06:55,10.1.1.2,36,0.080,0.080,0.080,0.000,0.000,0.000
1644926815123641088,2022-02-15-12:06:55,10.1.1.2,25,0.090,0.090,0.090,0.000,0.000,0.000
1644926815183724032,2022-02-15-12:06:55,10.1.1.2,34,0.100,0.100,0.100,0.000,0.000,0.000
1644926815223688960,2022-02-15-12:06:55,10.1.1.2,24,0.090,0.090,0.090,0.000,0.000,0.000
1644926815283292160,2022-02-15-12:06:55,10.1.1.2,34,0.080,0.080,0.080,0.000,0.000,0.000
1644926815324423168,2022-02-15-12:06:55,10.1.1.2,23,0.070,0.070,0.070,0.000,0.000,0.000
1644926815388581888,2022-02-15-12:06:55,10.1.1.2,32,0.060,0.060,0.060,0.000,0.000,0.000
1644926815423710208,2022-02-15-12:06:55,10.1.1.2,21,0.050,0.050,0.050,0.000,0.000,0.000
1644926815484230912,2022-02-15-12:06:55,10.1.1.2,29,0.040,0.040,0.040,0.000,0.000,0.000
1644926815544284160,2022-02-15-12:06:55,10.1.1.2,38,0.030,0.030,0.030,0.000,0.000,0.000
1644926815583374080,2022-02-15-12:06:55,10.1.1.2,27,0.020,0.020,0.020,0.000,0.000,0.000
1644926815644109056,2022-02-15-12:06:55,10.1.1.2,37,0.010,0.010,0.010,0.000,0.000,0.000
1644926815683655936,2022-02-15-12:06:55,10.1.1.2,26,0.000,0.000,0.000,0.000,0.000,0.000
1644926815743664896,2022-02-15-12:06:55,10.1.1.2,36,-0.010,-0.010,-0.010,0.000,0.000,0.000
1644926815783894016,2022-02-15-12:06:55,10.1.1.2,24,-0.020,-0.020,-0.020,0.000,0.000,0.000
1644926815843651072,2022-02-15-12:06:55,10.1.1.2,34,-0.030,-0.030,-0.030,0.000,0.000,0.000
1644926815883245056,2022-02-15-12:06:55,10.1.1.2,23,-0.040,-0.040,-0.040,0.000,0.000,0.000
1644926815943428096,2022-02-15-12:06:55,10.1.1.2,33,-0.050,-0.050,-0.050,0.000,0.000,0.000
1644926815984124928,2022-02-15-12:06:55,10.1.1.2,22,-0.060,-0.060,-0.060,0.000,0.000,0.000
1644926816050808064,2022-02-15-12:06:56,10.1.1.2,31,-0.070,-0.070,-0.070,0.000,0.000,0.000
1644926816083444992,2022-02-15-12:06:56,10.1.1.2,20,-0.080,-0.080,-0.080,0.000,0.000,0.000
1644926816143599872,2022-02-15-12:06:56,10.1.1.2,30,-0.090,-0.090,-0.090,0.000,0.000,0.000
1644926816183965952,2022-02-15-12:06:56,10.1.1.2,20,-0.100,-0.100,-0.100,0.000,0.000,0.000
1644926816247646976,2022-02-15-12:06:56,10.1.1.2,29,-0.090,-0.090,-0.090,0.000,0.000,0.000
1644926816304122880,2022-02-15-12:06:56,10.1.1.2,37,-0.080,-0.080,-0.080,0.000,0.000,0.000
1644926816343993856,2022-02-15-12:06:56,10.1.1.2,27,-0.070,-0.070,-0.070,0.000,0.000,0.000
1644926816406155008,2022-02-15-12:06:56,10.1.1.2,37,-0.060,-0.060,-0.060,0.000,0.000,0.000
1644926816445739008,2022-02-15-12:06:56,10.1.1.2,27,-0.050,-0.050,-0.050,0.000,0.000,0.000
1644926816503473152,2022-02-15-12:06:56,10.1.1.2,30,-0.040,-0.040,-0.040,0.000,0.000,0.000
1644926816543335936,2022-02-15-12:06:56,10.1.1.2,20,-0.030,-0.030,-0.030,0.000,0.000,0.000
1644926816616328960,2022-02-15-12:06:56,10.1.1.2,29,-0.020,-0.020,-0.020,0.000,0.000,0.000
1644926816703249920,2022-02-15-12:06:56,10.1.1.2,20,0.000,0.000,0.000,0.000,0.000,0.000
1644926816806852096,2022-02-15-12:06:56,10.1.1.2,38,0.010,0.010,0.010,0.000,0.000,0.000
1644926816843051008,2022-02-15-12:06:56,10.1.1.2,27,0.020,0.020,0.020,0.000,0.000,0.000
1644926816902865920,2022-02-15-12:06:56,10.1.1.2,35,0.030,0.030,0.030,0.000,0.000,0.000
1644926816943526912,2022-02-15-12:06:56,10.1.1.2,24,0.040,0.040,0.040,0.000,0.000,0.000
1644926817004198144,2022-02-15-12:06:57,10.1.1.2,34,0.050,0.050,0.050,0.000,0.000,0.000
1644926817047600896,2022-02-15-12:06:57,10.1.1.2,23,0.060,0.060,0.060,0.000,0.000,0.000
1644926817143738880,2022-02-15-12:06:57,10.1.1.2,19,0.079,0.079,0.079,0.000,0.000,0.000
1644926817204876032,2022-02-15-12:06:57,10.1.1.2,28,0.090,0.090,0.090,0.000,0.000,0.000
1644926817263364096,2022-02-15-12:06:57,10.1.1.2,34,0.100,0.100,0.100,0.000,0.000,0.000
1644926817305761024,2022-02-15-12:06:57,10.1.1.2,23,0.090,0.090,0.090,0.000,0.000,0.000
1644926817363806976,2022-02-15-12:06:57,10.1.1.2,32,0.080,0.080,0.080,0.000,0.000,0.000
1644926817403620096,2022-02-15-12:06:57,10.1.1.2,22,0.070,0.070,0.070,0.000,0.000,0.000
1644926817463654912,2022-02-15-12:06:57,10.1.1.2,31,0.060,0.060,0.060,0.000,0.000,0.000
1644926817505549056,2022-02-15-12:06:57,10.1.1.2,20,0.050,0.050,0.050,0.000,0.000,0.000
1644926817563911936,2022-02-15-12:06:57,10.1.1.2,30,0.040,0.040,0.040,0.000,0.000,0.000
1644926817603621120,2022-02-15-12:06:57,10.1.1.2,19,0.031,0.031,0.031,0.000,0.000,0.000
1644926817664820992,2022-02-15-12:06:57,10.1.1.2,28,0.020,0.020,0.020,0.000,0.000,0.000
1644926817726716928,2022-02-15-12:06:57,10.1.1.2,37,0.010,0.010,0.010,0.000,0.000,0.000
1644926817765428992,2022-02-15-12:06:57,10.1.1.2,26,0.000,0.000,0.000,0.000,0.000,0.000
1644926817863406848,2022-02-15-12:06:57,10.1.1.2,25,-0.020,-0.020,-0.020,0.000,0.000,0.000
1644926817924222976,2022-02-15-12:06:57,10.1.1.2,35,-0.030,-0.030,-0.030,0.000,0.000,0.000
1644926817963994880,2022-02-15-12:06:57,10.1.1.2,24,-0.040,-0.040,-0.040,0.000,0.000,0.000
1644926818024080896,2022-02-15-12:06:58,10.1.1.2,33,-0.050,-0.050,-0.050,0.000,0.000,0.000
1644926818064156928,2022-02-15-12:06:58,10.1.1.2,22,-0.060,-0.060,-0.060,0.000,0.000,0.000
1644926818129064192,2022-02-15-12:06:58,10.1.1.2,31,-0.070,-0.070,-0.070,0.000,0.000,0.000
1644926818163877888,2022-02-15-12:06:58,10.1.1.2,20,-0.080,-0.080,-0.080,0.000,0.000,0.000
1644926818224783872,2022-02-15-12:06:58,10.1.1.2,30,-0.090,-0.090,-0.090,0.000,0.000,0.000
1644926818283826176,2022-02-15-12:06:58,10.1.1.2,39,-0.100,-0.100,-0.100,0.000,0.000,0.000
1644926818330697984,2022-02-15-12:06:58,10.1.1.2,21,-0.090,-0.090,-0.090,0.000,0.000,0.000
1644926818383759872,2022-02-15-12:06:58,10.1.1.2,31,-0.080,-0.080,-0.080,0.000,0.000,0.000
1644926818424771072,2022-02-15-12:06:58,10.1.1.2,20,-0.070,-0.070,-0.070,0.000,0.000,0.000
1644926818483819008,2022-02-15-12:06:58,10.1.1.2,29,-0.060,-0.060,-0.060,0.000,0.000,0.000
1644926818524025856,2022-02-15-12:06:58,10.1.1.2,19,-0.050,-0.050,-0.050,0.000,0.000,0.000
1644926818585287936,2022-02-15-12:06:58,10.1.1.2,28,-0.040,-0.040,-0.040,0.000,0.000,0.000
1644926818643330048,2022-02-15-12:06:58,10.1.1.2,37,-0.030,-0.030,-0.030,0.000,0.000,0.000
1644926818683206144,2022-02-15-12:06:58,10.1.1.2,27,-0.020,-0.020,-0.020,0.000,0.000,0.000
1644926818743356928,2022-02-15-12:06:58,10.1.1.2,36,-0.010,-0.010,-0.010,0.000,0.000,0.000
1644926818784219136,2022-02-15-12:06:58,10.1.1.2,25,0.000,0.000,0.000,0.000,0.000,0.000
1644926818844350976,2022-02-15-12:06:58,10.1.1.2,34,0.010,0.010,0.010,0.000,0.000,0.000
1644926818883277824,2022-02-15-12:06:58,10.1.1.2,24,0.020,0.020,0.020,0.000,0.000,0.000
1644926818943664128,2022-02-15-12:06:58,10.1.1.2,33,0.030,0.030,0.030,0.000,0.000,0.000
1644926818983348992,2022-02-15-12:06:58,10.1.1.2,23,0.040,0.040,0.040,0.000,0.000,0.000
1644926819044774144,2022-02-15-12:06:59,10.1.1.2,32,0.050,0.050,0.050,0.000,0.000,0.000
1644926819083759104,2022-02-15-12:06:59,10.1.1.2,22,0.060,0.060,0.060,0.000,0.000,0.000
1644926819146057984,2022-02-15-12:06:59,10.1.1.2,31,0.070,0.070,0.070,0.000,0.000,0.000
1644926819184339968,2022-02-15-12:06:59,10.1.1.2,20,0.080,0.080,0.080,0.000,0.000,0.000
1644926819247123968,2022-02-15-12:06:59,10.1.1.2,29,0.090,0.090,0.090,0.000,0.000,0.000
1644926819303597056,2022-02-15-12:06:59,10.1.1.2,37,0.100,0.100,0.100,0.000,0.000,0.000
1644926819344201984,2022-02-15-12:06:59,10.1.1.2,26,0.090,0.090,0.090,0.000,0.000,0.000
1644926819403585792,2022-02-15-12:06:59,10.1.1.2,36,0.080,0.080,0.080,0.000,0.000,0.000
1644926819444547840,2022-02-15-12:06:59,10.1.1.2,25,0.070,0.070,0.070,0.000,0.000,0.000
1644926819504194048,2022-02-15-12:06:59,10.1.1.2,33,0.060,0.060,0.060,0.000,0.000,0.000
1644926819544635136,2022-02-15-12:06:59,10.1.1.2,23,0.050,0.050,0.050,0.000,0.000,0.000
1644926819604491008,2022-02-15-12:06:59,10.1.1.2,31,0.040,0.040,0.040,0.000,0.000,0.000
1644926819644148224,2022-02-15-12:06:59,10.1.1.2,21,0.030,0.030,0.030,0.000,0.000,0.000
1644926819704463104,2022-02-15-12:06:59,10.1.1.2,28,0.020,0.020,0.020,0.000,0.000,0.000
1644926819767899136,2022-02-15-12:06:59,10.1.1.2,36,0.010,0.010,0.010,0.000,0.000,0.000
1644926819804595968,2022-02-15-12:06:59,10.1.1.2,26,0.000,0.000,0.000,0.000,0.000,0.000
1644926819863673088,2022-02-15-12:06:59,10.1.1.2,33,-0.010,-0.010,-0.010,0.000,0.000,0.000
1644926819904236032,2022-02-15-12:06:59,10.1.1.2,23,-0.020,-0.020,-0.020,0.000,0.000,0.000
1644926819963954944,2022-02-15-12:06:59,10.1.1.2,32,-0.030,-0.030,-0.030,0.000,0.000,0.000
1644926820004852992,2022-02-15-12:07:00,10.1.1.2,21,-0.040,-0.040,-0.040,0.000,0.000,0.000
1644926820064188928,2022-02-15-12:07:00,10.1.1.2,29,-0.050,-0.050,-0.050,0.000,0.000,0.000
1644926820103885056,2022-02-15-12:07:00,10.1.1.2,18,-0.059,-0.059,-0.059,0.000,0.000,0.000
1644926820164203776,2022-02-15-12:07:00,10.1.1.2,28,-0.070,-0.070,-0.070,0.000,0.000,0.000
1644926820224549120,2022-02-15-12:07:00,10.1.1.2,33,-0.080,-0.080,-0.080,0.000,0.000,0.000
1644926820264111104,2022-02-15-12:07:00,10.1.1.2,22,-0.090,-0.090,-0.090,0.000,0.000,0.000
1644926820326180096,2022-02-15-12:07:00,10.1.1.2,32,-0.100,-0.100,-0.100,0.000,0.000,0.000
1644926820363860992,2022-02-15-12:07:00,10.1.1.2,21,-0.090,-0.090,-0.090,0.000,0.000,0.000
1644926820424889088,2022-02-15-12:07:00,10.1.1.2,30,-0.080,-0.080,-0.080,0.000,0.000,0.000
1644926820464482048,2022-02-15-12:07:00,10.1.1.2,20,-0.070,-0.070,-0.070,0.000,0.000,0.000
1644926820524112896,2022-02-15-12:07:00,10.1.1.2,29,-0.060,-0.060,-0.060,0.000,0.000,0.000
1644926820585474048,2022-02-15-12:07:00,10.1.1.2,39,-0.050,-0.050,-0.050,0.000,0.000,0.000
1644926820624257024,2022-02-15-12:07:00,10.1.1.2,28,-0.040,-0.040,-0.040,0.000,0.000,0.000
