FedericoMungari/DigitalTwin_service/01_WiredScenario/Output/Output_script/script_rosapi_2_output_robots10_freq0_8.txt
timestamp,date,node,latency,joint_1,joint_2,joint_3,joint_4,joint_5,joint_6
1644926766273714176,2022-02-15-12:06:06,10.1.1.9,10,-0.100,-0.100,-0.100,0.000,0.000,-0.000
1644926766333869824,2022-02-15-12:06:06,10.1.1.9,19,-0.091,-0.091,-0.091,-0.000,0.000,0.000
1644926766393917184,2022-02-15-12:06:06,10.1.1.9,29,-0.080,-0.080,-0.080,0.000,0.000,0.000
1644926766453716992,2022-02-15-12:06:06,10.1.1.9,38,-0.070,-0.070,-0.070,0.000,0.000,0.000
1644926766493956096,2022-02-15-12:06:06,10.1.1.9,27,-0.060,-0.060,-0.060,0.000,0.000,0.000
1644926766554336000,2022-02-15-12:06:06,10.1.1.9,37,-0.050,-0.050,-0.050,0.000,0.000,0.000
1644926766593950976,2022-02-15-12:06:06,10.1.1.9,26,-0.040,-0.040,-0.040,0.000,0.000,0.000
1644926766653775104,2022-02-15-12:06:06,10.1.1.9,36,-0.030,-0.030,-0.030,0.000,0.000,0.000
1644926766693826048,2022-02-15-12:06:06,10.1.1.9,25,-0.020,-0.020,-0.020,0.000,0.000,0.000
1644926766753768960,2022-02-15-12:06:06,10.1.1.9,34,-0.010,-0.010,-0.010,0.000,0.000,0.000
1644926766794121984,2022-02-15-12:06:06,10.1.1.9,22,0.000,0.000,0.000,0.000,0.000,0.000
1644926766854702080,2022-02-15-12:06:06,10.1.1.9,31,0.010,0.010,0.010,0.000,0.000,0.000
1644926766894139904,2022-02-15-12:06:06,10.1.1.9,20,0.020,0.020,0.020,0.000,0.000,0.000
1644926766954690048,2022-02-15-12:06:06,10.1.1.9,30,0.030,0.030,0.030,0.000,0.000,0.000
1644926766994214912,2022-02-15-12:06:06,10.1.1.9,20,0.040,0.040,0.040,0.000,0.000,0.000
1644926767053700864,2022-02-15-12:06:07,10.1.1.9,29,0.050,0.050,0.050,0.000,0.000,0.000
1644926767113556992,2022-02-15-12:06:07,10.1.1.9,37,0.060,0.060,0.060,0.000,0.000,0.000
1644926767154372864,2022-02-15-12:06:07,10.1.1.9,27,0.070,0.070,0.070,0.000,0.000,0.000
1644926767213600000,2022-02-15-12:06:07,10.1.1.9,36,0.080,0.080,0.080,0.000,0.000,0.000
1644926767254030080,2022-02-15-12:06:07,10.1.1.9,26,0.090,0.090,0.090,0.000,0.000,0.000
1644926767394059008,2022-02-15-12:06:07,10.1.1.9,11,0.090,0.090,0.090,0.000,0.000,0.000
1644926767453437952,2022-02-15-12:06:07,10.1.1.9,21,0.080,0.080,0.080,0.000,0.000,0.000
1644926767513821952,2022-02-15-12:06:07,10.1.1.9,30,0.070,0.070,0.070,0.000,0.000,0.000
1644926767553879040,2022-02-15-12:06:07,10.1.1.9,19,0.060,0.060,0.060,0.000,0.000,0.000
1644926767614001920,2022-02-15-12:06:07,10.1.1.9,29,0.050,0.050,0.050,0.000,0.000,0.000
1644926767673508864,2022-02-15-12:06:07,10.1.1.9,37,0.040,0.040,0.040,0.000,0.000,0.000
1644926767714854912,2022-02-15-12:06:07,10.1.1.9,27,0.030,0.030,0.030,0.000,0.000,0.000
1644926767773709056,2022-02-15-12:06:07,10.1.1.9,35,0.020,0.020,0.020,0.000,0.000,0.000
1644926767814551040,2022-02-15-12:06:07,10.1.1.9,24,0.010,0.010,0.010,0.000,0.000,0.000
1644926767873784064,2022-02-15-12:06:07,10.1.1.9,31,-0.000,-0.000,-0.000,0.000,0.000,0.000
1644926767914489088,2022-02-15-12:06:07,10.1.1.9,21,-0.010,-0.010,-0.010,0.000,0.000,0.000
1644926767974160896,2022-02-15-12:06:07,10.1.1.9,29,-0.020,-0.020,-0.020,0.000,0.000,0.000
1644926768013315840,2022-02-15-12:06:08,10.1.1.9,19,-0.029,-0.029,-0.029,0.000,0.000,0.000
1644926768073685760,2022-02-15-12:06:08,10.1.1.9,28,-0.040,-0.040,-0.040,0.000,0.000,0.000
1644926768135098880,2022-02-15-12:06:08,10.1.1.9,37,-0.050,-0.050,-0.050,0.000,0.000,0.000
1644926768173696000,2022-02-15-12:06:08,10.1.1.9,27,-0.060,-0.060,-0.060,0.000,0.000,0.000
1644926768273500928,2022-02-15-12:06:08,10.1.1.9,25,-0.080,-0.080,-0.080,0.000,0.000,0.000
1644926768334060800,2022-02-15-12:06:08,10.1.1.9,35,-0.090,-0.090,-0.090,0.000,0.000,0.000
1644926768374170112,2022-02-15-12:06:08,10.1.1.9,20,-0.100,-0.100,-0.100,0.000,0.000,0.000
1644926768433841920,2022-02-15-12:06:08,10.1.1.9,30,-0.090,-0.090,-0.090,0.000,0.000,0.000
1644926768493747968,2022-02-15-12:06:08,10.1.1.9,38,-0.080,-0.080,-0.080,0.000,0.000,0.000
1644926768534294016,2022-02-15-12:06:08,10.1.1.9,26,-0.070,-0.070,-0.070,0.000,0.000,0.000
1644926768593339904,2022-02-15-12:06:08,10.1.1.9,35,-0.060,-0.060,-0.060,0.000,0.000,0.000
1644926768634924032,2022-02-15-12:06:08,10.1.1.9,25,-0.050,-0.050,-0.050,0.000,0.000,0.000
1644926768693794048,2022-02-15-12:06:08,10.1.1.9,34,-0.040,-0.040,-0.040,0.000,0.000,0.000
1644926768733548032,2022-02-15-12:06:08,10.1.1.9,24,-0.030,-0.030,-0.030,0.000,0.000,0.000
1644926768793476096,2022-02-15-12:06:08,10.1.1.9,31,-0.020,-0.020,-0.020,0.000,0.000,0.000
1644926768834511104,2022-02-15-12:06:08,10.1.1.9,21,-0.010,-0.010,-0.010,0.000,0.000,0.000
1644926768893533952,2022-02-15-12:06:08,10.1.1.9,30,0.000,0.000,0.000,0.000,0.000,0.000
1644926768933917952,2022-02-15-12:06:08,10.1.1.9,20,0.010,0.010,0.010,0.000,0.000,0.000
1644926768993541888,2022-02-15-12:06:08,10.1.1.9,29,0.020,0.020,0.020,0.000,0.000,0.000
1644926769054729984,2022-02-15-12:06:09,10.1.1.9,37,0.030,0.030,0.030,0.000,0.000,0.000
1644926769094438912,2022-02-15-12:06:09,10.1.1.9,26,0.040,0.040,0.040,0.000,0.000,0.000
1644926769153778944,2022-02-15-12:06:09,10.1.1.9,36,0.050,0.050,0.050,0.000,0.000,0.000
1644926769193868032,2022-02-15-12:06:09,10.1.1.9,25,0.060,0.060,0.060,0.000,0.000,0.000
1644926769254402048,2022-02-15-12:06:09,10.1.1.9,35,0.070,0.070,0.070,0.000,0.000,0.000
1644926769293682176,2022-02-15-12:06:09,10.1.1.9,23,0.080,0.080,0.080,0.000,0.000,0.000
1644926769353604096,2022-02-15-12:06:09,10.1.1.9,31,0.090,0.090,0.090,0.000,0.000,0.000
1644926769393906944,2022-02-15-12:06:09,10.1.1.9,21,0.100,0.100,0.100,0.000,0.000,0.000
1644926769453496064,2022-02-15-12:06:09,10.1.1.9,30,0.090,0.090,0.090,0.000,0.000,0.000
1644926769495027968,2022-02-15-12:06:09,10.1.1.9,20,0.080,0.080,0.080,0.000,0.000,0.000
1644926769553700864,2022-02-15-12:06:09,10.1.1.9,29,0.070,0.070,0.070,0.000,0.000,0.000
1644926769613643008,2022-02-15-12:06:09,10.1.1.9,37,0.060,0.060,0.060,0.000,0.000,0.000
1644926769653850112,2022-02-15-12:06:09,10.1.1.9,25,0.050,0.050,0.050,0.000,0.000,0.000
1644926769713280000,2022-02-15-12:06:09,10.1.1.9,35,0.040,0.040,0.040,0.000,0.000,0.000
1644926769753742080,2022-02-15-12:06:09,10.1.1.9,23,0.030,0.030,0.030,0.000,0.000,0.000
1644926769813995008,2022-02-15-12:06:09,10.1.1.9,32,0.020,0.020,0.020,0.000,0.000,0.000
1644926769853763072,2022-02-15-12:06:09,10.1.1.9,22,0.010,0.010,0.010,0.000,0.000,0.000
1644926769913892864,2022-02-15-12:06:09,10.1.1.9,31,0.000,0.000,0.000,0.000,0.000,0.000
1644926769953999872,2022-02-15-12:06:09,10.1.1.9,21,-0.010,-0.010,-0.010,0.000,0.000,0.000
1644926770013336832,2022-02-15-12:06:10,10.1.1.9,30,-0.020,-0.020,-0.020,0.000,0.000,0.000
1644926770054043904,2022-02-15-12:06:10,10.1.1.9,20,-0.030,-0.030,-0.030,0.000,0.000,0.000
1644926770113440000,2022-02-15-12:06:10,10.1.1.9,30,-0.040,-0.040,-0.040,0.000,0.000,0.000
1644926770153448960,2022-02-15-12:06:10,10.1.1.9,19,-0.050,-0.050,-0.050,0.000,0.000,0.000
1644926770214086144,2022-02-15-12:06:10,10.1.1.9,29,-0.060,-0.060,-0.060,0.000,0.000,0.000
1644926770413965824,2022-02-15-12:06:10,10.1.1.9,38,-0.090,-0.090,-0.090,0.000,0.000,0.000
1644926770453086976,2022-02-15-12:06:10,10.1.1.9,27,-0.100,-0.100,-0.100,0.000,0.000,0.000
1644926770513533952,2022-02-15-12:06:10,10.1.1.9,36,-0.090,-0.090,-0.090,0.000,0.000,0.000
1644926770553257984,2022-02-15-12:06:10,10.1.1.9,26,-0.080,-0.080,-0.080,0.000,0.000,0.000
1644926770613622784,2022-02-15-12:06:10,10.1.1.9,35,-0.070,-0.070,-0.070,0.000,0.000,0.000
1644926770653181184,2022-02-15-12:06:10,10.1.1.9,25,-0.060,-0.060,-0.060,0.000,0.000,0.000
1644926770714432000,2022-02-15-12:06:10,10.1.1.9,35,-0.050,-0.050,-0.050,0.000,0.000,0.000
1644926770753468160,2022-02-15-12:06:10,10.1.1.9,24,-0.040,-0.040,-0.040,0.000,0.000,0.000
1644926770813829888,2022-02-15-12:06:10,10.1.1.9,33,-0.030,-0.030,-0.030,0.000,0.000,0.000
1644926770853391872,2022-02-15-12:06:10,10.1.1.9,22,-0.020,-0.020,-0.020,0.000,0.000,0.000
1644926770913352960,2022-02-15-12:06:10,10.1.1.9,31,-0.010,-0.010,-0.010,0.000,0.000,0.000
1644926770954278912,2022-02-15-12:06:10,10.1.1.9,21,0.000,0.000,0.000,0.000,0.000,0.000
1644926771013588992,2022-02-15-12:06:11,10.1.1.9,30,0.010,0.010,0.010,0.000,0.000,0.000
1644926771053331968,2022-02-15-12:06:11,10.1.1.9,20,0.020,0.020,0.020,0.000,0.000,0.000
1644926771113157120,2022-02-15-12:06:11,10.1.1.9,29,0.030,0.030,0.030,0.000,0.000,0.000
1644926771173584896,2022-02-15-12:06:11,10.1.1.9,38,0.040,0.040,0.040,0.000,0.000,0.000
1644926771213357824,2022-02-15-12:06:11,10.1.1.9,27,0.050,0.050,0.050,0.000,0.000,0.000
1644926771273382912,2022-02-15-12:06:11,10.1.1.9,35,0.060,0.060,0.060,0.000,0.000,0.000
1644926771315212032,2022-02-15-12:06:11,10.1.1.9,24,0.070,0.070,0.070,0.000,0.000,0.000
1644926771373245952,2022-02-15-12:06:11,10.1.1.9,34,0.080,0.080,0.080,0.000,0.000,0.000
1644926771413295104,2022-02-15-12:06:11,10.1.1.9,23,0.090,0.090,0.090,0.000,0.000,0.000
1644926771473152000,2022-02-15-12:06:11,10.1.1.9,33,0.100,0.100,0.100,0.000,0.000,0.000
1644926771513524992,2022-02-15-12:06:11,10.1.1.9,22,0.090,0.090,0.090,0.000,0.000,0.000
1644926771573293824,2022-02-15-12:06:11,10.1.1.9,32,0.080,0.080,0.080,0.000,0.000,0.000
1644926771613289216,2022-02-15-12:06:11,10.1.1.9,21,0.070,0.070,0.070,0.000,0.000,0.000
1644926771673671936,2022-02-15-12:06:11,10.1.1.9,31,0.060,0.060,0.060,0.000,0.000,0.000
1644926771713308160,2022-02-15-12:06:11,10.1.1.9,20,0.050,0.050,0.050,0.000,0.000,0.000
1644926771773252096,2022-02-15-12:06:11,10.1.1.9,30,0.040,0.040,0.040,0.000,0.000,0.000
1644926771813132032,2022-02-15-12:06:11,10.1.1.9,20,0.030,0.030,0.030,0.000,0.000,0.000
1644926771895337216,2022-02-15-12:06:11,10.1.1.9,34,0.020,0.020,0.020,0.000,0.000,0.000
1644926771934066944,2022-02-15-12:06:11,10.1.1.9,19,0.010,0.010,0.010,0.000,0.000,0.000
1644926771993441024,2022-02-15-12:06:11,10.1.1.9,29,0.000,0.000,0.000,0.000,0.000,0.000
1644926772053463040,2022-02-15-12:06:12,10.1.1.9,38,-0.010,-0.010,-0.010,0.000,0.000,0.000
1644926772093935104,2022-02-15-12:06:12,10.1.1.9,28,-0.020,-0.020,-0.020,0.000,0.000,0.000
1644926772153355008,2022-02-15-12:06:12,10.1.1.9,37,-0.030,-0.030,-0.030,0.000,0.000,0.000
1644926772193303040,2022-02-15-12:06:12,10.1.1.9,27,-0.040,-0.040,-0.040,0.000,0.000,0.000
1644926772253343232,2022-02-15-12:06:12,10.1.1.9,36,-0.050,-0.050,-0.050,0.000,0.000,0.000
1644926772293555968,2022-02-15-12:06:12,10.1.1.9,26,-0.060,-0.060,-0.060,0.000,0.000,0.000
1644926772353556992,2022-02-15-12:06:12,10.1.1.9,36,-0.070,-0.070,-0.070,0.000,0.000,0.000
1644926772393112832,2022-02-15-12:06:12,10.1.1.9,25,-0.080,-0.080,-0.080,0.000,0.000,0.000
1644926772453729024,2022-02-15-12:06:12,10.1.1.9,34,-0.090,-0.090,-0.090,0.000,0.000,0.000
1644926772493671936,2022-02-15-12:06:12,10.1.1.9,24,-0.100,-0.100,-0.100,0.000,0.000,0.000
1644926772553772800,2022-02-15-12:06:12,10.1.1.9,34,-0.090,-0.090,-0.090,0.000,0.000,0.000
1644926772594477824,2022-02-15-12:06:12,10.1.1.9,24,-0.080,-0.080,-0.080,0.000,0.000,0.000
1644926772653826048,2022-02-15-12:06:12,10.1.1.9,32,-0.070,-0.070,-0.070,0.000,0.000,0.000
1644926772693698048,2022-02-15-12:06:12,10.1.1.9,22,-0.060,-0.060,-0.060,0.000,0.000,0.000
1644926772754401024,2022-02-15-12:06:12,10.1.1.9,31,-0.050,-0.050,-0.050,0.000,0.000,0.000
1644926772793698048,2022-02-15-12:06:12,10.1.1.9,21,-0.040,-0.040,-0.040,0.000,0.000,0.000
1644926772853385984,2022-02-15-12:06:12,10.1.1.9,30,-0.030,-0.030,-0.030,0.000,0.000,0.000
1644926772893280000,2022-02-15-12:06:12,10.1.1.9,20,-0.020,-0.020,-0.020,0.000,0.000,0.000
1644926772953728000,2022-02-15-12:06:12,10.1.1.9,29,-0.010,-0.010,-0.010,0.000,0.000,0.000
1644926773013585152,2022-02-15-12:06:13,10.1.1.9,38,0.000,0.000,0.000,0.000,0.000,0.000
1644926773053390080,2022-02-15-12:06:13,10.1.1.9,28,0.010,0.010,0.010,0.000,0.000,0.000
1644926773113233152,2022-02-15-12:06:13,10.1.1.9,37,0.020,0.020,0.020,0.000,0.000,0.000
1644926773153441024,2022-02-15-12:06:13,10.1.1.9,27,0.030,0.030,0.030,0.000,0.000,0.000
1644926773214099968,2022-02-15-12:06:13,10.1.1.9,36,0.040,0.040,0.040,0.000,0.000,0.000
1644926773254086144,2022-02-15-12:06:13,10.1.1.9,26,0.050,0.050,0.050,0.000,0.000,0.000
1644926773313596928,2022-02-15-12:06:13,10.1.1.9,36,0.060,0.060,0.060,0.000,0.000,0.000
1644926773353494016,2022-02-15-12:06:13,10.1.1.9,24,0.070,0.070,0.070,0.000,0.000,0.000
1644926773413431808,2022-02-15-12:06:13,10.1.1.9,34,0.080,0.080,0.080,0.000,0.000,0.000
1644926773453812992,2022-02-15-12:06:13,10.1.1.9,24,0.090,0.090,0.090,0.000,0.000,0.000
1644926773513981184,2022-02-15-12:06:13,10.1.1.9,33,0.100,0.100,0.100,0.000,0.000,0.000
1644926773553698048,2022-02-15-12:06:13,10.1.1.9,23,0.090,0.090,0.090,0.000,0.000,0.000
1644926773613831936,2022-02-15-12:06:13,10.1.1.9,31,0.080,0.080,0.080,0.000,0.000,0.000
1644926773653214976,2022-02-15-12:06:13,10.1.1.9,21,0.070,0.070,0.070,0.000,0.000,0.000
1644926773714534144,2022-02-15-12:06:13,10.1.1.9,30,0.060,0.060,0.060,0.000,0.000,0.000
1644926773754185984,2022-02-15-12:06:13,10.1.1.9,20,0.050,0.050,0.050,0.000,0.000,0.000
1644926773813744896,2022-02-15-12:06:13,10.1.1.9,30,0.040,0.040,0.040,0.000,0.000,0.000
1644926773873136128,2022-02-15-12:06:13,10.1.1.9,38,0.030,0.030,0.030,0.000,0.000,0.000
1644926773913239040,2022-02-15-12:06:13,10.1.1.9,27,0.020,0.020,0.020,0.000,0.000,0.000
1644926773973350144,2022-02-15-12:06:13,10.1.1.9,37,0.010,0.010,0.010,0.000,0.000,0.000
1644926774013992960,2022-02-15-12:06:14,10.1.1.9,27,0.000,0.000,0.000,0.000,0.000,0.000
1644926774073334016,2022-02-15-12:06:14,10.1.1.9,36,-0.010,-0.010,-0.010,0.000,0.000,0.000
1644926774113446912,2022-02-15-12:06:14,10.1.1.9,26,-0.020,-0.020,-0.020,0.000,0.000,0.000
1644926774173389824,2022-02-15-12:06:14,10.1.1.9,36,-0.030,-0.030,-0.030,0.000,0.000,0.000
1644926774213971968,2022-02-15-12:06:14,10.1.1.9,25,-0.040,-0.040,-0.040,0.000,0.000,0.000
1644926774273960192,2022-02-15-12:06:14,10.1.1.9,35,-0.050,-0.050,-0.050,0.000,0.000,0.000
1644926774313363200,2022-02-15-12:06:14,10.1.1.9,24,-0.060,-0.060,-0.060,0.000,0.000,0.000
1644926774374636800,2022-02-15-12:06:14,10.1.1.9,34,-0.070,-0.070,-0.070,0.000,0.000,0.000
1644926774413268992,2022-02-15-12:06:14,10.1.1.9,23,-0.080,-0.080,-0.080,0.000,0.000,0.000
1644926774473437952,2022-02-15-12:06:14,10.1.1.9,32,-0.090,-0.090,-0.090,0.000,0.000,0.000
1644926774513689088,2022-02-15-12:06:14,10.1.1.9,21,-0.100,-0.100,-0.100,0.000,0.000,0.000
1644926774573574912,2022-02-15-12:06:14,10.1.1.9,31,-0.090,-0.090,-0.090,0.000,0.000,0.000
1644926774614042880,2022-02-15-12:06:14,10.1.1.9,21,-0.080,-0.080,-0.080,0.000,0.000,0.000
1644926774673716992,2022-02-15-12:06:14,10.1.1.9,30,-0.070,-0.070,-0.070,0.000,0.000,0.000
1644926774713186048,2022-02-15-12:06:14,10.1.1.9,20,-0.060,-0.060,-0.060,0.000,0.000,0.000
1644926774773549056,2022-02-15-12:06:14,10.1.1.9,29,-0.050,-0.050,-0.050,0.000,0.000,0.000
1644926774813551872,2022-02-15-12:06:14,10.1.1.9,19,-0.041,-0.041,-0.041,0.000,0.000,0.000
1644926774873399040,2022-02-15-12:06:14,10.1.1.9,28,-0.030,-0.030,-0.030,0.000,0.000,0.000
1644926774933873920,2022-02-15-12:06:14,10.1.1.9,37,-0.020,-0.020,-0.020,0.000,0.000,0.000
1644926774973175040,2022-02-15-12:06:14,10.1.1.9,26,-0.010,-0.010,-0.010,0.000,0.000,0.000
1644926775033432064,2022-02-15-12:06:15,10.1.1.9,36,0.000,0.000,0.000,0.000,0.000,0.000
1644926775073687040,2022-02-15-12:06:15,10.1.1.9,25,0.010,0.010,0.010,0.000,0.000,0.000
1644926775134139136,2022-02-15-12:06:15,10.1.1.9,34,0.020,0.020,0.020,0.000,0.000,0.000
1644926775173192960,2022-02-15-12:06:15,10.1.1.9,23,0.030,0.030,0.030,0.000,0.000,0.000
1644926775233131008,2022-02-15-12:06:15,10.1.1.9,32,0.040,0.040,0.040,0.000,0.000,0.000
1644926775273644800,2022-02-15-12:06:15,10.1.1.9,21,0.050,0.050,0.050,0.000,0.000,0.000
1644926775333293824,2022-02-15-12:06:15,10.1.1.9,31,0.060,0.060,0.060,0.000,0.000,0.000
1644926775373539840,2022-02-15-12:06:15,10.1.1.9,21,0.070,0.070,0.070,0.000,0.000,0.000
1644926775433466880,2022-02-15-12:06:15,10.1.1.9,30,0.080,0.080,0.080,0.000,0.000,0.000
1644926775473728000,2022-02-15-12:06:15,10.1.1.9,20,0.090,0.090,0.090,0.000,0.000,0.000
1644926775533689856,2022-02-15-12:06:15,10.1.1.9,29,0.100,0.100,0.100,0.000,0.000,0.000
1644926775573616896,2022-02-15-12:06:15,10.1.1.9,19,0.091,0.091,0.091,0.000,0.000,0.000
1644926775633965056,2022-02-15-12:06:15,10.1.1.9,28,0.080,0.080,0.080,0.000,0.000,0.000
1644926775693268992,2022-02-15-12:06:15,10.1.1.9,37,0.070,0.070,0.070,0.000,0.000,0.000
1644926775733181952,2022-02-15-12:06:15,10.1.1.9,27,0.060,0.060,0.060,0.000,0.000,0.000
1644926775793533184,2022-02-15-12:06:15,10.1.1.9,37,0.050,0.050,0.050,0.000,0.000,0.000
1644926775833206784,2022-02-15-12:06:15,10.1.1.9,26,0.040,0.040,0.040,0.000,0.000,0.000
1644926775893830912,2022-02-15-12:06:15,10.1.1.9,35,0.030,0.030,0.030,0.000,0.000,0.000
1644926775933324032,2022-02-15-12:06:15,10.1.1.9,25,0.020,0.020,0.020,0.000,0.000,0.000
1644926775994035968,2022-02-15-12:06:15,10.1.1.9,35,0.010,0.010,0.010,0.000,0.000,0.000
1644926776034137856,2022-02-15-12:06:16,10.1.1.9,25,0.000,0.000,0.000,0.000,0.000,0.000
1644926776093963008,2022-02-15-12:06:16,10.1.1.9,34,-0.010,-0.010,-0.010,0.000,0.000,0.000
1644926776133384960,2022-02-15-12:06:16,10.1.1.9,23,-0.020,-0.020,-0.020,0.000,0.000,0.000
1644926776193092096,2022-02-15-12:06:16,10.1.1.9,32,-0.030,-0.030,-0.030,0.000,0.000,0.000
1644926776233262080,2022-02-15-12:06:16,10.1.1.9,22,-0.040,-0.040,-0.040,0.000,0.000,0.000
1644926776293080064,2022-02-15-12:06:16,10.1.1.9,31,-0.050,-0.050,-0.050,0.000,0.000,0.000
1644926776333213952,2022-02-15-12:06:16,10.1.1.9,21,-0.060,-0.060,-0.060,0.000,0.000,0.000
1644926776393691136,2022-02-15-12:06:16,10.1.1.9,30,-0.070,-0.070,-0.070,0.000,0.000,0.000
1644926776434097152,2022-02-15-12:06:16,10.1.1.9,20,-0.080,-0.080,-0.080,0.000,0.000,0.000
1644926776493981952,2022-02-15-12:06:16,10.1.1.9,29,-0.090,-0.090,-0.090,0.000,0.000,0.000
1644926776554070016,2022-02-15-12:06:16,10.1.1.9,39,-0.100,-0.100,-0.100,0.000,0.000,0.000
1644926776594121984,2022-02-15-12:06:16,10.1.1.9,27,-0.090,-0.090,-0.090,0.000,0.000,0.000
1644926776653295104,2022-02-15-12:06:16,10.1.1.9,37,-0.080,-0.080,-0.080,0.000,0.000,0.000
1644926776693746944,2022-02-15-12:06:16,10.1.1.9,25,-0.070,-0.070,-0.070,0.000,0.000,0.000
1644926776754306048,2022-02-15-12:06:16,10.1.1.9,35,-0.060,-0.060,-0.060,0.000,0.000,0.000
1644926776793669888,2022-02-15-12:06:16,10.1.1.9,20,-0.050,-0.050,-0.050,0.000,0.000,0.000
1644926776853676032,2022-02-15-12:06:16,10.1.1.9,30,-0.040,-0.040,-0.040,0.000,0.000,0.000
1644926776894004224,2022-02-15-12:06:16,10.1.1.9,20,-0.030,-0.030,-0.030,0.000,0.000,0.000
1644926776954066944,2022-02-15-12:06:16,10.1.1.9,28,-0.020,-0.020,-0.020,0.000,0.000,0.000
1644926777014247936,2022-02-15-12:06:17,10.1.1.9,38,-0.010,-0.010,-0.010,0.000,0.000,0.000
1644926777053798912,2022-02-15-12:06:17,10.1.1.9,27,0.000,0.000,0.000,0.000,0.000,0.000
1644926777113896960,2022-02-15-12:06:17,10.1.1.9,37,0.010,0.010,0.010,0.000,0.000,0.000
1644926777153884928,2022-02-15-12:06:17,10.1.1.9,26,0.020,0.020,0.020,0.000,0.000,0.000
1644926777214204160,2022-02-15-12:06:17,10.1.1.9,35,0.030,0.030,0.030,0.000,0.000,0.000
1644926777254492160,2022-02-15-12:06:17,10.1.1.9,24,0.040,0.040,0.040,0.000,0.000,0.000
1644926777314042112,2022-02-15-12:06:17,10.1.1.9,34,0.050,0.050,0.050,0.000,0.000,0.000
1644926777354450944,2022-02-15-12:06:17,10.1.1.9,23,0.060,0.060,0.060,0.000,0.000,0.000
1644926777413479936,2022-02-15-12:06:17,10.1.1.9,32,0.070,0.070,0.070,0.000,0.000,0.000
1644926777453743872,2022-02-15-12:06:17,10.1.1.9,21,0.080,0.080,0.080,0.000,0.000,0.000
1644926777513454080,2022-02-15-12:06:17,10.1.1.9,31,0.090,0.090,0.090,0.000,0.000,0.000
1644926777553724928,2022-02-15-12:06:17,10.1.1.9,21,0.100,0.100,0.100,0.000,0.000,0.000
1644926777614168832,2022-02-15-12:06:17,10.1.1.9,30,0.090,0.090,0.090,0.000,0.000,0.000
1644926777653971968,2022-02-15-12:06:17,10.1.1.9,20,0.080,0.080,0.080,0.000,0.000,0.000
1644926777714274816,2022-02-15-12:06:17,10.1.1.9,29,0.070,0.070,0.070,0.000,0.000,0.000
1644926777773587968,2022-02-15-12:06:17,10.1.1.9,39,0.060,0.060,0.060,0.000,0.000,0.000
1644926777813352960,2022-02-15-12:06:17,10.1.1.9,28,0.050,0.050,0.050,0.000,0.000,0.000
1644926777873519872,2022-02-15-12:06:17,10.1.1.9,38,0.040,0.040,0.040,0.000,0.000,0.000
1644926777913160960,2022-02-15-12:06:17,10.1.1.9,27,0.030,0.030,0.030,0.000,0.000,0.000
1644926777973400064,2022-02-15-12:06:17,10.1.1.9,37,0.020,0.020,0.020,0.000,0.000,0.000
1644926778013457920,2022-02-15-12:06:18,10.1.1.9,26,0.010,0.010,0.010,0.000,0.000,0.000
1644926778073643008,2022-02-15-12:06:18,10.1.1.9,36,0.000,0.000,0.000,0.000,0.000,0.000
1644926778113657088,2022-02-15-12:06:18,10.1.1.9,26,-0.010,-0.010,-0.010,0.000,0.000,0.000
1644926778173878016,2022-02-15-12:06:18,10.1.1.9,35,-0.020,-0.020,-0.020,0.000,0.000,0.000
1644926778213215232,2022-02-15-12:06:18,10.1.1.9,24,-0.030,-0.030,-0.030,0.000,0.000,0.000
1644926778273885952,2022-02-15-12:06:18,10.1.1.9,34,-0.040,-0.040,-0.040,0.000,0.000,0.000
1644926778313636096,2022-02-15-12:06:18,10.1.1.9,24,-0.050,-0.050,-0.050,0.000,0.000,0.000
1644926778373545984,2022-02-15-12:06:18,10.1.1.9,33,-0.060,-0.060,-0.060,0.000,0.000,0.000
1644926778413320960,2022-02-15-12:06:18,10.1.1.9,22,-0.070,-0.070,-0.070,0.000,0.000,0.000
1644926778473583872,2022-02-15-12:06:18,10.1.1.9,32,-0.080,-0.080,-0.080,0.000,0.000,0.000
1644926778513607936,2022-02-15-12:06:18,10.1.1.9,21,-0.090,-0.090,-0.090,0.000,0.000,0.000
1644926778573144064,2022-02-15-12:06:18,10.1.1.9,31,-0.100,-0.100,-0.100,0.000,0.000,0.000
1644926778613369088,2022-02-15-12:06:18,10.1.1.9,20,-0.090,-0.090,-0.090,0.000,0.000,0.000
1644926778673271040,2022-02-15-12:06:18,10.1.1.9,30,-0.080,-0.080,-0.080,0.000,0.000,0.000
1644926778713388032,2022-02-15-12:06:18,10.1.1.9,20,-0.070,-0.070,-0.070,0.000,0.000,0.000
1644926778773437952,2022-02-15-12:06:18,10.1.1.9,29,-0.060,-0.060,-0.060,0.000,0.000,0.000
1644926778834166016,2022-02-15-12:06:18,10.1.1.9,38,-0.050,-0.050,-0.050,0.000,0.000,0.000
1644926778873292800,2022-02-15-12:06:18,10.1.1.9,28,-0.040,-0.040,-0.040,0.000,0.000,0.000
1644926778933355008,2022-02-15-12:06:18,10.1.1.9,38,-0.030,-0.030,-0.030,0.000,0.000,0.000
1644926778973383936,2022-02-15-12:06:18,10.1.1.9,27,-0.020,-0.020,-0.020,0.000,0.000,0.000
1644926779033370112,2022-02-15-12:06:19,10.1.1.9,37,-0.010,-0.010,-0.010,0.000,0.000,0.000
1644926779073498112,2022-02-15-12:06:19,10.1.1.9,26,0.000,0.000,0.000,0.000,0.000,0.000
1644926779134192896,2022-02-15-12:06:19,10.1.1.9,36,0.010,0.010,0.010,0.000,0.000,0.000
1644926779173399040,2022-02-15-12:06:19,10.1.1.9,25,0.020,0.020,0.020,0.000,0.000,0.000
1644926779233684992,2022-02-15-12:06:19,10.1.1.9,35,0.030,0.030,0.030,0.000,0.000,0.000
1644926779273534976,2022-02-15-12:06:19,10.1.1.9,24,0.040,0.040,0.040,0.000,0.000,0.000
1644926779333988864,2022-02-15-12:06:19,10.1.1.9,34,0.050,0.050,0.050,0.000,0.000,0.000
1644926779373862912,2022-02-15-12:06:19,10.1.1.9,23,0.060,0.060,0.060,0.000,0.000,0.000
1644926779433760000,2022-02-15-12:06:19,10.1.1.9,32,0.070,0.070,0.070,0.000,0.000,0.000
1644926779473948928,2022-02-15-12:06:19,10.1.1.9,22,0.080,0.080,0.080,0.000,0.000,0.000
1644926779534006016,2022-02-15-12:06:19,10.1.1.9,31,0.090,0.090,0.090,0.000,0.000,0.000
1644926779573831168,2022-02-15-12:06:19,10.1.1.9,20,0.100,0.100,0.100,0.000,0.000,0.000
1644926779633223168,2022-02-15-12:06:19,10.1.1.9,30,0.090,0.090,0.090,0.000,0.000,0.000
1644926779673347072,2022-02-15-12:06:19,10.1.1.9,19,0.081,0.081,0.081,0.000,0.000,0.000
1644926779733319936,2022-02-15-12:06:19,10.1.1.9,29,0.070,0.070,0.070,0.000,0.000,0.000
1644926779793720064,2022-02-15-12:06:19,10.1.1.9,38,0.060,0.060,0.060,0.000,0.000,0.000
1644926779833894912,2022-02-15-12:06:19,10.1.1.9,27,0.050,0.050,0.050,0.000,0.000,0.000
1644926779893908992,2022-02-15-12:06:19,10.1.1.9,37,0.040,0.040,0.040,0.000,0.000,0.000
1644926779933304064,2022-02-15-12:06:19,10.1.1.9,27,0.030,0.030,0.030,0.000,0.000,0.000
1644926779993511936,2022-02-15-12:06:19,10.1.1.9,37,0.020,0.020,0.020,0.000,0.000,0.000
1644926780033191936,2022-02-15-12:06:20,10.1.1.9,26,0.010,0.010,0.010,0.000,0.000,0.000
1644926780095993088,2022-02-15-12:06:20,10.1.1.9,36,0.000,0.000,0.000,0.000,0.000,0.000
1644926780137975808,2022-02-15-12:06:20,10.1.1.9,22,-0.010,-0.010,-0.010,0.000,0.000,0.000
1644926780193382912,2022-02-15-12:06:20,10.1.1.9,31,-0.020,-0.020,-0.020,0.000,0.000,0.000
1644926780233443072,2022-02-15-12:06:20,10.1.1.9,20,-0.030,-0.030,-0.030,0.000,0.000,0.000
1644926780293518080,2022-02-15-12:06:20,10.1.1.9,30,-0.040,-0.040,-0.040,0.000,0.000,0.000
1644926780353398016,2022-02-15-12:06:20,10.1.1.9,39,-0.050,-0.050,-0.050,0.000,0.000,0.000
1644926780393728000,2022-02-15-12:06:20,10.1.1.9,28,-0.060,-0.060,-0.060,0.000,0.000,0.000
1644926780455604992,2022-02-15-12:06:20,10.1.1.9,37,-0.070,-0.070,-0.070,0.000,0.000,0.000
1644926780513129984,2022-02-15-12:06:20,10.1.1.9,39,-0.080,-0.080,-0.080,0.000,0.000,0.000
1644926780553203968,2022-02-15-12:06:20,10.1.1.9,28,-0.090,-0.090,-0.090,0.000,0.000,0.000
1644926780613302016,2022-02-15-12:06:20,10.1.1.9,38,-0.100,-0.100,-0.100,0.000,0.000,0.000
1644926780653340160,2022-02-15-12:06:20,10.1.1.9,27,-0.090,-0.090,-0.090,0.000,0.000,0.000
1644926780713588992,2022-02-15-12:06:20,10.1.1.9,36,-0.080,-0.080,-0.080,0.000,0.000,0.000
1644926780754347008,2022-02-15-12:06:20,10.1.1.9,26,-0.070,-0.070,-0.070,0.000,0.000,0.000
1644926780814409984,2022-02-15-12:06:20,10.1.1.9,35,-0.060,-0.060,-0.060,0.000,0.000,0.000
1644926780853523968,2022-02-15-12:06:20,10.1.1.9,25,-0.050,-0.050,-0.050,0.000,0.000,0.000
1644926780913959936,2022-02-15-12:06:20,10.1.1.9,35,-0.040,-0.040,-0.040,0.000,0.000,0.000
1644926780953707008,2022-02-15-12:06:20,10.1.1.9,24,-0.030,-0.030,-0.030,0.000,0.000,0.000
1644926781013824000,2022-02-15-12:06:21,10.1.1.9,34,-0.020,-0.020,-0.020,0.000,0.000,0.000
1644926781053390080,2022-02-15-12:06:21,10.1.1.9,23,-0.010,-0.010,-0.010,0.000,0.000,0.000
1644926781114070784,2022-02-15-12:06:21,10.1.1.9,31,0.000,0.000,0.000,0.000,0.000,0.000
1644926781153986048,2022-02-15-12:06:21,10.1.1.9,21,0.010,0.010,0.010,0.000,0.000,0.000
1644926781214262016,2022-02-15-12:06:21,10.1.1.9,30,0.020,0.020,0.020,0.000,0.000,0.000
1644926781253719040,2022-02-15-12:06:21,10.1.1.9,20,0.030,0.030,0.030,0.000,0.000,0.000
1644926781314022912,2022-02-15-12:06:21,10.1.1.9,29,0.040,0.040,0.040,0.000,0.000,0.000
1644926781353744896,2022-02-15-12:06:21,10.1.1.9,19,0.049,0.049,0.049,0.000,0.000,0.000
1644926781415736064,2022-02-15-12:06:21,10.1.1.9,26,0.060,0.060,0.060,0.000,0.000,0.000
1644926781475924992,2022-02-15-12:06:21,10.1.1.9,36,0.070,0.070,0.070,0.000,0.000,0.000
1644926781513261056,2022-02-15-12:06:21,10.1.1.9,25,0.080,0.080,0.080,0.000,0.000,0.000
1644926781633682944,2022-02-15-12:06:21,10.1.1.9,38,0.100,0.100,0.100,0.000,0.000,0.000
1644926781674500096,2022-02-15-12:06:21,10.1.1.9,27,0.090,0.090,0.090,0.000,0.000,0.000
1644926781734081024,2022-02-15-12:06:21,10.1.1.9,32,0.080,0.080,0.080,0.000,0.000,0.000
1644926781775639040,2022-02-15-12:06:21,10.1.1.9,21,0.070,0.070,0.070,0.000,0.000,0.000
1644926781836740096,2022-02-15-12:06:21,10.1.1.9,30,0.060,0.060,0.060,0.000,0.000,0.000
1644926781874476800,2022-02-15-12:06:21,10.1.1.9,20,0.050,0.050,0.050,0.000,0.000,0.000
1644926781934472192,2022-02-15-12:06:21,10.1.1.9,28,0.040,0.040,0.040,0.000,0.000,0.000
1644926781999640832,2022-02-15-12:06:21,10.1.1.9,36,0.030,0.030,0.030,0.000,0.000,0.000
1644926782035720192,2022-02-15-12:06:22,10.1.1.9,26,0.020,0.020,0.020,0.000,0.000,0.000
1644926782093518848,2022-02-15-12:06:22,10.1.1.9,32,0.010,0.010,0.010,0.000,0.000,0.000
1644926782133651968,2022-02-15-12:06:22,10.1.1.9,22,0.000,0.000,0.000,0.000,0.000,0.000
1644926782194060032,2022-02-15-12:06:22,10.1.1.9,31,-0.010,-0.010,-0.010,0.000,0.000,0.000
1644926782233772032,2022-02-15-12:06:22,10.1.1.9,20,-0.020,-0.020,-0.020,0.000,0.000,0.000
1644926782293874944,2022-02-15-12:06:22,10.1.1.9,30,-0.030,-0.030,-0.030,0.000,0.000,0.000
1644926782333456128,2022-02-15-12:06:22,10.1.1.9,19,-0.039,-0.039,-0.039,0.000,0.000,0.000
1644926782393361920,2022-02-15-12:06:22,10.1.1.9,28,-0.050,-0.050,-0.050,0.000,0.000,0.000
1644926782453752064,2022-02-15-12:06:22,10.1.1.9,38,-0.060,-0.060,-0.060,0.000,0.000,0.000
1644926782493763840,2022-02-15-12:06:22,10.1.1.9,25,-0.070,-0.070,-0.070,0.000,0.000,0.000
1644926782554657024,2022-02-15-12:06:22,10.1.1.9,35,-0.080,-0.080,-0.080,0.000,0.000,0.000
1644926782593664768,2022-02-15-12:06:22,10.1.1.9,24,-0.090,-0.090,-0.090,0.000,0.000,0.000
1644926782653740800,2022-02-15-12:06:22,10.1.1.9,31,-0.100,-0.100,-0.100,0.000,0.000,0.000
1644926782693757952,2022-02-15-12:06:22,10.1.1.9,21,-0.090,-0.090,-0.090,0.000,0.000,0.000
1644926782754157056,2022-02-15-12:06:22,10.1.1.9,30,-0.080,-0.080,-0.080,0.000,0.000,0.000
1644926782813910016,2022-02-15-12:06:22,10.1.1.9,38,-0.070,-0.070,-0.070,0.000,0.000,0.000
1644926782853650944,2022-02-15-12:06:22,10.1.1.9,26,-0.060,-0.060,-0.060,0.000,0.000,0.000
1644926782913753088,2022-02-15-12:06:22,10.1.1.9,35,-0.050,-0.050,-0.050,0.000,0.000,0.000
1644926782953550080,2022-02-15-12:06:22,10.1.1.9,23,-0.040,-0.040,-0.040,0.000,0.000,0.000
1644926783014128896,2022-02-15-12:06:23,10.1.1.9,32,-0.030,-0.030,-0.030,0.000,0.000,0.000
1644926783053551872,2022-02-15-12:06:23,10.1.1.9,21,-0.020,-0.020,-0.020,0.000,0.000,0.000
1644926783113295104,2022-02-15-12:06:23,10.1.1.9,30,-0.010,-0.010,-0.010,0.000,0.000,0.000
1644926783153726976,2022-02-15-12:06:23,10.1.1.9,19,-0.000,-0.000,-0.000,0.000,0.000,0.000
1644926783213149952,2022-02-15-12:06:23,10.1.1.9,29,0.010,0.010,0.010,0.000,0.000,0.000
1644926783273474048,2022-02-15-12:06:23,10.1.1.9,38,0.020,0.020,0.020,0.000,0.000,0.000
1644926783313443072,2022-02-15-12:06:23,10.1.1.9,26,0.030,0.030,0.030,0.000,0.000,0.000
1644926783373444096,2022-02-15-12:06:23,10.1.1.9,34,0.040,0.040,0.040,0.000,0.000,0.000
1644926783413889024,2022-02-15-12:06:23,10.1.1.9,23,0.050,0.050,0.050,0.000,0.000,0.000
1644926783473607168,2022-02-15-12:06:23,10.1.1.9,32,0.060,0.060,0.060,0.000,0.000,0.000
1644926783513302016,2022-02-15-12:06:23,10.1.1.9,20,0.070,0.070,0.070,0.000,0.000,0.000
1644926783573175040,2022-02-15-12:06:23,10.1.1.9,29,0.080,0.080,0.080,0.000,0.000,0.000
1644926783633348864,2022-02-15-12:06:23,10.1.1.9,38,0.090,0.090,0.090,0.000,0.000,0.000
1644926783673479168,2022-02-15-12:06:23,10.1.1.9,27,0.100,0.100,0.100,0.000,0.000,0.000
1644926783733315072,2022-02-15-12:06:23,10.1.1.9,37,0.090,0.090,0.090,0.000,0.000,0.000
1644926783773278976,2022-02-15-12:06:23,10.1.1.9,26,0.080,0.080,0.080,0.000,0.000,0.000
1644926783834671104,2022-02-15-12:06:23,10.1.1.9,35,0.070,0.070,0.070,0.000,0.000,0.000
1644926783873691136,2022-02-15-12:06:23,10.1.1.9,23,0.060,0.060,0.060,0.000,0.000,0.000
1644926783933694976,2022-02-15-12:06:23,10.1.1.9,32,0.050,0.050,0.050,0.000,0.000,0.000
1644926783973576192,2022-02-15-12:06:23,10.1.1.9,21,0.040,0.040,0.040,0.000,0.000,0.000
1644926784033266176,2022-02-15-12:06:24,10.1.1.9,31,0.030,0.030,0.030,0.000,0.000,0.000
1644926784073990144,2022-02-15-12:06:24,10.1.1.9,20,0.020,0.020,0.020,0.000,0.000,0.000
1644926784134916096,2022-02-15-12:06:24,10.1.1.9,29,0.010,0.010,0.010,0.000,0.000,0.000
1644926784193528832,2022-02-15-12:06:24,10.1.1.9,38,0.000,0.000,0.000,0.000,0.000,0.000
1644926784233474048,2022-02-15-12:06:24,10.1.1.9,28,-0.010,-0.010,-0.010,0.000,0.000,0.000
1644926784293490944,2022-02-15-12:06:24,10.1.1.9,37,-0.020,-0.020,-0.020,0.000,0.000,0.000
1644926784333519872,2022-02-15-12:06:24,10.1.1.9,26,-0.030,-0.030,-0.030,0.000,0.000,0.000
1644926784393775104,2022-02-15-12:06:24,10.1.1.9,36,-0.040,-0.040,-0.040,0.000,0.000,0.000
1644926784433558016,2022-02-15-12:06:24,10.1.1.9,25,-0.050,-0.050,-0.050,0.000,0.000,0.000
1644926784493164032,2022-02-15-12:06:24,10.1.1.9,34,-0.060,-0.060,-0.060,0.000,0.000,0.000
1644926784533641984,2022-02-15-12:06:24,10.1.1.9,24,-0.070,-0.070,-0.070,0.000,0.000,0.000
1644926784593620992,2022-02-15-12:06:24,10.1.1.9,31,-0.080,-0.080,-0.080,0.000,0.000,0.000
1644926784634211072,2022-02-15-12:06:24,10.1.1.9,20,-0.090,-0.090,-0.090,0.000,0.000,0.000
1644926784693350912,2022-02-15-12:06:24,10.1.1.9,30,-0.100,-0.100,-0.100,0.000,0.000,0.000
1644926784753861888,2022-02-15-12:06:24,10.1.1.9,38,-0.090,-0.090,-0.090,0.000,0.000,0.000
1644926784793752064,2022-02-15-12:06:24,10.1.1.9,27,-0.080,-0.080,-0.080,0.000,0.000,0.000
1644926784853387008,2022-02-15-12:06:24,10.1.1.9,36,-0.070,-0.070,-0.070,0.000,0.000,0.000
1644926784893889792,2022-02-15-12:06:24,10.1.1.9,25,-0.060,-0.060,-0.060,0.000,0.000,0.000
1644926784953633024,2022-02-15-12:06:24,10.1.1.9,35,-0.050,-0.050,-0.050,0.000,0.000,0.000
1644926784993892864,2022-02-15-12:06:24,10.1.1.9,24,-0.040,-0.040,-0.040,0.000,0.000,0.000
1644926785053739008,2022-02-15-12:06:25,10.1.1.9,31,-0.030,-0.030,-0.030,0.000,0.000,0.000
1644926785093789184,2022-02-15-12:06:25,10.1.1.9,21,-0.020,-0.020,-0.020,0.000,0.000,0.000
1644926785154489088,2022-02-15-12:06:25,10.1.1.9,30,-0.010,-0.010,-0.010,0.000,0.000,0.000
1644926785194125824,2022-02-15-12:06:25,10.1.1.9,20,-0.000,-0.000,-0.000,0.000,0.000,0.000
1644926785253500928,2022-02-15-12:06:25,10.1.1.9,29,0.010,0.010,0.010,0.000,0.000,0.000
1644926785313478912,2022-02-15-12:06:25,10.1.1.9,38,0.020,0.020,0.020,0.000,0.000,0.000
1644926785353852160,2022-02-15-12:06:25,10.1.1.9,27,0.030,0.030,0.030,0.000,0.000,0.000
1644926785413740032,2022-02-15-12:06:25,10.1.1.9,37,0.040,0.040,0.040,0.000,0.000,0.000
1644926785453443072,2022-02-15-12:06:25,10.1.1.9,26,0.050,0.050,0.050,0.000,0.000,0.000
1644926785513459968,2022-02-15-12:06:25,10.1.1.9,35,0.060,0.060,0.060,0.000,0.000,0.000
1644926785553352960,2022-02-15-12:06:25,10.1.1.9,24,0.070,0.070,0.070,0.000,0.000,0.000
1644926785613940992,2022-02-15-12:06:25,10.1.1.9,34,0.080,0.080,0.080,0.000,0.000,0.000
1644926785653510144,2022-02-15-12:06:25,10.1.1.9,22,0.090,0.090,0.090,0.000,0.000,0.000
1644926785713409024,2022-02-15-12:06:25,10.1.1.9,31,0.100,0.100,0.100,0.000,0.000,0.000
1644926785754102016,2022-02-15-12:06:25,10.1.1.9,21,0.090,0.090,0.090,0.000,0.000,0.000
1644926785813481984,2022-02-15-12:06:25,10.1.1.9,31,0.080,0.080,0.080,0.000,0.000,0.000
1644926785853404928,2022-02-15-12:06:25,10.1.1.9,20,0.070,0.070,0.070,0.000,0.000,0.000
1644926785914024192,2022-02-15-12:06:25,10.1.1.9,29,0.060,0.060,0.060,0.000,0.000,0.000
1644926785973985792,2022-02-15-12:06:25,10.1.1.9,37,0.050,0.050,0.050,0.000,0.000,0.000
1644926786013801216,2022-02-15-12:06:26,10.1.1.9,27,0.040,0.040,0.040,0.000,0.000,0.000
1644926786073304064,2022-02-15-12:06:26,10.1.1.9,36,0.030,0.030,0.030,0.000,0.000,0.000
1644926786113632000,2022-02-15-12:06:26,10.1.1.9,25,0.020,0.020,0.020,0.000,0.000,0.000
1644926786173384960,2022-02-15-12:06:26,10.1.1.9,35,0.010,0.010,0.010,0.000,0.000,0.000
1644926786213996800,2022-02-15-12:06:26,10.1.1.9,22,0.000,0.000,0.000,0.000,0.000,0.000
1644926786273520896,2022-02-15-12:06:26,10.1.1.9,32,-0.010,-0.010,-0.010,0.000,0.000,0.000
1644926786313599232,2022-02-15-12:06:26,10.1.1.9,21,-0.020,-0.020,-0.020,0.000,0.000,0.000
1644926786373485056,2022-02-15-12:06:26,10.1.1.9,30,-0.030,-0.030,-0.030,0.000,0.000,0.000
1644926786413812992,2022-02-15-12:06:26,10.1.1.9,20,-0.040,-0.040,-0.040,0.000,0.000,0.000
1644926786473350144,2022-02-15-12:06:26,10.1.1.9,28,-0.050,-0.050,-0.050,0.000,0.000,0.000
1644926786533446144,2022-02-15-12:06:26,10.1.1.9,37,-0.060,-0.060,-0.060,0.000,0.000,0.000
1644926786573497088,2022-02-15-12:06:26,10.1.1.9,26,-0.070,-0.070,-0.070,0.000,0.000,0.000
1644926786633546240,2022-02-15-12:06:26,10.1.1.9,34,-0.080,-0.080,-0.080,0.000,0.000,0.000
1644926786673435904,2022-02-15-12:06:26,10.1.1.9,23,-0.090,-0.090,-0.090,0.000,0.000,0.000
1644926786733780992,2022-02-15-12:06:26,10.1.1.9,30,-0.100,-0.100,-0.100,0.000,0.000,0.000
1644926786773481984,2022-02-15-12:06:26,10.1.1.9,20,-0.090,-0.090,-0.090,0.000,0.000,0.000
1644926786833336064,2022-02-15-12:06:26,10.1.1.9,29,-0.080,-0.080,-0.080,0.000,0.000,0.000
1644926786873820160,2022-02-15-12:06:26,10.1.1.9,19,-0.071,-0.071,-0.071,0.000,0.000,0.000
1644926786933549824,2022-02-15-12:06:26,10.1.1.9,28,-0.060,-0.060,-0.060,0.000,0.000,0.000
1644926786993940224,2022-02-15-12:06:26,10.1.1.9,37,-0.050,-0.050,-0.050,0.000,0.000,0.000
1644926787033849856,2022-02-15-12:06:27,10.1.1.9,26,-0.040,-0.040,-0.040,0.000,0.000,0.000
1644926787093576960,2022-02-15-12:06:27,10.1.1.9,35,-0.030,-0.030,-0.030,0.000,0.000,0.000
1644926787133546240,2022-02-15-12:06:27,10.1.1.9,24,-0.020,-0.020,-0.020,0.000,0.000,0.000
1644926787194052096,2022-02-15-12:06:27,10.1.1.9,33,-0.010,-0.010,-0.010,0.000,0.000,0.000
1644926787234039040,2022-02-15-12:06:27,10.1.1.9,22,0.000,0.000,0.000,0.000,0.000,0.000
1644926787293652992,2022-02-15-12:06:27,10.1.1.9,31,0.010,0.010,0.010,0.000,0.000,0.000
1644926787334620928,2022-02-15-12:06:27,10.1.1.9,21,0.020,0.020,0.020,0.000,0.000,0.000
1644926787394265856,2022-02-15-12:06:27,10.1.1.9,29,0.030,0.030,0.030,0.000,0.000,0.000
1644926787433722880,2022-02-15-12:06:27,10.1.1.9,19,0.039,0.039,0.039,0.000,0.000,0.000
1644926787493880064,2022-02-15-12:06:27,10.1.1.9,27,0.050,0.050,0.050,0.000,0.000,0.000
1644926787554176000,2022-02-15-12:06:27,10.1.1.9,36,0.060,0.060,0.060,0.000,0.000,0.000
1644926787594041088,2022-02-15-12:06:27,10.1.1.9,25,0.070,0.070,0.070,0.000,0.000,0.000
1644926787654171904,2022-02-15-12:06:27,10.1.1.9,34,0.080,0.080,0.080,0.000,0.000,0.000
1644926787694288128,2022-02-15-12:06:27,10.1.1.9,23,0.090,0.090,0.090,0.000,0.000,0.000
1644926787755431936,2022-02-15-12:06:27,10.1.1.9,32,0.100,0.100,0.100,0.000,0.000,0.000
1644926787793825024,2022-02-15-12:06:27,10.1.1.9,21,0.090,0.090,0.090,0.000,0.000,0.000
1644926787854449152,2022-02-15-12:06:27,10.1.1.9,30,0.080,0.080,0.080,0.000,0.000,0.000
1644926787893857024,2022-02-15-12:06:27,10.1.1.9,20,0.070,0.070,0.070,0.000,0.000,0.000
1644926787954088960,2022-02-15-12:06:27,10.1.1.9,29,0.060,0.060,0.060,0.000,0.000,0.000
1644926788013726976,2022-02-15-12:06:28,10.1.1.9,37,0.050,0.050,0.050,0.000,0.000,0.000
1644926788053739008,2022-02-15-12:06:28,10.1.1.9,26,0.040,0.040,0.040,0.000,0.000,0.000
1644926788113539840,2022-02-15-12:06:28,10.1.1.9,35,0.030,0.030,0.030,0.000,0.000,0.000
1644926788153566976,2022-02-15-12:06:28,10.1.1.9,25,0.020,0.020,0.020,0.000,0.000,0.000
1644926788214633984,2022-02-15-12:06:28,10.1.1.9,34,0.010,0.010,0.010,0.000,0.000,0.000
1644926788254223104,2022-02-15-12:06:28,10.1.1.9,23,0.000,0.000,0.000,0.000,0.000,0.000
1644926788314950912,2022-02-15-12:06:28,10.1.1.9,32,-0.010,-0.010,-0.010,0.000,0.000,0.000
1644926788353773056,2022-02-15-12:06:28,10.1.1.9,22,-0.020,-0.020,-0.020,0.000,0.000,0.000
1644926788415023104,2022-02-15-12:06:28,10.1.1.9,32,-0.030,-0.030,-0.030,0.000,0.000,0.000
1644926788454123008,2022-02-15-12:06:28,10.1.1.9,20,-0.040,-0.040,-0.040,0.000,0.000,0.000
1644926788513310976,2022-02-15-12:06:28,10.1.1.9,30,-0.050,-0.050,-0.050,0.000,0.000,0.000
1644926788554156032,2022-02-15-12:06:28,10.1.1.9,19,-0.060,-0.060,-0.060,0.000,0.000,0.000
1644926788613987072,2022-02-15-12:06:28,10.1.1.9,27,-0.070,-0.070,-0.070,0.000,0.000,0.000
1644926788674364160,2022-02-15-12:06:28,10.1.1.9,37,-0.080,-0.080,-0.080,0.000,0.000,0.000
1644926788714451200,2022-02-15-12:06:28,10.1.1.9,26,-0.090,-0.090,-0.090,0.000,0.000,0.000
1644926788774085888,2022-02-15-12:06:28,10.1.1.9,35,-0.100,-0.100,-0.100,0.000,0.000,0.000
1644926788813556992,2022-02-15-12:06:28,10.1.1.9,22,-0.090,-0.090,-0.090,0.000,0.000,0.000
1644926788874313216,2022-02-15-12:06:28,10.1.1.9,31,-0.080,-0.080,-0.080,0.000,0.000,0.000
1644926788914521856,2022-02-15-12:06:28,10.1.1.9,21,-0.070,-0.070,-0.070,0.000,0.000,0.000
1644926788974642944,2022-02-15-12:06:28,10.1.1.9,29,-0.060,-0.060,-0.060,0.000,0.000,0.000
1644926789034504960,2022-02-15-12:06:29,10.1.1.9,38,-0.050,-0.050,-0.050,0.000,0.000,0.000
1644926789074440960,2022-02-15-12:06:29,10.1.1.9,26,-0.040,-0.040,-0.040,0.000,0.000,0.000
1644926789135699968,2022-02-15-12:06:29,10.1.1.9,34,-0.030,-0.030,-0.030,0.000,0.000,0.000
1644926789175309056,2022-02-15-12:06:29,10.1.1.9,23,-0.020,-0.020,-0.020,0.000,0.000,0.000
1644926789233312000,2022-02-15-12:06:29,10.1.1.9,32,-0.010,-0.010,-0.010,0.000,0.000,0.000
1644926789275974144,2022-02-15-12:06:29,10.1.1.9,21,0.000,0.000,0.000,0.000,0.000,0.000
1644926789333900032,2022-02-15-12:06:29,10.1.1.9,30,0.010,0.010,0.010,0.000,0.000,0.000
1644926789374906112,2022-02-15-12:06:29,10.1.1.9,19,0.020,0.020,0.020,0.000,0.000,0.000
1644926789433842944,2022-02-15-12:06:29,10.1.1.9,28,0.030,0.030,0.030,0.000,0.000,0.000
1644926789495426048,2022-02-15-12:06:29,10.1.1.9,36,0.040,0.040,0.040,0.000,0.000,0.000
1644926789534880000,2022-02-15-12:06:29,10.1.1.9,26,0.050,0.050,0.050,0.000,0.000,0.000
1644926789593832960,2022-02-15-12:06:29,10.1.1.9,35,0.060,0.060,0.060,0.000,0.000,0.000
1644926789634196992,2022-02-15-12:06:29,10.1.1.9,24,0.070,0.070,0.070,0.000,0.000,0.000
1644926789697902080,2022-02-15-12:06:29,10.1.1.9,30,0.080,0.080,0.080,0.000,0.000,0.000
1644926789754652928,2022-02-15-12:06:29,10.1.1.9,38,0.090,0.090,0.090,0.000,0.000,0.000
1644926789794063104,2022-02-15-12:06:29,10.1.1.9,26,0.100,0.100,0.100,0.000,0.000,0.000
1644926789854690048,2022-02-15-12:06:29,10.1.1.9,34,0.090,0.090,0.090,0.000,0.000,0.000
1644926789893792000,2022-02-15-12:06:29,10.1.1.9,22,0.080,0.080,0.080,0.000,0.000,0.000
1644926789953775872,2022-02-15-12:06:29,10.1.1.9,31,0.070,0.070,0.070,0.000,0.000,0.000
1644926789993950976,2022-02-15-12:06:29,10.1.1.9,21,0.060,0.060,0.060,0.000,0.000,0.000
1644926790054436864,2022-02-15-12:06:30,10.1.1.9,30,0.050,0.050,0.050,0.000,0.000,0.000
1644926790094187008,2022-02-15-12:06:30,10.1.1.9,19,0.040,0.040,0.040,0.000,0.000,0.000
1644926790154300928,2022-02-15-12:06:30,10.1.1.9,29,0.030,0.030,0.030,0.000,0.000,0.000
1644926790214618880,2022-02-15-12:06:30,10.1.1.9,38,0.020,0.020,0.020,0.000,0.000,0.000
1644926790253904128,2022-02-15-12:06:30,10.1.1.9,27,0.010,0.010,0.010,0.000,0.000,0.000
1644926790314703872,2022-02-15-12:06:30,10.1.1.9,37,0.000,0.000,0.000,0.000,0.000,0.000
1644926790354074880,2022-02-15-12:06:30,10.1.1.9,26,-0.010,-0.010,-0.010,0.000,0.000,0.000
1644926790414231040,2022-02-15-12:06:30,10.1.1.9,36,-0.020,-0.020,-0.020,0.000,0.000,0.000
1644926790453961984,2022-02-15-12:06:30,10.1.1.9,25,-0.030,-0.030,-0.030,0.000,0.000,0.000
1644926790515096064,2022-02-15-12:06:30,10.1.1.9,35,-0.040,-0.040,-0.040,0.000,0.000,0.000
1644926790553668864,2022-02-15-12:06:30,10.1.1.9,24,-0.050,-0.050,-0.050,0.000,0.000,0.000
1644926790613604096,2022-02-15-12:06:30,10.1.1.9,33,-0.060,-0.060,-0.060,0.000,0.000,0.000
1644926790654105856,2022-02-15-12:06:30,10.1.1.9,23,-0.070,-0.070,-0.070,0.000,0.000,0.000
1644926790714518016,2022-02-15-12:06:30,10.1.1.9,32,-0.080,-0.080,-0.080,0.000,0.000,0.000
1644926790754066944,2022-02-15-12:06:30,10.1.1.9,22,-0.090,-0.090,-0.090,0.000,0.000,0.000
1644926790813904896,2022-02-15-12:06:30,10.1.1.9,31,-0.100,-0.100,-0.100,0.000,0.000,0.000
1644926790854129920,2022-02-15-12:06:30,10.1.1.9,20,-0.090,-0.090,-0.090,0.000,0.000,0.000
1644926790915198208,2022-02-15-12:06:30,10.1.1.9,29,-0.080,-0.080,-0.080,0.000,0.000,0.000
1644926790973819904,2022-02-15-12:06:30,10.1.1.9,38,-0.070,-0.070,-0.070,0.000,0.000,0.000
1644926791014966016,2022-02-15-12:06:31,10.1.1.9,27,-0.060,-0.060,-0.060,0.000,0.000,0.000
1644926791073890048,2022-02-15-12:06:31,10.1.1.9,36,-0.050,-0.050,-0.050,0.000,0.000,0.000
1644926791114715136,2022-02-15-12:06:31,10.1.1.9,25,-0.040,-0.040,-0.040,0.000,0.000,0.000
1644926791173896192,2022-02-15-12:06:31,10.1.1.9,35,-0.030,-0.030,-0.030,0.000,0.000,0.000
1644926791213767936,2022-02-15-12:06:31,10.1.1.9,24,-0.020,-0.020,-0.020,0.000,0.000,0.000
1644926791273902848,2022-02-15-12:06:31,10.1.1.9,33,-0.010,-0.010,-0.010,0.000,0.000,0.000
1644926791314401024,2022-02-15-12:06:31,10.1.1.9,21,0.000,0.000,0.000,0.000,0.000,0.000
1644926791374465024,2022-02-15-12:06:31,10.1.1.9,31,0.010,0.010,0.010,0.000,0.000,0.000
1644926791414248960,2022-02-15-12:06:31,10.1.1.9,20,0.020,0.020,0.020,0.000,0.000,0.000
1644926791474284800,2022-02-15-12:06:31,10.1.1.9,29,0.030,0.030,0.030,0.000,0.000,0.000
1644926791534025984,2022-02-15-12:06:31,10.1.1.9,38,0.040,0.040,0.040,0.000,0.000,0.000
1644926791574498048,2022-02-15-12:06:31,10.1.1.9,26,0.050,0.050,0.050,0.000,0.000,0.000
1644926791634188800,2022-02-15-12:06:31,10.1.1.9,35,0.060,0.060,0.060,0.000,0.000,0.000
1644926791674187008,2022-02-15-12:06:31,10.1.1.9,23,0.070,0.070,0.070,0.000,0.000,0.000
1644926791751187968,2022-02-15-12:06:31,10.1.1.9,30,0.080,0.080,0.080,0.000,0.000,0.000
1644926791794608128,2022-02-15-12:06:31,10.1.1.9,22,0.090,0.090,0.090,0.000,0.000,0.000
1644926791854331904,2022-02-15-12:06:31,10.1.1.9,27,0.100,0.100,0.100,0.000,0.000,0.000
1644926791897816832,2022-02-15-12:06:31,10.1.1.9,15,0.090,0.090,0.090,0.000,0.000,0.000
1644926791965511936,2022-02-15-12:06:31,10.1.1.9,27,0.080,0.080,0.080,0.000,0.000,0.000
1644926792117644032,2022-02-15-12:06:32,10.1.1.9,24,0.050,0.050,0.050,0.000,0.000,0.000
1644926792181421056,2022-02-15-12:06:32,10.1.1.9,31,0.040,0.040,0.040,0.000,0.000,0.000
1644926792274867968,2022-02-15-12:06:32,10.1.1.9,29,0.020,0.020,0.020,0.000,0.000,0.000
1644926792335240960,2022-02-15-12:06:32,10.1.1.9,38,0.010,0.010,0.010,0.000,0.000,0.000
1644926792375555072,2022-02-15-12:06:32,10.1.1.9,27,0.000,0.000,0.000,0.000,0.000,0.000
1644926792437457920,2022-02-15-12:06:32,10.1.1.9,38,-0.010,-0.010,-0.010,0.000,0.000,0.000
1644926792475910912,2022-02-15-12:06:32,10.1.1.9,24,-0.020,-0.020,-0.020,0.000,0.000,0.000
1644926792544640000,2022-02-15-12:06:32,10.1.1.9,33,-0.030,-0.030,-0.030,0.000,0.000,0.000
1644926792589550848,2022-02-15-12:06:32,10.1.1.9,21,-0.040,-0.040,-0.040,0.000,0.000,0.000
1644926792635636992,2022-02-15-12:06:32,10.1.1.9,26,-0.050,-0.050,-0.050,0.000,0.000,0.000
1644926792697030912,2022-02-15-12:06:32,10.1.1.9,35,-0.060,-0.060,-0.060,0.000,0.000,0.000
1644926792741468928,2022-02-15-12:06:32,10.1.1.9,24,-0.070,-0.070,-0.070,0.000,0.000,0.000
1644926792854799872,2022-02-15-12:06:32,10.1.1.9,35,-0.090,-0.090,-0.090,0.000,0.000,0.000
1644926792914937088,2022-02-15-12:06:32,10.1.1.9,37,-0.100,-0.100,-0.100,0.000,0.000,0.000
1644926792955961856,2022-02-15-12:06:32,10.1.1.9,27,-0.090,-0.090,-0.090,0.000,0.000,0.000
1644926793016960000,2022-02-15-12:06:33,10.1.1.9,38,-0.080,-0.080,-0.080,0.000,0.000,0.000
1644926793054356224,2022-02-15-12:06:33,10.1.1.9,25,-0.070,-0.070,-0.070,0.000,0.000,0.000
1644926793114125056,2022-02-15-12:06:33,10.1.1.9,35,-0.060,-0.060,-0.060,0.000,0.000,0.000
1644926793154123008,2022-02-15-12:06:33,10.1.1.9,24,-0.050,-0.050,-0.050,0.000,0.000,0.000
1644926793214551808,2022-02-15-12:06:33,10.1.1.9,34,-0.040,-0.040,-0.040,0.000,0.000,0.000
1644926793253920000,2022-02-15-12:06:33,10.1.1.9,23,-0.030,-0.030,-0.030,0.000,0.000,0.000
1644926793314356992,2022-02-15-12:06:33,10.1.1.9,33,-0.020,-0.020,-0.020,0.000,0.000,0.000
1644926793353925888,2022-02-15-12:06:33,10.1.1.9,21,-0.010,-0.010,-0.010,0.000,0.000,0.000
1644926793414027008,2022-02-15-12:06:33,10.1.1.9,31,0.000,0.000,0.000,0.000,0.000,0.000
1644926793454554112,2022-02-15-12:06:33,10.1.1.9,20,0.010,0.010,0.010,0.000,0.000,0.000
1644926793513902848,2022-02-15-12:06:33,10.1.1.9,30,0.020,0.020,0.020,0.000,0.000,0.000
1644926793561007104,2022-02-15-12:06:33,10.1.1.9,19,0.029,0.029,0.029,0.000,0.000,0.000
1644926793614242048,2022-02-15-12:06:33,10.1.1.9,28,0.040,0.040,0.040,0.000,0.000,0.000
1644926793673483008,2022-02-15-12:06:33,10.1.1.9,38,0.050,0.050,0.050,0.000,0.000,0.000
1644926793715062016,2022-02-15-12:06:33,10.1.1.9,27,0.060,0.060,0.060,0.000,0.000,0.000
1644926793776689920,2022-02-15-12:06:33,10.1.1.9,37,0.070,0.070,0.070,0.000,0.000,0.000
1644926793814842880,2022-02-15-12:06:33,10.1.1.9,26,0.080,0.080,0.080,0.000,0.000,0.000
1644926793874074880,2022-02-15-12:06:33,10.1.1.9,36,0.090,0.090,0.090,0.000,0.000,0.000
1644926793914103040,2022-02-15-12:06:33,10.1.1.9,25,0.100,0.100,0.100,0.000,0.000,0.000
1644926793974400000,2022-02-15-12:06:33,10.1.1.9,35,0.090,0.090,0.090,0.000,0.000,0.000
1644926794013283840,2022-02-15-12:06:34,10.1.1.9,24,0.080,0.080,0.080,0.000,0.000,0.000
1644926794074841856,2022-02-15-12:06:34,10.1.1.9,33,0.070,0.070,0.070,0.000,0.000,0.000
1644926794114875136,2022-02-15-12:06:34,10.1.1.9,23,0.060,0.060,0.060,0.000,0.000,0.000
1644926794173657856,2022-02-15-12:06:34,10.1.1.9,33,0.050,0.050,0.050,0.000,0.000,0.000
1644926794214139904,2022-02-15-12:06:34,10.1.1.9,22,0.040,0.040,0.040,0.000,0.000,0.000
1644926794273506048,2022-02-15-12:06:34,10.1.1.9,31,0.030,0.030,0.030,0.000,0.000,0.000
1644926794314074880,2022-02-15-12:06:34,10.1.1.9,21,0.020,0.020,0.020,0.000,0.000,0.000
1644926794374286848,2022-02-15-12:06:34,10.1.1.9,31,0.010,0.010,0.010,0.000,0.000,0.000
1644926794414108928,2022-02-15-12:06:34,10.1.1.9,20,0.000,0.000,0.000,0.000,0.000,0.000
1644926794473840896,2022-02-15-12:06:34,10.1.1.9,30,-0.010,-0.010,-0.010,0.000,0.000,0.000
1644926794513906944,2022-02-15-12:06:34,10.1.1.9,19,-0.020,-0.020,-0.020,0.000,0.000,0.000
1644926794573474048,2022-02-15-12:06:34,10.1.1.9,28,-0.030,-0.030,-0.030,0.000,0.000,0.000
1644926794634385152,2022-02-15-12:06:34,10.1.1.9,38,-0.040,-0.040,-0.040,0.000,0.000,0.000
1644926794674278912,2022-02-15-12:06:34,10.1.1.9,26,-0.050,-0.050,-0.050,0.000,0.000,0.000
1644926794733524992,2022-02-15-12:06:34,10.1.1.9,36,-0.060,-0.060,-0.060,0.000,0.000,0.000
1644926794773710848,2022-02-15-12:06:34,10.1.1.9,25,-0.070,-0.070,-0.070,0.000,0.000,0.000
1644926794834963968,2022-02-15-12:06:34,10.1.1.9,35,-0.080,-0.080,-0.080,0.000,0.000,0.000
1644926794873434112,2022-02-15-12:06:34,10.1.1.9,24,-0.090,-0.090,-0.090,0.000,0.000,0.000
1644926794934350848,2022-02-15-12:06:34,10.1.1.9,33,-0.100,-0.100,-0.100,0.000,0.000,0.000
1644926794975542016,2022-02-15-12:06:34,10.1.1.9,21,-0.090,-0.090,-0.090,0.000,0.000,0.000
1644926795034142976,2022-02-15-12:06:35,10.1.1.9,30,-0.080,-0.080,-0.080,0.000,0.000,0.000
1644926795076694016,2022-02-15-12:06:35,10.1.1.9,22,-0.070,-0.070,-0.070,0.000,0.000,0.000
1644926795134584832,2022-02-15-12:06:35,10.1.1.9,29,-0.060,-0.060,-0.060,0.000,0.000,0.000
1644926795193835008,2022-02-15-12:06:35,10.1.1.9,38,-0.050,-0.050,-0.050,0.000,0.000,0.000
1644926795234147072,2022-02-15-12:06:35,10.1.1.9,28,-0.040,-0.040,-0.040,0.000,0.000,0.000
1644926795293509120,2022-02-15-12:06:35,10.1.1.9,37,-0.030,-0.030,-0.030,0.000,0.000,0.000
1644926795334397184,2022-02-15-12:06:35,10.1.1.9,27,-0.020,-0.020,-0.020,0.000,0.000,0.000
1644926795393579008,2022-02-15-12:06:35,10.1.1.9,35,-0.010,-0.010,-0.010,0.000,0.000,0.000
1644926795433521920,2022-02-15-12:06:35,10.1.1.9,25,0.000,0.000,0.000,0.000,0.000,0.000
1644926795494297088,2022-02-15-12:06:35,10.1.1.9,34,0.010,0.010,0.010,0.000,0.000,0.000
1644926795534316032,2022-02-15-12:06:35,10.1.1.9,24,0.020,0.020,0.020,0.000,0.000,0.000
1644926795596560896,2022-02-15-12:06:35,10.1.1.9,33,0.030,0.030,0.030,0.000,0.000,0.000
1644926795634035968,2022-02-15-12:06:35,10.1.1.9,22,0.040,0.040,0.040,0.000,0.000,0.000
1644926795693981952,2022-02-15-12:06:35,10.1.1.9,32,0.050,0.050,0.050,0.000,0.000,0.000
1644926795734777856,2022-02-15-12:06:35,10.1.1.9,21,0.060,0.060,0.060,0.000,0.000,0.000
1644926795793957888,2022-02-15-12:06:35,10.1.1.9,30,0.070,0.070,0.070,0.000,0.000,0.000
1644926795834614016,2022-02-15-12:06:35,10.1.1.9,18,0.079,0.079,0.079,0.000,0.000,0.000
1644926795894565120,2022-02-15-12:06:35,10.1.1.9,28,0.090,0.090,0.090,0.000,0.000,0.000
1644926795954510080,2022-02-15-12:06:35,10.1.1.9,38,0.100,0.100,0.100,0.000,0.000,0.000
1644926795994742016,2022-02-15-12:06:35,10.1.1.9,27,0.090,0.090,0.090,0.000,0.000,0.000
1644926796053937920,2022-02-15-12:06:36,10.1.1.9,36,0.080,0.080,0.080,0.000,0.000,0.000
1644926796095624960,2022-02-15-12:06:36,10.1.1.9,25,0.070,0.070,0.070,0.000,0.000,0.000
1644926796154476032,2022-02-15-12:06:36,10.1.1.9,35,0.060,0.060,0.060,0.000,0.000,0.000
1644926796193835008,2022-02-15-12:06:36,10.1.1.9,24,0.050,0.050,0.050,0.000,0.000,0.000
1644926796254149888,2022-02-15-12:06:36,10.1.1.9,34,0.040,0.040,0.040,0.000,0.000,0.000
1644926796294384896,2022-02-15-12:06:36,10.1.1.9,24,0.030,0.030,0.030,0.000,0.000,0.000
1644926796354064896,2022-02-15-12:06:36,10.1.1.9,33,0.020,0.020,0.020,0.000,0.000,0.000
1644926796395572992,2022-02-15-12:06:36,10.1.1.9,23,0.010,0.010,0.010,0.000,0.000,0.000
1644926796458103040,2022-02-15-12:06:36,10.1.1.9,32,0.000,0.000,0.000,0.000,0.000,0.000
1644926796494726912,2022-02-15-12:06:36,10.1.1.9,22,-0.010,-0.010,-0.010,0.000,0.000,0.000
1644926796553693184,2022-02-15-12:06:36,10.1.1.9,31,-0.020,-0.020,-0.020,0.000,0.000,0.000
1644926796593475072,2022-02-15-12:06:36,10.1.1.9,21,-0.030,-0.030,-0.030,0.000,0.000,0.000
1644926796654059776,2022-02-15-12:06:36,10.1.1.9,31,-0.040,-0.040,-0.040,0.000,0.000,0.000
1644926796693492992,2022-02-15-12:06:36,10.1.1.9,20,-0.050,-0.050,-0.050,0.000,0.000,0.000
1644926796757220864,2022-02-15-12:06:36,10.1.1.9,29,-0.060,-0.060,-0.060,0.000,0.000,0.000
1644926796814616832,2022-02-15-12:06:36,10.1.1.9,38,-0.070,-0.070,-0.070,0.000,0.000,0.000
1644926796854258944,2022-02-15-12:06:36,10.1.1.9,27,-0.080,-0.080,-0.080,0.000,0.000,0.000
1644926796914142976,2022-02-15-12:06:36,10.1.1.9,37,-0.090,-0.090,-0.090,0.000,0.000,0.000
1644926796956123136,2022-02-15-12:06:36,10.1.1.9,26,-0.100,-0.100,-0.100,0.000,0.000,0.000
1644926797013978880,2022-02-15-12:06:37,10.1.1.9,36,-0.090,-0.090,-0.090,0.000,0.000,0.000
1644926797053998848,2022-02-15-12:06:37,10.1.1.9,25,-0.080,-0.080,-0.080,0.000,0.000,0.000
1644926797114195968,2022-02-15-12:06:37,10.1.1.9,35,-0.070,-0.070,-0.070,0.000,0.000,0.000
1644926797153691136,2022-02-15-12:06:37,10.1.1.9,24,-0.060,-0.060,-0.060,0.000,0.000,0.000
1644926797213507840,2022-02-15-12:06:37,10.1.1.9,34,-0.050,-0.050,-0.050,0.000,0.000,0.000
1644926797253627136,2022-02-15-12:06:37,10.1.1.9,23,-0.040,-0.040,-0.040,0.000,0.000,0.000
1644926797314269952,2022-02-15-12:06:37,10.1.1.9,32,-0.030,-0.030,-0.030,0.000,0.000,0.000
1644926797353987072,2022-02-15-12:06:37,10.1.1.9,22,-0.020,-0.020,-0.020,0.000,0.000,0.000
1644926797413710080,2022-02-15-12:06:37,10.1.1.9,32,-0.010,-0.010,-0.010,0.000,0.000,0.000
1644926797453968128,2022-02-15-12:06:37,10.1.1.9,21,0.000,0.000,0.000,0.000,0.000,0.000
1644926797513856768,2022-02-15-12:06:37,10.1.1.9,31,0.010,0.010,0.010,0.000,0.000,0.000
1644926797553445120,2022-02-15-12:06:37,10.1.1.9,21,0.020,0.020,0.020,0.000,0.000,0.000
1644926797614172928,2022-02-15-12:06:37,10.1.1.9,30,0.030,0.030,0.030,0.000,0.000,0.000
1644926797653840896,2022-02-15-12:06:37,10.1.1.9,20,0.040,0.040,0.040,0.000,0.000,0.000
1644926797714109952,2022-02-15-12:06:37,10.1.1.9,29,0.050,0.050,0.050,0.000,0.000,0.000
1644926797754251008,2022-02-15-12:06:37,10.1.1.9,19,0.059,0.059,0.059,0.000,0.000,0.000
1644926797814789888,2022-02-15-12:06:37,10.1.1.9,28,0.070,0.070,0.070,0.000,0.000,0.000
1644926797874350080,2022-02-15-12:06:37,10.1.1.9,38,0.080,0.080,0.080,0.000,0.000,0.000
1644926797913989120,2022-02-15-12:06:37,10.1.1.9,27,0.090,0.090,0.090,0.000,0.000,0.000
1644926797974313984,2022-02-15-12:06:37,10.1.1.9,36,0.100,0.100,0.100,0.000,0.000,0.000
1644926798013669120,2022-02-15-12:06:38,10.1.1.9,26,0.090,0.090,0.090,0.000,0.000,0.000
1644926798074510080,2022-02-15-12:06:38,10.1.1.9,35,0.080,0.080,0.080,0.000,0.000,0.000
1644926798113924864,2022-02-15-12:06:38,10.1.1.9,24,0.070,0.070,0.070,0.000,0.000,0.000
1644926798174393856,2022-02-15-12:06:38,10.1.1.9,34,0.060,0.060,0.060,0.000,0.000,0.000
1644926798214118912,2022-02-15-12:06:38,10.1.1.9,24,0.050,0.050,0.050,0.000,0.000,0.000
1644926798274245888,2022-02-15-12:06:38,10.1.1.9,33,0.040,0.040,0.040,0.000,0.000,0.000
1644926798314859008,2022-02-15-12:06:38,10.1.1.9,23,0.030,0.030,0.030,0.000,0.000,0.000
1644926798374396928,2022-02-15-12:06:38,10.1.1.9,33,0.020,0.020,0.020,0.000,0.000,0.000
1644926798413504000,2022-02-15-12:06:38,10.1.1.9,22,0.010,0.010,0.010,0.000,0.000,0.000
1644926798474555904,2022-02-15-12:06:38,10.1.1.9,32,0.000,0.000,0.000,0.000,0.000,0.000
1644926798513714176,2022-02-15-12:06:38,10.1.1.9,21,-0.010,-0.010,-0.010,0.000,0.000,0.000
1644926798574167040,2022-02-15-12:06:38,10.1.1.9,31,-0.020,-0.020,-0.020,0.000,0.000,0.000
1644926798613761792,2022-02-15-12:06:38,10.1.1.9,21,-0.030,-0.030,-0.030,0.000,0.000,0.000
1644926798674173184,2022-02-15-12:06:38,10.1.1.9,30,-0.040,-0.040,-0.040,0.000,0.000,0.000
1644926798714050048,2022-02-15-12:06:38,10.1.1.9,19,-0.050,-0.050,-0.050,0.000,0.000,0.000
1644926798773550080,2022-02-15-12:06:38,10.1.1.9,29,-0.060,-0.060,-0.060,0.000,0.000,0.000
1644926798833678080,2022-02-15-12:06:38,10.1.1.9,38,-0.070,-0.070,-0.070,0.000,0.000,0.000
1644926798875004160,2022-02-15-12:06:38,10.1.1.9,27,-0.080,-0.080,-0.080,0.000,0.000,0.000
1644926798937052928,2022-02-15-12:06:38,10.1.1.9,36,-0.090,-0.090,-0.090,0.000,0.000,0.000
1644926798973353984,2022-02-15-12:06:38,10.1.1.9,23,-0.100,-0.100,-0.100,0.000,0.000,0.000
1644926799073499904,2022-02-15-12:06:39,10.1.1.9,22,-0.080,-0.080,-0.080,0.000,0.000,0.000
1644926799134193920,2022-02-15-12:06:39,10.1.1.9,32,-0.070,-0.070,-0.070,0.000,0.000,0.000
1644926799173670912,2022-02-15-12:06:39,10.1.1.9,21,-0.060,-0.060,-0.060,0.000,0.000,0.000
1644926799250569216,2022-02-15-12:06:39,10.1.1.9,30,-0.050,-0.050,-0.050,0.000,0.000,0.000
1644926799293423872,2022-02-15-12:06:39,10.1.1.9,37,-0.040,-0.040,-0.040,0.000,0.000,0.000
1644926799334123008,2022-02-15-12:06:39,10.1.1.9,26,-0.030,-0.030,-0.030,0.000,0.000,0.000
1644926799394375936,2022-02-15-12:06:39,10.1.1.9,35,-0.020,-0.020,-0.020,0.000,0.000,0.000
1644926799433762048,2022-02-15-12:06:39,10.1.1.9,25,-0.010,-0.010,-0.010,0.000,0.000,0.000
1644926799494544896,2022-02-15-12:06:39,10.1.1.9,34,0.000,0.000,0.000,0.000,0.000,0.000
1644926799534397952,2022-02-15-12:06:39,10.1.1.9,24,0.010,0.010,0.010,0.000,0.000,0.000
1644926799593859840,2022-02-15-12:06:39,10.1.1.9,33,0.020,0.020,0.020,0.000,0.000,0.000
1644926799633736960,2022-02-15-12:06:39,10.1.1.9,23,0.030,0.030,0.030,0.000,0.000,0.000
1644926799693787136,2022-02-15-12:06:39,10.1.1.9,32,0.040,0.040,0.040,0.000,0.000,0.000
1644926799733858048,2022-02-15-12:06:39,10.1.1.9,22,0.050,0.050,0.050,0.000,0.000,0.000
1644926799794480128,2022-02-15-12:06:39,10.1.1.9,31,0.060,0.060,0.060,0.000,0.000,0.000
1644926799833710848,2022-02-15-12:06:39,10.1.1.9,21,0.070,0.070,0.070,0.000,0.000,0.000
1644926799894028032,2022-02-15-12:06:39,10.1.1.9,31,0.080,0.080,0.080,0.000,0.000,0.000
1644926799934073856,2022-02-15-12:06:39,10.1.1.9,20,0.090,0.090,0.090,0.000,0.000,0.000
1644926799993673984,2022-02-15-12:06:39,10.1.1.9,29,0.100,0.100,0.100,0.000,0.000,0.000
1644926800033763840,2022-02-15-12:06:40,10.1.1.9,18,0.091,0.091,0.091,0.000,0.000,0.000
1644926800093775872,2022-02-15-12:06:40,10.1.1.9,28,0.080,0.080,0.080,0.000,0.000,0.000
1644926800153970944,2022-02-15-12:06:40,10.1.1.9,37,0.070,0.070,0.070,0.000,0.000,0.000
1644926800193638144,2022-02-15-12:06:40,10.1.1.9,27,0.060,0.060,0.060,0.000,0.000,0.000
1644926800254142976,2022-02-15-12:06:40,10.1.1.9,36,0.050,0.050,0.050,0.000,0.000,0.000
1644926800294134016,2022-02-15-12:06:40,10.1.1.9,25,0.040,0.040,0.040,0.000,0.000,0.000
1644926800354063104,2022-02-15-12:06:40,10.1.1.9,35,0.030,0.030,0.030,0.000,0.000,0.000
1644926800393624064,2022-02-15-12:06:40,10.1.1.9,24,0.020,0.020,0.020,0.000,0.000,0.000
1644926800453702912,2022-02-15-12:06:40,10.1.1.9,33,0.010,0.010,0.010,0.000,0.000,0.000
1644926800494525952,2022-02-15-12:06:40,10.1.1.9,23,0.000,0.000,0.000,0.000,0.000,0.000
1644926800554733056,2022-02-15-12:06:40,10.1.1.9,32,-0.010,-0.010,-0.010,0.000,0.000,0.000
1644926800593859072,2022-02-15-12:06:40,10.1.1.9,21,-0.020,-0.020,-0.020,0.000,0.000,0.000
1644926800654279936,2022-02-15-12:06:40,10.1.1.9,30,-0.030,-0.030,-0.030,0.000,0.000,0.000
1644926800694222080,2022-02-15-12:06:40,10.1.1.9,20,-0.040,-0.040,-0.040,0.000,0.000,0.000
1644926800754398976,2022-02-15-12:06:40,10.1.1.9,29,-0.050,-0.050,-0.050,0.000,0.000,0.000
1644926800814411008,2022-02-15-12:06:40,10.1.1.9,37,-0.060,-0.060,-0.060,0.000,0.000,0.000
1644926800853634048,2022-02-15-12:06:40,10.1.1.9,27,-0.070,-0.070,-0.070,0.000,0.000,0.000
1644926800924278016,2022-02-15-12:06:40,10.1.1.9,37,-0.080,-0.080,-0.080,0.000,0.000,0.000
1644926800953989120,2022-02-15-12:06:40,10.1.1.9,19,-0.090,-0.090,-0.090,0.000,0.000,0.000
1644926801015332864,2022-02-15-12:06:41,10.1.1.9,26,-0.100,-0.100,-0.100,0.000,0.000,0.000
1644926801074029056,2022-02-15-12:06:41,10.1.1.9,35,-0.090,-0.090,-0.090,0.000,0.000,0.000
1644926801114501120,2022-02-15-12:06:41,10.1.1.9,25,-0.080,-0.080,-0.080,0.000,0.000,0.000
1644926801176152832,2022-02-15-12:06:41,10.1.1.9,35,-0.070,-0.070,-0.070,0.000,0.000,0.000
1644926801214326016,2022-02-15-12:06:41,10.1.1.9,23,-0.060,-0.060,-0.060,0.000,0.000,0.000
1644926801273995008,2022-02-15-12:06:41,10.1.1.9,33,-0.050,-0.050,-0.050,0.000,0.000,0.000
1644926801324655104,2022-02-15-12:06:41,10.1.1.9,21,-0.040,-0.040,-0.040,0.000,0.000,0.000
1644926801377649920,2022-02-15-12:06:41,10.1.1.9,27,-0.030,-0.030,-0.030,0.000,0.000,0.000
1644926801435115008,2022-02-15-12:06:41,10.1.1.9,35,-0.020,-0.020,-0.020,0.000,0.000,0.000
1644926801475891200,2022-02-15-12:06:41,10.1.1.9,25,-0.010,-0.010,-0.010,0.000,0.000,0.000
1644926801695825152,2022-02-15-12:06:41,10.1.1.9,31,0.020,0.020,0.020,0.000,0.000,0.000
1644926801733714944,2022-02-15-12:06:41,10.1.1.9,20,0.030,0.030,0.030,0.000,0.000,0.000
1644926801795054848,2022-02-15-12:06:41,10.1.1.9,30,0.040,0.040,0.040,0.000,0.000,0.000
1644926801835324160,2022-02-15-12:06:41,10.1.1.9,19,0.049,0.049,0.049,0.000,0.000,0.000
1644926801894994944,2022-02-15-12:06:41,10.1.1.9,28,0.060,0.060,0.060,0.000,0.000,0.000
1644926801954854912,2022-02-15-12:06:41,10.1.1.9,38,0.070,0.070,0.070,0.000,0.000,0.000
1644926801994571008,2022-02-15-12:06:41,10.1.1.9,26,0.080,0.080,0.080,0.000,0.000,0.000
1644926802053828096,2022-02-15-12:06:42,10.1.1.9,35,0.090,0.090,0.090,0.000,0.000,0.000
1644926802093975040,2022-02-15-12:06:42,10.1.1.9,24,0.100,0.100,0.100,0.000,0.000,0.000
1644926802154566144,2022-02-15-12:06:42,10.1.1.9,34,0.090,0.090,0.090,0.000,0.000,0.000
1644926802194083072,2022-02-15-12:06:42,10.1.1.9,23,0.080,0.080,0.080,0.000,0.000,0.000
1644926802254184960,2022-02-15-12:06:42,10.1.1.9,32,0.070,0.070,0.070,0.000,0.000,0.000
1644926802293970176,2022-02-15-12:06:42,10.1.1.9,21,0.060,0.060,0.060,0.000,0.000,0.000
1644926802354264064,2022-02-15-12:06:42,10.1.1.9,30,0.050,0.050,0.050,0.000,0.000,0.000
1644926802393893120,2022-02-15-12:06:42,10.1.1.9,20,0.040,0.040,0.040,0.000,0.000,0.000
1644926802454158080,2022-02-15-12:06:42,10.1.1.9,27,0.030,0.030,0.030,0.000,0.000,0.000
1644926802514089216,2022-02-15-12:06:42,10.1.1.9,35,0.020,0.020,0.020,0.000,0.000,0.000
1644926802553742848,2022-02-15-12:06:42,10.1.1.9,25,0.010,0.010,0.010,0.000,0.000,0.000
1644926802613990912,2022-02-15-12:06:42,10.1.1.9,34,0.000,0.000,0.000,0.000,0.000,0.000
1644926802653826048,2022-02-15-12:06:42,10.1.1.9,22,-0.010,-0.010,-0.010,0.000,0.000,0.000
1644926802714280960,2022-02-15-12:06:42,10.1.1.9,32,-0.020,-0.020,-0.020,0.000,0.000,0.000
1644926802755101952,2022-02-15-12:06:42,10.1.1.9,20,-0.030,-0.030,-0.030,0.000,0.000,0.000
1644926802814316032,2022-02-15-12:06:42,10.1.1.9,30,-0.040,-0.040,-0.040,0.000,0.000,0.000
1644926802854178048,2022-02-15-12:06:42,10.1.1.9,19,-0.049,-0.049,-0.049,0.000,0.000,0.000
1644926802914386944,2022-02-15-12:06:42,10.1.1.9,28,-0.060,-0.060,-0.060,0.000,0.000,0.000
1644926802973544960,2022-02-15-12:06:42,10.1.1.9,37,-0.070,-0.070,-0.070,0.000,0.000,0.000
1644926803013922816,2022-02-15-12:06:43,10.1.1.9,26,-0.080,-0.080,-0.080,0.000,0.000,0.000
1644926803074212096,2022-02-15-12:06:43,10.1.1.9,35,-0.090,-0.090,-0.090,0.000,0.000,0.000
1644926803114016000,2022-02-15-12:06:43,10.1.1.9,24,-0.100,-0.100,-0.100,0.000,0.000,0.000
1644926803173927168,2022-02-15-12:06:43,10.1.1.9,32,-0.090,-0.090,-0.090,0.000,0.000,0.000
1644926803214106112,2022-02-15-12:06:43,10.1.1.9,21,-0.080,-0.080,-0.080,0.000,0.000,0.000
1644926803276556032,2022-02-15-12:06:43,10.1.1.9,30,-0.070,-0.070,-0.070,0.000,0.000,0.000
1644926803334028032,2022-02-15-12:06:43,10.1.1.9,38,-0.060,-0.060,-0.060,0.000,0.000,0.000
1644926803373569024,2022-02-15-12:06:43,10.1.1.9,27,-0.050,-0.050,-0.050,0.000,0.000,0.000
1644926803434590208,2022-02-15-12:06:43,10.1.1.9,36,-0.040,-0.040,-0.040,0.000,0.000,0.000
1644926803473555968,2022-02-15-12:06:43,10.1.1.9,26,-0.030,-0.030,-0.030,0.000,0.000,0.000
1644926803535096832,2022-02-15-12:06:43,10.1.1.9,34,-0.020,-0.020,-0.020,0.000,0.000,0.000
1644926803574363904,2022-02-15-12:06:43,10.1.1.9,23,-0.010,-0.010,-0.010,0.000,0.000,0.000
1644926803633850112,2022-02-15-12:06:43,10.1.1.9,32,0.000,0.000,0.000,0.000,0.000,0.000
1644926803673502976,2022-02-15-12:06:43,10.1.1.9,19,0.009,0.009,0.009,0.000,0.000,0.000
1644926803734041088,2022-02-15-12:06:43,10.1.1.9,28,0.020,0.020,0.020,0.000,0.000,0.000
1644926803794301952,2022-02-15-12:06:43,10.1.1.9,37,0.030,0.030,0.030,0.000,0.000,0.000
1644926803833876992,2022-02-15-12:06:43,10.1.1.9,26,0.040,0.040,0.040,0.000,0.000,0.000
1644926803894287104,2022-02-15-12:06:43,10.1.1.9,35,0.050,0.050,0.050,0.000,0.000,0.000
1644926803933937920,2022-02-15-12:06:43,10.1.1.9,24,0.060,0.060,0.060,0.000,0.000,0.000
1644926803993735168,2022-02-15-12:06:43,10.1.1.9,33,0.070,0.070,0.070,0.000,0.000,0.000
1644926804034542080,2022-02-15-12:06:44,10.1.1.9,22,0.080,0.080,0.080,0.000,0.000,0.000
1644926804093756928,2022-02-15-12:06:44,10.1.1.9,32,0.090,0.090,0.090,0.000,0.000,0.000
1644926804134450944,2022-02-15-12:06:44,10.1.1.9,21,0.100,0.100,0.100,0.000,0.000,0.000
1644926804194376960,2022-02-15-12:06:44,10.1.1.9,30,0.090,0.090,0.090,0.000,0.000,0.000
1644926804233860864,2022-02-15-12:06:44,10.1.1.9,19,0.081,0.081,0.081,0.000,0.000,0.000
1644926804294162944,2022-02-15-12:06:44,10.1.1.9,28,0.070,0.070,0.070,0.000,0.000,0.000
1644926804354025984,2022-02-15-12:06:44,10.1.1.9,36,0.060,0.060,0.060,0.000,0.000,0.000
1644926804393647872,2022-02-15-12:06:44,10.1.1.9,25,0.050,0.050,0.050,0.000,0.000,0.000
1644926804454164992,2022-02-15-12:06:44,10.1.1.9,34,0.040,0.040,0.040,0.000,0.000,0.000
1644926804494155008,2022-02-15-12:06:44,10.1.1.9,24,0.030,0.030,0.030,0.000,0.000,0.000
1644926804554212096,2022-02-15-12:06:44,10.1.1.9,31,0.020,0.020,0.020,0.000,0.000,0.000
1644926804594204928,2022-02-15-12:06:44,10.1.1.9,21,0.010,0.010,0.010,0.000,0.000,0.000
1644926804654028032,2022-02-15-12:06:44,10.1.1.9,30,0.000,0.000,0.000,0.000,0.000,0.000
1644926804714234112,2022-02-15-12:06:44,10.1.1.9,38,-0.010,-0.010,-0.010,0.000,0.000,0.000
1644926804757245184,2022-02-15-12:06:44,10.1.1.9,27,-0.020,-0.020,-0.020,0.000,0.000,0.000
1644926804814853888,2022-02-15-12:06:44,10.1.1.9,35,-0.030,-0.030,-0.030,0.000,0.000,0.000
1644926804854147840,2022-02-15-12:06:44,10.1.1.9,24,-0.040,-0.040,-0.040,0.000,0.000,0.000
1644926804915024128,2022-02-15-12:06:44,10.1.1.9,32,-0.050,-0.050,-0.050,0.000,0.000,0.000
1644926804955645952,2022-02-15-12:06:44,10.1.1.9,21,-0.060,-0.060,-0.060,0.000,0.000,0.000
1644926805016272896,2022-02-15-12:06:45,10.1.1.9,30,-0.070,-0.070,-0.070,0.000,0.000,0.000
1644926805075725056,2022-02-15-12:06:45,10.1.1.9,36,-0.080,-0.080,-0.080,0.000,0.000,0.000
1644926805115339008,2022-02-15-12:06:45,10.1.1.9,25,-0.090,-0.090,-0.090,0.000,0.000,0.000
1644926805214011904,2022-02-15-12:06:45,10.1.1.9,20,-0.090,-0.090,-0.090,0.000,0.000,0.000
1644926805274540032,2022-02-15-12:06:45,10.1.1.9,30,-0.080,-0.080,-0.080,0.000,0.000,0.000
1644926805333772032,2022-02-15-12:06:45,10.1.1.9,38,-0.070,-0.070,-0.070,0.000,0.000,0.000
1644926805373858048,2022-02-15-12:06:45,10.1.1.9,26,-0.060,-0.060,-0.060,0.000,0.000,0.000
1644926805433670912,2022-02-15-12:06:45,10.1.1.9,36,-0.050,-0.050,-0.050,0.000,0.000,0.000
1644926805473861888,2022-02-15-12:06:45,10.1.1.9,25,-0.040,-0.040,-0.040,0.000,0.000,0.000
1644926805533840896,2022-02-15-12:06:45,10.1.1.9,33,-0.030,-0.030,-0.030,0.000,0.000,0.000
1644926805573971968,2022-02-15-12:06:45,10.1.1.9,22,-0.020,-0.020,-0.020,0.000,0.000,0.000
1644926805633313792,2022-02-15-12:06:45,10.1.1.9,31,-0.010,-0.010,-0.010,0.000,0.000,0.000
1644926805673952000,2022-02-15-12:06:45,10.1.1.9,20,0.000,0.000,0.000,0.000,0.000,0.000
1644926805733495040,2022-02-15-12:06:45,10.1.1.9,26,0.010,0.010,0.010,0.000,0.000,0.000
1644926805794307072,2022-02-15-12:06:45,10.1.1.9,35,0.020,0.020,0.020,0.000,0.000,0.000
1644926805833398016,2022-02-15-12:06:45,10.1.1.9,23,0.030,0.030,0.030,0.000,0.000,0.000
1644926805893908992,2022-02-15-12:06:45,10.1.1.9,32,0.040,0.040,0.040,0.000,0.000,0.000
1644926805934107904,2022-02-15-12:06:45,10.1.1.9,21,0.050,0.050,0.050,0.000,0.000,0.000
1644926805993463040,2022-02-15-12:06:45,10.1.1.9,30,0.060,0.060,0.060,0.000,0.000,0.000
1644926806033766912,2022-02-15-12:06:46,10.1.1.9,20,0.070,0.070,0.070,0.000,0.000,0.000
1644926806094105856,2022-02-15-12:06:46,10.1.1.9,29,0.080,0.080,0.080,0.000,0.000,0.000
1644926806154238976,2022-02-15-12:06:46,10.1.1.9,38,0.090,0.090,0.090,0.000,0.000,0.000
1644926806194180864,2022-02-15-12:06:46,10.1.1.9,24,0.100,0.100,0.100,0.000,0.000,0.000
1644926806254693120,2022-02-15-12:06:46,10.1.1.9,33,0.090,0.090,0.090,0.000,0.000,0.000
1644926806294627840,2022-02-15-12:06:46,10.1.1.9,22,0.080,0.080,0.080,0.000,0.000,0.000
1644926806355164928,2022-02-15-12:06:46,10.1.1.9,31,0.070,0.070,0.070,0.000,0.000,0.000
1644926806394917120,2022-02-15-12:06:46,10.1.1.9,20,0.060,0.060,0.060,0.000,0.000,0.000
1644926806454073856,2022-02-15-12:06:46,10.1.1.9,28,0.050,0.050,0.050,0.000,0.000,0.000
1644926806514828032,2022-02-15-12:06:46,10.1.1.9,38,0.040,0.040,0.040,0.000,0.000,0.000
1644926806554585856,2022-02-15-12:06:46,10.1.1.9,27,0.030,0.030,0.030,0.000,0.000,0.000
1644926806613532928,2022-02-15-12:06:46,10.1.1.9,36,0.020,0.020,0.020,0.000,0.000,0.000
1644926806655574016,2022-02-15-12:06:46,10.1.1.9,24,0.010,0.010,0.010,0.000,0.000,0.000
1644926806713912064,2022-02-15-12:06:46,10.1.1.9,34,0.000,0.000,0.000,0.000,0.000,0.000
1644926806754753024,2022-02-15-12:06:46,10.1.1.9,22,-0.010,-0.010,-0.010,0.000,0.000,0.000
1644926806815288064,2022-02-15-12:06:46,10.1.1.9,32,-0.020,-0.020,-0.020,0.000,0.000,0.000
1644926806854104064,2022-02-15-12:06:46,10.1.1.9,20,-0.030,-0.030,-0.030,0.000,0.000,0.000
1644926806914222848,2022-02-15-12:06:46,10.1.1.9,29,-0.040,-0.040,-0.040,0.000,0.000,0.000
1644926806973654016,2022-02-15-12:06:46,10.1.1.9,38,-0.050,-0.050,-0.050,0.000,0.000,0.000
1644926807014749952,2022-02-15-12:06:47,10.1.1.9,27,-0.060,-0.060,-0.060,0.000,0.000,0.000
1644926807073796096,2022-02-15-12:06:47,10.1.1.9,35,-0.070,-0.070,-0.070,0.000,0.000,0.000
1644926807115122176,2022-02-15-12:06:47,10.1.1.9,23,-0.080,-0.080,-0.080,0.000,0.000,0.000
1644926807174663936,2022-02-15-12:06:47,10.1.1.9,32,-0.090,-0.090,-0.090,0.000,0.000,0.000
1644926807234124032,2022-02-15-12:06:47,10.1.1.9,39,-0.100,-0.100,-0.100,0.000,0.000,0.000
1644926807274516992,2022-02-15-12:06:47,10.1.1.9,20,-0.090,-0.090,-0.090,0.000,0.000,0.000
1644926807334167040,2022-02-15-12:06:47,10.1.1.9,29,-0.080,-0.080,-0.080,0.000,0.000,0.000
1644926807394336000,2022-02-15-12:06:47,10.1.1.9,38,-0.070,-0.070,-0.070,0.000,0.000,0.000
1644926807433670912,2022-02-15-12:06:47,10.1.1.9,27,-0.060,-0.060,-0.060,0.000,0.000,0.000
1644926807494155008,2022-02-15-12:06:47,10.1.1.9,36,-0.050,-0.050,-0.050,0.000,0.000,0.000
1644926807534196992,2022-02-15-12:06:47,10.1.1.9,24,-0.040,-0.040,-0.040,0.000,0.000,0.000
1644926807594723840,2022-02-15-12:06:47,10.1.1.9,34,-0.030,-0.030,-0.030,0.000,0.000,0.000
1644926807635104768,2022-02-15-12:06:47,10.1.1.9,23,-0.020,-0.020,-0.020,0.000,0.000,0.000
1644926807695188992,2022-02-15-12:06:47,10.1.1.9,31,-0.010,-0.010,-0.010,0.000,0.000,0.000
1644926807734624000,2022-02-15-12:06:47,10.1.1.9,19,-0.000,-0.000,-0.000,0.000,0.000,0.000
1644926807794225920,2022-02-15-12:06:47,10.1.1.9,26,0.010,0.010,0.010,0.000,0.000,0.000
1644926807854109952,2022-02-15-12:06:47,10.1.1.9,34,0.020,0.020,0.020,0.000,0.000,0.000
1644926807895528192,2022-02-15-12:06:47,10.1.1.9,24,0.030,0.030,0.030,0.000,0.000,0.000
1644926807957469952,2022-02-15-12:06:47,10.1.1.9,30,0.040,0.040,0.040,0.000,0.000,0.000
1644926807993693952,2022-02-15-12:06:47,10.1.1.9,19,0.049,0.049,0.049,0.000,0.000,0.000
1644926808053750016,2022-02-15-12:06:48,10.1.1.9,22,0.060,0.060,0.060,0.000,0.000,0.000
1644926808114039040,2022-02-15-12:06:48,10.1.1.9,30,0.070,0.070,0.070,0.000,0.000,0.000
1644926808174159104,2022-02-15-12:06:48,10.1.1.9,38,0.080,0.080,0.080,0.000,0.000,0.000
1644926808214731008,2022-02-15-12:06:48,10.1.1.9,25,0.090,0.090,0.090,0.000,0.000,0.000
1644926808275155968,2022-02-15-12:06:48,10.1.1.9,35,0.100,0.100,0.100,0.000,0.000,0.000
1644926808314413056,2022-02-15-12:06:48,10.1.1.9,23,0.090,0.090,0.090,0.000,0.000,0.000
1644926808374178816,2022-02-15-12:06:48,10.1.1.9,32,0.080,0.080,0.080,0.000,0.000,0.000
1644926808413755904,2022-02-15-12:06:48,10.1.1.9,21,0.070,0.070,0.070,0.000,0.000,0.000
1644926808474631168,2022-02-15-12:06:48,10.1.1.9,30,0.060,0.060,0.060,0.000,0.000,0.000
1644926808514400000,2022-02-15-12:06:48,10.1.1.9,19,0.050,0.050,0.050,0.000,0.000,0.000
1644926808574088960,2022-02-15-12:06:48,10.1.1.9,28,0.040,0.040,0.040,0.000,0.000,0.000
1644926808614299136,2022-02-15-12:06:48,10.1.1.9,18,0.031,0.031,0.031,0.000,0.000,0.000
1644926808674989824,2022-02-15-12:06:48,10.1.1.9,28,0.020,0.020,0.020,0.000,0.000,0.000
1644926808734940160,2022-02-15-12:06:48,10.1.1.9,37,0.010,0.010,0.010,0.000,0.000,0.000
1644926808773569024,2022-02-15-12:06:48,10.1.1.9,26,0.000,0.000,0.000,0.000,0.000,0.000
1644926808833828096,2022-02-15-12:06:48,10.1.1.9,34,-0.010,-0.010,-0.010,0.000,0.000,0.000
1644926808874494976,2022-02-15-12:06:48,10.1.1.9,23,-0.020,-0.020,-0.020,0.000,0.000,0.000
1644926808934467072,2022-02-15-12:06:48,10.1.1.9,31,-0.030,-0.030,-0.030,0.000,0.000,0.000
1644926808974607872,2022-02-15-12:06:48,10.1.1.9,19,-0.040,-0.040,-0.040,0.000,0.000,0.000
1644926809034276864,2022-02-15-12:06:49,10.1.1.9,28,-0.050,-0.050,-0.050,0.000,0.000,0.000
1644926809093905920,2022-02-15-12:06:49,10.1.1.9,37,-0.060,-0.060,-0.060,0.000,0.000,0.000
1644926809134568960,2022-02-15-12:06:49,10.1.1.9,26,-0.070,-0.070,-0.070,0.000,0.000,0.000
1644926809194010880,2022-02-15-12:06:49,10.1.1.9,35,-0.080,-0.080,-0.080,0.000,0.000,0.000
1644926809234176000,2022-02-15-12:06:49,10.1.1.9,24,-0.090,-0.090,-0.090,0.000,0.000,0.000
1644926809294044928,2022-02-15-12:06:49,10.1.1.9,32,-0.100,-0.100,-0.100,0.000,0.000,0.000
1644926809334728960,2022-02-15-12:06:49,10.1.1.9,21,-0.090,-0.090,-0.090,0.000,0.000,0.000
1644926809394360064,2022-02-15-12:06:49,10.1.1.9,31,-0.080,-0.080,-0.080,0.000,0.000,0.000
1644926809434353152,2022-02-15-12:06:49,10.1.1.9,20,-0.070,-0.070,-0.070,0.000,0.000,0.000
1644926809494023168,2022-02-15-12:06:49,10.1.1.9,29,-0.060,-0.060,-0.060,0.000,0.000,0.000
1644926809556164096,2022-02-15-12:06:49,10.1.1.9,38,-0.050,-0.050,-0.050,0.000,0.000,0.000
1644926809594052096,2022-02-15-12:06:49,10.1.1.9,27,-0.040,-0.040,-0.040,0.000,0.000,0.000
1644926809654252032,2022-02-15-12:06:49,10.1.1.9,35,-0.030,-0.030,-0.030,0.000,0.000,0.000
1644926809694135808,2022-02-15-12:06:49,10.1.1.9,25,-0.020,-0.020,-0.020,0.000,0.000,0.000
1644926809753936896,2022-02-15-12:06:49,10.1.1.9,34,-0.010,-0.010,-0.010,0.000,0.000,0.000
1644926809793703168,2022-02-15-12:06:49,10.1.1.9,23,0.000,0.000,0.000,0.000,0.000,0.000
1644926809854048000,2022-02-15-12:06:49,10.1.1.9,33,0.010,0.010,0.010,0.000,0.000,0.000
1644926809894136064,2022-02-15-12:06:49,10.1.1.9,22,0.020,0.020,0.020,0.000,0.000,0.000
1644926809955414016,2022-02-15-12:06:49,10.1.1.9,31,0.030,0.030,0.030,0.000,0.000,0.000
1644926809993614848,2022-02-15-12:06:49,10.1.1.9,21,0.040,0.040,0.040,0.000,0.000,0.000
1644926810054173952,2022-02-15-12:06:50,10.1.1.9,30,0.050,0.050,0.050,0.000,0.000,0.000
1644926810093505024,2022-02-15-12:06:50,10.1.1.9,19,0.060,0.060,0.060,0.000,0.000,0.000
1644926810153945856,2022-02-15-12:06:50,10.1.1.9,28,0.070,0.070,0.070,0.000,0.000,0.000
1644926810215264000,2022-02-15-12:06:50,10.1.1.9,37,0.080,0.080,0.080,0.000,0.000,0.000
1644926810254308096,2022-02-15-12:06:50,10.1.1.9,26,0.090,0.090,0.090,0.000,0.000,0.000
1644926810313835008,2022-02-15-12:06:50,10.1.1.9,35,0.100,0.100,0.100,0.000,0.000,0.000
1644926810354266880,2022-02-15-12:06:50,10.1.1.9,25,0.090,0.090,0.090,0.000,0.000,0.000
1644926810414827008,2022-02-15-12:06:50,10.1.1.9,34,0.080,0.080,0.080,0.000,0.000,0.000
1644926810456391936,2022-02-15-12:06:50,10.1.1.9,23,0.070,0.070,0.070,0.000,0.000,0.000
1644926810513569024,2022-02-15-12:06:50,10.1.1.9,32,0.060,0.060,0.060,0.000,0.000,0.000
1644926810554179840,2022-02-15-12:06:50,10.1.1.9,21,0.050,0.050,0.050,0.000,0.000,0.000
1644926810613487104,2022-02-15-12:06:50,10.1.1.9,27,0.040,0.040,0.040,0.000,0.000,0.000
1644926810673789952,2022-02-15-12:06:50,10.1.1.9,36,0.030,0.030,0.030,0.000,0.000,0.000
1644926810713440768,2022-02-15-12:06:50,10.1.1.9,25,0.020,0.020,0.020,0.000,0.000,0.000
1644926810774130944,2022-02-15-12:06:50,10.1.1.9,34,0.010,0.010,0.010,0.000,0.000,0.000
1644926810814467072,2022-02-15-12:06:50,10.1.1.9,24,0.000,0.000,0.000,0.000,0.000,0.000
1644926810873799168,2022-02-15-12:06:50,10.1.1.9,33,-0.010,-0.010,-0.010,0.000,0.000,0.000
1644926810913500160,2022-02-15-12:06:50,10.1.1.9,22,-0.020,-0.020,-0.020,0.000,0.000,0.000
1644926810974023168,2022-02-15-12:06:50,10.1.1.9,32,-0.030,-0.030,-0.030,0.000,0.000,0.000
1644926811013735168,2022-02-15-12:06:51,10.1.1.9,21,-0.040,-0.040,-0.040,0.000,0.000,0.000
1644926811073616128,2022-02-15-12:06:51,10.1.1.9,31,-0.050,-0.050,-0.050,0.000,0.000,0.000
1644926811115175936,2022-02-15-12:06:51,10.1.1.9,20,-0.060,-0.060,-0.060,0.000,0.000,0.000
1644926811174066944,2022-02-15-12:06:51,10.1.1.9,29,-0.070,-0.070,-0.070,0.000,0.000,0.000
1644926811233822976,2022-02-15-12:06:51,10.1.1.9,38,-0.080,-0.080,-0.080,0.000,0.000,0.000
1644926811273655040,2022-02-15-12:06:51,10.1.1.9,25,-0.090,-0.090,-0.090,0.000,0.000,0.000
1644926811334603008,2022-02-15-12:06:51,10.1.1.9,34,-0.100,-0.100,-0.100,0.000,0.000,0.000
1644926811374337792,2022-02-15-12:06:51,10.1.1.9,22,-0.090,-0.090,-0.090,0.000,0.000,0.000
1644926811434562816,2022-02-15-12:06:51,10.1.1.9,32,-0.080,-0.080,-0.080,0.000,0.000,0.000
1644926811474551040,2022-02-15-12:06:51,10.1.1.9,21,-0.070,-0.070,-0.070,0.000,0.000,0.000
1644926811534113792,2022-02-15-12:06:51,10.1.1.9,30,-0.060,-0.060,-0.060,0.000,0.000,0.000
1644926811594650112,2022-02-15-12:06:51,10.1.1.9,38,-0.050,-0.050,-0.050,0.000,0.000,0.000
1644926811634705920,2022-02-15-12:06:51,10.1.1.9,24,-0.040,-0.040,-0.040,0.000,0.000,0.000
1644926811754707968,2022-02-15-12:06:51,10.1.1.9,31,-0.020,-0.020,-0.020,0.000,0.000,0.000
1644926811794092800,2022-02-15-12:06:51,10.1.1.9,21,-0.010,-0.010,-0.010,0.000,0.000,0.000
1644926811854285056,2022-02-15-12:06:51,10.1.1.9,31,0.000,0.000,0.000,0.000,0.000,0.000
1644926811894768896,2022-02-15-12:06:51,10.1.1.9,21,0.010,0.010,0.010,0.000,0.000,0.000
1644926811955077888,2022-02-15-12:06:51,10.1.1.9,29,0.020,0.020,0.020,0.000,0.000,0.000
1644926811994127872,2022-02-15-12:06:51,10.1.1.9,19,0.029,0.029,0.029,0.000,0.000,0.000
1644926812055289856,2022-02-15-12:06:52,10.1.1.9,25,0.040,0.040,0.040,0.000,0.000,0.000
1644926812114054912,2022-02-15-12:06:52,10.1.1.9,35,0.050,0.050,0.050,0.000,0.000,0.000
1644926812156322048,2022-02-15-12:06:52,10.1.1.9,25,0.060,0.060,0.060,0.000,0.000,0.000
1644926812214344960,2022-02-15-12:06:52,10.1.1.9,34,0.070,0.070,0.070,0.000,0.000,0.000
1644926812254075136,2022-02-15-12:06:52,10.1.1.9,24,0.080,0.080,0.080,0.000,0.000,0.000
1644926812314546944,2022-02-15-12:06:52,10.1.1.9,33,0.090,0.090,0.090,0.000,0.000,0.000
1644926812353817856,2022-02-15-12:06:52,10.1.1.9,23,0.100,0.100,0.100,0.000,0.000,0.000
1644926812415375104,2022-02-15-12:06:52,10.1.1.9,32,0.090,0.090,0.090,0.000,0.000,0.000
1644926812453989120,2022-02-15-12:06:52,10.1.1.9,21,0.080,0.080,0.080,0.000,0.000,0.000
1644926812514113792,2022-02-15-12:06:52,10.1.1.9,31,0.070,0.070,0.070,0.000,0.000,0.000
1644926812554348032,2022-02-15-12:06:52,10.1.1.9,20,0.060,0.060,0.060,0.000,0.000,0.000
1644926812615865856,2022-02-15-12:06:52,10.1.1.9,30,0.050,0.050,0.050,0.000,0.000,0.000
1644926812653762048,2022-02-15-12:06:52,10.1.1.9,19,0.040,0.040,0.040,0.000,0.000,0.000
1644926812714878976,2022-02-15-12:06:52,10.1.1.9,29,0.030,0.030,0.030,0.000,0.000,0.000
1644926812773839872,2022-02-15-12:06:52,10.1.1.9,38,0.020,0.020,0.020,0.000,0.000,0.000
1644926812813314816,2022-02-15-12:06:52,10.1.1.9,27,0.010,0.010,0.010,0.000,0.000,0.000
1644926812873518848,2022-02-15-12:06:52,10.1.1.9,36,0.000,0.000,0.000,0.000,0.000,0.000
1644926812913497856,2022-02-15-12:06:52,10.1.1.9,26,-0.010,-0.010,-0.010,0.000,0.000,0.000
1644926812973314048,2022-02-15-12:06:52,10.1.1.9,35,-0.020,-0.020,-0.020,0.000,0.000,0.000
1644926813013840896,2022-02-15-12:06:53,10.1.1.9,25,-0.030,-0.030,-0.030,0.000,0.000,0.000
1644926813073887232,2022-02-15-12:06:53,10.1.1.9,34,-0.040,-0.040,-0.040,0.000,0.000,0.000
1644926813113545984,2022-02-15-12:06:53,10.1.1.9,24,-0.050,-0.050,-0.050,0.000,0.000,0.000
1644926813174295808,2022-02-15-12:06:53,10.1.1.9,34,-0.060,-0.060,-0.060,0.000,0.000,0.000
1644926813214324992,2022-02-15-12:06:53,10.1.1.9,23,-0.070,-0.070,-0.070,0.000,0.000,0.000
1644926813274488064,2022-02-15-12:06:53,10.1.1.9,33,-0.080,-0.080,-0.080,0.000,0.000,0.000
1644926813314601984,2022-02-15-12:06:53,10.1.1.9,22,-0.090,-0.090,-0.090,0.000,0.000,0.000
1644926813373508096,2022-02-15-12:06:53,10.1.1.9,31,-0.100,-0.100,-0.100,0.000,0.000,0.000
1644926813413780992,2022-02-15-12:06:53,10.1.1.9,20,-0.090,-0.090,-0.090,0.000,0.000,0.000
1644926813474791936,2022-02-15-12:06:53,10.1.1.9,29,-0.080,-0.080,-0.080,0.000,0.000,0.000
1644926813533457152,2022-02-15-12:06:53,10.1.1.9,38,-0.070,-0.070,-0.070,0.000,0.000,0.000
1644926813573606912,2022-02-15-12:06:53,10.1.1.9,28,-0.060,-0.060,-0.060,0.000,0.000,0.000
1644926813633975040,2022-02-15-12:06:53,10.1.1.9,36,-0.050,-0.050,-0.050,0.000,0.000,0.000
1644926813673118976,2022-02-15-12:06:53,10.1.1.9,25,-0.040,-0.040,-0.040,0.000,0.000,0.000
1644926813733284864,2022-02-15-12:06:53,10.1.1.9,35,-0.030,-0.030,-0.030,0.000,0.000,0.000
1644926813773670912,2022-02-15-12:06:53,10.1.1.9,24,-0.020,-0.020,-0.020,0.000,0.000,0.000
1644926813834080000,2022-02-15-12:06:53,10.1.1.9,34,-0.010,-0.010,-0.010,0.000,0.000,0.000
1644926813873516032,2022-02-15-12:06:53,10.1.1.9,23,0.000,0.000,0.000,0.000,0.000,0.000
1644926813933573888,2022-02-15-12:06:53,10.1.1.9,33,0.010,0.010,0.010,0.000,0.000,0.000
1644926813973661952,2022-02-15-12:06:53,10.1.1.9,22,0.020,0.020,0.020,0.000,0.000,0.000
1644926814036495872,2022-02-15-12:06:54,10.1.1.9,33,0.030,0.030,0.030,0.000,0.000,0.000
1644926814075529984,2022-02-15-12:06:54,10.1.1.9,21,0.040,0.040,0.040,0.000,0.000,0.000
1644926814194427904,2022-02-15-12:06:54,10.1.1.9,37,0.060,0.060,0.060,0.000,0.000,0.000
1644926814234242816,2022-02-15-12:06:54,10.1.1.9,27,0.070,0.070,0.070,0.000,0.000,0.000
1644926814294267904,2022-02-15-12:06:54,10.1.1.9,35,0.080,0.080,0.080,0.000,0.000,0.000
1644926814335237120,2022-02-15-12:06:54,10.1.1.9,25,0.090,0.090,0.090,0.000,0.000,0.000
1644926814394479872,2022-02-15-12:06:54,10.1.1.9,35,0.100,0.100,0.100,0.000,0.000,0.000
1644926814435485952,2022-02-15-12:06:54,10.1.1.9,24,0.090,0.090,0.090,0.000,0.000,0.000
1644926814494466048,2022-02-15-12:06:54,10.1.1.9,34,0.080,0.080,0.080,0.000,0.000,0.000
1644926814534116096,2022-02-15-12:06:54,10.1.1.9,24,0.070,0.070,0.070,0.000,0.000,0.000
1644926814594671872,2022-02-15-12:06:54,10.1.1.9,33,0.060,0.060,0.060,0.000,0.000,0.000
1644926814635972096,2022-02-15-12:06:54,10.1.1.9,23,0.050,0.050,0.050,0.000,0.000,0.000
1644926814694248960,2022-02-15-12:06:54,10.1.1.9,32,0.040,0.040,0.040,0.000,0.000,0.000
1644926814733603840,2022-02-15-12:06:54,10.1.1.9,22,0.030,0.030,0.030,0.000,0.000,0.000
1644926814794106880,2022-02-15-12:06:54,10.1.1.9,31,0.020,0.020,0.020,0.000,0.000,0.000
1644926814834541056,2022-02-15-12:06:54,10.1.1.9,21,0.010,0.010,0.010,0.000,0.000,0.000
1644926814894818048,2022-02-15-12:06:54,10.1.1.9,30,0.000,0.000,0.000,0.000,0.000,0.000
1644926814934795008,2022-02-15-12:06:54,10.1.1.9,19,-0.010,-0.010,-0.010,0.000,0.000,0.000
1644926814994555904,2022-02-15-12:06:54,10.1.1.9,29,-0.020,-0.020,-0.020,0.000,0.000,0.000
1644926815054177024,2022-02-15-12:06:55,10.1.1.9,38,-0.030,-0.030,-0.030,0.000,0.000,0.000
1644926815094883072,2022-02-15-12:06:55,10.1.1.9,28,-0.040,-0.040,-0.040,0.000,0.000,0.000
1644926815155339008,2022-02-15-12:06:55,10.1.1.9,37,-0.050,-0.050,-0.050,0.000,0.000,0.000
1644926815194654976,2022-02-15-12:06:55,10.1.1.9,26,-0.060,-0.060,-0.060,0.000,0.000,0.000
1644926815254172160,2022-02-15-12:06:55,10.1.1.9,36,-0.070,-0.070,-0.070,0.000,0.000,0.000
1644926815297009920,2022-02-15-12:06:55,10.1.1.9,25,-0.080,-0.080,-0.080,0.000,0.000,0.000
1644926815371145984,2022-02-15-12:06:55,10.1.1.9,34,-0.090,-0.090,-0.090,0.000,0.000,0.000
1644926815415493120,2022-02-15-12:06:55,10.1.1.9,36,-0.100,-0.100,-0.100,0.000,0.000,0.000
1644926815455441920,2022-02-15-12:06:55,10.1.1.9,24,-0.090,-0.090,-0.090,0.000,0.000,0.000
1644926815514009856,2022-02-15-12:06:55,10.1.1.9,33,-0.080,-0.080,-0.080,0.000,0.000,0.000
1644926815555056128,2022-02-15-12:06:55,10.1.1.9,23,-0.070,-0.070,-0.070,0.000,0.000,0.000
1644926815614887936,2022-02-15-12:06:55,10.1.1.9,32,-0.060,-0.060,-0.060,0.000,0.000,0.000
1644926815654550016,2022-02-15-12:06:55,10.1.1.9,21,-0.050,-0.050,-0.050,0.000,0.000,0.000
1644926815714216960,2022-02-15-12:06:55,10.1.1.9,30,-0.040,-0.040,-0.040,0.000,0.000,0.000
1644926815753910016,2022-02-15-12:06:55,10.1.1.9,20,-0.030,-0.030,-0.030,0.000,0.000,0.000
1644926815813713152,2022-02-15-12:06:55,10.1.1.9,28,-0.020,-0.020,-0.020,0.000,0.000,0.000
1644926815873595904,2022-02-15-12:06:55,10.1.1.9,37,-0.010,-0.010,-0.010,0.000,0.000,0.000
1644926815915052032,2022-02-15-12:06:55,10.1.1.9,27,0.000,0.000,0.000,0.000,0.000,0.000
1644926815973974016,2022-02-15-12:06:55,10.1.1.9,36,0.010,0.010,0.010,0.000,0.000,0.000
1644926816015214080,2022-02-15-12:06:56,10.1.1.9,25,0.020,0.020,0.020,0.000,0.000,0.000
1644926816073924096,2022-02-15-12:06:56,10.1.1.9,34,0.030,0.030,0.030,0.000,0.000,0.000
1644926816113244160,2022-02-15-12:06:56,10.1.1.9,23,0.040,0.040,0.040,0.000,0.000,0.000
1644926816173978112,2022-02-15-12:06:56,10.1.1.9,33,0.050,0.050,0.050,0.000,0.000,0.000
1644926816213420032,2022-02-15-12:06:56,10.1.1.9,22,0.060,0.060,0.060,0.000,0.000,0.000
1644926816273968896,2022-02-15-12:06:56,10.1.1.9,30,0.070,0.070,0.070,0.000,0.000,0.000
1644926816313839872,2022-02-15-12:06:56,10.1.1.9,20,0.080,0.080,0.080,0.000,0.000,0.000
1644926816373348864,2022-02-15-12:06:56,10.1.1.9,29,0.090,0.090,0.090,0.000,0.000,0.000
1644926816473295872,2022-02-15-12:06:56,10.1.1.9,28,0.090,0.090,0.090,0.000,0.000,0.000
1644926816534221056,2022-02-15-12:06:56,10.1.1.9,37,0.080,0.080,0.080,0.000,0.000,0.000
1644926816591954944,2022-02-15-12:06:56,10.1.1.9,27,0.070,0.070,0.070,0.000,0.000,0.000
1644926816633620992,2022-02-15-12:06:56,10.1.1.9,35,0.060,0.060,0.060,0.000,0.000,0.000
1644926816879930112,2022-02-15-12:06:56,10.1.1.9,34,0.020,0.020,0.020,0.000,0.000,0.000
1644926816913669120,2022-02-15-12:06:56,10.1.1.9,21,0.010,0.010,0.010,0.000,0.000,0.000
1644926816973916160,2022-02-15-12:06:56,10.1.1.9,30,0.000,0.000,0.000,0.000,0.000,0.000
1644926817013989888,2022-02-15-12:06:57,10.1.1.9,19,-0.009,-0.009,-0.009,0.000,0.000,0.000
1644926817073907968,2022-02-15-12:06:57,10.1.1.9,19,-0.019,-0.019,-0.019,0.000,0.000,0.000
1644926817133946880,2022-02-15-12:06:57,10.1.1.9,26,-0.030,-0.030,-0.030,0.000,0.000,0.000
1644926817193947136,2022-02-15-12:06:57,10.1.1.9,31,-0.040,-0.040,-0.040,0.000,0.000,0.000
1644926817724745984,2022-02-15-12:06:57,10.1.1.9,19,-0.049,-0.049,-0.049,0.000,0.000,0.000
1644926817773703168,2022-02-15-12:06:57,10.1.1.9,33,-0.060,-0.060,-0.060,0.000,0.000,0.000
1644926817834025984,2022-02-15-12:06:57,10.1.1.9,37,-0.070,-0.070,-0.070,0.000,0.000,0.000
1644926817874747904,2022-02-15-12:06:57,10.1.1.9,26,-0.080,-0.080,-0.080,0.000,0.000,0.000
1644926817933913856,2022-02-15-12:06:57,10.1.1.9,35,-0.090,-0.090,-0.090,0.000,0.000,0.000
1644926817973385984,2022-02-15-12:06:57,10.1.1.9,23,-0.100,-0.100,-0.100,0.000,0.000,0.000
1644926818035096832,2022-02-15-12:06:58,10.1.1.9,33,-0.090,-0.090,-0.090,0.000,0.000,0.000
1644926818074031104,2022-02-15-12:06:58,10.1.1.9,22,-0.080,-0.080,-0.080,0.000,0.000,0.000
1644926818133512960,2022-02-15-12:06:58,10.1.1.9,32,-0.070,-0.070,-0.070,0.000,0.000,0.000
1644926818178881024,2022-02-15-12:06:58,10.1.1.9,22,-0.060,-0.060,-0.060,0.000,0.000,0.000
1644926818233742080,2022-02-15-12:06:58,10.1.1.9,31,-0.050,-0.050,-0.050,0.000,0.000,0.000
1644926818273076992,2022-02-15-12:06:58,10.1.1.9,21,-0.040,-0.040,-0.040,0.000,0.000,0.000
1644926818333772800,2022-02-15-12:06:58,10.1.1.9,30,-0.030,-0.030,-0.030,0.000,0.000,0.000
1644926818373848064,2022-02-15-12:06:58,10.1.1.9,19,-0.020,-0.020,-0.020,0.000,0.000,0.000
1644926818433768960,2022-02-15-12:06:58,10.1.1.9,29,-0.010,-0.010,-0.010,0.000,0.000,0.000
1644926818493913856,2022-02-15-12:06:58,10.1.1.9,38,0.000,0.000,0.000,0.000,0.000,0.000
1644926818534038016,2022-02-15-12:06:58,10.1.1.9,28,0.010,0.010,0.010,0.000,0.000,0.000
1644926818593643776,2022-02-15-12:06:58,10.1.1.9,37,0.020,0.020,0.020,0.000,0.000,0.000
1644926818633611008,2022-02-15-12:06:58,10.1.1.9,27,0.030,0.030,0.030,0.000,0.000,0.000
1644926818693937152,2022-02-15-12:06:58,10.1.1.9,37,0.040,0.040,0.040,0.000,0.000,0.000
1644926818733853952,2022-02-15-12:06:58,10.1.1.9,26,0.050,0.050,0.050,0.000,0.000,0.000
1644926818793858048,2022-02-15-12:06:58,10.1.1.9,35,0.060,0.060,0.060,0.000,0.000,0.000
1644926818833359104,2022-02-15-12:06:58,10.1.1.9,24,0.070,0.070,0.070,0.000,0.000,0.000
1644926818893297920,2022-02-15-12:06:58,10.1.1.9,34,0.080,0.080,0.080,0.000,0.000,0.000
1644926818933767936,2022-02-15-12:06:58,10.1.1.9,23,0.090,0.090,0.090,0.000,0.000,0.000
1644926818993242880,2022-02-15-12:06:58,10.1.1.9,33,0.100,0.100,0.100,0.000,0.000,0.000
1644926819033581056,2022-02-15-12:06:59,10.1.1.9,22,0.090,0.090,0.090,0.000,0.000,0.000
1644926819093679872,2022-02-15-12:06:59,10.1.1.9,32,0.080,0.080,0.080,0.000,0.000,0.000
1644926819133229056,2022-02-15-12:06:59,10.1.1.9,21,0.070,0.070,0.070,0.000,0.000,0.000
1644926819193736192,2022-02-15-12:06:59,10.1.1.9,30,0.060,0.060,0.060,0.000,0.000,0.000
1644926819234121984,2022-02-15-12:06:59,10.1.1.9,19,0.051,0.051,0.051,0.000,0.000,0.000
1644926819293921024,2022-02-15-12:06:59,10.1.1.9,29,0.040,0.040,0.040,0.000,0.000,0.000
1644926819353931776,2022-02-15-12:06:59,10.1.1.9,38,0.030,0.030,0.030,0.000,0.000,0.000
1644926819393614080,2022-02-15-12:06:59,10.1.1.9,27,0.020,0.020,0.020,0.000,0.000,0.000
1644926819453465856,2022-02-15-12:06:59,10.1.1.9,37,0.010,0.010,0.010,0.000,0.000,0.000
1644926819493360896,2022-02-15-12:06:59,10.1.1.9,26,0.000,0.000,0.000,0.000,0.000,0.000
1644926819554174976,2022-02-15-12:06:59,10.1.1.9,36,-0.010,-0.010,-0.010,0.000,0.000,0.000
1644926819594379008,2022-02-15-12:06:59,10.1.1.9,25,-0.020,-0.020,-0.020,0.000,0.000,0.000
1644926819653799936,2022-02-15-12:06:59,10.1.1.9,35,-0.030,-0.030,-0.030,0.000,0.000,0.000
1644926819693548800,2022-02-15-12:06:59,10.1.1.9,24,-0.040,-0.040,-0.040,0.000,0.000,0.000
1644926819754534912,2022-02-15-12:06:59,10.1.1.9,34,-0.050,-0.050,-0.050,0.000,0.000,0.000
1644926819793816064,2022-02-15-12:06:59,10.1.1.9,23,-0.060,-0.060,-0.060,0.000,0.000,0.000
1644926819853864960,2022-02-15-12:06:59,10.1.1.9,32,-0.070,-0.070,-0.070,0.000,0.000,0.000
1644926819894643968,2022-02-15-12:06:59,10.1.1.9,22,-0.080,-0.080,-0.080,0.000,0.000,0.000
1644926819954487040,2022-02-15-12:06:59,10.1.1.9,32,-0.090,-0.090,-0.090,0.000,0.000,0.000
1644926819993440000,2022-02-15-12:06:59,10.1.1.9,21,-0.100,-0.100,-0.100,0.000,0.000,0.000
1644926820054016000,2022-02-15-12:07:00,10.1.1.9,31,-0.090,-0.090,-0.090,0.000,0.000,0.000
1644926820094083072,2022-02-15-12:07:00,10.1.1.9,20,-0.080,-0.080,-0.080,0.000,0.000,0.000
1644926820156114176,2022-02-15-12:07:00,10.1.1.9,29,-0.070,-0.070,-0.070,0.000,0.000,0.000
1644926820213895168,2022-02-15-12:07:00,10.1.1.9,38,-0.060,-0.060,-0.060,0.000,0.000,0.000
1644926820253415936,2022-02-15-12:07:00,10.1.1.9,28,-0.050,-0.050,-0.050,0.000,0.000,0.000
1644926820314721024,2022-02-15-12:07:00,10.1.1.9,38,-0.040,-0.040,-0.040,0.000,0.000,0.000
1644926820354756096,2022-02-15-12:07:00,10.1.1.9,27,-0.030,-0.030,-0.030,0.000,0.000,0.000
1644926820413750016,2022-02-15-12:07:00,10.1.1.9,36,-0.020,-0.020,-0.020,0.000,0.000,0.000
1644926820453592064,2022-02-15-12:07:00,10.1.1.9,26,-0.010,-0.010,-0.010,0.000,0.000,0.000
1644926820514316032,2022-02-15-12:07:00,10.1.1.9,35,0.000,0.000,0.000,0.000,0.000,0.000
1644926820553876992,2022-02-15-12:07:00,10.1.1.9,24,0.010,0.010,0.010,0.000,0.000,0.000
1644926820614018048,2022-02-15-12:07:00,10.1.1.9,34,0.020,0.020,0.020,0.000,0.000,0.000
1644926820653448960,2022-02-15-12:07:00,10.1.1.9,23,0.030,0.030,0.030,0.000,0.000,0.000
1644926820714278912,2022-02-15-12:07:00,10.1.1.9,33,0.040,0.040,0.040,0.000,0.000,0.000
1644926820754051840,2022-02-15-12:07:00,10.1.1.9,23,0.050,0.050,0.050,0.000,0.000,0.000
1644926820813949952,2022-02-15-12:07:00,10.1.1.9,32,0.060,0.060,0.060,0.000,0.000,0.000
1644926820853636864,2022-02-15-12:07:00,10.1.1.9,22,0.070,0.070,0.070,0.000,0.000,0.000
1644926820914583808,2022-02-15-12:07:00,10.1.1.9,31,0.080,0.080,0.080,0.000,0.000,0.000
1644926820953455872,2022-02-15-12:07:00,10.1.1.9,19,0.090,0.090,0.090,0.000,0.000,0.000
1644926821013840896,2022-02-15-12:07:01,10.1.1.9,29,0.100,0.100,0.100,0.000,0.000,0.000
1644926821075560192,2022-02-15-12:07:01,10.1.1.9,38,0.090,0.090,0.090,0.000,0.000,0.000
1644926821116957952,2022-02-15-12:07:01,10.1.1.9,28,0.080,0.080,0.080,0.000,0.000,0.000
1644926821174341888,2022-02-15-12:07:01,10.1.1.9,37,0.070,0.070,0.070,0.000,0.000,0.000
1644926821214298112,2022-02-15-12:07:01,10.1.1.9,27,0.060,0.060,0.060,0.000,0.000,0.000
1644926821273614848,2022-02-15-12:07:01,10.1.1.9,36,0.050,0.050,0.050,0.000,0.000,0.000
1644926821314968064,2022-02-15-12:07:01,10.1.1.9,25,0.040,0.040,0.040,0.000,0.000,0.000
1644926821373967872,2022-02-15-12:07:01,10.1.1.9,34,0.030,0.030,0.030,0.000,0.000,0.000
1644926821413667840,2022-02-15-12:07:01,10.1.1.9,24,0.020,0.020,0.020,0.000,0.000,0.000
1644926821474102016,2022-02-15-12:07:01,10.1.1.9,34,0.010,0.010,0.010,0.000,0.000,0.000
1644926821513807104,2022-02-15-12:07:01,10.1.1.9,23,0.000,0.000,0.000,0.000,0.000,0.000
1644926821573849856,2022-02-15-12:07:01,10.1.1.9,33,-0.010,-0.010,-0.010,0.000,0.000,0.000
1644926821614033920,2022-02-15-12:07:01,10.1.1.9,22,-0.020,-0.020,-0.020,0.000,0.000,0.000
1644926821673719040,2022-02-15-12:07:01,10.1.1.9,32,-0.030,-0.030,-0.030,0.000,0.000,0.000
1644926821713952000,2022-02-15-12:07:01,10.1.1.9,21,-0.040,-0.040,-0.040,0.000,0.000,0.000
1644926821773592064,2022-02-15-12:07:01,10.1.1.9,31,-0.050,-0.050,-0.050,0.000,0.000,0.000
1644926821814361088,2022-02-15-12:07:01,10.1.1.9,20,-0.060,-0.060,-0.060,0.000,0.000,0.000
1644926821874469888,2022-02-15-12:07:01,10.1.1.9,30,-0.070,-0.070,-0.070,0.000,0.000,0.000
1644926821914110976,2022-02-15-12:07:01,10.1.1.9,20,-0.080,-0.080,-0.080,0.000,0.000,0.000
1644926821974042880,2022-02-15-12:07:01,10.1.1.9,29,-0.090,-0.090,-0.090,0.000,0.000,0.000
1644926822013633024,2022-02-15-12:07:02,10.1.1.9,19,-0.099,-0.099,-0.099,0.000,0.000,0.000
1644926822073946880,2022-02-15-12:07:02,10.1.1.9,28,-0.090,-0.090,-0.090,0.000,0.000,0.000
1644926822134473984,2022-02-15-12:07:02,10.1.1.9,38,-0.080,-0.080,-0.080,0.000,0.000,0.000
1644926822173698048,2022-02-15-12:07:02,10.1.1.9,27,-0.070,-0.070,-0.070,0.000,0.000,0.000
1644926822234105088,2022-02-15-12:07:02,10.1.1.9,35,-0.060,-0.060,-0.060,0.000,0.000,0.000
1644926822274184960,2022-02-15-12:07:02,10.1.1.9,25,-0.050,-0.050,-0.050,0.000,0.000,0.000
1644926822333831936,2022-02-15-12:07:02,10.1.1.9,34,-0.040,-0.040,-0.040,0.000,0.000,0.000
1644926822374087168,2022-02-15-12:07:02,10.1.1.9,24,-0.030,-0.030,-0.030,0.000,0.000,0.000
1644926822434068992,2022-02-15-12:07:02,10.1.1.9,34,-0.020,-0.020,-0.020,0.000,0.000,0.000
1644926822474085120,2022-02-15-12:07:02,10.1.1.9,23,-0.010,-0.010,-0.010,0.000,0.000,0.000
1644926822533870848,2022-02-15-12:07:02,10.1.1.9,33,0.000,0.000,0.000,0.000,0.000,0.000
1644926822574189824,2022-02-15-12:07:02,10.1.1.9,22,0.010,0.010,0.010,0.000,0.000,0.000
1644926822633537024,2022-02-15-12:07:02,10.1.1.9,32,0.020,0.020,0.020,0.000,0.000,0.000
1644926822673582080,2022-02-15-12:07:02,10.1.1.9,22,0.030,0.030,0.030,0.000,0.000,0.000
1644926822733751040,2022-02-15-12:07:02,10.1.1.9,32,0.040,0.040,0.040,0.000,0.000,0.000
1644926822776913920,2022-02-15-12:07:02,10.1.1.9,21,0.050,0.050,0.050,0.000,0.000,0.000
1644926822833286912,2022-02-15-12:07:02,10.1.1.9,20,0.060,0.060,0.060,0.000,0.000,0.000
1644926822894269952,2022-02-15-12:07:02,10.1.1.9,29,0.070,0.070,0.070,0.000,0.000,0.000
1644926822933655040,2022-02-15-12:07:02,10.1.1.9,19,0.080,0.080,0.080,0.000,0.000,0.000
1644926822993854976,2022-02-15-12:07:02,10.1.1.9,29,0.090,0.090,0.090,0.000,0.000,0.000
1644926823033602048,2022-02-15-12:07:03,10.1.1.9,18,0.099,0.099,0.099,0.000,0.000,0.000
1644926823094046208,2022-02-15-12:07:03,10.1.1.9,28,0.090,0.090,0.090,0.000,0.000,0.000
1644926823154020096,2022-02-15-12:07:03,10.1.1.9,38,0.080,0.080,0.080,0.000,0.000,0.000
1644926823193474048,2022-02-15-12:07:03,10.1.1.9,27,0.070,0.070,0.070,0.000,0.000,0.000
1644926823253393920,2022-02-15-12:07:03,10.1.1.9,37,0.060,0.060,0.060,0.000,0.000,0.000
1644926823294248192,2022-02-15-12:07:03,10.1.1.9,26,0.050,0.050,0.050,0.000,0.000,0.000
1644926823353647872,2022-02-15-12:07:03,10.1.1.9,35,0.040,0.040,0.040,0.000,0.000,0.000
1644926823393934080,2022-02-15-12:07:03,10.1.1.9,25,0.030,0.030,0.030,0.000,0.000,0.000
1644926823453590016,2022-02-15-12:07:03,10.1.1.9,35,0.020,0.020,0.020,0.000,0.000,0.000
1644926823494103808,2022-02-15-12:07:03,10.1.1.9,24,0.010,0.010,0.010,0.000,0.000,0.000
1644926823554040064,2022-02-15-12:07:03,10.1.1.9,34,0.000,0.000,0.000,0.000,0.000,0.000
1644926823594178048,2022-02-15-12:07:03,10.1.1.9,23,-0.010,-0.010,-0.010,0.000,0.000,0.000
1644926823655484928,2022-02-15-12:07:03,10.1.1.9,33,-0.020,-0.020,-0.020,0.000,0.000,0.000
1644926823694251008,2022-02-15-12:07:03,10.1.1.9,22,-0.030,-0.030,-0.030,0.000,0.000,0.000
1644926823753812992,2022-02-15-12:07:03,10.1.1.9,32,-0.040,-0.040,-0.040,0.000,0.000,0.000
1644926823793952000,2022-02-15-12:07:03,10.1.1.9,21,-0.050,-0.050,-0.050,0.000,0.000,0.000
1644926823856197120,2022-02-15-12:07:03,10.1.1.9,30,-0.060,-0.060,-0.060,0.000,0.000,0.000
1644926823894004992,2022-02-15-12:07:03,10.1.1.9,18,-0.069,-0.069,-0.069,0.000,0.000,0.000
1644926823954020864,2022-02-15-12:07:03,10.1.1.9,28,-0.080,-0.080,-0.080,0.000,0.000,0.000
1644926824013741056,2022-02-15-12:07:04,10.1.1.9,37,-0.090,-0.090,-0.090,0.000,0.000,0.000
1644926824053850880,2022-02-15-12:07:04,10.1.1.9,27,-0.100,-0.100,-0.100,0.000,0.000,0.000
1644926824113485056,2022-02-15-12:07:04,10.1.1.9,36,-0.090,-0.090,-0.090,0.000,0.000,0.000
1644926824153444096,2022-02-15-12:07:04,10.1.1.9,26,-0.080,-0.080,-0.080,0.000,0.000,0.000
