FedericoMungari/DigitalTwin_service/01_WiredScenario/Output/Output_script/script_rosapi_2_output_robots12_freq0_5.txt
timestamp,date,node,latency,joint_1,joint_2,joint_3,joint_4,joint_5,joint_6
1644939550535654144,2022-02-15-15:39:10,10.1.1.6,-31,-0.100,-0.100,-0.100,0.000,0.000,0.000
1644939550655257856,2022-02-15-15:39:10,10.1.1.6,29,-0.080,-0.080,-0.080,0.000,-0.000,0.000
1644939551275543040,2022-02-15-15:39:11,10.1.1.6,29,0.040,0.040,0.040,0.000,0.000,0.000
1644939551879774208,2022-02-15-15:39:11,10.1.1.6,39,0.050,0.050,0.050,0.000,0.000,0.000
1644939552058785024,2022-02-15-15:39:12,10.1.1.6,29,0.020,0.020,0.020,0.000,0.000,0.000
1644939552544184064,2022-02-15-15:39:12,10.1.1.6,29,-0.070,-0.070,-0.070,0.000,0.000,0.000
1644939552815351040,2022-02-15-15:39:12,10.1.1.6,6,-0.070,-0.070,-0.070,0.000,0.000,0.000
1644939553875912960,2022-02-15-15:39:13,10.1.1.6,32,0.070,0.070,0.070,0.000,0.000,0.000
1644939554176430080,2022-02-15-15:39:14,10.1.1.6,31,0.010,0.010,0.010,0.000,0.000,0.000
1644939554277448960,2022-02-15-15:39:14,10.1.1.6,28,-0.010,-0.010,-0.010,0.000,0.000,0.000
1644939555095341056,2022-02-15-15:39:15,10.1.1.6,20,-0.030,-0.030,-0.030,0.000,0.000,0.000
1644939555617993984,2022-02-15-15:39:15,10.1.1.6,20,0.070,0.070,0.070,0.000,0.000,0.000
1644939555915783936,2022-02-15-15:39:15,10.1.1.6,14,0.070,0.070,0.070,0.000,0.000,0.000
1644939556455848960,2022-02-15-15:39:16,10.1.1.6,40,-0.030,-0.030,-0.030,0.000,0.000,0.000
1644939557137007872,2022-02-15-15:39:17,10.1.1.6,4,-0.030,-0.030,-0.030,0.000,0.000,0.000
1644939557479387136,2022-02-15-15:39:17,10.1.1.6,39,0.030,0.030,0.030,0.000,0.000,0.000
1644939557995856128,2022-02-15-15:39:17,10.1.1.6,39,0.070,0.070,0.070,0.000,0.000,0.000
1644939558041650176,2022-02-15-15:39:18,10.1.1.6,28,0.060,0.060,0.060,0.000,0.000,0.000
1644939558457464832,2022-02-15-15:39:18,10.1.1.6,39,-0.020,-0.020,-0.020,0.000,0.000,0.000
1644939558497324032,2022-02-15-15:39:18,10.1.1.6,30,-0.030,-0.030,-0.030,0.000,0.000,0.000
1644939558557405952,2022-02-15-15:39:18,10.1.1.6,38,-0.040,-0.040,-0.040,0.000,0.000,0.000
1644939558598330112,2022-02-15-15:39:18,10.1.1.6,28,-0.050,-0.050,-0.050,0.000,0.000,0.000
1644939558998291968,2022-02-15-15:39:18,10.1.1.6,20,-0.070,-0.070,-0.070,0.000,0.000,0.000
1644939560277559040,2022-02-15-15:39:20,10.1.1.6,29,0.020,0.020,0.020,0.000,0.000,0.000
1644939560796964864,2022-02-15-15:39:20,10.1.1.6,38,-0.080,-0.080,-0.080,0.000,0.000,0.000
1644939560986637056,2022-02-15-15:39:20,10.1.1.6,-5,-0.080,-0.080,-0.080,0.000,0.000,0.000
1644939561777420032,2022-02-15-15:39:21,10.1.1.6,28,0.070,0.070,0.070,0.000,0.000,0.000
1644939562057857024,2022-02-15-15:39:22,10.1.1.6,3,0.070,0.070,0.070,0.000,0.000,0.000
1644939562647198976,2022-02-15-15:39:22,10.1.1.6,29,-0.030,-0.030,-0.030,0.000,0.000,0.000
1644939562879290112,2022-02-15-15:39:22,10.1.1.6,29,-0.080,-0.080,-0.080,0.000,0.000,0.000
1644939562935225088,2022-02-15-15:39:22,10.1.1.6,39,-0.090,-0.090,-0.090,0.000,0.000,0.000
1644939562975652096,2022-02-15-15:39:22,10.1.1.6,29,-0.100,-0.100,-0.100,0.000,0.000,0.000
1644939563537059072,2022-02-15-15:39:23,10.1.1.6,39,0.000,0.000,0.000,0.000,0.000,0.000
1644939563575030016,2022-02-15-15:39:23,10.1.1.6,29,0.010,0.010,0.010,0.000,0.000,0.000
1644939563635927808,2022-02-15-15:39:23,10.1.1.6,38,0.020,0.020,0.020,0.000,0.000,0.000
1644939564437864960,2022-02-15-15:39:24,10.1.1.6,29,0.030,0.030,0.030,0.000,0.000,0.000
1644939564498910976,2022-02-15-15:39:24,10.1.1.6,38,0.020,0.020,0.020,0.000,0.000,0.000
1644939564957196032,2022-02-15-15:39:24,10.1.1.6,39,-0.070,-0.070,-0.070,0.000,0.000,0.000
1644939565237630976,2022-02-15-15:39:25,10.1.1.6,14,-0.070,-0.070,-0.070,0.000,0.000,0.000
1644939565616781824,2022-02-15-15:39:25,10.1.1.6,40,0.000,0.000,0.000,0.000,0.000,0.000
1644939566116585984,2022-02-15-15:39:26,10.1.1.6,30,0.100,0.100,0.100,0.000,0.000,0.000
1644939566156306944,2022-02-15-15:39:26,10.1.1.6,19,0.090,0.090,0.090,0.000,0.000,0.000
1644939567415865856,2022-02-15-15:39:27,10.1.1.6,39,-0.050,-0.050,-0.050,0.000,0.000,0.000
1644939567455256832,2022-02-15-15:39:27,10.1.1.6,29,-0.040,-0.040,-0.040,0.000,0.000,0.000
1644939568938190080,2022-02-15-15:39:28,10.1.1.6,19,-0.040,-0.040,-0.040,0.000,0.000,0.000
1644939569218586880,2022-02-15-15:39:29,10.1.1.6,39,-0.090,-0.090,-0.090,0.000,0.000,0.000
1644939569295165184,2022-02-15-15:39:29,10.1.1.6,16,-0.090,-0.090,-0.090,0.000,0.000,0.000
1644939569839629056,2022-02-15-15:39:29,10.1.1.6,39,0.010,0.010,0.010,0.000,0.000,0.000
1644939570136130048,2022-02-15-15:39:30,10.1.1.6,29,0.070,0.070,0.070,0.000,0.000,0.000
1644939570196150016,2022-02-15-15:39:30,10.1.1.6,38,0.080,0.080,0.080,0.000,0.000,0.000
1644939570924304128,2022-02-15-15:39:30,10.1.1.6,16,0.080,0.080,0.080,0.000,0.000,0.000
1644939571356798976,2022-02-15-15:39:31,10.1.1.6,29,-0.010,-0.010,-0.010,0.000,0.000,0.000
1644939571418191872,2022-02-15-15:39:31,10.1.1.6,38,-0.020,-0.020,-0.020,0.000,0.000,0.000
1644939572215523840,2022-02-15-15:39:32,10.1.1.6,24,-0.020,-0.020,-0.020,0.000,0.000,0.000
1644939572516661760,2022-02-15-15:39:32,10.1.1.6,39,0.030,0.030,0.030,0.000,0.000,0.000
1644939573348838144,2022-02-15-15:39:33,10.1.1.6,3,0.030,0.030,0.030,0.000,0.000,0.000
1644939573457419008,2022-02-15-15:39:33,10.1.1.6,38,0.010,0.010,0.010,0.000,0.000,0.000
1644939574197530112,2022-02-15-15:39:34,10.1.1.6,39,-0.070,-0.070,-0.070,0.000,0.000,0.000
1644939574916654080,2022-02-15-15:39:34,10.1.1.6,39,0.060,0.060,0.060,0.000,0.000,0.000
1644939575298604032,2022-02-15-15:39:35,10.1.1.6,13,0.060,0.060,0.060,0.000,0.000,0.000
1644939575997502208,2022-02-15-15:39:35,10.1.1.6,39,-0.070,-0.070,-0.070,0.000,0.000,0.000
1644939576035435008,2022-02-15-15:39:36,10.1.1.6,28,-0.080,-0.080,-0.080,0.000,0.000,0.000
1644939576254780160,2022-02-15-15:39:36,10.1.1.6,14,-0.080,-0.080,-0.080,0.000,0.000,0.000
1644939578290360832,2022-02-15-15:39:38,10.1.1.6,23,-0.080,-0.080,-0.080,0.000,0.000,0.000
1644939578355081984,2022-02-15-15:39:38,10.1.1.6,19,-0.100,-0.100,-0.100,0.000,0.000,0.000
1644939578416788224,2022-02-15-15:39:38,10.1.1.6,20,-0.090,-0.090,-0.090,0.000,0.000,0.000
1644939578999036160,2022-02-15-15:39:38,10.1.1.6,39,0.010,0.010,0.010,0.000,0.000,0.000
1644939579312581120,2022-02-15-15:39:39,10.1.1.6,30,0.040,0.040,0.040,0.000,0.000,0.000
1644939579895705088,2022-02-15-15:39:39,10.1.1.6,13,0.040,0.040,0.040,0.000,0.000,0.000
1644939581315918080,2022-02-15-15:39:41,10.1.1.6,20,0.020,0.020,0.020,0.000,0.000,0.000
1644939582075936000,2022-02-15-15:39:42,10.1.1.6,29,0.040,0.040,0.040,0.000,0.000,0.000
1644939582141076992,2022-02-15-15:39:42,10.1.1.6,39,0.030,0.030,0.030,0.000,0.000,0.000
1644939583562123008,2022-02-15-15:39:43,10.1.1.6,9,0.030,0.030,0.030,0.000,0.000,0.000
1644939584668239104,2022-02-15-15:39:44,10.1.1.6,23,0.030,0.030,0.030,0.000,0.000,0.000
1644939584897519104,2022-02-15-15:39:44,10.1.1.6,29,-0.020,-0.020,-0.020,0.000,0.000,0.000
1644939585497609984,2022-02-15-15:39:45,10.1.1.6,20,-0.070,-0.070,-0.070,0.000,0.000,0.000
1644939586338049792,2022-02-15-15:39:46,10.1.1.6,29,0.090,0.090,0.090,0.000,0.000,0.000
1644939586417767168,2022-02-15-15:39:46,10.1.1.6,6,0.090,0.090,0.090,0.000,0.000,0.000
1644939586656698112,2022-02-15-15:39:46,10.1.1.6,39,0.050,0.050,0.050,0.000,0.000,0.000
1644939587017545984,2022-02-15-15:39:47,10.1.1.6,39,-0.020,-0.020,-0.020,0.000,0.000,0.000
1644939587818238976,2022-02-15-15:39:47,10.1.1.6,6,-0.020,-0.020,-0.020,0.000,0.000,0.000
1644939588266010880,2022-02-15-15:39:48,10.1.1.6,38,0.060,0.060,0.060,0.000,0.000,0.000
1644939588716929792,2022-02-15-15:39:48,10.1.1.6,13,0.060,0.060,0.060,0.000,0.000,0.000
1644939590117121024,2022-02-15-15:39:50,10.1.1.6,19,0.010,0.010,0.010,0.000,0.000,0.000
1644939591177972992,2022-02-15-15:39:51,10.1.1.6,-7,0.010,0.010,0.010,0.000,0.000,0.000
1644939592381632000,2022-02-15-15:39:52,10.1.1.6,28,-0.060,-0.060,-0.060,0.000,0.000,0.000
1644939593097000960,2022-02-15-15:39:53,10.1.1.6,39,0.060,0.060,0.060,0.000,0.000,0.000
1644939593479130880,2022-02-15-15:39:53,10.1.1.6,8,0.060,0.060,0.060,0.000,0.000,0.000
1644939593897309184,2022-02-15-15:39:53,10.1.1.6,19,-0.020,-0.020,-0.020,0.000,0.000,0.000
1644939594752201984,2022-02-15-15:39:54,10.1.1.6,14,-0.020,-0.020,-0.020,0.000,0.000,0.000
1644939594997606144,2022-02-15-15:39:54,10.1.1.6,21,0.030,0.030,0.030,0.000,0.000,0.000
1644939595158142976,2022-02-15-15:39:55,10.1.1.6,28,0.060,0.060,0.060,0.000,0.000,0.000
1644939595517735936,2022-02-15-15:39:55,10.1.1.6,28,0.070,0.070,0.070,0.000,0.000,0.000
1644939595877491968,2022-02-15-15:39:55,10.1.1.6,29,0.000,0.000,0.000,0.000,0.000,0.000
1644939595937120000,2022-02-15-15:39:55,10.1.1.6,38,-0.010,-0.010,-0.010,0.000,0.000,0.000
1644939595977519872,2022-02-15-15:39:55,10.1.1.6,28,-0.020,-0.020,-0.020,0.000,0.000,0.000
1644939596778348800,2022-02-15-15:39:56,10.1.1.6,11,-0.020,-0.020,-0.020,0.000,0.000,0.000
1644939597358263040,2022-02-15-15:39:57,10.1.1.6,20,0.090,0.090,0.090,0.000,0.000,0.000
1644939597457892864,2022-02-15-15:39:57,10.1.1.6,18,0.090,0.090,0.090,0.000,0.000,0.000
1644939597897462016,2022-02-15-15:39:57,10.1.1.6,39,0.010,0.010,0.010,0.000,0.000,0.000
1644939598858328064,2022-02-15-15:39:58,10.1.1.6,22,-0.020,-0.020,-0.020,0.000,0.000,0.000
1644939599016871936,2022-02-15-15:39:59,10.1.1.6,29,0.010,0.010,0.010,0.000,0.000,0.000
1644939599077157120,2022-02-15-15:39:59,10.1.1.6,38,0.020,0.020,0.020,0.000,0.000,0.000
1644939599476953088,2022-02-15-15:39:59,10.1.1.6,19,0.100,0.100,0.100,0.000,0.000,0.000
1644939600517108992,2022-02-15-15:40:00,10.1.1.6,40,-0.100,-0.100,-0.100,0.000,0.000,0.000
1644939601076700928,2022-02-15-15:40:01,10.1.1.6,39,0.010,0.010,0.010,0.000,0.000,0.000
1644939601617137920,2022-02-15-15:40:01,10.1.1.6,21,0.080,0.080,0.080,0.000,0.000,0.000
1644939601737009152,2022-02-15-15:40:01,10.1.1.6,39,0.060,0.060,0.060,0.000,0.000,0.000
1644939601776421120,2022-02-15-15:40:01,10.1.1.6,29,0.050,0.050,0.050,0.000,0.000,0.000
1644939601836528128,2022-02-15-15:40:01,10.1.1.6,38,0.040,0.040,0.040,0.000,0.000,0.000
1644939602503474944,2022-02-15-15:40:02,10.1.1.6,39,-0.090,-0.090,-0.090,0.000,0.000,0.000
1644939602580022016,2022-02-15-15:40:02,10.1.1.6,17,-0.090,-0.090,-0.090,0.000,0.000,0.000
1644939603096955904,2022-02-15-15:40:03,10.1.1.6,29,0.010,0.010,0.010,0.000,0.000,0.000
1644939603156794112,2022-02-15-15:40:03,10.1.1.6,38,0.020,0.020,0.020,0.000,0.000,0.000
1644939603496485888,2022-02-15-15:40:03,10.1.1.6,20,0.090,0.090,0.090,0.000,0.000,0.000
1644939603556980992,2022-02-15-15:40:03,10.1.1.6,29,0.100,0.100,0.100,0.000,0.000,0.000
1644939603616420096,2022-02-15-15:40:03,10.1.1.6,38,0.090,0.090,0.090,0.000,0.000,0.000
1644939604016654080,2022-02-15-15:40:04,10.1.1.6,29,0.010,0.010,0.010,0.000,0.000,0.000
1644939604337100032,2022-02-15-15:40:04,10.1.1.6,39,-0.050,-0.050,-0.050,0.000,0.000,0.000
1644939604376591872,2022-02-15-15:40:04,10.1.1.6,29,-0.060,-0.060,-0.060,0.000,0.000,0.000
1644939604776724992,2022-02-15-15:40:04,10.1.1.6,21,-0.060,-0.060,-0.060,0.000,0.000,0.000
1644939605256647168,2022-02-15-15:40:05,10.1.1.6,39,0.030,0.030,0.030,0.000,0.000,0.000
1644939605937262080,2022-02-15-15:40:05,10.1.1.6,5,0.030,0.030,0.030,0.000,0.000,0.000
1644939606317302016,2022-02-15-15:40:06,10.1.1.6,29,-0.040,-0.040,-0.040,0.000,0.000,0.000
1644939606876704000,2022-02-15-15:40:06,10.1.1.6,29,-0.050,-0.050,-0.050,0.000,0.000,0.000
1644939607896742144,2022-02-15-15:40:07,10.1.1.6,30,0.050,0.050,0.050,0.000,0.000,0.000
1644939607998196992,2022-02-15-15:40:07,10.1.1.6,28,0.030,0.030,0.030,0.000,0.000,0.000
1644939608563028992,2022-02-15-15:40:08,10.1.1.6,29,-0.080,-0.080,-0.080,0.000,0.000,0.000
1644939608757064192,2022-02-15-15:40:08,10.1.1.6,23,-0.080,-0.080,-0.080,0.000,0.000,0.000
1644939608876925952,2022-02-15-15:40:08,10.1.1.6,39,-0.060,-0.060,-0.060,0.000,0.000,0.000
1644939609497090048,2022-02-15-15:40:09,10.1.1.6,29,0.060,0.060,0.060,0.000,0.000,0.000
1644939609556644864,2022-02-15-15:40:09,10.1.1.6,38,0.070,0.070,0.070,0.000,0.000,0.000
1644939609837657088,2022-02-15-15:40:09,10.1.1.6,10,0.070,0.070,0.070,0.000,0.000,0.000
1644939609917136896,2022-02-15-15:40:09,10.1.1.6,39,0.060,0.060,0.060,0.000,0.000,0.000
1644939610956931072,2022-02-15-15:40:10,10.1.1.6,30,-0.060,-0.060,-0.060,0.000,0.000,0.000
1644939611017126912,2022-02-15-15:40:11,10.1.1.6,39,-0.050,-0.050,-0.050,0.000,0.000,0.000
1644939611756922112,2022-02-15-15:40:11,10.1.1.6,39,0.090,0.090,0.090,0.000,0.000,0.000
1644939611837682944,2022-02-15-15:40:11,10.1.1.6,16,0.090,0.090,0.090,0.000,0.000,0.000
1644939612416646912,2022-02-15-15:40:12,10.1.1.6,39,-0.020,-0.020,-0.020,0.000,0.000,0.000
1644939613199144960,2022-02-15-15:40:13,10.1.1.6,7,-0.020,-0.020,-0.020,0.000,0.000,0.000
1644939613877521920,2022-02-15-15:40:13,10.1.1.6,29,0.090,0.090,0.090,0.000,0.000,0.000
1644939613937360896,2022-02-15-15:40:13,10.1.1.6,38,0.080,0.080,0.080,0.000,0.000,0.000
1644939614717328128,2022-02-15-15:40:14,10.1.1.6,20,-0.070,-0.070,-0.070,0.000,0.000,0.000
1644939614776962048,2022-02-15-15:40:14,10.1.1.6,29,-0.080,-0.080,-0.080,0.000,0.000,0.000
1644939614977731072,2022-02-15-15:40:14,10.1.1.6,25,-0.080,-0.080,-0.080,0.000,0.000,0.000
1644939615398140928,2022-02-15-15:40:15,10.1.1.6,38,0.000,0.000,0.000,0.000,0.000,0.000
1644939618054297856,2022-02-15-15:40:16,10.1.1.6,39,0.050,0.050,0.050,0.000,0.000,0.000
1644939618778338816,2022-02-15-15:40:18,10.1.1.6,20,-0.100,-0.100,-0.100,0.000,0.000,0.000
1644939618939383040,2022-02-15-15:40:18,10.1.1.6,29,-0.070,-0.070,-0.070,0.000,0.000,0.000
1644939619456568832,2022-02-15-15:40:19,10.1.1.6,39,0.030,0.030,0.030,0.000,0.000,0.000
1644939619498128896,2022-02-15-15:40:19,10.1.1.6,29,0.040,0.040,0.040,0.000,0.000,0.000
1644939619916964096,2022-02-15-15:40:19,10.1.1.6,39,0.080,0.080,0.080,0.000,0.000,0.000
1644939620477492992,2022-02-15-15:40:20,10.1.1.6,39,-0.030,-0.030,-0.030,0.000,0.000,0.000
1644939620977332224,2022-02-15-15:40:20,10.1.1.6,29,-0.070,-0.070,-0.070,0.000,0.000,0.000
1644939621037289984,2022-02-15-15:40:21,10.1.1.6,39,-0.060,-0.060,-0.060,0.000,0.000,0.000
1644939621077146880,2022-02-15-15:40:21,10.1.1.6,28,-0.050,-0.050,-0.050,0.000,0.000,0.000
1644939621956696064,2022-02-15-15:40:21,10.1.1.6,38,0.080,0.080,0.080,0.000,0.000,0.000
1644939622617394944,2022-02-15-15:40:22,10.1.1.6,20,-0.050,-0.050,-0.050,0.000,0.000,0.000
1644939622937681920,2022-02-15-15:40:22,10.1.1.6,29,-0.090,-0.090,-0.090,0.000,0.000,0.000
1644939623096826112,2022-02-15-15:40:23,10.1.1.6,29,-0.060,-0.060,-0.060,0.000,0.000,0.000
1644939623517046016,2022-02-15-15:40:23,10.1.1.6,38,0.020,0.020,0.020,0.000,0.000,0.000
1644939623877170176,2022-02-15-15:40:23,10.1.1.6,29,0.090,0.090,0.090,0.000,0.000,0.000
1644939623956882944,2022-02-15-15:40:23,10.1.1.6,7,0.090,0.090,0.090,0.000,0.000,0.000
1644939624537082880,2022-02-15-15:40:24,10.1.1.6,29,-0.020,-0.020,-0.020,0.000,0.000,0.000
1644939625057274112,2022-02-15-15:40:25,10.1.1.6,39,-0.080,-0.080,-0.080,0.000,0.000,0.000
1644939625096636160,2022-02-15-15:40:25,10.1.1.6,29,-0.070,-0.070,-0.070,0.000,0.000,0.000
1644939625157069824,2022-02-15-15:40:25,10.1.1.6,38,-0.060,-0.060,-0.060,0.000,0.000,0.000
1644939625497231872,2022-02-15-15:40:25,10.1.1.6,19,0.010,0.010,0.010,0.000,0.000,0.000
1644939625557438976,2022-02-15-15:40:25,10.1.1.6,29,0.020,0.020,0.020,0.000,0.000,0.000
1644939625616990976,2022-02-15-15:40:25,10.1.1.6,39,0.030,0.030,0.030,0.000,0.000,0.000
1644939626117507072,2022-02-15-15:40:26,10.1.1.6,29,0.070,0.070,0.070,0.000,0.000,0.000
1644939626178764032,2022-02-15-15:40:26,10.1.1.6,39,0.060,0.060,0.060,0.000,0.000,0.000
1644939626377253120,2022-02-15-15:40:26,10.1.1.6,28,0.020,0.020,0.020,0.000,0.000,0.000
1644939626938513920,2022-02-15-15:40:26,10.1.1.6,29,-0.090,-0.090,-0.090,0.000,0.000,0.000
1644939627016969984,2022-02-15-15:40:27,10.1.1.6,6,-0.090,-0.090,-0.090,0.000,0.000,0.000
1644939627497387008,2022-02-15-15:40:27,10.1.1.6,28,0.000,0.000,0.000,0.000,0.000,0.000
1644939628536817920,2022-02-15-15:40:28,10.1.1.6,24,0.000,0.000,0.000,0.000,0.000,0.000
1644939628837328896,2022-02-15-15:40:28,10.1.1.6,20,-0.060,-0.060,-0.060,0.000,0.000,0.000
1644939628896804096,2022-02-15-15:40:28,10.1.1.6,29,-0.070,-0.070,-0.070,0.000,0.000,0.000
1644939629196628992,2022-02-15-15:40:29,10.1.1.6,23,-0.070,-0.070,-0.070,0.000,0.000,0.000
1644939629516815872,2022-02-15-15:40:29,10.1.1.6,39,-0.010,-0.010,-0.010,0.000,0.000,0.000
1644939630276730112,2022-02-15-15:40:30,10.1.1.6,29,0.060,0.060,0.060,0.000,0.000,0.000
1644939631456828160,2022-02-15-15:40:31,10.1.1.6,29,-0.030,-0.030,-0.030,0.000,0.000,0.000
1644939631677369088,2022-02-15-15:40:31,10.1.1.6,39,0.010,0.010,0.010,0.000,0.000,0.000
1644939631717406976,2022-02-15-15:40:31,10.1.1.6,28,0.020,0.020,0.020,0.000,0.000,0.000
1644939632297886976,2022-02-15-15:40:32,10.1.1.6,39,0.070,0.070,0.070,0.000,0.000,0.000
1644939632337078016,2022-02-15-15:40:32,10.1.1.6,29,0.060,0.060,0.060,0.000,0.000,0.000
1644939632397423872,2022-02-15-15:40:32,10.1.1.6,38,0.050,0.050,0.050,0.000,0.000,0.000
1644939633737335040,2022-02-15-15:40:33,10.1.1.6,28,0.010,0.010,0.010,0.000,0.000,0.000
1644939634366849024,2022-02-15-15:40:34,10.1.1.6,39,0.070,0.070,0.070,0.000,0.000,0.000
1644939634398041856,2022-02-15-15:40:34,10.1.1.6,28,0.060,0.060,0.060,0.000,0.000,0.000
1644939634857641984,2022-02-15-15:40:34,10.1.1.6,29,-0.030,-0.030,-0.030,0.000,0.000,0.000
1644939635157134080,2022-02-15-15:40:35,10.1.1.6,20,-0.090,-0.090,-0.090,0.000,0.000,0.000
1644939635257010944,2022-02-15-15:40:35,10.1.1.6,19,-0.090,-0.090,-0.090,0.000,0.000,0.000
1644939635316978944,2022-02-15-15:40:35,10.1.1.6,28,-0.080,-0.080,-0.080,0.000,0.000,0.000
1644939636057133824,2022-02-15-15:40:36,10.1.1.6,38,0.060,0.060,0.060,0.000,0.000,0.000
1644939636296333056,2022-02-15-15:40:36,10.1.1.6,19,0.090,0.090,0.090,0.000,0.000,0.000
1644939636356875008,2022-02-15-15:40:36,10.1.1.6,28,0.080,0.080,0.080,0.000,0.000,0.000
1644939637341005056,2022-02-15-15:40:37,10.1.1.6,29,-0.100,-0.100,-0.100,0.000,0.000,0.000
1644939638556740096,2022-02-15-15:40:38,10.1.1.6,39,0.080,0.080,0.080,0.000,0.000,0.000
1644939638957042944,2022-02-15-15:40:38,10.1.1.6,29,0.010,0.010,0.010,0.000,0.000,0.000
1644939639496951040,2022-02-15-15:40:39,10.1.1.6,38,-0.090,-0.090,-0.090,0.000,0.000,0.000
1644939639576609024,2022-02-15-15:40:39,10.1.1.6,17,-0.090,-0.090,-0.090,0.000,0.000,0.000
1644939640197161984,2022-02-15-15:40:40,10.1.1.6,29,0.020,0.020,0.020,0.000,0.000,0.000
1644939640258419968,2022-02-15-15:40:40,10.1.1.6,38,0.030,0.030,0.030,0.000,0.000,0.000
1644939640657923072,2022-02-15-15:40:40,10.1.1.6,-35,0.090,0.090,0.090,0.000,0.000,0.000
1644939641776932096,2022-02-15-15:40:41,10.1.1.6,29,-0.090,-0.090,-0.090,0.000,0.000,0.000
1644939643337518848,2022-02-15-15:40:43,10.1.1.6,19,0.000,0.000,0.000,0.000,0.000,0.000
1644939643598174976,2022-02-15-15:40:43,10.1.1.6,29,-0.040,-0.040,-0.040,0.000,0.000,0.000
1644939643998226944,2022-02-15-15:40:43,10.1.1.6,19,-0.080,-0.080,-0.080,0.000,0.000,0.000
1644939646089731840,2022-02-15-15:40:45,10.1.1.6,23,-0.080,-0.080,-0.080,0.000,0.000,0.000
1644939646256900096,2022-02-15-15:40:46,10.1.1.6,20,-0.080,-0.080,-0.080,0.000,0.000,0.000
1644939646317249024,2022-02-15-15:40:46,10.1.1.6,29,-0.070,-0.070,-0.070,0.000,0.000,0.000
1644939646377233920,2022-02-15-15:40:46,10.1.1.6,39,-0.060,-0.060,-0.060,0.000,0.000,0.000
1644939646836868096,2022-02-15-15:40:46,10.1.1.6,29,0.030,0.030,0.030,0.000,0.000,0.000
1644939647537689088,2022-02-15-15:40:47,10.1.1.6,15,0.030,0.030,0.030,0.000,0.000,0.000
1644939648096975104,2022-02-15-15:40:48,10.1.1.6,39,-0.050,-0.050,-0.050,0.000,0.000,0.000
1644939648577025792,2022-02-15-15:40:48,10.1.1.6,6,-0.050,-0.050,-0.050,0.000,0.000,0.000
1644939649376847104,2022-02-15-15:40:49,10.1.1.6,29,0.100,0.100,0.100,0.000,0.000,0.000
1644939649797413120,2022-02-15-15:40:49,10.1.1.6,39,0.020,0.020,0.020,0.000,0.000,0.000
1644939650996879104,2022-02-15-15:40:50,10.1.1.6,11,0.020,0.020,0.020,0.000,0.000,0.000
1644939651236792064,2022-02-15-15:40:51,10.1.1.6,38,0.060,0.060,0.060,0.000,0.000,0.000
1644939651616389120,2022-02-15-15:40:51,10.1.1.6,12,0.060,0.060,0.060,0.000,0.000,0.000
1644939651896727040,2022-02-15-15:40:51,10.1.1.6,38,0.010,0.010,0.010,0.000,0.000,0.000
1644939652256963072,2022-02-15-15:40:52,10.1.1.6,38,-0.060,-0.060,-0.060,0.000,0.000,0.000
1644939652616844800,2022-02-15-15:40:52,10.1.1.6,39,-0.070,-0.070,-0.070,0.000,0.000,0.000
1644939652657422080,2022-02-15-15:40:52,10.1.1.6,29,-0.060,-0.060,-0.060,0.000,0.000,0.000
1644939653738929920,2022-02-15-15:40:53,10.1.1.6,39,0.060,0.060,0.060,0.000,0.000,0.000
1644939654957787904,2022-02-15-15:40:54,10.1.1.6,29,-0.030,-0.030,-0.030,0.000,0.000,0.000
1644939655516988160,2022-02-15-15:40:55,10.1.1.6,30,0.080,0.080,0.080,0.000,0.000,0.000
1644939655696845056,2022-02-15-15:40:55,10.1.1.6,7,0.080,0.080,0.080,0.000,0.000,0.000
1644939656976463104,2022-02-15-15:40:56,10.1.1.6,29,-0.040,-0.040,-0.040,0.000,0.000,0.000
1644939657336455168,2022-02-15-15:40:57,10.1.1.6,28,0.030,0.030,0.030,0.000,0.000,0.000
1644939658056758016,2022-02-15-15:40:58,10.1.1.6,19,0.030,0.030,0.030,0.000,0.000,0.000
1644939658296994816,2022-02-15-15:40:58,10.1.1.6,39,-0.010,-0.010,-0.010,0.000,0.000,0.000
1644939658597541120,2022-02-15-15:40:58,10.1.1.6,20,-0.070,-0.070,-0.070,0.000,0.000,0.000
1644939658998183936,2022-02-15-15:40:58,10.1.1.6,15,-0.070,-0.070,-0.070,0.000,0.000,0.000
1644939659637448192,2022-02-15-15:40:59,10.1.1.6,29,0.050,0.050,0.050,0.000,0.000,0.000
1644939659877533952,2022-02-15-15:40:59,10.1.1.6,30,0.090,0.090,0.090,0.000,0.000,0.000
1644939660557048064,2022-02-15-15:41:00,10.1.1.6,29,-0.020,-0.020,-0.020,0.000,0.000,0.000
1644939661377468160,2022-02-15-15:41:01,10.1.1.6,14,-0.020,-0.020,-0.020,0.000,0.000,0.000
1644939662056510976,2022-02-15-15:41:02,10.1.1.6,29,0.090,0.090,0.090,0.000,0.000,0.000
1644939662917390080,2022-02-15-15:41:02,10.1.1.6,29,-0.080,-0.080,-0.080,0.000,0.000,0.000
1644939663918322176,2022-02-15-15:41:03,10.1.1.6,12,-0.080,-0.080,-0.080,0.000,0.000,0.000
1644939665577792000,2022-02-15-15:41:05,10.1.1.6,28,-0.050,-0.050,-0.050,0.000,0.000,0.000
1644939666077176064,2022-02-15-15:41:06,10.1.1.6,21,-0.050,-0.050,-0.050,0.000,0.000,0.000
1644939666237513984,2022-02-15-15:41:06,10.1.1.6,29,-0.020,-0.020,-0.020,0.000,0.000,0.000
1644939667076756992,2022-02-15-15:41:07,10.1.1.6,39,0.060,0.060,0.060,0.000,0.000,0.000
1644939667116705792,2022-02-15-15:41:07,10.1.1.6,29,0.050,0.050,0.050,0.000,0.000,0.000
1644939668241950976,2022-02-15-15:41:08,10.1.1.6,29,-0.040,-0.040,-0.040,0.000,0.000,0.000
1644939669716967936,2022-02-15-15:41:09,10.1.1.6,22,-0.040,-0.040,-0.040,0.000,0.000,0.000
1644939670337160192,2022-02-15-15:41:10,10.1.1.6,12,-0.040,-0.040,-0.040,0.000,0.000,0.000
1644939671678112000,2022-02-15-15:41:11,10.1.1.6,19,-0.010,-0.010,-0.010,0.000,0.000,0.000
1644939671717193984,2022-02-15-15:41:11,10.1.1.6,29,-0.020,-0.020,-0.020,0.000,0.000,0.000
1644939672337786880,2022-02-15-15:41:12,10.1.1.6,39,-0.060,-0.060,-0.060,0.000,0.000,0.000
1644939672936861952,2022-02-15-15:41:12,10.1.1.6,30,0.060,0.060,0.060,0.000,0.000,0.000
1644939672997169920,2022-02-15-15:41:12,10.1.1.6,39,0.070,0.070,0.070,0.000,0.000,0.000
1644939673276592128,2022-02-15-15:41:13,10.1.1.6,13,0.070,0.070,0.070,0.000,0.000,0.000
1644939673556689920,2022-02-15-15:41:13,10.1.1.6,38,0.020,0.020,0.020,0.000,0.000,0.000
1644939674811889920,2022-02-15-15:41:14,10.1.1.6,20,0.020,0.020,0.020,0.000,0.000,0.000
1644939675337892096,2022-02-15-15:41:15,10.1.1.6,19,0.070,0.070,0.070,0.000,0.000,0.000
1644939675857500928,2022-02-15-15:41:15,10.1.1.6,20,-0.020,-0.020,-0.020,0.000,0.000,0.000
1644939675917005056,2022-02-15-15:41:15,10.1.1.6,29,-0.030,-0.030,-0.030,0.000,0.000,0.000
1644939676177006848,2022-02-15-15:41:16,10.1.1.6,29,-0.080,-0.080,-0.080,0.000,0.000,0.000
1644939676358609920,2022-02-15-15:41:16,10.1.1.6,6,-0.080,-0.080,-0.080,0.000,0.000,0.000
1644939676696894976,2022-02-15-15:41:16,10.1.1.6,39,-0.020,-0.020,-0.020,0.000,0.000,0.000
1644939676736948992,2022-02-15-15:41:16,10.1.1.6,29,-0.010,-0.010,-0.010,0.000,0.000,0.000
1644939677856653056,2022-02-15-15:41:17,10.1.1.6,14,-0.010,-0.010,-0.010,0.000,0.000,0.000
1644939678336901888,2022-02-15-15:41:18,10.1.1.6,38,-0.100,-0.100,-0.100,0.000,0.000,0.000
1644939679136804096,2022-02-15-15:41:19,10.1.1.6,28,0.060,0.060,0.060,0.000,0.000,0.000
1644939679537143040,2022-02-15-15:41:19,10.1.1.6,22,0.060,0.060,0.060,0.000,0.000,0.000
1644939679857284096,2022-02-15-15:41:19,10.1.1.6,39,0.000,0.000,0.000,0.000,0.000,0.000
1644939680556668928,2022-02-15-15:41:20,10.1.1.6,29,-0.060,-0.060,-0.060,0.000,0.000,0.000
1644939680616934144,2022-02-15-15:41:20,10.1.1.6,38,-0.050,-0.050,-0.050,0.000,0.000,0.000
1644939682057990144,2022-02-15-15:41:22,10.1.1.6,30,-0.030,-0.030,-0.030,0.000,0.000,0.000
1644939682118104832,2022-02-15-15:41:22,10.1.1.6,39,-0.040,-0.040,-0.040,0.000,0.000,0.000
1644939682717401856,2022-02-15-15:41:22,10.1.1.6,19,-0.040,-0.040,-0.040,0.000,0.000,0.000
1644939683256845056,2022-02-15-15:41:23,10.1.1.6,38,0.060,0.060,0.060,0.000,0.000,0.000
1644939683637275904,2022-02-15-15:41:23,10.1.1.6,11,0.060,0.060,0.060,0.000,0.000,0.000
1644939683817380864,2022-02-15-15:41:23,10.1.1.6,39,0.030,0.030,0.030,0.000,0.000,0.000
1644939684417763840,2022-02-15-15:41:24,10.1.1.6,20,-0.090,-0.090,-0.090,0.000,0.000,0.000
1644939684517597952,2022-02-15-15:41:24,10.1.1.6,18,-0.090,-0.090,-0.090,0.000,0.000,0.000
1644939685967749120,2022-02-15-15:41:25,10.1.1.6,19,0.020,0.020,0.020,0.000,0.000,0.000
1644939686236782080,2022-02-15-15:41:26,10.1.1.6,19,-0.040,-0.040,-0.040,0.000,0.000,0.000
1644939686838196992,2022-02-15-15:41:26,10.1.1.6,7,-0.040,-0.040,-0.040,0.000,0.000,0.000
1644939687818146048,2022-02-15-15:41:27,10.1.1.6,20,0.050,0.050,0.050,0.000,0.000,0.000
1644939688397373952,2022-02-15-15:41:28,10.1.1.6,40,-0.060,-0.060,-0.060,0.000,0.000,0.000
1644939688798605824,2022-02-15-15:41:28,10.1.1.6,7,-0.060,-0.060,-0.060,0.000,0.000,0.000
1644939689536730880,2022-02-15-15:41:29,10.1.1.6,29,0.080,0.080,0.080,0.000,0.000,0.000
1644939689717412096,2022-02-15-15:41:29,10.1.1.6,5,0.080,0.080,0.080,0.000,0.000,0.000
1644939689877313024,2022-02-15-15:41:29,10.1.1.6,38,0.060,0.060,0.060,0.000,0.000,0.000
1644939690439685120,2022-02-15-15:41:30,10.1.1.6,29,-0.050,-0.050,-0.050,0.000,0.000,0.000
1644939690797332992,2022-02-15-15:41:30,10.1.1.6,28,-0.080,-0.080,-0.080,0.000,0.000,0.000
1644939690856766976,2022-02-15-15:41:30,10.1.1.6,38,-0.070,-0.070,-0.070,0.000,0.000,0.000
1644939691576796160,2022-02-15-15:41:31,10.1.1.6,19,0.070,0.070,0.070,0.000,0.000,0.000
1644939691836869120,2022-02-15-15:41:31,10.1.1.6,20,0.080,0.080,0.080,0.000,0.000,0.000
1644939692217434880,2022-02-15-15:41:32,10.1.1.6,39,0.010,0.010,0.010,0.000,0.000,0.000
1644939693077421056,2022-02-15-15:41:33,10.1.1.6,38,-0.060,-0.060,-0.060,0.000,0.000,0.000
1644939693936718080,2022-02-15-15:41:33,10.1.1.6,30,0.090,0.090,0.090,0.000,0.000,0.000
1644939693996790784,2022-02-15-15:41:33,10.1.1.6,38,0.080,0.080,0.080,0.000,0.000,0.000
1644939694837056000,2022-02-15-15:41:34,10.1.1.6,19,-0.090,-0.090,-0.090,0.000,0.000,0.000
1644939694937346048,2022-02-15-15:41:34,10.1.1.6,18,-0.090,-0.090,-0.090,0.000,0.000,0.000
1644939695397401088,2022-02-15-15:41:35,10.1.1.6,19,0.000,0.000,0.000,0.000,0.000,0.000
1644939695459516160,2022-02-15-15:41:35,10.1.1.6,29,0.010,0.010,0.010,0.000,0.000,0.000
1644939696397246976,2022-02-15-15:41:36,10.1.1.6,21,0.010,0.010,0.010,0.000,0.000,0.000
1644939697078188800,2022-02-15-15:41:37,10.1.1.6,40,-0.080,-0.080,-0.080,0.000,0.000,0.000
1644939698996905984,2022-02-15-15:41:38,10.1.1.6,13,-0.080,-0.080,-0.080,0.000,0.000,0.000
1644939699203369984,2022-02-15-15:41:39,10.1.1.6,6,-0.080,-0.080,-0.080,0.000,0.000,0.000
1644939699678193920,2022-02-15-15:41:39,10.1.1.6,21,0.010,0.010,0.010,0.000,0.000,0.000
1644939699776581888,2022-02-15-15:41:39,10.1.1.6,18,0.030,0.030,0.030,0.000,0.000,0.000
1644939700875216896,2022-02-15-15:41:40,10.1.1.6,29,0.050,0.050,0.050,0.000,0.000,0.000
1644939702036609792,2022-02-15-15:41:42,10.1.1.6,39,-0.020,-0.020,-0.020,0.000,0.000,0.000
1644939702416640000,2022-02-15-15:41:42,10.1.1.6,19,0.050,0.050,0.050,0.000,0.000,0.000
1644939702940705024,2022-02-15-15:41:42,10.1.1.6,7,0.050,0.050,0.050,0.000,0.000,0.000
1644939704416066048,2022-02-15-15:41:43,10.1.1.6,29,-0.080,-0.080,-0.080,0.000,0.000,0.000
1644939704897675008,2022-02-15-15:41:44,10.1.1.6,29,0.020,0.020,0.020,0.000,0.000,0.000
1644939705416903936,2022-02-15-15:41:45,10.1.1.6,39,0.080,0.080,0.080,0.000,0.000,0.000
1644939707263375104,2022-02-15-15:41:47,10.1.1.6,10,0.080,0.080,0.080,0.000,0.000,0.000
1644939707476588032,2022-02-15-15:41:47,10.1.1.6,23,0.080,0.080,0.080,0.000,0.000,0.000
1644939708931760128,2022-02-15-15:41:48,10.1.1.6,40,-0.010,-0.010,-0.010,0.000,0.000,0.000
1644939709239375104,2022-02-15-15:41:49,10.1.1.6,29,0.050,0.050,0.050,0.000,0.000,0.000
1644939709736493056,2022-02-15-15:41:49,10.1.1.6,18,0.050,0.050,0.050,0.000,0.000,0.000
1644939714622021888,2022-02-15-15:41:50,10.1.1.6,39,-0.070,-0.070,-0.070,0.000,0.000,0.000
1644939720045453056,2022-02-15-15:41:55,10.1.1.6,14,-0.070,-0.070,-0.070,0.000,0.000,0.000
1644939724930603008,2022-02-15-15:42:02,10.1.1.6,19,0.000,0.000,0.000,0.000,0.000,0.000
1644939730441310976,2022-02-15-15:42:05,10.1.1.6,39,-0.080,-0.080,-0.080,0.000,0.000,0.000
1644939736099395072,2022-02-15-15:42:12,10.1.1.6,42,0.070,0.070,0.070,0.000,0.000,0.000
1644939740394924032,2022-02-15-15:42:16,10.1.1.6,8,0.070,0.070,0.070,0.000,0.000,0.000
1644939741757200128,2022-02-15-15:42:20,10.1.1.6,-3709,0.070,0.070,0.070,0.000,0.000,0.000
1644939742671879168,2022-02-15-15:42:21,10.1.1.6,20,0.020,0.020,0.020,0.000,0.000,0.000
1644939746845981952,2022-02-15-15:42:23,10.1.1.6,19,-0.080,-0.080,-0.080,0.000,0.000,0.000
1644939751483289088,2022-02-15-15:42:31,10.1.1.6,-18,-0.080,-0.080,-0.080,0.000,0.000,0.000
1644939757259520000,2022-02-15-15:42:34,10.1.1.6,28,0.070,0.070,0.070,0.000,0.000,0.000
1644939757777228032,2022-02-15-15:42:37,10.1.1.6,39,-0.020,-0.020,-0.020,0.000,0.000,0.000
1644939758179406848,2022-02-15-15:42:38,10.1.1.6,29,-0.100,-0.100,-0.100,0.000,0.000,0.000
1644939761025353984,2022-02-15-15:42:39,10.1.1.6,39,0.080,0.080,0.080,0.000,0.000,0.000
1644939762229382912,2022-02-15-15:42:42,10.1.1.6,29,-0.020,-0.020,-0.020,0.000,0.000,0.000
1644939762260741120,2022-02-15-15:42:42,10.1.1.6,29,-0.030,-0.030,-0.030,0.000,0.000,0.000
1644939762288773888,2022-02-15-15:42:42,10.1.1.6,-6,-0.030,-0.030,-0.030,0.000,0.000,0.000
1644939763009790976,2022-02-15-15:42:42,10.1.1.6,18,-0.030,-0.030,-0.030,0.000,0.000,0.000
1644939763201277952,2022-02-15-15:42:43,10.1.1.6,28,0.000,0.000,0.000,0.000,0.000,0.000
1644939766044389120,2022-02-15-15:42:45,10.1.1.6,29,0.020,0.020,0.020,0.000,0.000,0.000
1644939766339222784,2022-02-15-15:42:46,10.1.1.6,29,-0.020,-0.020,-0.020,0.000,0.000,0.000
1644939769327016192,2022-02-15-15:42:47,10.1.1.6,38,-0.030,-0.030,-0.030,0.000,0.000,0.000
1644939771920003840,2022-02-15-15:42:50,10.1.1.6,28,0.100,0.100,0.100,0.000,0.000,0.000
1644939775838043904,2022-02-15-15:42:55,10.1.1.6,29,-0.070,-0.070,-0.070,0.000,0.000,0.000
1644939776629285120,2022-02-15-15:42:56,10.1.1.6,39,0.010,0.010,0.010,0.000,0.000,0.000
1644939777197607168,2022-02-15-15:42:57,10.1.1.6,39,0.080,0.080,0.080,0.000,0.000,0.000
1644939777557385984,2022-02-15-15:42:57,10.1.1.6,39,0.010,0.010,0.010,0.000,0.000,0.000
1644939778176445952,2022-02-15-15:42:58,10.1.1.6,39,-0.090,-0.090,-0.090,0.000,0.000,0.000
1644939778756400128,2022-02-15-15:42:58,10.1.1.6,40,0.000,0.000,0.000,0.000,0.000,0.000
1644939779596879872,2022-02-15-15:42:59,10.1.1.6,19,0.030,0.030,0.030,0.000,0.000,0.000
1644939780436180992,2022-02-15-15:43:00,10.1.1.6,19,-0.070,-0.070,-0.070,0.000,0.000,0.000
1644939780578046976,2022-02-15-15:43:00,10.1.1.6,39,-0.050,-0.050,-0.050,0.000,0.000,0.000
1644939781358625792,2022-02-15-15:43:01,10.1.1.6,38,0.100,0.100,0.100,0.000,0.000,0.000
1644939782695414016,2022-02-15-15:43:02,10.1.1.6,29,-0.070,-0.070,-0.070,0.000,0.000,0.000
1644939782996601088,2022-02-15-15:43:02,10.1.1.6,21,-0.070,-0.070,-0.070,0.000,0.000,0.000
1644939783837467904,2022-02-15-15:43:03,10.1.1.6,29,0.080,0.080,0.080,0.000,0.000,0.000
1644939783897118976,2022-02-15-15:43:03,10.1.1.6,39,0.090,0.090,0.090,0.000,0.000,0.000
1644939783977262848,2022-02-15-15:43:03,10.1.1.6,16,0.090,0.090,0.090,0.000,0.000,0.000
1644939786530377984,2022-02-15-15:43:06,10.1.1.6,9,0.090,0.090,0.090,0.000,0.000,0.000
1644939786596744960,2022-02-15-15:43:06,10.1.1.6,21,0.090,0.090,0.090,0.000,0.000,0.000
1644939787276456192,2022-02-15-15:43:07,10.1.1.6,29,-0.030,-0.030,-0.030,0.000,0.000,0.000
1644939788255417088,2022-02-15-15:43:07,10.1.1.6,39,-0.060,-0.060,-0.060,0.000,0.000,0.000
1644939788644342016,2022-02-15-15:43:08,10.1.1.6,31,0.020,0.020,0.020,0.000,0.000,0.000
1644939789873197056,2022-02-15-15:43:09,10.1.1.6,5,0.020,0.020,0.020,0.000,0.000,0.000
1644939790497984768,2022-02-15-15:43:10,10.1.1.6,29,-0.080,-0.080,-0.080,0.000,0.000,0.000
1644939791845475840,2022-02-15-15:43:11,10.1.1.6,40,0.050,0.050,0.050,0.000,0.000,0.000
1644939792237363968,2022-02-15-15:43:12,10.1.1.6,29,0.070,0.070,0.070,0.000,0.000,0.000
1644939795830923008,2022-02-15-15:43:14,10.1.1.6,18,0.070,0.070,0.070,0.000,0.000,0.000
1644939798240406016,2022-02-15-15:43:16,10.1.1.6,7,0.070,0.070,0.070,0.000,0.000,0.000
1644939798917751040,2022-02-15-15:43:18,10.1.1.6,39,-0.040,-0.040,-0.040,0.000,0.000,0.000
1644939799516963840,2022-02-15-15:43:19,10.1.1.6,20,-0.040,-0.040,-0.040,0.000,0.000,0.000
1644939799577212928,2022-02-15-15:43:19,10.1.1.6,29,-0.030,-0.030,-0.030,0.000,0.000,0.000
1644939800097291008,2022-02-15-15:43:19,10.1.1.6,29,0.030,0.030,0.030,0.000,0.000,0.000
1644939801257623808,2022-02-15-15:43:21,10.1.1.6,10,0.030,0.030,0.030,0.000,0.000,0.000
1644939801750982912,2022-02-15-15:43:21,10.1.1.6,39,-0.050,-0.050,-0.050,0.000,0.000,0.000
1644939802257707008,2022-02-15-15:43:22,10.1.1.6,39,-0.070,-0.070,-0.070,0.000,0.000,0.000
1644939803186515968,2022-02-15-15:43:23,10.1.1.6,39,0.100,0.100,0.100,0.000,0.000,0.000
1644939803278678016,2022-02-15-15:43:23,10.1.1.6,28,0.080,0.080,0.080,0.000,0.000,0.000
1644939803657064960,2022-02-15-15:43:23,10.1.1.6,28,0.010,0.010,0.010,0.000,0.000,0.000
1644939804334062080,2022-02-15-15:43:24,10.1.1.6,29,-0.090,-0.090,-0.090,0.000,0.000,0.000
1644939804488044032,2022-02-15-15:43:24,10.1.1.6,-99,-0.090,-0.090,-0.090,0.000,0.000,0.000
1644939804617014784,2022-02-15-15:43:24,10.1.1.6,38,-0.070,-0.070,-0.070,0.000,0.000,0.000
1644939807032430848,2022-02-15-15:43:25,10.1.1.6,39,0.030,0.030,0.030,0.000,0.000,0.000
1644939809466191104,2022-02-15-15:43:27,10.1.1.6,30,-0.090,-0.090,-0.090,0.000,0.000,0.000
1644939809518668800,2022-02-15-15:43:29,10.1.1.6,5,-0.090,-0.090,-0.090,0.000,0.000,0.000
1644939812474643968,2022-02-15-15:43:32,10.1.1.6,-14,0.010,0.010,0.010,0.000,0.000,0.000
1644939813101084928,2022-02-15-15:43:33,10.1.1.6,30,0.080,0.080,0.080,0.000,0.000,0.000
1644939813296037888,2022-02-15-15:43:33,10.1.1.6,22,0.080,0.080,0.080,0.000,0.000,0.000
1644939814016809984,2022-02-15-15:43:34,10.1.1.6,29,-0.060,-0.060,-0.060,0.000,0.000,0.000
1644939814416576000,2022-02-15-15:43:34,10.1.1.6,19,-0.060,-0.060,-0.060,0.000,0.000,0.000
1644939814543220992,2022-02-15-15:43:34,10.1.1.6,29,-0.040,-0.040,-0.040,0.000,0.000,0.000
1644939814844870144,2022-02-15-15:43:34,10.1.1.6,29,0.010,0.010,0.010,0.000,0.000,0.000
1644939815097435904,2022-02-15-15:43:35,10.1.1.6,38,0.060,0.060,0.060,0.000,0.000,0.000
1644939815494881024,2022-02-15-15:43:35,10.1.1.6,-12,0.060,0.060,0.060,0.000,0.000,0.000
1644939816962961920,2022-02-15-15:43:36,10.1.1.6,20,0.010,0.010,0.010,0.000,0.000,0.000
1644939816996427008,2022-02-15-15:43:36,10.1.1.6,29,0.020,0.020,0.020,0.000,0.000,0.000
1644939817617070080,2022-02-15-15:43:37,10.1.1.6,39,0.060,0.060,0.060,0.000,0.000,0.000
1644939817656632832,2022-02-15-15:43:37,10.1.1.6,28,0.050,0.050,0.050,0.000,0.000,0.000
1644939818212340224,2022-02-15-15:43:38,10.1.1.6,30,-0.020,-0.020,-0.020,0.000,0.000,0.000
1644939818404848128,2022-02-15-15:43:38,10.1.1.6,29,-0.060,-0.060,-0.060,0.000,0.000,0.000
1644939818457262080,2022-02-15-15:43:38,10.1.1.6,39,-0.070,-0.070,-0.070,0.000,0.000,0.000
1644939818736421120,2022-02-15-15:43:38,10.1.1.6,11,-0.070,-0.070,-0.070,0.000,0.000,0.000
1644939818796761088,2022-02-15-15:43:38,10.1.1.6,20,-0.060,-0.060,-0.060,0.000,0.000,0.000
1644939818955992064,2022-02-15-15:43:38,10.1.1.6,28,-0.030,-0.030,-0.030,0.000,0.000,0.000
1644939820620722944,2022-02-15-15:43:40,10.1.1.6,2,-0.030,-0.030,-0.030,0.000,0.000,0.000
1644939821597090048,2022-02-15-15:43:41,10.1.1.6,12,-0.030,-0.030,-0.030,0.000,0.000,0.000
1644939823253457920,2022-02-15-15:43:43,10.1.1.6,39,0.020,0.020,0.020,0.000,0.000,0.000
1644939824013825792,2022-02-15-15:43:43,10.1.1.6,29,-0.060,-0.060,-0.060,0.000,0.000,0.000
1644939824396640000,2022-02-15-15:43:44,10.1.1.6,11,-0.060,-0.060,-0.060,0.000,0.000,0.000
1644939824937289984,2022-02-15-15:43:44,10.1.1.6,29,0.040,0.040,0.040,0.000,0.000,0.000
1644939825001142016,2022-02-15-15:43:45,10.1.1.6,39,0.050,0.050,0.050,0.000,0.000,0.000
1644939825885936896,2022-02-15-15:43:45,10.1.1.6,20,0.060,0.060,0.060,0.000,0.000,0.000
1644939826821613056,2022-02-15-15:43:46,10.1.1.6,29,-0.070,-0.070,-0.070,0.000,0.000,0.000
1644939826956367104,2022-02-15-15:43:46,10.1.1.6,39,-0.100,-0.100,-0.100,0.000,0.000,0.000
1644939831055217920,2022-02-15-15:43:48,10.1.1.6,39,0.090,0.090,0.090,0.000,0.000,0.000
1644939833048265984,2022-02-15-15:43:51,10.1.1.6,20,0.070,0.070,0.070,0.000,0.000,0.000
1644939834797529088,2022-02-15-15:43:54,10.1.1.6,38,-0.060,-0.060,-0.060,0.000,0.000,0.000
1644939835217159936,2022-02-15-15:43:55,10.1.1.6,39,0.020,0.020,0.020,0.000,0.000,0.000
1644939836033165056,2022-02-15-15:43:56,10.1.1.6,13,0.020,0.020,0.020,0.000,0.000,0.000
1644939837401037056,2022-02-15-15:43:57,10.1.1.6,21,0.020,0.020,0.020,0.000,0.000,0.000
1644939838956788992,2022-02-15-15:43:58,10.1.1.6,29,0.030,0.030,0.030,0.000,0.000,0.000
1644939839017553920,2022-02-15-15:43:59,10.1.1.6,38,0.020,0.020,0.020,0.000,0.000,0.000
1644939839156790016,2022-02-15-15:43:59,10.1.1.6,21,-0.010,-0.010,-0.010,0.000,0.000,0.000
1644939839717403904,2022-02-15-15:43:59,10.1.1.6,19,-0.080,-0.080,-0.080,0.000,0.000,0.000
1644939840137394944,2022-02-15-15:44:00,10.1.1.6,22,0.000,0.000,0.000,0.000,0.000,0.000
1644939840397010176,2022-02-15-15:44:00,10.1.1.6,29,0.050,0.050,0.050,0.000,0.000,0.000
1644939840457551872,2022-02-15-15:44:00,10.1.1.6,39,0.060,0.060,0.060,0.000,0.000,0.000
1644939840557744896,2022-02-15-15:44:00,10.1.1.6,37,0.080,0.080,0.080,0.000,0.000,0.000
1644939840736869120,2022-02-15-15:44:00,10.1.1.6,11,0.080,0.080,0.080,0.000,0.000,0.000
1644939841157165056,2022-02-15-15:44:01,10.1.1.6,21,0.000,0.000,0.000,0.000,0.000,0.000
1644939841276624896,2022-02-15-15:44:01,10.1.1.6,38,-0.020,-0.020,-0.020,0.000,0.000,0.000
1644939841931548160,2022-02-15-15:44:01,10.1.1.6,29,-0.060,-0.060,-0.060,0.000,0.000,0.000
1644939842958225920,2022-02-15-15:44:02,10.1.1.6,29,0.100,0.100,0.100,0.000,0.000,0.000
1644939845752020992,2022-02-15-15:44:05,10.1.1.6,-15,0.100,0.100,0.100,0.000,0.000,0.000
1644939847266385152,2022-02-15-15:44:06,10.1.1.6,38,0.030,0.030,0.030,0.000,0.000,0.000
1644939848423073024,2022-02-15-15:44:08,10.1.1.6,39,-0.080,-0.080,-0.080,0.000,0.000,0.000
1644939849105113856,2022-02-15-15:44:09,10.1.1.6,38,0.040,0.040,0.040,0.000,0.000,0.000
1644939849182990080,2022-02-15-15:44:09,10.1.1.6,29,0.050,0.050,0.050,0.000,0.000,0.000
1644939849678070016,2022-02-15-15:44:09,10.1.1.6,11,0.050,0.050,0.050,0.000,0.000,0.000
1644939849837107968,2022-02-15-15:44:09,10.1.1.6,19,0.020,0.020,0.020,0.000,0.000,0.000
1644939852949779968,2022-02-15-15:44:11,10.1.1.6,19,-0.010,-0.010,-0.010,0.000,0.000,0.000
1644939857254353920,2022-02-15-15:44:15,10.1.1.6,29,0.070,0.070,0.070,0.000,0.000,0.000
1644939860039463936,2022-02-15-15:44:18,10.1.1.6,36,0.090,0.090,0.090,0.000,0.000,0.000
1644939863543802112,2022-02-15-15:44:21,10.1.1.6,19,-0.070,-0.070,-0.070,0.000,0.000,0.000
1644939875805949952,2022-02-15-15:44:32,10.1.1.6,17,0.000,0.000,0.000,0.000,0.000,0.000
1644939878078419968,2022-02-15-15:44:37,10.1.1.6,39,0.040,0.040,0.040,0.000,0.000,0.000
1644939879953908992,2022-02-15-15:44:38,10.1.1.6,39,0.100,0.100,0.100,0.000,0.000,0.000
1644939880136399104,2022-02-15-15:44:40,10.1.1.6,39,0.070,0.070,0.070,0.000,0.000,0.000
1644939880396342016,2022-02-15-15:44:40,10.1.1.6,20,0.020,0.020,0.020,0.000,0.000,0.000
1644939885668692224,2022-02-15-15:44:44,10.1.1.6,-554,0.020,0.020,0.020,0.000,0.000,0.000
1644939885883732992,2022-02-15-15:44:45,10.1.1.6,32,0.040,0.040,0.040,0.000,0.000,0.000
1644939896580025856,2022-02-15-15:44:53,10.1.1.6,-758,0.070,0.070,0.070,0.000,0.000,0.000
1644939903623182080,2022-02-15-15:44:58,10.1.1.6,-5827,0.060,0.060,0.060,0.000,0.000,0.000
1644939944437786112,2022-02-15-15:45:29,10.1.1.6,-12781,-0.040,-0.040,-0.040,0.000,0.000,0.000
1644939945639458816,2022-02-15-15:45:45,10.1.1.6,-25974,-0.040,-0.040,-0.040,0.000,0.000,0.000
1644939946077363968,2022-02-15-15:45:46,10.1.1.6,39,-0.080,-0.080,-0.080,0.000,0.000,0.000
1644939947136566016,2022-02-15-15:45:47,10.1.1.6,20,0.070,0.070,0.070,0.000,0.000,0.000
1644939947260734976,2022-02-15-15:45:47,10.1.1.6,39,0.050,0.050,0.050,0.000,0.000,0.000
1644939947296168192,2022-02-15-15:45:47,10.1.1.6,29,0.040,0.040,0.040,0.000,0.000,0.000
1644939947355938816,2022-02-15-15:45:47,10.1.1.6,38,0.030,0.030,0.030,0.000,0.000,0.000
1644939948177315840,2022-02-15-15:45:48,10.1.1.6,20,-0.070,-0.070,-0.070,0.000,0.000,0.000
1644939948236212992,2022-02-15-15:45:48,10.1.1.6,29,-0.060,-0.060,-0.060,0.000,0.000,0.000
1644939948456239872,2022-02-15-15:45:48,10.1.1.6,38,-0.020,-0.020,-0.020,0.000,0.000,0.000
1644939949237083904,2022-02-15-15:45:49,10.1.1.6,39,0.070,0.070,0.070,0.000,0.000,0.000
1644939949278049024,2022-02-15-15:45:49,10.1.1.6,29,0.060,0.060,0.060,0.000,0.000,0.000
1644939949337518848,2022-02-15-15:45:49,10.1.1.6,38,0.050,0.050,0.050,0.000,0.000,0.000
1644939949836338944,2022-02-15-15:45:49,10.1.1.6,29,-0.050,-0.050,-0.050,0.000,0.000,0.000
1644939949896548864,2022-02-15-15:45:49,10.1.1.6,39,-0.060,-0.060,-0.060,0.000,0.000,0.000
1644939950280955136,2022-02-15-15:45:50,10.1.1.6,2,-0.060,-0.060,-0.060,0.000,0.000,0.000
1644939950955992832,2022-02-15-15:45:50,10.1.1.6,19,0.070,0.070,0.070,0.000,0.000,0.000
1644939951256894976,2022-02-15-15:45:51,10.1.1.6,14,0.070,0.070,0.070,0.000,0.000,0.000
1644939952916070912,2022-02-15-15:45:52,10.1.1.6,39,0.050,0.050,0.050,0.000,0.000,0.000
1644939953376972032,2022-02-15-15:45:53,10.1.1.6,20,0.060,0.060,0.060,0.000,0.000,0.000
1644939954877024768,2022-02-15-15:45:54,10.1.1.6,19,0.000,0.000,0.000,0.000,0.000,0.000
1644939955336777984,2022-02-15-15:45:55,10.1.1.6,19,0.090,0.090,0.090,0.000,0.000,0.000
1644939955436592128,2022-02-15-15:45:55,10.1.1.6,17,0.090,0.090,0.090,0.000,0.000,0.000
1644939955657342976,2022-02-15-15:45:55,10.1.1.6,20,0.050,0.050,0.050,0.000,0.000,0.000
1644939956036717056,2022-02-15-15:45:56,10.1.1.6,39,-0.020,-0.020,-0.020,0.000,0.000,0.000
1644939956636760064,2022-02-15-15:45:56,10.1.1.6,20,-0.060,-0.060,-0.060,0.000,0.000,0.000
1644939956696608000,2022-02-15-15:45:56,10.1.1.6,30,-0.050,-0.050,-0.050,0.000,0.000,0.000
1644939956756922880,2022-02-15-15:45:56,10.1.1.6,38,-0.040,-0.040,-0.040,0.000,0.000,0.000
1644939957716259840,2022-02-15-15:45:57,10.1.1.6,38,0.060,0.060,0.060,0.000,0.000,0.000
1644939958516288000,2022-02-15-15:45:58,10.1.1.6,19,-0.080,-0.080,-0.080,0.000,0.000,0.000
1644939958577285120,2022-02-15-15:45:58,10.1.1.6,20,-0.090,-0.090,-0.090,0.000,0.000,0.000
1644939958677177856,2022-02-15-15:45:58,10.1.1.6,19,-0.090,-0.090,-0.090,0.000,0.000,0.000
1644939960616456960,2022-02-15-15:46:00,10.1.1.6,19,-0.090,-0.090,-0.090,0.000,0.000,0.000
1644939960717083904,2022-02-15-15:46:00,10.1.1.6,18,-0.090,-0.090,-0.090,0.000,0.000,0.000
1644939962776807936,2022-02-15-15:46:02,10.1.1.6,10,-0.090,-0.090,-0.090,0.000,0.000,0.000
1644939962817662976,2022-02-15-15:46:02,10.1.1.6,19,-0.100,-0.100,-0.100,0.000,0.000,0.000
1644939962876424192,2022-02-15-15:46:02,10.1.1.6,29,-0.090,-0.090,-0.090,0.000,0.000,0.000
1644939963076868096,2022-02-15-15:46:03,10.1.1.6,39,-0.060,-0.060,-0.060,0.000,0.000,0.000
1644939963216743936,2022-02-15-15:46:03,10.1.1.6,20,-0.030,-0.030,-0.030,0.000,0.000,0.000
1644939963856132096,2022-02-15-15:46:03,10.1.1.6,19,0.090,0.090,0.090,0.000,0.000,0.000
1644939963957088000,2022-02-15-15:46:03,10.1.1.6,17,0.090,0.090,0.090,0.000,0.000,0.000
1644939964976486912,2022-02-15-15:46:04,10.1.1.6,20,-0.090,-0.090,-0.090,0.000,0.000,0.000
1644939965896701952,2022-02-15-15:46:05,10.1.1.6,20,0.090,0.090,0.090,0.000,0.000,0.000
1644939966657131008,2022-02-15-15:46:06,10.1.1.6,20,-0.040,-0.040,-0.040,0.000,0.000,0.000
1644939967256984832,2022-02-15-15:46:07,10.1.1.6,11,-0.040,-0.040,-0.040,0.000,0.000,0.000
1644939967417161984,2022-02-15-15:46:07,10.1.1.6,19,-0.010,-0.010,-0.010,0.000,0.000,0.000
1644939967536994816,2022-02-15-15:46:07,10.1.1.6,38,0.010,0.010,0.010,0.000,0.000,0.000
1644939968176480000,2022-02-15-15:46:08,10.1.1.6,19,0.060,0.060,0.060,0.000,0.000,0.000
1644939969315968000,2022-02-15-15:46:09,10.1.1.6,39,-0.040,-0.040,-0.040,0.000,0.000,0.000
1644939969416899072,2022-02-15-15:46:09,10.1.1.6,37,-0.020,-0.020,-0.020,0.000,0.000,0.000
1644939970236100864,2022-02-15-15:46:10,10.1.1.6,39,0.060,0.060,0.060,0.000,0.000,0.000
1644939970976496896,2022-02-15-15:46:10,10.1.1.6,19,-0.090,-0.090,-0.090,0.000,0.000,0.000
1644939971076718080,2022-02-15-15:46:11,10.1.1.6,18,-0.090,-0.090,-0.090,0.000,0.000,0.000
1644939971657874944,2022-02-15-15:46:11,10.1.1.6,21,0.010,0.010,0.010,0.000,0.000,0.000
1644939972235950848,2022-02-15-15:46:12,10.1.1.6,39,0.080,0.080,0.080,0.000,0.000,0.000
1644939972676680960,2022-02-15-15:46:12,10.1.1.6,21,-0.010,-0.010,-0.010,0.000,0.000,0.000
1644939972796545024,2022-02-15-15:46:12,10.1.1.6,39,-0.030,-0.030,-0.030,0.000,0.000,0.000
1644939973496349952,2022-02-15-15:46:13,10.1.1.6,24,-0.030,-0.030,-0.030,0.000,0.000,0.000
1644939973796164096,2022-02-15-15:46:13,10.1.1.6,20,0.030,0.030,0.030,0.000,0.000,0.000
1644939974256529920,2022-02-15-15:46:14,10.1.1.6,19,0.080,0.080,0.080,0.000,0.000,0.000
1644939974317265152,2022-02-15-15:46:14,10.1.1.6,29,0.070,0.070,0.070,0.000,0.000,0.000
1644939974816632064,2022-02-15-15:46:14,10.1.1.6,19,-0.030,-0.030,-0.030,0.000,0.000,0.000
1644939975376724992,2022-02-15-15:46:15,10.1.1.6,20,-0.060,-0.060,-0.060,0.000,0.000,0.000
1644939977016401920,2022-02-15-15:46:17,10.1.1.6,25,-0.060,-0.060,-0.060,0.000,0.000,0.000
1644939977416953088,2022-02-15-15:46:17,10.1.1.6,17,-0.060,-0.060,-0.060,0.000,0.000,0.000
1644939979036744192,2022-02-15-15:46:19,10.1.1.6,11,-0.060,-0.060,-0.060,0.000,0.000,0.000
1644939979156892928,2022-02-15-15:46:19,10.1.1.6,29,-0.080,-0.080,-0.080,0.000,0.000,0.000
1644939979216217088,2022-02-15-15:46:19,10.1.1.6,39,-0.090,-0.090,-0.090,0.000,0.000,0.000
1644939979296119040,2022-02-15-15:46:19,10.1.1.6,15,-0.090,-0.090,-0.090,0.000,0.000,0.000
1644939981056807936,2022-02-15-15:46:21,10.1.1.6,39,-0.050,-0.050,-0.050,0.000,0.000,0.000
1644939981455620096,2022-02-15-15:46:21,10.1.1.6,29,-0.070,-0.070,-0.070,0.000,0.000,0.000
1644939982396195840,2022-02-15-15:46:22,10.1.1.6,29,0.090,0.090,0.090,0.000,0.000,0.000
1644939983016668160,2022-02-15-15:46:23,10.1.1.6,39,-0.030,-0.030,-0.030,0.000,0.000,0.000
1644939983416137984,2022-02-15-15:46:23,10.1.1.6,29,-0.090,-0.090,-0.090,0.000,0.000,0.000
1644939984037592832,2022-02-15-15:46:24,10.1.1.6,39,0.030,0.030,0.030,0.000,0.000,0.000
1644939984636635136,2022-02-15-15:46:24,10.1.1.6,30,0.050,0.050,0.050,0.000,0.000,0.000
1644939984697541120,2022-02-15-15:46:24,10.1.1.6,39,0.040,0.040,0.040,0.000,0.000,0.000
1644939985296595200,2022-02-15-15:46:25,10.1.1.6,30,-0.080,-0.080,-0.080,0.000,0.000,0.000
1644939985496913920,2022-02-15-15:46:25,10.1.1.6,25,-0.080,-0.080,-0.080,0.000,0.000,0.000
1644939987335737856,2022-02-15-15:46:27,10.1.1.6,25,-0.080,-0.080,-0.080,0.000,0.000,0.000
1644939987536880896,2022-02-15-15:46:27,10.1.1.6,22,-0.080,-0.080,-0.080,0.000,0.000,0.000
1644939987656864768,2022-02-15-15:46:27,10.1.1.6,40,-0.060,-0.060,-0.060,0.000,0.000,0.000
1644939988316334080,2022-02-15-15:46:28,10.1.1.6,39,0.070,0.070,0.070,0.000,0.000,0.000
1644939988596282880,2022-02-15-15:46:28,10.1.1.6,14,0.070,0.070,0.070,0.000,0.000,0.000
1644939988876702976,2022-02-15-15:46:28,10.1.1.6,39,0.020,0.020,0.020,0.000,0.000,0.000
1644939989636622080,2022-02-15-15:46:29,10.1.1.6,39,-0.070,-0.070,-0.070,0.000,0.000,0.000
1644939990035849984,2022-02-15-15:46:30,10.1.1.6,30,0.010,0.010,0.010,0.000,0.000,0.000
1644939990096921856,2022-02-15-15:46:30,10.1.1.6,39,0.020,0.020,0.020,0.000,0.000,0.000
1644939990756963072,2022-02-15-15:46:30,10.1.1.6,39,0.050,0.050,0.050,0.000,0.000,0.000
1644939991296033024,2022-02-15-15:46:31,10.1.1.6,21,-0.060,-0.060,-0.060,0.000,0.000,0.000
1644939991415899904,2022-02-15-15:46:31,10.1.1.6,39,-0.080,-0.080,-0.080,0.000,0.000,0.000
1644939991596389888,2022-02-15-15:46:31,10.1.1.6,17,-0.080,-0.080,-0.080,0.000,0.000,0.000
1644939992276182016,2022-02-15-15:46:32,10.1.1.6,39,0.050,0.050,0.050,0.000,0.000,0.000
1644939992756928000,2022-02-15-15:46:32,10.1.1.6,12,0.050,0.050,0.050,0.000,0.000,0.000
1644939993037060096,2022-02-15-15:46:33,10.1.1.6,39,0.000,0.000,0.000,0.000,0.000,0.000
1644939993076253952,2022-02-15-15:46:33,10.1.1.6,29,-0.010,-0.010,-0.010,0.000,0.000,0.000
1644939993976912896,2022-02-15-15:46:33,10.1.1.6,19,-0.010,-0.010,-0.010,0.000,0.000,0.000
1644939994096929024,2022-02-15-15:46:34,10.1.1.6,39,0.010,0.010,0.010,0.000,0.000,0.000
1644939994996505856,2022-02-15-15:46:34,10.1.1.6,24,0.010,0.010,0.010,0.000,0.000,0.000
1644939995517314816,2022-02-15-15:46:35,10.1.1.6,39,-0.090,-0.090,-0.090,0.000,0.000,0.000
1644939995556598784,2022-02-15-15:46:35,10.1.1.6,29,-0.100,-0.100,-0.100,0.000,0.000,0.000
1644939997576145920,2022-02-15-15:46:37,10.1.1.6,21,-0.100,-0.100,-0.100,0.000,0.000,0.000
1644939998240562944,2022-02-15-15:46:38,10.1.1.6,21,0.030,0.030,0.030,0.000,0.000,0.000
1644939998296833024,2022-02-15-15:46:38,10.1.1.6,29,0.040,0.040,0.040,0.000,0.000,0.000
1644939998901398016,2022-02-15-15:46:38,10.1.1.6,20,0.040,0.040,0.040,0.000,0.000,0.000
1644939999016541952,2022-02-15-15:46:39,10.1.1.6,39,0.020,0.020,0.020,0.000,0.000,0.000
1644939999616482048,2022-02-15-15:46:39,10.1.1.6,29,-0.100,-0.100,-0.100,0.000,0.000,0.000
1644939999895947008,2022-02-15-15:46:39,10.1.1.6,39,-0.050,-0.050,-0.050,0.000,0.000,0.000
1644940001396590848,2022-02-15-15:46:41,10.1.1.6,20,-0.050,-0.050,-0.050,0.000,0.000,0.000
1644940001897083136,2022-02-15-15:46:41,10.1.1.6,14,-0.050,-0.050,-0.050,0.000,0.000,0.000
1644940002835865856,2022-02-15-15:46:42,10.1.1.6,40,0.070,0.070,0.070,0.000,0.000,0.000
1644940002875886848,2022-02-15-15:46:42,10.1.1.6,29,0.060,0.060,0.060,0.000,0.000,0.000
1644940003936574976,2022-02-15-15:46:43,10.1.1.6,19,-0.050,-0.050,-0.050,0.000,0.000,0.000
1644940004495680000,2022-02-15-15:46:44,10.1.1.6,19,0.060,0.060,0.060,0.000,0.000,0.000
1644940004896430848,2022-02-15-15:46:44,10.1.1.6,12,0.060,0.060,0.060,0.000,0.000,0.000
1644940005156812032,2022-02-15-15:46:45,10.1.1.6,19,0.010,0.010,0.010,0.000,0.000,0.000
1644940006276737024,2022-02-15-15:46:46,10.1.1.6,20,0.010,0.010,0.010,0.000,0.000,0.000
1644940006396285184,2022-02-15-15:46:46,10.1.1.6,39,0.030,0.030,0.030,0.000,0.000,0.000
1644940007097039104,2022-02-15-15:46:47,10.1.1.6,23,0.030,0.030,0.030,0.000,0.000,0.000
1644940007717174016,2022-02-15-15:46:47,10.1.1.6,29,-0.090,-0.090,-0.090,0.000,0.000,0.000
1644940007797399040,2022-02-15-15:46:47,10.1.1.6,6,-0.090,-0.090,-0.090,0.000,0.000,0.000
1644940009035977984,2022-02-15-15:46:49,10.1.1.6,29,0.060,0.060,0.060,0.000,0.000,0.000
1644940009636796928,2022-02-15-15:46:49,10.1.1.6,20,-0.060,-0.060,-0.060,0.000,0.000,0.000
1644940009697233920,2022-02-15-15:46:49,10.1.1.6,29,-0.070,-0.070,-0.070,0.000,0.000,0.000
1644940009996776960,2022-02-15-15:46:49,10.1.1.6,25,-0.070,-0.070,-0.070,0.000,0.000,0.000
1644940010296109056,2022-02-15-15:46:50,10.1.1.6,19,-0.010,-0.010,-0.010,0.000,0.000,0.000
1644940010856584960,2022-02-15-15:46:50,10.1.1.6,21,0.100,0.100,0.100,0.000,0.000,0.000
1644940010977011968,2022-02-15-15:46:50,10.1.1.6,39,0.080,0.080,0.080,0.000,0.000,0.000
1644940011516463104,2022-02-15-15:46:51,10.1.1.6,19,-0.030,-0.030,-0.030,0.000,0.000,0.000
1644940012236211968,2022-02-15-15:46:52,10.1.1.6,21,-0.030,-0.030,-0.030,0.000,0.000,0.000
1644940012757071872,2022-02-15-15:46:52,10.1.1.6,29,0.070,0.070,0.070,0.000,0.000,0.000
1644940013056889088,2022-02-15-15:46:53,10.1.1.6,24,0.070,0.070,0.070,0.000,0.000,0.000
1644940013377315072,2022-02-15-15:46:53,10.1.1.6,39,0.010,0.010,0.010,0.000,0.000,0.000
1644940014476059904,2022-02-15-15:46:54,10.1.1.6,25,0.010,0.010,0.010,0.000,0.000,0.000
1644940015377118208,2022-02-15-15:46:55,10.1.1.6,12,0.010,0.010,0.010,0.000,0.000,0.000
1644940015656278016,2022-02-15-15:46:55,10.1.1.6,39,-0.040,-0.040,-0.040,0.000,0.000,0.000
1644940015696409856,2022-02-15-15:46:55,10.1.1.6,29,-0.050,-0.050,-0.050,0.000,0.000,0.000
1644940016195936000,2022-02-15-15:46:56,10.1.1.6,24,-0.050,-0.050,-0.050,0.000,0.000,0.000
1644940016616514816,2022-02-15-15:46:56,10.1.1.6,39,0.030,0.030,0.030,0.000,0.000,0.000
1644940017296107008,2022-02-15-15:46:57,10.1.1.6,10,0.030,0.030,0.030,0.000,0.000,0.000
1644940017416183040,2022-02-15-15:46:57,10.1.1.6,30,0.010,0.010,0.010,0.000,0.000,0.000
1644940018515907072,2022-02-15-15:46:58,10.1.1.6,14,0.010,0.010,0.010,0.000,0.000,0.000
1644940018995793152,2022-02-15-15:46:58,10.1.1.6,39,0.100,0.100,0.100,0.000,0.000,0.000
1644940019036855040,2022-02-15-15:46:59,10.1.1.6,29,0.090,0.090,0.090,0.000,0.000,0.000
1644940020163271936,2022-02-15-15:47:00,10.1.1.6,29,-0.070,-0.070,-0.070,0.000,0.000,0.000
1644940020215904000,2022-02-15-15:47:00,10.1.1.6,39,-0.060,-0.060,-0.060,0.000,0.000,0.000
1644940021676135936,2022-02-15-15:47:01,10.1.1.6,29,-0.030,-0.030,-0.030,0.000,0.000,0.000
1644940021736901120,2022-02-15-15:47:01,10.1.1.6,39,-0.040,-0.040,-0.040,0.000,0.000,0.000
1644940022317883136,2022-02-15-15:47:02,10.1.1.6,11,-0.040,-0.040,-0.040,0.000,0.000,0.000
1644940022435770112,2022-02-15-15:47:02,10.1.1.6,29,-0.020,-0.020,-0.020,0.000,0.000,0.000
1644940023637324032,2022-02-15-15:47:03,10.1.1.6,8,-0.020,-0.020,-0.020,0.000,0.000,0.000
1644940024456361984,2022-02-15-15:47:04,10.1.1.6,9,-0.020,-0.020,-0.020,0.000,0.000,0.000
1644940024535629056,2022-02-15-15:47:04,10.1.1.6,39,-0.010,-0.010,-0.010,0.000,0.000,0.000
1644940025056472064,2022-02-15-15:47:05,10.1.1.6,39,0.090,0.090,0.090,0.000,0.000,0.000
1644940025137783040,2022-02-15-15:47:05,10.1.1.6,18,0.090,0.090,0.090,0.000,0.000,0.000
1644940026456392960,2022-02-15-15:47:06,10.1.1.6,20,-0.030,-0.030,-0.030,0.000,0.000,0.000
1644940026615931136,2022-02-15-15:47:06,10.1.1.6,29,0.000,0.000,0.000,0.000,0.000,0.000
1644940027616337920,2022-02-15-15:47:07,10.1.1.6,8,0.000,0.000,0.000,0.000,0.000,0.000
1644940028455912960,2022-02-15-15:47:08,10.1.1.6,29,-0.040,-0.040,-0.040,0.000,0.000,0.000
1644940028816178176,2022-02-15-15:47:08,10.1.1.6,29,0.030,0.030,0.030,0.000,0.000,0.000
1644940029077018112,2022-02-15-15:47:09,10.1.1.6,29,0.080,0.080,0.080,0.000,0.000,0.000
1644940029275983104,2022-02-15-15:47:09,10.1.1.6,24,0.080,0.080,0.080,0.000,0.000,0.000
1644940031096384000,2022-02-15-15:47:11,10.1.1.6,10,0.080,0.080,0.080,0.000,0.000,0.000
1644940031296984064,2022-02-15-15:47:11,10.1.1.6,6,0.080,0.080,0.080,0.000,0.000,0.000
1644940031837028864,2022-02-15-15:47:11,10.1.1.6,39,-0.020,-0.020,-0.020,0.000,0.000,0.000
1644940032496521984,2022-02-15-15:47:12,10.1.1.6,39,-0.050,-0.050,-0.050,0.000,0.000,0.000
1644940032536755200,2022-02-15-15:47:12,10.1.1.6,29,-0.040,-0.040,-0.040,0.000,0.000,0.000
1644940033156583936,2022-02-15-15:47:13,10.1.1.6,29,0.080,0.080,0.080,0.000,0.000,0.000
1644940033356861952,2022-02-15-15:47:13,10.1.1.6,25,0.080,0.080,0.080,0.000,0.000,0.000
1644940034897246976,2022-02-15-15:47:14,10.1.1.6,29,0.020,0.020,0.020,0.000,0.000,0.000
1644940035456723968,2022-02-15-15:47:15,10.1.1.6,29,0.070,0.070,0.070,0.000,0.000,0.000
1644940036017344000,2022-02-15-15:47:16,10.1.1.6,29,-0.040,-0.040,-0.040,0.000,0.000,0.000
1644940036476921088,2022-02-15-15:47:16,10.1.1.6,30,-0.070,-0.070,-0.070,0.000,0.000,0.000
1644940037297050112,2022-02-15-15:47:17,10.1.1.6,29,0.090,0.090,0.090,0.000,0.000,0.000
1644940037376614144,2022-02-15-15:47:17,10.1.1.6,8,0.090,0.090,0.090,0.000,0.000,0.000
1644940037856232960,2022-02-15-15:47:17,10.1.1.6,29,-0.000,-0.000,-0.000,0.000,0.000,0.000
1644940038856455936,2022-02-15-15:47:18,10.1.1.6,11,-0.000,-0.000,-0.000,0.000,0.000,0.000
1644940039436306944,2022-02-15-15:47:19,10.1.1.6,29,0.090,0.090,0.090,0.000,0.000,0.000
1644940041276536064,2022-02-15-15:47:21,10.1.1.6,29,0.070,0.070,0.070,0.000,0.000,0.000
1644940041575642112,2022-02-15-15:47:21,10.1.1.6,25,0.070,0.070,0.070,0.000,0.000,0.000
1644940041796004096,2022-02-15-15:47:21,10.1.1.6,39,0.030,0.030,0.030,0.000,0.000,0.000
1644940042896606976,2022-02-15-15:47:22,10.1.1.6,19,-0.010,-0.010,-0.010,0.000,0.000,0.000
1644940043016761088,2022-02-15-15:47:23,10.1.1.6,38,0.010,0.010,0.010,0.000,0.000,0.000
1644940043916656896,2022-02-15-15:47:23,10.1.1.6,19,0.010,0.010,0.010,0.000,0.000,0.000
1644940045036279040,2022-02-15-15:47:25,10.1.1.6,22,0.010,0.010,0.010,0.000,0.000,0.000
1644940045135834880,2022-02-15-15:47:25,10.1.1.6,20,0.030,0.030,0.030,0.000,0.000,0.000
1644940045195742976,2022-02-15-15:47:25,10.1.1.6,29,0.040,0.040,0.040,0.000,0.000,0.000
1644940045256537088,2022-02-15-15:47:25,10.1.1.6,39,0.050,0.050,0.050,0.000,0.000,0.000
1644940045656591872,2022-02-15-15:47:25,10.1.1.6,29,0.070,0.070,0.070,0.000,0.000,0.000
1644940046216072192,2022-02-15-15:47:26,10.1.1.6,29,-0.040,-0.040,-0.040,0.000,0.000,0.000
1644940046816183040,2022-02-15-15:47:26,10.1.1.6,19,-0.040,-0.040,-0.040,0.000,0.000,0.000
1644940047298078976,2022-02-15-15:47:27,10.1.1.6,39,0.050,0.050,0.050,0.000,0.000,0.000
1644940047337125120,2022-02-15-15:47:27,10.1.1.6,29,0.060,0.060,0.060,0.000,0.000,0.000
1644940047736978176,2022-02-15-15:47:27,10.1.1.6,21,0.060,0.060,0.060,0.000,0.000,0.000
1644940047855827200,2022-02-15-15:47:27,10.1.1.6,39,0.040,0.040,0.040,0.000,0.000,0.000
1644940048296377856,2022-02-15-15:47:28,10.1.1.6,20,-0.050,-0.050,-0.050,0.000,0.000,0.000
1644940048796185088,2022-02-15-15:47:28,10.1.1.6,12,-0.050,-0.050,-0.050,0.000,0.000,0.000
1644940048975922944,2022-02-15-15:47:28,10.1.1.6,39,-0.020,-0.020,-0.020,0.000,0.000,0.000
1644940049995971840,2022-02-15-15:47:29,10.1.1.6,20,0.020,0.020,0.020,0.000,0.000,0.000
1644940050257090048,2022-02-15-15:47:30,10.1.1.6,20,-0.030,-0.030,-0.030,0.000,0.000,0.000
1644940050776029184,2022-02-15-15:47:30,10.1.1.6,29,-0.070,-0.070,-0.070,0.000,0.000,0.000
1644940051836396032,2022-02-15-15:47:31,10.1.1.6,20,0.060,0.060,0.060,0.000,0.000,0.000
1644940051895944960,2022-02-15-15:47:31,10.1.1.6,29,0.050,0.050,0.050,0.000,0.000,0.000
1644940053176337920,2022-02-15-15:47:33,10.1.1.6,29,0.000,0.000,0.000,0.000,0.000,0.000
1644940054056572928,2022-02-15-15:47:34,10.1.1.6,39,0.030,0.030,0.030,0.000,0.000,0.000
1644940055356475136,2022-02-15-15:47:35,10.1.1.6,20,0.030,0.030,0.030,0.000,0.000,0.000
1644940055415980032,2022-02-15-15:47:35,10.1.1.6,29,0.040,0.040,0.040,0.000,0.000,0.000
1644940055555991040,2022-02-15-15:47:35,10.1.1.6,16,0.070,0.070,0.070,0.000,0.000,0.000
1644940055856107008,2022-02-15-15:47:35,10.1.1.6,13,0.070,0.070,0.070,0.000,0.000,0.000
1644940057586209024,2022-02-15-15:47:37,10.1.1.6,-2,0.070,0.070,0.070,0.000,0.000,0.000
1644940057895792128,2022-02-15-15:47:37,10.1.1.6,12,0.070,0.070,0.070,0.000,0.000,0.000
1644940059616653056,2022-02-15-15:47:39,10.1.1.6,9,0.070,0.070,0.070,0.000,0.000,0.000
1644940059935712000,2022-02-15-15:47:39,10.1.1.6,23,0.070,0.070,0.070,0.000,0.000,0.000
1644940060135907840,2022-02-15-15:47:40,10.1.1.6,20,0.030,0.030,0.030,0.000,0.000,0.000
1644940060195979008,2022-02-15-15:47:40,10.1.1.6,29,0.020,0.020,0.020,0.000,0.000,0.000
1644940060257627136,2022-02-15-15:47:40,10.1.1.6,39,0.010,0.010,0.010,0.000,0.000,0.000
1644940061015974912,2022-02-15-15:47:41,10.1.1.6,29,-0.060,-0.060,-0.060,0.000,0.000,0.000
1644940062095721984,2022-02-15-15:47:42,10.1.1.6,39,0.050,0.050,0.050,0.000,0.000,0.000
1644940062635667200,2022-02-15-15:47:42,10.1.1.6,20,-0.060,-0.060,-0.060,0.000,0.000,0.000
1644940063036744960,2022-02-15-15:47:43,10.1.1.6,11,-0.060,-0.060,-0.060,0.000,0.000,0.000
1644940063096244224,2022-02-15-15:47:43,10.1.1.6,20,-0.050,-0.050,-0.050,0.000,0.000,0.000
1644940063156300032,2022-02-15-15:47:43,10.1.1.6,29,-0.040,-0.040,-0.040,0.000,0.000,0.000
1644940063876023040,2022-02-15-15:47:43,10.1.1.6,39,0.100,0.100,0.100,0.000,0.000,0.000
1644940064796140032,2022-02-15-15:47:44,10.1.1.6,38,-0.080,-0.080,-0.080,0.000,0.000,0.000
1644940064975904000,2022-02-15-15:47:44,10.1.1.6,14,-0.080,-0.080,-0.080,0.000,0.000,0.000
1644940065595393792,2022-02-15-15:47:45,10.1.1.6,19,0.040,0.040,0.040,0.000,0.000,0.000
1644940066156918016,2022-02-15-15:47:46,10.1.1.6,19,0.050,0.050,0.050,0.000,0.000,0.000
1644940066718405120,2022-02-15-15:47:46,10.1.1.6,19,-0.060,-0.060,-0.060,0.000,0.000,0.000
1644940067116785152,2022-02-15-15:47:47,10.1.1.6,10,-0.060,-0.060,-0.060,0.000,0.000,0.000
1644940068415763968,2022-02-15-15:47:48,10.1.1.6,38,0.010,0.010,0.010,0.000,0.000,0.000
1644940069375726848,2022-02-15-15:47:49,10.1.1.6,29,-0.020,-0.020,-0.020,0.000,0.000,0.000
1644940069895701760,2022-02-15-15:47:49,10.1.1.6,39,0.080,0.080,0.080,0.000,0.000,0.000
1644940070076865792,2022-02-15-15:47:50,10.1.1.6,15,0.080,0.080,0.080,0.000,0.000,0.000
1644940070856249088,2022-02-15-15:47:50,10.1.1.6,29,-0.070,-0.070,-0.070,0.000,0.000,0.000
1644940071157654016,2022-02-15-15:47:51,10.1.1.6,25,-0.070,-0.070,-0.070,0.000,0.000,0.000
1644940072356096000,2022-02-15-15:47:52,10.1.1.6,39,0.040,0.040,0.040,0.000,0.000,0.000
1644940073055713024,2022-02-15-15:47:53,10.1.1.6,19,-0.100,-0.100,-0.100,0.000,0.000,0.000
1644940074095717888,2022-02-15-15:47:54,10.1.1.6,39,0.100,0.100,0.100,0.000,0.000,0.000
1644940074497033984,2022-02-15-15:47:54,10.1.1.6,29,0.020,0.020,0.020,0.000,0.000,0.000
1644940074555988992,2022-02-15-15:47:54,10.1.1.6,39,0.010,0.010,0.010,0.000,0.000,0.000
1644940075656275968,2022-02-15-15:47:55,10.1.1.6,14,0.010,0.010,0.010,0.000,0.000,0.000
1644940076577009920,2022-02-15-15:47:56,10.1.1.6,12,0.010,0.010,0.010,0.000,0.000,0.000
1644940077696065024,2022-02-15-15:47:57,10.1.1.6,15,0.010,0.010,0.010,0.000,0.000,0.000
1644940078616434944,2022-02-15-15:47:58,10.1.1.6,23,0.010,0.010,0.010,0.000,0.000,0.000
1644940079736942080,2022-02-15-15:47:59,10.1.1.6,21,0.010,0.010,0.010,0.000,0.000,0.000
1644940079796585984,2022-02-15-15:47:59,10.1.1.6,29,0.020,0.020,0.020,0.000,0.000,0.000
1644940080715759104,2022-02-15-15:48:00,10.1.1.6,7,0.020,0.020,0.020,0.000,0.000,0.000
1644940081596876032,2022-02-15-15:48:01,10.1.1.6,29,-0.060,-0.060,-0.060,0.000,0.000,0.000
1644940082855667200,2022-02-15-15:48:02,10.1.1.6,29,0.030,0.030,0.030,0.000,0.000,0.000
1644940083615835904,2022-02-15-15:48:03,10.1.1.6,29,-0.080,-0.080,-0.080,0.000,0.000,0.000
1644940085036071168,2022-02-15-15:48:05,10.1.1.6,29,0.000,0.000,0.000,0.000,0.000,0.000
1644940085096534016,2022-02-15-15:48:05,10.1.1.6,39,-0.010,-0.010,-0.010,0.000,0.000,0.000
1644940085975709952,2022-02-15-15:48:05,10.1.1.6,10,-0.010,-0.010,-0.010,0.000,0.000,0.000
1644940086055996928,2022-02-15-15:48:06,10.1.1.6,39,0.000,0.000,0.000,0.000,0.000,0.000
1644940086656371968,2022-02-15-15:48:06,10.1.1.6,29,0.080,0.080,0.080,0.000,0.000,0.000
1644940086716027904,2022-02-15-15:48:06,10.1.1.6,39,0.070,0.070,0.070,0.000,0.000,0.000
1644940087216856832,2022-02-15-15:48:07,10.1.1.6,29,-0.030,-0.030,-0.030,0.000,0.000,0.000
1644940087477961984,2022-02-15-15:48:07,10.1.1.6,35,-0.080,-0.080,-0.080,0.000,0.000,0.000
1644940087656375808,2022-02-15-15:48:07,10.1.1.6,11,-0.080,-0.080,-0.080,0.000,0.000,0.000
1644940089015917056,2022-02-15-15:48:09,10.1.1.6,29,0.020,0.020,0.020,0.000,0.000,0.000
1644940089976401152,2022-02-15-15:48:09,10.1.1.6,29,-0.030,-0.030,-0.030,0.000,0.000,0.000
1644940090675672064,2022-02-15-15:48:10,10.1.1.6,20,0.090,0.090,0.090,0.000,0.000,0.000
1644940090737719040,2022-02-15-15:48:10,10.1.1.6,29,0.080,0.080,0.080,0.000,0.000,0.000
1644940092556192000,2022-02-15-15:48:12,10.1.1.6,25,0.080,0.080,0.080,0.000,0.000,0.000
1644940092755828992,2022-02-15-15:48:12,10.1.1.6,23,0.080,0.080,0.080,0.000,0.000,0.000
1644940093076355840,2022-02-15-15:48:13,10.1.1.6,39,0.020,0.020,0.020,0.000,0.000,0.000
1644940094196765952,2022-02-15-15:48:14,10.1.1.6,39,0.000,0.000,0.000,0.000,0.000,0.000
1644940094237132032,2022-02-15-15:48:14,10.1.1.6,29,0.010,0.010,0.010,0.000,0.000,0.000
1644940095137294080,2022-02-15-15:48:15,10.1.1.6,19,0.010,0.010,0.010,0.000,0.000,0.000
1644940096256434944,2022-02-15-15:48:16,10.1.1.6,23,0.010,0.010,0.010,0.000,0.000,0.000
1644940096556891904,2022-02-15-15:48:16,10.1.1.6,20,0.070,0.070,0.070,0.000,0.000,0.000
1644940096615817984,2022-02-15-15:48:16,10.1.1.6,29,0.080,0.080,0.080,0.000,0.000,0.000
1644940096795948032,2022-02-15-15:48:16,10.1.1.6,7,0.080,0.080,0.080,0.000,0.000,0.000
1644940098637003776,2022-02-15-15:48:18,10.1.1.6,23,0.080,0.080,0.080,0.000,0.000,0.000
1644940098835911936,2022-02-15-15:48:18,10.1.1.6,21,0.080,0.080,0.080,0.000,0.000,0.000
1644940099495982848,2022-02-15-15:48:19,10.1.1.6,19,-0.050,-0.050,-0.050,0.000,0.000,0.000
1644940099995501056,2022-02-15-15:48:19,10.1.1.6,13,-0.050,-0.050,-0.050,0.000,0.000,0.000
1644940100315928832,2022-02-15-15:48:20,10.1.1.6,29,0.010,0.010,0.010,0.000,0.000,0.000
1644940100935430144,2022-02-15-15:48:20,10.1.1.6,39,0.070,0.070,0.070,0.000,0.000,0.000
1644940102635760128,2022-02-15-15:48:22,10.1.1.6,17,0.070,0.070,0.070,0.000,0.000,0.000
1644940102935937024,2022-02-15-15:48:22,10.1.1.6,14,0.070,0.070,0.070,0.000,0.000,0.000
1644940103256786944,2022-02-15-15:48:23,10.1.1.6,30,0.010,0.010,0.010,0.000,0.000,0.000
1644940103297485056,2022-02-15-15:48:23,10.1.1.6,19,0.000,0.000,0.000,0.000,0.000,0.000
1644940103955920896,2022-02-15-15:48:23,10.1.1.6,20,-0.070,-0.070,-0.070,0.000,0.000,0.000
1644940104015856896,2022-02-15-15:48:24,10.1.1.6,29,-0.060,-0.060,-0.060,0.000,0.000,0.000
1644940104075512832,2022-02-15-15:48:24,10.1.1.6,38,-0.050,-0.050,-0.050,0.000,0.000,0.000
1644940104815927040,2022-02-15-15:48:24,10.1.1.6,20,0.100,0.100,0.100,0.000,0.000,0.000
1644940104936100864,2022-02-15-15:48:24,10.1.1.6,39,0.080,0.080,0.080,0.000,0.000,0.000
1644940106395265024,2022-02-15-15:48:26,10.1.1.6,29,0.010,0.010,0.010,0.000,0.000,0.000
1644940106456294144,2022-02-15-15:48:26,10.1.1.6,39,0.020,0.020,0.020,0.000,0.000,0.000
1644940106496275968,2022-02-15-15:48:26,10.1.1.6,29,0.030,0.030,0.030,0.000,0.000,0.000
1644940107195507968,2022-02-15-15:48:27,10.1.1.6,19,0.030,0.030,0.030,0.000,0.000,0.000
1644940108056541952,2022-02-15-15:48:28,10.1.1.6,20,-0.060,-0.060,-0.060,0.000,0.000,0.000
1644940108115639040,2022-02-15-15:48:28,10.1.1.6,29,-0.050,-0.050,-0.050,0.000,0.000,0.000
1644940108835604992,2022-02-15-15:48:28,10.1.1.6,39,0.090,0.090,0.090,0.000,0.000,0.000
1644940108916987904,2022-02-15-15:48:28,10.1.1.6,17,0.090,0.090,0.090,0.000,0.000,0.000
1644940109635827968,2022-02-15-15:48:29,10.1.1.6,29,-0.050,-0.050,-0.050,0.000,0.000,0.000
1644940110135920896,2022-02-15-15:48:30,10.1.1.6,24,-0.050,-0.050,-0.050,0.000,0.000,0.000
1644940111655649024,2022-02-15-15:48:31,10.1.1.6,26,-0.050,-0.050,-0.050,0.000,0.000,0.000
1644940112055641856,2022-02-15-15:48:32,10.1.1.6,19,-0.070,-0.070,-0.070,0.000,0.000,0.000
1644940112116667136,2022-02-15-15:48:32,10.1.1.6,29,-0.060,-0.060,-0.060,0.000,0.000,0.000
1644940112835591168,2022-02-15-15:48:32,10.1.1.6,39,0.080,0.080,0.080,0.000,0.000,0.000
1644940113036862976,2022-02-15-15:48:33,10.1.1.6,9,0.080,0.080,0.080,0.000,0.000,0.000
1644940113117563136,2022-02-15-15:48:33,10.1.1.6,39,0.070,0.070,0.070,0.000,0.000,0.000
1644940113796113920,2022-02-15-15:48:33,10.1.1.6,39,-0.060,-0.060,-0.060,0.000,0.000,0.000
1644940114176595968,2022-02-15-15:48:34,10.1.1.6,12,-0.060,-0.060,-0.060,0.000,0.000,0.000
1644940115496519168,2022-02-15-15:48:35,10.1.1.6,39,0.010,0.010,0.010,0.000,0.000,0.000
1644940116296173056,2022-02-15-15:48:36,10.1.1.6,30,-0.050,-0.050,-0.050,0.000,0.000,0.000
1644940117796080128,2022-02-15-15:48:37,10.1.1.6,10,-0.050,-0.050,-0.050,0.000,0.000,0.000
1644940117858436096,2022-02-15-15:48:37,10.1.1.6,20,-0.059,-0.059,-0.059,0.000,0.000,0.000
1644940118256130816,2022-02-15-15:48:38,10.1.1.6,9,-0.060,-0.060,-0.060,0.000,0.000,0.000
1644940118879849984,2022-02-15-15:48:38,10.1.1.6,19,0.060,0.060,0.060,0.000,0.000,0.000
1644940119277312000,2022-02-15-15:48:39,10.1.1.6,6,0.060,0.060,0.060,0.000,0.000,0.000
1644940119655934208,2022-02-15-15:48:39,10.1.1.6,29,-0.010,-0.010,-0.010,0.000,0.000,0.000
1644940120375122944,2022-02-15-15:48:40,10.1.1.6,39,-0.050,-0.050,-0.050,0.000,0.000,0.000
1644940121116035840,2022-02-15-15:48:41,10.1.1.6,20,0.100,0.100,0.100,0.000,0.000,0.000
1644940121336862976,2022-02-15-15:48:41,10.1.1.6,36,0.060,0.060,0.060,0.000,0.000,0.000
1644940122937360128,2022-02-15-15:48:42,10.1.1.6,11,0.060,0.060,0.060,0.000,0.000,0.000
1644940123336728064,2022-02-15-15:48:43,10.1.1.6,7,0.060,0.060,0.060,0.000,0.000,0.000
1644940124957048832,2022-02-15-15:48:44,10.1.1.6,6,0.060,0.060,0.060,0.000,0.000,0.000
1644940125376808960,2022-02-15-15:48:45,10.1.1.6,20,0.060,0.060,0.060,0.000,0.000,0.000
1644940125435929088,2022-02-15-15:48:45,10.1.1.6,29,0.050,0.050,0.050,0.000,0.000,0.000
1644940126236620032,2022-02-15-15:48:46,10.1.1.6,19,-0.090,-0.090,-0.090,0.000,0.000,0.000
1644940126295531008,2022-02-15-15:48:46,10.1.1.6,29,-0.080,-0.080,-0.080,0.000,0.000,0.000
1644940128115979008,2022-02-15-15:48:48,10.1.1.6,16,-0.080,-0.080,-0.080,0.000,0.000,0.000
1644940128317222144,2022-02-15-15:48:48,10.1.1.6,14,-0.080,-0.080,-0.080,0.000,0.000,0.000
1644940128596192000,2022-02-15-15:48:48,10.1.1.6,39,-0.030,-0.030,-0.030,0.000,0.000,0.000
1644940128896083200,2022-02-15-15:48:48,10.1.1.6,30,0.030,0.030,0.030,0.000,0.000,0.000
1644940129596240128,2022-02-15-15:48:49,10.1.1.6,10,0.030,0.030,0.030,0.000,0.000,0.000
1644940129936260096,2022-02-15-15:48:49,10.1.1.6,39,-0.030,-0.030,-0.030,0.000,0.000,0.000
1644940130636640000,2022-02-15-15:48:50,10.1.1.6,24,-0.030,-0.030,-0.030,0.000,0.000,0.000
1644940131816265984,2022-02-15-15:48:51,10.1.1.6,30,0.000,0.000,0.000,0.000,0.000,0.000
1644940132537017088,2022-02-15-15:48:52,10.1.1.6,39,-0.060,-0.060,-0.060,0.000,0.000,0.000
1644940133236625920,2022-02-15-15:48:53,10.1.1.6,29,0.080,0.080,0.080,0.000,0.000,0.000
1644940133436520960,2022-02-15-15:48:53,10.1.1.6,26,0.080,0.080,0.080,0.000,0.000,0.000
1644940135256459008,2022-02-15-15:48:55,10.1.1.6,14,0.080,0.080,0.080,0.000,0.000,0.000
1644940135457533952,2022-02-15-15:48:55,10.1.1.6,12,0.080,0.080,0.080,0.000,0.000,0.000
1644940135736624896,2022-02-15-15:48:55,10.1.1.6,39,0.030,0.030,0.030,0.000,0.000,0.000
1644940137035987968,2022-02-15-15:48:57,10.1.1.6,20,0.030,0.030,0.030,0.000,0.000,0.000
1644940137736414976,2022-02-15-15:48:57,10.1.1.6,9,0.030,0.030,0.030,0.000,0.000,0.000
1644940138875813888,2022-02-15-15:48:58,10.1.1.6,20,-0.010,-0.010,-0.010,0.000,0.000,0.000
1644940138935482112,2022-02-15-15:48:58,10.1.1.6,29,0.000,0.000,0.000,0.000,0.000,0.000
1644940139935528960,2022-02-15-15:48:59,10.1.1.6,17,0.000,0.000,0.000,0.000,0.000,0.000
1644940140956727040,2022-02-15-15:49:00,10.1.1.6,22,0.000,0.000,0.000,0.000,0.000,0.000
1644940141916604928,2022-02-15-15:49:01,10.1.1.6,19,0.010,0.010,0.010,0.000,0.000,0.000
1644940142777088000,2022-02-15-15:49:02,10.1.1.6,20,-0.040,-0.040,-0.040,0.000,0.000,0.000
1644940142836302080,2022-02-15-15:49:02,10.1.1.6,29,-0.030,-0.030,-0.030,0.000,0.000,0.000
1644940144137797120,2022-02-15-15:49:04,10.1.1.6,10,-0.030,-0.030,-0.030,0.000,0.000,0.000
1644940144856747008,2022-02-15-15:49:04,10.1.1.6,20,-0.030,-0.030,-0.030,0.000,0.000,0.000
1644940144976429824,2022-02-15-15:49:04,10.1.1.6,39,-0.010,-0.010,-0.010,0.000,0.000,0.000
1644940146075813120,2022-02-15-15:49:06,10.1.1.6,22,-0.010,-0.010,-0.010,0.000,0.000,0.000
1644940146295663104,2022-02-15-15:49:06,10.1.1.6,39,-0.050,-0.050,-0.050,0.000,0.000,0.000
1644940146776544000,2022-02-15-15:49:06,10.1.1.6,13,-0.050,-0.050,-0.050,0.000,0.000,0.000
1644940146936430848,2022-02-15-15:49:06,10.1.1.6,20,-0.020,-0.020,-0.020,0.000,0.000,0.000
1644940147556822016,2022-02-15-15:49:07,10.1.1.6,30,0.100,0.100,0.100,0.000,0.000,0.000
1644940149136600064,2022-02-15-15:49:09,10.1.1.6,39,0.010,0.010,0.010,0.000,0.000,0.000
1644940150017369088,2022-02-15-15:49:10,10.1.1.6,8,0.010,0.010,0.010,0.000,0.000,0.000
1644940150397218816,2022-02-15-15:49:10,10.1.1.6,30,-0.060,-0.060,-0.060,0.000,0.000,0.000
1644940150436619008,2022-02-15-15:49:10,10.1.1.6,19,-0.070,-0.070,-0.070,0.000,0.000,0.000
1644940150737200128,2022-02-15-15:49:10,10.1.1.6,13,-0.070,-0.070,-0.070,0.000,0.000,0.000
1644940151016777984,2022-02-15-15:49:11,10.1.1.6,39,-0.020,-0.020,-0.020,0.000,0.000,0.000
1644940151676100096,2022-02-15-15:49:11,10.1.1.6,39,0.090,0.090,0.090,0.000,0.000,0.000
1644940153597847040,2022-02-15-15:49:13,10.1.1.6,8,0.090,0.090,0.090,0.000,0.000,0.000
1644940153717261056,2022-02-15-15:49:13,10.1.1.6,26,0.090,0.090,0.090,0.000,0.000,0.000
1644940155655805184,2022-02-15-15:49:15,10.1.1.6,24,0.090,0.090,0.090,0.000,0.000,0.000
1644940155756988928,2022-02-15-15:49:15,10.1.1.6,23,0.090,0.090,0.090,0.000,0.000,0.000
1644940157155663872,2022-02-15-15:49:17,10.1.1.6,29,-0.020,-0.020,-0.020,0.000,0.000,0.000
1644940158356580096,2022-02-15-15:49:18,10.1.1.6,13,-0.020,-0.020,-0.020,0.000,0.000,0.000
1644940158515780096,2022-02-15-15:49:18,10.1.1.6,20,-0.050,-0.050,-0.050,0.000,0.000,0.000
1644940159016913920,2022-02-15-15:49:19,10.1.1.6,14,-0.050,-0.050,-0.050,0.000,0.000,0.000
1644940159377483008,2022-02-15-15:49:19,10.1.1.6,20,0.020,0.020,0.020,0.000,0.000,0.000
1644940160095947008,2022-02-15-15:49:20,10.1.1.6,29,0.040,0.040,0.040,0.000,0.000,0.000
1644940161496047104,2022-02-15-15:49:21,10.1.1.6,13,0.040,0.040,0.040,0.000,0.000,0.000
1644940162097363968,2022-02-15-15:49:22,10.1.1.6,6,0.040,0.040,0.040,0.000,0.000,0.000
1644940162675942912,2022-02-15-15:49:22,10.1.1.6,30,-0.070,-0.070,-0.070,0.000,0.000,0.000
1644940162976311040,2022-02-15-15:49:22,10.1.1.6,25,-0.070,-0.070,-0.070,0.000,0.000,0.000
1644940164656066048,2022-02-15-15:49:24,10.1.1.6,20,-0.060,-0.060,-0.060,0.000,0.000,0.000
1644940165076800000,2022-02-15-15:49:25,10.1.1.6,22,-0.060,-0.060,-0.060,0.000,0.000,0.000
1644940166716826880,2022-02-15-15:49:26,10.1.1.6,24,-0.060,-0.060,-0.060,0.000,0.000,0.000
1644940166875483904,2022-02-15-15:49:26,10.1.1.6,29,-0.090,-0.090,-0.090,0.000,0.000,0.000
1644940166958992128,2022-02-15-15:49:26,10.1.1.6,4,-0.090,-0.090,-0.090,0.000,0.000,0.000
1644940168916461824,2022-02-15-15:49:28,10.1.1.6,17,-0.090,-0.090,-0.090,0.000,0.000,0.000
1644940169015602176,2022-02-15-15:49:29,10.1.1.6,14,-0.090,-0.090,-0.090,0.000,0.000,0.000
1644940169596537088,2022-02-15-15:49:29,10.1.1.6,29,0.020,0.020,0.020,0.000,0.000,0.000
1644940170415836160,2022-02-15-15:49:30,10.1.1.6,25,0.020,0.020,0.020,0.000,0.000,0.000
1644940170896097792,2022-02-15-15:49:30,10.1.1.6,39,-0.070,-0.070,-0.070,0.000,0.000,0.000
1644940171175918080,2022-02-15-15:49:31,10.1.1.6,16,-0.070,-0.070,-0.070,0.000,0.000,0.000
1644940172895695872,2022-02-15-15:49:32,10.1.1.6,9,-0.070,-0.070,-0.070,0.000,0.000,0.000
1644940173219372032,2022-02-15-15:49:33,10.1.1.6,25,-0.070,-0.070,-0.070,0.000,0.000,0.000
1644940174975926016,2022-02-15-15:49:34,10.1.1.6,24,-0.070,-0.070,-0.070,0.000,0.000,0.000
1644940175276475904,2022-02-15-15:49:35,10.1.1.6,21,-0.070,-0.070,-0.070,0.000,0.000,0.000
1644940175395646976,2022-02-15-15:49:35,10.1.1.6,39,-0.050,-0.050,-0.050,0.000,0.000,0.000
1644940175796382976,2022-02-15-15:49:35,10.1.1.6,29,0.030,0.030,0.030,0.000,0.000,0.000
1644940176495892992,2022-02-15-15:49:36,10.1.1.6,15,0.030,0.030,0.030,0.000,0.000,0.000
1644940177515589888,2022-02-15-15:49:37,10.1.1.6,20,-0.030,-0.030,-0.030,0.000,0.000,0.000
1644940178835833088,2022-02-15-15:49:38,10.1.1.6,9,-0.030,-0.030,-0.030,0.000,0.000,0.000
1644940179555885056,2022-02-15-15:49:39,10.1.1.6,11,-0.030,-0.030,-0.030,0.000,0.000,0.000
1644940180895858176,2022-02-15-15:49:40,10.1.1.6,18,-0.030,-0.030,-0.030,0.000,0.000,0.000
1644940181615915008,2022-02-15-15:49:41,10.1.1.6,26,-0.030,-0.030,-0.030,0.000,0.000,0.000
1644940181917474048,2022-02-15-15:49:41,10.1.1.6,21,0.030,0.030,0.030,0.000,0.000,0.000
1644940182636643840,2022-02-15-15:49:42,10.1.1.6,22,0.030,0.030,0.030,0.000,0.000,0.000
1644940183976874240,2022-02-15-15:49:43,10.1.1.6,21,0.030,0.030,0.030,0.000,0.000,0.000
1644940184695269120,2022-02-15-15:49:44,10.1.1.6,26,0.030,0.030,0.030,0.000,0.000,0.000
1644940185655952896,2022-02-15-15:49:45,10.1.1.6,20,-0.040,-0.040,-0.040,0.000,0.000,0.000
1644940187075691008,2022-02-15-15:49:47,10.1.1.6,15,-0.040,-0.040,-0.040,0.000,0.000,0.000
1644940187697076992,2022-02-15-15:49:47,10.1.1.6,22,-0.040,-0.040,-0.040,0.000,0.000,0.000
1644940189115940096,2022-02-15-15:49:49,10.1.1.6,21,-0.040,-0.040,-0.040,0.000,0.000,0.000
1644940189715964928,2022-02-15-15:49:49,10.1.1.6,13,-0.040,-0.040,-0.040,0.000,0.000,0.000
1644940191135514880,2022-02-15-15:49:51,10.1.1.6,11,-0.040,-0.040,-0.040,0.000,0.000,0.000
1644940191756969984,2022-02-15-15:49:51,10.1.1.6,22,-0.040,-0.040,-0.040,0.000,0.000,0.000
1644940191958013184,2022-02-15-15:49:51,10.1.1.6,19,0.000,0.000,0.000,0.000,0.000,0.000
1644940192736058112,2022-02-15-15:49:52,10.1.1.6,39,0.050,0.050,0.050,0.000,0.000,0.000
1644940193476828928,2022-02-15-15:49:53,10.1.1.6,20,-0.100,-0.100,-0.100,0.000,0.000,0.000
1644940194135944960,2022-02-15-15:49:54,10.1.1.6,19,0.030,0.030,0.030,0.000,0.000,0.000
1644940194855482112,2022-02-15-15:49:54,10.1.1.6,14,0.030,0.030,0.030,0.000,0.000,0.000
1644940195375552000,2022-02-15-15:49:55,10.1.1.6,20,-0.070,-0.070,-0.070,0.000,0.000,0.000
1644940195675611136,2022-02-15-15:49:55,10.1.1.6,12,-0.070,-0.070,-0.070,0.000,0.000,0.000
1644940197416382976,2022-02-15-15:49:57,10.1.1.6,15,-0.070,-0.070,-0.070,0.000,0.000,0.000
1644940197716207104,2022-02-15-15:49:57,10.1.1.6,9,-0.070,-0.070,-0.070,0.000,0.000,0.000
1644940198395770112,2022-02-15-15:49:58,10.1.1.6,30,0.060,0.060,0.060,0.000,0.000,0.000
1644940198796820992,2022-02-15-15:49:58,10.1.1.6,23,0.060,0.060,0.060,0.000,0.000,0.000
1644940200415593984,2022-02-15-15:50:00,10.1.1.6,10,0.060,0.060,0.060,0.000,0.000,0.000
1644940200837424896,2022-02-15-15:50:00,10.1.1.6,24,0.060,0.060,0.060,0.000,0.000,0.000
1644940200938034176,2022-02-15-15:50:00,10.1.1.6,20,0.040,0.040,0.040,0.000,0.000,0.000
1644940202356750848,2022-02-15-15:50:02,10.1.1.6,6,0.040,0.040,0.040,0.000,0.000,0.000
1644940202996366080,2022-02-15-15:50:02,10.1.1.6,20,0.040,0.040,0.040,0.000,0.000,0.000
1644940204436311040,2022-02-15-15:50:04,10.1.1.6,25,0.040,0.040,0.040,0.000,0.000,0.000
1644940205056992000,2022-02-15-15:50:05,10.1.1.6,17,0.040,0.040,0.040,0.000,0.000,0.000
1644940206357116928,2022-02-15-15:50:06,10.1.1.6,29,0.010,0.010,0.010,0.000,0.000,0.000
1644940207276192000,2022-02-15-15:50:07,10.1.1.6,21,0.010,0.010,0.010,0.000,0.000,0.000
1644940207395662080,2022-02-15-15:50:07,10.1.1.6,38,-0.010,-0.010,-0.010,0.000,0.000,0.000
1644940208295953920,2022-02-15-15:50:08,10.1.1.6,14,-0.010,-0.010,-0.010,0.000,0.000,0.000
1644940208656987904,2022-02-15-15:50:08,10.1.1.6,20,0.060,0.060,0.060,0.000,0.000,0.000
1644940209055993088,2022-02-15-15:50:09,10.1.1.6,15,0.060,0.060,0.060,0.000,0.000,0.000
1644940210296148992,2022-02-15-15:50:10,10.1.1.6,20,-0.020,-0.020,-0.020,0.000,0.000,0.000
1644940211515374848,2022-02-15-15:50:11,10.1.1.6,15,-0.020,-0.020,-0.020,0.000,0.000,0.000
1644940211776606208,2022-02-15-15:50:11,10.1.1.6,21,-0.070,-0.070,-0.070,0.000,0.000,0.000
1644940212077004800,2022-02-15-15:50:12,10.1.1.6,15,-0.070,-0.070,-0.070,0.000,0.000,0.000
1644940213817256960,2022-02-15-15:50:13,10.1.1.6,22,-0.070,-0.070,-0.070,0.000,0.000,0.000
1644940214116471040,2022-02-15-15:50:14,10.1.1.6,17,-0.070,-0.070,-0.070,0.000,0.000,0.000
1644940214575473152,2022-02-15-15:50:14,10.1.1.6,19,0.020,0.020,0.020,0.000,0.000,0.000
1644940215376256000,2022-02-15-15:50:15,10.1.1.6,8,0.020,0.020,0.020,0.000,0.000,0.000
1644940216595931136,2022-02-15-15:50:16,10.1.1.6,14,0.020,0.020,0.020,0.000,0.000,0.000
1644940217416763136,2022-02-15-15:50:17,10.1.1.6,22,0.020,0.020,0.020,0.000,0.000,0.000
1644940218635286016,2022-02-15-15:50:18,10.1.1.6,17,0.020,0.020,0.020,0.000,0.000,0.000
1644940219435792896,2022-02-15-15:50:19,10.1.1.6,7,0.020,0.020,0.020,0.000,0.000,0.000
1644940220656019968,2022-02-15-15:50:20,10.1.1.6,11,0.020,0.020,0.020,0.000,0.000,0.000
1644940221475737088,2022-02-15-15:50:21,10.1.1.6,8,0.020,0.020,0.020,0.000,0.000,0.000
1644940222696352000,2022-02-15-15:50:22,10.1.1.6,6,0.020,0.020,0.020,0.000,0.000,0.000
1644940223535672832,2022-02-15-15:50:23,10.1.1.6,27,0.020,0.020,0.020,0.000,0.000,0.000
1644940224755432960,2022-02-15-15:50:24,10.1.1.6,18,0.020,0.020,0.020,0.000,0.000,0.000
1644940225275934976,2022-02-15-15:50:25,10.1.1.6,30,0.080,0.080,0.080,0.000,0.000,0.000
1644940227075918848,2022-02-15-15:50:27,10.1.1.6,7,0.080,0.080,0.080,0.000,0.000,0.000
1644940227295241984,2022-02-15-15:50:27,10.1.1.6,25,0.080,0.080,0.080,0.000,0.000,0.000
1644940228355798016,2022-02-15-15:50:28,10.1.1.6,22,-0.070,-0.070,-0.070,0.000,0.000,0.000
1644940230035836928,2022-02-15-15:50:30,10.1.1.6,30,-0.060,-0.060,-0.060,0.000,0.000,0.000
1644940230436038912,2022-02-15-15:50:30,10.1.1.6,26,-0.060,-0.060,-0.060,0.000,0.000,0.000
1644940231595575040,2022-02-15-15:50:31,10.1.1.6,20,0.030,0.030,0.030,0.000,0.000,0.000
1644940231656609024,2022-02-15-15:50:31,10.1.1.6,29,0.020,0.020,0.020,0.000,0.000,0.000
1644940232855747072,2022-02-15-15:50:32,10.1.1.6,12,0.020,0.020,0.020,0.000,0.000,0.000
1644940233676407040,2022-02-15-15:50:33,10.1.1.6,19,0.020,0.020,0.020,0.000,0.000,0.000
1644940234897679104,2022-02-15-15:50:34,10.1.1.6,24,0.020,0.020,0.020,0.000,0.000,0.000
1644940235695617792,2022-02-15-15:50:35,10.1.1.6,13,0.020,0.020,0.020,0.000,0.000,0.000
1644940236675597056,2022-02-15-15:50:36,10.1.1.6,29,-0.030,-0.030,-0.030,0.000,0.000,0.000
1644940237295681024,2022-02-15-15:50:37,10.1.1.6,29,0.090,0.090,0.090,0.000,0.000,0.000
1644940237377180160,2022-02-15-15:50:37,10.1.1.6,8,0.090,0.090,0.090,0.000,0.000,0.000
1644940237995245056,2022-02-15-15:50:37,10.1.1.6,20,-0.030,-0.030,-0.030,0.000,0.000,0.000
1644940238718045952,2022-02-15-15:50:38,10.1.1.6,15,-0.030,-0.030,-0.030,0.000,0.000,0.000
1644940240055921920,2022-02-15-15:50:40,10.1.1.6,25,-0.030,-0.030,-0.030,0.000,0.000,0.000
1644940240416038912,2022-02-15-15:50:40,10.1.1.6,29,-0.100,-0.100,-0.100,0.000,0.000,0.000
1644940241215770112,2022-02-15-15:50:41,10.1.1.6,20,0.060,0.060,0.060,0.000,0.000,0.000
1644940241615432960,2022-02-15-15:50:41,10.1.1.6,15,0.060,0.060,0.060,0.000,0.000,0.000
1644940241975688960,2022-02-15-15:50:41,10.1.1.6,20,-0.010,-0.010,-0.010,0.000,0.000,0.000
1644940242875463936,2022-02-15-15:50:42,10.1.1.6,10,-0.010,-0.010,-0.010,0.000,0.000,0.000
1644940243996167936,2022-02-15-15:50:43,10.1.1.6,15,-0.010,-0.010,-0.010,0.000,0.000,0.000
1644940244675908096,2022-02-15-15:50:44,10.1.1.6,20,-0.060,-0.060,-0.060,0.000,0.000,0.000
1644940245795761152,2022-02-15-15:50:45,10.1.1.6,20,0.040,0.040,0.040,0.000,0.000,0.000
1644940247215130112,2022-02-15-15:50:47,10.1.1.6,14,0.040,0.040,0.040,0.000,0.000,0.000
1644940247475424000,2022-02-15-15:50:47,10.1.1.6,20,0.090,0.090,0.090,0.000,0.000,0.000
1644940247576155904,2022-02-15-15:50:47,10.1.1.6,17,0.090,0.090,0.090,0.000,0.000,0.000
1644940248055517952,2022-02-15-15:50:48,10.1.1.6,39,0.000,0.000,0.000,0.000,0.000,0.000
1644940248555923968,2022-02-15-15:50:48,10.1.1.6,29,-0.100,-0.100,-0.100,0.000,0.000,0.000
1644940250596785920,2022-02-15-15:50:50,10.1.1.6,8,-0.100,-0.100,-0.100,0.000,0.000,0.000
1644940251735991040,2022-02-15-15:50:51,10.1.1.6,23,0.080,0.080,0.080,0.000,0.000,0.000
1644940253235783168,2022-02-15-15:50:53,10.1.1.6,39,0.010,0.010,0.010,0.000,0.000,0.000
1644940254136517888,2022-02-15-15:50:54,10.1.1.6,24,0.010,0.010,0.010,0.000,0.000,0.000
1644940255256092928,2022-02-15-15:50:55,10.1.1.6,7,0.010,0.010,0.010,0.000,0.000,0.000
1644940256175810048,2022-02-15-15:50:56,10.1.1.6,15,0.010,0.010,0.010,0.000,0.000,0.000
1644940256995513088,2022-02-15-15:50:56,10.1.1.6,20,-0.050,-0.050,-0.050,0.000,0.000,0.000
1644940257835791104,2022-02-15-15:50:57,10.1.1.6,39,0.090,0.090,0.090,0.000,0.000,0.000
1644940259758398976,2022-02-15-15:50:59,10.1.1.6,11,0.090,0.090,0.090,0.000,0.000,0.000
1644940259816644864,2022-02-15-15:50:59,10.1.1.6,20,0.100,0.100,0.100,0.000,0.000,0.000
1644940261855688192,2022-02-15-15:51:01,10.1.1.6,12,0.100,0.100,0.100,0.000,0.000,0.000
1644940263215634176,2022-02-15-15:51:03,10.1.1.6,39,-0.040,-0.040,-0.040,0.000,0.000,0.000
1644940263656264192,2022-02-15-15:51:03,10.1.1.6,19,0.050,0.050,0.050,0.000,0.000,0.000
1644940264157229056,2022-02-15-15:51:04,10.1.1.6,7,0.050,0.050,0.050,0.000,0.000,0.000
1644940265389182976,2022-02-15-15:51:05,10.1.1.6,39,-0.020,-0.020,-0.020,0.000,0.000,0.000
1644940266635821056,2022-02-15-15:51:06,10.1.1.6,24,-0.020,-0.020,-0.020,0.000,0.000,0.000
1644940266995526912,2022-02-15-15:51:06,10.1.1.6,30,-0.090,-0.090,-0.090,0.000,0.000,0.000
1644940267076164096,2022-02-15-15:51:07,10.1.1.6,8,-0.090,-0.090,-0.090,0.000,0.000,0.000
1644940268715523072,2022-02-15-15:51:08,10.1.1.6,29,-0.030,-0.030,-0.030,0.000,0.000,0.000
1644940269415653888,2022-02-15-15:51:09,10.1.1.6,19,-0.030,-0.030,-0.030,0.000,0.000,0.000
1644940270635538944,2022-02-15-15:51:10,10.1.1.6,19,-0.010,-0.010,-0.010,0.000,0.000,0.000
1644940271556111104,2022-02-15-15:51:11,10.1.1.6,24,-0.010,-0.010,-0.010,0.000,0.000,0.000
1644940271815545088,2022-02-15-15:51:11,10.1.1.6,29,0.040,0.040,0.040,0.000,0.000,0.000
1644940272417027072,2022-02-15-15:51:12,10.1.1.6,20,0.040,0.040,0.040,0.000,0.000,0.000
1644940273035209984,2022-02-15-15:51:13,10.1.1.6,29,-0.080,-0.080,-0.080,0.000,0.000,0.000
1644940273237057024,2022-02-15-15:51:13,10.1.1.6,25,-0.080,-0.080,-0.080,0.000,0.000,0.000
1644940273655625984,2022-02-15-15:51:13,10.1.1.6,38,0.000,0.000,0.000,0.000,0.000,0.000
1644940274555932928,2022-02-15-15:51:14,10.1.1.6,19,0.020,0.020,0.020,0.000,0.000,0.000
1644940275775865088,2022-02-15-15:51:15,10.1.1.6,12,0.020,0.020,0.020,0.000,0.000,0.000
1644940276595896832,2022-02-15-15:51:16,10.1.1.6,14,0.020,0.020,0.020,0.000,0.000,0.000
1644940276855823104,2022-02-15-15:51:16,10.1.1.6,20,-0.030,-0.030,-0.030,0.000,0.000,0.000
1644940277415900928,2022-02-15-15:51:17,10.1.1.6,19,-0.060,-0.060,-0.060,0.000,0.000,0.000
1644940277995749120,2022-02-15-15:51:17,10.1.1.6,39,0.050,0.050,0.050,0.000,0.000,0.000
1644940278475575808,2022-02-15-15:51:18,10.1.1.6,10,0.050,0.050,0.050,0.000,0.000,0.000
1644940278555468032,2022-02-15-15:51:18,10.1.1.6,39,0.040,0.040,0.040,0.000,0.000,0.000
1644940279015666944,2022-02-15-15:51:19,10.1.1.6,39,-0.050,-0.050,-0.050,0.000,0.000,0.000
1644940279055681024,2022-02-15-15:51:19,10.1.1.6,29,-0.060,-0.060,-0.060,0.000,0.000,0.000
1644940279455270144,2022-02-15-15:51:19,10.1.1.6,25,-0.060,-0.060,-0.060,0.000,0.000,0.000
1644940279915277056,2022-02-15-15:51:19,10.1.1.6,29,0.030,0.030,0.030,0.000,0.000,0.000
1644940280616118784,2022-02-15-15:51:20,10.1.1.6,22,0.030,0.030,0.030,0.000,0.000,0.000
1644940280815341056,2022-02-15-15:51:20,10.1.1.6,20,-0.010,-0.010,-0.010,0.000,0.000,0.000
1644940280876579072,2022-02-15-15:51:20,10.1.1.6,29,-0.020,-0.020,-0.020,0.000,0.000,0.000
1644940281675697152,2022-02-15-15:51:21,10.1.1.6,21,-0.020,-0.020,-0.020,0.000,0.000,0.000
1644940282735575808,2022-02-15-15:51:22,10.1.1.6,20,0.010,0.010,0.010,0.000,0.000,0.000
1644940282855606016,2022-02-15-15:51:22,10.1.1.6,39,-0.010,-0.010,-0.010,0.000,0.000,0.000
1644940283314873856,2022-02-15-15:51:23,10.1.1.6,39,-0.100,-0.100,-0.100,0.000,0.000,0.000
1644940284155987968,2022-02-15-15:51:24,10.1.1.6,20,0.070,0.070,0.070,0.000,0.000,0.000
1644940284455377152,2022-02-15-15:51:24,10.1.1.6,16,0.070,0.070,0.070,0.000,0.000,0.000
1644940285115376896,2022-02-15-15:51:25,10.1.1.6,20,-0.060,-0.060,-0.060,0.000,0.000,0.000
1644940285515873792,2022-02-15-15:51:25,10.1.1.6,14,-0.060,-0.060,-0.060,0.000,0.000,0.000
1644940285935159808,2022-02-15-15:51:25,10.1.1.6,29,0.020,0.020,0.020,0.000,0.000,0.000
1644940286635467008,2022-02-15-15:51:26,10.1.1.6,20,0.040,0.040,0.040,0.000,0.000,0.000
1644940287495723008,2022-02-15-15:51:27,10.1.1.6,20,-0.070,-0.070,-0.070,0.000,0.000,0.000
1644940288156011008,2022-02-15-15:51:28,10.1.1.6,20,0.060,0.060,0.060,0.000,0.000,0.000
1644940288555854080,2022-02-15-15:51:28,10.1.1.6,15,0.060,0.060,0.060,0.000,0.000,0.000
1644940289675860992,2022-02-15-15:51:29,10.1.1.6,20,-0.040,-0.040,-0.040,0.000,0.000,0.000
1644940290536591104,2022-02-15-15:51:30,10.1.1.6,20,0.070,0.070,0.070,0.000,0.000,0.000
1644940291415648000,2022-02-15-15:51:31,10.1.1.6,39,-0.100,-0.100,-0.100,0.000,0.000,0.000
1644940292256192000,2022-02-15-15:51:32,10.1.1.6,20,0.070,0.070,0.070,0.000,0.000,0.000
1644940292556111104,2022-02-15-15:51:32,10.1.1.6,15,0.070,0.070,0.070,0.000,0.000,0.000
1644940294295432960,2022-02-15-15:51:34,10.1.1.6,24,0.070,0.070,0.070,0.000,0.000,0.000
1644940294595756032,2022-02-15-15:51:34,10.1.1.6,16,0.070,0.070,0.070,0.000,0.000,0.000
1644940296315624960,2022-02-15-15:51:36,10.1.1.6,9,0.070,0.070,0.070,0.000,0.000,0.000
1644940296635456000,2022-02-15-15:51:36,10.1.1.6,25,0.070,0.070,0.070,0.000,0.000,0.000
1644940297875660032,2022-02-15-15:51:37,10.1.1.6,40,-0.030,-0.030,-0.030,0.000,0.000,0.000
1644940298535480064,2022-02-15-15:51:38,10.1.1.6,19,0.100,0.100,0.100,0.000,0.000,0.000
1644940300615865856,2022-02-15-15:51:40,10.1.1.6,22,0.100,0.100,0.100,0.000,0.000,0.000
1644940301895510784,2022-02-15-15:51:41,10.1.1.6,19,-0.050,-0.050,-0.050,0.000,0.000,0.000
1644940303416491008,2022-02-15-15:51:43,10.1.1.6,10,-0.050,-0.050,-0.050,0.000,0.000,0.000
1644940303936083968,2022-02-15-15:51:43,10.1.1.6,22,-0.050,-0.050,-0.050,0.000,0.000,0.000
1644940305455307008,2022-02-15-15:51:45,10.1.1.6,13,-0.050,-0.050,-0.050,0.000,0.000,0.000
1644940305615424000,2022-02-15-15:51:45,10.1.1.6,20,-0.080,-0.080,-0.080,0.000,0.000,0.000
1644940305817748992,2022-02-15-15:51:45,10.1.1.6,17,-0.080,-0.080,-0.080,0.000,0.000,0.000
1644940307216423936,2022-02-15-15:51:47,10.1.1.6,20,0.010,0.010,0.010,0.000,0.000,0.000
1644940308335287040,2022-02-15-15:51:48,10.1.1.6,25,0.010,0.010,0.010,0.000,0.000,0.000
1644940309256155136,2022-02-15-15:51:49,10.1.1.6,23,0.010,0.010,0.010,0.000,0.000,0.000
1644940310376307968,2022-02-15-15:51:50,10.1.1.6,12,0.010,0.010,0.010,0.000,0.000,0.000
1644940310855941888,2022-02-15-15:51:50,10.1.1.6,20,0.100,0.100,0.100,0.000,0.000,0.000
1644940311375552768,2022-02-15-15:51:51,10.1.1.6,29,0.000,0.000,0.000,0.000,0.000,0.000
1644940312375403776,2022-02-15-15:51:52,10.1.1.6,13,0.000,0.000,0.000,0.000,0.000,0.000
1644940313395632896,2022-02-15-15:51:53,10.1.1.6,16,0.000,0.000,0.000,0.000,0.000,0.000
1644940313755899904,2022-02-15-15:51:53,10.1.1.6,19,-0.070,-0.070,-0.070,0.000,0.000,0.000
1644940314055657984,2022-02-15-15:51:54,10.1.1.6,13,-0.070,-0.070,-0.070,0.000,0.000,0.000
1644940314217253888,2022-02-15-15:51:54,10.1.1.6,21,-0.040,-0.040,-0.040,0.000,0.000,0.000
1644940315636873984,2022-02-15-15:51:55,10.1.1.6,14,-0.040,-0.040,-0.040,0.000,0.000,0.000
1644940315816188160,2022-02-15-15:51:55,10.1.1.6,38,-0.070,-0.070,-0.070,0.000,0.000,0.000
1644940316095792896,2022-02-15-15:51:56,10.1.1.6,13,-0.070,-0.070,-0.070,0.000,0.000,0.000
1644940316255897088,2022-02-15-15:51:56,10.1.1.6,19,-0.040,-0.040,-0.040,0.000,0.000,0.000
1644940316715630080,2022-02-15-15:51:56,10.1.1.6,19,0.050,0.050,0.050,0.000,0.000,0.000
1644940317175340032,2022-02-15-15:51:57,10.1.1.6,19,0.060,0.060,0.060,0.000,0.000,0.000
1644940317755251968,2022-02-15-15:51:57,10.1.1.6,39,-0.050,-0.050,-0.050,0.000,0.000,0.000
1644940318235915776,2022-02-15-15:51:58,10.1.1.6,7,-0.050,-0.050,-0.050,0.000,0.000,0.000
1644940319775549952,2022-02-15-15:51:59,10.1.1.6,20,-0.050,-0.050,-0.050,0.000,0.000,0.000
1644940320275006976,2022-02-15-15:52:00,10.1.1.6,11,-0.050,-0.050,-0.050,0.000,0.000,0.000
1644940320495520000,2022-02-15-15:52:00,10.1.1.6,29,-0.010,-0.010,-0.010,0.000,0.000,0.000
1644940321615478016,2022-02-15-15:52:01,10.1.1.6,25,-0.010,-0.010,-0.010,0.000,0.000,0.000
1644940322515651840,2022-02-15-15:52:02,10.1.1.6,9,-0.010,-0.010,-0.010,0.000,0.000,0.000
1644940323638201856,2022-02-15-15:52:03,10.1.1.6,12,-0.010,-0.010,-0.010,0.000,0.000,0.000
1644940323915070976,2022-02-15-15:52:03,10.1.1.6,39,-0.060,-0.060,-0.060,0.000,0.000,0.000
1644940324295579904,2022-02-15-15:52:04,10.1.1.6,15,-0.060,-0.060,-0.060,0.000,0.000,0.000
1644940325916593152,2022-02-15-15:52:05,10.1.1.6,15,-0.060,-0.060,-0.060,0.000,0.000,0.000
1644940326316788992,2022-02-15-15:52:06,10.1.1.6,9,-0.060,-0.060,-0.060,0.000,0.000,0.000
1644940327976902912,2022-02-15-15:52:07,10.1.1.6,21,-0.060,-0.060,-0.060,0.000,0.000,0.000
1644940328195077888,2022-02-15-15:52:08,10.1.1.6,39,-0.100,-0.100,-0.100,0.000,0.000,0.000
1644940330197201920,2022-02-15-15:52:10,10.1.1.6,6,-0.100,-0.100,-0.100,0.000,0.000,0.000
1644940332258599936,2022-02-15-15:52:12,10.1.1.6,12,-0.100,-0.100,-0.100,0.000,0.000,0.000
1644940334316664832,2022-02-15-15:52:14,10.1.1.6,22,-0.100,-0.100,-0.100,0.000,0.000,0.000
1644940336357307904,2022-02-15-15:52:16,10.1.1.6,19,-0.100,-0.100,-0.100,0.000,0.000,0.000
1644940337475692032,2022-02-15-15:52:17,10.1.1.6,20,0.080,0.080,0.080,0.000,0.000,0.000
1644940339296525056,2022-02-15-15:52:19,10.1.1.6,6,0.080,0.080,0.080,0.000,0.000,0.000
1644940339515762176,2022-02-15-15:52:19,10.1.1.6,24,0.080,0.080,0.080,0.000,0.000,0.000
1644940340735426816,2022-02-15-15:52:20,10.1.1.6,19,-0.040,-0.040,-0.040,0.000,0.000,0.000
1644940342156882944,2022-02-15-15:52:22,10.1.1.6,16,-0.040,-0.040,-0.040,0.000,0.000,0.000
1644940342776014080,2022-02-15-15:52:22,10.1.1.6,25,-0.040,-0.040,-0.040,0.000,0.000,0.000
1644940344195513856,2022-02-15-15:52:24,10.1.1.6,23,-0.040,-0.040,-0.040,0.000,0.000,0.000
1644940344796211968,2022-02-15-15:52:24,10.1.1.6,12,-0.040,-0.040,-0.040,0.000,0.000,0.000
1644940346235629056,2022-02-15-15:52:26,10.1.1.6,12,-0.040,-0.040,-0.040,0.000,0.000,0.000
1644940346855657984,2022-02-15-15:52:26,10.1.1.6,14,-0.040,-0.040,-0.040,0.000,0.000,0.000
1644940347235774976,2022-02-15-15:52:27,10.1.1.6,39,0.030,0.030,0.030,0.000,0.000,0.000
1644940347915875072,2022-02-15-15:52:27,10.1.1.6,12,0.030,0.030,0.030,0.000,0.000,0.000
1644940349255424000,2022-02-15-15:52:29,10.1.1.6,23,0.030,0.030,0.030,0.000,0.000,0.000
1644940349956048896,2022-02-15-15:52:29,10.1.1.6,11,0.030,0.030,0.030,0.000,0.000,0.000
1644940351297882112,2022-02-15-15:52:31,10.1.1.6,25,0.030,0.030,0.030,0.000,0.000,0.000
1644940352017158144,2022-02-15-15:52:32,10.1.1.6,24,0.030,0.030,0.030,0.000,0.000,0.000
1644940353335717888,2022-02-15-15:52:33,10.1.1.6,12,0.030,0.030,0.030,0.000,0.000,0.000
1644940354056432128,2022-02-15-15:52:34,10.1.1.6,17,0.030,0.030,0.030,0.000,0.000,0.000
1644940355375580160,2022-02-15-15:52:35,10.1.1.6,16,0.030,0.030,0.030,0.000,0.000,0.000
1644940356094916096,2022-02-15-15:52:36,10.1.1.6,22,0.030,0.030,0.030,0.000,0.000,0.000
1644940357415031808,2022-02-15-15:52:37,10.1.1.6,16,0.030,0.030,0.030,0.000,0.000,0.000
1644940358135556864,2022-02-15-15:52:38,10.1.1.6,17,0.030,0.030,0.030,0.000,0.000,0.000
1644940359456263168,2022-02-15-15:52:39,10.1.1.6,7,0.030,0.030,0.030,0.000,0.000,0.000
1644940360176439040,2022-02-15-15:52:40,10.1.1.6,10,0.030,0.030,0.030,0.000,0.000,0.000
1644940361515319040,2022-02-15-15:52:41,10.1.1.6,15,0.030,0.030,0.030,0.000,0.000,0.000
1644940362235863040,2022-02-15-15:52:42,10.1.1.6,19,0.030,0.030,0.030,0.000,0.000,0.000
1644940363556200960,2022-02-15-15:52:43,10.1.1.6,16,0.030,0.030,0.030,0.000,0.000,0.000
1644940364276037888,2022-02-15-15:52:44,10.1.1.6,21,0.030,0.030,0.030,0.000,0.000,0.000
1644940365595360000,2022-02-15-15:52:45,10.1.1.6,15,0.030,0.030,0.030,0.000,0.000,0.000
1644940366315707904,2022-02-15-15:52:46,10.1.1.6,15,0.030,0.030,0.030,0.000,0.000,0.000
1644940367635620096,2022-02-15-15:52:47,10.1.1.6,9,0.030,0.030,0.030,0.000,0.000,0.000
1644940368355265024,2022-02-15-15:52:48,10.1.1.6,15,0.030,0.030,0.030,0.000,0.000,0.000
1644940368615181824,2022-02-15-15:52:48,10.1.1.6,20,-0.020,-0.020,-0.020,0.000,0.000,0.000
1644940369435488000,2022-02-15-15:52:49,10.1.1.6,25,-0.020,-0.020,-0.020,0.000,0.000,0.000
1644940370655081984,2022-02-15-15:52:50,10.1.1.6,25,-0.020,-0.020,-0.020,0.000,0.000,0.000
1644940371155689984,2022-02-15-15:52:51,10.1.1.6,19,-0.080,-0.080,-0.080,0.000,0.000,0.000
1644940372975588096,2022-02-15-15:52:52,10.1.1.6,19,-0.080,-0.080,-0.080,0.000,0.000,0.000
1644940373176121088,2022-02-15-15:52:53,10.1.1.6,17,-0.080,-0.080,-0.080,0.000,0.000,0.000
1644940373335834112,2022-02-15-15:52:53,10.1.1.6,24,-0.050,-0.050,-0.050,0.000,0.000,0.000
1644940374855916032,2022-02-15-15:52:54,10.1.1.6,10,-0.050,-0.050,-0.050,0.000,0.000,0.000
1644940375375427072,2022-02-15-15:52:55,10.1.1.6,13,-0.050,-0.050,-0.050,0.000,0.000,0.000
1644940376915257856,2022-02-15-15:52:56,10.1.1.6,20,-0.050,-0.050,-0.050,0.000,0.000,0.000
1644940377416013056,2022-02-15-15:52:57,10.1.1.6,11,-0.050,-0.050,-0.050,0.000,0.000,0.000
1644940378935230976,2022-02-15-15:52:58,10.1.1.6,10,-0.050,-0.050,-0.050,0.000,0.000,0.000
1644940379455954176,2022-02-15-15:52:59,10.1.1.6,24,-0.050,-0.050,-0.050,0.000,0.000,0.000
1644940380976285952,2022-02-15-15:53:00,10.1.1.6,20,-0.050,-0.050,-0.050,0.000,0.000,0.000
1644940381475728128,2022-02-15-15:53:01,10.1.1.6,15,-0.050,-0.050,-0.050,0.000,0.000,0.000
1644940382995016960,2022-02-15-15:53:02,10.1.1.6,13,-0.050,-0.050,-0.050,0.000,0.000,0.000
1644940383496089088,2022-02-15-15:53:03,10.1.1.6,7,-0.050,-0.050,-0.050,0.000,0.000,0.000
1644940384775830016,2022-02-15-15:53:04,10.1.1.6,22,0.000,0.000,0.000,0.000,0.000,0.000
1644940385595822080,2022-02-15-15:53:05,10.1.1.6,30,-0.040,-0.040,-0.040,0.000,0.000,0.000
1644940387015033088,2022-02-15-15:53:07,10.1.1.6,25,-0.040,-0.040,-0.040,0.000,0.000,0.000
1644940387615164160,2022-02-15-15:53:07,10.1.1.6,13,-0.040,-0.040,-0.040,0.000,0.000,0.000
1644940387835186944,2022-02-15-15:53:07,10.1.1.6,30,0.000,0.000,0.000,0.000,0.000,0.000
1644940388855091200,2022-02-15-15:53:08,10.1.1.6,26,0.000,0.000,0.000,0.000,0.000,0.000
1644940389878628864,2022-02-15-15:53:09,10.1.1.6,25,0.000,0.000,0.000,0.000,0.000,0.000
1644940390896774912,2022-02-15-15:53:10,10.1.1.6,24,0.000,0.000,0.000,0.000,0.000,0.000
1644940391815584000,2022-02-15-15:53:11,10.1.1.6,20,-0.020,-0.020,-0.020,0.000,0.000,0.000
1644940393035484160,2022-02-15-15:53:13,10.1.1.6,22,-0.020,-0.020,-0.020,0.000,0.000,0.000
1644940393835130880,2022-02-15-15:53:13,10.1.1.6,12,-0.020,-0.020,-0.020,0.000,0.000,0.000
