FedericoMungari/DigitalTwin_service/01_WiredScenario/Output/Output_script/script_rosapi_2_output_robots6_freq0_5.txt
timestamp,date,node,latency,joint_1,joint_2,joint_3,joint_4,joint_5,joint_6
1644347636237634048,2022-02-08-19:13:56,10.1.1.6,12,-0.100,-0.100,-0.100,-0.000,0.000,-0.000
1644347636359132928,2022-02-08-19:13:56,10.1.1.6,30,-0.090,-0.090,-0.090,0.000,0.000,0.000
1644347636457457920,2022-02-08-19:13:56,10.1.1.6,29,-0.080,-0.080,-0.080,0.000,0.000,0.000
1644347636558861056,2022-02-08-19:13:56,10.1.1.6,26,-0.070,-0.070,-0.070,0.000,0.000,0.000
1644347636657804032,2022-02-08-19:13:56,10.1.1.6,24,-0.060,-0.060,-0.060,0.000,0.000,0.000
1644347636757968896,2022-02-08-19:13:56,10.1.1.6,24,-0.050,-0.050,-0.050,0.000,0.000,0.000
1644347636857233920,2022-02-08-19:13:56,10.1.1.6,23,-0.040,-0.040,-0.040,0.000,0.000,0.000
1644347636957377792,2022-02-08-19:13:56,10.1.1.6,23,-0.030,-0.030,-0.030,0.000,0.000,0.000
1644347637058056192,2022-02-08-19:13:57,10.1.1.6,22,-0.020,-0.020,-0.020,0.000,0.000,0.000
1644347637157592064,2022-02-08-19:13:57,10.1.1.6,22,-0.010,-0.010,-0.010,0.000,0.000,0.000
1644347637258264064,2022-02-08-19:13:57,10.1.1.6,21,0.000,0.000,0.000,0.000,0.000,0.000
1644347637357969152,2022-02-08-19:13:57,10.1.1.6,20,0.010,0.010,0.010,0.000,0.000,0.000
1644347637457654016,2022-02-08-19:13:57,10.1.1.6,19,0.020,0.020,0.020,0.000,0.000,0.000
1644347637577513984,2022-02-08-19:13:57,10.1.1.6,38,0.030,0.030,0.030,0.000,0.000,0.000
1644347637677780992,2022-02-08-19:13:57,10.1.1.6,38,0.040,0.040,0.040,0.000,0.000,0.000
1644347637777832960,2022-02-08-19:13:57,10.1.1.6,37,0.050,0.050,0.050,0.000,0.000,0.000
1644347637877613056,2022-02-08-19:13:57,10.1.1.6,36,0.060,0.060,0.060,0.000,0.000,0.000
1644347637979474944,2022-02-08-19:13:57,10.1.1.6,35,0.070,0.070,0.070,0.000,0.000,0.000
1644347638077609984,2022-02-08-19:13:58,10.1.1.6,35,0.080,0.080,0.080,0.000,0.000,0.000
1644347638177297152,2022-02-08-19:13:58,10.1.1.6,34,0.090,0.090,0.090,0.000,0.000,0.000
1644347638277622016,2022-02-08-19:13:58,10.1.1.6,33,0.100,0.100,0.100,0.000,0.000,0.000
1644347638378124032,2022-02-08-19:13:58,10.1.1.6,33,0.090,0.090,0.090,0.000,0.000,0.000
1644347638477974784,2022-02-08-19:13:58,10.1.1.6,32,0.080,0.080,0.080,0.000,0.000,0.000
1644347638578334208,2022-02-08-19:13:58,10.1.1.6,31,0.070,0.070,0.070,0.000,0.000,0.000
1644347638677489152,2022-02-08-19:13:58,10.1.1.6,30,0.060,0.060,0.060,0.000,0.000,0.000
1644347638777619968,2022-02-08-19:13:58,10.1.1.6,29,0.050,0.050,0.050,0.000,0.000,0.000
1644347638877726976,2022-02-08-19:13:58,10.1.1.6,29,0.040,0.040,0.040,0.000,0.000,0.000
1644347638977361920,2022-02-08-19:13:58,10.1.1.6,28,0.030,0.030,0.030,0.000,0.000,0.000
1644347639077297920,2022-02-08-19:13:59,10.1.1.6,27,0.020,0.020,0.020,0.000,0.000,0.000
1644347639177638144,2022-02-08-19:13:59,10.1.1.6,26,0.010,0.010,0.010,0.000,0.000,0.000
1644347639278314240,2022-02-08-19:13:59,10.1.1.6,25,0.000,0.000,0.000,0.000,0.000,0.000
1644347639377692928,2022-02-08-19:13:59,10.1.1.6,24,-0.010,-0.010,-0.010,0.000,0.000,0.000
1644347639477709056,2022-02-08-19:13:59,10.1.1.6,23,-0.020,-0.020,-0.020,0.000,0.000,0.000
1644347639577945088,2022-02-08-19:13:59,10.1.1.6,22,-0.030,-0.030,-0.030,0.000,0.000,0.000
1644347639677534208,2022-02-08-19:13:59,10.1.1.6,22,-0.040,-0.040,-0.040,0.000,0.000,0.000
1644347639777910016,2022-02-08-19:13:59,10.1.1.6,21,-0.050,-0.050,-0.050,0.000,0.000,0.000
1644347639877779968,2022-02-08-19:13:59,10.1.1.6,20,-0.060,-0.060,-0.060,0.000,0.000,0.000
1644347639977778944,2022-02-08-19:13:59,10.1.1.6,20,-0.070,-0.070,-0.070,0.000,0.000,0.000
1644347640079432960,2022-02-08-19:14:00,10.1.1.6,19,-0.079,-0.079,-0.079,0.000,0.000,0.000
1644347640197776128,2022-02-08-19:14:00,10.1.1.6,38,-0.090,-0.090,-0.090,0.000,0.000,0.000
1644347640297106944,2022-02-08-19:14:00,10.1.1.6,37,-0.100,-0.100,-0.100,0.000,0.000,0.000
1644347640397465088,2022-02-08-19:14:00,10.1.1.6,36,-0.090,-0.090,-0.090,0.000,0.000,0.000
1644347640497936128,2022-02-08-19:14:00,10.1.1.6,35,-0.080,-0.080,-0.080,0.000,0.000,0.000
1644347640597949952,2022-02-08-19:14:00,10.1.1.6,34,-0.070,-0.070,-0.070,0.000,0.000,0.000
1644347640698603008,2022-02-08-19:14:00,10.1.1.6,34,-0.060,-0.060,-0.060,0.000,0.000,0.000
1644347640797437952,2022-02-08-19:14:00,10.1.1.6,33,-0.050,-0.050,-0.050,0.000,0.000,0.000
1644347640897830912,2022-02-08-19:14:00,10.1.1.6,32,-0.040,-0.040,-0.040,0.000,0.000,0.000
1644347640997873920,2022-02-08-19:14:00,10.1.1.6,31,-0.030,-0.030,-0.030,0.000,0.000,0.000
1644347641097230848,2022-02-08-19:14:01,10.1.1.6,31,-0.020,-0.020,-0.020,0.000,0.000,0.000
1644347641197285888,2022-02-08-19:14:01,10.1.1.6,30,-0.010,-0.010,-0.010,0.000,0.000,0.000
1644347641297737984,2022-02-08-19:14:01,10.1.1.6,29,0.000,0.000,0.000,0.000,0.000,0.000
1644347641397886976,2022-02-08-19:14:01,10.1.1.6,28,0.010,0.010,0.010,0.000,0.000,0.000
1644347641498644992,2022-02-08-19:14:01,10.1.1.6,28,0.020,0.020,0.020,0.000,0.000,0.000
1644347641597736960,2022-02-08-19:14:01,10.1.1.6,26,0.030,0.030,0.030,0.000,0.000,0.000
1644347641698159104,2022-02-08-19:14:01,10.1.1.6,25,0.040,0.040,0.040,0.000,0.000,0.000
1644347641797585920,2022-02-08-19:14:01,10.1.1.6,24,0.050,0.050,0.050,0.000,0.000,0.000
1644347641898125824,2022-02-08-19:14:01,10.1.1.6,23,0.060,0.060,0.060,0.000,0.000,0.000
1644347641997916928,2022-02-08-19:14:01,10.1.1.6,22,0.070,0.070,0.070,0.000,0.000,0.000
1644347642097893120,2022-02-08-19:14:02,10.1.1.6,22,0.080,0.080,0.080,0.000,0.000,0.000
1644347642198412800,2022-02-08-19:14:02,10.1.1.6,21,0.090,0.090,0.090,0.000,0.000,0.000
1644347642297907200,2022-02-08-19:14:02,10.1.1.6,21,0.100,0.100,0.100,0.000,0.000,0.000
1644347642398219008,2022-02-08-19:14:02,10.1.1.6,20,0.090,0.090,0.090,0.000,0.000,0.000
1644347642498035968,2022-02-08-19:14:02,10.1.1.6,19,0.081,0.081,0.081,0.000,0.000,0.000
1644347642617690112,2022-02-08-19:14:02,10.1.1.6,38,0.070,0.070,0.070,0.000,0.000,0.000
1644347642718365952,2022-02-08-19:14:02,10.1.1.6,37,0.060,0.060,0.060,0.000,0.000,0.000
1644347642817508864,2022-02-08-19:14:02,10.1.1.6,36,0.050,0.050,0.050,0.000,0.000,0.000
1644347642918157056,2022-02-08-19:14:02,10.1.1.6,35,0.040,0.040,0.040,0.000,0.000,0.000
1644347643018223104,2022-02-08-19:14:03,10.1.1.6,34,0.030,0.030,0.030,0.000,0.000,0.000
1644347643118930176,2022-02-08-19:14:03,10.1.1.6,33,0.020,0.020,0.020,0.000,0.000,0.000
1644347643218206976,2022-02-08-19:14:03,10.1.1.6,33,0.010,0.010,0.010,0.000,0.000,0.000
1644347643317606912,2022-02-08-19:14:03,10.1.1.6,32,0.000,0.000,0.000,0.000,0.000,0.000
1644347643418471168,2022-02-08-19:14:03,10.1.1.6,32,-0.010,-0.010,-0.010,0.000,0.000,0.000
1644347643518913024,2022-02-08-19:14:03,10.1.1.6,31,-0.020,-0.020,-0.020,0.000,0.000,0.000
1644347643617793024,2022-02-08-19:14:03,10.1.1.6,30,-0.030,-0.030,-0.030,0.000,0.000,0.000
1644347643717492224,2022-02-08-19:14:03,10.1.1.6,30,-0.040,-0.040,-0.040,0.000,0.000,0.000
1644347643817575936,2022-02-08-19:14:03,10.1.1.6,29,-0.050,-0.050,-0.050,0.000,0.000,0.000
1644347643918603008,2022-02-08-19:14:03,10.1.1.6,28,-0.060,-0.060,-0.060,0.000,0.000,0.000
1644347644017822976,2022-02-08-19:14:04,10.1.1.6,26,-0.070,-0.070,-0.070,0.000,0.000,0.000
1644347644118371072,2022-02-08-19:14:04,10.1.1.6,25,-0.080,-0.080,-0.080,0.000,0.000,0.000
1644347644218007040,2022-02-08-19:14:04,10.1.1.6,24,-0.090,-0.090,-0.090,0.000,0.000,0.000
1644347644318017024,2022-02-08-19:14:04,10.1.1.6,24,-0.100,-0.100,-0.100,0.000,0.000,0.000
1644347644417957120,2022-02-08-19:14:04,10.1.1.6,23,-0.090,-0.090,-0.090,0.000,0.000,0.000
1644347644518093056,2022-02-08-19:14:04,10.1.1.6,22,-0.080,-0.080,-0.080,0.000,0.000,0.000
1644347644617703936,2022-02-08-19:14:04,10.1.1.6,21,-0.070,-0.070,-0.070,0.000,0.000,0.000
1644347644717928960,2022-02-08-19:14:04,10.1.1.6,20,-0.060,-0.060,-0.060,0.000,0.000,0.000
1644347644817719040,2022-02-08-19:14:04,10.1.1.6,19,-0.050,-0.050,-0.050,0.000,0.000,0.000
1644347644918010880,2022-02-08-19:14:04,10.1.1.6,18,-0.041,-0.041,-0.041,0.000,0.000,0.000
1644347645038213120,2022-02-08-19:14:05,10.1.1.6,38,-0.030,-0.030,-0.030,0.000,0.000,0.000
1644347645146276864,2022-02-08-19:14:05,10.1.1.6,36,-0.020,-0.020,-0.020,0.000,0.000,0.000
1644347645238061056,2022-02-08-19:14:05,10.1.1.6,33,-0.010,-0.010,-0.010,0.000,0.000,0.000
1644347645337975040,2022-02-08-19:14:05,10.1.1.6,31,0.000,0.000,0.000,0.000,0.000,0.000
1644347645437879040,2022-02-08-19:14:05,10.1.1.6,29,0.010,0.010,0.010,0.000,0.000,0.000
1644347645537953024,2022-02-08-19:14:05,10.1.1.6,28,0.020,0.020,0.020,0.000,0.000,0.000
1644347645638499072,2022-02-08-19:14:05,10.1.1.6,26,0.030,0.030,0.030,0.000,0.000,0.000
1644347645739387904,2022-02-08-19:14:05,10.1.1.6,26,0.040,0.040,0.040,0.000,0.000,0.000
1644347645837763072,2022-02-08-19:14:05,10.1.1.6,22,0.050,0.050,0.050,0.000,0.000,0.000
1644347645937627136,2022-02-08-19:14:05,10.1.1.6,21,0.060,0.060,0.060,0.000,0.000,0.000
1644347646038363904,2022-02-08-19:14:06,10.1.1.6,21,0.070,0.070,0.070,0.000,0.000,0.000
1644347646138052864,2022-02-08-19:14:06,10.1.1.6,20,0.080,0.080,0.080,0.000,0.000,0.000
1644347646237643008,2022-02-08-19:14:06,10.1.1.6,19,0.090,0.090,0.090,0.000,0.000,0.000
1644347646357901056,2022-02-08-19:14:06,10.1.1.6,37,0.100,0.100,0.100,0.000,0.000,0.000
1644347646457729024,2022-02-08-19:14:06,10.1.1.6,36,0.090,0.090,0.090,0.000,0.000,0.000
1644347646557224960,2022-02-08-19:14:06,10.1.1.6,35,0.080,0.080,0.080,0.000,0.000,0.000
1644347646657267968,2022-02-08-19:14:06,10.1.1.6,35,0.070,0.070,0.070,0.000,0.000,0.000
1644347646759134976,2022-02-08-19:14:06,10.1.1.6,34,0.060,0.060,0.060,0.000,0.000,0.000
1644347646857314048,2022-02-08-19:14:06,10.1.1.6,33,0.050,0.050,0.050,0.000,0.000,0.000
1644347646957742848,2022-02-08-19:14:06,10.1.1.6,32,0.040,0.040,0.040,0.000,0.000,0.000
1644347647057928960,2022-02-08-19:14:07,10.1.1.6,31,0.030,0.030,0.030,0.000,0.000,0.000
1644347647158201088,2022-02-08-19:14:07,10.1.1.6,30,0.020,0.020,0.020,0.000,0.000,0.000
1644347647257958912,2022-02-08-19:14:07,10.1.1.6,29,0.010,0.010,0.010,0.000,0.000,0.000
1644347647358418944,2022-02-08-19:14:07,10.1.1.6,26,0.000,0.000,0.000,0.000,0.000,0.000
1644347647457672192,2022-02-08-19:14:07,10.1.1.6,24,-0.010,-0.010,-0.010,0.000,0.000,0.000
1644347647557768192,2022-02-08-19:14:07,10.1.1.6,24,-0.020,-0.020,-0.020,0.000,0.000,0.000
1644347647657376000,2022-02-08-19:14:07,10.1.1.6,23,-0.030,-0.030,-0.030,0.000,0.000,0.000
1644347647757742848,2022-02-08-19:14:07,10.1.1.6,22,-0.040,-0.040,-0.040,0.000,0.000,0.000
1644347647857485056,2022-02-08-19:14:07,10.1.1.6,22,-0.050,-0.050,-0.050,0.000,0.000,0.000
1644347647957658112,2022-02-08-19:14:07,10.1.1.6,21,-0.060,-0.060,-0.060,0.000,0.000,0.000
1644347648057912064,2022-02-08-19:14:08,10.1.1.6,20,-0.070,-0.070,-0.070,0.000,0.000,0.000
1644347648177950976,2022-02-08-19:14:08,10.1.1.6,36,-0.080,-0.080,-0.080,0.000,0.000,0.000
1644347648277587968,2022-02-08-19:14:08,10.1.1.6,35,-0.090,-0.090,-0.090,0.000,0.000,0.000
1644347648377697024,2022-02-08-19:14:08,10.1.1.6,34,-0.100,-0.100,-0.100,0.000,0.000,0.000
1644347648477627136,2022-02-08-19:14:08,10.1.1.6,33,-0.090,-0.090,-0.090,0.000,0.000,0.000
1644347648577683968,2022-02-08-19:14:08,10.1.1.6,33,-0.080,-0.080,-0.080,0.000,0.000,0.000
1644347648677756160,2022-02-08-19:14:08,10.1.1.6,32,-0.070,-0.070,-0.070,0.000,0.000,0.000
1644347648777644032,2022-02-08-19:14:08,10.1.1.6,31,-0.060,-0.060,-0.060,0.000,0.000,0.000
1644347648877754880,2022-02-08-19:14:08,10.1.1.6,30,-0.050,-0.050,-0.050,0.000,0.000,0.000
1644347648977814016,2022-02-08-19:14:08,10.1.1.6,29,-0.040,-0.040,-0.040,0.000,0.000,0.000
1644347649077291008,2022-02-08-19:14:09,10.1.1.6,28,-0.030,-0.030,-0.030,0.000,0.000,0.000
1644347649177971968,2022-02-08-19:14:09,10.1.1.6,28,-0.020,-0.020,-0.020,0.000,0.000,0.000
1644347649277588992,2022-02-08-19:14:09,10.1.1.6,25,-0.010,-0.010,-0.010,0.000,0.000,0.000
1644347649377590016,2022-02-08-19:14:09,10.1.1.6,25,0.000,0.000,0.000,0.000,0.000,0.000
1644347649477572864,2022-02-08-19:14:09,10.1.1.6,24,0.010,0.010,0.010,0.000,0.000,0.000
1644347649577660160,2022-02-08-19:14:09,10.1.1.6,23,0.020,0.020,0.020,0.000,0.000,0.000
1644347649678222848,2022-02-08-19:14:09,10.1.1.6,22,0.030,0.030,0.030,0.000,0.000,0.000
1644347649777486080,2022-02-08-19:14:09,10.1.1.6,21,0.040,0.040,0.040,0.000,0.000,0.000
1644347649877723904,2022-02-08-19:14:09,10.1.1.6,21,0.050,0.050,0.050,0.000,0.000,0.000
1644347649977780992,2022-02-08-19:14:09,10.1.1.6,20,0.060,0.060,0.060,0.000,0.000,0.000
1644347650078028800,2022-02-08-19:14:10,10.1.1.6,19,0.070,0.070,0.070,0.000,0.000,0.000
1644347650198018048,2022-02-08-19:14:10,10.1.1.6,37,0.080,0.080,0.080,0.000,0.000,0.000
1644347650297352192,2022-02-08-19:14:10,10.1.1.6,36,0.090,0.090,0.090,0.000,0.000,0.000
1644347650397673984,2022-02-08-19:14:10,10.1.1.6,36,0.100,0.100,0.100,0.000,0.000,0.000
1644347650498119168,2022-02-08-19:14:10,10.1.1.6,35,0.090,0.090,0.090,0.000,0.000,0.000
1644347650597455872,2022-02-08-19:14:10,10.1.1.6,35,0.080,0.080,0.080,0.000,0.000,0.000
1644347650699144960,2022-02-08-19:14:10,10.1.1.6,34,0.070,0.070,0.070,0.000,0.000,0.000
1644347650797702912,2022-02-08-19:14:10,10.1.1.6,32,0.060,0.060,0.060,0.000,0.000,0.000
1644347650897602048,2022-02-08-19:14:10,10.1.1.6,31,0.050,0.050,0.050,0.000,0.000,0.000
1644347650998116864,2022-02-08-19:14:10,10.1.1.6,30,0.040,0.040,0.040,0.000,0.000,0.000
1644347651098246144,2022-02-08-19:14:11,10.1.1.6,28,0.030,0.030,0.030,0.000,0.000,0.000
1644347651197989888,2022-02-08-19:14:11,10.1.1.6,28,0.020,0.020,0.020,0.000,0.000,0.000
1644347651298257152,2022-02-08-19:14:11,10.1.1.6,27,0.010,0.010,0.010,0.000,0.000,0.000
1644347651398253056,2022-02-08-19:14:11,10.1.1.6,26,0.000,0.000,0.000,0.000,0.000,0.000
1644347651498359808,2022-02-08-19:14:11,10.1.1.6,26,-0.010,-0.010,-0.010,0.000,0.000,0.000
1644347651598054912,2022-02-08-19:14:11,10.1.1.6,24,-0.020,-0.020,-0.020,0.000,0.000,0.000
1644347651698318848,2022-02-08-19:14:11,10.1.1.6,24,-0.030,-0.030,-0.030,0.000,0.000,0.000
1644347651797774080,2022-02-08-19:14:11,10.1.1.6,23,-0.040,-0.040,-0.040,0.000,0.000,0.000
1644347651897583872,2022-02-08-19:14:11,10.1.1.6,22,-0.050,-0.050,-0.050,0.000,0.000,0.000
1644347651998744064,2022-02-08-19:14:11,10.1.1.6,21,-0.060,-0.060,-0.060,0.000,0.000,0.000
1644347652119434240,2022-02-08-19:14:12,10.1.1.6,38,-0.070,-0.070,-0.070,0.000,0.000,0.000
1644347652217678080,2022-02-08-19:14:12,10.1.1.6,34,-0.080,-0.080,-0.080,0.000,0.000,0.000
1644347652318082048,2022-02-08-19:14:12,10.1.1.6,32,-0.090,-0.090,-0.090,0.000,0.000,0.000
1644347652418330880,2022-02-08-19:14:12,10.1.1.6,31,-0.100,-0.100,-0.100,0.000,0.000,0.000
1644347652518910976,2022-02-08-19:14:12,10.1.1.6,31,-0.090,-0.090,-0.090,0.000,0.000,0.000
1644347652618021120,2022-02-08-19:14:12,10.1.1.6,30,-0.080,-0.080,-0.080,0.000,0.000,0.000
1644347652718342144,2022-02-08-19:14:12,10.1.1.6,29,-0.070,-0.070,-0.070,0.000,0.000,0.000
1644347652818074880,2022-02-08-19:14:12,10.1.1.6,23,-0.060,-0.060,-0.060,0.000,0.000,0.000
1644347652918685952,2022-02-08-19:14:12,10.1.1.6,19,-0.050,-0.050,-0.050,0.000,0.000,0.000
1644347653018141952,2022-02-08-19:14:13,10.1.1.6,19,-0.041,-0.041,-0.041,0.000,0.000,0.000
1644347653138237952,2022-02-08-19:14:13,10.1.1.6,38,-0.030,-0.030,-0.030,0.000,0.000,0.000
1644347653238203904,2022-02-08-19:14:13,10.1.1.6,37,-0.020,-0.020,-0.020,0.000,0.000,0.000
1644347653337799936,2022-02-08-19:14:13,10.1.1.6,34,-0.010,-0.010,-0.010,0.000,0.000,0.000
1644347653438713088,2022-02-08-19:14:13,10.1.1.6,34,0.000,0.000,0.000,0.000,0.000,0.000
1644347653537900032,2022-02-08-19:14:13,10.1.1.6,33,0.010,0.010,0.010,0.000,0.000,0.000
1644347653637936128,2022-02-08-19:14:13,10.1.1.6,33,0.020,0.020,0.020,0.000,0.000,0.000
1644347653737910016,2022-02-08-19:14:13,10.1.1.6,31,0.030,0.030,0.030,0.000,0.000,0.000
1644347653838131968,2022-02-08-19:14:13,10.1.1.6,31,0.040,0.040,0.040,0.000,0.000,0.000
1644347653938138112,2022-02-08-19:14:13,10.1.1.6,30,0.050,0.050,0.050,0.000,0.000,0.000
1644347654039678976,2022-02-08-19:14:14,10.1.1.6,29,0.060,0.060,0.060,0.000,0.000,0.000
1644347654138355968,2022-02-08-19:14:14,10.1.1.6,27,0.070,0.070,0.070,0.000,0.000,0.000
1644347654237658112,2022-02-08-19:14:14,10.1.1.6,22,0.080,0.080,0.080,0.000,0.000,0.000
1644347654337891072,2022-02-08-19:14:14,10.1.1.6,22,0.090,0.090,0.090,0.000,0.000,0.000
1644347654437568000,2022-02-08-19:14:14,10.1.1.6,20,0.100,0.100,0.100,0.000,0.000,0.000
1644347654537734144,2022-02-08-19:14:14,10.1.1.6,20,0.090,0.090,0.090,0.000,0.000,0.000
1644347654637944832,2022-02-08-19:14:14,10.1.1.6,20,0.080,0.080,0.080,0.000,0.000,0.000
1644347654737491968,2022-02-08-19:14:14,10.1.1.6,19,0.070,0.070,0.070,0.000,0.000,0.000
1644347654857435904,2022-02-08-19:14:14,10.1.1.6,36,0.060,0.060,0.060,0.000,0.000,0.000
1644347654958179072,2022-02-08-19:14:14,10.1.1.6,35,0.050,0.050,0.050,0.000,0.000,0.000
1644347655059672064,2022-02-08-19:14:15,10.1.1.6,34,0.040,0.040,0.040,0.000,0.000,0.000
1644347655158649088,2022-02-08-19:14:15,10.1.1.6,31,0.030,0.030,0.030,0.000,0.000,0.000
1644347655257783040,2022-02-08-19:14:15,10.1.1.6,30,0.020,0.020,0.020,0.000,0.000,0.000
1644347655358238976,2022-02-08-19:14:15,10.1.1.6,29,0.010,0.010,0.010,0.000,0.000,0.000
1644347655457843968,2022-02-08-19:14:15,10.1.1.6,28,0.000,0.000,0.000,0.000,0.000,0.000
1644347655557708032,2022-02-08-19:14:15,10.1.1.6,27,-0.010,-0.010,-0.010,0.000,0.000,0.000
1644347655657677056,2022-02-08-19:14:15,10.1.1.6,26,-0.020,-0.020,-0.020,0.000,0.000,0.000
1644347655758366208,2022-02-08-19:14:15,10.1.1.6,25,-0.030,-0.030,-0.030,0.000,0.000,0.000
1644347655859342080,2022-02-08-19:14:15,10.1.1.6,24,-0.040,-0.040,-0.040,0.000,0.000,0.000
1644347655957480960,2022-02-08-19:14:15,10.1.1.6,23,-0.050,-0.050,-0.050,0.000,0.000,0.000
1644347656057393152,2022-02-08-19:14:16,10.1.1.6,22,-0.060,-0.060,-0.060,0.000,0.000,0.000
1644347656157542912,2022-02-08-19:14:16,10.1.1.6,20,-0.070,-0.070,-0.070,0.000,0.000,0.000
1644347656257783040,2022-02-08-19:14:16,10.1.1.6,20,-0.080,-0.080,-0.080,0.000,0.000,0.000
1644347656357552896,2022-02-08-19:14:16,10.1.1.6,19,-0.089,-0.089,-0.089,0.000,0.000,0.000
1644347656477765120,2022-02-08-19:14:16,10.1.1.6,38,-0.100,-0.100,-0.100,0.000,0.000,0.000
1644347656578092032,2022-02-08-19:14:16,10.1.1.6,37,-0.090,-0.090,-0.090,0.000,0.000,0.000
1644347656677687040,2022-02-08-19:14:16,10.1.1.6,36,-0.080,-0.080,-0.080,0.000,0.000,0.000
1644347656778265088,2022-02-08-19:14:16,10.1.1.6,35,-0.070,-0.070,-0.070,0.000,0.000,0.000
1644347656877787136,2022-02-08-19:14:16,10.1.1.6,35,-0.060,-0.060,-0.060,0.000,0.000,0.000
1644347656977575936,2022-02-08-19:14:16,10.1.1.6,34,-0.050,-0.050,-0.050,0.000,0.000,0.000
1644347657078381056,2022-02-08-19:14:17,10.1.1.6,33,-0.040,-0.040,-0.040,0.000,0.000,0.000
1644347657177351936,2022-02-08-19:14:17,10.1.1.6,31,-0.030,-0.030,-0.030,0.000,0.000,0.000
1644347657277581056,2022-02-08-19:14:17,10.1.1.6,30,-0.020,-0.020,-0.020,0.000,0.000,0.000
1644347657378212096,2022-02-08-19:14:17,10.1.1.6,29,-0.010,-0.010,-0.010,0.000,0.000,0.000
1644347657477382912,2022-02-08-19:14:17,10.1.1.6,28,0.000,0.000,0.000,0.000,0.000,0.000
1644347657577280000,2022-02-08-19:14:17,10.1.1.6,28,0.010,0.010,0.010,0.000,0.000,0.000
1644347657677666048,2022-02-08-19:14:17,10.1.1.6,26,0.020,0.020,0.020,0.000,0.000,0.000
1644347657777890048,2022-02-08-19:14:17,10.1.1.6,23,0.030,0.030,0.030,0.000,0.000,0.000
1644347657877625088,2022-02-08-19:14:17,10.1.1.6,22,0.040,0.040,0.040,0.000,0.000,0.000
1644347657977703936,2022-02-08-19:14:17,10.1.1.6,22,0.050,0.050,0.050,0.000,0.000,0.000
1644347658077774080,2022-02-08-19:14:18,10.1.1.6,20,0.060,0.060,0.060,0.000,0.000,0.000
1644347658178162944,2022-02-08-19:14:18,10.1.1.6,20,0.070,0.070,0.070,0.000,0.000,0.000
1644347658277437952,2022-02-08-19:14:18,10.1.1.6,19,0.079,0.079,0.079,0.000,0.000,0.000
1644347658397345024,2022-02-08-19:14:18,10.1.1.6,38,0.090,0.090,0.090,0.000,0.000,0.000
1644347658497739008,2022-02-08-19:14:18,10.1.1.6,37,0.100,0.100,0.100,0.000,0.000,0.000
1644347658600048896,2022-02-08-19:14:18,10.1.1.6,34,0.090,0.090,0.090,0.000,0.000,0.000
1644347658697339904,2022-02-08-19:14:18,10.1.1.6,29,0.080,0.080,0.080,0.000,0.000,0.000
1644347658798103040,2022-02-08-19:14:18,10.1.1.6,28,0.070,0.070,0.070,0.000,0.000,0.000
1644347658898017792,2022-02-08-19:14:18,10.1.1.6,26,0.060,0.060,0.060,0.000,0.000,0.000
1644347658998251008,2022-02-08-19:14:18,10.1.1.6,25,0.050,0.050,0.050,0.000,0.000,0.000
1644347659099493888,2022-02-08-19:14:19,10.1.1.6,23,0.040,0.040,0.040,0.000,0.000,0.000
1644347659198843904,2022-02-08-19:14:19,10.1.1.6,21,0.030,0.030,0.030,0.000,0.000,0.000
1644347659297713920,2022-02-08-19:14:19,10.1.1.6,20,0.020,0.020,0.020,0.000,0.000,0.000
1644347659397874944,2022-02-08-19:14:19,10.1.1.6,20,0.010,0.010,0.010,0.000,0.000,0.000
1644347659497606912,2022-02-08-19:14:19,10.1.1.6,19,0.001,0.001,0.001,0.000,0.000,0.000
1644347659597544960,2022-02-08-19:14:19,10.1.1.6,19,-0.009,-0.009,-0.009,0.000,0.000,0.000
1644347659717221888,2022-02-08-19:14:19,10.1.1.6,38,-0.020,-0.020,-0.020,0.000,0.000,0.000
1644347659818118144,2022-02-08-19:14:19,10.1.1.6,37,-0.030,-0.030,-0.030,0.000,0.000,0.000
1644347659918232064,2022-02-08-19:14:19,10.1.1.6,37,-0.040,-0.040,-0.040,0.000,0.000,0.000
1644347660017707008,2022-02-08-19:14:20,10.1.1.6,36,-0.050,-0.050,-0.050,0.000,0.000,0.000
1644347660118539008,2022-02-08-19:14:20,10.1.1.6,36,-0.060,-0.060,-0.060,0.000,0.000,0.000
1644347660217391872,2022-02-08-19:14:20,10.1.1.6,35,-0.070,-0.070,-0.070,0.000,0.000,0.000
1644347660318002944,2022-02-08-19:14:20,10.1.1.6,35,-0.080,-0.080,-0.080,0.000,0.000,0.000
1644347660419239168,2022-02-08-19:14:20,10.1.1.6,34,-0.090,-0.090,-0.090,0.000,0.000,0.000
1644347660518030848,2022-02-08-19:14:20,10.1.1.6,33,-0.100,-0.100,-0.100,0.000,0.000,0.000
1644347660617793024,2022-02-08-19:14:20,10.1.1.6,31,-0.090,-0.090,-0.090,0.000,0.000,0.000
1644347660720491008,2022-02-08-19:14:20,10.1.1.6,30,-0.080,-0.080,-0.080,0.000,0.000,0.000
1644347660817789952,2022-02-08-19:14:20,10.1.1.6,29,-0.070,-0.070,-0.070,0.000,0.000,0.000
1644347660918801152,2022-02-08-19:14:20,10.1.1.6,27,-0.060,-0.060,-0.060,0.000,0.000,0.000
1644347661017391872,2022-02-08-19:14:21,10.1.1.6,25,-0.050,-0.050,-0.050,0.000,0.000,0.000
1644347661117809920,2022-02-08-19:14:21,10.1.1.6,24,-0.040,-0.040,-0.040,0.000,0.000,0.000
1644347661218012928,2022-02-08-19:14:21,10.1.1.6,24,-0.030,-0.030,-0.030,0.000,0.000,0.000
1644347661318400000,2022-02-08-19:14:21,10.1.1.6,23,-0.020,-0.020,-0.020,0.000,0.000,0.000
1644347661418540032,2022-02-08-19:14:21,10.1.1.6,22,-0.010,-0.010,-0.010,0.000,0.000,0.000
1644347661519230976,2022-02-08-19:14:21,10.1.1.6,22,0.000,0.000,0.000,0.000,0.000,0.000
1644347661617446912,2022-02-08-19:14:21,10.1.1.6,21,0.010,0.010,0.010,0.000,0.000,0.000
1644347661717971200,2022-02-08-19:14:21,10.1.1.6,21,0.020,0.020,0.020,0.000,0.000,0.000
1644347661817779968,2022-02-08-19:14:21,10.1.1.6,19,0.029,0.029,0.029,0.000,0.000,0.000
1644347661937678080,2022-02-08-19:14:21,10.1.1.6,36,0.040,0.040,0.040,0.000,0.000,0.000
1644347662038157824,2022-02-08-19:14:22,10.1.1.6,36,0.050,0.050,0.050,0.000,0.000,0.000
1644347662137934848,2022-02-08-19:14:22,10.1.1.6,35,0.060,0.060,0.060,0.000,0.000,0.000
1644347662198831104,2022-02-08-19:14:22,10.1.1.6,-6,0.060,0.060,0.060,0.000,0.000,0.000
1644347662337667072,2022-02-08-19:14:22,10.1.1.6,33,0.080,0.080,0.080,0.000,0.000,0.000
1644347662438465024,2022-02-08-19:14:22,10.1.1.6,31,0.090,0.090,0.090,0.000,0.000,0.000
1644347662537470208,2022-02-08-19:14:22,10.1.1.6,30,0.100,0.100,0.100,0.000,0.000,0.000
1644347662638267136,2022-02-08-19:14:22,10.1.1.6,30,0.090,0.090,0.090,0.000,0.000,0.000
1644347662738105088,2022-02-08-19:14:22,10.1.1.6,30,0.080,0.080,0.080,0.000,0.000,0.000
1644347662839760128,2022-02-08-19:14:22,10.1.1.6,29,0.070,0.070,0.070,0.000,0.000,0.000
1644347662938237952,2022-02-08-19:14:22,10.1.1.6,28,0.060,0.060,0.060,0.000,0.000,0.000
1644347663038091008,2022-02-08-19:14:23,10.1.1.6,28,0.050,0.050,0.050,0.000,0.000,0.000
1644347663138065152,2022-02-08-19:14:23,10.1.1.6,27,0.040,0.040,0.040,0.000,0.000,0.000
1644347663238029056,2022-02-08-19:14:23,10.1.1.6,25,0.030,0.030,0.030,0.000,0.000,0.000
1644347663338233856,2022-02-08-19:14:23,10.1.1.6,24,0.020,0.020,0.020,0.000,0.000,0.000
1644347663438200832,2022-02-08-19:14:23,10.1.1.6,24,0.010,0.010,0.010,0.000,0.000,0.000
1644347663538338816,2022-02-08-19:14:23,10.1.1.6,23,0.000,0.000,0.000,0.000,0.000,0.000
1644347663637924864,2022-02-08-19:14:23,10.1.1.6,22,-0.010,-0.010,-0.010,0.000,0.000,0.000
1644347663737785088,2022-02-08-19:14:23,10.1.1.6,22,-0.020,-0.020,-0.020,0.000,0.000,0.000
1644347663838316032,2022-02-08-19:14:23,10.1.1.6,20,-0.030,-0.030,-0.030,0.000,0.000,0.000
1644347663965150208,2022-02-08-19:14:23,10.1.1.6,39,-0.040,-0.040,-0.040,0.000,0.000,0.000
1644347664059021824,2022-02-08-19:14:24,10.1.1.6,28,-0.050,-0.050,-0.050,0.000,0.000,0.000
1644347664159259136,2022-02-08-19:14:24,10.1.1.6,27,-0.060,-0.060,-0.060,0.000,0.000,0.000
1644347664257924096,2022-02-08-19:14:24,10.1.1.6,26,-0.070,-0.070,-0.070,0.000,0.000,0.000
1644347664357954048,2022-02-08-19:14:24,10.1.1.6,25,-0.080,-0.080,-0.080,0.000,0.000,0.000
1644347664457330944,2022-02-08-19:14:24,10.1.1.6,24,-0.090,-0.090,-0.090,0.000,0.000,0.000
1644347664558134016,2022-02-08-19:14:24,10.1.1.6,24,-0.100,-0.100,-0.100,0.000,0.000,0.000
1644347664657690112,2022-02-08-19:14:24,10.1.1.6,23,-0.090,-0.090,-0.090,0.000,0.000,0.000
1644347664757937920,2022-02-08-19:14:24,10.1.1.6,22,-0.080,-0.080,-0.080,0.000,0.000,0.000
1644347664857903872,2022-02-08-19:14:24,10.1.1.6,21,-0.070,-0.070,-0.070,0.000,0.000,0.000
1644347664958187008,2022-02-08-19:14:24,10.1.1.6,20,-0.060,-0.060,-0.060,0.000,0.000,0.000
1644347665058728960,2022-02-08-19:14:25,10.1.1.6,19,-0.050,-0.050,-0.050,0.000,0.000,0.000
1644347665177777920,2022-02-08-19:14:25,10.1.1.6,37,-0.040,-0.040,-0.040,0.000,0.000,0.000
1644347665277474048,2022-02-08-19:14:25,10.1.1.6,36,-0.030,-0.030,-0.030,0.000,0.000,0.000
1644347665377469952,2022-02-08-19:14:25,10.1.1.6,36,-0.020,-0.020,-0.020,0.000,0.000,0.000
1644347665477800960,2022-02-08-19:14:25,10.1.1.6,36,-0.010,-0.010,-0.010,0.000,0.000,0.000
1644347665577611008,2022-02-08-19:14:25,10.1.1.6,35,0.000,0.000,0.000,0.000,0.000,0.000
1644347665678466048,2022-02-08-19:14:25,10.1.1.6,35,0.010,0.010,0.010,0.000,0.000,0.000
1644347665777390848,2022-02-08-19:14:25,10.1.1.6,34,0.020,0.020,0.020,0.000,0.000,0.000
1644347665877441792,2022-02-08-19:14:25,10.1.1.6,34,0.030,0.030,0.030,0.000,0.000,0.000
1644347665978455040,2022-02-08-19:14:25,10.1.1.6,33,0.040,0.040,0.040,0.000,0.000,0.000
1644347666079695104,2022-02-08-19:14:26,10.1.1.6,32,0.050,0.050,0.050,0.000,0.000,0.000
1644347666178193920,2022-02-08-19:14:26,10.1.1.6,31,0.060,0.060,0.060,0.000,0.000,0.000
1644347666277772032,2022-02-08-19:14:26,10.1.1.6,31,0.070,0.070,0.070,0.000,0.000,0.000
1644347666377675008,2022-02-08-19:14:26,10.1.1.6,30,0.080,0.080,0.080,0.000,0.000,0.000
1644347666477587968,2022-02-08-19:14:26,10.1.1.6,30,0.090,0.090,0.090,0.000,0.000,0.000
1644347666578294016,2022-02-08-19:14:26,10.1.1.6,29,0.100,0.100,0.100,0.000,0.000,0.000
1644347666677956096,2022-02-08-19:14:26,10.1.1.6,28,0.090,0.090,0.090,0.000,0.000,0.000
1644347666777779968,2022-02-08-19:14:26,10.1.1.6,27,0.080,0.080,0.080,0.000,0.000,0.000
1644347666877767168,2022-02-08-19:14:26,10.1.1.6,25,0.070,0.070,0.070,0.000,0.000,0.000
1644347666977907968,2022-02-08-19:14:26,10.1.1.6,24,0.060,0.060,0.060,0.000,0.000,0.000
1644347667077956864,2022-02-08-19:14:27,10.1.1.6,23,0.050,0.050,0.050,0.000,0.000,0.000
1644347667177916160,2022-02-08-19:14:27,10.1.1.6,23,0.040,0.040,0.040,0.000,0.000,0.000
1644347667278008832,2022-02-08-19:14:27,10.1.1.6,22,0.030,0.030,0.030,0.000,0.000,0.000
1644347667378167040,2022-02-08-19:14:27,10.1.1.6,21,0.020,0.020,0.020,0.000,0.000,0.000
1644347667577825024,2022-02-08-19:14:27,10.1.1.6,20,0.000,0.000,0.000,0.000,0.000,0.000
1644347667680289024,2022-02-08-19:14:27,10.1.1.6,20,-0.010,-0.010,-0.010,0.000,0.000,0.000
1644347667798369024,2022-02-08-19:14:27,10.1.1.6,38,-0.020,-0.020,-0.020,0.000,0.000,0.000
1644347667898969856,2022-02-08-19:14:27,10.1.1.6,37,-0.030,-0.030,-0.030,0.000,0.000,0.000
1644347667999094016,2022-02-08-19:14:27,10.1.1.6,36,-0.040,-0.040,-0.040,0.000,0.000,0.000
1644347668098195968,2022-02-08-19:14:28,10.1.1.6,35,-0.050,-0.050,-0.050,0.000,0.000,0.000
1644347668197551872,2022-02-08-19:14:28,10.1.1.6,34,-0.060,-0.060,-0.060,0.000,0.000,0.000
1644347668297966080,2022-02-08-19:14:28,10.1.1.6,33,-0.070,-0.070,-0.070,0.000,0.000,0.000
1644347668401163008,2022-02-08-19:14:28,10.1.1.6,35,-0.080,-0.080,-0.080,0.000,0.000,0.000
1644347668497819904,2022-02-08-19:14:28,10.1.1.6,30,-0.090,-0.090,-0.090,0.000,0.000,0.000
1644347668601984000,2022-02-08-19:14:28,10.1.1.6,28,-0.100,-0.100,-0.100,0.000,0.000,0.000
1644347668698265088,2022-02-08-19:14:28,10.1.1.6,24,-0.090,-0.090,-0.090,0.000,0.000,0.000
1644347668798008064,2022-02-08-19:14:28,10.1.1.6,24,-0.080,-0.080,-0.080,0.000,0.000,0.000
1644347668897846016,2022-02-08-19:14:28,10.1.1.6,22,-0.070,-0.070,-0.070,0.000,0.000,0.000
1644347668997507072,2022-02-08-19:14:28,10.1.1.6,21,-0.060,-0.060,-0.060,0.000,0.000,0.000
1644347669098233088,2022-02-08-19:14:29,10.1.1.6,20,-0.050,-0.050,-0.050,0.000,0.000,0.000
1644347669197999104,2022-02-08-19:14:29,10.1.1.6,19,-0.040,-0.040,-0.040,0.000,0.000,0.000
1644347669317979136,2022-02-08-19:14:29,10.1.1.6,38,-0.030,-0.030,-0.030,0.000,0.000,0.000
1644347669419034880,2022-02-08-19:14:29,10.1.1.6,37,-0.020,-0.020,-0.020,0.000,0.000,0.000
1644347669517582848,2022-02-08-19:14:29,10.1.1.6,35,-0.010,-0.010,-0.010,0.000,0.000,0.000
1644347669617643008,2022-02-08-19:14:29,10.1.1.6,34,0.000,0.000,0.000,0.000,0.000,0.000
1644347669717832192,2022-02-08-19:14:29,10.1.1.6,33,0.010,0.010,0.010,0.000,0.000,0.000
1644347669818072064,2022-02-08-19:14:29,10.1.1.6,32,0.020,0.020,0.020,0.000,0.000,0.000
1644347669918768896,2022-02-08-19:14:29,10.1.1.6,30,0.030,0.030,0.030,0.000,0.000,0.000
1644347670018225920,2022-02-08-19:14:30,10.1.1.6,30,0.040,0.040,0.040,0.000,0.000,0.000
1644347670118056960,2022-02-08-19:14:30,10.1.1.6,29,0.050,0.050,0.050,0.000,0.000,0.000
1644347670218668032,2022-02-08-19:14:30,10.1.1.6,27,0.060,0.060,0.060,0.000,0.000,0.000
1644347670318140928,2022-02-08-19:14:30,10.1.1.6,25,0.070,0.070,0.070,0.000,0.000,0.000
1644347670417954048,2022-02-08-19:14:30,10.1.1.6,24,0.080,0.080,0.080,0.000,0.000,0.000
1644347670517935104,2022-02-08-19:14:30,10.1.1.6,23,0.090,0.090,0.090,0.000,0.000,0.000
1644347670617420800,2022-02-08-19:14:30,10.1.1.6,23,0.100,0.100,0.100,0.000,0.000,0.000
1644347670717784832,2022-02-08-19:14:30,10.1.1.6,22,0.090,0.090,0.090,0.000,0.000,0.000
1644347670817715968,2022-02-08-19:14:30,10.1.1.6,22,0.080,0.080,0.080,0.000,0.000,0.000
1644347670918749184,2022-02-08-19:14:30,10.1.1.6,21,0.070,0.070,0.070,0.000,0.000,0.000
1644347671017822976,2022-02-08-19:14:31,10.1.1.6,20,0.060,0.060,0.060,0.000,0.000,0.000
1644347671118465024,2022-02-08-19:14:31,10.1.1.6,20,0.050,0.050,0.050,0.000,0.000,0.000
1644347671217367040,2022-02-08-19:14:31,10.1.1.6,19,0.040,0.040,0.040,0.000,0.000,0.000
1644347671338116864,2022-02-08-19:14:31,10.1.1.6,38,0.030,0.030,0.030,0.000,0.000,0.000
1644347671438214144,2022-02-08-19:14:31,10.1.1.6,38,0.020,0.020,0.020,0.000,0.000,0.000
1644347671538305024,2022-02-08-19:14:31,10.1.1.6,37,0.010,0.010,0.010,0.000,0.000,0.000
1644347671637618944,2022-02-08-19:14:31,10.1.1.6,35,0.000,0.000,0.000,0.000,0.000,0.000
1644347671738210816,2022-02-08-19:14:31,10.1.1.6,34,-0.010,-0.010,-0.010,0.000,0.000,0.000
1644347671839608064,2022-02-08-19:14:31,10.1.1.6,33,-0.020,-0.020,-0.020,0.000,0.000,0.000
1644347671937829120,2022-02-08-19:14:31,10.1.1.6,32,-0.030,-0.030,-0.030,0.000,0.000,0.000
1644347672037772800,2022-02-08-19:14:32,10.1.1.6,31,-0.040,-0.040,-0.040,0.000,0.000,0.000
1644347672137923072,2022-02-08-19:14:32,10.1.1.6,31,-0.050,-0.050,-0.050,0.000,0.000,0.000
1644347672238012160,2022-02-08-19:14:32,10.1.1.6,30,-0.060,-0.060,-0.060,0.000,0.000,0.000
1644347672338087168,2022-02-08-19:14:32,10.1.1.6,28,-0.070,-0.070,-0.070,0.000,0.000,0.000
1644347672437725952,2022-02-08-19:14:32,10.1.1.6,27,-0.080,-0.080,-0.080,0.000,0.000,0.000
1644347672538053120,2022-02-08-19:14:32,10.1.1.6,26,-0.090,-0.090,-0.090,0.000,0.000,0.000
1644347672637583872,2022-02-08-19:14:32,10.1.1.6,25,-0.100,-0.100,-0.100,0.000,0.000,0.000
1644347672863200000,2022-02-08-19:14:32,10.1.1.6,45,-0.080,-0.080,-0.080,0.000,0.000,0.000
1644347672937740032,2022-02-08-19:14:32,10.1.1.6,20,-0.070,-0.070,-0.070,0.000,0.000,0.000
1644347673038957056,2022-02-08-19:14:33,10.1.1.6,19,-0.060,-0.060,-0.060,0.000,0.000,0.000
1644347673142961920,2022-02-08-19:14:33,10.1.1.6,21,-0.051,-0.051,-0.051,0.000,0.000,0.000
1644347673258395904,2022-02-08-19:14:33,10.1.1.6,38,-0.040,-0.040,-0.040,0.000,0.000,0.000
1644347673459593984,2022-02-08-19:14:33,10.1.1.6,37,-0.020,-0.020,-0.020,0.000,0.000,0.000
1644347673558180096,2022-02-08-19:14:33,10.1.1.6,36,-0.010,-0.010,-0.010,0.000,0.000,0.000
1644347673658339072,2022-02-08-19:14:33,10.1.1.6,35,0.000,0.000,0.000,0.000,0.000,0.000
1644347673757848064,2022-02-08-19:14:33,10.1.1.6,34,0.010,0.010,0.010,0.000,0.000,0.000
1644347673858260992,2022-02-08-19:14:33,10.1.1.6,32,0.020,0.020,0.020,0.000,0.000,0.000
1644347673958287872,2022-02-08-19:14:33,10.1.1.6,31,0.030,0.030,0.030,0.000,0.000,0.000
1644347674057570816,2022-02-08-19:14:34,10.1.1.6,29,0.040,0.040,0.040,0.000,0.000,0.000
1644347674158296064,2022-02-08-19:14:34,10.1.1.6,28,0.050,0.050,0.050,0.000,0.000,0.000
1644347674257899008,2022-02-08-19:14:34,10.1.1.6,28,0.060,0.060,0.060,0.000,0.000,0.000
1644347674357816064,2022-02-08-19:14:34,10.1.1.6,26,0.070,0.070,0.070,0.000,0.000,0.000
1644347674457277952,2022-02-08-19:14:34,10.1.1.6,24,0.080,0.080,0.080,0.000,0.000,0.000
1644347674557710848,2022-02-08-19:14:34,10.1.1.6,23,0.090,0.090,0.090,0.000,0.000,0.000
1644347674658135808,2022-02-08-19:14:34,10.1.1.6,23,0.100,0.100,0.100,0.000,0.000,0.000
1644347674757867008,2022-02-08-19:14:34,10.1.1.6,22,0.090,0.090,0.090,0.000,0.000,0.000
1644347674857345024,2022-02-08-19:14:34,10.1.1.6,21,0.080,0.080,0.080,0.000,0.000,0.000
1644347674957496832,2022-02-08-19:14:34,10.1.1.6,20,0.070,0.070,0.070,0.000,0.000,0.000
1644347675057975040,2022-02-08-19:14:35,10.1.1.6,19,0.060,0.060,0.060,0.000,0.000,0.000
1644347675178752000,2022-02-08-19:14:35,10.1.1.6,37,0.050,0.050,0.050,0.000,0.000,0.000
1644347675277667072,2022-02-08-19:14:35,10.1.1.6,35,0.040,0.040,0.040,0.000,0.000,0.000
1644347675377935872,2022-02-08-19:14:35,10.1.1.6,34,0.030,0.030,0.030,0.000,0.000,0.000
1644347675478046976,2022-02-08-19:14:35,10.1.1.6,33,0.020,0.020,0.020,0.000,0.000,0.000
1644347675578462976,2022-02-08-19:14:35,10.1.1.6,32,0.010,0.010,0.010,0.000,0.000,0.000
1644347675681526784,2022-02-08-19:14:35,10.1.1.6,30,0.000,0.000,0.000,0.000,0.000,0.000
1644347675778598912,2022-02-08-19:14:35,10.1.1.6,29,-0.010,-0.010,-0.010,0.000,0.000,0.000
1644347675877949952,2022-02-08-19:14:35,10.1.1.6,29,-0.020,-0.020,-0.020,0.000,0.000,0.000
1644347675977863168,2022-02-08-19:14:35,10.1.1.6,27,-0.030,-0.030,-0.030,0.000,0.000,0.000
1644347676077372928,2022-02-08-19:14:36,10.1.1.6,25,-0.040,-0.040,-0.040,0.000,0.000,0.000
1644347676177980928,2022-02-08-19:14:36,10.1.1.6,23,-0.050,-0.050,-0.050,0.000,0.000,0.000
1644347676278312960,2022-02-08-19:14:36,10.1.1.6,23,-0.060,-0.060,-0.060,0.000,0.000,0.000
1644347676377651968,2022-02-08-19:14:36,10.1.1.6,22,-0.070,-0.070,-0.070,0.000,0.000,0.000
1644347676477696000,2022-02-08-19:14:36,10.1.1.6,21,-0.080,-0.080,-0.080,0.000,0.000,0.000
1644347676577475072,2022-02-08-19:14:36,10.1.1.6,20,-0.090,-0.090,-0.090,0.000,0.000,0.000
1644347676677618944,2022-02-08-19:14:36,10.1.1.6,20,-0.100,-0.100,-0.100,0.000,0.000,0.000
1644347676777489920,2022-02-08-19:14:36,10.1.1.6,19,-0.090,-0.090,-0.090,0.000,0.000,0.000
1644347676897828096,2022-02-08-19:14:36,10.1.1.6,38,-0.080,-0.080,-0.080,0.000,0.000,0.000
1644347676998002176,2022-02-08-19:14:36,10.1.1.6,37,-0.070,-0.070,-0.070,0.000,0.000,0.000
1644347677097709056,2022-02-08-19:14:37,10.1.1.6,35,-0.060,-0.060,-0.060,0.000,0.000,0.000
1644347677198131968,2022-02-08-19:14:37,10.1.1.6,34,-0.050,-0.050,-0.050,0.000,0.000,0.000
1644347677297438976,2022-02-08-19:14:37,10.1.1.6,34,-0.040,-0.040,-0.040,0.000,0.000,0.000
1644347677398322176,2022-02-08-19:14:37,10.1.1.6,33,-0.030,-0.030,-0.030,0.000,0.000,0.000
1644347677498003968,2022-02-08-19:14:37,10.1.1.6,33,-0.020,-0.020,-0.020,0.000,0.000,0.000
1644347677597882112,2022-02-08-19:14:37,10.1.1.6,31,-0.010,-0.010,-0.010,0.000,0.000,0.000
1644347677703617024,2022-02-08-19:14:37,10.1.1.6,31,0.000,0.000,0.000,0.000,0.000,0.000
1644347677797600000,2022-02-08-19:14:37,10.1.1.6,30,0.010,0.010,0.010,0.000,0.000,0.000
1644347677897720064,2022-02-08-19:14:37,10.1.1.6,30,0.020,0.020,0.020,0.000,0.000,0.000
1644347677997787904,2022-02-08-19:14:37,10.1.1.6,28,0.030,0.030,0.030,0.000,0.000,0.000
1644347678097129216,2022-02-08-19:14:38,10.1.1.6,28,0.040,0.040,0.040,0.000,0.000,0.000
1644347678197305856,2022-02-08-19:14:38,10.1.1.6,27,0.050,0.050,0.050,0.000,0.000,0.000
1644347678297347072,2022-02-08-19:14:38,10.1.1.6,27,0.060,0.060,0.060,0.000,0.000,0.000
1644347678397558016,2022-02-08-19:14:38,10.1.1.6,26,0.070,0.070,0.070,0.000,0.000,0.000
1644347678497634048,2022-02-08-19:14:38,10.1.1.6,25,0.080,0.080,0.080,0.000,0.000,0.000
1644347678597342976,2022-02-08-19:14:38,10.1.1.6,24,0.090,0.090,0.090,0.000,0.000,0.000
1644347678698433024,2022-02-08-19:14:38,10.1.1.6,24,0.100,0.100,0.100,0.000,0.000,0.000
1644347678798322944,2022-02-08-19:14:38,10.1.1.6,23,0.090,0.090,0.090,0.000,0.000,0.000
1644347678899173888,2022-02-08-19:14:38,10.1.1.6,20,0.080,0.080,0.080,0.000,0.000,0.000
1644347679017488896,2022-02-08-19:14:39,10.1.1.6,38,0.070,0.070,0.070,0.000,0.000,0.000
1644347679118946048,2022-02-08-19:14:39,10.1.1.6,38,0.060,0.060,0.060,0.000,0.000,0.000
1644347679218077952,2022-02-08-19:14:39,10.1.1.6,36,0.050,0.050,0.050,0.000,0.000,0.000
1644347679317648896,2022-02-08-19:14:39,10.1.1.6,36,0.040,0.040,0.040,0.000,0.000,0.000
1644347679417815040,2022-02-08-19:14:39,10.1.1.6,34,0.030,0.030,0.030,0.000,0.000,0.000
1644347679518334976,2022-02-08-19:14:39,10.1.1.6,33,0.020,0.020,0.020,0.000,0.000,0.000
1644347679618330112,2022-02-08-19:14:39,10.1.1.6,31,0.010,0.010,0.010,0.000,0.000,0.000
1644347679717658112,2022-02-08-19:14:39,10.1.1.6,21,0.000,0.000,0.000,0.000,0.000,0.000
1644347679818407936,2022-02-08-19:14:39,10.1.1.6,21,-0.010,-0.010,-0.010,0.000,0.000,0.000
1644347679917710080,2022-02-08-19:14:39,10.1.1.6,21,-0.020,-0.020,-0.020,0.000,0.000,0.000
1644347680017626112,2022-02-08-19:14:40,10.1.1.6,20,-0.030,-0.030,-0.030,0.000,0.000,0.000
1644347680118491904,2022-02-08-19:14:40,10.1.1.6,20,-0.040,-0.040,-0.040,0.000,0.000,0.000
1644347680217245952,2022-02-08-19:14:40,10.1.1.6,19,-0.049,-0.049,-0.049,0.000,0.000,0.000
1644347680317832960,2022-02-08-19:14:40,10.1.1.6,19,-0.059,-0.059,-0.059,0.000,0.000,0.000
1644347680437560064,2022-02-08-19:14:40,10.1.1.6,38,-0.070,-0.070,-0.070,0.000,0.000,0.000
1644347680538149120,2022-02-08-19:14:40,10.1.1.6,37,-0.080,-0.080,-0.080,0.000,0.000,0.000
1644347680637559040,2022-02-08-19:14:40,10.1.1.6,37,-0.090,-0.090,-0.090,0.000,0.000,0.000
1644347680737644032,2022-02-08-19:14:40,10.1.1.6,36,-0.100,-0.100,-0.100,0.000,0.000,0.000
1644347680838072064,2022-02-08-19:14:40,10.1.1.6,36,-0.090,-0.090,-0.090,0.000,0.000,0.000
1644347680937586944,2022-02-08-19:14:40,10.1.1.6,35,-0.080,-0.080,-0.080,0.000,0.000,0.000
1644347681037751808,2022-02-08-19:14:41,10.1.1.6,35,-0.070,-0.070,-0.070,0.000,0.000,0.000
1644347681137658112,2022-02-08-19:14:41,10.1.1.6,34,-0.060,-0.060,-0.060,0.000,0.000,0.000
1644347681243820800,2022-02-08-19:14:41,10.1.1.6,32,-0.050,-0.050,-0.050,0.000,0.000,0.000
1644347681338589952,2022-02-08-19:14:41,10.1.1.6,31,-0.040,-0.040,-0.040,0.000,0.000,0.000
1644347681442274048,2022-02-08-19:14:41,10.1.1.6,31,-0.030,-0.030,-0.030,0.000,0.000,0.000
1644347681542792960,2022-02-08-19:14:41,10.1.1.6,30,-0.020,-0.020,-0.020,0.000,0.000,0.000
1644347681652125952,2022-02-08-19:14:41,10.1.1.6,30,-0.010,-0.010,-0.010,0.000,0.000,0.000
1644347681738068992,2022-02-08-19:14:41,10.1.1.6,29,0.000,0.000,0.000,0.000,0.000,0.000
1644347681838108160,2022-02-08-19:14:41,10.1.1.6,28,0.010,0.010,0.010,0.000,0.000,0.000
1644347681937617920,2022-02-08-19:14:41,10.1.1.6,27,0.020,0.020,0.020,0.000,0.000,0.000
1644347682037964032,2022-02-08-19:14:42,10.1.1.6,26,0.030,0.030,0.030,0.000,0.000,0.000
1644347682137773056,2022-02-08-19:14:42,10.1.1.6,25,0.040,0.040,0.040,0.000,0.000,0.000
1644347682237977856,2022-02-08-19:14:42,10.1.1.6,24,0.050,0.050,0.050,0.000,0.000,0.000
1644347682338011904,2022-02-08-19:14:42,10.1.1.6,24,0.060,0.060,0.060,0.000,0.000,0.000
1644347682439006976,2022-02-08-19:14:42,10.1.1.6,21,0.070,0.070,0.070,0.000,0.000,0.000
1644347682563721984,2022-02-08-19:14:42,10.1.1.6,38,0.080,0.080,0.080,0.000,0.000,0.000
1644347682657531904,2022-02-08-19:14:42,10.1.1.6,36,0.090,0.090,0.090,0.000,0.000,0.000
1644347682757337088,2022-02-08-19:14:42,10.1.1.6,36,0.100,0.100,0.100,0.000,0.000,0.000
1644347682857779968,2022-02-08-19:14:42,10.1.1.6,36,0.090,0.090,0.090,0.000,0.000,0.000
1644347682957776128,2022-02-08-19:14:42,10.1.1.6,33,0.080,0.080,0.080,0.000,0.000,0.000
1644347683057872896,2022-02-08-19:14:43,10.1.1.6,32,0.070,0.070,0.070,0.000,0.000,0.000
1644347683157277952,2022-02-08-19:14:43,10.1.1.6,32,0.060,0.060,0.060,0.000,0.000,0.000
1644347683257679872,2022-02-08-19:14:43,10.1.1.6,31,0.050,0.050,0.050,0.000,0.000,0.000
1644347683357564928,2022-02-08-19:14:43,10.1.1.6,31,0.040,0.040,0.040,0.000,0.000,0.000
1644347683458318848,2022-02-08-19:14:43,10.1.1.6,30,0.030,0.030,0.030,0.000,0.000,0.000
1644347683557925888,2022-02-08-19:14:43,10.1.1.6,30,0.020,0.020,0.020,0.000,0.000,0.000
1644347683657640960,2022-02-08-19:14:43,10.1.1.6,29,0.010,0.010,0.010,0.000,0.000,0.000
1644347683757476096,2022-02-08-19:14:43,10.1.1.6,29,0.000,0.000,0.000,0.000,0.000,0.000
1644347683857800960,2022-02-08-19:14:43,10.1.1.6,29,-0.010,-0.010,-0.010,0.000,0.000,0.000
1644347683965523968,2022-02-08-19:14:43,10.1.1.6,28,-0.020,-0.020,-0.020,0.000,0.000,0.000
1644347684057990912,2022-02-08-19:14:44,10.1.1.6,27,-0.030,-0.030,-0.030,0.000,0.000,0.000
1644347684157341952,2022-02-08-19:14:44,10.1.1.6,26,-0.040,-0.040,-0.040,0.000,0.000,0.000
1644347684257986048,2022-02-08-19:14:44,10.1.1.6,25,-0.050,-0.050,-0.050,0.000,0.000,0.000
1644347684358583808,2022-02-08-19:14:44,10.1.1.6,25,-0.060,-0.060,-0.060,0.000,0.000,0.000
1644347684457886976,2022-02-08-19:14:44,10.1.1.6,24,-0.070,-0.070,-0.070,0.000,0.000,0.000
1644347684558361088,2022-02-08-19:14:44,10.1.1.6,24,-0.080,-0.080,-0.080,0.000,0.000,0.000
1644347684657646848,2022-02-08-19:14:44,10.1.1.6,23,-0.090,-0.090,-0.090,0.000,0.000,0.000
1644347684757622016,2022-02-08-19:14:44,10.1.1.6,23,-0.100,-0.100,-0.100,0.000,0.000,0.000
1644347684859648000,2022-02-08-19:14:44,10.1.1.6,20,-0.090,-0.090,-0.090,0.000,0.000,0.000
1644347684957860864,2022-02-08-19:14:44,10.1.1.6,19,-0.080,-0.080,-0.080,0.000,0.000,0.000
1644347685077888000,2022-02-08-19:14:45,10.1.1.6,38,-0.070,-0.070,-0.070,0.000,0.000,0.000
1644347685178128128,2022-02-08-19:14:45,10.1.1.6,37,-0.060,-0.060,-0.060,0.000,0.000,0.000
1644347685278244864,2022-02-08-19:14:45,10.1.1.6,35,-0.050,-0.050,-0.050,0.000,0.000,0.000
1644347685377475072,2022-02-08-19:14:45,10.1.1.6,34,-0.040,-0.040,-0.040,0.000,0.000,0.000
1644347685477710848,2022-02-08-19:14:45,10.1.1.6,33,-0.030,-0.030,-0.030,0.000,0.000,0.000
1644347685577902080,2022-02-08-19:14:45,10.1.1.6,33,-0.020,-0.020,-0.020,0.000,0.000,0.000
1644347685677867008,2022-02-08-19:14:45,10.1.1.6,32,-0.010,-0.010,-0.010,0.000,0.000,0.000
1644347685778377984,2022-02-08-19:14:45,10.1.1.6,32,0.000,0.000,0.000,0.000,0.000,0.000
1644347685878534144,2022-02-08-19:14:45,10.1.1.6,31,0.010,0.010,0.010,0.000,0.000,0.000
1644347685978540032,2022-02-08-19:14:45,10.1.1.6,30,0.020,0.020,0.020,0.000,0.000,0.000
1644347686077882112,2022-02-08-19:14:46,10.1.1.6,29,0.030,0.030,0.030,0.000,0.000,0.000
1644347686177608960,2022-02-08-19:14:46,10.1.1.6,29,0.040,0.040,0.040,0.000,0.000,0.000
1644347686277831168,2022-02-08-19:14:46,10.1.1.6,28,0.050,0.050,0.050,0.000,0.000,0.000
1644347686377214976,2022-02-08-19:14:46,10.1.1.6,27,0.060,0.060,0.060,0.000,0.000,0.000
1644347686477257984,2022-02-08-19:14:46,10.1.1.6,25,0.070,0.070,0.070,0.000,0.000,0.000
1644347686577568000,2022-02-08-19:14:46,10.1.1.6,24,0.080,0.080,0.080,0.000,0.000,0.000
1644347686677603072,2022-02-08-19:14:46,10.1.1.6,24,0.090,0.090,0.090,0.000,0.000,0.000
1644347686778147072,2022-02-08-19:14:46,10.1.1.6,23,0.100,0.100,0.100,0.000,0.000,0.000
1644347686877899008,2022-02-08-19:14:46,10.1.1.6,22,0.090,0.090,0.090,0.000,0.000,0.000
1644347686977942016,2022-02-08-19:14:46,10.1.1.6,22,0.080,0.080,0.080,0.000,0.000,0.000
1644347687097510144,2022-02-08-19:14:47,10.1.1.6,36,0.070,0.070,0.070,0.000,0.000,0.000
1644347687198322176,2022-02-08-19:14:47,10.1.1.6,35,0.060,0.060,0.060,0.000,0.000,0.000
1644347687297456128,2022-02-08-19:14:47,10.1.1.6,31,0.050,0.050,0.050,0.000,0.000,0.000
1644347687399992832,2022-02-08-19:14:47,10.1.1.6,28,0.040,0.040,0.040,0.000,0.000,0.000
1644347687498109952,2022-02-08-19:14:47,10.1.1.6,23,0.030,0.030,0.030,0.000,0.000,0.000
1644347687598969088,2022-02-08-19:14:47,10.1.1.6,22,0.020,0.020,0.020,0.000,0.000,0.000
1644347687698362112,2022-02-08-19:14:47,10.1.1.6,21,0.010,0.010,0.010,0.000,0.000,0.000
1644347687798170112,2022-02-08-19:14:47,10.1.1.6,20,0.000,0.000,0.000,0.000,0.000,0.000
1644347687898854912,2022-02-08-19:14:47,10.1.1.6,19,-0.010,-0.010,-0.010,0.000,0.000,0.000
1644347688018415872,2022-02-08-19:14:48,10.1.1.6,38,-0.020,-0.020,-0.020,0.000,0.000,0.000
1644347688118061056,2022-02-08-19:14:48,10.1.1.6,37,-0.030,-0.030,-0.030,0.000,0.000,0.000
1644347688218265088,2022-02-08-19:14:48,10.1.1.6,36,-0.040,-0.040,-0.040,0.000,0.000,0.000
1644347688318265856,2022-02-08-19:14:48,10.1.1.6,35,-0.050,-0.050,-0.050,0.000,0.000,0.000
1644347688420627200,2022-02-08-19:14:48,10.1.1.6,33,-0.060,-0.060,-0.060,0.000,0.000,0.000
1644347688523080192,2022-02-08-19:14:48,10.1.1.6,31,-0.070,-0.070,-0.070,0.000,0.000,0.000
1644347688618819840,2022-02-08-19:14:48,10.1.1.6,30,-0.080,-0.080,-0.080,0.000,0.000,0.000
1644347688719937024,2022-02-08-19:14:48,10.1.1.6,29,-0.090,-0.090,-0.090,0.000,0.000,0.000
1644347688820636928,2022-02-08-19:14:48,10.1.1.6,28,-0.100,-0.100,-0.100,0.000,0.000,0.000
1644347688919405824,2022-02-08-19:14:48,10.1.1.6,27,-0.090,-0.090,-0.090,0.000,0.000,0.000
1644347689018469120,2022-02-08-19:14:49,10.1.1.6,26,-0.080,-0.080,-0.080,0.000,0.000,0.000
1644347689118280960,2022-02-08-19:14:49,10.1.1.6,24,-0.070,-0.070,-0.070,0.000,0.000,0.000
1644347689218419968,2022-02-08-19:14:49,10.1.1.6,23,-0.060,-0.060,-0.060,0.000,0.000,0.000
1644347689318802944,2022-02-08-19:14:49,10.1.1.6,22,-0.050,-0.050,-0.050,0.000,0.000,0.000
1644347689418140928,2022-02-08-19:14:49,10.1.1.6,22,-0.040,-0.040,-0.040,0.000,0.000,0.000
1644347689518237184,2022-02-08-19:14:49,10.1.1.6,21,-0.030,-0.030,-0.030,0.000,0.000,0.000
1644347689618279936,2022-02-08-19:14:49,10.1.1.6,20,-0.020,-0.020,-0.020,0.000,0.000,0.000
1644347689737852160,2022-02-08-19:14:49,10.1.1.6,39,-0.010,-0.010,-0.010,0.000,0.000,0.000
1644347689837765888,2022-02-08-19:14:49,10.1.1.6,37,0.000,0.000,0.000,0.000,0.000,0.000
1644347689938251008,2022-02-08-19:14:49,10.1.1.6,36,0.010,0.010,0.010,0.000,0.000,0.000
1644347690038402048,2022-02-08-19:14:50,10.1.1.6,35,0.020,0.020,0.020,0.000,0.000,0.000
1644347690138128128,2022-02-08-19:14:50,10.1.1.6,34,0.030,0.030,0.030,0.000,0.000,0.000
1644347690239810048,2022-02-08-19:14:50,10.1.1.6,33,0.040,0.040,0.040,0.000,0.000,0.000
1644347690338638080,2022-02-08-19:14:50,10.1.1.6,31,0.050,0.050,0.050,0.000,0.000,0.000
1644347690438074112,2022-02-08-19:14:50,10.1.1.6,30,0.060,0.060,0.060,0.000,0.000,0.000
1644347690537914880,2022-02-08-19:14:50,10.1.1.6,30,0.070,0.070,0.070,0.000,0.000,0.000
1644347690638354176,2022-02-08-19:14:50,10.1.1.6,27,0.080,0.080,0.080,0.000,0.000,0.000
1644347690737835776,2022-02-08-19:14:50,10.1.1.6,24,0.090,0.090,0.090,0.000,0.000,0.000
1644347690838488064,2022-02-08-19:14:50,10.1.1.6,23,0.100,0.100,0.100,0.000,0.000,0.000
1644347690937381120,2022-02-08-19:14:50,10.1.1.6,23,0.090,0.090,0.090,0.000,0.000,0.000
1644347691037611008,2022-02-08-19:14:51,10.1.1.6,22,0.080,0.080,0.080,0.000,0.000,0.000
1644347691139265024,2022-02-08-19:14:51,10.1.1.6,21,0.070,0.070,0.070,0.000,0.000,0.000
1644347691240308992,2022-02-08-19:14:51,10.1.1.6,21,0.060,0.060,0.060,0.000,0.000,0.000
1644347691340698880,2022-02-08-19:14:51,10.1.1.6,20,0.050,0.050,0.050,0.000,0.000,0.000
1644347691437882880,2022-02-08-19:14:51,10.1.1.6,19,0.041,0.041,0.041,0.000,0.000,0.000
1644347691558708992,2022-02-08-19:14:51,10.1.1.6,36,0.030,0.030,0.030,0.000,0.000,0.000
1644347691658722048,2022-02-08-19:14:51,10.1.1.6,36,0.020,0.020,0.020,0.000,0.000,0.000
1644347691758405888,2022-02-08-19:14:51,10.1.1.6,34,0.010,0.010,0.010,0.000,0.000,0.000
1644347691857809920,2022-02-08-19:14:51,10.1.1.6,33,0.000,0.000,0.000,0.000,0.000,0.000
1644347691985547008,2022-02-08-19:14:51,10.1.1.6,24,-0.010,-0.010,-0.010,0.000,0.000,0.000
1644347692057334016,2022-02-08-19:14:52,10.1.1.6,23,-0.020,-0.020,-0.020,0.000,0.000,0.000
1644347692157506816,2022-02-08-19:14:52,10.1.1.6,22,-0.030,-0.030,-0.030,0.000,0.000,0.000
1644347692257632000,2022-02-08-19:14:52,10.1.1.6,20,-0.040,-0.040,-0.040,0.000,0.000,0.000
1644347692358551040,2022-02-08-19:14:52,10.1.1.6,19,-0.049,-0.049,-0.049,0.000,0.000,0.000
1644347692479546112,2022-02-08-19:14:52,10.1.1.6,38,-0.060,-0.060,-0.060,0.000,0.000,0.000
1644347692577830912,2022-02-08-19:14:52,10.1.1.6,37,-0.070,-0.070,-0.070,0.000,0.000,0.000
1644347692678183936,2022-02-08-19:14:52,10.1.1.6,36,-0.080,-0.080,-0.080,0.000,0.000,0.000
1644347692777968896,2022-02-08-19:14:52,10.1.1.6,36,-0.090,-0.090,-0.090,0.000,0.000,0.000
1644347692878129920,2022-02-08-19:14:52,10.1.1.6,35,-0.100,-0.100,-0.100,0.000,0.000,0.000
1644347692977775104,2022-02-08-19:14:52,10.1.1.6,34,-0.090,-0.090,-0.090,0.000,0.000,0.000
1644347693078082048,2022-02-08-19:14:53,10.1.1.6,33,-0.080,-0.080,-0.080,0.000,0.000,0.000
1644347693178371072,2022-02-08-19:14:53,10.1.1.6,32,-0.070,-0.070,-0.070,0.000,0.000,0.000
1644347693277789952,2022-02-08-19:14:53,10.1.1.6,31,-0.060,-0.060,-0.060,0.000,0.000,0.000
1644347693377743872,2022-02-08-19:14:53,10.1.1.6,31,-0.050,-0.050,-0.050,0.000,0.000,0.000
1644347693477637888,2022-02-08-19:14:53,10.1.1.6,30,-0.040,-0.040,-0.040,0.000,0.000,0.000
1644347693577780992,2022-02-08-19:14:53,10.1.1.6,29,-0.030,-0.030,-0.030,0.000,0.000,0.000
1644347693678184960,2022-02-08-19:14:53,10.1.1.6,28,-0.020,-0.020,-0.020,0.000,0.000,0.000
1644347693778345984,2022-02-08-19:14:53,10.1.1.6,27,-0.010,-0.010,-0.010,0.000,0.000,0.000
1644347693877840896,2022-02-08-19:14:53,10.1.1.6,26,0.000,0.000,0.000,0.000,0.000,0.000
1644347693977974784,2022-02-08-19:14:53,10.1.1.6,24,0.010,0.010,0.010,0.000,0.000,0.000
1644347694078208000,2022-02-08-19:14:54,10.1.1.6,24,0.020,0.020,0.020,0.000,0.000,0.000
1644347694178419200,2022-02-08-19:14:54,10.1.1.6,23,0.030,0.030,0.030,0.000,0.000,0.000
1644347694277814016,2022-02-08-19:14:54,10.1.1.6,22,0.040,0.040,0.040,0.000,0.000,0.000
1644347694378123008,2022-02-08-19:14:54,10.1.1.6,22,0.050,0.050,0.050,0.000,0.000,0.000
1644347694477968896,2022-02-08-19:14:54,10.1.1.6,21,0.060,0.060,0.060,0.000,0.000,0.000
1644347694577691904,2022-02-08-19:14:54,10.1.1.6,20,0.070,0.070,0.070,0.000,0.000,0.000
1644347694679852032,2022-02-08-19:14:54,10.1.1.6,20,0.080,0.080,0.080,0.000,0.000,0.000
1644347694777842944,2022-02-08-19:14:54,10.1.1.6,19,0.090,0.090,0.090,0.000,0.000,0.000
1644347694897766144,2022-02-08-19:14:54,10.1.1.6,38,0.100,0.100,0.100,0.000,0.000,0.000
1644347694997965056,2022-02-08-19:14:54,10.1.1.6,37,0.090,0.090,0.090,0.000,0.000,0.000
1644347695097361920,2022-02-08-19:14:55,10.1.1.6,36,0.080,0.080,0.080,0.000,0.000,0.000
1644347695197995776,2022-02-08-19:14:55,10.1.1.6,35,0.070,0.070,0.070,0.000,0.000,0.000
1644347695258331904,2022-02-08-19:14:55,10.1.1.6,-6,0.070,0.070,0.070,0.000,0.000,0.000
1644347695398135040,2022-02-08-19:14:55,10.1.1.6,34,0.050,0.050,0.050,0.000,0.000,0.000
1644347695498123008,2022-02-08-19:14:55,10.1.1.6,33,0.040,0.040,0.040,0.000,0.000,0.000
1644347695597712128,2022-02-08-19:14:55,10.1.1.6,33,0.030,0.030,0.030,0.000,0.000,0.000
1644347695698085120,2022-02-08-19:14:55,10.1.1.6,31,0.020,0.020,0.020,0.000,0.000,0.000
1644347695799133952,2022-02-08-19:14:55,10.1.1.6,30,0.010,0.010,0.010,0.000,0.000,0.000
1644347695898446080,2022-02-08-19:14:55,10.1.1.6,29,0.000,0.000,0.000,0.000,0.000,0.000
1644347695998012928,2022-02-08-19:14:55,10.1.1.6,29,-0.010,-0.010,-0.010,0.000,0.000,0.000
1644347696098027008,2022-02-08-19:14:56,10.1.1.6,28,-0.020,-0.020,-0.020,0.000,0.000,0.000
1644347696197602048,2022-02-08-19:14:56,10.1.1.6,27,-0.030,-0.030,-0.030,0.000,0.000,0.000
1644347696298351104,2022-02-08-19:14:56,10.1.1.6,24,-0.040,-0.040,-0.040,0.000,0.000,0.000
1644347696398567936,2022-02-08-19:14:56,10.1.1.6,23,-0.050,-0.050,-0.050,0.000,0.000,0.000
1644347696497853952,2022-02-08-19:14:56,10.1.1.6,22,-0.060,-0.060,-0.060,0.000,0.000,0.000
1644347696597848064,2022-02-08-19:14:56,10.1.1.6,20,-0.070,-0.070,-0.070,0.000,0.000,0.000
1644347696698002944,2022-02-08-19:14:56,10.1.1.6,19,-0.080,-0.080,-0.080,0.000,0.000,0.000
1644347696818160896,2022-02-08-19:14:56,10.1.1.6,38,-0.090,-0.090,-0.090,0.000,0.000,0.000
1644347696918592000,2022-02-08-19:14:56,10.1.1.6,37,-0.100,-0.100,-0.100,0.000,0.000,0.000
1644347697018033152,2022-02-08-19:14:57,10.1.1.6,36,-0.090,-0.090,-0.090,0.000,0.000,0.000
1644347697118235136,2022-02-08-19:14:57,10.1.1.6,35,-0.080,-0.080,-0.080,0.000,0.000,0.000
1644347697217927936,2022-02-08-19:14:57,10.1.1.6,34,-0.070,-0.070,-0.070,0.000,0.000,0.000
1644347697318295040,2022-02-08-19:14:57,10.1.1.6,33,-0.060,-0.060,-0.060,0.000,0.000,0.000
1644347697418263808,2022-02-08-19:14:57,10.1.1.6,32,-0.050,-0.050,-0.050,0.000,0.000,0.000
1644347697519045120,2022-02-08-19:14:57,10.1.1.6,32,-0.040,-0.040,-0.040,0.000,0.000,0.000
1644347697618717952,2022-02-08-19:14:57,10.1.1.6,31,-0.030,-0.030,-0.030,0.000,0.000,0.000
1644347697720011008,2022-02-08-19:14:57,10.1.1.6,31,-0.020,-0.020,-0.020,0.000,0.000,0.000
1644347697818533888,2022-02-08-19:14:57,10.1.1.6,30,-0.010,-0.010,-0.010,0.000,0.000,0.000
1644347697921708032,2022-02-08-19:14:57,10.1.1.6,29,0.000,0.000,0.000,0.000,0.000,0.000
1644347698018987008,2022-02-08-19:14:58,10.1.1.6,28,0.010,0.010,0.010,0.000,0.000,0.000
1644347698118633984,2022-02-08-19:14:58,10.1.1.6,28,0.020,0.020,0.020,0.000,0.000,0.000
1644347698219394048,2022-02-08-19:14:58,10.1.1.6,27,0.030,0.030,0.030,0.000,0.000,0.000
1644347698318747904,2022-02-08-19:14:58,10.1.1.6,24,0.040,0.040,0.040,0.000,0.000,0.000
1644347698418825984,2022-02-08-19:14:58,10.1.1.6,23,0.050,0.050,0.050,0.000,0.000,0.000
1644347698519265792,2022-02-08-19:14:58,10.1.1.6,23,0.060,0.060,0.060,0.000,0.000,0.000
1644347698618242048,2022-02-08-19:14:58,10.1.1.6,22,0.070,0.070,0.070,0.000,0.000,0.000
1644347698719021056,2022-02-08-19:14:58,10.1.1.6,21,0.080,0.080,0.080,0.000,0.000,0.000
1644347698817817856,2022-02-08-19:14:58,10.1.1.6,21,0.090,0.090,0.090,0.000,0.000,0.000
1644347698918302976,2022-02-08-19:14:58,10.1.1.6,20,0.100,0.100,0.100,0.000,0.000,0.000
1644347699017432832,2022-02-08-19:14:59,10.1.1.6,20,0.090,0.090,0.090,0.000,0.000,0.000
1644347699118793984,2022-02-08-19:14:59,10.1.1.6,19,0.080,0.080,0.080,0.000,0.000,0.000
1644347699238801920,2022-02-08-19:14:59,10.1.1.6,38,0.070,0.070,0.070,0.000,0.000,0.000
1644347699339292160,2022-02-08-19:14:59,10.1.1.6,37,0.060,0.060,0.060,0.000,0.000,0.000
1644347699438219008,2022-02-08-19:14:59,10.1.1.6,36,0.050,0.050,0.050,0.000,0.000,0.000
1644347699538288128,2022-02-08-19:14:59,10.1.1.6,35,0.040,0.040,0.040,0.000,0.000,0.000
1644347699638628864,2022-02-08-19:14:59,10.1.1.6,34,0.030,0.030,0.030,0.000,0.000,0.000
1644347699737977856,2022-02-08-19:14:59,10.1.1.6,33,0.020,0.020,0.020,0.000,0.000,0.000
1644347699838499072,2022-02-08-19:14:59,10.1.1.6,33,0.010,0.010,0.010,0.000,0.000,0.000
1644347699938551808,2022-02-08-19:14:59,10.1.1.6,31,0.000,0.000,0.000,0.000,0.000,0.000
1644347700038840064,2022-02-08-19:15:00,10.1.1.6,23,-0.010,-0.010,-0.010,0.000,0.000,0.000
1644347700137954048,2022-02-08-19:15:00,10.1.1.6,22,-0.020,-0.020,-0.020,0.000,0.000,0.000
1644347700237721088,2022-02-08-19:15:00,10.1.1.6,22,-0.030,-0.030,-0.030,0.000,0.000,0.000
1644347700338138112,2022-02-08-19:15:00,10.1.1.6,21,-0.040,-0.040,-0.040,0.000,0.000,0.000
1644347700437952000,2022-02-08-19:15:00,10.1.1.6,20,-0.050,-0.050,-0.050,0.000,0.000,0.000
1644347700538100992,2022-02-08-19:15:00,10.1.1.6,20,-0.060,-0.060,-0.060,0.000,0.000,0.000
1644347700637886976,2022-02-08-19:15:00,10.1.1.6,19,-0.070,-0.070,-0.070,0.000,0.000,0.000
1644347700738212096,2022-02-08-19:15:00,10.1.1.6,19,-0.080,-0.080,-0.080,0.000,0.000,0.000
1644347700857920000,2022-02-08-19:15:00,10.1.1.6,38,-0.090,-0.090,-0.090,0.000,0.000,0.000
1644347700958172160,2022-02-08-19:15:00,10.1.1.6,36,-0.100,-0.100,-0.100,0.000,0.000,0.000
1644347701058063872,2022-02-08-19:15:01,10.1.1.6,36,-0.090,-0.090,-0.090,0.000,0.000,0.000
1644347701159192064,2022-02-08-19:15:01,10.1.1.6,35,-0.080,-0.080,-0.080,0.000,0.000,0.000
1644347701257913088,2022-02-08-19:15:01,10.1.1.6,34,-0.070,-0.070,-0.070,0.000,0.000,0.000
1644347701358632960,2022-02-08-19:15:01,10.1.1.6,32,-0.060,-0.060,-0.060,0.000,0.000,0.000
1644347701457752832,2022-02-08-19:15:01,10.1.1.6,30,-0.050,-0.050,-0.050,0.000,0.000,0.000
1644347701557533952,2022-02-08-19:15:01,10.1.1.6,29,-0.040,-0.040,-0.040,0.000,0.000,0.000
1644347701659166976,2022-02-08-19:15:01,10.1.1.6,28,-0.030,-0.030,-0.030,0.000,0.000,0.000
1644347701758223104,2022-02-08-19:15:01,10.1.1.6,28,-0.020,-0.020,-0.020,0.000,0.000,0.000
1644347701858493952,2022-02-08-19:15:01,10.1.1.6,27,-0.010,-0.010,-0.010,0.000,0.000,0.000
1644347701958365952,2022-02-08-19:15:01,10.1.1.6,26,0.000,0.000,0.000,0.000,0.000,0.000
1644347702058733824,2022-02-08-19:15:02,10.1.1.6,26,0.010,0.010,0.010,0.000,0.000,0.000
1644347702158135040,2022-02-08-19:15:02,10.1.1.6,24,0.020,0.020,0.020,0.000,0.000,0.000
1644347702257856000,2022-02-08-19:15:02,10.1.1.6,24,0.030,0.030,0.030,0.000,0.000,0.000
1644347702358099968,2022-02-08-19:15:02,10.1.1.6,23,0.040,0.040,0.040,0.000,0.000,0.000
1644347702457977088,2022-02-08-19:15:02,10.1.1.6,22,0.050,0.050,0.050,0.000,0.000,0.000
1644347702558008064,2022-02-08-19:15:02,10.1.1.6,22,0.060,0.060,0.060,0.000,0.000,0.000
1644347702658118912,2022-02-08-19:15:02,10.1.1.6,20,0.070,0.070,0.070,0.000,0.000,0.000
1644347702758252032,2022-02-08-19:15:02,10.1.1.6,20,0.080,0.080,0.080,0.000,0.000,0.000
1644347702859017984,2022-02-08-19:15:02,10.1.1.6,19,0.090,0.090,0.090,0.000,0.000,0.000
1644347702958213120,2022-02-08-19:15:02,10.1.1.6,19,0.099,0.099,0.099,0.000,0.000,0.000
1644347703077861120,2022-02-08-19:15:03,10.1.1.6,38,0.090,0.090,0.090,0.000,0.000,0.000
1644347703178644992,2022-02-08-19:15:03,10.1.1.6,38,0.080,0.080,0.080,0.000,0.000,0.000
1644347703278963968,2022-02-08-19:15:03,10.1.1.6,37,0.070,0.070,0.070,0.000,0.000,0.000
1644347703378184192,2022-02-08-19:15:03,10.1.1.6,36,0.060,0.060,0.060,0.000,0.000,0.000
1644347703480189952,2022-02-08-19:15:03,10.1.1.6,35,0.050,0.050,0.050,0.000,0.000,0.000
1644347703577737984,2022-02-08-19:15:03,10.1.1.6,34,0.040,0.040,0.040,0.000,0.000,0.000
1644347703678438912,2022-02-08-19:15:03,10.1.1.6,34,0.030,0.030,0.030,0.000,0.000,0.000
1644347703778157824,2022-02-08-19:15:03,10.1.1.6,33,0.020,0.020,0.020,0.000,0.000,0.000
1644347703879196928,2022-02-08-19:15:03,10.1.1.6,33,0.010,0.010,0.010,0.000,0.000,0.000
1644347703977638912,2022-02-08-19:15:03,10.1.1.6,32,0.000,0.000,0.000,0.000,0.000,0.000
1644347704078002944,2022-02-08-19:15:04,10.1.1.6,31,-0.010,-0.010,-0.010,0.000,0.000,0.000
1644347704178077952,2022-02-08-19:15:04,10.1.1.6,30,-0.020,-0.020,-0.020,0.000,0.000,0.000
1644347704277800192,2022-02-08-19:15:04,10.1.1.6,30,-0.030,-0.030,-0.030,0.000,0.000,0.000
1644347704378078976,2022-02-08-19:15:04,10.1.1.6,29,-0.040,-0.040,-0.040,0.000,0.000,0.000
1644347704478403072,2022-02-08-19:15:04,10.1.1.6,28,-0.050,-0.050,-0.050,0.000,0.000,0.000
1644347704577701120,2022-02-08-19:15:04,10.1.1.6,27,-0.060,-0.060,-0.060,0.000,0.000,0.000
1644347704677890048,2022-02-08-19:15:04,10.1.1.6,27,-0.070,-0.070,-0.070,0.000,0.000,0.000
1644347704777668864,2022-02-08-19:15:04,10.1.1.6,26,-0.080,-0.080,-0.080,0.000,0.000,0.000
1644347704877665024,2022-02-08-19:15:04,10.1.1.6,25,-0.090,-0.090,-0.090,0.000,0.000,0.000
1644347704977516032,2022-02-08-19:15:04,10.1.1.6,24,-0.100,-0.100,-0.100,0.000,0.000,0.000
1644347705078385152,2022-02-08-19:15:05,10.1.1.6,24,-0.090,-0.090,-0.090,0.000,0.000,0.000
1644347705178054144,2022-02-08-19:15:05,10.1.1.6,23,-0.080,-0.080,-0.080,0.000,0.000,0.000
1644347705281366016,2022-02-08-19:15:05,10.1.1.6,22,-0.070,-0.070,-0.070,0.000,0.000,0.000
1644347705377464064,2022-02-08-19:15:05,10.1.1.6,21,-0.060,-0.060,-0.060,0.000,0.000,0.000
1644347705477724160,2022-02-08-19:15:05,10.1.1.6,20,-0.050,-0.050,-0.050,0.000,0.000,0.000
1644347705577569024,2022-02-08-19:15:05,10.1.1.6,20,-0.040,-0.040,-0.040,0.000,0.000,0.000
1644347705678899968,2022-02-08-19:15:05,10.1.1.6,20,-0.030,-0.030,-0.030,0.000,0.000,0.000
1644347705778144000,2022-02-08-19:15:05,10.1.1.6,19,-0.021,-0.021,-0.021,0.000,0.000,0.000
1644347705898555904,2022-02-08-19:15:05,10.1.1.6,38,-0.010,-0.010,-0.010,0.000,0.000,0.000
1644347705997597952,2022-02-08-19:15:05,10.1.1.6,37,0.000,0.000,0.000,0.000,0.000,0.000
1644347706097320960,2022-02-08-19:15:06,10.1.1.6,36,0.010,0.010,0.010,0.000,0.000,0.000
1644347706198334976,2022-02-08-19:15:06,10.1.1.6,36,0.020,0.020,0.020,0.000,0.000,0.000
1644347706298379776,2022-02-08-19:15:06,10.1.1.6,35,0.030,0.030,0.030,0.000,0.000,0.000
1644347706398142976,2022-02-08-19:15:06,10.1.1.6,34,0.040,0.040,0.040,0.000,0.000,0.000
1644347706498382080,2022-02-08-19:15:06,10.1.1.6,34,0.050,0.050,0.050,0.000,0.000,0.000
1644347706597778944,2022-02-08-19:15:06,10.1.1.6,33,0.060,0.060,0.060,0.000,0.000,0.000
1644347706698297088,2022-02-08-19:15:06,10.1.1.6,33,0.070,0.070,0.070,0.000,0.000,0.000
1644347706797619968,2022-02-08-19:15:06,10.1.1.6,32,0.080,0.080,0.080,0.000,0.000,0.000
1644347706898484992,2022-02-08-19:15:06,10.1.1.6,31,0.090,0.090,0.090,0.000,0.000,0.000
1644347706998217216,2022-02-08-19:15:06,10.1.1.6,30,0.100,0.100,0.100,0.000,0.000,0.000
1644347707098215168,2022-02-08-19:15:07,10.1.1.6,30,0.090,0.090,0.090,0.000,0.000,0.000
1644347707198193920,2022-02-08-19:15:07,10.1.1.6,29,0.080,0.080,0.080,0.000,0.000,0.000
1644347707298368000,2022-02-08-19:15:07,10.1.1.6,28,0.070,0.070,0.070,0.000,0.000,0.000
1644347707397895936,2022-02-08-19:15:07,10.1.1.6,28,0.060,0.060,0.060,0.000,0.000,0.000
1644347707497758976,2022-02-08-19:15:07,10.1.1.6,27,0.050,0.050,0.050,0.000,0.000,0.000
1644347707598819072,2022-02-08-19:15:07,10.1.1.6,27,0.040,0.040,0.040,0.000,0.000,0.000
1644347707697804800,2022-02-08-19:15:07,10.1.1.6,25,0.030,0.030,0.030,0.000,0.000,0.000
1644347707797805056,2022-02-08-19:15:07,10.1.1.6,23,0.020,0.020,0.020,0.000,0.000,0.000
1644347707898525952,2022-02-08-19:15:07,10.1.1.6,23,0.010,0.010,0.010,0.000,0.000,0.000
1644347707999123968,2022-02-08-19:15:07,10.1.1.6,22,0.000,0.000,0.000,0.000,0.000,0.000
1644347708098089984,2022-02-08-19:15:08,10.1.1.6,21,-0.010,-0.010,-0.010,0.000,0.000,0.000
1644347708198642944,2022-02-08-19:15:08,10.1.1.6,20,-0.020,-0.020,-0.020,0.000,0.000,0.000
1644347708299549184,2022-02-08-19:15:08,10.1.1.6,20,-0.030,-0.030,-0.030,0.000,0.000,0.000
1644347708399409152,2022-02-08-19:15:08,10.1.1.6,19,-0.040,-0.040,-0.040,0.000,0.000,0.000
1644347708519473152,2022-02-08-19:15:08,10.1.1.6,38,-0.050,-0.050,-0.050,0.000,0.000,0.000
1644347708619934208,2022-02-08-19:15:08,10.1.1.6,38,-0.060,-0.060,-0.060,0.000,0.000,0.000
1644347708720196864,2022-02-08-19:15:08,10.1.1.6,37,-0.070,-0.070,-0.070,0.000,0.000,0.000
1644347708819847168,2022-02-08-19:15:08,10.1.1.6,36,-0.080,-0.080,-0.080,0.000,0.000,0.000
1644347708930267136,2022-02-08-19:15:08,10.1.1.6,22,-0.090,-0.090,-0.090,0.000,0.000,0.000
1644347709108386048,2022-02-08-19:15:09,10.1.1.6,-5,-0.090,-0.090,-0.090,0.000,0.000,0.000
1644347709240130048,2022-02-08-19:15:09,10.1.1.6,34,-0.080,-0.080,-0.080,0.000,0.000,0.000
1644347709337793024,2022-02-08-19:15:09,10.1.1.6,34,-0.070,-0.070,-0.070,0.000,0.000,0.000
1644347709437699072,2022-02-08-19:15:09,10.1.1.6,34,-0.060,-0.060,-0.060,0.000,0.000,0.000
1644347709537597952,2022-02-08-19:15:09,10.1.1.6,33,-0.050,-0.050,-0.050,0.000,0.000,0.000
1644347709637531136,2022-02-08-19:15:09,10.1.1.6,33,-0.040,-0.040,-0.040,0.000,0.000,0.000
1644347709737703936,2022-02-08-19:15:09,10.1.1.6,33,-0.030,-0.030,-0.030,0.000,0.000,0.000
1644347709837245952,2022-02-08-19:15:09,10.1.1.6,32,-0.020,-0.020,-0.020,0.000,0.000,0.000
1644347709937707008,2022-02-08-19:15:09,10.1.1.6,32,-0.010,-0.010,-0.010,0.000,0.000,0.000
1644347710037743104,2022-02-08-19:15:10,10.1.1.6,32,0.000,0.000,0.000,0.000,0.000,0.000
1644347710137382144,2022-02-08-19:15:10,10.1.1.6,31,0.010,0.010,0.010,0.000,0.000,0.000
1644347710237593856,2022-02-08-19:15:10,10.1.1.6,31,0.020,0.020,0.020,0.000,0.000,0.000
1644347710337812992,2022-02-08-19:15:10,10.1.1.6,30,0.030,0.030,0.030,0.000,0.000,0.000
1644347710437593088,2022-02-08-19:15:10,10.1.1.6,30,0.040,0.040,0.040,0.000,0.000,0.000
1644347710537693952,2022-02-08-19:15:10,10.1.1.6,29,0.050,0.050,0.050,0.000,0.000,0.000
1644347710637644032,2022-02-08-19:15:10,10.1.1.6,29,0.060,0.060,0.060,0.000,0.000,0.000
1644347710738131968,2022-02-08-19:15:10,10.1.1.6,28,0.070,0.070,0.070,0.000,0.000,0.000
1644347710838206976,2022-02-08-19:15:10,10.1.1.6,27,0.080,0.080,0.080,0.000,0.000,0.000
1644347710937531904,2022-02-08-19:15:10,10.1.1.6,26,0.090,0.090,0.090,0.000,0.000,0.000
1644347711038109184,2022-02-08-19:15:11,10.1.1.6,25,0.100,0.100,0.100,0.000,0.000,0.000
1644347711137959936,2022-02-08-19:15:11,10.1.1.6,24,0.090,0.090,0.090,0.000,0.000,0.000
1644347711237741056,2022-02-08-19:15:11,10.1.1.6,24,0.080,0.080,0.080,0.000,0.000,0.000
1644347711337934848,2022-02-08-19:15:11,10.1.1.6,24,0.070,0.070,0.070,0.000,0.000,0.000
1644347711438039040,2022-02-08-19:15:11,10.1.1.6,23,0.060,0.060,0.060,0.000,0.000,0.000
1644347711537698048,2022-02-08-19:15:11,10.1.1.6,22,0.050,0.050,0.050,0.000,0.000,0.000
1644347711637693952,2022-02-08-19:15:11,10.1.1.6,21,0.040,0.040,0.040,0.000,0.000,0.000
1644347711738403072,2022-02-08-19:15:11,10.1.1.6,20,0.030,0.030,0.030,0.000,0.000,0.000
1644347711838377984,2022-02-08-19:15:11,10.1.1.6,20,0.020,0.020,0.020,0.000,0.000,0.000
1644347711937617920,2022-02-08-19:15:11,10.1.1.6,18,0.011,0.011,0.011,0.000,0.000,0.000
1644347712058407168,2022-02-08-19:15:12,10.1.1.6,37,0.000,0.000,0.000,0.000,0.000,0.000
1644347712157666048,2022-02-08-19:15:12,10.1.1.6,36,-0.010,-0.010,-0.010,0.000,0.000,0.000
1644347712260016896,2022-02-08-19:15:12,10.1.1.6,36,-0.020,-0.020,-0.020,0.000,0.000,0.000
1644347712358413824,2022-02-08-19:15:12,10.1.1.6,32,-0.030,-0.030,-0.030,0.000,0.000,0.000
1644347712460395008,2022-02-08-19:15:12,10.1.1.6,31,-0.040,-0.040,-0.040,0.000,0.000,0.000
1644347712558542080,2022-02-08-19:15:12,10.1.1.6,31,-0.050,-0.050,-0.050,0.000,0.000,0.000
1644347712657723904,2022-02-08-19:15:12,10.1.1.6,30,-0.060,-0.060,-0.060,0.000,0.000,0.000
1644347712758177024,2022-02-08-19:15:12,10.1.1.6,29,-0.070,-0.070,-0.070,0.000,0.000,0.000
1644347712858285056,2022-02-08-19:15:12,10.1.1.6,28,-0.080,-0.080,-0.080,0.000,0.000,0.000
1644347712958161152,2022-02-08-19:15:12,10.1.1.6,28,-0.090,-0.090,-0.090,0.000,0.000,0.000
1644347713057742080,2022-02-08-19:15:13,10.1.1.6,27,-0.100,-0.100,-0.100,0.000,0.000,0.000
1644347713158248960,2022-02-08-19:15:13,10.1.1.6,27,-0.090,-0.090,-0.090,0.000,0.000,0.000
1644347713258444032,2022-02-08-19:15:13,10.1.1.6,26,-0.080,-0.080,-0.080,0.000,0.000,0.000
1644347713358115072,2022-02-08-19:15:13,10.1.1.6,25,-0.070,-0.070,-0.070,0.000,0.000,0.000
1644347713457752064,2022-02-08-19:15:13,10.1.1.6,24,-0.060,-0.060,-0.060,0.000,0.000,0.000
1644347713557605120,2022-02-08-19:15:13,10.1.1.6,24,-0.050,-0.050,-0.050,0.000,0.000,0.000
1644347713658145792,2022-02-08-19:15:13,10.1.1.6,23,-0.040,-0.040,-0.040,0.000,0.000,0.000
1644347713757942016,2022-02-08-19:15:13,10.1.1.6,23,-0.030,-0.030,-0.030,0.000,0.000,0.000
1644347713857636096,2022-02-08-19:15:13,10.1.1.6,22,-0.020,-0.020,-0.020,0.000,0.000,0.000
1644347713957761024,2022-02-08-19:15:13,10.1.1.6,22,-0.010,-0.010,-0.010,0.000,0.000,0.000
1644347714058083072,2022-02-08-19:15:14,10.1.1.6,21,0.000,0.000,0.000,0.000,0.000,0.000
1644347714157782016,2022-02-08-19:15:14,10.1.1.6,21,0.010,0.010,0.010,0.000,0.000,0.000
1644347714258116864,2022-02-08-19:15:14,10.1.1.6,20,0.020,0.020,0.020,0.000,0.000,0.000
1644347714358119936,2022-02-08-19:15:14,10.1.1.6,20,0.030,0.030,0.030,0.000,0.000,0.000
1644347714480950016,2022-02-08-19:15:14,10.1.1.6,41,0.040,0.040,0.040,0.000,0.000,0.000
1644347714577449984,2022-02-08-19:15:14,10.1.1.6,37,0.050,0.050,0.050,0.000,0.000,0.000
1644347714677257984,2022-02-08-19:15:14,10.1.1.6,36,0.060,0.060,0.060,0.000,0.000,0.000
1644347714778072064,2022-02-08-19:15:14,10.1.1.6,36,0.070,0.070,0.070,0.000,0.000,0.000
1644347714877524992,2022-02-08-19:15:14,10.1.1.6,35,0.080,0.080,0.080,0.000,0.000,0.000
1644347714977889024,2022-02-08-19:15:14,10.1.1.6,34,0.090,0.090,0.090,0.000,0.000,0.000
1644347715077809152,2022-02-08-19:15:15,10.1.1.6,34,0.100,0.100,0.100,0.000,0.000,0.000
1644347715177581056,2022-02-08-19:15:15,10.1.1.6,34,0.090,0.090,0.090,0.000,0.000,0.000
1644347715277710080,2022-02-08-19:15:15,10.1.1.6,33,0.080,0.080,0.080,0.000,0.000,0.000
1644347715377416960,2022-02-08-19:15:15,10.1.1.6,33,0.070,0.070,0.070,0.000,0.000,0.000
1644347715478051840,2022-02-08-19:15:15,10.1.1.6,32,0.060,0.060,0.060,0.000,0.000,0.000
1644347715577377024,2022-02-08-19:15:15,10.1.1.6,31,0.050,0.050,0.050,0.000,0.000,0.000
1644347715678477056,2022-02-08-19:15:15,10.1.1.6,31,0.040,0.040,0.040,0.000,0.000,0.000
1644347715878835968,2022-02-08-19:15:15,10.1.1.6,28,0.020,0.020,0.020,0.000,0.000,0.000
1644347715978279168,2022-02-08-19:15:15,10.1.1.6,27,0.010,0.010,0.010,0.000,0.000,0.000
1644347716078084864,2022-02-08-19:15:16,10.1.1.6,26,0.000,0.000,0.000,0.000,0.000,0.000
1644347716178112000,2022-02-08-19:15:16,10.1.1.6,25,-0.010,-0.010,-0.010,0.000,0.000,0.000
1644347716277723136,2022-02-08-19:15:16,10.1.1.6,24,-0.020,-0.020,-0.020,0.000,0.000,0.000
1644347716378384128,2022-02-08-19:15:16,10.1.1.6,24,-0.030,-0.030,-0.030,0.000,0.000,0.000
1644347716478208000,2022-02-08-19:15:16,10.1.1.6,23,-0.040,-0.040,-0.040,0.000,0.000,0.000
1644347716578493184,2022-02-08-19:15:16,10.1.1.6,23,-0.050,-0.050,-0.050,0.000,0.000,0.000
1644347716678333952,2022-02-08-19:15:16,10.1.1.6,22,-0.060,-0.060,-0.060,0.000,0.000,0.000
1644347716777741056,2022-02-08-19:15:16,10.1.1.6,21,-0.070,-0.070,-0.070,0.000,0.000,0.000
1644347716878292992,2022-02-08-19:15:16,10.1.1.6,21,-0.080,-0.080,-0.080,0.000,0.000,0.000
1644347716977906944,2022-02-08-19:15:16,10.1.1.6,20,-0.090,-0.090,-0.090,0.000,0.000,0.000
1644347717077810176,2022-02-08-19:15:17,10.1.1.6,20,-0.100,-0.100,-0.100,0.000,0.000,0.000
1644347717178272000,2022-02-08-19:15:17,10.1.1.6,19,-0.090,-0.090,-0.090,0.000,0.000,0.000
1644347717277534976,2022-02-08-19:15:17,10.1.1.6,19,-0.081,-0.081,-0.081,0.000,0.000,0.000
1644347717377955840,2022-02-08-19:15:17,10.1.1.6,18,-0.071,-0.071,-0.071,0.000,0.000,0.000
1644347717498384896,2022-02-08-19:15:17,10.1.1.6,37,-0.060,-0.060,-0.060,0.000,0.000,0.000
1644347717597513984,2022-02-08-19:15:17,10.1.1.6,36,-0.050,-0.050,-0.050,0.000,0.000,0.000
1644347717697792000,2022-02-08-19:15:17,10.1.1.6,36,-0.040,-0.040,-0.040,0.000,0.000,0.000
1644347717798051072,2022-02-08-19:15:17,10.1.1.6,35,-0.030,-0.030,-0.030,0.000,0.000,0.000
1644347717897697024,2022-02-08-19:15:17,10.1.1.6,34,-0.020,-0.020,-0.020,0.000,0.000,0.000
1644347717997814784,2022-02-08-19:15:17,10.1.1.6,33,-0.010,-0.010,-0.010,0.000,0.000,0.000
1644347718097372928,2022-02-08-19:15:18,10.1.1.6,33,0.000,0.000,0.000,0.000,0.000,0.000
1644347718198028032,2022-02-08-19:15:18,10.1.1.6,32,0.010,0.010,0.010,0.000,0.000,0.000
1644347718298158848,2022-02-08-19:15:18,10.1.1.6,32,0.020,0.020,0.020,0.000,0.000,0.000
1644347718397658112,2022-02-08-19:15:18,10.1.1.6,31,0.030,0.030,0.030,0.000,0.000,0.000
1644347718498391040,2022-02-08-19:15:18,10.1.1.6,30,0.040,0.040,0.040,0.000,0.000,0.000
1644347718598074880,2022-02-08-19:15:18,10.1.1.6,30,0.050,0.050,0.050,0.000,0.000,0.000
1644347718698087936,2022-02-08-19:15:18,10.1.1.6,29,0.060,0.060,0.060,0.000,0.000,0.000
1644347718798224896,2022-02-08-19:15:18,10.1.1.6,29,0.070,0.070,0.070,0.000,0.000,0.000
1644347718898035968,2022-02-08-19:15:18,10.1.1.6,28,0.080,0.080,0.080,0.000,0.000,0.000
1644347718997752064,2022-02-08-19:15:18,10.1.1.6,28,0.090,0.090,0.090,0.000,0.000,0.000
1644347719097927936,2022-02-08-19:15:19,10.1.1.6,27,0.100,0.100,0.100,0.000,0.000,0.000
1644347719197573888,2022-02-08-19:15:19,10.1.1.6,27,0.090,0.090,0.090,0.000,0.000,0.000
1644347719298049024,2022-02-08-19:15:19,10.1.1.6,26,0.080,0.080,0.080,0.000,0.000,0.000
1644347719398263808,2022-02-08-19:15:19,10.1.1.6,25,0.070,0.070,0.070,0.000,0.000,0.000
1644347719498264064,2022-02-08-19:15:19,10.1.1.6,24,0.060,0.060,0.060,0.000,0.000,0.000
1644347719598448128,2022-02-08-19:15:19,10.1.1.6,24,0.050,0.050,0.050,0.000,0.000,0.000
1644347719699440128,2022-02-08-19:15:19,10.1.1.6,23,0.040,0.040,0.040,0.000,0.000,0.000
1644347719797532928,2022-02-08-19:15:19,10.1.1.6,22,0.030,0.030,0.030,0.000,0.000,0.000
1644347719897573120,2022-02-08-19:15:19,10.1.1.6,22,0.020,0.020,0.020,0.000,0.000,0.000
1644347719998095104,2022-02-08-19:15:19,10.1.1.6,21,0.010,0.010,0.010,0.000,0.000,0.000
1644347720098046976,2022-02-08-19:15:20,10.1.1.6,20,0.000,0.000,0.000,0.000,0.000,0.000
1644347720198515968,2022-02-08-19:15:20,10.1.1.6,19,-0.010,-0.010,-0.010,0.000,0.000,0.000
1644347720297640192,2022-02-08-19:15:20,10.1.1.6,19,-0.019,-0.019,-0.019,0.000,0.000,0.000
1644347720417760000,2022-02-08-19:15:20,10.1.1.6,38,-0.030,-0.030,-0.030,0.000,0.000,0.000
1644347720517755904,2022-02-08-19:15:20,10.1.1.6,37,-0.040,-0.040,-0.040,0.000,0.000,0.000
1644347720618190080,2022-02-08-19:15:20,10.1.1.6,36,-0.050,-0.050,-0.050,0.000,0.000,0.000
1644347720717971968,2022-02-08-19:15:20,10.1.1.6,35,-0.060,-0.060,-0.060,0.000,0.000,0.000
1644347720818769920,2022-02-08-19:15:20,10.1.1.6,35,-0.070,-0.070,-0.070,0.000,0.000,0.000
1644347720918035968,2022-02-08-19:15:20,10.1.1.6,34,-0.080,-0.080,-0.080,0.000,0.000,0.000
1644347721018168832,2022-02-08-19:15:21,10.1.1.6,32,-0.090,-0.090,-0.090,0.000,0.000,0.000
1644347721118609920,2022-02-08-19:15:21,10.1.1.6,32,-0.100,-0.100,-0.100,0.000,0.000,0.000
1644347721217966080,2022-02-08-19:15:21,10.1.1.6,31,-0.090,-0.090,-0.090,0.000,0.000,0.000
1644347721318185984,2022-02-08-19:15:21,10.1.1.6,31,-0.080,-0.080,-0.080,0.000,0.000,0.000
1644347721418156032,2022-02-08-19:15:21,10.1.1.6,30,-0.070,-0.070,-0.070,0.000,0.000,0.000
1644347721518046976,2022-02-08-19:15:21,10.1.1.6,29,-0.060,-0.060,-0.060,0.000,0.000,0.000
1644347721619847168,2022-02-08-19:15:21,10.1.1.6,28,-0.050,-0.050,-0.050,0.000,0.000,0.000
1644347721717835776,2022-02-08-19:15:21,10.1.1.6,27,-0.040,-0.040,-0.040,0.000,0.000,0.000
1644347721818305024,2022-02-08-19:15:21,10.1.1.6,26,-0.030,-0.030,-0.030,0.000,0.000,0.000
1644347721918093824,2022-02-08-19:15:21,10.1.1.6,25,-0.020,-0.020,-0.020,0.000,0.000,0.000
1644347722018067968,2022-02-08-19:15:22,10.1.1.6,25,-0.010,-0.010,-0.010,0.000,0.000,0.000
1644347722118554112,2022-02-08-19:15:22,10.1.1.6,24,0.000,0.000,0.000,0.000,0.000,0.000
1644347722217972992,2022-02-08-19:15:22,10.1.1.6,23,0.010,0.010,0.010,0.000,0.000,0.000
1644347722317830144,2022-02-08-19:15:22,10.1.1.6,22,0.020,0.020,0.020,0.000,0.000,0.000
1644347722418569984,2022-02-08-19:15:22,10.1.1.6,21,0.030,0.030,0.030,0.000,0.000,0.000
1644347722518095104,2022-02-08-19:15:22,10.1.1.6,21,0.040,0.040,0.040,0.000,0.000,0.000
1644347722618475008,2022-02-08-19:15:22,10.1.1.6,20,0.050,0.050,0.050,0.000,0.000,0.000
1644347722718439168,2022-02-08-19:15:22,10.1.1.6,20,0.060,0.060,0.060,0.000,0.000,0.000
1644347722818258944,2022-02-08-19:15:22,10.1.1.6,19,0.070,0.070,0.070,0.000,0.000,0.000
1644347722918430208,2022-02-08-19:15:22,10.1.1.6,19,0.079,0.079,0.079,0.000,0.000,0.000
1644347723037812992,2022-02-08-19:15:23,10.1.1.6,38,0.090,0.090,0.090,0.000,0.000,0.000
1644347723138103040,2022-02-08-19:15:23,10.1.1.6,37,0.100,0.100,0.100,0.000,0.000,0.000
1644347723237739008,2022-02-08-19:15:23,10.1.1.6,36,0.090,0.090,0.090,0.000,0.000,0.000
1644347723338035968,2022-02-08-19:15:23,10.1.1.6,35,0.080,0.080,0.080,0.000,0.000,0.000
1644347723438296064,2022-02-08-19:15:23,10.1.1.6,26,0.070,0.070,0.070,0.000,0.000,0.000
1644347723537970176,2022-02-08-19:15:23,10.1.1.6,25,0.060,0.060,0.060,0.000,0.000,0.000
1644347723638656000,2022-02-08-19:15:23,10.1.1.6,24,0.050,0.050,0.050,0.000,0.000,0.000
1644347723738078976,2022-02-08-19:15:23,10.1.1.6,23,0.040,0.040,0.040,0.000,0.000,0.000
1644347723838084864,2022-02-08-19:15:23,10.1.1.6,23,0.030,0.030,0.030,0.000,0.000,0.000
1644347723937762048,2022-02-08-19:15:23,10.1.1.6,22,0.020,0.020,0.020,0.000,0.000,0.000
1644347724037990144,2022-02-08-19:15:24,10.1.1.6,22,0.010,0.010,0.010,0.000,0.000,0.000
1644347724138100992,2022-02-08-19:15:24,10.1.1.6,21,0.000,0.000,0.000,0.000,0.000,0.000
1644347724238146048,2022-02-08-19:15:24,10.1.1.6,20,-0.010,-0.010,-0.010,0.000,0.000,0.000
1644347724337722112,2022-02-08-19:15:24,10.1.1.6,20,-0.020,-0.020,-0.020,0.000,0.000,0.000
1644347724437820928,2022-02-08-19:15:24,10.1.1.6,19,-0.030,-0.030,-0.030,0.000,0.000,0.000
1644347724537784064,2022-02-08-19:15:24,10.1.1.6,19,-0.039,-0.039,-0.039,0.000,0.000,0.000
1644347724658381824,2022-02-08-19:15:24,10.1.1.6,39,-0.050,-0.050,-0.050,0.000,0.000,0.000
1644347724757863168,2022-02-08-19:15:24,10.1.1.6,38,-0.060,-0.060,-0.060,0.000,0.000,0.000
1644347724857615872,2022-02-08-19:15:24,10.1.1.6,37,-0.070,-0.070,-0.070,0.000,0.000,0.000
1644347724957617920,2022-02-08-19:15:24,10.1.1.6,36,-0.080,-0.080,-0.080,0.000,0.000,0.000
1644347725058170112,2022-02-08-19:15:25,10.1.1.6,35,-0.090,-0.090,-0.090,0.000,0.000,0.000
1644347725158320896,2022-02-08-19:15:25,10.1.1.6,34,-0.100,-0.100,-0.100,0.000,0.000,0.000
1644347725258481152,2022-02-08-19:15:25,10.1.1.6,34,-0.090,-0.090,-0.090,0.000,0.000,0.000
1644347725357673984,2022-02-08-19:15:25,10.1.1.6,33,-0.080,-0.080,-0.080,0.000,0.000,0.000
1644347725457596160,2022-02-08-19:15:25,10.1.1.6,32,-0.070,-0.070,-0.070,0.000,0.000,0.000
1644347725558221056,2022-02-08-19:15:25,10.1.1.6,31,-0.060,-0.060,-0.060,0.000,0.000,0.000
1644347725658330880,2022-02-08-19:15:25,10.1.1.6,31,-0.050,-0.050,-0.050,0.000,0.000,0.000
1644347725758064128,2022-02-08-19:15:25,10.1.1.6,31,-0.040,-0.040,-0.040,0.000,0.000,0.000
1644347725857774080,2022-02-08-19:15:25,10.1.1.6,30,-0.030,-0.030,-0.030,0.000,0.000,0.000
1644347725958759936,2022-02-08-19:15:25,10.1.1.6,30,-0.020,-0.020,-0.020,0.000,0.000,0.000
1644347726057710848,2022-02-08-19:15:26,10.1.1.6,29,-0.010,-0.010,-0.010,0.000,0.000,0.000
1644347726157474048,2022-02-08-19:15:26,10.1.1.6,28,0.000,0.000,0.000,0.000,0.000,0.000
1644347726258668800,2022-02-08-19:15:26,10.1.1.6,28,0.010,0.010,0.010,0.000,0.000,0.000
1644347726357821952,2022-02-08-19:15:26,10.1.1.6,27,0.020,0.020,0.020,0.000,0.000,0.000
1644347726458686976,2022-02-08-19:15:26,10.1.1.6,27,0.030,0.030,0.030,0.000,0.000,0.000
1644347726557975040,2022-02-08-19:15:26,10.1.1.6,26,0.040,0.040,0.040,0.000,0.000,0.000
1644347726658093056,2022-02-08-19:15:26,10.1.1.6,24,0.050,0.050,0.050,0.000,0.000,0.000
1644347726757746944,2022-02-08-19:15:26,10.1.1.6,22,0.060,0.060,0.060,0.000,0.000,0.000
1644347726857868800,2022-02-08-19:15:26,10.1.1.6,21,0.070,0.070,0.070,0.000,0.000,0.000
1644347726957997056,2022-02-08-19:15:26,10.1.1.6,19,0.080,0.080,0.080,0.000,0.000,0.000
1644347727057874944,2022-02-08-19:15:27,10.1.1.6,19,0.089,0.089,0.089,0.000,0.000,0.000
1644347727177954816,2022-02-08-19:15:27,10.1.1.6,38,0.100,0.100,0.100,0.000,0.000,0.000
1644347727278178816,2022-02-08-19:15:27,10.1.1.6,38,0.090,0.090,0.090,0.000,0.000,0.000
1644347727378099968,2022-02-08-19:15:27,10.1.1.6,37,0.080,0.080,0.080,0.000,0.000,0.000
1644347727478328832,2022-02-08-19:15:27,10.1.1.6,36,0.070,0.070,0.070,0.000,0.000,0.000
1644347727577658880,2022-02-08-19:15:27,10.1.1.6,35,0.060,0.060,0.060,0.000,0.000,0.000
1644347727677739008,2022-02-08-19:15:27,10.1.1.6,35,0.050,0.050,0.050,0.000,0.000,0.000
1644347727778287872,2022-02-08-19:15:27,10.1.1.6,34,0.040,0.040,0.040,0.000,0.000,0.000
1644347727879250944,2022-02-08-19:15:27,10.1.1.6,33,0.030,0.030,0.030,0.000,0.000,0.000
1644347727979132928,2022-02-08-19:15:27,10.1.1.6,32,0.020,0.020,0.020,0.000,0.000,0.000
1644347728077982976,2022-02-08-19:15:28,10.1.1.6,31,0.010,0.010,0.010,0.000,0.000,0.000
1644347728177899008,2022-02-08-19:15:28,10.1.1.6,30,0.000,0.000,0.000,0.000,0.000,0.000
1644347728277900032,2022-02-08-19:15:28,10.1.1.6,30,-0.010,-0.010,-0.010,0.000,0.000,0.000
1644347728378464000,2022-02-08-19:15:28,10.1.1.6,29,-0.020,-0.020,-0.020,0.000,0.000,0.000
1644347728478172928,2022-02-08-19:15:28,10.1.1.6,28,-0.030,-0.030,-0.030,0.000,0.000,0.000
1644347728577902080,2022-02-08-19:15:28,10.1.1.6,27,-0.040,-0.040,-0.040,0.000,0.000,0.000
1644347728678019072,2022-02-08-19:15:28,10.1.1.6,25,-0.050,-0.050,-0.050,0.000,0.000,0.000
1644347728777955072,2022-02-08-19:15:28,10.1.1.6,24,-0.060,-0.060,-0.060,0.000,0.000,0.000
1644347728878763008,2022-02-08-19:15:28,10.1.1.6,24,-0.070,-0.070,-0.070,0.000,0.000,0.000
1644347728978108928,2022-02-08-19:15:28,10.1.1.6,23,-0.080,-0.080,-0.080,0.000,0.000,0.000
1644347729077665024,2022-02-08-19:15:29,10.1.1.6,23,-0.090,-0.090,-0.090,0.000,0.000,0.000
1644347729178283008,2022-02-08-19:15:29,10.1.1.6,22,-0.100,-0.100,-0.100,0.000,0.000,0.000
1644347729277796096,2022-02-08-19:15:29,10.1.1.6,22,-0.090,-0.090,-0.090,0.000,0.000,0.000
1644347729378139904,2022-02-08-19:15:29,10.1.1.6,21,-0.080,-0.080,-0.080,0.000,0.000,0.000
1644347729478188032,2022-02-08-19:15:29,10.1.1.6,20,-0.070,-0.070,-0.070,0.000,0.000,0.000
1644347729578505984,2022-02-08-19:15:29,10.1.1.6,20,-0.060,-0.060,-0.060,0.000,0.000,0.000
1644347729678289920,2022-02-08-19:15:29,10.1.1.6,20,-0.050,-0.050,-0.050,0.000,0.000,0.000
1644347729778176000,2022-02-08-19:15:29,10.1.1.6,19,-0.040,-0.040,-0.040,0.000,0.000,0.000
1644347729897716992,2022-02-08-19:15:29,10.1.1.6,39,-0.030,-0.030,-0.030,0.000,0.000,0.000
1644347729978523136,2022-02-08-19:15:29,10.1.1.6,18,-0.021,-0.021,-0.021,0.000,0.000,0.000
1644347730099392768,2022-02-08-19:15:30,10.1.1.6,37,-0.010,-0.010,-0.010,0.000,0.000,0.000
1644347730198298880,2022-02-08-19:15:30,10.1.1.6,36,0.000,0.000,0.000,0.000,0.000,0.000
1644347730297679872,2022-02-08-19:15:30,10.1.1.6,36,0.010,0.010,0.010,0.000,0.000,0.000
1644347730398295040,2022-02-08-19:15:30,10.1.1.6,35,0.020,0.020,0.020,0.000,0.000,0.000
1644347730498051840,2022-02-08-19:15:30,10.1.1.6,34,0.030,0.030,0.030,0.000,0.000,0.000
1644347730599250176,2022-02-08-19:15:30,10.1.1.6,34,0.040,0.040,0.040,0.000,0.000,0.000
1644347730698169088,2022-02-08-19:15:30,10.1.1.6,33,0.050,0.050,0.050,0.000,0.000,0.000
1644347730797854976,2022-02-08-19:15:30,10.1.1.6,32,0.060,0.060,0.060,0.000,0.000,0.000
1644347730899281920,2022-02-08-19:15:30,10.1.1.6,32,0.070,0.070,0.070,0.000,0.000,0.000
1644347730998123776,2022-02-08-19:15:30,10.1.1.6,31,0.080,0.080,0.080,0.000,0.000,0.000
1644347731099844864,2022-02-08-19:15:31,10.1.1.6,30,0.090,0.090,0.090,0.000,0.000,0.000
1644347731198168064,2022-02-08-19:15:31,10.1.1.6,30,0.100,0.100,0.100,0.000,0.000,0.000
1644347731298372864,2022-02-08-19:15:31,10.1.1.6,29,0.090,0.090,0.090,0.000,0.000,0.000
1644347731398080000,2022-02-08-19:15:31,10.1.1.6,28,0.080,0.080,0.080,0.000,0.000,0.000
1644347731498423040,2022-02-08-19:15:31,10.1.1.6,28,0.070,0.070,0.070,0.000,0.000,0.000
1644347731597955072,2022-02-08-19:15:31,10.1.1.6,27,0.060,0.060,0.060,0.000,0.000,0.000
1644347731698103040,2022-02-08-19:15:31,10.1.1.6,27,0.050,0.050,0.050,0.000,0.000,0.000
1644347731798129152,2022-02-08-19:15:31,10.1.1.6,26,0.040,0.040,0.040,0.000,0.000,0.000
1644347731898216960,2022-02-08-19:15:31,10.1.1.6,25,0.030,0.030,0.030,0.000,0.000,0.000
1644347731998179840,2022-02-08-19:15:31,10.1.1.6,24,0.020,0.020,0.020,0.000,0.000,0.000
1644347732097948928,2022-02-08-19:15:32,10.1.1.6,23,0.010,0.010,0.010,0.000,0.000,0.000
1644347732197714944,2022-02-08-19:15:32,10.1.1.6,22,0.000,0.000,0.000,0.000,0.000,0.000
1644347732297724928,2022-02-08-19:15:32,10.1.1.6,21,-0.010,-0.010,-0.010,0.000,0.000,0.000
1644347732398417920,2022-02-08-19:15:32,10.1.1.6,20,-0.020,-0.020,-0.020,0.000,0.000,0.000
1644347732497792000,2022-02-08-19:15:32,10.1.1.6,19,-0.030,-0.030,-0.030,0.000,0.000,0.000
1644347732598164992,2022-02-08-19:15:32,10.1.1.6,19,-0.039,-0.039,-0.039,0.000,0.000,0.000
1644347732717784832,2022-02-08-19:15:32,10.1.1.6,38,-0.050,-0.050,-0.050,0.000,0.000,0.000
1644347732818011904,2022-02-08-19:15:32,10.1.1.6,38,-0.060,-0.060,-0.060,0.000,0.000,0.000
1644347732918051072,2022-02-08-19:15:32,10.1.1.6,37,-0.070,-0.070,-0.070,0.000,0.000,0.000
1644347733018113024,2022-02-08-19:15:33,10.1.1.6,36,-0.080,-0.080,-0.080,0.000,0.000,0.000
1644347733118494976,2022-02-08-19:15:33,10.1.1.6,36,-0.090,-0.090,-0.090,0.000,0.000,0.000
1644347733218353152,2022-02-08-19:15:33,10.1.1.6,35,-0.100,-0.100,-0.100,0.000,0.000,0.000
1644347733317771008,2022-02-08-19:15:33,10.1.1.6,34,-0.090,-0.090,-0.090,0.000,0.000,0.000
1644347733418359040,2022-02-08-19:15:33,10.1.1.6,34,-0.080,-0.080,-0.080,0.000,0.000,0.000
1644347733520790016,2022-02-08-19:15:33,10.1.1.6,33,-0.070,-0.070,-0.070,0.000,0.000,0.000
1644347733618385920,2022-02-08-19:15:33,10.1.1.6,33,-0.060,-0.060,-0.060,0.000,0.000,0.000
1644347733717658112,2022-02-08-19:15:33,10.1.1.6,31,-0.050,-0.050,-0.050,0.000,0.000,0.000
1644347733819164928,2022-02-08-19:15:33,10.1.1.6,30,-0.040,-0.040,-0.040,0.000,0.000,0.000
1644347733937614080,2022-02-08-19:15:33,10.1.1.6,38,-0.030,-0.030,-0.030,0.000,0.000,0.000
1644347734037731840,2022-02-08-19:15:34,10.1.1.6,38,-0.020,-0.020,-0.020,0.000,0.000,0.000
1644347734137396992,2022-02-08-19:15:34,10.1.1.6,38,-0.010,-0.010,-0.010,0.000,0.000,0.000
1644347734237672960,2022-02-08-19:15:34,10.1.1.6,37,0.000,0.000,0.000,0.000,0.000,0.000
1644347734338387968,2022-02-08-19:15:34,10.1.1.6,31,0.010,0.010,0.010,0.000,0.000,0.000
1644347734443269120,2022-02-08-19:15:34,10.1.1.6,29,0.020,0.020,0.020,0.000,0.000,0.000
1644347734538388992,2022-02-08-19:15:34,10.1.1.6,28,0.030,0.030,0.030,0.000,0.000,0.000
1644347734639761920,2022-02-08-19:15:34,10.1.1.6,27,0.040,0.040,0.040,0.000,0.000,0.000
1644347734739811840,2022-02-08-19:15:34,10.1.1.6,26,0.050,0.050,0.050,0.000,0.000,0.000
1644347734838129152,2022-02-08-19:15:34,10.1.1.6,23,0.060,0.060,0.060,0.000,0.000,0.000
1644347734938913024,2022-02-08-19:15:34,10.1.1.6,23,0.070,0.070,0.070,0.000,0.000,0.000
1644347735038095872,2022-02-08-19:15:35,10.1.1.6,22,0.080,0.080,0.080,0.000,0.000,0.000
1644347735138307072,2022-02-08-19:15:35,10.1.1.6,21,0.090,0.090,0.090,0.000,0.000,0.000
1644347735238238976,2022-02-08-19:15:35,10.1.1.6,20,0.100,0.100,0.100,0.000,0.000,0.000
1644347735337758976,2022-02-08-19:15:35,10.1.1.6,19,0.090,0.090,0.090,0.000,0.000,0.000
1644347735437998080,2022-02-08-19:15:35,10.1.1.6,19,0.080,0.080,0.080,0.000,0.000,0.000
1644347735537806080,2022-02-08-19:15:35,10.1.1.6,18,0.071,0.071,0.071,0.000,0.000,0.000
1644347735659058944,2022-02-08-19:15:35,10.1.1.6,38,0.060,0.060,0.060,0.000,0.000,0.000
1644347735858041088,2022-02-08-19:15:35,10.1.1.6,22,0.040,0.040,0.040,0.000,0.000,0.000
1644347735958153984,2022-02-08-19:15:35,10.1.1.6,21,0.030,0.030,0.030,0.000,0.000,0.000
1644347736057879040,2022-02-08-19:15:36,10.1.1.6,21,0.020,0.020,0.020,0.000,0.000,0.000
1644347736157483008,2022-02-08-19:15:36,10.1.1.6,20,0.010,0.010,0.010,0.000,0.000,0.000
1644347736258036992,2022-02-08-19:15:36,10.1.1.6,20,0.000,0.000,0.000,0.000,0.000,0.000
1644347736357840896,2022-02-08-19:15:36,10.1.1.6,19,-0.009,-0.009,-0.009,0.000,0.000,0.000
1644347736477758976,2022-02-08-19:15:36,10.1.1.6,38,-0.020,-0.020,-0.020,0.000,0.000,0.000
1644347736578296832,2022-02-08-19:15:36,10.1.1.6,37,-0.030,-0.030,-0.030,0.000,0.000,0.000
1644347736679627008,2022-02-08-19:15:36,10.1.1.6,36,-0.040,-0.040,-0.040,0.000,0.000,0.000
1644347736778307072,2022-02-08-19:15:36,10.1.1.6,35,-0.050,-0.050,-0.050,0.000,0.000,0.000
1644347736877795840,2022-02-08-19:15:36,10.1.1.6,35,-0.060,-0.060,-0.060,0.000,0.000,0.000
1644347736977773056,2022-02-08-19:15:36,10.1.1.6,34,-0.070,-0.070,-0.070,0.000,0.000,0.000
1644347737078345984,2022-02-08-19:15:37,10.1.1.6,33,-0.080,-0.080,-0.080,0.000,0.000,0.000
1644347737178519040,2022-02-08-19:15:37,10.1.1.6,33,-0.090,-0.090,-0.090,0.000,0.000,0.000
1644347737278825984,2022-02-08-19:15:37,10.1.1.6,31,-0.100,-0.100,-0.100,0.000,0.000,0.000
1644347737378430976,2022-02-08-19:15:37,10.1.1.6,29,-0.090,-0.090,-0.090,0.000,0.000,0.000
1644347737477696000,2022-02-08-19:15:37,10.1.1.6,28,-0.080,-0.080,-0.080,0.000,0.000,0.000
1644347737577785088,2022-02-08-19:15:37,10.1.1.6,28,-0.070,-0.070,-0.070,0.000,0.000,0.000
1644347737678541056,2022-02-08-19:15:37,10.1.1.6,27,-0.060,-0.060,-0.060,0.000,0.000,0.000
1644347737779886080,2022-02-08-19:15:37,10.1.1.6,26,-0.050,-0.050,-0.050,0.000,0.000,0.000
1644347737880306944,2022-02-08-19:15:37,10.1.1.6,25,-0.040,-0.040,-0.040,0.000,0.000,0.000
1644347737982337024,2022-02-08-19:15:37,10.1.1.6,23,-0.030,-0.030,-0.030,0.000,0.000,0.000
1644347738079086080,2022-02-08-19:15:38,10.1.1.6,22,-0.020,-0.020,-0.020,0.000,0.000,0.000
1644347738178129920,2022-02-08-19:15:38,10.1.1.6,21,-0.010,-0.010,-0.010,0.000,0.000,0.000
1644347738277827072,2022-02-08-19:15:38,10.1.1.6,21,0.000,0.000,0.000,0.000,0.000,0.000
1644347738378145024,2022-02-08-19:15:38,10.1.1.6,20,0.010,0.010,0.010,0.000,0.000,0.000
1644347738478403072,2022-02-08-19:15:38,10.1.1.6,19,0.019,0.019,0.019,0.000,0.000,0.000
1644347738598164992,2022-02-08-19:15:38,10.1.1.6,38,0.030,0.030,0.030,0.000,0.000,0.000
1644347738698004992,2022-02-08-19:15:38,10.1.1.6,37,0.040,0.040,0.040,0.000,0.000,0.000
1644347738798424064,2022-02-08-19:15:38,10.1.1.6,36,0.050,0.050,0.050,0.000,0.000,0.000
1644347738899225088,2022-02-08-19:15:38,10.1.1.6,35,0.060,0.060,0.060,0.000,0.000,0.000
1644347738997422848,2022-02-08-19:15:38,10.1.1.6,34,0.070,0.070,0.070,0.000,0.000,0.000
1644347739098021888,2022-02-08-19:15:39,10.1.1.6,34,0.080,0.080,0.080,0.000,0.000,0.000
1644347739199564032,2022-02-08-19:15:39,10.1.1.6,32,0.090,0.090,0.090,0.000,0.000,0.000
1644347739298386176,2022-02-08-19:15:39,10.1.1.6,32,0.100,0.100,0.100,0.000,0.000,0.000
1644347739398639872,2022-02-08-19:15:39,10.1.1.6,31,0.090,0.090,0.090,0.000,0.000,0.000
1644347739498226944,2022-02-08-19:15:39,10.1.1.6,30,0.080,0.080,0.080,0.000,0.000,0.000
1644347739598256128,2022-02-08-19:15:39,10.1.1.6,30,0.070,0.070,0.070,0.000,0.000,0.000
1644347739698055936,2022-02-08-19:15:39,10.1.1.6,29,0.060,0.060,0.060,0.000,0.000,0.000
1644347739799204096,2022-02-08-19:15:39,10.1.1.6,28,0.050,0.050,0.050,0.000,0.000,0.000
1644347739898152192,2022-02-08-19:15:39,10.1.1.6,26,0.040,0.040,0.040,0.000,0.000,0.000
1644347740013495808,2022-02-08-19:15:40,10.1.1.6,25,0.030,0.030,0.030,0.000,0.000,0.000
1644347740098934784,2022-02-08-19:15:40,10.1.1.6,19,0.021,0.021,0.021,0.000,0.000,0.000
1644347740218487040,2022-02-08-19:15:40,10.1.1.6,38,0.010,0.010,0.010,0.000,0.000,0.000
1644347740318563072,2022-02-08-19:15:40,10.1.1.6,36,0.000,0.000,0.000,0.000,0.000,0.000
1644347740418494976,2022-02-08-19:15:40,10.1.1.6,36,-0.010,-0.010,-0.010,0.000,0.000,0.000
1644347740517576960,2022-02-08-19:15:40,10.1.1.6,34,-0.020,-0.020,-0.020,0.000,0.000,0.000
1644347740617943040,2022-02-08-19:15:40,10.1.1.6,33,-0.030,-0.030,-0.030,0.000,0.000,0.000
1644347740718519808,2022-02-08-19:15:40,10.1.1.6,33,-0.040,-0.040,-0.040,0.000,0.000,0.000
1644347740817790976,2022-02-08-19:15:40,10.1.1.6,32,-0.050,-0.050,-0.050,0.000,0.000,0.000
1644347740918402816,2022-02-08-19:15:40,10.1.1.6,32,-0.060,-0.060,-0.060,0.000,0.000,0.000
1644347741017977856,2022-02-08-19:15:41,10.1.1.6,31,-0.070,-0.070,-0.070,0.000,0.000,0.000
1644347741118056960,2022-02-08-19:15:41,10.1.1.6,30,-0.080,-0.080,-0.080,0.000,0.000,0.000
1644347741218252032,2022-02-08-19:15:41,10.1.1.6,30,-0.090,-0.090,-0.090,0.000,0.000,0.000
1644347741318103040,2022-02-08-19:15:41,10.1.1.6,29,-0.100,-0.100,-0.100,0.000,0.000,0.000
1644347741417681920,2022-02-08-19:15:41,10.1.1.6,28,-0.090,-0.090,-0.090,0.000,0.000,0.000
1644347741518372096,2022-02-08-19:15:41,10.1.1.6,28,-0.080,-0.080,-0.080,0.000,0.000,0.000
1644347741619121920,2022-02-08-19:15:41,10.1.1.6,27,-0.070,-0.070,-0.070,0.000,0.000,0.000
1644347741717995008,2022-02-08-19:15:41,10.1.1.6,27,-0.060,-0.060,-0.060,0.000,0.000,0.000
1644347741818234880,2022-02-08-19:15:41,10.1.1.6,25,-0.050,-0.050,-0.050,0.000,0.000,0.000
1644347741918083840,2022-02-08-19:15:41,10.1.1.6,21,-0.040,-0.040,-0.040,0.000,0.000,0.000
1644347742018081792,2022-02-08-19:15:42,10.1.1.6,20,-0.030,-0.030,-0.030,0.000,0.000,0.000
1644347742118300928,2022-02-08-19:15:42,10.1.1.6,19,-0.020,-0.020,-0.020,0.000,0.000,0.000
1644347742238240000,2022-02-08-19:15:42,10.1.1.6,38,-0.010,-0.010,-0.010,0.000,0.000,0.000
1644347742337969152,2022-02-08-19:15:42,10.1.1.6,38,0.000,0.000,0.000,0.000,0.000,0.000
1644347742438213120,2022-02-08-19:15:42,10.1.1.6,36,0.010,0.010,0.010,0.000,0.000,0.000
1644347742537978880,2022-02-08-19:15:42,10.1.1.6,35,0.020,0.020,0.020,0.000,0.000,0.000
1644347742639164928,2022-02-08-19:15:42,10.1.1.6,33,0.030,0.030,0.030,0.000,0.000,0.000
1644347742737551872,2022-02-08-19:15:42,10.1.1.6,32,0.040,0.040,0.040,0.000,0.000,0.000
1644347742838172928,2022-02-08-19:15:42,10.1.1.6,31,0.050,0.050,0.050,0.000,0.000,0.000
1644347742937618944,2022-02-08-19:15:42,10.1.1.6,30,0.060,0.060,0.060,0.000,0.000,0.000
1644347743038434048,2022-02-08-19:15:43,10.1.1.6,30,0.070,0.070,0.070,0.000,0.000,0.000
1644347743138760960,2022-02-08-19:15:43,10.1.1.6,28,0.080,0.080,0.080,0.000,0.000,0.000
1644347743237814784,2022-02-08-19:15:43,10.1.1.6,28,0.090,0.090,0.090,0.000,0.000,0.000
1644347743337490944,2022-02-08-19:15:43,10.1.1.6,28,0.100,0.100,0.100,0.000,0.000,0.000
1644347743437579008,2022-02-08-19:15:43,10.1.1.6,27,0.090,0.090,0.090,0.000,0.000,0.000
1644347743538522112,2022-02-08-19:15:43,10.1.1.6,27,0.080,0.080,0.080,0.000,0.000,0.000
1644347743638358016,2022-02-08-19:15:43,10.1.1.6,23,0.070,0.070,0.070,0.000,0.000,0.000
1644347743738259200,2022-02-08-19:15:43,10.1.1.6,22,0.060,0.060,0.060,0.000,0.000,0.000
1644347743838296832,2022-02-08-19:15:43,10.1.1.6,21,0.050,0.050,0.050,0.000,0.000,0.000
1644347743938093056,2022-02-08-19:15:43,10.1.1.6,20,0.040,0.040,0.040,0.000,0.000,0.000
1644347744037913088,2022-02-08-19:15:44,10.1.1.6,20,0.030,0.030,0.030,0.000,0.000,0.000
1644347744138457088,2022-02-08-19:15:44,10.1.1.6,19,0.020,0.020,0.020,0.000,0.000,0.000
1644347744238302976,2022-02-08-19:15:44,10.1.1.6,19,0.011,0.011,0.011,0.000,0.000,0.000
1644347744358319104,2022-02-08-19:15:44,10.1.1.6,38,0.000,0.000,0.000,0.000,0.000,0.000
1644347744459800064,2022-02-08-19:15:44,10.1.1.6,38,-0.010,-0.010,-0.010,0.000,0.000,0.000
1644347744557740032,2022-02-08-19:15:44,10.1.1.6,36,-0.020,-0.020,-0.020,0.000,0.000,0.000
1644347744658881024,2022-02-08-19:15:44,10.1.1.6,35,-0.030,-0.030,-0.030,0.000,0.000,0.000
1644347744897816064,2022-02-08-19:15:44,10.1.1.6,38,-0.050,-0.050,-0.050,0.000,0.000,0.000
1644347744997814784,2022-02-08-19:15:44,10.1.1.6,37,-0.060,-0.060,-0.060,0.000,0.000,0.000
1644347745098114048,2022-02-08-19:15:45,10.1.1.6,34,-0.070,-0.070,-0.070,0.000,0.000,0.000
1644347745197494016,2022-02-08-19:15:45,10.1.1.6,33,-0.080,-0.080,-0.080,0.000,0.000,0.000
1644347745298435840,2022-02-08-19:15:45,10.1.1.6,32,-0.090,-0.090,-0.090,0.000,0.000,0.000
1644347745398055936,2022-02-08-19:15:45,10.1.1.6,31,-0.100,-0.100,-0.100,0.000,0.000,0.000
1644347745497634048,2022-02-08-19:15:45,10.1.1.6,30,-0.090,-0.090,-0.090,0.000,0.000,0.000
1644347745597757952,2022-02-08-19:15:45,10.1.1.6,30,-0.080,-0.080,-0.080,0.000,0.000,0.000
1644347745697751040,2022-02-08-19:15:45,10.1.1.6,29,-0.070,-0.070,-0.070,0.000,0.000,0.000
1644347745797811968,2022-02-08-19:15:45,10.1.1.6,29,-0.060,-0.060,-0.060,0.000,0.000,0.000
1644347745897893888,2022-02-08-19:15:45,10.1.1.6,28,-0.050,-0.050,-0.050,0.000,0.000,0.000
1644347745997819904,2022-02-08-19:15:45,10.1.1.6,28,-0.040,-0.040,-0.040,0.000,0.000,0.000
1644347746097703936,2022-02-08-19:15:46,10.1.1.6,27,-0.030,-0.030,-0.030,0.000,0.000,0.000
1644347746198656000,2022-02-08-19:15:46,10.1.1.6,26,-0.020,-0.020,-0.020,0.000,0.000,0.000
1644347746297612800,2022-02-08-19:15:46,10.1.1.6,24,-0.010,-0.010,-0.010,0.000,0.000,0.000
1644347746398048000,2022-02-08-19:15:46,10.1.1.6,24,0.000,0.000,0.000,0.000,0.000,0.000
1644347746497588992,2022-02-08-19:15:46,10.1.1.6,23,0.010,0.010,0.010,0.000,0.000,0.000
1644347746597861120,2022-02-08-19:15:46,10.1.1.6,23,0.020,0.020,0.020,0.000,0.000,0.000
1644347746697890048,2022-02-08-19:15:46,10.1.1.6,22,0.030,0.030,0.030,0.000,0.000,0.000
1644347746797827840,2022-02-08-19:15:46,10.1.1.6,21,0.040,0.040,0.040,0.000,0.000,0.000
1644347746898062080,2022-02-08-19:15:46,10.1.1.6,21,0.050,0.050,0.050,0.000,0.000,0.000
1644347746997509888,2022-02-08-19:15:46,10.1.1.6,20,0.060,0.060,0.060,0.000,0.000,0.000
1644347747098087936,2022-02-08-19:15:47,10.1.1.6,19,0.070,0.070,0.070,0.000,0.000,0.000
1644347747198452992,2022-02-08-19:15:47,10.1.1.6,19,0.079,0.079,0.079,0.000,0.000,0.000
1644347747318686976,2022-02-08-19:15:47,10.1.1.6,38,0.090,0.090,0.090,0.000,0.000,0.000
1644347747419352064,2022-02-08-19:15:47,10.1.1.6,37,0.100,0.100,0.100,0.000,0.000,0.000
1644347747518716928,2022-02-08-19:15:47,10.1.1.6,36,0.090,0.090,0.090,0.000,0.000,0.000
1644347747618263040,2022-02-08-19:15:47,10.1.1.6,35,0.080,0.080,0.080,0.000,0.000,0.000
1644347747719162880,2022-02-08-19:15:47,10.1.1.6,35,0.070,0.070,0.070,0.000,0.000,0.000
1644347747818113024,2022-02-08-19:15:47,10.1.1.6,34,0.060,0.060,0.060,0.000,0.000,0.000
1644347747918148096,2022-02-08-19:15:47,10.1.1.6,33,0.050,0.050,0.050,0.000,0.000,0.000
1644347748017569024,2022-02-08-19:15:48,10.1.1.6,32,0.040,0.040,0.040,0.000,0.000,0.000
1644347748118412032,2022-02-08-19:15:48,10.1.1.6,32,0.030,0.030,0.030,0.000,0.000,0.000
1644347748220033024,2022-02-08-19:15:48,10.1.1.6,30,0.020,0.020,0.020,0.000,0.000,0.000
1644347748318017024,2022-02-08-19:15:48,10.1.1.6,28,0.010,0.010,0.010,0.000,0.000,0.000
1644347748418472960,2022-02-08-19:15:48,10.1.1.6,28,0.000,0.000,0.000,0.000,0.000,0.000
1644347748519197952,2022-02-08-19:15:48,10.1.1.6,27,-0.010,-0.010,-0.010,0.000,0.000,0.000
