FedericoMungari/DigitalTwin_service/01_WiredScenario/Output/Output_script/script_rosapi_2_output_robots12_freq0_12.txt
timestamp,date,node,latency,joint_1,joint_2,joint_3,joint_4,joint_5,joint_6
1641234797395874048,2022-01-03-18:33:17,10.1.1.13,193,-0.020,-0.020,-0.020,0.000,0.000,0.000
1641234798001517056,2022-01-03-18:33:18,10.1.1.13,196,-0.050,-0.050,-0.050,0.000,0.000,0.000
1641234798207243008,2022-01-03-18:33:18,10.1.1.13,201,-0.060,-0.060,-0.060,0.000,0.000,0.000
1641234798606597888,2022-01-03-18:33:18,10.1.1.13,197,-0.080,-0.080,-0.080,0.000,0.000,0.000
1641234798810756864,2022-01-03-18:33:18,10.1.1.13,201,-0.090,-0.090,-0.090,0.000,0.000,0.000
1641234799208231936,2022-01-03-18:33:19,10.1.1.13,196,-0.110,-0.110,-0.110,0.000,0.000,0.000
1641234799809228800,2022-01-03-18:33:19,10.1.1.13,191,-0.140,-0.140,-0.140,0.000,0.000,0.000
1641234800217591040,2022-01-03-18:33:20,10.1.1.13,196,-0.160,-0.160,-0.160,0.000,0.000,0.000
1641234800421921024,2022-01-03-18:33:20,10.1.1.13,198,-0.170,-0.170,-0.170,0.000,0.000,0.000
1641234801017498880,2022-01-03-18:33:21,10.1.1.13,191,-0.200,-0.200,-0.200,0.000,0.000,0.000
1641234801217320960,2022-01-03-18:33:21,10.1.1.13,190,-0.210,-0.210,-0.210,0.000,0.000,0.000
1641234801430221056,2022-01-03-18:33:21,10.1.1.13,-1,-0.220,-0.220,-0.220,0.000,0.000,0.000
1641234801827752960,2022-01-03-18:33:21,10.1.1.13,196,-0.240,-0.240,-0.240,0.000,0.000,0.000
1641234802626951936,2022-01-03-18:33:22,10.1.1.13,193,-0.280,-0.280,-0.280,0.000,0.000,0.000
1641234803029233920,2022-01-03-18:33:23,10.1.1.13,193,-0.300,-0.300,-0.300,0.000,0.000,0.000
1641234803237310976,2022-01-03-18:33:23,10.1.1.13,201,-0.310,-0.310,-0.310,0.000,0.000,0.000
1641234803667182080,2022-01-03-18:33:23,10.1.1.13,196,-0.330,-0.330,-0.330,0.000,0.000,0.000
1641234803867266048,2022-01-03-18:33:23,10.1.1.13,196,-0.340,-0.340,-0.340,0.000,0.000,0.000
1641234804866262016,2022-01-03-18:33:24,10.1.1.13,191,-0.390,-0.390,-0.390,0.000,0.000,0.000
1641234805275536896,2022-01-03-18:33:25,10.1.1.13,199,-0.410,-0.410,-0.410,0.000,0.000,0.000
1641234805465806080,2022-01-03-18:33:25,10.1.1.13,189,-0.420,-0.420,-0.420,0.000,0.000,0.000
1641234805875708160,2022-01-03-18:33:25,10.1.1.13,197,-0.440,-0.440,-0.440,0.000,0.000,0.000
1641234806475406848,2022-01-03-18:33:26,10.1.1.13,193,-0.470,-0.470,-0.470,0.000,0.000,0.000
1641234807089091072,2022-01-03-18:33:27,10.1.1.13,196,-0.480,-0.480,-0.480,0.000,0.000,0.000
1641234807287781120,2022-01-03-18:33:27,10.1.1.13,193,-0.470,-0.470,-0.470,0.000,0.000,0.000
1641234807485474048,2022-01-03-18:33:27,10.1.1.13,190,-0.460,-0.460,-0.460,0.000,0.000,0.000
1641234807904925952,2022-01-03-18:33:27,10.1.1.13,192,-0.440,-0.440,-0.440,0.000,0.000,0.000
1641234808317555968,2022-01-03-18:33:28,10.1.1.13,199,-0.420,-0.420,-0.420,0.000,0.000,0.000
1641234809520910080,2022-01-03-18:33:29,10.1.1.13,198,-0.360,-0.360,-0.360,0.000,0.000,0.000
1641234809720918784,2022-01-03-18:33:29,10.1.1.13,197,-0.350,-0.350,-0.350,0.000,0.000,0.000
1641234809920633088,2022-01-03-18:33:29,10.1.1.13,196,-0.340,-0.340,-0.340,0.000,0.000,0.000
1641234810110961920,2022-01-03-18:33:30,10.1.1.13,186,-0.330,-0.330,-0.330,0.000,0.000,0.000
1641234810310095104,2022-01-03-18:33:30,10.1.1.13,184,-0.320,-0.320,-0.320,0.000,0.000,0.000
1641234810929827072,2022-01-03-18:33:30,10.1.1.13,-1,-0.290,-0.290,-0.290,0.000,0.000,0.000
1641234811328946944,2022-01-03-18:33:31,10.1.1.13,198,-0.270,-0.270,-0.270,0.000,0.000,0.000
1641234811928588032,2022-01-03-18:33:31,10.1.1.13,195,-0.240,-0.240,-0.240,0.000,0.000,0.000
1641234812317626880,2022-01-03-18:33:32,10.1.1.13,182,-0.220,-0.220,-0.220,0.000,0.000,0.000
1641234812718427904,2022-01-03-18:33:32,10.1.1.13,181,-0.200,-0.200,-0.200,0.000,0.000,0.000
1641234812928271104,2022-01-03-18:33:32,10.1.1.13,190,-0.190,-0.190,-0.190,0.000,0.000,0.000
1641234813135550976,2022-01-03-18:33:33,10.1.1.13,195,-0.180,-0.180,-0.180,0.000,0.000,0.000
1641234813339888128,2022-01-03-18:33:33,10.1.1.13,200,-0.170,-0.170,-0.170,0.000,0.000,0.000
1641234813538564864,2022-01-03-18:33:33,10.1.1.13,196,-0.160,-0.160,-0.160,0.000,0.000,0.000
1641234813738066944,2022-01-03-18:33:33,10.1.1.13,194,-0.150,-0.150,-0.150,0.000,0.000,0.000
1641234813937291008,2022-01-03-18:33:33,10.1.1.13,194,-0.140,-0.140,-0.140,0.000,0.000,0.000
1641234814136112896,2022-01-03-18:33:34,10.1.1.13,192,-0.130,-0.130,-0.130,0.000,0.000,0.000
1641234814331654912,2022-01-03-18:33:34,10.1.1.13,181,-0.120,-0.120,-0.120,0.000,0.000,0.000
1641234814530849024,2022-01-03-18:33:34,10.1.1.13,184,-0.110,-0.110,-0.110,0.000,0.000,0.000
1641234814724668928,2022-01-03-18:33:34,10.1.1.13,177,-0.100,-0.100,-0.100,0.000,0.000,0.000
1641234815138536960,2022-01-03-18:33:35,10.1.1.13,190,-0.080,-0.080,-0.080,0.000,0.000,0.000
1641234815348943104,2022-01-03-18:33:35,10.1.1.13,199,-0.070,-0.070,-0.070,0.000,0.000,0.000
1641234815535687936,2022-01-03-18:33:35,10.1.1.13,183,-0.060,-0.060,-0.060,0.000,0.000,0.000
1641234815747740928,2022-01-03-18:33:35,10.1.1.13,194,-0.050,-0.050,-0.050,0.000,0.000,0.000
1641234816135892992,2022-01-03-18:33:36,10.1.1.13,180,-0.030,-0.030,-0.030,0.000,0.000,0.000
1641234816352982016,2022-01-03-18:33:36,10.1.1.13,196,-0.020,-0.020,-0.020,0.000,0.000,0.000
1641234816543903232,2022-01-03-18:33:36,10.1.1.13,186,-0.010,-0.010,-0.010,0.000,0.000,0.000
1641234816753037824,2022-01-03-18:33:36,10.1.1.13,193,0.000,0.000,0.000,0.000,0.000,0.000
1641234816953319168,2022-01-03-18:33:36,10.1.1.13,194,-0.010,-0.010,-0.010,0.000,0.000,0.000
1641234817140912128,2022-01-03-18:33:37,10.1.1.13,180,-0.020,-0.020,-0.020,0.000,0.000,0.000
1641234817340962816,2022-01-03-18:33:37,10.1.1.13,180,-0.030,-0.030,-0.030,0.000,0.000,0.000
1641234817550540032,2022-01-03-18:33:37,10.1.1.13,189,-0.040,-0.040,-0.040,0.000,0.000,0.000
1641234817751235840,2022-01-03-18:33:37,10.1.1.13,189,-0.050,-0.050,-0.050,0.000,0.000,0.000
1641234817951540992,2022-01-03-18:33:37,10.1.1.13,189,-0.060,-0.060,-0.060,0.000,0.000,0.000
1641234818139499776,2022-01-03-18:33:38,10.1.1.13,176,-0.070,-0.070,-0.070,0.000,0.000,0.000
1641234818349446912,2022-01-03-18:33:38,10.1.1.13,186,-0.080,-0.080,-0.080,0.000,0.000,0.000
1641234818549885952,2022-01-03-18:33:38,10.1.1.13,185,-0.090,-0.090,-0.090,0.000,0.000,0.000
1641234818749159936,2022-01-03-18:33:38,10.1.1.13,179,-0.100,-0.100,-0.100,0.000,0.000,0.000
1641234818942894080,2022-01-03-18:33:38,10.1.1.13,172,-0.110,-0.110,-0.110,0.000,0.000,0.000
1641234819149886976,2022-01-03-18:33:39,10.1.1.13,176,-0.120,-0.120,-0.120,0.000,0.000,0.000
1641234819368999936,2022-01-03-18:33:39,10.1.1.13,194,-0.130,-0.130,-0.130,0.000,0.000,0.000
1641234819564491008,2022-01-03-18:33:39,10.1.1.13,187,-0.140,-0.140,-0.140,0.000,0.000,0.000
1641234819773336832,2022-01-03-18:33:39,10.1.1.13,196,-0.150,-0.150,-0.150,0.000,0.000,0.000
1641234819956787968,2022-01-03-18:33:39,10.1.1.13,178,-0.160,-0.160,-0.160,0.000,0.000,0.000
1641234820156610048,2022-01-03-18:33:40,10.1.1.13,177,-0.170,-0.170,-0.170,0.000,0.000,0.000
1641234820368017920,2022-01-03-18:33:40,10.1.1.13,188,-0.180,-0.180,-0.180,0.000,0.000,0.000
1641234820566864896,2022-01-03-18:33:40,10.1.1.13,187,-0.190,-0.190,-0.190,0.000,0.000,0.000
1641234820757288960,2022-01-03-18:33:40,10.1.1.13,176,-0.200,-0.200,-0.200,0.000,0.000,0.000
1641234820981213184,2022-01-03-18:33:40,10.1.1.13,197,-0.210,-0.210,-0.210,0.000,0.000,0.000
1641234821168796928,2022-01-03-18:33:41,10.1.1.13,174,-0.220,-0.220,-0.220,0.000,0.000,0.000
1641234821368168960,2022-01-03-18:33:41,10.1.1.13,171,-0.230,-0.230,-0.230,0.000,0.000,0.000
1641234821586575104,2022-01-03-18:33:41,10.1.1.13,187,-0.240,-0.240,-0.240,0.000,0.000,0.000
1641234821793441024,2022-01-03-18:33:41,10.1.1.13,187,-0.250,-0.250,-0.250,0.000,0.000,0.000
1641234821992142848,2022-01-03-18:33:41,10.1.1.13,185,-0.260,-0.260,-0.260,0.000,0.000,0.000
1641234822182734848,2022-01-03-18:33:42,10.1.1.13,175,-0.270,-0.270,-0.270,0.000,0.000,0.000
1641234822409203968,2022-01-03-18:33:42,10.1.1.13,200,-0.280,-0.280,-0.280,0.000,0.000,0.000
1641234822598529024,2022-01-03-18:33:42,10.1.1.13,188,-0.290,-0.290,-0.290,0.000,0.000,0.000
1641234822791704832,2022-01-03-18:33:42,10.1.1.13,180,-0.300,-0.300,-0.300,0.000,0.000,0.000
1641234823000193024,2022-01-03-18:33:42,10.1.1.13,188,-0.310,-0.310,-0.310,0.000,0.000,0.000
1641234823198874112,2022-01-03-18:33:43,10.1.1.13,187,-0.320,-0.320,-0.320,0.000,0.000,0.000
1641234823411226880,2022-01-03-18:33:43,10.1.1.13,199,-0.330,-0.330,-0.330,0.000,0.000,0.000
1641234823592183040,2022-01-03-18:33:43,10.1.1.13,178,-0.340,-0.340,-0.340,0.000,0.000,0.000
1641234823999036928,2022-01-03-18:33:43,10.1.1.13,175,-0.360,-0.360,-0.360,0.000,0.000,0.000
1641234824199371008,2022-01-03-18:33:44,10.1.1.13,174,-0.370,-0.370,-0.370,0.000,0.000,0.000
1641234824403717120,2022-01-03-18:33:44,10.1.1.13,178,-0.380,-0.380,-0.380,0.000,0.000,0.000
1641234824599065088,2022-01-03-18:33:44,10.1.1.13,173,-0.390,-0.390,-0.390,0.000,0.000,0.000
1641234824799845888,2022-01-03-18:33:44,10.1.1.13,173,-0.400,-0.400,-0.400,0.000,0.000,0.000
1641234825009550080,2022-01-03-18:33:45,10.1.1.13,182,-0.410,-0.410,-0.410,0.000,0.000,0.000
1641234825209740032,2022-01-03-18:33:45,10.1.1.13,181,-0.420,-0.420,-0.420,0.000,0.000,0.000
1641234825424072960,2022-01-03-18:33:45,10.1.1.13,194,-0.430,-0.430,-0.430,0.000,0.000,0.000
1641234825619105024,2022-01-03-18:33:45,10.1.1.13,188,-0.440,-0.440,-0.440,0.000,0.000,0.000
1641234825809346816,2022-01-03-18:33:45,10.1.1.13,177,-0.450,-0.450,-0.450,0.000,0.000,0.000
1641234826009385216,2022-01-03-18:33:46,10.1.1.13,175,-0.460,-0.460,-0.460,0.000,0.000,0.000
1641234826217516032,2022-01-03-18:33:46,10.1.1.13,182,-0.470,-0.470,-0.470,0.000,0.000,0.000
1641234826409565952,2022-01-03-18:33:46,10.1.1.13,172,-0.480,-0.480,-0.480,0.000,0.000,0.000
1641234826619020032,2022-01-03-18:33:46,10.1.1.13,181,-0.490,-0.490,-0.490,0.000,0.000,0.000
1641234826819575040,2022-01-03-18:33:46,10.1.1.13,180,-0.480,-0.480,-0.480,0.000,0.000,0.000
1641234827019067904,2022-01-03-18:33:47,10.1.1.13,174,-0.470,-0.470,-0.470,0.000,0.000,0.000
1641234827230080000,2022-01-03-18:33:47,10.1.1.13,183,-0.460,-0.460,-0.460,0.000,0.000,0.000
1641234827428765184,2022-01-03-18:33:47,10.1.1.13,182,-0.450,-0.450,-0.450,0.000,0.000,0.000
1641234827628957952,2022-01-03-18:33:47,10.1.1.13,178,-0.440,-0.440,-0.440,0.000,0.000,0.000
1641234827839111936,2022-01-03-18:33:47,10.1.1.13,191,-0.430,-0.430,-0.430,0.000,0.000,0.000
1641234828038857984,2022-01-03-18:33:48,10.1.1.13,188,-0.420,-0.420,-0.420,0.000,0.000,0.000
1641234828228950016,2022-01-03-18:33:48,10.1.1.13,178,-0.410,-0.410,-0.410,0.000,0.000,0.000
1641234828449485056,2022-01-03-18:33:48,10.1.1.13,197,-0.400,-0.400,-0.400,0.000,0.000,0.000
1641234828639232000,2022-01-03-18:33:48,10.1.1.13,186,-0.390,-0.390,-0.390,0.000,0.000,0.000
1641234828829703936,2022-01-03-18:33:48,10.1.1.13,176,-0.380,-0.380,-0.380,0.000,0.000,0.000
1641234829038452992,2022-01-03-18:33:49,10.1.1.13,183,-0.370,-0.370,-0.370,0.000,0.000,0.000
1641234829241889024,2022-01-03-18:33:49,10.1.1.13,179,-0.360,-0.360,-0.360,0.000,0.000,0.000
1641234829438599168,2022-01-03-18:33:49,10.1.1.13,181,-0.350,-0.350,-0.350,0.000,0.000,0.000
1641234829649350912,2022-01-03-18:33:49,10.1.1.13,191,-0.340,-0.340,-0.340,0.000,0.000,0.000
1641234829848788992,2022-01-03-18:33:49,10.1.1.13,189,-0.330,-0.330,-0.330,0.000,0.000,0.000
1641234830040976128,2022-01-03-18:33:50,10.1.1.13,181,-0.320,-0.320,-0.320,0.000,0.000,0.000
1641234830252559872,2022-01-03-18:33:50,10.1.1.13,191,-0.310,-0.310,-0.310,0.000,0.000,0.000
1641234830438280960,2022-01-03-18:33:50,10.1.1.13,176,-0.300,-0.300,-0.300,0.000,0.000,0.000
1641234830648763904,2022-01-03-18:33:50,10.1.1.13,184,-0.290,-0.290,-0.290,0.000,0.000,0.000
1641234830838141952,2022-01-03-18:33:50,10.1.1.13,173,-0.280,-0.280,-0.280,0.000,0.000,0.000
1641234831048506880,2022-01-03-18:33:51,10.1.1.13,182,-0.270,-0.270,-0.270,0.000,0.000,0.000
1641234831248312064,2022-01-03-18:33:51,10.1.1.13,181,-0.260,-0.260,-0.260,0.000,0.000,0.000
1641234831450779904,2022-01-03-18:33:51,10.1.1.13,183,-0.250,-0.250,-0.250,0.000,0.000,0.000
1641234831657819904,2022-01-03-18:33:51,10.1.1.13,188,-0.240,-0.240,-0.240,0.000,0.000,0.000
1641234831865581056,2022-01-03-18:33:51,10.1.1.13,195,-0.230,-0.230,-0.230,0.000,0.000,0.000
1641234832049719040,2022-01-03-18:33:52,10.1.1.13,179,-0.220,-0.220,-0.220,0.000,0.000,0.000
1641234832263223808,2022-01-03-18:33:52,10.1.1.13,191,-0.210,-0.210,-0.210,0.000,0.000,0.000
1641234832468794112,2022-01-03-18:33:52,10.1.1.13,196,-0.200,-0.200,-0.200,0.000,0.000,0.000
1641234832658267904,2022-01-03-18:33:52,10.1.1.13,185,-0.190,-0.190,-0.190,0.000,0.000,0.000
1641234832848498176,2022-01-03-18:33:52,10.1.1.13,174,-0.180,-0.180,-0.180,0.000,0.000,0.000
1641234833068398848,2022-01-03-18:33:53,10.1.1.13,194,-0.170,-0.170,-0.170,0.000,0.000,0.000
1641234833268320000,2022-01-03-18:33:53,10.1.1.13,193,-0.160,-0.160,-0.160,0.000,0.000,0.000
1641234833468306176,2022-01-03-18:33:53,10.1.1.13,192,-0.150,-0.150,-0.150,0.000,0.000,0.000
1641234833659732992,2022-01-03-18:33:53,10.1.1.13,182,-0.140,-0.140,-0.140,0.000,0.000,0.000
1641234833857135104,2022-01-03-18:33:53,10.1.1.13,174,-0.130,-0.130,-0.130,0.000,0.000,0.000
1641234834057883136,2022-01-03-18:33:54,10.1.1.13,174,-0.120,-0.120,-0.120,0.000,0.000,0.000
1641234834256782080,2022-01-03-18:33:54,10.1.1.13,173,-0.110,-0.110,-0.110,0.000,0.000,0.000
1641234834466444032,2022-01-03-18:33:54,10.1.1.13,181,-0.100,-0.100,-0.100,0.000,0.000,0.000
1641234834656191232,2022-01-03-18:33:54,10.1.1.13,170,-0.090,-0.090,-0.090,0.000,0.000,0.000
1641234834856303872,2022-01-03-18:33:54,10.1.1.13,169,-0.080,-0.080,-0.080,0.000,0.000,0.000
1641234835105102080,2022-01-03-18:33:55,10.1.1.13,183,-0.070,-0.070,-0.070,0.000,0.000,0.000
1641234835286024960,2022-01-03-18:33:55,10.1.1.13,180,-0.060,-0.060,-0.060,0.000,0.000,0.000
1641234835506098944,2022-01-03-18:33:55,10.1.1.13,193,-0.050,-0.050,-0.050,0.000,0.000,0.000
1641234835688111104,2022-01-03-18:33:55,10.1.1.13,171,-0.040,-0.040,-0.040,0.000,0.000,0.000
1641234835895545088,2022-01-03-18:33:55,10.1.1.13,178,-0.030,-0.030,-0.030,0.000,0.000,0.000
1641234836105489920,2022-01-03-18:33:56,10.1.1.13,186,-0.020,-0.020,-0.020,0.000,0.000,0.000
1641234836295303936,2022-01-03-18:33:56,10.1.1.13,175,-0.010,-0.010,-0.010,0.000,0.000,0.000
1641234836494471168,2022-01-03-18:33:56,10.1.1.13,173,0.000,0.000,0.000,0.000,0.000,0.000
1641234836704480000,2022-01-03-18:33:56,10.1.1.13,182,-0.010,-0.010,-0.010,0.000,0.000,0.000
1641234836894829056,2022-01-03-18:33:56,10.1.1.13,172,-0.020,-0.020,-0.020,0.000,0.000,0.000
1641234837094639104,2022-01-03-18:33:57,10.1.1.13,171,-0.030,-0.030,-0.030,0.000,0.000,0.000
1641234837293677056,2022-01-03-18:33:57,10.1.1.13,169,-0.040,-0.040,-0.040,0.000,0.000,0.000
1641234837493603840,2022-01-03-18:33:57,10.1.1.13,168,-0.050,-0.050,-0.050,0.000,0.000,0.000
1641234837696982016,2022-01-03-18:33:57,10.1.1.13,170,-0.060,-0.060,-0.060,0.000,0.000,0.000
1641234837905517056,2022-01-03-18:33:57,10.1.1.13,175,-0.070,-0.070,-0.070,0.000,0.000,0.000
1641234838113125120,2022-01-03-18:33:58,10.1.1.13,182,-0.080,-0.080,-0.080,0.000,0.000,0.000
1641234838323869952,2022-01-03-18:33:58,10.1.1.13,191,-0.090,-0.090,-0.090,0.000,0.000,0.000
1641234838525424128,2022-01-03-18:33:58,10.1.1.13,191,-0.100,-0.100,-0.100,0.000,0.000,0.000
1641234838703172864,2022-01-03-18:33:58,10.1.1.13,168,-0.110,-0.110,-0.110,0.000,0.000,0.000
1641234838921881088,2022-01-03-18:33:58,10.1.1.13,186,-0.120,-0.120,-0.120,0.000,0.000,0.000
1641234839112848128,2022-01-03-18:33:59,10.1.1.13,171,-0.130,-0.130,-0.130,0.000,0.000,0.000
1641234839362579200,2022-01-03-18:33:59,10.1.1.13,193,-0.140,-0.140,-0.140,0.000,0.000,0.000
1641234839555268096,2022-01-03-18:33:59,10.1.1.13,184,-0.150,-0.150,-0.150,0.000,0.000,0.000
1641234839752070912,2022-01-03-18:33:59,10.1.1.13,181,-0.160,-0.160,-0.160,0.000,0.000,0.000
1641234839951325952,2022-01-03-18:33:59,10.1.1.13,179,-0.170,-0.170,-0.170,0.000,0.000,0.000
1641234840168107008,2022-01-03-18:34:00,10.1.1.13,194,-0.180,-0.180,-0.180,0.000,0.000,0.000
1641234840351347968,2022-01-03-18:34:00,10.1.1.13,177,-0.190,-0.190,-0.190,0.000,0.000,0.000
1641234840540978944,2022-01-03-18:34:00,10.1.1.13,165,-0.200,-0.200,-0.200,0.000,0.000,0.000
1641234840750992896,2022-01-03-18:34:00,10.1.1.13,174,-0.210,-0.210,-0.210,0.000,0.000,0.000
1641234840950928896,2022-01-03-18:34:00,10.1.1.13,171,-0.220,-0.220,-0.220,0.000,0.000,0.000
1641234841150398976,2022-01-03-18:34:01,10.1.1.13,167,-0.230,-0.230,-0.230,0.000,0.000,0.000
1641234841360194048,2022-01-03-18:34:01,10.1.1.13,173,-0.240,-0.240,-0.240,0.000,0.000,0.000
1641234841562644992,2022-01-03-18:34:01,10.1.1.13,174,-0.250,-0.250,-0.250,0.000,0.000,0.000
1641234841760907008,2022-01-03-18:34:01,10.1.1.13,171,-0.260,-0.260,-0.260,0.000,0.000,0.000
1641234841980979968,2022-01-03-18:34:01,10.1.1.13,189,-0.270,-0.270,-0.270,0.000,0.000,0.000
1641234842180558080,2022-01-03-18:34:02,10.1.1.13,187,-0.280,-0.280,-0.280,0.000,0.000,0.000
1641234842369236992,2022-01-03-18:34:02,10.1.1.13,174,-0.290,-0.290,-0.290,0.000,0.000,0.000
1641234842599234048,2022-01-03-18:34:02,10.1.1.13,203,-0.300,-0.300,-0.300,0.000,0.000,0.000
1641234842779452160,2022-01-03-18:34:02,10.1.1.13,179,-0.310,-0.310,-0.310,0.000,0.000,0.000
1641234842978846976,2022-01-03-18:34:02,10.1.1.13,178,-0.320,-0.320,-0.320,0.000,0.000,0.000
1641234843173441024,2022-01-03-18:34:03,10.1.1.13,171,-0.330,-0.330,-0.330,0.000,0.000,0.000
1641234843367803136,2022-01-03-18:34:03,10.1.1.13,164,-0.340,-0.340,-0.340,0.000,0.000,0.000
1641234843569196032,2022-01-03-18:34:03,10.1.1.13,163,-0.350,-0.350,-0.350,0.000,0.000,0.000
1641234843777837056,2022-01-03-18:34:03,10.1.1.13,171,-0.360,-0.360,-0.360,0.000,0.000,0.000
1641234843978148864,2022-01-03-18:34:03,10.1.1.13,171,-0.370,-0.370,-0.370,0.000,0.000,0.000
1641234844197603072,2022-01-03-18:34:04,10.1.1.13,189,-0.380,-0.380,-0.380,0.000,0.000,0.000
1641234844386725888,2022-01-03-18:34:04,10.1.1.13,177,-0.390,-0.390,-0.390,0.000,0.000,0.000
1641234844590880000,2022-01-03-18:34:04,10.1.1.13,180,-0.400,-0.400,-0.400,0.000,0.000,0.000
1641234844791655168,2022-01-03-18:34:04,10.1.1.13,175,-0.410,-0.410,-0.410,0.000,0.000,0.000
1641234844986443008,2022-01-03-18:34:04,10.1.1.13,167,-0.420,-0.420,-0.420,0.000,0.000,0.000
1641234845185611008,2022-01-03-18:34:05,10.1.1.13,165,-0.430,-0.430,-0.430,0.000,0.000,0.000
1641234845386255104,2022-01-03-18:34:05,10.1.1.13,165,-0.440,-0.440,-0.440,0.000,0.000,0.000
1641234845595236096,2022-01-03-18:34:05,10.1.1.13,172,-0.450,-0.450,-0.450,0.000,0.000,0.000
1641234845785115904,2022-01-03-18:34:05,10.1.1.13,161,-0.460,-0.460,-0.460,0.000,0.000,0.000
1641234845995119104,2022-01-03-18:34:05,10.1.1.13,170,-0.470,-0.470,-0.470,0.000,0.000,0.000
1641234846194480896,2022-01-03-18:34:06,10.1.1.13,167,-0.480,-0.480,-0.480,0.000,0.000,0.000
1641234846384564992,2022-01-03-18:34:06,10.1.1.13,157,-0.490,-0.490,-0.490,0.000,0.000,0.000
1641234846615160064,2022-01-03-18:34:06,10.1.1.13,186,-0.480,-0.480,-0.480,0.000,0.000,0.000
1641234846804537088,2022-01-03-18:34:06,10.1.1.13,171,-0.470,-0.470,-0.470,0.000,0.000,0.000
1641234847026875904,2022-01-03-18:34:07,10.1.1.13,190,-0.460,-0.460,-0.460,0.000,0.000,0.000
1641234847227386112,2022-01-03-18:34:07,10.1.1.13,161,-0.450,-0.450,-0.450,0.000,0.000,0.000
1641234847432701952,2022-01-03-18:34:07,10.1.1.13,165,-0.440,-0.440,-0.440,0.000,0.000,0.000
1641234847644728064,2022-01-03-18:34:07,10.1.1.13,176,-0.430,-0.430,-0.430,0.000,0.000,0.000
1641234847843076096,2022-01-03-18:34:07,10.1.1.13,172,-0.420,-0.420,-0.420,0.000,0.000,0.000
1641234848042823936,2022-01-03-18:34:08,10.1.1.13,171,-0.410,-0.410,-0.410,0.000,0.000,0.000
1641234848252077056,2022-01-03-18:34:08,10.1.1.13,180,-0.400,-0.400,-0.400,0.000,0.000,0.000
1641234848433832960,2022-01-03-18:34:08,10.1.1.13,158,-0.390,-0.390,-0.390,0.000,0.000,0.000
1641234848652513024,2022-01-03-18:34:08,10.1.1.13,178,-0.380,-0.380,-0.380,0.000,0.000,0.000
1641234848841742080,2022-01-03-18:34:08,10.1.1.13,166,-0.370,-0.370,-0.370,0.000,0.000,0.000
1641234849041657856,2022-01-03-18:34:09,10.1.1.13,164,-0.360,-0.360,-0.360,0.000,0.000,0.000
1641234849240647936,2022-01-03-18:34:09,10.1.1.13,163,-0.350,-0.350,-0.350,0.000,0.000,0.000
1641234849456844032,2022-01-03-18:34:09,10.1.1.13,178,-0.340,-0.340,-0.340,0.000,0.000,0.000
1641234849645481984,2022-01-03-18:34:09,10.1.1.13,166,-0.330,-0.330,-0.330,0.000,0.000,0.000
1641234849839485952,2022-01-03-18:34:09,10.1.1.13,159,-0.320,-0.320,-0.320,0.000,0.000,0.000
1641234850039395072,2022-01-03-18:34:10,10.1.1.13,158,-0.310,-0.310,-0.310,0.000,0.000,0.000
1641234850240385024,2022-01-03-18:34:10,10.1.1.13,158,-0.300,-0.300,-0.300,0.000,0.000,0.000
1641234850448803840,2022-01-03-18:34:10,10.1.1.13,166,-0.290,-0.290,-0.290,0.000,0.000,0.000
1641234850649704960,2022-01-03-18:34:10,10.1.1.13,162,-0.280,-0.280,-0.280,0.000,0.000,0.000
1641234850848623872,2022-01-03-18:34:10,10.1.1.13,154,-0.270,-0.270,-0.270,0.000,0.000,0.000
1641234851049221888,2022-01-03-18:34:11,10.1.1.13,154,-0.260,-0.260,-0.260,0.000,0.000,0.000
1641234851269790976,2022-01-03-18:34:11,10.1.1.13,172,-0.250,-0.250,-0.250,0.000,0.000,0.000
1641234851470002944,2022-01-03-18:34:11,10.1.1.13,163,-0.240,-0.240,-0.240,0.000,0.000,0.000
1641234851689664000,2022-01-03-18:34:11,10.1.1.13,181,-0.230,-0.230,-0.230,0.000,0.000,0.000
1641234851887713792,2022-01-03-18:34:11,10.1.1.13,177,-0.220,-0.220,-0.220,0.000,0.000,0.000
1641234852076675840,2022-01-03-18:34:12,10.1.1.13,162,-0.210,-0.210,-0.210,0.000,0.000,0.000
1641234852286238976,2022-01-03-18:34:12,10.1.1.13,171,-0.200,-0.200,-0.200,0.000,0.000,0.000
1641234852466569984,2022-01-03-18:34:12,10.1.1.13,151,-0.190,-0.190,-0.190,0.000,0.000,0.000
1641234852676428032,2022-01-03-18:34:12,10.1.1.13,160,-0.180,-0.180,-0.180,0.000,0.000,0.000
1641234852901360896,2022-01-03-18:34:12,10.1.1.13,184,-0.170,-0.170,-0.170,0.000,0.000,0.000
1641234853077730816,2022-01-03-18:34:13,10.1.1.13,158,-0.160,-0.160,-0.160,0.000,0.000,0.000
1641234853275329024,2022-01-03-18:34:13,10.1.1.13,156,-0.150,-0.150,-0.150,0.000,0.000,0.000
1641234853477644032,2022-01-03-18:34:13,10.1.1.13,156,-0.140,-0.140,-0.140,0.000,0.000,0.000
1641234853674496768,2022-01-03-18:34:13,10.1.1.13,152,-0.130,-0.130,-0.130,0.000,0.000,0.000
1641234853884609024,2022-01-03-18:34:13,10.1.1.13,161,-0.120,-0.120,-0.120,0.000,0.000,0.000
1641234854079332096,2022-01-03-18:34:14,10.1.1.13,153,-0.110,-0.110,-0.110,0.000,0.000,0.000
1641234854276894208,2022-01-03-18:34:14,10.1.1.13,150,-0.100,-0.100,-0.100,0.000,0.000,0.000
1641234854474003200,2022-01-03-18:34:14,10.1.1.13,147,-0.090,-0.090,-0.090,0.000,0.000,0.000
1641234854684154112,2022-01-03-18:34:14,10.1.1.13,155,-0.080,-0.080,-0.080,0.000,0.000,0.000
1641234854904606976,2022-01-03-18:34:14,10.1.1.13,175,-0.070,-0.070,-0.070,0.000,0.000,0.000
1641234855120553984,2022-01-03-18:34:15,10.1.1.13,188,-0.060,-0.060,-0.060,0.000,0.000,0.000
1641234855282278144,2022-01-03-18:34:15,10.1.1.13,150,-0.050,-0.050,-0.050,0.000,0.000,0.000
1641234855511681024,2022-01-03-18:34:15,10.1.1.13,163,-0.040,-0.040,-0.040,0.000,0.000,0.000
1641234855712197120,2022-01-03-18:34:15,10.1.1.13,162,-0.030,-0.030,-0.030,0.000,0.000,0.000
1641234855928299776,2022-01-03-18:34:15,10.1.1.13,178,-0.020,-0.020,-0.020,0.000,0.000,0.000
1641234856117153024,2022-01-03-18:34:16,10.1.1.13,161,-0.010,-0.010,-0.010,0.000,0.000,0.000
1641234856349384960,2022-01-03-18:34:16,10.1.1.13,176,0.000,0.000,0.000,0.000,0.000,0.000
1641234856511265024,2022-01-03-18:34:16,10.1.1.13,154,-0.010,-0.010,-0.010,0.000,0.000,0.000
1641234856712132096,2022-01-03-18:34:16,10.1.1.13,154,-0.020,-0.020,-0.020,0.000,0.000,0.000
1641234856909635072,2022-01-03-18:34:16,10.1.1.13,151,-0.030,-0.030,-0.030,0.000,0.000,0.000
1641234857109304064,2022-01-03-18:34:17,10.1.1.13,149,-0.040,-0.040,-0.040,0.000,0.000,0.000
1641234857321052928,2022-01-03-18:34:17,10.1.1.13,160,-0.050,-0.050,-0.050,0.000,0.000,0.000
1641234857524872960,2022-01-03-18:34:17,10.1.1.13,159,-0.060,-0.060,-0.060,0.000,0.000,0.000
1641234857708271872,2022-01-03-18:34:17,10.1.1.13,142,-0.070,-0.070,-0.070,0.000,0.000,0.000
1641234857918318080,2022-01-03-18:34:17,10.1.1.13,149,-0.080,-0.080,-0.080,0.000,0.000,0.000
1641234858121481984,2022-01-03-18:34:18,10.1.1.13,148,-0.090,-0.090,-0.090,0.000,0.000,0.000
1641234858342625024,2022-01-03-18:34:18,10.1.1.13,166,-0.100,-0.100,-0.100,0.000,0.000,0.000
1641234858737030912,2022-01-03-18:34:18,10.1.1.13,155,-0.120,-0.120,-0.120,0.000,0.000,0.000
1641234858926907904,2022-01-03-18:34:18,10.1.1.13,143,-0.130,-0.130,-0.130,0.000,0.000,0.000
1641234859143240960,2022-01-03-18:34:19,10.1.1.13,160,-0.140,-0.140,-0.140,0.000,0.000,0.000
1641234859338577152,2022-01-03-18:34:19,10.1.1.13,154,-0.150,-0.150,-0.150,0.000,0.000,0.000
1641234859538435840,2022-01-03-18:34:19,10.1.1.13,153,-0.160,-0.160,-0.160,0.000,0.000,0.000
1641234859736125952,2022-01-03-18:34:19,10.1.1.13,150,-0.170,-0.170,-0.170,0.000,0.000,0.000
1641234859927682048,2022-01-03-18:34:19,10.1.1.13,140,-0.180,-0.180,-0.180,0.000,0.000,0.000
1641234860156583936,2022-01-03-18:34:20,10.1.1.13,168,-0.190,-0.190,-0.190,0.000,0.000,0.000
1641234860341306880,2022-01-03-18:34:20,10.1.1.13,150,-0.200,-0.200,-0.200,0.000,0.000,0.000
1641234860544535040,2022-01-03-18:34:20,10.1.1.13,146,-0.210,-0.210,-0.210,0.000,0.000,0.000
1641234860944137216,2022-01-03-18:34:20,10.1.1.13,139,-0.230,-0.230,-0.230,0.000,0.000,0.000
1641234861154236160,2022-01-03-18:34:21,10.1.1.13,148,-0.240,-0.240,-0.240,0.000,0.000,0.000
1641234861353693952,2022-01-03-18:34:21,10.1.1.13,147,-0.250,-0.250,-0.250,0.000,0.000,0.000
1641234861573120000,2022-01-03-18:34:21,10.1.1.13,165,-0.260,-0.260,-0.260,0.000,0.000,0.000
1641234861752705024,2022-01-03-18:34:21,10.1.1.13,144,-0.270,-0.270,-0.270,0.000,0.000,0.000
1641234862007504896,2022-01-03-18:34:22,10.1.1.13,196,-0.280,-0.280,-0.280,0.000,0.000,0.000
1641234862166953984,2022-01-03-18:34:22,10.1.1.13,156,-0.290,-0.290,-0.290,0.000,0.000,0.000
1641234862354376960,2022-01-03-18:34:22,10.1.1.13,140,-0.300,-0.300,-0.300,0.000,0.000,0.000
1641234862569359104,2022-01-03-18:34:22,10.1.1.13,149,-0.310,-0.310,-0.310,0.000,0.000,0.000
1641234862761914112,2022-01-03-18:34:22,10.1.1.13,139,-0.320,-0.320,-0.320,0.000,0.000,0.000
1641234862967555072,2022-01-03-18:34:22,10.1.1.13,140,-0.330,-0.330,-0.330,0.000,0.000,0.000
1641234863175034112,2022-01-03-18:34:23,10.1.1.13,141,-0.340,-0.340,-0.340,0.000,0.000,0.000
1641234863394267136,2022-01-03-18:34:23,10.1.1.13,157,-0.350,-0.350,-0.350,0.000,0.000,0.000
1641234863581159168,2022-01-03-18:34:23,10.1.1.13,139,-0.360,-0.360,-0.360,0.000,0.000,0.000
1641234863779609088,2022-01-03-18:34:23,10.1.1.13,137,-0.370,-0.370,-0.370,0.000,0.000,0.000
1641234863982706176,2022-01-03-18:34:23,10.1.1.13,139,-0.380,-0.380,-0.380,0.000,0.000,0.000
1641234864229111808,2022-01-03-18:34:24,10.1.1.13,184,-0.390,-0.390,-0.390,0.000,0.000,0.000
1641234864378297088,2022-01-03-18:34:24,10.1.1.13,132,-0.400,-0.400,-0.400,0.000,0.000,0.000
1641234864589442048,2022-01-03-18:34:24,10.1.1.13,143,-0.410,-0.410,-0.410,0.000,0.000,0.000
1641234864836361984,2022-01-03-18:34:24,10.1.1.13,189,-0.420,-0.420,-0.420,0.000,0.000,0.000
1641234865010523136,2022-01-03-18:34:25,10.1.1.13,156,-0.430,-0.430,-0.430,0.000,0.000,0.000
1641234865197308160,2022-01-03-18:34:25,10.1.1.13,141,-0.440,-0.440,-0.440,0.000,0.000,0.000
1641234865437829120,2022-01-03-18:34:25,10.1.1.13,181,-0.450,-0.450,-0.450,0.000,0.000,0.000
1641234865607710976,2022-01-03-18:34:25,10.1.1.13,139,-0.460,-0.460,-0.460,0.000,0.000,0.000
1641234865806614016,2022-01-03-18:34:25,10.1.1.13,137,-0.470,-0.470,-0.470,0.000,0.000,0.000
1641234866006185984,2022-01-03-18:34:26,10.1.1.13,136,-0.480,-0.480,-0.480,0.000,0.000,0.000
1641234866205756928,2022-01-03-18:34:26,10.1.1.13,135,-0.490,-0.490,-0.490,0.000,0.000,0.000
1641234866409858816,2022-01-03-18:34:26,10.1.1.13,136,-0.480,-0.480,-0.480,0.000,0.000,0.000
1641234866620950016,2022-01-03-18:34:26,10.1.1.13,141,-0.470,-0.470,-0.470,0.000,0.000,0.000
1641234866839031808,2022-01-03-18:34:26,10.1.1.13,151,-0.460,-0.460,-0.460,0.000,0.000,0.000
1641234867025190144,2022-01-03-18:34:27,10.1.1.13,135,-0.450,-0.450,-0.450,0.000,0.000,0.000
1641234867273335808,2022-01-03-18:34:27,10.1.1.13,179,-0.440,-0.440,-0.440,0.000,0.000,0.000
1641234867427756032,2022-01-03-18:34:27,10.1.1.13,131,-0.430,-0.430,-0.430,0.000,0.000,0.000
1641234867644772096,2022-01-03-18:34:27,10.1.1.13,148,-0.420,-0.420,-0.420,0.000,0.000,0.000
1641234867843197184,2022-01-03-18:34:27,10.1.1.13,145,-0.410,-0.410,-0.410,0.000,0.000,0.000
1641234868032980992,2022-01-03-18:34:28,10.1.1.13,134,-0.400,-0.400,-0.400,0.000,0.000,0.000
1641234868244289024,2022-01-03-18:34:28,10.1.1.13,145,-0.390,-0.390,-0.390,0.000,0.000,0.000
1641234868434706944,2022-01-03-18:34:28,10.1.1.13,133,-0.380,-0.380,-0.380,0.000,0.000,0.000
1641234868891362816,2022-01-03-18:34:28,10.1.1.13,133,-0.360,-0.360,-0.360,0.000,0.000,0.000
1641234869091451904,2022-01-03-18:34:29,10.1.1.13,132,-0.350,-0.350,-0.350,0.000,0.000,0.000
1641234869302236928,2022-01-03-18:34:29,10.1.1.13,139,-0.340,-0.340,-0.340,0.000,0.000,0.000
1641234869493752064,2022-01-03-18:34:29,10.1.1.13,127,-0.330,-0.330,-0.330,0.000,0.000,0.000
1641234869728357120,2022-01-03-18:34:29,10.1.1.13,161,-0.320,-0.320,-0.320,0.000,0.000,0.000
1641234869918492160,2022-01-03-18:34:29,10.1.1.13,148,-0.310,-0.310,-0.310,0.000,0.000,0.000
1641234870109100032,2022-01-03-18:34:30,10.1.1.13,133,-0.300,-0.300,-0.300,0.000,0.000,0.000
1641234870313550080,2022-01-03-18:34:30,10.1.1.13,136,-0.290,-0.290,-0.290,0.000,0.000,0.000
1641234870508448000,2022-01-03-18:34:30,10.1.1.13,131,-0.280,-0.280,-0.280,0.000,0.000,0.000
1641234870707914240,2022-01-03-18:34:30,10.1.1.13,129,-0.270,-0.270,-0.270,0.000,0.000,0.000
1641234870920442112,2022-01-03-18:34:30,10.1.1.13,141,-0.260,-0.260,-0.260,0.000,0.000,0.000
1641234871107409920,2022-01-03-18:34:31,10.1.1.13,126,-0.250,-0.250,-0.250,0.000,0.000,0.000
1641234871337671936,2022-01-03-18:34:31,10.1.1.13,149,-0.240,-0.240,-0.240,0.000,0.000,0.000
1641234871530103808,2022-01-03-18:34:31,10.1.1.13,141,-0.230,-0.230,-0.230,0.000,0.000,0.000
1641234871724841216,2022-01-03-18:34:31,10.1.1.13,128,-0.220,-0.220,-0.220,0.000,0.000,0.000
1641234871987111936,2022-01-03-18:34:31,10.1.1.13,136,-0.210,-0.210,-0.210,0.000,0.000,0.000
1641234872203311872,2022-01-03-18:34:32,10.1.1.13,150,-0.200,-0.200,-0.200,0.000,0.000,0.000
1641234872386205952,2022-01-03-18:34:32,10.1.1.13,121,-0.190,-0.190,-0.190,0.000,0.000,0.000
1641234872597225984,2022-01-03-18:34:32,10.1.1.13,132,-0.180,-0.180,-0.180,0.000,0.000,0.000
1641234872795757056,2022-01-03-18:34:32,10.1.1.13,130,-0.170,-0.170,-0.170,0.000,0.000,0.000
1641234872996210944,2022-01-03-18:34:32,10.1.1.13,130,-0.160,-0.160,-0.160,0.000,0.000,0.000
1641234873237399040,2022-01-03-18:34:33,10.1.1.13,168,-0.150,-0.150,-0.150,0.000,0.000,0.000
1641234873395356928,2022-01-03-18:34:33,10.1.1.13,120,-0.140,-0.140,-0.140,0.000,0.000,0.000
1641234873663675904,2022-01-03-18:34:33,10.1.1.13,146,-0.130,-0.130,-0.130,0.000,0.000,0.000
1641234873857820928,2022-01-03-18:34:33,10.1.1.13,135,-0.120,-0.120,-0.120,0.000,0.000,0.000
1641234874079075072,2022-01-03-18:34:34,10.1.1.13,146,-0.110,-0.110,-0.110,0.000,0.000,0.000
1641234874285548032,2022-01-03-18:34:34,10.1.1.13,151,-0.100,-0.100,-0.100,0.000,0.000,0.000
1641234874511096832,2022-01-03-18:34:34,10.1.1.13,134,-0.090,-0.090,-0.090,0.000,0.000,0.000
1641234874703937024,2022-01-03-18:34:34,10.1.1.13,146,-0.080,-0.080,-0.080,0.000,0.000,0.000
1641234874886294016,2022-01-03-18:34:34,10.1.1.13,125,-0.070,-0.070,-0.070,0.000,0.000,0.000
1641234875094629120,2022-01-03-18:34:35,10.1.1.13,135,-0.060,-0.060,-0.060,0.000,0.000,0.000
1641234875282000128,2022-01-03-18:34:35,10.1.1.13,120,-0.050,-0.050,-0.050,0.000,0.000,0.000
1641234875680247040,2022-01-03-18:34:35,10.1.1.13,115,-0.030,-0.030,-0.030,0.000,0.000,0.000
1641234875941572864,2022-01-03-18:34:35,10.1.1.13,121,-0.020,-0.020,-0.020,0.000,0.000,0.000
1641234876150202880,2022-01-03-18:34:36,10.1.1.13,131,-0.010,-0.010,-0.010,0.000,0.000,0.000
1641234876351001856,2022-01-03-18:34:36,10.1.1.13,131,0.000,0.000,0.000,0.000,0.000,0.000
1641234876549756160,2022-01-03-18:34:36,10.1.1.13,129,-0.010,-0.010,-0.010,0.000,0.000,0.000
1641234876802185984,2022-01-03-18:34:36,10.1.1.13,178,-0.020,-0.020,-0.020,0.000,0.000,0.000
1641234876951031808,2022-01-03-18:34:36,10.1.1.13,120,-0.030,-0.030,-0.030,0.000,0.000,0.000
1641234877157700096,2022-01-03-18:34:37,10.1.1.13,126,-0.040,-0.040,-0.040,0.000,0.000,0.000
1641234877356945152,2022-01-03-18:34:37,10.1.1.13,125,-0.050,-0.050,-0.050,0.000,0.000,0.000
1641234877557697024,2022-01-03-18:34:37,10.1.1.13,124,-0.060,-0.060,-0.060,0.000,0.000,0.000
1641234877751852032,2022-01-03-18:34:37,10.1.1.13,117,-0.070,-0.070,-0.070,0.000,0.000,0.000
1641234877967313152,2022-01-03-18:34:37,10.1.1.13,128,-0.080,-0.080,-0.080,0.000,0.000,0.000
1641234878167278080,2022-01-03-18:34:38,10.1.1.13,127,-0.090,-0.090,-0.090,0.000,0.000,0.000
1641234878356028928,2022-01-03-18:34:38,10.1.1.13,115,-0.100,-0.100,-0.100,0.000,0.000,0.000
1641234878617271040,2022-01-03-18:34:38,10.1.1.13,172,-0.110,-0.110,-0.110,0.000,0.000,0.000
1641234878775223040,2022-01-03-18:34:38,10.1.1.13,127,-0.120,-0.120,-0.120,0.000,0.000,0.000
1641234878977827072,2022-01-03-18:34:38,10.1.1.13,126,-0.130,-0.130,-0.130,0.000,0.000,0.000
1641234879165824000,2022-01-03-18:34:39,10.1.1.13,113,-0.140,-0.140,-0.140,0.000,0.000,0.000
1641234879384969984,2022-01-03-18:34:39,10.1.1.13,131,-0.150,-0.150,-0.150,0.000,0.000,0.000
1641234879564131072,2022-01-03-18:34:39,10.1.1.13,110,-0.160,-0.160,-0.160,0.000,0.000,0.000
1641234879763887872,2022-01-03-18:34:39,10.1.1.13,109,-0.170,-0.170,-0.170,0.000,0.000,0.000
1641234879983763968,2022-01-03-18:34:39,10.1.1.13,127,-0.180,-0.180,-0.180,0.000,0.000,0.000
1641234880184688128,2022-01-03-18:34:40,10.1.1.13,126,-0.190,-0.190,-0.190,0.000,0.000,0.000
1641234880374609920,2022-01-03-18:34:40,10.1.1.13,115,-0.200,-0.200,-0.200,0.000,0.000,0.000
1641234880572455936,2022-01-03-18:34:40,10.1.1.13,112,-0.210,-0.210,-0.210,0.000,0.000,0.000
1641234880772455936,2022-01-03-18:34:40,10.1.1.13,112,-0.220,-0.220,-0.220,0.000,0.000,0.000
1641234880982379008,2022-01-03-18:34:40,10.1.1.13,119,-0.230,-0.230,-0.230,0.000,0.000,0.000
1641234881252482816,2022-01-03-18:34:41,10.1.1.13,185,-0.240,-0.240,-0.240,0.000,0.000,0.000
1641234881402599936,2022-01-03-18:34:41,10.1.1.13,135,-0.250,-0.250,-0.250,0.000,0.000,0.000
1641234881580946944,2022-01-03-18:34:41,10.1.1.13,110,-0.260,-0.260,-0.260,0.000,0.000,0.000
1641234881781410048,2022-01-03-18:34:41,10.1.1.13,110,-0.270,-0.270,-0.270,0.000,0.000,0.000
1641234881990736896,2022-01-03-18:34:41,10.1.1.13,118,-0.280,-0.280,-0.280,0.000,0.000,0.000
1641234882181137920,2022-01-03-18:34:42,10.1.1.13,107,-0.290,-0.290,-0.290,0.000,0.000,0.000
1641234882428450048,2022-01-03-18:34:42,10.1.1.13,144,-0.300,-0.300,-0.300,0.000,0.000,0.000
1641234882596679936,2022-01-03-18:34:42,10.1.1.13,105,-0.310,-0.310,-0.310,0.000,0.000,0.000
1641234882788229888,2022-01-03-18:34:42,10.1.1.13,102,-0.320,-0.320,-0.320,0.000,0.000,0.000
1641234883089644032,2022-01-03-18:34:43,10.1.1.13,161,-0.330,-0.330,-0.330,0.000,0.000,0.000
1641234883279671808,2022-01-03-18:34:43,10.1.1.13,119,-0.340,-0.340,-0.340,0.000,0.000,0.000
1641234883546947072,2022-01-03-18:34:43,10.1.1.13,183,-0.350,-0.350,-0.350,0.000,0.000,0.000
1641234883668360960,2022-01-03-18:34:43,10.1.1.13,102,-0.360,-0.360,-0.360,0.000,0.000,0.000
1641234883886953216,2022-01-03-18:34:43,10.1.1.13,120,-0.370,-0.370,-0.370,0.000,0.000,0.000
1641234884087055872,2022-01-03-18:34:44,10.1.1.13,117,-0.380,-0.380,-0.380,0.000,0.000,0.000
1641234884287866112,2022-01-03-18:34:44,10.1.1.13,117,-0.390,-0.390,-0.390,0.000,0.000,0.000
1641234884488504832,2022-01-03-18:34:44,10.1.1.13,117,-0.400,-0.400,-0.400,0.000,0.000,0.000
1641234884680238080,2022-01-03-18:34:44,10.1.1.13,105,-0.410,-0.410,-0.410,0.000,0.000,0.000
1641234884891010048,2022-01-03-18:34:44,10.1.1.13,115,-0.420,-0.420,-0.420,0.000,0.000,0.000
1641234885107601920,2022-01-03-18:34:45,10.1.1.13,128,-0.430,-0.430,-0.430,0.000,0.000,0.000
1641234885409502976,2022-01-03-18:34:45,10.1.1.13,176,-0.440,-0.440,-0.440,0.000,0.000,0.000
1641234885546752000,2022-01-03-18:34:45,10.1.1.13,113,-0.450,-0.450,-0.450,0.000,0.000,0.000
1641234885770834944,2022-01-03-18:34:45,10.1.1.13,135,-0.460,-0.460,-0.460,0.000,0.000,0.000
1641234885968521984,2022-01-03-18:34:45,10.1.1.13,131,-0.470,-0.470,-0.470,0.000,0.000,0.000
1641234886157097216,2022-01-03-18:34:46,10.1.1.13,117,-0.480,-0.480,-0.480,0.000,0.000,0.000
1641234886357594880,2022-01-03-18:34:46,10.1.1.13,115,-0.490,-0.490,-0.490,0.000,0.000,0.000
1641234886558672896,2022-01-03-18:34:46,10.1.1.13,115,-0.480,-0.480,-0.480,0.000,0.000,0.000
1641234886759916032,2022-01-03-18:34:46,10.1.1.13,113,-0.470,-0.470,-0.470,0.000,0.000,0.000
1641234886981499904,2022-01-03-18:34:46,10.1.1.13,133,-0.460,-0.460,-0.460,0.000,0.000,0.000
1641234887174225152,2022-01-03-18:34:47,10.1.1.13,124,-0.450,-0.450,-0.450,0.000,0.000,0.000
1641234887396320000,2022-01-03-18:34:47,10.1.1.13,143,-0.440,-0.440,-0.440,0.000,0.000,0.000
1641234887586592000,2022-01-03-18:34:47,10.1.1.13,122,-0.430,-0.430,-0.430,0.000,0.000,0.000
1641234887804096000,2022-01-03-18:34:47,10.1.1.13,134,-0.420,-0.420,-0.420,0.000,0.000,0.000
1641234888056706816,2022-01-03-18:34:48,10.1.1.13,186,-0.410,-0.410,-0.410,0.000,0.000,0.000
1641234888206267136,2022-01-03-18:34:48,10.1.1.13,135,-0.400,-0.400,-0.400,0.000,0.000,0.000
1641234888407072000,2022-01-03-18:34:48,10.1.1.13,135,-0.390,-0.390,-0.390,0.000,0.000,0.000
1641234888602528000,2022-01-03-18:34:48,10.1.1.13,127,-0.380,-0.380,-0.380,0.000,0.000,0.000
1641234888808870144,2022-01-03-18:34:48,10.1.1.13,133,-0.370,-0.370,-0.370,0.000,0.000,0.000
1641234888999571968,2022-01-03-18:34:48,10.1.1.13,123,-0.360,-0.360,-0.360,0.000,0.000,0.000
1641234889209391104,2022-01-03-18:34:49,10.1.1.13,132,-0.350,-0.350,-0.350,0.000,0.000,0.000
1641234889425515776,2022-01-03-18:34:49,10.1.1.13,147,-0.340,-0.340,-0.340,0.000,0.000,0.000
1641234889622587904,2022-01-03-18:34:49,10.1.1.13,144,-0.330,-0.330,-0.330,0.000,0.000,0.000
1641234889829516800,2022-01-03-18:34:49,10.1.1.13,148,-0.320,-0.320,-0.320,0.000,0.000,0.000
1641234890021673984,2022-01-03-18:34:50,10.1.1.13,139,-0.310,-0.310,-0.310,0.000,0.000,0.000
1641234890277182208,2022-01-03-18:34:50,10.1.1.13,193,-0.300,-0.300,-0.300,0.000,0.000,0.000
1641234890294220032,2022-01-03-18:34:50,10.1.1.13,-17,-0.300,-0.300,-0.300,0.000,0.000,0.000
1641234890624653056,2022-01-03-18:34:50,10.1.1.13,129,-0.280,-0.280,-0.280,0.000,0.000,0.000
1641234890825048064,2022-01-03-18:34:50,10.1.1.13,130,-0.270,-0.270,-0.270,0.000,0.000,0.000
1641234891031008000,2022-01-03-18:34:51,10.1.1.13,135,-0.260,-0.260,-0.260,0.000,0.000,0.000
1641234891246424064,2022-01-03-18:34:51,10.1.1.13,149,-0.250,-0.250,-0.250,0.000,0.000,0.000
1641234891470518016,2022-01-03-18:34:51,10.1.1.13,152,-0.240,-0.240,-0.240,0.000,0.000,0.000
1641234891652035072,2022-01-03-18:34:51,10.1.1.13,136,-0.230,-0.230,-0.230,0.000,0.000,0.000
1641234891869630976,2022-01-03-18:34:51,10.1.1.13,150,-0.220,-0.220,-0.220,0.000,0.000,0.000
1641234892048743936,2022-01-03-18:34:52,10.1.1.13,132,-0.210,-0.210,-0.210,0.000,0.000,0.000
1641234892268003840,2022-01-03-18:34:52,10.1.1.13,150,-0.200,-0.200,-0.200,0.000,0.000,0.000
1641234892462963968,2022-01-03-18:34:52,10.1.1.13,145,-0.190,-0.190,-0.190,0.000,0.000,0.000
1641234892668966912,2022-01-03-18:34:52,10.1.1.13,139,-0.180,-0.180,-0.180,0.000,0.000,0.000
1641234892889379072,2022-01-03-18:34:52,10.1.1.13,159,-0.170,-0.170,-0.170,0.000,0.000,0.000
1641234893080823808,2022-01-03-18:34:53,10.1.1.13,143,-0.160,-0.160,-0.160,0.000,0.000,0.000
1641234893291943936,2022-01-03-18:34:53,10.1.1.13,151,-0.150,-0.150,-0.150,0.000,0.000,0.000
1641234893480787968,2022-01-03-18:34:53,10.1.1.13,139,-0.140,-0.140,-0.140,0.000,0.000,0.000
1641234893732409088,2022-01-03-18:34:53,10.1.1.13,190,-0.130,-0.130,-0.130,0.000,0.000,0.000
1641234893882735104,2022-01-03-18:34:53,10.1.1.13,140,-0.120,-0.120,-0.120,0.000,0.000,0.000
1641234894098243072,2022-01-03-18:34:54,10.1.1.13,155,-0.110,-0.110,-0.110,0.000,0.000,0.000
1641234894290682112,2022-01-03-18:34:54,10.1.1.13,147,-0.100,-0.100,-0.100,0.000,0.000,0.000
1641234894482338048,2022-01-03-18:34:54,10.1.1.13,139,-0.090,-0.090,-0.090,0.000,0.000,0.000
1641234894687049984,2022-01-03-18:34:54,10.1.1.13,143,-0.080,-0.080,-0.080,0.000,0.000,0.000
1641234894883567104,2022-01-03-18:34:54,10.1.1.13,139,-0.070,-0.070,-0.070,0.000,0.000,0.000
1641234895083646976,2022-01-03-18:34:55,10.1.1.13,138,-0.060,-0.060,-0.060,0.000,0.000,0.000
1641234895284851200,2022-01-03-18:34:55,10.1.1.13,138,-0.050,-0.050,-0.050,0.000,0.000,0.000
1641234895484880896,2022-01-03-18:34:55,10.1.1.13,137,-0.040,-0.040,-0.040,0.000,0.000,0.000
1641234895694770944,2022-01-03-18:34:55,10.1.1.13,147,-0.030,-0.030,-0.030,0.000,0.000,0.000
1641234895920447232,2022-01-03-18:34:55,10.1.1.13,171,-0.020,-0.020,-0.020,0.000,0.000,0.000
1641234896105297920,2022-01-03-18:34:56,10.1.1.13,139,-0.010,-0.010,-0.010,0.000,0.000,0.000
1641234896317011968,2022-01-03-18:34:56,10.1.1.13,150,0.000,0.000,0.000,0.000,0.000,0.000
1641234896524542208,2022-01-03-18:34:56,10.1.1.13,157,-0.010,-0.010,-0.010,0.000,0.000,0.000
1641234896719036928,2022-01-03-18:34:56,10.1.1.13,143,-0.020,-0.020,-0.020,0.000,0.000,0.000
1641234896928433920,2022-01-03-18:34:56,10.1.1.13,140,-0.030,-0.030,-0.030,0.000,0.000,0.000
1641234897139945984,2022-01-03-18:34:57,10.1.1.13,152,-0.040,-0.040,-0.040,0.000,0.000,0.000
1641234897358458880,2022-01-03-18:34:57,10.1.1.13,170,-0.050,-0.050,-0.050,0.000,0.000,0.000
1641234897540158976,2022-01-03-18:34:57,10.1.1.13,151,-0.060,-0.060,-0.060,0.000,0.000,0.000
1641234897763580160,2022-01-03-18:34:57,10.1.1.13,174,-0.070,-0.070,-0.070,0.000,0.000,0.000
1641234897942290944,2022-01-03-18:34:57,10.1.1.13,151,-0.080,-0.080,-0.080,0.000,0.000,0.000
1641234898161340928,2022-01-03-18:34:58,10.1.1.13,170,-0.090,-0.090,-0.090,0.000,0.000,0.000
1641234898348438016,2022-01-03-18:34:58,10.1.1.13,156,-0.100,-0.100,-0.100,0.000,0.000,0.000
1641234898543574016,2022-01-03-18:34:58,10.1.1.13,149,-0.110,-0.110,-0.110,0.000,0.000,0.000
1641234898759798016,2022-01-03-18:34:58,10.1.1.13,166,-0.120,-0.120,-0.120,0.000,0.000,0.000
1641234898939570944,2022-01-03-18:34:58,10.1.1.13,145,-0.130,-0.130,-0.130,0.000,0.000,0.000
1641234899140471040,2022-01-03-18:34:59,10.1.1.13,144,-0.140,-0.140,-0.140,0.000,0.000,0.000
1641234899361251072,2022-01-03-18:34:59,10.1.1.13,165,-0.150,-0.150,-0.150,0.000,0.000,0.000
1641234899560865024,2022-01-03-18:34:59,10.1.1.13,147,-0.160,-0.160,-0.160,0.000,0.000,0.000
1641234899762580992,2022-01-03-18:34:59,10.1.1.13,148,-0.170,-0.170,-0.170,0.000,0.000,0.000
1641234899980706048,2022-01-03-18:34:59,10.1.1.13,166,-0.180,-0.180,-0.180,0.000,0.000,0.000
1641234900170620928,2022-01-03-18:35:00,10.1.1.13,155,-0.190,-0.190,-0.190,0.000,0.000,0.000
1641234900370745856,2022-01-03-18:35:00,10.1.1.13,155,-0.200,-0.200,-0.200,0.000,0.000,0.000
1641234900589814016,2022-01-03-18:35:00,10.1.1.13,173,-0.210,-0.210,-0.210,0.000,0.000,0.000
1641234900781119232,2022-01-03-18:35:00,10.1.1.13,159,-0.220,-0.220,-0.220,0.000,0.000,0.000
1641234901001374976,2022-01-03-18:35:01,10.1.1.13,172,-0.230,-0.230,-0.230,0.000,0.000,0.000
1641234901202689024,2022-01-03-18:35:01,10.1.1.13,173,-0.240,-0.240,-0.240,0.000,0.000,0.000
1641234901398897920,2022-01-03-18:35:01,10.1.1.13,167,-0.250,-0.250,-0.250,0.000,0.000,0.000
1641234901591751936,2022-01-03-18:35:01,10.1.1.13,159,-0.260,-0.260,-0.260,0.000,0.000,0.000
1641234901793241856,2022-01-03-18:35:01,10.1.1.13,159,-0.270,-0.270,-0.270,0.000,0.000,0.000
1641234902002726912,2022-01-03-18:35:02,10.1.1.13,167,-0.280,-0.280,-0.280,0.000,0.000,0.000
1641234902203965952,2022-01-03-18:35:02,10.1.1.13,169,-0.290,-0.290,-0.290,0.000,0.000,0.000
1641234902384974080,2022-01-03-18:35:02,10.1.1.13,149,-0.300,-0.300,-0.300,0.000,0.000,0.000
1641234902603363072,2022-01-03-18:35:02,10.1.1.13,167,-0.310,-0.310,-0.310,0.000,0.000,0.000
1641234902808360960,2022-01-03-18:35:02,10.1.1.13,158,-0.320,-0.320,-0.320,0.000,0.000,0.000
1641234902999599104,2022-01-03-18:35:02,10.1.1.13,159,-0.330,-0.330,-0.330,0.000,0.000,0.000
1641234903202654976,2022-01-03-18:35:03,10.1.1.13,161,-0.340,-0.340,-0.340,0.000,0.000,0.000
1641234903392786944,2022-01-03-18:35:03,10.1.1.13,151,-0.350,-0.350,-0.350,0.000,0.000,0.000
1641234903633349888,2022-01-03-18:35:03,10.1.1.13,190,-0.360,-0.360,-0.360,0.000,0.000,0.000
1641234903825432064,2022-01-03-18:35:03,10.1.1.13,167,-0.370,-0.370,-0.370,0.000,0.000,0.000
1641234904212744960,2022-01-03-18:35:04,10.1.1.13,153,-0.390,-0.390,-0.390,0.000,0.000,0.000
1641234904420687872,2022-01-03-18:35:04,10.1.1.13,160,-0.400,-0.400,-0.400,0.000,0.000,0.000
1641234904622804992,2022-01-03-18:35:04,10.1.1.13,162,-0.410,-0.410,-0.410,0.000,0.000,0.000
1641234904826703104,2022-01-03-18:35:04,10.1.1.13,164,-0.420,-0.420,-0.420,0.000,0.000,0.000
1641234905025423104,2022-01-03-18:35:05,10.1.1.13,164,-0.430,-0.430,-0.430,0.000,0.000,0.000
1641234905236692992,2022-01-03-18:35:05,10.1.1.13,165,-0.440,-0.440,-0.440,0.000,0.000,0.000
1641234905425620992,2022-01-03-18:35:05,10.1.1.13,161,-0.450,-0.450,-0.450,0.000,0.000,0.000
1641234905624891136,2022-01-03-18:35:05,10.1.1.13,161,-0.460,-0.460,-0.460,0.000,0.000,0.000
1641234905831707904,2022-01-03-18:35:05,10.1.1.13,168,-0.470,-0.470,-0.470,0.000,0.000,0.000
1641234906013825024,2022-01-03-18:35:06,10.1.1.13,149,-0.480,-0.480,-0.480,0.000,0.000,0.000
1641234906264060928,2022-01-03-18:35:06,10.1.1.13,190,-0.490,-0.490,-0.490,0.000,0.000,0.000
1641234906442377984,2022-01-03-18:35:06,10.1.1.13,164,-0.480,-0.480,-0.480,0.000,0.000,0.000
1641234906646311168,2022-01-03-18:35:06,10.1.1.13,167,-0.470,-0.470,-0.470,0.000,0.000,0.000
1641234906833425920,2022-01-03-18:35:06,10.1.1.13,154,-0.460,-0.460,-0.460,0.000,0.000,0.000
1641234907042237952,2022-01-03-18:35:07,10.1.1.13,162,-0.450,-0.450,-0.450,0.000,0.000,0.000
1641234907243057920,2022-01-03-18:35:07,10.1.1.13,162,-0.440,-0.440,-0.440,0.000,0.000,0.000
1641234907669413120,2022-01-03-18:35:07,10.1.1.13,165,-0.420,-0.420,-0.420,0.000,0.000,0.000
1641234907863596800,2022-01-03-18:35:07,10.1.1.13,149,-0.410,-0.410,-0.410,0.000,0.000,0.000
1641234908063492096,2022-01-03-18:35:08,10.1.1.13,146,-0.400,-0.400,-0.400,0.000,0.000,0.000
1641234908278452992,2022-01-03-18:35:08,10.1.1.13,154,-0.390,-0.390,-0.390,0.000,0.000,0.000
1641234908484876032,2022-01-03-18:35:08,10.1.1.13,159,-0.380,-0.380,-0.380,0.000,0.000,0.000
1641234908718599936,2022-01-03-18:35:08,10.1.1.13,175,-0.370,-0.370,-0.370,0.000,0.000,0.000
1641234908893551104,2022-01-03-18:35:08,10.1.1.13,148,-0.360,-0.360,-0.360,0.000,0.000,0.000
1641234909107013888,2022-01-03-18:35:09,10.1.1.13,159,-0.350,-0.350,-0.350,0.000,0.000,0.000
1641234909306829056,2022-01-03-18:35:09,10.1.1.13,158,-0.340,-0.340,-0.340,0.000,0.000,0.000
1641234909530059008,2022-01-03-18:35:09,10.1.1.13,180,-0.330,-0.330,-0.330,0.000,0.000,0.000
1641234909903745792,2022-01-03-18:35:09,10.1.1.13,148,-0.310,-0.310,-0.310,0.000,0.000,0.000
1641234910164922880,2022-01-03-18:35:10,10.1.1.13,167,-0.300,-0.300,-0.300,0.000,0.000,0.000
1641234910365314048,2022-01-03-18:35:10,10.1.1.13,167,-0.290,-0.290,-0.290,0.000,0.000,0.000
1641234910562750208,2022-01-03-18:35:10,10.1.1.13,156,-0.280,-0.280,-0.280,0.000,0.000,0.000
1641234910757978880,2022-01-03-18:35:10,10.1.1.13,153,-0.270,-0.270,-0.270,0.000,0.000,0.000
1641234910951254016,2022-01-03-18:35:10,10.1.1.13,145,-0.260,-0.260,-0.260,0.000,0.000,0.000
1641234911152404992,2022-01-03-18:35:11,10.1.1.13,145,-0.250,-0.250,-0.250,0.000,0.000,0.000
1641234911371099904,2022-01-03-18:35:11,10.1.1.13,163,-0.240,-0.240,-0.240,0.000,0.000,0.000
1641234911560875776,2022-01-03-18:35:11,10.1.1.13,152,-0.230,-0.230,-0.230,0.000,0.000,0.000
1641234911760968960,2022-01-03-18:35:11,10.1.1.13,151,-0.220,-0.220,-0.220,0.000,0.000,0.000
1641234911981219072,2022-01-03-18:35:11,10.1.1.13,171,-0.210,-0.210,-0.210,0.000,0.000,0.000
1641234912173127936,2022-01-03-18:35:12,10.1.1.13,160,-0.200,-0.200,-0.200,0.000,0.000,0.000
1641234912371225088,2022-01-03-18:35:12,10.1.1.13,157,-0.190,-0.190,-0.190,0.000,0.000,0.000
1641234912570715904,2022-01-03-18:35:12,10.1.1.13,156,-0.180,-0.180,-0.180,0.000,0.000,0.000
1641234912770884096,2022-01-03-18:35:12,10.1.1.13,155,-0.170,-0.170,-0.170,0.000,0.000,0.000
1641234912824498944,2022-01-03-18:35:12,10.1.1.13,-4,-0.170,-0.170,-0.170,0.000,0.000,0.000
1641234913181283840,2022-01-03-18:35:13,10.1.1.13,163,-0.150,-0.150,-0.150,0.000,0.000,0.000
1641234913381506048,2022-01-03-18:35:13,10.1.1.13,148,-0.140,-0.140,-0.140,0.000,0.000,0.000
1641234913602714112,2022-01-03-18:35:13,10.1.1.13,160,-0.130,-0.130,-0.130,0.000,0.000,0.000
1641234913799997952,2022-01-03-18:35:13,10.1.1.13,153,-0.120,-0.120,-0.120,0.000,0.000,0.000
1641234913999924992,2022-01-03-18:35:13,10.1.1.13,152,-0.110,-0.110,-0.110,0.000,0.000,0.000
1641234914219491840,2022-01-03-18:35:14,10.1.1.13,171,-0.100,-0.100,-0.100,0.000,0.000,0.000
1641234914404500992,2022-01-03-18:35:14,10.1.1.13,155,-0.090,-0.090,-0.090,0.000,0.000,0.000
1641234914620930048,2022-01-03-18:35:14,10.1.1.13,171,-0.080,-0.080,-0.080,0.000,0.000,0.000
1641234914811719936,2022-01-03-18:35:14,10.1.1.13,161,-0.070,-0.070,-0.070,0.000,0.000,0.000
1641234915005240832,2022-01-03-18:35:15,10.1.1.13,154,-0.060,-0.060,-0.060,0.000,0.000,0.000
1641234915220457984,2022-01-03-18:35:15,10.1.1.13,168,-0.050,-0.050,-0.050,0.000,0.000,0.000
1641234915424624896,2022-01-03-18:35:15,10.1.1.13,172,-0.040,-0.040,-0.040,0.000,0.000,0.000
1641234915619183104,2022-01-03-18:35:15,10.1.1.13,166,-0.030,-0.030,-0.030,0.000,0.000,0.000
1641234915799310848,2022-01-03-18:35:15,10.1.1.13,145,-0.020,-0.020,-0.020,0.000,0.000,0.000
1641234916018152960,2022-01-03-18:35:16,10.1.1.13,163,-0.010,-0.010,-0.010,0.000,0.000,0.000
1641234916208633856,2022-01-03-18:35:16,10.1.1.13,153,0.000,0.000,0.000,0.000,0.000,0.000
1641234916399315968,2022-01-03-18:35:16,10.1.1.13,143,-0.010,-0.010,-0.010,0.000,0.000,0.000
1641234916633465088,2022-01-03-18:35:16,10.1.1.13,176,-0.020,-0.020,-0.020,0.000,0.000,0.000
1641234916813131008,2022-01-03-18:35:16,10.1.1.13,155,-0.030,-0.030,-0.030,0.000,0.000,0.000
1641234917019369984,2022-01-03-18:35:17,10.1.1.13,160,-0.040,-0.040,-0.040,0.000,0.000,0.000
1641234917219454976,2022-01-03-18:35:17,10.1.1.13,158,-0.050,-0.050,-0.050,0.000,0.000,0.000
1641234917427860992,2022-01-03-18:35:17,10.1.1.13,151,-0.060,-0.060,-0.060,0.000,0.000,0.000
1641234917828489984,2022-01-03-18:35:17,10.1.1.13,151,-0.080,-0.080,-0.080,0.000,0.000,0.000
1641234918038155008,2022-01-03-18:35:18,10.1.1.13,160,-0.090,-0.090,-0.090,0.000,0.000,0.000
1641234918226181888,2022-01-03-18:35:18,10.1.1.13,147,-0.100,-0.100,-0.100,0.000,0.000,0.000
1641234918426204928,2022-01-03-18:35:18,10.1.1.13,146,-0.110,-0.110,-0.110,0.000,0.000,0.000
1641234918640940800,2022-01-03-18:35:18,10.1.1.13,160,-0.120,-0.120,-0.120,0.000,0.000,0.000
1641234918830883072,2022-01-03-18:35:18,10.1.1.13,149,-0.130,-0.130,-0.130,0.000,0.000,0.000
1641234919037673984,2022-01-03-18:35:19,10.1.1.13,155,-0.140,-0.140,-0.140,0.000,0.000,0.000
1641234919225965056,2022-01-03-18:35:19,10.1.1.13,142,-0.150,-0.150,-0.150,0.000,0.000,0.000
1641234919426801920,2022-01-03-18:35:19,10.1.1.13,142,-0.160,-0.160,-0.160,0.000,0.000,0.000
1641234919665040128,2022-01-03-18:35:19,10.1.1.13,180,-0.170,-0.170,-0.170,0.000,0.000,0.000
1641234919836870912,2022-01-03-18:35:19,10.1.1.13,149,-0.180,-0.180,-0.180,0.000,0.000,0.000
1641234920050299904,2022-01-03-18:35:20,10.1.1.13,162,-0.190,-0.190,-0.190,0.000,0.000,0.000
1641234920260798976,2022-01-03-18:35:20,10.1.1.13,171,-0.200,-0.200,-0.200,0.000,0.000,0.000
1641234920446916096,2022-01-03-18:35:20,10.1.1.13,157,-0.210,-0.210,-0.210,0.000,0.000,0.000
1641234920634528000,2022-01-03-18:35:20,10.1.1.13,144,-0.220,-0.220,-0.220,0.000,0.000,0.000
1641234920833801984,2022-01-03-18:35:20,10.1.1.13,143,-0.230,-0.230,-0.230,0.000,0.000,0.000
1641234921045305088,2022-01-03-18:35:21,10.1.1.13,153,-0.240,-0.240,-0.240,0.000,0.000,0.000
1641234921270983936,2022-01-03-18:35:21,10.1.1.13,178,-0.250,-0.250,-0.250,0.000,0.000,0.000
1641234921443582976,2022-01-03-18:35:21,10.1.1.13,140,-0.260,-0.260,-0.260,0.000,0.000,0.000
1641234921658513920,2022-01-03-18:35:21,10.1.1.13,149,-0.270,-0.270,-0.270,0.000,0.000,0.000
1641234921851982080,2022-01-03-18:35:21,10.1.1.13,136,-0.280,-0.280,-0.280,0.000,0.000,0.000
1641234922092830976,2022-01-03-18:35:22,10.1.1.13,175,-0.290,-0.290,-0.290,0.000,0.000,0.000
1641234922263883008,2022-01-03-18:35:22,10.1.1.13,141,-0.300,-0.300,-0.300,0.000,0.000,0.000
1641234922462503936,2022-01-03-18:35:22,10.1.1.13,134,-0.310,-0.310,-0.310,0.000,0.000,0.000
1641234922682769920,2022-01-03-18:35:22,10.1.1.13,154,-0.320,-0.320,-0.320,0.000,0.000,0.000
1641234922882180096,2022-01-03-18:35:22,10.1.1.13,152,-0.330,-0.330,-0.330,0.000,0.000,0.000
1641234923092166912,2022-01-03-18:35:23,10.1.1.13,161,-0.340,-0.340,-0.340,0.000,0.000,0.000
1641234923294631936,2022-01-03-18:35:23,10.1.1.13,156,-0.350,-0.350,-0.350,0.000,0.000,0.000
1641234923700510976,2022-01-03-18:35:23,10.1.1.13,135,-0.370,-0.370,-0.370,0.000,0.000,0.000
1641234923910150144,2022-01-03-18:35:23,10.1.1.13,143,-0.380,-0.380,-0.380,0.000,0.000,0.000
1641234924099663104,2022-01-03-18:35:24,10.1.1.13,132,-0.390,-0.390,-0.390,0.000,0.000,0.000
1641234924319832064,2022-01-03-18:35:24,10.1.1.13,141,-0.400,-0.400,-0.400,0.000,0.000,0.000
1641234924531356160,2022-01-03-18:35:24,10.1.1.13,152,-0.410,-0.410,-0.410,0.000,0.000,0.000
1641234924778925824,2022-01-03-18:35:24,10.1.1.13,170,-0.420,-0.420,-0.420,0.000,0.000,0.000
1641234924959616000,2022-01-03-18:35:24,10.1.1.13,149,-0.430,-0.430,-0.430,0.000,0.000,0.000
1641234925172908032,2022-01-03-18:35:25,10.1.1.13,161,-0.440,-0.440,-0.440,0.000,0.000,0.000
1641234925358853120,2022-01-03-18:35:25,10.1.1.13,141,-0.450,-0.450,-0.450,0.000,0.000,0.000
1641234925559552000,2022-01-03-18:35:25,10.1.1.13,140,-0.460,-0.460,-0.460,0.000,0.000,0.000
1641234925768071936,2022-01-03-18:35:25,10.1.1.13,148,-0.470,-0.470,-0.470,0.000,0.000,0.000
1641234925969067008,2022-01-03-18:35:25,10.1.1.13,147,-0.480,-0.480,-0.480,0.000,0.000,0.000
1641234926159262976,2022-01-03-18:35:26,10.1.1.13,137,-0.490,-0.490,-0.490,0.000,0.000,0.000
1641234926368933888,2022-01-03-18:35:26,10.1.1.13,146,-0.480,-0.480,-0.480,0.000,0.000,0.000
1641234926565705984,2022-01-03-18:35:26,10.1.1.13,141,-0.470,-0.470,-0.470,0.000,0.000,0.000
1641234926810422016,2022-01-03-18:35:26,10.1.1.13,155,-0.460,-0.460,-0.460,0.000,0.000,0.000
1641234927217622016,2022-01-03-18:35:27,10.1.1.13,145,-0.440,-0.440,-0.440,0.000,0.000,0.000
1641234927416306944,2022-01-03-18:35:27,10.1.1.13,143,-0.430,-0.430,-0.430,0.000,0.000,0.000
1641234927606242048,2022-01-03-18:35:27,10.1.1.13,131,-0.420,-0.420,-0.420,0.000,0.000,0.000
1641234927808697088,2022-01-03-18:35:27,10.1.1.13,133,-0.410,-0.410,-0.410,0.000,0.000,0.000
1641234928026836992,2022-01-03-18:35:28,10.1.1.13,150,-0.400,-0.400,-0.400,0.000,0.000,0.000
1641234928238595072,2022-01-03-18:35:28,10.1.1.13,161,-0.390,-0.390,-0.390,0.000,0.000,0.000
1641234928425000960,2022-01-03-18:35:28,10.1.1.13,147,-0.380,-0.380,-0.380,0.000,0.000,0.000
1641234928614319104,2022-01-03-18:35:28,10.1.1.13,134,-0.370,-0.370,-0.370,0.000,0.000,0.000
1641234928816103936,2022-01-03-18:35:28,10.1.1.13,134,-0.360,-0.360,-0.360,0.000,0.000,0.000
1641234929025271040,2022-01-03-18:35:29,10.1.1.13,141,-0.350,-0.350,-0.350,0.000,0.000,0.000
1641234929224824064,2022-01-03-18:35:29,10.1.1.13,139,-0.340,-0.340,-0.340,0.000,0.000,0.000
1641234929444040960,2022-01-03-18:35:29,10.1.1.13,151,-0.330,-0.330,-0.330,0.000,0.000,0.000
1641234929632976128,2022-01-03-18:35:29,10.1.1.13,139,-0.320,-0.320,-0.320,0.000,0.000,0.000
1641234929833031936,2022-01-03-18:35:29,10.1.1.13,139,-0.310,-0.310,-0.310,0.000,0.000,0.000
1641234930050811904,2022-01-03-18:35:30,10.1.1.13,156,-0.300,-0.300,-0.300,0.000,0.000,0.000
1641234930233075968,2022-01-03-18:35:30,10.1.1.13,136,-0.290,-0.290,-0.290,0.000,0.000,0.000
1641234930481451008,2022-01-03-18:35:30,10.1.1.13,172,-0.280,-0.280,-0.280,0.000,0.000,0.000
1641234930653558016,2022-01-03-18:35:30,10.1.1.13,142,-0.270,-0.270,-0.270,0.000,0.000,0.000
1641234930845810944,2022-01-03-18:35:30,10.1.1.13,133,-0.260,-0.260,-0.260,0.000,0.000,0.000
1641234931052481792,2022-01-03-18:35:31,10.1.1.13,137,-0.250,-0.250,-0.250,0.000,0.000,0.000
1641234931261725952,2022-01-03-18:35:31,10.1.1.13,137,-0.240,-0.240,-0.240,0.000,0.000,0.000
1641234931479000064,2022-01-03-18:35:31,10.1.1.13,153,-0.230,-0.230,-0.230,0.000,0.000,0.000
1641234931683542016,2022-01-03-18:35:31,10.1.1.13,136,-0.220,-0.220,-0.220,0.000,0.000,0.000
1641234931881249024,2022-01-03-18:35:31,10.1.1.13,133,-0.210,-0.210,-0.210,0.000,0.000,0.000
1641234932080887040,2022-01-03-18:35:32,10.1.1.13,132,-0.200,-0.200,-0.200,0.000,0.000,0.000
1641234932281199104,2022-01-03-18:35:32,10.1.1.13,131,-0.190,-0.190,-0.190,0.000,0.000,0.000
1641234932480463872,2022-01-03-18:35:32,10.1.1.13,129,-0.180,-0.180,-0.180,0.000,0.000,0.000
1641234932702581760,2022-01-03-18:35:32,10.1.1.13,150,-0.170,-0.170,-0.170,0.000,0.000,0.000
1641234932888612096,2022-01-03-18:35:32,10.1.1.13,135,-0.160,-0.160,-0.160,0.000,0.000,0.000
1641234933078789888,2022-01-03-18:35:33,10.1.1.13,124,-0.150,-0.150,-0.150,0.000,0.000,0.000
1641234933300205824,2022-01-03-18:35:33,10.1.1.13,145,-0.140,-0.140,-0.140,0.000,0.000,0.000
1641234933478377984,2022-01-03-18:35:33,10.1.1.13,123,-0.130,-0.130,-0.130,0.000,0.000,0.000
1641234933687988992,2022-01-03-18:35:33,10.1.1.13,132,-0.120,-0.120,-0.120,0.000,0.000,0.000
1641234933899636992,2022-01-03-18:35:33,10.1.1.13,142,-0.110,-0.110,-0.110,0.000,0.000,0.000
1641234934086942976,2022-01-03-18:35:34,10.1.1.13,128,-0.100,-0.100,-0.100,0.000,0.000,0.000
1641234934286680832,2022-01-03-18:35:34,10.1.1.13,127,-0.090,-0.090,-0.090,0.000,0.000,0.000
1641234934486893824,2022-01-03-18:35:34,10.1.1.13,127,-0.080,-0.080,-0.080,0.000,0.000,0.000
1641234934686145024,2022-01-03-18:35:34,10.1.1.13,124,-0.070,-0.070,-0.070,0.000,0.000,0.000
1641234934886658816,2022-01-03-18:35:34,10.1.1.13,123,-0.060,-0.060,-0.060,0.000,0.000,0.000
1641234935095889920,2022-01-03-18:35:35,10.1.1.13,130,-0.050,-0.050,-0.050,0.000,0.000,0.000
1641234935285296896,2022-01-03-18:35:35,10.1.1.13,119,-0.040,-0.040,-0.040,0.000,0.000,0.000
1641234935485660160,2022-01-03-18:35:35,10.1.1.13,119,-0.030,-0.030,-0.030,0.000,0.000,0.000
1641234935714835968,2022-01-03-18:35:35,10.1.1.13,146,-0.020,-0.020,-0.020,0.000,0.000,0.000
1641234935895129856,2022-01-03-18:35:35,10.1.1.13,120,-0.010,-0.010,-0.010,0.000,0.000,0.000
1641234936096573952,2022-01-03-18:35:36,10.1.1.13,120,0.000,0.000,0.000,0.000,0.000,0.000
1641234936304495104,2022-01-03-18:35:36,10.1.1.13,127,-0.010,-0.010,-0.010,0.000,0.000,0.000
1641234936504388096,2022-01-03-18:35:36,10.1.1.13,125,-0.020,-0.020,-0.020,0.000,0.000,0.000
1641234936713561088,2022-01-03-18:35:36,10.1.1.13,133,-0.030,-0.030,-0.030,0.000,0.000,0.000
1641234936904134144,2022-01-03-18:35:36,10.1.1.13,118,-0.040,-0.040,-0.040,0.000,0.000,0.000
1641234937113030912,2022-01-03-18:35:37,10.1.1.13,125,-0.050,-0.050,-0.050,0.000,0.000,0.000
1641234937342904064,2022-01-03-18:35:37,10.1.1.13,138,-0.060,-0.060,-0.060,0.000,0.000,0.000
1641234937573192960,2022-01-03-18:35:37,10.1.1.13,135,-0.070,-0.070,-0.070,0.000,0.000,0.000
1641234937761274112,2022-01-03-18:35:37,10.1.1.13,122,-0.080,-0.080,-0.080,0.000,0.000,0.000
1641234937977308928,2022-01-03-18:35:37,10.1.1.13,136,-0.090,-0.090,-0.090,0.000,0.000,0.000
1641234938171027968,2022-01-03-18:35:38,10.1.1.13,129,-0.100,-0.100,-0.100,0.000,0.000,0.000
1641234938448802048,2022-01-03-18:35:38,10.1.1.13,189,-0.110,-0.110,-0.110,0.000,0.000,0.000
1641234938590946048,2022-01-03-18:35:38,10.1.1.13,141,-0.120,-0.120,-0.120,0.000,0.000,0.000
1641234938780412928,2022-01-03-18:35:38,10.1.1.13,130,-0.130,-0.130,-0.130,0.000,0.000,0.000
1641234938982286848,2022-01-03-18:35:38,10.1.1.13,129,-0.140,-0.140,-0.140,0.000,0.000,0.000
1641234939181873920,2022-01-03-18:35:39,10.1.1.13,129,-0.150,-0.150,-0.150,0.000,0.000,0.000
1641234939369488128,2022-01-03-18:35:39,10.1.1.13,115,-0.160,-0.160,-0.160,0.000,0.000,0.000
1641234939588384000,2022-01-03-18:35:39,10.1.1.13,131,-0.170,-0.170,-0.170,0.000,0.000,0.000
1641234939778564096,2022-01-03-18:35:39,10.1.1.13,121,-0.180,-0.180,-0.180,0.000,0.000,0.000
1641234939988058112,2022-01-03-18:35:39,10.1.1.13,129,-0.190,-0.190,-0.190,0.000,0.000,0.000
1641234940194240000,2022-01-03-18:35:40,10.1.1.13,134,-0.200,-0.200,-0.200,0.000,0.000,0.000
1641234940397531136,2022-01-03-18:35:40,10.1.1.13,118,-0.210,-0.210,-0.210,0.000,0.000,0.000
1641234940597917952,2022-01-03-18:35:40,10.1.1.13,117,-0.220,-0.220,-0.220,0.000,0.000,0.000
1641234940807023104,2022-01-03-18:35:40,10.1.1.13,125,-0.230,-0.230,-0.230,0.000,0.000,0.000
1641234940996646912,2022-01-03-18:35:40,10.1.1.13,114,-0.240,-0.240,-0.240,0.000,0.000,0.000
1641234941205233152,2022-01-03-18:35:41,10.1.1.13,121,-0.250,-0.250,-0.250,0.000,0.000,0.000
1641234941428329984,2022-01-03-18:35:41,10.1.1.13,140,-0.260,-0.260,-0.260,0.000,0.000,0.000
1641234941616045824,2022-01-03-18:35:41,10.1.1.13,126,-0.270,-0.270,-0.270,0.000,0.000,0.000
1641234941816930048,2022-01-03-18:35:41,10.1.1.13,118,-0.280,-0.280,-0.280,0.000,0.000,0.000
1641234942015405824,2022-01-03-18:35:42,10.1.1.13,116,-0.290,-0.290,-0.290,0.000,0.000,0.000
1641234942214674944,2022-01-03-18:35:42,10.1.1.13,113,-0.300,-0.300,-0.300,0.000,0.000,0.000
1641234942469882112,2022-01-03-18:35:42,10.1.1.13,168,-0.310,-0.310,-0.310,0.000,0.000,0.000
1641234942631033856,2022-01-03-18:35:42,10.1.1.13,127,-0.320,-0.320,-0.320,0.000,0.000,0.000
1641234942917928960,2022-01-03-18:35:42,10.1.1.13,138,-0.330,-0.330,-0.330,0.000,0.000,0.000
1641234943043469056,2022-01-03-18:35:43,10.1.1.13,108,-0.340,-0.340,-0.340,0.000,0.000,0.000
1641234943243046912,2022-01-03-18:35:43,10.1.1.13,107,-0.350,-0.350,-0.350,0.000,0.000,0.000
1641234943462757120,2022-01-03-18:35:43,10.1.1.13,127,-0.360,-0.360,-0.360,0.000,0.000,0.000
1641234943642235904,2022-01-03-18:35:43,10.1.1.13,105,-0.370,-0.370,-0.370,0.000,0.000,0.000
1641234943861763840,2022-01-03-18:35:43,10.1.1.13,124,-0.380,-0.380,-0.380,0.000,0.000,0.000
1641234944062910976,2022-01-03-18:35:44,10.1.1.13,123,-0.390,-0.390,-0.390,0.000,0.000,0.000
1641234944261974016,2022-01-03-18:35:44,10.1.1.13,112,-0.400,-0.400,-0.400,0.000,0.000,0.000
1641234944481692928,2022-01-03-18:35:44,10.1.1.13,131,-0.410,-0.410,-0.410,0.000,0.000,0.000
1641234944670547968,2022-01-03-18:35:44,10.1.1.13,119,-0.420,-0.420,-0.420,0.000,0.000,0.000
1641234944885320960,2022-01-03-18:35:44,10.1.1.13,133,-0.430,-0.430,-0.430,0.000,0.000,0.000
1641234945070752000,2022-01-03-18:35:45,10.1.1.13,118,-0.440,-0.440,-0.440,0.000,0.000,0.000
1641234945278737152,2022-01-03-18:35:45,10.1.1.13,123,-0.450,-0.450,-0.450,0.000,0.000,0.000
1641234945482615040,2022-01-03-18:35:45,10.1.1.13,113,-0.460,-0.460,-0.460,0.000,0.000,0.000
1641234945701481216,2022-01-03-18:35:45,10.1.1.13,132,-0.470,-0.470,-0.470,0.000,0.000,0.000
1641234945909982976,2022-01-03-18:35:45,10.1.1.13,140,-0.480,-0.480,-0.480,0.000,0.000,0.000
1641234946093293824,2022-01-03-18:35:46,10.1.1.13,119,-0.490,-0.490,-0.490,0.000,0.000,0.000
1641234946298793984,2022-01-03-18:35:46,10.1.1.13,127,-0.480,-0.480,-0.480,0.000,0.000,0.000
1641234946514294016,2022-01-03-18:35:46,10.1.1.13,141,-0.470,-0.470,-0.470,0.000,0.000,0.000
1641234946705612800,2022-01-03-18:35:46,10.1.1.13,122,-0.460,-0.460,-0.460,0.000,0.000,0.000
1641234946898382848,2022-01-03-18:35:46,10.1.1.13,112,-0.450,-0.450,-0.450,0.000,0.000,0.000
1641234947094216960,2022-01-03-18:35:47,10.1.1.13,107,-0.440,-0.440,-0.440,0.000,0.000,0.000
1641234947329694976,2022-01-03-18:35:47,10.1.1.13,130,-0.430,-0.430,-0.430,0.000,0.000,0.000
1641234947516262912,2022-01-03-18:35:47,10.1.1.13,102,-0.420,-0.420,-0.420,0.000,0.000,0.000
1641234947813554176,2022-01-03-18:35:47,10.1.1.13,198,-0.410,-0.410,-0.410,0.000,0.000,0.000
1641234947941803008,2022-01-03-18:35:47,10.1.1.13,125,-0.400,-0.400,-0.400,0.000,0.000,0.000
1641234948126652928,2022-01-03-18:35:48,10.1.1.13,108,-0.390,-0.390,-0.390,0.000,0.000,0.000
1641234948328339968,2022-01-03-18:35:48,10.1.1.13,109,-0.380,-0.380,-0.380,0.000,0.000,0.000
1641234948558543872,2022-01-03-18:35:48,10.1.1.13,124,-0.370,-0.370,-0.370,0.000,0.000,0.000
1641234948759416064,2022-01-03-18:35:48,10.1.1.13,112,-0.360,-0.360,-0.360,0.000,0.000,0.000
1641234948990859008,2022-01-03-18:35:48,10.1.1.13,112,-0.350,-0.350,-0.350,0.000,0.000,0.000
1641234949211388160,2022-01-03-18:35:49,10.1.1.13,112,-0.340,-0.340,-0.340,0.000,0.000,0.000
1641234949416263168,2022-01-03-18:35:49,10.1.1.13,115,-0.330,-0.330,-0.330,0.000,0.000,0.000
1641234949628156928,2022-01-03-18:35:49,10.1.1.13,122,-0.320,-0.320,-0.320,0.000,0.000,0.000
1641234949845839104,2022-01-03-18:35:49,10.1.1.13,122,-0.310,-0.310,-0.310,0.000,0.000,0.000
1641234950101607936,2022-01-03-18:35:50,10.1.1.13,155,-0.300,-0.300,-0.300,0.000,0.000,0.000
1641234950257154048,2022-01-03-18:35:50,10.1.1.13,120,-0.290,-0.290,-0.290,0.000,0.000,0.000
1641234950469456896,2022-01-03-18:35:50,10.1.1.13,132,-0.280,-0.280,-0.280,0.000,0.000,0.000
1641234950658989056,2022-01-03-18:35:50,10.1.1.13,120,-0.270,-0.270,-0.270,0.000,0.000,0.000
1641234950859304960,2022-01-03-18:35:50,10.1.1.13,120,-0.260,-0.260,-0.260,0.000,0.000,0.000
1641234951065190912,2022-01-03-18:35:51,10.1.1.13,125,-0.250,-0.250,-0.250,0.000,0.000,0.000
1641234951273579008,2022-01-03-18:35:51,10.1.1.13,133,-0.240,-0.240,-0.240,0.000,0.000,0.000
1641234951473335040,2022-01-03-18:35:51,10.1.1.13,132,-0.230,-0.230,-0.230,0.000,0.000,0.000
1641234951662884864,2022-01-03-18:35:51,10.1.1.13,119,-0.220,-0.220,-0.220,0.000,0.000,0.000
1641234951894468096,2022-01-03-18:35:51,10.1.1.13,139,-0.210,-0.210,-0.210,0.000,0.000,0.000
1641234952077812992,2022-01-03-18:35:52,10.1.1.13,122,-0.200,-0.200,-0.200,0.000,0.000,0.000
1641234952317150976,2022-01-03-18:35:52,10.1.1.13,157,-0.190,-0.190,-0.190,0.000,0.000,0.000
1641234952486784000,2022-01-03-18:35:52,10.1.1.13,124,-0.180,-0.180,-0.180,0.000,0.000,0.000
1641234952697906944,2022-01-03-18:35:52,10.1.1.13,134,-0.170,-0.170,-0.170,0.000,0.000,0.000
1641234952907553024,2022-01-03-18:35:52,10.1.1.13,139,-0.160,-0.160,-0.160,0.000,0.000,0.000
1641234953098248960,2022-01-03-18:35:53,10.1.1.13,128,-0.150,-0.150,-0.150,0.000,0.000,0.000
1641234953309256192,2022-01-03-18:35:53,10.1.1.13,139,-0.140,-0.140,-0.140,0.000,0.000,0.000
1641234953520705024,2022-01-03-18:35:53,10.1.1.13,149,-0.130,-0.130,-0.130,0.000,0.000,0.000
1641234953719857920,2022-01-03-18:35:53,10.1.1.13,145,-0.120,-0.120,-0.120,0.000,0.000,0.000
1641234953901634048,2022-01-03-18:35:53,10.1.1.13,126,-0.110,-0.110,-0.110,0.000,0.000,0.000
1641234954113313792,2022-01-03-18:35:54,10.1.1.13,136,-0.100,-0.100,-0.100,0.000,0.000,0.000
1641234954322822144,2022-01-03-18:35:54,10.1.1.13,143,-0.090,-0.090,-0.090,0.000,0.000,0.000
1641234954513271040,2022-01-03-18:35:54,10.1.1.13,133,-0.080,-0.080,-0.080,0.000,0.000,0.000
1641234954713443072,2022-01-03-18:35:54,10.1.1.13,131,-0.070,-0.070,-0.070,0.000,0.000,0.000
1641234954914903040,2022-01-03-18:35:54,10.1.1.13,128,-0.060,-0.060,-0.060,0.000,0.000,0.000
1641234955146022144,2022-01-03-18:35:55,10.1.1.13,158,-0.050,-0.050,-0.050,0.000,0.000,0.000
1641234955345339904,2022-01-03-18:35:55,10.1.1.13,152,-0.040,-0.040,-0.040,0.000,0.000,0.000
1641234955525907968,2022-01-03-18:35:55,10.1.1.13,131,-0.030,-0.030,-0.030,0.000,0.000,0.000
1641234955806844928,2022-01-03-18:35:55,10.1.1.13,210,-0.020,-0.020,-0.020,0.000,0.000,0.000
1641234955958492928,2022-01-03-18:35:55,10.1.1.13,145,-0.010,-0.010,-0.010,0.000,0.000,0.000
1641234956159740928,2022-01-03-18:35:56,10.1.1.13,145,0.000,0.000,0.000,0.000,0.000,0.000
1641234956399254016,2022-01-03-18:35:56,10.1.1.13,171,-0.010,-0.010,-0.010,0.000,0.000,0.000
1641234956559964928,2022-01-03-18:35:56,10.1.1.13,140,-0.020,-0.020,-0.020,0.000,0.000,0.000
1641234956769958144,2022-01-03-18:35:56,10.1.1.13,148,-0.030,-0.030,-0.030,0.000,0.000,0.000
1641234956970995968,2022-01-03-18:35:56,10.1.1.13,148,-0.040,-0.040,-0.040,0.000,0.000,0.000
1641234957169811968,2022-01-03-18:35:57,10.1.1.13,146,-0.050,-0.050,-0.050,0.000,0.000,0.000
1641234957370408960,2022-01-03-18:35:57,10.1.1.13,145,-0.060,-0.060,-0.060,0.000,0.000,0.000
1641234957574932224,2022-01-03-18:35:57,10.1.1.13,149,-0.070,-0.070,-0.070,0.000,0.000,0.000
1641234957762268160,2022-01-03-18:35:57,10.1.1.13,135,-0.080,-0.080,-0.080,0.000,0.000,0.000
1641234958206872832,2022-01-03-18:35:58,10.1.1.13,150,-0.100,-0.100,-0.100,0.000,0.000,0.000
1641234958403453952,2022-01-03-18:35:58,10.1.1.13,146,-0.110,-0.110,-0.110,0.000,0.000,0.000
1641234958617485056,2022-01-03-18:35:58,10.1.1.13,159,-0.120,-0.120,-0.120,0.000,0.000,0.000
1641234958817073152,2022-01-03-18:35:58,10.1.1.13,156,-0.130,-0.130,-0.130,0.000,0.000,0.000
1641234959014458880,2022-01-03-18:35:59,10.1.1.13,152,-0.140,-0.140,-0.140,0.000,0.000,0.000
1641234959216352000,2022-01-03-18:35:59,10.1.1.13,153,-0.150,-0.150,-0.150,0.000,0.000,0.000
1641234959414877952,2022-01-03-18:35:59,10.1.1.13,151,-0.160,-0.160,-0.160,0.000,0.000,0.000
1641234959615463936,2022-01-03-18:35:59,10.1.1.13,151,-0.170,-0.170,-0.170,0.000,0.000,0.000
1641234959815248896,2022-01-03-18:35:59,10.1.1.13,150,-0.180,-0.180,-0.180,0.000,0.000,0.000
1641234960015628032,2022-01-03-18:36:00,10.1.1.13,150,-0.190,-0.190,-0.190,0.000,0.000,0.000
1641234960263931904,2022-01-03-18:36:00,10.1.1.13,198,-0.200,-0.200,-0.200,0.000,0.000,0.000
1641234960416548096,2022-01-03-18:36:00,10.1.1.13,140,-0.210,-0.210,-0.210,0.000,0.000,0.000
1641234960616898048,2022-01-03-18:36:00,10.1.1.13,139,-0.220,-0.220,-0.220,0.000,0.000,0.000
1641234960827065856,2022-01-03-18:36:00,10.1.1.13,149,-0.230,-0.230,-0.230,0.000,0.000,0.000
1641234961037048064,2022-01-03-18:36:01,10.1.1.13,157,-0.240,-0.240,-0.240,0.000,0.000,0.000
1641234961228351232,2022-01-03-18:36:01,10.1.1.13,144,-0.250,-0.250,-0.250,0.000,0.000,0.000
1641234961438690816,2022-01-03-18:36:01,10.1.1.13,154,-0.260,-0.260,-0.260,0.000,0.000,0.000
1641234961638270976,2022-01-03-18:36:01,10.1.1.13,153,-0.270,-0.270,-0.270,0.000,0.000,0.000
1641234961838077184,2022-01-03-18:36:01,10.1.1.13,152,-0.280,-0.280,-0.280,0.000,0.000,0.000
1641234962038994176,2022-01-03-18:36:02,10.1.1.13,152,-0.290,-0.290,-0.290,0.000,0.000,0.000
1641234962239685888,2022-01-03-18:36:02,10.1.1.13,152,-0.300,-0.300,-0.300,0.000,0.000,0.000
1641234962440489984,2022-01-03-18:36:02,10.1.1.13,153,-0.310,-0.310,-0.310,0.000,0.000,0.000
1641234962651138048,2022-01-03-18:36:02,10.1.1.13,160,-0.320,-0.320,-0.320,0.000,0.000,0.000
1641234962850131968,2022-01-03-18:36:02,10.1.1.13,158,-0.330,-0.330,-0.330,0.000,0.000,0.000
1641234963060658944,2022-01-03-18:36:03,10.1.1.13,167,-0.340,-0.340,-0.340,0.000,0.000,0.000
1641234963260392960,2022-01-03-18:36:03,10.1.1.13,167,-0.350,-0.350,-0.350,0.000,0.000,0.000
1641234963440176128,2022-01-03-18:36:03,10.1.1.13,145,-0.360,-0.360,-0.360,0.000,0.000,0.000
1641234963687553792,2022-01-03-18:36:03,10.1.1.13,192,-0.370,-0.370,-0.370,0.000,0.000,0.000
1641234963854417920,2022-01-03-18:36:03,10.1.1.13,156,-0.380,-0.380,-0.380,0.000,0.000,0.000
1641234964051374848,2022-01-03-18:36:04,10.1.1.13,152,-0.390,-0.390,-0.390,0.000,0.000,0.000
1641234964256642048,2022-01-03-18:36:04,10.1.1.13,156,-0.400,-0.400,-0.400,0.000,0.000,0.000
1641234964462994176,2022-01-03-18:36:04,10.1.1.13,161,-0.410,-0.410,-0.410,0.000,0.000,0.000
1641234964651973888,2022-01-03-18:36:04,10.1.1.13,150,-0.420,-0.420,-0.420,0.000,0.000,0.000
1641234965092211968,2022-01-03-18:36:05,10.1.1.13,160,-0.440,-0.440,-0.440,0.000,0.000,0.000
1641234965291992064,2022-01-03-18:36:05,10.1.1.13,159,-0.450,-0.450,-0.450,0.000,0.000,0.000
1641234965491692032,2022-01-03-18:36:05,10.1.1.13,158,-0.460,-0.460,-0.460,0.000,0.000,0.000
1641234965704731904,2022-01-03-18:36:05,10.1.1.13,165,-0.470,-0.470,-0.470,0.000,0.000,0.000
1641234965892851968,2022-01-03-18:36:05,10.1.1.13,157,-0.480,-0.480,-0.480,0.000,0.000,0.000
1641234966083985920,2022-01-03-18:36:06,10.1.1.13,147,-0.490,-0.490,-0.490,0.000,0.000,0.000
1641234966292453888,2022-01-03-18:36:06,10.1.1.13,152,-0.480,-0.480,-0.480,0.000,0.000,0.000
1641234966501844992,2022-01-03-18:36:06,10.1.1.13,161,-0.470,-0.470,-0.470,0.000,0.000,0.000
1641234966692217088,2022-01-03-18:36:06,10.1.1.13,151,-0.460,-0.460,-0.460,0.000,0.000,0.000
1641234966892948992,2022-01-03-18:36:06,10.1.1.13,151,-0.450,-0.450,-0.450,0.000,0.000,0.000
1641234967093060096,2022-01-03-18:36:07,10.1.1.13,151,-0.440,-0.440,-0.440,0.000,0.000,0.000
1641234967332809984,2022-01-03-18:36:07,10.1.1.13,155,-0.430,-0.430,-0.430,0.000,0.000,0.000
1641234967542926080,2022-01-03-18:36:07,10.1.1.13,162,-0.420,-0.420,-0.420,0.000,0.000,0.000
1641234967753895936,2022-01-03-18:36:07,10.1.1.13,171,-0.410,-0.410,-0.410,0.000,0.000,0.000
1641234967943352832,2022-01-03-18:36:07,10.1.1.13,159,-0.400,-0.400,-0.400,0.000,0.000,0.000
1641234968154560000,2022-01-03-18:36:08,10.1.1.13,156,-0.390,-0.390,-0.390,0.000,0.000,0.000
1641234968353192192,2022-01-03-18:36:08,10.1.1.13,154,-0.380,-0.380,-0.380,0.000,0.000,0.000
1641234968553991168,2022-01-03-18:36:08,10.1.1.13,155,-0.370,-0.370,-0.370,0.000,0.000,0.000
1641234968764262912,2022-01-03-18:36:08,10.1.1.13,164,-0.360,-0.360,-0.360,0.000,0.000,0.000
1641234968965042176,2022-01-03-18:36:08,10.1.1.13,164,-0.350,-0.350,-0.350,0.000,0.000,0.000
1641234969169946880,2022-01-03-18:36:09,10.1.1.13,166,-0.340,-0.340,-0.340,0.000,0.000,0.000
1641234969484908032,2022-01-03-18:36:09,10.1.1.13,208,-0.330,-0.330,-0.330,0.000,0.000,0.000
1641234969653688832,2022-01-03-18:36:09,10.1.1.13,155,-0.320,-0.320,-0.320,0.000,0.000,0.000
1641234969862706944,2022-01-03-18:36:09,10.1.1.13,163,-0.310,-0.310,-0.310,0.000,0.000,0.000
1641234970052933888,2022-01-03-18:36:10,10.1.1.13,153,-0.300,-0.300,-0.300,0.000,0.000,0.000
1641234970257536000,2022-01-03-18:36:10,10.1.1.13,156,-0.290,-0.290,-0.290,0.000,0.000,0.000
1641234970454662144,2022-01-03-18:36:10,10.1.1.13,152,-0.280,-0.280,-0.280,0.000,0.000,0.000
1641234970652852992,2022-01-03-18:36:10,10.1.1.13,146,-0.270,-0.270,-0.270,0.000,0.000,0.000
1641234970903270912,2022-01-03-18:36:10,10.1.1.13,168,-0.260,-0.260,-0.260,0.000,0.000,0.000
1641234971093636096,2022-01-03-18:36:11,10.1.1.13,158,-0.250,-0.250,-0.250,0.000,0.000,0.000
1641234971293196032,2022-01-03-18:36:11,10.1.1.13,157,-0.240,-0.240,-0.240,0.000,0.000,0.000
1641234971482994944,2022-01-03-18:36:11,10.1.1.13,146,-0.230,-0.230,-0.230,0.000,0.000,0.000
1641234971696739072,2022-01-03-18:36:11,10.1.1.13,158,-0.220,-0.220,-0.220,0.000,0.000,0.000
1641234971902887936,2022-01-03-18:36:11,10.1.1.13,162,-0.210,-0.210,-0.210,0.000,0.000,0.000
1641234972103751936,2022-01-03-18:36:12,10.1.1.13,162,-0.200,-0.200,-0.200,0.000,0.000,0.000
1641234972303134976,2022-01-03-18:36:12,10.1.1.13,161,-0.190,-0.190,-0.190,0.000,0.000,0.000
1641234972499902976,2022-01-03-18:36:12,10.1.1.13,153,-0.180,-0.180,-0.180,0.000,0.000,0.000
1641234972715256064,2022-01-03-18:36:12,10.1.1.13,163,-0.170,-0.170,-0.170,0.000,0.000,0.000
1641234972903162880,2022-01-03-18:36:12,10.1.1.13,150,-0.160,-0.160,-0.160,0.000,0.000,0.000
1641234973123469056,2022-01-03-18:36:13,10.1.1.13,162,-0.150,-0.150,-0.150,0.000,0.000,0.000
1641234973323820032,2022-01-03-18:36:13,10.1.1.13,161,-0.140,-0.140,-0.140,0.000,0.000,0.000
1641234973524879872,2022-01-03-18:36:13,10.1.1.13,158,-0.130,-0.130,-0.130,0.000,0.000,0.000
1641234973724355072,2022-01-03-18:36:13,10.1.1.13,152,-0.120,-0.120,-0.120,0.000,0.000,0.000
1641234973939387136,2022-01-03-18:36:13,10.1.1.13,167,-0.110,-0.110,-0.110,0.000,0.000,0.000
1641234974133093120,2022-01-03-18:36:14,10.1.1.13,154,-0.100,-0.100,-0.100,0.000,0.000,0.000
1641234974332230144,2022-01-03-18:36:14,10.1.1.13,146,-0.090,-0.090,-0.090,0.000,0.000,0.000
1641234974542362880,2022-01-03-18:36:14,10.1.1.13,151,-0.080,-0.080,-0.080,0.000,0.000,0.000
1641234974770773760,2022-01-03-18:36:14,10.1.1.13,178,-0.070,-0.070,-0.070,0.000,0.000,0.000
1641234974951961088,2022-01-03-18:36:14,10.1.1.13,159,-0.060,-0.060,-0.060,0.000,0.000,0.000
1641234975163538944,2022-01-03-18:36:15,10.1.1.13,170,-0.050,-0.050,-0.050,0.000,0.000,0.000
1641234975352175104,2022-01-03-18:36:15,10.1.1.13,153,-0.040,-0.040,-0.040,0.000,0.000,0.000
1641234975553293056,2022-01-03-18:36:15,10.1.1.13,152,-0.030,-0.030,-0.030,0.000,0.000,0.000
1641234975752395008,2022-01-03-18:36:15,10.1.1.13,150,-0.020,-0.020,-0.020,0.000,0.000,0.000
1641234975952712960,2022-01-03-18:36:15,10.1.1.13,149,-0.010,-0.010,-0.010,0.000,0.000,0.000
1641234976202545920,2022-01-03-18:36:16,10.1.1.13,197,0.000,0.000,0.000,0.000,0.000,0.000
1641234976381683200,2022-01-03-18:36:16,10.1.1.13,168,-0.010,-0.010,-0.010,0.000,0.000,0.000
1641234976561611776,2022-01-03-18:36:16,10.1.1.13,146,-0.020,-0.020,-0.020,0.000,0.000,0.000
1641234976778330112,2022-01-03-18:36:16,10.1.1.13,162,-0.030,-0.030,-0.030,0.000,0.000,0.000
1641234976970731008,2022-01-03-18:36:16,10.1.1.13,148,-0.040,-0.040,-0.040,0.000,0.000,0.000
1641234977181992960,2022-01-03-18:36:17,10.1.1.13,154,-0.050,-0.050,-0.050,0.000,0.000,0.000
1641234977403134208,2022-01-03-18:36:17,10.1.1.13,174,-0.060,-0.060,-0.060,0.000,0.000,0.000
1641234977591072000,2022-01-03-18:36:17,10.1.1.13,161,-0.070,-0.070,-0.070,0.000,0.000,0.000
1641234977790929152,2022-01-03-18:36:17,10.1.1.13,158,-0.080,-0.080,-0.080,0.000,0.000,0.000
1641234977991396864,2022-01-03-18:36:17,10.1.1.13,156,-0.090,-0.090,-0.090,0.000,0.000,0.000
1641234978181035008,2022-01-03-18:36:18,10.1.1.13,144,-0.100,-0.100,-0.100,0.000,0.000,0.000
1641234978394515968,2022-01-03-18:36:18,10.1.1.13,157,-0.110,-0.110,-0.110,0.000,0.000,0.000
1641234978601030144,2022-01-03-18:36:18,10.1.1.13,159,-0.120,-0.120,-0.120,0.000,0.000,0.000
1641234978791023104,2022-01-03-18:36:18,10.1.1.13,148,-0.130,-0.130,-0.130,0.000,0.000,0.000
1641234978992478976,2022-01-03-18:36:18,10.1.1.13,147,-0.140,-0.140,-0.140,0.000,0.000,0.000
1641234979221824000,2022-01-03-18:36:19,10.1.1.13,172,-0.150,-0.150,-0.150,0.000,0.000,0.000
1641234979409857024,2022-01-03-18:36:19,10.1.1.13,158,-0.160,-0.160,-0.160,0.000,0.000,0.000
1641234979642117888,2022-01-03-18:36:19,10.1.1.13,189,-0.170,-0.170,-0.170,0.000,0.000,0.000
1641234979819837952,2022-01-03-18:36:19,10.1.1.13,150,-0.180,-0.180,-0.180,0.000,0.000,0.000
1641234980029349120,2022-01-03-18:36:20,10.1.1.13,159,-0.190,-0.190,-0.190,0.000,0.000,0.000
1641234980219283968,2022-01-03-18:36:20,10.1.1.13,149,-0.200,-0.200,-0.200,0.000,0.000,0.000
1641234980428688128,2022-01-03-18:36:20,10.1.1.13,157,-0.210,-0.210,-0.210,0.000,0.000,0.000
1641234980645056000,2022-01-03-18:36:20,10.1.1.13,165,-0.220,-0.220,-0.220,0.000,0.000,0.000
1641234980838781952,2022-01-03-18:36:20,10.1.1.13,158,-0.230,-0.230,-0.230,0.000,0.000,0.000
1641234981039737088,2022-01-03-18:36:21,10.1.1.13,153,-0.240,-0.240,-0.240,0.000,0.000,0.000
1641234981238182912,2022-01-03-18:36:21,10.1.1.13,150,-0.250,-0.250,-0.250,0.000,0.000,0.000
1641234981482287872,2022-01-03-18:36:21,10.1.1.13,193,-0.260,-0.260,-0.260,0.000,0.000,0.000
1641234981681172992,2022-01-03-18:36:21,10.1.1.13,166,-0.270,-0.270,-0.270,0.000,0.000,0.000
1641234981869227008,2022-01-03-18:36:21,10.1.1.13,153,-0.280,-0.280,-0.280,0.000,0.000,0.000
1641234982078629120,2022-01-03-18:36:22,10.1.1.13,162,-0.290,-0.290,-0.290,0.000,0.000,0.000
1641234982257878016,2022-01-03-18:36:22,10.1.1.13,140,-0.300,-0.300,-0.300,0.000,0.000,0.000
1641234982468148992,2022-01-03-18:36:22,10.1.1.13,149,-0.310,-0.310,-0.310,0.000,0.000,0.000
1641234982672303872,2022-01-03-18:36:22,10.1.1.13,153,-0.320,-0.320,-0.320,0.000,0.000,0.000
1641234982866899968,2022-01-03-18:36:22,10.1.1.13,147,-0.330,-0.330,-0.330,0.000,0.000,0.000
1641234983082130944,2022-01-03-18:36:23,10.1.1.13,161,-0.340,-0.340,-0.340,0.000,0.000,0.000
1641234983277901824,2022-01-03-18:36:23,10.1.1.13,156,-0.350,-0.350,-0.350,0.000,0.000,0.000
1641234983477289984,2022-01-03-18:36:23,10.1.1.13,155,-0.360,-0.360,-0.360,0.000,0.000,0.000
1641234983679228160,2022-01-03-18:36:23,10.1.1.13,156,-0.370,-0.370,-0.370,0.000,0.000,0.000
1641234983886082048,2022-01-03-18:36:23,10.1.1.13,154,-0.380,-0.380,-0.380,0.000,0.000,0.000
1641234984284719872,2022-01-03-18:36:24,10.1.1.13,143,-0.400,-0.400,-0.400,0.000,0.000,0.000
1641234984495559936,2022-01-03-18:36:24,10.1.1.13,151,-0.410,-0.410,-0.410,0.000,0.000,0.000
1641234984685157888,2022-01-03-18:36:24,10.1.1.13,140,-0.420,-0.420,-0.420,0.000,0.000,0.000
1641234984892059136,2022-01-03-18:36:24,10.1.1.13,147,-0.430,-0.430,-0.430,0.000,0.000,0.000
1641234985095040000,2022-01-03-18:36:25,10.1.1.13,149,-0.440,-0.440,-0.440,0.000,0.000,0.000
1641234985324203008,2022-01-03-18:36:25,10.1.1.13,153,-0.450,-0.450,-0.450,0.000,0.000,0.000
1641234985515113216,2022-01-03-18:36:25,10.1.1.13,143,-0.460,-0.460,-0.460,0.000,0.000,0.000
1641234985714319104,2022-01-03-18:36:25,10.1.1.13,141,-0.470,-0.470,-0.470,0.000,0.000,0.000
1641234985914254848,2022-01-03-18:36:25,10.1.1.13,140,-0.480,-0.480,-0.480,0.000,0.000,0.000
1641234986139239168,2022-01-03-18:36:26,10.1.1.13,160,-0.490,-0.490,-0.490,0.000,0.000,0.000
1641234986533323008,2022-01-03-18:36:26,10.1.1.13,146,-0.470,-0.470,-0.470,0.000,0.000,0.000
1641234986742504960,2022-01-03-18:36:26,10.1.1.13,140,-0.460,-0.460,-0.460,0.000,0.000,0.000
1641234986942054144,2022-01-03-18:36:26,10.1.1.13,139,-0.450,-0.450,-0.450,0.000,0.000,0.000
1641234987141583872,2022-01-03-18:36:27,10.1.1.13,138,-0.440,-0.440,-0.440,0.000,0.000,0.000
1641234987342502144,2022-01-03-18:36:27,10.1.1.13,138,-0.430,-0.430,-0.430,0.000,0.000,0.000
1641234987597338880,2022-01-03-18:36:27,10.1.1.13,188,-0.420,-0.420,-0.420,0.000,0.000,0.000
1641234987753103872,2022-01-03-18:36:27,10.1.1.13,142,-0.410,-0.410,-0.410,0.000,0.000,0.000
1641234987962022912,2022-01-03-18:36:27,10.1.1.13,151,-0.400,-0.400,-0.400,0.000,0.000,0.000
1641234988167496960,2022-01-03-18:36:28,10.1.1.13,156,-0.390,-0.390,-0.390,0.000,0.000,0.000
1641234988350572032,2022-01-03-18:36:28,10.1.1.13,133,-0.380,-0.380,-0.380,0.000,0.000,0.000
1641234988560955904,2022-01-03-18:36:28,10.1.1.13,141,-0.370,-0.370,-0.370,0.000,0.000,0.000
1641234988800816128,2022-01-03-18:36:28,10.1.1.13,172,-0.360,-0.360,-0.360,0.000,0.000,0.000
1641234989054942976,2022-01-03-18:36:29,10.1.1.13,149,-0.350,-0.350,-0.350,0.000,0.000,0.000
1641234989240722944,2022-01-03-18:36:29,10.1.1.13,135,-0.340,-0.340,-0.340,0.000,0.000,0.000
1641234989440925952,2022-01-03-18:36:29,10.1.1.13,134,-0.330,-0.330,-0.330,0.000,0.000,0.000
1641234989658149888,2022-01-03-18:36:29,10.1.1.13,150,-0.320,-0.320,-0.320,0.000,0.000,0.000
1641234989854102016,2022-01-03-18:36:29,10.1.1.13,145,-0.310,-0.310,-0.310,0.000,0.000,0.000
1641234990070770944,2022-01-03-18:36:30,10.1.1.13,160,-0.300,-0.300,-0.300,0.000,0.000,0.000
1641234990268521984,2022-01-03-18:36:30,10.1.1.13,154,-0.290,-0.290,-0.290,0.000,0.000,0.000
1641234990460252160,2022-01-03-18:36:30,10.1.1.13,144,-0.280,-0.280,-0.280,0.000,0.000,0.000
1641234990658020096,2022-01-03-18:36:30,10.1.1.13,140,-0.270,-0.270,-0.270,0.000,0.000,0.000
1641234990858903040,2022-01-03-18:36:30,10.1.1.13,140,-0.260,-0.260,-0.260,0.000,0.000,0.000
1641234991057789952,2022-01-03-18:36:31,10.1.1.13,137,-0.250,-0.250,-0.250,0.000,0.000,0.000
1641234991267415040,2022-01-03-18:36:31,10.1.1.13,133,-0.240,-0.240,-0.240,0.000,0.000,0.000
1641234991467225088,2022-01-03-18:36:31,10.1.1.13,132,-0.230,-0.230,-0.230,0.000,0.000,0.000
1641234991667449856,2022-01-03-18:36:31,10.1.1.13,131,-0.220,-0.220,-0.220,0.000,0.000,0.000
1641234991886498048,2022-01-03-18:36:31,10.1.1.13,150,-0.210,-0.210,-0.210,0.000,0.000,0.000
1641234992085697792,2022-01-03-18:36:32,10.1.1.13,149,-0.200,-0.200,-0.200,0.000,0.000,0.000
1641234992286060032,2022-01-03-18:36:32,10.1.1.13,149,-0.190,-0.190,-0.190,0.000,0.000,0.000
1641234992475723008,2022-01-03-18:36:32,10.1.1.13,134,-0.180,-0.180,-0.180,0.000,0.000,0.000
1641234992694416896,2022-01-03-18:36:32,10.1.1.13,152,-0.170,-0.170,-0.170,0.000,0.000,0.000
1641234992945005824,2022-01-03-18:36:32,10.1.1.13,148,-0.160,-0.160,-0.160,0.000,0.000,0.000
1641234993153618176,2022-01-03-18:36:33,10.1.1.13,152,-0.150,-0.150,-0.150,0.000,0.000,0.000
1641234993362392832,2022-01-03-18:36:33,10.1.1.13,139,-0.140,-0.140,-0.140,0.000,0.000,0.000
1641234993584104960,2022-01-03-18:36:33,10.1.1.13,153,-0.130,-0.130,-0.130,0.000,0.000,0.000
1641234993774523136,2022-01-03-18:36:33,10.1.1.13,143,-0.120,-0.120,-0.120,0.000,0.000,0.000
1641234993965223936,2022-01-03-18:36:33,10.1.1.13,132,-0.110,-0.110,-0.110,0.000,0.000,0.000
1641234994163217152,2022-01-03-18:36:34,10.1.1.13,130,-0.100,-0.100,-0.100,0.000,0.000,0.000
1641234994383570944,2022-01-03-18:36:34,10.1.1.13,149,-0.090,-0.090,-0.090,0.000,0.000,0.000
1641234994572741888,2022-01-03-18:36:34,10.1.1.13,137,-0.080,-0.080,-0.080,0.000,0.000,0.000
1641234994784495104,2022-01-03-18:36:34,10.1.1.13,148,-0.070,-0.070,-0.070,0.000,0.000,0.000
1641234994973430016,2022-01-03-18:36:34,10.1.1.13,134,-0.060,-0.060,-0.060,0.000,0.000,0.000
1641234995184390144,2022-01-03-18:36:35,10.1.1.13,139,-0.050,-0.050,-0.050,0.000,0.000,0.000
1641234995382864896,2022-01-03-18:36:35,10.1.1.13,135,-0.040,-0.040,-0.040,0.000,0.000,0.000
1641234995622987008,2022-01-03-18:36:35,10.1.1.13,132,-0.030,-0.030,-0.030,0.000,0.000,0.000
1641234995860882944,2022-01-03-18:36:35,10.1.1.13,132,-0.020,-0.020,-0.020,0.000,0.000,0.000
1641234996070830080,2022-01-03-18:36:36,10.1.1.13,141,-0.010,-0.010,-0.010,0.000,0.000,0.000
1641234996272349184,2022-01-03-18:36:36,10.1.1.13,141,0.000,0.000,0.000,0.000,0.000,0.000
1641234996460604928,2022-01-03-18:36:36,10.1.1.13,129,-0.010,-0.010,-0.010,0.000,0.000,0.000
1641234996680676864,2022-01-03-18:36:36,10.1.1.13,148,-0.020,-0.020,-0.020,0.000,0.000,0.000
1641234996869995008,2022-01-03-18:36:36,10.1.1.13,135,-0.030,-0.030,-0.030,0.000,0.000,0.000
1641234997069160960,2022-01-03-18:36:37,10.1.1.13,133,-0.040,-0.040,-0.040,0.000,0.000,0.000
1641234997269938944,2022-01-03-18:36:37,10.1.1.13,124,-0.050,-0.050,-0.050,0.000,0.000,0.000
1641234997478912000,2022-01-03-18:36:37,10.1.1.13,132,-0.060,-0.060,-0.060,0.000,0.000,0.000
1641234997716694016,2022-01-03-18:36:37,10.1.1.13,165,-0.070,-0.070,-0.070,0.000,0.000,0.000
1641234997899630080,2022-01-03-18:36:37,10.1.1.13,146,-0.080,-0.080,-0.080,0.000,0.000,0.000
1641234998093234176,2022-01-03-18:36:38,10.1.1.13,139,-0.090,-0.090,-0.090,0.000,0.000,0.000
1641234998297515008,2022-01-03-18:36:38,10.1.1.13,142,-0.100,-0.100,-0.100,0.000,0.000,0.000
1641234998487878912,2022-01-03-18:36:38,10.1.1.13,129,-0.110,-0.110,-0.110,0.000,0.000,0.000
1641234998687200000,2022-01-03-18:36:38,10.1.1.13,127,-0.120,-0.120,-0.120,0.000,0.000,0.000
1641234998897326080,2022-01-03-18:36:38,10.1.1.13,135,-0.130,-0.130,-0.130,0.000,0.000,0.000
1641234999107190016,2022-01-03-18:36:39,10.1.1.13,138,-0.140,-0.140,-0.140,0.000,0.000,0.000
1641234999306377984,2022-01-03-18:36:39,10.1.1.13,137,-0.150,-0.150,-0.150,0.000,0.000,0.000
1641234999551110912,2022-01-03-18:36:39,10.1.1.13,176,-0.160,-0.160,-0.160,0.000,0.000,0.000
1641234999726188800,2022-01-03-18:36:39,10.1.1.13,127,-0.170,-0.170,-0.170,0.000,0.000,0.000
1641234999951046912,2022-01-03-18:36:39,10.1.1.13,149,-0.180,-0.180,-0.180,0.000,0.000,0.000
1641235000124428032,2022-01-03-18:36:40,10.1.1.13,122,-0.190,-0.190,-0.190,0.000,0.000,0.000
1641235000324493824,2022-01-03-18:36:40,10.1.1.13,121,-0.200,-0.200,-0.200,0.000,0.000,0.000
1641235000524040960,2022-01-03-18:36:40,10.1.1.13,120,-0.210,-0.210,-0.210,0.000,0.000,0.000
1641235000733956096,2022-01-03-18:36:40,10.1.1.13,129,-0.220,-0.220,-0.220,0.000,0.000,0.000
1641235000923627008,2022-01-03-18:36:40,10.1.1.13,117,-0.230,-0.230,-0.230,0.000,0.000,0.000
1641235001163042048,2022-01-03-18:36:41,10.1.1.13,121,-0.240,-0.240,-0.240,0.000,0.000,0.000
1641235001372769024,2022-01-03-18:36:41,10.1.1.13,130,-0.250,-0.250,-0.250,0.000,0.000,0.000
1641235001573564160,2022-01-03-18:36:41,10.1.1.13,128,-0.260,-0.260,-0.260,0.000,0.000,0.000
1641235001793936896,2022-01-03-18:36:41,10.1.1.13,130,-0.270,-0.270,-0.270,0.000,0.000,0.000
1641235001982525184,2022-01-03-18:36:41,10.1.1.13,118,-0.280,-0.280,-0.280,0.000,0.000,0.000
1641235002198683904,2022-01-03-18:36:42,10.1.1.13,133,-0.290,-0.290,-0.290,0.000,0.000,0.000
1641235002393942016,2022-01-03-18:36:42,10.1.1.13,127,-0.300,-0.300,-0.300,0.000,0.000,0.000
1641235002602065152,2022-01-03-18:36:42,10.1.1.13,133,-0.310,-0.310,-0.310,0.000,0.000,0.000
1641235002801704960,2022-01-03-18:36:42,10.1.1.13,133,-0.320,-0.320,-0.320,0.000,0.000,0.000
1641235003001148928,2022-01-03-18:36:43,10.1.1.13,131,-0.330,-0.330,-0.330,0.000,0.000,0.000
1641235003246073088,2022-01-03-18:36:43,10.1.1.13,167,-0.340,-0.340,-0.340,0.000,0.000,0.000
1641235003640023040,2022-01-03-18:36:43,10.1.1.13,121,-0.360,-0.360,-0.360,0.000,0.000,0.000
1641235003854603008,2022-01-03-18:36:43,10.1.1.13,135,-0.370,-0.370,-0.370,0.000,0.000,0.000
1641235004050301952,2022-01-03-18:36:44,10.1.1.13,126,-0.380,-0.380,-0.380,0.000,0.000,0.000
1641235004248404992,2022-01-03-18:36:44,10.1.1.13,124,-0.390,-0.390,-0.390,0.000,0.000,0.000
1641235004453550080,2022-01-03-18:36:44,10.1.1.13,128,-0.400,-0.400,-0.400,0.000,0.000,0.000
1641235004658392064,2022-01-03-18:36:44,10.1.1.13,124,-0.410,-0.410,-0.410,0.000,0.000,0.000
1641235004848856832,2022-01-03-18:36:44,10.1.1.13,113,-0.420,-0.420,-0.420,0.000,0.000,0.000
1641235005058245888,2022-01-03-18:36:45,10.1.1.13,122,-0.430,-0.430,-0.430,0.000,0.000,0.000
1641235005257129984,2022-01-03-18:36:45,10.1.1.13,120,-0.440,-0.440,-0.440,0.000,0.000,0.000
1641235005467629056,2022-01-03-18:36:45,10.1.1.13,126,-0.450,-0.450,-0.450,0.000,0.000,0.000
1641235005706744064,2022-01-03-18:36:45,10.1.1.13,138,-0.460,-0.460,-0.460,0.000,0.000,0.000
1641235005876118016,2022-01-03-18:36:45,10.1.1.13,125,-0.470,-0.470,-0.470,0.000,0.000,0.000
1641235006076339968,2022-01-03-18:36:46,10.1.1.13,123,-0.480,-0.480,-0.480,0.000,0.000,0.000
1641235006265316864,2022-01-03-18:36:46,10.1.1.13,111,-0.490,-0.490,-0.490,0.000,0.000,0.000
1641235006475581952,2022-01-03-18:36:46,10.1.1.13,120,-0.480,-0.480,-0.480,0.000,0.000,0.000
1641235006686629120,2022-01-03-18:36:46,10.1.1.13,114,-0.470,-0.470,-0.470,0.000,0.000,0.000
1641235006906210048,2022-01-03-18:36:46,10.1.1.13,134,-0.460,-0.460,-0.460,0.000,0.000,0.000
1641235007085007872,2022-01-03-18:36:47,10.1.1.13,112,-0.450,-0.450,-0.450,0.000,0.000,0.000
1641235007304110080,2022-01-03-18:36:47,10.1.1.13,129,-0.440,-0.440,-0.440,0.000,0.000,0.000
1641235007495096064,2022-01-03-18:36:47,10.1.1.13,120,-0.430,-0.430,-0.430,0.000,0.000,0.000
1641235007704151040,2022-01-03-18:36:47,10.1.1.13,129,-0.420,-0.420,-0.420,0.000,0.000,0.000
1641235007893227008,2022-01-03-18:36:47,10.1.1.13,117,-0.410,-0.410,-0.410,0.000,0.000,0.000
1641235008103739904,2022-01-03-18:36:48,10.1.1.13,108,-0.400,-0.400,-0.400,0.000,0.000,0.000
1641235008322160128,2022-01-03-18:36:48,10.1.1.13,125,-0.390,-0.390,-0.390,0.000,0.000,0.000
1641235008513089024,2022-01-03-18:36:48,10.1.1.13,115,-0.380,-0.380,-0.380,0.000,0.000,0.000
1641235008722085888,2022-01-03-18:36:48,10.1.1.13,123,-0.370,-0.370,-0.370,0.000,0.000,0.000
1641235008923283200,2022-01-03-18:36:48,10.1.1.13,124,-0.360,-0.360,-0.360,0.000,0.000,0.000
1641235009026590208,2022-01-03-18:36:49,10.1.1.13,-1,-0.360,-0.360,-0.360,0.000,0.000,0.000
1641235009334050816,2022-01-03-18:36:49,10.1.1.13,122,-0.340,-0.340,-0.340,0.000,0.000,0.000
1641235009531045888,2022-01-03-18:36:49,10.1.1.13,118,-0.330,-0.330,-0.330,0.000,0.000,0.000
1641235009734110208,2022-01-03-18:36:49,10.1.1.13,121,-0.320,-0.320,-0.320,0.000,0.000,0.000
1641235009930238976,2022-01-03-18:36:49,10.1.1.13,116,-0.310,-0.310,-0.310,0.000,0.000,0.000
1641235010119782912,2022-01-03-18:36:50,10.1.1.13,106,-0.300,-0.300,-0.300,0.000,0.000,0.000
1641235010216599040,2022-01-03-18:36:50,10.1.1.13,-1,-0.300,-0.300,-0.300,0.000,0.000,0.000
1641235010544024832,2022-01-03-18:36:50,10.1.1.13,124,-0.280,-0.280,-0.280,0.000,0.000,0.000
1641235010739257088,2022-01-03-18:36:50,10.1.1.13,121,-0.270,-0.270,-0.270,0.000,0.000,0.000
1641235010944571136,2022-01-03-18:36:50,10.1.1.13,124,-0.260,-0.260,-0.260,0.000,0.000,0.000
1641235011139105024,2022-01-03-18:36:51,10.1.1.13,112,-0.250,-0.250,-0.250,0.000,0.000,0.000
1641235011357288960,2022-01-03-18:36:51,10.1.1.13,126,-0.240,-0.240,-0.240,0.000,0.000,0.000
1641235011547364864,2022-01-03-18:36:51,10.1.1.13,107,-0.230,-0.230,-0.230,0.000,0.000,0.000
1641235011746540032,2022-01-03-18:36:51,10.1.1.13,102,-0.220,-0.220,-0.220,0.000,0.000,0.000
1641235011972098048,2022-01-03-18:36:51,10.1.1.13,126,-0.210,-0.210,-0.210,0.000,0.000,0.000
1641235012176055808,2022-01-03-18:36:52,10.1.1.13,128,-0.200,-0.200,-0.200,0.000,0.000,0.000
1641235012370002944,2022-01-03-18:36:52,10.1.1.13,120,-0.190,-0.190,-0.190,0.000,0.000,0.000
1641235012575629056,2022-01-03-18:36:52,10.1.1.13,112,-0.180,-0.180,-0.180,0.000,0.000,0.000
1641235012806374144,2022-01-03-18:36:52,10.1.1.13,114,-0.170,-0.170,-0.170,0.000,0.000,0.000
1641235013016135936,2022-01-03-18:36:53,10.1.1.13,120,-0.160,-0.160,-0.160,0.000,0.000,0.000
1641235013209899776,2022-01-03-18:36:53,10.1.1.13,117,-0.150,-0.150,-0.150,0.000,0.000,0.000
1641235013407032064,2022-01-03-18:36:53,10.1.1.13,107,-0.140,-0.140,-0.140,0.000,0.000,0.000
1641235013698456064,2022-01-03-18:36:53,10.1.1.13,197,-0.130,-0.130,-0.130,0.000,0.000,0.000
1641235013819368960,2022-01-03-18:36:53,10.1.1.13,112,-0.120,-0.120,-0.120,0.000,0.000,0.000
1641235014041240064,2022-01-03-18:36:54,10.1.1.13,130,-0.110,-0.110,-0.110,0.000,0.000,0.000
1641235014241446912,2022-01-03-18:36:54,10.1.1.13,130,-0.100,-0.100,-0.100,0.000,0.000,0.000
1641235014423335936,2022-01-03-18:36:54,10.1.1.13,111,-0.090,-0.090,-0.090,0.000,0.000,0.000
1641235014642683136,2022-01-03-18:36:54,10.1.1.13,128,-0.080,-0.080,-0.080,0.000,0.000,0.000
1641235014845766912,2022-01-03-18:36:54,10.1.1.13,129,-0.070,-0.070,-0.070,0.000,0.000,0.000
1641235015055497984,2022-01-03-18:36:55,10.1.1.13,127,-0.060,-0.060,-0.060,0.000,0.000,0.000
1641235015255448064,2022-01-03-18:36:55,10.1.1.13,126,-0.050,-0.050,-0.050,0.000,0.000,0.000
1641235015458355968,2022-01-03-18:36:55,10.1.1.13,129,-0.040,-0.040,-0.040,0.000,0.000,0.000
1641235015649054976,2022-01-03-18:36:55,10.1.1.13,118,-0.030,-0.030,-0.030,0.000,0.000,0.000
1641235015870234880,2022-01-03-18:36:55,10.1.1.13,138,-0.020,-0.020,-0.020,0.000,0.000,0.000
1641235016060242944,2022-01-03-18:36:56,10.1.1.13,127,-0.010,-0.010,-0.010,0.000,0.000,0.000
1641235016262032128,2022-01-03-18:36:56,10.1.1.13,128,0.000,0.000,0.000,0.000,0.000,0.000
1641235016451278848,2022-01-03-18:36:56,10.1.1.13,117,-0.010,-0.010,-0.010,0.000,0.000,0.000
1641235016651794944,2022-01-03-18:36:56,10.1.1.13,117,-0.020,-0.020,-0.020,0.000,0.000,0.000
1641235016853677056,2022-01-03-18:36:56,10.1.1.13,118,-0.030,-0.030,-0.030,0.000,0.000,0.000
1641235017081099008,2022-01-03-18:36:57,10.1.1.13,143,-0.040,-0.040,-0.040,0.000,0.000,0.000
1641235017265355008,2022-01-03-18:36:57,10.1.1.13,126,-0.050,-0.050,-0.050,0.000,0.000,0.000
1641235017465935104,2022-01-03-18:36:57,10.1.1.13,126,-0.060,-0.060,-0.060,0.000,0.000,0.000
1641235017667687936,2022-01-03-18:36:57,10.1.1.13,127,-0.070,-0.070,-0.070,0.000,0.000,0.000
1641235017866484992,2022-01-03-18:36:57,10.1.1.13,125,-0.080,-0.080,-0.080,0.000,0.000,0.000
1641235018077927168,2022-01-03-18:36:58,10.1.1.13,135,-0.090,-0.090,-0.090,0.000,0.000,0.000
1641235018308603904,2022-01-03-18:36:58,10.1.1.13,131,-0.100,-0.100,-0.100,0.000,0.000,0.000
1641235018519287040,2022-01-03-18:36:58,10.1.1.13,141,-0.110,-0.110,-0.110,0.000,0.000,0.000
1641235018719783936,2022-01-03-18:36:58,10.1.1.13,140,-0.120,-0.120,-0.120,0.000,0.000,0.000
1641235018913937152,2022-01-03-18:36:58,10.1.1.13,134,-0.130,-0.130,-0.130,0.000,0.000,0.000
1641235019122232064,2022-01-03-18:36:59,10.1.1.13,141,-0.140,-0.140,-0.140,0.000,0.000,0.000
1641235019341350144,2022-01-03-18:36:59,10.1.1.13,160,-0.150,-0.150,-0.150,0.000,0.000,0.000
1641235019522370048,2022-01-03-18:36:59,10.1.1.13,132,-0.160,-0.160,-0.160,0.000,0.000,0.000
1641235019722067200,2022-01-03-18:36:59,10.1.1.13,131,-0.170,-0.170,-0.170,0.000,0.000,0.000
1641235019923683840,2022-01-03-18:36:59,10.1.1.13,132,-0.180,-0.180,-0.180,0.000,0.000,0.000
1641235020152232960,2022-01-03-18:37:00,10.1.1.13,160,-0.190,-0.190,-0.190,0.000,0.000,0.000
1641235020324657920,2022-01-03-18:37:00,10.1.1.13,131,-0.200,-0.200,-0.200,0.000,0.000,0.000
1641235020540620032,2022-01-03-18:37:00,10.1.1.13,147,-0.210,-0.210,-0.210,0.000,0.000,0.000
1641235020726092032,2022-01-03-18:37:00,10.1.1.13,130,-0.220,-0.220,-0.220,0.000,0.000,0.000
1641235020946362880,2022-01-03-18:37:00,10.1.1.13,150,-0.230,-0.230,-0.230,0.000,0.000,0.000
1641235021151633920,2022-01-03-18:37:01,10.1.1.13,154,-0.240,-0.240,-0.240,0.000,0.000,0.000
1641235021347013888,2022-01-03-18:37:01,10.1.1.13,148,-0.250,-0.250,-0.250,0.000,0.000,0.000
1641235021573178112,2022-01-03-18:37:01,10.1.1.13,160,-0.260,-0.260,-0.260,0.000,0.000,0.000
1641235021738440960,2022-01-03-18:37:01,10.1.1.13,133,-0.270,-0.270,-0.270,0.000,0.000,0.000
1641235021940972032,2022-01-03-18:37:01,10.1.1.13,133,-0.280,-0.280,-0.280,0.000,0.000,0.000
1641235022149282048,2022-01-03-18:37:02,10.1.1.13,141,-0.290,-0.290,-0.290,0.000,0.000,0.000
1641235022399976960,2022-01-03-18:37:02,10.1.1.13,173,-0.300,-0.300,-0.300,0.000,0.000,0.000
1641235022561022976,2022-01-03-18:37:02,10.1.1.13,149,-0.310,-0.310,-0.310,0.000,0.000,0.000
1641235022750642944,2022-01-03-18:37:02,10.1.1.13,139,-0.320,-0.320,-0.320,0.000,0.000,0.000
1641235022967264000,2022-01-03-18:37:02,10.1.1.13,155,-0.330,-0.330,-0.330,0.000,0.000,0.000
1641235023161518080,2022-01-03-18:37:03,10.1.1.13,149,-0.340,-0.340,-0.340,0.000,0.000,0.000
1641235023352183040,2022-01-03-18:37:03,10.1.1.13,139,-0.350,-0.350,-0.350,0.000,0.000,0.000
1641235023575156992,2022-01-03-18:37:03,10.1.1.13,160,-0.360,-0.360,-0.360,0.000,0.000,0.000
1641235023789316864,2022-01-03-18:37:03,10.1.1.13,166,-0.370,-0.370,-0.370,0.000,0.000,0.000
1641235023963068928,2022-01-03-18:37:03,10.1.1.13,137,-0.380,-0.380,-0.380,0.000,0.000,0.000
1641235024163549952,2022-01-03-18:37:04,10.1.1.13,136,-0.390,-0.390,-0.390,0.000,0.000,0.000
1641235024383739904,2022-01-03-18:37:04,10.1.1.13,155,-0.400,-0.400,-0.400,0.000,0.000,0.000
1641235024586244096,2022-01-03-18:37:04,10.1.1.13,156,-0.410,-0.410,-0.410,0.000,0.000,0.000
1641235024797122048,2022-01-03-18:37:04,10.1.1.13,165,-0.420,-0.420,-0.420,0.000,0.000,0.000
1641235025030391040,2022-01-03-18:37:05,10.1.1.13,198,-0.430,-0.430,-0.430,0.000,0.000,0.000
