FedericoMungari/DigitalTwin_service/01_WiredScenario/Output/Output_script/script_rosapi_2_output_robots12_freq0_8.txt
timestamp,date,node,latency,joint_1,joint_2,joint_3,joint_4,joint_5,joint_6
1641234796123251968,2022-01-03-18:33:16,10.1.1.9,189,-0.010,-0.010,-0.010,0.000,0.000,0.000
1641234796326694912,2022-01-03-18:33:16,10.1.1.9,192,-0.020,-0.020,-0.020,0.000,0.000,0.000
1641234796526359040,2022-01-03-18:33:16,10.1.1.9,191,-0.030,-0.030,-0.030,0.000,0.000,0.000
1641234796726077184,2022-01-03-18:33:16,10.1.1.9,188,-0.040,-0.040,-0.040,0.000,0.000,0.000
1641234796933135872,2022-01-03-18:33:16,10.1.1.9,195,-0.050,-0.050,-0.050,0.000,0.000,0.000
1641234797545785856,2022-01-03-18:33:17,10.1.1.9,198,-0.080,-0.080,-0.080,0.000,0.000,0.000
1641234797945772032,2022-01-03-18:33:17,10.1.1.9,195,-0.100,-0.100,-0.100,0.000,0.000,0.000
1641234798559365120,2022-01-03-18:33:18,10.1.1.9,200,-0.130,-0.130,-0.130,0.000,0.000,0.000
1641234799366262016,2022-01-03-18:33:19,10.1.1.9,200,-0.170,-0.170,-0.170,0.000,0.000,0.000
1641234799566644992,2022-01-03-18:33:19,10.1.1.9,197,-0.180,-0.180,-0.180,0.000,0.000,0.000
1641234799767302912,2022-01-03-18:33:19,10.1.1.9,194,-0.190,-0.190,-0.190,0.000,0.000,0.000
1641234799966912000,2022-01-03-18:33:19,10.1.1.9,190,-0.200,-0.200,-0.200,0.000,0.000,0.000
1641234801587388160,2022-01-03-18:33:21,10.1.1.9,202,-0.280,-0.280,-0.280,0.000,0.000,0.000
1641234801987406080,2022-01-03-18:33:21,10.1.1.9,199,-0.300,-0.300,-0.300,0.000,0.000,0.000
1641234802186166016,2022-01-03-18:33:22,10.1.1.9,196,-0.310,-0.310,-0.310,0.000,0.000,0.000
1641234802388497152,2022-01-03-18:33:22,10.1.1.9,197,-0.320,-0.320,-0.320,0.000,0.000,0.000
1641234802586411008,2022-01-03-18:33:22,10.1.1.9,194,-0.330,-0.330,-0.330,0.000,0.000,0.000
1641234802785764864,2022-01-03-18:33:22,10.1.1.9,193,-0.340,-0.340,-0.340,0.000,0.000,0.000
1641234802986211072,2022-01-03-18:33:22,10.1.1.9,192,-0.350,-0.350,-0.350,0.000,0.000,0.000
1641234803188502016,2022-01-03-18:33:23,10.1.1.9,191,-0.360,-0.360,-0.360,0.000,0.000,0.000
1641234803387917056,2022-01-03-18:33:23,10.1.1.9,190,-0.370,-0.370,-0.370,0.000,0.000,0.000
1641234804196969984,2022-01-03-18:33:24,10.1.1.9,194,-0.410,-0.410,-0.410,0.000,0.000,0.000
1641234804806070016,2022-01-03-18:33:24,10.1.1.9,200,-0.440,-0.440,-0.440,0.000,0.000,0.000
1641234805006151936,2022-01-03-18:33:25,10.1.1.9,198,-0.450,-0.450,-0.450,0.000,0.000,0.000
1641234805204844032,2022-01-03-18:33:25,10.1.1.9,195,-0.460,-0.460,-0.460,0.000,0.000,0.000
1641234805409590016,2022-01-03-18:33:25,10.1.1.9,194,-0.470,-0.470,-0.470,0.000,0.000,0.000
1641234805606652928,2022-01-03-18:33:25,10.1.1.9,190,-0.480,-0.480,-0.480,0.000,0.000,0.000
1641234807025885952,2022-01-03-18:33:27,10.1.1.9,194,-0.430,-0.430,-0.430,0.000,0.000,0.000
1641234807226438144,2022-01-03-18:33:27,10.1.1.9,191,-0.420,-0.420,-0.420,0.000,0.000,0.000
1641234807425921024,2022-01-03-18:33:27,10.1.1.9,190,-0.410,-0.410,-0.410,0.000,0.000,0.000
1641234808638828032,2022-01-03-18:33:28,10.1.1.9,196,-0.350,-0.350,-0.350,0.000,0.000,0.000
1641234809245836032,2022-01-03-18:33:29,10.1.1.9,200,-0.320,-0.320,-0.320,0.000,0.000,0.000
1641234809438797824,2022-01-03-18:33:29,10.1.1.9,192,-0.310,-0.310,-0.310,0.000,0.000,0.000
1641234809646660096,2022-01-03-18:33:29,10.1.1.9,199,-0.300,-0.300,-0.300,0.000,0.000,0.000
1641234809844865024,2022-01-03-18:33:29,10.1.1.9,196,-0.290,-0.290,-0.290,0.000,0.000,0.000
1641234810041788160,2022-01-03-18:33:30,10.1.1.9,191,-0.280,-0.280,-0.280,0.000,0.000,0.000
1641234810252548864,2022-01-03-18:33:30,10.1.1.9,199,-0.270,-0.270,-0.270,0.000,0.000,0.000
1641234810439888128,2022-01-03-18:33:30,10.1.1.9,185,-0.260,-0.260,-0.260,0.000,0.000,0.000
1641234810642918144,2022-01-03-18:33:30,10.1.1.9,186,-0.250,-0.250,-0.250,0.000,0.000,0.000
1641234811658766080,2022-01-03-18:33:31,10.1.1.9,197,-0.200,-0.200,-0.200,0.000,0.000,0.000
1641234811857779968,2022-01-03-18:33:31,10.1.1.9,195,-0.190,-0.190,-0.190,0.000,0.000,0.000
1641234812057219072,2022-01-03-18:33:32,10.1.1.9,194,-0.180,-0.180,-0.180,0.000,0.000,0.000
1641234812257502976,2022-01-03-18:33:32,10.1.1.9,193,-0.170,-0.170,-0.170,0.000,0.000,0.000
1641234812456700160,2022-01-03-18:33:32,10.1.1.9,192,-0.160,-0.160,-0.160,0.000,0.000,0.000
1641234812647078144,2022-01-03-18:33:32,10.1.1.9,181,-0.150,-0.150,-0.150,0.000,0.000,0.000
1641234812855973888,2022-01-03-18:33:32,10.1.1.9,189,-0.140,-0.140,-0.140,0.000,0.000,0.000
1641234813056602112,2022-01-03-18:33:33,10.1.1.9,189,-0.130,-0.130,-0.130,0.000,0.000,0.000
1641234813255661056,2022-01-03-18:33:33,10.1.1.9,187,-0.120,-0.120,-0.120,0.000,0.000,0.000
1641234813455070976,2022-01-03-18:33:33,10.1.1.9,185,-0.110,-0.110,-0.110,0.000,0.000,0.000
1641234813661367808,2022-01-03-18:33:33,10.1.1.9,191,-0.100,-0.100,-0.100,0.000,0.000,0.000
1641234813860755968,2022-01-03-18:33:33,10.1.1.9,190,-0.090,-0.090,-0.090,0.000,0.000,0.000
1641234814056899072,2022-01-03-18:33:34,10.1.1.9,185,-0.080,-0.080,-0.080,0.000,0.000,0.000
1641234814255475968,2022-01-03-18:33:34,10.1.1.9,182,-0.070,-0.070,-0.070,0.000,0.000,0.000
1641234814462017024,2022-01-03-18:33:34,10.1.1.9,189,-0.060,-0.060,-0.060,0.000,0.000,0.000
1641234814658315008,2022-01-03-18:33:34,10.1.1.9,184,-0.050,-0.050,-0.050,0.000,0.000,0.000
1641234814862340096,2022-01-03-18:33:34,10.1.1.9,185,-0.040,-0.040,-0.040,0.000,0.000,0.000
1641234815075206144,2022-01-03-18:33:35,10.1.1.9,198,-0.030,-0.030,-0.030,0.000,0.000,0.000
1641234815273572864,2022-01-03-18:33:35,10.1.1.9,194,-0.020,-0.020,-0.020,0.000,0.000,0.000
1641234815473022976,2022-01-03-18:33:35,10.1.1.9,192,-0.010,-0.010,-0.010,0.000,0.000,0.000
1641234815674053888,2022-01-03-18:33:35,10.1.1.9,190,0.000,0.000,0.000,0.000,0.000,0.000
1641234815875289856,2022-01-03-18:33:35,10.1.1.9,190,-0.010,-0.010,-0.010,0.000,0.000,0.000
1641234816074536960,2022-01-03-18:33:36,10.1.1.9,189,-0.020,-0.020,-0.020,0.000,0.000,0.000
1641234816274776832,2022-01-03-18:33:36,10.1.1.9,188,-0.030,-0.030,-0.030,0.000,0.000,0.000
1641234816473736960,2022-01-03-18:33:36,10.1.1.9,186,-0.040,-0.040,-0.040,0.000,0.000,0.000
1641234816896929024,2022-01-03-18:33:36,10.1.1.9,197,-0.060,-0.060,-0.060,0.000,0.000,0.000
1641234817099698176,2022-01-03-18:33:37,10.1.1.9,196,-0.070,-0.070,-0.070,0.000,0.000,0.000
1641234817299438848,2022-01-03-18:33:37,10.1.1.9,197,-0.080,-0.080,-0.080,0.000,0.000,0.000
1641234817491651072,2022-01-03-18:33:37,10.1.1.9,185,-0.090,-0.090,-0.090,0.000,0.000,0.000
1641234817693847040,2022-01-03-18:33:37,10.1.1.9,187,-0.100,-0.100,-0.100,0.000,0.000,0.000
1641234817890332928,2022-01-03-18:33:37,10.1.1.9,182,-0.110,-0.110,-0.110,0.000,0.000,0.000
1641234818094019840,2022-01-03-18:33:38,10.1.1.9,186,-0.120,-0.120,-0.120,0.000,0.000,0.000
1641234818290409216,2022-01-03-18:33:38,10.1.1.9,180,-0.130,-0.130,-0.130,0.000,0.000,0.000
1641234818497023232,2022-01-03-18:33:38,10.1.1.9,182,-0.140,-0.140,-0.140,0.000,0.000,0.000
1641234818687567872,2022-01-03-18:33:38,10.1.1.9,172,-0.150,-0.150,-0.150,0.000,0.000,0.000
1641234818889271040,2022-01-03-18:33:38,10.1.1.9,173,-0.160,-0.160,-0.160,0.000,0.000,0.000
1641234819089256960,2022-01-03-18:33:39,10.1.1.9,172,-0.170,-0.170,-0.170,0.000,0.000,0.000
1641234819309835008,2022-01-03-18:33:39,10.1.1.9,193,-0.180,-0.180,-0.180,0.000,0.000,0.000
1641234819516392960,2022-01-03-18:33:39,10.1.1.9,198,-0.190,-0.190,-0.190,0.000,0.000,0.000
1641234819706505984,2022-01-03-18:33:39,10.1.1.9,188,-0.200,-0.200,-0.200,0.000,0.000,0.000
1641234819898199040,2022-01-03-18:33:39,10.1.1.9,176,-0.210,-0.210,-0.210,0.000,0.000,0.000
1641234820109637120,2022-01-03-18:33:40,10.1.1.9,182,-0.220,-0.220,-0.220,0.000,0.000,0.000
1641234820308450048,2022-01-03-18:33:40,10.1.1.9,183,-0.230,-0.230,-0.230,0.000,0.000,0.000
1641234820508722944,2022-01-03-18:33:40,10.1.1.9,182,-0.240,-0.240,-0.240,0.000,0.000,0.000
1641234820709827840,2022-01-03-18:33:40,10.1.1.9,182,-0.250,-0.250,-0.250,0.000,0.000,0.000
1641234820924463104,2022-01-03-18:33:40,10.1.1.9,194,-0.260,-0.260,-0.260,0.000,0.000,0.000
1641234821307398144,2022-01-03-18:33:41,10.1.1.9,171,-0.280,-0.280,-0.280,0.000,0.000,0.000
1641234821508323840,2022-01-03-18:33:41,10.1.1.9,172,-0.290,-0.290,-0.290,0.000,0.000,0.000
1641234821728195072,2022-01-03-18:33:41,10.1.1.9,190,-0.300,-0.300,-0.300,0.000,0.000,0.000
1641234821929803008,2022-01-03-18:33:41,10.1.1.9,191,-0.310,-0.310,-0.310,0.000,0.000,0.000
1641234822137187840,2022-01-03-18:33:42,10.1.1.9,197,-0.320,-0.320,-0.320,0.000,0.000,0.000
1641234822342253824,2022-01-03-18:33:42,10.1.1.9,201,-0.330,-0.330,-0.330,0.000,0.000,0.000
1641234822533235200,2022-01-03-18:33:42,10.1.1.9,190,-0.340,-0.340,-0.340,0.000,0.000,0.000
1641234822733586176,2022-01-03-18:33:42,10.1.1.9,190,-0.350,-0.350,-0.350,0.000,0.000,0.000
1641234822930053888,2022-01-03-18:33:42,10.1.1.9,185,-0.360,-0.360,-0.360,0.000,0.000,0.000
1641234823129523968,2022-01-03-18:33:43,10.1.1.9,185,-0.370,-0.370,-0.370,0.000,0.000,0.000
1641234823327378944,2022-01-03-18:33:43,10.1.1.9,182,-0.380,-0.380,-0.380,0.000,0.000,0.000
1641234823529041920,2022-01-03-18:33:43,10.1.1.9,184,-0.390,-0.390,-0.390,0.000,0.000,0.000
1641234823732562176,2022-01-03-18:33:43,10.1.1.9,187,-0.400,-0.400,-0.400,0.000,0.000,0.000
1641234823932753152,2022-01-03-18:33:43,10.1.1.9,185,-0.410,-0.410,-0.410,0.000,0.000,0.000
1641234824128771072,2022-01-03-18:33:44,10.1.1.9,181,-0.420,-0.420,-0.420,0.000,0.000,0.000
1641234824335237120,2022-01-03-18:33:44,10.1.1.9,184,-0.430,-0.430,-0.430,0.000,0.000,0.000
1641234824531148800,2022-01-03-18:33:44,10.1.1.9,179,-0.440,-0.440,-0.440,0.000,0.000,0.000
1641234824748680192,2022-01-03-18:33:44,10.1.1.9,190,-0.450,-0.450,-0.450,0.000,0.000,0.000
1641234824948327168,2022-01-03-18:33:44,10.1.1.9,188,-0.460,-0.460,-0.460,0.000,0.000,0.000
1641234825148740096,2022-01-03-18:33:45,10.1.1.9,186,-0.470,-0.470,-0.470,0.000,0.000,0.000
1641234825352380928,2022-01-03-18:33:45,10.1.1.9,188,-0.480,-0.480,-0.480,0.000,0.000,0.000
1641234825552311040,2022-01-03-18:33:45,10.1.1.9,187,-0.490,-0.490,-0.490,0.000,0.000,0.000
1641234825752032000,2022-01-03-18:33:45,10.1.1.9,186,-0.480,-0.480,-0.480,0.000,0.000,0.000
1641234825959245056,2022-01-03-18:33:45,10.1.1.9,193,-0.470,-0.470,-0.470,0.000,0.000,0.000
1641234826157984000,2022-01-03-18:33:46,10.1.1.9,190,-0.460,-0.460,-0.460,0.000,0.000,0.000
1641234826354124032,2022-01-03-18:33:46,10.1.1.9,186,-0.450,-0.450,-0.450,0.000,0.000,0.000
1641234826548363008,2022-01-03-18:33:46,10.1.1.9,179,-0.440,-0.440,-0.440,0.000,0.000,0.000
1641234826748460032,2022-01-03-18:33:46,10.1.1.9,179,-0.430,-0.430,-0.430,0.000,0.000,0.000
1641234826961967104,2022-01-03-18:33:46,10.1.1.9,191,-0.420,-0.420,-0.420,0.000,0.000,0.000
1641234827152069120,2022-01-03-18:33:47,10.1.1.9,179,-0.410,-0.410,-0.410,0.000,0.000,0.000
1641234827373833984,2022-01-03-18:33:47,10.1.1.9,197,-0.400,-0.400,-0.400,0.000,0.000,0.000
1641234827573724928,2022-01-03-18:33:47,10.1.1.9,195,-0.390,-0.390,-0.390,0.000,0.000,0.000
1641234827772358912,2022-01-03-18:33:47,10.1.1.9,193,-0.380,-0.380,-0.380,0.000,0.000,0.000
1641234827969728000,2022-01-03-18:33:47,10.1.1.9,190,-0.370,-0.370,-0.370,0.000,0.000,0.000
1641234828164611072,2022-01-03-18:33:48,10.1.1.9,185,-0.360,-0.360,-0.360,0.000,0.000,0.000
1641234828367877888,2022-01-03-18:33:48,10.1.1.9,187,-0.350,-0.350,-0.350,0.000,0.000,0.000
1641234828569377024,2022-01-03-18:33:48,10.1.1.9,188,-0.340,-0.340,-0.340,0.000,0.000,0.000
1641234828770044928,2022-01-03-18:33:48,10.1.1.9,188,-0.330,-0.330,-0.330,0.000,0.000,0.000
1641234828974707968,2022-01-03-18:33:48,10.1.1.9,192,-0.320,-0.320,-0.320,0.000,0.000,0.000
1641234829182571008,2022-01-03-18:33:49,10.1.1.9,198,-0.310,-0.310,-0.310,0.000,0.000,0.000
1641234829368443136,2022-01-03-18:33:49,10.1.1.9,184,-0.300,-0.300,-0.300,0.000,0.000,0.000
1641234829578087936,2022-01-03-18:33:49,10.1.1.9,193,-0.290,-0.290,-0.290,0.000,0.000,0.000
1641234829770051840,2022-01-03-18:33:49,10.1.1.9,184,-0.280,-0.280,-0.280,0.000,0.000,0.000
1641234829971746048,2022-01-03-18:33:49,10.1.1.9,184,-0.270,-0.270,-0.270,0.000,0.000,0.000
1641234830173856000,2022-01-03-18:33:50,10.1.1.9,185,-0.260,-0.260,-0.260,0.000,0.000,0.000
1641234830371486976,2022-01-03-18:33:50,10.1.1.9,179,-0.250,-0.250,-0.250,0.000,0.000,0.000
1641234830590756864,2022-01-03-18:33:50,10.1.1.9,190,-0.240,-0.240,-0.240,0.000,0.000,0.000
1641234830789419008,2022-01-03-18:33:50,10.1.1.9,189,-0.230,-0.230,-0.230,0.000,0.000,0.000
1641234830989701888,2022-01-03-18:33:50,10.1.1.9,189,-0.220,-0.220,-0.220,0.000,0.000,0.000
1641234831187077888,2022-01-03-18:33:51,10.1.1.9,186,-0.210,-0.210,-0.210,0.000,0.000,0.000
1641234831386938112,2022-01-03-18:33:51,10.1.1.9,185,-0.200,-0.200,-0.200,0.000,0.000,0.000
1641234831579303936,2022-01-03-18:33:51,10.1.1.9,173,-0.190,-0.190,-0.190,0.000,0.000,0.000
1641234831788124160,2022-01-03-18:33:51,10.1.1.9,181,-0.180,-0.180,-0.180,0.000,0.000,0.000
1641234831993464832,2022-01-03-18:33:51,10.1.1.9,184,-0.170,-0.170,-0.170,0.000,0.000,0.000
1641234832208726016,2022-01-03-18:33:52,10.1.1.9,184,-0.160,-0.160,-0.160,0.000,0.000,0.000
1641234832409390080,2022-01-03-18:33:52,10.1.1.9,182,-0.150,-0.150,-0.150,0.000,0.000,0.000
1641234832607559936,2022-01-03-18:33:52,10.1.1.9,182,-0.140,-0.140,-0.140,0.000,0.000,0.000
1641234832807266048,2022-01-03-18:33:52,10.1.1.9,181,-0.130,-0.130,-0.130,0.000,0.000,0.000
1641234833006413056,2022-01-03-18:33:53,10.1.1.9,180,-0.120,-0.120,-0.120,0.000,0.000,0.000
1641234833223819008,2022-01-03-18:33:53,10.1.1.9,195,-0.110,-0.110,-0.110,0.000,0.000,0.000
1641234833405853952,2022-01-03-18:33:53,10.1.1.9,176,-0.100,-0.100,-0.100,0.000,0.000,0.000
1641234833605720064,2022-01-03-18:33:53,10.1.1.9,175,-0.090,-0.090,-0.090,0.000,0.000,0.000
1641234833805723904,2022-01-03-18:33:53,10.1.1.9,174,-0.080,-0.080,-0.080,0.000,0.000,0.000
1641234834008456960,2022-01-03-18:33:54,10.1.1.9,176,-0.070,-0.070,-0.070,0.000,0.000,0.000
1641234834205492992,2022-01-03-18:33:54,10.1.1.9,173,-0.060,-0.060,-0.060,0.000,0.000,0.000
1641234834405936896,2022-01-03-18:33:54,10.1.1.9,173,-0.050,-0.050,-0.050,0.000,0.000,0.000
1641234834605417984,2022-01-03-18:33:54,10.1.1.9,171,-0.040,-0.040,-0.040,0.000,0.000,0.000
1641234834804730880,2022-01-03-18:33:54,10.1.1.9,170,-0.030,-0.030,-0.030,0.000,0.000,0.000
1641234835010704896,2022-01-03-18:33:55,10.1.1.9,176,-0.020,-0.020,-0.020,0.000,0.000,0.000
1641234835227250176,2022-01-03-18:33:55,10.1.1.9,183,-0.010,-0.010,-0.010,0.000,0.000,0.000
1641234835420818944,2022-01-03-18:33:55,10.1.1.9,174,-0.000,-0.000,-0.000,0.000,0.000,0.000
1641234835625169152,2022-01-03-18:33:55,10.1.1.9,177,-0.010,-0.010,-0.010,0.000,0.000,0.000
1641234835836208128,2022-01-03-18:33:55,10.1.1.9,183,-0.020,-0.020,-0.020,0.000,0.000,0.000
1641234836027148032,2022-01-03-18:33:56,10.1.1.9,174,-0.030,-0.030,-0.030,0.000,0.000,0.000
1641234836247187968,2022-01-03-18:33:56,10.1.1.9,193,-0.040,-0.040,-0.040,0.000,0.000,0.000
1641234836450237952,2022-01-03-18:33:56,10.1.1.9,193,-0.050,-0.050,-0.050,0.000,0.000,0.000
1641234836846586880,2022-01-03-18:33:56,10.1.1.9,184,-0.070,-0.070,-0.070,0.000,0.000,0.000
1641234837045671936,2022-01-03-18:33:57,10.1.1.9,185,-0.080,-0.080,-0.080,0.000,0.000,0.000
1641234837245469184,2022-01-03-18:33:57,10.1.1.9,184,-0.090,-0.090,-0.090,0.000,0.000,0.000
1641234837445998848,2022-01-03-18:33:57,10.1.1.9,183,-0.100,-0.100,-0.100,0.000,0.000,0.000
1641234837645460992,2022-01-03-18:33:57,10.1.1.9,179,-0.110,-0.110,-0.110,0.000,0.000,0.000
1641234837849046016,2022-01-03-18:33:57,10.1.1.9,182,-0.120,-0.120,-0.120,0.000,0.000,0.000
1641234838042701056,2022-01-03-18:33:58,10.1.1.9,172,-0.130,-0.130,-0.130,0.000,0.000,0.000
1641234838242435840,2022-01-03-18:33:58,10.1.1.9,171,-0.140,-0.140,-0.140,0.000,0.000,0.000
1641234838442443008,2022-01-03-18:33:58,10.1.1.9,171,-0.150,-0.150,-0.150,0.000,0.000,0.000
1641234838660638976,2022-01-03-18:33:58,10.1.1.9,172,-0.160,-0.160,-0.160,0.000,0.000,0.000
1641234838869344000,2022-01-03-18:33:58,10.1.1.9,191,-0.170,-0.170,-0.170,0.000,0.000,0.000
1641234839068242176,2022-01-03-18:33:59,10.1.1.9,176,-0.180,-0.180,-0.180,0.000,0.000,0.000
1641234839261157120,2022-01-03-18:33:59,10.1.1.9,168,-0.190,-0.190,-0.190,0.000,0.000,0.000
1641234839482176000,2022-01-03-18:33:59,10.1.1.9,184,-0.200,-0.200,-0.200,0.000,0.000,0.000
1641234839681106944,2022-01-03-18:33:59,10.1.1.9,182,-0.210,-0.210,-0.210,0.000,0.000,0.000
1641234839881673984,2022-01-03-18:33:59,10.1.1.9,181,-0.220,-0.220,-0.220,0.000,0.000,0.000
1641234840300740864,2022-01-03-18:34:00,10.1.1.9,171,-0.240,-0.240,-0.240,0.000,0.000,0.000
1641234840504219904,2022-01-03-18:34:00,10.1.1.9,174,-0.250,-0.250,-0.250,0.000,0.000,0.000
1641234840721782016,2022-01-03-18:34:00,10.1.1.9,191,-0.260,-0.260,-0.260,0.000,0.000,0.000
1641234840899749120,2022-01-03-18:34:00,10.1.1.9,169,-0.270,-0.270,-0.270,0.000,0.000,0.000
1641234841103400960,2022-01-03-18:34:01,10.1.1.9,170,-0.280,-0.280,-0.280,0.000,0.000,0.000
1641234841303004928,2022-01-03-18:34:01,10.1.1.9,169,-0.290,-0.290,-0.290,0.000,0.000,0.000
1641234841526430976,2022-01-03-18:34:01,10.1.1.9,190,-0.300,-0.300,-0.300,0.000,0.000,0.000
1641234841718614016,2022-01-03-18:34:01,10.1.1.9,181,-0.310,-0.310,-0.310,0.000,0.000,0.000
1641234841919059968,2022-01-03-18:34:01,10.1.1.9,181,-0.320,-0.320,-0.320,0.000,0.000,0.000
1641234842120781056,2022-01-03-18:34:02,10.1.1.9,182,-0.330,-0.330,-0.330,0.000,0.000,0.000
1641234842320865024,2022-01-03-18:34:02,10.1.1.9,181,-0.340,-0.340,-0.340,0.000,0.000,0.000
1641234842740914944,2022-01-03-18:34:02,10.1.1.9,163,-0.360,-0.360,-0.360,0.000,0.000,0.000
1641234842939614976,2022-01-03-18:34:02,10.1.1.9,164,-0.370,-0.370,-0.370,0.000,0.000,0.000
1641234843137455104,2022-01-03-18:34:03,10.1.1.9,161,-0.380,-0.380,-0.380,0.000,0.000,0.000
1641234843360552192,2022-01-03-18:34:03,10.1.1.9,183,-0.390,-0.390,-0.390,0.000,0.000,0.000
1641234843558691072,2022-01-03-18:34:03,10.1.1.9,181,-0.400,-0.400,-0.400,0.000,0.000,0.000
1641234843756800000,2022-01-03-18:34:03,10.1.1.9,178,-0.410,-0.410,-0.410,0.000,0.000,0.000
1641234843956875008,2022-01-03-18:34:03,10.1.1.9,177,-0.420,-0.420,-0.420,0.000,0.000,0.000
1641234844156961024,2022-01-03-18:34:04,10.1.1.9,176,-0.430,-0.430,-0.430,0.000,0.000,0.000
1641234844356318976,2022-01-03-18:34:04,10.1.1.9,172,-0.440,-0.440,-0.440,0.000,0.000,0.000
1641234844556076032,2022-01-03-18:34:04,10.1.1.9,171,-0.450,-0.450,-0.450,0.000,0.000,0.000
1641234844761571840,2022-01-03-18:34:04,10.1.1.9,175,-0.460,-0.460,-0.460,0.000,0.000,0.000
1641234844956058880,2022-01-03-18:34:04,10.1.1.9,166,-0.470,-0.470,-0.470,0.000,0.000,0.000
1641234845157910016,2022-01-03-18:34:05,10.1.1.9,167,-0.480,-0.480,-0.480,0.000,0.000,0.000
1641234845358074880,2022-01-03-18:34:05,10.1.1.9,166,-0.490,-0.490,-0.490,0.000,0.000,0.000
1641234845557869824,2022-01-03-18:34:05,10.1.1.9,165,-0.480,-0.480,-0.480,0.000,0.000,0.000
1641234845754214912,2022-01-03-18:34:05,10.1.1.9,160,-0.470,-0.470,-0.470,0.000,0.000,0.000
1641234846177581056,2022-01-03-18:34:06,10.1.1.9,178,-0.450,-0.450,-0.450,0.000,0.000,0.000
1641234846375838976,2022-01-03-18:34:06,10.1.1.9,175,-0.440,-0.440,-0.440,0.000,0.000,0.000
1641234846573687040,2022-01-03-18:34:06,10.1.1.9,173,-0.430,-0.430,-0.430,0.000,0.000,0.000
1641234846777638912,2022-01-03-18:34:06,10.1.1.9,176,-0.420,-0.420,-0.420,0.000,0.000,0.000
1641234846972673024,2022-01-03-18:34:06,10.1.1.9,170,-0.410,-0.410,-0.410,0.000,0.000,0.000
1641234847172210944,2022-01-03-18:34:07,10.1.1.9,167,-0.400,-0.400,-0.400,0.000,0.000,0.000
1641234847372551936,2022-01-03-18:34:07,10.1.1.9,165,-0.390,-0.390,-0.390,0.000,0.000,0.000
1641234847572495872,2022-01-03-18:34:07,10.1.1.9,164,-0.380,-0.380,-0.380,0.000,0.000,0.000
1641234847771426816,2022-01-03-18:34:07,10.1.1.9,162,-0.370,-0.370,-0.370,0.000,0.000,0.000
1641234847971936000,2022-01-03-18:34:07,10.1.1.9,162,-0.360,-0.360,-0.360,0.000,0.000,0.000
1641234848172683008,2022-01-03-18:34:08,10.1.1.9,162,-0.350,-0.350,-0.350,0.000,0.000,0.000
1641234848389789952,2022-01-03-18:34:08,10.1.1.9,178,-0.340,-0.340,-0.340,0.000,0.000,0.000
1641234848570513920,2022-01-03-18:34:08,10.1.1.9,158,-0.330,-0.330,-0.330,0.000,0.000,0.000
1641234848770657024,2022-01-03-18:34:08,10.1.1.9,157,-0.320,-0.320,-0.320,0.000,0.000,0.000
1641234848991341056,2022-01-03-18:34:08,10.1.1.9,172,-0.310,-0.310,-0.310,0.000,0.000,0.000
1641234849190808064,2022-01-03-18:34:09,10.1.1.9,161,-0.300,-0.300,-0.300,0.000,0.000,0.000
1641234849442241792,2022-01-03-18:34:09,10.1.1.9,-20,-0.290,-0.290,-0.290,0.000,0.000,0.000
1641234849808794112,2022-01-03-18:34:09,10.1.1.9,166,-0.270,-0.270,-0.270,0.000,0.000,0.000
1641234850008910848,2022-01-03-18:34:10,10.1.1.9,164,-0.260,-0.260,-0.260,0.000,0.000,0.000
1641234850208384000,2022-01-03-18:34:10,10.1.1.9,163,-0.250,-0.250,-0.250,0.000,0.000,0.000
1641234850408284928,2022-01-03-18:34:10,10.1.1.9,162,-0.240,-0.240,-0.240,0.000,0.000,0.000
1641234850608015104,2022-01-03-18:34:10,10.1.1.9,157,-0.230,-0.230,-0.230,0.000,0.000,0.000
1641234850808124928,2022-01-03-18:34:10,10.1.1.9,156,-0.220,-0.220,-0.220,0.000,0.000,0.000
1641234851008145152,2022-01-03-18:34:11,10.1.1.9,156,-0.210,-0.210,-0.210,0.000,0.000,0.000
1641234851209530112,2022-01-03-18:34:11,10.1.1.9,157,-0.200,-0.200,-0.200,0.000,0.000,0.000
1641234851410149120,2022-01-03-18:34:11,10.1.1.9,156,-0.190,-0.190,-0.190,0.000,0.000,0.000
1641234851866946048,2022-01-03-18:34:11,10.1.1.9,166,-0.170,-0.170,-0.170,0.000,0.000,0.000
1641234852068365056,2022-01-03-18:34:12,10.1.1.9,162,-0.160,-0.160,-0.160,0.000,0.000,0.000
1641234852266140928,2022-01-03-18:34:12,10.1.1.9,158,-0.150,-0.150,-0.150,0.000,0.000,0.000
1641234852465656064,2022-01-03-18:34:12,10.1.1.9,157,-0.140,-0.140,-0.140,0.000,0.000,0.000
1641234852665297920,2022-01-03-18:34:12,10.1.1.9,156,-0.130,-0.130,-0.130,0.000,0.000,0.000
1641234852867546112,2022-01-03-18:34:12,10.1.1.9,158,-0.120,-0.120,-0.120,0.000,0.000,0.000
1641234853064745984,2022-01-03-18:34:13,10.1.1.9,152,-0.110,-0.110,-0.110,0.000,0.000,0.000
1641234853264496128,2022-01-03-18:34:13,10.1.1.9,151,-0.100,-0.100,-0.100,0.000,0.000,0.000
1641234853464165888,2022-01-03-18:34:13,10.1.1.9,150,-0.090,-0.090,-0.090,0.000,0.000,0.000
1641234853686782976,2022-01-03-18:34:13,10.1.1.9,162,-0.080,-0.080,-0.080,0.000,0.000,0.000
1641234853883881216,2022-01-03-18:34:13,10.1.1.9,161,-0.070,-0.070,-0.070,0.000,0.000,0.000
1641234854084129024,2022-01-03-18:34:14,10.1.1.9,157,-0.060,-0.060,-0.060,0.000,0.000,0.000
1641234854302795776,2022-01-03-18:34:14,10.1.1.9,175,-0.050,-0.050,-0.050,0.000,0.000,0.000
1641234854482714880,2022-01-03-18:34:14,10.1.1.9,153,-0.040,-0.040,-0.040,0.000,0.000,0.000
1641234854682863104,2022-01-03-18:34:14,10.1.1.9,152,-0.030,-0.030,-0.030,0.000,0.000,0.000
1641234854882340864,2022-01-03-18:34:14,10.1.1.9,151,-0.020,-0.020,-0.020,0.000,0.000,0.000
1641234855116172032,2022-01-03-18:34:15,10.1.1.9,184,-0.010,-0.010,-0.010,0.000,0.000,0.000
1641234855283224064,2022-01-03-18:34:15,10.1.1.9,150,0.000,0.000,0.000,0.000,0.000,0.000
1641234855481872128,2022-01-03-18:34:15,10.1.1.9,148,-0.010,-0.010,-0.010,0.000,0.000,0.000
1641234855682043904,2022-01-03-18:34:15,10.1.1.9,146,-0.020,-0.020,-0.020,0.000,0.000,0.000
1641234856100950016,2022-01-03-18:34:16,10.1.1.9,163,-0.040,-0.040,-0.040,0.000,0.000,0.000
1641234856305409792,2022-01-03-18:34:16,10.1.1.9,167,-0.050,-0.050,-0.050,0.000,0.000,0.000
1641234856501071104,2022-01-03-18:34:16,10.1.1.9,162,-0.060,-0.060,-0.060,0.000,0.000,0.000
1641234856690798080,2022-01-03-18:34:16,10.1.1.9,150,-0.070,-0.070,-0.070,0.000,0.000,0.000
1641234856899288832,2022-01-03-18:34:16,10.1.1.9,158,-0.080,-0.080,-0.080,0.000,0.000,0.000
1641234857099934208,2022-01-03-18:34:17,10.1.1.9,158,-0.090,-0.090,-0.090,0.000,0.000,0.000
1641234857301195008,2022-01-03-18:34:17,10.1.1.9,158,-0.100,-0.100,-0.100,0.000,0.000,0.000
1641234857506740992,2022-01-03-18:34:17,10.1.1.9,157,-0.110,-0.110,-0.110,0.000,0.000,0.000
1641234857698070016,2022-01-03-18:34:17,10.1.1.9,152,-0.120,-0.120,-0.120,0.000,0.000,0.000
1641234857898860032,2022-01-03-18:34:17,10.1.1.9,151,-0.130,-0.130,-0.130,0.000,0.000,0.000
1641234858097726208,2022-01-03-18:34:18,10.1.1.9,149,-0.140,-0.140,-0.140,0.000,0.000,0.000
1641234858399152128,2022-01-03-18:34:18,10.1.1.9,149,-0.150,-0.150,-0.150,0.000,0.000,0.000
1641234858604787200,2022-01-03-18:34:18,10.1.1.9,155,-0.160,-0.160,-0.160,0.000,0.000,0.000
1641234858816131072,2022-01-03-18:34:18,10.1.1.9,164,-0.170,-0.170,-0.170,0.000,0.000,0.000
1641234858997314816,2022-01-03-18:34:18,10.1.1.9,144,-0.180,-0.180,-0.180,0.000,0.000,0.000
1641234859195795968,2022-01-03-18:34:19,10.1.1.9,142,-0.190,-0.190,-0.190,0.000,0.000,0.000
1641234859394987008,2022-01-03-18:34:19,10.1.1.9,141,-0.200,-0.200,-0.200,0.000,0.000,0.000
1641234859606360064,2022-01-03-18:34:19,10.1.1.9,151,-0.210,-0.210,-0.210,0.000,0.000,0.000
1641234859822144000,2022-01-03-18:34:19,10.1.1.9,161,-0.220,-0.220,-0.220,0.000,0.000,0.000
1641234860014792960,2022-01-03-18:34:20,10.1.1.9,141,-0.230,-0.230,-0.230,0.000,0.000,0.000
1641234860221378048,2022-01-03-18:34:20,10.1.1.9,146,-0.240,-0.240,-0.240,0.000,0.000,0.000
1641234860416684032,2022-01-03-18:34:20,10.1.1.9,141,-0.250,-0.250,-0.250,0.000,0.000,0.000
1641234860635955968,2022-01-03-18:34:20,10.1.1.9,152,-0.260,-0.260,-0.260,0.000,0.000,0.000
1641234860851119104,2022-01-03-18:34:20,10.1.1.9,167,-0.270,-0.270,-0.270,0.000,0.000,0.000
1641234861035621888,2022-01-03-18:34:21,10.1.1.9,150,-0.280,-0.280,-0.280,0.000,0.000,0.000
1641234861235243008,2022-01-03-18:34:21,10.1.1.9,149,-0.290,-0.290,-0.290,0.000,0.000,0.000
1641234861435013120,2022-01-03-18:34:21,10.1.1.9,148,-0.300,-0.300,-0.300,0.000,0.000,0.000
1641234861635348992,2022-01-03-18:34:21,10.1.1.9,145,-0.310,-0.310,-0.310,0.000,0.000,0.000
1641234862034413056,2022-01-03-18:34:22,10.1.1.9,138,-0.330,-0.330,-0.330,0.000,0.000,0.000
1641234862231074048,2022-01-03-18:34:22,10.1.1.9,137,-0.340,-0.340,-0.340,0.000,0.000,0.000
1641234862430816000,2022-01-03-18:34:22,10.1.1.9,135,-0.350,-0.350,-0.350,0.000,0.000,0.000
1641234862649872128,2022-01-03-18:34:22,10.1.1.9,147,-0.360,-0.360,-0.360,0.000,0.000,0.000
1641234862851409920,2022-01-03-18:34:22,10.1.1.9,137,-0.370,-0.370,-0.370,0.000,0.000,0.000
1641234863056049152,2022-01-03-18:34:23,10.1.1.9,140,-0.380,-0.380,-0.380,0.000,0.000,0.000
1641234863270350848,2022-01-03-18:34:23,10.1.1.9,152,-0.390,-0.390,-0.390,0.000,0.000,0.000
1641234863469765888,2022-01-03-18:34:23,10.1.1.9,151,-0.400,-0.400,-0.400,0.000,0.000,0.000
1641234863668313088,2022-01-03-18:34:23,10.1.1.9,149,-0.410,-0.410,-0.410,0.000,0.000,0.000
1641234863869925120,2022-01-03-18:34:23,10.1.1.9,150,-0.420,-0.420,-0.420,0.000,0.000,0.000
1641234864069078016,2022-01-03-18:34:24,10.1.1.9,148,-0.430,-0.430,-0.430,0.000,0.000,0.000
1641234864268508928,2022-01-03-18:34:24,10.1.1.9,144,-0.440,-0.440,-0.440,0.000,0.000,0.000
1641234864471007232,2022-01-03-18:34:24,10.1.1.9,141,-0.450,-0.450,-0.450,0.000,0.000,0.000
1641234864668963072,2022-01-03-18:34:24,10.1.1.9,137,-0.460,-0.460,-0.460,0.000,0.000,0.000
1641234864906225920,2022-01-03-18:34:24,10.1.1.9,164,-0.470,-0.470,-0.470,0.000,0.000,0.000
1641234865087393024,2022-01-03-18:34:25,10.1.1.9,143,-0.480,-0.480,-0.480,0.000,0.000,0.000
1641234865337726976,2022-01-03-18:34:25,10.1.1.9,186,-0.490,-0.490,-0.490,0.000,0.000,0.000
1641234865487601152,2022-01-03-18:34:25,10.1.1.9,133,-0.480,-0.480,-0.480,0.000,0.000,0.000
1641234865689240832,2022-01-03-18:34:25,10.1.1.9,134,-0.470,-0.470,-0.470,0.000,0.000,0.000
1641234865887661824,2022-01-03-18:34:25,10.1.1.9,132,-0.460,-0.460,-0.460,0.000,0.000,0.000
1641234866112869120,2022-01-03-18:34:26,10.1.1.9,151,-0.450,-0.450,-0.450,0.000,0.000,0.000
1641234866308015104,2022-01-03-18:34:26,10.1.1.9,150,-0.440,-0.440,-0.440,0.000,0.000,0.000
1641234866704163072,2022-01-03-18:34:26,10.1.1.9,142,-0.420,-0.420,-0.420,0.000,0.000,0.000
1641234866907561984,2022-01-03-18:34:26,10.1.1.9,135,-0.410,-0.410,-0.410,0.000,0.000,0.000
1641234867115011840,2022-01-03-18:34:27,10.1.1.9,138,-0.400,-0.400,-0.400,0.000,0.000,0.000
1641234867303979008,2022-01-03-18:34:27,10.1.1.9,128,-0.390,-0.390,-0.390,0.000,0.000,0.000
1641234867522243072,2022-01-03-18:34:27,10.1.1.9,139,-0.380,-0.380,-0.380,0.000,0.000,0.000
1641234867742105856,2022-01-03-18:34:27,10.1.1.9,143,-0.370,-0.370,-0.370,0.000,0.000,0.000
1641234867933495040,2022-01-03-18:34:27,10.1.1.9,133,-0.360,-0.360,-0.360,0.000,0.000,0.000
1641234868141742848,2022-01-03-18:34:28,10.1.1.9,141,-0.350,-0.350,-0.350,0.000,0.000,0.000
1641234868341239040,2022-01-03-18:34:28,10.1.1.9,140,-0.340,-0.340,-0.340,0.000,0.000,0.000
1641234868540824832,2022-01-03-18:34:28,10.1.1.9,138,-0.330,-0.330,-0.330,0.000,0.000,0.000
1641234868741988864,2022-01-03-18:34:28,10.1.1.9,138,-0.320,-0.320,-0.320,0.000,0.000,0.000
1641234868941064960,2022-01-03-18:34:28,10.1.1.9,136,-0.310,-0.310,-0.310,0.000,0.000,0.000
1641234869140824064,2022-01-03-18:34:29,10.1.1.9,135,-0.300,-0.300,-0.300,0.000,0.000,0.000
1641234869340300032,2022-01-03-18:34:29,10.1.1.9,134,-0.290,-0.290,-0.290,0.000,0.000,0.000
1641234869539709184,2022-01-03-18:34:29,10.1.1.9,132,-0.280,-0.280,-0.280,0.000,0.000,0.000
1641234869739293952,2022-01-03-18:34:29,10.1.1.9,131,-0.270,-0.270,-0.270,0.000,0.000,0.000
1641234870041829120,2022-01-03-18:34:30,10.1.1.9,131,-0.260,-0.260,-0.260,0.000,0.000,0.000
1641234870241300224,2022-01-03-18:34:30,10.1.1.9,129,-0.250,-0.250,-0.250,0.000,0.000,0.000
1641234870437769984,2022-01-03-18:34:30,10.1.1.9,124,-0.240,-0.240,-0.240,0.000,0.000,0.000
1641234870638842112,2022-01-03-18:34:30,10.1.1.9,124,-0.230,-0.230,-0.230,0.000,0.000,0.000
1641234870843910912,2022-01-03-18:34:30,10.1.1.9,129,-0.220,-0.220,-0.220,0.000,0.000,0.000
1641234871058150144,2022-01-03-18:34:31,10.1.1.9,141,-0.210,-0.210,-0.210,0.000,0.000,0.000
1641234871248004864,2022-01-03-18:34:31,10.1.1.9,128,-0.200,-0.200,-0.200,0.000,0.000,0.000
1641234871456280064,2022-01-03-18:34:31,10.1.1.9,135,-0.190,-0.190,-0.190,0.000,0.000,0.000
1641234871663700224,2022-01-03-18:34:31,10.1.1.9,141,-0.180,-0.180,-0.180,0.000,0.000,0.000
1641234871854450944,2022-01-03-18:34:31,10.1.1.9,128,-0.170,-0.170,-0.170,0.000,0.000,0.000
1641234872085622016,2022-01-03-18:34:32,10.1.1.9,154,-0.160,-0.160,-0.160,0.000,0.000,0.000
1641234872254957824,2022-01-03-18:34:32,10.1.1.9,122,-0.150,-0.150,-0.150,0.000,0.000,0.000
1641234872474765056,2022-01-03-18:34:32,10.1.1.9,137,-0.140,-0.140,-0.140,0.000,0.000,0.000
1641234872674274048,2022-01-03-18:34:32,10.1.1.9,136,-0.130,-0.130,-0.130,0.000,0.000,0.000
1641234872873692928,2022-01-03-18:34:32,10.1.1.9,134,-0.120,-0.120,-0.120,0.000,0.000,0.000
1641234873073692160,2022-01-03-18:34:33,10.1.1.9,133,-0.110,-0.110,-0.110,0.000,0.000,0.000
1641234873301634048,2022-01-03-18:34:33,10.1.1.9,160,-0.100,-0.100,-0.100,0.000,0.000,0.000
1641234873479089920,2022-01-03-18:34:33,10.1.1.9,135,-0.090,-0.090,-0.090,0.000,0.000,0.000
1641234873673691136,2022-01-03-18:34:33,10.1.1.9,123,-0.080,-0.080,-0.080,0.000,0.000,0.000
1641234873872217856,2022-01-03-18:34:33,10.1.1.9,120,-0.070,-0.070,-0.070,0.000,0.000,0.000
1641234874103374848,2022-01-03-18:34:34,10.1.1.9,141,-0.060,-0.060,-0.060,0.000,0.000,0.000
1641234874293809920,2022-01-03-18:34:34,10.1.1.9,130,-0.050,-0.050,-0.050,0.000,0.000,0.000
1641234874508007168,2022-01-03-18:34:34,10.1.1.9,137,-0.040,-0.040,-0.040,0.000,0.000,0.000
1641234874692744960,2022-01-03-18:34:34,10.1.1.9,120,-0.030,-0.030,-0.030,0.000,0.000,0.000
1641234874893616896,2022-01-03-18:34:34,10.1.1.9,118,-0.020,-0.020,-0.020,0.000,0.000,0.000
1641234875093666048,2022-01-03-18:34:35,10.1.1.9,119,-0.010,-0.010,-0.010,0.000,0.000,0.000
1641234875292022016,2022-01-03-18:34:35,10.1.1.9,117,0.000,0.000,0.000,0.000,0.000,0.000
1641234875545680896,2022-01-03-18:34:35,10.1.1.9,170,-0.010,-0.010,-0.010,0.000,0.000,0.000
1641234875709428992,2022-01-03-18:34:35,10.1.1.9,130,-0.020,-0.020,-0.020,0.000,0.000,0.000
1641234875914257920,2022-01-03-18:34:35,10.1.1.9,133,-0.030,-0.030,-0.030,0.000,0.000,0.000
1641234876135104000,2022-01-03-18:34:36,10.1.1.9,154,-0.040,-0.040,-0.040,0.000,0.000,0.000
1641234876312061952,2022-01-03-18:34:36,10.1.1.9,125,-0.050,-0.050,-0.050,0.000,0.000,0.000
1641234876510819840,2022-01-03-18:34:36,10.1.1.9,123,-0.060,-0.060,-0.060,0.000,0.000,0.000
1641234876762647040,2022-01-03-18:34:36,10.1.1.9,128,-0.070,-0.070,-0.070,0.000,0.000,0.000
1641234876970717952,2022-01-03-18:34:36,10.1.1.9,120,-0.080,-0.080,-0.080,0.000,0.000,0.000
1641234877167292160,2022-01-03-18:34:37,10.1.1.9,117,-0.090,-0.090,-0.090,0.000,0.000,0.000
1641234877367052032,2022-01-03-18:34:37,10.1.1.9,116,-0.100,-0.100,-0.100,0.000,0.000,0.000
1641234877566904064,2022-01-03-18:34:37,10.1.1.9,114,-0.110,-0.110,-0.110,0.000,0.000,0.000
1641234877766568960,2022-01-03-18:34:37,10.1.1.9,113,-0.120,-0.120,-0.120,0.000,0.000,0.000
1641234877965698048,2022-01-03-18:34:37,10.1.1.9,111,-0.130,-0.130,-0.130,0.000,0.000,0.000
1641234878164736000,2022-01-03-18:34:38,10.1.1.9,109,-0.140,-0.140,-0.140,0.000,0.000,0.000
1641234878364327936,2022-01-03-18:34:38,10.1.1.9,108,-0.150,-0.150,-0.150,0.000,0.000,0.000
1641234878588795904,2022-01-03-18:34:38,10.1.1.9,130,-0.160,-0.160,-0.160,0.000,0.000,0.000
1641234878793540096,2022-01-03-18:34:38,10.1.1.9,133,-0.170,-0.170,-0.170,0.000,0.000,0.000
1641234879006934784,2022-01-03-18:34:39,10.1.1.9,146,-0.180,-0.180,-0.180,0.000,0.000,0.000
1641234879203360000,2022-01-03-18:34:39,10.1.1.9,125,-0.190,-0.190,-0.190,0.000,0.000,0.000
1641234879405067008,2022-01-03-18:34:39,10.1.1.9,121,-0.200,-0.200,-0.200,0.000,0.000,0.000
1641234879606232832,2022-01-03-18:34:39,10.1.1.9,117,-0.210,-0.210,-0.210,0.000,0.000,0.000
1641234879802764032,2022-01-03-18:34:39,10.1.1.9,113,-0.220,-0.220,-0.220,0.000,0.000,0.000
1641234880027950080,2022-01-03-18:34:40,10.1.1.9,137,-0.230,-0.230,-0.230,0.000,0.000,0.000
1641234880222799104,2022-01-03-18:34:40,10.1.1.9,117,-0.240,-0.240,-0.240,0.000,0.000,0.000
1641234880428179968,2022-01-03-18:34:40,10.1.1.9,116,-0.250,-0.250,-0.250,0.000,0.000,0.000
1641234880624603904,2022-01-03-18:34:40,10.1.1.9,115,-0.260,-0.260,-0.260,0.000,0.000,0.000
1641234880884328960,2022-01-03-18:34:40,10.1.1.9,161,-0.270,-0.270,-0.270,0.000,0.000,0.000
1641234881042597120,2022-01-03-18:34:41,10.1.1.9,112,-0.280,-0.280,-0.280,0.000,0.000,0.000
1641234881250281984,2022-01-03-18:34:41,10.1.1.9,119,-0.290,-0.290,-0.290,0.000,0.000,0.000
1641234881441394944,2022-01-03-18:34:41,10.1.1.9,109,-0.300,-0.300,-0.300,0.000,0.000,0.000
1641234881640816896,2022-01-03-18:34:41,10.1.1.9,106,-0.310,-0.310,-0.310,0.000,0.000,0.000
1641234881840578048,2022-01-03-18:34:41,10.1.1.9,104,-0.320,-0.320,-0.320,0.000,0.000,0.000
1641234882060185856,2022-01-03-18:34:42,10.1.1.9,123,-0.330,-0.330,-0.330,0.000,0.000,0.000
1641234882268033024,2022-01-03-18:34:42,10.1.1.9,128,-0.340,-0.340,-0.340,0.000,0.000,0.000
1641234882458526976,2022-01-03-18:34:42,10.1.1.9,112,-0.350,-0.350,-0.350,0.000,0.000,0.000
1641234882658309888,2022-01-03-18:34:42,10.1.1.9,111,-0.360,-0.360,-0.360,0.000,0.000,0.000
1641234882858746112,2022-01-03-18:34:42,10.1.1.9,111,-0.370,-0.370,-0.370,0.000,0.000,0.000
1641234883061289984,2022-01-03-18:34:43,10.1.1.9,112,-0.380,-0.380,-0.380,0.000,0.000,0.000
1641234883257623040,2022-01-03-18:34:43,10.1.1.9,107,-0.390,-0.390,-0.390,0.000,0.000,0.000
1641234883548620032,2022-01-03-18:34:43,10.1.1.9,159,-0.400,-0.400,-0.400,0.000,0.000,0.000
1641234883680097024,2022-01-03-18:34:43,10.1.1.9,122,-0.410,-0.410,-0.410,0.000,0.000,0.000
1641234883880600832,2022-01-03-18:34:43,10.1.1.9,119,-0.420,-0.420,-0.420,0.000,0.000,0.000
1641234884078244096,2022-01-03-18:34:44,10.1.1.9,114,-0.430,-0.430,-0.430,0.000,0.000,0.000
1641234884279727872,2022-01-03-18:34:44,10.1.1.9,113,-0.440,-0.440,-0.440,0.000,0.000,0.000
1641234884482978048,2022-01-03-18:34:44,10.1.1.9,115,-0.450,-0.450,-0.450,0.000,0.000,0.000
1641234884705454080,2022-01-03-18:34:44,10.1.1.9,127,-0.460,-0.460,-0.460,0.000,0.000,0.000
1641234884901346048,2022-01-03-18:34:44,10.1.1.9,113,-0.470,-0.470,-0.470,0.000,0.000,0.000
1641234885103686144,2022-01-03-18:34:45,10.1.1.9,107,-0.480,-0.480,-0.480,0.000,0.000,0.000
1641234885371426048,2022-01-03-18:34:45,10.1.1.9,148,-0.490,-0.490,-0.490,0.000,0.000,0.000
1641234885543529984,2022-01-03-18:34:45,10.1.1.9,123,-0.480,-0.480,-0.480,0.000,0.000,0.000
1641234885777499904,2022-01-03-18:34:45,10.1.1.9,156,-0.470,-0.470,-0.470,0.000,0.000,0.000
1641234885945091840,2022-01-03-18:34:45,10.1.1.9,122,-0.460,-0.460,-0.460,0.000,0.000,0.000
1641234886145873152,2022-01-03-18:34:46,10.1.1.9,123,-0.450,-0.450,-0.450,0.000,0.000,0.000
1641234886349520896,2022-01-03-18:34:46,10.1.1.9,125,-0.440,-0.440,-0.440,0.000,0.000,0.000
1641234886548024832,2022-01-03-18:34:46,10.1.1.9,123,-0.430,-0.430,-0.430,0.000,0.000,0.000
1641234886748532992,2022-01-03-18:34:46,10.1.1.9,123,-0.420,-0.420,-0.420,0.000,0.000,0.000
1641234886950222848,2022-01-03-18:34:46,10.1.1.9,123,-0.410,-0.410,-0.410,0.000,0.000,0.000
1641234887170414848,2022-01-03-18:34:47,10.1.1.9,140,-0.400,-0.400,-0.400,0.000,0.000,0.000
1641234887354490112,2022-01-03-18:34:47,10.1.1.9,122,-0.390,-0.390,-0.390,0.000,0.000,0.000
1641234887554259968,2022-01-03-18:34:47,10.1.1.9,121,-0.380,-0.380,-0.380,0.000,0.000,0.000
1641234887773484032,2022-01-03-18:34:47,10.1.1.9,136,-0.370,-0.370,-0.370,0.000,0.000,0.000
1641234888058886144,2022-01-03-18:34:48,10.1.1.9,221,-0.360,-0.360,-0.360,0.000,0.000,0.000
1641234888196690944,2022-01-03-18:34:48,10.1.1.9,129,-0.350,-0.350,-0.350,0.000,0.000,0.000
1641234888397444096,2022-01-03-18:34:48,10.1.1.9,127,-0.340,-0.340,-0.340,0.000,0.000,0.000
1641234888617808128,2022-01-03-18:34:48,10.1.1.9,146,-0.330,-0.330,-0.330,0.000,0.000,0.000
1641234888800393984,2022-01-03-18:34:48,10.1.1.9,126,-0.320,-0.320,-0.320,0.000,0.000,0.000
1641234889000793088,2022-01-03-18:34:48,10.1.1.9,124,-0.310,-0.310,-0.310,0.000,0.000,0.000
1641234889299267072,2022-01-03-18:34:49,10.1.1.9,128,-0.300,-0.300,-0.300,0.000,0.000,0.000
1641234889502624000,2022-01-03-18:34:49,10.1.1.9,130,-0.290,-0.290,-0.290,0.000,0.000,0.000
1641234889736099840,2022-01-03-18:34:49,10.1.1.9,161,-0.280,-0.280,-0.280,0.000,0.000,0.000
1641234889926816000,2022-01-03-18:34:49,10.1.1.9,149,-0.270,-0.270,-0.270,0.000,0.000,0.000
1641234890129508864,2022-01-03-18:34:50,10.1.1.9,150,-0.260,-0.260,-0.260,0.000,0.000,0.000
1641234890322946048,2022-01-03-18:34:50,10.1.1.9,138,-0.250,-0.250,-0.250,0.000,0.000,0.000
1641234890526196992,2022-01-03-18:34:50,10.1.1.9,140,-0.240,-0.240,-0.240,0.000,0.000,0.000
1641234890723268096,2022-01-03-18:34:50,10.1.1.9,137,-0.230,-0.230,-0.230,0.000,0.000,0.000
1641234890925744128,2022-01-03-18:34:50,10.1.1.9,138,-0.220,-0.220,-0.220,0.000,0.000,0.000
1641234891124457984,2022-01-03-18:34:51,10.1.1.9,135,-0.210,-0.210,-0.210,0.000,0.000,0.000
1641234891363277824,2022-01-03-18:34:51,10.1.1.9,173,-0.200,-0.200,-0.200,0.000,0.000,0.000
1641234891545342976,2022-01-03-18:34:51,10.1.1.9,144,-0.190,-0.190,-0.190,0.000,0.000,0.000
1641234891747200000,2022-01-03-18:34:51,10.1.1.9,133,-0.180,-0.180,-0.180,0.000,0.000,0.000
1641234891967261952,2022-01-03-18:34:51,10.1.1.9,153,-0.170,-0.170,-0.170,0.000,0.000,0.000
1641234892203059968,2022-01-03-18:34:52,10.1.1.9,185,-0.160,-0.160,-0.160,0.000,0.000,0.000
1641234892368925184,2022-01-03-18:34:52,10.1.1.9,147,-0.150,-0.150,-0.150,0.000,0.000,0.000
1641234892609425152,2022-01-03-18:34:52,10.1.1.9,149,-0.140,-0.140,-0.140,0.000,0.000,0.000
1641234892831526912,2022-01-03-18:34:52,10.1.1.9,145,-0.130,-0.130,-0.130,0.000,0.000,0.000
1641234893031470080,2022-01-03-18:34:53,10.1.1.9,141,-0.120,-0.120,-0.120,0.000,0.000,0.000
1641234893229316864,2022-01-03-18:34:53,10.1.1.9,138,-0.110,-0.110,-0.110,0.000,0.000,0.000
1641234893431312128,2022-01-03-18:34:53,10.1.1.9,139,-0.100,-0.100,-0.100,0.000,0.000,0.000
1641234893862489856,2022-01-03-18:34:53,10.1.1.9,141,-0.080,-0.080,-0.080,0.000,0.000,0.000
1641234894077920000,2022-01-03-18:34:54,10.1.1.9,156,-0.070,-0.070,-0.070,0.000,0.000,0.000
1641234894282146048,2022-01-03-18:34:54,10.1.1.9,159,-0.060,-0.060,-0.060,0.000,0.000,0.000
1641234894478418944,2022-01-03-18:34:54,10.1.1.9,151,-0.050,-0.050,-0.050,0.000,0.000,0.000
1641234894676099072,2022-01-03-18:34:54,10.1.1.9,144,-0.040,-0.040,-0.040,0.000,0.000,0.000
1641234894893683968,2022-01-03-18:34:54,10.1.1.9,164,-0.030,-0.030,-0.030,0.000,0.000,0.000
1641234895074452992,2022-01-03-18:34:55,10.1.1.9,145,-0.020,-0.020,-0.020,0.000,0.000,0.000
1641234895286000896,2022-01-03-18:34:55,10.1.1.9,155,-0.010,-0.010,-0.010,0.000,0.000,0.000
1641234895474659072,2022-01-03-18:34:55,10.1.1.9,143,0.000,0.000,0.000,0.000,0.000,0.000
1641234895674248960,2022-01-03-18:34:55,10.1.1.9,142,-0.010,-0.010,-0.010,0.000,0.000,0.000
1641234895926452992,2022-01-03-18:34:55,10.1.1.9,194,-0.020,-0.020,-0.020,0.000,0.000,0.000
1641234896148997120,2022-01-03-18:34:56,10.1.1.9,154,-0.030,-0.030,-0.030,0.000,0.000,0.000
1641234896366426880,2022-01-03-18:34:56,10.1.1.9,156,-0.040,-0.040,-0.040,0.000,0.000,0.000
1641234896571449088,2022-01-03-18:34:56,10.1.1.9,161,-0.050,-0.050,-0.050,0.000,0.000,0.000
1641234896766948096,2022-01-03-18:34:56,10.1.1.9,146,-0.060,-0.060,-0.060,0.000,0.000,0.000
1641234896957530112,2022-01-03-18:34:56,10.1.1.9,142,-0.070,-0.070,-0.070,0.000,0.000,0.000
1641234897177318144,2022-01-03-18:34:57,10.1.1.9,148,-0.080,-0.080,-0.080,0.000,0.000,0.000
1641234897377917952,2022-01-03-18:34:57,10.1.1.9,148,-0.090,-0.090,-0.090,0.000,0.000,0.000
1641234897577979136,2022-01-03-18:34:57,10.1.1.9,147,-0.100,-0.100,-0.100,0.000,0.000,0.000
1641234897797913088,2022-01-03-18:34:57,10.1.1.9,166,-0.110,-0.110,-0.110,0.000,0.000,0.000
1641234897977783040,2022-01-03-18:34:57,10.1.1.9,143,-0.120,-0.120,-0.120,0.000,0.000,0.000
1641234898186252032,2022-01-03-18:34:58,10.1.1.9,151,-0.130,-0.130,-0.130,0.000,0.000,0.000
1641234898498960896,2022-01-03-18:34:58,10.1.1.9,154,-0.140,-0.140,-0.140,0.000,0.000,0.000
1641234898698905088,2022-01-03-18:34:58,10.1.1.9,153,-0.150,-0.150,-0.150,0.000,0.000,0.000
1641234898898676992,2022-01-03-18:34:58,10.1.1.9,153,-0.160,-0.160,-0.160,0.000,0.000,0.000
1641234899101367040,2022-01-03-18:34:59,10.1.1.9,155,-0.170,-0.170,-0.170,0.000,0.000,0.000
1641234899298576128,2022-01-03-18:34:59,10.1.1.9,150,-0.180,-0.180,-0.180,0.000,0.000,0.000
1641234899501692160,2022-01-03-18:34:59,10.1.1.9,149,-0.190,-0.190,-0.190,0.000,0.000,0.000
1641234899700244992,2022-01-03-18:34:59,10.1.1.9,149,-0.200,-0.200,-0.200,0.000,0.000,0.000
1641234899900909824,2022-01-03-18:34:59,10.1.1.9,150,-0.210,-0.210,-0.210,0.000,0.000,0.000
1641234900100776960,2022-01-03-18:35:00,10.1.1.9,149,-0.220,-0.220,-0.220,0.000,0.000,0.000
1641234900300144896,2022-01-03-18:35:00,10.1.1.9,148,-0.230,-0.230,-0.230,0.000,0.000,0.000
1641234900501456128,2022-01-03-18:35:00,10.1.1.9,149,-0.240,-0.240,-0.240,0.000,0.000,0.000
1641234900705646080,2022-01-03-18:35:00,10.1.1.9,152,-0.250,-0.250,-0.250,0.000,0.000,0.000
1641234900901021952,2022-01-03-18:35:00,10.1.1.9,146,-0.260,-0.260,-0.260,0.000,0.000,0.000
1641234901104200960,2022-01-03-18:35:01,10.1.1.9,149,-0.270,-0.270,-0.270,0.000,0.000,0.000
1641234901306881024,2022-01-03-18:35:01,10.1.1.9,150,-0.280,-0.280,-0.280,0.000,0.000,0.000
1641234901522528000,2022-01-03-18:35:01,10.1.1.9,162,-0.290,-0.290,-0.290,0.000,0.000,0.000
1641234901725480192,2022-01-03-18:35:01,10.1.1.9,163,-0.300,-0.300,-0.300,0.000,0.000,0.000
1641234901925720832,2022-01-03-18:35:01,10.1.1.9,160,-0.310,-0.310,-0.310,0.000,0.000,0.000
1641234902129949184,2022-01-03-18:35:02,10.1.1.9,164,-0.320,-0.320,-0.320,0.000,0.000,0.000
1641234902326739200,2022-01-03-18:35:02,10.1.1.9,160,-0.330,-0.330,-0.330,0.000,0.000,0.000
1641234902523891968,2022-01-03-18:35:02,10.1.1.9,155,-0.340,-0.340,-0.340,0.000,0.000,0.000
1641234902722057216,2022-01-03-18:35:02,10.1.1.9,152,-0.350,-0.350,-0.350,0.000,0.000,0.000
1641234902926038016,2022-01-03-18:35:02,10.1.1.9,154,-0.360,-0.360,-0.360,0.000,0.000,0.000
1641234903143121920,2022-01-03-18:35:03,10.1.1.9,160,-0.370,-0.370,-0.370,0.000,0.000,0.000
1641234903346724096,2022-01-03-18:35:03,10.1.1.9,162,-0.380,-0.380,-0.380,0.000,0.000,0.000
1641234903742362880,2022-01-03-18:35:03,10.1.1.9,155,-0.400,-0.400,-0.400,0.000,0.000,0.000
1641234903957907968,2022-01-03-18:35:03,10.1.1.9,170,-0.410,-0.410,-0.410,0.000,0.000,0.000
1641234904143821056,2022-01-03-18:35:04,10.1.1.9,148,-0.420,-0.420,-0.420,0.000,0.000,0.000
1641234904390525184,2022-01-03-18:35:04,10.1.1.9,166,-0.430,-0.430,-0.430,0.000,0.000,0.000
1641234904581935872,2022-01-03-18:35:04,10.1.1.9,156,-0.440,-0.440,-0.440,0.000,0.000,0.000
1641234904782202880,2022-01-03-18:35:04,10.1.1.9,153,-0.450,-0.450,-0.450,0.000,0.000,0.000
1641234904982259968,2022-01-03-18:35:04,10.1.1.9,152,-0.460,-0.460,-0.460,0.000,0.000,0.000
1641234905189594880,2022-01-03-18:35:05,10.1.1.9,159,-0.470,-0.470,-0.470,0.000,0.000,0.000
1641234905382244096,2022-01-03-18:35:05,10.1.1.9,150,-0.480,-0.480,-0.480,0.000,0.000,0.000
1641234905587051008,2022-01-03-18:35:05,10.1.1.9,151,-0.490,-0.490,-0.490,0.000,0.000,0.000
1641234905782007040,2022-01-03-18:35:05,10.1.1.9,148,-0.480,-0.480,-0.480,0.000,0.000,0.000
1641234905985677056,2022-01-03-18:35:05,10.1.1.9,147,-0.470,-0.470,-0.470,0.000,0.000,0.000
1641234906182033920,2022-01-03-18:35:06,10.1.1.9,146,-0.460,-0.460,-0.460,0.000,0.000,0.000
1641234906448084224,2022-01-03-18:35:06,10.1.1.9,164,-0.450,-0.450,-0.450,0.000,0.000,0.000
1641234906650528000,2022-01-03-18:35:06,10.1.1.9,150,-0.440,-0.440,-0.440,0.000,0.000,0.000
1641234906867976960,2022-01-03-18:35:06,10.1.1.9,171,-0.430,-0.430,-0.430,0.000,0.000,0.000
1641234907070457856,2022-01-03-18:35:07,10.1.1.9,173,-0.420,-0.420,-0.420,0.000,0.000,0.000
1641234907270957056,2022-01-03-18:35:07,10.1.1.9,166,-0.410,-0.410,-0.410,0.000,0.000,0.000
1641234907498372096,2022-01-03-18:35:07,10.1.1.9,199,-0.400,-0.400,-0.400,0.000,0.000,0.000
1641234907688450048,2022-01-03-18:35:07,10.1.1.9,169,-0.390,-0.390,-0.390,0.000,0.000,0.000
1641234907888886016,2022-01-03-18:35:07,10.1.1.9,168,-0.380,-0.380,-0.380,0.000,0.000,0.000
1641234908117261824,2022-01-03-18:35:08,10.1.1.9,196,-0.370,-0.370,-0.370,0.000,0.000,0.000
1641234908282030080,2022-01-03-18:35:08,10.1.1.9,160,-0.360,-0.360,-0.360,0.000,0.000,0.000
1641234908482491904,2022-01-03-18:35:08,10.1.1.9,159,-0.350,-0.350,-0.350,0.000,0.000,0.000
1641234908697293056,2022-01-03-18:35:08,10.1.1.9,170,-0.340,-0.340,-0.340,0.000,0.000,0.000
1641234908882198016,2022-01-03-18:35:08,10.1.1.9,155,-0.330,-0.330,-0.330,0.000,0.000,0.000
1641234909081690112,2022-01-03-18:35:09,10.1.1.9,153,-0.320,-0.320,-0.320,0.000,0.000,0.000
1641234909281285120,2022-01-03-18:35:09,10.1.1.9,152,-0.310,-0.310,-0.310,0.000,0.000,0.000
1641234909481123840,2022-01-03-18:35:09,10.1.1.9,150,-0.300,-0.300,-0.300,0.000,0.000,0.000
1641234909684616960,2022-01-03-18:35:09,10.1.1.9,153,-0.290,-0.290,-0.290,0.000,0.000,0.000
1641234909904645888,2022-01-03-18:35:09,10.1.1.9,172,-0.280,-0.280,-0.280,0.000,0.000,0.000
1641234910086221056,2022-01-03-18:35:10,10.1.1.9,154,-0.270,-0.270,-0.270,0.000,0.000,0.000
1641234910283118080,2022-01-03-18:35:10,10.1.1.9,150,-0.260,-0.260,-0.260,0.000,0.000,0.000
1641234910482944000,2022-01-03-18:35:10,10.1.1.9,149,-0.250,-0.250,-0.250,0.000,0.000,0.000
1641234910700984064,2022-01-03-18:35:10,10.1.1.9,149,-0.240,-0.240,-0.240,0.000,0.000,0.000
1641234910924300800,2022-01-03-18:35:10,10.1.1.9,171,-0.230,-0.230,-0.230,0.000,0.000,0.000
1641234911121975040,2022-01-03-18:35:11,10.1.1.9,163,-0.220,-0.220,-0.220,0.000,0.000,0.000
1641234911325683200,2022-01-03-18:35:11,10.1.1.9,164,-0.210,-0.210,-0.210,0.000,0.000,0.000
1641234911521282816,2022-01-03-18:35:11,10.1.1.9,158,-0.200,-0.200,-0.200,0.000,0.000,0.000
1641234911726895104,2022-01-03-18:35:11,10.1.1.9,162,-0.190,-0.190,-0.190,0.000,0.000,0.000
1641234911923484928,2022-01-03-18:35:11,10.1.1.9,157,-0.180,-0.180,-0.180,0.000,0.000,0.000
1641234912122137088,2022-01-03-18:35:12,10.1.1.9,150,-0.170,-0.170,-0.170,0.000,0.000,0.000
1641234912321682944,2022-01-03-18:35:12,10.1.1.9,149,-0.160,-0.160,-0.160,0.000,0.000,0.000
1641234912521356032,2022-01-03-18:35:12,10.1.1.9,147,-0.150,-0.150,-0.150,0.000,0.000,0.000
1641234912722712064,2022-01-03-18:35:12,10.1.1.9,146,-0.140,-0.140,-0.140,0.000,0.000,0.000
1641234912943491072,2022-01-03-18:35:12,10.1.1.9,164,-0.130,-0.130,-0.130,0.000,0.000,0.000
1641234913145363200,2022-01-03-18:35:13,10.1.1.9,166,-0.120,-0.120,-0.120,0.000,0.000,0.000
1641234913340096000,2022-01-03-18:35:13,10.1.1.9,161,-0.110,-0.110,-0.110,0.000,0.000,0.000
1641234913545948928,2022-01-03-18:35:13,10.1.1.9,163,-0.100,-0.100,-0.100,0.000,0.000,0.000
1641234913741755136,2022-01-03-18:35:13,10.1.1.9,158,-0.090,-0.090,-0.090,0.000,0.000,0.000
1641234913939503872,2022-01-03-18:35:13,10.1.1.9,153,-0.080,-0.080,-0.080,0.000,0.000,0.000
1641234914140451072,2022-01-03-18:35:14,10.1.1.9,153,-0.070,-0.070,-0.070,0.000,0.000,0.000
1641234914339996160,2022-01-03-18:35:14,10.1.1.9,151,-0.060,-0.060,-0.060,0.000,0.000,0.000
1641234914539230976,2022-01-03-18:35:14,10.1.1.9,149,-0.050,-0.050,-0.050,0.000,0.000,0.000
1641234914738852096,2022-01-03-18:35:14,10.1.1.9,148,-0.040,-0.040,-0.040,0.000,0.000,0.000
1641234914940763904,2022-01-03-18:35:14,10.1.1.9,149,-0.030,-0.030,-0.030,0.000,0.000,0.000
1641234915157003008,2022-01-03-18:35:15,10.1.1.9,160,-0.020,-0.020,-0.020,0.000,0.000,0.000
1641234915358875136,2022-01-03-18:35:15,10.1.1.9,154,-0.010,-0.010,-0.010,0.000,0.000,0.000
1641234915579821056,2022-01-03-18:35:15,10.1.1.9,172,0.000,0.000,0.000,0.000,0.000,0.000
1641234915800630016,2022-01-03-18:35:15,10.1.1.9,161,-0.010,-0.010,-0.010,0.000,0.000,0.000
1641234916000796160,2022-01-03-18:35:16,10.1.1.9,160,-0.020,-0.020,-0.020,0.000,0.000,0.000
1641234916198542080,2022-01-03-18:35:16,10.1.1.9,157,-0.030,-0.030,-0.030,0.000,0.000,0.000
1641234916402426880,2022-01-03-18:35:16,10.1.1.9,160,-0.040,-0.040,-0.040,0.000,0.000,0.000
1641234916634010112,2022-01-03-18:35:16,10.1.1.9,191,-0.050,-0.050,-0.050,0.000,0.000,0.000
1641234916800886016,2022-01-03-18:35:16,10.1.1.9,147,-0.060,-0.060,-0.060,0.000,0.000,0.000
1641234917028918016,2022-01-03-18:35:17,10.1.1.9,162,-0.070,-0.070,-0.070,0.000,0.000,0.000
1641234917238960896,2022-01-03-18:35:17,10.1.1.9,176,-0.080,-0.080,-0.080,0.000,0.000,0.000
1641234917438172160,2022-01-03-18:35:17,10.1.1.9,158,-0.090,-0.090,-0.090,0.000,0.000,0.000
1641234917861955840,2022-01-03-18:35:17,10.1.1.9,156,-0.110,-0.110,-0.110,0.000,0.000,0.000
1641234918061870080,2022-01-03-18:35:18,10.1.1.9,151,-0.120,-0.120,-0.120,0.000,0.000,0.000
1641234918256413952,2022-01-03-18:35:18,10.1.1.9,146,-0.130,-0.130,-0.130,0.000,0.000,0.000
1641234918456904960,2022-01-03-18:35:18,10.1.1.9,140,-0.140,-0.140,-0.140,0.000,0.000,0.000
1641234918654889216,2022-01-03-18:35:18,10.1.1.9,140,-0.150,-0.150,-0.150,0.000,0.000,0.000
1641234918855066112,2022-01-03-18:35:18,10.1.1.9,139,-0.160,-0.160,-0.160,0.000,0.000,0.000
1641234919077815040,2022-01-03-18:35:19,10.1.1.9,157,-0.170,-0.170,-0.170,0.000,0.000,0.000
1641234919276731904,2022-01-03-18:35:19,10.1.1.9,152,-0.180,-0.180,-0.180,0.000,0.000,0.000
1641234919476026112,2022-01-03-18:35:19,10.1.1.9,150,-0.190,-0.190,-0.190,0.000,0.000,0.000
1641234919914628096,2022-01-03-18:35:19,10.1.1.9,152,-0.210,-0.210,-0.210,0.000,0.000,0.000
1641234920130479104,2022-01-03-18:35:20,10.1.1.9,166,-0.220,-0.220,-0.220,0.000,0.000,0.000
1641234920333692928,2022-01-03-18:35:20,10.1.1.9,150,-0.230,-0.230,-0.230,0.000,0.000,0.000
1641234920533797888,2022-01-03-18:35:20,10.1.1.9,138,-0.240,-0.240,-0.240,0.000,0.000,0.000
1641234920753387008,2022-01-03-18:35:20,10.1.1.9,156,-0.250,-0.250,-0.250,0.000,0.000,0.000
1641234920968830976,2022-01-03-18:35:20,10.1.1.9,171,-0.260,-0.260,-0.260,0.000,0.000,0.000
1641234921153364992,2022-01-03-18:35:21,10.1.1.9,155,-0.270,-0.270,-0.270,0.000,0.000,0.000
1641234921354883840,2022-01-03-18:35:21,10.1.1.9,149,-0.280,-0.280,-0.280,0.000,0.000,0.000
1641234921574374912,2022-01-03-18:35:21,10.1.1.9,144,-0.290,-0.290,-0.290,0.000,0.000,0.000
1641234921773658112,2022-01-03-18:35:21,10.1.1.9,142,-0.300,-0.300,-0.300,0.000,0.000,0.000
1641234921972057088,2022-01-03-18:35:21,10.1.1.9,140,-0.310,-0.310,-0.310,0.000,0.000,0.000
1641234922174204160,2022-01-03-18:35:22,10.1.1.9,140,-0.320,-0.320,-0.320,0.000,0.000,0.000
1641234922262372096,2022-01-03-18:35:22,10.1.1.9,-1,-0.320,-0.320,-0.320,0.000,0.000,0.000
1641234922611897856,2022-01-03-18:35:22,10.1.1.9,148,-0.340,-0.340,-0.340,0.000,0.000,0.000
1641234922819596032,2022-01-03-18:35:22,10.1.1.9,156,-0.350,-0.350,-0.350,0.000,0.000,0.000
1641234923013792000,2022-01-03-18:35:23,10.1.1.9,149,-0.360,-0.360,-0.360,0.000,0.000,0.000
1641234923211055104,2022-01-03-18:35:23,10.1.1.9,145,-0.370,-0.370,-0.370,0.000,0.000,0.000
1641234923410384896,2022-01-03-18:35:23,10.1.1.9,144,-0.380,-0.380,-0.380,0.000,0.000,0.000
1641234923610366976,2022-01-03-18:35:23,10.1.1.9,142,-0.390,-0.390,-0.390,0.000,0.000,0.000
1641234923813405952,2022-01-03-18:35:23,10.1.1.9,140,-0.400,-0.400,-0.400,0.000,0.000,0.000
1641234924016104960,2022-01-03-18:35:24,10.1.1.9,145,-0.410,-0.410,-0.410,0.000,0.000,0.000
1641234924277995008,2022-01-03-18:35:24,10.1.1.9,196,-0.420,-0.420,-0.420,0.000,0.000,0.000
1641234924432032000,2022-01-03-18:35:24,10.1.1.9,150,-0.430,-0.430,-0.430,0.000,0.000,0.000
1641234924667416064,2022-01-03-18:35:24,10.1.1.9,176,-0.440,-0.440,-0.440,0.000,0.000,0.000
1641234924819461120,2022-01-03-18:35:24,10.1.1.9,136,-0.450,-0.450,-0.450,0.000,0.000,0.000
1641234925028274944,2022-01-03-18:35:25,10.1.1.9,143,-0.460,-0.460,-0.460,0.000,0.000,0.000
1641234925228578048,2022-01-03-18:35:25,10.1.1.9,143,-0.470,-0.470,-0.470,0.000,0.000,0.000
1641234925429918976,2022-01-03-18:35:25,10.1.1.9,143,-0.480,-0.480,-0.480,0.000,0.000,0.000
1641234925627315968,2022-01-03-18:35:25,10.1.1.9,140,-0.490,-0.490,-0.490,0.000,0.000,0.000
1641234926050689024,2022-01-03-18:35:26,10.1.1.9,150,-0.470,-0.470,-0.470,0.000,0.000,0.000
1641234926255130880,2022-01-03-18:35:26,10.1.1.9,140,-0.460,-0.460,-0.460,0.000,0.000,0.000
1641234926446789888,2022-01-03-18:35:26,10.1.1.9,131,-0.450,-0.450,-0.450,0.000,0.000,0.000
1641234926678356992,2022-01-03-18:35:26,10.1.1.9,162,-0.440,-0.440,-0.440,0.000,0.000,0.000
1641234926853687040,2022-01-03-18:35:26,10.1.1.9,137,-0.430,-0.430,-0.430,0.000,0.000,0.000
1641234927092081152,2022-01-03-18:35:27,10.1.1.9,174,-0.420,-0.420,-0.420,0.000,0.000,0.000
1641234927261445888,2022-01-03-18:35:27,10.1.1.9,142,-0.410,-0.410,-0.410,0.000,0.000,0.000
1641234927469665024,2022-01-03-18:35:27,10.1.1.9,150,-0.400,-0.400,-0.400,0.000,0.000,0.000
1641234927664866816,2022-01-03-18:35:27,10.1.1.9,142,-0.390,-0.390,-0.390,0.000,0.000,0.000
1641234927864414976,2022-01-03-18:35:27,10.1.1.9,139,-0.380,-0.380,-0.380,0.000,0.000,0.000
1641234928064899072,2022-01-03-18:35:28,10.1.1.9,138,-0.370,-0.370,-0.370,0.000,0.000,0.000
1641234928306081024,2022-01-03-18:35:28,10.1.1.9,141,-0.360,-0.360,-0.360,0.000,0.000,0.000
1641234928523801088,2022-01-03-18:35:28,10.1.1.9,134,-0.350,-0.350,-0.350,0.000,0.000,0.000
1641234928723288064,2022-01-03-18:35:28,10.1.1.9,132,-0.340,-0.340,-0.340,0.000,0.000,0.000
1641234928976059904,2022-01-03-18:35:28,10.1.1.9,164,-0.330,-0.330,-0.330,0.000,0.000,0.000
1641234929143034880,2022-01-03-18:35:29,10.1.1.9,129,-0.320,-0.320,-0.320,0.000,0.000,0.000
1641234929362944000,2022-01-03-18:35:29,10.1.1.9,149,-0.310,-0.310,-0.310,0.000,0.000,0.000
1641234929565967104,2022-01-03-18:35:29,10.1.1.9,151,-0.300,-0.300,-0.300,0.000,0.000,0.000
1641234929744828928,2022-01-03-18:35:29,10.1.1.9,129,-0.290,-0.290,-0.290,0.000,0.000,0.000
1641234929963161856,2022-01-03-18:35:29,10.1.1.9,146,-0.280,-0.280,-0.280,0.000,0.000,0.000
1641234930161892864,2022-01-03-18:35:30,10.1.1.9,144,-0.270,-0.270,-0.270,0.000,0.000,0.000
1641234930408627968,2022-01-03-18:35:30,10.1.1.9,190,-0.260,-0.260,-0.260,0.000,0.000,0.000
1641234930561054976,2022-01-03-18:35:30,10.1.1.9,141,-0.250,-0.250,-0.250,0.000,0.000,0.000
1641234930763011072,2022-01-03-18:35:30,10.1.1.9,127,-0.240,-0.240,-0.240,0.000,0.000,0.000
1641234930997531904,2022-01-03-18:35:30,10.1.1.9,160,-0.230,-0.230,-0.230,0.000,0.000,0.000
1641234931195124992,2022-01-03-18:35:31,10.1.1.9,150,-0.220,-0.220,-0.220,0.000,0.000,0.000
1641234931380410880,2022-01-03-18:35:31,10.1.1.9,142,-0.210,-0.210,-0.210,0.000,0.000,0.000
1641234931580429056,2022-01-03-18:35:31,10.1.1.9,141,-0.200,-0.200,-0.200,0.000,0.000,0.000
1641234931781579008,2022-01-03-18:35:31,10.1.1.9,140,-0.190,-0.190,-0.190,0.000,0.000,0.000
1641234931984150784,2022-01-03-18:35:31,10.1.1.9,141,-0.180,-0.180,-0.180,0.000,0.000,0.000
1641234932182647040,2022-01-03-18:35:32,10.1.1.9,138,-0.170,-0.170,-0.170,0.000,0.000,0.000
1641234932381774848,2022-01-03-18:35:32,10.1.1.9,134,-0.160,-0.160,-0.160,0.000,0.000,0.000
1641234932818145024,2022-01-03-18:35:32,10.1.1.9,132,-0.140,-0.140,-0.140,0.000,0.000,0.000
1641234933017580032,2022-01-03-18:35:33,10.1.1.9,131,-0.130,-0.130,-0.130,0.000,0.000,0.000
1641234933220390144,2022-01-03-18:35:33,10.1.1.9,133,-0.120,-0.120,-0.120,0.000,0.000,0.000
1641234933429348864,2022-01-03-18:35:33,10.1.1.9,142,-0.110,-0.110,-0.110,0.000,0.000,0.000
1641234933616425984,2022-01-03-18:35:33,10.1.1.9,128,-0.100,-0.100,-0.100,0.000,0.000,0.000
1641234933840122112,2022-01-03-18:35:33,10.1.1.9,151,-0.090,-0.090,-0.090,0.000,0.000,0.000
1641234934018062080,2022-01-03-18:35:34,10.1.1.9,126,-0.080,-0.080,-0.080,0.000,0.000,0.000
1641234934224445952,2022-01-03-18:35:34,10.1.1.9,127,-0.070,-0.070,-0.070,0.000,0.000,0.000
1641234934417694976,2022-01-03-18:35:34,10.1.1.9,124,-0.060,-0.060,-0.060,0.000,0.000,0.000
1641234934624622080,2022-01-03-18:35:34,10.1.1.9,130,-0.050,-0.050,-0.050,0.000,0.000,0.000
1641234935073384960,2022-01-03-18:35:35,10.1.1.9,167,-0.030,-0.030,-0.030,0.000,0.000,0.000
1641234935235166976,2022-01-03-18:35:35,10.1.1.9,127,-0.020,-0.020,-0.020,0.000,0.000,0.000
1641234935435741952,2022-01-03-18:35:35,10.1.1.9,124,-0.010,-0.010,-0.010,0.000,0.000,0.000
1641234935669364992,2022-01-03-18:35:35,10.1.1.9,133,0.000,0.000,0.000,0.000,0.000,0.000
1641234935833395968,2022-01-03-18:35:35,10.1.1.9,117,-0.010,-0.010,-0.010,0.000,0.000,0.000
1641234936104537088,2022-01-03-18:35:36,10.1.1.9,168,-0.020,-0.020,-0.020,0.000,0.000,0.000
1641234936296765184,2022-01-03-18:35:36,10.1.1.9,131,-0.030,-0.030,-0.030,0.000,0.000,0.000
1641234936494061824,2022-01-03-18:35:36,10.1.1.9,123,-0.040,-0.040,-0.040,0.000,0.000,0.000
1641234936700414976,2022-01-03-18:35:36,10.1.1.9,129,-0.050,-0.050,-0.050,0.000,0.000,0.000
1641234936895969024,2022-01-03-18:35:36,10.1.1.9,122,-0.060,-0.060,-0.060,0.000,0.000,0.000
1641234937095331072,2022-01-03-18:35:37,10.1.1.9,120,-0.070,-0.070,-0.070,0.000,0.000,0.000
1641234937336913152,2022-01-03-18:35:37,10.1.1.9,129,-0.080,-0.080,-0.080,0.000,0.000,0.000
1641234937535535104,2022-01-03-18:35:37,10.1.1.9,125,-0.090,-0.090,-0.090,0.000,0.000,0.000
1641234937737426944,2022-01-03-18:35:37,10.1.1.9,127,-0.100,-0.100,-0.100,0.000,0.000,0.000
1641234937953932032,2022-01-03-18:35:37,10.1.1.9,118,-0.110,-0.110,-0.110,0.000,0.000,0.000
1641234938158107904,2022-01-03-18:35:38,10.1.1.9,115,-0.120,-0.120,-0.120,0.000,0.000,0.000
1641234938452738048,2022-01-03-18:35:38,10.1.1.9,203,-0.130,-0.130,-0.130,0.000,0.000,0.000
1641234938591483136,2022-01-03-18:35:38,10.1.1.9,119,-0.140,-0.140,-0.140,0.000,0.000,0.000
1641234938810676224,2022-01-03-18:35:38,10.1.1.9,132,-0.150,-0.150,-0.150,0.000,0.000,0.000
1641234939015099136,2022-01-03-18:35:39,10.1.1.9,136,-0.160,-0.160,-0.160,0.000,0.000,0.000
1641234939208896000,2022-01-03-18:35:39,10.1.1.9,129,-0.170,-0.170,-0.170,0.000,0.000,0.000
1641234939408237056,2022-01-03-18:35:39,10.1.1.9,128,-0.180,-0.180,-0.180,0.000,0.000,0.000
1641234939610363904,2022-01-03-18:35:39,10.1.1.9,116,-0.190,-0.190,-0.190,0.000,0.000,0.000
1641234939854018048,2022-01-03-18:35:39,10.1.1.9,129,-0.200,-0.200,-0.200,0.000,0.000,0.000
1641234940053373184,2022-01-03-18:35:40,10.1.1.9,127,-0.210,-0.210,-0.210,0.000,0.000,0.000
1641234940303759104,2022-01-03-18:35:40,10.1.1.9,157,-0.220,-0.220,-0.220,0.000,0.000,0.000
1641234940466451968,2022-01-03-18:35:40,10.1.1.9,117,-0.230,-0.230,-0.230,0.000,0.000,0.000
1641234940685060864,2022-01-03-18:35:40,10.1.1.9,135,-0.240,-0.240,-0.240,0.000,0.000,0.000
1641234940870664960,2022-01-03-18:35:40,10.1.1.9,117,-0.250,-0.250,-0.250,0.000,0.000,0.000
1641234941065644032,2022-01-03-18:35:41,10.1.1.9,112,-0.260,-0.260,-0.260,0.000,0.000,0.000
1641234941269324032,2022-01-03-18:35:41,10.1.1.9,115,-0.270,-0.270,-0.270,0.000,0.000,0.000
1641234941466792192,2022-01-03-18:35:41,10.1.1.9,112,-0.280,-0.280,-0.280,0.000,0.000,0.000
1641234941666299136,2022-01-03-18:35:41,10.1.1.9,111,-0.290,-0.290,-0.290,0.000,0.000,0.000
1641234941865101056,2022-01-03-18:35:41,10.1.1.9,109,-0.300,-0.300,-0.300,0.000,0.000,0.000
1641234942085697024,2022-01-03-18:35:42,10.1.1.9,129,-0.310,-0.310,-0.310,0.000,0.000,0.000
1641234942285346048,2022-01-03-18:35:42,10.1.1.9,128,-0.320,-0.320,-0.320,0.000,0.000,0.000
1641234942484092928,2022-01-03-18:35:42,10.1.1.9,126,-0.330,-0.330,-0.330,0.000,0.000,0.000
1641234942683712000,2022-01-03-18:35:42,10.1.1.9,124,-0.340,-0.340,-0.340,0.000,0.000,0.000
1641234942888257024,2022-01-03-18:35:42,10.1.1.9,127,-0.350,-0.350,-0.350,0.000,0.000,0.000
1641234943083789056,2022-01-03-18:35:43,10.1.1.9,111,-0.360,-0.360,-0.360,0.000,0.000,0.000
1641234943302212864,2022-01-03-18:35:43,10.1.1.9,129,-0.370,-0.370,-0.370,0.000,0.000,0.000
1641234943482582016,2022-01-03-18:35:43,10.1.1.9,109,-0.380,-0.380,-0.380,0.000,0.000,0.000
1641234943682670080,2022-01-03-18:35:43,10.1.1.9,109,-0.390,-0.390,-0.390,0.000,0.000,0.000
1641234943881658112,2022-01-03-18:35:43,10.1.1.9,107,-0.400,-0.400,-0.400,0.000,0.000,0.000
1641234944184345856,2022-01-03-18:35:44,10.1.1.9,197,-0.410,-0.410,-0.410,0.000,0.000,0.000
1641234944300592896,2022-01-03-18:35:44,10.1.1.9,113,-0.420,-0.420,-0.420,0.000,0.000,0.000
1641234944500686848,2022-01-03-18:35:44,10.1.1.9,113,-0.430,-0.430,-0.430,0.000,0.000,0.000
1641234944706876160,2022-01-03-18:35:44,10.1.1.9,118,-0.440,-0.440,-0.440,0.000,0.000,0.000
1641234944901114880,2022-01-03-18:35:44,10.1.1.9,112,-0.450,-0.450,-0.450,0.000,0.000,0.000
1641234945100637952,2022-01-03-18:35:45,10.1.1.9,111,-0.460,-0.460,-0.460,0.000,0.000,0.000
1641234945299980032,2022-01-03-18:35:45,10.1.1.9,108,-0.470,-0.470,-0.470,0.000,0.000,0.000
1641234945499496960,2022-01-03-18:35:45,10.1.1.9,107,-0.480,-0.480,-0.480,0.000,0.000,0.000
1641234945698438912,2022-01-03-18:35:45,10.1.1.9,106,-0.490,-0.490,-0.490,0.000,0.000,0.000
1641234945899055872,2022-01-03-18:35:45,10.1.1.9,104,-0.480,-0.480,-0.480,0.000,0.000,0.000
1641234946106980096,2022-01-03-18:35:46,10.1.1.9,111,-0.470,-0.470,-0.470,0.000,0.000,0.000
1641234946317811968,2022-01-03-18:35:46,10.1.1.9,121,-0.460,-0.460,-0.460,0.000,0.000,0.000
1641234946518364928,2022-01-03-18:35:46,10.1.1.9,120,-0.450,-0.450,-0.450,0.000,0.000,0.000
1641234946754558976,2022-01-03-18:35:46,10.1.1.9,126,-0.440,-0.440,-0.440,0.000,0.000,0.000
1641234946937369088,2022-01-03-18:35:46,10.1.1.9,104,-0.430,-0.430,-0.430,0.000,0.000,0.000
1641234947141371136,2022-01-03-18:35:47,10.1.1.9,107,-0.420,-0.420,-0.420,0.000,0.000,0.000
1641234947360409856,2022-01-03-18:35:47,10.1.1.9,124,-0.410,-0.410,-0.410,0.000,0.000,0.000
1641234947556806144,2022-01-03-18:35:47,10.1.1.9,119,-0.400,-0.400,-0.400,0.000,0.000,0.000
1641234947755009792,2022-01-03-18:35:47,10.1.1.9,117,-0.390,-0.390,-0.390,0.000,0.000,0.000
1641234947946593024,2022-01-03-18:35:47,10.1.1.9,108,-0.380,-0.380,-0.380,0.000,0.000,0.000
1641234948155922944,2022-01-03-18:35:48,10.1.1.9,117,-0.370,-0.370,-0.370,0.000,0.000,0.000
1641234948356948992,2022-01-03-18:35:48,10.1.1.9,117,-0.360,-0.360,-0.360,0.000,0.000,0.000
1641234948558100992,2022-01-03-18:35:48,10.1.1.9,117,-0.350,-0.350,-0.350,0.000,0.000,0.000
1641234948758940928,2022-01-03-18:35:48,10.1.1.9,118,-0.340,-0.340,-0.340,0.000,0.000,0.000
1641234948960156928,2022-01-03-18:35:48,10.1.1.9,118,-0.330,-0.330,-0.330,0.000,0.000,0.000
1641234949164414976,2022-01-03-18:35:49,10.1.1.9,121,-0.320,-0.320,-0.320,0.000,0.000,0.000
1641234949363389952,2022-01-03-18:35:49,10.1.1.9,120,-0.310,-0.310,-0.310,0.000,0.000,0.000
1641234949582408960,2022-01-03-18:35:49,10.1.1.9,138,-0.300,-0.300,-0.300,0.000,0.000,0.000
1641234949764291072,2022-01-03-18:35:49,10.1.1.9,119,-0.290,-0.290,-0.290,0.000,0.000,0.000
1641234949990020096,2022-01-03-18:35:49,10.1.1.9,142,-0.280,-0.280,-0.280,0.000,0.000,0.000
1641234950165731840,2022-01-03-18:35:50,10.1.1.9,113,-0.270,-0.270,-0.270,0.000,0.000,0.000
1641234950366362112,2022-01-03-18:35:50,10.1.1.9,113,-0.260,-0.260,-0.260,0.000,0.000,0.000
1641234950588766208,2022-01-03-18:35:50,10.1.1.9,134,-0.250,-0.250,-0.250,0.000,0.000,0.000
1641234950768770048,2022-01-03-18:35:50,10.1.1.9,113,-0.240,-0.240,-0.240,0.000,0.000,0.000
1641234950968936960,2022-01-03-18:35:50,10.1.1.9,113,-0.230,-0.230,-0.230,0.000,0.000,0.000
1641234951220343040,2022-01-03-18:35:51,10.1.1.9,163,-0.220,-0.220,-0.220,0.000,0.000,0.000
1641234951393253120,2022-01-03-18:35:51,10.1.1.9,133,-0.210,-0.210,-0.210,0.000,0.000,0.000
1641234951592008192,2022-01-03-18:35:51,10.1.1.9,129,-0.200,-0.200,-0.200,0.000,0.000,0.000
1641234951792253952,2022-01-03-18:35:51,10.1.1.9,129,-0.190,-0.190,-0.190,0.000,0.000,0.000
1641234951993232896,2022-01-03-18:35:51,10.1.1.9,124,-0.180,-0.180,-0.180,0.000,0.000,0.000
1641234952194652160,2022-01-03-18:35:52,10.1.1.9,125,-0.170,-0.170,-0.170,0.000,0.000,0.000
1641234952398050048,2022-01-03-18:35:52,10.1.1.9,127,-0.160,-0.160,-0.160,0.000,0.000,0.000
1641234952597414912,2022-01-03-18:35:52,10.1.1.9,125,-0.150,-0.150,-0.150,0.000,0.000,0.000
1641234952796364032,2022-01-03-18:35:52,10.1.1.9,121,-0.140,-0.140,-0.140,0.000,0.000,0.000
1641234953017217024,2022-01-03-18:35:53,10.1.1.9,136,-0.130,-0.130,-0.130,0.000,0.000,0.000
1641234953217647104,2022-01-03-18:35:53,10.1.1.9,134,-0.120,-0.120,-0.120,0.000,0.000,0.000
1641234953428890880,2022-01-03-18:35:53,10.1.1.9,139,-0.110,-0.110,-0.110,0.000,0.000,0.000
1641234953649424128,2022-01-03-18:35:53,10.1.1.9,143,-0.100,-0.100,-0.100,0.000,0.000,0.000
1641234953859726080,2022-01-03-18:35:53,10.1.1.9,128,-0.090,-0.090,-0.090,0.000,0.000,0.000
1641234954060813056,2022-01-03-18:35:54,10.1.1.9,128,-0.080,-0.080,-0.080,0.000,0.000,0.000
1641234954261651968,2022-01-03-18:35:54,10.1.1.9,128,-0.070,-0.070,-0.070,0.000,0.000,0.000
1641234954462188032,2022-01-03-18:35:54,10.1.1.9,128,-0.060,-0.060,-0.060,0.000,0.000,0.000
1641234954668828928,2022-01-03-18:35:54,10.1.1.9,133,-0.050,-0.050,-0.050,0.000,0.000,0.000
1641234954883593984,2022-01-03-18:35:54,10.1.1.9,146,-0.040,-0.040,-0.040,0.000,0.000,0.000
1641234955085957888,2022-01-03-18:35:55,10.1.1.9,148,-0.030,-0.030,-0.030,0.000,0.000,0.000
1641234955284238080,2022-01-03-18:35:55,10.1.1.9,144,-0.020,-0.020,-0.020,0.000,0.000,0.000
1641234955484782080,2022-01-03-18:35:55,10.1.1.9,143,-0.010,-0.010,-0.010,0.000,0.000,0.000
1641234955689739008,2022-01-03-18:35:55,10.1.1.9,147,0.000,0.000,0.000,0.000,0.000,0.000
1641234955889723136,2022-01-03-18:35:55,10.1.1.9,146,-0.010,-0.010,-0.010,0.000,0.000,0.000
1641234956086594048,2022-01-03-18:35:56,10.1.1.9,142,-0.020,-0.020,-0.020,0.000,0.000,0.000
1641234956287184896,2022-01-03-18:35:56,10.1.1.9,141,-0.030,-0.030,-0.030,0.000,0.000,0.000
1641234956508258048,2022-01-03-18:35:56,10.1.1.9,150,-0.040,-0.040,-0.040,0.000,0.000,0.000
1641234956710457088,2022-01-03-18:35:56,10.1.1.9,151,-0.050,-0.050,-0.050,0.000,0.000,0.000
1641234956912673024,2022-01-03-18:35:56,10.1.1.9,152,-0.060,-0.060,-0.060,0.000,0.000,0.000
1641234957109133056,2022-01-03-18:35:57,10.1.1.9,147,-0.070,-0.070,-0.070,0.000,0.000,0.000
1641234957314894848,2022-01-03-18:35:57,10.1.1.9,152,-0.080,-0.080,-0.080,0.000,0.000,0.000
1641234957510392064,2022-01-03-18:35:57,10.1.1.9,147,-0.090,-0.090,-0.090,0.000,0.000,0.000
1641234957713152000,2022-01-03-18:35:57,10.1.1.9,140,-0.100,-0.100,-0.100,0.000,0.000,0.000
1641234957965848832,2022-01-03-18:35:57,10.1.1.9,177,-0.110,-0.110,-0.110,0.000,0.000,0.000
1641234958154289920,2022-01-03-18:35:58,10.1.1.9,146,-0.120,-0.120,-0.120,0.000,0.000,0.000
1641234958412497920,2022-01-03-18:35:58,10.1.1.9,148,-0.130,-0.130,-0.130,0.000,0.000,0.000
1641234958622065152,2022-01-03-18:35:58,10.1.1.9,157,-0.140,-0.140,-0.140,0.000,0.000,0.000
1641234958825666048,2022-01-03-18:35:58,10.1.1.9,157,-0.150,-0.150,-0.150,0.000,0.000,0.000
1641234959014810112,2022-01-03-18:35:59,10.1.1.9,145,-0.160,-0.160,-0.160,0.000,0.000,0.000
1641234959214119936,2022-01-03-18:35:59,10.1.1.9,144,-0.170,-0.170,-0.170,0.000,0.000,0.000
1641234959413833984,2022-01-03-18:35:59,10.1.1.9,143,-0.180,-0.180,-0.180,0.000,0.000,0.000
1641234959614646016,2022-01-03-18:35:59,10.1.1.9,143,-0.190,-0.190,-0.190,0.000,0.000,0.000
1641234959814286080,2022-01-03-18:35:59,10.1.1.9,142,-0.200,-0.200,-0.200,0.000,0.000,0.000
1641234960016343040,2022-01-03-18:36:00,10.1.1.9,144,-0.210,-0.210,-0.210,0.000,0.000,0.000
1641234960245548032,2022-01-03-18:36:00,10.1.1.9,171,-0.220,-0.220,-0.220,0.000,0.000,0.000
1641234960415518976,2022-01-03-18:36:00,10.1.1.9,140,-0.230,-0.230,-0.230,0.000,0.000,0.000
1641234960639915008,2022-01-03-18:36:00,10.1.1.9,161,-0.240,-0.240,-0.240,0.000,0.000,0.000
1641234960837438976,2022-01-03-18:36:00,10.1.1.9,154,-0.250,-0.250,-0.250,0.000,0.000,0.000
1641234961060292096,2022-01-03-18:36:01,10.1.1.9,164,-0.260,-0.260,-0.260,0.000,0.000,0.000
1641234961236804864,2022-01-03-18:36:01,10.1.1.9,141,-0.270,-0.270,-0.270,0.000,0.000,0.000
1641234961492892928,2022-01-03-18:36:01,10.1.1.9,183,-0.280,-0.280,-0.280,0.000,0.000,0.000
1641234961658381056,2022-01-03-18:36:01,10.1.1.9,146,-0.290,-0.290,-0.290,0.000,0.000,0.000
1641234961878885120,2022-01-03-18:36:01,10.1.1.9,165,-0.300,-0.300,-0.300,0.000,0.000,0.000
1641234962058865152,2022-01-03-18:36:02,10.1.1.9,144,-0.310,-0.310,-0.310,0.000,0.000,0.000
1641234962258022912,2022-01-03-18:36:02,10.1.1.9,143,-0.320,-0.320,-0.320,0.000,0.000,0.000
1641234962462230016,2022-01-03-18:36:02,10.1.1.9,146,-0.330,-0.330,-0.330,0.000,0.000,0.000
1641234962679315968,2022-01-03-18:36:02,10.1.1.9,161,-0.340,-0.340,-0.340,0.000,0.000,0.000
1641234962878982144,2022-01-03-18:36:02,10.1.1.9,159,-0.350,-0.350,-0.350,0.000,0.000,0.000
1641234963079340032,2022-01-03-18:36:03,10.1.1.9,158,-0.360,-0.360,-0.360,0.000,0.000,0.000
1641234963280796928,2022-01-03-18:36:03,10.1.1.9,158,-0.370,-0.370,-0.370,0.000,0.000,0.000
1641234963480171008,2022-01-03-18:36:03,10.1.1.9,150,-0.380,-0.380,-0.380,0.000,0.000,0.000
1641234963690222080,2022-01-03-18:36:03,10.1.1.9,160,-0.390,-0.390,-0.390,0.000,0.000,0.000
1641234963880279040,2022-01-03-18:36:03,10.1.1.9,148,-0.400,-0.400,-0.400,0.000,0.000,0.000
1641234964081864960,2022-01-03-18:36:04,10.1.1.9,148,-0.410,-0.410,-0.410,0.000,0.000,0.000
1641234964300174080,2022-01-03-18:36:04,10.1.1.9,163,-0.420,-0.420,-0.420,0.000,0.000,0.000
1641234964492470016,2022-01-03-18:36:04,10.1.1.9,154,-0.430,-0.430,-0.430,0.000,0.000,0.000
1641234964701356800,2022-01-03-18:36:04,10.1.1.9,161,-0.440,-0.440,-0.440,0.000,0.000,0.000
1641234965100824064,2022-01-03-18:36:05,10.1.1.9,158,-0.460,-0.460,-0.460,0.000,0.000,0.000
1641234965301897984,2022-01-03-18:36:05,10.1.1.9,158,-0.470,-0.470,-0.470,0.000,0.000,0.000
1641234965501681920,2022-01-03-18:36:05,10.1.1.9,155,-0.480,-0.480,-0.480,0.000,0.000,0.000
1641234965701145856,2022-01-03-18:36:05,10.1.1.9,154,-0.490,-0.490,-0.490,0.000,0.000,0.000
1641234965902405120,2022-01-03-18:36:05,10.1.1.9,151,-0.480,-0.480,-0.480,0.000,0.000,0.000
1641234966101496832,2022-01-03-18:36:06,10.1.1.9,148,-0.470,-0.470,-0.470,0.000,0.000,0.000
1641234966301404928,2022-01-03-18:36:06,10.1.1.9,147,-0.460,-0.460,-0.460,0.000,0.000,0.000
1641234966522084864,2022-01-03-18:36:06,10.1.1.9,165,-0.450,-0.450,-0.450,0.000,0.000,0.000
1641234966722150144,2022-01-03-18:36:06,10.1.1.9,163,-0.440,-0.440,-0.440,0.000,0.000,0.000
1641234966921755136,2022-01-03-18:36:06,10.1.1.9,162,-0.430,-0.430,-0.430,0.000,0.000,0.000
1641234967125092096,2022-01-03-18:36:07,10.1.1.9,164,-0.420,-0.420,-0.420,0.000,0.000,0.000
1641234967325312000,2022-01-03-18:36:07,10.1.1.9,159,-0.410,-0.410,-0.410,0.000,0.000,0.000
1641234967521796864,2022-01-03-18:36:07,10.1.1.9,153,-0.400,-0.400,-0.400,0.000,0.000,0.000
1641234967725364992,2022-01-03-18:36:07,10.1.1.9,155,-0.390,-0.390,-0.390,0.000,0.000,0.000
1641234967928817152,2022-01-03-18:36:07,10.1.1.9,152,-0.380,-0.380,-0.380,0.000,0.000,0.000
1641234968142089984,2022-01-03-18:36:08,10.1.1.9,163,-0.370,-0.370,-0.370,0.000,0.000,0.000
1641234968342561024,2022-01-03-18:36:08,10.1.1.9,163,-0.360,-0.360,-0.360,0.000,0.000,0.000
1641234968542241024,2022-01-03-18:36:08,10.1.1.9,162,-0.350,-0.350,-0.350,0.000,0.000,0.000
1641234968742305024,2022-01-03-18:36:08,10.1.1.9,161,-0.340,-0.340,-0.340,0.000,0.000,0.000
1641234968942374912,2022-01-03-18:36:08,10.1.1.9,160,-0.330,-0.330,-0.330,0.000,0.000,0.000
1641234969142457856,2022-01-03-18:36:09,10.1.1.9,160,-0.320,-0.320,-0.320,0.000,0.000,0.000
1641234969357182976,2022-01-03-18:36:09,10.1.1.9,172,-0.310,-0.310,-0.310,0.000,0.000,0.000
1641234969602948864,2022-01-03-18:36:09,10.1.1.9,152,-0.300,-0.300,-0.300,0.000,0.000,0.000
1641234969804647936,2022-01-03-18:36:09,10.1.1.9,151,-0.290,-0.290,-0.290,0.000,0.000,0.000
1641234970013029120,2022-01-03-18:36:10,10.1.1.9,160,-0.280,-0.280,-0.280,0.000,0.000,0.000
1641234970212408064,2022-01-03-18:36:10,10.1.1.9,150,-0.270,-0.270,-0.270,0.000,0.000,0.000
1641234970423333888,2022-01-03-18:36:10,10.1.1.9,157,-0.260,-0.260,-0.260,0.000,0.000,0.000
1641234970663635968,2022-01-03-18:36:10,10.1.1.9,157,-0.250,-0.250,-0.250,0.000,0.000,0.000
1641234970864121088,2022-01-03-18:36:10,10.1.1.9,157,-0.240,-0.240,-0.240,0.000,0.000,0.000
1641234971063233024,2022-01-03-18:36:11,10.1.1.9,153,-0.230,-0.230,-0.230,0.000,0.000,0.000
1641234971264185856,2022-01-03-18:36:11,10.1.1.9,152,-0.220,-0.220,-0.220,0.000,0.000,0.000
1641234971462486016,2022-01-03-18:36:11,10.1.1.9,146,-0.210,-0.210,-0.210,0.000,0.000,0.000
1641234971682561024,2022-01-03-18:36:11,10.1.1.9,162,-0.200,-0.200,-0.200,0.000,0.000,0.000
1641234971886493952,2022-01-03-18:36:11,10.1.1.9,164,-0.190,-0.190,-0.190,0.000,0.000,0.000
1641234972085064960,2022-01-03-18:36:12,10.1.1.9,158,-0.180,-0.180,-0.180,0.000,0.000,0.000
1641234972285933056,2022-01-03-18:36:12,10.1.1.9,159,-0.170,-0.170,-0.170,0.000,0.000,0.000
1641234972502702848,2022-01-03-18:36:12,10.1.1.9,168,-0.160,-0.160,-0.160,0.000,0.000,0.000
1641234972682305024,2022-01-03-18:36:12,10.1.1.9,147,-0.150,-0.150,-0.150,0.000,0.000,0.000
1641234972904120832,2022-01-03-18:36:12,10.1.1.9,166,-0.140,-0.140,-0.140,0.000,0.000,0.000
1641234973102180096,2022-01-03-18:36:13,10.1.1.9,164,-0.130,-0.130,-0.130,0.000,0.000,0.000
1641234973302038784,2022-01-03-18:36:13,10.1.1.9,163,-0.120,-0.120,-0.120,0.000,0.000,0.000
1641234973502526976,2022-01-03-18:36:13,10.1.1.9,163,-0.110,-0.110,-0.110,0.000,0.000,0.000
1641234973702159872,2022-01-03-18:36:13,10.1.1.9,161,-0.100,-0.100,-0.100,0.000,0.000,0.000
1641234973905460992,2022-01-03-18:36:13,10.1.1.9,164,-0.090,-0.090,-0.090,0.000,0.000,0.000
1641234974198352128,2022-01-03-18:36:14,10.1.1.9,163,-0.080,-0.080,-0.080,0.000,0.000,0.000
1641234974401961984,2022-01-03-18:36:14,10.1.1.9,164,-0.070,-0.070,-0.070,0.000,0.000,0.000
1641234974601638144,2022-01-03-18:36:14,10.1.1.9,163,-0.060,-0.060,-0.060,0.000,0.000,0.000
1641234974801771008,2022-01-03-18:36:14,10.1.1.9,162,-0.050,-0.050,-0.050,0.000,0.000,0.000
1641234975034227968,2022-01-03-18:36:15,10.1.1.9,194,-0.040,-0.040,-0.040,0.000,0.000,0.000
1641234975222373120,2022-01-03-18:36:15,10.1.1.9,154,-0.030,-0.030,-0.030,0.000,0.000,0.000
1641234975421374208,2022-01-03-18:36:15,10.1.1.9,148,-0.020,-0.020,-0.020,0.000,0.000,0.000
1641234975622800128,2022-01-03-18:36:15,10.1.1.9,147,-0.010,-0.010,-0.010,0.000,0.000,0.000
1641234975824013056,2022-01-03-18:36:15,10.1.1.9,147,-0.000,-0.000,-0.000,0.000,0.000,0.000
1641234976044637952,2022-01-03-18:36:16,10.1.1.9,167,-0.010,-0.010,-0.010,0.000,0.000,0.000
1641234976244824832,2022-01-03-18:36:16,10.1.1.9,166,-0.020,-0.020,-0.020,0.000,0.000,0.000
1641234976441757952,2022-01-03-18:36:16,10.1.1.9,162,-0.030,-0.030,-0.030,0.000,0.000,0.000
1641234976640399872,2022-01-03-18:36:16,10.1.1.9,160,-0.040,-0.040,-0.040,0.000,0.000,0.000
1641234976841281024,2022-01-03-18:36:16,10.1.1.9,160,-0.050,-0.050,-0.050,0.000,0.000,0.000
1641234977040685824,2022-01-03-18:36:17,10.1.1.9,158,-0.060,-0.060,-0.060,0.000,0.000,0.000
1641234977282198016,2022-01-03-18:36:17,10.1.1.9,164,-0.070,-0.070,-0.070,0.000,0.000,0.000
1641234977480026112,2022-01-03-18:36:17,10.1.1.9,161,-0.080,-0.080,-0.080,0.000,0.000,0.000
1641234977680001024,2022-01-03-18:36:17,10.1.1.9,160,-0.090,-0.090,-0.090,0.000,0.000,0.000
1641234977880060928,2022-01-03-18:36:17,10.1.1.9,158,-0.100,-0.100,-0.100,0.000,0.000,0.000
1641234978080677120,2022-01-03-18:36:18,10.1.1.9,158,-0.110,-0.110,-0.110,0.000,0.000,0.000
1641234978279301888,2022-01-03-18:36:18,10.1.1.9,153,-0.120,-0.120,-0.120,0.000,0.000,0.000
1641234978494416896,2022-01-03-18:36:18,10.1.1.9,167,-0.130,-0.130,-0.130,0.000,0.000,0.000
1641234978701616896,2022-01-03-18:36:18,10.1.1.9,165,-0.140,-0.140,-0.140,0.000,0.000,0.000
1641234978899313920,2022-01-03-18:36:18,10.1.1.9,161,-0.150,-0.150,-0.150,0.000,0.000,0.000
1641234979099822080,2022-01-03-18:36:19,10.1.1.9,161,-0.160,-0.160,-0.160,0.000,0.000,0.000
1641234979307254016,2022-01-03-18:36:19,10.1.1.9,160,-0.170,-0.170,-0.170,0.000,0.000,0.000
1641234979501827840,2022-01-03-18:36:19,10.1.1.9,156,-0.180,-0.180,-0.180,0.000,0.000,0.000
1641234979700582144,2022-01-03-18:36:19,10.1.1.9,148,-0.190,-0.190,-0.190,0.000,0.000,0.000
1641234979903912192,2022-01-03-18:36:19,10.1.1.9,149,-0.200,-0.200,-0.200,0.000,0.000,0.000
1641234980118128896,2022-01-03-18:36:20,10.1.1.9,161,-0.210,-0.210,-0.210,0.000,0.000,0.000
1641234980318201088,2022-01-03-18:36:20,10.1.1.9,160,-0.220,-0.220,-0.220,0.000,0.000,0.000
1641234980519150080,2022-01-03-18:36:20,10.1.1.9,160,-0.230,-0.230,-0.230,0.000,0.000,0.000
1641234980752549888,2022-01-03-18:36:20,10.1.1.9,193,-0.240,-0.240,-0.240,0.000,0.000,0.000
1641234980917476864,2022-01-03-18:36:20,10.1.1.9,158,-0.250,-0.250,-0.250,0.000,0.000,0.000
1641234981119348992,2022-01-03-18:36:21,10.1.1.9,158,-0.260,-0.260,-0.260,0.000,0.000,0.000
1641234981334194944,2022-01-03-18:36:21,10.1.1.9,171,-0.270,-0.270,-0.270,0.000,0.000,0.000
1641234981524956928,2022-01-03-18:36:21,10.1.1.9,159,-0.280,-0.280,-0.280,0.000,0.000,0.000
1641234981718064128,2022-01-03-18:36:21,10.1.1.9,150,-0.290,-0.290,-0.290,0.000,0.000,0.000
1641234981895990016,2022-01-03-18:36:21,10.1.1.9,-136,-0.290,-0.290,-0.290,0.000,0.000,0.000
1641234982237742848,2022-01-03-18:36:22,10.1.1.9,143,-0.310,-0.310,-0.310,0.000,0.000,0.000
1641234982436505088,2022-01-03-18:36:22,10.1.1.9,141,-0.320,-0.320,-0.320,0.000,0.000,0.000
1641234982636380928,2022-01-03-18:36:22,10.1.1.9,140,-0.330,-0.330,-0.330,0.000,0.000,0.000
1641234982857694976,2022-01-03-18:36:22,10.1.1.9,159,-0.340,-0.340,-0.340,0.000,0.000,0.000
1641234983082130944,2022-01-03-18:36:23,10.1.1.9,168,-0.350,-0.350,-0.350,0.000,0.000,0.000
1641234983276967936,2022-01-03-18:36:23,10.1.1.9,158,-0.360,-0.360,-0.360,0.000,0.000,0.000
1641234983475266816,2022-01-03-18:36:23,10.1.1.9,156,-0.370,-0.370,-0.370,0.000,0.000,0.000
1641234983675712000,2022-01-03-18:36:23,10.1.1.9,155,-0.380,-0.380,-0.380,0.000,0.000,0.000
1641234983876472064,2022-01-03-18:36:23,10.1.1.9,155,-0.390,-0.390,-0.390,0.000,0.000,0.000
1641234984078968064,2022-01-03-18:36:24,10.1.1.9,154,-0.400,-0.400,-0.400,0.000,0.000,0.000
1641234984274134016,2022-01-03-18:36:24,10.1.1.9,138,-0.410,-0.410,-0.410,0.000,0.000,0.000
1641234984493879040,2022-01-03-18:36:24,10.1.1.9,156,-0.420,-0.420,-0.420,0.000,0.000,0.000
1641234984694038016,2022-01-03-18:36:24,10.1.1.9,156,-0.430,-0.430,-0.430,0.000,0.000,0.000
1641234984893799936,2022-01-03-18:36:24,10.1.1.9,154,-0.440,-0.440,-0.440,0.000,0.000,0.000
1641234985093800192,2022-01-03-18:36:25,10.1.1.9,153,-0.450,-0.450,-0.450,0.000,0.000,0.000
1641234985297736960,2022-01-03-18:36:25,10.1.1.9,152,-0.460,-0.460,-0.460,0.000,0.000,0.000
1641234985492822784,2022-01-03-18:36:25,10.1.1.9,150,-0.470,-0.470,-0.470,0.000,0.000,0.000
1641234985684602112,2022-01-03-18:36:25,10.1.1.9,141,-0.480,-0.480,-0.480,0.000,0.000,0.000
1641234985892770048,2022-01-03-18:36:25,10.1.1.9,148,-0.490,-0.490,-0.490,0.000,0.000,0.000
1641234986092279808,2022-01-03-18:36:26,10.1.1.9,146,-0.480,-0.480,-0.480,0.000,0.000,0.000
1641234986292320000,2022-01-03-18:36:26,10.1.1.9,145,-0.470,-0.470,-0.470,0.000,0.000,0.000
1641234986492329984,2022-01-03-18:36:26,10.1.1.9,144,-0.460,-0.460,-0.460,0.000,0.000,0.000
1641234986692281856,2022-01-03-18:36:26,10.1.1.9,143,-0.450,-0.450,-0.450,0.000,0.000,0.000
1641234986892268800,2022-01-03-18:36:26,10.1.1.9,142,-0.440,-0.440,-0.440,0.000,0.000,0.000
1641234987093505024,2022-01-03-18:36:27,10.1.1.9,142,-0.430,-0.430,-0.430,0.000,0.000,0.000
1641234987291117056,2022-01-03-18:36:27,10.1.1.9,138,-0.420,-0.420,-0.420,0.000,0.000,0.000
1641234987491482112,2022-01-03-18:36:27,10.1.1.9,138,-0.410,-0.410,-0.410,0.000,0.000,0.000
1641234987690872064,2022-01-03-18:36:27,10.1.1.9,136,-0.400,-0.400,-0.400,0.000,0.000,0.000
1641234987910043904,2022-01-03-18:36:27,10.1.1.9,150,-0.390,-0.390,-0.390,0.000,0.000,0.000
1641234988110359808,2022-01-03-18:36:28,10.1.1.9,149,-0.380,-0.380,-0.380,0.000,0.000,0.000
1641234988309891840,2022-01-03-18:36:28,10.1.1.9,148,-0.370,-0.370,-0.370,0.000,0.000,0.000
1641234988520301056,2022-01-03-18:36:28,10.1.1.9,158,-0.360,-0.360,-0.360,0.000,0.000,0.000
1641234988716370944,2022-01-03-18:36:28,10.1.1.9,147,-0.350,-0.350,-0.350,0.000,0.000,0.000
1641234988909436928,2022-01-03-18:36:28,10.1.1.9,146,-0.340,-0.340,-0.340,0.000,0.000,0.000
1641234989108755200,2022-01-03-18:36:29,10.1.1.9,144,-0.330,-0.330,-0.330,0.000,0.000,0.000
1641234989300009984,2022-01-03-18:36:29,10.1.1.9,135,-0.320,-0.320,-0.320,0.000,0.000,0.000
1641234989508239872,2022-01-03-18:36:29,10.1.1.9,143,-0.310,-0.310,-0.310,0.000,0.000,0.000
1641234989709774848,2022-01-03-18:36:29,10.1.1.9,144,-0.300,-0.300,-0.300,0.000,0.000,0.000
1641234989907897088,2022-01-03-18:36:29,10.1.1.9,138,-0.290,-0.290,-0.290,0.000,0.000,0.000
1641234990108168960,2022-01-03-18:36:30,10.1.1.9,137,-0.280,-0.280,-0.280,0.000,0.000,0.000
1641234990308186880,2022-01-03-18:36:30,10.1.1.9,133,-0.270,-0.270,-0.270,0.000,0.000,0.000
1641234990527585024,2022-01-03-18:36:30,10.1.1.9,151,-0.260,-0.260,-0.260,0.000,0.000,0.000
1641234990727700992,2022-01-03-18:36:30,10.1.1.9,136,-0.250,-0.250,-0.250,0.000,0.000,0.000
1641234990943031040,2022-01-03-18:36:30,10.1.1.9,151,-0.240,-0.240,-0.240,0.000,0.000,0.000
1641234991138974976,2022-01-03-18:36:31,10.1.1.9,146,-0.230,-0.230,-0.230,0.000,0.000,0.000
1641234991328316928,2022-01-03-18:36:31,10.1.1.9,134,-0.220,-0.220,-0.220,0.000,0.000,0.000
1641234991526725120,2022-01-03-18:36:31,10.1.1.9,132,-0.210,-0.210,-0.210,0.000,0.000,0.000
1641234991727092992,2022-01-03-18:36:31,10.1.1.9,131,-0.200,-0.200,-0.200,0.000,0.000,0.000
1641234991948282880,2022-01-03-18:36:31,10.1.1.9,151,-0.190,-0.190,-0.190,0.000,0.000,0.000
1641234992145303040,2022-01-03-18:36:32,10.1.1.9,134,-0.180,-0.180,-0.180,0.000,0.000,0.000
1641234992365207808,2022-01-03-18:36:32,10.1.1.9,144,-0.170,-0.170,-0.170,0.000,0.000,0.000
1641234992564837888,2022-01-03-18:36:32,10.1.1.9,143,-0.160,-0.160,-0.160,0.000,0.000,0.000
1641234992766167040,2022-01-03-18:36:32,10.1.1.9,144,-0.150,-0.150,-0.150,0.000,0.000,0.000
1641234992964376832,2022-01-03-18:36:32,10.1.1.9,141,-0.140,-0.140,-0.140,0.000,0.000,0.000
1641234993177128960,2022-01-03-18:36:33,10.1.1.9,153,-0.130,-0.130,-0.130,0.000,0.000,0.000
1641234993365005056,2022-01-03-18:36:33,10.1.1.9,140,-0.120,-0.120,-0.120,0.000,0.000,0.000
1641234993563559168,2022-01-03-18:36:33,10.1.1.9,138,-0.110,-0.110,-0.110,0.000,0.000,0.000
1641234993762692864,2022-01-03-18:36:33,10.1.1.9,137,-0.100,-0.100,-0.100,0.000,0.000,0.000
1641234993963812096,2022-01-03-18:36:33,10.1.1.9,136,-0.090,-0.090,-0.090,0.000,0.000,0.000
1641234994162179840,2022-01-03-18:36:34,10.1.1.9,133,-0.080,-0.080,-0.080,0.000,0.000,0.000
1641234994368264960,2022-01-03-18:36:34,10.1.1.9,135,-0.070,-0.070,-0.070,0.000,0.000,0.000
1641234994562381056,2022-01-03-18:36:34,10.1.1.9,129,-0.060,-0.060,-0.060,0.000,0.000,0.000
1641234994761686016,2022-01-03-18:36:34,10.1.1.9,127,-0.050,-0.050,-0.050,0.000,0.000,0.000
1641234994961585152,2022-01-03-18:36:34,10.1.1.9,127,-0.040,-0.040,-0.040,0.000,0.000,0.000
1641234995181550080,2022-01-03-18:36:35,10.1.1.9,144,-0.030,-0.030,-0.030,0.000,0.000,0.000
1641234995382120960,2022-01-03-18:36:35,10.1.1.9,143,-0.020,-0.020,-0.020,0.000,0.000,0.000
1641234995600198912,2022-01-03-18:36:35,10.1.1.9,134,-0.010,-0.010,-0.010,0.000,0.000,0.000
1641234995800457984,2022-01-03-18:36:35,10.1.1.9,133,0.000,0.000,0.000,0.000,0.000,0.000
1641234996017437952,2022-01-03-18:36:36,10.1.1.9,149,-0.010,-0.010,-0.010,0.000,0.000,0.000
1641234996199502848,2022-01-03-18:36:36,10.1.1.9,131,-0.020,-0.020,-0.020,0.000,0.000,0.000
1641234996399555072,2022-01-03-18:36:36,10.1.1.9,130,-0.030,-0.030,-0.030,0.000,0.000,0.000
1641234996599040000,2022-01-03-18:36:36,10.1.1.9,130,-0.040,-0.040,-0.040,0.000,0.000,0.000
1641234996798824192,2022-01-03-18:36:36,10.1.1.9,129,-0.050,-0.050,-0.050,0.000,0.000,0.000
1641234996998318848,2022-01-03-18:36:36,10.1.1.9,127,-0.060,-0.060,-0.060,0.000,0.000,0.000
1641234997202918144,2022-01-03-18:36:37,10.1.1.9,131,-0.070,-0.070,-0.070,0.000,0.000,0.000
1641234997397819136,2022-01-03-18:36:37,10.1.1.9,126,-0.080,-0.080,-0.080,0.000,0.000,0.000
1641234997599420160,2022-01-03-18:36:37,10.1.1.9,127,-0.090,-0.090,-0.090,0.000,0.000,0.000
1641234997837646080,2022-01-03-18:36:37,10.1.1.9,133,-0.100,-0.100,-0.100,0.000,0.000,0.000
1641234998056946944,2022-01-03-18:36:38,10.1.1.9,134,-0.110,-0.110,-0.110,0.000,0.000,0.000
1641234998257054208,2022-01-03-18:36:38,10.1.1.9,134,-0.120,-0.120,-0.120,0.000,0.000,0.000
1641234998456209920,2022-01-03-18:36:38,10.1.1.9,132,-0.130,-0.130,-0.130,0.000,0.000,0.000
1641234998656514816,2022-01-03-18:36:38,10.1.1.9,129,-0.140,-0.140,-0.140,0.000,0.000,0.000
1641234998860961024,2022-01-03-18:36:38,10.1.1.9,133,-0.150,-0.150,-0.150,0.000,0.000,0.000
1641234999056473856,2022-01-03-18:36:39,10.1.1.9,128,-0.160,-0.160,-0.160,0.000,0.000,0.000
1641234999255079936,2022-01-03-18:36:39,10.1.1.9,125,-0.170,-0.170,-0.170,0.000,0.000,0.000
1641234999460946176,2022-01-03-18:36:39,10.1.1.9,129,-0.180,-0.180,-0.180,0.000,0.000,0.000
1641234999664589056,2022-01-03-18:36:39,10.1.1.9,128,-0.190,-0.190,-0.190,0.000,0.000,0.000
1641234999879074048,2022-01-03-18:36:39,10.1.1.9,142,-0.200,-0.200,-0.200,0.000,0.000,0.000
1641235000074935808,2022-01-03-18:36:40,10.1.1.9,134,-0.210,-0.210,-0.210,0.000,0.000,0.000
1641235000273883136,2022-01-03-18:36:40,10.1.1.9,132,-0.220,-0.220,-0.220,0.000,0.000,0.000
1641235000473309952,2022-01-03-18:36:40,10.1.1.9,131,-0.230,-0.230,-0.230,0.000,0.000,0.000
1641235000677544192,2022-01-03-18:36:40,10.1.1.9,134,-0.240,-0.240,-0.240,0.000,0.000,0.000
1641235000864388096,2022-01-03-18:36:40,10.1.1.9,121,-0.250,-0.250,-0.250,0.000,0.000,0.000
1641235001075053056,2022-01-03-18:36:41,10.1.1.9,131,-0.260,-0.260,-0.260,0.000,0.000,0.000
1641235001272792064,2022-01-03-18:36:41,10.1.1.9,128,-0.270,-0.270,-0.270,0.000,0.000,0.000
1641235001471878144,2022-01-03-18:36:41,10.1.1.9,126,-0.280,-0.280,-0.280,0.000,0.000,0.000
1641235001673067008,2022-01-03-18:36:41,10.1.1.9,126,-0.290,-0.290,-0.290,0.000,0.000,0.000
1641235001871678208,2022-01-03-18:36:41,10.1.1.9,124,-0.300,-0.300,-0.300,0.000,0.000,0.000
1641235002072077056,2022-01-03-18:36:42,10.1.1.9,123,-0.310,-0.310,-0.310,0.000,0.000,0.000
1641235002273260032,2022-01-03-18:36:42,10.1.1.9,124,-0.320,-0.320,-0.320,0.000,0.000,0.000
1641235002470676992,2022-01-03-18:36:42,10.1.1.9,114,-0.330,-0.330,-0.330,0.000,0.000,0.000
1641235002691170048,2022-01-03-18:36:42,10.1.1.9,134,-0.340,-0.340,-0.340,0.000,0.000,0.000
1641235002889992960,2022-01-03-18:36:42,10.1.1.9,132,-0.350,-0.350,-0.350,0.000,0.000,0.000
1641235003089186816,2022-01-03-18:36:43,10.1.1.9,130,-0.360,-0.360,-0.360,0.000,0.000,0.000
1641235003310363136,2022-01-03-18:36:43,10.1.1.9,151,-0.370,-0.370,-0.370,0.000,0.000,0.000
1641235003491590912,2022-01-03-18:36:43,10.1.1.9,129,-0.380,-0.380,-0.380,0.000,0.000,0.000
1641235003708882944,2022-01-03-18:36:43,10.1.1.9,146,-0.390,-0.390,-0.390,0.000,0.000,0.000
1641235003904067072,2022-01-03-18:36:43,10.1.1.9,126,-0.400,-0.400,-0.400,0.000,0.000,0.000
1641235004093832960,2022-01-03-18:36:44,10.1.1.9,129,-0.410,-0.410,-0.410,0.000,0.000,0.000
1641235004290651136,2022-01-03-18:36:44,10.1.1.9,125,-0.420,-0.420,-0.420,0.000,0.000,0.000
1641235004498481152,2022-01-03-18:36:44,10.1.1.9,132,-0.430,-0.430,-0.430,0.000,0.000,0.000
1641235004689199872,2022-01-03-18:36:44,10.1.1.9,122,-0.440,-0.440,-0.440,0.000,0.000,0.000
1641235004887515136,2022-01-03-18:36:44,10.1.1.9,116,-0.450,-0.450,-0.450,0.000,0.000,0.000
1641235005086555904,2022-01-03-18:36:45,10.1.1.9,113,-0.460,-0.460,-0.460,0.000,0.000,0.000
1641235005287873024,2022-01-03-18:36:45,10.1.1.9,112,-0.470,-0.470,-0.470,0.000,0.000,0.000
1641235005506728960,2022-01-03-18:36:45,10.1.1.9,130,-0.480,-0.480,-0.480,0.000,0.000,0.000
1641235005731256064,2022-01-03-18:36:45,10.1.1.9,134,-0.490,-0.490,-0.490,0.000,0.000,0.000
1641235005934854144,2022-01-03-18:36:45,10.1.1.9,135,-0.480,-0.480,-0.480,0.000,0.000,0.000
1641235006130536192,2022-01-03-18:36:46,10.1.1.9,127,-0.470,-0.470,-0.470,0.000,0.000,0.000
1641235006325622016,2022-01-03-18:36:46,10.1.1.9,121,-0.460,-0.460,-0.460,0.000,0.000,0.000
1641235006524692992,2022-01-03-18:36:46,10.1.1.9,116,-0.450,-0.450,-0.450,0.000,0.000,0.000
1641235006773294848,2022-01-03-18:36:46,10.1.1.9,152,-0.440,-0.440,-0.440,0.000,0.000,0.000
1641235006923265024,2022-01-03-18:36:46,10.1.1.9,111,-0.430,-0.430,-0.430,0.000,0.000,0.000
1641235007123513856,2022-01-03-18:36:47,10.1.1.9,111,-0.420,-0.420,-0.420,0.000,0.000,0.000
1641235007322840832,2022-01-03-18:36:47,10.1.1.9,110,-0.410,-0.410,-0.410,0.000,0.000,0.000
1641235007522821888,2022-01-03-18:36:47,10.1.1.9,109,-0.400,-0.400,-0.400,0.000,0.000,0.000
1641235007725310208,2022-01-03-18:36:47,10.1.1.9,111,-0.390,-0.390,-0.390,0.000,0.000,0.000
1641235007946049024,2022-01-03-18:36:47,10.1.1.9,127,-0.380,-0.380,-0.380,0.000,0.000,0.000
1641235008143040768,2022-01-03-18:36:48,10.1.1.9,126,-0.370,-0.370,-0.370,0.000,0.000,0.000
1641235008343763200,2022-01-03-18:36:48,10.1.1.9,124,-0.360,-0.360,-0.360,0.000,0.000,0.000
1641235008541452032,2022-01-03-18:36:48,10.1.1.9,123,-0.350,-0.350,-0.350,0.000,0.000,0.000
1641235008741646080,2022-01-03-18:36:48,10.1.1.9,119,-0.340,-0.340,-0.340,0.000,0.000,0.000
1641235009142201856,2022-01-03-18:36:49,10.1.1.9,111,-0.320,-0.320,-0.320,0.000,0.000,0.000
1641235009345423104,2022-01-03-18:36:49,10.1.1.9,113,-0.310,-0.310,-0.310,0.000,0.000,0.000
1641235009540803840,2022-01-03-18:36:49,10.1.1.9,108,-0.300,-0.300,-0.300,0.000,0.000,0.000
1641235009759803136,2022-01-03-18:36:49,10.1.1.9,122,-0.290,-0.290,-0.290,0.000,0.000,0.000
1641235009960491776,2022-01-03-18:36:49,10.1.1.9,121,-0.280,-0.280,-0.280,0.000,0.000,0.000
1641235010240616960,2022-01-03-18:36:50,10.1.1.9,183,-0.270,-0.270,-0.270,0.000,0.000,0.000
1641235010358247168,2022-01-03-18:36:50,10.1.1.9,117,-0.260,-0.260,-0.260,0.000,0.000,0.000
1641235010557634048,2022-01-03-18:36:50,10.1.1.9,112,-0.250,-0.250,-0.250,0.000,0.000,0.000
1641235010758225920,2022-01-03-18:36:50,10.1.1.9,111,-0.240,-0.240,-0.240,0.000,0.000,0.000
1641235010957287168,2022-01-03-18:36:50,10.1.1.9,109,-0.230,-0.230,-0.230,0.000,0.000,0.000
1641235011157807104,2022-01-03-18:36:51,10.1.1.9,107,-0.220,-0.220,-0.220,0.000,0.000,0.000
1641235011399380992,2022-01-03-18:36:51,10.1.1.9,131,-0.210,-0.210,-0.210,0.000,0.000,0.000
1641235011587609088,2022-01-03-18:36:51,10.1.1.9,102,-0.200,-0.200,-0.200,0.000,0.000,0.000
1641235011801719040,2022-01-03-18:36:51,10.1.1.9,118,-0.190,-0.190,-0.190,0.000,0.000,0.000
1641235011997062912,2022-01-03-18:36:51,10.1.1.9,119,-0.180,-0.180,-0.180,0.000,0.000,0.000
1641235012196289024,2022-01-03-18:36:52,10.1.1.9,110,-0.170,-0.170,-0.170,0.000,0.000,0.000
1641235012395112960,2022-01-03-18:36:52,10.1.1.9,108,-0.160,-0.160,-0.160,0.000,0.000,0.000
1641235012607283968,2022-01-03-18:36:52,10.1.1.9,114,-0.150,-0.150,-0.150,0.000,0.000,0.000
1641235012794745856,2022-01-03-18:36:52,10.1.1.9,101,-0.140,-0.140,-0.140,0.000,0.000,0.000
1641235012995158784,2022-01-03-18:36:52,10.1.1.9,101,-0.130,-0.130,-0.130,0.000,0.000,0.000
1641235013198164992,2022-01-03-18:36:53,10.1.1.9,104,-0.120,-0.120,-0.120,0.000,0.000,0.000
1641235013406637056,2022-01-03-18:36:53,10.1.1.9,108,-0.110,-0.110,-0.110,0.000,0.000,0.000
1641235013617288192,2022-01-03-18:36:53,10.1.1.9,118,-0.100,-0.100,-0.100,0.000,0.000,0.000
1641235013819315968,2022-01-03-18:36:53,10.1.1.9,117,-0.090,-0.090,-0.090,0.000,0.000,0.000
1641235014019968000,2022-01-03-18:36:54,10.1.1.9,117,-0.080,-0.080,-0.080,0.000,0.000,0.000
1641235014226795008,2022-01-03-18:36:54,10.1.1.9,123,-0.070,-0.070,-0.070,0.000,0.000,0.000
1641235014421113088,2022-01-03-18:36:54,10.1.1.9,117,-0.060,-0.060,-0.060,0.000,0.000,0.000
1641235014621999872,2022-01-03-18:36:54,10.1.1.9,116,-0.050,-0.050,-0.050,0.000,0.000,0.000
1641235014860187904,2022-01-03-18:36:54,10.1.1.9,151,-0.040,-0.040,-0.040,0.000,0.000,0.000
1641235015030002944,2022-01-03-18:36:55,10.1.1.9,120,-0.030,-0.030,-0.030,0.000,0.000,0.000
1641235015227808000,2022-01-03-18:36:55,10.1.1.9,116,-0.020,-0.020,-0.020,0.000,0.000,0.000
1641235015427234048,2022-01-03-18:36:55,10.1.1.9,114,-0.010,-0.010,-0.010,0.000,0.000,0.000
1641235015668054016,2022-01-03-18:36:55,10.1.1.9,127,0.000,0.000,0.000,0.000,0.000,0.000
1641235015940536064,2022-01-03-18:36:55,10.1.1.9,159,-0.010,-0.010,-0.010,0.000,0.000,0.000
1641235016090626048,2022-01-03-18:36:56,10.1.1.9,143,-0.020,-0.020,-0.020,0.000,0.000,0.000
1641235016271301120,2022-01-03-18:36:56,10.1.1.9,123,-0.030,-0.030,-0.030,0.000,0.000,0.000
1641235016471667968,2022-01-03-18:36:56,10.1.1.9,123,-0.040,-0.040,-0.040,0.000,0.000,0.000
1641235016673974016,2022-01-03-18:36:56,10.1.1.9,124,-0.050,-0.050,-0.050,0.000,0.000,0.000
1641235016872931072,2022-01-03-18:36:56,10.1.1.9,122,-0.060,-0.060,-0.060,0.000,0.000,0.000
1641235017143052032,2022-01-03-18:36:57,10.1.1.9,184,-0.070,-0.070,-0.070,0.000,0.000,0.000
1641235017300587008,2022-01-03-18:36:57,10.1.1.9,140,-0.080,-0.080,-0.080,0.000,0.000,0.000
1641235017494665984,2022-01-03-18:36:57,10.1.1.9,133,-0.090,-0.090,-0.090,0.000,0.000,0.000
1641235017696322816,2022-01-03-18:36:57,10.1.1.9,134,-0.100,-0.100,-0.100,0.000,0.000,0.000
1641235017900659200,2022-01-03-18:36:57,10.1.1.9,138,-0.110,-0.110,-0.110,0.000,0.000,0.000
1641235018096715008,2022-01-03-18:36:58,10.1.1.9,134,-0.120,-0.120,-0.120,0.000,0.000,0.000
1641235018302553856,2022-01-03-18:36:58,10.1.1.9,134,-0.130,-0.130,-0.130,0.000,0.000,0.000
1641235018499151872,2022-01-03-18:36:58,10.1.1.9,134,-0.140,-0.140,-0.140,0.000,0.000,0.000
1641235018699503872,2022-01-03-18:36:58,10.1.1.9,134,-0.150,-0.150,-0.150,0.000,0.000,0.000
1641235018899860992,2022-01-03-18:36:58,10.1.1.9,133,-0.160,-0.160,-0.160,0.000,0.000,0.000
1641235019102279936,2022-01-03-18:36:59,10.1.1.9,135,-0.170,-0.170,-0.170,0.000,0.000,0.000
1641235019378706944,2022-01-03-18:36:59,10.1.1.9,198,-0.180,-0.180,-0.180,0.000,0.000,0.000
1641235019521591040,2022-01-03-18:36:59,10.1.1.9,129,-0.190,-0.190,-0.190,0.000,0.000,0.000
1641235019762051072,2022-01-03-18:36:59,10.1.1.9,138,-0.200,-0.200,-0.200,0.000,0.000,0.000
1641235019971604992,2022-01-03-18:36:59,10.1.1.9,147,-0.210,-0.210,-0.210,0.000,0.000,0.000
1641235020165115136,2022-01-03-18:37:00,10.1.1.9,134,-0.220,-0.220,-0.220,0.000,0.000,0.000
1641235020365335040,2022-01-03-18:37:00,10.1.1.9,134,-0.230,-0.230,-0.230,0.000,0.000,0.000
1641235020574716928,2022-01-03-18:37:00,10.1.1.9,140,-0.240,-0.240,-0.240,0.000,0.000,0.000
1641235020825145088,2022-01-03-18:37:00,10.1.1.9,148,-0.250,-0.250,-0.250,0.000,0.000,0.000
1641235021028381952,2022-01-03-18:37:01,10.1.1.9,151,-0.260,-0.260,-0.260,0.000,0.000,0.000
1641235021226808064,2022-01-03-18:37:01,10.1.1.9,148,-0.270,-0.270,-0.270,0.000,0.000,0.000
1641235021426574848,2022-01-03-18:37:01,10.1.1.9,148,-0.280,-0.280,-0.280,0.000,0.000,0.000
1641235021636496896,2022-01-03-18:37:01,10.1.1.9,148,-0.290,-0.290,-0.290,0.000,0.000,0.000
1641235021827940096,2022-01-03-18:37:01,10.1.1.9,148,-0.300,-0.300,-0.300,0.000,0.000,0.000
1641235022028565760,2022-01-03-18:37:02,10.1.1.9,148,-0.310,-0.310,-0.310,0.000,0.000,0.000
1641235022228652032,2022-01-03-18:37:02,10.1.1.9,148,-0.320,-0.320,-0.320,0.000,0.000,0.000
1641235022442368000,2022-01-03-18:37:02,10.1.1.9,161,-0.330,-0.330,-0.330,0.000,0.000,0.000
1641235022629751040,2022-01-03-18:37:02,10.1.1.9,147,-0.340,-0.340,-0.340,0.000,0.000,0.000
1641235022830761984,2022-01-03-18:37:02,10.1.1.9,145,-0.350,-0.350,-0.350,0.000,0.000,0.000
1641235023052412160,2022-01-03-18:37:03,10.1.1.9,148,-0.360,-0.360,-0.360,0.000,0.000,0.000
1641235023252635904,2022-01-03-18:37:03,10.1.1.9,148,-0.370,-0.370,-0.370,0.000,0.000,0.000
1641235023450961152,2022-01-03-18:37:03,10.1.1.9,145,-0.380,-0.380,-0.380,0.000,0.000,0.000
1641235023651973120,2022-01-03-18:37:03,10.1.1.9,145,-0.390,-0.390,-0.390,0.000,0.000,0.000
1641235023856160000,2022-01-03-18:37:03,10.1.1.9,149,-0.400,-0.400,-0.400,0.000,0.000,0.000
1641235024092295936,2022-01-03-18:37:04,10.1.1.9,151,-0.410,-0.410,-0.410,0.000,0.000,0.000
1641235024298379776,2022-01-03-18:37:04,10.1.1.9,156,-0.420,-0.420,-0.420,0.000,0.000,0.000
1641235024493908992,2022-01-03-18:37:04,10.1.1.9,151,-0.430,-0.430,-0.430,0.000,0.000,0.000
1641235024693080064,2022-01-03-18:37:04,10.1.1.9,149,-0.440,-0.440,-0.440,0.000,0.000,0.000
1641235024893549056,2022-01-03-18:37:04,10.1.1.9,149,-0.450,-0.450,-0.450,0.000,0.000,0.000
1641235025094362112,2022-01-03-18:37:05,10.1.1.9,149,-0.460,-0.460,-0.460,0.000,0.000,0.000
1641235025294600960,2022-01-03-18:37:05,10.1.1.9,149,-0.470,-0.470,-0.470,0.000,0.000,0.000
1641235025494678016,2022-01-03-18:37:05,10.1.1.9,148,-0.480,-0.480,-0.480,0.000,0.000,0.000
1641235025695578112,2022-01-03-18:37:05,10.1.1.9,149,-0.490,-0.490,-0.490,0.000,0.000,0.000
1641235025896243968,2022-01-03-18:37:05,10.1.1.9,148,-0.480,-0.480,-0.480,0.000,0.000,0.000
1641235026101810944,2022-01-03-18:37:06,10.1.1.9,147,-0.470,-0.470,-0.470,0.000,0.000,0.000
1641235026295664128,2022-01-03-18:37:06,10.1.1.9,145,-0.460,-0.460,-0.460,0.000,0.000,0.000
1641235026496218880,2022-01-03-18:37:06,10.1.1.9,144,-0.450,-0.450,-0.450,0.000,0.000,0.000
1641235026697180160,2022-01-03-18:37:06,10.1.1.9,144,-0.440,-0.440,-0.440,0.000,0.000,0.000
