FedericoMungari/DigitalTwin_service/01_WiredScenario/Output/Output_script/script_rosapi_2_output_robots8_freq0_4.txt
timestamp,date,node,latency,joint_1,joint_2,joint_3,joint_4,joint_5,joint_6
1641207846917691904,2022-01-03-11:04:06,10.1.1.5,165,-0.010,-0.010,-0.010,0.000,0.000,0.000
1641207847117764096,2022-01-03-11:04:07,10.1.1.5,165,-0.020,-0.020,-0.020,0.000,0.000,0.000
1641207847327225088,2022-01-03-11:04:07,10.1.1.5,174,-0.030,-0.030,-0.030,0.000,0.000,0.000
1641207847527329024,2022-01-03-11:04:07,10.1.1.5,173,-0.040,-0.040,-0.040,0.000,0.000,0.000
1641207847736300032,2022-01-03-11:04:07,10.1.1.5,181,-0.050,-0.050,-0.050,0.000,0.000,0.000
1641207847937958912,2022-01-03-11:04:07,10.1.1.5,182,-0.060,-0.060,-0.060,0.000,0.000,0.000
1641207848135782912,2022-01-03-11:04:08,10.1.1.5,179,-0.070,-0.070,-0.070,0.000,0.000,0.000
1641207848338088960,2022-01-03-11:04:08,10.1.1.5,181,-0.080,-0.080,-0.080,0.000,0.000,0.000
1641207848535934976,2022-01-03-11:04:08,10.1.1.5,178,-0.090,-0.090,-0.090,0.000,0.000,0.000
1641207848735211008,2022-01-03-11:04:08,10.1.1.5,177,-0.100,-0.100,-0.100,0.000,0.000,0.000
1641207848934857984,2022-01-03-11:04:08,10.1.1.5,176,-0.110,-0.110,-0.110,0.000,0.000,0.000
1641207849135211008,2022-01-03-11:04:09,10.1.1.5,175,-0.120,-0.120,-0.120,0.000,0.000,0.000
1641207849337392128,2022-01-03-11:04:09,10.1.1.5,176,-0.130,-0.130,-0.130,0.000,0.000,0.000
1641207849537261056,2022-01-03-11:04:09,10.1.1.5,175,-0.140,-0.140,-0.140,0.000,0.000,0.000
1641207849738477824,2022-01-03-11:04:09,10.1.1.5,176,-0.150,-0.150,-0.150,0.000,0.000,0.000
1641207849939304960,2022-01-03-11:04:09,10.1.1.5,176,-0.160,-0.160,-0.160,0.000,0.000,0.000
1641207850139888128,2022-01-03-11:04:10,10.1.1.5,175,-0.170,-0.170,-0.170,0.000,0.000,0.000
1641207850340730880,2022-01-03-11:04:10,10.1.1.5,175,-0.180,-0.180,-0.180,0.000,0.000,0.000
1641207850541551104,2022-01-03-11:04:10,10.1.1.5,175,-0.190,-0.190,-0.190,0.000,0.000,0.000
1641207850742574080,2022-01-03-11:04:10,10.1.1.5,175,-0.200,-0.200,-0.200,0.000,0.000,0.000
1641207850963383808,2022-01-03-11:04:10,10.1.1.5,194,-0.210,-0.210,-0.210,0.000,0.000,0.000
1641207851144068096,2022-01-03-11:04:11,10.1.1.5,174,-0.220,-0.220,-0.220,0.000,0.000,0.000
1641207851345409024,2022-01-03-11:04:11,10.1.1.5,175,-0.230,-0.230,-0.230,0.000,0.000,0.000
1641207851546964992,2022-01-03-11:04:11,10.1.1.5,175,-0.240,-0.240,-0.240,0.000,0.000,0.000
1641207851766616064,2022-01-03-11:04:11,10.1.1.5,194,-0.250,-0.250,-0.250,0.000,0.000,0.000
1641207851947056896,2022-01-03-11:04:11,10.1.1.5,174,-0.260,-0.260,-0.260,0.000,0.000,0.000
1641207852168216832,2022-01-03-11:04:12,10.1.1.5,194,-0.270,-0.270,-0.270,0.000,0.000,0.000
1641207852349025024,2022-01-03-11:04:12,10.1.1.5,174,-0.280,-0.280,-0.280,0.000,0.000,0.000
1641207852548542976,2022-01-03-11:04:12,10.1.1.5,173,-0.290,-0.290,-0.290,0.000,0.000,0.000
1641207852750225920,2022-01-03-11:04:12,10.1.1.5,174,-0.300,-0.300,-0.300,0.000,0.000,0.000
1641207852969819904,2022-01-03-11:04:12,10.1.1.5,193,-0.310,-0.310,-0.310,0.000,0.000,0.000
1641207853161478912,2022-01-03-11:04:13,10.1.1.5,183,-0.320,-0.320,-0.320,0.000,0.000,0.000
1641207853362078976,2022-01-03-11:04:13,10.1.1.5,183,-0.330,-0.330,-0.330,0.000,0.000,0.000
1641207853562534144,2022-01-03-11:04:13,10.1.1.5,182,-0.340,-0.340,-0.340,0.000,0.000,0.000
1641207853763264768,2022-01-03-11:04:13,10.1.1.5,181,-0.350,-0.350,-0.350,0.000,0.000,0.000
1641207853964296960,2022-01-03-11:04:13,10.1.1.5,182,-0.360,-0.360,-0.360,0.000,0.000,0.000
1641207854162440960,2022-01-03-11:04:14,10.1.1.5,179,-0.370,-0.370,-0.370,0.000,0.000,0.000
1641207854363152896,2022-01-03-11:04:14,10.1.1.5,179,-0.380,-0.380,-0.380,0.000,0.000,0.000
1641207854574842880,2022-01-03-11:04:14,10.1.1.5,189,-0.390,-0.390,-0.390,0.000,0.000,0.000
1641207854779421184,2022-01-03-11:04:14,10.1.1.5,193,-0.400,-0.400,-0.400,0.000,0.000,0.000
1641207854974562816,2022-01-03-11:04:14,10.1.1.5,188,-0.410,-0.410,-0.410,0.000,0.000,0.000
1641207855175107840,2022-01-03-11:04:15,10.1.1.5,188,-0.420,-0.420,-0.420,0.000,0.000,0.000
1641207855374827008,2022-01-03-11:04:15,10.1.1.5,183,-0.430,-0.430,-0.430,0.000,0.000,0.000
1641207855585613056,2022-01-03-11:04:15,10.1.1.5,193,-0.440,-0.440,-0.440,0.000,0.000,0.000
1641207855985235968,2022-01-03-11:04:15,10.1.1.5,191,-0.460,-0.460,-0.460,0.000,0.000,0.000
1641207856176284160,2022-01-03-11:04:16,10.1.1.5,182,-0.470,-0.470,-0.470,0.000,0.000,0.000
1641207856375762944,2022-01-03-11:04:16,10.1.1.5,181,-0.480,-0.480,-0.480,0.000,0.000,0.000
1641207856575622912,2022-01-03-11:04:16,10.1.1.5,180,-0.490,-0.490,-0.490,0.000,0.000,0.000
1641207856776606976,2022-01-03-11:04:16,10.1.1.5,181,-0.480,-0.480,-0.480,0.000,0.000,0.000
1641207856976898048,2022-01-03-11:04:16,10.1.1.5,180,-0.470,-0.470,-0.470,0.000,0.000,0.000
1641207857177597952,2022-01-03-11:04:17,10.1.1.5,180,-0.460,-0.460,-0.460,0.000,0.000,0.000
1641207857385196032,2022-01-03-11:04:17,10.1.1.5,183,-0.450,-0.450,-0.450,0.000,0.000,0.000
1641207857586780928,2022-01-03-11:04:17,10.1.1.5,188,-0.440,-0.440,-0.440,0.000,0.000,0.000
1641207857796389120,2022-01-03-11:04:17,10.1.1.5,197,-0.430,-0.430,-0.430,0.000,0.000,0.000
1641207857997059072,2022-01-03-11:04:17,10.1.1.5,195,-0.420,-0.420,-0.420,0.000,0.000,0.000
1641207858196851968,2022-01-03-11:04:18,10.1.1.5,194,-0.410,-0.410,-0.410,0.000,0.000,0.000
1641207858396667904,2022-01-03-11:04:18,10.1.1.5,193,-0.400,-0.400,-0.400,0.000,0.000,0.000
1641207858587828992,2022-01-03-11:04:18,10.1.1.5,183,-0.390,-0.390,-0.390,0.000,0.000,0.000
1641207858798147072,2022-01-03-11:04:18,10.1.1.5,189,-0.380,-0.380,-0.380,0.000,0.000,0.000
1641207859007074048,2022-01-03-11:04:19,10.1.1.5,197,-0.370,-0.370,-0.370,0.000,0.000,0.000
1641207859197020928,2022-01-03-11:04:19,10.1.1.5,187,-0.360,-0.360,-0.360,0.000,0.000,0.000
1641207859403244032,2022-01-03-11:04:19,10.1.1.5,191,-0.350,-0.350,-0.350,0.000,0.000,0.000
1641207859607283200,2022-01-03-11:04:19,10.1.1.5,196,-0.340,-0.340,-0.340,0.000,0.000,0.000
1641207859817305088,2022-01-03-11:04:19,10.1.1.5,200,-0.330,-0.330,-0.330,0.000,0.000,0.000
1641207860017724160,2022-01-03-11:04:20,10.1.1.5,200,-0.320,-0.320,-0.320,0.000,0.000,0.000
1641207860208093952,2022-01-03-11:04:20,10.1.1.5,189,-0.310,-0.310,-0.310,0.000,0.000,0.000
1641207860417469952,2022-01-03-11:04:20,10.1.1.5,198,-0.300,-0.300,-0.300,0.000,0.000,0.000
1641207860608033024,2022-01-03-11:04:20,10.1.1.5,188,-0.290,-0.290,-0.290,0.000,0.000,0.000
1641207860815046912,2022-01-03-11:04:20,10.1.1.5,195,-0.280,-0.280,-0.280,0.000,0.000,0.000
1641207861017540096,2022-01-03-11:04:21,10.1.1.5,184,-0.270,-0.270,-0.270,0.000,0.000,0.000
1641207861227334912,2022-01-03-11:04:21,10.1.1.5,187,-0.260,-0.260,-0.260,0.000,0.000,0.000
1641207861429261056,2022-01-03-11:04:21,10.1.1.5,184,-0.250,-0.250,-0.250,0.000,0.000,0.000
1641207861637171968,2022-01-03-11:04:21,10.1.1.5,193,-0.240,-0.240,-0.240,0.000,0.000,0.000
1641207861836577792,2022-01-03-11:04:21,10.1.1.5,189,-0.230,-0.230,-0.230,0.000,0.000,0.000
1641207862037393920,2022-01-03-11:04:22,10.1.1.5,188,-0.220,-0.220,-0.220,0.000,0.000,0.000
1641207862248657920,2022-01-03-11:04:22,10.1.1.5,198,-0.210,-0.210,-0.210,0.000,0.000,0.000
1641207862436078080,2022-01-03-11:04:22,10.1.1.5,185,-0.200,-0.200,-0.200,0.000,0.000,0.000
1641207862837858816,2022-01-03-11:04:22,10.1.1.5,185,-0.180,-0.180,-0.180,0.000,0.000,0.000
1641207863036048896,2022-01-03-11:04:23,10.1.1.5,183,-0.170,-0.170,-0.170,0.000,0.000,0.000
1641207863236852992,2022-01-03-11:04:23,10.1.1.5,182,-0.160,-0.160,-0.160,0.000,0.000,0.000
1641207863447602944,2022-01-03-11:04:23,10.1.1.5,192,-0.150,-0.150,-0.150,0.000,0.000,0.000
1641207863635390976,2022-01-03-11:04:23,10.1.1.5,180,-0.140,-0.140,-0.140,0.000,0.000,0.000
1641207863835735040,2022-01-03-11:04:23,10.1.1.5,179,-0.130,-0.130,-0.130,0.000,0.000,0.000
1641207864045197056,2022-01-03-11:04:24,10.1.1.5,188,-0.120,-0.120,-0.120,0.000,0.000,0.000
1641207864235025920,2022-01-03-11:04:24,10.1.1.5,177,-0.110,-0.110,-0.110,0.000,0.000,0.000
1641207864455056896,2022-01-03-11:04:24,10.1.1.5,197,-0.100,-0.100,-0.100,0.000,0.000,0.000
1641207864647558912,2022-01-03-11:04:24,10.1.1.5,189,-0.090,-0.090,-0.090,0.000,0.000,0.000
1641207864855987968,2022-01-03-11:04:24,10.1.1.5,196,-0.080,-0.080,-0.080,0.000,0.000,0.000
1641207865045206016,2022-01-03-11:04:25,10.1.1.5,184,-0.070,-0.070,-0.070,0.000,0.000,0.000
1641207865245402112,2022-01-03-11:04:25,10.1.1.5,184,-0.060,-0.060,-0.060,0.000,0.000,0.000
1641207865459245824,2022-01-03-11:04:25,10.1.1.5,196,-0.050,-0.050,-0.050,0.000,0.000,0.000
1641207865654897920,2022-01-03-11:04:25,10.1.1.5,178,-0.040,-0.040,-0.040,0.000,0.000,0.000
1641207865874740992,2022-01-03-11:04:25,10.1.1.5,196,-0.030,-0.030,-0.030,0.000,0.000,0.000
1641207866065324032,2022-01-03-11:04:26,10.1.1.5,186,-0.020,-0.020,-0.020,0.000,0.000,0.000
1641207866264493824,2022-01-03-11:04:26,10.1.1.5,184,-0.010,-0.010,-0.010,0.000,0.000,0.000
1641207866463632128,2022-01-03-11:04:26,10.1.1.5,182,0.000,0.000,0.000,0.000,0.000,0.000
1641207866675532032,2022-01-03-11:04:26,10.1.1.5,192,-0.010,-0.010,-0.010,0.000,0.000,0.000
1641207866870574080,2022-01-03-11:04:26,10.1.1.5,187,-0.020,-0.020,-0.020,0.000,0.000,0.000
1641207867065985024,2022-01-03-11:04:27,10.1.1.5,180,-0.030,-0.030,-0.030,0.000,0.000,0.000
1641207867265424896,2022-01-03-11:04:27,10.1.1.5,179,-0.040,-0.040,-0.040,0.000,0.000,0.000
1641207867672285184,2022-01-03-11:04:27,10.1.1.5,184,-0.060,-0.060,-0.060,0.000,0.000,0.000
1641207867883478016,2022-01-03-11:04:27,10.1.1.5,194,-0.070,-0.070,-0.070,0.000,0.000,0.000
1641207868071116032,2022-01-03-11:04:28,10.1.1.5,181,-0.080,-0.080,-0.080,0.000,0.000,0.000
1641207868271055104,2022-01-03-11:04:28,10.1.1.5,179,-0.090,-0.090,-0.090,0.000,0.000,0.000
1641207868471601920,2022-01-03-11:04:28,10.1.1.5,179,-0.100,-0.100,-0.100,0.000,0.000,0.000
1641207868671446016,2022-01-03-11:04:28,10.1.1.5,179,-0.110,-0.110,-0.110,0.000,0.000,0.000
1641207868870945024,2022-01-03-11:04:28,10.1.1.5,178,-0.120,-0.120,-0.120,0.000,0.000,0.000
1641207869069957888,2022-01-03-11:04:29,10.1.1.5,176,-0.130,-0.130,-0.130,0.000,0.000,0.000
1641207869270034176,2022-01-03-11:04:29,10.1.1.5,175,-0.140,-0.140,-0.140,0.000,0.000,0.000
1641207869470756096,2022-01-03-11:04:29,10.1.1.5,175,-0.150,-0.150,-0.150,0.000,0.000,0.000
1641207869669400832,2022-01-03-11:04:29,10.1.1.5,173,-0.160,-0.160,-0.160,0.000,0.000,0.000
1641207869870914048,2022-01-03-11:04:29,10.1.1.5,174,-0.170,-0.170,-0.170,0.000,0.000,0.000
1641207870079432960,2022-01-03-11:04:30,10.1.1.5,182,-0.180,-0.180,-0.180,0.000,0.000,0.000
1641207870289982208,2022-01-03-11:04:30,10.1.1.5,192,-0.190,-0.190,-0.190,0.000,0.000,0.000
1641207870498760960,2022-01-03-11:04:30,10.1.1.5,199,-0.200,-0.200,-0.200,0.000,0.000,0.000
1641207870688410880,2022-01-03-11:04:30,10.1.1.5,184,-0.210,-0.210,-0.210,0.000,0.000,0.000
1641207870878356992,2022-01-03-11:04:30,10.1.1.5,173,-0.220,-0.220,-0.220,0.000,0.000,0.000
1641207871088355072,2022-01-03-11:04:31,10.1.1.5,183,-0.230,-0.230,-0.230,0.000,0.000,0.000
1641207871287589120,2022-01-03-11:04:31,10.1.1.5,181,-0.240,-0.240,-0.240,0.000,0.000,0.000
1641207871486955008,2022-01-03-11:04:31,10.1.1.5,180,-0.250,-0.250,-0.250,0.000,0.000,0.000
1641207871687145984,2022-01-03-11:04:31,10.1.1.5,180,-0.260,-0.260,-0.260,0.000,0.000,0.000
1641207871887140864,2022-01-03-11:04:31,10.1.1.5,179,-0.270,-0.270,-0.270,0.000,0.000,0.000
1641207872106363904,2022-01-03-11:04:32,10.1.1.5,197,-0.280,-0.280,-0.280,0.000,0.000,0.000
1641207872286448128,2022-01-03-11:04:32,10.1.1.5,176,-0.290,-0.290,-0.290,0.000,0.000,0.000
1641207872485410816,2022-01-03-11:04:32,10.1.1.5,174,-0.300,-0.300,-0.300,0.000,0.000,0.000
1641207872686305024,2022-01-03-11:04:32,10.1.1.5,174,-0.310,-0.310,-0.310,0.000,0.000,0.000
1641207872894934016,2022-01-03-11:04:32,10.1.1.5,183,-0.320,-0.320,-0.320,0.000,0.000,0.000
1641207873085298944,2022-01-03-11:04:33,10.1.1.5,172,-0.330,-0.330,-0.330,0.000,0.000,0.000
1641207873285131008,2022-01-03-11:04:33,10.1.1.5,172,-0.340,-0.340,-0.340,0.000,0.000,0.000
1641207873484344064,2022-01-03-11:04:33,10.1.1.5,170,-0.350,-0.350,-0.350,0.000,0.000,0.000
1641207873704440064,2022-01-03-11:04:33,10.1.1.5,190,-0.360,-0.360,-0.360,0.000,0.000,0.000
1641207873883523072,2022-01-03-11:04:33,10.1.1.5,169,-0.370,-0.370,-0.370,0.000,0.000,0.000
1641207874083216896,2022-01-03-11:04:34,10.1.1.5,168,-0.380,-0.380,-0.380,0.000,0.000,0.000
1641207874283875840,2022-01-03-11:04:34,10.1.1.5,168,-0.390,-0.390,-0.390,0.000,0.000,0.000
1641207874483968000,2022-01-03-11:04:34,10.1.1.5,167,-0.400,-0.400,-0.400,0.000,0.000,0.000
1641207874702334976,2022-01-03-11:04:34,10.1.1.5,185,-0.410,-0.410,-0.410,0.000,0.000,0.000
1641207874902494976,2022-01-03-11:04:34,10.1.1.5,184,-0.420,-0.420,-0.420,0.000,0.000,0.000
1641207875102433024,2022-01-03-11:04:35,10.1.1.5,183,-0.430,-0.430,-0.430,0.000,0.000,0.000
1641207875302068992,2022-01-03-11:04:35,10.1.1.5,182,-0.440,-0.440,-0.440,0.000,0.000,0.000
1641207875502510080,2022-01-03-11:04:35,10.1.1.5,182,-0.450,-0.450,-0.450,0.000,0.000,0.000
1641207875700873984,2022-01-03-11:04:35,10.1.1.5,180,-0.460,-0.460,-0.460,0.000,0.000,0.000
1641207875900738048,2022-01-03-11:04:35,10.1.1.5,180,-0.470,-0.470,-0.470,0.000,0.000,0.000
1641207876100488960,2022-01-03-11:04:36,10.1.1.5,179,-0.480,-0.480,-0.480,0.000,0.000,0.000
1641207876290383104,2022-01-03-11:04:36,10.1.1.5,169,-0.490,-0.490,-0.490,0.000,0.000,0.000
1641207876490343168,2022-01-03-11:04:36,10.1.1.5,168,-0.480,-0.480,-0.480,0.000,0.000,0.000
1641207876699717888,2022-01-03-11:04:36,10.1.1.5,177,-0.470,-0.470,-0.470,0.000,0.000,0.000
1641207876896510976,2022-01-03-11:04:36,10.1.1.5,173,-0.460,-0.460,-0.460,0.000,0.000,0.000
1641207877098691840,2022-01-03-11:04:37,10.1.1.5,174,-0.450,-0.450,-0.450,0.000,0.000,0.000
1641207877298505984,2022-01-03-11:04:37,10.1.1.5,172,-0.440,-0.440,-0.440,0.000,0.000,0.000
1641207877498315008,2022-01-03-11:04:37,10.1.1.5,172,-0.430,-0.430,-0.430,0.000,0.000,0.000
1641207877688847104,2022-01-03-11:04:37,10.1.1.5,162,-0.420,-0.420,-0.420,0.000,0.000,0.000
1641207877898371840,2022-01-03-11:04:37,10.1.1.5,171,-0.410,-0.410,-0.410,0.000,0.000,0.000
1641207878108818176,2022-01-03-11:04:38,10.1.1.5,170,-0.400,-0.400,-0.400,0.000,0.000,0.000
1641207878307086848,2022-01-03-11:04:38,10.1.1.5,168,-0.390,-0.390,-0.390,0.000,0.000,0.000
1641207878516941056,2022-01-03-11:04:38,10.1.1.5,178,-0.380,-0.380,-0.380,0.000,0.000,0.000
1641207878716656896,2022-01-03-11:04:38,10.1.1.5,177,-0.370,-0.370,-0.370,0.000,0.000,0.000
1641207878907113984,2022-01-03-11:04:38,10.1.1.5,167,-0.360,-0.360,-0.360,0.000,0.000,0.000
1641207879116355840,2022-01-03-11:04:39,10.1.1.5,176,-0.350,-0.350,-0.350,0.000,0.000,0.000
1641207879316260096,2022-01-03-11:04:39,10.1.1.5,174,-0.340,-0.340,-0.340,0.000,0.000,0.000
1641207879715001088,2022-01-03-11:04:39,10.1.1.5,162,-0.320,-0.320,-0.320,0.000,0.000,0.000
1641207879925189888,2022-01-03-11:04:39,10.1.1.5,172,-0.310,-0.310,-0.310,0.000,0.000,0.000
1641207880124285952,2022-01-03-11:04:40,10.1.1.5,170,-0.300,-0.300,-0.300,0.000,0.000,0.000
1641207880313828864,2022-01-03-11:04:40,10.1.1.5,159,-0.290,-0.290,-0.290,0.000,0.000,0.000
1641207880523437056,2022-01-03-11:04:40,10.1.1.5,168,-0.280,-0.280,-0.280,0.000,0.000,0.000
1641207880734019072,2022-01-03-11:04:40,10.1.1.5,179,-0.270,-0.270,-0.270,0.000,0.000,0.000
1641207880912843008,2022-01-03-11:04:40,10.1.1.5,157,-0.260,-0.260,-0.260,0.000,0.000,0.000
1641207881114209792,2022-01-03-11:04:41,10.1.1.5,158,-0.250,-0.250,-0.250,0.000,0.000,0.000
1641207881315702016,2022-01-03-11:04:41,10.1.1.5,159,-0.240,-0.240,-0.240,0.000,0.000,0.000
1641207881536163072,2022-01-03-11:04:41,10.1.1.5,179,-0.230,-0.230,-0.230,0.000,0.000,0.000
1641207881736717824,2022-01-03-11:04:41,10.1.1.5,179,-0.220,-0.220,-0.220,0.000,0.000,0.000
1641207881940936960,2022-01-03-11:04:41,10.1.1.5,182,-0.210,-0.210,-0.210,0.000,0.000,0.000
1641207882128998912,2022-01-03-11:04:42,10.1.1.5,169,-0.200,-0.200,-0.200,0.000,0.000,0.000
1641207882340132864,2022-01-03-11:04:42,10.1.1.5,176,-0.190,-0.190,-0.190,0.000,0.000,0.000
1641207882540851968,2022-01-03-11:04:42,10.1.1.5,177,-0.180,-0.180,-0.180,0.000,0.000,0.000
1641207882741088000,2022-01-03-11:04:42,10.1.1.5,176,-0.170,-0.170,-0.170,0.000,0.000,0.000
1641207882942361088,2022-01-03-11:04:42,10.1.1.5,177,-0.160,-0.160,-0.160,0.000,0.000,0.000
1641207883152509952,2022-01-03-11:04:43,10.1.1.5,187,-0.150,-0.150,-0.150,0.000,0.000,0.000
1641207883343799040,2022-01-03-11:04:43,10.1.1.5,178,-0.140,-0.140,-0.140,0.000,0.000,0.000
1641207883544361216,2022-01-03-11:04:43,10.1.1.5,177,-0.130,-0.130,-0.130,0.000,0.000,0.000
1641207883746867968,2022-01-03-11:04:43,10.1.1.5,179,-0.120,-0.120,-0.120,0.000,0.000,0.000
1641207883946161920,2022-01-03-11:04:43,10.1.1.5,177,-0.110,-0.110,-0.110,0.000,0.000,0.000
1641207884147095040,2022-01-03-11:04:44,10.1.1.5,177,-0.100,-0.100,-0.100,0.000,0.000,0.000
1641207884346909952,2022-01-03-11:04:44,10.1.1.5,177,-0.090,-0.090,-0.090,0.000,0.000,0.000
1641207884547655936,2022-01-03-11:04:44,10.1.1.5,177,-0.080,-0.080,-0.080,0.000,0.000,0.000
1641207884748545024,2022-01-03-11:04:44,10.1.1.5,177,-0.070,-0.070,-0.070,0.000,0.000,0.000
1641207884948951040,2022-01-03-11:04:44,10.1.1.5,177,-0.060,-0.060,-0.060,0.000,0.000,0.000
1641207885156625152,2022-01-03-11:04:45,10.1.1.5,184,-0.050,-0.050,-0.050,0.000,0.000,0.000
1641207885351459072,2022-01-03-11:04:45,10.1.1.5,179,-0.040,-0.040,-0.040,0.000,0.000,0.000
1641207885550609152,2022-01-03-11:04:45,10.1.1.5,177,-0.030,-0.030,-0.030,0.000,0.000,0.000
1641207885751255040,2022-01-03-11:04:45,10.1.1.5,178,-0.020,-0.020,-0.020,0.000,0.000,0.000
1641207885951741952,2022-01-03-11:04:45,10.1.1.5,178,-0.010,-0.010,-0.010,0.000,0.000,0.000
1641207886152476928,2022-01-03-11:04:46,10.1.1.5,178,0.000,0.000,0.000,0.000,0.000,0.000
1641207886372847104,2022-01-03-11:04:46,10.1.1.5,197,-0.010,-0.010,-0.010,0.000,0.000,0.000
1641207886572651008,2022-01-03-11:04:46,10.1.1.5,195,-0.020,-0.020,-0.020,0.000,0.000,0.000
1641207886766707968,2022-01-03-11:04:46,10.1.1.5,189,-0.030,-0.030,-0.030,0.000,0.000,0.000
1641207886973812224,2022-01-03-11:04:46,10.1.1.5,195,-0.040,-0.040,-0.040,0.000,0.000,0.000
1641207887174371840,2022-01-03-11:04:47,10.1.1.5,195,-0.050,-0.050,-0.050,0.000,0.000,0.000
1641207887374274048,2022-01-03-11:04:47,10.1.1.5,194,-0.060,-0.060,-0.060,0.000,0.000,0.000
1641207887575017984,2022-01-03-11:04:47,10.1.1.5,194,-0.070,-0.070,-0.070,0.000,0.000,0.000
1641207887767499008,2022-01-03-11:04:47,10.1.1.5,187,-0.080,-0.080,-0.080,0.000,0.000,0.000
1641207887975080960,2022-01-03-11:04:47,10.1.1.5,193,-0.090,-0.090,-0.090,0.000,0.000,0.000
1641207888187017984,2022-01-03-11:04:48,10.1.1.5,197,-0.100,-0.100,-0.100,0.000,0.000,0.000
1641207888376632064,2022-01-03-11:04:48,10.1.1.5,186,-0.110,-0.110,-0.110,0.000,0.000,0.000
1641207888587228928,2022-01-03-11:04:48,10.1.1.5,195,-0.120,-0.120,-0.120,0.000,0.000,0.000
1641207888977436928,2022-01-03-11:04:48,10.1.1.5,185,-0.140,-0.140,-0.140,0.000,0.000,0.000
1641207889177732864,2022-01-03-11:04:49,10.1.1.5,184,-0.150,-0.150,-0.150,0.000,0.000,0.000
1641207889377765888,2022-01-03-11:04:49,10.1.1.5,183,-0.160,-0.160,-0.160,0.000,0.000,0.000
1641207889588131072,2022-01-03-11:04:49,10.1.1.5,193,-0.170,-0.170,-0.170,0.000,0.000,0.000
1641207890018173952,2022-01-03-11:04:50,10.1.1.5,200,-0.190,-0.190,-0.190,0.000,0.000,0.000
1641207890218884864,2022-01-03-11:04:50,10.1.1.5,200,-0.200,-0.200,-0.200,0.000,0.000,0.000
1641207890616983808,2022-01-03-11:04:50,10.1.1.5,184,-0.220,-0.220,-0.220,0.000,0.000,0.000
1641207890817334016,2022-01-03-11:04:50,10.1.1.5,183,-0.230,-0.230,-0.230,0.000,0.000,0.000
1641207891017056000,2022-01-03-11:04:51,10.1.1.5,182,-0.240,-0.240,-0.240,0.000,0.000,0.000
1641207891217384960,2022-01-03-11:04:51,10.1.1.5,182,-0.250,-0.250,-0.250,0.000,0.000,0.000
1641207891416933120,2022-01-03-11:04:51,10.1.1.5,181,-0.260,-0.260,-0.260,0.000,0.000,0.000
1641207891617458944,2022-01-03-11:04:51,10.1.1.5,181,-0.270,-0.270,-0.270,0.000,0.000,0.000
1641207891836798976,2022-01-03-11:04:51,10.1.1.5,199,-0.280,-0.280,-0.280,0.000,0.000,0.000
1641207892037360896,2022-01-03-11:04:52,10.1.1.5,199,-0.290,-0.290,-0.290,0.000,0.000,0.000
1641207892237549056,2022-01-03-11:04:52,10.1.1.5,198,-0.300,-0.300,-0.300,0.000,0.000,0.000
1641207892437041152,2022-01-03-11:04:52,10.1.1.5,198,-0.310,-0.310,-0.310,0.000,0.000,0.000
1641207892636737024,2022-01-03-11:04:52,10.1.1.5,197,-0.320,-0.320,-0.320,0.000,0.000,0.000
1641207892827341056,2022-01-03-11:04:52,10.1.1.5,187,-0.330,-0.330,-0.330,0.000,0.000,0.000
1641207893036552960,2022-01-03-11:04:53,10.1.1.5,196,-0.340,-0.340,-0.340,0.000,0.000,0.000
1641207893236897024,2022-01-03-11:04:53,10.1.1.5,195,-0.350,-0.350,-0.350,0.000,0.000,0.000
1641207893437084928,2022-01-03-11:04:53,10.1.1.5,195,-0.360,-0.360,-0.360,0.000,0.000,0.000
1641207893640688896,2022-01-03-11:04:53,10.1.1.5,198,-0.370,-0.370,-0.370,0.000,0.000,0.000
1641207893837305088,2022-01-03-11:04:53,10.1.1.5,194,-0.380,-0.380,-0.380,0.000,0.000,0.000
1641207894037161984,2022-01-03-11:04:54,10.1.1.5,193,-0.390,-0.390,-0.390,0.000,0.000,0.000
1641207894236933888,2022-01-03-11:04:54,10.1.1.5,193,-0.400,-0.400,-0.400,0.000,0.000,0.000
1641207894437403904,2022-01-03-11:04:54,10.1.1.5,192,-0.410,-0.410,-0.410,0.000,0.000,0.000
1641207894836668928,2022-01-03-11:04:54,10.1.1.5,186,-0.430,-0.430,-0.430,0.000,0.000,0.000
1641207895037483008,2022-01-03-11:04:55,10.1.1.5,185,-0.440,-0.440,-0.440,0.000,0.000,0.000
1641207895236370176,2022-01-03-11:04:55,10.1.1.5,184,-0.450,-0.450,-0.450,0.000,0.000,0.000
1641207895436893952,2022-01-03-11:04:55,10.1.1.5,182,-0.460,-0.460,-0.460,0.000,0.000,0.000
1641207895636708096,2022-01-03-11:04:55,10.1.1.5,181,-0.470,-0.470,-0.470,0.000,0.000,0.000
1641207895836264960,2022-01-03-11:04:55,10.1.1.5,180,-0.480,-0.480,-0.480,0.000,0.000,0.000
1641207896037206016,2022-01-03-11:04:56,10.1.1.5,181,-0.490,-0.490,-0.490,0.000,0.000,0.000
1641207896236633088,2022-01-03-11:04:56,10.1.1.5,180,-0.480,-0.480,-0.480,0.000,0.000,0.000
1641207896435909120,2022-01-03-11:04:56,10.1.1.5,179,-0.470,-0.470,-0.470,0.000,0.000,0.000
1641207896635507200,2022-01-03-11:04:56,10.1.1.5,178,-0.460,-0.460,-0.460,0.000,0.000,0.000
1641207896855042816,2022-01-03-11:04:56,10.1.1.5,196,-0.450,-0.450,-0.450,0.000,0.000,0.000
1641207897046118912,2022-01-03-11:04:57,10.1.1.5,187,-0.440,-0.440,-0.440,0.000,0.000,0.000
1641207897255443968,2022-01-03-11:04:57,10.1.1.5,195,-0.430,-0.430,-0.430,0.000,0.000,0.000
1641207897445559040,2022-01-03-11:04:57,10.1.1.5,184,-0.420,-0.420,-0.420,0.000,0.000,0.000
1641207897646109952,2022-01-03-11:04:57,10.1.1.5,184,-0.410,-0.410,-0.410,0.000,0.000,0.000
1641207897860347136,2022-01-03-11:04:57,10.1.1.5,197,-0.400,-0.400,-0.400,0.000,0.000,0.000
1641207898061604864,2022-01-03-11:04:58,10.1.1.5,198,-0.390,-0.390,-0.390,0.000,0.000,0.000
1641207898246465024,2022-01-03-11:04:58,10.1.1.5,182,-0.380,-0.380,-0.380,0.000,0.000,0.000
1641207898454031872,2022-01-03-11:04:58,10.1.1.5,189,-0.370,-0.370,-0.370,0.000,0.000,0.000
1641207898657737984,2022-01-03-11:04:58,10.1.1.5,192,-0.360,-0.360,-0.360,0.000,0.000,0.000
1641207898843215104,2022-01-03-11:04:58,10.1.1.5,177,-0.350,-0.350,-0.350,0.000,0.000,0.000
1641207899053659904,2022-01-03-11:04:59,10.1.1.5,187,-0.340,-0.340,-0.340,0.000,0.000,0.000
1641207899252875008,2022-01-03-11:04:59,10.1.1.5,185,-0.330,-0.330,-0.330,0.000,0.000,0.000
1641207899452574976,2022-01-03-11:04:59,10.1.1.5,184,-0.320,-0.320,-0.320,0.000,0.000,0.000
1641207899652910848,2022-01-03-11:04:59,10.1.1.5,183,-0.310,-0.310,-0.310,0.000,0.000,0.000
1641207899852654848,2022-01-03-11:04:59,10.1.1.5,182,-0.300,-0.300,-0.300,0.000,0.000,0.000
1641207900062632192,2022-01-03-11:05:00,10.1.1.5,191,-0.290,-0.290,-0.290,0.000,0.000,0.000
1641207900271553024,2022-01-03-11:05:00,10.1.1.5,200,-0.280,-0.280,-0.280,0.000,0.000,0.000
1641207900471080960,2022-01-03-11:05:00,10.1.1.5,198,-0.270,-0.270,-0.270,0.000,0.000,0.000
1641207900652116992,2022-01-03-11:05:00,10.1.1.5,178,-0.260,-0.260,-0.260,0.000,0.000,0.000
1641207900850672896,2022-01-03-11:05:00,10.1.1.5,176,-0.250,-0.250,-0.250,0.000,0.000,0.000
1641207901051009024,2022-01-03-11:05:01,10.1.1.5,176,-0.240,-0.240,-0.240,0.000,0.000,0.000
1641207901250597120,2022-01-03-11:05:01,10.1.1.5,175,-0.230,-0.230,-0.230,0.000,0.000,0.000
1641207901450213888,2022-01-03-11:05:01,10.1.1.5,173,-0.220,-0.220,-0.220,0.000,0.000,0.000
1641207901660433920,2022-01-03-11:05:01,10.1.1.5,182,-0.210,-0.210,-0.210,0.000,0.000,0.000
1641207901870019840,2022-01-03-11:05:01,10.1.1.5,192,-0.200,-0.200,-0.200,0.000,0.000,0.000
1641207902061853952,2022-01-03-11:05:02,10.1.1.5,183,-0.190,-0.190,-0.190,0.000,0.000,0.000
1641207902259879168,2022-01-03-11:05:02,10.1.1.5,180,-0.180,-0.180,-0.180,0.000,0.000,0.000
1641207902468990976,2022-01-03-11:05:02,10.1.1.5,189,-0.170,-0.170,-0.170,0.000,0.000,0.000
1641207902668622848,2022-01-03-11:05:02,10.1.1.5,188,-0.160,-0.160,-0.160,0.000,0.000,0.000
1641207902868980992,2022-01-03-11:05:02,10.1.1.5,187,-0.150,-0.150,-0.150,0.000,0.000,0.000
1641207903069001984,2022-01-03-11:05:03,10.1.1.5,187,-0.140,-0.140,-0.140,0.000,0.000,0.000
1641207903271405056,2022-01-03-11:05:03,10.1.1.5,189,-0.130,-0.130,-0.130,0.000,0.000,0.000
1641207903468712960,2022-01-03-11:05:03,10.1.1.5,186,-0.120,-0.120,-0.120,0.000,0.000,0.000
1641207903669945856,2022-01-03-11:05:03,10.1.1.5,185,-0.110,-0.110,-0.110,0.000,0.000,0.000
1641207903867764992,2022-01-03-11:05:03,10.1.1.5,183,-0.100,-0.100,-0.100,0.000,0.000,0.000
1641207904067308800,2022-01-03-11:05:04,10.1.1.5,181,-0.090,-0.090,-0.090,0.000,0.000,0.000
1641207904267042048,2022-01-03-11:05:04,10.1.1.5,181,-0.080,-0.080,-0.080,0.000,0.000,0.000
1641207904466865152,2022-01-03-11:05:04,10.1.1.5,180,-0.070,-0.070,-0.070,0.000,0.000,0.000
1641207904666488832,2022-01-03-11:05:04,10.1.1.5,179,-0.060,-0.060,-0.060,0.000,0.000,0.000
1641207904878617088,2022-01-03-11:05:04,10.1.1.5,190,-0.050,-0.050,-0.050,0.000,0.000,0.000
1641207905065469952,2022-01-03-11:05:05,10.1.1.5,176,-0.040,-0.040,-0.040,0.000,0.000,0.000
1641207905285523968,2022-01-03-11:05:05,10.1.1.5,186,-0.030,-0.030,-0.030,0.000,0.000,0.000
1641207905487191040,2022-01-03-11:05:05,10.1.1.5,188,-0.020,-0.020,-0.020,0.000,0.000,0.000
1641207905674945024,2022-01-03-11:05:05,10.1.1.5,174,-0.010,-0.010,-0.010,0.000,0.000,0.000
1641207905884315136,2022-01-03-11:05:05,10.1.1.5,183,0.000,0.000,0.000,0.000,0.000,0.000
1641207906084852992,2022-01-03-11:05:06,10.1.1.5,183,-0.010,-0.010,-0.010,0.000,0.000,0.000
1641207906274630144,2022-01-03-11:05:06,10.1.1.5,172,-0.020,-0.020,-0.020,0.000,0.000,0.000
1641207906483762944,2022-01-03-11:05:06,10.1.1.5,181,-0.030,-0.030,-0.030,0.000,0.000,0.000
1641207906684036096,2022-01-03-11:05:06,10.1.1.5,180,-0.040,-0.040,-0.040,0.000,0.000,0.000
1641207906883863040,2022-01-03-11:05:06,10.1.1.5,179,-0.050,-0.050,-0.050,0.000,0.000,0.000
1641207907082624000,2022-01-03-11:05:07,10.1.1.5,176,-0.060,-0.060,-0.060,0.000,0.000,0.000
1641207907275219968,2022-01-03-11:05:07,10.1.1.5,168,-0.070,-0.070,-0.070,0.000,0.000,0.000
1641207907482019840,2022-01-03-11:05:07,10.1.1.5,174,-0.080,-0.080,-0.080,0.000,0.000,0.000
1641207907681603072,2022-01-03-11:05:07,10.1.1.5,173,-0.090,-0.090,-0.090,0.000,0.000,0.000
1641207907881441024,2022-01-03-11:05:07,10.1.1.5,173,-0.100,-0.100,-0.100,0.000,0.000,0.000
1641207908101177856,2022-01-03-11:05:08,10.1.1.5,192,-0.110,-0.110,-0.110,0.000,0.000,0.000
1641207908281022976,2022-01-03-11:05:08,10.1.1.5,171,-0.120,-0.120,-0.120,0.000,0.000,0.000
1641207908501223168,2022-01-03-11:05:08,10.1.1.5,191,-0.130,-0.130,-0.130,0.000,0.000,0.000
1641207908685000960,2022-01-03-11:05:08,10.1.1.5,173,-0.140,-0.140,-0.140,0.000,0.000,0.000
1641207908900311040,2022-01-03-11:05:08,10.1.1.5,188,-0.150,-0.150,-0.150,0.000,0.000,0.000
1641207909100497920,2022-01-03-11:05:09,10.1.1.5,187,-0.160,-0.160,-0.160,0.000,0.000,0.000
1641207909280126976,2022-01-03-11:05:09,10.1.1.5,166,-0.170,-0.170,-0.170,0.000,0.000,0.000
1641207909478669824,2022-01-03-11:05:09,10.1.1.5,164,-0.180,-0.180,-0.180,0.000,0.000,0.000
1641207909678586112,2022-01-03-11:05:09,10.1.1.5,164,-0.190,-0.190,-0.190,0.000,0.000,0.000
1641207909879395072,2022-01-03-11:05:09,10.1.1.5,164,-0.200,-0.200,-0.200,0.000,0.000,0.000
1641207910089618944,2022-01-03-11:05:10,10.1.1.5,172,-0.210,-0.210,-0.210,0.000,0.000,0.000
1641207910289134080,2022-01-03-11:05:10,10.1.1.5,171,-0.220,-0.220,-0.220,0.000,0.000,0.000
1641207910488519936,2022-01-03-11:05:10,10.1.1.5,170,-0.230,-0.230,-0.230,0.000,0.000,0.000
1641207910687265024,2022-01-03-11:05:10,10.1.1.5,168,-0.240,-0.240,-0.240,0.000,0.000,0.000
1641207910886679040,2022-01-03-11:05:10,10.1.1.5,166,-0.250,-0.250,-0.250,0.000,0.000,0.000
1641207911086797056,2022-01-03-11:05:11,10.1.1.5,166,-0.260,-0.260,-0.260,0.000,0.000,0.000
1641207911286663168,2022-01-03-11:05:11,10.1.1.5,165,-0.270,-0.270,-0.270,0.000,0.000,0.000
1641207911496512000,2022-01-03-11:05:11,10.1.1.5,174,-0.280,-0.280,-0.280,0.000,0.000,0.000
1641207911685475072,2022-01-03-11:05:11,10.1.1.5,163,-0.290,-0.290,-0.290,0.000,0.000,0.000
1641207911885601024,2022-01-03-11:05:11,10.1.1.5,162,-0.300,-0.300,-0.300,0.000,0.000,0.000
1641207912094338048,2022-01-03-11:05:12,10.1.1.5,170,-0.310,-0.310,-0.310,0.000,0.000,0.000
1641207912294155008,2022-01-03-11:05:12,10.1.1.5,170,-0.320,-0.320,-0.320,0.000,0.000,0.000
1641207912494756864,2022-01-03-11:05:12,10.1.1.5,169,-0.330,-0.330,-0.330,0.000,0.000,0.000
1641207912694107904,2022-01-03-11:05:12,10.1.1.5,169,-0.340,-0.340,-0.340,0.000,0.000,0.000
1641207912884339200,2022-01-03-11:05:12,10.1.1.5,158,-0.350,-0.350,-0.350,0.000,0.000,0.000
1641207913093353984,2022-01-03-11:05:13,10.1.1.5,164,-0.360,-0.360,-0.360,0.000,0.000,0.000
1641207913293168896,2022-01-03-11:05:13,10.1.1.5,162,-0.370,-0.370,-0.370,0.000,0.000,0.000
1641207913512715008,2022-01-03-11:05:13,10.1.1.5,181,-0.380,-0.380,-0.380,0.000,0.000,0.000
1641207913692768000,2022-01-03-11:05:13,10.1.1.5,161,-0.390,-0.390,-0.390,0.000,0.000,0.000
1641207913891923968,2022-01-03-11:05:13,10.1.1.5,159,-0.400,-0.400,-0.400,0.000,0.000,0.000
1641207914102395136,2022-01-03-11:05:14,10.1.1.5,168,-0.410,-0.410,-0.410,0.000,0.000,0.000
1641207914293307136,2022-01-03-11:05:14,10.1.1.5,158,-0.420,-0.420,-0.420,0.000,0.000,0.000
1641207914494103808,2022-01-03-11:05:14,10.1.1.5,158,-0.430,-0.430,-0.430,0.000,0.000,0.000
1641207914705051904,2022-01-03-11:05:14,10.1.1.5,168,-0.440,-0.440,-0.440,0.000,0.000,0.000
1641207914921806080,2022-01-03-11:05:14,10.1.1.5,184,-0.450,-0.450,-0.450,0.000,0.000,0.000
1641207915117535232,2022-01-03-11:05:15,10.1.1.5,179,-0.460,-0.460,-0.460,0.000,0.000,0.000
1641207915308613888,2022-01-03-11:05:15,10.1.1.5,170,-0.470,-0.470,-0.470,0.000,0.000,0.000
1641207915528745984,2022-01-03-11:05:15,10.1.1.5,190,-0.480,-0.480,-0.480,0.000,0.000,0.000
1641207915709912064,2022-01-03-11:05:15,10.1.1.5,170,-0.490,-0.490,-0.490,0.000,0.000,0.000
1641207915921267968,2022-01-03-11:05:15,10.1.1.5,181,-0.480,-0.480,-0.480,0.000,0.000,0.000
1641207916122190080,2022-01-03-11:05:16,10.1.1.5,182,-0.470,-0.470,-0.470,0.000,0.000,0.000
1641207916314832896,2022-01-03-11:05:16,10.1.1.5,174,-0.460,-0.460,-0.460,0.000,0.000,0.000
1641207916514285056,2022-01-03-11:05:16,10.1.1.5,172,-0.450,-0.450,-0.450,0.000,0.000,0.000
1641207916724446976,2022-01-03-11:05:16,10.1.1.5,182,-0.440,-0.440,-0.440,0.000,0.000,0.000
1641207916925137920,2022-01-03-11:05:16,10.1.1.5,183,-0.430,-0.430,-0.430,0.000,0.000,0.000
1641207917126200832,2022-01-03-11:05:17,10.1.1.5,183,-0.420,-0.420,-0.420,0.000,0.000,0.000
1641207917325690112,2022-01-03-11:05:17,10.1.1.5,179,-0.410,-0.410,-0.410,0.000,0.000,0.000
1641207917527523072,2022-01-03-11:05:17,10.1.1.5,180,-0.400,-0.400,-0.400,0.000,0.000,0.000
1641207917747392000,2022-01-03-11:05:17,10.1.1.5,199,-0.390,-0.390,-0.390,0.000,0.000,0.000
1641207917947803904,2022-01-03-11:05:17,10.1.1.5,199,-0.380,-0.380,-0.380,0.000,0.000,0.000
1641207918128817152,2022-01-03-11:05:18,10.1.1.5,179,-0.370,-0.370,-0.370,0.000,0.000,0.000
1641207918329426176,2022-01-03-11:05:18,10.1.1.5,179,-0.360,-0.360,-0.360,0.000,0.000,0.000
1641207918540787968,2022-01-03-11:05:18,10.1.1.5,190,-0.350,-0.350,-0.350,0.000,0.000,0.000
1641207918741120000,2022-01-03-11:05:18,10.1.1.5,189,-0.340,-0.340,-0.340,0.000,0.000,0.000
1641207918950750976,2022-01-03-11:05:18,10.1.1.5,198,-0.330,-0.330,-0.330,0.000,0.000,0.000
1641207919151319040,2022-01-03-11:05:19,10.1.1.5,198,-0.320,-0.320,-0.320,0.000,0.000,0.000
1641207919351378944,2022-01-03-11:05:19,10.1.1.5,198,-0.310,-0.310,-0.310,0.000,0.000,0.000
1641207919542383872,2022-01-03-11:05:19,10.1.1.5,188,-0.300,-0.300,-0.300,0.000,0.000,0.000
1641207919733395968,2022-01-03-11:05:19,10.1.1.5,177,-0.290,-0.290,-0.290,0.000,0.000,0.000
1641207919932696064,2022-01-03-11:05:19,10.1.1.5,176,-0.280,-0.280,-0.280,0.000,0.000,0.000
1641207920153095936,2022-01-03-11:05:20,10.1.1.5,192,-0.270,-0.270,-0.270,0.000,0.000,0.000
1641207920354216192,2022-01-03-11:05:20,10.1.1.5,192,-0.260,-0.260,-0.260,0.000,0.000,0.000
1641207920553591040,2022-01-03-11:05:20,10.1.1.5,191,-0.250,-0.250,-0.250,0.000,0.000,0.000
1641207920759355904,2022-01-03-11:05:20,10.1.1.5,195,-0.240,-0.240,-0.240,0.000,0.000,0.000
1641207920954377984,2022-01-03-11:05:20,10.1.1.5,189,-0.230,-0.230,-0.230,0.000,0.000,0.000
1641207921154273024,2022-01-03-11:05:21,10.1.1.5,189,-0.220,-0.220,-0.220,0.000,0.000,0.000
1641207921355067904,2022-01-03-11:05:21,10.1.1.5,189,-0.210,-0.210,-0.210,0.000,0.000,0.000
1641207921554888960,2022-01-03-11:05:21,10.1.1.5,188,-0.200,-0.200,-0.200,0.000,0.000,0.000
1641207921754862080,2022-01-03-11:05:21,10.1.1.5,186,-0.190,-0.190,-0.190,0.000,0.000,0.000
1641207921967062016,2022-01-03-11:05:21,10.1.1.5,197,-0.180,-0.180,-0.180,0.000,0.000,0.000
1641207922155510784,2022-01-03-11:05:22,10.1.1.5,185,-0.170,-0.170,-0.170,0.000,0.000,0.000
1641207922565728000,2022-01-03-11:05:22,10.1.1.5,192,-0.150,-0.150,-0.150,0.000,0.000,0.000
1641207922767385088,2022-01-03-11:05:22,10.1.1.5,194,-0.140,-0.140,-0.140,0.000,0.000,0.000
1641207922955437824,2022-01-03-11:05:22,10.1.1.5,181,-0.130,-0.130,-0.130,0.000,0.000,0.000
1641207923166264064,2022-01-03-11:05:23,10.1.1.5,191,-0.120,-0.120,-0.120,0.000,0.000,0.000
1641207923355556864,2022-01-03-11:05:23,10.1.1.5,180,-0.110,-0.110,-0.110,0.000,0.000,0.000
1641207923563337984,2022-01-03-11:05:23,10.1.1.5,187,-0.100,-0.100,-0.100,0.000,0.000,0.000
1641207923776064000,2022-01-03-11:05:23,10.1.1.5,189,-0.090,-0.090,-0.090,0.000,0.000,0.000
1641207923976135936,2022-01-03-11:05:23,10.1.1.5,189,-0.080,-0.080,-0.080,0.000,0.000,0.000
1641207924587531008,2022-01-03-11:05:24,10.1.1.5,197,-0.050,-0.050,-0.050,0.000,0.000,0.000
1641207924976979968,2022-01-03-11:05:24,10.1.1.5,186,-0.030,-0.030,-0.030,0.000,0.000,0.000
1641207925380920832,2022-01-03-11:05:25,10.1.1.5,188,-0.010,-0.010,-0.010,0.000,0.000,0.000
1641207925577006080,2022-01-03-11:05:25,10.1.1.5,184,0.000,0.000,0.000,0.000,0.000,0.000
1641207925777234944,2022-01-03-11:05:25,10.1.1.5,183,-0.010,-0.010,-0.010,0.000,0.000,0.000
1641207925976151040,2022-01-03-11:05:25,10.1.1.5,182,-0.020,-0.020,-0.020,0.000,0.000,0.000
1641207926177149184,2022-01-03-11:05:26,10.1.1.5,182,-0.030,-0.030,-0.030,0.000,0.000,0.000
1641207926575685888,2022-01-03-11:05:26,10.1.1.5,179,-0.050,-0.050,-0.050,0.000,0.000,0.000
1641207926786226944,2022-01-03-11:05:26,10.1.1.5,188,-0.060,-0.060,-0.060,0.000,0.000,0.000
1641207926986348032,2022-01-03-11:05:26,10.1.1.5,188,-0.070,-0.070,-0.070,0.000,0.000,0.000
1641207927197175040,2022-01-03-11:05:27,10.1.1.5,198,-0.080,-0.080,-0.080,0.000,0.000,0.000
1641207927397131008,2022-01-03-11:05:27,10.1.1.5,197,-0.090,-0.090,-0.090,0.000,0.000,0.000
1641207927596604160,2022-01-03-11:05:27,10.1.1.5,196,-0.100,-0.100,-0.100,0.000,0.000,0.000
1641207927798258944,2022-01-03-11:05:27,10.1.1.5,195,-0.110,-0.110,-0.110,0.000,0.000,0.000
1641207927996169216,2022-01-03-11:05:27,10.1.1.5,194,-0.120,-0.120,-0.120,0.000,0.000,0.000
1641207928200455936,2022-01-03-11:05:28,10.1.1.5,197,-0.130,-0.130,-0.130,0.000,0.000,0.000
1641207928386110976,2022-01-03-11:05:28,10.1.1.5,182,-0.140,-0.140,-0.140,0.000,0.000,0.000
1641207928602787072,2022-01-03-11:05:28,10.1.1.5,198,-0.150,-0.150,-0.150,0.000,0.000,0.000
1641207928795217920,2022-01-03-11:05:28,10.1.1.5,190,-0.160,-0.160,-0.160,0.000,0.000,0.000
1641207928996242944,2022-01-03-11:05:28,10.1.1.5,190,-0.170,-0.170,-0.170,0.000,0.000,0.000
1641207929195045120,2022-01-03-11:05:29,10.1.1.5,188,-0.180,-0.180,-0.180,0.000,0.000,0.000
1641207929385606144,2022-01-03-11:05:29,10.1.1.5,178,-0.190,-0.190,-0.190,0.000,0.000,0.000
1641207929994512128,2022-01-03-11:05:29,10.1.1.5,184,-0.220,-0.220,-0.220,0.000,0.000,0.000
1641207930194256896,2022-01-03-11:05:30,10.1.1.5,183,-0.230,-0.230,-0.230,0.000,0.000,0.000
1641207930394427136,2022-01-03-11:05:30,10.1.1.5,183,-0.240,-0.240,-0.240,0.000,0.000,0.000
1641207930594465024,2022-01-03-11:05:30,10.1.1.5,182,-0.250,-0.250,-0.250,0.000,0.000,0.000
1641207930793268992,2022-01-03-11:05:30,10.1.1.5,180,-0.260,-0.260,-0.260,0.000,0.000,0.000
1641207931013362944,2022-01-03-11:05:31,10.1.1.5,199,-0.270,-0.270,-0.270,0.000,0.000,0.000
1641207931213701120,2022-01-03-11:05:31,10.1.1.5,198,-0.280,-0.280,-0.280,0.000,0.000,0.000
1641207931413743872,2022-01-03-11:05:31,10.1.1.5,196,-0.290,-0.290,-0.290,0.000,0.000,0.000
1641207931612256000,2022-01-03-11:05:31,10.1.1.5,195,-0.300,-0.300,-0.300,0.000,0.000,0.000
1641207931812359936,2022-01-03-11:05:31,10.1.1.5,194,-0.310,-0.310,-0.310,0.000,0.000,0.000
1641207932003825920,2022-01-03-11:05:32,10.1.1.5,184,-0.320,-0.320,-0.320,0.000,0.000,0.000
1641207932212826880,2022-01-03-11:05:32,10.1.1.5,191,-0.330,-0.330,-0.330,0.000,0.000,0.000
1641207932401638912,2022-01-03-11:05:32,10.1.1.5,179,-0.340,-0.340,-0.340,0.000,0.000,0.000
1641207932612253952,2022-01-03-11:05:32,10.1.1.5,189,-0.350,-0.350,-0.350,0.000,0.000,0.000
1641207932810999040,2022-01-03-11:05:32,10.1.1.5,186,-0.360,-0.360,-0.360,0.000,0.000,0.000
1641207933011493888,2022-01-03-11:05:33,10.1.1.5,186,-0.370,-0.370,-0.370,0.000,0.000,0.000
1641207933210808064,2022-01-03-11:05:33,10.1.1.5,185,-0.380,-0.380,-0.380,0.000,0.000,0.000
1641207933410956032,2022-01-03-11:05:33,10.1.1.5,185,-0.390,-0.390,-0.390,0.000,0.000,0.000
1641207933610842880,2022-01-03-11:05:33,10.1.1.5,184,-0.400,-0.400,-0.400,0.000,0.000,0.000
1641207933810658816,2022-01-03-11:05:33,10.1.1.5,183,-0.410,-0.410,-0.410,0.000,0.000,0.000
1641207934010114816,2022-01-03-11:05:34,10.1.1.5,182,-0.420,-0.420,-0.420,0.000,0.000,0.000
1641207934210176000,2022-01-03-11:05:34,10.1.1.5,181,-0.430,-0.430,-0.430,0.000,0.000,0.000
1641207934409398016,2022-01-03-11:05:34,10.1.1.5,180,-0.440,-0.440,-0.440,0.000,0.000,0.000
1641207934609821184,2022-01-03-11:05:34,10.1.1.5,179,-0.450,-0.450,-0.450,0.000,0.000,0.000
1641207934809431040,2022-01-03-11:05:34,10.1.1.5,178,-0.460,-0.460,-0.460,0.000,0.000,0.000
1641207935028922112,2022-01-03-11:05:35,10.1.1.5,197,-0.470,-0.470,-0.470,0.000,0.000,0.000
1641207935228636928,2022-01-03-11:05:35,10.1.1.5,196,-0.480,-0.480,-0.480,0.000,0.000,0.000
1641207935409171968,2022-01-03-11:05:35,10.1.1.5,175,-0.490,-0.490,-0.490,0.000,0.000,0.000
1641207935627720192,2022-01-03-11:05:35,10.1.1.5,193,-0.480,-0.480,-0.480,0.000,0.000,0.000
1641207935827867136,2022-01-03-11:05:35,10.1.1.5,193,-0.470,-0.470,-0.470,0.000,0.000,0.000
1641207936027513856,2022-01-03-11:05:36,10.1.1.5,192,-0.460,-0.460,-0.460,0.000,0.000,0.000
1641207936228413952,2022-01-03-11:05:36,10.1.1.5,191,-0.450,-0.450,-0.450,0.000,0.000,0.000
1641207936417850880,2022-01-03-11:05:36,10.1.1.5,179,-0.440,-0.440,-0.440,0.000,0.000,0.000
1641207936617398016,2022-01-03-11:05:36,10.1.1.5,178,-0.430,-0.430,-0.430,0.000,0.000,0.000
1641207936830940928,2022-01-03-11:05:36,10.1.1.5,191,-0.420,-0.420,-0.420,0.000,0.000,0.000
1641207937026153984,2022-01-03-11:05:37,10.1.1.5,185,-0.410,-0.410,-0.410,0.000,0.000,0.000
1641207937216260864,2022-01-03-11:05:37,10.1.1.5,175,-0.400,-0.400,-0.400,0.000,0.000,0.000
1641207937416122880,2022-01-03-11:05:37,10.1.1.5,172,-0.390,-0.390,-0.390,0.000,0.000,0.000
1641207937616472832,2022-01-03-11:05:37,10.1.1.5,171,-0.380,-0.380,-0.380,0.000,0.000,0.000
1641207937817765120,2022-01-03-11:05:37,10.1.1.5,172,-0.370,-0.370,-0.370,0.000,0.000,0.000
1641207938015435008,2022-01-03-11:05:38,10.1.1.5,168,-0.360,-0.360,-0.360,0.000,0.000,0.000
1641207938235698944,2022-01-03-11:05:38,10.1.1.5,187,-0.350,-0.350,-0.350,0.000,0.000,0.000
1641207938425558016,2022-01-03-11:05:38,10.1.1.5,176,-0.340,-0.340,-0.340,0.000,0.000,0.000
1641207938624034048,2022-01-03-11:05:38,10.1.1.5,174,-0.330,-0.330,-0.330,0.000,0.000,0.000
1641207938845022976,2022-01-03-11:05:38,10.1.1.5,195,-0.320,-0.320,-0.320,0.000,0.000,0.000
1641207939035002880,2022-01-03-11:05:39,10.1.1.5,184,-0.310,-0.310,-0.310,0.000,0.000,0.000
1641207939243197952,2022-01-03-11:05:39,10.1.1.5,191,-0.300,-0.300,-0.300,0.000,0.000,0.000
1641207939433943040,2022-01-03-11:05:39,10.1.1.5,181,-0.290,-0.290,-0.290,0.000,0.000,0.000
1641207939642475008,2022-01-03-11:05:39,10.1.1.5,190,-0.280,-0.280,-0.280,0.000,0.000,0.000
1641207939822786048,2022-01-03-11:05:39,10.1.1.5,168,-0.270,-0.270,-0.270,0.000,0.000,0.000
1641207940021693952,2022-01-03-11:05:40,10.1.1.5,167,-0.260,-0.260,-0.260,0.000,0.000,0.000
1641207940241755904,2022-01-03-11:05:40,10.1.1.5,185,-0.250,-0.250,-0.250,0.000,0.000,0.000
1641207940448268800,2022-01-03-11:05:40,10.1.1.5,191,-0.240,-0.240,-0.240,0.000,0.000,0.000
1641207940641526016,2022-01-03-11:05:40,10.1.1.5,184,-0.230,-0.230,-0.230,0.000,0.000,0.000
1641207940830606080,2022-01-03-11:05:40,10.1.1.5,172,-0.220,-0.220,-0.220,0.000,0.000,0.000
1641207941030898176,2022-01-03-11:05:41,10.1.1.5,171,-0.210,-0.210,-0.210,0.000,0.000,0.000
1641207941230178048,2022-01-03-11:05:41,10.1.1.5,170,-0.200,-0.200,-0.200,0.000,0.000,0.000
1641207941440446976,2022-01-03-11:05:41,10.1.1.5,180,-0.190,-0.190,-0.190,0.000,0.000,0.000
1641207941639483904,2022-01-03-11:05:41,10.1.1.5,178,-0.180,-0.180,-0.180,0.000,0.000,0.000
1641207941840531200,2022-01-03-11:05:41,10.1.1.5,178,-0.170,-0.170,-0.170,0.000,0.000,0.000
1641207942038213120,2022-01-03-11:05:42,10.1.1.5,175,-0.160,-0.160,-0.160,0.000,0.000,0.000
1641207942228285952,2022-01-03-11:05:42,10.1.1.5,164,-0.150,-0.150,-0.150,0.000,0.000,0.000
1641207942428744192,2022-01-03-11:05:42,10.1.1.5,164,-0.140,-0.140,-0.140,0.000,0.000,0.000
1641207942637538816,2022-01-03-11:05:42,10.1.1.5,173,-0.130,-0.130,-0.130,0.000,0.000,0.000
1641207942837952000,2022-01-03-11:05:42,10.1.1.5,172,-0.120,-0.120,-0.120,0.000,0.000,0.000
1641207943036998912,2022-01-03-11:05:43,10.1.1.5,171,-0.110,-0.110,-0.110,0.000,0.000,0.000
1641207943237050112,2022-01-03-11:05:43,10.1.1.5,170,-0.100,-0.100,-0.100,0.000,0.000,0.000
1641207943436640000,2022-01-03-11:05:43,10.1.1.5,170,-0.090,-0.090,-0.090,0.000,0.000,0.000
1641207943636286976,2022-01-03-11:05:43,10.1.1.5,169,-0.080,-0.080,-0.080,0.000,0.000,0.000
1641207943863074048,2022-01-03-11:05:43,10.1.1.5,195,-0.070,-0.070,-0.070,0.000,0.000,0.000
1641207944025378048,2022-01-03-11:05:44,10.1.1.5,157,-0.060,-0.060,-0.060,0.000,0.000,0.000
1641207944234946048,2022-01-03-11:05:44,10.1.1.5,166,-0.050,-0.050,-0.050,0.000,0.000,0.000
1641207944448386816,2022-01-03-11:05:44,10.1.1.5,179,-0.040,-0.040,-0.040,0.000,0.000,0.000
1641207944635518976,2022-01-03-11:05:44,10.1.1.5,165,-0.030,-0.030,-0.030,0.000,0.000,0.000
1641207944834582016,2022-01-03-11:05:44,10.1.1.5,162,-0.020,-0.020,-0.020,0.000,0.000,0.000
1641207945033833984,2022-01-03-11:05:45,10.1.1.5,160,-0.010,-0.010,-0.010,0.000,0.000,0.000
1641207945233623040,2022-01-03-11:05:45,10.1.1.5,159,0.000,0.000,0.000,0.000,0.000,0.000
1641207945444432896,2022-01-03-11:05:45,10.1.1.5,169,-0.010,-0.010,-0.010,0.000,0.000,0.000
1641207945632966912,2022-01-03-11:05:45,10.1.1.5,156,-0.020,-0.020,-0.020,0.000,0.000,0.000
1641207945852636160,2022-01-03-11:05:45,10.1.1.5,175,-0.030,-0.030,-0.030,0.000,0.000,0.000
1641207946054418944,2022-01-03-11:05:46,10.1.1.5,176,-0.040,-0.040,-0.040,0.000,0.000,0.000
1641207946245209856,2022-01-03-11:05:46,10.1.1.5,166,-0.050,-0.050,-0.050,0.000,0.000,0.000
1641207946454915072,2022-01-03-11:05:46,10.1.1.5,174,-0.060,-0.060,-0.060,0.000,0.000,0.000
1641207946656278016,2022-01-03-11:05:46,10.1.1.5,174,-0.070,-0.070,-0.070,0.000,0.000,0.000
1641207946847057152,2022-01-03-11:05:46,10.1.1.5,164,-0.080,-0.080,-0.080,0.000,0.000,0.000
1641207947058442240,2022-01-03-11:05:47,10.1.1.5,175,-0.090,-0.090,-0.090,0.000,0.000,0.000
1641207947259094016,2022-01-03-11:05:47,10.1.1.5,175,-0.100,-0.100,-0.100,0.000,0.000,0.000
1641207947459289088,2022-01-03-11:05:47,10.1.1.5,175,-0.110,-0.110,-0.110,0.000,0.000,0.000
1641207947660996864,2022-01-03-11:05:47,10.1.1.5,176,-0.120,-0.120,-0.120,0.000,0.000,0.000
1641207947860836096,2022-01-03-11:05:47,10.1.1.5,175,-0.130,-0.130,-0.130,0.000,0.000,0.000
1641207948068349952,2022-01-03-11:05:48,10.1.1.5,182,-0.140,-0.140,-0.140,0.000,0.000,0.000
1641207948263580160,2022-01-03-11:05:48,10.1.1.5,176,-0.150,-0.150,-0.150,0.000,0.000,0.000
1641207948463813120,2022-01-03-11:05:48,10.1.1.5,176,-0.160,-0.160,-0.160,0.000,0.000,0.000
1641207948664320000,2022-01-03-11:05:48,10.1.1.5,176,-0.170,-0.170,-0.170,0.000,0.000,0.000
1641207948867804160,2022-01-03-11:05:48,10.1.1.5,177,-0.180,-0.180,-0.180,0.000,0.000,0.000
1641207949085616128,2022-01-03-11:05:49,10.1.1.5,177,-0.190,-0.190,-0.190,0.000,0.000,0.000
1641207949286632960,2022-01-03-11:05:49,10.1.1.5,177,-0.200,-0.200,-0.200,0.000,0.000,0.000
1641207949487611136,2022-01-03-11:05:49,10.1.1.5,177,-0.210,-0.210,-0.210,0.000,0.000,0.000
1641207949688402944,2022-01-03-11:05:49,10.1.1.5,174,-0.220,-0.220,-0.220,0.000,0.000,0.000
1641207949888421120,2022-01-03-11:05:49,10.1.1.5,173,-0.230,-0.230,-0.230,0.000,0.000,0.000
1641207950089116928,2022-01-03-11:05:50,10.1.1.5,173,-0.240,-0.240,-0.240,0.000,0.000,0.000
1641207950289985024,2022-01-03-11:05:50,10.1.1.5,173,-0.250,-0.250,-0.250,0.000,0.000,0.000
1641207950489968128,2022-01-03-11:05:50,10.1.1.5,172,-0.260,-0.260,-0.260,0.000,0.000,0.000
1641207950700407040,2022-01-03-11:05:50,10.1.1.5,182,-0.270,-0.270,-0.270,0.000,0.000,0.000
1641207950911376896,2022-01-03-11:05:50,10.1.1.5,193,-0.280,-0.280,-0.280,0.000,0.000,0.000
1641207951111891968,2022-01-03-11:05:51,10.1.1.5,193,-0.290,-0.290,-0.290,0.000,0.000,0.000
1641207951303397888,2022-01-03-11:05:51,10.1.1.5,183,-0.300,-0.300,-0.300,0.000,0.000,0.000
1641207951514040064,2022-01-03-11:05:51,10.1.1.5,193,-0.310,-0.310,-0.310,0.000,0.000,0.000
1641207951717083904,2022-01-03-11:05:51,10.1.1.5,195,-0.320,-0.320,-0.320,0.000,0.000,0.000
1641207951903683072,2022-01-03-11:05:51,10.1.1.5,181,-0.330,-0.330,-0.330,0.000,0.000,0.000
1641207952103324928,2022-01-03-11:05:52,10.1.1.5,180,-0.340,-0.340,-0.340,0.000,0.000,0.000
1641207952304142848,2022-01-03-11:05:52,10.1.1.5,179,-0.350,-0.350,-0.350,0.000,0.000,0.000
1641207952514013952,2022-01-03-11:05:52,10.1.1.5,187,-0.360,-0.360,-0.360,0.000,0.000,0.000
1641207952706341120,2022-01-03-11:05:52,10.1.1.5,179,-0.370,-0.370,-0.370,0.000,0.000,0.000
1641207952917916928,2022-01-03-11:05:52,10.1.1.5,189,-0.380,-0.380,-0.380,0.000,0.000,0.000
1641207953315933952,2022-01-03-11:05:53,10.1.1.5,181,-0.400,-0.400,-0.400,0.000,0.000,0.000
1641207953515259136,2022-01-03-11:05:53,10.1.1.5,179,-0.410,-0.410,-0.410,0.000,0.000,0.000
1641207953721460224,2022-01-03-11:05:53,10.1.1.5,185,-0.420,-0.420,-0.420,0.000,0.000,0.000
1641207953936187904,2022-01-03-11:05:53,10.1.1.5,197,-0.430,-0.430,-0.430,0.000,0.000,0.000
1641207954135243008,2022-01-03-11:05:54,10.1.1.5,194,-0.440,-0.440,-0.440,0.000,0.000,0.000
1641207954335987200,2022-01-03-11:05:54,10.1.1.5,194,-0.450,-0.450,-0.450,0.000,0.000,0.000
1641207954536748032,2022-01-03-11:05:54,10.1.1.5,195,-0.460,-0.460,-0.460,0.000,0.000,0.000
1641207954736269056,2022-01-03-11:05:54,10.1.1.5,193,-0.470,-0.470,-0.470,0.000,0.000,0.000
1641207954938107136,2022-01-03-11:05:54,10.1.1.5,195,-0.480,-0.480,-0.480,0.000,0.000,0.000
1641207955136049920,2022-01-03-11:05:55,10.1.1.5,192,-0.490,-0.490,-0.490,0.000,0.000,0.000
1641207955326287872,2022-01-03-11:05:55,10.1.1.5,182,-0.480,-0.480,-0.480,0.000,0.000,0.000
1641207955526365952,2022-01-03-11:05:55,10.1.1.5,181,-0.470,-0.470,-0.470,0.000,0.000,0.000
1641207955736735232,2022-01-03-11:05:55,10.1.1.5,191,-0.460,-0.460,-0.460,0.000,0.000,0.000
1641207955936177920,2022-01-03-11:05:55,10.1.1.5,190,-0.450,-0.450,-0.450,0.000,0.000,0.000
1641207956127005184,2022-01-03-11:05:56,10.1.1.5,180,-0.440,-0.440,-0.440,0.000,0.000,0.000
1641207956537005824,2022-01-03-11:05:56,10.1.1.5,186,-0.420,-0.420,-0.420,0.000,0.000,0.000
1641207957137559808,2022-01-03-11:05:57,10.1.1.5,183,-0.390,-0.390,-0.390,0.000,0.000,0.000
1641207957337049088,2022-01-03-11:05:57,10.1.1.5,182,-0.380,-0.380,-0.380,0.000,0.000,0.000
1641207957571154176,2022-01-03-11:05:57,10.1.1.5,215,-0.370,-0.370,-0.370,0.000,0.000,0.000
1641207957756814080,2022-01-03-11:05:57,10.1.1.5,181,-0.360,-0.360,-0.360,0.000,0.000,0.000
1641207957978329856,2022-01-03-11:05:57,10.1.1.5,200,-0.350,-0.350,-0.350,0.000,0.000,0.000
1641207958177090048,2022-01-03-11:05:58,10.1.1.5,197,-0.340,-0.340,-0.340,0.000,0.000,0.000
1641207958384668160,2022-01-03-11:05:58,10.1.1.5,200,-0.330,-0.330,-0.330,0.000,0.000,0.000
1641207958567048960,2022-01-03-11:05:58,10.1.1.5,181,-0.320,-0.320,-0.320,0.000,0.000,0.000
1641207958777152000,2022-01-03-11:05:58,10.1.1.5,190,-0.310,-0.310,-0.310,0.000,0.000,0.000
1641207958975873024,2022-01-03-11:05:58,10.1.1.5,188,-0.300,-0.300,-0.300,0.000,0.000,0.000
1641207959186125056,2022-01-03-11:05:59,10.1.1.5,198,-0.290,-0.290,-0.290,0.000,0.000,0.000
1641207959376649984,2022-01-03-11:05:59,10.1.1.5,186,-0.280,-0.280,-0.280,0.000,0.000,0.000
1641207959578053888,2022-01-03-11:05:59,10.1.1.5,186,-0.270,-0.270,-0.270,0.000,0.000,0.000
1641207959777824000,2022-01-03-11:05:59,10.1.1.5,186,-0.260,-0.260,-0.260,0.000,0.000,0.000
1641207959976632064,2022-01-03-11:05:59,10.1.1.5,184,-0.250,-0.250,-0.250,0.000,0.000,0.000
1641207960177692928,2022-01-03-11:06:00,10.1.1.5,181,-0.240,-0.240,-0.240,0.000,0.000,0.000
1641207960386940928,2022-01-03-11:06:00,10.1.1.5,189,-0.230,-0.230,-0.230,0.000,0.000,0.000
1641207960585974016,2022-01-03-11:06:00,10.1.1.5,188,-0.220,-0.220,-0.220,0.000,0.000,0.000
1641207960785944832,2022-01-03-11:06:00,10.1.1.5,186,-0.210,-0.210,-0.210,0.000,0.000,0.000
1641207960995495168,2022-01-03-11:06:00,10.1.1.5,193,-0.200,-0.200,-0.200,0.000,0.000,0.000
1641207961195924992,2022-01-03-11:06:01,10.1.1.5,192,-0.190,-0.190,-0.190,0.000,0.000,0.000
1641207961395665920,2022-01-03-11:06:01,10.1.1.5,191,-0.180,-0.180,-0.180,0.000,0.000,0.000
1641207961596009984,2022-01-03-11:06:01,10.1.1.5,191,-0.170,-0.170,-0.170,0.000,0.000,0.000
1641207961795724032,2022-01-03-11:06:01,10.1.1.5,190,-0.160,-0.160,-0.160,0.000,0.000,0.000
1641207961984837120,2022-01-03-11:06:01,10.1.1.5,177,-0.150,-0.150,-0.150,0.000,0.000,0.000
1641207962199700992,2022-01-03-11:06:02,10.1.1.5,191,-0.140,-0.140,-0.140,0.000,0.000,0.000
1641207962405720832,2022-01-03-11:06:02,10.1.1.5,196,-0.130,-0.130,-0.130,0.000,0.000,0.000
1641207962593684992,2022-01-03-11:06:02,10.1.1.5,184,-0.120,-0.120,-0.120,0.000,0.000,0.000
1641207963003612160,2022-01-03-11:06:03,10.1.1.5,192,-0.100,-0.100,-0.100,0.000,0.000,0.000
1641207963206159104,2022-01-03-11:06:03,10.1.1.5,194,-0.090,-0.090,-0.090,0.000,0.000,0.000
1641207963413224960,2022-01-03-11:06:03,10.1.1.5,200,-0.080,-0.080,-0.080,0.000,0.000,0.000
1641207963613276928,2022-01-03-11:06:03,10.1.1.5,199,-0.070,-0.070,-0.070,0.000,0.000,0.000
1641207963793623040,2022-01-03-11:06:03,10.1.1.5,178,-0.060,-0.060,-0.060,0.000,0.000,0.000
1641207963993117952,2022-01-03-11:06:03,10.1.1.5,177,-0.050,-0.050,-0.050,0.000,0.000,0.000
1641207964212884992,2022-01-03-11:06:04,10.1.1.5,195,-0.040,-0.040,-0.040,0.000,0.000,0.000
1641207964402388992,2022-01-03-11:06:04,10.1.1.5,184,-0.030,-0.030,-0.030,0.000,0.000,0.000
1641207964612600064,2022-01-03-11:06:04,10.1.1.5,194,-0.020,-0.020,-0.020,0.000,0.000,0.000
1641207964812364032,2022-01-03-11:06:04,10.1.1.5,193,-0.010,-0.010,-0.010,0.000,0.000,0.000
1641207965002548992,2022-01-03-11:06:05,10.1.1.5,182,0.000,0.000,0.000,0.000,0.000,0.000
1641207965201172224,2022-01-03-11:06:05,10.1.1.5,180,-0.010,-0.010,-0.010,0.000,0.000,0.000
1641207965401804032,2022-01-03-11:06:05,10.1.1.5,180,-0.020,-0.020,-0.020,0.000,0.000,0.000
1641207965600965888,2022-01-03-11:06:05,10.1.1.5,178,-0.030,-0.030,-0.030,0.000,0.000,0.000
1641207965810383104,2022-01-03-11:06:05,10.1.1.5,187,-0.040,-0.040,-0.040,0.000,0.000,0.000
1641207966010326016,2022-01-03-11:06:06,10.1.1.5,186,-0.050,-0.050,-0.050,0.000,0.000,0.000
1641207966209812992,2022-01-03-11:06:06,10.1.1.5,185,-0.060,-0.060,-0.060,0.000,0.000,0.000
1641207966400652800,2022-01-03-11:06:06,10.1.1.5,175,-0.070,-0.070,-0.070,0.000,0.000,0.000
1641207966605935104,2022-01-03-11:06:06,10.1.1.5,179,-0.080,-0.080,-0.080,0.000,0.000,0.000
1641207966810336000,2022-01-03-11:06:06,10.1.1.5,183,-0.090,-0.090,-0.090,0.000,0.000,0.000
1641207967009725952,2022-01-03-11:06:07,10.1.1.5,182,-0.100,-0.100,-0.100,0.000,0.000,0.000
1641207967201037824,2022-01-03-11:06:07,10.1.1.5,173,-0.110,-0.110,-0.110,0.000,0.000,0.000
1641207967428845824,2022-01-03-11:06:07,10.1.1.5,200,-0.120,-0.120,-0.120,0.000,0.000,0.000
1641207967618438912,2022-01-03-11:06:07,10.1.1.5,189,-0.130,-0.130,-0.130,0.000,0.000,0.000
1641207967808124160,2022-01-03-11:06:07,10.1.1.5,178,-0.140,-0.140,-0.140,0.000,0.000,0.000
1641207968009363968,2022-01-03-11:06:08,10.1.1.5,178,-0.150,-0.150,-0.150,0.000,0.000,0.000
1641207968228477952,2022-01-03-11:06:08,10.1.1.5,197,-0.160,-0.160,-0.160,0.000,0.000,0.000
1641207968406935808,2022-01-03-11:06:08,10.1.1.5,174,-0.170,-0.170,-0.170,0.000,0.000,0.000
1641207968607480064,2022-01-03-11:06:08,10.1.1.5,174,-0.180,-0.180,-0.180,0.000,0.000,0.000
1641207968806319104,2022-01-03-11:06:08,10.1.1.5,173,-0.190,-0.190,-0.190,0.000,0.000,0.000
1641207969006350080,2022-01-03-11:06:09,10.1.1.5,172,-0.200,-0.200,-0.200,0.000,0.000,0.000
1641207969205761792,2022-01-03-11:06:09,10.1.1.5,171,-0.210,-0.210,-0.210,0.000,0.000,0.000
1641207969426050048,2022-01-03-11:06:09,10.1.1.5,190,-0.220,-0.220,-0.220,0.000,0.000,0.000
1641207969605689088,2022-01-03-11:06:09,10.1.1.5,170,-0.230,-0.230,-0.230,0.000,0.000,0.000
1641207969805171968,2022-01-03-11:06:09,10.1.1.5,168,-0.240,-0.240,-0.240,0.000,0.000,0.000
1641207970024590848,2022-01-03-11:06:10,10.1.1.5,186,-0.250,-0.250,-0.250,0.000,0.000,0.000
1641207970215086848,2022-01-03-11:06:10,10.1.1.5,176,-0.260,-0.260,-0.260,0.000,0.000,0.000
1641207970414694144,2022-01-03-11:06:10,10.1.1.5,171,-0.270,-0.270,-0.270,0.000,0.000,0.000
1641207970614987008,2022-01-03-11:06:10,10.1.1.5,171,-0.280,-0.280,-0.280,0.000,0.000,0.000
1641207970814251008,2022-01-03-11:06:10,10.1.1.5,169,-0.290,-0.290,-0.290,0.000,0.000,0.000
1641207971024023040,2022-01-03-11:06:11,10.1.1.5,177,-0.300,-0.300,-0.300,0.000,0.000,0.000
1641207971223887872,2022-01-03-11:06:11,10.1.1.5,177,-0.310,-0.310,-0.310,0.000,0.000,0.000
1641207971423533824,2022-01-03-11:06:11,10.1.1.5,176,-0.320,-0.320,-0.320,0.000,0.000,0.000
1641207971622889984,2022-01-03-11:06:11,10.1.1.5,175,-0.330,-0.330,-0.330,0.000,0.000,0.000
1641207971822194176,2022-01-03-11:06:11,10.1.1.5,173,-0.340,-0.340,-0.340,0.000,0.000,0.000
1641207972032982016,2022-01-03-11:06:12,10.1.1.5,183,-0.350,-0.350,-0.350,0.000,0.000,0.000
1641207972246417920,2022-01-03-11:06:12,10.1.1.5,196,-0.360,-0.360,-0.360,0.000,0.000,0.000
1641207972421821952,2022-01-03-11:06:12,10.1.1.5,171,-0.370,-0.370,-0.370,0.000,0.000,0.000
1641207972632198144,2022-01-03-11:06:12,10.1.1.5,181,-0.380,-0.380,-0.380,0.000,0.000,0.000
1641207972833286912,2022-01-03-11:06:12,10.1.1.5,181,-0.390,-0.390,-0.390,0.000,0.000,0.000
1641207973030546944,2022-01-03-11:06:13,10.1.1.5,171,-0.400,-0.400,-0.400,0.000,0.000,0.000
1641207973231468800,2022-01-03-11:06:13,10.1.1.5,171,-0.410,-0.410,-0.410,0.000,0.000,0.000
1641207973441414144,2022-01-03-11:06:13,10.1.1.5,181,-0.420,-0.420,-0.420,0.000,0.000,0.000
1641207973639650048,2022-01-03-11:06:13,10.1.1.5,178,-0.430,-0.430,-0.430,0.000,0.000,0.000
1641207973839746048,2022-01-03-11:06:13,10.1.1.5,178,-0.440,-0.440,-0.440,0.000,0.000,0.000
1641207974029353984,2022-01-03-11:06:14,10.1.1.5,166,-0.450,-0.450,-0.450,0.000,0.000,0.000
1641207974228806912,2022-01-03-11:06:14,10.1.1.5,165,-0.460,-0.460,-0.460,0.000,0.000,0.000
1641207974439656960,2022-01-03-11:06:14,10.1.1.5,175,-0.470,-0.470,-0.470,0.000,0.000,0.000
1641207974638894080,2022-01-03-11:06:14,10.1.1.5,173,-0.480,-0.480,-0.480,0.000,0.000,0.000
1641207974841967104,2022-01-03-11:06:14,10.1.1.5,176,-0.490,-0.490,-0.490,0.000,0.000,0.000
1641207975027224064,2022-01-03-11:06:15,10.1.1.5,160,-0.480,-0.480,-0.480,0.000,0.000,0.000
1641207975237415936,2022-01-03-11:06:15,10.1.1.5,170,-0.470,-0.470,-0.470,0.000,0.000,0.000
1641207975457082112,2022-01-03-11:06:15,10.1.1.5,189,-0.460,-0.460,-0.460,0.000,0.000,0.000
1641207975656191232,2022-01-03-11:06:15,10.1.1.5,188,-0.450,-0.450,-0.450,0.000,0.000,0.000
1641207975855993088,2022-01-03-11:06:15,10.1.1.5,187,-0.440,-0.440,-0.440,0.000,0.000,0.000
1641207976046607104,2022-01-03-11:06:16,10.1.1.5,176,-0.430,-0.430,-0.430,0.000,0.000,0.000
1641207976235836928,2022-01-03-11:06:16,10.1.1.5,165,-0.420,-0.420,-0.420,0.000,0.000,0.000
1641207976435389952,2022-01-03-11:06:16,10.1.1.5,164,-0.410,-0.410,-0.410,0.000,0.000,0.000
1641207976634740992,2022-01-03-11:06:16,10.1.1.5,163,-0.400,-0.400,-0.400,0.000,0.000,0.000
1641207976834400768,2022-01-03-11:06:16,10.1.1.5,162,-0.390,-0.390,-0.390,0.000,0.000,0.000
1641207977035224832,2022-01-03-11:06:17,10.1.1.5,162,-0.380,-0.380,-0.380,0.000,0.000,0.000
1641207977254213120,2022-01-03-11:06:17,10.1.1.5,180,-0.370,-0.370,-0.370,0.000,0.000,0.000
1641207977454144000,2022-01-03-11:06:17,10.1.1.5,179,-0.360,-0.360,-0.360,0.000,0.000,0.000
1641207977634295040,2022-01-03-11:06:17,10.1.1.5,158,-0.350,-0.350,-0.350,0.000,0.000,0.000
1641207977853614080,2022-01-03-11:06:17,10.1.1.5,177,-0.340,-0.340,-0.340,0.000,0.000,0.000
1641207978053121024,2022-01-03-11:06:18,10.1.1.5,176,-0.330,-0.330,-0.330,0.000,0.000,0.000
1641207978254424064,2022-01-03-11:06:18,10.1.1.5,176,-0.320,-0.320,-0.320,0.000,0.000,0.000
1641207978446775808,2022-01-03-11:06:18,10.1.1.5,167,-0.310,-0.310,-0.310,0.000,0.000,0.000
1641207978656232192,2022-01-03-11:06:18,10.1.1.5,176,-0.300,-0.300,-0.300,0.000,0.000,0.000
1641207978858021120,2022-01-03-11:06:18,10.1.1.5,176,-0.290,-0.290,-0.290,0.000,0.000,0.000
1641207979065926912,2022-01-03-11:06:19,10.1.1.5,184,-0.280,-0.280,-0.280,0.000,0.000,0.000
1641207979260585984,2022-01-03-11:06:19,10.1.1.5,178,-0.270,-0.270,-0.270,0.000,0.000,0.000
1641207979460568064,2022-01-03-11:06:19,10.1.1.5,177,-0.260,-0.260,-0.260,0.000,0.000,0.000
1641207979660739072,2022-01-03-11:06:19,10.1.1.5,177,-0.250,-0.250,-0.250,0.000,0.000,0.000
1641207979852893952,2022-01-03-11:06:19,10.1.1.5,168,-0.240,-0.240,-0.240,0.000,0.000,0.000
1641207980063206912,2022-01-03-11:06:20,10.1.1.5,178,-0.230,-0.230,-0.230,0.000,0.000,0.000
1641207980263068928,2022-01-03-11:06:20,10.1.1.5,177,-0.220,-0.220,-0.220,0.000,0.000,0.000
1641207980464049152,2022-01-03-11:06:20,10.1.1.5,177,-0.210,-0.210,-0.210,0.000,0.000,0.000
1641207980665121024,2022-01-03-11:06:20,10.1.1.5,178,-0.200,-0.200,-0.200,0.000,0.000,0.000
1641207980886071808,2022-01-03-11:06:20,10.1.1.5,197,-0.190,-0.190,-0.190,0.000,0.000,0.000
1641207981076776960,2022-01-03-11:06:21,10.1.1.5,187,-0.180,-0.180,-0.180,0.000,0.000,0.000
1641207981271825152,2022-01-03-11:06:21,10.1.1.5,182,-0.170,-0.170,-0.170,0.000,0.000,0.000
1641207981467674112,2022-01-03-11:06:21,10.1.1.5,177,-0.160,-0.160,-0.160,0.000,0.000,0.000
1641207981668018176,2022-01-03-11:06:21,10.1.1.5,177,-0.150,-0.150,-0.150,0.000,0.000,0.000
1641207981869317120,2022-01-03-11:06:21,10.1.1.5,177,-0.140,-0.140,-0.140,0.000,0.000,0.000
1641207982069112064,2022-01-03-11:06:22,10.1.1.5,177,-0.130,-0.130,-0.130,0.000,0.000,0.000
1641207982276647168,2022-01-03-11:06:22,10.1.1.5,183,-0.120,-0.120,-0.120,0.000,0.000,0.000
1641207982472289024,2022-01-03-11:06:22,10.1.1.5,178,-0.110,-0.110,-0.110,0.000,0.000,0.000
1641207982681182976,2022-01-03-11:06:22,10.1.1.5,187,-0.100,-0.100,-0.100,0.000,0.000,0.000
1641207982871547904,2022-01-03-11:06:22,10.1.1.5,176,-0.090,-0.090,-0.090,0.000,0.000,0.000
1641207983072794880,2022-01-03-11:06:23,10.1.1.5,176,-0.080,-0.080,-0.080,0.000,0.000,0.000
1641207983272485888,2022-01-03-11:06:23,10.1.1.5,176,-0.070,-0.070,-0.070,0.000,0.000,0.000
1641207983483444992,2022-01-03-11:06:23,10.1.1.5,185,-0.060,-0.060,-0.060,0.000,0.000,0.000
1641207983692691968,2022-01-03-11:06:23,10.1.1.5,194,-0.050,-0.050,-0.050,0.000,0.000,0.000
1641207983885106176,2022-01-03-11:06:23,10.1.1.5,184,-0.040,-0.040,-0.040,0.000,0.000,0.000
1641207984093747968,2022-01-03-11:06:24,10.1.1.5,194,-0.030,-0.030,-0.030,0.000,0.000,0.000
1641207984294579968,2022-01-03-11:06:24,10.1.1.5,194,-0.020,-0.020,-0.020,0.000,0.000,0.000
1641207984485975040,2022-01-03-11:06:24,10.1.1.5,184,-0.010,-0.010,-0.010,0.000,0.000,0.000
1641207984684804864,2022-01-03-11:06:24,10.1.1.5,182,0.000,0.000,0.000,0.000,0.000,0.000
1641207984895642112,2022-01-03-11:06:24,10.1.1.5,192,-0.010,-0.010,-0.010,0.000,0.000,0.000
1641207985096119040,2022-01-03-11:06:25,10.1.1.5,192,-0.020,-0.020,-0.020,0.000,0.000,0.000
1641207985286968832,2022-01-03-11:06:25,10.1.1.5,182,-0.030,-0.030,-0.030,0.000,0.000,0.000
1641207985485469952,2022-01-03-11:06:25,10.1.1.5,180,-0.040,-0.040,-0.040,0.000,0.000,0.000
1641207985686674944,2022-01-03-11:06:25,10.1.1.5,181,-0.050,-0.050,-0.050,0.000,0.000,0.000
1641207985896249088,2022-01-03-11:06:25,10.1.1.5,190,-0.060,-0.060,-0.060,0.000,0.000,0.000
1641207986117147904,2022-01-03-11:06:26,10.1.1.5,199,-0.070,-0.070,-0.070,0.000,0.000,0.000
1641207986316633856,2022-01-03-11:06:26,10.1.1.5,198,-0.080,-0.080,-0.080,0.000,0.000,0.000
1641207986509586944,2022-01-03-11:06:26,10.1.1.5,190,-0.090,-0.090,-0.090,0.000,0.000,0.000
1641207986707864064,2022-01-03-11:06:26,10.1.1.5,187,-0.100,-0.100,-0.100,0.000,0.000,0.000
1641207986917144064,2022-01-03-11:06:26,10.1.1.5,196,-0.110,-0.110,-0.110,0.000,0.000,0.000
1641207987116813824,2022-01-03-11:06:27,10.1.1.5,196,-0.120,-0.120,-0.120,0.000,0.000,0.000
1641207987316648960,2022-01-03-11:06:27,10.1.1.5,195,-0.130,-0.130,-0.130,0.000,0.000,0.000
1641207987517230080,2022-01-03-11:06:27,10.1.1.5,195,-0.140,-0.140,-0.140,0.000,0.000,0.000
1641207987718486016,2022-01-03-11:06:27,10.1.1.5,188,-0.150,-0.150,-0.150,0.000,0.000,0.000
1641207987917145088,2022-01-03-11:06:27,10.1.1.5,186,-0.160,-0.160,-0.160,0.000,0.000,0.000
1641207988117908992,2022-01-03-11:06:28,10.1.1.5,186,-0.170,-0.170,-0.170,0.000,0.000,0.000
1641207988317442816,2022-01-03-11:06:28,10.1.1.5,185,-0.180,-0.180,-0.180,0.000,0.000,0.000
1641207988517553920,2022-01-03-11:06:28,10.1.1.5,184,-0.190,-0.190,-0.190,0.000,0.000,0.000
1641207988717185024,2022-01-03-11:06:28,10.1.1.5,182,-0.200,-0.200,-0.200,0.000,0.000,0.000
1641207988917378816,2022-01-03-11:06:28,10.1.1.5,182,-0.210,-0.210,-0.210,0.000,0.000,0.000
1641207989117465856,2022-01-03-11:06:29,10.1.1.5,181,-0.220,-0.220,-0.220,0.000,0.000,0.000
1641207989317504000,2022-01-03-11:06:29,10.1.1.5,181,-0.230,-0.230,-0.230,0.000,0.000,0.000
1641207989516866816,2022-01-03-11:06:29,10.1.1.5,179,-0.240,-0.240,-0.240,0.000,0.000,0.000
1641207989737391872,2022-01-03-11:06:29,10.1.1.5,199,-0.250,-0.250,-0.250,0.000,0.000,0.000
1641207989937949952,2022-01-03-11:06:29,10.1.1.5,199,-0.260,-0.260,-0.260,0.000,0.000,0.000
1641207990138509056,2022-01-03-11:06:30,10.1.1.5,199,-0.270,-0.270,-0.270,0.000,0.000,0.000
1641207990331154944,2022-01-03-11:06:30,10.1.1.5,192,-0.280,-0.280,-0.280,0.000,0.000,0.000
1641207990536835072,2022-01-03-11:06:30,10.1.1.5,197,-0.290,-0.290,-0.290,0.000,0.000,0.000
1641207990737530112,2022-01-03-11:06:30,10.1.1.5,197,-0.300,-0.300,-0.300,0.000,0.000,0.000
1641207990936947200,2022-01-03-11:06:30,10.1.1.5,196,-0.310,-0.310,-0.310,0.000,0.000,0.000
1641207991136844032,2022-01-03-11:06:31,10.1.1.5,195,-0.320,-0.320,-0.320,0.000,0.000,0.000
1641207991327796992,2022-01-03-11:06:31,10.1.1.5,185,-0.330,-0.330,-0.330,0.000,0.000,0.000
1641207991536894208,2022-01-03-11:06:31,10.1.1.5,194,-0.340,-0.340,-0.340,0.000,0.000,0.000
1641207991737922816,2022-01-03-11:06:31,10.1.1.5,194,-0.350,-0.350,-0.350,0.000,0.000,0.000
1641207991937009152,2022-01-03-11:06:31,10.1.1.5,193,-0.360,-0.360,-0.360,0.000,0.000,0.000
1641207992136535808,2022-01-03-11:06:32,10.1.1.5,192,-0.370,-0.370,-0.370,0.000,0.000,0.000
1641207992327940096,2022-01-03-11:06:32,10.1.1.5,183,-0.380,-0.380,-0.380,0.000,0.000,0.000
1641207992526906112,2022-01-03-11:06:32,10.1.1.5,181,-0.390,-0.390,-0.390,0.000,0.000,0.000
1641207992736888832,2022-01-03-11:06:32,10.1.1.5,190,-0.400,-0.400,-0.400,0.000,0.000,0.000
1641207992937017856,2022-01-03-11:06:32,10.1.1.5,189,-0.410,-0.410,-0.410,0.000,0.000,0.000
1641207993335859968,2022-01-03-11:06:33,10.1.1.5,186,-0.430,-0.430,-0.430,0.000,0.000,0.000
1641207994534530048,2022-01-03-11:06:34,10.1.1.5,180,-0.490,-0.490,-0.490,0.000,0.000,0.000
1641207994734136064,2022-01-03-11:06:34,10.1.1.5,179,-0.480,-0.480,-0.480,0.000,0.000,0.000
1641207994937596160,2022-01-03-11:06:34,10.1.1.5,181,-0.470,-0.470,-0.470,0.000,0.000,0.000
1641207995154112000,2022-01-03-11:06:35,10.1.1.5,196,-0.460,-0.460,-0.460,0.000,0.000,0.000
1641207995353975040,2022-01-03-11:06:35,10.1.1.5,195,-0.450,-0.450,-0.450,0.000,0.000,0.000
1641207995553860864,2022-01-03-11:06:35,10.1.1.5,195,-0.440,-0.440,-0.440,0.000,0.000,0.000
1641207995753468928,2022-01-03-11:06:35,10.1.1.5,194,-0.430,-0.430,-0.430,0.000,0.000,0.000
1641207995953392896,2022-01-03-11:06:35,10.1.1.5,193,-0.420,-0.420,-0.420,0.000,0.000,0.000
1641207996153376000,2022-01-03-11:06:36,10.1.1.5,192,-0.410,-0.410,-0.410,0.000,0.000,0.000
1641207996353143808,2022-01-03-11:06:36,10.1.1.5,191,-0.400,-0.400,-0.400,0.000,0.000,0.000
1641207996552614912,2022-01-03-11:06:36,10.1.1.5,190,-0.390,-0.390,-0.390,0.000,0.000,0.000
1641207996752396032,2022-01-03-11:06:36,10.1.1.5,190,-0.380,-0.380,-0.380,0.000,0.000,0.000
1641207996952567040,2022-01-03-11:06:36,10.1.1.5,189,-0.370,-0.370,-0.370,0.000,0.000,0.000
1641207997152065024,2022-01-03-11:06:37,10.1.1.5,188,-0.360,-0.360,-0.360,0.000,0.000,0.000
1641207997351612160,2022-01-03-11:06:37,10.1.1.5,187,-0.350,-0.350,-0.350,0.000,0.000,0.000
1641207997555161856,2022-01-03-11:06:37,10.1.1.5,190,-0.340,-0.340,-0.340,0.000,0.000,0.000
1641207997751645952,2022-01-03-11:06:37,10.1.1.5,183,-0.330,-0.330,-0.330,0.000,0.000,0.000
1641207997951052800,2022-01-03-11:06:37,10.1.1.5,182,-0.320,-0.320,-0.320,0.000,0.000,0.000
1641207998154836992,2022-01-03-11:06:38,10.1.1.5,182,-0.310,-0.310,-0.310,0.000,0.000,0.000
1641207998360944128,2022-01-03-11:06:38,10.1.1.5,190,-0.300,-0.300,-0.300,0.000,0.000,0.000
1641207998550268928,2022-01-03-11:06:38,10.1.1.5,178,-0.290,-0.290,-0.290,0.000,0.000,0.000
1641207998750790144,2022-01-03-11:06:38,10.1.1.5,178,-0.280,-0.280,-0.280,0.000,0.000,0.000
1641207998950021888,2022-01-03-11:06:38,10.1.1.5,177,-0.270,-0.270,-0.270,0.000,0.000,0.000
1641207999151119872,2022-01-03-11:06:39,10.1.1.5,177,-0.260,-0.260,-0.260,0.000,0.000,0.000
1641207999349114880,2022-01-03-11:06:39,10.1.1.5,175,-0.250,-0.250,-0.250,0.000,0.000,0.000
1641207999548940800,2022-01-03-11:06:39,10.1.1.5,174,-0.240,-0.240,-0.240,0.000,0.000,0.000
1641207999768929024,2022-01-03-11:06:39,10.1.1.5,193,-0.230,-0.230,-0.230,0.000,0.000,0.000
1641207999949150208,2022-01-03-11:06:39,10.1.1.5,173,-0.220,-0.220,-0.220,0.000,0.000,0.000
1641208000148335872,2022-01-03-11:06:40,10.1.1.5,171,-0.210,-0.210,-0.210,0.000,0.000,0.000
1641208000355195904,2022-01-03-11:06:40,10.1.1.5,173,-0.200,-0.200,-0.200,0.000,0.000,0.000
1641208000567378944,2022-01-03-11:06:40,10.1.1.5,190,-0.190,-0.190,-0.190,0.000,0.000,0.000
1641208000757314816,2022-01-03-11:06:40,10.1.1.5,179,-0.180,-0.180,-0.180,0.000,0.000,0.000
1641208000960429056,2022-01-03-11:06:40,10.1.1.5,181,-0.170,-0.170,-0.170,0.000,0.000,0.000
1641208001166455040,2022-01-03-11:06:41,10.1.1.5,187,-0.160,-0.160,-0.160,0.000,0.000,0.000
1641208001366588160,2022-01-03-11:06:41,10.1.1.5,186,-0.150,-0.150,-0.150,0.000,0.000,0.000
1641208001566699008,2022-01-03-11:06:41,10.1.1.5,185,-0.140,-0.140,-0.140,0.000,0.000,0.000
1641208001756606976,2022-01-03-11:06:41,10.1.1.5,175,-0.130,-0.130,-0.130,0.000,0.000,0.000
1641208001966785792,2022-01-03-11:06:41,10.1.1.5,185,-0.120,-0.120,-0.120,0.000,0.000,0.000
1641208002156498944,2022-01-03-11:06:42,10.1.1.5,173,-0.110,-0.110,-0.110,0.000,0.000,0.000
1641208002356082944,2022-01-03-11:06:42,10.1.1.5,173,-0.100,-0.100,-0.100,0.000,0.000,0.000
1641208002555985920,2022-01-03-11:06:42,10.1.1.5,172,-0.090,-0.090,-0.090,0.000,0.000,0.000
1641208002765462016,2022-01-03-11:06:42,10.1.1.5,181,-0.080,-0.080,-0.080,0.000,0.000,0.000
1641208002964795136,2022-01-03-11:06:42,10.1.1.5,180,-0.070,-0.070,-0.070,0.000,0.000,0.000
1641208003155375872,2022-01-03-11:06:43,10.1.1.5,170,-0.060,-0.060,-0.060,0.000,0.000,0.000
1641208003364225024,2022-01-03-11:06:43,10.1.1.5,178,-0.050,-0.050,-0.050,0.000,0.000,0.000
1641208003553431040,2022-01-03-11:06:43,10.1.1.5,167,-0.040,-0.040,-0.040,0.000,0.000,0.000
1641208003763211008,2022-01-03-11:06:43,10.1.1.5,176,-0.030,-0.030,-0.030,0.000,0.000,0.000
1641208003953277184,2022-01-03-11:06:43,10.1.1.5,166,-0.020,-0.020,-0.020,0.000,0.000,0.000
1641208004162513920,2022-01-03-11:06:44,10.1.1.5,175,-0.010,-0.010,-0.010,0.000,0.000,0.000
1641208004382308096,2022-01-03-11:06:44,10.1.1.5,194,0.000,0.000,0.000,0.000,0.000,0.000
1641208004572640000,2022-01-03-11:06:44,10.1.1.5,184,-0.010,-0.010,-0.010,0.000,0.000,0.000
1641208004762706944,2022-01-03-11:06:44,10.1.1.5,171,-0.020,-0.020,-0.020,0.000,0.000,0.000
1641208005180992000,2022-01-03-11:06:45,10.1.1.5,178,-0.040,-0.040,-0.040,0.000,0.000,0.000
1641208005380886016,2022-01-03-11:06:45,10.1.1.5,175,-0.050,-0.050,-0.050,0.000,0.000,0.000
1641208005580326144,2022-01-03-11:06:45,10.1.1.5,175,-0.060,-0.060,-0.060,0.000,0.000,0.000
1641208005780302080,2022-01-03-11:06:45,10.1.1.5,174,-0.070,-0.070,-0.070,0.000,0.000,0.000
1641208005969527040,2022-01-03-11:06:45,10.1.1.5,163,-0.080,-0.080,-0.080,0.000,0.000,0.000
1641208006179534848,2022-01-03-11:06:46,10.1.1.5,172,-0.090,-0.090,-0.090,0.000,0.000,0.000
1641208006370096896,2022-01-03-11:06:46,10.1.1.5,162,-0.100,-0.100,-0.100,0.000,0.000,0.000
1641208006599243008,2022-01-03-11:06:46,10.1.1.5,191,-0.110,-0.110,-0.110,0.000,0.000,0.000
1641208006783075072,2022-01-03-11:06:46,10.1.1.5,170,-0.120,-0.120,-0.120,0.000,0.000,0.000
1641208006982119936,2022-01-03-11:06:46,10.1.1.5,173,-0.130,-0.130,-0.130,0.000,0.000,0.000
1641208007178374912,2022-01-03-11:06:47,10.1.1.5,169,-0.140,-0.140,-0.140,0.000,0.000,0.000
1641208007398396928,2022-01-03-11:06:47,10.1.1.5,188,-0.150,-0.150,-0.150,0.000,0.000,0.000
1641208007577871104,2022-01-03-11:06:47,10.1.1.5,167,-0.160,-0.160,-0.160,0.000,0.000,0.000
1641208007777231104,2022-01-03-11:06:47,10.1.1.5,166,-0.170,-0.170,-0.170,0.000,0.000,0.000
1641208007976733952,2022-01-03-11:06:47,10.1.1.5,164,-0.180,-0.180,-0.180,0.000,0.000,0.000
1641208008196965888,2022-01-03-11:06:48,10.1.1.5,182,-0.190,-0.190,-0.190,0.000,0.000,0.000
1641208008376445952,2022-01-03-11:06:48,10.1.1.5,161,-0.200,-0.200,-0.200,0.000,0.000,0.000
1641208008577688832,2022-01-03-11:06:48,10.1.1.5,162,-0.210,-0.210,-0.210,0.000,0.000,0.000
1641208008775851008,2022-01-03-11:06:48,10.1.1.5,160,-0.220,-0.220,-0.220,0.000,0.000,0.000
1641208008975354880,2022-01-03-11:06:48,10.1.1.5,158,-0.230,-0.230,-0.230,0.000,0.000,0.000
1641208009174647040,2022-01-03-11:06:49,10.1.1.5,157,-0.240,-0.240,-0.240,0.000,0.000,0.000
1641208009384668160,2022-01-03-11:06:49,10.1.1.5,167,-0.250,-0.250,-0.250,0.000,0.000,0.000
1641208009594599936,2022-01-03-11:06:49,10.1.1.5,176,-0.260,-0.260,-0.260,0.000,0.000,0.000
1641208009784445952,2022-01-03-11:06:49,10.1.1.5,166,-0.270,-0.270,-0.270,0.000,0.000,0.000
1641208009985181184,2022-01-03-11:06:49,10.1.1.5,166,-0.280,-0.280,-0.280,0.000,0.000,0.000
1641208010184505088,2022-01-03-11:06:50,10.1.1.5,165,-0.290,-0.290,-0.290,0.000,0.000,0.000
1641208010385152000,2022-01-03-11:06:50,10.1.1.5,165,-0.300,-0.300,-0.300,0.000,0.000,0.000
1641208010593923072,2022-01-03-11:06:50,10.1.1.5,173,-0.310,-0.310,-0.310,0.000,0.000,0.000
1641208010789940992,2022-01-03-11:06:50,10.1.1.5,168,-0.320,-0.320,-0.320,0.000,0.000,0.000
1641208010988583936,2022-01-03-11:06:50,10.1.1.5,166,-0.330,-0.330,-0.330,0.000,0.000,0.000
1641208011199564032,2022-01-03-11:06:51,10.1.1.5,176,-0.340,-0.340,-0.340,0.000,0.000,0.000
1641208011391827968,2022-01-03-11:06:51,10.1.1.5,166,-0.350,-0.350,-0.350,0.000,0.000,0.000
1641208011601888768,2022-01-03-11:06:51,10.1.1.5,176,-0.360,-0.360,-0.360,0.000,0.000,0.000
1641208011792658176,2022-01-03-11:06:51,10.1.1.5,166,-0.370,-0.370,-0.370,0.000,0.000,0.000
1641208012003627008,2022-01-03-11:06:52,10.1.1.5,176,-0.380,-0.380,-0.380,0.000,0.000,0.000
1641208012205252864,2022-01-03-11:06:52,10.1.1.5,177,-0.390,-0.390,-0.390,0.000,0.000,0.000
1641208012414053888,2022-01-03-11:06:52,10.1.1.5,185,-0.400,-0.400,-0.400,0.000,0.000,0.000
1641208012605170944,2022-01-03-11:06:52,10.1.1.5,175,-0.410,-0.410,-0.410,0.000,0.000,0.000
1641208012806968064,2022-01-03-11:06:52,10.1.1.5,175,-0.420,-0.420,-0.420,0.000,0.000,0.000
1641208013027409152,2022-01-03-11:06:53,10.1.1.5,195,-0.430,-0.430,-0.430,0.000,0.000,0.000
1641208013227636992,2022-01-03-11:06:53,10.1.1.5,195,-0.440,-0.440,-0.440,0.000,0.000,0.000
1641208013408348160,2022-01-03-11:06:53,10.1.1.5,175,-0.450,-0.450,-0.450,0.000,0.000,0.000
1641208013608634112,2022-01-03-11:06:53,10.1.1.5,174,-0.460,-0.460,-0.460,0.000,0.000,0.000
1641208013809242880,2022-01-03-11:06:53,10.1.1.5,172,-0.470,-0.470,-0.470,0.000,0.000,0.000
1641208014022882816,2022-01-03-11:06:54,10.1.1.5,184,-0.480,-0.480,-0.480,0.000,0.000,0.000
1641208014231000832,2022-01-03-11:06:54,10.1.1.5,191,-0.490,-0.490,-0.490,0.000,0.000,0.000
1641208014421242112,2022-01-03-11:06:54,10.1.1.5,180,-0.480,-0.480,-0.480,0.000,0.000,0.000
1641208014621822208,2022-01-03-11:06:54,10.1.1.5,180,-0.470,-0.470,-0.470,0.000,0.000,0.000
1641208014822832128,2022-01-03-11:06:54,10.1.1.5,180,-0.460,-0.460,-0.460,0.000,0.000,0.000
1641208015032124160,2022-01-03-11:06:55,10.1.1.5,188,-0.450,-0.450,-0.450,0.000,0.000,0.000
1641208015223789824,2022-01-03-11:06:55,10.1.1.5,177,-0.440,-0.440,-0.440,0.000,0.000,0.000
1641208015434257920,2022-01-03-11:06:55,10.1.1.5,187,-0.430,-0.430,-0.430,0.000,0.000,0.000
1641208015637435904,2022-01-03-11:06:55,10.1.1.5,189,-0.420,-0.420,-0.420,0.000,0.000,0.000
1641208015834454016,2022-01-03-11:06:55,10.1.1.5,179,-0.410,-0.410,-0.410,0.000,0.000,0.000
1641208016058525952,2022-01-03-11:06:56,10.1.1.5,189,-0.400,-0.400,-0.400,0.000,0.000,0.000
1641208016456304128,2022-01-03-11:06:56,10.1.1.5,181,-0.380,-0.380,-0.380,0.000,0.000,0.000
1641208016655708160,2022-01-03-11:06:56,10.1.1.5,179,-0.370,-0.370,-0.370,0.000,0.000,0.000
1641208016855336960,2022-01-03-11:06:56,10.1.1.5,178,-0.360,-0.360,-0.360,0.000,0.000,0.000
1641208017076542976,2022-01-03-11:06:57,10.1.1.5,195,-0.350,-0.350,-0.350,0.000,0.000,0.000
1641208017274996992,2022-01-03-11:06:57,10.1.1.5,193,-0.340,-0.340,-0.340,0.000,0.000,0.000
1641208017476861952,2022-01-03-11:06:57,10.1.1.5,195,-0.330,-0.330,-0.330,0.000,0.000,0.000
1641208017680901120,2022-01-03-11:06:57,10.1.1.5,198,-0.320,-0.320,-0.320,0.000,0.000,0.000
1641208017883074048,2022-01-03-11:06:57,10.1.1.5,196,-0.310,-0.310,-0.310,0.000,0.000,0.000
1641208018076759040,2022-01-03-11:06:58,10.1.1.5,185,-0.300,-0.300,-0.300,0.000,0.000,0.000
1641208018277228032,2022-01-03-11:06:58,10.1.1.5,185,-0.290,-0.290,-0.290,0.000,0.000,0.000
1641208018479001088,2022-01-03-11:06:58,10.1.1.5,185,-0.280,-0.280,-0.280,0.000,0.000,0.000
1641208018676919040,2022-01-03-11:06:58,10.1.1.5,182,-0.270,-0.270,-0.270,0.000,0.000,0.000
1641208018881172992,2022-01-03-11:06:58,10.1.1.5,186,-0.260,-0.260,-0.260,0.000,0.000,0.000
1641208019077729024,2022-01-03-11:06:59,10.1.1.5,181,-0.250,-0.250,-0.250,0.000,0.000,0.000
1641208019287961088,2022-01-03-11:06:59,10.1.1.5,189,-0.240,-0.240,-0.240,0.000,0.000,0.000
1641208019498064896,2022-01-03-11:06:59,10.1.1.5,198,-0.230,-0.230,-0.230,0.000,0.000,0.000
1641208019697750016,2022-01-03-11:06:59,10.1.1.5,197,-0.220,-0.220,-0.220,0.000,0.000,0.000
1641208019897646848,2022-01-03-11:06:59,10.1.1.5,196,-0.210,-0.210,-0.210,0.000,0.000,0.000
1641208020097545984,2022-01-03-11:07:00,10.1.1.5,195,-0.200,-0.200,-0.200,0.000,0.000,0.000
1641208020298595072,2022-01-03-11:07:00,10.1.1.5,195,-0.190,-0.190,-0.190,0.000,0.000,0.000
1641208020500043008,2022-01-03-11:07:00,10.1.1.5,195,-0.180,-0.180,-0.180,0.000,0.000,0.000
1641208020700717056,2022-01-03-11:07:00,10.1.1.5,195,-0.170,-0.170,-0.170,0.000,0.000,0.000
1641208020889126144,2022-01-03-11:07:00,10.1.1.5,183,-0.160,-0.160,-0.160,0.000,0.000,0.000
1641208021099542016,2022-01-03-11:07:01,10.1.1.5,193,-0.150,-0.150,-0.150,0.000,0.000,0.000
1641208021289833984,2022-01-03-11:07:01,10.1.1.5,182,-0.140,-0.140,-0.140,0.000,0.000,0.000
1641208021498490112,2022-01-03-11:07:01,10.1.1.5,190,-0.130,-0.130,-0.130,0.000,0.000,0.000
1641208021708468992,2022-01-03-11:07:01,10.1.1.5,198,-0.120,-0.120,-0.120,0.000,0.000,0.000
1641208021894240000,2022-01-03-11:07:01,10.1.1.5,183,-0.110,-0.110,-0.110,0.000,0.000,0.000
1641208022098021888,2022-01-03-11:07:02,10.1.1.5,185,-0.100,-0.100,-0.100,0.000,0.000,0.000
1641208022297794048,2022-01-03-11:07:02,10.1.1.5,185,-0.090,-0.090,-0.090,0.000,0.000,0.000
1641208022507762944,2022-01-03-11:07:02,10.1.1.5,194,-0.080,-0.080,-0.080,0.000,0.000,0.000
1641208022697865984,2022-01-03-11:07:02,10.1.1.5,184,-0.070,-0.070,-0.070,0.000,0.000,0.000
1641208022897788928,2022-01-03-11:07:02,10.1.1.5,183,-0.060,-0.060,-0.060,0.000,0.000,0.000
1641208023097485056,2022-01-03-11:07:03,10.1.1.5,182,-0.050,-0.050,-0.050,0.000,0.000,0.000
1641208023297199104,2022-01-03-11:07:03,10.1.1.5,181,-0.040,-0.040,-0.040,0.000,0.000,0.000
1641208023497661184,2022-01-03-11:07:03,10.1.1.5,181,-0.030,-0.030,-0.030,0.000,0.000,0.000
1641208023917893888,2022-01-03-11:07:03,10.1.1.5,199,-0.010,-0.010,-0.010,0.000,0.000,0.000
1641208024117526016,2022-01-03-11:07:04,10.1.1.5,198,0.000,0.000,0.000,0.000,0.000,0.000
1641208024315963136,2022-01-03-11:07:04,10.1.1.5,196,-0.010,-0.010,-0.010,0.000,0.000,0.000
1641208024516752128,2022-01-03-11:07:04,10.1.1.5,196,-0.020,-0.020,-0.020,0.000,0.000,0.000
1641208024706817024,2022-01-03-11:07:04,10.1.1.5,185,-0.030,-0.030,-0.030,0.000,0.000,0.000
1641208024916582144,2022-01-03-11:07:04,10.1.1.5,195,-0.040,-0.040,-0.040,0.000,0.000,0.000
1641208025117340928,2022-01-03-11:07:05,10.1.1.5,194,-0.050,-0.050,-0.050,0.000,0.000,0.000
1641208025306947072,2022-01-03-11:07:05,10.1.1.5,183,-0.060,-0.060,-0.060,0.000,0.000,0.000
1641208025526284032,2022-01-03-11:07:05,10.1.1.5,197,-0.070,-0.070,-0.070,0.000,0.000,0.000
1641208025717619968,2022-01-03-11:07:05,10.1.1.5,186,-0.080,-0.080,-0.080,0.000,0.000,0.000
1641208025916646912,2022-01-03-11:07:05,10.1.1.5,183,-0.090,-0.090,-0.090,0.000,0.000,0.000
1641208026126369024,2022-01-03-11:07:06,10.1.1.5,192,-0.100,-0.100,-0.100,0.000,0.000,0.000
1641208026316382976,2022-01-03-11:07:06,10.1.1.5,180,-0.110,-0.110,-0.110,0.000,0.000,0.000
1641208026519904000,2022-01-03-11:07:06,10.1.1.5,183,-0.120,-0.120,-0.120,0.000,0.000,0.000
1641208026735183104,2022-01-03-11:07:06,10.1.1.5,197,-0.130,-0.130,-0.130,0.000,0.000,0.000
1641208026924606208,2022-01-03-11:07:06,10.1.1.5,186,-0.140,-0.140,-0.140,0.000,0.000,0.000
1641208027134785024,2022-01-03-11:07:07,10.1.1.5,196,-0.150,-0.150,-0.150,0.000,0.000,0.000
1641208027335355136,2022-01-03-11:07:07,10.1.1.5,194,-0.160,-0.160,-0.160,0.000,0.000,0.000
1641208027524744960,2022-01-03-11:07:07,10.1.1.5,183,-0.170,-0.170,-0.170,0.000,0.000,0.000
1641208027724766976,2022-01-03-11:07:07,10.1.1.5,183,-0.180,-0.180,-0.180,0.000,0.000,0.000
1641208027933739776,2022-01-03-11:07:07,10.1.1.5,192,-0.190,-0.190,-0.190,0.000,0.000,0.000
1641208028134684928,2022-01-03-11:07:08,10.1.1.5,192,-0.200,-0.200,-0.200,0.000,0.000,0.000
1641208028335289856,2022-01-03-11:07:08,10.1.1.5,192,-0.210,-0.210,-0.210,0.000,0.000,0.000
1641208028533552896,2022-01-03-11:07:08,10.1.1.5,189,-0.220,-0.220,-0.220,0.000,0.000,0.000
1641208028733433088,2022-01-03-11:07:08,10.1.1.5,188,-0.230,-0.230,-0.230,0.000,0.000,0.000
1641208028924552960,2022-01-03-11:07:08,10.1.1.5,178,-0.240,-0.240,-0.240,0.000,0.000,0.000
1641208029132709888,2022-01-03-11:07:09,10.1.1.5,186,-0.250,-0.250,-0.250,0.000,0.000,0.000
1641208029335584000,2022-01-03-11:07:09,10.1.1.5,188,-0.260,-0.260,-0.260,0.000,0.000,0.000
1641208029532665088,2022-01-03-11:07:09,10.1.1.5,181,-0.270,-0.270,-0.270,0.000,0.000,0.000
1641208029732165120,2022-01-03-11:07:09,10.1.1.5,180,-0.280,-0.280,-0.280,0.000,0.000,0.000
1641208030152771072,2022-01-03-11:07:10,10.1.1.5,199,-0.300,-0.300,-0.300,0.000,0.000,0.000
1641208030341607168,2022-01-03-11:07:10,10.1.1.5,188,-0.310,-0.310,-0.310,0.000,0.000,0.000
1641208030542115840,2022-01-03-11:07:10,10.1.1.5,187,-0.320,-0.320,-0.320,0.000,0.000,0.000
1641208030731270144,2022-01-03-11:07:10,10.1.1.5,176,-0.330,-0.330,-0.330,0.000,0.000,0.000
1641208030940968960,2022-01-03-11:07:10,10.1.1.5,184,-0.340,-0.340,-0.340,0.000,0.000,0.000
1641208031156327936,2022-01-03-11:07:11,10.1.1.5,198,-0.350,-0.350,-0.350,0.000,0.000,0.000
1641208031350706176,2022-01-03-11:07:11,10.1.1.5,190,-0.360,-0.360,-0.360,0.000,0.000,0.000
1641208031539913984,2022-01-03-11:07:11,10.1.1.5,178,-0.370,-0.370,-0.370,0.000,0.000,0.000
1641208031749371136,2022-01-03-11:07:11,10.1.1.5,186,-0.380,-0.380,-0.380,0.000,0.000,0.000
1641208031949139968,2022-01-03-11:07:11,10.1.1.5,185,-0.390,-0.390,-0.390,0.000,0.000,0.000
1641208032148673024,2022-01-03-11:07:12,10.1.1.5,184,-0.400,-0.400,-0.400,0.000,0.000,0.000
1641208032339854080,2022-01-03-11:07:12,10.1.1.5,175,-0.410,-0.410,-0.410,0.000,0.000,0.000
1641208032540919040,2022-01-03-11:07:12,10.1.1.5,175,-0.420,-0.420,-0.420,0.000,0.000,0.000
1641208032748619008,2022-01-03-11:07:12,10.1.1.5,182,-0.430,-0.430,-0.430,0.000,0.000,0.000
1641208032947514112,2022-01-03-11:07:12,10.1.1.5,179,-0.440,-0.440,-0.440,0.000,0.000,0.000
1641208033148253952,2022-01-03-11:07:13,10.1.1.5,179,-0.450,-0.450,-0.450,0.000,0.000,0.000
1641208033347098112,2022-01-03-11:07:13,10.1.1.5,177,-0.460,-0.460,-0.460,0.000,0.000,0.000
1641208033551682048,2022-01-03-11:07:13,10.1.1.5,178,-0.470,-0.470,-0.470,0.000,0.000,0.000
1641208033758192128,2022-01-03-11:07:13,10.1.1.5,187,-0.480,-0.480,-0.480,0.000,0.000,0.000
1641208033949979136,2022-01-03-11:07:13,10.1.1.5,178,-0.490,-0.490,-0.490,0.000,0.000,0.000
1641208034146313984,2022-01-03-11:07:14,10.1.1.5,174,-0.480,-0.480,-0.480,0.000,0.000,0.000
1641208034345639936,2022-01-03-11:07:14,10.1.1.5,173,-0.470,-0.470,-0.470,0.000,0.000,0.000
1641208034545895936,2022-01-03-11:07:14,10.1.1.5,173,-0.460,-0.460,-0.460,0.000,0.000,0.000
1641208034748466944,2022-01-03-11:07:14,10.1.1.5,174,-0.450,-0.450,-0.450,0.000,0.000,0.000
1641208034944856832,2022-01-03-11:07:14,10.1.1.5,170,-0.440,-0.440,-0.440,0.000,0.000,0.000
1641208035164627200,2022-01-03-11:07:15,10.1.1.5,189,-0.430,-0.430,-0.430,0.000,0.000,0.000
1641208035364386048,2022-01-03-11:07:15,10.1.1.5,188,-0.420,-0.420,-0.420,0.000,0.000,0.000
1641208035544521984,2022-01-03-11:07:15,10.1.1.5,168,-0.410,-0.410,-0.410,0.000,0.000,0.000
1641208035763782912,2022-01-03-11:07:15,10.1.1.5,186,-0.400,-0.400,-0.400,0.000,0.000,0.000
1641208035963255808,2022-01-03-11:07:15,10.1.1.5,185,-0.390,-0.390,-0.390,0.000,0.000,0.000
1641208036153608960,2022-01-03-11:07:16,10.1.1.5,175,-0.380,-0.380,-0.380,0.000,0.000,0.000
1641208036373138944,2022-01-03-11:07:16,10.1.1.5,194,-0.370,-0.370,-0.370,0.000,0.000,0.000
1641208036562294016,2022-01-03-11:07:16,10.1.1.5,181,-0.360,-0.360,-0.360,0.000,0.000,0.000
1641208036761820160,2022-01-03-11:07:16,10.1.1.5,180,-0.350,-0.350,-0.350,0.000,0.000,0.000
1641208036953003008,2022-01-03-11:07:16,10.1.1.5,171,-0.340,-0.340,-0.340,0.000,0.000,0.000
1641208037162269952,2022-01-03-11:07:17,10.1.1.5,180,-0.330,-0.330,-0.330,0.000,0.000,0.000
1641208037353454080,2022-01-03-11:07:17,10.1.1.5,170,-0.320,-0.320,-0.320,0.000,0.000,0.000
1641208037551992832,2022-01-03-11:07:17,10.1.1.5,168,-0.310,-0.310,-0.310,0.000,0.000,0.000
1641208037760855808,2022-01-03-11:07:17,10.1.1.5,176,-0.300,-0.300,-0.300,0.000,0.000,0.000
1641208037960453888,2022-01-03-11:07:17,10.1.1.5,172,-0.290,-0.290,-0.290,0.000,0.000,0.000
1641208038160854016,2022-01-03-11:07:18,10.1.1.5,171,-0.280,-0.280,-0.280,0.000,0.000,0.000
1641208038360333056,2022-01-03-11:07:18,10.1.1.5,170,-0.270,-0.270,-0.270,0.000,0.000,0.000
1641208038583677952,2022-01-03-11:07:18,10.1.1.5,193,-0.260,-0.260,-0.260,0.000,0.000,0.000
1641208038771681024,2022-01-03-11:07:18,10.1.1.5,181,-0.250,-0.250,-0.250,0.000,0.000,0.000
1641208038959048960,2022-01-03-11:07:18,10.1.1.5,167,-0.240,-0.240,-0.240,0.000,0.000,0.000
1641208039158896896,2022-01-03-11:07:19,10.1.1.5,167,-0.230,-0.230,-0.230,0.000,0.000,0.000
1641208039358903040,2022-01-03-11:07:19,10.1.1.5,166,-0.220,-0.220,-0.220,0.000,0.000,0.000
1641208039558300928,2022-01-03-11:07:19,10.1.1.5,165,-0.210,-0.210,-0.210,0.000,0.000,0.000
1641208039767611904,2022-01-03-11:07:19,10.1.1.5,173,-0.200,-0.200,-0.200,0.000,0.000,0.000
1641208039977684992,2022-01-03-11:07:19,10.1.1.5,183,-0.190,-0.190,-0.190,0.000,0.000,0.000
1641208040177581056,2022-01-03-11:07:20,10.1.1.5,182,-0.180,-0.180,-0.180,0.000,0.000,0.000
1641208040356830976,2022-01-03-11:07:20,10.1.1.5,161,-0.170,-0.170,-0.170,0.000,0.000,0.000
1641208040567177984,2022-01-03-11:07:20,10.1.1.5,170,-0.160,-0.160,-0.160,0.000,0.000,0.000
1641208040776577024,2022-01-03-11:07:20,10.1.1.5,175,-0.150,-0.150,-0.150,0.000,0.000,0.000
1641208040970639104,2022-01-03-11:07:20,10.1.1.5,166,-0.140,-0.140,-0.140,0.000,0.000,0.000
1641208041165926912,2022-01-03-11:07:21,10.1.1.5,163,-0.130,-0.130,-0.130,0.000,0.000,0.000
1641208041375372032,2022-01-03-11:07:21,10.1.1.5,172,-0.120,-0.120,-0.120,0.000,0.000,0.000
1641208041574958080,2022-01-03-11:07:21,10.1.1.5,171,-0.110,-0.110,-0.110,0.000,0.000,0.000
1641208041764797952,2022-01-03-11:07:21,10.1.1.5,160,-0.100,-0.100,-0.100,0.000,0.000,0.000
1641208041964610048,2022-01-03-11:07:21,10.1.1.5,158,-0.090,-0.090,-0.090,0.000,0.000,0.000
1641208042175836160,2022-01-03-11:07:22,10.1.1.5,169,-0.080,-0.080,-0.080,0.000,0.000,0.000
1641208042373617920,2022-01-03-11:07:22,10.1.1.5,167,-0.070,-0.070,-0.070,0.000,0.000,0.000
1641208042593662976,2022-01-03-11:07:22,10.1.1.5,186,-0.060,-0.060,-0.060,0.000,0.000,0.000
1641208042793103872,2022-01-03-11:07:22,10.1.1.5,185,-0.050,-0.050,-0.050,0.000,0.000,0.000
1641208042993037056,2022-01-03-11:07:22,10.1.1.5,184,-0.040,-0.040,-0.040,0.000,0.000,0.000
1641208043183587072,2022-01-03-11:07:23,10.1.1.5,174,-0.030,-0.030,-0.030,0.000,0.000,0.000
1641208043374563840,2022-01-03-11:07:23,10.1.1.5,165,-0.020,-0.020,-0.020,0.000,0.000,0.000
1641208043575865856,2022-01-03-11:07:23,10.1.1.5,166,-0.010,-0.010,-0.010,0.000,0.000,0.000
1641208043797614080,2022-01-03-11:07:23,10.1.1.5,187,0.000,0.000,0.000,0.000,0.000,0.000
1641208043977467904,2022-01-03-11:07:23,10.1.1.5,166,-0.010,-0.010,-0.010,0.000,0.000,0.000
1641208044198843904,2022-01-03-11:07:24,10.1.1.5,187,-0.020,-0.020,-0.020,0.000,0.000,0.000
1641208044390195968,2022-01-03-11:07:24,10.1.1.5,178,-0.030,-0.030,-0.030,0.000,0.000,0.000
1641208044580220928,2022-01-03-11:07:24,10.1.1.5,166,-0.040,-0.040,-0.040,0.000,0.000,0.000
1641208044802376960,2022-01-03-11:07:24,10.1.1.5,188,-0.050,-0.050,-0.050,0.000,0.000,0.000
1641208044985661952,2022-01-03-11:07:24,10.1.1.5,171,-0.060,-0.060,-0.060,0.000,0.000,0.000
1641208045222878976,2022-01-03-11:07:25,10.1.1.5,208,-0.070,-0.070,-0.070,0.000,0.000,0.000
1641208045433787136,2022-01-03-11:07:25,10.1.1.5,185,-0.080,-0.080,-0.080,0.000,0.000,0.000
1641208045644685056,2022-01-03-11:07:25,10.1.1.5,191,-0.090,-0.090,-0.090,0.000,0.000,0.000
1641208045826283008,2022-01-03-11:07:25,10.1.1.5,171,-0.100,-0.100,-0.100,0.000,0.000,0.000
1641208046046998016,2022-01-03-11:07:26,10.1.1.5,190,-0.110,-0.110,-0.110,0.000,0.000,0.000
1641208046249846016,2022-01-03-11:07:26,10.1.1.5,189,-0.120,-0.120,-0.120,0.000,0.000,0.000
1641208046459422976,2022-01-03-11:07:26,10.1.1.5,172,-0.130,-0.130,-0.130,0.000,0.000,0.000
1641208046687998976,2022-01-03-11:07:26,10.1.1.5,199,-0.140,-0.140,-0.140,0.000,0.000,0.000
1641208046869462016,2022-01-03-11:07:26,10.1.1.5,180,-0.150,-0.150,-0.150,0.000,0.000,0.000
1641208047069020160,2022-01-03-11:07:27,10.1.1.5,179,-0.160,-0.160,-0.160,0.000,0.000,0.000
1641208047269617152,2022-01-03-11:07:27,10.1.1.5,179,-0.170,-0.170,-0.170,0.000,0.000,0.000
1641208047491159040,2022-01-03-11:07:27,10.1.1.5,200,-0.180,-0.180,-0.180,0.000,0.000,0.000
1641208047681591040,2022-01-03-11:07:27,10.1.1.5,189,-0.190,-0.190,-0.190,0.000,0.000,0.000
1641208047871473920,2022-01-03-11:07:27,10.1.1.5,179,-0.200,-0.200,-0.200,0.000,0.000,0.000
1641208048091821824,2022-01-03-11:07:28,10.1.1.5,198,-0.210,-0.210,-0.210,0.000,0.000,0.000
1641208048282185984,2022-01-03-11:07:28,10.1.1.5,188,-0.220,-0.220,-0.220,0.000,0.000,0.000
1641208048482312960,2022-01-03-11:07:28,10.1.1.5,188,-0.230,-0.230,-0.230,0.000,0.000,0.000
1641208048682710784,2022-01-03-11:07:28,10.1.1.5,187,-0.240,-0.240,-0.240,0.000,0.000,0.000
1641208049095997184,2022-01-03-11:07:29,10.1.1.5,194,-0.260,-0.260,-0.260,0.000,0.000,0.000
1641208049294155008,2022-01-03-11:07:29,10.1.1.5,187,-0.270,-0.270,-0.270,0.000,0.000,0.000
1641208049494977024,2022-01-03-11:07:29,10.1.1.5,187,-0.280,-0.280,-0.280,0.000,0.000,0.000
1641208049694348032,2022-01-03-11:07:29,10.1.1.5,186,-0.290,-0.290,-0.290,0.000,0.000,0.000
1641208049894921984,2022-01-03-11:07:29,10.1.1.5,186,-0.300,-0.300,-0.300,0.000,0.000,0.000
1641208050095194112,2022-01-03-11:07:30,10.1.1.5,186,-0.310,-0.310,-0.310,0.000,0.000,0.000
1641208050495151104,2022-01-03-11:07:30,10.1.1.5,184,-0.330,-0.330,-0.330,0.000,0.000,0.000
1641208050696860160,2022-01-03-11:07:30,10.1.1.5,185,-0.340,-0.340,-0.340,0.000,0.000,0.000
1641208050896043008,2022-01-03-11:07:30,10.1.1.5,183,-0.350,-0.350,-0.350,0.000,0.000,0.000
1641208051102912000,2022-01-03-11:07:31,10.1.1.5,188,-0.360,-0.360,-0.360,0.000,0.000,0.000
1641208051296196864,2022-01-03-11:07:31,10.1.1.5,182,-0.370,-0.370,-0.370,0.000,0.000,0.000
1641208051496139008,2022-01-03-11:07:31,10.1.1.5,182,-0.380,-0.380,-0.380,0.000,0.000,0.000
1641208051696065792,2022-01-03-11:07:31,10.1.1.5,181,-0.390,-0.390,-0.390,0.000,0.000,0.000
1641208051896462848,2022-01-03-11:07:31,10.1.1.5,180,-0.400,-0.400,-0.400,0.000,0.000,0.000
1641208052116825088,2022-01-03-11:07:32,10.1.1.5,198,-0.410,-0.410,-0.410,0.000,0.000,0.000
1641208052316834816,2022-01-03-11:07:32,10.1.1.5,197,-0.420,-0.420,-0.420,0.000,0.000,0.000
1641208052507982080,2022-01-03-11:07:32,10.1.1.5,187,-0.430,-0.430,-0.430,0.000,0.000,0.000
1641208052723119104,2022-01-03-11:07:32,10.1.1.5,194,-0.440,-0.440,-0.440,0.000,0.000,0.000
1641208052916929024,2022-01-03-11:07:32,10.1.1.5,193,-0.450,-0.450,-0.450,0.000,0.000,0.000
1641208053117630976,2022-01-03-11:07:33,10.1.1.5,193,-0.460,-0.460,-0.460,0.000,0.000,0.000
1641208053318490112,2022-01-03-11:07:33,10.1.1.5,193,-0.470,-0.470,-0.470,0.000,0.000,0.000
1641208053517115136,2022-01-03-11:07:33,10.1.1.5,191,-0.480,-0.480,-0.480,0.000,0.000,0.000
1641208053719540224,2022-01-03-11:07:33,10.1.1.5,192,-0.490,-0.490,-0.490,0.000,0.000,0.000
1641208053917253120,2022-01-03-11:07:33,10.1.1.5,188,-0.480,-0.480,-0.480,0.000,0.000,0.000
1641208054138504960,2022-01-03-11:07:34,10.1.1.5,195,-0.470,-0.470,-0.470,0.000,0.000,0.000
1641208054339087872,2022-01-03-11:07:34,10.1.1.5,194,-0.460,-0.460,-0.460,0.000,0.000,0.000
1641208054538270976,2022-01-03-11:07:34,10.1.1.5,192,-0.450,-0.450,-0.450,0.000,0.000,0.000
1641208054738370048,2022-01-03-11:07:34,10.1.1.5,190,-0.440,-0.440,-0.440,0.000,0.000,0.000
1641208054937828096,2022-01-03-11:07:34,10.1.1.5,184,-0.430,-0.430,-0.430,0.000,0.000,0.000
1641208055357434112,2022-01-03-11:07:35,10.1.1.5,189,-0.410,-0.410,-0.410,0.000,0.000,0.000
1641208055757036032,2022-01-03-11:07:35,10.1.1.5,183,-0.390,-0.390,-0.390,0.000,0.000,0.000
1641208055957929984,2022-01-03-11:07:35,10.1.1.5,184,-0.380,-0.380,-0.380,0.000,0.000,0.000
1641208056156611840,2022-01-03-11:07:36,10.1.1.5,182,-0.370,-0.370,-0.370,0.000,0.000,0.000
1641208056356564992,2022-01-03-11:07:36,10.1.1.5,181,-0.360,-0.360,-0.360,0.000,0.000,0.000
1641208056555852032,2022-01-03-11:07:36,10.1.1.5,180,-0.350,-0.350,-0.350,0.000,0.000,0.000
1641208056767044096,2022-01-03-11:07:36,10.1.1.5,190,-0.340,-0.340,-0.340,0.000,0.000,0.000
1641208056966345984,2022-01-03-11:07:36,10.1.1.5,189,-0.330,-0.330,-0.330,0.000,0.000,0.000
1641208057167464960,2022-01-03-11:07:37,10.1.1.5,189,-0.320,-0.320,-0.320,0.000,0.000,0.000
1641208057366550016,2022-01-03-11:07:37,10.1.1.5,188,-0.310,-0.310,-0.310,0.000,0.000,0.000
1641208057576178176,2022-01-03-11:07:37,10.1.1.5,197,-0.300,-0.300,-0.300,0.000,0.000,0.000
1641208057765688832,2022-01-03-11:07:37,10.1.1.5,186,-0.290,-0.290,-0.290,0.000,0.000,0.000
1641208057975399936,2022-01-03-11:07:37,10.1.1.5,195,-0.280,-0.280,-0.280,0.000,0.000,0.000
1641208058166085120,2022-01-03-11:07:38,10.1.1.5,185,-0.270,-0.270,-0.270,0.000,0.000,0.000
1641208058375772928,2022-01-03-11:07:38,10.1.1.5,194,-0.260,-0.260,-0.260,0.000,0.000,0.000
1641208058566682112,2022-01-03-11:07:38,10.1.1.5,184,-0.250,-0.250,-0.250,0.000,0.000,0.000
1641208058770803968,2022-01-03-11:07:38,10.1.1.5,187,-0.240,-0.240,-0.240,0.000,0.000,0.000
1641208058965182976,2022-01-03-11:07:38,10.1.1.5,182,-0.230,-0.230,-0.230,0.000,0.000,0.000
1641208059174616064,2022-01-03-11:07:39,10.1.1.5,191,-0.220,-0.220,-0.220,0.000,0.000,0.000
1641208059366800896,2022-01-03-11:07:39,10.1.1.5,182,-0.210,-0.210,-0.210,0.000,0.000,0.000
1641208059565995008,2022-01-03-11:07:39,10.1.1.5,180,-0.200,-0.200,-0.200,0.000,0.000,0.000
1641208059774940928,2022-01-03-11:07:39,10.1.1.5,188,-0.190,-0.190,-0.190,0.000,0.000,0.000
1641208059974242048,2022-01-03-11:07:39,10.1.1.5,184,-0.180,-0.180,-0.180,0.000,0.000,0.000
1641208060174988032,2022-01-03-11:07:40,10.1.1.5,184,-0.170,-0.170,-0.170,0.000,0.000,0.000
1641208060374129152,2022-01-03-11:07:40,10.1.1.5,183,-0.160,-0.160,-0.160,0.000,0.000,0.000
1641208060576719104,2022-01-03-11:07:40,10.1.1.5,181,-0.150,-0.150,-0.150,0.000,0.000,0.000
1641208060983058944,2022-01-03-11:07:40,10.1.1.5,190,-0.130,-0.130,-0.130,0.000,0.000,0.000
1641208061183465984,2022-01-03-11:07:41,10.1.1.5,189,-0.120,-0.120,-0.120,0.000,0.000,0.000
1641208061393038080,2022-01-03-11:07:41,10.1.1.5,198,-0.110,-0.110,-0.110,0.000,0.000,0.000
1641208061572911872,2022-01-03-11:07:41,10.1.1.5,177,-0.100,-0.100,-0.100,0.000,0.000,0.000
1641208061772248064,2022-01-03-11:07:41,10.1.1.5,176,-0.090,-0.090,-0.090,0.000,0.000,0.000
1641208061982224896,2022-01-03-11:07:41,10.1.1.5,186,-0.080,-0.080,-0.080,0.000,0.000,0.000
1641208062197840896,2022-01-03-11:07:42,10.1.1.5,201,-0.070,-0.070,-0.070,0.000,0.000,0.000
1641208062392896768,2022-01-03-11:07:42,10.1.1.5,193,-0.060,-0.060,-0.060,0.000,0.000,0.000
1641208062591373824,2022-01-03-11:07:42,10.1.1.5,190,-0.050,-0.050,-0.050,0.000,0.000,0.000
1641208062791973120,2022-01-03-11:07:42,10.1.1.5,190,-0.040,-0.040,-0.040,0.000,0.000,0.000
1641208062992683776,2022-01-03-11:07:42,10.1.1.5,186,-0.030,-0.030,-0.030,0.000,0.000,0.000
1641208063191368960,2022-01-03-11:07:43,10.1.1.5,175,-0.020,-0.020,-0.020,0.000,0.000,0.000
1641208063394104832,2022-01-03-11:07:43,10.1.1.5,177,-0.010,-0.010,-0.010,0.000,0.000,0.000
1641208063601210112,2022-01-03-11:07:43,10.1.1.5,184,0.000,0.000,0.000,0.000,0.000,0.000
1641208063809819904,2022-01-03-11:07:43,10.1.1.5,192,-0.010,-0.010,-0.010,0.000,0.000,0.000
1641208064011035904,2022-01-03-11:07:44,10.1.1.5,191,-0.020,-0.020,-0.020,0.000,0.000,0.000
1641208064209408000,2022-01-03-11:07:44,10.1.1.5,189,-0.030,-0.030,-0.030,0.000,0.000,0.000
1641208064408869120,2022-01-03-11:07:44,10.1.1.5,188,-0.040,-0.040,-0.040,0.000,0.000,0.000
1641208064598449920,2022-01-03-11:07:44,10.1.1.5,177,-0.050,-0.050,-0.050,0.000,0.000,0.000
1641208064808450048,2022-01-03-11:07:44,10.1.1.5,186,-0.060,-0.060,-0.060,0.000,0.000,0.000
1641208065009107968,2022-01-03-11:07:45,10.1.1.5,186,-0.070,-0.070,-0.070,0.000,0.000,0.000
1641208065207964928,2022-01-03-11:07:45,10.1.1.5,185,-0.080,-0.080,-0.080,0.000,0.000,0.000
1641208065399749888,2022-01-03-11:07:45,10.1.1.5,176,-0.090,-0.090,-0.090,0.000,0.000,0.000
1641208065607606784,2022-01-03-11:07:45,10.1.1.5,183,-0.100,-0.100,-0.100,0.000,0.000,0.000
1641208065799271168,2022-01-03-11:07:45,10.1.1.5,174,-0.110,-0.110,-0.110,0.000,0.000,0.000
1641208065997075968,2022-01-03-11:07:45,10.1.1.5,171,-0.120,-0.120,-0.120,0.000,0.000,0.000
1641208066210987008,2022-01-03-11:07:46,10.1.1.5,185,-0.130,-0.130,-0.130,0.000,0.000,0.000
1641208066407537920,2022-01-03-11:07:46,10.1.1.5,181,-0.140,-0.140,-0.140,0.000,0.000,0.000
1641208066614942976,2022-01-03-11:07:46,10.1.1.5,188,-0.150,-0.150,-0.150,0.000,0.000,0.000
1641208066826018048,2022-01-03-11:07:46,10.1.1.5,196,-0.160,-0.160,-0.160,0.000,0.000,0.000
1641208067005652992,2022-01-03-11:07:47,10.1.1.5,174,-0.170,-0.170,-0.170,0.000,0.000,0.000
1641208067225830912,2022-01-03-11:07:47,10.1.1.5,194,-0.180,-0.180,-0.180,0.000,0.000,0.000
1641208067405143040,2022-01-03-11:07:47,10.1.1.5,173,-0.190,-0.190,-0.190,0.000,0.000,0.000
1641208067607457024,2022-01-03-11:07:47,10.1.1.5,174,-0.200,-0.200,-0.200,0.000,0.000,0.000
1641208067804685056,2022-01-03-11:07:47,10.1.1.5,170,-0.210,-0.210,-0.210,0.000,0.000,0.000
1641208068003799808,2022-01-03-11:07:48,10.1.1.5,168,-0.220,-0.220,-0.220,0.000,0.000,0.000
1641208068230972160,2022-01-03-11:07:48,10.1.1.5,189,-0.230,-0.230,-0.230,0.000,0.000,0.000
1641208068424119040,2022-01-03-11:07:48,10.1.1.5,168,-0.240,-0.240,-0.240,0.000,0.000,0.000
1641208068623927040,2022-01-03-11:07:48,10.1.1.5,167,-0.250,-0.250,-0.250,0.000,0.000,0.000
1641208068822942976,2022-01-03-11:07:48,10.1.1.5,166,-0.260,-0.260,-0.260,0.000,0.000,0.000
1641208069042686976,2022-01-03-11:07:49,10.1.1.5,185,-0.270,-0.270,-0.270,0.000,0.000,0.000
1641208069232638976,2022-01-03-11:07:49,10.1.1.5,174,-0.280,-0.280,-0.280,0.000,0.000,0.000
1641208069432299008,2022-01-03-11:07:49,10.1.1.5,173,-0.290,-0.290,-0.290,0.000,0.000,0.000
1641208069638286080,2022-01-03-11:07:49,10.1.1.5,175,-0.300,-0.300,-0.300,0.000,0.000,0.000
1641208069832246016,2022-01-03-11:07:49,10.1.1.5,172,-0.310,-0.310,-0.310,0.000,0.000,0.000
1641208070041388032,2022-01-03-11:07:50,10.1.1.5,180,-0.320,-0.320,-0.320,0.000,0.000,0.000
