FedericoMungari/DigitalTwin_service/01_WiredScenario/Output/Output_script/script_ROSAPI_output_robots4_freq0_2.txt
timestamp,date,node,latency,joint_1,joint_2,joint_3,joint_4,joint_5,joint_6
1640658879730076160,2021-12-28-02:34:39,10.1.1.3,1640658879729.771,0.000,-0.000,-0.000,-0.000,-0.000,0.000
1640658883805392128,2021-12-28-02:34:43,10.1.1.3,2,0.000,-0.000,-0.000,-0.000,-0.000,0.000
1640658885961019904,2021-12-28-02:34:45,10.1.1.3,19,0.000,-0.000,-0.000,-0.000,-0.000,0.000
1640658888098941952,2021-12-28-02:34:48,10.1.1.3,4,0.000,-0.000,-0.000,-0.000,-0.000,0.000
1640658890230176000,2021-12-28-02:34:50,10.1.1.3,6,0.000,-0.000,-0.000,-0.000,-0.000,0.000
1640658892334017024,2021-12-28-02:34:52,10.1.1.3,8,0.000,-0.000,-0.000,-0.000,-0.000,0.000
1640658894478440960,2021-12-28-02:34:54,10.1.1.3,7,0.000,-0.000,-0.000,-0.000,-0.000,0.000
1640658896563234048,2021-12-28-02:34:56,10.1.1.3,8,0.000,-0.000,-0.000,-0.000,-0.000,0.000
1640658898663300096,2021-12-28-02:34:58,10.1.1.3,4,0.000,-0.000,-0.000,-0.000,-0.000,0.000
1640658900740494080,2021-12-28-02:35:00,10.1.1.3,2,0.000,-0.000,-0.000,-0.000,-0.000,0.000
1640658902839936000,2021-12-28-02:35:02,10.1.1.3,10,0.000,-0.000,-0.000,-0.000,-0.000,0.000
1640658904918405120,2021-12-28-02:35:04,10.1.1.3,5,0.000,-0.000,-0.000,-0.000,-0.000,0.000
1640658907035806976,2021-12-28-02:35:07,10.1.1.3,4,0.000,-0.000,-0.000,-0.000,-0.000,0.000
1640658909113624064,2021-12-28-02:35:09,10.1.1.3,2,0.000,-0.000,-0.000,-0.000,-0.000,0.000
1640658911170691072,2021-12-28-02:35:11,10.1.1.3,7,0.000,-0.000,-0.000,-0.000,-0.000,0.000
1640658913271312896,2021-12-28-02:35:13,10.1.1.3,1,0.000,-0.000,-0.000,-0.000,-0.000,0.000
1640658915405409024,2021-12-28-02:35:15,10.1.1.3,12,0.000,-0.000,-0.000,-0.000,-0.000,0.000
1640658917522136064,2021-12-28-02:35:17,10.1.1.3,2,0.000,-0.000,-0.000,-0.000,-0.000,0.000
1640658919637799936,2021-12-28-02:35:19,10.1.1.3,19,0.000,-0.000,-0.000,-0.000,-0.000,0.000
1640658921750555904,2021-12-28-02:35:21,10.1.1.3,9,0.000,-0.000,-0.000,-0.000,-0.000,0.000
1640658923894563840,2021-12-28-02:35:23,10.1.1.3,8,0.000,-0.000,-0.000,-0.000,-0.000,0.000
1640658926038551040,2021-12-28-02:35:26,10.1.1.3,19,0.000,-0.000,-0.000,-0.000,-0.000,0.000
1640658928121073920,2021-12-28-02:35:28,10.1.1.3,16,0.000,-0.000,-0.000,-0.000,-0.000,0.000
1640658930222860032,2021-12-28-02:35:30,10.1.1.3,9,0.000,-0.000,-0.000,-0.000,-0.000,0.000
1640658932342496000,2021-12-28-02:35:32,10.1.1.3,14,0.000,-0.000,-0.000,-0.000,-0.000,0.000
1640658934462179840,2021-12-28-02:35:34,10.1.1.3,10,0.000,-0.000,-0.000,-0.000,-0.000,0.000
1640658936561403904,2021-12-28-02:35:36,10.1.1.3,5,0.000,-0.000,-0.000,-0.000,-0.000,0.000
1640658938656717056,2021-12-28-02:35:38,10.1.1.3,3,0.000,-0.000,-0.000,-0.000,-0.000,0.000
1640658940794967808,2021-12-28-02:35:40,10.1.1.3,16,0.000,-0.000,-0.000,-0.000,-0.000,0.000
1640658942932612864,2021-12-28-02:35:42,10.1.1.3,19,0.000,-0.000,-0.000,-0.000,-0.000,0.000
1640658945028886016,2021-12-28-02:35:45,10.1.1.3,17,0.000,-0.000,-0.000,-0.000,-0.000,0.000
1640658947124820992,2021-12-28-02:35:47,10.1.1.3,16,0.000,-0.000,-0.000,-0.000,-0.000,0.000
1640658949263991040,2021-12-28-02:35:49,10.1.1.3,13,0.000,-0.000,-0.000,-0.000,-0.000,0.000
1640658951361222912,2021-12-28-02:35:51,10.1.1.3,4,0.000,-0.000,-0.000,-0.000,-0.000,0.000
1640658953458934016,2021-12-28-02:35:53,10.1.1.3,3,0.000,-0.000,-0.000,-0.000,-0.000,0.000
1640658955569675008,2021-12-28-02:35:55,10.1.1.3,19,0.000,-0.000,-0.000,-0.000,-0.000,0.000
1640658957714874112,2021-12-28-02:35:57,10.1.1.3,16,0.000,-0.000,-0.000,-0.000,-0.000,0.000
1640658959802011136,2021-12-28-02:35:59,10.1.1.3,1,0.000,-0.000,-0.000,-0.000,-0.000,0.000
1640658961920140032,2021-12-28-02:36:01,10.1.1.3,13,0.000,-0.000,-0.000,-0.000,-0.000,0.000
1640658964000623872,2021-12-28-02:36:04,10.1.1.3,11,0.000,-0.000,-0.000,-0.000,-0.000,0.000
1640658966122961152,2021-12-28-02:36:06,10.1.1.3,16,0.000,-0.000,-0.000,-0.000,-0.000,0.000
1640658968200700160,2021-12-28-02:36:08,10.1.1.3,4,0.000,-0.000,-0.000,-0.000,-0.000,0.000
1640658970337299968,2021-12-28-02:36:10,10.1.1.3,9,0.000,-0.000,-0.000,-0.000,-0.000,0.000
1640658972414803968,2021-12-28-02:36:12,10.1.1.3,7,0.000,-0.000,-0.000,-0.000,-0.000,0.000
1640658974532983040,2021-12-28-02:36:14,10.1.1.3,19,0.000,-0.000,-0.000,-0.000,-0.000,0.000
1640658976669181952,2021-12-28-02:36:16,10.1.1.3,16,0.000,-0.000,-0.000,-0.000,-0.000,0.000
1640658978765595904,2021-12-28-02:36:18,10.1.1.3,16,0.000,-0.000,-0.000,-0.000,-0.000,0.000
1640658980823390976,2021-12-28-02:36:20,10.1.1.3,16,0.000,-0.000,-0.000,-0.000,-0.000,0.000
1640658982900641024,2021-12-28-02:36:22,10.1.1.3,9,0.000,-0.000,-0.000,-0.000,-0.000,0.000
1640658985016504064,2021-12-28-02:36:25,10.1.1.3,10,0.000,-0.000,-0.000,-0.000,-0.000,0.000
1640658987067150080,2021-12-28-02:36:27,10.1.1.3,3,0.000,-0.000,-0.000,-0.000,-0.000,0.000
1640658989134823168,2021-12-28-02:36:29,10.1.1.3,13,0.000,-0.000,-0.000,-0.000,-0.000,0.000
1640658991218499072,2021-12-28-02:36:31,10.1.1.3,17,0.000,-0.000,-0.000,-0.000,-0.000,0.000
1640658993261208064,2021-12-28-02:36:33,10.1.1.3,10,0.000,-0.000,-0.000,-0.000,-0.000,0.000
1640658995342137088,2021-12-28-02:36:35,10.1.1.3,4,0.000,-0.000,-0.000,-0.000,-0.000,0.000
1640658997405441024,2021-12-28-02:36:37,10.1.1.3,1,0.000,-0.000,-0.000,-0.000,-0.000,0.000
1640658999481265152,2021-12-28-02:36:39,10.1.1.3,4,0.000,-0.000,-0.000,-0.000,-0.000,0.000
1640659001662745856,2021-12-28-02:36:41,10.1.1.3,14,0.000,-0.000,-0.000,-0.000,-0.000,0.000
1640659003738028032,2021-12-28-02:36:43,10.1.1.3,5,0.000,-0.000,-0.000,-0.000,-0.000,0.000
1640659005836370944,2021-12-28-02:36:45,10.1.1.3,8,0.000,-0.000,-0.000,-0.000,-0.000,0.000
1640659007933892096,2021-12-28-02:36:47,10.1.1.3,7,0.000,-0.000,-0.000,-0.000,-0.000,0.000
1640659010029057024,2021-12-28-02:36:50,10.1.1.3,17,0.000,-0.000,-0.000,-0.000,-0.000,0.000
1640659012126769152,2021-12-28-02:36:52,10.1.1.3,10,0.000,-0.000,-0.000,-0.000,-0.000,0.000
1640659014224934144,2021-12-28-02:36:54,10.1.1.3,9,0.000,-0.000,-0.000,-0.000,-0.000,0.000
1640659016303575040,2021-12-28-02:36:56,10.1.1.3,12,0.000,-0.000,-0.000,-0.000,-0.000,0.000
1640659018447107072,2021-12-28-02:36:58,10.1.1.3,11,0.000,-0.000,-0.000,-0.000,-0.000,0.000
1640659020514078976,2021-12-28-02:37:00,10.1.1.3,10,0.000,-0.000,-0.000,-0.000,-0.000,0.000
1640659022639451904,2021-12-28-02:37:02,10.1.1.3,3,0.000,-0.000,-0.000,-0.000,-0.000,0.000
1640659024740502016,2021-12-28-02:37:04,10.1.1.3,7,0.000,-0.000,-0.000,-0.000,-0.000,0.000
1640659026801965824,2021-12-28-02:37:06,10.1.1.3,10,0.000,-0.000,-0.000,-0.000,-0.000,0.000
1640659028902395136,2021-12-28-02:37:08,10.1.1.3,7,0.000,-0.000,-0.000,-0.000,-0.000,0.000
1640659031001986048,2021-12-28-02:37:11,10.1.1.3,3,0.000,-0.000,-0.000,-0.000,-0.000,0.000
1640659033099561984,2021-12-28-02:37:13,10.1.1.3,15,0.000,-0.000,-0.000,-0.000,-0.000,0.000
1640659035217672960,2021-12-28-02:37:15,10.1.1.3,14,0.000,-0.000,-0.000,-0.000,-0.000,0.000
1640659037334657024,2021-12-28-02:37:17,10.1.1.3,3,0.000,-0.000,-0.000,-0.000,-0.000,0.000
1640659039453701888,2021-12-28-02:37:19,10.1.1.3,17,0.000,-0.000,-0.000,-0.000,-0.000,0.000
1640659041570588160,2021-12-28-02:37:21,10.1.1.3,10,0.000,-0.000,-0.000,-0.000,-0.000,0.000
1640659043685703936,2021-12-28-02:37:23,10.1.1.3,14,0.000,-0.000,-0.000,-0.000,-0.000,0.000
1640659045783137024,2021-12-28-02:37:25,10.1.1.3,13,0.000,-0.000,-0.000,-0.000,-0.000,0.000
1640659047863930112,2021-12-28-02:37:27,10.1.1.3,4,0.000,-0.000,-0.000,-0.000,-0.000,0.000
1640659049964657920,2021-12-28-02:37:29,10.1.1.3,10,0.000,-0.000,-0.000,-0.000,-0.000,0.000
1640659052070435072,2021-12-28-02:37:32,10.1.1.3,5,0.000,-0.000,-0.000,-0.000,-0.000,0.000
1640659054216171008,2021-12-28-02:37:34,10.1.1.3,8,0.000,-0.000,-0.000,-0.000,-0.000,0.000
1640659056341864192,2021-12-28-02:37:36,10.1.1.3,5,0.000,-0.000,-0.000,-0.000,-0.000,0.000
1640659058460743936,2021-12-28-02:37:38,10.1.1.3,6,0.000,-0.000,-0.000,-0.000,-0.000,0.000
1640659060563430144,2021-12-28-02:37:40,10.1.1.3,16,0.000,-0.000,-0.000,-0.000,-0.000,0.000
1640659062661029120,2021-12-28-02:37:42,10.1.1.3,12,0.000,-0.000,-0.000,-0.000,-0.000,0.000
1640659064780470016,2021-12-28-02:37:44,10.1.1.3,11,0.000,-0.000,-0.000,-0.000,-0.000,0.000
1640659066839294976,2021-12-28-02:37:46,10.1.1.3,3,0.000,-0.000,-0.000,-0.000,-0.000,0.000
1640659068954267904,2021-12-28-02:37:48,10.1.1.3,17,0.000,-0.000,-0.000,-0.000,-0.000,0.000
1640659071052035072,2021-12-28-02:37:51,10.1.1.3,8,0.000,-0.000,-0.000,-0.000,-0.000,0.000
1640659073150046208,2021-12-28-02:37:53,10.1.1.3,13,0.000,-0.000,-0.000,-0.000,-0.000,0.000
1640659075247591936,2021-12-28-02:37:55,10.1.1.3,11,0.000,-0.000,-0.000,-0.000,-0.000,0.000
1640659077342804992,2021-12-28-02:37:57,10.1.1.3,12,0.000,-0.000,-0.000,-0.000,-0.000,0.000
1640659079439341056,2021-12-28-02:37:59,10.1.1.3,4,0.000,-0.000,-0.000,-0.000,-0.000,0.000
1640659081555866112,2021-12-28-02:38:01,10.1.1.3,11,0.000,-0.000,-0.000,-0.000,-0.000,0.000
1640659083644651776,2021-12-28-02:38:03,10.1.1.3,14,0.000,-0.000,-0.000,-0.000,-0.000,0.000
1640659085732062976,2021-12-28-02:38:05,10.1.1.3,2,0.000,-0.000,-0.000,-0.000,-0.000,0.000
1640659087856532992,2021-12-28-02:38:07,10.1.1.3,15,0.000,-0.000,-0.000,-0.000,-0.000,0.000
1640659089961508864,2021-12-28-02:38:09,10.1.1.3,7,0.000,-0.000,-0.000,-0.000,-0.000,0.000
1640659092080581888,2021-12-28-02:38:12,10.1.1.3,11,0.000,-0.000,-0.000,-0.000,-0.000,0.000
1640659094181719040,2021-12-28-02:38:14,10.1.1.3,2,0.000,-0.000,-0.000,-0.000,-0.000,0.000
1640659096319649024,2021-12-28-02:38:16,10.1.1.3,15,0.000,-0.000,-0.000,-0.000,-0.000,0.000
1640659098439079936,2021-12-28-02:38:18,10.1.1.3,4,0.000,-0.000,-0.000,-0.000,-0.000,0.000
1640659100575833088,2021-12-28-02:38:20,10.1.1.3,7,0.000,-0.000,-0.000,-0.000,-0.000,0.000
1640659102693218048,2021-12-28-02:38:22,10.1.1.3,8,0.000,-0.000,-0.000,-0.000,-0.000,0.000
1640659104810262016,2021-12-28-02:38:24,10.1.1.3,11,0.000,-0.000,-0.000,-0.000,-0.000,0.000
1640659106927686912,2021-12-28-02:38:26,10.1.1.3,16,0.000,-0.000,-0.000,-0.000,-0.000,0.000
1640659109045809152,2021-12-28-02:38:29,10.1.1.3,15,0.000,-0.000,-0.000,-0.000,-0.000,0.000
1640659111121200128,2021-12-28-02:38:31,10.1.1.3,3,0.000,-0.000,-0.000,-0.000,-0.000,0.000
1640659113216356096,2021-12-28-02:38:33,10.1.1.3,4,0.000,-0.000,-0.000,-0.000,-0.000,0.000
1640659115325812992,2021-12-28-02:38:35,10.1.1.3,19,0.000,-0.000,-0.000,-0.000,-0.000,0.000
1640659117430455040,2021-12-28-02:38:37,10.1.1.3,16,0.000,-0.000,-0.000,-0.000,-0.000,0.000
1640659119576154112,2021-12-28-02:38:39,10.1.1.3,10,0.000,-0.000,-0.000,-0.000,-0.000,0.000
1640659121679332864,2021-12-28-02:38:41,10.1.1.3,2,0.000,-0.000,-0.000,-0.000,-0.000,0.000
1640659123764125184,2021-12-28-02:38:43,10.1.1.3,18,0.000,-0.000,-0.000,-0.000,-0.000,0.000
1640659125839718144,2021-12-28-02:38:45,10.1.1.3,17,0.000,-0.000,-0.000,-0.000,-0.000,0.000
1640659127939632896,2021-12-28-02:38:47,10.1.1.3,10,0.000,-0.000,-0.000,-0.000,-0.000,0.000
1640659130042211072,2021-12-28-02:38:50,10.1.1.3,-1,0.000,-0.000,-0.000,-0.000,-0.000,0.000
1640659132136493824,2021-12-28-02:38:52,10.1.1.3,3,0.000,-0.000,-0.000,-0.000,-0.000,0.000
1640659134233455872,2021-12-28-02:38:54,10.1.1.3,9,0.000,-0.000,-0.000,-0.000,-0.000,0.000
1640659136370629120,2021-12-28-02:38:56,10.1.1.3,14,0.000,-0.000,-0.000,-0.000,-0.000,0.000
1640659138468463872,2021-12-28-02:38:58,10.1.1.3,16,0.000,-0.000,-0.000,-0.000,-0.000,0.000
1640659140584683776,2021-12-28-02:39:00,10.1.1.3,18,0.000,-0.000,-0.000,-0.000,-0.000,0.000
1640659142683266048,2021-12-28-02:39:02,10.1.1.3,11,0.000,-0.000,-0.000,-0.000,-0.000,0.000
1640659144777780992,2021-12-28-02:39:04,10.1.1.3,13,0.000,-0.000,-0.000,-0.000,-0.000,0.000
1640659146902237952,2021-12-28-02:39:06,10.1.1.3,16,0.000,-0.000,-0.000,-0.000,-0.000,0.000
1640659149050992128,2021-12-28-02:39:09,10.1.1.3,8,0.000,-0.000,-0.000,-0.000,-0.000,0.000
1640659151155577856,2021-12-28-02:39:11,10.1.1.3,16,0.000,-0.000,-0.000,-0.000,-0.000,0.000
1640659153259689984,2021-12-28-02:39:13,10.1.1.3,7,0.000,-0.000,-0.000,-0.000,-0.000,0.000
1640659155360114944,2021-12-28-02:39:15,10.1.1.3,13,0.000,-0.000,-0.000,-0.000,-0.000,0.000
1640659157481636096,2021-12-28-02:39:17,10.1.1.3,19,0.000,-0.000,-0.000,-0.000,-0.000,0.000
1640659159622065920,2021-12-28-02:39:19,10.1.1.3,20,0.000,-0.000,-0.000,-0.000,-0.000,0.000
1640659161723120896,2021-12-28-02:39:21,10.1.1.3,23,0.000,-0.000,-0.000,-0.000,-0.000,0.000
1640659163797494784,2021-12-28-02:39:23,10.1.1.3,10,0.000,-0.000,-0.000,-0.000,-0.000,0.000
1640659165900536064,2021-12-28-02:39:25,10.1.1.3,10,0.000,-0.000,-0.000,-0.000,-0.000,0.000
1640659167991456000,2021-12-28-02:39:27,10.1.1.3,7,0.000,-0.000,-0.000,-0.000,-0.000,0.000
1640659170169635072,2021-12-28-02:39:30,10.1.1.3,17,0.000,-0.000,-0.000,-0.000,-0.000,0.000
1640659172268997888,2021-12-28-02:39:32,10.1.1.3,5,0.000,-0.000,-0.000,-0.000,-0.000,0.000
1640659174404236032,2021-12-28-02:39:34,10.1.1.3,7,0.000,-0.000,-0.000,-0.000,-0.000,0.000
1640659176500689152,2021-12-28-02:39:36,10.1.1.3,16,0.000,-0.000,-0.000,-0.000,-0.000,0.000
1640659178621940992,2021-12-28-02:39:38,10.1.1.3,14,0.000,-0.000,-0.000,-0.000,-0.000,0.000
1640659180750113024,2021-12-28-02:39:40,10.1.1.3,11,0.000,-0.000,-0.000,-0.000,-0.000,0.000
1640659182855757824,2021-12-28-02:39:42,10.1.1.3,1,0.000,-0.000,-0.000,-0.000,-0.000,0.000
1640659184979192064,2021-12-28-02:39:44,10.1.1.3,9,0.000,-0.000,-0.000,-0.000,-0.000,0.000
1640659187081149952,2021-12-28-02:39:47,10.1.1.3,1,0.000,-0.000,-0.000,-0.000,-0.000,0.000
1640659189166995968,2021-12-28-02:39:49,10.1.1.3,3,0.000,-0.000,-0.000,-0.000,-0.000,0.000
1640659191301570816,2021-12-28-02:39:51,10.1.1.3,13,0.000,-0.000,-0.000,-0.000,-0.000,0.000
1640659193419521024,2021-12-28-02:39:53,10.1.1.3,16,0.000,-0.000,-0.000,-0.000,-0.000,0.000
1640659195518281984,2021-12-28-02:39:55,10.1.1.3,7,0.000,-0.000,-0.000,-0.000,-0.000,0.000
1640659197656096000,2021-12-28-02:39:57,10.1.1.3,15,0.000,-0.000,-0.000,-0.000,-0.000,0.000
1640659199733041920,2021-12-28-02:39:59,10.1.1.3,3,0.000,-0.000,-0.000,-0.000,-0.000,0.000
1640659201829943040,2021-12-28-02:40:01,10.1.1.3,14,0.000,-0.000,-0.000,-0.000,-0.000,0.000
1640659203969111040,2021-12-28-02:40:03,10.1.1.3,18,0.000,-0.000,-0.000,-0.000,-0.000,0.000
1640659206104964864,2021-12-28-02:40:06,10.1.1.3,14,0.000,-0.000,-0.000,-0.000,-0.000,0.000
1640659208201756928,2021-12-28-02:40:08,10.1.1.3,10,0.000,-0.000,-0.000,-0.000,-0.000,0.000
1640659210317090048,2021-12-28-02:40:10,10.1.1.3,6,0.000,-0.000,-0.000,-0.000,-0.000,0.000
1640659212443140864,2021-12-28-02:40:12,10.1.1.3,13,0.000,-0.000,-0.000,-0.000,-0.000,0.000
1640659214531809024,2021-12-28-02:40:14,10.1.1.3,4,0.000,-0.000,-0.000,-0.000,-0.000,0.000
1640659216676937984,2021-12-28-02:40:16,10.1.1.3,9,0.000,-0.000,-0.000,-0.000,-0.000,0.000
1640659218780612864,2021-12-28-02:40:18,10.1.1.3,10,0.000,-0.000,-0.000,-0.000,-0.000,0.000
1640659220901470976,2021-12-28-02:40:20,10.1.1.3,17,0.000,-0.000,-0.000,-0.000,-0.000,0.000
1640659223000515072,2021-12-28-02:40:23,10.1.1.3,6,0.000,-0.000,-0.000,-0.000,-0.000,0.000
1640659225100594944,2021-12-28-02:40:25,10.1.1.3,4,0.000,-0.000,-0.000,-0.000,-0.000,0.000
1640659227198412800,2021-12-28-02:40:27,10.1.1.3,7,0.000,-0.000,-0.000,-0.000,-0.000,0.000
1640659229297932032,2021-12-28-02:40:29,10.1.1.3,1,0.000,-0.000,-0.000,-0.000,-0.000,0.000
1640659231415055104,2021-12-28-02:40:31,10.1.1.3,14,0.000,-0.000,-0.000,-0.000,-0.000,0.000
1640659233472645120,2021-12-28-02:40:33,10.1.1.3,4,0.000,-0.000,-0.000,-0.000,-0.000,0.000
1640659235590814976,2021-12-28-02:40:35,10.1.1.3,9,0.000,-0.000,-0.000,-0.000,-0.000,0.000
1640659237705668096,2021-12-28-02:40:37,10.1.1.3,14,0.000,-0.000,-0.000,-0.000,-0.000,0.000
1640659239783080960,2021-12-28-02:40:39,10.1.1.3,0,0.000,-0.000,-0.000,-0.000,-0.000,0.000
1640659241878787072,2021-12-28-02:40:41,10.1.1.3,8,0.000,-0.000,-0.000,-0.000,-0.000,0.000
1640659244002123008,2021-12-28-02:40:44,10.1.1.3,8,0.000,-0.000,-0.000,-0.000,-0.000,0.000
1640659246131437056,2021-12-28-02:40:46,10.1.1.3,1,0.000,-0.000,-0.000,-0.000,-0.000,0.000
1640659248257116928,2021-12-28-02:40:48,10.1.1.3,8,0.000,-0.000,-0.000,-0.000,-0.000,0.000
1640659250400259072,2021-12-28-02:40:50,10.1.1.3,10,0.000,-0.000,-0.000,-0.000,-0.000,0.000
1640659252523164160,2021-12-28-02:40:52,10.1.1.3,16,0.000,-0.000,-0.000,-0.000,-0.000,0.000
1640659254621681920,2021-12-28-02:40:54,10.1.1.3,4,0.000,-0.000,-0.000,-0.000,-0.000,0.000
1640659256780318976,2021-12-28-02:40:56,10.1.1.3,14,0.000,-0.000,-0.000,-0.000,-0.000,0.000
1640659258918459904,2021-12-28-02:40:58,10.1.1.3,18,0.000,-0.000,-0.000,-0.000,-0.000,0.000
1640659260978259200,2021-12-28-02:41:00,10.1.1.3,8,0.000,-0.000,-0.000,-0.000,-0.000,0.000
1640659263094158848,2021-12-28-02:41:03,10.1.1.3,4,0.000,-0.000,-0.000,-0.000,-0.000,0.000
1640659265230885120,2021-12-28-02:41:05,10.1.1.3,10,0.000,-0.000,-0.000,-0.000,-0.000,0.000
1640659267351213824,2021-12-28-02:41:07,10.1.1.3,17,0.000,-0.000,-0.000,-0.000,-0.000,0.000
1640659269465803008,2021-12-28-02:41:09,10.1.1.3,16,0.000,-0.000,-0.000,-0.000,-0.000,0.000
1640659271601818112,2021-12-28-02:41:11,10.1.1.3,12,0.000,-0.000,-0.000,-0.000,-0.000,0.000
1640659273719585024,2021-12-28-02:41:13,10.1.1.3,1,0.000,-0.000,-0.000,-0.000,-0.000,0.000
1640659275821022976,2021-12-28-02:41:15,10.1.1.3,7,0.000,-0.000,-0.000,-0.000,-0.000,0.000
1640659277889430016,2021-12-28-02:41:17,10.1.1.3,7,0.000,-0.000,-0.000,-0.000,-0.000,0.000
1640659279955316992,2021-12-28-02:41:19,10.1.1.3,4,0.000,-0.000,-0.000,-0.000,-0.000,0.000
1640659282077771008,2021-12-28-02:41:22,10.1.1.3,19,0.000,-0.000,-0.000,-0.000,-0.000,0.000
1640659284199058944,2021-12-28-02:41:24,10.1.1.3,18,0.000,-0.000,-0.000,-0.000,-0.000,0.000
1640659286303467008,2021-12-28-02:41:26,10.1.1.3,5,0.000,-0.000,-0.000,-0.000,-0.000,0.000
1640659288399827968,2021-12-28-02:41:28,10.1.1.3,14,0.000,-0.000,-0.000,-0.000,-0.000,0.000
1640659290500327168,2021-12-28-02:41:30,10.1.1.3,2,0.000,-0.000,-0.000,-0.000,-0.000,0.000
1640659292577577984,2021-12-28-02:41:32,10.1.1.3,16,0.000,-0.000,-0.000,-0.000,-0.000,0.000
1640659294674237952,2021-12-28-02:41:34,10.1.1.3,8,0.000,-0.000,-0.000,-0.000,-0.000,0.000
1640659296792634880,2021-12-28-02:41:36,10.1.1.3,14,0.000,-0.000,-0.000,-0.000,-0.000,0.000
1640659298868503040,2021-12-28-02:41:38,10.1.1.3,19,0.000,-0.000,-0.000,-0.000,-0.000,0.000
1640659300918478848,2021-12-28-02:41:40,10.1.1.3,3,0.000,-0.000,-0.000,-0.000,-0.000,0.000
1640659303022582016,2021-12-28-02:41:43,10.1.1.3,16,0.000,-0.000,-0.000,-0.000,-0.000,0.000
1640659305099292160,2021-12-28-02:41:45,10.1.1.3,13,0.000,-0.000,-0.000,-0.000,-0.000,0.000
1640659307156230912,2021-12-28-02:41:47,10.1.1.3,9,0.000,-0.000,-0.000,-0.000,-0.000,0.000
1640659309228420864,2021-12-28-02:41:49,10.1.1.3,15,0.000,-0.000,-0.000,-0.000,-0.000,0.000
1640659311293304832,2021-12-28-02:41:51,10.1.1.3,6,0.000,-0.000,-0.000,-0.000,-0.000,0.000
1640659313417662976,2021-12-28-02:41:53,10.1.1.3,15,0.000,-0.000,-0.000,-0.000,-0.000,0.000
1640659315508305152,2021-12-28-02:41:55,10.1.1.3,1,0.000,-0.000,-0.000,-0.000,-0.000,0.000
1640659317600819200,2021-12-28-02:41:57,10.1.1.3,17,0.000,-0.000,-0.000,-0.000,-0.000,0.000
1640659319640856064,2021-12-28-02:41:59,10.1.1.3,8,0.000,-0.000,-0.000,-0.000,-0.000,0.000
1640659321682023168,2021-12-28-02:42:01,10.1.1.3,3,0.000,-0.000,-0.000,-0.000,-0.000,0.000
1640659323717405184,2021-12-28-02:42:03,10.1.1.3,15,0.000,-0.000,-0.000,-0.000,-0.000,0.000
1640659325775497984,2021-12-28-02:42:05,10.1.1.3,14,0.000,-0.000,-0.000,-0.000,-0.000,0.000
1640659327793497088,2021-12-28-02:42:07,10.1.1.3,4,0.000,-0.000,-0.000,-0.000,-0.000,0.000
1640659329830755072,2021-12-28-02:42:09,10.1.1.3,13,0.000,-0.000,-0.000,-0.000,-0.000,0.000
1640659331848752128,2021-12-28-02:42:11,10.1.1.3,4,0.000,-0.000,-0.000,-0.000,-0.000,0.000
1640659333886099968,2021-12-28-02:42:13,10.1.1.3,4,0.000,-0.000,-0.000,-0.000,-0.000,0.000
1640659335941199104,2021-12-28-02:42:15,10.1.1.3,3,0.000,-0.000,-0.000,-0.000,-0.000,0.000
1640659337999032064,2021-12-28-02:42:17,10.1.1.3,18,0.000,-0.000,-0.000,-0.000,-0.000,0.000
1640659340076325888,2021-12-28-02:42:20,10.1.1.3,8,0.000,-0.000,-0.000,-0.000,-0.000,0.000
1640659342225967872,2021-12-28-02:42:22,10.1.1.3,14,0.000,-0.000,-0.000,-0.000,-0.000,0.000
1640659344332620032,2021-12-28-02:42:24,10.1.1.3,1,0.000,-0.000,-0.000,-0.000,-0.000,0.000
1640659346417965824,2021-12-28-02:42:26,10.1.1.3,3,0.000,-0.000,-0.000,-0.000,-0.000,0.000
1640659348540467968,2021-12-28-02:42:28,10.1.1.3,13,0.000,-0.000,-0.000,-0.000,-0.000,0.000
1640659350660301056,2021-12-28-02:42:30,10.1.1.3,9,0.000,-0.000,-0.000,-0.000,-0.000,0.000
1640659352719230976,2021-12-28-02:42:32,10.1.1.3,3,0.000,-0.000,-0.000,-0.000,-0.000,0.000
1640659354779161856,2021-12-28-02:42:34,10.1.1.3,5,0.000,-0.000,-0.000,-0.000,-0.000,0.000
1640659356856417792,2021-12-28-02:42:36,10.1.1.3,9,0.000,-0.000,-0.000,-0.000,-0.000,0.000
1640659358935075072,2021-12-28-02:42:38,10.1.1.3,16,0.000,-0.000,-0.000,-0.000,-0.000,0.000
1640659361072276992,2021-12-28-02:42:41,10.1.1.3,14,0.000,-0.000,-0.000,-0.000,-0.000,0.000
1640659363169250048,2021-12-28-02:42:43,10.1.1.3,9,0.000,-0.000,-0.000,-0.000,-0.000,0.000
1640659365308048896,2021-12-28-02:42:45,10.1.1.3,6,0.000,-0.000,-0.000,-0.000,-0.000,0.000
1640659367423430912,2021-12-28-02:42:47,10.1.1.3,9,0.000,-0.000,-0.000,-0.000,-0.000,0.000
1640659369519476992,2021-12-28-02:42:49,10.1.1.3,4,0.000,-0.000,-0.000,-0.000,-0.000,0.000
1640659371596642048,2021-12-28-02:42:51,10.1.1.3,12,0.000,-0.000,-0.000,-0.000,-0.000,0.000
1640659373684628992,2021-12-28-02:42:53,10.1.1.3,15,0.000,-0.000,-0.000,-0.000,-0.000,0.000
1640659375775158016,2021-12-28-02:42:55,10.1.1.3,14,0.000,-0.000,-0.000,-0.000,-0.000,0.000
1640659377857958144,2021-12-28-02:42:57,10.1.1.3,9,0.000,-0.000,-0.000,-0.000,-0.000,0.000
1640659379919500032,2021-12-28-02:42:59,10.1.1.3,9,0.000,-0.000,-0.000,-0.000,-0.000,0.000
1640659382021824000,2021-12-28-02:43:02,10.1.1.3,0,0.000,-0.000,-0.000,-0.000,-0.000,0.000
1640659384121294848,2021-12-28-02:43:04,10.1.1.3,14,0.000,-0.000,-0.000,-0.000,-0.000,0.000
1640659386200990976,2021-12-28-02:43:06,10.1.1.3,17,0.000,-0.000,-0.000,-0.000,-0.000,0.000
1640659388319612928,2021-12-28-02:43:08,10.1.1.3,15,0.000,-0.000,-0.000,-0.000,-0.000,0.000
1640659390436294912,2021-12-28-02:43:10,10.1.1.3,6,0.000,-0.000,-0.000,-0.000,-0.000,0.000
1640659392556881920,2021-12-28-02:43:12,10.1.1.3,5,0.000,-0.000,-0.000,-0.000,-0.000,0.000
1640659394671761152,2021-12-28-02:43:14,10.1.1.3,16,0.000,-0.000,-0.000,-0.000,-0.000,0.000
1640659396729260800,2021-12-28-02:43:16,10.1.1.3,19,0.000,-0.000,-0.000,-0.000,-0.000,0.000
1640659398825880064,2021-12-28-02:43:18,10.1.1.3,10,0.000,-0.000,-0.000,-0.000,-0.000,0.000
1640659400942372096,2021-12-28-02:43:20,10.1.1.3,5,0.000,-0.000,-0.000,-0.000,-0.000,0.000
1640659403038718976,2021-12-28-02:43:23,10.1.1.3,13,0.000,-0.000,-0.000,-0.000,-0.000,0.000
1640659405143877888,2021-12-28-02:43:25,10.1.1.3,19,0.000,-0.000,-0.000,-0.000,-0.000,0.000
1640659407255098112,2021-12-28-02:43:27,10.1.1.3,18,0.000,-0.000,-0.000,-0.000,-0.000,0.000
1640659409357920000,2021-12-28-02:43:29,10.1.1.3,17,0.000,-0.000,-0.000,-0.000,-0.000,0.000
1640659411479068160,2021-12-28-02:43:31,10.1.1.3,18,0.000,-0.000,-0.000,-0.000,-0.000,0.000
1640659413541393920,2021-12-28-02:43:33,10.1.1.3,15,0.000,-0.000,-0.000,-0.000,-0.000,0.000
1640659415620107008,2021-12-28-02:43:35,10.1.1.3,5,0.000,-0.000,-0.000,-0.000,-0.000,0.000
1640659417679204096,2021-12-28-02:43:37,10.1.1.3,5,0.000,-0.000,-0.000,-0.000,-0.000,0.000
1640659419819308032,2021-12-28-02:43:39,10.1.1.3,7,0.000,-0.000,-0.000,-0.000,-0.000,0.000
1640659421935913984,2021-12-28-02:43:41,10.1.1.3,8,0.000,-0.000,-0.000,-0.000,-0.000,0.000
1640659424054498816,2021-12-28-02:43:44,10.1.1.3,11,0.000,-0.000,-0.000,-0.000,-0.000,0.000
1640659426152688896,2021-12-28-02:43:46,10.1.1.3,9,0.000,-0.000,-0.000,-0.000,-0.000,0.000
1640659428268485120,2021-12-28-02:43:48,10.1.1.3,5,0.000,-0.000,-0.000,-0.000,-0.000,0.000
1640659430344921088,2021-12-28-02:43:50,10.1.1.3,14,0.000,-0.000,-0.000,-0.000,-0.000,0.000
1640659432423976960,2021-12-28-02:43:52,10.1.1.3,1,0.000,-0.000,-0.000,-0.000,-0.000,0.000
1640659434499072000,2021-12-28-02:43:54,10.1.1.3,14,0.000,-0.000,-0.000,-0.000,-0.000,0.000
1640659436620719872,2021-12-28-02:43:56,10.1.1.3,17,0.000,-0.000,-0.000,-0.000,-0.000,0.000
1640659438750797056,2021-12-28-02:43:58,10.1.1.3,9,0.000,-0.000,-0.000,-0.000,-0.000,0.000
1640659440876210944,2021-12-28-02:44:00,10.1.1.3,14,0.000,-0.000,-0.000,-0.000,-0.000,0.000
1640659442978523136,2021-12-28-02:44:02,10.1.1.3,13,0.000,-0.000,-0.000,-0.000,-0.000,0.000
1640659445079644928,2021-12-28-02:44:05,10.1.1.3,7,0.000,-0.000,-0.000,-0.000,-0.000,0.000
1640659447200828928,2021-12-28-02:44:07,10.1.1.3,16,0.000,-0.000,-0.000,-0.000,-0.000,0.000
1640659449280619008,2021-12-28-02:44:09,10.1.1.3,3,0.000,-0.000,-0.000,-0.000,-0.000,0.000
1640659451398343936,2021-12-28-02:44:11,10.1.1.3,12,0.000,-0.000,-0.000,-0.000,-0.000,0.000
1640659453481534976,2021-12-28-02:44:13,10.1.1.3,4,0.000,-0.000,-0.000,-0.000,-0.000,0.000
1640659455554992896,2021-12-28-02:44:15,10.1.1.3,15,0.000,-0.000,-0.000,-0.000,-0.000,0.000
1640659457612762880,2021-12-28-02:44:17,10.1.1.3,1,0.000,-0.000,-0.000,-0.000,-0.000,0.000
1640659459750082048,2021-12-28-02:44:19,10.1.1.3,2,0.000,-0.000,-0.000,-0.000,-0.000,0.000
1640659461847495168,2021-12-28-02:44:21,10.1.1.3,3,0.000,-0.000,-0.000,-0.000,-0.000,0.000
1640659464004281088,2021-12-28-02:44:24,10.1.1.3,1,0.000,-0.000,-0.000,-0.000,-0.000,0.000
1640659466140589056,2021-12-28-02:44:26,10.1.1.3,18,0.000,-0.000,-0.000,-0.000,-0.000,0.000
1640659468216613120,2021-12-28-02:44:28,10.1.1.3,8,0.000,-0.000,-0.000,-0.000,-0.000,0.000
1640659470322195968,2021-12-28-02:44:30,10.1.1.3,9,0.000,-0.000,-0.000,-0.000,-0.000,0.000
1640659472429409024,2021-12-28-02:44:32,10.1.1.3,3,0.000,-0.000,-0.000,-0.000,-0.000,0.000
1640659474536825856,2021-12-28-02:44:34,10.1.1.3,10,0.000,-0.000,-0.000,-0.000,-0.000,0.000
1640659476679649024,2021-12-28-02:44:36,10.1.1.3,19,0.000,-0.000,-0.000,-0.000,-0.000,0.000
1640659478839077888,2021-12-28-02:44:38,10.1.1.3,10,0.000,-0.000,-0.000,-0.000,-0.000,0.000
1640659480940146944,2021-12-28-02:44:40,10.1.1.3,14,0.000,-0.000,-0.000,-0.000,-0.000,0.000
1640659483021236992,2021-12-28-02:44:43,10.1.1.3,20,0.000,-0.000,-0.000,-0.000,-0.000,0.000
1640659485157430784,2021-12-28-02:44:45,10.1.1.3,14,0.000,-0.000,-0.000,-0.000,-0.000,0.000
1640659487277179904,2021-12-28-02:44:47,10.1.1.3,3,0.000,-0.000,-0.000,-0.000,-0.000,0.000
1640659489392424960,2021-12-28-02:44:49,10.1.1.3,11,0.000,-0.000,-0.000,-0.000,-0.000,0.000
1640659491570564864,2021-12-28-02:44:51,10.1.1.3,8,0.000,-0.000,-0.000,-0.000,-0.000,0.000
1640659493647934976,2021-12-28-02:44:53,10.1.1.3,15,0.000,-0.000,-0.000,-0.000,-0.000,0.000
1640659495706007040,2021-12-28-02:44:55,10.1.1.3,1,0.000,-0.000,-0.000,-0.000,-0.000,0.000
1640659497742543104,2021-12-28-02:44:57,10.1.1.3,3,0.000,-0.000,-0.000,-0.000,-0.000,0.000
1640659499837686016,2021-12-28-02:44:59,10.1.1.3,19,0.000,-0.000,-0.000,-0.000,-0.000,0.000
1640659501900475136,2021-12-28-02:45:01,10.1.1.3,3,0.000,-0.000,-0.000,-0.000,-0.000,0.000
1640659504009126912,2021-12-28-02:45:04,10.1.1.3,18,0.000,-0.000,-0.000,-0.000,-0.000,0.000
1640659506094073088,2021-12-28-02:45:06,10.1.1.3,1,0.000,-0.000,-0.000,-0.000,-0.000,0.000
1640659508177946112,2021-12-28-02:45:08,10.1.1.3,4,0.000,-0.000,-0.000,-0.000,-0.000,0.000
1640659510260911872,2021-12-28-02:45:10,10.1.1.3,5,0.000,-0.000,-0.000,-0.000,-0.000,0.000
1640659512382435072,2021-12-28-02:45:12,10.1.1.3,12,0.000,-0.000,-0.000,-0.000,-0.000,0.000
1640659514461321216,2021-12-28-02:45:14,10.1.1.3,16,0.000,-0.000,-0.000,-0.000,-0.000,0.000
1640659518658276096,2021-12-28-02:45:18,10.1.1.3,4,0.000,-0.000,-0.000,-0.000,-0.000,0.000
1640659520734509056,2021-12-28-02:45:20,10.1.1.3,2,0.000,-0.000,-0.000,-0.000,-0.000,0.000
1640659522832016896,2021-12-28-02:45:22,10.1.1.3,17,0.000,-0.000,-0.000,-0.000,-0.000,0.000
1640659524929367040,2021-12-28-02:45:24,10.1.1.3,10,0.000,-0.000,-0.000,-0.000,-0.000,0.000
1640659527065798912,2021-12-28-02:45:27,10.1.1.3,16,0.000,-0.000,-0.000,-0.000,-0.000,0.000
1640659529183723008,2021-12-28-02:45:29,10.1.1.3,17,0.000,-0.000,-0.000,-0.000,-0.000,0.000
1640659531279738880,2021-12-28-02:45:31,10.1.1.3,4,0.000,-0.000,-0.000,-0.000,-0.000,0.000
1640659533424668160,2021-12-28-02:45:33,10.1.1.3,1,0.000,-0.000,-0.000,-0.000,-0.000,0.000
1640659535548922112,2021-12-28-02:45:35,10.1.1.3,2,0.000,-0.000,-0.000,-0.000,-0.000,0.000
1640659539878368000,2021-12-28-02:45:39,10.1.1.3,17,0.000,-0.000,-0.000,-0.000,-0.000,0.000
1640659541962649088,2021-12-28-02:45:41,10.1.1.3,1,0.000,-0.000,-0.000,-0.000,-0.000,0.000
1640659544123300096,2021-12-28-02:45:44,10.1.1.3,5,0.000,-0.000,-0.000,-0.000,-0.000,0.000
1640659546281954048,2021-12-28-02:45:46,10.1.1.3,2,0.000,-0.000,-0.000,-0.000,-0.000,0.000
1640659548399734016,2021-12-28-02:45:48,10.1.1.3,4,0.000,-0.000,-0.000,-0.000,-0.000,0.000
1640659550557768960,2021-12-28-02:45:50,10.1.1.3,17,0.000,-0.000,-0.000,-0.000,-0.000,0.000
1640659552698138880,2021-12-28-02:45:52,10.1.1.3,13,0.000,-0.000,-0.000,-0.000,-0.000,0.000
1640659554833307904,2021-12-28-02:45:54,10.1.1.3,11,0.000,-0.000,-0.000,-0.000,-0.000,0.000
1640659556970416896,2021-12-28-02:45:56,10.1.1.3,8,0.000,-0.000,-0.000,-0.000,-0.000,0.000
1640659559067186176,2021-12-28-02:45:59,10.1.1.3,9,0.000,-0.000,-0.000,-0.000,-0.000,0.000
1640659561144035072,2021-12-28-02:46:01,10.1.1.3,4,0.000,-0.000,-0.000,-0.000,-0.000,0.000
1640659563281594112,2021-12-28-02:46:03,10.1.1.3,18,0.000,-0.000,-0.000,-0.000,-0.000,0.000
1640659565379513088,2021-12-28-02:46:05,10.1.1.3,17,0.000,-0.000,-0.000,-0.000,-0.000,0.000
1640659567508428032,2021-12-28-02:46:07,10.1.1.3,9,0.000,-0.000,-0.000,-0.000,-0.000,0.000
1640659569635705088,2021-12-28-02:46:09,10.1.1.3,18,0.000,-0.000,-0.000,-0.000,-0.000,0.000
1640659571739790080,2021-12-28-02:46:11,10.1.1.3,5,0.000,-0.000,-0.000,-0.000,-0.000,0.000
1640659573843065856,2021-12-28-02:46:13,10.1.1.3,2,0.000,-0.000,-0.000,-0.000,-0.000,0.000
1640659576002106880,2021-12-28-02:46:16,10.1.1.3,17,0.000,-0.000,-0.000,-0.000,-0.000,0.000
1640659578103254016,2021-12-28-02:46:18,10.1.1.3,16,0.000,-0.000,-0.000,-0.000,-0.000,0.000
1640659580218908928,2021-12-28-02:46:20,10.1.1.3,1,0.000,-0.000,-0.000,-0.000,-0.000,0.000
1640659582318315008,2021-12-28-02:46:22,10.1.1.3,4,0.000,-0.000,-0.000,-0.000,-0.000,0.000
1640659584436780032,2021-12-28-02:46:24,10.1.1.3,18,0.000,-0.000,-0.000,-0.000,-0.000,0.000
1640659586535316992,2021-12-28-02:46:26,10.1.1.3,14,0.000,-0.000,-0.000,-0.000,-0.000,0.000
1640659588589858048,2021-12-28-02:46:28,10.1.1.3,13,0.000,-0.000,-0.000,-0.000,-0.000,0.000
1640659590688235008,2021-12-28-02:46:30,10.1.1.3,9,0.000,-0.000,-0.000,-0.000,-0.000,0.000
1640659592786902784,2021-12-28-02:46:32,10.1.1.3,8,0.000,-0.000,-0.000,-0.000,-0.000,0.000
1640659594920717056,2021-12-28-02:46:34,10.1.1.3,9,0.000,-0.000,-0.000,-0.000,-0.000,0.000
1640659596997703936,2021-12-28-02:46:36,10.1.1.3,7,0.000,-0.000,-0.000,-0.000,-0.000,0.000
1640659599103162880,2021-12-28-02:46:39,10.1.1.3,6,0.000,-0.000,-0.000,-0.000,-0.000,0.000
1640659601211762944,2021-12-28-02:46:41,10.1.1.3,5,0.000,-0.000,-0.000,-0.000,-0.000,0.000
1640659603335719168,2021-12-28-02:46:43,10.1.1.3,12,0.000,-0.000,-0.000,-0.000,-0.000,0.000
1640659605478432000,2021-12-28-02:46:45,10.1.1.3,13,0.000,-0.000,-0.000,-0.000,-0.000,0.000
1640659607582323968,2021-12-28-02:46:47,10.1.1.3,6,0.000,-0.000,-0.000,-0.000,-0.000,0.000
1640659609740282112,2021-12-28-02:46:49,10.1.1.3,11,0.000,-0.000,-0.000,-0.000,-0.000,0.000
1640659611839631104,2021-12-28-02:46:51,10.1.1.3,15,0.000,-0.000,-0.000,-0.000,-0.000,0.000
1640659613938519040,2021-12-28-02:46:53,10.1.1.3,7,0.000,-0.000,-0.000,-0.000,-0.000,0.000
1640659616076836096,2021-12-28-02:46:56,10.1.1.3,7,0.000,-0.000,-0.000,-0.000,-0.000,0.000
1640659618175086080,2021-12-28-02:46:58,10.1.1.3,6,0.000,-0.000,-0.000,-0.000,-0.000,0.000
1640659620273662208,2021-12-28-02:47:00,10.1.1.3,2,0.000,-0.000,-0.000,-0.000,-0.000,0.000
1640659622328367104,2021-12-28-02:47:02,10.1.1.3,10,0.000,-0.000,-0.000,-0.000,-0.000,0.000
1640659624426263040,2021-12-28-02:47:04,10.1.1.3,17,0.000,-0.000,-0.000,-0.000,-0.000,0.000
1640659626541510144,2021-12-28-02:47:06,10.1.1.3,10,0.000,-0.000,-0.000,-0.000,-0.000,0.000
1640659628640976896,2021-12-28-02:47:08,10.1.1.3,4,0.000,-0.000,-0.000,-0.000,-0.000,0.000
1640659630762868992,2021-12-28-02:47:10,10.1.1.3,18,0.000,-0.000,-0.000,-0.000,-0.000,0.000
1640659632869874944,2021-12-28-02:47:12,10.1.1.3,15,0.000,-0.000,-0.000,-0.000,-0.000,0.000
1640659634975356928,2021-12-28-02:47:14,10.1.1.3,5,0.000,-0.000,-0.000,-0.000,-0.000,0.000
1640659637098010112,2021-12-28-02:47:17,10.1.1.3,10,0.000,-0.000,-0.000,-0.000,-0.000,0.000
1640659639199520000,2021-12-28-02:47:19,10.1.1.3,2,0.000,-0.000,-0.000,-0.000,-0.000,0.000
1640659641300407808,2021-12-28-02:47:21,10.1.1.3,15,0.000,-0.000,-0.000,-0.000,-0.000,0.000
1640659643401277184,2021-12-28-02:47:23,10.1.1.3,6,0.000,-0.000,-0.000,-0.000,-0.000,0.000
1640659645518315008,2021-12-28-02:47:25,10.1.1.3,10,0.000,-0.000,-0.000,-0.000,-0.000,0.000
1640659647636710912,2021-12-28-02:47:27,10.1.1.3,2,0.000,-0.000,-0.000,-0.000,-0.000,0.000
1640659649795744000,2021-12-28-02:47:29,10.1.1.3,14,0.000,-0.000,-0.000,-0.000,-0.000,0.000
1640659651911628032,2021-12-28-02:47:31,10.1.1.3,13,0.000,-0.000,-0.000,-0.000,-0.000,0.000
1640659654008274944,2021-12-28-02:47:34,10.1.1.3,15,0.000,-0.000,-0.000,-0.000,-0.000,0.000
1640659656065498112,2021-12-28-02:47:36,10.1.1.3,1,0.000,-0.000,-0.000,-0.000,-0.000,0.000
1640659658203098112,2021-12-28-02:47:38,10.1.1.3,13,0.000,-0.000,-0.000,-0.000,-0.000,0.000
1640659660298959872,2021-12-28-02:47:40,10.1.1.3,9,0.000,-0.000,-0.000,-0.000,-0.000,0.000
1640659662378950144,2021-12-28-02:47:42,10.1.1.3,17,0.000,-0.000,-0.000,-0.000,-0.000,0.000
1640659664471388160,2021-12-28-02:47:44,10.1.1.3,3,0.000,-0.000,-0.000,-0.000,-0.000,0.000
1640659666594112000,2021-12-28-02:47:46,10.1.1.3,7,0.000,-0.000,-0.000,-0.000,-0.000,0.000
1640659668698715904,2021-12-28-02:47:48,10.1.1.3,18,0.000,-0.000,-0.000,-0.000,-0.000,0.000
1640659670799318016,2021-12-28-02:47:50,10.1.1.3,18,0.000,-0.000,-0.000,-0.000,-0.000,0.000
1640659672840002048,2021-12-28-02:47:52,10.1.1.3,16,0.000,-0.000,-0.000,-0.000,-0.000,0.000
1640659674920269056,2021-12-28-02:47:54,10.1.1.3,20,0.000,-0.000,-0.000,-0.000,-0.000,0.000
1640659676979269120,2021-12-28-02:47:56,10.1.1.3,7,0.000,-0.000,-0.000,-0.000,-0.000,0.000
1640659679059312128,2021-12-28-02:47:59,10.1.1.3,1,0.000,-0.000,-0.000,-0.000,-0.000,0.000
1640659681157022976,2021-12-28-02:48:01,10.1.1.3,4,0.000,-0.000,-0.000,-0.000,-0.000,0.000
1640659683274582016,2021-12-28-02:48:03,10.1.1.3,17,0.000,-0.000,-0.000,-0.000,-0.000,0.000
1640659685389103872,2021-12-28-02:48:05,10.1.1.3,19,0.000,-0.000,-0.000,-0.000,-0.000,0.000
1640659687488883968,2021-12-28-02:48:07,10.1.1.3,6,0.000,-0.000,-0.000,-0.000,-0.000,0.000
1640659689644179968,2021-12-28-02:48:09,10.1.1.3,9,0.000,-0.000,-0.000,-0.000,-0.000,0.000
1640659691761987072,2021-12-28-02:48:11,10.1.1.3,18,0.000,-0.000,-0.000,-0.000,-0.000,0.000
1640659693857806848,2021-12-28-02:48:13,10.1.1.3,3,0.000,-0.000,-0.000,-0.000,-0.000,0.000
1640659695986677760,2021-12-28-02:48:15,10.1.1.3,14,0.000,-0.000,-0.000,-0.000,-0.000,0.000
1640659698134458112,2021-12-28-02:48:18,10.1.1.3,3,0.000,-0.000,-0.000,-0.000,-0.000,0.000
1640659700260098048,2021-12-28-02:48:20,10.1.1.3,16,0.000,-0.000,-0.000,-0.000,-0.000,0.000
1640659702320537088,2021-12-28-02:48:22,10.1.1.3,12,0.000,-0.000,-0.000,-0.000,-0.000,0.000
1640659704364299008,2021-12-28-02:48:24,10.1.1.3,1,0.000,-0.000,-0.000,-0.000,-0.000,0.000
1640659706482589952,2021-12-28-02:48:26,10.1.1.3,5,0.000,-0.000,-0.000,-0.000,-0.000,0.000
1640659708562467072,2021-12-28-02:48:28,10.1.1.3,6,0.000,-0.000,-0.000,-0.000,-0.000,0.000
1640659710639633920,2021-12-28-02:48:30,10.1.1.3,18,0.000,-0.000,-0.000,-0.000,-0.000,0.000
1640659712678302976,2021-12-28-02:48:32,10.1.1.3,0,0.000,-0.000,-0.000,-0.000,-0.000,0.000
1640659714735659008,2021-12-28-02:48:34,10.1.1.3,3,0.000,-0.000,-0.000,-0.000,-0.000,0.000
1640659716892221952,2021-12-28-02:48:36,10.1.1.3,16,0.000,-0.000,-0.000,-0.000,-0.000,0.000
1640659718950608896,2021-12-28-02:48:38,10.1.1.3,16,0.000,-0.000,-0.000,-0.000,-0.000,0.000
1640659721027168000,2021-12-28-02:48:41,10.1.1.3,9,0.000,-0.000,-0.000,-0.000,-0.000,0.000
1640659723104449024,2021-12-28-02:48:43,10.1.1.3,10,0.000,-0.000,-0.000,-0.000,-0.000,0.000
1640659725200131840,2021-12-28-02:48:45,10.1.1.3,10,0.000,-0.000,-0.000,-0.000,-0.000,0.000
1640659727378961152,2021-12-28-02:48:47,10.1.1.3,11,0.000,-0.000,-0.000,-0.000,-0.000,0.000
1640659729429032192,2021-12-28-02:48:49,10.1.1.3,15,0.000,-0.000,-0.000,-0.000,-0.000,0.000
1640659731496193024,2021-12-28-02:48:51,10.1.1.3,3,0.000,-0.000,-0.000,-0.000,-0.000,0.000
1640659733598545920,2021-12-28-02:48:53,10.1.1.3,6,0.000,-0.000,-0.000,-0.000,-0.000,0.000
1640659735700521984,2021-12-28-02:48:55,10.1.1.3,9,0.000,-0.000,-0.000,-0.000,-0.000,0.000
1640659737821070080,2021-12-28-02:48:57,10.1.1.3,13,0.000,-0.000,-0.000,-0.000,-0.000,0.000
1640659739961335808,2021-12-28-02:48:59,10.1.1.3,16,0.000,-0.000,-0.000,-0.000,-0.000,0.000
1640659742081262080,2021-12-28-02:49:02,10.1.1.3,14,0.000,-0.000,-0.000,-0.000,-0.000,0.000
1640659744178009088,2021-12-28-02:49:04,10.1.1.3,9,0.000,-0.000,-0.000,-0.000,-0.000,0.000
1640659746295876864,2021-12-28-02:49:06,10.1.1.3,10,0.000,-0.000,-0.000,-0.000,-0.000,0.000
1640659748395621120,2021-12-28-02:49:08,10.1.1.3,4,0.000,-0.000,-0.000,-0.000,-0.000,0.000
1640659752610447872,2021-12-28-02:49:12,10.1.1.3,10,0.000,-0.000,-0.000,-0.000,-0.000,0.000
1640659754745320960,2021-12-28-02:49:14,10.1.1.3,18,0.000,-0.000,-0.000,-0.000,-0.000,0.000
1640659756842006016,2021-12-28-02:49:16,10.1.1.3,5,0.000,-0.000,-0.000,-0.000,-0.000,0.000
1640659758937145088,2021-12-28-02:49:18,10.1.1.3,8,0.000,-0.000,-0.000,-0.000,-0.000,0.000
1640659761067041024,2021-12-28-02:49:21,10.1.1.3,14,0.000,-0.000,-0.000,-0.000,-0.000,0.000
1640659763153243136,2021-12-28-02:49:23,10.1.1.3,10,0.000,-0.000,-0.000,-0.000,-0.000,0.000
1640659765259735040,2021-12-28-02:49:25,10.1.1.3,12,0.000,-0.000,-0.000,-0.000,-0.000,0.000
1640659767362119936,2021-12-28-02:49:27,10.1.1.3,5,0.000,-0.000,-0.000,-0.000,-0.000,0.000
1640659769482117888,2021-12-28-02:49:29,10.1.1.3,14,0.000,-0.000,-0.000,-0.000,-0.000,0.000
1640659771560281088,2021-12-28-02:49:31,10.1.1.3,6,0.000,-0.000,-0.000,-0.000,-0.000,0.000
1640659773661558016,2021-12-28-02:49:33,10.1.1.3,19,0.000,-0.000,-0.000,-0.000,-0.000,0.000
1640659775737377792,2021-12-28-02:49:35,10.1.1.3,8,0.000,-0.000,-0.000,-0.000,-0.000,0.000
1640659777855299072,2021-12-28-02:49:37,10.1.1.3,8,0.000,-0.000,-0.000,-0.000,-0.000,0.000
1640659779954606080,2021-12-28-02:49:39,10.1.1.3,4,0.000,-0.000,-0.000,-0.000,-0.000,0.000
1640659782089856000,2021-12-28-02:49:42,10.1.1.3,13,0.000,-0.000,-0.000,-0.000,-0.000,0.000
1640659784229495040,2021-12-28-02:49:44,10.1.1.3,20,0.000,-0.000,-0.000,-0.000,-0.000,0.000
1640659786344648960,2021-12-28-02:49:46,10.1.1.3,17,0.000,-0.000,-0.000,-0.000,-0.000,0.000
1640659788420702976,2021-12-28-02:49:48,10.1.1.3,2,0.000,-0.000,-0.000,-0.000,-0.000,0.000
1640659790557900800,2021-12-28-02:49:50,10.1.1.3,9,0.000,-0.000,-0.000,-0.000,-0.000,0.000
1640659792667836928,2021-12-28-02:49:52,10.1.1.3,2,0.000,-0.000,-0.000,-0.000,-0.000,0.000
1640659794814779136,2021-12-28-02:49:54,10.1.1.3,11,0.000,-0.000,-0.000,-0.000,-0.000,0.000
1640659796897828096,2021-12-28-02:49:56,10.1.1.3,6,0.000,-0.000,-0.000,-0.000,-0.000,0.000
1640659799062344192,2021-12-28-02:49:59,10.1.1.3,17,0.000,-0.000,-0.000,-0.000,-0.000,0.000
1640659801161474816,2021-12-28-02:50:01,10.1.1.3,18,0.000,-0.000,-0.000,-0.000,-0.000,0.000
1640659803300220928,2021-12-28-02:50:03,10.1.1.3,11,0.000,-0.000,-0.000,-0.000,-0.000,0.000
1640659805440551936,2021-12-28-02:50:05,10.1.1.3,10,0.000,-0.000,-0.000,-0.000,-0.000,0.000
1640659807538140928,2021-12-28-02:50:07,10.1.1.3,4,0.000,-0.000,-0.000,-0.000,-0.000,0.000
1640659809657001984,2021-12-28-02:50:09,10.1.1.3,13,0.000,-0.000,-0.000,-0.000,-0.000,0.000
1640659811755207168,2021-12-28-02:50:11,10.1.1.3,2,0.000,-0.000,-0.000,-0.000,-0.000,0.000
1640659813870472960,2021-12-28-02:50:13,10.1.1.3,4,0.000,-0.000,-0.000,-0.000,-0.000,0.000
1640659816009495040,2021-12-28-02:50:16,10.1.1.3,17,0.000,-0.000,-0.000,-0.000,-0.000,0.000
1640659818084435968,2021-12-28-02:50:18,10.1.1.3,5,0.000,-0.000,-0.000,-0.000,-0.000,0.000
1640659820181536000,2021-12-28-02:50:20,10.1.1.3,4,0.000,-0.000,-0.000,-0.000,-0.000,0.000
1640659822318021888,2021-12-28-02:50:22,10.1.1.3,7,0.000,-0.000,-0.000,-0.000,-0.000,0.000
1640659824424704000,2021-12-28-02:50:24,10.1.1.3,4,0.000,-0.000,-0.000,-0.000,-0.000,0.000
1640659826513196032,2021-12-28-02:50:26,10.1.1.3,11,0.000,-0.000,-0.000,-0.000,-0.000,0.000
1640659828618446080,2021-12-28-02:50:28,10.1.1.3,3,0.000,-0.000,-0.000,-0.000,-0.000,0.000
1640659830700877824,2021-12-28-02:50:30,10.1.1.3,5,0.000,-0.000,-0.000,-0.000,-0.000,0.000
1640659832802097920,2021-12-28-02:50:32,10.1.1.3,19,0.000,-0.000,-0.000,-0.000,-0.000,0.000
1640659834944071936,2021-12-28-02:50:34,10.1.1.3,14,0.000,-0.000,-0.000,-0.000,-0.000,0.000
1640659837061872896,2021-12-28-02:50:37,10.1.1.3,14,0.000,-0.000,-0.000,-0.000,-0.000,0.000
1640659839202732032,2021-12-28-02:50:39,10.1.1.3,12,0.000,-0.000,-0.000,-0.000,-0.000,0.000
1640659841318478080,2021-12-28-02:50:41,10.1.1.3,12,0.000,-0.000,-0.000,-0.000,-0.000,0.000
1640659843416503040,2021-12-28-02:50:43,10.1.1.3,7,0.000,-0.000,-0.000,-0.000,-0.000,0.000
1640659845534548992,2021-12-28-02:50:45,10.1.1.3,2,0.000,-0.000,-0.000,-0.000,-0.000,0.000
1640659847671449856,2021-12-28-02:50:47,10.1.1.3,9,0.000,-0.000,-0.000,-0.000,-0.000,0.000
1640659849788867072,2021-12-28-02:50:49,10.1.1.3,1,0.000,-0.000,-0.000,-0.000,-0.000,0.000
1640659851965681152,2021-12-28-02:50:51,10.1.1.3,19,0.000,-0.000,-0.000,-0.000,-0.000,0.000
1640659854103357952,2021-12-28-02:50:54,10.1.1.3,4,0.000,-0.000,-0.000,-0.000,-0.000,0.000
1640659856261355008,2021-12-28-02:50:56,10.1.1.3,17,0.000,-0.000,-0.000,-0.000,-0.000,0.000
1640659858348396032,2021-12-28-02:50:58,10.1.1.3,13,0.000,-0.000,-0.000,-0.000,-0.000,0.000
1640659860434834944,2021-12-28-02:51:00,10.1.1.3,5,0.000,-0.000,-0.000,-0.000,-0.000,0.000
1640659862518689024,2021-12-28-02:51:02,10.1.1.3,3,0.000,-0.000,-0.000,-0.000,-0.000,0.000
1640659864640163072,2021-12-28-02:51:04,10.1.1.3,8,0.000,-0.000,-0.000,-0.000,-0.000,0.000
1640659866742661120,2021-12-28-02:51:06,10.1.1.3,14,0.000,-0.000,-0.000,-0.000,-0.000,0.000
1640659868882065920,2021-12-28-02:51:08,10.1.1.3,17,0.000,-0.000,-0.000,-0.000,-0.000,0.000
1640659870962171136,2021-12-28-02:51:10,10.1.1.3,13,0.000,-0.000,-0.000,-0.000,-0.000,0.000
1640659873058077952,2021-12-28-02:51:13,10.1.1.3,5,0.000,-0.000,-0.000,-0.000,-0.000,0.000
1640659875177846016,2021-12-28-02:51:15,10.1.1.3,5,0.000,-0.000,-0.000,-0.000,-0.000,0.000
1640659877292066048,2021-12-28-02:51:17,10.1.1.3,16,0.000,-0.000,-0.000,-0.000,-0.000,0.000
1640659879413300992,2021-12-28-02:51:19,10.1.1.3,12,0.000,-0.000,-0.000,-0.000,-0.000,0.000
1640659881526854912,2021-12-28-02:51:21,10.1.1.3,11,0.000,-0.000,-0.000,-0.000,-0.000,0.000
1640659883643373056,2021-12-28-02:51:23,10.1.1.3,10,0.000,-0.000,-0.000,-0.000,-0.000,0.000
1640659885741380096,2021-12-28-02:51:25,10.1.1.3,5,0.000,-0.000,-0.000,-0.000,-0.000,0.000
1640659887880676864,2021-12-28-02:51:27,10.1.1.3,0,0.000,-0.000,-0.000,-0.000,-0.000,0.000
1640659890005949952,2021-12-28-02:51:30,10.1.1.3,8,0.000,-0.000,-0.000,-0.000,-0.000,0.000
1640659892074945024,2021-12-28-02:51:32,10.1.1.3,3,0.000,-0.000,-0.000,-0.000,-0.000,0.000
1640659894159256832,2021-12-28-02:51:34,10.1.1.3,3,0.000,-0.000,-0.000,-0.000,-0.000,0.000
1640659896241043200,2021-12-28-02:51:36,10.1.1.3,16,0.000,-0.000,-0.000,-0.000,-0.000,0.000
1640659898322437120,2021-12-28-02:51:38,10.1.1.3,4,0.000,-0.000,-0.000,-0.000,-0.000,0.000
1640659900461939200,2021-12-28-02:51:40,10.1.1.3,17,0.000,-0.000,-0.000,-0.000,-0.000,0.000
1640659902579365888,2021-12-28-02:51:42,10.1.1.3,19,0.000,-0.000,-0.000,-0.000,-0.000,0.000
1640659904680731136,2021-12-28-02:51:44,10.1.1.3,1,0.000,-0.000,-0.000,-0.000,-0.000,0.000
1640659906797506048,2021-12-28-02:51:46,10.1.1.3,17,0.000,-0.000,-0.000,-0.000,-0.000,0.000
1640659908873712128,2021-12-28-02:51:48,10.1.1.3,15,0.000,-0.000,-0.000,-0.000,-0.000,0.000
1640659910931108864,2021-12-28-02:51:50,10.1.1.3,8,0.000,-0.000,-0.000,-0.000,-0.000,0.000
1640659913027951872,2021-12-28-02:51:53,10.1.1.3,9,0.000,-0.000,-0.000,-0.000,-0.000,0.000
1640659915106169088,2021-12-28-02:51:55,10.1.1.3,1,0.000,-0.000,-0.000,-0.000,-0.000,0.000
1640659917182924032,2021-12-28-02:51:57,10.1.1.3,8,0.000,-0.000,-0.000,-0.000,-0.000,0.000
1640659919280026880,2021-12-28-02:51:59,10.1.1.3,15,0.000,-0.000,-0.000,-0.000,-0.000,0.000
1640659921363567104,2021-12-28-02:52:01,10.1.1.3,1,0.000,-0.000,-0.000,-0.000,-0.000,0.000
1640659923471488000,2021-12-28-02:52:03,10.1.1.3,4,0.000,-0.000,-0.000,-0.000,-0.000,0.000
1640659925559040000,2021-12-28-02:52:05,10.1.1.3,17,0.000,-0.000,-0.000,-0.000,-0.000,0.000
1640659927700366848,2021-12-28-02:52:07,10.1.1.3,17,0.000,-0.000,-0.000,-0.000,-0.000,0.000
1640659929781528064,2021-12-28-02:52:09,10.1.1.3,13,0.000,-0.000,-0.000,-0.000,-0.000,0.000
1640659931881025024,2021-12-28-02:52:11,10.1.1.3,9,0.000,-0.000,-0.000,-0.000,-0.000,0.000
1640659934001498880,2021-12-28-02:52:14,10.1.1.3,4,0.000,-0.000,-0.000,-0.000,-0.000,0.000
1640659936100312832,2021-12-28-02:52:16,10.1.1.3,10,0.000,-0.000,-0.000,-0.000,-0.000,0.000
1640659938177975808,2021-12-28-02:52:18,10.1.1.3,12,0.000,-0.000,-0.000,-0.000,-0.000,0.000
1640659940296935168,2021-12-28-02:52:20,10.1.1.3,7,0.000,-0.000,-0.000,-0.000,-0.000,0.000
1640659942412786944,2021-12-28-02:52:22,10.1.1.3,5,0.000,-0.000,-0.000,-0.000,-0.000,0.000
1640659944529032960,2021-12-28-02:52:24,10.1.1.3,16,0.000,-0.000,-0.000,-0.000,-0.000,0.000
1640659946646220032,2021-12-28-02:52:26,10.1.1.3,17,0.000,-0.000,-0.000,-0.000,-0.000,0.000
1640659948764771072,2021-12-28-02:52:28,10.1.1.3,19,0.000,-0.000,-0.000,-0.000,-0.000,0.000
1640659950903276032,2021-12-28-02:52:30,10.1.1.3,19,0.000,-0.000,-0.000,-0.000,-0.000,0.000
1640659953003985920,2021-12-28-02:52:33,10.1.1.3,15,0.000,-0.000,-0.000,-0.000,-0.000,0.000
1640659955112392960,2021-12-28-02:52:35,10.1.1.3,3,0.000,-0.000,-0.000,-0.000,-0.000,0.000
1640659957237540864,2021-12-28-02:52:37,10.1.1.3,11,0.000,-0.000,-0.000,-0.000,-0.000,0.000
1640659959341664000,2021-12-28-02:52:39,10.1.1.3,5,0.000,-0.000,-0.000,-0.000,-0.000,0.000
1640659961464376832,2021-12-28-02:52:41,10.1.1.3,4,0.000,-0.000,-0.000,-0.000,-0.000,0.000
1640659963625790208,2021-12-28-02:52:43,10.1.1.3,4,0.000,-0.000,-0.000,-0.000,-0.000,0.000
1640659965743147008,2021-12-28-02:52:45,10.1.1.3,13,0.000,-0.000,-0.000,-0.000,-0.000,0.000
1640659967841284864,2021-12-28-02:52:47,10.1.1.3,7,0.000,-0.000,-0.000,-0.000,-0.000,0.000
1640659969965334016,2021-12-28-02:52:49,10.1.1.3,6,0.000,-0.000,-0.000,-0.000,-0.000,0.000
1640659972117574912,2021-12-28-02:52:52,10.1.1.3,1,0.000,-0.000,-0.000,-0.000,-0.000,0.000
1640659974233186048,2021-12-28-02:52:54,10.1.1.3,7,0.000,-0.000,-0.000,-0.000,-0.000,0.000
1640659976331244032,2021-12-28-02:52:56,10.1.1.3,4,0.000,-0.000,-0.000,-0.000,-0.000,0.000
1640659978450387968,2021-12-28-02:52:58,10.1.1.3,7,0.000,-0.000,-0.000,-0.000,-0.000,0.000
1640659980567334912,2021-12-28-02:53:00,10.1.1.3,1,0.000,-0.000,-0.000,-0.000,-0.000,0.000
1640659982661014016,2021-12-28-02:53:02,10.1.1.3,5,0.000,-0.000,-0.000,-0.000,-0.000,0.000
1640659984697860864,2021-12-28-02:53:04,10.1.1.3,4,0.000,-0.000,-0.000,-0.000,-0.000,0.000
1640659986807172096,2021-12-28-02:53:06,10.1.1.3,14,0.000,-0.000,-0.000,-0.000,-0.000,0.000
1640659988894628096,2021-12-28-02:53:08,10.1.1.3,4,0.000,-0.000,-0.000,-0.000,-0.000,0.000
1640659991018852096,2021-12-28-02:53:11,10.1.1.3,8,0.000,-0.000,-0.000,-0.000,-0.000,0.000
1640659993140471808,2021-12-28-02:53:13,10.1.1.3,8,0.000,-0.000,-0.000,-0.000,-0.000,0.000
1640659995281719808,2021-12-28-02:53:15,10.1.1.3,15,0.000,-0.000,-0.000,-0.000,-0.000,0.000
1640659997361544960,2021-12-28-02:53:17,10.1.1.3,4,0.000,-0.000,-0.000,-0.000,-0.000,0.000
1640659999440155136,2021-12-28-02:53:19,10.1.1.3,2,0.000,-0.000,-0.000,-0.000,-0.000,0.000
1640660001558660864,2021-12-28-02:53:21,10.1.1.3,3,0.000,-0.000,-0.000,-0.000,-0.000,0.000
1640660003696884992,2021-12-28-02:53:23,10.1.1.3,8,0.000,-0.000,-0.000,-0.000,-0.000,0.000
1640660005793319936,2021-12-28-02:53:25,10.1.1.3,9,0.000,-0.000,-0.000,-0.000,-0.000,0.000
1640660007951934976,2021-12-28-02:53:27,10.1.1.3,9,0.000,-0.000,-0.000,-0.000,-0.000,0.000
1640660010069499904,2021-12-28-02:53:30,10.1.1.3,4,0.000,-0.000,-0.000,-0.000,-0.000,0.000
1640660012145540864,2021-12-28-02:53:32,10.1.1.3,4,0.000,-0.000,-0.000,-0.000,-0.000,0.000
1640660014260772096,2021-12-28-02:53:34,10.1.1.3,17,0.000,-0.000,-0.000,-0.000,-0.000,0.000
1640660016397133056,2021-12-28-02:53:36,10.1.1.3,18,0.000,-0.000,-0.000,-0.000,-0.000,0.000
1640660018485501952,2021-12-28-02:53:38,10.1.1.3,1,0.000,-0.000,-0.000,-0.000,-0.000,0.000
1640660020572710144,2021-12-28-02:53:40,10.1.1.3,4,0.000,-0.000,-0.000,-0.000,-0.000,0.000
1640660022697443840,2021-12-28-02:53:42,10.1.1.3,2,0.000,-0.000,-0.000,-0.000,-0.000,0.000
1640660024821692928,2021-12-28-02:53:44,10.1.1.3,11,0.000,-0.000,-0.000,-0.000,-0.000,0.000
1640660026921988864,2021-12-28-02:53:46,10.1.1.3,13,0.000,-0.000,-0.000,-0.000,-0.000,0.000
1640660029022008064,2021-12-28-02:53:49,10.1.1.3,13,0.000,-0.000,-0.000,-0.000,-0.000,0.000
1640660031120600832,2021-12-28-02:53:51,10.1.1.3,4,0.000,-0.000,-0.000,-0.000,-0.000,0.000
1640660033199304192,2021-12-28-02:53:53,10.1.1.3,16,0.000,-0.000,-0.000,-0.000,-0.000,0.000
1640660035297936896,2021-12-28-02:53:55,10.1.1.3,8,0.000,-0.000,-0.000,-0.000,-0.000,0.000
1640660037414554112,2021-12-28-02:53:57,10.1.1.3,8,0.000,-0.000,-0.000,-0.000,-0.000,0.000
1640660039512356096,2021-12-28-02:53:59,10.1.1.3,10,0.000,-0.000,-0.000,-0.000,-0.000,0.000
1640660041609219072,2021-12-28-02:54:01,10.1.1.3,12,0.000,-0.000,-0.000,-0.000,-0.000,0.000
1640660043665925120,2021-12-28-02:54:03,10.1.1.3,17,0.000,-0.000,-0.000,-0.000,-0.000,0.000
1640660045803014912,2021-12-28-02:54:05,10.1.1.3,19,0.000,-0.000,-0.000,-0.000,-0.000,0.000
1640660047878678016,2021-12-28-02:54:07,10.1.1.3,10,0.000,-0.000,-0.000,-0.000,-0.000,0.000
1640660049982671104,2021-12-28-02:54:09,10.1.1.3,16,0.000,-0.000,-0.000,-0.000,-0.000,0.000
1640660052090310144,2021-12-28-02:54:12,10.1.1.3,4,0.000,-0.000,-0.000,-0.000,-0.000,0.000
1640660054216065792,2021-12-28-02:54:14,10.1.1.3,11,0.000,-0.000,-0.000,-0.000,-0.000,0.000
1640660056300457984,2021-12-28-02:54:16,10.1.1.3,11,0.000,-0.000,-0.000,-0.000,-0.000,0.000
1640660058381565952,2021-12-28-02:54:18,10.1.1.3,15,0.000,-0.000,-0.000,-0.000,-0.000,0.000
1640660060503539200,2021-12-28-02:54:20,10.1.1.3,6,0.000,-0.000,-0.000,-0.000,-0.000,0.000
1640660062601475840,2021-12-28-02:54:22,10.1.1.3,13,0.000,-0.000,-0.000,-0.000,-0.000,0.000
1640660064701266176,2021-12-28-02:54:24,10.1.1.3,5,0.000,-0.000,-0.000,-0.000,-0.000,0.000
1640660066818653952,2021-12-28-02:54:26,10.1.1.3,2,0.000,-0.000,-0.000,-0.000,-0.000,0.000
1640660068955470080,2021-12-28-02:54:28,10.1.1.3,19,0.000,-0.000,-0.000,-0.000,-0.000,0.000
1640660071053971968,2021-12-28-02:54:31,10.1.1.3,1,0.000,-0.000,-0.000,-0.000,-0.000,0.000
1640660073210194176,2021-12-28-02:54:33,10.1.1.3,14,0.000,-0.000,-0.000,-0.000,-0.000,0.000
1640660075309020160,2021-12-28-02:54:35,10.1.1.3,11,0.000,-0.000,-0.000,-0.000,-0.000,0.000
1640660077423145984,2021-12-28-02:54:37,10.1.1.3,18,0.000,-0.000,-0.000,-0.000,-0.000,0.000
1640660079520258816,2021-12-28-02:54:39,10.1.1.3,4,0.000,-0.000,-0.000,-0.000,-0.000,0.000
1640660081622438912,2021-12-28-02:54:41,10.1.1.3,4,0.000,-0.000,-0.000,-0.000,-0.000,0.000
