FedericoMungari/DigitalTwin_service/01_WiredScenario/Output/Output_script/script_rosapi_2_output_robots2_freq0_1.txt
timestamp,date,node,latency,joint_1,joint_2,joint_3,joint_4,joint_5,joint_6
1643253836598934016,2022-01-27-03:23:56,10.1.1.2,31,-0.011,-0.011,-0.011,0.000,0.000,0.000
1643253836798883840,2022-01-27-03:23:56,10.1.1.2,29,-0.021,-0.021,-0.021,0.000,0.000,0.000
1643253836999255808,2022-01-27-03:23:56,10.1.1.2,29,-0.031,-0.031,-0.031,0.000,0.000,0.000
1643253837198903040,2022-01-27-03:23:57,10.1.1.2,27,-0.041,-0.041,-0.041,0.000,0.000,0.000
1643253837399233024,2022-01-27-03:23:57,10.1.1.2,27,-0.051,-0.051,-0.051,0.000,0.000,0.000
1643253837599222016,2022-01-27-03:23:57,10.1.1.2,26,-0.061,-0.061,-0.061,0.000,0.000,0.000
1643253837799181824,2022-01-27-03:23:57,10.1.1.2,25,-0.070,-0.070,-0.070,0.000,0.000,0.000
1643253837999681024,2022-01-27-03:23:57,10.1.1.2,25,-0.080,-0.080,-0.080,0.000,0.000,0.000
1643253838199354880,2022-01-27-03:23:58,10.1.1.2,24,-0.091,-0.091,-0.091,0.000,0.000,0.000
1643253838399633920,2022-01-27-03:23:58,10.1.1.2,23,-0.100,-0.100,-0.100,0.000,0.000,0.000
1643253838598799104,2022-01-27-03:23:58,10.1.1.2,21,-0.110,-0.110,-0.110,0.000,0.000,0.000
1643253838800903936,2022-01-27-03:23:58,10.1.1.2,22,-0.120,-0.120,-0.120,0.000,0.000,0.000
1643253838999751168,2022-01-27-03:23:58,10.1.1.2,20,-0.130,-0.130,-0.130,0.000,0.000,0.000
1643253839199376128,2022-01-27-03:23:59,10.1.1.2,15,-0.140,-0.140,-0.140,0.000,0.000,0.000
1643253839419746048,2022-01-27-03:23:59,10.1.1.2,32,-0.151,-0.151,-0.151,0.000,0.000,0.000
1643253839620183040,2022-01-27-03:23:59,10.1.1.2,32,-0.160,-0.160,-0.160,0.000,0.000,0.000
1643253839818878976,2022-01-27-03:23:59,10.1.1.2,29,-0.170,-0.170,-0.170,0.000,0.000,0.000
1643253840023859968,2022-01-27-03:24:00,10.1.1.2,30,-0.180,-0.180,-0.180,0.000,0.000,0.000
1643253840218671104,2022-01-27-03:24:00,10.1.1.2,19,-0.190,-0.190,-0.190,0.000,0.000,0.000
1643253840418632960,2022-01-27-03:24:00,10.1.1.2,18,-0.200,-0.200,-0.200,0.000,0.000,0.000
1643253840619204096,2022-01-27-03:24:00,10.1.1.2,18,-0.210,-0.210,-0.210,0.000,0.000,0.000
1643253840819006976,2022-01-27-03:24:00,10.1.1.2,16,-0.220,-0.220,-0.220,0.000,0.000,0.000
1643253841018859008,2022-01-27-03:24:01,10.1.1.2,15,-0.230,-0.230,-0.230,0.000,0.000,0.000
1643253841219523840,2022-01-27-03:24:01,10.1.1.2,15,-0.240,-0.240,-0.240,0.000,0.000,0.000
1643253841439888128,2022-01-27-03:24:01,10.1.1.2,33,-0.251,-0.251,-0.251,0.000,0.000,0.000
1643253841639322880,2022-01-27-03:24:01,10.1.1.2,29,-0.261,-0.261,-0.261,0.000,0.000,0.000
1643253841847624960,2022-01-27-03:24:01,10.1.1.2,35,-0.270,-0.270,-0.270,0.000,0.000,0.000
1643253842038373888,2022-01-27-03:24:02,10.1.1.2,24,-0.280,-0.280,-0.280,0.000,0.000,0.000
1643253842236315136,2022-01-27-03:24:02,10.1.1.2,21,-0.290,-0.290,-0.290,0.000,0.000,0.000
1643253842437690880,2022-01-27-03:24:02,10.1.1.2,21,-0.300,-0.300,-0.300,0.000,0.000,0.000
1643253842656562176,2022-01-27-03:24:02,10.1.1.2,39,-0.311,-0.311,-0.311,0.000,0.000,0.000
1643253842836453888,2022-01-27-03:24:02,10.1.1.2,18,-0.320,-0.320,-0.320,0.000,0.000,0.000
1643253843056459776,2022-01-27-03:24:03,10.1.1.2,37,-0.331,-0.331,-0.331,0.000,0.000,0.000
1643253843255855104,2022-01-27-03:24:03,10.1.1.2,36,-0.341,-0.341,-0.341,0.000,0.000,0.000
1643253843455705856,2022-01-27-03:24:03,10.1.1.2,35,-0.351,-0.351,-0.351,0.000,0.000,0.000
1643253843656264192,2022-01-27-03:24:03,10.1.1.2,34,-0.361,-0.361,-0.361,0.000,0.000,0.000
1643253843856791040,2022-01-27-03:24:03,10.1.1.2,34,-0.371,-0.371,-0.371,0.000,0.000,0.000
1643253844057086976,2022-01-27-03:24:04,10.1.1.2,33,-0.381,-0.381,-0.381,0.000,0.000,0.000
1643253844256275968,2022-01-27-03:24:04,10.1.1.2,32,-0.391,-0.391,-0.391,0.000,0.000,0.000
1643253844456070912,2022-01-27-03:24:04,10.1.1.2,31,-0.401,-0.401,-0.401,0.000,0.000,0.000
1643253844657430784,2022-01-27-03:24:04,10.1.1.2,31,-0.411,-0.411,-0.411,0.000,0.000,0.000
1643253844856878080,2022-01-27-03:24:04,10.1.1.2,29,-0.421,-0.421,-0.421,0.000,0.000,0.000
1643253845057024000,2022-01-27-03:24:05,10.1.1.2,28,-0.431,-0.431,-0.431,0.000,0.000,0.000
1643253845256616192,2022-01-27-03:24:05,10.1.1.2,27,-0.441,-0.441,-0.441,0.000,0.000,0.000
1643253845456491008,2022-01-27-03:24:05,10.1.1.2,26,-0.451,-0.451,-0.451,0.000,0.000,0.000
1643253845656224000,2022-01-27-03:24:05,10.1.1.2,25,-0.460,-0.460,-0.460,0.000,0.000,0.000
1643253845855617024,2022-01-27-03:24:05,10.1.1.2,23,-0.471,-0.471,-0.471,0.000,0.000,0.000
1643253846055875072,2022-01-27-03:24:06,10.1.1.2,23,-0.480,-0.480,-0.480,0.000,0.000,0.000
1643253846235944960,2022-01-27-03:24:06,10.1.1.2,2,-0.489,-0.489,-0.489,0.000,0.000,0.000
1643253846459855104,2022-01-27-03:24:06,10.1.1.2,25,-0.480,-0.480,-0.480,0.000,0.000,0.000
1643253846655643904,2022-01-27-03:24:06,10.1.1.2,19,-0.470,-0.470,-0.470,0.000,0.000,0.000
1643253846856500992,2022-01-27-03:24:06,10.1.1.2,19,-0.460,-0.460,-0.460,0.000,0.000,0.000
1643253847057054976,2022-01-27-03:24:07,10.1.1.2,19,-0.450,-0.450,-0.450,0.000,0.000,0.000
1643253847256369152,2022-01-27-03:24:07,10.1.1.2,17,-0.440,-0.440,-0.440,0.000,0.000,0.000
1643253847456353792,2022-01-27-03:24:07,10.1.1.2,16,-0.430,-0.430,-0.430,0.000,0.000,0.000
1643253847676986880,2022-01-27-03:24:07,10.1.1.2,33,-0.419,-0.419,-0.419,0.000,0.000,0.000
1643253847876406784,2022-01-27-03:24:07,10.1.1.2,31,-0.409,-0.409,-0.409,0.000,0.000,0.000
1643253848078326016,2022-01-27-03:24:08,10.1.1.2,32,-0.399,-0.399,-0.399,0.000,0.000,0.000
1643253848276724224,2022-01-27-03:24:08,10.1.1.2,30,-0.389,-0.389,-0.389,0.000,0.000,0.000
1643253848475558144,2022-01-27-03:24:08,10.1.1.2,28,-0.380,-0.380,-0.380,0.000,0.000,0.000
1643253848677046016,2022-01-27-03:24:08,10.1.1.2,26,-0.370,-0.370,-0.370,0.000,0.000,0.000
1643253848876465920,2022-01-27-03:24:08,10.1.1.2,25,-0.359,-0.359,-0.359,0.000,0.000,0.000
1643253849078834176,2022-01-27-03:24:09,10.1.1.2,25,-0.350,-0.350,-0.350,0.000,0.000,0.000
1643253849276241152,2022-01-27-03:24:09,10.1.1.2,23,-0.340,-0.340,-0.340,0.000,0.000,0.000
1643253849499546112,2022-01-27-03:24:09,10.1.1.2,45,-0.329,-0.329,-0.329,0.000,0.000,0.000
1643253849696214016,2022-01-27-03:24:09,10.1.1.2,37,-0.319,-0.319,-0.319,0.000,0.000,0.000
1643253849876072960,2022-01-27-03:24:09,10.1.1.2,16,-0.310,-0.310,-0.310,0.000,0.000,0.000
1643253850076723968,2022-01-27-03:24:10,10.1.1.2,15,-0.300,-0.300,-0.300,0.000,0.000,0.000
1643253850296772864,2022-01-27-03:24:10,10.1.1.2,34,-0.289,-0.289,-0.289,0.000,0.000,0.000
1643253850496916992,2022-01-27-03:24:10,10.1.1.2,33,-0.279,-0.279,-0.279,0.000,0.000,0.000
1643253850696541952,2022-01-27-03:24:10,10.1.1.2,32,-0.269,-0.269,-0.269,0.000,0.000,0.000
1643253850896472064,2022-01-27-03:24:10,10.1.1.2,31,-0.259,-0.259,-0.259,0.000,0.000,0.000
1643253851096332032,2022-01-27-03:24:11,10.1.1.2,30,-0.249,-0.249,-0.249,0.000,0.000,0.000
1643253851295869184,2022-01-27-03:24:11,10.1.1.2,28,-0.239,-0.239,-0.239,0.000,0.000,0.000
1643253851496105984,2022-01-27-03:24:11,10.1.1.2,27,-0.229,-0.229,-0.229,0.000,0.000,0.000
1643253851696094976,2022-01-27-03:24:11,10.1.1.2,26,-0.219,-0.219,-0.219,0.000,0.000,0.000
1643253851897046016,2022-01-27-03:24:11,10.1.1.2,26,-0.209,-0.209,-0.209,0.000,0.000,0.000
1643253852096183040,2022-01-27-03:24:12,10.1.1.2,25,-0.199,-0.199,-0.199,0.000,0.000,0.000
1643253852295895040,2022-01-27-03:24:12,10.1.1.2,23,-0.189,-0.189,-0.189,0.000,0.000,0.000
1643253852496090880,2022-01-27-03:24:12,10.1.1.2,23,-0.180,-0.180,-0.180,0.000,0.000,0.000
1643253852695933184,2022-01-27-03:24:12,10.1.1.2,22,-0.170,-0.170,-0.170,0.000,0.000,0.000
1643253852917144064,2022-01-27-03:24:12,10.1.1.2,40,-0.159,-0.159,-0.159,0.000,0.000,0.000
1643253853096924160,2022-01-27-03:24:13,10.1.1.2,20,-0.150,-0.150,-0.150,0.000,0.000,0.000
1643253853297224960,2022-01-27-03:24:13,10.1.1.2,18,-0.140,-0.140,-0.140,0.000,0.000,0.000
1643253853497801984,2022-01-27-03:24:13,10.1.1.2,17,-0.130,-0.130,-0.130,0.000,0.000,0.000
1643253853696538880,2022-01-27-03:24:13,10.1.1.2,16,-0.120,-0.120,-0.120,0.000,0.000,0.000
1643253853896397056,2022-01-27-03:24:13,10.1.1.2,15,-0.110,-0.110,-0.110,0.000,0.000,0.000
1643253854124876032,2022-01-27-03:24:14,10.1.1.2,43,-0.099,-0.099,-0.099,0.000,0.000,0.000
1643253854328787968,2022-01-27-03:24:14,10.1.1.2,46,-0.090,-0.090,-0.090,0.000,0.000,0.000
1643253854500250112,2022-01-27-03:24:14,10.1.1.2,15,-0.080,-0.080,-0.080,0.000,0.000,0.000
1643253854699419136,2022-01-27-03:24:14,10.1.1.2,14,-0.070,-0.070,-0.070,0.000,0.000,0.000
1643253854919368960,2022-01-27-03:24:14,10.1.1.2,33,-0.059,-0.059,-0.059,0.000,0.000,0.000
1643253855138451200,2022-01-27-03:24:15,10.1.1.2,51,-0.049,-0.049,-0.049,0.000,0.000,0.000
1643253855344649984,2022-01-27-03:24:15,10.1.1.2,56,-0.038,-0.038,-0.038,0.000,0.000,0.000
1643253855514511104,2022-01-27-03:24:15,10.1.1.2,25,-0.029,-0.029,-0.029,0.000,0.000,0.000
1643253855714971904,2022-01-27-03:24:15,10.1.1.2,24,-0.020,-0.020,-0.020,0.000,0.000,0.000
1643253855912621056,2022-01-27-03:24:15,10.1.1.2,21,-0.010,-0.010,-0.010,0.000,0.000,0.000
1643253856092673024,2022-01-27-03:24:16,10.1.1.2,1,-0.001,-0.001,-0.001,0.000,0.000,0.000
1643253856333990144,2022-01-27-03:24:16,10.1.1.2,40,-0.011,-0.011,-0.011,0.000,0.000,0.000
1643253856541372160,2022-01-27-03:24:16,10.1.1.2,46,-0.021,-0.021,-0.021,0.000,0.000,0.000
1643253856736962048,2022-01-27-03:24:16,10.1.1.2,40,-0.031,-0.031,-0.031,0.000,0.000,0.000
1643253856915419136,2022-01-27-03:24:16,10.1.1.2,18,-0.040,-0.040,-0.040,0.000,0.000,0.000
1643253857115952896,2022-01-27-03:24:17,10.1.1.2,18,-0.050,-0.050,-0.050,0.000,0.000,0.000
1643253857315709184,2022-01-27-03:24:17,10.1.1.2,16,-0.060,-0.060,-0.060,0.000,0.000,0.000
1643253857516400128,2022-01-27-03:24:17,10.1.1.2,16,-0.070,-0.070,-0.070,0.000,0.000,0.000
1643253857715960064,2022-01-27-03:24:17,10.1.1.2,13,-0.080,-0.080,-0.080,0.000,0.000,0.000
1643253857936152064,2022-01-27-03:24:17,10.1.1.2,32,-0.091,-0.091,-0.091,0.000,0.000,0.000
1643253858136606976,2022-01-27-03:24:18,10.1.1.2,32,-0.101,-0.101,-0.101,0.000,0.000,0.000
1643253858337425920,2022-01-27-03:24:18,10.1.1.2,32,-0.111,-0.111,-0.111,0.000,0.000,0.000
1643253858537991936,2022-01-27-03:24:18,10.1.1.2,31,-0.121,-0.121,-0.121,0.000,0.000,0.000
1643253858739859968,2022-01-27-03:24:18,10.1.1.2,32,-0.131,-0.131,-0.131,0.000,0.000,0.000
1643253858939670016,2022-01-27-03:24:18,10.1.1.2,32,-0.141,-0.141,-0.141,0.000,0.000,0.000
1643253859138477056,2022-01-27-03:24:19,10.1.1.2,30,-0.151,-0.151,-0.151,0.000,0.000,0.000
1643253859338291968,2022-01-27-03:24:19,10.1.1.2,26,-0.161,-0.161,-0.161,0.000,0.000,0.000
1643253859538425856,2022-01-27-03:24:19,10.1.1.2,25,-0.171,-0.171,-0.171,0.000,0.000,0.000
1643253859759612160,2022-01-27-03:24:19,10.1.1.2,43,-0.181,-0.181,-0.181,0.000,0.000,0.000
1643253859939753984,2022-01-27-03:24:19,10.1.1.2,21,-0.190,-0.190,-0.190,0.000,0.000,0.000
1643253860163140096,2022-01-27-03:24:20,10.1.1.2,42,-0.201,-0.201,-0.201,0.000,0.000,0.000
1643253860366245120,2022-01-27-03:24:20,10.1.1.2,45,-0.211,-0.211,-0.211,0.000,0.000,0.000
1643253860557637888,2022-01-27-03:24:20,10.1.1.2,36,-0.221,-0.221,-0.221,0.000,0.000,0.000
1643253860758619904,2022-01-27-03:24:20,10.1.1.2,36,-0.231,-0.231,-0.231,0.000,0.000,0.000
1643253860945219072,2022-01-27-03:24:20,10.1.1.2,22,-0.240,-0.240,-0.240,0.000,0.000,0.000
1643253861159102976,2022-01-27-03:24:21,10.1.1.2,35,-0.251,-0.251,-0.251,0.000,0.000,0.000
1643253861358722048,2022-01-27-03:24:21,10.1.1.2,34,-0.261,-0.261,-0.261,0.000,0.000,0.000
1643253861558387968,2022-01-27-03:24:21,10.1.1.2,32,-0.271,-0.271,-0.271,0.000,0.000,0.000
1643253861757057024,2022-01-27-03:24:21,10.1.1.2,30,-0.281,-0.281,-0.281,0.000,0.000,0.000
1643253861957881088,2022-01-27-03:24:21,10.1.1.2,30,-0.291,-0.291,-0.291,0.000,0.000,0.000
1643253862167213824,2022-01-27-03:24:22,10.1.1.2,38,-0.301,-0.301,-0.301,0.000,0.000,0.000
1643253862359383040,2022-01-27-03:24:22,10.1.1.2,29,-0.310,-0.310,-0.310,0.000,0.000,0.000
1643253862551235840,2022-01-27-03:24:22,10.1.1.2,21,-0.320,-0.320,-0.320,0.000,0.000,0.000
1643253862758272768,2022-01-27-03:24:22,10.1.1.2,27,-0.331,-0.331,-0.331,0.000,0.000,0.000
1643253862957325824,2022-01-27-03:24:22,10.1.1.2,25,-0.341,-0.341,-0.341,0.000,0.000,0.000
1643253863158128896,2022-01-27-03:24:23,10.1.1.2,25,-0.350,-0.350,-0.350,0.000,0.000,0.000
1643253863358760960,2022-01-27-03:24:23,10.1.1.2,25,-0.361,-0.361,-0.361,0.000,0.000,0.000
1643253863559182848,2022-01-27-03:24:23,10.1.1.2,25,-0.370,-0.370,-0.370,0.000,0.000,0.000
1643253863778338816,2022-01-27-03:24:23,10.1.1.2,42,-0.381,-0.381,-0.381,0.000,0.000,0.000
1643253863938644992,2022-01-27-03:24:23,10.1.1.2,-1,-0.389,-0.389,-0.389,0.000,0.000,0.000
1643253864157447936,2022-01-27-03:24:24,10.1.1.2,17,-0.400,-0.400,-0.400,0.000,0.000,0.000
1643253864378074880,2022-01-27-03:24:24,10.1.1.2,37,-0.411,-0.411,-0.411,0.000,0.000,0.000
1643253864590358016,2022-01-27-03:24:24,10.1.1.2,48,-0.421,-0.421,-0.421,0.000,0.000,0.000
1643253864759067904,2022-01-27-03:24:24,10.1.1.2,16,-0.430,-0.430,-0.430,0.000,0.000,0.000
1643253864977158912,2022-01-27-03:24:24,10.1.1.2,30,-0.441,-0.441,-0.441,0.000,0.000,0.000
1643253865196790016,2022-01-27-03:24:25,10.1.1.2,47,-0.452,-0.452,-0.452,0.000,0.000,0.000
1643253865376974080,2022-01-27-03:24:25,10.1.1.2,26,-0.461,-0.461,-0.461,0.000,0.000,0.000
1643253865577688832,2022-01-27-03:24:25,10.1.1.2,24,-0.470,-0.470,-0.470,0.000,0.000,0.000
1643253865778438144,2022-01-27-03:24:25,10.1.1.2,24,-0.480,-0.480,-0.480,0.000,0.000,0.000
1643253865957861888,2022-01-27-03:24:25,10.1.1.2,2,-0.489,-0.489,-0.489,0.000,0.000,0.000
1643253866182898944,2022-01-27-03:24:26,10.1.1.2,25,-0.479,-0.479,-0.479,0.000,0.000,0.000
1643253866381357824,2022-01-27-03:24:26,10.1.1.2,25,-0.469,-0.469,-0.469,0.000,0.000,0.000
1643253866581170944,2022-01-27-03:24:26,10.1.1.2,23,-0.460,-0.460,-0.460,0.000,0.000,0.000
1643253866781666048,2022-01-27-03:24:26,10.1.1.2,21,-0.450,-0.450,-0.450,0.000,0.000,0.000
1643253866981728000,2022-01-27-03:24:26,10.1.1.2,20,-0.440,-0.440,-0.440,0.000,0.000,0.000
1643253867181245184,2022-01-27-03:24:27,10.1.1.2,18,-0.430,-0.430,-0.430,0.000,0.000,0.000
1643253867381342976,2022-01-27-03:24:27,10.1.1.2,17,-0.420,-0.420,-0.420,0.000,0.000,0.000
1643253867601963008,2022-01-27-03:24:27,10.1.1.2,37,-0.409,-0.409,-0.409,0.000,0.000,0.000
1643253867802743040,2022-01-27-03:24:27,10.1.1.2,36,-0.399,-0.399,-0.399,0.000,0.000,0.000
1643253867982213120,2022-01-27-03:24:27,10.1.1.2,15,-0.390,-0.390,-0.390,0.000,0.000,0.000
1643253868181548032,2022-01-27-03:24:28,10.1.1.2,14,-0.380,-0.380,-0.380,0.000,0.000,0.000
1643253868400960000,2022-01-27-03:24:28,10.1.1.2,32,-0.369,-0.369,-0.369,0.000,0.000,0.000
1643253868613421056,2022-01-27-03:24:28,10.1.1.2,42,-0.359,-0.359,-0.359,0.000,0.000,0.000
1643253868795939840,2022-01-27-03:24:28,10.1.1.2,23,-0.350,-0.350,-0.350,0.000,0.000,0.000
1643253869001612032,2022-01-27-03:24:29,10.1.1.2,26,-0.340,-0.340,-0.340,0.000,0.000,0.000
1643253869200849152,2022-01-27-03:24:29,10.1.1.2,22,-0.330,-0.330,-0.330,0.000,0.000,0.000
1643253869421544960,2022-01-27-03:24:29,10.1.1.2,40,-0.319,-0.319,-0.319,0.000,0.000,0.000
1643253869621575168,2022-01-27-03:24:29,10.1.1.2,38,-0.309,-0.309,-0.309,0.000,0.000,0.000
1643253869821310976,2022-01-27-03:24:29,10.1.1.2,38,-0.299,-0.299,-0.299,0.000,0.000,0.000
1643253870001470208,2022-01-27-03:24:30,10.1.1.2,17,-0.290,-0.290,-0.290,0.000,0.000,0.000
1643253870221191936,2022-01-27-03:24:30,10.1.1.2,35,-0.279,-0.279,-0.279,0.000,0.000,0.000
1643253870422840064,2022-01-27-03:24:30,10.1.1.2,36,-0.269,-0.269,-0.269,0.000,0.000,0.000
1643253870621114112,2022-01-27-03:24:30,10.1.1.2,33,-0.259,-0.259,-0.259,0.000,0.000,0.000
1643253870821722880,2022-01-27-03:24:30,10.1.1.2,33,-0.249,-0.249,-0.249,0.000,0.000,0.000
1643253871022593024,2022-01-27-03:24:31,10.1.1.2,33,-0.239,-0.239,-0.239,0.000,0.000,0.000
1643253871221928960,2022-01-27-03:24:31,10.1.1.2,31,-0.229,-0.229,-0.229,0.000,0.000,0.000
1643253871421398016,2022-01-27-03:24:31,10.1.1.2,30,-0.219,-0.219,-0.219,0.000,0.000,0.000
1643253871621854976,2022-01-27-03:24:31,10.1.1.2,29,-0.209,-0.209,-0.209,0.000,0.000,0.000
1643253871821698048,2022-01-27-03:24:31,10.1.1.2,28,-0.199,-0.199,-0.199,0.000,0.000,0.000
1643253872021846016,2022-01-27-03:24:32,10.1.1.2,27,-0.190,-0.190,-0.190,0.000,0.000,0.000
1643253872221704960,2022-01-27-03:24:32,10.1.1.2,25,-0.179,-0.179,-0.179,0.000,0.000,0.000
1643253872421835008,2022-01-27-03:24:32,10.1.1.2,25,-0.170,-0.170,-0.170,0.000,0.000,0.000
1643253872641159168,2022-01-27-03:24:32,10.1.1.2,43,-0.159,-0.159,-0.159,0.000,0.000,0.000
1643253872821580032,2022-01-27-03:24:32,10.1.1.2,23,-0.150,-0.150,-0.150,0.000,0.000,0.000
1643253873023880960,2022-01-27-03:24:33,10.1.1.2,24,-0.140,-0.140,-0.140,0.000,0.000,0.000
1643253873221901824,2022-01-27-03:24:33,10.1.1.2,22,-0.130,-0.130,-0.130,0.000,0.000,0.000
1643253873421273088,2022-01-27-03:24:33,10.1.1.2,21,-0.120,-0.120,-0.120,0.000,0.000,0.000
1643253873622093056,2022-01-27-03:24:33,10.1.1.2,20,-0.110,-0.110,-0.110,0.000,0.000,0.000
1643253873821890048,2022-01-27-03:24:33,10.1.1.2,19,-0.100,-0.100,-0.100,0.000,0.000,0.000
1643253874019083008,2022-01-27-03:24:34,10.1.1.2,15,-0.090,-0.090,-0.090,0.000,0.000,0.000
1643253874237713152,2022-01-27-03:24:34,10.1.1.2,32,-0.079,-0.079,-0.079,0.000,0.000,0.000
1643253874438218240,2022-01-27-03:24:34,10.1.1.2,32,-0.069,-0.069,-0.069,0.000,0.000,0.000
1643253874637895168,2022-01-27-03:24:34,10.1.1.2,29,-0.059,-0.059,-0.059,0.000,0.000,0.000
1643253874838419968,2022-01-27-03:24:34,10.1.1.2,28,-0.049,-0.049,-0.049,0.000,0.000,0.000
1643253875038099968,2022-01-27-03:24:35,10.1.1.2,27,-0.039,-0.039,-0.039,0.000,0.000,0.000
1643253875237459968,2022-01-27-03:24:35,10.1.1.2,25,-0.029,-0.029,-0.029,0.000,0.000,0.000
1643253875437865984,2022-01-27-03:24:35,10.1.1.2,24,-0.020,-0.020,-0.020,0.000,0.000,0.000
1643253875637356032,2022-01-27-03:24:35,10.1.1.2,23,-0.010,-0.010,-0.010,0.000,0.000,0.000
1643253875817320960,2022-01-27-03:24:35,10.1.1.2,2,-0.000,-0.000,-0.000,0.000,0.000,0.000
1643253876037858048,2022-01-27-03:24:36,10.1.1.2,20,-0.010,-0.010,-0.010,0.000,0.000,0.000
1643253876237616128,2022-01-27-03:24:36,10.1.1.2,19,-0.020,-0.020,-0.020,0.000,0.000,0.000
1643253876458285056,2022-01-27-03:24:36,10.1.1.2,38,-0.031,-0.031,-0.031,0.000,0.000,0.000
1643253876653990144,2022-01-27-03:24:36,10.1.1.2,33,-0.040,-0.040,-0.040,0.000,0.000,0.000
1643253876857702912,2022-01-27-03:24:36,10.1.1.2,36,-0.050,-0.050,-0.050,0.000,0.000,0.000
1643253877040947968,2022-01-27-03:24:37,10.1.1.2,18,-0.060,-0.060,-0.060,0.000,0.000,0.000
1643253877241779968,2022-01-27-03:24:37,10.1.1.2,18,-0.070,-0.070,-0.070,0.000,0.000,0.000
1643253877445118976,2022-01-27-03:24:37,10.1.1.2,20,-0.080,-0.080,-0.080,0.000,0.000,0.000
1643253877652219904,2022-01-27-03:24:37,10.1.1.2,26,-0.091,-0.091,-0.091,0.000,0.000,0.000
1643253877859680000,2022-01-27-03:24:37,10.1.1.2,32,-0.101,-0.101,-0.101,0.000,0.000,0.000
1643253878059160832,2022-01-27-03:24:38,10.1.1.2,20,-0.110,-0.110,-0.110,0.000,0.000,0.000
1643253878259831040,2022-01-27-03:24:38,10.1.1.2,18,-0.120,-0.120,-0.120,0.000,0.000,0.000
1643253878459084032,2022-01-27-03:24:38,10.1.1.2,16,-0.130,-0.130,-0.130,0.000,0.000,0.000
1643253878686461952,2022-01-27-03:24:38,10.1.1.2,43,-0.140,-0.140,-0.140,0.000,0.000,0.000
1643253878874945024,2022-01-27-03:24:38,10.1.1.2,30,-0.151,-0.151,-0.151,0.000,0.000,0.000
1643253879079608064,2022-01-27-03:24:39,10.1.1.2,34,-0.160,-0.160,-0.160,0.000,0.000,0.000
1643253879278829056,2022-01-27-03:24:39,10.1.1.2,32,-0.170,-0.170,-0.170,0.000,0.000,0.000
1643253879473187840,2022-01-27-03:24:39,10.1.1.2,26,-0.180,-0.180,-0.180,0.000,0.000,0.000
1643253879694264832,2022-01-27-03:24:39,10.1.1.2,46,-0.191,-0.191,-0.191,0.000,0.000,0.000
1643253879873648896,2022-01-27-03:24:39,10.1.1.2,24,-0.200,-0.200,-0.200,0.000,0.000,0.000
1643253880092878080,2022-01-27-03:24:40,10.1.1.2,42,-0.211,-0.211,-0.211,0.000,0.000,0.000
1643253880273413888,2022-01-27-03:24:40,10.1.1.2,20,-0.220,-0.220,-0.220,0.000,0.000,0.000
1643253880477086976,2022-01-27-03:24:40,10.1.1.2,23,-0.230,-0.230,-0.230,0.000,0.000,0.000
1643253880706825984,2022-01-27-03:24:40,10.1.1.2,51,-0.241,-0.241,-0.241,0.000,0.000,0.000
1643253880897548032,2022-01-27-03:24:40,10.1.1.2,41,-0.251,-0.251,-0.251,0.000,0.000,0.000
1643253881077542144,2022-01-27-03:24:41,10.1.1.2,19,-0.260,-0.260,-0.260,0.000,0.000,0.000
1643253881298105088,2022-01-27-03:24:41,10.1.1.2,38,-0.271,-0.271,-0.271,0.000,0.000,0.000
1643253881499040000,2022-01-27-03:24:41,10.1.1.2,38,-0.281,-0.281,-0.281,0.000,0.000,0.000
1643253881699321088,2022-01-27-03:24:41,10.1.1.2,36,-0.291,-0.291,-0.291,0.000,0.000,0.000
1643253881899503104,2022-01-27-03:24:41,10.1.1.2,35,-0.301,-0.301,-0.301,0.000,0.000,0.000
1643253882099958016,2022-01-27-03:24:42,10.1.1.2,35,-0.311,-0.311,-0.311,0.000,0.000,0.000
1643253882297394944,2022-01-27-03:24:42,10.1.1.2,31,-0.321,-0.321,-0.321,0.000,0.000,0.000
1643253882497901824,2022-01-27-03:24:42,10.1.1.2,30,-0.331,-0.331,-0.331,0.000,0.000,0.000
1643253882696966912,2022-01-27-03:24:42,10.1.1.2,28,-0.341,-0.341,-0.341,0.000,0.000,0.000
1643253882898417920,2022-01-27-03:24:42,10.1.1.2,28,-0.351,-0.351,-0.351,0.000,0.000,0.000
1643253883099045888,2022-01-27-03:24:43,10.1.1.2,29,-0.361,-0.361,-0.361,0.000,0.000,0.000
1643253883299110912,2022-01-27-03:24:43,10.1.1.2,27,-0.370,-0.370,-0.370,0.000,0.000,0.000
1643253883498550784,2022-01-27-03:24:43,10.1.1.2,25,-0.381,-0.381,-0.381,0.000,0.000,0.000
1643253883699022080,2022-01-27-03:24:43,10.1.1.2,26,-0.390,-0.390,-0.390,0.000,0.000,0.000
1643253883919307008,2022-01-27-03:24:43,10.1.1.2,45,-0.401,-0.401,-0.401,0.000,0.000,0.000
1643253884098004224,2022-01-27-03:24:44,10.1.1.2,23,-0.410,-0.410,-0.410,0.000,0.000,0.000
1643253884318214912,2022-01-27-03:24:44,10.1.1.2,42,-0.421,-0.421,-0.421,0.000,0.000,0.000
1643253884499418880,2022-01-27-03:24:44,10.1.1.2,22,-0.430,-0.430,-0.430,0.000,0.000,0.000
1643253884699676160,2022-01-27-03:24:44,10.1.1.2,21,-0.440,-0.440,-0.440,0.000,0.000,0.000
1643253884899123968,2022-01-27-03:24:44,10.1.1.2,18,-0.450,-0.450,-0.450,0.000,0.000,0.000
1643253885116852992,2022-01-27-03:24:45,10.1.1.2,35,-0.460,-0.460,-0.460,0.000,0.000,0.000
1643253885300201984,2022-01-27-03:24:45,10.1.1.2,16,-0.470,-0.470,-0.470,0.000,0.000,0.000
1643253885517537024,2022-01-27-03:24:45,10.1.1.2,30,-0.481,-0.481,-0.481,0.000,0.000,0.000
1643253885700606976,2022-01-27-03:24:45,10.1.1.2,11,-0.490,-0.490,-0.490,0.000,0.000,0.000
1643253885918857984,2022-01-27-03:24:45,10.1.1.2,29,-0.479,-0.479,-0.479,0.000,0.000,0.000
1643253886117161984,2022-01-27-03:24:46,10.1.1.2,26,-0.469,-0.469,-0.469,0.000,0.000,0.000
1643253886319160832,2022-01-27-03:24:46,10.1.1.2,27,-0.459,-0.459,-0.459,0.000,0.000,0.000
1643253886516943104,2022-01-27-03:24:46,10.1.1.2,24,-0.449,-0.449,-0.449,0.000,0.000,0.000
1643253886720582912,2022-01-27-03:24:46,10.1.1.2,27,-0.439,-0.439,-0.439,0.000,0.000,0.000
1643253886958628864,2022-01-27-03:24:46,10.1.1.2,64,-0.428,-0.428,-0.428,0.000,0.000,0.000
1643253887120178944,2022-01-27-03:24:47,10.1.1.2,22,-0.420,-0.420,-0.420,0.000,0.000,0.000
1643253887320852992,2022-01-27-03:24:47,10.1.1.2,21,-0.410,-0.410,-0.410,0.000,0.000,0.000
1643253887520423936,2022-01-27-03:24:47,10.1.1.2,19,-0.400,-0.400,-0.400,0.000,0.000,0.000
1643253887721255168,2022-01-27-03:24:47,10.1.1.2,19,-0.390,-0.390,-0.390,0.000,0.000,0.000
1643253887940582144,2022-01-27-03:24:47,10.1.1.2,37,-0.379,-0.379,-0.379,0.000,0.000,0.000
1643253888120871168,2022-01-27-03:24:48,10.1.1.2,16,-0.370,-0.370,-0.370,0.000,0.000,0.000
1643253888353907968,2022-01-27-03:24:48,10.1.1.2,49,-0.359,-0.359,-0.359,0.000,0.000,0.000
1643253888533773056,2022-01-27-03:24:48,10.1.1.2,27,-0.349,-0.349,-0.349,0.000,0.000,0.000
1643253888751630080,2022-01-27-03:24:48,10.1.1.2,43,-0.339,-0.339,-0.339,0.000,0.000,0.000
1643253888934703104,2022-01-27-03:24:48,10.1.1.2,24,-0.330,-0.330,-0.330,0.000,0.000,0.000
1643253889154827008,2022-01-27-03:24:49,10.1.1.2,43,-0.319,-0.319,-0.319,0.000,0.000,0.000
1643253889353773056,2022-01-27-03:24:49,10.1.1.2,38,-0.309,-0.309,-0.309,0.000,0.000,0.000
1643253889537240064,2022-01-27-03:24:49,10.1.1.2,21,-0.300,-0.300,-0.300,0.000,0.000,0.000
1643253889763791104,2022-01-27-03:24:49,10.1.1.2,46,-0.289,-0.289,-0.289,0.000,0.000,0.000
1643253889936642816,2022-01-27-03:24:49,10.1.1.2,15,-0.280,-0.280,-0.280,0.000,0.000,0.000
1643253890138100992,2022-01-27-03:24:50,10.1.1.2,16,-0.270,-0.270,-0.270,0.000,0.000,0.000
1643253890367429888,2022-01-27-03:24:50,10.1.1.2,44,-0.259,-0.259,-0.259,0.000,0.000,0.000
1643253890564340224,2022-01-27-03:24:50,10.1.1.2,41,-0.249,-0.249,-0.249,0.000,0.000,0.000
1643253890758892032,2022-01-27-03:24:50,10.1.1.2,34,-0.239,-0.239,-0.239,0.000,0.000,0.000
1643253890956932096,2022-01-27-03:24:50,10.1.1.2,31,-0.229,-0.229,-0.229,0.000,0.000,0.000
1643253891158482944,2022-01-27-03:24:51,10.1.1.2,32,-0.219,-0.219,-0.219,0.000,0.000,0.000
1643253891357048064,2022-01-27-03:24:51,10.1.1.2,29,-0.210,-0.210,-0.210,0.000,0.000,0.000
1643253891556745984,2022-01-27-03:24:51,10.1.1.2,28,-0.199,-0.199,-0.199,0.000,0.000,0.000
1643253891755759872,2022-01-27-03:24:51,10.1.1.2,26,-0.189,-0.189,-0.189,0.000,0.000,0.000
1643253891961113088,2022-01-27-03:24:51,10.1.1.2,30,-0.179,-0.179,-0.179,0.000,0.000,0.000
1643253892155503104,2022-01-27-03:24:52,10.1.1.2,23,-0.170,-0.170,-0.170,0.000,0.000,0.000
1643253892358056960,2022-01-27-03:24:52,10.1.1.2,22,-0.160,-0.160,-0.160,0.000,0.000,0.000
1643253892578577920,2022-01-27-03:24:52,10.1.1.2,40,-0.149,-0.149,-0.149,0.000,0.000,0.000
1643253892768933120,2022-01-27-03:24:52,10.1.1.2,30,-0.140,-0.140,-0.140,0.000,0.000,0.000
1643253892959001088,2022-01-27-03:24:52,10.1.1.2,18,-0.130,-0.130,-0.130,0.000,0.000,0.000
1643253893158793984,2022-01-27-03:24:53,10.1.1.2,17,-0.120,-0.120,-0.120,0.000,0.000,0.000
1643253893358406912,2022-01-27-03:24:53,10.1.1.2,16,-0.110,-0.110,-0.110,0.000,0.000,0.000
1643253893560499968,2022-01-27-03:24:53,10.1.1.2,16,-0.100,-0.100,-0.100,0.000,0.000,0.000
1643253893776345088,2022-01-27-03:24:53,10.1.1.2,30,-0.089,-0.089,-0.089,0.000,0.000,0.000
1643253893976370176,2022-01-27-03:24:53,10.1.1.2,29,-0.079,-0.079,-0.079,0.000,0.000,0.000
1643253894180869120,2022-01-27-03:24:54,10.1.1.2,32,-0.070,-0.070,-0.070,0.000,0.000,0.000
1643253894381118976,2022-01-27-03:24:54,10.1.1.2,32,-0.059,-0.059,-0.059,0.000,0.000,0.000
1643253894581195008,2022-01-27-03:24:54,10.1.1.2,30,-0.049,-0.049,-0.049,0.000,0.000,0.000
1643253894781356032,2022-01-27-03:24:54,10.1.1.2,29,-0.039,-0.039,-0.039,0.000,0.000,0.000
1643253894981448960,2022-01-27-03:24:54,10.1.1.2,28,-0.030,-0.030,-0.030,0.000,0.000,0.000
1643253895181637888,2022-01-27-03:24:55,10.1.1.2,27,-0.019,-0.019,-0.019,0.000,0.000,0.000
1643253895372978944,2022-01-27-03:24:55,10.1.1.2,17,-0.010,-0.010,-0.010,0.000,0.000,0.000
1643253895561033984,2022-01-27-03:24:55,10.1.1.2,3,-0.000,-0.000,-0.000,0.000,0.000,0.000
1643253895780438016,2022-01-27-03:24:55,10.1.1.2,23,-0.010,-0.010,-0.010,0.000,0.000,0.000
1643253895995934976,2022-01-27-03:24:55,10.1.1.2,37,-0.021,-0.021,-0.021,0.000,0.000,0.000
1643253896179160064,2022-01-27-03:24:56,10.1.1.2,19,-0.030,-0.030,-0.030,0.000,0.000,0.000
1643253896395531008,2022-01-27-03:24:56,10.1.1.2,35,-0.041,-0.041,-0.041,0.000,0.000,0.000
1643253896596084992,2022-01-27-03:24:56,10.1.1.2,32,-0.051,-0.051,-0.051,0.000,0.000,0.000
1643253896794870016,2022-01-27-03:24:56,10.1.1.2,31,-0.060,-0.060,-0.060,0.000,0.000,0.000
1643253896995363072,2022-01-27-03:24:56,10.1.1.2,31,-0.071,-0.071,-0.071,0.000,0.000,0.000
1643253897195749120,2022-01-27-03:24:57,10.1.1.2,30,-0.081,-0.081,-0.081,0.000,0.000,0.000
1643253897392174848,2022-01-27-03:24:57,10.1.1.2,25,-0.091,-0.091,-0.091,0.000,0.000,0.000
1643253897610276096,2022-01-27-03:24:57,10.1.1.2,43,-0.101,-0.101,-0.101,0.000,0.000,0.000
1643253897792236032,2022-01-27-03:24:57,10.1.1.2,24,-0.110,-0.110,-0.110,0.000,0.000,0.000
1643253897992602112,2022-01-27-03:24:57,10.1.1.2,23,-0.120,-0.120,-0.120,0.000,0.000,0.000
1643253898214170880,2022-01-27-03:24:58,10.1.1.2,43,-0.131,-0.131,-0.131,0.000,0.000,0.000
1643253898412096000,2022-01-27-03:24:58,10.1.1.2,38,-0.141,-0.141,-0.141,0.000,0.000,0.000
1643253898594371072,2022-01-27-03:24:58,10.1.1.2,20,-0.150,-0.150,-0.150,0.000,0.000,0.000
1643253898813044992,2022-01-27-03:24:58,10.1.1.2,38,-0.161,-0.161,-0.161,0.000,0.000,0.000
1643253898992680960,2022-01-27-03:24:58,10.1.1.2,16,-0.170,-0.170,-0.170,0.000,0.000,0.000
1643253899193232128,2022-01-27-03:24:59,10.1.1.2,16,-0.180,-0.180,-0.180,0.000,0.000,0.000
1643253899392813824,2022-01-27-03:24:59,10.1.1.2,15,-0.190,-0.190,-0.190,0.000,0.000,0.000
1643253899613254912,2022-01-27-03:24:59,10.1.1.2,34,-0.201,-0.201,-0.201,0.000,0.000,0.000
1643253899813972992,2022-01-27-03:24:59,10.1.1.2,34,-0.211,-0.211,-0.211,0.000,0.000,0.000
1643253900013536000,2022-01-27-03:25:00,10.1.1.2,30,-0.221,-0.221,-0.221,0.000,0.000,0.000
1643253900213011968,2022-01-27-03:25:00,10.1.1.2,28,-0.231,-0.231,-0.231,0.000,0.000,0.000
1643253900432861952,2022-01-27-03:25:00,10.1.1.2,43,-0.241,-0.241,-0.241,0.000,0.000,0.000
1643253900612723968,2022-01-27-03:25:00,10.1.1.2,22,-0.250,-0.250,-0.250,0.000,0.000,0.000
1643253900812980992,2022-01-27-03:25:00,10.1.1.2,21,-0.260,-0.260,-0.260,0.000,0.000,0.000
1643253901033870848,2022-01-27-03:25:01,10.1.1.2,40,-0.271,-0.271,-0.271,0.000,0.000,0.000
1643253901215352064,2022-01-27-03:25:01,10.1.1.2,20,-0.280,-0.280,-0.280,0.000,0.000,0.000
1643253901412827904,2022-01-27-03:25:01,10.1.1.2,17,-0.290,-0.290,-0.290,0.000,0.000,0.000
1643253901632594176,2022-01-27-03:25:01,10.1.1.2,36,-0.301,-0.301,-0.301,0.000,0.000,0.000
1643253901818598912,2022-01-27-03:25:01,10.1.1.2,21,-0.310,-0.310,-0.310,0.000,0.000,0.000
1643253902013714176,2022-01-27-03:25:02,10.1.1.2,15,-0.320,-0.320,-0.320,0.000,0.000,0.000
1643253902235974144,2022-01-27-03:25:02,10.1.1.2,35,-0.331,-0.331,-0.331,0.000,0.000,0.000
1643253902435513088,2022-01-27-03:25:02,10.1.1.2,35,-0.341,-0.341,-0.341,0.000,0.000,0.000
1643253902635076096,2022-01-27-03:25:02,10.1.1.2,33,-0.351,-0.351,-0.351,0.000,0.000,0.000
1643253902832828160,2022-01-27-03:25:02,10.1.1.2,26,-0.361,-0.361,-0.361,0.000,0.000,0.000
1643253903032504064,2022-01-27-03:25:03,10.1.1.2,22,-0.370,-0.370,-0.370,0.000,0.000,0.000
1643253903255109120,2022-01-27-03:25:03,10.1.1.2,43,-0.381,-0.381,-0.381,0.000,0.000,0.000
1643253903433646080,2022-01-27-03:25:03,10.1.1.2,21,-0.390,-0.390,-0.390,0.000,0.000,0.000
1643253903633980928,2022-01-27-03:25:03,10.1.1.2,20,-0.400,-0.400,-0.400,0.000,0.000,0.000
1643253903833508864,2022-01-27-03:25:03,10.1.1.2,18,-0.410,-0.410,-0.410,0.000,0.000,0.000
1643253904032336896,2022-01-27-03:25:04,10.1.1.2,16,-0.420,-0.420,-0.420,0.000,0.000,0.000
1643253904253544192,2022-01-27-03:25:04,10.1.1.2,36,-0.431,-0.431,-0.431,0.000,0.000,0.000
1643253904432788992,2022-01-27-03:25:04,10.1.1.2,15,-0.440,-0.440,-0.440,0.000,0.000,0.000
1643253904664114944,2022-01-27-03:25:04,10.1.1.2,46,-0.451,-0.451,-0.451,0.000,0.000,0.000
1643253904855609856,2022-01-27-03:25:04,10.1.1.2,35,-0.461,-0.461,-0.461,0.000,0.000,0.000
1643253905053556992,2022-01-27-03:25:05,10.1.1.2,31,-0.471,-0.471,-0.471,0.000,0.000,0.000
1643253905252870144,2022-01-27-03:25:05,10.1.1.2,30,-0.481,-0.481,-0.481,0.000,0.000,0.000
1643253905433741056,2022-01-27-03:25:05,10.1.1.2,10,-0.490,-0.490,-0.490,0.000,0.000,0.000
1643253905674515968,2022-01-27-03:25:05,10.1.1.2,49,-0.479,-0.479,-0.479,0.000,0.000,0.000
1643253905853992960,2022-01-27-03:25:05,10.1.1.2,28,-0.469,-0.469,-0.469,0.000,0.000,0.000
1643253906053446912,2022-01-27-03:25:06,10.1.1.2,26,-0.459,-0.459,-0.459,0.000,0.000,0.000
1643253906253172992,2022-01-27-03:25:06,10.1.1.2,25,-0.450,-0.450,-0.450,0.000,0.000,0.000
1643253906454121984,2022-01-27-03:25:06,10.1.1.2,24,-0.440,-0.440,-0.440,0.000,0.000,0.000
1643253906653367040,2022-01-27-03:25:06,10.1.1.2,22,-0.430,-0.430,-0.430,0.000,0.000,0.000
1643253906854358016,2022-01-27-03:25:06,10.1.1.2,22,-0.420,-0.420,-0.420,0.000,0.000,0.000
1643253907073665024,2022-01-27-03:25:07,10.1.1.2,40,-0.409,-0.409,-0.409,0.000,0.000,0.000
1643253907254099968,2022-01-27-03:25:07,10.1.1.2,18,-0.400,-0.400,-0.400,0.000,0.000,0.000
1643253907474204160,2022-01-27-03:25:07,10.1.1.2,34,-0.389,-0.389,-0.389,0.000,0.000,0.000
1643253907680145152,2022-01-27-03:25:07,10.1.1.2,36,-0.380,-0.380,-0.380,0.000,0.000,0.000
1643253907873275136,2022-01-27-03:25:07,10.1.1.2,29,-0.370,-0.370,-0.370,0.000,0.000,0.000
1643253908074022912,2022-01-27-03:25:08,10.1.1.2,28,-0.359,-0.359,-0.359,0.000,0.000,0.000
1643253908274688000,2022-01-27-03:25:08,10.1.1.2,27,-0.349,-0.349,-0.349,0.000,0.000,0.000
1643253908474407936,2022-01-27-03:25:08,10.1.1.2,25,-0.339,-0.339,-0.339,0.000,0.000,0.000
1643253908672958976,2022-01-27-03:25:08,10.1.1.2,23,-0.330,-0.330,-0.330,0.000,0.000,0.000
1643253908873920000,2022-01-27-03:25:08,10.1.1.2,22,-0.320,-0.320,-0.320,0.000,0.000,0.000
1643253909095374080,2022-01-27-03:25:09,10.1.1.2,40,-0.309,-0.309,-0.309,0.000,0.000,0.000
1643253909293265152,2022-01-27-03:25:09,10.1.1.2,39,-0.299,-0.299,-0.299,0.000,0.000,0.000
1643253909475999232,2022-01-27-03:25:09,10.1.1.2,18,-0.290,-0.290,-0.290,0.000,0.000,0.000
1643253909673719040,2022-01-27-03:25:09,10.1.1.2,13,-0.280,-0.280,-0.280,0.000,0.000,0.000
1643253909876091904,2022-01-27-03:25:09,10.1.1.2,15,-0.270,-0.270,-0.270,0.000,0.000,0.000
1643253910094192128,2022-01-27-03:25:10,10.1.1.2,30,-0.259,-0.259,-0.259,0.000,0.000,0.000
1643253910294755840,2022-01-27-03:25:10,10.1.1.2,29,-0.249,-0.249,-0.249,0.000,0.000,0.000
1643253910492841984,2022-01-27-03:25:10,10.1.1.2,22,-0.240,-0.240,-0.240,0.000,0.000,0.000
1643253910713427968,2022-01-27-03:25:10,10.1.1.2,40,-0.229,-0.229,-0.229,0.000,0.000,0.000
1643253910914841856,2022-01-27-03:25:10,10.1.1.2,40,-0.219,-0.219,-0.219,0.000,0.000,0.000
1643253911093586944,2022-01-27-03:25:11,10.1.1.2,17,-0.210,-0.210,-0.210,0.000,0.000,0.000
1643253911293273856,2022-01-27-03:25:11,10.1.1.2,15,-0.200,-0.200,-0.200,0.000,0.000,0.000
1643253911514478848,2022-01-27-03:25:11,10.1.1.2,34,-0.189,-0.189,-0.189,0.000,0.000,0.000
1643253911713310976,2022-01-27-03:25:11,10.1.1.2,32,-0.179,-0.179,-0.179,0.000,0.000,0.000
1643253911917125888,2022-01-27-03:25:11,10.1.1.2,34,-0.169,-0.169,-0.169,0.000,0.000,0.000
1643253912113605120,2022-01-27-03:25:12,10.1.1.2,28,-0.160,-0.160,-0.160,0.000,0.000,0.000
1643253912314168064,2022-01-27-03:25:12,10.1.1.2,28,-0.150,-0.150,-0.150,0.000,0.000,0.000
1643253912513139968,2022-01-27-03:25:12,10.1.1.2,25,-0.139,-0.139,-0.139,0.000,0.000,0.000
1643253912713501952,2022-01-27-03:25:12,10.1.1.2,24,-0.130,-0.130,-0.130,0.000,0.000,0.000
1643253912912559104,2022-01-27-03:25:12,10.1.1.2,22,-0.120,-0.120,-0.120,0.000,0.000,0.000
1643253913113820928,2022-01-27-03:25:13,10.1.1.2,22,-0.110,-0.110,-0.110,0.000,0.000,0.000
1643253913313472000,2022-01-27-03:25:13,10.1.1.2,19,-0.100,-0.100,-0.100,0.000,0.000,0.000
1643253913512748032,2022-01-27-03:25:13,10.1.1.2,14,-0.090,-0.090,-0.090,0.000,0.000,0.000
1643253913713932032,2022-01-27-03:25:13,10.1.1.2,13,-0.080,-0.080,-0.080,0.000,0.000,0.000
1643253913933960960,2022-01-27-03:25:13,10.1.1.2,32,-0.069,-0.069,-0.069,0.000,0.000,0.000
1643253914133630976,2022-01-27-03:25:14,10.1.1.2,30,-0.059,-0.059,-0.059,0.000,0.000,0.000
1643253914334417152,2022-01-27-03:25:14,10.1.1.2,30,-0.049,-0.049,-0.049,0.000,0.000,0.000
1643253914534265088,2022-01-27-03:25:14,10.1.1.2,29,-0.039,-0.039,-0.039,0.000,0.000,0.000
1643253914734409984,2022-01-27-03:25:14,10.1.1.2,29,-0.029,-0.029,-0.029,0.000,0.000,0.000
1643253914933862912,2022-01-27-03:25:14,10.1.1.2,24,-0.020,-0.020,-0.020,0.000,0.000,0.000
1643253915152889088,2022-01-27-03:25:15,10.1.1.2,42,-0.009,-0.009,-0.009,0.000,0.000,0.000
1643253915314355968,2022-01-27-03:25:15,10.1.1.2,2,-0.001,-0.001,-0.001,0.000,0.000,0.000
1643253915541954048,2022-01-27-03:25:15,10.1.1.2,25,-0.010,-0.010,-0.010,0.000,0.000,0.000
1643253915753565952,2022-01-27-03:25:15,10.1.1.2,34,-0.021,-0.021,-0.021,0.000,0.000,0.000
1643253915954600960,2022-01-27-03:25:15,10.1.1.2,32,-0.031,-0.031,-0.031,0.000,0.000,0.000
1643253916153893888,2022-01-27-03:25:16,10.1.1.2,30,-0.041,-0.041,-0.041,0.000,0.000,0.000
1643253916353236992,2022-01-27-03:25:16,10.1.1.2,28,-0.051,-0.051,-0.051,0.000,0.000,0.000
1643253916554374912,2022-01-27-03:25:16,10.1.1.2,28,-0.061,-0.061,-0.061,0.000,0.000,0.000
1643253916754268928,2022-01-27-03:25:16,10.1.1.2,25,-0.071,-0.071,-0.071,0.000,0.000,0.000
1643253916953947136,2022-01-27-03:25:16,10.1.1.2,25,-0.081,-0.081,-0.081,0.000,0.000,0.000
1643253917152806912,2022-01-27-03:25:17,10.1.1.2,22,-0.090,-0.090,-0.090,0.000,0.000,0.000
1643253917353876992,2022-01-27-03:25:17,10.1.1.2,21,-0.100,-0.100,-0.100,0.000,0.000,0.000
1643253917553500928,2022-01-27-03:25:17,10.1.1.2,17,-0.110,-0.110,-0.110,0.000,0.000,0.000
1643253917753519104,2022-01-27-03:25:17,10.1.1.2,16,-0.120,-0.120,-0.120,0.000,0.000,0.000
1643253917953773056,2022-01-27-03:25:17,10.1.1.2,16,-0.130,-0.130,-0.130,0.000,0.000,0.000
1643253918154181888,2022-01-27-03:25:18,10.1.1.2,16,-0.140,-0.140,-0.140,0.000,0.000,0.000
1643253918374170112,2022-01-27-03:25:18,10.1.1.2,35,-0.151,-0.151,-0.151,0.000,0.000,0.000
1643253918581147904,2022-01-27-03:25:18,10.1.1.2,41,-0.161,-0.161,-0.161,0.000,0.000,0.000
1643253918777661184,2022-01-27-03:25:18,10.1.1.2,36,-0.171,-0.171,-0.171,0.000,0.000,0.000
1643253918973165056,2022-01-27-03:25:18,10.1.1.2,30,-0.181,-0.181,-0.181,0.000,0.000,0.000
1643253919179303936,2022-01-27-03:25:19,10.1.1.2,35,-0.190,-0.190,-0.190,0.000,0.000,0.000
1643253919412941056,2022-01-27-03:25:19,10.1.1.2,67,-0.202,-0.202,-0.202,0.000,0.000,0.000
1643253919584279040,2022-01-27-03:25:19,10.1.1.2,36,-0.211,-0.211,-0.211,0.000,0.000,0.000
1643253919781404928,2022-01-27-03:25:19,10.1.1.2,33,-0.221,-0.221,-0.221,0.000,0.000,0.000
1643253919980343040,2022-01-27-03:25:19,10.1.1.2,31,-0.231,-0.231,-0.231,0.000,0.000,0.000
1643253920174635008,2022-01-27-03:25:20,10.1.1.2,25,-0.240,-0.240,-0.240,0.000,0.000,0.000
1643253920383155968,2022-01-27-03:25:20,10.1.1.2,31,-0.251,-0.251,-0.251,0.000,0.000,0.000
1643253920581391104,2022-01-27-03:25:20,10.1.1.2,27,-0.261,-0.261,-0.261,0.000,0.000,0.000
1643253920781529856,2022-01-27-03:25:20,10.1.1.2,27,-0.271,-0.271,-0.271,0.000,0.000,0.000
1643253920979700992,2022-01-27-03:25:20,10.1.1.2,24,-0.281,-0.281,-0.281,0.000,0.000,0.000
1643253921181571840,2022-01-27-03:25:21,10.1.1.2,25,-0.290,-0.290,-0.290,0.000,0.000,0.000
1643253921380342016,2022-01-27-03:25:21,10.1.1.2,23,-0.300,-0.300,-0.300,0.000,0.000,0.000
1643253921581875968,2022-01-27-03:25:21,10.1.1.2,23,-0.310,-0.310,-0.310,0.000,0.000,0.000
1643253921781580800,2022-01-27-03:25:21,10.1.1.2,22,-0.320,-0.320,-0.320,0.000,0.000,0.000
1643253921980963840,2022-01-27-03:25:21,10.1.1.2,20,-0.330,-0.330,-0.330,0.000,0.000,0.000
1643253922209044992,2022-01-27-03:25:22,10.1.1.2,47,-0.341,-0.341,-0.341,0.000,0.000,0.000
1643253922395424000,2022-01-27-03:25:22,10.1.1.2,33,-0.351,-0.351,-0.351,0.000,0.000,0.000
1643253922595186944,2022-01-27-03:25:22,10.1.1.2,32,-0.361,-0.361,-0.361,0.000,0.000,0.000
1643253922811207168,2022-01-27-03:25:22,10.1.1.2,47,-0.371,-0.371,-0.371,0.000,0.000,0.000
1643253922995020032,2022-01-27-03:25:22,10.1.1.2,30,-0.380,-0.380,-0.380,0.000,0.000,0.000
1643253923201432064,2022-01-27-03:25:23,10.1.1.2,36,-0.391,-0.391,-0.391,0.000,0.000,0.000
1643253923396019968,2022-01-27-03:25:23,10.1.1.2,29,-0.400,-0.400,-0.400,0.000,0.000,0.000
1643253923596137984,2022-01-27-03:25:23,10.1.1.2,29,-0.411,-0.411,-0.411,0.000,0.000,0.000
1643253923795834112,2022-01-27-03:25:23,10.1.1.2,26,-0.420,-0.420,-0.420,0.000,0.000,0.000
1643253923995117824,2022-01-27-03:25:23,10.1.1.2,24,-0.431,-0.431,-0.431,0.000,0.000,0.000
1643253924215744000,2022-01-27-03:25:24,10.1.1.2,43,-0.441,-0.441,-0.441,0.000,0.000,0.000
1643253924415869952,2022-01-27-03:25:24,10.1.1.2,39,-0.451,-0.451,-0.451,0.000,0.000,0.000
1643253924596302080,2022-01-27-03:25:24,10.1.1.2,19,-0.460,-0.460,-0.460,0.000,0.000,0.000
1643253924815992064,2022-01-27-03:25:24,10.1.1.2,37,-0.471,-0.471,-0.471,0.000,0.000,0.000
1643253925014450944,2022-01-27-03:25:25,10.1.1.2,35,-0.481,-0.481,-0.481,0.000,0.000,0.000
1643253925195908096,2022-01-27-03:25:25,10.1.1.2,15,-0.490,-0.490,-0.490,0.000,0.000,0.000
1643253925415674880,2022-01-27-03:25:25,10.1.1.2,34,-0.479,-0.479,-0.479,0.000,0.000,0.000
1643253925618180096,2022-01-27-03:25:25,10.1.1.2,35,-0.469,-0.469,-0.469,0.000,0.000,0.000
1643253925798230784,2022-01-27-03:25:25,10.1.1.2,14,-0.460,-0.460,-0.460,0.000,0.000,0.000
1643253926018692864,2022-01-27-03:25:26,10.1.1.2,34,-0.449,-0.449,-0.449,0.000,0.000,0.000
1643253926220835840,2022-01-27-03:25:26,10.1.1.2,34,-0.439,-0.439,-0.439,0.000,0.000,0.000
1643253926419567104,2022-01-27-03:25:26,10.1.1.2,32,-0.429,-0.429,-0.429,0.000,0.000,0.000
1643253926622984960,2022-01-27-03:25:26,10.1.1.2,34,-0.419,-0.419,-0.419,0.000,0.000,0.000
1643253926820013056,2022-01-27-03:25:26,10.1.1.2,29,-0.409,-0.409,-0.409,0.000,0.000,0.000
1643253927019932928,2022-01-27-03:25:27,10.1.1.2,29,-0.399,-0.399,-0.399,0.000,0.000,0.000
1643253927219441920,2022-01-27-03:25:27,10.1.1.2,27,-0.389,-0.389,-0.389,0.000,0.000,0.000
1643253927419645184,2022-01-27-03:25:27,10.1.1.2,26,-0.379,-0.379,-0.379,0.000,0.000,0.000
1643253927667587072,2022-01-27-03:25:27,10.1.1.2,73,-0.369,-0.369,-0.369,0.000,0.000,0.000
1643253927828658944,2022-01-27-03:25:27,10.1.1.2,33,-0.359,-0.359,-0.359,0.000,0.000,0.000
1643253928037499904,2022-01-27-03:25:28,10.1.1.2,42,-0.349,-0.349,-0.349,0.000,0.000,0.000
1643253928219207168,2022-01-27-03:25:28,10.1.1.2,22,-0.340,-0.340,-0.340,0.000,0.000,0.000
1643253928437405952,2022-01-27-03:25:28,10.1.1.2,36,-0.329,-0.329,-0.329,0.000,0.000,0.000
1643253928617168896,2022-01-27-03:25:28,10.1.1.2,15,-0.320,-0.320,-0.320,0.000,0.000,0.000
1643253928837233152,2022-01-27-03:25:28,10.1.1.2,34,-0.309,-0.309,-0.309,0.000,0.000,0.000
1643253929037565952,2022-01-27-03:25:29,10.1.1.2,34,-0.299,-0.299,-0.299,0.000,0.000,0.000
1643253929239064064,2022-01-27-03:25:29,10.1.1.2,34,-0.289,-0.289,-0.289,0.000,0.000,0.000
1643253929439191040,2022-01-27-03:25:29,10.1.1.2,33,-0.279,-0.279,-0.279,0.000,0.000,0.000
1643253929638930176,2022-01-27-03:25:29,10.1.1.2,28,-0.269,-0.269,-0.269,0.000,0.000,0.000
1643253929838208000,2022-01-27-03:25:29,10.1.1.2,25,-0.259,-0.259,-0.259,0.000,0.000,0.000
1643253930076143104,2022-01-27-03:25:30,10.1.1.2,62,-0.250,-0.250,-0.250,0.000,0.000,0.000
1643253930236387072,2022-01-27-03:25:30,10.1.1.2,21,-0.240,-0.240,-0.240,0.000,0.000,0.000
1643253930434083072,2022-01-27-03:25:30,10.1.1.2,18,-0.230,-0.230,-0.230,0.000,0.000,0.000
1643253930634968064,2022-01-27-03:25:30,10.1.1.2,18,-0.220,-0.220,-0.220,0.000,0.000,0.000
1643253930834212096,2022-01-27-03:25:30,10.1.1.2,16,-0.210,-0.210,-0.210,0.000,0.000,0.000
1643253931035129088,2022-01-27-03:25:31,10.1.1.2,16,-0.200,-0.200,-0.200,0.000,0.000,0.000
1643253931255268096,2022-01-27-03:25:31,10.1.1.2,35,-0.189,-0.189,-0.189,0.000,0.000,0.000
1643253931456118016,2022-01-27-03:25:31,10.1.1.2,35,-0.179,-0.179,-0.179,0.000,0.000,0.000
1643253931653702144,2022-01-27-03:25:31,10.1.1.2,32,-0.169,-0.169,-0.169,0.000,0.000,0.000
1643253931854393856,2022-01-27-03:25:31,10.1.1.2,30,-0.159,-0.159,-0.159,0.000,0.000,0.000
1643253932054580992,2022-01-27-03:25:32,10.1.1.2,29,-0.149,-0.149,-0.149,0.000,0.000,0.000
1643253932253842944,2022-01-27-03:25:32,10.1.1.2,25,-0.140,-0.140,-0.140,0.000,0.000,0.000
1643253932454041088,2022-01-27-03:25:32,10.1.1.2,24,-0.129,-0.129,-0.129,0.000,0.000,0.000
1643253932653996032,2022-01-27-03:25:32,10.1.1.2,23,-0.120,-0.120,-0.120,0.000,0.000,0.000
1643253932855346944,2022-01-27-03:25:32,10.1.1.2,23,-0.110,-0.110,-0.110,0.000,0.000,0.000
1643253933054546176,2022-01-27-03:25:33,10.1.1.2,22,-0.100,-0.100,-0.100,0.000,0.000,0.000
1643253933255364864,2022-01-27-03:25:33,10.1.1.2,21,-0.090,-0.090,-0.090,0.000,0.000,0.000
1643253933454880000,2022-01-27-03:25:33,10.1.1.2,20,-0.080,-0.080,-0.080,0.000,0.000,0.000
1643253933674396928,2022-01-27-03:25:33,10.1.1.2,38,-0.069,-0.069,-0.069,0.000,0.000,0.000
1643253933877725952,2022-01-27-03:25:33,10.1.1.2,41,-0.059,-0.059,-0.059,0.000,0.000,0.000
1643253934054440960,2022-01-27-03:25:34,10.1.1.2,17,-0.050,-0.050,-0.050,0.000,0.000,0.000
1643253934259336960,2022-01-27-03:25:34,10.1.1.2,20,-0.040,-0.040,-0.040,0.000,0.000,0.000
1643253934475953152,2022-01-27-03:25:34,10.1.1.2,33,-0.030,-0.030,-0.030,0.000,0.000,0.000
1643253934674795008,2022-01-27-03:25:34,10.1.1.2,30,-0.020,-0.020,-0.020,0.000,0.000,0.000
1643253934873837056,2022-01-27-03:25:34,10.1.1.2,26,-0.009,-0.009,-0.009,0.000,0.000,0.000
1643253935054189824,2022-01-27-03:25:35,10.1.1.2,3,-0.000,-0.000,-0.000,0.000,0.000,0.000
1643253935275140096,2022-01-27-03:25:35,10.1.1.2,21,-0.010,-0.010,-0.010,0.000,0.000,0.000
1643253935474085120,2022-01-27-03:25:35,10.1.1.2,17,-0.020,-0.020,-0.020,0.000,0.000,0.000
1643253935694225920,2022-01-27-03:25:35,10.1.1.2,36,-0.031,-0.031,-0.031,0.000,0.000,0.000
1643253935875614976,2022-01-27-03:25:35,10.1.1.2,17,-0.040,-0.040,-0.040,0.000,0.000,0.000
1643253936099809024,2022-01-27-03:25:36,10.1.1.2,39,-0.051,-0.051,-0.051,0.000,0.000,0.000
1643253936300708096,2022-01-27-03:25:36,10.1.1.2,37,-0.060,-0.060,-0.060,0.000,0.000,0.000
1643253936494587904,2022-01-27-03:25:36,10.1.1.2,30,-0.070,-0.070,-0.070,0.000,0.000,0.000
1643253936674856960,2022-01-27-03:25:36,10.1.1.2,9,-0.080,-0.080,-0.080,0.000,0.000,0.000
1643253936895558144,2022-01-27-03:25:36,10.1.1.2,29,-0.090,-0.090,-0.090,0.000,0.000,0.000
1643253937096153856,2022-01-27-03:25:37,10.1.1.2,28,-0.101,-0.101,-0.101,0.000,0.000,0.000
1643253937297020928,2022-01-27-03:25:37,10.1.1.2,27,-0.111,-0.111,-0.111,0.000,0.000,0.000
1643253937494963968,2022-01-27-03:25:37,10.1.1.2,25,-0.121,-0.121,-0.121,0.000,0.000,0.000
1643253937694971136,2022-01-27-03:25:37,10.1.1.2,24,-0.130,-0.130,-0.130,0.000,0.000,0.000
1643253937896177152,2022-01-27-03:25:37,10.1.1.2,25,-0.140,-0.140,-0.140,0.000,0.000,0.000
1643253938095855872,2022-01-27-03:25:38,10.1.1.2,21,-0.150,-0.150,-0.150,0.000,0.000,0.000
1643253938295727872,2022-01-27-03:25:38,10.1.1.2,19,-0.160,-0.160,-0.160,0.000,0.000,0.000
1643253938495065856,2022-01-27-03:25:38,10.1.1.2,18,-0.170,-0.170,-0.170,0.000,0.000,0.000
1643253938718828032,2022-01-27-03:25:38,10.1.1.2,41,-0.181,-0.181,-0.181,0.000,0.000,0.000
1643253938918721024,2022-01-27-03:25:38,10.1.1.2,40,-0.191,-0.191,-0.191,0.000,0.000,0.000
1643253939099196928,2022-01-27-03:25:39,10.1.1.2,19,-0.200,-0.200,-0.200,0.000,0.000,0.000
1643253939299681792,2022-01-27-03:25:39,10.1.1.2,18,-0.210,-0.210,-0.210,0.000,0.000,0.000
1643253939499371008,2022-01-27-03:25:39,10.1.1.2,17,-0.220,-0.220,-0.220,0.000,0.000,0.000
1643253939716036096,2022-01-27-03:25:39,10.1.1.2,33,-0.231,-0.231,-0.231,0.000,0.000,0.000
1643253939919495936,2022-01-27-03:25:39,10.1.1.2,35,-0.241,-0.241,-0.241,0.000,0.000,0.000
1643253940118654976,2022-01-27-03:25:40,10.1.1.2,34,-0.251,-0.251,-0.251,0.000,0.000,0.000
1643253940319134976,2022-01-27-03:25:40,10.1.1.2,33,-0.261,-0.261,-0.261,0.000,0.000,0.000
1643253940518850048,2022-01-27-03:25:40,10.1.1.2,31,-0.271,-0.271,-0.271,0.000,0.000,0.000
1643253940719902976,2022-01-27-03:25:40,10.1.1.2,31,-0.281,-0.281,-0.281,0.000,0.000,0.000
1643253940918808832,2022-01-27-03:25:40,10.1.1.2,29,-0.291,-0.291,-0.291,0.000,0.000,0.000
1643253941118529024,2022-01-27-03:25:41,10.1.1.2,27,-0.301,-0.301,-0.301,0.000,0.000,0.000
1643253941319109888,2022-01-27-03:25:41,10.1.1.2,26,-0.310,-0.310,-0.310,0.000,0.000,0.000
1643253941520396032,2022-01-27-03:25:41,10.1.1.2,27,-0.321,-0.321,-0.321,0.000,0.000,0.000
1643253941738752000,2022-01-27-03:25:41,10.1.1.2,42,-0.331,-0.331,-0.331,0.000,0.000,0.000
1643253941940009984,2022-01-27-03:25:41,10.1.1.2,41,-0.341,-0.341,-0.341,0.000,0.000,0.000
1643253942119035904,2022-01-27-03:25:42,10.1.1.2,19,-0.350,-0.350,-0.350,0.000,0.000,0.000
1643253942319515904,2022-01-27-03:25:42,10.1.1.2,18,-0.360,-0.360,-0.360,0.000,0.000,0.000
1643253942519220224,2022-01-27-03:25:42,10.1.1.2,16,-0.370,-0.370,-0.370,0.000,0.000,0.000
1643253942740072960,2022-01-27-03:25:42,10.1.1.2,36,-0.381,-0.381,-0.381,0.000,0.000,0.000
1643253942938607104,2022-01-27-03:25:42,10.1.1.2,32,-0.391,-0.391,-0.391,0.000,0.000,0.000
1643253943139417856,2022-01-27-03:25:43,10.1.1.2,33,-0.401,-0.401,-0.401,0.000,0.000,0.000
1643253943341934080,2022-01-27-03:25:43,10.1.1.2,33,-0.410,-0.410,-0.410,0.000,0.000,0.000
1643253943538755840,2022-01-27-03:25:43,10.1.1.2,28,-0.421,-0.421,-0.421,0.000,0.000,0.000
1643253943738918144,2022-01-27-03:25:43,10.1.1.2,27,-0.431,-0.431,-0.431,0.000,0.000,0.000
1643253943939571968,2022-01-27-03:25:43,10.1.1.2,27,-0.441,-0.441,-0.441,0.000,0.000,0.000
1643253944139689984,2022-01-27-03:25:44,10.1.1.2,26,-0.451,-0.451,-0.451,0.000,0.000,0.000
1643253944338668032,2022-01-27-03:25:44,10.1.1.2,24,-0.461,-0.461,-0.461,0.000,0.000,0.000
1643253944538573056,2022-01-27-03:25:44,10.1.1.2,23,-0.470,-0.470,-0.470,0.000,0.000,0.000
1643253944758552064,2022-01-27-03:25:44,10.1.1.2,42,-0.481,-0.481,-0.481,0.000,0.000,0.000
1643253944918551040,2022-01-27-03:25:44,10.1.1.2,2,-0.489,-0.489,-0.489,0.000,0.000,0.000
1643253945159915008,2022-01-27-03:25:45,10.1.1.2,42,-0.479,-0.479,-0.479,0.000,0.000,0.000
1643253945338802944,2022-01-27-03:25:45,10.1.1.2,20,-0.470,-0.470,-0.470,0.000,0.000,0.000
1643253945558526976,2022-01-27-03:25:45,10.1.1.2,39,-0.459,-0.459,-0.459,0.000,0.000,0.000
1643253945739144192,2022-01-27-03:25:45,10.1.1.2,18,-0.450,-0.450,-0.450,0.000,0.000,0.000
1643253945938870784,2022-01-27-03:25:45,10.1.1.2,17,-0.440,-0.440,-0.440,0.000,0.000,0.000
1643253946158160896,2022-01-27-03:25:46,10.1.1.2,36,-0.429,-0.429,-0.429,0.000,0.000,0.000
1643253946358552832,2022-01-27-03:25:46,10.1.1.2,35,-0.419,-0.419,-0.419,0.000,0.000,0.000
1643253946558927104,2022-01-27-03:25:46,10.1.1.2,35,-0.409,-0.409,-0.409,0.000,0.000,0.000
1643253946759077120,2022-01-27-03:25:46,10.1.1.2,34,-0.399,-0.399,-0.399,0.000,0.000,0.000
1643253946960009984,2022-01-27-03:25:46,10.1.1.2,33,-0.389,-0.389,-0.389,0.000,0.000,0.000
1643253947161629952,2022-01-27-03:25:47,10.1.1.2,34,-0.380,-0.380,-0.380,0.000,0.000,0.000
1643253947361134080,2022-01-27-03:25:47,10.1.1.2,33,-0.369,-0.369,-0.369,0.000,0.000,0.000
1643253947560596992,2022-01-27-03:25:47,10.1.1.2,31,-0.359,-0.359,-0.359,0.000,0.000,0.000
1643253947760613888,2022-01-27-03:25:47,10.1.1.2,30,-0.349,-0.349,-0.349,0.000,0.000,0.000
1643253947960740096,2022-01-27-03:25:47,10.1.1.2,29,-0.339,-0.339,-0.339,0.000,0.000,0.000
1643253948160729856,2022-01-27-03:25:48,10.1.1.2,28,-0.329,-0.329,-0.329,0.000,0.000,0.000
1643253948360865024,2022-01-27-03:25:48,10.1.1.2,27,-0.320,-0.320,-0.320,0.000,0.000,0.000
1643253948560269056,2022-01-27-03:25:48,10.1.1.2,26,-0.310,-0.310,-0.310,0.000,0.000,0.000
1643253948759645952,2022-01-27-03:25:48,10.1.1.2,24,-0.299,-0.299,-0.299,0.000,0.000,0.000
1643253948961286912,2022-01-27-03:25:48,10.1.1.2,24,-0.289,-0.289,-0.289,0.000,0.000,0.000
1643253949187239936,2022-01-27-03:25:49,10.1.1.2,48,-0.280,-0.280,-0.280,0.000,0.000,0.000
1643253949377583872,2022-01-27-03:25:49,10.1.1.2,37,-0.269,-0.269,-0.269,0.000,0.000,0.000
1643253949559593984,2022-01-27-03:25:49,10.1.1.2,18,-0.260,-0.260,-0.260,0.000,0.000,0.000
1643253949776804096,2022-01-27-03:25:49,10.1.1.2,34,-0.249,-0.249,-0.249,0.000,0.000,0.000
1643253949976901888,2022-01-27-03:25:49,10.1.1.2,33,-0.239,-0.239,-0.239,0.000,0.000,0.000
1643253950176524032,2022-01-27-03:25:50,10.1.1.2,31,-0.229,-0.229,-0.229,0.000,0.000,0.000
1643253950377115136,2022-01-27-03:25:50,10.1.1.2,31,-0.219,-0.219,-0.219,0.000,0.000,0.000
1643253950577779968,2022-01-27-03:25:50,10.1.1.2,31,-0.209,-0.209,-0.209,0.000,0.000,0.000
1643253950776843008,2022-01-27-03:25:50,10.1.1.2,29,-0.199,-0.199,-0.199,0.000,0.000,0.000
1643253950976887040,2022-01-27-03:25:50,10.1.1.2,28,-0.189,-0.189,-0.189,0.000,0.000,0.000
1643253951176584960,2022-01-27-03:25:51,10.1.1.2,27,-0.180,-0.180,-0.180,0.000,0.000,0.000
1643253951376913920,2022-01-27-03:25:51,10.1.1.2,26,-0.169,-0.169,-0.169,0.000,0.000,0.000
1643253951576798976,2022-01-27-03:25:51,10.1.1.2,24,-0.160,-0.160,-0.160,0.000,0.000,0.000
1643253951776649984,2022-01-27-03:25:51,10.1.1.2,23,-0.150,-0.150,-0.150,0.000,0.000,0.000
1643253951977992960,2022-01-27-03:25:51,10.1.1.2,24,-0.140,-0.140,-0.140,0.000,0.000,0.000
1643253952177125888,2022-01-27-03:25:52,10.1.1.2,23,-0.130,-0.130,-0.130,0.000,0.000,0.000
1643253952378024192,2022-01-27-03:25:52,10.1.1.2,22,-0.120,-0.120,-0.120,0.000,0.000,0.000
1643253952577501184,2022-01-27-03:25:52,10.1.1.2,21,-0.110,-0.110,-0.110,0.000,0.000,0.000
1643253952776741120,2022-01-27-03:25:52,10.1.1.2,18,-0.100,-0.100,-0.100,0.000,0.000,0.000
1643253952977200896,2022-01-27-03:25:52,10.1.1.2,17,-0.090,-0.090,-0.090,0.000,0.000,0.000
1643253953176894976,2022-01-27-03:25:53,10.1.1.2,16,-0.080,-0.080,-0.080,0.000,0.000,0.000
1643253953425272832,2022-01-27-03:25:53,10.1.1.2,62,-0.070,-0.070,-0.070,0.000,0.000,0.000
1643253953595719168,2022-01-27-03:25:53,10.1.1.2,31,-0.059,-0.059,-0.059,0.000,0.000,0.000
1643253953822746880,2022-01-27-03:25:53,10.1.1.2,57,-0.049,-0.049,-0.049,0.000,0.000,0.000
1643253953993072128,2022-01-27-03:25:53,10.1.1.2,26,-0.040,-0.040,-0.040,0.000,0.000,0.000
1643253954226874112,2022-01-27-03:25:54,10.1.1.2,59,-0.030,-0.030,-0.030,0.000,0.000,0.000
1643253954398562816,2022-01-27-03:25:54,10.1.1.2,30,-0.019,-0.019,-0.019,0.000,0.000,0.000
1643253954597261056,2022-01-27-03:25:54,10.1.1.2,28,-0.010,-0.010,-0.010,0.000,0.000,0.000
1643253954771970048,2022-01-27-03:25:54,10.1.1.2,1,-0.001,-0.001,-0.001,0.000,0.000,0.000
1643253955013451008,2022-01-27-03:25:55,10.1.1.2,42,-0.011,-0.011,-0.011,0.000,0.000,0.000
1643253955213068032,2022-01-27-03:25:55,10.1.1.2,39,-0.021,-0.021,-0.021,0.000,0.000,0.000
1643253955412406016,2022-01-27-03:25:55,10.1.1.2,36,-0.031,-0.031,-0.031,0.000,0.000,0.000
1643253955594887936,2022-01-27-03:25:55,10.1.1.2,18,-0.040,-0.040,-0.040,0.000,0.000,0.000
1643253955813942784,2022-01-27-03:25:55,10.1.1.2,34,-0.051,-0.051,-0.051,0.000,0.000,0.000
1643253956013597952,2022-01-27-03:25:56,10.1.1.2,32,-0.061,-0.061,-0.061,0.000,0.000,0.000
1643253956213608960,2022-01-27-03:25:56,10.1.1.2,30,-0.071,-0.071,-0.071,0.000,0.000,0.000
1643253956412069120,2022-01-27-03:25:56,10.1.1.2,27,-0.081,-0.081,-0.081,0.000,0.000,0.000
1643253956613652992,2022-01-27-03:25:56,10.1.1.2,28,-0.090,-0.090,-0.090,0.000,0.000,0.000
1643253956818744832,2022-01-27-03:25:56,10.1.1.2,32,-0.101,-0.101,-0.101,0.000,0.000,0.000
1643253957019237888,2022-01-27-03:25:57,10.1.1.2,31,-0.111,-0.111,-0.111,0.000,0.000,0.000
1643253957219845888,2022-01-27-03:25:57,10.1.1.2,29,-0.121,-0.121,-0.121,0.000,0.000,0.000
1643253957417527040,2022-01-27-03:25:57,10.1.1.2,28,-0.131,-0.131,-0.131,0.000,0.000,0.000
1643253957618580224,2022-01-27-03:25:57,10.1.1.2,27,-0.141,-0.141,-0.141,0.000,0.000,0.000
1643253957837917952,2022-01-27-03:25:57,10.1.1.2,43,-0.151,-0.151,-0.151,0.000,0.000,0.000
1643253958037338112,2022-01-27-03:25:58,10.1.1.2,40,-0.161,-0.161,-0.161,0.000,0.000,0.000
1643253958218432000,2022-01-27-03:25:58,10.1.1.2,19,-0.170,-0.170,-0.170,0.000,0.000,0.000
1643253958437611008,2022-01-27-03:25:58,10.1.1.2,37,-0.181,-0.181,-0.181,0.000,0.000,0.000
1643253958637062912,2022-01-27-03:25:58,10.1.1.2,36,-0.191,-0.191,-0.191,0.000,0.000,0.000
1643253958838337792,2022-01-27-03:25:58,10.1.1.2,35,-0.201,-0.201,-0.201,0.000,0.000,0.000
1643253959038023936,2022-01-27-03:25:59,10.1.1.2,35,-0.211,-0.211,-0.211,0.000,0.000,0.000
1643253959237571840,2022-01-27-03:25:59,10.1.1.2,33,-0.221,-0.221,-0.221,0.000,0.000,0.000
1643253959437338112,2022-01-27-03:25:59,10.1.1.2,32,-0.231,-0.231,-0.231,0.000,0.000,0.000
1643253959636760832,2022-01-27-03:25:59,10.1.1.2,30,-0.241,-0.241,-0.241,0.000,0.000,0.000
1643253959837006080,2022-01-27-03:25:59,10.1.1.2,29,-0.251,-0.251,-0.251,0.000,0.000,0.000
1643253960037033984,2022-01-27-03:26:00,10.1.1.2,24,-0.260,-0.260,-0.260,0.000,0.000,0.000
1643253960238876160,2022-01-27-03:26:00,10.1.1.2,24,-0.270,-0.270,-0.270,0.000,0.000,0.000
1643253960457806080,2022-01-27-03:26:00,10.1.1.2,39,-0.281,-0.281,-0.281,0.000,0.000,0.000
1643253960637033984,2022-01-27-03:26:00,10.1.1.2,17,-0.290,-0.290,-0.290,0.000,0.000,0.000
1643253960837052160,2022-01-27-03:26:00,10.1.1.2,16,-0.300,-0.300,-0.300,0.000,0.000,0.000
1643253961037041920,2022-01-27-03:26:01,10.1.1.2,14,-0.310,-0.310,-0.310,0.000,0.000,0.000
1643253961258019840,2022-01-27-03:26:01,10.1.1.2,30,-0.321,-0.321,-0.321,0.000,0.000,0.000
1643253961458127872,2022-01-27-03:26:01,10.1.1.2,29,-0.331,-0.331,-0.331,0.000,0.000,0.000
1643253961657402880,2022-01-27-03:26:01,10.1.1.2,28,-0.341,-0.341,-0.341,0.000,0.000,0.000
1643253961858663168,2022-01-27-03:26:01,10.1.1.2,28,-0.351,-0.351,-0.351,0.000,0.000,0.000
1643253962061731072,2022-01-27-03:26:02,10.1.1.2,30,-0.361,-0.361,-0.361,0.000,0.000,0.000
1643253962257595904,2022-01-27-03:26:02,10.1.1.2,25,-0.370,-0.370,-0.370,0.000,0.000,0.000
1643253962458228224,2022-01-27-03:26:02,10.1.1.2,23,-0.380,-0.380,-0.380,0.000,0.000,0.000
1643253962657871104,2022-01-27-03:26:02,10.1.1.2,22,-0.390,-0.390,-0.390,0.000,0.000,0.000
1643253962878743040,2022-01-27-03:26:02,10.1.1.2,41,-0.401,-0.401,-0.401,0.000,0.000,0.000
1643253963059577856,2022-01-27-03:26:03,10.1.1.2,20,-0.410,-0.410,-0.410,0.000,0.000,0.000
1643253963258184960,2022-01-27-03:26:03,10.1.1.2,18,-0.420,-0.420,-0.420,0.000,0.000,0.000
1643253963457125888,2022-01-27-03:26:03,10.1.1.2,17,-0.430,-0.430,-0.430,0.000,0.000,0.000
1643253963677463040,2022-01-27-03:26:03,10.1.1.2,36,-0.441,-0.441,-0.441,0.000,0.000,0.000
1643253963879553024,2022-01-27-03:26:03,10.1.1.2,36,-0.451,-0.451,-0.451,0.000,0.000,0.000
1643253964065349120,2022-01-27-03:26:04,10.1.1.2,22,-0.460,-0.460,-0.460,0.000,0.000,0.000
1643253964277789184,2022-01-27-03:26:04,10.1.1.2,31,-0.471,-0.471,-0.471,0.000,0.000,0.000
1643253964477510912,2022-01-27-03:26:04,10.1.1.2,30,-0.481,-0.481,-0.481,0.000,0.000,0.000
1643253964658600192,2022-01-27-03:26:04,10.1.1.2,10,-0.490,-0.490,-0.490,0.000,0.000,0.000
1643253964884819968,2022-01-27-03:26:04,10.1.1.2,35,-0.479,-0.479,-0.479,0.000,0.000,0.000
1643253965079674880,2022-01-27-03:26:05,10.1.1.2,29,-0.469,-0.469,-0.469,0.000,0.000,0.000
1643253965280903936,2022-01-27-03:26:05,10.1.1.2,29,-0.459,-0.459,-0.459,0.000,0.000,0.000
1643253965479870976,2022-01-27-03:26:05,10.1.1.2,26,-0.450,-0.450,-0.450,0.000,0.000,0.000
1643253965679450112,2022-01-27-03:26:05,10.1.1.2,24,-0.440,-0.440,-0.440,0.000,0.000,0.000
1643253965909413120,2022-01-27-03:26:05,10.1.1.2,53,-0.429,-0.429,-0.429,0.000,0.000,0.000
1643253966079771136,2022-01-27-03:26:06,10.1.1.2,22,-0.420,-0.420,-0.420,0.000,0.000,0.000
1643253966300542208,2022-01-27-03:26:06,10.1.1.2,42,-0.409,-0.409,-0.409,0.000,0.000,0.000
1643253966499329024,2022-01-27-03:26:06,10.1.1.2,40,-0.399,-0.399,-0.399,0.000,0.000,0.000
1643253966699328000,2022-01-27-03:26:06,10.1.1.2,38,-0.389,-0.389,-0.389,0.000,0.000,0.000
1643253966879827968,2022-01-27-03:26:06,10.1.1.2,17,-0.380,-0.380,-0.380,0.000,0.000,0.000
1643253967100029952,2022-01-27-03:26:07,10.1.1.2,37,-0.369,-0.369,-0.369,0.000,0.000,0.000
1643253967299886848,2022-01-27-03:26:07,10.1.1.2,35,-0.359,-0.359,-0.359,0.000,0.000,0.000
1643253967504461056,2022-01-27-03:26:07,10.1.1.2,38,-0.349,-0.349,-0.349,0.000,0.000,0.000
1643253967701078784,2022-01-27-03:26:07,10.1.1.2,35,-0.339,-0.339,-0.339,0.000,0.000,0.000
1643253967901582848,2022-01-27-03:26:07,10.1.1.2,35,-0.329,-0.329,-0.329,0.000,0.000,0.000
1643253968102174976,2022-01-27-03:26:08,10.1.1.2,35,-0.319,-0.319,-0.319,0.000,0.000,0.000
1643253968293363968,2022-01-27-03:26:08,10.1.1.2,25,-0.310,-0.310,-0.310,0.000,0.000,0.000
1643253968502491904,2022-01-27-03:26:08,10.1.1.2,33,-0.299,-0.299,-0.299,0.000,0.000,0.000
1643253968693487872,2022-01-27-03:26:08,10.1.1.2,23,-0.290,-0.290,-0.290,0.000,0.000,0.000
1643253968903145984,2022-01-27-03:26:08,10.1.1.2,32,-0.279,-0.279,-0.279,0.000,0.000,0.000
1643253969101684992,2022-01-27-03:26:09,10.1.1.2,30,-0.269,-0.269,-0.269,0.000,0.000,0.000
1643253969297570816,2022-01-27-03:26:09,10.1.1.2,24,-0.260,-0.260,-0.260,0.000,0.000,0.000
1643253969501606912,2022-01-27-03:26:09,10.1.1.2,27,-0.249,-0.249,-0.249,0.000,0.000,0.000
1643253969703174144,2022-01-27-03:26:09,10.1.1.2,28,-0.239,-0.239,-0.239,0.000,0.000,0.000
1643253969902230016,2022-01-27-03:26:09,10.1.1.2,26,-0.230,-0.230,-0.230,0.000,0.000,0.000
1643253970102844928,2022-01-27-03:26:10,10.1.1.2,27,-0.219,-0.219,-0.219,0.000,0.000,0.000
1643253970302333184,2022-01-27-03:26:10,10.1.1.2,25,-0.210,-0.210,-0.210,0.000,0.000,0.000
1643253970511367168,2022-01-27-03:26:10,10.1.1.2,33,-0.199,-0.199,-0.199,0.000,0.000,0.000
1643253970712688896,2022-01-27-03:26:10,10.1.1.2,34,-0.189,-0.189,-0.189,0.000,0.000,0.000
1643253970902401024,2022-01-27-03:26:10,10.1.1.2,22,-0.180,-0.180,-0.180,0.000,0.000,0.000
1643253971123214848,2022-01-27-03:26:11,10.1.1.2,42,-0.169,-0.169,-0.169,0.000,0.000,0.000
1643253971322638080,2022-01-27-03:26:11,10.1.1.2,41,-0.159,-0.159,-0.159,0.000,0.000,0.000
1643253971522164224,2022-01-27-03:26:11,10.1.1.2,39,-0.149,-0.149,-0.149,0.000,0.000,0.000
1643253971722093056,2022-01-27-03:26:11,10.1.1.2,38,-0.139,-0.139,-0.139,0.000,0.000,0.000
1643253971921458944,2022-01-27-03:26:11,10.1.1.2,36,-0.129,-0.129,-0.129,0.000,0.000,0.000
1643253972101910016,2022-01-27-03:26:12,10.1.1.2,16,-0.120,-0.120,-0.120,0.000,0.000,0.000
1643253972302334976,2022-01-27-03:26:12,10.1.1.2,15,-0.110,-0.110,-0.110,0.000,0.000,0.000
1643253972502567168,2022-01-27-03:26:12,10.1.1.2,13,-0.100,-0.100,-0.100,0.000,0.000,0.000
1643253972722963200,2022-01-27-03:26:12,10.1.1.2,32,-0.089,-0.089,-0.089,0.000,0.000,0.000
1643253972913570816,2022-01-27-03:26:12,10.1.1.2,22,-0.080,-0.080,-0.080,0.000,0.000,0.000
1643253973122291968,2022-01-27-03:26:13,10.1.1.2,29,-0.069,-0.069,-0.069,0.000,0.000,0.000
1643253973321996032,2022-01-27-03:26:13,10.1.1.2,27,-0.059,-0.059,-0.059,0.000,0.000,0.000
1643253973521654016,2022-01-27-03:26:13,10.1.1.2,26,-0.049,-0.049,-0.049,0.000,0.000,0.000
1643253973721880832,2022-01-27-03:26:13,10.1.1.2,24,-0.040,-0.040,-0.040,0.000,0.000,0.000
1643253973922270976,2022-01-27-03:26:13,10.1.1.2,23,-0.030,-0.030,-0.030,0.000,0.000,0.000
1643253974141588992,2022-01-27-03:26:14,10.1.1.2,42,-0.019,-0.019,-0.019,0.000,0.000,0.000
1643253974322694912,2022-01-27-03:26:14,10.1.1.2,20,-0.010,-0.010,-0.010,0.000,0.000,0.000
1643253974522260992,2022-01-27-03:26:14,10.1.1.2,19,-0.000,-0.000,-0.000,0.000,0.000,0.000
1643253974741729024,2022-01-27-03:26:14,10.1.1.2,37,-0.011,-0.011,-0.011,0.000,0.000,0.000
1643253974922909952,2022-01-27-03:26:14,10.1.1.2,17,-0.020,-0.020,-0.020,0.000,0.000,0.000
1643253975151550976,2022-01-27-03:26:15,10.1.1.2,45,-0.031,-0.031,-0.031,0.000,0.000,0.000
1643253975351038976,2022-01-27-03:26:15,10.1.1.2,43,-0.041,-0.041,-0.041,0.000,0.000,0.000
1643253975554469120,2022-01-27-03:26:15,10.1.1.2,45,-0.051,-0.051,-0.051,0.000,0.000,0.000
1643253975734291968,2022-01-27-03:26:15,10.1.1.2,24,-0.060,-0.060,-0.060,0.000,0.000,0.000
1643253975936985856,2022-01-27-03:26:15,10.1.1.2,25,-0.070,-0.070,-0.070,0.000,0.000,0.000
1643253976154910976,2022-01-27-03:26:16,10.1.1.2,43,-0.080,-0.080,-0.080,0.000,0.000,0.000
1643253976345277184,2022-01-27-03:26:16,10.1.1.2,33,-0.091,-0.091,-0.091,0.000,0.000,0.000
1643253976536675840,2022-01-27-03:26:16,10.1.1.2,23,-0.100,-0.100,-0.100,0.000,0.000,0.000
1643253976736551936,2022-01-27-03:26:16,10.1.1.2,22,-0.110,-0.110,-0.110,0.000,0.000,0.000
1643253976936145152,2022-01-27-03:26:16,10.1.1.2,21,-0.120,-0.120,-0.120,0.000,0.000,0.000
1643253977136465920,2022-01-27-03:26:17,10.1.1.2,20,-0.130,-0.130,-0.130,0.000,0.000,0.000
1643253977360701952,2022-01-27-03:26:17,10.1.1.2,43,-0.141,-0.141,-0.141,0.000,0.000,0.000
1643253977535710208,2022-01-27-03:26:17,10.1.1.2,18,-0.150,-0.150,-0.150,0.000,0.000,0.000
1643253977734884096,2022-01-27-03:26:17,10.1.1.2,16,-0.160,-0.160,-0.160,0.000,0.000,0.000
1643253977944139008,2022-01-27-03:26:17,10.1.1.2,25,-0.170,-0.170,-0.170,0.000,0.000,0.000
1643253978153844992,2022-01-27-03:26:18,10.1.1.2,33,-0.180,-0.180,-0.180,0.000,0.000,0.000
1643253978338439936,2022-01-27-03:26:18,10.1.1.2,15,-0.190,-0.190,-0.190,0.000,0.000,0.000
1643253978558803968,2022-01-27-03:26:18,10.1.1.2,35,-0.201,-0.201,-0.201,0.000,0.000,0.000
1643253978759376896,2022-01-27-03:26:18,10.1.1.2,29,-0.211,-0.211,-0.211,0.000,0.000,0.000
1643253978958439168,2022-01-27-03:26:18,10.1.1.2,27,-0.221,-0.221,-0.221,0.000,0.000,0.000
1643253979157361152,2022-01-27-03:26:19,10.1.1.2,25,-0.231,-0.231,-0.231,0.000,0.000,0.000
1643253979357677056,2022-01-27-03:26:19,10.1.1.2,24,-0.240,-0.240,-0.240,0.000,0.000,0.000
1643253979578438144,2022-01-27-03:26:19,10.1.1.2,44,-0.251,-0.251,-0.251,0.000,0.000,0.000
1643253979777206784,2022-01-27-03:26:19,10.1.1.2,41,-0.261,-0.261,-0.261,0.000,0.000,0.000
1643253979959763968,2022-01-27-03:26:19,10.1.1.2,23,-0.270,-0.270,-0.270,0.000,0.000,0.000
1643253980157288960,2022-01-27-03:26:20,10.1.1.2,18,-0.280,-0.280,-0.280,0.000,0.000,0.000
1643253980356331008,2022-01-27-03:26:20,10.1.1.2,16,-0.290,-0.290,-0.290,0.000,0.000,0.000
1643253980580771072,2022-01-27-03:26:20,10.1.1.2,40,-0.301,-0.301,-0.301,0.000,0.000,0.000
1643253980777991936,2022-01-27-03:26:20,10.1.1.2,35,-0.311,-0.311,-0.311,0.000,0.000,0.000
1643253980978339072,2022-01-27-03:26:20,10.1.1.2,35,-0.321,-0.321,-0.321,0.000,0.000,0.000
1643253981178821120,2022-01-27-03:26:21,10.1.1.2,33,-0.331,-0.331,-0.331,0.000,0.000,0.000
1643253981379249152,2022-01-27-03:26:21,10.1.1.2,34,-0.341,-0.341,-0.341,0.000,0.000,0.000
1643253981578268160,2022-01-27-03:26:21,10.1.1.2,27,-0.350,-0.350,-0.350,0.000,0.000,0.000
1643253981780147200,2022-01-27-03:26:21,10.1.1.2,26,-0.360,-0.360,-0.360,0.000,0.000,0.000
1643253981998267904,2022-01-27-03:26:21,10.1.1.2,41,-0.371,-0.371,-0.371,0.000,0.000,0.000
1643253982198443776,2022-01-27-03:26:22,10.1.1.2,39,-0.381,-0.381,-0.381,0.000,0.000,0.000
1643253982382991104,2022-01-27-03:26:22,10.1.1.2,22,-0.390,-0.390,-0.390,0.000,0.000,0.000
1643253982577782016,2022-01-27-03:26:22,10.1.1.2,14,-0.400,-0.400,-0.400,0.000,0.000,0.000
1643253982797338880,2022-01-27-03:26:22,10.1.1.2,33,-0.411,-0.411,-0.411,0.000,0.000,0.000
1643253982999048960,2022-01-27-03:26:22,10.1.1.2,34,-0.421,-0.421,-0.421,0.000,0.000,0.000
1643253983198198016,2022-01-27-03:26:23,10.1.1.2,32,-0.431,-0.431,-0.431,0.000,0.000,0.000
1643253983398802944,2022-01-27-03:26:23,10.1.1.2,33,-0.441,-0.441,-0.441,0.000,0.000,0.000
1643253983597837056,2022-01-27-03:26:23,10.1.1.2,31,-0.451,-0.451,-0.451,0.000,0.000,0.000
1643253983797934080,2022-01-27-03:26:23,10.1.1.2,30,-0.461,-0.461,-0.461,0.000,0.000,0.000
1643253983998704896,2022-01-27-03:26:23,10.1.1.2,28,-0.471,-0.471,-0.471,0.000,0.000,0.000
1643253984198315008,2022-01-27-03:26:24,10.1.1.2,26,-0.481,-0.481,-0.481,0.000,0.000,0.000
1643253984381534208,2022-01-27-03:26:24,10.1.1.2,7,-0.490,-0.490,-0.490,0.000,0.000,0.000
1643253984617758976,2022-01-27-03:26:24,10.1.1.2,43,-0.479,-0.479,-0.479,0.000,0.000,0.000
1643253984819912960,2022-01-27-03:26:24,10.1.1.2,44,-0.469,-0.469,-0.469,0.000,0.000,0.000
1643253984998267904,2022-01-27-03:26:24,10.1.1.2,21,-0.460,-0.460,-0.460,0.000,0.000,0.000
1643253985232412160,2022-01-27-03:26:25,10.1.1.2,54,-0.448,-0.448,-0.448,0.000,0.000,0.000
1643253985399083008,2022-01-27-03:26:25,10.1.1.2,20,-0.440,-0.440,-0.440,0.000,0.000,0.000
1643253985607506944,2022-01-27-03:26:25,10.1.1.2,26,-0.430,-0.430,-0.430,0.000,0.000,0.000
1643253985816751872,2022-01-27-03:26:25,10.1.1.2,33,-0.419,-0.419,-0.419,0.000,0.000,0.000
1643253986017724928,2022-01-27-03:26:26,10.1.1.2,32,-0.410,-0.410,-0.410,0.000,0.000,0.000
1643253986217408000,2022-01-27-03:26:26,10.1.1.2,31,-0.399,-0.399,-0.399,0.000,0.000,0.000
1643253986418458880,2022-01-27-03:26:26,10.1.1.2,31,-0.389,-0.389,-0.389,0.000,0.000,0.000
1643253986639297024,2022-01-27-03:26:26,10.1.1.2,51,-0.379,-0.379,-0.379,0.000,0.000,0.000
1643253986819386112,2022-01-27-03:26:26,10.1.1.2,31,-0.369,-0.369,-0.369,0.000,0.000,0.000
1643253987030478848,2022-01-27-03:26:27,10.1.1.2,41,-0.360,-0.360,-0.360,0.000,0.000,0.000
1643253987219980032,2022-01-27-03:26:27,10.1.1.2,30,-0.349,-0.349,-0.349,0.000,0.000,0.000
1643253987419554048,2022-01-27-03:26:27,10.1.1.2,28,-0.339,-0.339,-0.339,0.000,0.000,0.000
1643253987618897920,2022-01-27-03:26:27,10.1.1.2,26,-0.329,-0.329,-0.329,0.000,0.000,0.000
1643253987819633920,2022-01-27-03:26:27,10.1.1.2,26,-0.319,-0.319,-0.319,0.000,0.000,0.000
1643253988019545088,2022-01-27-03:26:28,10.1.1.2,24,-0.310,-0.310,-0.310,0.000,0.000,0.000
1643253988239450880,2022-01-27-03:26:28,10.1.1.2,43,-0.299,-0.299,-0.299,0.000,0.000,0.000
1643253988438865920,2022-01-27-03:26:28,10.1.1.2,42,-0.289,-0.289,-0.289,0.000,0.000,0.000
1643253988639919104,2022-01-27-03:26:28,10.1.1.2,41,-0.279,-0.279,-0.279,0.000,0.000,0.000
1643253988819596032,2022-01-27-03:26:28,10.1.1.2,20,-0.270,-0.270,-0.270,0.000,0.000,0.000
1643253989019927040,2022-01-27-03:26:29,10.1.1.2,19,-0.260,-0.260,-0.260,0.000,0.000,0.000
1643253989219636992,2022-01-27-03:26:29,10.1.1.2,18,-0.250,-0.250,-0.250,0.000,0.000,0.000
1643253989439366144,2022-01-27-03:26:29,10.1.1.2,37,-0.239,-0.239,-0.239,0.000,0.000,0.000
1643253989647331072,2022-01-27-03:26:29,10.1.1.2,44,-0.229,-0.229,-0.229,0.000,0.000,0.000
1643253989818608896,2022-01-27-03:26:29,10.1.1.2,15,-0.220,-0.220,-0.220,0.000,0.000,0.000
1643253990038928128,2022-01-27-03:26:30,10.1.1.2,34,-0.210,-0.210,-0.210,0.000,0.000,0.000
1643253990239409920,2022-01-27-03:26:30,10.1.1.2,34,-0.199,-0.199,-0.199,0.000,0.000,0.000
1643253990439465984,2022-01-27-03:26:30,10.1.1.2,32,-0.189,-0.189,-0.189,0.000,0.000,0.000
1643253990639820032,2022-01-27-03:26:30,10.1.1.2,32,-0.179,-0.179,-0.179,0.000,0.000,0.000
1643253990839781888,2022-01-27-03:26:30,10.1.1.2,31,-0.169,-0.169,-0.169,0.000,0.000,0.000
1643253991039427072,2022-01-27-03:26:31,10.1.1.2,30,-0.159,-0.159,-0.159,0.000,0.000,0.000
1643253991239561984,2022-01-27-03:26:31,10.1.1.2,29,-0.149,-0.149,-0.149,0.000,0.000,0.000
1643253991438551040,2022-01-27-03:26:31,10.1.1.2,27,-0.140,-0.140,-0.140,0.000,0.000,0.000
1643253991639672064,2022-01-27-03:26:31,10.1.1.2,27,-0.129,-0.129,-0.129,0.000,0.000,0.000
1643253991838913792,2022-01-27-03:26:31,10.1.1.2,25,-0.119,-0.119,-0.119,0.000,0.000,0.000
1643253992039237120,2022-01-27-03:26:32,10.1.1.2,22,-0.110,-0.110,-0.110,0.000,0.000,0.000
1643253992238092800,2022-01-27-03:26:32,10.1.1.2,20,-0.100,-0.100,-0.100,0.000,0.000,0.000
1643253992439204864,2022-01-27-03:26:32,10.1.1.2,19,-0.090,-0.090,-0.090,0.000,0.000,0.000
1643253992660123136,2022-01-27-03:26:32,10.1.1.2,39,-0.079,-0.079,-0.079,0.000,0.000,0.000
1643253992842499072,2022-01-27-03:26:32,10.1.1.2,20,-0.070,-0.070,-0.070,0.000,0.000,0.000
1643253993040730880,2022-01-27-03:26:33,10.1.1.2,17,-0.060,-0.060,-0.060,0.000,0.000,0.000
1643253993240480000,2022-01-27-03:26:33,10.1.1.2,16,-0.050,-0.050,-0.050,0.000,0.000,0.000
1643253993460061184,2022-01-27-03:26:33,10.1.1.2,35,-0.039,-0.039,-0.039,0.000,0.000,0.000
1643253993661767936,2022-01-27-03:26:33,10.1.1.2,36,-0.029,-0.029,-0.029,0.000,0.000,0.000
1643253993861996800,2022-01-27-03:26:33,10.1.1.2,36,-0.019,-0.019,-0.019,0.000,0.000,0.000
1643253994060357120,2022-01-27-03:26:34,10.1.1.2,33,-0.009,-0.009,-0.009,0.000,0.000,0.000
1643253994239779072,2022-01-27-03:26:34,10.1.1.2,12,-0.000,-0.000,-0.000,0.000,0.000,0.000
1643253994464745984,2022-01-27-03:26:34,10.1.1.2,36,-0.010,-0.010,-0.010,0.000,0.000,0.000
1643253994660804864,2022-01-27-03:26:34,10.1.1.2,30,-0.021,-0.021,-0.021,0.000,0.000,0.000
1643253994862221056,2022-01-27-03:26:34,10.1.1.2,29,-0.031,-0.031,-0.031,0.000,0.000,0.000
1643253995059998976,2022-01-27-03:26:35,10.1.1.2,27,-0.041,-0.041,-0.041,0.000,0.000,0.000
1643253995260736000,2022-01-27-03:26:35,10.1.1.2,27,-0.051,-0.051,-0.051,0.000,0.000,0.000
1643253995460326912,2022-01-27-03:26:35,10.1.1.2,26,-0.061,-0.061,-0.061,0.000,0.000,0.000
1643253995670497024,2022-01-27-03:26:35,10.1.1.2,35,-0.070,-0.070,-0.070,0.000,0.000,0.000
1643253995880608000,2022-01-27-03:26:35,10.1.1.2,44,-0.081,-0.081,-0.081,0.000,0.000,0.000
1643253996054685952,2022-01-27-03:26:36,10.1.1.2,17,-0.090,-0.090,-0.090,0.000,0.000,0.000
1643253996255958016,2022-01-27-03:26:36,10.1.1.2,17,-0.100,-0.100,-0.100,0.000,0.000,0.000
1643253996455473920,2022-01-27-03:26:36,10.1.1.2,16,-0.110,-0.110,-0.110,0.000,0.000,0.000
1643253996655962880,2022-01-27-03:26:36,10.1.1.2,15,-0.120,-0.120,-0.120,0.000,0.000,0.000
1643253996875830784,2022-01-27-03:26:36,10.1.1.2,32,-0.130,-0.130,-0.130,0.000,0.000,0.000
1643253997076525824,2022-01-27-03:26:37,10.1.1.2,32,-0.141,-0.141,-0.141,0.000,0.000,0.000
1643253997274918144,2022-01-27-03:26:37,10.1.1.2,29,-0.151,-0.151,-0.151,0.000,0.000,0.000
1643253997478984192,2022-01-27-03:26:37,10.1.1.2,32,-0.161,-0.161,-0.161,0.000,0.000,0.000
1643253997676943104,2022-01-27-03:26:37,10.1.1.2,29,-0.171,-0.171,-0.171,0.000,0.000,0.000
1643253997875503104,2022-01-27-03:26:37,10.1.1.2,27,-0.180,-0.180,-0.180,0.000,0.000,0.000
1643253998077667072,2022-01-27-03:26:38,10.1.1.2,27,-0.191,-0.191,-0.191,0.000,0.000,0.000
1643253998276004096,2022-01-27-03:26:38,10.1.1.2,25,-0.200,-0.200,-0.200,0.000,0.000,0.000
1643253998475599104,2022-01-27-03:26:38,10.1.1.2,24,-0.210,-0.210,-0.210,0.000,0.000,0.000
1643253998695971840,2022-01-27-03:26:38,10.1.1.2,43,-0.221,-0.221,-0.221,0.000,0.000,0.000
1643253998895435008,2022-01-27-03:26:38,10.1.1.2,41,-0.231,-0.231,-0.231,0.000,0.000,0.000
1643253999095351808,2022-01-27-03:26:39,10.1.1.2,40,-0.241,-0.241,-0.241,0.000,0.000,0.000
1643253999295895040,2022-01-27-03:26:39,10.1.1.2,40,-0.251,-0.251,-0.251,0.000,0.000,0.000
1643253999495565056,2022-01-27-03:26:39,10.1.1.2,38,-0.261,-0.261,-0.261,0.000,0.000,0.000
1643253999675631872,2022-01-27-03:26:39,10.1.1.2,17,-0.270,-0.270,-0.270,0.000,0.000,0.000
1643253999876782848,2022-01-27-03:26:39,10.1.1.2,18,-0.280,-0.280,-0.280,0.000,0.000,0.000
1643254000095508992,2022-01-27-03:26:40,10.1.1.2,36,-0.291,-0.291,-0.291,0.000,0.000,0.000
1643254000275921152,2022-01-27-03:26:40,10.1.1.2,15,-0.300,-0.300,-0.300,0.000,0.000,0.000
1643254000494656000,2022-01-27-03:26:40,10.1.1.2,32,-0.310,-0.310,-0.310,0.000,0.000,0.000
1643254000698976000,2022-01-27-03:26:40,10.1.1.2,34,-0.321,-0.321,-0.321,0.000,0.000,0.000
1643254000910077184,2022-01-27-03:26:40,10.1.1.2,44,-0.331,-0.331,-0.331,0.000,0.000,0.000
1643254001100333056,2022-01-27-03:26:41,10.1.1.2,32,-0.341,-0.341,-0.341,0.000,0.000,0.000
1643254001299128064,2022-01-27-03:26:41,10.1.1.2,28,-0.351,-0.351,-0.351,0.000,0.000,0.000
1643254001499984128,2022-01-27-03:26:41,10.1.1.2,27,-0.360,-0.360,-0.360,0.000,0.000,0.000
1643254001699740928,2022-01-27-03:26:41,10.1.1.2,26,-0.370,-0.370,-0.370,0.000,0.000,0.000
1643254001898274816,2022-01-27-03:26:41,10.1.1.2,24,-0.380,-0.380,-0.380,0.000,0.000,0.000
1643254002098886912,2022-01-27-03:26:42,10.1.1.2,23,-0.390,-0.390,-0.390,0.000,0.000,0.000
1643254002318546944,2022-01-27-03:26:42,10.1.1.2,41,-0.401,-0.401,-0.401,0.000,0.000,0.000
1643254002514914048,2022-01-27-03:26:42,10.1.1.2,36,-0.410,-0.410,-0.410,0.000,0.000,0.000
1643254002719053056,2022-01-27-03:26:42,10.1.1.2,39,-0.421,-0.421,-0.421,0.000,0.000,0.000
1643254002918996992,2022-01-27-03:26:42,10.1.1.2,38,-0.431,-0.431,-0.431,0.000,0.000,0.000
1643254003105138176,2022-01-27-03:26:43,10.1.1.2,21,-0.440,-0.440,-0.440,0.000,0.000,0.000
1643254003321219840,2022-01-27-03:26:43,10.1.1.2,36,-0.451,-0.451,-0.451,0.000,0.000,0.000
1643254003517580032,2022-01-27-03:26:43,10.1.1.2,30,-0.461,-0.461,-0.461,0.000,0.000,0.000
1643254003714636032,2022-01-27-03:26:43,10.1.1.2,28,-0.471,-0.471,-0.471,0.000,0.000,0.000
1643254003914753792,2022-01-27-03:26:43,10.1.1.2,25,-0.480,-0.480,-0.480,0.000,0.000,0.000
1643254004093718016,2022-01-27-03:26:44,10.1.1.2,3,-0.489,-0.489,-0.489,0.000,0.000,0.000
1643254004334707968,2022-01-27-03:26:44,10.1.1.2,43,-0.479,-0.479,-0.479,0.000,0.000,0.000
1643254004535116800,2022-01-27-03:26:44,10.1.1.2,40,-0.469,-0.469,-0.469,0.000,0.000,0.000
1643254004734173184,2022-01-27-03:26:44,10.1.1.2,36,-0.459,-0.459,-0.459,0.000,0.000,0.000
1643254004934217984,2022-01-27-03:26:44,10.1.1.2,35,-0.450,-0.450,-0.450,0.000,0.000,0.000
1643254005134875136,2022-01-27-03:26:45,10.1.1.2,35,-0.439,-0.439,-0.439,0.000,0.000,0.000
1643254005335148032,2022-01-27-03:26:45,10.1.1.2,34,-0.429,-0.429,-0.429,0.000,0.000,0.000
1643254005535373056,2022-01-27-03:26:45,10.1.1.2,33,-0.419,-0.419,-0.419,0.000,0.000,0.000
1643254005733607936,2022-01-27-03:26:45,10.1.1.2,31,-0.409,-0.409,-0.409,0.000,0.000,0.000
1643254005937140992,2022-01-27-03:26:45,10.1.1.2,33,-0.399,-0.399,-0.399,0.000,0.000,0.000
1643254006133764096,2022-01-27-03:26:46,10.1.1.2,29,-0.389,-0.389,-0.389,0.000,0.000,0.000
1643254006335241984,2022-01-27-03:26:46,10.1.1.2,27,-0.379,-0.379,-0.379,0.000,0.000,0.000
1643254006535088128,2022-01-27-03:26:46,10.1.1.2,25,-0.370,-0.370,-0.370,0.000,0.000,0.000
1643254006734804992,2022-01-27-03:26:46,10.1.1.2,23,-0.360,-0.360,-0.360,0.000,0.000,0.000
1643254006957246976,2022-01-27-03:26:46,10.1.1.2,42,-0.349,-0.349,-0.349,0.000,0.000,0.000
1643254007155319040,2022-01-27-03:26:47,10.1.1.2,40,-0.339,-0.339,-0.339,0.000,0.000,0.000
1643254007363058944,2022-01-27-03:26:47,10.1.1.2,47,-0.329,-0.329,-0.329,0.000,0.000,0.000
1643254007539340032,2022-01-27-03:26:47,10.1.1.2,22,-0.320,-0.320,-0.320,0.000,0.000,0.000
1643254007759182848,2022-01-27-03:26:47,10.1.1.2,41,-0.309,-0.309,-0.309,0.000,0.000,0.000
1643254007960875008,2022-01-27-03:26:47,10.1.1.2,41,-0.299,-0.299,-0.299,0.000,0.000,0.000
1643254008138847232,2022-01-27-03:26:48,10.1.1.2,19,-0.290,-0.290,-0.290,0.000,0.000,0.000
1643254008339195136,2022-01-27-03:26:48,10.1.1.2,18,-0.280,-0.280,-0.280,0.000,0.000,0.000
1643254008539685120,2022-01-27-03:26:48,10.1.1.2,18,-0.270,-0.270,-0.270,0.000,0.000,0.000
1643254008739067904,2022-01-27-03:26:48,10.1.1.2,16,-0.260,-0.260,-0.260,0.000,0.000,0.000
1643254008959353088,2022-01-27-03:26:48,10.1.1.2,35,-0.249,-0.249,-0.249,0.000,0.000,0.000
1643254009159907072,2022-01-27-03:26:49,10.1.1.2,34,-0.239,-0.239,-0.239,0.000,0.000,0.000
1643254009362313984,2022-01-27-03:26:49,10.1.1.2,35,-0.229,-0.229,-0.229,0.000,0.000,0.000
1643254009560066048,2022-01-27-03:26:49,10.1.1.2,32,-0.219,-0.219,-0.219,0.000,0.000,0.000
1643254009759674112,2022-01-27-03:26:49,10.1.1.2,30,-0.209,-0.209,-0.209,0.000,0.000,0.000
1643254009960197888,2022-01-27-03:26:49,10.1.1.2,30,-0.199,-0.199,-0.199,0.000,0.000,0.000
1643254010173903872,2022-01-27-03:26:50,10.1.1.2,42,-0.189,-0.189,-0.189,0.000,0.000,0.000
1643254010379913984,2022-01-27-03:26:50,10.1.1.2,47,-0.178,-0.178,-0.178,0.000,0.000,0.000
1643254010560272896,2022-01-27-03:26:50,10.1.1.2,27,-0.170,-0.170,-0.170,0.000,0.000,0.000
1643254010759772160,2022-01-27-03:26:50,10.1.1.2,25,-0.160,-0.160,-0.160,0.000,0.000,0.000
1643254010961523968,2022-01-27-03:26:50,10.1.1.2,26,-0.150,-0.150,-0.150,0.000,0.000,0.000
1643254011163836928,2022-01-27-03:26:51,10.1.1.2,27,-0.140,-0.140,-0.140,0.000,0.000,0.000
1643254011356452864,2022-01-27-03:26:51,10.1.1.2,18,-0.130,-0.130,-0.130,0.000,0.000,0.000
1643254011554960128,2022-01-27-03:26:51,10.1.1.2,15,-0.120,-0.120,-0.120,0.000,0.000,0.000
1643254011759123968,2022-01-27-03:26:51,10.1.1.2,17,-0.110,-0.110,-0.110,0.000,0.000,0.000
1643254011972626944,2022-01-27-03:26:51,10.1.1.2,29,-0.100,-0.100,-0.100,0.000,0.000,0.000
1643254012175738112,2022-01-27-03:26:52,10.1.1.2,31,-0.089,-0.089,-0.089,0.000,0.000,0.000
1643254012373946880,2022-01-27-03:26:52,10.1.1.2,28,-0.079,-0.079,-0.079,0.000,0.000,0.000
1643254012573298944,2022-01-27-03:26:52,10.1.1.2,27,-0.069,-0.069,-0.069,0.000,0.000,0.000
1643254012773238784,2022-01-27-03:26:52,10.1.1.2,25,-0.060,-0.060,-0.060,0.000,0.000,0.000
1643254012974669824,2022-01-27-03:26:52,10.1.1.2,26,-0.050,-0.050,-0.050,0.000,0.000,0.000
1643254013172662016,2022-01-27-03:26:53,10.1.1.2,24,-0.040,-0.040,-0.040,0.000,0.000,0.000
1643254013376595968,2022-01-27-03:26:53,10.1.1.2,26,-0.030,-0.030,-0.030,0.000,0.000,0.000
1643254013573659904,2022-01-27-03:26:53,10.1.1.2,22,-0.020,-0.020,-0.020,0.000,0.000,0.000
1643254013772705024,2022-01-27-03:26:53,10.1.1.2,21,-0.010,-0.010,-0.010,0.000,0.000,0.000
1643254013994255104,2022-01-27-03:26:53,10.1.1.2,40,-0.001,-0.001,-0.001,0.000,0.000,0.000
1643254014193489920,2022-01-27-03:26:54,10.1.1.2,38,-0.011,-0.011,-0.011,0.000,0.000,0.000
1643254014397543936,2022-01-27-03:26:54,10.1.1.2,41,-0.021,-0.021,-0.021,0.000,0.000,0.000
1643254014574420992,2022-01-27-03:26:54,10.1.1.2,17,-0.030,-0.030,-0.030,0.000,0.000,0.000
1643254014773433856,2022-01-27-03:26:54,10.1.1.2,15,-0.040,-0.040,-0.040,0.000,0.000,0.000
1643254014993235968,2022-01-27-03:26:54,10.1.1.2,33,-0.051,-0.051,-0.051,0.000,0.000,0.000
1643254015193679104,2022-01-27-03:26:55,10.1.1.2,33,-0.061,-0.061,-0.061,0.000,0.000,0.000
1643254015393775872,2022-01-27-03:26:55,10.1.1.2,32,-0.071,-0.071,-0.071,0.000,0.000,0.000
1643254015594221056,2022-01-27-03:26:55,10.1.1.2,29,-0.081,-0.081,-0.081,0.000,0.000,0.000
1643254015793309952,2022-01-27-03:26:55,10.1.1.2,28,-0.091,-0.091,-0.091,0.000,0.000,0.000
1643254015994117120,2022-01-27-03:26:55,10.1.1.2,26,-0.101,-0.101,-0.101,0.000,0.000,0.000
1643254016193767168,2022-01-27-03:26:56,10.1.1.2,26,-0.110,-0.110,-0.110,0.000,0.000,0.000
1643254016394802176,2022-01-27-03:26:56,10.1.1.2,24,-0.120,-0.120,-0.120,0.000,0.000,0.000
1643254016595446016,2022-01-27-03:26:56,10.1.1.2,21,-0.130,-0.130,-0.130,0.000,0.000,0.000
1643254016814344960,2022-01-27-03:26:56,10.1.1.2,38,-0.141,-0.141,-0.141,0.000,0.000,0.000
1643254017020091904,2022-01-27-03:26:57,10.1.1.2,43,-0.151,-0.151,-0.151,0.000,0.000,0.000
1643254017213776128,2022-01-27-03:26:57,10.1.1.2,35,-0.161,-0.161,-0.161,0.000,0.000,0.000
1643254017413070080,2022-01-27-03:26:57,10.1.1.2,32,-0.170,-0.170,-0.170,0.000,0.000,0.000
1643254017613668864,2022-01-27-03:26:57,10.1.1.2,31,-0.181,-0.181,-0.181,0.000,0.000,0.000
1643254017813317888,2022-01-27-03:26:57,10.1.1.2,30,-0.191,-0.191,-0.191,0.000,0.000,0.000
1643254018013984000,2022-01-27-03:26:58,10.1.1.2,29,-0.201,-0.201,-0.201,0.000,0.000,0.000
1643254018212945920,2022-01-27-03:26:58,10.1.1.2,27,-0.211,-0.211,-0.211,0.000,0.000,0.000
1643254018413253120,2022-01-27-03:26:58,10.1.1.2,26,-0.220,-0.220,-0.220,0.000,0.000,0.000
1643254018613570048,2022-01-27-03:26:58,10.1.1.2,25,-0.231,-0.231,-0.231,0.000,0.000,0.000
1643254018830073088,2022-01-27-03:26:58,10.1.1.2,41,-0.241,-0.241,-0.241,0.000,0.000,0.000
1643254019041063168,2022-01-27-03:26:59,10.1.1.2,51,-0.252,-0.252,-0.252,0.000,0.000,0.000
1643254019221529856,2022-01-27-03:26:59,10.1.1.2,29,-0.261,-0.261,-0.261,0.000,0.000,0.000
1643254019421158144,2022-01-27-03:26:59,10.1.1.2,27,-0.271,-0.271,-0.271,0.000,0.000,0.000
1643254019621355008,2022-01-27-03:26:59,10.1.1.2,26,-0.281,-0.281,-0.281,0.000,0.000,0.000
1643254019820646144,2022-01-27-03:26:59,10.1.1.2,24,-0.290,-0.290,-0.290,0.000,0.000,0.000
1643254020020730112,2022-01-27-03:27:00,10.1.1.2,23,-0.300,-0.300,-0.300,0.000,0.000,0.000
1643254020241785088,2022-01-27-03:27:00,10.1.1.2,42,-0.311,-0.311,-0.311,0.000,0.000,0.000
1643254020440802048,2022-01-27-03:27:00,10.1.1.2,40,-0.321,-0.321,-0.321,0.000,0.000,0.000
1643254020641406976,2022-01-27-03:27:00,10.1.1.2,40,-0.331,-0.331,-0.331,0.000,0.000,0.000
1643254020829658112,2022-01-27-03:27:00,10.1.1.2,27,-0.340,-0.340,-0.340,0.000,0.000,0.000
1643254021041719040,2022-01-27-03:27:01,10.1.1.2,38,-0.351,-0.351,-0.351,0.000,0.000,0.000
1643254021220740096,2022-01-27-03:27:01,10.1.1.2,15,-0.360,-0.360,-0.360,0.000,0.000,0.000
1643254021441356800,2022-01-27-03:27:01,10.1.1.2,35,-0.371,-0.371,-0.371,0.000,0.000,0.000
1643254021641113088,2022-01-27-03:27:01,10.1.1.2,34,-0.381,-0.381,-0.381,0.000,0.000,0.000
1643254021841135104,2022-01-27-03:27:01,10.1.1.2,33,-0.391,-0.391,-0.391,0.000,0.000,0.000
1643254022041145088,2022-01-27-03:27:02,10.1.1.2,32,-0.401,-0.401,-0.401,0.000,0.000,0.000
1643254022270575104,2022-01-27-03:27:02,10.1.1.2,60,-0.411,-0.411,-0.411,0.000,0.000,0.000
1643254022459939072,2022-01-27-03:27:02,10.1.1.2,49,-0.420,-0.420,-0.420,0.000,0.000,0.000
1643254022634054912,2022-01-27-03:27:02,10.1.1.2,21,-0.431,-0.431,-0.431,0.000,0.000,0.000
1643254022833874944,2022-01-27-03:27:02,10.1.1.2,18,-0.440,-0.440,-0.440,0.000,0.000,0.000
1643254023034075904,2022-01-27-03:27:03,10.1.1.2,18,-0.450,-0.450,-0.450,0.000,0.000,0.000
1643254023232681984,2022-01-27-03:27:03,10.1.1.2,16,-0.460,-0.460,-0.460,0.000,0.000,0.000
1643254023432797952,2022-01-27-03:27:03,10.1.1.2,15,-0.470,-0.470,-0.470,0.000,0.000,0.000
1643254023633531136,2022-01-27-03:27:03,10.1.1.2,15,-0.480,-0.480,-0.480,0.000,0.000,0.000
1643254023853310208,2022-01-27-03:27:03,10.1.1.2,34,-0.489,-0.489,-0.489,0.000,0.000,0.000
1643254024042092032,2022-01-27-03:27:04,10.1.1.2,22,-0.480,-0.480,-0.480,0.000,0.000,0.000
1643254024271943168,2022-01-27-03:27:04,10.1.1.2,51,-0.469,-0.469,-0.469,0.000,0.000,0.000
1643254024443116800,2022-01-27-03:27:04,10.1.1.2,20,-0.460,-0.460,-0.460,0.000,0.000,0.000
1643254024643450880,2022-01-27-03:27:04,10.1.1.2,19,-0.450,-0.450,-0.450,0.000,0.000,0.000
1643254024846322176,2022-01-27-03:27:04,10.1.1.2,21,-0.440,-0.440,-0.440,0.000,0.000,0.000
1643254025042479104,2022-01-27-03:27:05,10.1.1.2,16,-0.430,-0.430,-0.430,0.000,0.000,0.000
1643254025262480896,2022-01-27-03:27:05,10.1.1.2,35,-0.419,-0.419,-0.419,0.000,0.000,0.000
1643254025466976768,2022-01-27-03:27:05,10.1.1.2,38,-0.409,-0.409,-0.409,0.000,0.000,0.000
1643254025663115008,2022-01-27-03:27:05,10.1.1.2,33,-0.399,-0.399,-0.399,0.000,0.000,0.000
1643254025853346048,2022-01-27-03:27:05,10.1.1.2,23,-0.390,-0.390,-0.390,0.000,0.000,0.000
1643254026082305792,2022-01-27-03:27:06,10.1.1.2,51,-0.378,-0.378,-0.378,0.000,0.000,0.000
1643254026254766080,2022-01-27-03:27:06,10.1.1.2,21,-0.370,-0.370,-0.370,0.000,0.000,0.000
1643254026462395904,2022-01-27-03:27:06,10.1.1.2,27,-0.359,-0.359,-0.359,0.000,0.000,0.000
1643254026663374848,2022-01-27-03:27:06,10.1.1.2,27,-0.350,-0.350,-0.350,0.000,0.000,0.000
1643254026864914944,2022-01-27-03:27:06,10.1.1.2,26,-0.340,-0.340,-0.340,0.000,0.000,0.000
1643254027063153920,2022-01-27-03:27:07,10.1.1.2,22,-0.330,-0.330,-0.330,0.000,0.000,0.000
1643254027263000064,2022-01-27-03:27:07,10.1.1.2,21,-0.320,-0.320,-0.320,0.000,0.000,0.000
1643254027462215936,2022-01-27-03:27:07,10.1.1.2,19,-0.310,-0.310,-0.310,0.000,0.000,0.000
1643254027686525184,2022-01-27-03:27:07,10.1.1.2,42,-0.299,-0.299,-0.299,0.000,0.000,0.000
1643254027885128960,2022-01-27-03:27:07,10.1.1.2,39,-0.289,-0.289,-0.289,0.000,0.000,0.000
1643254028064055040,2022-01-27-03:27:08,10.1.1.2,17,-0.280,-0.280,-0.280,0.000,0.000,0.000
1643254028282171136,2022-01-27-03:27:08,10.1.1.2,33,-0.269,-0.269,-0.269,0.000,0.000,0.000
1643254028481848064,2022-01-27-03:27:08,10.1.1.2,31,-0.259,-0.259,-0.259,0.000,0.000,0.000
1643254028682439168,2022-01-27-03:27:08,10.1.1.2,29,-0.249,-0.249,-0.249,0.000,0.000,0.000
1643254028882947072,2022-01-27-03:27:08,10.1.1.2,23,-0.240,-0.240,-0.240,0.000,0.000,0.000
1643254029082241024,2022-01-27-03:27:09,10.1.1.2,22,-0.230,-0.230,-0.230,0.000,0.000,0.000
1643254029282525184,2022-01-27-03:27:09,10.1.1.2,19,-0.220,-0.220,-0.220,0.000,0.000,0.000
1643254029484375040,2022-01-27-03:27:09,10.1.1.2,20,-0.210,-0.210,-0.210,0.000,0.000,0.000
1643254029701814016,2022-01-27-03:27:09,10.1.1.2,33,-0.199,-0.199,-0.199,0.000,0.000,0.000
1643254029902526976,2022-01-27-03:27:09,10.1.1.2,32,-0.189,-0.189,-0.189,0.000,0.000,0.000
1643254030102830848,2022-01-27-03:27:10,10.1.1.2,31,-0.179,-0.179,-0.179,0.000,0.000,0.000
1643254030292815872,2022-01-27-03:27:10,10.1.1.2,19,-0.170,-0.170,-0.170,0.000,0.000,0.000
1643254030500719104,2022-01-27-03:27:10,10.1.1.2,25,-0.160,-0.160,-0.160,0.000,0.000,0.000
1643254030779644928,2022-01-27-03:27:10,10.1.1.2,103,-0.148,-0.148,-0.148,0.000,0.000,0.000
1643254030897152000,2022-01-27-03:27:10,10.1.1.2,19,-0.140,-0.140,-0.140,0.000,0.000,0.000
1643254031098593024,2022-01-27-03:27:11,10.1.1.2,19,-0.130,-0.130,-0.130,0.000,0.000,0.000
1643254031297734912,2022-01-27-03:27:11,10.1.1.2,18,-0.120,-0.120,-0.120,0.000,0.000,0.000
1643254031498657024,2022-01-27-03:27:11,10.1.1.2,18,-0.110,-0.110,-0.110,0.000,0.000,0.000
1643254031696275968,2022-01-27-03:27:11,10.1.1.2,14,-0.100,-0.100,-0.100,0.000,0.000,0.000
1643254031897841920,2022-01-27-03:27:11,10.1.1.2,14,-0.090,-0.090,-0.090,0.000,0.000,0.000
1643254032116813056,2022-01-27-03:27:12,10.1.1.2,33,-0.079,-0.079,-0.079,0.000,0.000,0.000
1643254032316824064,2022-01-27-03:27:12,10.1.1.2,32,-0.069,-0.069,-0.069,0.000,0.000,0.000
1643254032515672064,2022-01-27-03:27:12,10.1.1.2,30,-0.059,-0.059,-0.059,0.000,0.000,0.000
1643254032713622016,2022-01-27-03:27:12,10.1.1.2,26,-0.050,-0.050,-0.050,0.000,0.000,0.000
1643254032916480000,2022-01-27-03:27:12,10.1.1.2,25,-0.039,-0.039,-0.039,0.000,0.000,0.000
1643254033115986944,2022-01-27-03:27:13,10.1.1.2,24,-0.030,-0.030,-0.030,0.000,0.000,0.000
1643254033337046016,2022-01-27-03:27:13,10.1.1.2,43,-0.019,-0.019,-0.019,0.000,0.000,0.000
1643254033536595200,2022-01-27-03:27:13,10.1.1.2,40,-0.009,-0.009,-0.009,0.000,0.000,0.000
1643254033737267968,2022-01-27-03:27:13,10.1.1.2,39,-0.001,-0.001,-0.001,0.000,0.000,0.000
1643254033917700096,2022-01-27-03:27:13,10.1.1.2,18,-0.010,-0.010,-0.010,0.000,0.000,0.000
1643254034147956992,2022-01-27-03:27:14,10.1.1.2,45,-0.021,-0.021,-0.021,0.000,0.000,0.000
1643254034338391040,2022-01-27-03:27:14,10.1.1.2,35,-0.031,-0.031,-0.031,0.000,0.000,0.000
1643254034539361024,2022-01-27-03:27:14,10.1.1.2,35,-0.041,-0.041,-0.041,0.000,0.000,0.000
1643254034738393088,2022-01-27-03:27:14,10.1.1.2,33,-0.051,-0.051,-0.051,0.000,0.000,0.000
1643254034938077952,2022-01-27-03:27:14,10.1.1.2,32,-0.061,-0.061,-0.061,0.000,0.000,0.000
1643254035136833792,2022-01-27-03:27:15,10.1.1.2,30,-0.070,-0.070,-0.070,0.000,0.000,0.000
1643254035338210048,2022-01-27-03:27:15,10.1.1.2,30,-0.081,-0.081,-0.081,0.000,0.000,0.000
1643254035538686976,2022-01-27-03:27:15,10.1.1.2,27,-0.090,-0.090,-0.090,0.000,0.000,0.000
1643254035738172928,2022-01-27-03:27:15,10.1.1.2,24,-0.100,-0.100,-0.100,0.000,0.000,0.000
1643254035938198016,2022-01-27-03:27:15,10.1.1.2,23,-0.110,-0.110,-0.110,0.000,0.000,0.000
1643254036137507840,2022-01-27-03:27:16,10.1.1.2,21,-0.120,-0.120,-0.120,0.000,0.000,0.000
1643254036338542848,2022-01-27-03:27:16,10.1.1.2,20,-0.130,-0.130,-0.130,0.000,0.000,0.000
1643254036558231040,2022-01-27-03:27:16,10.1.1.2,37,-0.141,-0.141,-0.141,0.000,0.000,0.000
1643254036761435904,2022-01-27-03:27:16,10.1.1.2,39,-0.151,-0.151,-0.151,0.000,0.000,0.000
1643254037004363008,2022-01-27-03:27:17,10.1.1.2,81,-0.162,-0.162,-0.162,0.000,0.000,0.000
1643254037189108992,2022-01-27-03:27:17,10.1.1.2,63,-0.172,-0.172,-0.172,0.000,0.000,0.000
1643254037354083072,2022-01-27-03:27:17,10.1.1.2,27,-0.181,-0.181,-0.181,0.000,0.000,0.000
1643254037556536832,2022-01-27-03:27:17,10.1.1.2,27,-0.191,-0.191,-0.191,0.000,0.000,0.000
1643254037754668032,2022-01-27-03:27:17,10.1.1.2,25,-0.201,-0.201,-0.201,0.000,0.000,0.000
1643254037954871808,2022-01-27-03:27:17,10.1.1.2,24,-0.210,-0.210,-0.210,0.000,0.000,0.000
1643254038156343040,2022-01-27-03:27:18,10.1.1.2,23,-0.220,-0.220,-0.220,0.000,0.000,0.000
1643254038356358144,2022-01-27-03:27:18,10.1.1.2,22,-0.230,-0.230,-0.230,0.000,0.000,0.000
1643254038555414016,2022-01-27-03:27:18,10.1.1.2,19,-0.240,-0.240,-0.240,0.000,0.000,0.000
1643254038776043776,2022-01-27-03:27:18,10.1.1.2,38,-0.251,-0.251,-0.251,0.000,0.000,0.000
1643254038977104896,2022-01-27-03:27:18,10.1.1.2,39,-0.261,-0.261,-0.261,0.000,0.000,0.000
1643254039176340224,2022-01-27-03:27:19,10.1.1.2,36,-0.271,-0.271,-0.271,0.000,0.000,0.000
1643254039374834176,2022-01-27-03:27:19,10.1.1.2,32,-0.281,-0.281,-0.281,0.000,0.000,0.000
1643254039603705856,2022-01-27-03:27:19,10.1.1.2,60,-0.291,-0.291,-0.291,0.000,0.000,0.000
1643254039782706944,2022-01-27-03:27:19,10.1.1.2,38,-0.301,-0.301,-0.301,0.000,0.000,0.000
1643254039961958912,2022-01-27-03:27:19,10.1.1.2,16,-0.310,-0.310,-0.310,0.000,0.000,0.000
1643254040182476032,2022-01-27-03:27:20,10.1.1.2,36,-0.321,-0.321,-0.321,0.000,0.000,0.000
1643254040382222848,2022-01-27-03:27:20,10.1.1.2,35,-0.331,-0.331,-0.331,0.000,0.000,0.000
1643254040574928128,2022-01-27-03:27:20,10.1.1.2,26,-0.340,-0.340,-0.340,0.000,0.000,0.000
1643254040797088000,2022-01-27-03:27:20,10.1.1.2,47,-0.350,-0.350,-0.350,0.000,0.000,0.000
1643254040998157056,2022-01-27-03:27:20,10.1.1.2,45,-0.361,-0.361,-0.361,0.000,0.000,0.000
1643254041201835008,2022-01-27-03:27:21,10.1.1.2,48,-0.370,-0.370,-0.370,0.000,0.000,0.000
1643254041382477056,2022-01-27-03:27:21,10.1.1.2,28,-0.381,-0.381,-0.381,0.000,0.000,0.000
1643254041580387072,2022-01-27-03:27:21,10.1.1.2,25,-0.391,-0.391,-0.391,0.000,0.000,0.000
1643254041782301952,2022-01-27-03:27:21,10.1.1.2,25,-0.400,-0.400,-0.400,0.000,0.000,0.000
1643254041982629120,2022-01-27-03:27:21,10.1.1.2,25,-0.410,-0.410,-0.410,0.000,0.000,0.000
1643254042201297920,2022-01-27-03:27:22,10.1.1.2,42,-0.421,-0.421,-0.421,0.000,0.000,0.000
1643254042382553088,2022-01-27-03:27:22,10.1.1.2,23,-0.430,-0.430,-0.430,0.000,0.000,0.000
1643254042583703040,2022-01-27-03:27:22,10.1.1.2,23,-0.440,-0.440,-0.440,0.000,0.000,0.000
1643254042781255936,2022-01-27-03:27:22,10.1.1.2,20,-0.450,-0.450,-0.450,0.000,0.000,0.000
1643254043001494784,2022-01-27-03:27:23,10.1.1.2,39,-0.461,-0.461,-0.461,0.000,0.000,0.000
1643254043181181952,2022-01-27-03:27:23,10.1.1.2,17,-0.470,-0.470,-0.470,0.000,0.000,0.000
1643254043400551168,2022-01-27-03:27:23,10.1.1.2,36,-0.481,-0.481,-0.481,0.000,0.000,0.000
1643254043582632960,2022-01-27-03:27:23,10.1.1.2,17,-0.490,-0.490,-0.490,0.000,0.000,0.000
1643254043810838016,2022-01-27-03:27:23,10.1.1.2,43,-0.479,-0.479,-0.479,0.000,0.000,0.000
1643254044000825856,2022-01-27-03:27:24,10.1.1.2,31,-0.469,-0.469,-0.469,0.000,0.000,0.000
1643254044201108992,2022-01-27-03:27:24,10.1.1.2,31,-0.459,-0.459,-0.459,0.000,0.000,0.000
1643254044401277952,2022-01-27-03:27:24,10.1.1.2,29,-0.450,-0.450,-0.450,0.000,0.000,0.000
1643254044601283072,2022-01-27-03:27:24,10.1.1.2,28,-0.439,-0.439,-0.439,0.000,0.000,0.000
1643254044801507840,2022-01-27-03:27:24,10.1.1.2,26,-0.429,-0.429,-0.429,0.000,0.000,0.000
1643254044999214848,2022-01-27-03:27:24,10.1.1.2,23,-0.420,-0.420,-0.420,0.000,0.000,0.000
1643254045199676928,2022-01-27-03:27:25,10.1.1.2,22,-0.410,-0.410,-0.410,0.000,0.000,0.000
1643254045419489024,2022-01-27-03:27:25,10.1.1.2,38,-0.399,-0.399,-0.399,0.000,0.000,0.000
1643254045619508992,2022-01-27-03:27:25,10.1.1.2,37,-0.389,-0.389,-0.389,0.000,0.000,0.000
1643254045819802112,2022-01-27-03:27:25,10.1.1.2,36,-0.379,-0.379,-0.379,0.000,0.000,0.000
1643254046020322048,2022-01-27-03:27:26,10.1.1.2,35,-0.369,-0.369,-0.369,0.000,0.000,0.000
1643254046220470016,2022-01-27-03:27:26,10.1.1.2,34,-0.359,-0.359,-0.359,0.000,0.000,0.000
1643254046420398080,2022-01-27-03:27:26,10.1.1.2,33,-0.349,-0.349,-0.349,0.000,0.000,0.000
1643254046620325120,2022-01-27-03:27:26,10.1.1.2,33,-0.340,-0.340,-0.340,0.000,0.000,0.000
1643254046819091200,2022-01-27-03:27:26,10.1.1.2,30,-0.329,-0.329,-0.329,0.000,0.000,0.000
1643254047019537920,2022-01-27-03:27:27,10.1.1.2,29,-0.319,-0.319,-0.319,0.000,0.000,0.000
1643254047219430912,2022-01-27-03:27:27,10.1.1.2,29,-0.309,-0.309,-0.309,0.000,0.000,0.000
1643254047419694848,2022-01-27-03:27:27,10.1.1.2,25,-0.300,-0.300,-0.300,0.000,0.000,0.000
1643254047620024064,2022-01-27-03:27:27,10.1.1.2,24,-0.289,-0.289,-0.289,0.000,0.000,0.000
1643254047820802048,2022-01-27-03:27:27,10.1.1.2,24,-0.280,-0.280,-0.280,0.000,0.000,0.000
1643254048039952128,2022-01-27-03:27:28,10.1.1.2,42,-0.269,-0.269,-0.269,0.000,0.000,0.000
1643254048229661952,2022-01-27-03:27:28,10.1.1.2,29,-0.260,-0.260,-0.260,0.000,0.000,0.000
1643254048427625984,2022-01-27-03:27:28,10.1.1.2,26,-0.250,-0.250,-0.250,0.000,0.000,0.000
1643254048637851904,2022-01-27-03:27:28,10.1.1.2,35,-0.239,-0.239,-0.239,0.000,0.000,0.000
1643254048817544960,2022-01-27-03:27:28,10.1.1.2,14,-0.230,-0.230,-0.230,0.000,0.000,0.000
1643254049038158848,2022-01-27-03:27:29,10.1.1.2,34,-0.219,-0.219,-0.219,0.000,0.000,0.000
1643254049238639104,2022-01-27-03:27:29,10.1.1.2,33,-0.209,-0.209,-0.209,0.000,0.000,0.000
1643254049437810944,2022-01-27-03:27:29,10.1.1.2,32,-0.199,-0.199,-0.199,0.000,0.000,0.000
1643254049637462016,2022-01-27-03:27:29,10.1.1.2,30,-0.189,-0.189,-0.189,0.000,0.000,0.000
1643254049837784064,2022-01-27-03:27:29,10.1.1.2,29,-0.179,-0.179,-0.179,0.000,0.000,0.000
1643254050037537024,2022-01-27-03:27:30,10.1.1.2,28,-0.169,-0.169,-0.169,0.000,0.000,0.000
1643254050240206848,2022-01-27-03:27:30,10.1.1.2,30,-0.159,-0.159,-0.159,0.000,0.000,0.000
1643254050439211008,2022-01-27-03:27:30,10.1.1.2,28,-0.150,-0.150,-0.150,0.000,0.000,0.000
1643254050639482880,2022-01-27-03:27:30,10.1.1.2,27,-0.140,-0.140,-0.140,0.000,0.000,0.000
1643254050840365056,2022-01-27-03:27:30,10.1.1.2,27,-0.129,-0.129,-0.129,0.000,0.000,0.000
1643254051039843072,2022-01-27-03:27:31,10.1.1.2,26,-0.120,-0.120,-0.120,0.000,0.000,0.000
1643254051239348992,2022-01-27-03:27:31,10.1.1.2,24,-0.109,-0.109,-0.109,0.000,0.000,0.000
1643254051466153984,2022-01-27-03:27:31,10.1.1.2,50,-0.100,-0.100,-0.100,0.000,0.000,0.000
1643254051635236864,2022-01-27-03:27:31,10.1.1.2,17,-0.090,-0.090,-0.090,0.000,0.000,0.000
1643254051838688000,2022-01-27-03:27:31,10.1.1.2,18,-0.080,-0.080,-0.080,0.000,0.000,0.000
1643254052058202112,2022-01-27-03:27:32,10.1.1.2,36,-0.069,-0.069,-0.069,0.000,0.000,0.000
1643254052270540032,2022-01-27-03:27:32,10.1.1.2,48,-0.059,-0.059,-0.059,0.000,0.000,0.000
1643254052458324992,2022-01-27-03:27:32,10.1.1.2,34,-0.049,-0.049,-0.049,0.000,0.000,0.000
1643254052667439872,2022-01-27-03:27:32,10.1.1.2,42,-0.039,-0.039,-0.039,0.000,0.000,0.000
1643254052857011968,2022-01-27-03:27:32,10.1.1.2,31,-0.029,-0.029,-0.029,0.000,0.000,0.000
1643254053071207168,2022-01-27-03:27:33,10.1.1.2,44,-0.019,-0.019,-0.019,0.000,0.000,0.000
1643254053257779968,2022-01-27-03:27:33,10.1.1.2,28,-0.009,-0.009,-0.009,0.000,0.000,0.000
1643254053440112128,2022-01-27-03:27:33,10.1.1.2,6,-0.000,-0.000,-0.000,0.000,0.000,0.000
1643254053658112000,2022-01-27-03:27:33,10.1.1.2,24,-0.010,-0.010,-0.010,0.000,0.000,0.000
1643254053858567936,2022-01-27-03:27:33,10.1.1.2,23,-0.020,-0.020,-0.020,0.000,0.000,0.000
1643254054057286912,2022-01-27-03:27:34,10.1.1.2,21,-0.030,-0.030,-0.030,0.000,0.000,0.000
1643254054257015040,2022-01-27-03:27:34,10.1.1.2,19,-0.040,-0.040,-0.040,0.000,0.000,0.000
1643254054479938048,2022-01-27-03:27:34,10.1.1.2,39,-0.051,-0.051,-0.051,0.000,0.000,0.000
1643254054657475072,2022-01-27-03:27:34,10.1.1.2,17,-0.060,-0.060,-0.060,0.000,0.000,0.000
1643254054858336000,2022-01-27-03:27:34,10.1.1.2,17,-0.070,-0.070,-0.070,0.000,0.000,0.000
1643254055078620928,2022-01-27-03:27:35,10.1.1.2,36,-0.081,-0.081,-0.081,0.000,0.000,0.000
