FedericoMungari/DigitalTwin_service/01_WiredScenario/Output/Output_script/script_rosapi_2_output_robots8_freq0_3.txt
timestamp,date,node,latency,joint_1,joint_2,joint_3,joint_4,joint_5,joint_6
1644915519051693824,2022-02-15-08:58:39,10.1.1.4,7,-0.100,-0.100,-0.100,0.000,-0.000,0.000
1644915519131755008,2022-02-15-08:58:39,10.1.1.4,37,-0.090,-0.090,-0.090,0.000,0.000,0.000
1644915519172152064,2022-02-15-08:58:39,10.1.1.4,27,-0.080,-0.080,-0.080,0.000,0.000,0.000
1644915519231800064,2022-02-15-08:58:39,10.1.1.4,35,-0.070,-0.070,-0.070,0.000,0.000,0.000
1644915519271666176,2022-02-15-08:58:39,10.1.1.4,25,-0.060,-0.060,-0.060,0.000,0.000,0.000
1644915519331643136,2022-02-15-08:58:39,10.1.1.4,34,-0.050,-0.050,-0.050,0.000,0.000,0.000
1644915519531936000,2022-02-15-08:58:39,10.1.1.4,30,-0.010,-0.010,-0.010,0.000,0.000,0.000
1644915519591676928,2022-02-15-08:58:39,10.1.1.4,39,0.000,0.000,0.000,0.000,0.000,0.000
1644915519632181760,2022-02-15-08:58:39,10.1.1.4,28,0.010,0.010,0.010,0.000,0.000,0.000
1644915519691137024,2022-02-15-08:58:39,10.1.1.4,37,0.020,0.020,0.020,0.000,0.000,0.000
1644915519731616000,2022-02-15-08:58:39,10.1.1.4,26,0.030,0.030,0.030,0.000,0.000,0.000
1644915519791760896,2022-02-15-08:58:39,10.1.1.4,36,0.040,0.040,0.040,0.000,0.000,0.000
1644915519832403968,2022-02-15-08:58:39,10.1.1.4,25,0.050,0.050,0.050,0.000,0.000,0.000
1644915519892041984,2022-02-15-08:58:39,10.1.1.4,34,0.060,0.060,0.060,0.000,0.000,0.000
1644915519932004096,2022-02-15-08:58:39,10.1.1.4,24,0.070,0.070,0.070,0.000,0.000,0.000
1644915520192384000,2022-02-15-08:58:40,10.1.1.4,30,0.080,0.080,0.080,0.000,0.000,0.000
1644915520252327936,2022-02-15-08:58:40,10.1.1.4,39,0.070,0.070,0.070,0.000,0.000,0.000
1644915520292102144,2022-02-15-08:58:40,10.1.1.4,27,0.060,0.060,0.060,0.000,0.000,0.000
1644915520411866880,2022-02-15-08:58:40,10.1.1.4,37,0.040,0.040,0.040,0.000,0.000,0.000
1644915520452009984,2022-02-15-08:58:40,10.1.1.4,24,0.030,0.030,0.030,0.000,0.000,0.000
1644915520512088064,2022-02-15-08:58:40,10.1.1.4,34,0.020,0.020,0.020,0.000,0.000,0.000
1644915520814310144,2022-02-15-08:58:40,10.1.1.4,31,-0.040,-0.040,-0.040,0.000,0.000,0.000
1644915520912514816,2022-02-15-08:58:40,10.1.1.4,29,-0.060,-0.060,-0.060,0.000,0.000,0.000
1644915521012249088,2022-02-15-08:58:41,10.1.1.4,29,-0.080,-0.080,-0.080,0.000,0.000,0.000
1644915521111810816,2022-02-15-08:58:41,10.1.1.4,28,-0.100,-0.100,-0.100,0.000,0.000,0.000
1644915521171643136,2022-02-15-08:58:41,10.1.1.4,37,-0.090,-0.090,-0.090,0.000,0.000,0.000
1644915521211318016,2022-02-15-08:58:41,10.1.1.4,26,-0.080,-0.080,-0.080,0.000,0.000,0.000
1644915521271537152,2022-02-15-08:58:41,10.1.1.4,36,-0.070,-0.070,-0.070,0.000,0.000,0.000
1644915521312589056,2022-02-15-08:58:41,10.1.1.4,26,-0.060,-0.060,-0.060,0.000,0.000,0.000
1644915521372165888,2022-02-15-08:58:41,10.1.1.4,36,-0.050,-0.050,-0.050,0.000,0.000,0.000
1644915521411484928,2022-02-15-08:58:41,10.1.1.4,25,-0.040,-0.040,-0.040,0.000,0.000,0.000
1644915521471587840,2022-02-15-08:58:41,10.1.1.4,35,-0.030,-0.030,-0.030,0.000,0.000,0.000
1644915521512273152,2022-02-15-08:58:41,10.1.1.4,24,-0.020,-0.020,-0.020,0.000,0.000,0.000
1644915521571919872,2022-02-15-08:58:41,10.1.1.4,34,-0.010,-0.010,-0.010,0.000,0.000,0.000
1644915521611779072,2022-02-15-08:58:41,10.1.1.4,23,0.000,0.000,0.000,0.000,0.000,0.000
1644915521812103936,2022-02-15-08:58:41,10.1.1.4,20,0.040,0.040,0.040,0.000,0.000,0.000
1644915521872081152,2022-02-15-08:58:41,10.1.1.4,30,0.050,0.050,0.050,0.000,0.000,0.000
1644915521972035840,2022-02-15-08:58:41,10.1.1.4,29,0.070,0.070,0.070,0.000,0.000,0.000
1644915522031821056,2022-02-15-08:58:42,10.1.1.4,38,0.080,0.080,0.080,0.000,0.000,0.000
1644915522071939840,2022-02-15-08:58:42,10.1.1.4,28,0.090,0.090,0.090,0.000,0.000,0.000
1644915522132139008,2022-02-15-08:58:42,10.1.1.4,37,0.100,0.100,0.100,0.000,0.000,0.000
1644915522171880960,2022-02-15-08:58:42,10.1.1.4,26,0.090,0.090,0.090,0.000,0.000,0.000
1644915522232088064,2022-02-15-08:58:42,10.1.1.4,36,0.080,0.080,0.080,0.000,0.000,0.000
1644915522271886080,2022-02-15-08:58:42,10.1.1.4,25,0.070,0.070,0.070,0.000,0.000,0.000
1644915522331817984,2022-02-15-08:58:42,10.1.1.4,35,0.060,0.060,0.060,0.000,0.000,0.000
1644915522372396032,2022-02-15-08:58:42,10.1.1.4,24,0.050,0.050,0.050,0.000,0.000,0.000
1644915522431616000,2022-02-15-08:58:42,10.1.1.4,34,0.040,0.040,0.040,0.000,0.000,0.000
1644915522533693184,2022-02-15-08:58:42,10.1.1.4,27,0.020,0.020,0.020,0.000,0.000,0.000
1644915522592089856,2022-02-15-08:58:42,10.1.1.4,35,0.010,0.010,0.010,0.000,0.000,0.000
1644915522632240128,2022-02-15-08:58:42,10.1.1.4,25,-0.000,-0.000,-0.000,0.000,0.000,0.000
1644915522692433152,2022-02-15-08:58:42,10.1.1.4,35,-0.010,-0.010,-0.010,0.000,0.000,0.000
1644915522732992768,2022-02-15-08:58:42,10.1.1.4,23,-0.020,-0.020,-0.020,0.000,0.000,0.000
1644915522792963072,2022-02-15-08:58:42,10.1.1.4,34,-0.030,-0.030,-0.030,0.000,0.000,0.000
1644915523092129024,2022-02-15-08:58:43,10.1.1.4,30,-0.090,-0.090,-0.090,0.000,0.000,0.000
1644915523172559872,2022-02-15-08:58:43,10.1.1.4,9,-0.090,-0.090,-0.090,0.000,0.000,0.000
1644915523252023040,2022-02-15-08:58:43,10.1.1.4,38,-0.080,-0.080,-0.080,0.000,0.000,0.000
1644915523292088064,2022-02-15-08:58:43,10.1.1.4,28,-0.070,-0.070,-0.070,0.000,0.000,0.000
1644915523352050176,2022-02-15-08:58:43,10.1.1.4,37,-0.060,-0.060,-0.060,0.000,0.000,0.000
1644915523391638016,2022-02-15-08:58:43,10.1.1.4,27,-0.050,-0.050,-0.050,0.000,0.000,0.000
1644915523451879936,2022-02-15-08:58:43,10.1.1.4,37,-0.040,-0.040,-0.040,0.000,0.000,0.000
1644915523492146944,2022-02-15-08:58:43,10.1.1.4,26,-0.030,-0.030,-0.030,0.000,0.000,0.000
1644915523551582976,2022-02-15-08:58:43,10.1.1.4,36,-0.020,-0.020,-0.020,0.000,0.000,0.000
1644915523592006912,2022-02-15-08:58:43,10.1.1.4,25,-0.010,-0.010,-0.010,0.000,0.000,0.000
1644915523651949824,2022-02-15-08:58:43,10.1.1.4,35,0.000,0.000,0.000,0.000,0.000,0.000
1644915523692361216,2022-02-15-08:58:43,10.1.1.4,24,0.010,0.010,0.010,0.000,0.000,0.000
1644915523751939072,2022-02-15-08:58:43,10.1.1.4,34,0.020,0.020,0.020,0.000,0.000,0.000
1644915523792146944,2022-02-15-08:58:43,10.1.1.4,23,0.030,0.030,0.030,0.000,0.000,0.000
1644915524051596032,2022-02-15-08:58:44,10.1.1.4,29,0.080,0.080,0.080,0.000,0.000,0.000
1644915524111720960,2022-02-15-08:58:44,10.1.1.4,39,0.090,0.090,0.090,0.000,0.000,0.000
1644915524152171008,2022-02-15-08:58:44,10.1.1.4,29,0.100,0.100,0.100,0.000,0.000,0.000
1644915524211198208,2022-02-15-08:58:44,10.1.1.4,38,0.090,0.090,0.090,0.000,0.000,0.000
1644915524251774976,2022-02-15-08:58:44,10.1.1.4,28,0.080,0.080,0.080,0.000,0.000,0.000
1644915524313950976,2022-02-15-08:58:44,10.1.1.4,38,0.070,0.070,0.070,0.000,0.000,0.000
1644915524352248832,2022-02-15-08:58:44,10.1.1.4,27,0.060,0.060,0.060,0.000,0.000,0.000
1644915524411747840,2022-02-15-08:58:44,10.1.1.4,37,0.050,0.050,0.050,0.000,0.000,0.000
1644915524451986176,2022-02-15-08:58:44,10.1.1.4,26,0.040,0.040,0.040,0.000,0.000,0.000
1644915524513490944,2022-02-15-08:58:44,10.1.1.4,35,0.030,0.030,0.030,0.000,0.000,0.000
1644915524552506880,2022-02-15-08:58:44,10.1.1.4,24,0.020,0.020,0.020,0.000,0.000,0.000
1644915524613821952,2022-02-15-08:58:44,10.1.1.4,34,0.010,0.010,0.010,0.000,0.000,0.000
1644915524653839104,2022-02-15-08:58:44,10.1.1.4,23,0.000,0.000,0.000,0.000,0.000,0.000
1644915524892899072,2022-02-15-08:58:44,10.1.1.4,38,-0.040,-0.040,-0.040,0.000,0.000,0.000
1644915524932732160,2022-02-15-08:58:44,10.1.1.4,28,-0.050,-0.050,-0.050,0.000,0.000,0.000
1644915524992829184,2022-02-15-08:58:44,10.1.1.4,37,-0.060,-0.060,-0.060,0.000,0.000,0.000
1644915525031645184,2022-02-15-08:58:45,10.1.1.4,26,-0.070,-0.070,-0.070,0.000,0.000,0.000
1644915525092092160,2022-02-15-08:58:45,10.1.1.4,35,-0.080,-0.080,-0.080,0.000,0.000,0.000
1644915525132252928,2022-02-15-08:58:45,10.1.1.4,25,-0.090,-0.090,-0.090,0.000,0.000,0.000
1644915525192848896,2022-02-15-08:58:45,10.1.1.4,35,-0.100,-0.100,-0.100,0.000,0.000,0.000
1644915525232109056,2022-02-15-08:58:45,10.1.1.4,24,-0.090,-0.090,-0.090,0.000,0.000,0.000
1644915525291862016,2022-02-15-08:58:45,10.1.1.4,33,-0.080,-0.080,-0.080,0.000,0.000,0.000
1644915525392480000,2022-02-15-08:58:45,10.1.1.4,29,-0.060,-0.060,-0.060,0.000,0.000,0.000
1644915525452704000,2022-02-15-08:58:45,10.1.1.4,39,-0.050,-0.050,-0.050,0.000,0.000,0.000
1644915525493470976,2022-02-15-08:58:45,10.1.1.4,28,-0.040,-0.040,-0.040,0.000,0.000,0.000
1644915525552218880,2022-02-15-08:58:45,10.1.1.4,37,-0.030,-0.030,-0.030,0.000,0.000,0.000
1644915525592020992,2022-02-15-08:58:45,10.1.1.4,26,-0.020,-0.020,-0.020,0.000,0.000,0.000
1644915525653196032,2022-02-15-08:58:45,10.1.1.4,36,-0.010,-0.010,-0.010,0.000,0.000,0.000
1644915525692645120,2022-02-15-08:58:45,10.1.1.4,25,0.000,0.000,0.000,0.000,0.000,0.000
1644915525752980992,2022-02-15-08:58:45,10.1.1.4,34,0.010,0.010,0.010,0.000,0.000,0.000
1644915525912604928,2022-02-15-08:58:45,10.1.1.4,38,0.040,0.040,0.040,0.000,0.000,0.000
1644915525952299008,2022-02-15-08:58:45,10.1.1.4,27,0.050,0.050,0.050,0.000,0.000,0.000
1644915526014036992,2022-02-15-08:58:46,10.1.1.4,37,0.060,0.060,0.060,0.000,0.000,0.000
1644915526053118976,2022-02-15-08:58:46,10.1.1.4,26,0.070,0.070,0.070,0.000,0.000,0.000
1644915526111784960,2022-02-15-08:58:46,10.1.1.4,36,0.080,0.080,0.080,0.000,0.000,0.000
1644915526152343040,2022-02-15-08:58:46,10.1.1.4,26,0.090,0.090,0.090,0.000,0.000,0.000
1644915526213132032,2022-02-15-08:58:46,10.1.1.4,35,0.100,0.100,0.100,0.000,0.000,0.000
1644915526252407040,2022-02-15-08:58:46,10.1.1.4,24,0.090,0.090,0.090,0.000,0.000,0.000
1644915526512109056,2022-02-15-08:58:46,10.1.1.4,29,0.040,0.040,0.040,0.000,0.000,0.000
1644915526613639168,2022-02-15-08:58:46,10.1.1.4,28,0.020,0.020,0.020,0.000,0.000,0.000
1644915526672398080,2022-02-15-08:58:46,10.1.1.4,38,0.010,0.010,0.010,0.000,0.000,0.000
1644915526711240960,2022-02-15-08:58:46,10.1.1.4,27,0.000,0.000,0.000,0.000,0.000,0.000
1644915526772706048,2022-02-15-08:58:46,10.1.1.4,37,-0.010,-0.010,-0.010,0.000,0.000,0.000
1644915526811738880,2022-02-15-08:58:46,10.1.1.4,27,-0.020,-0.020,-0.020,0.000,0.000,0.000
1644915526875019008,2022-02-15-08:58:46,10.1.1.4,36,-0.030,-0.030,-0.030,0.000,0.000,0.000
1644915526934222080,2022-02-15-08:58:46,10.1.1.4,37,-0.040,-0.040,-0.040,0.000,0.000,0.000
1644915527345117952,2022-02-15-08:58:47,10.1.1.4,30,-0.080,-0.080,-0.080,0.000,0.000,0.000
1644915527433160192,2022-02-15-08:58:47,10.1.1.4,28,-0.060,-0.060,-0.060,0.000,0.000,0.000
1644915527492700928,2022-02-15-08:58:47,10.1.1.4,36,-0.050,-0.050,-0.050,0.000,0.000,0.000
1644915527532388096,2022-02-15-08:58:47,10.1.1.4,26,-0.040,-0.040,-0.040,0.000,0.000,0.000
1644915527594907136,2022-02-15-08:58:47,10.1.1.4,37,-0.030,-0.030,-0.030,0.000,0.000,0.000
1644915527632442112,2022-02-15-08:58:47,10.1.1.4,26,-0.020,-0.020,-0.020,0.000,0.000,0.000
1644915527694053888,2022-02-15-08:58:47,10.1.1.4,36,-0.010,-0.010,-0.010,0.000,0.000,0.000
1644915527732598016,2022-02-15-08:58:47,10.1.1.4,25,0.000,0.000,0.000,0.000,0.000,0.000
1644915527793297152,2022-02-15-08:58:47,10.1.1.4,34,0.010,0.010,0.010,0.000,0.000,0.000
1644915527832422912,2022-02-15-08:58:47,10.1.1.4,23,0.020,0.020,0.020,0.000,0.000,0.000
1644915528092936960,2022-02-15-08:58:48,10.1.1.4,30,0.070,0.070,0.070,0.000,0.000,0.000
1644915528192406016,2022-02-15-08:58:48,10.1.1.4,28,0.090,0.090,0.090,0.000,0.000,0.000
1644915528253094912,2022-02-15-08:58:48,10.1.1.4,37,0.100,0.100,0.100,0.000,0.000,0.000
1644915528293000960,2022-02-15-08:58:48,10.1.1.4,26,0.090,0.090,0.090,0.000,0.000,0.000
1644915528353713920,2022-02-15-08:58:48,10.1.1.4,37,0.080,0.080,0.080,0.000,0.000,0.000
1644915528393495040,2022-02-15-08:58:48,10.1.1.4,26,0.070,0.070,0.070,0.000,0.000,0.000
1644915528452976896,2022-02-15-08:58:48,10.1.1.4,36,0.060,0.060,0.060,0.000,0.000,0.000
1644915528494065920,2022-02-15-08:58:48,10.1.1.4,24,0.050,0.050,0.050,0.000,0.000,0.000
1644915528553342208,2022-02-15-08:58:48,10.1.1.4,34,0.040,0.040,0.040,0.000,0.000,0.000
1644915528853485056,2022-02-15-08:58:48,10.1.1.4,31,-0.020,-0.020,-0.020,0.000,0.000,0.000
1644915528952923904,2022-02-15-08:58:48,10.1.1.4,29,-0.040,-0.040,-0.040,0.000,0.000,0.000
1644915529052237056,2022-02-15-08:58:49,10.1.1.4,28,-0.060,-0.060,-0.060,0.000,0.000,0.000
1644915529116043008,2022-02-15-08:58:49,10.1.1.4,37,-0.070,-0.070,-0.070,0.000,0.000,0.000
1644915529152744960,2022-02-15-08:58:49,10.1.1.4,25,-0.080,-0.080,-0.080,0.000,0.000,0.000
1644915529213327872,2022-02-15-08:58:49,10.1.1.4,36,-0.090,-0.090,-0.090,0.000,0.000,0.000
1644915529252850944,2022-02-15-08:58:49,10.1.1.4,26,-0.100,-0.100,-0.100,0.000,0.000,0.000
1644915529312819968,2022-02-15-08:58:49,10.1.1.4,35,-0.090,-0.090,-0.090,0.000,0.000,0.000
1644915529352813056,2022-02-15-08:58:49,10.1.1.4,24,-0.080,-0.080,-0.080,0.000,0.000,0.000
1644915529419447808,2022-02-15-08:58:49,10.1.1.4,34,-0.070,-0.070,-0.070,0.000,0.000,0.000
1644915529472600064,2022-02-15-08:58:49,10.1.1.4,34,-0.060,-0.060,-0.060,0.000,0.000,0.000
1644915529772536064,2022-02-15-08:58:49,10.1.1.4,30,-0.000,-0.000,-0.000,0.000,0.000,0.000
1644915529873619968,2022-02-15-08:58:49,10.1.1.4,30,0.020,0.020,0.020,0.000,0.000,0.000
1644915529932014080,2022-02-15-08:58:49,10.1.1.4,39,0.030,0.030,0.030,0.000,0.000,0.000
1644915529972742912,2022-02-15-08:58:49,10.1.1.4,28,0.040,0.040,0.040,0.000,0.000,0.000
1644915530031656960,2022-02-15-08:58:50,10.1.1.4,37,0.050,0.050,0.050,0.000,0.000,0.000
1644915530072453888,2022-02-15-08:58:50,10.1.1.4,27,0.060,0.060,0.060,0.000,0.000,0.000
1644915530132958976,2022-02-15-08:58:50,10.1.1.4,37,0.070,0.070,0.070,0.000,0.000,0.000
1644915530172925952,2022-02-15-08:58:50,10.1.1.4,26,0.080,0.080,0.080,0.000,0.000,0.000
1644915530233283072,2022-02-15-08:58:50,10.1.1.4,35,0.090,0.090,0.090,0.000,0.000,0.000
1644915530272335104,2022-02-15-08:58:50,10.1.1.4,25,0.100,0.100,0.100,0.000,0.000,0.000
1644915530432212224,2022-02-15-08:58:50,10.1.1.4,30,0.070,0.070,0.070,0.000,0.000,0.000
1644915530533415936,2022-02-15-08:58:50,10.1.1.4,29,0.050,0.050,0.050,0.000,0.000,0.000
1644915530593107968,2022-02-15-08:58:50,10.1.1.4,38,0.040,0.040,0.040,0.000,0.000,0.000
1644915530632504832,2022-02-15-08:58:50,10.1.1.4,27,0.030,0.030,0.030,0.000,0.000,0.000
1644915530692323072,2022-02-15-08:58:50,10.1.1.4,36,0.020,0.020,0.020,0.000,0.000,0.000
1644915530733009152,2022-02-15-08:58:50,10.1.1.4,26,0.010,0.010,0.010,0.000,0.000,0.000
1644915530793581056,2022-02-15-08:58:50,10.1.1.4,35,0.000,0.000,0.000,0.000,0.000,0.000
1644915530832640768,2022-02-15-08:58:50,10.1.1.4,25,-0.010,-0.010,-0.010,0.000,0.000,0.000
1644915530993160960,2022-02-15-08:58:50,10.1.1.4,30,-0.040,-0.040,-0.040,0.000,0.000,0.000
1644915531052557824,2022-02-15-08:58:51,10.1.1.4,39,-0.050,-0.050,-0.050,0.000,0.000,0.000
1644915531093000960,2022-02-15-08:58:51,10.1.1.4,28,-0.060,-0.060,-0.060,0.000,0.000,0.000
1644915531153086976,2022-02-15-08:58:51,10.1.1.4,38,-0.070,-0.070,-0.070,0.000,0.000,0.000
1644915531191823872,2022-02-15-08:58:51,10.1.1.4,27,-0.080,-0.080,-0.080,0.000,0.000,0.000
1644915531252054016,2022-02-15-08:58:51,10.1.1.4,37,-0.090,-0.090,-0.090,0.000,0.000,0.000
1644915531293705984,2022-02-15-08:58:51,10.1.1.4,26,-0.100,-0.100,-0.100,0.000,0.000,0.000
1644915531351803904,2022-02-15-08:58:51,10.1.1.4,36,-0.090,-0.090,-0.090,0.000,0.000,0.000
1644915531392008960,2022-02-15-08:58:51,10.1.1.4,25,-0.080,-0.080,-0.080,0.000,0.000,0.000
1644915531452305152,2022-02-15-08:58:51,10.1.1.4,33,-0.070,-0.070,-0.070,0.000,0.000,0.000
1644915531753515008,2022-02-15-08:58:51,10.1.1.4,29,-0.010,-0.010,-0.010,0.000,0.000,0.000
1644915531812647168,2022-02-15-08:58:51,10.1.1.4,38,0.000,0.000,0.000,0.000,0.000,0.000
1644915531852401920,2022-02-15-08:58:51,10.1.1.4,27,0.010,0.010,0.010,0.000,0.000,0.000
1644915531912974080,2022-02-15-08:58:51,10.1.1.4,37,0.020,0.020,0.020,0.000,0.000,0.000
1644915531953926144,2022-02-15-08:58:51,10.1.1.4,25,0.030,0.030,0.030,0.000,0.000,0.000
1644915532013147136,2022-02-15-08:58:52,10.1.1.4,35,0.040,0.040,0.040,0.000,0.000,0.000
1644915532051960064,2022-02-15-08:58:52,10.1.1.4,23,0.050,0.050,0.050,0.000,0.000,0.000
1644915532212976896,2022-02-15-08:58:52,10.1.1.4,31,0.080,0.080,0.080,0.000,0.000,0.000
1644915532312856064,2022-02-15-08:58:52,10.1.1.4,28,0.100,0.100,0.100,0.000,0.000,0.000
1644915532372741888,2022-02-15-08:58:52,10.1.1.4,36,0.090,0.090,0.090,0.000,0.000,0.000
1644915532411979008,2022-02-15-08:58:52,10.1.1.4,26,0.080,0.080,0.080,0.000,0.000,0.000
1644915532471693056,2022-02-15-08:58:52,10.1.1.4,35,0.070,0.070,0.070,0.000,0.000,0.000
1644915532512552960,2022-02-15-08:58:52,10.1.1.4,24,0.060,0.060,0.060,0.000,0.000,0.000
1644915532672466944,2022-02-15-08:58:52,10.1.1.4,30,0.030,0.030,0.030,0.000,0.000,0.000
1644915532732621056,2022-02-15-08:58:52,10.1.1.4,38,0.020,0.020,0.020,0.000,0.000,0.000
1644915532772594944,2022-02-15-08:58:52,10.1.1.4,28,0.010,0.010,0.010,0.000,0.000,0.000
1644915532831993088,2022-02-15-08:58:52,10.1.1.4,38,0.000,0.000,0.000,0.000,0.000,0.000
1644915532872667136,2022-02-15-08:58:52,10.1.1.4,27,-0.010,-0.010,-0.010,0.000,0.000,0.000
1644915532932538112,2022-02-15-08:58:52,10.1.1.4,36,-0.020,-0.020,-0.020,0.000,0.000,0.000
1644915532971981056,2022-02-15-08:58:52,10.1.1.4,25,-0.030,-0.030,-0.030,0.000,0.000,0.000
1644915533032295936,2022-02-15-08:58:53,10.1.1.4,35,-0.040,-0.040,-0.040,0.000,0.000,0.000
1644915533072747008,2022-02-15-08:58:53,10.1.1.4,24,-0.050,-0.050,-0.050,0.000,0.000,0.000
1644915533131943936,2022-02-15-08:58:53,10.1.1.4,34,-0.060,-0.060,-0.060,0.000,0.000,0.000
1644915533432321024,2022-02-15-08:58:53,10.1.1.4,30,-0.080,-0.080,-0.080,0.000,0.000,0.000
1644915533532018944,2022-02-15-08:58:53,10.1.1.4,28,-0.060,-0.060,-0.060,0.000,0.000,0.000
1644915533595851776,2022-02-15-08:58:53,10.1.1.4,36,-0.050,-0.050,-0.050,0.000,0.000,0.000
1644915533642055936,2022-02-15-08:58:53,10.1.1.4,25,-0.040,-0.040,-0.040,0.000,0.000,0.000
1644915533694144000,2022-02-15-08:58:53,10.1.1.4,26,-0.030,-0.030,-0.030,0.000,0.000,0.000
1644915533764632832,2022-02-15-08:58:53,10.1.1.4,35,-0.020,-0.020,-0.020,0.000,0.000,0.000
1644915533803646976,2022-02-15-08:58:53,10.1.1.4,25,-0.010,-0.010,-0.010,0.000,0.000,0.000
1644915533852282112,2022-02-15-08:58:53,10.1.1.4,33,0.000,0.000,0.000,0.000,0.000,0.000
1644915534020268800,2022-02-15-08:58:54,10.1.1.4,39,0.030,0.030,0.030,0.000,0.000,0.000
1644915534113483008,2022-02-15-08:58:54,10.1.1.4,28,0.050,0.050,0.050,0.000,0.000,0.000
1644915534172769024,2022-02-15-08:58:54,10.1.1.4,38,0.060,0.060,0.060,0.000,0.000,0.000
1644915534213392128,2022-02-15-08:58:54,10.1.1.4,27,0.070,0.070,0.070,0.000,0.000,0.000
1644915534271596800,2022-02-15-08:58:54,10.1.1.4,36,0.080,0.080,0.080,0.000,0.000,0.000
1644915534312576000,2022-02-15-08:58:54,10.1.1.4,26,0.090,0.090,0.090,0.000,0.000,0.000
1644915534372051968,2022-02-15-08:58:54,10.1.1.4,35,0.100,0.100,0.100,0.000,0.000,0.000
1644915534413459968,2022-02-15-08:58:54,10.1.1.4,25,0.090,0.090,0.090,0.000,0.000,0.000
1644915534472167936,2022-02-15-08:58:54,10.1.1.4,34,0.080,0.080,0.080,0.000,0.000,0.000
1644915534512259840,2022-02-15-08:58:54,10.1.1.4,23,0.070,0.070,0.070,0.000,0.000,0.000
1644915534771548160,2022-02-15-08:58:54,10.1.1.4,30,0.020,0.020,0.020,0.000,0.000,0.000
1644915534832487936,2022-02-15-08:58:54,10.1.1.4,39,0.010,0.010,0.010,0.000,0.000,0.000
1644915534871601152,2022-02-15-08:58:54,10.1.1.4,29,0.000,0.000,0.000,0.000,0.000,0.000
1644915534932238080,2022-02-15-08:58:54,10.1.1.4,39,-0.010,-0.010,-0.010,0.000,0.000,0.000
1644915534971751936,2022-02-15-08:58:54,10.1.1.4,28,-0.020,-0.020,-0.020,0.000,0.000,0.000
1644915535033548032,2022-02-15-08:58:55,10.1.1.4,38,-0.030,-0.030,-0.030,0.000,0.000,0.000
1644915535071986944,2022-02-15-08:58:55,10.1.1.4,28,-0.040,-0.040,-0.040,0.000,0.000,0.000
1644915535132174848,2022-02-15-08:58:55,10.1.1.4,37,-0.050,-0.050,-0.050,0.000,0.000,0.000
1644915535172201984,2022-02-15-08:58:55,10.1.1.4,27,-0.060,-0.060,-0.060,0.000,0.000,0.000
1644915535232131840,2022-02-15-08:58:55,10.1.1.4,36,-0.070,-0.070,-0.070,0.000,0.000,0.000
1644915535272936960,2022-02-15-08:58:55,10.1.1.4,26,-0.080,-0.080,-0.080,0.000,0.000,0.000
1644915535332457984,2022-02-15-08:58:55,10.1.1.4,35,-0.090,-0.090,-0.090,0.000,0.000,0.000
1644915535371752960,2022-02-15-08:58:55,10.1.1.4,24,-0.100,-0.100,-0.100,0.000,0.000,0.000
1644915535433041152,2022-02-15-08:58:55,10.1.1.4,34,-0.090,-0.090,-0.090,0.000,0.000,0.000
1644915535472215808,2022-02-15-08:58:55,10.1.1.4,23,-0.080,-0.080,-0.080,0.000,0.000,0.000
1644915535832852992,2022-02-15-08:58:55,10.1.1.4,29,-0.010,-0.010,-0.010,0.000,0.000,0.000
1644915535932790016,2022-02-15-08:58:55,10.1.1.4,29,0.010,0.010,0.010,0.000,0.000,0.000
1644915536033700096,2022-02-15-08:58:56,10.1.1.4,29,0.030,0.030,0.030,0.000,0.000,0.000
1644915536092588032,2022-02-15-08:58:56,10.1.1.4,38,0.040,0.040,0.040,0.000,0.000,0.000
1644915536131890944,2022-02-15-08:58:56,10.1.1.4,27,0.050,0.050,0.050,0.000,0.000,0.000
1644915536191857152,2022-02-15-08:58:56,10.1.1.4,37,0.060,0.060,0.060,0.000,0.000,0.000
1644915536231977984,2022-02-15-08:58:56,10.1.1.4,25,0.070,0.070,0.070,0.000,0.000,0.000
1644915536292808960,2022-02-15-08:58:56,10.1.1.4,35,0.080,0.080,0.080,0.000,0.000,0.000
1644915536332016896,2022-02-15-08:58:56,10.1.1.4,25,0.090,0.090,0.090,0.000,0.000,0.000
1644915536391496960,2022-02-15-08:58:56,10.1.1.4,34,0.100,0.100,0.100,0.000,0.000,0.000
1644915536852457984,2022-02-15-08:58:56,10.1.1.4,39,0.010,0.010,0.010,0.000,0.000,0.000
1644915536892669952,2022-02-15-08:58:56,10.1.1.4,29,0.000,0.000,0.000,0.000,0.000,0.000
1644915536952047104,2022-02-15-08:58:56,10.1.1.4,38,-0.010,-0.010,-0.010,0.000,0.000,0.000
1644915536991812864,2022-02-15-08:58:56,10.1.1.4,27,-0.020,-0.020,-0.020,0.000,0.000,0.000
1644915537052512768,2022-02-15-08:58:57,10.1.1.4,37,-0.030,-0.030,-0.030,0.000,0.000,0.000
1644915537091814912,2022-02-15-08:58:57,10.1.1.4,27,-0.040,-0.040,-0.040,0.000,0.000,0.000
1644915537151674112,2022-02-15-08:58:57,10.1.1.4,37,-0.050,-0.050,-0.050,0.000,0.000,0.000
1644915537191854848,2022-02-15-08:58:57,10.1.1.4,26,-0.060,-0.060,-0.060,0.000,0.000,0.000
1644915537253735936,2022-02-15-08:58:57,10.1.1.4,34,-0.070,-0.070,-0.070,0.000,0.000,0.000
1644915537292474112,2022-02-15-08:58:57,10.1.1.4,24,-0.080,-0.080,-0.080,0.000,0.000,0.000
1644915537472989184,2022-02-15-08:58:57,10.1.1.4,2,-0.080,-0.080,-0.080,0.000,0.000,0.000
1644915538092973824,2022-02-15-08:58:58,10.1.1.4,29,0.030,0.030,0.030,0.000,0.000,0.000
1644915538153496064,2022-02-15-08:58:58,10.1.1.4,38,0.040,0.040,0.040,0.000,0.000,0.000
1644915538193010176,2022-02-15-08:58:58,10.1.1.4,28,0.050,0.050,0.050,0.000,0.000,0.000
1644915538252983040,2022-02-15-08:58:58,10.1.1.4,37,0.060,0.060,0.060,0.000,0.000,0.000
1644915538293047808,2022-02-15-08:58:58,10.1.1.4,28,0.070,0.070,0.070,0.000,0.000,0.000
1644915538385456128,2022-02-15-08:58:58,10.1.1.4,36,0.080,0.080,0.080,0.000,0.000,0.000
1644915538412719104,2022-02-15-08:58:58,10.1.1.4,25,0.090,0.090,0.090,0.000,0.000,0.000
1644915538472855040,2022-02-15-08:58:58,10.1.1.4,35,0.100,0.100,0.100,0.000,0.000,0.000
1644915538512988928,2022-02-15-08:58:58,10.1.1.4,24,0.090,0.090,0.090,0.000,0.000,0.000
1644915538572442112,2022-02-15-08:58:58,10.1.1.4,34,0.080,0.080,0.080,0.000,0.000,0.000
1644915538872254976,2022-02-15-08:58:58,10.1.1.4,31,0.020,0.020,0.020,0.000,0.000,0.000
1644915538971911936,2022-02-15-08:58:58,10.1.1.4,30,0.000,0.000,0.000,0.000,0.000,0.000
1644915539073636096,2022-02-15-08:58:59,10.1.1.4,28,-0.020,-0.020,-0.020,0.000,0.000,0.000
1644915539132958976,2022-02-15-08:58:59,10.1.1.4,38,-0.030,-0.030,-0.030,0.000,0.000,0.000
1644915539172875008,2022-02-15-08:58:59,10.1.1.4,28,-0.040,-0.040,-0.040,0.000,0.000,0.000
1644915539232485888,2022-02-15-08:58:59,10.1.1.4,37,-0.050,-0.050,-0.050,0.000,0.000,0.000
1644915539272326912,2022-02-15-08:58:59,10.1.1.4,26,-0.060,-0.060,-0.060,0.000,0.000,0.000
1644915539332626176,2022-02-15-08:58:59,10.1.1.4,35,-0.070,-0.070,-0.070,0.000,0.000,0.000
1644915539372344064,2022-02-15-08:58:59,10.1.1.4,25,-0.080,-0.080,-0.080,0.000,0.000,0.000
1644915539431951104,2022-02-15-08:58:59,10.1.1.4,33,-0.090,-0.090,-0.090,0.000,0.000,0.000
1644915539512288000,2022-02-15-08:58:59,10.1.1.4,13,-0.090,-0.090,-0.090,0.000,0.000,0.000
1644915539832033024,2022-02-15-08:58:59,10.1.1.4,29,-0.030,-0.030,-0.030,0.000,0.000,0.000
1644915539892604160,2022-02-15-08:58:59,10.1.1.4,39,-0.020,-0.020,-0.020,0.000,0.000,0.000
1644915539931837184,2022-02-15-08:58:59,10.1.1.4,28,-0.010,-0.010,-0.010,0.000,0.000,0.000
1644915539991772928,2022-02-15-08:58:59,10.1.1.4,38,0.000,0.000,0.000,0.000,0.000,0.000
1644915540032129024,2022-02-15-08:59:00,10.1.1.4,28,0.010,0.010,0.010,0.000,0.000,0.000
1644915540093463808,2022-02-15-08:59:00,10.1.1.4,37,0.020,0.020,0.020,0.000,0.000,0.000
1644915540132229120,2022-02-15-08:59:00,10.1.1.4,26,0.030,0.030,0.030,0.000,0.000,0.000
1644915540192049152,2022-02-15-08:59:00,10.1.1.4,35,0.040,0.040,0.040,0.000,0.000,0.000
1644915540231618816,2022-02-15-08:59:00,10.1.1.4,25,0.050,0.050,0.050,0.000,0.000,0.000
1644915540293821184,2022-02-15-08:59:00,10.1.1.4,34,0.060,0.060,0.060,0.000,0.000,0.000
1644915540391792128,2022-02-15-08:59:00,10.1.1.4,28,0.080,0.080,0.080,0.000,0.000,0.000
1644915540452301056,2022-02-15-08:59:00,10.1.1.4,37,0.090,0.090,0.090,0.000,0.000,0.000
1644915540491947776,2022-02-15-08:59:00,10.1.1.4,27,0.100,0.100,0.100,0.000,0.000,0.000
1644915540552089088,2022-02-15-08:59:00,10.1.1.4,37,0.090,0.090,0.090,0.000,0.000,0.000
1644915540592261120,2022-02-15-08:59:00,10.1.1.4,26,0.080,0.080,0.080,0.000,0.000,0.000
1644915540652157184,2022-02-15-08:59:00,10.1.1.4,36,0.070,0.070,0.070,0.000,0.000,0.000
1644915540692807936,2022-02-15-08:59:00,10.1.1.4,25,0.060,0.060,0.060,0.000,0.000,0.000
1644915540752132864,2022-02-15-08:59:00,10.1.1.4,35,0.050,0.050,0.050,0.000,0.000,0.000
1644915540792184064,2022-02-15-08:59:00,10.1.1.4,23,0.040,0.040,0.040,0.000,0.000,0.000
1644915540852457984,2022-02-15-08:59:00,10.1.1.4,33,0.030,0.030,0.030,0.000,0.000,0.000
1644915540951859968,2022-02-15-08:59:00,10.1.1.4,30,0.010,0.010,0.010,0.000,0.000,0.000
1644915541052465920,2022-02-15-08:59:01,10.1.1.4,29,-0.010,-0.010,-0.010,0.000,0.000,0.000
1644915541151936000,2022-02-15-08:59:01,10.1.1.4,28,-0.030,-0.030,-0.030,0.000,0.000,0.000
1644915541212071936,2022-02-15-08:59:01,10.1.1.4,38,-0.040,-0.040,-0.040,0.000,0.000,0.000
1644915541252047104,2022-02-15-08:59:01,10.1.1.4,28,-0.050,-0.050,-0.050,0.000,0.000,0.000
1644915541312022016,2022-02-15-08:59:01,10.1.1.4,37,-0.060,-0.060,-0.060,0.000,0.000,0.000
1644915541352267008,2022-02-15-08:59:01,10.1.1.4,27,-0.070,-0.070,-0.070,0.000,0.000,0.000
1644915541412171008,2022-02-15-08:59:01,10.1.1.4,36,-0.080,-0.080,-0.080,0.000,0.000,0.000
1644915541452364800,2022-02-15-08:59:01,10.1.1.4,26,-0.090,-0.090,-0.090,0.000,0.000,0.000
1644915541512236032,2022-02-15-08:59:01,10.1.1.4,34,-0.100,-0.100,-0.100,0.000,0.000,0.000
1644915541552194048,2022-02-15-08:59:01,10.1.1.4,24,-0.090,-0.090,-0.090,0.000,0.000,0.000
1644915541612008192,2022-02-15-08:59:01,10.1.1.4,33,-0.080,-0.080,-0.080,0.000,0.000,0.000
1644915541872273920,2022-02-15-08:59:01,10.1.1.4,38,-0.030,-0.030,-0.030,0.000,0.000,0.000
1644915541912167936,2022-02-15-08:59:01,10.1.1.4,28,-0.020,-0.020,-0.020,0.000,0.000,0.000
1644915541971878144,2022-02-15-08:59:01,10.1.1.4,37,-0.010,-0.010,-0.010,0.000,0.000,0.000
1644915542012069888,2022-02-15-08:59:02,10.1.1.4,26,0.000,0.000,0.000,0.000,0.000,0.000
1644915542172125184,2022-02-15-08:59:02,10.1.1.4,26,0.030,0.030,0.030,0.000,0.000,0.000
1644915542232171008,2022-02-15-08:59:02,10.1.1.4,36,0.040,0.040,0.040,0.000,0.000,0.000
1644915542271933952,2022-02-15-08:59:02,10.1.1.4,23,0.050,0.050,0.050,0.000,0.000,0.000
1644915542492064000,2022-02-15-08:59:02,10.1.1.4,39,0.090,0.090,0.090,0.000,0.000,0.000
1644915542531395840,2022-02-15-08:59:02,10.1.1.4,29,0.100,0.100,0.100,0.000,0.000,0.000
1644915542592057856,2022-02-15-08:59:02,10.1.1.4,39,0.090,0.090,0.090,0.000,0.000,0.000
1644915542632157184,2022-02-15-08:59:02,10.1.1.4,28,0.080,0.080,0.080,0.000,0.000,0.000
1644915542691865856,2022-02-15-08:59:02,10.1.1.4,37,0.070,0.070,0.070,0.000,0.000,0.000
1644915542731676160,2022-02-15-08:59:02,10.1.1.4,27,0.060,0.060,0.060,0.000,0.000,0.000
1644915542791832064,2022-02-15-08:59:02,10.1.1.4,37,0.050,0.050,0.050,0.000,0.000,0.000
1644915542831659008,2022-02-15-08:59:02,10.1.1.4,26,0.040,0.040,0.040,0.000,0.000,0.000
1644915542892091904,2022-02-15-08:59:02,10.1.1.4,36,0.030,0.030,0.030,0.000,0.000,0.000
1644915542931667200,2022-02-15-08:59:02,10.1.1.4,25,0.020,0.020,0.020,0.000,0.000,0.000
1644915543073817088,2022-02-15-08:59:03,10.1.1.4,25,0.000,0.000,0.000,0.000,0.000,0.000
1644915543131779840,2022-02-15-08:59:03,10.1.1.4,34,-0.010,-0.010,-0.010,0.000,0.000,0.000
1644915543171539968,2022-02-15-08:59:03,10.1.1.4,23,-0.020,-0.020,-0.020,0.000,0.000,0.000
1644915543332269824,2022-02-15-08:59:03,10.1.1.4,29,-0.050,-0.050,-0.050,0.000,0.000,0.000
1644915543392131072,2022-02-15-08:59:03,10.1.1.4,38,-0.060,-0.060,-0.060,0.000,0.000,0.000
1644915543433624064,2022-02-15-08:59:03,10.1.1.4,27,-0.070,-0.070,-0.070,0.000,0.000,0.000
1644915543492736000,2022-02-15-08:59:03,10.1.1.4,36,-0.080,-0.080,-0.080,0.000,0.000,0.000
1644915543532156928,2022-02-15-08:59:03,10.1.1.4,26,-0.090,-0.090,-0.090,0.000,0.000,0.000
1644915543591571968,2022-02-15-08:59:03,10.1.1.4,34,-0.100,-0.100,-0.100,0.000,0.000,0.000
1644915543751985152,2022-02-15-08:59:03,10.1.1.4,40,-0.070,-0.070,-0.070,0.000,0.000,0.000
1644915543791783936,2022-02-15-08:59:03,10.1.1.4,29,-0.060,-0.060,-0.060,0.000,0.000,0.000
1644915543931186944,2022-02-15-08:59:03,10.1.1.4,29,-0.040,-0.040,-0.040,0.000,0.000,0.000
1644915543991663872,2022-02-15-08:59:03,10.1.1.4,38,-0.030,-0.030,-0.030,0.000,0.000,0.000
1644915544034234880,2022-02-15-08:59:04,10.1.1.4,27,-0.020,-0.020,-0.020,0.000,0.000,0.000
1644915544092709120,2022-02-15-08:59:04,10.1.1.4,34,-0.010,-0.010,-0.010,0.000,0.000,0.000
1644915544132133120,2022-02-15-08:59:04,10.1.1.4,23,0.000,0.000,0.000,0.000,0.000,0.000
1644915544451939072,2022-02-15-08:59:04,10.1.1.4,39,0.060,0.060,0.060,0.000,0.000,0.000
1644915544491619072,2022-02-15-08:59:04,10.1.1.4,26,0.070,0.070,0.070,0.000,0.000,0.000
1644915544552707072,2022-02-15-08:59:04,10.1.1.4,35,0.080,0.080,0.080,0.000,0.000,0.000
1644915544591384832,2022-02-15-08:59:04,10.1.1.4,25,0.090,0.090,0.090,0.000,0.000,0.000
1644915544652337152,2022-02-15-08:59:04,10.1.1.4,33,0.100,0.100,0.100,0.000,0.000,0.000
1644915544951348992,2022-02-15-08:59:04,10.1.1.4,29,0.040,0.040,0.040,0.000,0.000,0.000
1644915545012320000,2022-02-15-08:59:05,10.1.1.4,39,0.030,0.030,0.030,0.000,0.000,0.000
1644915545052905984,2022-02-15-08:59:05,10.1.1.4,27,0.020,0.020,0.020,0.000,0.000,0.000
1644915545112009984,2022-02-15-08:59:05,10.1.1.4,37,0.010,0.010,0.010,0.000,0.000,0.000
1644915545151582976,2022-02-15-08:59:05,10.1.1.4,26,0.000,0.000,0.000,0.000,0.000,0.000
1644915545213175040,2022-02-15-08:59:05,10.1.1.4,36,-0.010,-0.010,-0.010,0.000,0.000,0.000
1644915545252217088,2022-02-15-08:59:05,10.1.1.4,25,-0.020,-0.020,-0.020,0.000,0.000,0.000
1644915545312006912,2022-02-15-08:59:05,10.1.1.4,35,-0.030,-0.030,-0.030,0.000,0.000,0.000
1644915545353900800,2022-02-15-08:59:05,10.1.1.4,24,-0.040,-0.040,-0.040,0.000,0.000,0.000
1644915545412184064,2022-02-15-08:59:05,10.1.1.4,34,-0.050,-0.050,-0.050,0.000,0.000,0.000
1644915545671559168,2022-02-15-08:59:05,10.1.1.4,39,-0.100,-0.100,-0.100,0.000,0.000,0.000
1644915545712059136,2022-02-15-08:59:05,10.1.1.4,29,-0.090,-0.090,-0.090,0.000,0.000,0.000
1644915545771652864,2022-02-15-08:59:05,10.1.1.4,37,-0.080,-0.080,-0.080,0.000,0.000,0.000
1644915545812057856,2022-02-15-08:59:05,10.1.1.4,27,-0.070,-0.070,-0.070,0.000,0.000,0.000
1644915545872546048,2022-02-15-08:59:05,10.1.1.4,37,-0.060,-0.060,-0.060,0.000,0.000,0.000
1644915545912545024,2022-02-15-08:59:05,10.1.1.4,26,-0.050,-0.050,-0.050,0.000,0.000,0.000
1644915545972190976,2022-02-15-08:59:05,10.1.1.4,36,-0.040,-0.040,-0.040,0.000,0.000,0.000
1644915546013875968,2022-02-15-08:59:06,10.1.1.4,25,-0.030,-0.030,-0.030,0.000,0.000,0.000
1644915546071872000,2022-02-15-08:59:06,10.1.1.4,33,-0.020,-0.020,-0.020,0.000,0.000,0.000
1644915546232248064,2022-02-15-08:59:06,10.1.1.4,39,0.010,0.010,0.010,0.000,0.000,0.000
1644915546271979008,2022-02-15-08:59:06,10.1.1.4,28,0.020,0.020,0.020,0.000,0.000,0.000
1644915546332251136,2022-02-15-08:59:06,10.1.1.4,38,0.030,0.030,0.030,0.000,0.000,0.000
1644915546372845056,2022-02-15-08:59:06,10.1.1.4,28,0.040,0.040,0.040,0.000,0.000,0.000
1644915546432286976,2022-02-15-08:59:06,10.1.1.4,37,0.050,0.050,0.050,0.000,0.000,0.000
1644915546472073984,2022-02-15-08:59:06,10.1.1.4,26,0.060,0.060,0.060,0.000,0.000,0.000
1644915546533172992,2022-02-15-08:59:06,10.1.1.4,37,0.070,0.070,0.070,0.000,0.000,0.000
1644915546571670016,2022-02-15-08:59:06,10.1.1.4,25,0.080,0.080,0.080,0.000,0.000,0.000
1644915546631187968,2022-02-15-08:59:06,10.1.1.4,34,0.090,0.090,0.090,0.000,0.000,0.000
1644915546671736832,2022-02-15-08:59:06,10.1.1.4,24,0.100,0.100,0.100,0.000,0.000,0.000
1644915546732101888,2022-02-15-08:59:06,10.1.1.4,33,0.090,0.090,0.090,0.000,0.000,0.000
1644915546771529984,2022-02-15-08:59:06,10.1.1.4,23,0.080,0.080,0.080,0.000,0.000,0.000
1644915546933007104,2022-02-15-08:59:06,10.1.1.4,30,0.050,0.050,0.050,0.000,0.000,0.000
1644915547033302016,2022-02-15-08:59:07,10.1.1.4,29,0.030,0.030,0.030,0.000,0.000,0.000
1644915547092349952,2022-02-15-08:59:07,10.1.1.4,39,0.020,0.020,0.020,0.000,0.000,0.000
1644915547133033984,2022-02-15-08:59:07,10.1.1.4,27,0.010,0.010,0.010,0.000,0.000,0.000
1644915547191500032,2022-02-15-08:59:07,10.1.1.4,36,0.000,0.000,0.000,0.000,0.000,0.000
1644915547233289984,2022-02-15-08:59:07,10.1.1.4,26,-0.010,-0.010,-0.010,0.000,0.000,0.000
1644915547292679936,2022-02-15-08:59:07,10.1.1.4,36,-0.020,-0.020,-0.020,0.000,0.000,0.000
1644915547331653120,2022-02-15-08:59:07,10.1.1.4,25,-0.030,-0.030,-0.030,0.000,0.000,0.000
1644915547392962816,2022-02-15-08:59:07,10.1.1.4,35,-0.040,-0.040,-0.040,0.000,0.000,0.000
1644915547431833088,2022-02-15-08:59:07,10.1.1.4,23,-0.050,-0.050,-0.050,0.000,0.000,0.000
1644915547651969792,2022-02-15-08:59:07,10.1.1.4,39,-0.090,-0.090,-0.090,0.000,0.000,0.000
1644915547692854784,2022-02-15-08:59:07,10.1.1.4,25,-0.100,-0.100,-0.100,0.000,0.000,0.000
1644915547752756992,2022-02-15-08:59:07,10.1.1.4,28,-0.090,-0.090,-0.090,0.000,0.000,0.000
1644915547812136960,2022-02-15-08:59:07,10.1.1.4,38,-0.080,-0.080,-0.080,0.000,0.000,0.000
1644915547852425984,2022-02-15-08:59:07,10.1.1.4,27,-0.070,-0.070,-0.070,0.000,0.000,0.000
1644915547912858880,2022-02-15-08:59:07,10.1.1.4,36,-0.060,-0.060,-0.060,0.000,0.000,0.000
1644915547953980928,2022-02-15-08:59:07,10.1.1.4,26,-0.050,-0.050,-0.050,0.000,0.000,0.000
1644915548011464960,2022-02-15-08:59:08,10.1.1.4,35,-0.040,-0.040,-0.040,0.000,0.000,0.000
1644915548051880960,2022-02-15-08:59:08,10.1.1.4,24,-0.030,-0.030,-0.030,0.000,0.000,0.000
1644915548111529216,2022-02-15-08:59:08,10.1.1.4,34,-0.020,-0.020,-0.020,0.000,0.000,0.000
1644915548151520000,2022-02-15-08:59:08,10.1.1.4,23,-0.010,-0.010,-0.010,0.000,0.000,0.000
1644915548311292928,2022-02-15-08:59:08,10.1.1.4,29,0.020,0.020,0.020,0.000,0.000,0.000
1644915548371876864,2022-02-15-08:59:08,10.1.1.4,38,0.030,0.030,0.030,0.000,0.000,0.000
1644915548411273984,2022-02-15-08:59:08,10.1.1.4,28,0.040,0.040,0.040,0.000,0.000,0.000
1644915548471640064,2022-02-15-08:59:08,10.1.1.4,37,0.050,0.050,0.050,0.000,0.000,0.000
1644915548512957952,2022-02-15-08:59:08,10.1.1.4,27,0.060,0.060,0.060,0.000,0.000,0.000
1644915548571443968,2022-02-15-08:59:08,10.1.1.4,36,0.070,0.070,0.070,0.000,0.000,0.000
1644915548611984896,2022-02-15-08:59:08,10.1.1.4,25,0.080,0.080,0.080,0.000,0.000,0.000
1644915548672631040,2022-02-15-08:59:08,10.1.1.4,34,0.090,0.090,0.090,0.000,0.000,0.000
1644915548712441856,2022-02-15-08:59:08,10.1.1.4,24,0.100,0.100,0.100,0.000,0.000,0.000
1644915548931996160,2022-02-15-08:59:08,10.1.1.4,38,0.060,0.060,0.060,0.000,0.000,0.000
1644915548972456960,2022-02-15-08:59:08,10.1.1.4,28,0.050,0.050,0.050,0.000,0.000,0.000
1644915549031915008,2022-02-15-08:59:09,10.1.1.4,38,0.040,0.040,0.040,0.000,0.000,0.000
1644915549072218880,2022-02-15-08:59:09,10.1.1.4,26,0.030,0.030,0.030,0.000,0.000,0.000
1644915549132103936,2022-02-15-08:59:09,10.1.1.4,36,0.020,0.020,0.020,0.000,0.000,0.000
1644915549172229888,2022-02-15-08:59:09,10.1.1.4,26,0.010,0.010,0.010,0.000,0.000,0.000
1644915549232965888,2022-02-15-08:59:09,10.1.1.4,35,0.000,0.000,0.000,0.000,0.000,0.000
1644915549271994112,2022-02-15-08:59:09,10.1.1.4,25,-0.010,-0.010,-0.010,0.000,0.000,0.000
1644915549332512000,2022-02-15-08:59:09,10.1.1.4,35,-0.020,-0.020,-0.020,0.000,0.000,0.000
1644915549532514048,2022-02-15-08:59:09,10.1.1.4,25,-0.060,-0.060,-0.060,0.000,0.000,0.000
1644915549592184064,2022-02-15-08:59:09,10.1.1.4,34,-0.070,-0.070,-0.070,0.000,0.000,0.000
1644915549634013952,2022-02-15-08:59:09,10.1.1.4,24,-0.080,-0.080,-0.080,0.000,0.000,0.000
1644915549815216896,2022-02-15-08:59:09,10.1.1.4,-2,-0.080,-0.080,-0.080,0.000,0.000,0.000
1644915549892254976,2022-02-15-08:59:09,10.1.1.4,27,-0.070,-0.070,-0.070,0.000,0.000,0.000
1644915549951899136,2022-02-15-08:59:09,10.1.1.4,36,-0.060,-0.060,-0.060,0.000,0.000,0.000
1644915549991838976,2022-02-15-08:59:09,10.1.1.4,25,-0.050,-0.050,-0.050,0.000,0.000,0.000
1644915550152452096,2022-02-15-08:59:10,10.1.1.4,34,-0.030,-0.030,-0.030,0.000,0.000,0.000
1644915550192080896,2022-02-15-08:59:10,10.1.1.4,24,-0.020,-0.020,-0.020,0.000,0.000,0.000
1644915550252043008,2022-02-15-08:59:10,10.1.1.4,33,-0.010,-0.010,-0.010,0.000,0.000,0.000
1644915550293026816,2022-02-15-08:59:10,10.1.1.4,23,0.000,0.000,0.000,0.000,0.000,0.000
1644915550552051968,2022-02-15-08:59:10,10.1.1.4,30,0.050,0.050,0.050,0.000,0.000,0.000
1644915550613233152,2022-02-15-08:59:10,10.1.1.4,39,0.060,0.060,0.060,0.000,0.000,0.000
1644915550651973888,2022-02-15-08:59:10,10.1.1.4,28,0.070,0.070,0.070,0.000,0.000,0.000
1644915550711936000,2022-02-15-08:59:10,10.1.1.4,38,0.080,0.080,0.080,0.000,0.000,0.000
1644915550752743936,2022-02-15-08:59:10,10.1.1.4,27,0.090,0.090,0.090,0.000,0.000,0.000
1644915550811728128,2022-02-15-08:59:10,10.1.1.4,36,0.100,0.100,0.100,0.000,0.000,0.000
1644915550851291904,2022-02-15-08:59:10,10.1.1.4,25,0.090,0.090,0.090,0.000,0.000,0.000
1644915550911886080,2022-02-15-08:59:10,10.1.1.4,35,0.080,0.080,0.080,0.000,0.000,0.000
1644915550951685888,2022-02-15-08:59:10,10.1.1.4,25,0.070,0.070,0.070,0.000,0.000,0.000
1644915551011506944,2022-02-15-08:59:11,10.1.1.4,34,0.060,0.060,0.060,0.000,0.000,0.000
1644915551051973120,2022-02-15-08:59:11,10.1.1.4,23,0.050,0.050,0.050,0.000,0.000,0.000
1644915551271801088,2022-02-15-08:59:11,10.1.1.4,39,0.010,0.010,0.010,0.000,0.000,0.000
1644915551312020992,2022-02-15-08:59:11,10.1.1.4,29,0.000,0.000,0.000,0.000,0.000,0.000
1644915551372248832,2022-02-15-08:59:11,10.1.1.4,39,-0.010,-0.010,-0.010,0.000,0.000,0.000
1644915551411300864,2022-02-15-08:59:11,10.1.1.4,28,-0.020,-0.020,-0.020,0.000,0.000,0.000
1644915551471962880,2022-02-15-08:59:11,10.1.1.4,38,-0.030,-0.030,-0.030,0.000,0.000,0.000
1644915551512089088,2022-02-15-08:59:11,10.1.1.4,28,-0.040,-0.040,-0.040,0.000,0.000,0.000
1644915551629203968,2022-02-15-08:59:11,10.1.1.4,24,-0.060,-0.060,-0.060,0.000,0.000,0.000
1644915551671884032,2022-02-15-08:59:11,10.1.1.4,33,-0.070,-0.070,-0.070,0.000,0.000,0.000
1644915551951827968,2022-02-15-08:59:11,10.1.1.4,9,-0.070,-0.070,-0.070,0.000,0.000,0.000
1644915552032365056,2022-02-15-08:59:12,10.1.1.4,39,-0.060,-0.060,-0.060,0.000,0.000,0.000
1644915552071588096,2022-02-15-08:59:12,10.1.1.4,29,-0.050,-0.050,-0.050,0.000,0.000,0.000
1644915552131954944,2022-02-15-08:59:12,10.1.1.4,38,-0.040,-0.040,-0.040,0.000,0.000,0.000
1644915552172471040,2022-02-15-08:59:12,10.1.1.4,28,-0.030,-0.030,-0.030,0.000,0.000,0.000
1644915552231977984,2022-02-15-08:59:12,10.1.1.4,37,-0.020,-0.020,-0.020,0.000,0.000,0.000
1644915552271388928,2022-02-15-08:59:12,10.1.1.4,27,-0.010,-0.010,-0.010,0.000,0.000,0.000
1644915552331602176,2022-02-15-08:59:12,10.1.1.4,36,0.000,0.000,0.000,0.000,0.000,0.000
1644915552372093952,2022-02-15-08:59:12,10.1.1.4,26,0.010,0.010,0.010,0.000,0.000,0.000
1644915552431708928,2022-02-15-08:59:12,10.1.1.4,35,0.020,0.020,0.020,0.000,0.000,0.000
1644915552471740928,2022-02-15-08:59:12,10.1.1.4,25,0.030,0.030,0.030,0.000,0.000,0.000
1644915552536961024,2022-02-15-08:59:12,10.1.1.4,34,0.040,0.040,0.040,0.000,0.000,0.000
1644915552751966976,2022-02-15-08:59:12,10.1.1.4,30,0.080,0.080,0.080,0.000,0.000,0.000
1644915552811453184,2022-02-15-08:59:12,10.1.1.4,39,0.090,0.090,0.090,0.000,0.000,0.000
1644915552852749056,2022-02-15-08:59:12,10.1.1.4,29,0.100,0.100,0.100,0.000,0.000,0.000
1644915553012162816,2022-02-15-08:59:13,10.1.1.4,36,0.070,0.070,0.070,0.000,0.000,0.000
1644915553055942144,2022-02-15-08:59:13,10.1.1.4,26,0.060,0.060,0.060,0.000,0.000,0.000
1644915553151715072,2022-02-15-08:59:13,10.1.1.4,24,0.040,0.040,0.040,0.000,0.000,0.000
1644915553211916032,2022-02-15-08:59:13,10.1.1.4,34,0.030,0.030,0.030,0.000,0.000,0.000
1644915553512114176,2022-02-15-08:59:13,10.1.1.4,29,-0.030,-0.030,-0.030,0.000,0.000,0.000
1644915553572456960,2022-02-15-08:59:13,10.1.1.4,39,-0.040,-0.040,-0.040,0.000,0.000,0.000
1644915553611993088,2022-02-15-08:59:13,10.1.1.4,28,-0.050,-0.050,-0.050,0.000,0.000,0.000
1644915553672475136,2022-02-15-08:59:13,10.1.1.4,38,-0.060,-0.060,-0.060,0.000,0.000,0.000
1644915553712718848,2022-02-15-08:59:13,10.1.1.4,27,-0.070,-0.070,-0.070,0.000,0.000,0.000
1644915553775757056,2022-02-15-08:59:13,10.1.1.4,36,-0.080,-0.080,-0.080,0.000,0.000,0.000
1644915553951924992,2022-02-15-08:59:13,10.1.1.4,11,-0.080,-0.080,-0.080,0.000,0.000,0.000
1644915554071561216,2022-02-15-08:59:14,10.1.1.4,29,-0.060,-0.060,-0.060,0.000,0.000,0.000
1644915554171653888,2022-02-15-08:59:14,10.1.1.4,28,-0.040,-0.040,-0.040,0.000,0.000,0.000
1644915554231810048,2022-02-15-08:59:14,10.1.1.4,38,-0.030,-0.030,-0.030,0.000,0.000,0.000
1644915554295241984,2022-02-15-08:59:14,10.1.1.4,27,-0.020,-0.020,-0.020,0.000,0.000,0.000
1644915554345410048,2022-02-15-08:59:14,10.1.1.4,36,-0.010,-0.010,-0.010,0.000,0.000,0.000
1644915554370820096,2022-02-15-08:59:14,10.1.1.4,25,0.000,0.000,0.000,0.000,0.000,0.000
1644915554432416000,2022-02-15-08:59:14,10.1.1.4,35,0.010,0.010,0.010,0.000,0.000,0.000
1644915554471983872,2022-02-15-08:59:14,10.1.1.4,24,0.020,0.020,0.020,0.000,0.000,0.000
1644915554531680000,2022-02-15-08:59:14,10.1.1.4,34,0.030,0.030,0.030,0.000,0.000,0.000
1644915554571543808,2022-02-15-08:59:14,10.1.1.4,24,0.040,0.040,0.040,0.000,0.000,0.000
1644915554732214016,2022-02-15-08:59:14,10.1.1.4,28,0.070,0.070,0.070,0.000,0.000,0.000
1644915554792332800,2022-02-15-08:59:14,10.1.1.4,37,0.080,0.080,0.080,0.000,0.000,0.000
1644915554834404096,2022-02-15-08:59:14,10.1.1.4,27,0.090,0.090,0.090,0.000,0.000,0.000
1644915554913552128,2022-02-15-08:59:14,10.1.1.4,6,0.090,0.090,0.090,0.000,0.000,0.000
1644915554991895808,2022-02-15-08:59:14,10.1.1.4,35,0.080,0.080,0.080,0.000,0.000,0.000
1644915555032855040,2022-02-15-08:59:15,10.1.1.4,25,0.070,0.070,0.070,0.000,0.000,0.000
1644915555099577856,2022-02-15-08:59:15,10.1.1.4,36,0.060,0.060,0.060,0.000,0.000,0.000
1644915555293225984,2022-02-15-08:59:15,10.1.1.4,29,0.020,0.020,0.020,0.000,0.000,0.000
1644915555352054016,2022-02-15-08:59:15,10.1.1.4,38,0.010,0.010,0.010,0.000,0.000,0.000
1644915555392190976,2022-02-15-08:59:15,10.1.1.4,28,0.000,0.000,0.000,0.000,0.000,0.000
1644915555452920064,2022-02-15-08:59:15,10.1.1.4,37,-0.010,-0.010,-0.010,0.000,0.000,0.000
1644915555492748032,2022-02-15-08:59:15,10.1.1.4,26,-0.020,-0.020,-0.020,0.000,0.000,0.000
1644915555551687936,2022-02-15-08:59:15,10.1.1.4,35,-0.030,-0.030,-0.030,0.000,0.000,0.000
1644915555592078848,2022-02-15-08:59:15,10.1.1.4,25,-0.040,-0.040,-0.040,0.000,0.000,0.000
1644915555651536896,2022-02-15-08:59:15,10.1.1.4,34,-0.050,-0.050,-0.050,0.000,0.000,0.000
1644915555692914944,2022-02-15-08:59:15,10.1.1.4,24,-0.060,-0.060,-0.060,0.000,0.000,0.000
1644915555753735168,2022-02-15-08:59:15,10.1.1.4,33,-0.070,-0.070,-0.070,0.000,0.000,0.000
1644915555805274112,2022-02-15-08:59:15,10.1.1.4,22,-0.080,-0.080,-0.080,0.000,0.000,0.000
1644915555877793024,2022-02-15-08:59:15,10.1.1.4,25,-0.090,-0.090,-0.090,0.000,0.000,0.000
1644915555957875968,2022-02-15-08:59:15,10.1.1.4,0,-0.090,-0.090,-0.090,0.000,0.000,0.000
1644915556148667136,2022-02-15-08:59:16,10.1.1.4,27,-0.060,-0.060,-0.060,0.000,0.000,0.000
1644915556208914944,2022-02-15-08:59:16,10.1.1.4,35,-0.050,-0.050,-0.050,0.000,0.000,0.000
1644915556317326080,2022-02-15-08:59:16,10.1.1.4,26,-0.030,-0.030,-0.030,0.000,0.000,0.000
1644915556377325056,2022-02-15-08:59:16,10.1.1.4,35,-0.020,-0.020,-0.020,0.000,0.000,0.000
1644915556413924096,2022-02-15-08:59:16,10.1.1.4,24,-0.010,-0.010,-0.010,0.000,0.000,0.000
1644915556573734144,2022-02-15-08:59:16,10.1.1.4,26,0.020,0.020,0.020,0.000,0.000,0.000
1644915556653179904,2022-02-15-08:59:16,10.1.1.4,-17,0.030,0.030,0.030,0.000,0.000,0.000
1644915556732281856,2022-02-15-08:59:16,10.1.1.4,28,0.050,0.050,0.050,0.000,0.000,0.000
1644915556793096192,2022-02-15-08:59:16,10.1.1.4,37,0.060,0.060,0.060,0.000,0.000,0.000
1644915556835726080,2022-02-15-08:59:16,10.1.1.4,27,0.070,0.070,0.070,0.000,0.000,0.000
1644915556894760960,2022-02-15-08:59:16,10.1.1.4,35,0.080,0.080,0.080,0.000,0.000,0.000
1644915556995547904,2022-02-15-08:59:16,10.1.1.4,28,0.100,0.100,0.100,0.000,0.000,0.000
1644915557113851136,2022-02-15-08:59:17,10.1.1.4,36,0.080,0.080,0.080,0.000,0.000,0.000
1644915557153584128,2022-02-15-08:59:17,10.1.1.4,25,0.070,0.070,0.070,0.000,0.000,0.000
1644915557212580864,2022-02-15-08:59:17,10.1.1.4,33,0.060,0.060,0.060,0.000,0.000,0.000
1644915557351249920,2022-02-15-08:59:17,10.1.1.4,19,0.030,0.030,0.030,0.000,0.000,0.000
1644915557415254016,2022-02-15-08:59:17,10.1.1.4,27,0.020,0.020,0.020,0.000,0.000,0.000
1644915557472098048,2022-02-15-08:59:17,10.1.1.4,36,0.010,0.010,0.010,0.000,0.000,0.000
1644915557512564992,2022-02-15-08:59:17,10.1.1.4,26,0.000,0.000,0.000,0.000,0.000,0.000
1644915557571507968,2022-02-15-08:59:17,10.1.1.4,34,-0.010,-0.010,-0.010,0.000,0.000,0.000
1644915557611705088,2022-02-15-08:59:17,10.1.1.4,24,-0.020,-0.020,-0.020,0.000,0.000,0.000
1644915557671950080,2022-02-15-08:59:17,10.1.1.4,34,-0.030,-0.030,-0.030,0.000,0.000,0.000
1644915557971170048,2022-02-15-08:59:17,10.1.1.4,28,-0.090,-0.090,-0.090,0.000,0.000,0.000
1644915558031627776,2022-02-15-08:59:18,10.1.1.4,36,-0.100,-0.100,-0.100,0.000,0.000,0.000
1644915558072352000,2022-02-15-08:59:18,10.1.1.4,24,-0.090,-0.090,-0.090,0.000,0.000,0.000
1644915558173368064,2022-02-15-08:59:18,10.1.1.4,20,-0.070,-0.070,-0.070,0.000,0.000,0.000
1644915558352894976,2022-02-15-08:59:18,10.1.1.4,26,-0.040,-0.040,-0.040,0.000,0.000,0.000
1644915558413959936,2022-02-15-08:59:18,10.1.1.4,35,-0.030,-0.030,-0.030,0.000,0.000,0.000
1644915558453681920,2022-02-15-08:59:18,10.1.1.4,24,-0.020,-0.020,-0.020,0.000,0.000,0.000
1644915558653062144,2022-02-15-08:59:18,10.1.1.4,20,0.020,0.020,0.020,0.000,0.000,0.000
1644915558712595968,2022-02-15-08:59:18,10.1.1.4,30,0.030,0.030,0.030,0.000,0.000,0.000
1644915558812591104,2022-02-15-08:59:18,10.1.1.4,28,0.050,0.050,0.050,0.000,0.000,0.000
1644915558872335872,2022-02-15-08:59:18,10.1.1.4,36,0.060,0.060,0.060,0.000,0.000,0.000
1644915558972225792,2022-02-15-08:59:18,10.1.1.4,27,0.080,0.080,0.080,0.000,0.000,0.000
1644915559032212992,2022-02-15-08:59:19,10.1.1.4,36,0.090,0.090,0.090,0.000,0.000,0.000
1644915559071610880,2022-02-15-08:59:19,10.1.1.4,26,0.100,0.100,0.100,0.000,0.000,0.000
1644915559132081920,2022-02-15-08:59:19,10.1.1.4,35,0.090,0.090,0.090,0.000,0.000,0.000
1644915559171632128,2022-02-15-08:59:19,10.1.1.4,24,0.080,0.080,0.080,0.000,0.000,0.000
1644915559232333056,2022-02-15-08:59:19,10.1.1.4,33,0.070,0.070,0.070,0.000,0.000,0.000
1644915559432125184,2022-02-15-08:59:19,10.1.1.4,24,0.030,0.030,0.030,0.000,0.000,0.000
1644915559492242944,2022-02-15-08:59:19,10.1.1.4,34,0.020,0.020,0.020,0.000,0.000,0.000
1644915559794153984,2022-02-15-08:59:19,10.1.1.4,28,-0.040,-0.040,-0.040,0.000,0.000,0.000
1644915559851848960,2022-02-15-08:59:19,10.1.1.4,37,-0.050,-0.050,-0.050,0.000,0.000,0.000
1644915559891414016,2022-02-15-08:59:19,10.1.1.4,26,-0.060,-0.060,-0.060,0.000,0.000,0.000
1644915559951148032,2022-02-15-08:59:19,10.1.1.4,35,-0.070,-0.070,-0.070,0.000,0.000,0.000
1644915559992984064,2022-02-15-08:59:19,10.1.1.4,25,-0.080,-0.080,-0.080,0.000,0.000,0.000
1644915560053177088,2022-02-15-08:59:20,10.1.1.4,34,-0.090,-0.090,-0.090,0.000,0.000,0.000
1644915560131890944,2022-02-15-08:59:20,10.1.1.4,8,-0.090,-0.090,-0.090,0.000,0.000,0.000
1644915560212407040,2022-02-15-08:59:20,10.1.1.4,38,-0.080,-0.080,-0.080,0.000,0.000,0.000
1644915560252259072,2022-02-15-08:59:20,10.1.1.4,27,-0.070,-0.070,-0.070,0.000,0.000,0.000
1644915560312423936,2022-02-15-08:59:20,10.1.1.4,36,-0.060,-0.060,-0.060,0.000,0.000,0.000
1644915560373419008,2022-02-15-08:59:20,10.1.1.4,25,-0.050,-0.050,-0.050,0.000,0.000,0.000
1644915560411958016,2022-02-15-08:59:20,10.1.1.4,26,-0.040,-0.040,-0.040,0.000,0.000,0.000
1644915560471890944,2022-02-15-08:59:20,10.1.1.4,35,-0.030,-0.030,-0.030,0.000,0.000,0.000
1644915560572006912,2022-02-15-08:59:20,10.1.1.4,26,-0.010,-0.010,-0.010,0.000,0.000,0.000
1644915560634203904,2022-02-15-08:59:20,10.1.1.4,36,0.000,0.000,0.000,0.000,0.000,0.000
1644915560672318976,2022-02-15-08:59:20,10.1.1.4,25,0.010,0.010,0.010,0.000,0.000,0.000
1644915560732196096,2022-02-15-08:59:20,10.1.1.4,34,0.020,0.020,0.020,0.000,0.000,0.000
1644915560993026048,2022-02-15-08:59:20,10.1.1.4,39,0.070,0.070,0.070,0.000,0.000,0.000
1644915561033590016,2022-02-15-08:59:21,10.1.1.4,28,0.080,0.080,0.080,0.000,0.000,0.000
1644915561093265920,2022-02-15-08:59:21,10.1.1.4,37,0.090,0.090,0.090,0.000,0.000,0.000
1644915561131969024,2022-02-15-08:59:21,10.1.1.4,27,0.100,0.100,0.100,0.000,0.000,0.000
1644915561192500224,2022-02-15-08:59:21,10.1.1.4,36,0.090,0.090,0.090,0.000,0.000,0.000
1644915561233123072,2022-02-15-08:59:21,10.1.1.4,26,0.080,0.080,0.080,0.000,0.000,0.000
1644915561294157056,2022-02-15-08:59:21,10.1.1.4,35,0.070,0.070,0.070,0.000,0.000,0.000
1644915561332073984,2022-02-15-08:59:21,10.1.1.4,24,0.060,0.060,0.060,0.000,0.000,0.000
1644915561393822976,2022-02-15-08:59:21,10.1.1.4,34,0.050,0.050,0.050,0.000,0.000,0.000
1644915561434111232,2022-02-15-08:59:21,10.1.1.4,23,0.040,0.040,0.040,0.000,0.000,0.000
1644915561503011840,2022-02-15-08:59:21,10.1.1.4,26,0.030,0.030,0.030,0.000,0.000,0.000
1644915561552288000,2022-02-15-08:59:21,10.1.1.4,34,0.020,0.020,0.020,0.000,0.000,0.000
1644915561651702784,2022-02-15-08:59:21,10.1.1.4,29,0.000,0.000,0.000,0.000,0.000,0.000
1644915561712177152,2022-02-15-08:59:21,10.1.1.4,39,-0.010,-0.010,-0.010,0.000,0.000,0.000
1644915561752199936,2022-02-15-08:59:21,10.1.1.4,28,-0.020,-0.020,-0.020,0.000,0.000,0.000
1644915561811744000,2022-02-15-08:59:21,10.1.1.4,37,-0.030,-0.030,-0.030,0.000,0.000,0.000
1644915561853467904,2022-02-15-08:59:21,10.1.1.4,27,-0.040,-0.040,-0.040,0.000,0.000,0.000
1644915561911990784,2022-02-15-08:59:21,10.1.1.4,35,-0.050,-0.050,-0.050,0.000,0.000,0.000
1644915561952211968,2022-02-15-08:59:21,10.1.1.4,25,-0.060,-0.060,-0.060,0.000,0.000,0.000
1644915562014059008,2022-02-15-08:59:22,10.1.1.4,32,-0.070,-0.070,-0.070,0.000,0.000,0.000
1644915562073512192,2022-02-15-08:59:22,10.1.1.4,39,-0.080,-0.080,-0.080,0.000,0.000,0.000
1644915562113253120,2022-02-15-08:59:22,10.1.1.4,25,-0.090,-0.090,-0.090,0.000,0.000,0.000
1644915562173455872,2022-02-15-08:59:22,10.1.1.4,28,-0.100,-0.100,-0.100,0.000,0.000,0.000
1644915562233256960,2022-02-15-08:59:22,10.1.1.4,37,-0.090,-0.090,-0.090,0.000,0.000,0.000
1644915562273210112,2022-02-15-08:59:22,10.1.1.4,26,-0.080,-0.080,-0.080,0.000,0.000,0.000
1644915562334286848,2022-02-15-08:59:22,10.1.1.4,28,-0.070,-0.070,-0.070,0.000,0.000,0.000
1644915562392431872,2022-02-15-08:59:22,10.1.1.4,35,-0.060,-0.060,-0.060,0.000,0.000,0.000
1644915562438695936,2022-02-15-08:59:22,10.1.1.4,24,-0.050,-0.050,-0.050,0.000,0.000,0.000
1644915562553273088,2022-02-15-08:59:22,10.1.1.4,38,-0.030,-0.030,-0.030,0.000,0.000,0.000
1644915562593436928,2022-02-15-08:59:22,10.1.1.4,27,-0.020,-0.020,-0.020,0.000,0.000,0.000
1644915562752583936,2022-02-15-08:59:22,10.1.1.4,29,0.010,0.010,0.010,0.000,0.000,0.000
1644915562792574976,2022-02-15-08:59:22,10.1.1.4,18,0.019,0.019,0.019,0.000,0.000,0.000
1644915562851762944,2022-02-15-08:59:22,10.1.1.4,27,0.030,0.030,0.030,0.000,0.000,0.000
1644915562914656000,2022-02-15-08:59:22,10.1.1.4,37,0.040,0.040,0.040,0.000,0.000,0.000
1644915562953208832,2022-02-15-08:59:22,10.1.1.4,26,0.050,0.050,0.050,0.000,0.000,0.000
1644915563015536128,2022-02-15-08:59:23,10.1.1.4,36,0.060,0.060,0.060,0.000,0.000,0.000
1644915563054168832,2022-02-15-08:59:23,10.1.1.4,25,0.070,0.070,0.070,0.000,0.000,0.000
1644915563234447872,2022-02-15-08:59:23,10.1.1.4,24,0.100,0.100,0.100,0.000,0.000,0.000
1644915563292644864,2022-02-15-08:59:23,10.1.1.4,29,0.090,0.090,0.090,0.000,0.000,0.000
1644915563351665920,2022-02-15-08:59:23,10.1.1.4,39,0.080,0.080,0.080,0.000,0.000,0.000
1644915563391457024,2022-02-15-08:59:23,10.1.1.4,28,0.070,0.070,0.070,0.000,0.000,0.000
1644915563451503104,2022-02-15-08:59:23,10.1.1.4,38,0.060,0.060,0.060,0.000,0.000,0.000
1644915563493253120,2022-02-15-08:59:23,10.1.1.4,28,0.050,0.050,0.050,0.000,0.000,0.000
1644915563551467776,2022-02-15-08:59:23,10.1.1.4,36,0.040,0.040,0.040,0.000,0.000,0.000
1644915563591504128,2022-02-15-08:59:23,10.1.1.4,26,0.030,0.030,0.030,0.000,0.000,0.000
1644915563651783936,2022-02-15-08:59:23,10.1.1.4,35,0.020,0.020,0.020,0.000,0.000,0.000
1644915563695046912,2022-02-15-08:59:23,10.1.1.4,25,0.010,0.010,0.010,0.000,0.000,0.000
1644915563856872960,2022-02-15-08:59:23,10.1.1.4,27,-0.010,-0.010,-0.010,0.000,0.000,0.000
1644915563911603968,2022-02-15-08:59:23,10.1.1.4,36,-0.020,-0.020,-0.020,0.000,0.000,0.000
1644915563962515968,2022-02-15-08:59:23,10.1.1.4,26,-0.030,-0.030,-0.030,0.000,0.000,0.000
1644915564012156928,2022-02-15-08:59:24,10.1.1.4,36,-0.040,-0.040,-0.040,0.000,0.000,0.000
1644915564054862080,2022-02-15-08:59:24,10.1.1.4,25,-0.050,-0.050,-0.050,0.000,0.000,0.000
1644915564171931904,2022-02-15-08:59:24,10.1.1.4,29,-0.070,-0.070,-0.070,0.000,0.000,0.000
1644915564232637952,2022-02-15-08:59:24,10.1.1.4,38,-0.080,-0.080,-0.080,0.000,0.000,0.000
1644915564272532992,2022-02-15-08:59:24,10.1.1.4,28,-0.090,-0.090,-0.090,0.000,0.000,0.000
1644915564332582912,2022-02-15-08:59:24,10.1.1.4,37,-0.100,-0.100,-0.100,0.000,0.000,0.000
1644915564372193024,2022-02-15-08:59:24,10.1.1.4,26,-0.090,-0.090,-0.090,0.000,0.000,0.000
1644915564431927040,2022-02-15-08:59:24,10.1.1.4,36,-0.080,-0.080,-0.080,0.000,0.000,0.000
1644915564472945920,2022-02-15-08:59:24,10.1.1.4,25,-0.070,-0.070,-0.070,0.000,0.000,0.000
1644915564531586048,2022-02-15-08:59:24,10.1.1.4,33,-0.060,-0.060,-0.060,0.000,0.000,0.000
1644915564632112896,2022-02-15-08:59:24,10.1.1.4,25,-0.040,-0.040,-0.040,0.000,0.000,0.000
1644915564915397888,2022-02-15-08:59:24,10.1.1.4,28,0.010,0.010,0.010,0.000,0.000,0.000
1644915564971911936,2022-02-15-08:59:24,10.1.1.4,29,0.020,0.020,0.020,0.000,0.000,0.000
1644915565032027904,2022-02-15-08:59:25,10.1.1.4,37,0.030,0.030,0.030,0.000,0.000,0.000
1644915565072088064,2022-02-15-08:59:25,10.1.1.4,26,0.040,0.040,0.040,0.000,0.000,0.000
1644915565132119040,2022-02-15-08:59:25,10.1.1.4,36,0.050,0.050,0.050,0.000,0.000,0.000
1644915565172210944,2022-02-15-08:59:25,10.1.1.4,25,0.060,0.060,0.060,0.000,0.000,0.000
1644915565372015104,2022-02-15-08:59:25,10.1.1.4,20,0.100,0.100,0.100,0.000,0.000,0.000
1644915565434225920,2022-02-15-08:59:25,10.1.1.4,29,0.090,0.090,0.090,0.000,0.000,0.000
1644915565504977920,2022-02-15-08:59:25,10.1.1.4,36,0.080,0.080,0.080,0.000,0.000,0.000
1644915565773453824,2022-02-15-08:59:25,10.1.1.4,34,0.040,0.040,0.040,0.000,0.000,0.000
1644915565834192896,2022-02-15-08:59:25,10.1.1.4,25,0.030,0.030,0.030,0.000,0.000,0.000
1644915565892091904,2022-02-15-08:59:25,10.1.1.4,33,0.020,0.020,0.020,0.000,0.000,0.000
1644915565942235904,2022-02-15-08:59:25,10.1.1.4,26,0.010,0.010,0.010,0.000,0.000,0.000
1644915566093421824,2022-02-15-08:59:26,10.1.1.4,28,-0.020,-0.020,-0.020,0.000,0.000,0.000
1644915566195590912,2022-02-15-08:59:26,10.1.1.4,26,-0.040,-0.040,-0.040,0.000,0.000,0.000
1644915566412867072,2022-02-15-08:59:26,10.1.1.4,38,-0.080,-0.080,-0.080,0.000,0.000,0.000
1644915566470740992,2022-02-15-08:59:26,10.1.1.4,28,-0.090,-0.090,-0.090,0.000,0.000,0.000
1644915566513089024,2022-02-15-08:59:26,10.1.1.4,36,-0.100,-0.100,-0.100,0.000,0.000,0.000
1644915566553061120,2022-02-15-08:59:26,10.1.1.4,25,-0.090,-0.090,-0.090,0.000,0.000,0.000
1644915566818686976,2022-02-15-08:59:26,10.1.1.4,28,-0.040,-0.040,-0.040,0.000,0.000,0.000
1644915566872270080,2022-02-15-08:59:26,10.1.1.4,37,-0.030,-0.030,-0.030,0.000,0.000,0.000
1644915566912489984,2022-02-15-08:59:26,10.1.1.4,26,-0.020,-0.020,-0.020,0.000,0.000,0.000
1644915566971538176,2022-02-15-08:59:26,10.1.1.4,35,-0.010,-0.010,-0.010,0.000,0.000,0.000
1644915567012544000,2022-02-15-08:59:27,10.1.1.4,25,0.000,0.000,0.000,0.000,0.000,0.000
1644915567111857920,2022-02-15-08:59:27,10.1.1.4,24,0.020,0.020,0.020,0.000,0.000,0.000
1644915567171611136,2022-02-15-08:59:27,10.1.1.4,34,0.030,0.030,0.030,0.000,0.000,0.000
1644915567371782912,2022-02-15-08:59:27,10.1.1.4,29,0.070,0.070,0.070,0.000,0.000,0.000
1644915567432367104,2022-02-15-08:59:27,10.1.1.4,38,0.080,0.080,0.080,0.000,0.000,0.000
1644915567471983872,2022-02-15-08:59:27,10.1.1.4,27,0.090,0.090,0.090,0.000,0.000,0.000
1644915567531815168,2022-02-15-08:59:27,10.1.1.4,37,0.100,0.100,0.100,0.000,0.000,0.000
1644915567571510016,2022-02-15-08:59:27,10.1.1.4,26,0.090,0.090,0.090,0.000,0.000,0.000
1644915567632345088,2022-02-15-08:59:27,10.1.1.4,35,0.080,0.080,0.080,0.000,0.000,0.000
1644915567672174080,2022-02-15-08:59:27,10.1.1.4,25,0.070,0.070,0.070,0.000,0.000,0.000
1644915567731756800,2022-02-15-08:59:27,10.1.1.4,34,0.060,0.060,0.060,0.000,0.000,0.000
1644915567833149952,2022-02-15-08:59:27,10.1.1.4,27,0.040,0.040,0.040,0.000,0.000,0.000
1644915567894062080,2022-02-15-08:59:27,10.1.1.4,36,0.030,0.030,0.030,0.000,0.000,0.000
1644915567932089088,2022-02-15-08:59:27,10.1.1.4,25,0.020,0.020,0.020,0.000,0.000,0.000
1644915567993464832,2022-02-15-08:59:27,10.1.1.4,34,0.010,0.010,0.010,0.000,0.000,0.000
1644915568196121856,2022-02-15-08:59:28,10.1.1.4,25,-0.030,-0.030,-0.030,0.000,0.000,0.000
1644915568251728896,2022-02-15-08:59:28,10.1.1.4,34,-0.040,-0.040,-0.040,0.000,0.000,0.000
1644915568292665088,2022-02-15-08:59:28,10.1.1.4,24,-0.050,-0.050,-0.050,0.000,0.000,0.000
1644915568452205056,2022-02-15-08:59:28,10.1.1.4,30,-0.080,-0.080,-0.080,0.000,0.000,0.000
1644915568620802048,2022-02-15-08:59:28,10.1.1.4,38,-0.090,-0.090,-0.090,0.000,0.000,0.000
1644915568651820800,2022-02-15-08:59:28,10.1.1.4,24,-0.100,-0.100,-0.100,0.000,0.000,0.000
1644915568711613952,2022-02-15-08:59:28,10.1.1.4,27,-0.090,-0.090,-0.090,0.000,0.000,0.000
1644915568772317952,2022-02-15-08:59:28,10.1.1.4,37,-0.080,-0.080,-0.080,0.000,0.000,0.000
1644915568872019968,2022-02-15-08:59:28,10.1.1.4,29,-0.060,-0.060,-0.060,0.000,0.000,0.000
1644915568932130048,2022-02-15-08:59:28,10.1.1.4,39,-0.050,-0.050,-0.050,0.000,0.000,0.000
1644915568971241984,2022-02-15-08:59:28,10.1.1.4,28,-0.040,-0.040,-0.040,0.000,0.000,0.000
1644915569032068096,2022-02-15-08:59:29,10.1.1.4,38,-0.030,-0.030,-0.030,0.000,0.000,0.000
1644915569072228864,2022-02-15-08:59:29,10.1.1.4,23,-0.020,-0.020,-0.020,0.000,0.000,0.000
1644915569331585792,2022-02-15-08:59:29,10.1.1.4,28,0.030,0.030,0.030,0.000,0.000,0.000
1644915569391766016,2022-02-15-08:59:29,10.1.1.4,38,0.040,0.040,0.040,0.000,0.000,0.000
1644915569433243136,2022-02-15-08:59:29,10.1.1.4,28,0.050,0.050,0.050,0.000,0.000,0.000
1644915569551940864,2022-02-15-08:59:29,10.1.1.4,37,0.070,0.070,0.070,0.000,0.000,0.000
1644915569692480000,2022-02-15-08:59:29,10.1.1.4,20,0.100,0.100,0.100,0.000,0.000,0.000
1644915569814861056,2022-02-15-08:59:29,10.1.1.4,38,0.080,0.080,0.080,0.000,0.000,0.000
1644915569852214016,2022-02-15-08:59:29,10.1.1.4,28,0.070,0.070,0.070,0.000,0.000,0.000
1644915569912022016,2022-02-15-08:59:29,10.1.1.4,37,0.060,0.060,0.060,0.000,0.000,0.000
1644915569952078080,2022-02-15-08:59:29,10.1.1.4,25,0.050,0.050,0.050,0.000,0.000,0.000
1644915570311841024,2022-02-15-08:59:30,10.1.1.4,29,-0.020,-0.020,-0.020,0.000,0.000,0.000
1644915570372199168,2022-02-15-08:59:30,10.1.1.4,39,-0.030,-0.030,-0.030,0.000,0.000,0.000
1644915570418179072,2022-02-15-08:59:30,10.1.1.4,28,-0.040,-0.040,-0.040,0.000,0.000,0.000
1644915570471559168,2022-02-15-08:59:30,10.1.1.4,37,-0.050,-0.050,-0.050,0.000,0.000,0.000
1644915570512876032,2022-02-15-08:59:30,10.1.1.4,27,-0.060,-0.060,-0.060,0.000,0.000,0.000
1644915570571566080,2022-02-15-08:59:30,10.1.1.4,36,-0.070,-0.070,-0.070,0.000,0.000,0.000
1644915570612822016,2022-02-15-08:59:30,10.1.1.4,24,-0.080,-0.080,-0.080,0.000,0.000,0.000
1644915570672854784,2022-02-15-08:59:30,10.1.1.4,34,-0.090,-0.090,-0.090,0.000,0.000,0.000
1644915570711889920,2022-02-15-08:59:30,10.1.1.4,23,-0.100,-0.100,-0.100,0.000,0.000,0.000
1644915570772164096,2022-02-15-08:59:30,10.1.1.4,33,-0.090,-0.090,-0.090,0.000,0.000,0.000
1644915570871854080,2022-02-15-08:59:30,10.1.1.4,32,-0.070,-0.070,-0.070,0.000,0.000,0.000
1644915571132105216,2022-02-15-08:59:31,10.1.1.4,40,-0.020,-0.020,-0.020,0.000,0.000,0.000
1644915571172336128,2022-02-15-08:59:31,10.1.1.4,29,-0.010,-0.010,-0.010,0.000,0.000,0.000
1644915571233292032,2022-02-15-08:59:31,10.1.1.4,38,0.000,0.000,0.000,0.000,0.000,0.000
1644915571271364096,2022-02-15-08:59:31,10.1.1.4,28,0.010,0.010,0.010,0.000,0.000,0.000
1644915571332046080,2022-02-15-08:59:31,10.1.1.4,37,0.020,0.020,0.020,0.000,0.000,0.000
1644915571372107008,2022-02-15-08:59:31,10.1.1.4,26,0.030,0.030,0.030,0.000,0.000,0.000
1644915571433618944,2022-02-15-08:59:31,10.1.1.4,34,0.040,0.040,0.040,0.000,0.000,0.000
1644915571592907008,2022-02-15-08:59:31,10.1.1.4,38,0.070,0.070,0.070,0.000,0.000,0.000
1644915571631439872,2022-02-15-08:59:31,10.1.1.4,27,0.080,0.080,0.080,0.000,0.000,0.000
1644915571691830016,2022-02-15-08:59:31,10.1.1.4,36,0.090,0.090,0.090,0.000,0.000,0.000
1644915571731511040,2022-02-15-08:59:31,10.1.1.4,25,0.100,0.100,0.100,0.000,0.000,0.000
1644915571991638016,2022-02-15-08:59:31,10.1.1.4,30,0.050,0.050,0.050,0.000,0.000,0.000
1644915572052069888,2022-02-15-08:59:32,10.1.1.4,39,0.040,0.040,0.040,0.000,0.000,0.000
1644915572091862016,2022-02-15-08:59:32,10.1.1.4,28,0.030,0.030,0.030,0.000,0.000,0.000
1644915572152026880,2022-02-15-08:59:32,10.1.1.4,36,0.020,0.020,0.020,0.000,0.000,0.000
1644915572452166912,2022-02-15-08:59:32,10.1.1.4,29,-0.040,-0.040,-0.040,0.000,0.000,0.000
1644915572512017920,2022-02-15-08:59:32,10.1.1.4,38,-0.050,-0.050,-0.050,0.000,0.000,0.000
1644915572551827968,2022-02-15-08:59:32,10.1.1.4,28,-0.060,-0.060,-0.060,0.000,0.000,0.000
1644915572612134912,2022-02-15-08:59:32,10.1.1.4,37,-0.070,-0.070,-0.070,0.000,0.000,0.000
1644915572670034944,2022-02-15-08:59:32,10.1.1.4,27,-0.080,-0.080,-0.080,0.000,0.000,0.000
1644915572772178944,2022-02-15-08:59:32,10.1.1.4,38,-0.100,-0.100,-0.100,0.000,0.000,0.000
1644915572812910080,2022-02-15-08:59:32,10.1.1.4,27,-0.090,-0.090,-0.090,0.000,0.000,0.000
1644915572874128128,2022-02-15-08:59:32,10.1.1.4,36,-0.080,-0.080,-0.080,0.000,0.000,0.000
1644915572911872000,2022-02-15-08:59:32,10.1.1.4,24,-0.070,-0.070,-0.070,0.000,0.000,0.000
1644915573133542144,2022-02-15-08:59:33,10.1.1.4,39,-0.030,-0.030,-0.030,0.000,0.000,0.000
1644915573172207104,2022-02-15-08:59:33,10.1.1.4,28,-0.020,-0.020,-0.020,0.000,0.000,0.000
1644915573231749888,2022-02-15-08:59:33,10.1.1.4,34,-0.010,-0.010,-0.010,0.000,0.000,0.000
1644915573272547840,2022-02-15-08:59:33,10.1.1.4,25,0.000,0.000,0.000,0.000,0.000,0.000
1644915573552787968,2022-02-15-08:59:33,10.1.1.4,39,0.050,0.050,0.050,0.000,0.000,0.000
1644915573591636992,2022-02-15-08:59:33,10.1.1.4,28,0.060,0.060,0.060,0.000,0.000,0.000
1644915573652021760,2022-02-15-08:59:33,10.1.1.4,37,0.070,0.070,0.070,0.000,0.000,0.000
1644915573692162048,2022-02-15-08:59:33,10.1.1.4,27,0.080,0.080,0.080,0.000,0.000,0.000
1644915573752930048,2022-02-15-08:59:33,10.1.1.4,36,0.090,0.090,0.090,0.000,0.000,0.000
1644915573792365056,2022-02-15-08:59:33,10.1.1.4,25,0.100,0.100,0.100,0.000,0.000,0.000
1644915573951224064,2022-02-15-08:59:33,10.1.1.4,28,0.070,0.070,0.070,0.000,0.000,0.000
1644915574013248000,2022-02-15-08:59:34,10.1.1.4,38,0.060,0.060,0.060,0.000,0.000,0.000
1644915574052849920,2022-02-15-08:59:34,10.1.1.4,28,0.050,0.050,0.050,0.000,0.000,0.000
1644915574176027136,2022-02-15-08:59:34,10.1.1.4,38,0.030,0.030,0.030,0.000,0.000,0.000
1644915574212090880,2022-02-15-08:59:34,10.1.1.4,28,0.020,0.020,0.020,0.000,0.000,0.000
1644915574272510976,2022-02-15-08:59:34,10.1.1.4,36,0.010,0.010,0.010,0.000,0.000,0.000
1644915574313731840,2022-02-15-08:59:34,10.1.1.4,24,0.000,0.000,0.000,0.000,0.000,0.000
1644915574372518912,2022-02-15-08:59:34,10.1.1.4,34,-0.010,-0.010,-0.010,0.000,0.000,0.000
1644915574413137920,2022-02-15-08:59:34,10.1.1.4,23,-0.020,-0.020,-0.020,0.000,0.000,0.000
1644915574631540992,2022-02-15-08:59:34,10.1.1.4,39,-0.060,-0.060,-0.060,0.000,0.000,0.000
1644915574672122880,2022-02-15-08:59:34,10.1.1.4,28,-0.070,-0.070,-0.070,0.000,0.000,0.000
1644915574732144128,2022-02-15-08:59:34,10.1.1.4,36,-0.080,-0.080,-0.080,0.000,0.000,0.000
1644915574771948032,2022-02-15-08:59:34,10.1.1.4,26,-0.090,-0.090,-0.090,0.000,0.000,0.000
1644915574833758208,2022-02-15-08:59:34,10.1.1.4,36,-0.100,-0.100,-0.100,0.000,0.000,0.000
1644915574872183040,2022-02-15-08:59:34,10.1.1.4,24,-0.090,-0.090,-0.090,0.000,0.000,0.000
1644915574932677120,2022-02-15-08:59:34,10.1.1.4,34,-0.080,-0.080,-0.080,0.000,0.000,0.000
1644915574973020160,2022-02-15-08:59:34,10.1.1.4,24,-0.070,-0.070,-0.070,0.000,0.000,0.000
1644915575131639040,2022-02-15-08:59:35,10.1.1.4,29,-0.040,-0.040,-0.040,0.000,0.000,0.000
1644915575191880960,2022-02-15-08:59:35,10.1.1.4,38,-0.030,-0.030,-0.030,0.000,0.000,0.000
1644915575233282048,2022-02-15-08:59:35,10.1.1.4,27,-0.020,-0.020,-0.020,0.000,0.000,0.000
1644915575351891968,2022-02-15-08:59:35,10.1.1.4,29,0.000,0.000,0.000,0.000,0.000,0.000
1644915575412194048,2022-02-15-08:59:35,10.1.1.4,39,0.010,0.010,0.010,0.000,0.000,0.000
1644915575452378112,2022-02-15-08:59:35,10.1.1.4,29,0.020,0.020,0.020,0.000,0.000,0.000
1644915575511857152,2022-02-15-08:59:35,10.1.1.4,38,0.030,0.030,0.030,0.000,0.000,0.000
1644915575572515840,2022-02-15-08:59:35,10.1.1.4,35,0.040,0.040,0.040,0.000,0.000,0.000
1644915575613532160,2022-02-15-08:59:35,10.1.1.4,24,0.050,0.050,0.050,0.000,0.000,0.000
1644915575874078976,2022-02-15-08:59:35,10.1.1.4,31,0.100,0.100,0.100,0.000,0.000,0.000
1644915575972628992,2022-02-15-08:59:35,10.1.1.4,28,0.080,0.080,0.080,0.000,0.000,0.000
1644915576033255936,2022-02-15-08:59:36,10.1.1.4,38,0.070,0.070,0.070,0.000,0.000,0.000
1644915576072071168,2022-02-15-08:59:36,10.1.1.4,27,0.060,0.060,0.060,0.000,0.000,0.000
1644915576131918848,2022-02-15-08:59:36,10.1.1.4,37,0.050,0.050,0.050,0.000,0.000,0.000
1644915576172288768,2022-02-15-08:59:36,10.1.1.4,27,0.040,0.040,0.040,0.000,0.000,0.000
1644915576232233984,2022-02-15-08:59:36,10.1.1.4,36,0.030,0.030,0.030,0.000,0.000,0.000
1644915576271752192,2022-02-15-08:59:36,10.1.1.4,25,0.020,0.020,0.020,0.000,0.000,0.000
1644915576331835136,2022-02-15-08:59:36,10.1.1.4,35,0.010,0.010,0.010,0.000,0.000,0.000
1644915576371998976,2022-02-15-08:59:36,10.1.1.4,23,0.000,0.000,0.000,0.000,0.000,0.000
1644915576432033024,2022-02-15-08:59:36,10.1.1.4,28,-0.010,-0.010,-0.010,0.000,0.000,0.000
1644915576492225792,2022-02-15-08:59:36,10.1.1.4,39,-0.020,-0.020,-0.020,0.000,0.000,0.000
1644915576532363008,2022-02-15-08:59:36,10.1.1.4,28,-0.030,-0.030,-0.030,0.000,0.000,0.000
1644915576592808960,2022-02-15-08:59:36,10.1.1.4,37,-0.040,-0.040,-0.040,0.000,0.000,0.000
1644915576631918080,2022-02-15-08:59:36,10.1.1.4,26,-0.050,-0.050,-0.050,0.000,0.000,0.000
1644915576691540992,2022-02-15-08:59:36,10.1.1.4,35,-0.060,-0.060,-0.060,0.000,0.000,0.000
1644915576732184832,2022-02-15-08:59:36,10.1.1.4,24,-0.070,-0.070,-0.070,0.000,0.000,0.000
1644915576791937024,2022-02-15-08:59:36,10.1.1.4,33,-0.080,-0.080,-0.080,0.000,0.000,0.000
1644915576972068096,2022-02-15-08:59:36,10.1.1.4,9,-0.080,-0.080,-0.080,0.000,0.000,0.000
1644915577052722944,2022-02-15-08:59:37,10.1.1.4,40,-0.070,-0.070,-0.070,0.000,0.000,0.000
1644915577093445120,2022-02-15-08:59:37,10.1.1.4,29,-0.060,-0.060,-0.060,0.000,0.000,0.000
1644915577152043008,2022-02-15-08:59:37,10.1.1.4,38,-0.050,-0.050,-0.050,0.000,0.000,0.000
1644915577192837888,2022-02-15-08:59:37,10.1.1.4,27,-0.040,-0.040,-0.040,0.000,0.000,0.000
1644915577251940864,2022-02-15-08:59:37,10.1.1.4,36,-0.030,-0.030,-0.030,0.000,0.000,0.000
1644915577292375040,2022-02-15-08:59:37,10.1.1.4,26,-0.020,-0.020,-0.020,0.000,0.000,0.000
1644915577352449024,2022-02-15-08:59:37,10.1.1.4,36,-0.010,-0.010,-0.010,0.000,0.000,0.000
1644915577393086976,2022-02-15-08:59:37,10.1.1.4,25,-0.000,-0.000,-0.000,0.000,0.000,0.000
1644915577452261888,2022-02-15-08:59:37,10.1.1.4,34,0.010,0.010,0.010,0.000,0.000,0.000
1644915577752942080,2022-02-15-08:59:37,10.1.1.4,24,0.070,0.070,0.070,0.000,0.000,0.000
1644915578012395008,2022-02-15-08:59:38,10.1.1.4,30,0.080,0.080,0.080,0.000,0.000,0.000
1644915578072652032,2022-02-15-08:59:38,10.1.1.4,38,0.070,0.070,0.070,0.000,0.000,0.000
1644915578112816128,2022-02-15-08:59:38,10.1.1.4,28,0.060,0.060,0.060,0.000,0.000,0.000
1644915578172535040,2022-02-15-08:59:38,10.1.1.4,38,0.050,0.050,0.050,0.000,0.000,0.000
1644915578213623040,2022-02-15-08:59:38,10.1.1.4,27,0.040,0.040,0.040,0.000,0.000,0.000
1644915578273020928,2022-02-15-08:59:38,10.1.1.4,36,0.030,0.030,0.030,0.000,0.000,0.000
1644915578313373184,2022-02-15-08:59:38,10.1.1.4,26,0.020,0.020,0.020,0.000,0.000,0.000
1644915578373384960,2022-02-15-08:59:38,10.1.1.4,34,0.010,0.010,0.010,0.000,0.000,0.000
1644915578411643904,2022-02-15-08:59:38,10.1.1.4,23,0.000,0.000,0.000,0.000,0.000,0.000
1644915578472204032,2022-02-15-08:59:38,10.1.1.4,33,-0.010,-0.010,-0.010,0.000,0.000,0.000
1644915578571424000,2022-02-15-08:59:38,10.1.1.4,30,-0.030,-0.030,-0.030,0.000,0.000,0.000
1644915578671959040,2022-02-15-08:59:38,10.1.1.4,29,-0.050,-0.050,-0.050,0.000,0.000,0.000
1644915578732809984,2022-02-15-08:59:38,10.1.1.4,38,-0.060,-0.060,-0.060,0.000,0.000,0.000
1644915578772525056,2022-02-15-08:59:38,10.1.1.4,28,-0.070,-0.070,-0.070,0.000,0.000,0.000
1644915578832173056,2022-02-15-08:59:38,10.1.1.4,37,-0.080,-0.080,-0.080,0.000,0.000,0.000
1644915578872428032,2022-02-15-08:59:38,10.1.1.4,26,-0.090,-0.090,-0.090,0.000,0.000,0.000
1644915578932045056,2022-02-15-08:59:38,10.1.1.4,35,-0.100,-0.100,-0.100,0.000,0.000,0.000
1644915578972229120,2022-02-15-08:59:38,10.1.1.4,24,-0.090,-0.090,-0.090,0.000,0.000,0.000
1644915579197340928,2022-02-15-08:59:39,10.1.1.4,39,-0.050,-0.050,-0.050,0.000,0.000,0.000
1644915579452045056,2022-02-15-08:59:39,10.1.1.4,29,0.000,0.000,0.000,0.000,0.000,0.000
1644915579512219904,2022-02-15-08:59:39,10.1.1.4,37,0.010,0.010,0.010,0.000,0.000,0.000
1644915579552953856,2022-02-15-08:59:39,10.1.1.4,27,0.020,0.020,0.020,0.000,0.000,0.000
1644915579612495872,2022-02-15-08:59:39,10.1.1.4,36,0.030,0.030,0.030,0.000,0.000,0.000
1644915579772030208,2022-02-15-08:59:39,10.1.1.4,39,0.060,0.060,0.060,0.000,0.000,0.000
1644915579812883968,2022-02-15-08:59:39,10.1.1.4,28,0.070,0.070,0.070,0.000,0.000,0.000
1644915579873244928,2022-02-15-08:59:39,10.1.1.4,37,0.080,0.080,0.080,0.000,0.000,0.000
1644915579912206848,2022-02-15-08:59:39,10.1.1.4,26,0.090,0.090,0.090,0.000,0.000,0.000
1644915579973961216,2022-02-15-08:59:39,10.1.1.4,34,0.100,0.100,0.100,0.000,0.000,0.000
1644915580072359936,2022-02-15-08:59:40,10.1.1.4,28,0.080,0.080,0.080,0.000,0.000,0.000
1644915580131774976,2022-02-15-08:59:40,10.1.1.4,38,0.070,0.070,0.070,0.000,0.000,0.000
1644915580172183040,2022-02-15-08:59:40,10.1.1.4,27,0.060,0.060,0.060,0.000,0.000,0.000
1644915580232269056,2022-02-15-08:59:40,10.1.1.4,37,0.050,0.050,0.050,0.000,0.000,0.000
1644915580271895040,2022-02-15-08:59:40,10.1.1.4,26,0.040,0.040,0.040,0.000,0.000,0.000
1644915580332039168,2022-02-15-08:59:40,10.1.1.4,35,0.030,0.030,0.030,0.000,0.000,0.000
1644915580371740160,2022-02-15-08:59:40,10.1.1.4,24,0.020,0.020,0.020,0.000,0.000,0.000
1644915580535123200,2022-02-15-08:59:40,10.1.1.4,29,-0.010,-0.010,-0.010,0.000,0.000,0.000
1644915580592329984,2022-02-15-08:59:40,10.1.1.4,36,-0.020,-0.020,-0.020,0.000,0.000,0.000
1644915580914055168,2022-02-15-08:59:40,10.1.1.4,29,-0.080,-0.080,-0.080,0.000,0.000,0.000
1644915580972538880,2022-02-15-08:59:40,10.1.1.4,39,-0.090,-0.090,-0.090,0.000,0.000,0.000
1644915581037935104,2022-02-15-08:59:41,10.1.1.4,-44,-0.090,-0.090,-0.090,0.000,0.000,0.000
1644915581112324096,2022-02-15-08:59:41,10.1.1.4,26,-0.080,-0.080,-0.080,0.000,0.000,0.000
1644915581173712128,2022-02-15-08:59:41,10.1.1.4,36,-0.070,-0.070,-0.070,0.000,0.000,0.000
1644915581212192000,2022-02-15-08:59:41,10.1.1.4,25,-0.060,-0.060,-0.060,0.000,0.000,0.000
1644915581271997952,2022-02-15-08:59:41,10.1.1.4,35,-0.050,-0.050,-0.050,0.000,0.000,0.000
1644915581312172800,2022-02-15-08:59:41,10.1.1.4,24,-0.040,-0.040,-0.040,0.000,0.000,0.000
1644915581371798016,2022-02-15-08:59:41,10.1.1.4,34,-0.030,-0.030,-0.030,0.000,0.000,0.000
1644915581532005120,2022-02-15-08:59:41,10.1.1.4,39,0.000,0.000,0.000,0.000,0.000,0.000
1644915581571832064,2022-02-15-08:59:41,10.1.1.4,28,0.010,0.010,0.010,0.000,0.000,0.000
1644915581632103936,2022-02-15-08:59:41,10.1.1.4,38,0.020,0.020,0.020,0.000,0.000,0.000
1644915581672152064,2022-02-15-08:59:41,10.1.1.4,28,0.030,0.030,0.030,0.000,0.000,0.000
1644915581732086784,2022-02-15-08:59:41,10.1.1.4,36,0.040,0.040,0.040,0.000,0.000,0.000
1644915581771874048,2022-02-15-08:59:41,10.1.1.4,26,0.050,0.050,0.050,0.000,0.000,0.000
1644915581831988992,2022-02-15-08:59:41,10.1.1.4,35,0.060,0.060,0.060,0.000,0.000,0.000
1644915582092034048,2022-02-15-08:59:42,10.1.1.4,39,0.090,0.090,0.090,0.000,0.000,0.000
1644915582191955200,2022-02-15-08:59:42,10.1.1.4,37,0.070,0.070,0.070,0.000,0.000,0.000
1644915582232033024,2022-02-15-08:59:42,10.1.1.4,26,0.060,0.060,0.060,0.000,0.000,0.000
1644915582292238848,2022-02-15-08:59:42,10.1.1.4,35,0.050,0.050,0.050,0.000,0.000,0.000
1644915582332732928,2022-02-15-08:59:42,10.1.1.4,24,0.040,0.040,0.040,0.000,0.000,0.000
1644915582392270080,2022-02-15-08:59:42,10.1.1.4,33,0.030,0.030,0.030,0.000,0.000,0.000
1644915582500451072,2022-02-15-08:59:42,10.1.1.4,19,0.010,0.010,0.010,0.000,0.000,0.000
1644915582752252928,2022-02-15-08:59:42,10.1.1.4,21,-0.040,-0.040,-0.040,0.000,0.000,0.000
1644915582872838912,2022-02-15-08:59:42,10.1.1.4,39,-0.060,-0.060,-0.060,0.000,0.000,0.000
1644915582912568064,2022-02-15-08:59:42,10.1.1.4,29,-0.070,-0.070,-0.070,0.000,0.000,0.000
1644915582972438016,2022-02-15-08:59:42,10.1.1.4,38,-0.080,-0.080,-0.080,0.000,0.000,0.000
1644915583012582144,2022-02-15-08:59:43,10.1.1.4,28,-0.090,-0.090,-0.090,0.000,0.000,0.000
1644915583072019200,2022-02-15-08:59:43,10.1.1.4,37,-0.100,-0.100,-0.100,0.000,0.000,0.000
1644915583112265984,2022-02-15-08:59:43,10.1.1.4,26,-0.090,-0.090,-0.090,0.000,0.000,0.000
1644915583171915008,2022-02-15-08:59:43,10.1.1.4,35,-0.080,-0.080,-0.080,0.000,0.000,0.000
1644915583212333824,2022-02-15-08:59:43,10.1.1.4,25,-0.070,-0.070,-0.070,0.000,0.000,0.000
1644915583272064000,2022-02-15-08:59:43,10.1.1.4,34,-0.060,-0.060,-0.060,0.000,0.000,0.000
1644915583371998976,2022-02-15-08:59:43,10.1.1.4,33,-0.040,-0.040,-0.040,0.000,0.000,0.000
1644915583672604160,2022-02-15-08:59:43,10.1.1.4,29,0.020,0.020,0.020,0.000,0.000,0.000
1644915583732281856,2022-02-15-08:59:43,10.1.1.4,38,0.030,0.030,0.030,0.000,0.000,0.000
1644915583772825856,2022-02-15-08:59:43,10.1.1.4,27,0.040,0.040,0.040,0.000,0.000,0.000
1644915583832110848,2022-02-15-08:59:43,10.1.1.4,36,0.050,0.050,0.050,0.000,0.000,0.000
1644915583874907136,2022-02-15-08:59:43,10.1.1.4,26,0.060,0.060,0.060,0.000,0.000,0.000
1644915583992755968,2022-02-15-08:59:43,10.1.1.4,36,0.080,0.080,0.080,0.000,0.000,0.000
1644915584031913984,2022-02-15-08:59:44,10.1.1.4,25,0.090,0.090,0.090,0.000,0.000,0.000
1644915584113042944,2022-02-15-08:59:44,10.1.1.4,3,0.090,0.090,0.090,0.000,0.000,0.000
1644915584392123904,2022-02-15-08:59:44,10.1.1.4,30,0.040,0.040,0.040,0.000,0.000,0.000
1644915584452312832,2022-02-15-08:59:44,10.1.1.4,39,0.030,0.030,0.030,0.000,0.000,0.000
1644915584592004096,2022-02-15-08:59:44,10.1.1.4,26,0.000,0.000,0.000,0.000,0.000,0.000
1644915584652406016,2022-02-15-08:59:44,10.1.1.4,35,-0.010,-0.010,-0.010,0.000,0.000,0.000
1644915584694451968,2022-02-15-08:59:44,10.1.1.4,24,-0.020,-0.020,-0.020,0.000,0.000,0.000
1644915584951802880,2022-02-15-08:59:44,10.1.1.4,29,-0.070,-0.070,-0.070,0.000,0.000,0.000
1644915585013026048,2022-02-15-08:59:45,10.1.1.4,38,-0.080,-0.080,-0.080,0.000,0.000,0.000
1644915585051745792,2022-02-15-08:59:45,10.1.1.4,28,-0.090,-0.090,-0.090,0.000,0.000,0.000
1644915585112229120,2022-02-15-08:59:45,10.1.1.4,37,-0.100,-0.100,-0.100,0.000,0.000,0.000
1644915585151892992,2022-02-15-08:59:45,10.1.1.4,26,-0.090,-0.090,-0.090,0.000,0.000,0.000
1644915585213315072,2022-02-15-08:59:45,10.1.1.4,35,-0.080,-0.080,-0.080,0.000,0.000,0.000
1644915585252253952,2022-02-15-08:59:45,10.1.1.4,24,-0.070,-0.070,-0.070,0.000,0.000,0.000
1644915585312665088,2022-02-15-08:59:45,10.1.1.4,33,-0.060,-0.060,-0.060,0.000,0.000,0.000
1644915585352126976,2022-02-15-08:59:45,10.1.1.4,24,-0.050,-0.050,-0.050,0.000,0.000,0.000
1644915585629085952,2022-02-15-08:59:45,10.1.1.4,29,0.000,0.000,0.000,0.000,0.000,0.000
1644915585932012032,2022-02-15-08:59:45,10.1.1.4,30,0.060,0.060,0.060,0.000,0.000,0.000
1644915585991813888,2022-02-15-08:59:45,10.1.1.4,39,0.070,0.070,0.070,0.000,0.000,0.000
1644915586033474048,2022-02-15-08:59:46,10.1.1.4,29,0.080,0.080,0.080,0.000,0.000,0.000
1644915586092816128,2022-02-15-08:59:46,10.1.1.4,38,0.090,0.090,0.090,0.000,0.000,0.000
1644915586133435904,2022-02-15-08:59:46,10.1.1.4,28,0.100,0.100,0.100,0.000,0.000,0.000
1644915586193411072,2022-02-15-08:59:46,10.1.1.4,37,0.090,0.090,0.090,0.000,0.000,0.000
1644915586234468096,2022-02-15-08:59:46,10.1.1.4,26,0.080,0.080,0.080,0.000,0.000,0.000
1644915586292026112,2022-02-15-08:59:46,10.1.1.4,35,0.070,0.070,0.070,0.000,0.000,0.000
1644915586492273152,2022-02-15-08:59:46,10.1.1.4,29,0.030,0.030,0.030,0.000,0.000,0.000
1644915586551789056,2022-02-15-08:59:46,10.1.1.4,38,0.020,0.020,0.020,0.000,0.000,0.000
1644915586591845120,2022-02-15-08:59:46,10.1.1.4,28,0.010,0.010,0.010,0.000,0.000,0.000
1644915586651982080,2022-02-15-08:59:46,10.1.1.4,37,0.000,0.000,0.000,0.000,0.000,0.000
1644915586692325120,2022-02-15-08:59:46,10.1.1.4,27,-0.010,-0.010,-0.010,0.000,0.000,0.000
1644915586752284928,2022-02-15-08:59:46,10.1.1.4,36,-0.020,-0.020,-0.020,0.000,0.000,0.000
1644915586793259008,2022-02-15-08:59:46,10.1.1.4,24,-0.030,-0.030,-0.030,0.000,0.000,0.000
1644915586853241088,2022-02-15-08:59:46,10.1.1.4,34,-0.040,-0.040,-0.040,0.000,0.000,0.000
1644915586891927040,2022-02-15-08:59:46,10.1.1.4,23,-0.050,-0.050,-0.050,0.000,0.000,0.000
1644915587152616960,2022-02-15-08:59:47,10.1.1.4,30,-0.100,-0.100,-0.100,0.000,0.000,0.000
1644915587211805952,2022-02-15-08:59:47,10.1.1.4,39,-0.090,-0.090,-0.090,0.000,0.000,0.000
1644915587251677952,2022-02-15-08:59:47,10.1.1.4,26,-0.080,-0.080,-0.080,0.000,0.000,0.000
1644915587311380992,2022-02-15-08:59:47,10.1.1.4,34,-0.070,-0.070,-0.070,0.000,0.000,0.000
1644915587513079808,2022-02-15-08:59:47,10.1.1.4,29,-0.030,-0.030,-0.030,0.000,0.000,0.000
1644915587611574016,2022-02-15-08:59:47,10.1.1.4,27,-0.010,-0.010,-0.010,0.000,0.000,0.000
1644915587671695872,2022-02-15-08:59:47,10.1.1.4,36,0.000,0.000,0.000,0.000,0.000,0.000
1644915587711997952,2022-02-15-08:59:47,10.1.1.4,25,0.010,0.010,0.010,0.000,0.000,0.000
1644915587773019904,2022-02-15-08:59:47,10.1.1.4,34,0.020,0.020,0.020,0.000,0.000,0.000
1644915587812439040,2022-02-15-08:59:47,10.1.1.4,24,0.030,0.030,0.030,0.000,0.000,0.000
1644915587972079104,2022-02-15-08:59:47,10.1.1.4,29,0.060,0.060,0.060,0.000,0.000,0.000
1644915588032463104,2022-02-15-08:59:48,10.1.1.4,39,0.070,0.070,0.070,0.000,0.000,0.000
1644915588072772096,2022-02-15-08:59:48,10.1.1.4,28,0.080,0.080,0.080,0.000,0.000,0.000
1644915588132188928,2022-02-15-08:59:48,10.1.1.4,34,0.090,0.090,0.090,0.000,0.000,0.000
1644915588171581952,2022-02-15-08:59:48,10.1.1.4,24,0.100,0.100,0.100,0.000,0.000,0.000
1644915588291919104,2022-02-15-08:59:48,10.1.1.4,39,0.080,0.080,0.080,0.000,0.000,0.000
1644915588334451968,2022-02-15-08:59:48,10.1.1.4,27,0.070,0.070,0.070,0.000,0.000,0.000
1644915588391361024,2022-02-15-08:59:48,10.1.1.4,37,0.060,0.060,0.060,0.000,0.000,0.000
1644915588432312064,2022-02-15-08:59:48,10.1.1.4,25,0.050,0.050,0.050,0.000,0.000,0.000
1644915588492822784,2022-02-15-08:59:48,10.1.1.4,33,0.040,0.040,0.040,0.000,0.000,0.000
1644915588731885824,2022-02-15-08:59:48,10.1.1.4,20,-0.010,-0.010,-0.010,0.000,0.000,0.000
1644915588793893120,2022-02-15-08:59:48,10.1.1.4,29,-0.020,-0.020,-0.020,0.000,0.000,0.000
1644915588853207040,2022-02-15-08:59:48,10.1.1.4,38,-0.030,-0.030,-0.030,0.000,0.000,0.000
1644915588891995904,2022-02-15-08:59:48,10.1.1.4,28,-0.040,-0.040,-0.040,0.000,0.000,0.000
1644915588952089088,2022-02-15-08:59:48,10.1.1.4,36,-0.050,-0.050,-0.050,0.000,0.000,0.000
1644915588991813888,2022-02-15-08:59:48,10.1.1.4,24,-0.060,-0.060,-0.060,0.000,0.000,0.000
1644915589051752192,2022-02-15-08:59:49,10.1.1.4,34,-0.070,-0.070,-0.070,0.000,0.000,0.000
1644915589151896832,2022-02-15-08:59:49,10.1.1.4,32,-0.090,-0.090,-0.090,0.000,0.000,0.000
1644915589232008960,2022-02-15-08:59:49,10.1.1.4,9,-0.090,-0.090,-0.090,0.000,0.000,0.000
1644915589312089088,2022-02-15-08:59:49,10.1.1.4,38,-0.080,-0.080,-0.080,0.000,0.000,0.000
1644915589351953920,2022-02-15-08:59:49,10.1.1.4,27,-0.070,-0.070,-0.070,0.000,0.000,0.000
1644915589411927040,2022-02-15-08:59:49,10.1.1.4,35,-0.060,-0.060,-0.060,0.000,0.000,0.000
1644915589453042944,2022-02-15-08:59:49,10.1.1.4,24,-0.050,-0.050,-0.050,0.000,0.000,0.000
1644915589525939968,2022-02-15-08:59:49,10.1.1.4,26,-0.040,-0.040,-0.040,0.000,0.000,0.000
1644915589571887104,2022-02-15-08:59:49,10.1.1.4,36,-0.030,-0.030,-0.030,0.000,0.000,0.000
1644915589611507968,2022-02-15-08:59:49,10.1.1.4,25,-0.020,-0.020,-0.020,0.000,0.000,0.000
1644915589672700928,2022-02-15-08:59:49,10.1.1.4,34,-0.010,-0.010,-0.010,0.000,0.000,0.000
1644915589811793152,2022-02-15-08:59:49,10.1.1.4,20,0.020,0.020,0.020,0.000,0.000,0.000
1644915589872176896,2022-02-15-08:59:49,10.1.1.4,28,0.030,0.030,0.030,0.000,0.000,0.000
1644915589931715072,2022-02-15-08:59:49,10.1.1.4,35,0.040,0.040,0.040,0.000,0.000,0.000
1644915589971719936,2022-02-15-08:59:49,10.1.1.4,24,0.050,0.050,0.050,0.000,0.000,0.000
1644915590092392960,2022-02-15-08:59:50,10.1.1.4,38,0.070,0.070,0.070,0.000,0.000,0.000
1644915590132181760,2022-02-15-08:59:50,10.1.1.4,28,0.080,0.080,0.080,0.000,0.000,0.000
1644915590193003776,2022-02-15-08:59:50,10.1.1.4,33,0.090,0.090,0.090,0.000,0.000,0.000
1644915590291894016,2022-02-15-08:59:50,10.1.1.4,19,0.090,0.090,0.090,0.000,0.000,0.000
1644915590471550976,2022-02-15-08:59:50,10.1.1.4,39,0.060,0.060,0.060,0.000,0.000,0.000
1644915590511717120,2022-02-15-08:59:50,10.1.1.4,28,0.050,0.050,0.050,0.000,0.000,0.000
1644915590571863808,2022-02-15-08:59:50,10.1.1.4,37,0.040,0.040,0.040,0.000,0.000,0.000
1644915590615240192,2022-02-15-08:59:50,10.1.1.4,26,0.030,0.030,0.030,0.000,0.000,0.000
1644915590672267008,2022-02-15-08:59:50,10.1.1.4,35,0.020,0.020,0.020,0.000,0.000,0.000
1644915590711854848,2022-02-15-08:59:50,10.1.1.4,23,0.010,0.010,0.010,0.000,0.000,0.000
1644915590872667904,2022-02-15-08:59:50,10.1.1.4,29,-0.020,-0.020,-0.020,0.000,0.000,0.000
1644915591033456128,2022-02-15-08:59:51,10.1.1.4,29,-0.050,-0.050,-0.050,0.000,0.000,0.000
1644915591093447936,2022-02-15-08:59:51,10.1.1.4,39,-0.060,-0.060,-0.060,0.000,0.000,0.000
1644915591132195072,2022-02-15-08:59:51,10.1.1.4,27,-0.070,-0.070,-0.070,0.000,0.000,0.000
1644915591193012992,2022-02-15-08:59:51,10.1.1.4,36,-0.080,-0.080,-0.080,0.000,0.000,0.000
1644915591375034112,2022-02-15-08:59:51,10.1.1.4,9,-0.080,-0.080,-0.080,0.000,0.000,0.000
1644915591414876928,2022-02-15-08:59:51,10.1.1.4,-3,-0.080,-0.080,-0.080,0.000,0.000,0.000
1644915591494155776,2022-02-15-08:59:51,10.1.1.4,27,-0.060,-0.060,-0.060,0.000,0.000,0.000
1644915591552243968,2022-02-15-08:59:51,10.1.1.4,36,-0.050,-0.050,-0.050,0.000,0.000,0.000
1644915591592623872,2022-02-15-08:59:51,10.1.1.4,24,-0.040,-0.040,-0.040,0.000,0.000,0.000
1644915591752225024,2022-02-15-08:59:51,10.1.1.4,29,-0.010,-0.010,-0.010,0.000,0.000,0.000
1644915591811960064,2022-02-15-08:59:51,10.1.1.4,38,0.000,0.000,0.000,0.000,0.000,0.000
1644915591913223936,2022-02-15-08:59:51,10.1.1.4,28,0.020,0.020,0.020,0.000,0.000,0.000
1644915591973150976,2022-02-15-08:59:51,10.1.1.4,37,0.030,0.030,0.030,0.000,0.000,0.000
1644915592012001024,2022-02-15-08:59:52,10.1.1.4,26,0.040,0.040,0.040,0.000,0.000,0.000
1644915592072500992,2022-02-15-08:59:52,10.1.1.4,34,0.050,0.050,0.050,0.000,0.000,0.000
1644915592231888896,2022-02-15-08:59:52,10.1.1.4,38,0.080,0.080,0.080,0.000,0.000,0.000
1644915592272273920,2022-02-15-08:59:52,10.1.1.4,28,0.090,0.090,0.090,0.000,0.000,0.000
1644915592331710976,2022-02-15-08:59:52,10.1.1.4,37,0.100,0.100,0.100,0.000,0.000,0.000
1644915592374067968,2022-02-15-08:59:52,10.1.1.4,25,0.090,0.090,0.090,0.000,0.000,0.000
1644915592435048960,2022-02-15-08:59:52,10.1.1.4,33,0.080,0.080,0.080,0.000,0.000,0.000
1644915592593652992,2022-02-15-08:59:52,10.1.1.4,37,0.050,0.050,0.050,0.000,0.000,0.000
1644915592632230144,2022-02-15-08:59:52,10.1.1.4,25,0.040,0.040,0.040,0.000,0.000,0.000
1644915592792907008,2022-02-15-08:59:52,10.1.1.4,29,0.010,0.010,0.010,0.000,0.000,0.000
1644915592854300928,2022-02-15-08:59:52,10.1.1.4,29,0.000,0.000,0.000,0.000,0.000,0.000
1644915592916267008,2022-02-15-08:59:52,10.1.1.4,37,-0.010,-0.010,-0.010,0.000,0.000,0.000
1644915592954756096,2022-02-15-08:59:52,10.1.1.4,25,-0.020,-0.020,-0.020,0.000,0.000,0.000
1644915593012680960,2022-02-15-08:59:53,10.1.1.4,28,-0.030,-0.030,-0.030,0.000,0.000,0.000
1644915593074328832,2022-02-15-08:59:53,10.1.1.4,37,-0.040,-0.040,-0.040,0.000,0.000,0.000
1644915593112942080,2022-02-15-08:59:53,10.1.1.4,26,-0.050,-0.050,-0.050,0.000,0.000,0.000
1644915593172192000,2022-02-15-08:59:53,10.1.1.4,34,-0.060,-0.060,-0.060,0.000,0.000,0.000
1644915593335233024,2022-02-15-08:59:53,10.1.1.4,39,-0.090,-0.090,-0.090,0.000,0.000,0.000
1644915593374980864,2022-02-15-08:59:53,10.1.1.4,25,-0.100,-0.100,-0.100,0.000,0.000,0.000
1644915593436239872,2022-02-15-08:59:53,10.1.1.4,33,-0.090,-0.090,-0.090,0.000,0.000,0.000
1644915593572869120,2022-02-15-08:59:53,10.1.1.4,20,-0.060,-0.060,-0.060,0.000,0.000,0.000
1644915593631844096,2022-02-15-08:59:53,10.1.1.4,28,-0.050,-0.050,-0.050,0.000,0.000,0.000
1644915593693124096,2022-02-15-08:59:53,10.1.1.4,37,-0.040,-0.040,-0.040,0.000,0.000,0.000
1644915593732364032,2022-02-15-08:59:53,10.1.1.4,25,-0.030,-0.030,-0.030,0.000,0.000,0.000
1644915593792779008,2022-02-15-08:59:53,10.1.1.4,33,-0.020,-0.020,-0.020,0.000,0.000,0.000
1644915593992862976,2022-02-15-08:59:53,10.1.1.4,26,0.020,0.020,0.020,0.000,0.000,0.000
1644915594292943104,2022-02-15-08:59:54,10.1.1.4,38,0.070,0.070,0.070,0.000,0.000,0.000
1644915594332087040,2022-02-15-08:59:54,10.1.1.4,27,0.080,0.080,0.080,0.000,0.000,0.000
1644915594391982080,2022-02-15-08:59:54,10.1.1.4,37,0.090,0.090,0.090,0.000,0.000,0.000
1644915594432297984,2022-02-15-08:59:54,10.1.1.4,27,0.100,0.100,0.100,0.000,0.000,0.000
1644915594492582144,2022-02-15-08:59:54,10.1.1.4,36,0.090,0.090,0.090,0.000,0.000,0.000
1644915594532558080,2022-02-15-08:59:54,10.1.1.4,25,0.080,0.080,0.080,0.000,0.000,0.000
1644915594593955072,2022-02-15-08:59:54,10.1.1.4,34,0.070,0.070,0.070,0.000,0.000,0.000
1644915594912157952,2022-02-15-08:59:54,10.1.1.4,26,0.010,0.010,0.010,0.000,0.000,0.000
1644915594971831040,2022-02-15-08:59:54,10.1.1.4,35,0.000,0.000,0.000,0.000,0.000,0.000
1644915595011426048,2022-02-15-08:59:55,10.1.1.4,23,-0.010,-0.010,-0.010,0.000,0.000,0.000
1644915595172129024,2022-02-15-08:59:55,10.1.1.4,30,-0.040,-0.040,-0.040,0.000,0.000,0.000
1644915595231587840,2022-02-15-08:59:55,10.1.1.4,39,-0.050,-0.050,-0.050,0.000,0.000,0.000
1644915595272534016,2022-02-15-08:59:55,10.1.1.4,29,-0.060,-0.060,-0.060,0.000,0.000,0.000
1644915595332488960,2022-02-15-08:59:55,10.1.1.4,38,-0.070,-0.070,-0.070,0.000,0.000,0.000
1644915595371709184,2022-02-15-08:59:55,10.1.1.4,27,-0.080,-0.080,-0.080,0.000,0.000,0.000
1644915595431726848,2022-02-15-08:59:55,10.1.1.4,36,-0.090,-0.090,-0.090,0.000,0.000,0.000
1644915595471705856,2022-02-15-08:59:55,10.1.1.4,26,-0.100,-0.100,-0.100,0.000,0.000,0.000
1644915595533309952,2022-02-15-08:59:55,10.1.1.4,35,-0.090,-0.090,-0.090,0.000,0.000,0.000
1644915595755335936,2022-02-15-08:59:55,10.1.1.4,35,-0.050,-0.050,-0.050,0.000,0.000,0.000
1644915595813928960,2022-02-15-08:59:55,10.1.1.4,24,-0.040,-0.040,-0.040,0.000,0.000,0.000
1644915595872227072,2022-02-15-08:59:55,10.1.1.4,33,-0.030,-0.030,-0.030,0.000,0.000,0.000
1644915595912542208,2022-02-15-08:59:55,10.1.1.4,23,-0.020,-0.020,-0.020,0.000,0.000,0.000
1644915595972165120,2022-02-15-08:59:55,10.1.1.4,28,-0.010,-0.010,-0.010,0.000,0.000,0.000
1644915596034200832,2022-02-15-08:59:56,10.1.1.4,38,0.000,0.000,0.000,0.000,0.000,0.000
1644915596071887872,2022-02-15-08:59:56,10.1.1.4,27,0.010,0.010,0.010,0.000,0.000,0.000
1644915596131747072,2022-02-15-08:59:56,10.1.1.4,35,0.020,0.020,0.020,0.000,0.000,0.000
1644915596171436032,2022-02-15-08:59:56,10.1.1.4,23,0.030,0.030,0.030,0.000,0.000,0.000
1644915596391833088,2022-02-15-08:59:56,10.1.1.4,39,0.070,0.070,0.070,0.000,0.000,0.000
1644915596434192896,2022-02-15-08:59:56,10.1.1.4,28,0.080,0.080,0.080,0.000,0.000,0.000
1644915596494057984,2022-02-15-08:59:56,10.1.1.4,37,0.090,0.090,0.090,0.000,0.000,0.000
1644915596531738880,2022-02-15-08:59:56,10.1.1.4,26,0.100,0.100,0.100,0.000,0.000,0.000
1644915596592065024,2022-02-15-08:59:56,10.1.1.4,36,0.090,0.090,0.090,0.000,0.000,0.000
1644915596631612928,2022-02-15-08:59:56,10.1.1.4,25,0.080,0.080,0.080,0.000,0.000,0.000
1644915596692215808,2022-02-15-08:59:56,10.1.1.4,34,0.070,0.070,0.070,0.000,0.000,0.000
1644915596732034816,2022-02-15-08:59:56,10.1.1.4,23,0.060,0.060,0.060,0.000,0.000,0.000
1644915596892713984,2022-02-15-08:59:56,10.1.1.4,28,0.030,0.030,0.030,0.000,0.000,0.000
1644915596951565056,2022-02-15-08:59:56,10.1.1.4,38,0.020,0.020,0.020,0.000,0.000,0.000
1644915596993278976,2022-02-15-08:59:56,10.1.1.4,28,0.010,0.010,0.010,0.000,0.000,0.000
1644915597052377088,2022-02-15-08:59:57,10.1.1.4,36,0.000,0.000,0.000,0.000,0.000,0.000
1644915597093755904,2022-02-15-08:59:57,10.1.1.4,25,-0.010,-0.010,-0.010,0.000,0.000,0.000
1644915597151969792,2022-02-15-08:59:57,10.1.1.4,35,-0.020,-0.020,-0.020,0.000,0.000,0.000
1644915597192025856,2022-02-15-08:59:57,10.1.1.4,23,-0.030,-0.030,-0.030,0.000,0.000,0.000
1644915597311571968,2022-02-15-08:59:57,10.1.1.4,38,-0.050,-0.050,-0.050,0.000,0.000,0.000
1644915597351687936,2022-02-15-08:59:57,10.1.1.4,25,-0.060,-0.060,-0.060,0.000,0.000,0.000
1644915597412625920,2022-02-15-08:59:57,10.1.1.4,35,-0.070,-0.070,-0.070,0.000,0.000,0.000
1644915597451823872,2022-02-15-08:59:57,10.1.1.4,24,-0.080,-0.080,-0.080,0.000,0.000,0.000
1644915597632057856,2022-02-15-08:59:57,10.1.1.4,38,-0.090,-0.090,-0.090,0.000,0.000,0.000
1644915597672745984,2022-02-15-08:59:57,10.1.1.4,28,-0.080,-0.080,-0.080,0.000,0.000,0.000
1644915597732409088,2022-02-15-08:59:57,10.1.1.4,37,-0.070,-0.070,-0.070,0.000,0.000,0.000
1644915597773022976,2022-02-15-08:59:57,10.1.1.4,27,-0.060,-0.060,-0.060,0.000,0.000,0.000
1644915597832886016,2022-02-15-08:59:57,10.1.1.4,35,-0.050,-0.050,-0.050,0.000,0.000,0.000
1644915597872098048,2022-02-15-08:59:57,10.1.1.4,24,-0.040,-0.040,-0.040,0.000,0.000,0.000
1644915598033865984,2022-02-15-08:59:58,10.1.1.4,29,-0.010,-0.010,-0.010,0.000,0.000,0.000
1644915598093486080,2022-02-15-08:59:58,10.1.1.4,37,0.000,0.000,0.000,0.000,0.000,0.000
1644915598132761088,2022-02-15-08:59:58,10.1.1.4,26,0.010,0.010,0.010,0.000,0.000,0.000
1644915598193851904,2022-02-15-08:59:58,10.1.1.4,35,0.020,0.020,0.020,0.000,0.000,0.000
1644915598232423936,2022-02-15-08:59:58,10.1.1.4,24,0.030,0.030,0.030,0.000,0.000,0.000
1644915598391704064,2022-02-15-08:59:58,10.1.1.4,29,0.060,0.060,0.060,0.000,0.000,0.000
1644915598453042944,2022-02-15-08:59:58,10.1.1.4,37,0.070,0.070,0.070,0.000,0.000,0.000
1644915598493839104,2022-02-15-08:59:58,10.1.1.4,27,0.080,0.080,0.080,0.000,0.000,0.000
1644915598551616000,2022-02-15-08:59:58,10.1.1.4,36,0.090,0.090,0.090,0.000,0.000,0.000
1644915598592578816,2022-02-15-08:59:58,10.1.1.4,26,0.100,0.100,0.100,0.000,0.000,0.000
1644915598653680128,2022-02-15-08:59:58,10.1.1.4,29,0.090,0.090,0.090,0.000,0.000,0.000
1644915598712642816,2022-02-15-08:59:58,10.1.1.4,37,0.080,0.080,0.080,0.000,0.000,0.000
1644915598754256128,2022-02-15-08:59:58,10.1.1.4,26,0.070,0.070,0.070,0.000,0.000,0.000
1644915598815535104,2022-02-15-08:59:58,10.1.1.4,33,0.060,0.060,0.060,0.000,0.000,0.000
1644915598912195840,2022-02-15-08:59:58,10.1.1.4,29,0.040,0.040,0.040,0.000,0.000,0.000
1644915598972305920,2022-02-15-08:59:58,10.1.1.4,37,0.030,0.030,0.030,0.000,0.000,0.000
1644915599015033856,2022-02-15-08:59:59,10.1.1.4,26,0.020,0.020,0.020,0.000,0.000,0.000
1644915599072838912,2022-02-15-08:59:59,10.1.1.4,36,0.010,0.010,0.010,0.000,0.000,0.000
1644915599173715968,2022-02-15-08:59:59,10.1.1.4,29,-0.010,-0.010,-0.010,0.000,0.000,0.000
1644915599233108992,2022-02-15-08:59:59,10.1.1.4,37,-0.020,-0.020,-0.020,0.000,0.000,0.000
1644915599273574144,2022-02-15-08:59:59,10.1.1.4,26,-0.030,-0.030,-0.030,0.000,0.000,0.000
1644915599333526016,2022-02-15-08:59:59,10.1.1.4,35,-0.040,-0.040,-0.040,0.000,0.000,0.000
1644915599373825024,2022-02-15-08:59:59,10.1.1.4,23,-0.050,-0.050,-0.050,0.000,0.000,0.000
1644915599496254976,2022-02-15-08:59:59,10.1.1.4,38,-0.070,-0.070,-0.070,0.000,0.000,0.000
1644915599532141056,2022-02-15-08:59:59,10.1.1.4,26,-0.080,-0.080,-0.080,0.000,0.000,0.000
1644915599632476160,2022-02-15-08:59:59,10.1.1.4,20,-0.100,-0.100,-0.100,0.000,0.000,0.000
1644915599694045952,2022-02-15-08:59:59,10.1.1.4,27,-0.090,-0.090,-0.090,0.000,0.000,0.000
1644915599752238080,2022-02-15-08:59:59,10.1.1.4,36,-0.080,-0.080,-0.080,0.000,0.000,0.000
1644915599792598016,2022-02-15-08:59:59,10.1.1.4,25,-0.070,-0.070,-0.070,0.000,0.000,0.000
1644915599956338944,2022-02-15-08:59:59,10.1.1.4,27,-0.040,-0.040,-0.040,0.000,0.000,0.000
1644915600013804800,2022-02-15-09:00:00,10.1.1.4,33,-0.030,-0.030,-0.030,0.000,0.000,0.000
1644915600174278912,2022-02-15-09:00:00,10.1.1.4,37,0.000,0.000,0.000,0.000,0.000,0.000
1644915600214766080,2022-02-15-09:00:00,10.1.1.4,26,0.010,0.010,0.010,0.000,0.000,0.000
1644915600274575872,2022-02-15-09:00:00,10.1.1.4,36,0.020,0.020,0.020,0.000,0.000,0.000
1644915600312467200,2022-02-15-09:00:00,10.1.1.4,24,0.030,0.030,0.030,0.000,0.000,0.000
1644915600512846080,2022-02-15-09:00:00,10.1.1.4,34,0.060,0.060,0.060,0.000,0.000,0.000
1644915600612206080,2022-02-15-09:00:00,10.1.1.4,26,0.080,0.080,0.080,0.000,0.000,0.000
1644915600674534912,2022-02-15-09:00:00,10.1.1.4,35,0.090,0.090,0.090,0.000,0.000,0.000
1644915600711800064,2022-02-15-09:00:00,10.1.1.4,24,0.100,0.100,0.100,0.000,0.000,0.000
1644915600873524992,2022-02-15-09:00:00,10.1.1.4,29,0.070,0.070,0.070,0.000,0.000,0.000
1644915600932924160,2022-02-15-09:00:00,10.1.1.4,38,0.060,0.060,0.060,0.000,0.000,0.000
1644915600973005056,2022-02-15-09:00:00,10.1.1.4,26,0.050,0.050,0.050,0.000,0.000,0.000
1644915601169295104,2022-02-15-09:00:01,10.1.1.4,28,0.020,0.020,0.020,0.000,0.000,0.000
1644915601312218880,2022-02-15-09:00:01,10.1.1.4,29,-0.010,-0.010,-0.010,0.000,0.000,0.000
1644915601372716032,2022-02-15-09:00:01,10.1.1.4,38,-0.020,-0.020,-0.020,0.000,0.000,0.000
1644915601411815936,2022-02-15-09:00:01,10.1.1.4,27,-0.030,-0.030,-0.030,0.000,0.000,0.000
1644915601474249984,2022-02-15-09:00:01,10.1.1.4,35,-0.040,-0.040,-0.040,0.000,0.000,0.000
1644915601511574016,2022-02-15-09:00:01,10.1.1.4,23,-0.050,-0.050,-0.050,0.000,0.000,0.000
1644915601713200128,2022-02-15-09:00:01,10.1.1.4,29,-0.080,-0.080,-0.080,0.000,0.000,0.000
1644915601773360128,2022-02-15-09:00:01,10.1.1.4,39,-0.090,-0.090,-0.090,0.000,0.000,0.000
1644915601812592896,2022-02-15-09:00:01,10.1.1.4,27,-0.100,-0.100,-0.100,0.000,0.000,0.000
1644915601873950976,2022-02-15-09:00:01,10.1.1.4,37,-0.090,-0.090,-0.090,0.000,0.000,0.000
1644915601912378112,2022-02-15-09:00:01,10.1.1.4,26,-0.080,-0.080,-0.080,0.000,0.000,0.000
1644915601972601856,2022-02-15-09:00:01,10.1.1.4,35,-0.070,-0.070,-0.070,0.000,0.000,0.000
1644915602014086912,2022-02-15-09:00:02,10.1.1.4,25,-0.060,-0.060,-0.060,0.000,0.000,0.000
1644915602072580096,2022-02-15-09:00:02,10.1.1.4,33,-0.050,-0.050,-0.050,0.000,0.000,0.000
1644915602232826880,2022-02-15-09:00:02,10.1.1.4,38,-0.020,-0.020,-0.020,0.000,0.000,0.000
1644915602273292032,2022-02-15-09:00:02,10.1.1.4,27,-0.010,-0.010,-0.010,0.000,0.000,0.000
1644915602334152960,2022-02-15-09:00:02,10.1.1.4,36,0.000,0.000,0.000,0.000,0.000,0.000
1644915602372567040,2022-02-15-09:00:02,10.1.1.4,25,0.010,0.010,0.010,0.000,0.000,0.000
1644915602433249024,2022-02-15-09:00:02,10.1.1.4,34,0.020,0.020,0.020,0.000,0.000,0.000
1644915602472140032,2022-02-15-09:00:02,10.1.1.4,23,0.030,0.030,0.030,0.000,0.000,0.000
1644915602593548032,2022-02-15-09:00:02,10.1.1.4,37,0.050,0.050,0.050,0.000,0.000,0.000
1644915602632188928,2022-02-15-09:00:02,10.1.1.4,26,0.060,0.060,0.060,0.000,0.000,0.000
1644915602691982080,2022-02-15-09:00:02,10.1.1.4,35,0.070,0.070,0.070,0.000,0.000,0.000
1644915602732804096,2022-02-15-09:00:02,10.1.1.4,25,0.080,0.080,0.080,0.000,0.000,0.000
1644915602794567936,2022-02-15-09:00:02,10.1.1.4,33,0.090,0.090,0.090,0.000,0.000,0.000
1644915602832387072,2022-02-15-09:00:02,10.1.1.4,22,0.100,0.100,0.100,0.000,0.000,0.000
1644915603092086016,2022-02-15-09:00:03,10.1.1.4,29,0.050,0.050,0.050,0.000,0.000,0.000
1644915603153243904,2022-02-15-09:00:03,10.1.1.4,39,0.040,0.040,0.040,0.000,0.000,0.000
1644915603192871168,2022-02-15-09:00:03,10.1.1.4,28,0.030,0.030,0.030,0.000,0.000,0.000
1644915603252350976,2022-02-15-09:00:03,10.1.1.4,37,0.020,0.020,0.020,0.000,0.000,0.000
1644915603292233984,2022-02-15-09:00:03,10.1.1.4,27,0.010,0.010,0.010,0.000,0.000,0.000
1644915603353620992,2022-02-15-09:00:03,10.1.1.4,35,-0.000,-0.000,-0.000,0.000,0.000,0.000
1644915603391927040,2022-02-15-09:00:03,10.1.1.4,24,-0.010,-0.010,-0.010,0.000,0.000,0.000
1644915603452774912,2022-02-15-09:00:03,10.1.1.4,33,-0.020,-0.020,-0.020,0.000,0.000,0.000
