FedericoMungari/DigitalTwin_service/01_WiredScenario/Output/Output_script/script_rosapi_2_output_robots10_freq0_4.txt
timestamp,date,node,latency,joint_1,joint_2,joint_3,joint_4,joint_5,joint_6
1644362088830306048,2022-02-08-23:14:48,10.1.1.5,20,-0.100,-0.100,-0.100,-0.000,-0.000,-0.000
1644362088950148096,2022-02-08-23:14:48,10.1.1.5,39,-0.090,-0.090,-0.090,0.000,0.000,0.000
1644362089049787904,2022-02-08-23:14:49,10.1.1.5,38,-0.080,-0.080,-0.080,0.000,0.000,0.000
1644362089150161920,2022-02-08-23:14:49,10.1.1.5,38,-0.070,-0.070,-0.070,0.000,0.000,0.000
1644362089249972992,2022-02-08-23:14:49,10.1.1.5,37,-0.060,-0.060,-0.060,0.000,0.000,0.000
1644362089349427968,2022-02-08-23:14:49,10.1.1.5,36,-0.050,-0.050,-0.050,0.000,0.000,0.000
1644362089449611776,2022-02-08-23:14:49,10.1.1.5,36,-0.040,-0.040,-0.040,0.000,0.000,0.000
1644362089549392896,2022-02-08-23:14:49,10.1.1.5,36,-0.030,-0.030,-0.030,0.000,0.000,0.000
1644362089650444032,2022-02-08-23:14:49,10.1.1.5,36,-0.020,-0.020,-0.020,0.000,0.000,0.000
1644362089750274816,2022-02-08-23:14:49,10.1.1.5,34,-0.010,-0.010,-0.010,0.000,0.000,0.000
1644362090549551104,2022-02-08-23:14:50,10.1.1.5,29,0.070,0.070,0.070,0.000,0.000,0.000
1644362090650288128,2022-02-08-23:14:50,10.1.1.5,28,0.080,0.080,0.080,0.000,0.000,0.000
1644362090750083072,2022-02-08-23:14:50,10.1.1.5,27,0.090,0.090,0.090,0.000,0.000,0.000
1644362090930514176,2022-02-08-23:14:50,10.1.1.5,7,0.090,0.090,0.090,0.000,0.000,0.000
1644362091050992128,2022-02-08-23:14:51,10.1.1.5,26,0.080,0.080,0.080,0.000,0.000,0.000
1644362091150208000,2022-02-08-23:14:51,10.1.1.5,25,0.070,0.070,0.070,0.000,0.000,0.000
1644362091249100800,2022-02-08-23:14:51,10.1.1.5,25,0.060,0.060,0.060,0.000,0.000,0.000
1644362091349431040,2022-02-08-23:14:51,10.1.1.5,24,0.050,0.050,0.050,0.000,0.000,0.000
1644362092149658880,2022-02-08-23:14:52,10.1.1.5,20,-0.030,-0.030,-0.030,0.000,0.000,0.000
1644362092270294784,2022-02-08-23:14:52,10.1.1.5,39,-0.040,-0.040,-0.040,0.000,0.000,0.000
1644362092370460928,2022-02-08-23:14:52,10.1.1.5,39,-0.050,-0.050,-0.050,0.000,0.000,0.000
1644362092470628096,2022-02-08-23:14:52,10.1.1.5,38,-0.060,-0.060,-0.060,0.000,0.000,0.000
1644362092570866176,2022-02-08-23:14:52,10.1.1.5,38,-0.070,-0.070,-0.070,0.000,0.000,0.000
1644362092669681920,2022-02-08-23:14:52,10.1.1.5,38,-0.080,-0.080,-0.080,0.000,0.000,0.000
1644362092770112000,2022-02-08-23:14:52,10.1.1.5,37,-0.090,-0.090,-0.090,0.000,0.000,0.000
1644362092869690880,2022-02-08-23:14:52,10.1.1.5,37,-0.100,-0.100,-0.100,0.000,0.000,0.000
1644362092970660864,2022-02-08-23:14:52,10.1.1.5,37,-0.090,-0.090,-0.090,0.000,0.000,0.000
1644362093069509120,2022-02-08-23:14:53,10.1.1.5,36,-0.080,-0.080,-0.080,0.000,0.000,0.000
1644362093169691136,2022-02-08-23:14:53,10.1.1.5,36,-0.070,-0.070,-0.070,0.000,0.000,0.000
1644362093269784832,2022-02-08-23:14:53,10.1.1.5,35,-0.060,-0.060,-0.060,0.000,0.000,0.000
1644362093369730048,2022-02-08-23:14:53,10.1.1.5,35,-0.050,-0.050,-0.050,0.000,0.000,0.000
1644362094369693952,2022-02-08-23:14:54,10.1.1.5,28,0.050,0.050,0.050,0.000,0.000,0.000
1644362094469809920,2022-02-08-23:14:54,10.1.1.5,28,0.060,0.060,0.060,0.000,0.000,0.000
1644362094569413888,2022-02-08-23:14:54,10.1.1.5,27,0.070,0.070,0.070,0.000,0.000,0.000
1644362094669921024,2022-02-08-23:14:54,10.1.1.5,27,0.080,0.080,0.080,0.000,0.000,0.000
1644362094769534976,2022-02-08-23:14:54,10.1.1.5,26,0.090,0.090,0.090,0.000,0.000,0.000
1644362094870063104,2022-02-08-23:14:54,10.1.1.5,26,0.100,0.100,0.100,0.000,0.000,0.000
1644362094969786880,2022-02-08-23:14:54,10.1.1.5,25,0.090,0.090,0.090,0.000,0.000,0.000
1644362095069860864,2022-02-08-23:14:55,10.1.1.5,24,0.080,0.080,0.080,0.000,0.000,0.000
1644362095769836800,2022-02-08-23:14:55,10.1.1.5,19,0.010,0.010,0.010,0.000,0.000,0.000
1644362095889545984,2022-02-08-23:14:55,10.1.1.5,39,0.000,0.000,0.000,0.000,0.000,0.000
1644362095990969856,2022-02-08-23:14:55,10.1.1.5,39,-0.010,-0.010,-0.010,0.000,0.000,0.000
1644362096090956800,2022-02-08-23:14:56,10.1.1.5,38,-0.020,-0.020,-0.020,0.000,0.000,0.000
1644362096190018048,2022-02-08-23:14:56,10.1.1.5,38,-0.030,-0.030,-0.030,0.000,0.000,0.000
1644362096289719040,2022-02-08-23:14:56,10.1.1.5,37,-0.040,-0.040,-0.040,0.000,0.000,0.000
1644362096390010112,2022-02-08-23:14:56,10.1.1.5,36,-0.050,-0.050,-0.050,0.000,0.000,0.000
1644362096489347840,2022-02-08-23:14:56,10.1.1.5,35,-0.060,-0.060,-0.060,0.000,0.000,0.000
1644362096589473024,2022-02-08-23:14:56,10.1.1.5,35,-0.070,-0.070,-0.070,0.000,0.000,0.000
1644362096689587968,2022-02-08-23:14:56,10.1.1.5,34,-0.080,-0.080,-0.080,0.000,0.000,0.000
1644362096891286016,2022-02-08-23:14:56,10.1.1.5,33,-0.100,-0.100,-0.100,0.000,0.000,0.000
1644362097590809088,2022-02-08-23:14:57,10.1.1.5,29,-0.030,-0.030,-0.030,0.000,0.000,0.000
1644362097689593088,2022-02-08-23:14:57,10.1.1.5,28,-0.020,-0.020,-0.020,0.000,0.000,0.000
1644362097790497024,2022-02-08-23:14:57,10.1.1.5,28,-0.010,-0.010,-0.010,0.000,0.000,0.000
1644362097890113024,2022-02-08-23:14:57,10.1.1.5,27,0.000,0.000,0.000,0.000,0.000,0.000
1644362097989777920,2022-02-08-23:14:57,10.1.1.5,26,0.010,0.010,0.010,0.000,0.000,0.000
1644362098089530880,2022-02-08-23:14:58,10.1.1.5,26,0.020,0.020,0.020,0.000,0.000,0.000
1644362098189446912,2022-02-08-23:14:58,10.1.1.5,25,0.030,0.030,0.030,0.000,0.000,0.000
1644362098290013952,2022-02-08-23:14:58,10.1.1.5,24,0.040,0.040,0.040,0.000,0.000,0.000
1644362099209506048,2022-02-08-23:14:59,10.1.1.5,40,0.070,0.070,0.070,0.000,0.000,0.000
1644362099310359040,2022-02-08-23:14:59,10.1.1.5,39,0.060,0.060,0.060,0.000,0.000,0.000
1644362099409637888,2022-02-08-23:14:59,10.1.1.5,38,0.050,0.050,0.050,0.000,0.000,0.000
1644362099510216960,2022-02-08-23:14:59,10.1.1.5,37,0.040,0.040,0.040,0.000,0.000,0.000
1644362099609721856,2022-02-08-23:14:59,10.1.1.5,36,0.030,0.030,0.030,0.000,0.000,0.000
1644362099709524992,2022-02-08-23:14:59,10.1.1.5,36,0.020,0.020,0.020,0.000,0.000,0.000
1644362099809859072,2022-02-08-23:14:59,10.1.1.5,35,0.010,0.010,0.010,0.000,0.000,0.000
1644362099909907968,2022-02-08-23:14:59,10.1.1.5,35,0.000,0.000,0.000,0.000,0.000,0.000
1644362100010699008,2022-02-08-23:15:00,10.1.1.5,35,-0.010,-0.010,-0.010,0.000,0.000,0.000
1644362100409874944,2022-02-08-23:15:00,10.1.1.5,29,-0.050,-0.050,-0.050,0.000,0.000,0.000
1644362100609769216,2022-02-08-23:15:00,10.1.1.5,28,-0.070,-0.070,-0.070,0.000,0.000,0.000
1644362100710072064,2022-02-08-23:15:00,10.1.1.5,28,-0.080,-0.080,-0.080,0.000,0.000,0.000
1644362100809769984,2022-02-08-23:15:00,10.1.1.5,27,-0.090,-0.090,-0.090,0.000,0.000,0.000
1644362100913531904,2022-02-08-23:15:00,10.1.1.5,26,-0.100,-0.100,-0.100,0.000,0.000,0.000
1644362101311078144,2022-02-08-23:15:01,10.1.1.5,24,-0.060,-0.060,-0.060,0.000,0.000,0.000
1644362101615461120,2022-02-08-23:15:01,10.1.1.5,19,-0.030,-0.030,-0.030,0.000,0.000,0.000
1644362101731283968,2022-02-08-23:15:01,10.1.1.5,37,-0.020,-0.020,-0.020,0.000,0.000,0.000
1644362101929768192,2022-02-08-23:15:01,10.1.1.5,35,0.000,0.000,0.000,0.000,0.000,0.000
1644362102235081984,2022-02-08-23:15:02,10.1.1.5,30,0.030,0.030,0.030,0.000,0.000,0.000
1644362102330481920,2022-02-08-23:15:02,10.1.1.5,28,0.040,0.040,0.040,0.000,0.000,0.000
1644362102630883840,2022-02-08-23:15:02,10.1.1.5,25,0.070,0.070,0.070,0.000,0.000,0.000
1644362103229913856,2022-02-08-23:15:03,10.1.1.5,21,0.070,0.070,0.070,0.000,0.000,0.000
1644362103549572096,2022-02-08-23:15:03,10.1.1.5,39,0.040,0.040,0.040,0.000,0.000,0.000
1644362103650396160,2022-02-08-23:15:03,10.1.1.5,39,0.030,0.030,0.030,0.000,0.000,0.000
1644362103749303040,2022-02-08-23:15:03,10.1.1.5,38,0.020,0.020,0.020,0.000,0.000,0.000
1644362103849477120,2022-02-08-23:15:03,10.1.1.5,38,0.010,0.010,0.010,0.000,0.000,0.000
1644362103949564928,2022-02-08-23:15:03,10.1.1.5,37,0.000,0.000,0.000,0.000,0.000,0.000
1644362104049164032,2022-02-08-23:15:04,10.1.1.5,37,-0.010,-0.010,-0.010,0.000,0.000,0.000
1644362104149779200,2022-02-08-23:15:04,10.1.1.5,36,-0.020,-0.020,-0.020,0.000,0.000,0.000
1644362104250017792,2022-02-08-23:15:04,10.1.1.5,36,-0.030,-0.030,-0.030,0.000,0.000,0.000
1644362104349904896,2022-02-08-23:15:04,10.1.1.5,36,-0.040,-0.040,-0.040,0.000,0.000,0.000
1644362104449542144,2022-02-08-23:15:04,10.1.1.5,35,-0.050,-0.050,-0.050,0.000,0.000,0.000
1644362104549739008,2022-02-08-23:15:04,10.1.1.5,35,-0.060,-0.060,-0.060,0.000,0.000,0.000
1644362104650029056,2022-02-08-23:15:04,10.1.1.5,34,-0.070,-0.070,-0.070,0.000,0.000,0.000
1644362105149515008,2022-02-08-23:15:05,10.1.1.5,29,-0.080,-0.080,-0.080,0.000,0.000,0.000
1644362105349970944,2022-02-08-23:15:05,10.1.1.5,29,-0.060,-0.060,-0.060,0.000,0.000,0.000
1644362105449201152,2022-02-08-23:15:05,10.1.1.5,28,-0.050,-0.050,-0.050,0.000,0.000,0.000
1644362105552141056,2022-02-08-23:15:05,10.1.1.5,27,-0.040,-0.040,-0.040,0.000,0.000,0.000
1644362105649817856,2022-02-08-23:15:05,10.1.1.5,27,-0.030,-0.030,-0.030,0.000,0.000,0.000
1644362105749538048,2022-02-08-23:15:05,10.1.1.5,26,-0.020,-0.020,-0.020,0.000,0.000,0.000
1644362105849958912,2022-02-08-23:15:05,10.1.1.5,26,-0.010,-0.010,-0.010,0.000,0.000,0.000
1644362105949693952,2022-02-08-23:15:05,10.1.1.5,26,0.000,0.000,0.000,0.000,0.000,0.000
1644362106050117888,2022-02-08-23:15:06,10.1.1.5,24,0.010,0.010,0.010,0.000,0.000,0.000
1644362106649513984,2022-02-08-23:15:06,10.1.1.5,20,0.070,0.070,0.070,0.000,0.000,0.000
1644362106769788928,2022-02-08-23:15:06,10.1.1.5,39,0.080,0.080,0.080,0.000,0.000,0.000
1644362106870145024,2022-02-08-23:15:06,10.1.1.5,38,0.090,0.090,0.090,0.000,0.000,0.000
1644362106969628928,2022-02-08-23:15:06,10.1.1.5,37,0.100,0.100,0.100,0.000,0.000,0.000
1644362107069971200,2022-02-08-23:15:07,10.1.1.5,37,0.090,0.090,0.090,0.000,0.000,0.000
1644362107169778176,2022-02-08-23:15:07,10.1.1.5,36,0.080,0.080,0.080,0.000,0.000,0.000
1644362107269841920,2022-02-08-23:15:07,10.1.1.5,35,0.070,0.070,0.070,0.000,0.000,0.000
1644362108089520896,2022-02-08-23:15:08,10.1.1.5,39,-0.010,-0.010,-0.010,0.000,0.000,0.000
1644362108189274112,2022-02-08-23:15:08,10.1.1.5,38,-0.020,-0.020,-0.020,0.000,0.000,0.000
1644362108290416896,2022-02-08-23:15:08,10.1.1.5,37,-0.030,-0.030,-0.030,0.000,0.000,0.000
1644362108389491200,2022-02-08-23:15:08,10.1.1.5,37,-0.040,-0.040,-0.040,0.000,0.000,0.000
1644362108989620992,2022-02-08-23:15:08,10.1.1.5,27,-0.100,-0.100,-0.100,0.000,0.000,0.000
1644362109089623808,2022-02-08-23:15:09,10.1.1.5,26,-0.090,-0.090,-0.090,0.000,0.000,0.000
1644362109189219072,2022-02-08-23:15:09,10.1.1.5,24,-0.080,-0.080,-0.080,0.000,0.000,0.000
1644362109589569024,2022-02-08-23:15:09,10.1.1.5,19,-0.040,-0.040,-0.040,0.000,0.000,0.000
1644362109709379840,2022-02-08-23:15:09,10.1.1.5,38,-0.030,-0.030,-0.030,0.000,0.000,0.000
1644362109809469952,2022-02-08-23:15:09,10.1.1.5,37,-0.020,-0.020,-0.020,0.000,0.000,0.000
1644362109909275136,2022-02-08-23:15:09,10.1.1.5,37,-0.010,-0.010,-0.010,0.000,0.000,0.000
1644362110010052864,2022-02-08-23:15:10,10.1.1.5,37,0.000,0.000,0.000,0.000,0.000,0.000
1644362110109401088,2022-02-08-23:15:10,10.1.1.5,36,0.010,0.010,0.010,0.000,0.000,0.000
1644362110310759936,2022-02-08-23:15:10,10.1.1.5,28,0.030,0.030,0.030,0.000,0.000,0.000
1644362110409560064,2022-02-08-23:15:10,10.1.1.5,26,0.040,0.040,0.040,0.000,0.000,0.000
1644362110509208832,2022-02-08-23:15:10,10.1.1.5,26,0.050,0.050,0.050,0.000,0.000,0.000
1644362111229933056,2022-02-08-23:15:11,10.1.1.5,39,0.080,0.080,0.080,0.000,0.000,0.000
1644362111330689024,2022-02-08-23:15:11,10.1.1.5,39,0.070,0.070,0.070,0.000,0.000,0.000
1644362111429651968,2022-02-08-23:15:11,10.1.1.5,38,0.060,0.060,0.060,0.000,0.000,0.000
1644362111530607872,2022-02-08-23:15:11,10.1.1.5,38,0.050,0.050,0.050,0.000,0.000,0.000
1644362111629765888,2022-02-08-23:15:11,10.1.1.5,36,0.040,0.040,0.040,0.000,0.000,0.000
1644362111729740032,2022-02-08-23:15:11,10.1.1.5,36,0.030,0.030,0.030,0.000,0.000,0.000
1644362112349495808,2022-02-08-23:15:12,10.1.1.5,39,-0.030,-0.030,-0.030,0.000,0.000,0.000
1644362112449094144,2022-02-08-23:15:12,10.1.1.5,38,-0.040,-0.040,-0.040,0.000,0.000,0.000
1644362113349786112,2022-02-08-23:15:13,10.1.1.5,29,-0.070,-0.070,-0.070,0.000,0.000,0.000
1644362113449831936,2022-02-08-23:15:13,10.1.1.5,28,-0.060,-0.060,-0.060,0.000,0.000,0.000
1644362113549873152,2022-02-08-23:15:13,10.1.1.5,27,-0.050,-0.050,-0.050,0.000,0.000,0.000
1644362113650135040,2022-02-08-23:15:13,10.1.1.5,27,-0.040,-0.040,-0.040,0.000,0.000,0.000
1644362113750007040,2022-02-08-23:15:13,10.1.1.5,26,-0.030,-0.030,-0.030,0.000,0.000,0.000
1644362113849426944,2022-02-08-23:15:13,10.1.1.5,25,-0.020,-0.020,-0.020,0.000,0.000,0.000
1644362113950217984,2022-02-08-23:15:13,10.1.1.5,25,-0.010,-0.010,-0.010,0.000,0.000,0.000
1644362114569430016,2022-02-08-23:15:14,10.1.1.5,39,0.050,0.050,0.050,0.000,0.000,0.000
1644362114670053888,2022-02-08-23:15:14,10.1.1.5,38,0.060,0.060,0.060,0.000,0.000,0.000
1644362114770119936,2022-02-08-23:15:14,10.1.1.5,38,0.070,0.070,0.070,0.000,0.000,0.000
1644362114869683968,2022-02-08-23:15:14,10.1.1.5,37,0.080,0.080,0.080,0.000,0.000,0.000
1644362114969553920,2022-02-08-23:15:14,10.1.1.5,36,0.090,0.090,0.090,0.000,0.000,0.000
1644362115069432064,2022-02-08-23:15:15,10.1.1.5,36,0.100,0.100,0.100,0.000,0.000,0.000
1644362115269999872,2022-02-08-23:15:15,10.1.1.5,34,0.080,0.080,0.080,0.000,0.000,0.000
1644362115769157888,2022-02-08-23:15:15,10.1.1.5,26,0.030,0.030,0.030,0.000,0.000,0.000
1644362115869376000,2022-02-08-23:15:15,10.1.1.5,25,0.020,0.020,0.020,0.000,0.000,0.000
1644362116289478144,2022-02-08-23:15:16,10.1.1.5,37,-0.020,-0.020,-0.020,0.000,0.000,0.000
1644362116393702144,2022-02-08-23:15:16,10.1.1.5,36,-0.030,-0.030,-0.030,0.000,0.000,0.000
1644362116889965056,2022-02-08-23:15:16,10.1.1.5,30,-0.080,-0.080,-0.080,0.000,0.000,0.000
1644362116989681920,2022-02-08-23:15:16,10.1.1.5,27,-0.090,-0.090,-0.090,0.000,0.000,0.000
1644362117090401792,2022-02-08-23:15:17,10.1.1.5,27,-0.100,-0.100,-0.100,0.000,0.000,0.000
1644362117190089984,2022-02-08-23:15:17,10.1.1.5,26,-0.090,-0.090,-0.090,0.000,0.000,0.000
1644362117289891840,2022-02-08-23:15:17,10.1.1.5,25,-0.080,-0.080,-0.080,0.000,0.000,0.000
1644362117391011840,2022-02-08-23:15:17,10.1.1.5,20,-0.070,-0.070,-0.070,0.000,0.000,0.000
1644362117513436160,2022-02-08-23:15:17,10.1.1.5,38,-0.060,-0.060,-0.060,0.000,0.000,0.000
1644362117609989888,2022-02-08-23:15:17,10.1.1.5,37,-0.050,-0.050,-0.050,0.000,0.000,0.000
1644362117711412992,2022-02-08-23:15:17,10.1.1.5,36,-0.040,-0.040,-0.040,0.000,0.000,0.000
1644362117811486976,2022-02-08-23:15:17,10.1.1.5,36,-0.030,-0.030,-0.030,0.000,0.000,0.000
1644362117911107072,2022-02-08-23:15:17,10.1.1.5,36,-0.020,-0.020,-0.020,0.000,0.000,0.000
1644362118010324992,2022-02-08-23:15:18,10.1.1.5,35,-0.010,-0.010,-0.010,0.000,0.000,0.000
1644362118109268992,2022-02-08-23:15:18,10.1.1.5,34,0.000,0.000,0.000,0.000,0.000,0.000
1644362118709326080,2022-02-08-23:15:18,10.1.1.5,29,0.060,0.060,0.060,0.000,0.000,0.000
1644362118810331136,2022-02-08-23:15:18,10.1.1.5,29,0.070,0.070,0.070,0.000,0.000,0.000
1644362118911340032,2022-02-08-23:15:18,10.1.1.5,29,0.080,0.080,0.080,0.000,0.000,0.000
1644362119010930944,2022-02-08-23:15:19,10.1.1.5,26,0.090,0.090,0.090,0.000,0.000,0.000
1644362119192052992,2022-02-08-23:15:19,10.1.1.5,4,0.090,0.090,0.090,0.000,0.000,0.000
1644362119531193088,2022-02-08-23:15:19,10.1.1.5,39,0.060,0.060,0.060,0.000,0.000,0.000
1644362119630228992,2022-02-08-23:15:19,10.1.1.5,38,0.050,0.050,0.050,0.000,0.000,0.000
1644362119730158080,2022-02-08-23:15:19,10.1.1.5,37,0.040,0.040,0.040,0.000,0.000,0.000
1644362120470321920,2022-02-08-23:15:20,10.1.1.5,28,-0.030,-0.030,-0.030,0.000,0.000,0.000
1644362120570693120,2022-02-08-23:15:20,10.1.1.5,27,-0.040,-0.040,-0.040,0.000,0.000,0.000
1644362120669188864,2022-02-08-23:15:20,10.1.1.5,26,-0.050,-0.050,-0.050,0.000,0.000,0.000
1644362120769777152,2022-02-08-23:15:20,10.1.1.5,26,-0.060,-0.060,-0.060,0.000,0.000,0.000
1644362120870987776,2022-02-08-23:15:20,10.1.1.5,25,-0.070,-0.070,-0.070,0.000,0.000,0.000
1644362121372034048,2022-02-08-23:15:21,10.1.1.5,19,-0.080,-0.080,-0.080,0.000,0.000,0.000
1644362121490850048,2022-02-08-23:15:21,10.1.1.5,39,-0.070,-0.070,-0.070,0.000,0.000,0.000
1644362121590877184,2022-02-08-23:15:21,10.1.1.5,27,-0.060,-0.060,-0.060,0.000,0.000,0.000
1644362121690398976,2022-02-08-23:15:21,10.1.1.5,27,-0.050,-0.050,-0.050,0.000,0.000,0.000
1644362121790204160,2022-02-08-23:15:21,10.1.1.5,26,-0.040,-0.040,-0.040,0.000,0.000,0.000
1644362122009846016,2022-02-08-23:15:22,10.1.1.5,35,-0.020,-0.020,-0.020,0.000,0.000,0.000
1644362122909341952,2022-02-08-23:15:22,10.1.1.5,28,0.070,0.070,0.070,0.000,0.000,0.000
1644362123009378816,2022-02-08-23:15:23,10.1.1.5,27,0.080,0.080,0.080,0.000,0.000,0.000
1644362123111140864,2022-02-08-23:15:23,10.1.1.5,27,0.090,0.090,0.090,0.000,0.000,0.000
1644362123209202176,2022-02-08-23:15:23,10.1.1.5,26,0.100,0.100,0.100,0.000,0.000,0.000
1644362123310200064,2022-02-08-23:15:23,10.1.1.5,25,0.090,0.090,0.090,0.000,0.000,0.000
1644362123409723904,2022-02-08-23:15:23,10.1.1.5,24,0.080,0.080,0.080,0.000,0.000,0.000
1644362124029606144,2022-02-08-23:15:24,10.1.1.5,39,0.020,0.020,0.020,0.000,0.000,0.000
1644362124129339904,2022-02-08-23:15:24,10.1.1.5,38,0.010,0.010,0.010,0.000,0.000,0.000
1644362124230420224,2022-02-08-23:15:24,10.1.1.5,38,0.000,0.000,0.000,0.000,0.000,0.000
1644362124330134016,2022-02-08-23:15:24,10.1.1.5,38,-0.010,-0.010,-0.010,0.000,0.000,0.000
1644362124433830144,2022-02-08-23:15:24,10.1.1.5,38,-0.020,-0.020,-0.020,0.000,0.000,0.000
1644362124529739008,2022-02-08-23:15:24,10.1.1.5,37,-0.030,-0.030,-0.030,0.000,0.000,0.000
1644362124629859840,2022-02-08-23:15:24,10.1.1.5,36,-0.040,-0.040,-0.040,0.000,0.000,0.000
1644362124730190080,2022-02-08-23:15:24,10.1.1.5,29,-0.050,-0.050,-0.050,0.000,0.000,0.000
1644362124831284992,2022-02-08-23:15:24,10.1.1.5,20,-0.060,-0.060,-0.060,0.000,0.000,0.000
1644362124951565056,2022-02-08-23:15:24,10.1.1.5,37,-0.070,-0.070,-0.070,0.000,0.000,0.000
1644362125050332160,2022-02-08-23:15:25,10.1.1.5,29,-0.080,-0.080,-0.080,0.000,0.000,0.000
1644362125150629888,2022-02-08-23:15:25,10.1.1.5,29,-0.090,-0.090,-0.090,0.000,0.000,0.000
1644362125250518016,2022-02-08-23:15:25,10.1.1.5,27,-0.100,-0.100,-0.100,0.000,0.000,0.000
1644362125351363840,2022-02-08-23:15:25,10.1.1.5,26,-0.090,-0.090,-0.090,0.000,0.000,0.000
1644362125969594112,2022-02-08-23:15:25,10.1.1.5,38,-0.030,-0.030,-0.030,0.000,0.000,0.000
1644362126073003008,2022-02-08-23:15:26,10.1.1.5,38,-0.020,-0.020,-0.020,0.000,0.000,0.000
1644362126369435136,2022-02-08-23:15:26,10.1.1.5,29,0.010,0.010,0.010,0.000,0.000,0.000
1644362126469698048,2022-02-08-23:15:26,10.1.1.5,28,0.020,0.020,0.020,0.000,0.000,0.000
1644362126570082816,2022-02-08-23:15:26,10.1.1.5,28,0.030,0.030,0.030,0.000,0.000,0.000
1644362126669696000,2022-02-08-23:15:26,10.1.1.5,27,0.040,0.040,0.040,0.000,0.000,0.000
1644362126769136896,2022-02-08-23:15:26,10.1.1.5,26,0.050,0.050,0.050,0.000,0.000,0.000
1644362126870034944,2022-02-08-23:15:26,10.1.1.5,26,0.060,0.060,0.060,0.000,0.000,0.000
1644362126970514944,2022-02-08-23:15:26,10.1.1.5,25,0.070,0.070,0.070,0.000,0.000,0.000
1644362127070246912,2022-02-08-23:15:27,10.1.1.5,25,0.080,0.080,0.080,0.000,0.000,0.000
1644362127470423040,2022-02-08-23:15:27,10.1.1.5,22,0.080,0.080,0.080,0.000,0.000,0.000
1644362128044545792,2022-02-08-23:15:28,10.1.1.5,39,0.030,0.030,0.030,0.000,0.000,0.000
1644362128089369088,2022-02-08-23:15:28,10.1.1.5,39,0.020,0.020,0.020,0.000,0.000,0.000
1644362128189763072,2022-02-08-23:15:28,10.1.1.5,37,0.010,0.010,0.010,0.000,0.000,0.000
1644362128290290176,2022-02-08-23:15:28,10.1.1.5,37,0.000,0.000,0.000,0.000,0.000,0.000
1644362128391230976,2022-02-08-23:15:28,10.1.1.5,36,-0.010,-0.010,-0.010,0.000,0.000,0.000
1644362128489437952,2022-02-08-23:15:28,10.1.1.5,35,-0.020,-0.020,-0.020,0.000,0.000,0.000
1644362128891004160,2022-02-08-23:15:28,10.1.1.5,25,-0.060,-0.060,-0.060,0.000,0.000,0.000
1644362129589991936,2022-02-08-23:15:29,10.1.1.5,19,-0.070,-0.070,-0.070,0.000,0.000,0.000
1644362129711065088,2022-02-08-23:15:29,10.1.1.5,38,-0.060,-0.060,-0.060,0.000,0.000,0.000
1644362129809577984,2022-02-08-23:15:29,10.1.1.5,37,-0.050,-0.050,-0.050,0.000,0.000,0.000
1644362129909763072,2022-02-08-23:15:29,10.1.1.5,37,-0.040,-0.040,-0.040,0.000,0.000,0.000
1644362130009563904,2022-02-08-23:15:30,10.1.1.5,36,-0.030,-0.030,-0.030,0.000,0.000,0.000
1644362130210159104,2022-02-08-23:15:30,10.1.1.5,35,-0.010,-0.010,-0.010,0.000,0.000,0.000
1644362130310298880,2022-02-08-23:15:30,10.1.1.5,35,0.000,0.000,0.000,0.000,0.000,0.000
1644362130409980928,2022-02-08-23:15:30,10.1.1.5,35,0.010,0.010,0.010,0.000,0.000,0.000
1644362130510940160,2022-02-08-23:15:30,10.1.1.5,34,0.020,0.020,0.020,0.000,0.000,0.000
1644362131010816000,2022-02-08-23:15:31,10.1.1.5,29,0.070,0.070,0.070,0.000,0.000,0.000
1644362131110534912,2022-02-08-23:15:31,10.1.1.5,29,0.080,0.080,0.080,0.000,0.000,0.000
1644362131211088896,2022-02-08-23:15:31,10.1.1.5,28,0.090,0.090,0.090,0.000,0.000,0.000
1644362131311074048,2022-02-08-23:15:31,10.1.1.5,28,0.100,0.100,0.100,0.000,0.000,0.000
1644362132349899008,2022-02-08-23:15:32,10.1.1.5,28,0.000,0.000,0.000,0.000,0.000,0.000
1644362132450177024,2022-02-08-23:15:32,10.1.1.5,27,-0.010,-0.010,-0.010,0.000,0.000,0.000
1644362132549945088,2022-02-08-23:15:32,10.1.1.5,26,-0.020,-0.020,-0.020,0.000,0.000,0.000
1644362132650241024,2022-02-08-23:15:32,10.1.1.5,26,-0.030,-0.030,-0.030,0.000,0.000,0.000
1644362132750509056,2022-02-08-23:15:32,10.1.1.5,25,-0.040,-0.040,-0.040,0.000,0.000,0.000
1644362133769774080,2022-02-08-23:15:33,10.1.1.5,36,-0.060,-0.060,-0.060,0.000,0.000,0.000
1644362133870160128,2022-02-08-23:15:33,10.1.1.5,36,-0.050,-0.050,-0.050,0.000,0.000,0.000
1644362134070429952,2022-02-08-23:15:34,10.1.1.5,30,-0.030,-0.030,-0.030,0.000,0.000,0.000
1644362134369581824,2022-02-08-23:15:34,10.1.1.5,28,0.000,0.000,0.000,0.000,0.000,0.000
1644362134569715968,2022-02-08-23:15:34,10.1.1.5,28,0.020,0.020,0.020,0.000,0.000,0.000
1644362134769496832,2022-02-08-23:15:34,10.1.1.5,25,0.040,0.040,0.040,0.000,0.000,0.000
1644362135589526016,2022-02-08-23:15:35,10.1.1.5,39,0.080,0.080,0.080,0.000,0.000,0.000
1644362135689378048,2022-02-08-23:15:35,10.1.1.5,38,0.070,0.070,0.070,0.000,0.000,0.000
1644362135789433088,2022-02-08-23:15:35,10.1.1.5,37,0.060,0.060,0.060,0.000,0.000,0.000
1644362135889650176,2022-02-08-23:15:35,10.1.1.5,36,0.050,0.050,0.050,0.000,0.000,0.000
1644362135989326080,2022-02-08-23:15:35,10.1.1.5,36,0.040,0.040,0.040,0.000,0.000,0.000
1644362136090193152,2022-02-08-23:15:36,10.1.1.5,35,0.030,0.030,0.030,0.000,0.000,0.000
1644362136190268928,2022-02-08-23:15:36,10.1.1.5,35,0.020,0.020,0.020,0.000,0.000,0.000
1644362136995273984,2022-02-08-23:15:36,10.1.1.5,29,-0.060,-0.060,-0.060,0.000,0.000,0.000
1644362137090668032,2022-02-08-23:15:37,10.1.1.5,28,-0.070,-0.070,-0.070,0.000,0.000,0.000
1644362137190408960,2022-02-08-23:15:37,10.1.1.5,27,-0.080,-0.080,-0.080,0.000,0.000,0.000
1644362137290098944,2022-02-08-23:15:37,10.1.1.5,26,-0.090,-0.090,-0.090,0.000,0.000,0.000
1644362137489833984,2022-02-08-23:15:37,10.1.1.5,19,-0.090,-0.090,-0.090,0.000,0.000,0.000
1644362137609939200,2022-02-08-23:15:37,10.1.1.5,38,-0.080,-0.080,-0.080,0.000,0.000,0.000
1644362137709708032,2022-02-08-23:15:37,10.1.1.5,37,-0.070,-0.070,-0.070,0.000,0.000,0.000
1644362137809434880,2022-02-08-23:15:37,10.1.1.5,35,-0.060,-0.060,-0.060,0.000,0.000,0.000
1644362137909743104,2022-02-08-23:15:37,10.1.1.5,35,-0.050,-0.050,-0.050,0.000,0.000,0.000
1644362138009608960,2022-02-08-23:15:38,10.1.1.5,34,-0.040,-0.040,-0.040,0.000,0.000,0.000
1644362138309945088,2022-02-08-23:15:38,10.1.1.5,29,-0.010,-0.010,-0.010,0.000,0.000,0.000
1644362138409708032,2022-02-08-23:15:38,10.1.1.5,28,0.000,0.000,0.000,0.000,0.000,0.000
1644362138510391040,2022-02-08-23:15:38,10.1.1.5,28,0.010,0.010,0.010,0.000,0.000,0.000
1644362138610594048,2022-02-08-23:15:38,10.1.1.5,26,0.020,0.020,0.020,0.000,0.000,0.000
1644362138710066176,2022-02-08-23:15:38,10.1.1.5,25,0.030,0.030,0.030,0.000,0.000,0.000
1644362138809981952,2022-02-08-23:15:38,10.1.1.5,25,0.040,0.040,0.040,0.000,0.000,0.000
1644362138909293056,2022-02-08-23:15:38,10.1.1.5,24,0.050,0.050,0.050,0.000,0.000,0.000
1644362139309683200,2022-02-08-23:15:39,10.1.1.5,20,0.090,0.090,0.090,0.000,0.000,0.000
1644362139430896128,2022-02-08-23:15:39,10.1.1.5,39,0.100,0.100,0.100,0.000,0.000,0.000
1644362139530231040,2022-02-08-23:15:39,10.1.1.5,38,0.090,0.090,0.090,0.000,0.000,0.000
1644362139595769856,2022-02-08-23:15:39,10.1.1.5,-4,0.090,0.090,0.090,0.000,0.000,0.000
1644362140129842944,2022-02-08-23:15:40,10.1.1.5,29,0.030,0.030,0.030,0.000,0.000,0.000
1644362140229572096,2022-02-08-23:15:40,10.1.1.5,28,0.020,0.020,0.020,0.000,0.000,0.000
1644362140382600192,2022-02-08-23:15:40,10.1.1.5,27,0.010,0.010,0.010,0.000,0.000,0.000
1644362140950270976,2022-02-08-23:15:40,10.1.1.5,29,-0.050,-0.050,-0.050,0.000,0.000,0.000
1644362141049465856,2022-02-08-23:15:41,10.1.1.5,28,-0.060,-0.060,-0.060,0.000,0.000,0.000
1644362141150779136,2022-02-08-23:15:41,10.1.1.5,27,-0.070,-0.070,-0.070,0.000,0.000,0.000
1644362141249677056,2022-02-08-23:15:41,10.1.1.5,26,-0.080,-0.080,-0.080,0.000,0.000,0.000
1644362141350609152,2022-02-08-23:15:41,10.1.1.5,25,-0.090,-0.090,-0.090,0.000,0.000,0.000
1644362141530296064,2022-02-08-23:15:41,10.1.1.5,2,-0.090,-0.090,-0.090,0.000,0.000,0.000
1644362141949532928,2022-02-08-23:15:41,10.1.1.5,20,-0.050,-0.050,-0.050,0.000,0.000,0.000
1644362142369554944,2022-02-08-23:15:42,10.1.1.5,38,-0.010,-0.010,-0.010,0.000,0.000,0.000
1644362142469963008,2022-02-08-23:15:42,10.1.1.5,37,0.000,0.000,0.000,0.000,0.000,0.000
1644362142569299968,2022-02-08-23:15:42,10.1.1.5,37,0.010,0.010,0.010,0.000,0.000,0.000
1644362142670478080,2022-02-08-23:15:42,10.1.1.5,36,0.020,0.020,0.020,0.000,0.000,0.000
1644362142769426176,2022-02-08-23:15:42,10.1.1.5,36,0.030,0.030,0.030,0.000,0.000,0.000
1644362142869790976,2022-02-08-23:15:42,10.1.1.5,35,0.040,0.040,0.040,0.000,0.000,0.000
1644362143070275072,2022-02-08-23:15:43,10.1.1.5,34,0.060,0.060,0.060,0.000,0.000,0.000
1644362143770426112,2022-02-08-23:15:43,10.1.1.5,20,0.070,0.070,0.070,0.000,0.000,0.000
1644362143890278144,2022-02-08-23:15:43,10.1.1.5,39,0.060,0.060,0.060,0.000,0.000,0.000
1644362143989829120,2022-02-08-23:15:43,10.1.1.5,38,0.050,0.050,0.050,0.000,0.000,0.000
1644362144089696000,2022-02-08-23:15:44,10.1.1.5,37,0.040,0.040,0.040,0.000,0.000,0.000
1644362144189445120,2022-02-08-23:15:44,10.1.1.5,37,0.030,0.030,0.030,0.000,0.000,0.000
1644362144290846976,2022-02-08-23:15:44,10.1.1.5,37,0.020,0.020,0.020,0.000,0.000,0.000
1644362144390172928,2022-02-08-23:15:44,10.1.1.5,36,0.010,0.010,0.010,0.000,0.000,0.000
1644362144489607168,2022-02-08-23:15:44,10.1.1.5,35,0.000,0.000,0.000,0.000,0.000,0.000
1644362144589576960,2022-02-08-23:15:44,10.1.1.5,35,-0.010,-0.010,-0.010,0.000,0.000,0.000
1644362145189434880,2022-02-08-23:15:45,10.1.1.5,27,-0.070,-0.070,-0.070,0.000,0.000,0.000
1644362145290330880,2022-02-08-23:15:45,10.1.1.5,27,-0.080,-0.080,-0.080,0.000,0.000,0.000
1644362145389936896,2022-02-08-23:15:45,10.1.1.5,27,-0.090,-0.090,-0.090,0.000,0.000,0.000
1644362145490253824,2022-02-08-23:15:45,10.1.1.5,25,-0.100,-0.100,-0.100,0.000,0.000,0.000
1644362145589926912,2022-02-08-23:15:45,10.1.1.5,25,-0.090,-0.090,-0.090,0.000,0.000,0.000
1644362146409267968,2022-02-08-23:15:46,10.1.1.5,39,-0.010,-0.010,-0.010,0.000,0.000,0.000
1644362147247701760,2022-02-08-23:15:47,10.1.1.5,29,0.070,0.070,0.070,0.000,0.000,0.000
1644362147409622016,2022-02-08-23:15:47,10.1.1.5,26,0.090,0.090,0.090,0.000,0.000,0.000
1644362147609371904,2022-02-08-23:15:47,10.1.1.5,21,0.090,0.090,0.090,0.000,0.000,0.000
1644362147729577984,2022-02-08-23:15:47,10.1.1.5,38,0.080,0.080,0.080,0.000,0.000,0.000
1644362147852281088,2022-02-08-23:15:47,10.1.1.5,38,0.070,0.070,0.070,0.000,0.000,0.000
1644362147930344192,2022-02-08-23:15:47,10.1.1.5,36,0.060,0.060,0.060,0.000,0.000,0.000
1644362148129533952,2022-02-08-23:15:48,10.1.1.5,35,0.040,0.040,0.040,0.000,0.000,0.000
1644362148230806016,2022-02-08-23:15:48,10.1.1.5,35,0.030,0.030,0.030,0.000,0.000,0.000
1644362148632549888,2022-02-08-23:15:48,10.1.1.5,26,-0.010,-0.010,-0.010,0.000,0.000,0.000
1644362148729381120,2022-02-08-23:15:48,10.1.1.5,26,-0.020,-0.020,-0.020,0.000,0.000,0.000
1644362148829543168,2022-02-08-23:15:48,10.1.1.5,25,-0.030,-0.030,-0.030,0.000,0.000,0.000
1644362148929723904,2022-02-08-23:15:48,10.1.1.5,25,-0.040,-0.040,-0.040,0.000,0.000,0.000
1644362149758865152,2022-02-08-23:15:49,10.1.1.5,39,-0.080,-0.080,-0.080,0.000,0.000,0.000
1644362149851241216,2022-02-08-23:15:49,10.1.1.5,38,-0.070,-0.070,-0.070,0.000,0.000,0.000
1644362149950260992,2022-02-08-23:15:49,10.1.1.5,36,-0.060,-0.060,-0.060,0.000,0.000,0.000
1644362150149843968,2022-02-08-23:15:50,10.1.1.5,35,-0.040,-0.040,-0.040,0.000,0.000,0.000
1644362150750833152,2022-02-08-23:15:50,10.1.1.5,30,0.020,0.020,0.020,0.000,0.000,0.000
1644362150849385984,2022-02-08-23:15:50,10.1.1.5,28,0.030,0.030,0.030,0.000,0.000,0.000
1644362150950988032,2022-02-08-23:15:50,10.1.1.5,27,0.040,0.040,0.040,0.000,0.000,0.000
1644362151050891008,2022-02-08-23:15:51,10.1.1.5,27,0.050,0.050,0.050,0.000,0.000,0.000
1644362151150461952,2022-02-08-23:15:51,10.1.1.5,26,0.060,0.060,0.060,0.000,0.000,0.000
1644362151249847040,2022-02-08-23:15:51,10.1.1.5,25,0.070,0.070,0.070,0.000,0.000,0.000
1644362151350156032,2022-02-08-23:15:51,10.1.1.5,25,0.080,0.080,0.080,0.000,0.000,0.000
1644362151770607872,2022-02-08-23:15:51,10.1.1.5,10,0.080,0.080,0.080,0.000,0.000,0.000
1644362151991255040,2022-02-08-23:15:51,10.1.1.5,28,0.060,0.060,0.060,0.000,0.000,0.000
1644362152090305024,2022-02-08-23:15:52,10.1.1.5,28,0.050,0.050,0.050,0.000,0.000,0.000
1644362152194169088,2022-02-08-23:15:52,10.1.1.5,27,0.040,0.040,0.040,0.000,0.000,0.000
1644362152290714112,2022-02-08-23:15:52,10.1.1.5,26,0.030,0.030,0.030,0.000,0.000,0.000
1644362152390041088,2022-02-08-23:15:52,10.1.1.5,26,0.020,0.020,0.020,0.000,0.000,0.000
1644362152490042880,2022-02-08-23:15:52,10.1.1.5,25,0.010,0.010,0.010,0.000,0.000,0.000
1644362153509819904,2022-02-08-23:15:53,10.1.1.5,29,-0.090,-0.090,-0.090,0.000,0.000,0.000
1644362153690974976,2022-02-08-23:15:53,10.1.1.5,3,-0.090,-0.090,-0.090,0.000,0.000,0.000
1644362154030806016,2022-02-08-23:15:54,10.1.1.5,38,-0.060,-0.060,-0.060,0.000,0.000,0.000
1644362154129827072,2022-02-08-23:15:54,10.1.1.5,38,-0.050,-0.050,-0.050,0.000,0.000,0.000
1644362154230770176,2022-02-08-23:15:54,10.1.1.5,37,-0.040,-0.040,-0.040,0.000,0.000,0.000
1644362154330852096,2022-02-08-23:15:54,10.1.1.5,36,-0.030,-0.030,-0.030,0.000,0.000,0.000
1644362154430327808,2022-02-08-23:15:54,10.1.1.5,35,-0.020,-0.020,-0.020,0.000,0.000,0.000
1644362155229960960,2022-02-08-23:15:55,10.1.1.5,28,0.060,0.060,0.060,0.000,0.000,0.000
1644362155350127872,2022-02-08-23:15:55,10.1.1.5,27,0.070,0.070,0.070,0.000,0.000,0.000
1644362155431142144,2022-02-08-23:15:55,10.1.1.5,25,0.080,0.080,0.080,0.000,0.000,0.000
1644362155829545984,2022-02-08-23:15:55,10.1.1.5,21,0.080,0.080,0.080,0.000,0.000,0.000
1644362156229196032,2022-02-08-23:15:56,10.1.1.5,20,0.040,0.040,0.040,0.000,0.000,0.000
1644362156350076928,2022-02-08-23:15:56,10.1.1.5,39,0.030,0.030,0.030,0.000,0.000,0.000
1644362156449388032,2022-02-08-23:15:56,10.1.1.5,39,0.020,0.020,0.020,0.000,0.000,0.000
1644362156550374144,2022-02-08-23:15:56,10.1.1.5,38,0.010,0.010,0.010,0.000,0.000,0.000
1644362156649185792,2022-02-08-23:15:56,10.1.1.5,38,0.000,0.000,0.000,0.000,0.000,0.000
1644362156749187840,2022-02-08-23:15:56,10.1.1.5,37,-0.010,-0.010,-0.010,0.000,0.000,0.000
1644362156849075968,2022-02-08-23:15:56,10.1.1.5,37,-0.020,-0.020,-0.020,0.000,0.000,0.000
1644362156949584128,2022-02-08-23:15:56,10.1.1.5,37,-0.030,-0.030,-0.030,0.000,0.000,0.000
1644362157049911040,2022-02-08-23:15:57,10.1.1.5,36,-0.040,-0.040,-0.040,0.000,0.000,0.000
1644362157184808960,2022-02-08-23:15:57,10.1.1.5,35,-0.050,-0.050,-0.050,0.000,0.000,0.000
1644362157250439936,2022-02-08-23:15:57,10.1.1.5,35,-0.060,-0.060,-0.060,0.000,0.000,0.000
1644362158029542912,2022-02-08-23:15:58,10.1.1.5,10,-0.060,-0.060,-0.060,0.000,0.000,0.000
1644362158149688832,2022-02-08-23:15:58,10.1.1.5,29,-0.050,-0.050,-0.050,0.000,0.000,0.000
1644362158249341952,2022-02-08-23:15:58,10.1.1.5,29,-0.040,-0.040,-0.040,0.000,0.000,0.000
1644362158349549056,2022-02-08-23:15:58,10.1.1.5,28,-0.030,-0.030,-0.030,0.000,0.000,0.000
1644362158449594880,2022-02-08-23:15:58,10.1.1.5,28,-0.020,-0.020,-0.020,0.000,0.000,0.000
1644362158549402112,2022-02-08-23:15:58,10.1.1.5,27,-0.010,-0.010,-0.010,0.000,0.000,0.000
1644362158649425920,2022-02-08-23:15:58,10.1.1.5,27,0.000,0.000,0.000,0.000,0.000,0.000
1644362158749483008,2022-02-08-23:15:58,10.1.1.5,27,0.010,0.010,0.010,0.000,0.000,0.000
1644362158849512192,2022-02-08-23:15:58,10.1.1.5,26,0.020,0.020,0.020,0.000,0.000,0.000
1644362158950091008,2022-02-08-23:15:58,10.1.1.5,25,0.030,0.030,0.030,0.000,0.000,0.000
1644362159049328128,2022-02-08-23:15:59,10.1.1.5,25,0.040,0.040,0.040,0.000,0.000,0.000
1644362159951046912,2022-02-08-23:15:59,10.1.1.5,19,0.070,0.070,0.070,0.000,0.000,0.000
1644362160070317056,2022-02-08-23:16:00,10.1.1.5,39,0.060,0.060,0.060,0.000,0.000,0.000
1644362160170424832,2022-02-08-23:16:00,10.1.1.5,38,0.050,0.050,0.050,0.000,0.000,0.000
1644362160269725952,2022-02-08-23:16:00,10.1.1.5,37,0.040,0.040,0.040,0.000,0.000,0.000
1644362160370340096,2022-02-08-23:16:00,10.1.1.5,37,0.030,0.030,0.030,0.000,0.000,0.000
1644362160469918976,2022-02-08-23:16:00,10.1.1.5,36,0.020,0.020,0.020,0.000,0.000,0.000
1644362160569665792,2022-02-08-23:16:00,10.1.1.5,36,0.010,0.010,0.010,0.000,0.000,0.000
1644362160669209856,2022-02-08-23:16:00,10.1.1.5,35,0.000,0.000,0.000,0.000,0.000,0.000
1644362160770248960,2022-02-08-23:16:00,10.1.1.5,35,-0.010,-0.010,-0.010,0.000,0.000,0.000
1644362161570349056,2022-02-08-23:16:01,10.1.1.5,29,-0.090,-0.090,-0.090,0.000,0.000,0.000
1644362161669220864,2022-02-08-23:16:01,10.1.1.5,29,-0.100,-0.100,-0.100,0.000,0.000,0.000
1644362161769426944,2022-02-08-23:16:01,10.1.1.5,28,-0.090,-0.090,-0.090,0.000,0.000,0.000
1644362161870316032,2022-02-08-23:16:01,10.1.1.5,28,-0.080,-0.080,-0.080,0.000,0.000,0.000
1644362161969796864,2022-02-08-23:16:01,10.1.1.5,27,-0.070,-0.070,-0.070,0.000,0.000,0.000
1644362162069807104,2022-02-08-23:16:02,10.1.1.5,27,-0.060,-0.060,-0.060,0.000,0.000,0.000
1644362162170330880,2022-02-08-23:16:02,10.1.1.5,27,-0.050,-0.050,-0.050,0.000,0.000,0.000
1644362162690109952,2022-02-08-23:16:02,10.1.1.5,39,0.000,0.000,0.000,0.000,0.000,0.000
1644362162789975808,2022-02-08-23:16:02,10.1.1.5,39,0.010,0.010,0.010,0.000,0.000,0.000
1644362162889276928,2022-02-08-23:16:02,10.1.1.5,38,0.020,0.020,0.020,0.000,0.000,0.000
1644362162989428992,2022-02-08-23:16:02,10.1.1.5,38,0.030,0.030,0.030,0.000,0.000,0.000
1644362163089731840,2022-02-08-23:16:03,10.1.1.5,37,0.040,0.040,0.040,0.000,0.000,0.000
1644362163190062080,2022-02-08-23:16:03,10.1.1.5,37,0.050,0.050,0.050,0.000,0.000,0.000
1644362163289516032,2022-02-08-23:16:03,10.1.1.5,36,0.060,0.060,0.060,0.000,0.000,0.000
1644362163389640192,2022-02-08-23:16:03,10.1.1.5,35,0.070,0.070,0.070,0.000,0.000,0.000
1644362163490340864,2022-02-08-23:16:03,10.1.1.5,35,0.080,0.080,0.080,0.000,0.000,0.000
1644362163869744128,2022-02-08-23:16:03,10.1.1.5,11,0.080,0.080,0.080,0.000,0.000,0.000
1644362164090595072,2022-02-08-23:16:04,10.1.1.5,29,0.060,0.060,0.060,0.000,0.000,0.000
1644362164189766912,2022-02-08-23:16:04,10.1.1.5,29,0.050,0.050,0.050,0.000,0.000,0.000
1644362164290916864,2022-02-08-23:16:04,10.1.1.5,28,0.040,0.040,0.040,0.000,0.000,0.000
1644362164390810880,2022-02-08-23:16:04,10.1.1.5,28,0.030,0.030,0.030,0.000,0.000,0.000
1644362164490670080,2022-02-08-23:16:04,10.1.1.5,27,0.020,0.020,0.020,0.000,0.000,0.000
1644362164589927936,2022-02-08-23:16:04,10.1.1.5,26,0.010,0.010,0.010,0.000,0.000,0.000
1644362164689969152,2022-02-08-23:16:04,10.1.1.5,25,0.000,0.000,0.000,0.000,0.000,0.000
1644362164789586944,2022-02-08-23:16:04,10.1.1.5,24,-0.010,-0.010,-0.010,0.000,0.000,0.000
1644362165490885888,2022-02-08-23:16:05,10.1.1.5,19,-0.080,-0.080,-0.080,0.000,0.000,0.000
1644362165609473024,2022-02-08-23:16:05,10.1.1.5,38,-0.090,-0.090,-0.090,0.000,0.000,0.000
1644362165710767872,2022-02-08-23:16:05,10.1.1.5,38,-0.100,-0.100,-0.100,0.000,0.000,0.000
1644362165809217024,2022-02-08-23:16:05,10.1.1.5,37,-0.090,-0.090,-0.090,0.000,0.000,0.000
1644362165909974016,2022-02-08-23:16:05,10.1.1.5,37,-0.080,-0.080,-0.080,0.000,0.000,0.000
1644362166011322880,2022-02-08-23:16:06,10.1.1.5,37,-0.070,-0.070,-0.070,0.000,0.000,0.000
1644362166109725952,2022-02-08-23:16:06,10.1.1.5,37,-0.060,-0.060,-0.060,0.000,0.000,0.000
1644362166209211136,2022-02-08-23:16:06,10.1.1.5,36,-0.050,-0.050,-0.050,0.000,0.000,0.000
1644362166309943808,2022-02-08-23:16:06,10.1.1.5,35,-0.040,-0.040,-0.040,0.000,0.000,0.000
1644362166409878016,2022-02-08-23:16:06,10.1.1.5,35,-0.030,-0.030,-0.030,0.000,0.000,0.000
1644362166510550016,2022-02-08-23:16:06,10.1.1.5,35,-0.020,-0.020,-0.020,0.000,0.000,0.000
1644362167309534976,2022-02-08-23:16:07,10.1.1.5,30,0.060,0.060,0.060,0.000,0.000,0.000
1644362167511859968,2022-02-08-23:16:07,10.1.1.5,29,0.080,0.080,0.080,0.000,0.000,0.000
1644362167609508864,2022-02-08-23:16:07,10.1.1.5,27,0.090,0.090,0.090,0.000,0.000,0.000
1644362167710135040,2022-02-08-23:16:07,10.1.1.5,27,0.100,0.100,0.100,0.000,0.000,0.000
1644362167810838016,2022-02-08-23:16:07,10.1.1.5,26,0.090,0.090,0.090,0.000,0.000,0.000
1644362167910110976,2022-02-08-23:16:07,10.1.1.5,26,0.080,0.080,0.080,0.000,0.000,0.000
1644362168130136064,2022-02-08-23:16:08,10.1.1.5,39,0.060,0.060,0.060,0.000,0.000,0.000
1644362168229691136,2022-02-08-23:16:08,10.1.1.5,38,0.050,0.050,0.050,0.000,0.000,0.000
1644362168329797120,2022-02-08-23:16:08,10.1.1.5,37,0.040,0.040,0.040,0.000,0.000,0.000
1644362168430038016,2022-02-08-23:16:08,10.1.1.5,37,0.030,0.030,0.030,0.000,0.000,0.000
1644362168529874944,2022-02-08-23:16:08,10.1.1.5,36,0.020,0.020,0.020,0.000,0.000,0.000
1644362168630487040,2022-02-08-23:16:08,10.1.1.5,36,0.010,0.010,0.010,0.000,0.000,0.000
1644362168729851904,2022-02-08-23:16:08,10.1.1.5,35,0.000,0.000,0.000,0.000,0.000,0.000
1644362168831928064,2022-02-08-23:16:08,10.1.1.5,37,-0.010,-0.010,-0.010,0.000,0.000,0.000
1644362168929855232,2022-02-08-23:16:08,10.1.1.5,35,-0.020,-0.020,-0.020,0.000,0.000,0.000
1644362169930707968,2022-02-08-23:16:09,10.1.1.5,30,-0.080,-0.080,-0.080,0.000,0.000,0.000
1644362170031054848,2022-02-08-23:16:10,10.1.1.5,29,-0.070,-0.070,-0.070,0.000,0.000,0.000
1644362170129506048,2022-02-08-23:16:10,10.1.1.5,28,-0.060,-0.060,-0.060,0.000,0.000,0.000
1644362170230000128,2022-02-08-23:16:10,10.1.1.5,28,-0.050,-0.050,-0.050,0.000,0.000,0.000
1644362170329620992,2022-02-08-23:16:10,10.1.1.5,28,-0.040,-0.040,-0.040,0.000,0.000,0.000
1644362170429872896,2022-02-08-23:16:10,10.1.1.5,27,-0.030,-0.030,-0.030,0.000,0.000,0.000
1644362170530374144,2022-02-08-23:16:10,10.1.1.5,27,-0.020,-0.020,-0.020,0.000,0.000,0.000
1644362170629529856,2022-02-08-23:16:10,10.1.1.5,26,-0.010,-0.010,-0.010,0.000,0.000,0.000
1644362170729645056,2022-02-08-23:16:10,10.1.1.5,26,0.000,0.000,0.000,0.000,0.000,0.000
1644362170829901824,2022-02-08-23:16:10,10.1.1.5,25,0.010,0.010,0.010,0.000,0.000,0.000
1644362170929735936,2022-02-08-23:16:10,10.1.1.5,25,0.020,0.020,0.020,0.000,0.000,0.000
1644362171929547008,2022-02-08-23:16:11,10.1.1.5,19,0.080,0.080,0.080,0.000,0.000,0.000
1644362172051672064,2022-02-08-23:16:12,10.1.1.5,38,0.070,0.070,0.070,0.000,0.000,0.000
1644362172150053888,2022-02-08-23:16:12,10.1.1.5,37,0.060,0.060,0.060,0.000,0.000,0.000
1644362172249073920,2022-02-08-23:16:12,10.1.1.5,37,0.050,0.050,0.050,0.000,0.000,0.000
1644362172349479936,2022-02-08-23:16:12,10.1.1.5,37,0.040,0.040,0.040,0.000,0.000,0.000
1644362172449709056,2022-02-08-23:16:12,10.1.1.5,36,0.030,0.030,0.030,0.000,0.000,0.000
1644362172550162176,2022-02-08-23:16:12,10.1.1.5,35,0.020,0.020,0.020,0.000,0.000,0.000
1644362172650176000,2022-02-08-23:16:12,10.1.1.5,35,0.010,0.010,0.010,0.000,0.000,0.000
1644362173449955840,2022-02-08-23:16:13,10.1.1.5,29,-0.070,-0.070,-0.070,0.000,0.000,0.000
1644362173551175168,2022-02-08-23:16:13,10.1.1.5,29,-0.080,-0.080,-0.080,0.000,0.000,0.000
1644362173650109952,2022-02-08-23:16:13,10.1.1.5,29,-0.090,-0.090,-0.090,0.000,0.000,0.000
1644362173749849088,2022-02-08-23:16:13,10.1.1.5,28,-0.100,-0.100,-0.100,0.000,0.000,0.000
1644362173850529024,2022-02-08-23:16:13,10.1.1.5,27,-0.090,-0.090,-0.090,0.000,0.000,0.000
1644362173950242048,2022-02-08-23:16:13,10.1.1.5,27,-0.080,-0.080,-0.080,0.000,0.000,0.000
1644362174050508032,2022-02-08-23:16:14,10.1.1.5,26,-0.070,-0.070,-0.070,0.000,0.000,0.000
1644362174149827072,2022-02-08-23:16:14,10.1.1.5,26,-0.060,-0.060,-0.060,0.000,0.000,0.000
1644362174249190144,2022-02-08-23:16:14,10.1.1.5,25,-0.050,-0.050,-0.050,0.000,0.000,0.000
1644362174350778112,2022-02-08-23:16:14,10.1.1.5,24,-0.040,-0.040,-0.040,0.000,0.000,0.000
1644362175470946048,2022-02-08-23:16:15,10.1.1.5,39,0.070,0.070,0.070,0.000,0.000,0.000
1644362175569530112,2022-02-08-23:16:15,10.1.1.5,38,0.080,0.080,0.080,0.000,0.000,0.000
1644362175669459200,2022-02-08-23:16:15,10.1.1.5,38,0.090,0.090,0.090,0.000,0.000,0.000
1644362175769620992,2022-02-08-23:16:15,10.1.1.5,37,0.100,0.100,0.100,0.000,0.000,0.000
1644362175870095104,2022-02-08-23:16:15,10.1.1.5,37,0.090,0.090,0.090,0.000,0.000,0.000
1644362175970326784,2022-02-08-23:16:15,10.1.1.5,36,0.080,0.080,0.080,0.000,0.000,0.000
1644362176069488896,2022-02-08-23:16:16,10.1.1.5,35,0.070,0.070,0.070,0.000,0.000,0.000
1644362176869817088,2022-02-08-23:16:16,10.1.1.5,28,-0.010,-0.010,-0.010,0.000,0.000,0.000
1644362176969841920,2022-02-08-23:16:16,10.1.1.5,28,-0.020,-0.020,-0.020,0.000,0.000,0.000
1644362177070231040,2022-02-08-23:16:17,10.1.1.5,28,-0.030,-0.030,-0.030,0.000,0.000,0.000
1644362177169935104,2022-02-08-23:16:17,10.1.1.5,27,-0.040,-0.040,-0.040,0.000,0.000,0.000
1644362177269541120,2022-02-08-23:16:17,10.1.1.5,26,-0.050,-0.050,-0.050,0.000,0.000,0.000
1644362177369373952,2022-02-08-23:16:17,10.1.1.5,26,-0.060,-0.060,-0.060,0.000,0.000,0.000
1644362177471416832,2022-02-08-23:16:17,10.1.1.5,25,-0.070,-0.070,-0.070,0.000,0.000,0.000
1644362178069574144,2022-02-08-23:16:18,10.1.1.5,21,-0.070,-0.070,-0.070,0.000,0.000,0.000
1644362178489893888,2022-02-08-23:16:18,10.1.1.5,39,-0.030,-0.030,-0.030,0.000,0.000,0.000
1644362178590024960,2022-02-08-23:16:18,10.1.1.5,39,-0.020,-0.020,-0.020,0.000,0.000,0.000
1644362178689773056,2022-02-08-23:16:18,10.1.1.5,39,-0.010,-0.010,-0.010,0.000,0.000,0.000
1644362178789305088,2022-02-08-23:16:18,10.1.1.5,38,0.000,0.000,0.000,0.000,0.000,0.000
1644362178889626112,2022-02-08-23:16:18,10.1.1.5,37,0.010,0.010,0.010,0.000,0.000,0.000
1644362178989296896,2022-02-08-23:16:18,10.1.1.5,36,0.020,0.020,0.020,0.000,0.000,0.000
1644362179089502208,2022-02-08-23:16:19,10.1.1.5,36,0.030,0.030,0.030,0.000,0.000,0.000
1644362179189281024,2022-02-08-23:16:19,10.1.1.5,35,0.040,0.040,0.040,0.000,0.000,0.000
1644362179289086208,2022-02-08-23:16:19,10.1.1.5,35,0.050,0.050,0.050,0.000,0.000,0.000
1644362179390341888,2022-02-08-23:16:19,10.1.1.5,35,0.060,0.060,0.060,0.000,0.000,0.000
1644362179889679872,2022-02-08-23:16:19,10.1.1.5,29,0.090,0.090,0.090,0.000,0.000,0.000
1644362179989840896,2022-02-08-23:16:19,10.1.1.5,29,0.080,0.080,0.080,0.000,0.000,0.000
1644362180089667072,2022-02-08-23:16:20,10.1.1.5,28,0.070,0.070,0.070,0.000,0.000,0.000
1644362180189289984,2022-02-08-23:16:20,10.1.1.5,28,0.060,0.060,0.060,0.000,0.000,0.000
1644362180290539008,2022-02-08-23:16:20,10.1.1.5,27,0.050,0.050,0.050,0.000,0.000,0.000
1644362180390578944,2022-02-08-23:16:20,10.1.1.5,27,0.040,0.040,0.040,0.000,0.000,0.000
1644362180489563904,2022-02-08-23:16:20,10.1.1.5,26,0.030,0.030,0.030,0.000,0.000,0.000
1644362180589463040,2022-02-08-23:16:20,10.1.1.5,26,0.020,0.020,0.020,0.000,0.000,0.000
1644362180689632000,2022-02-08-23:16:20,10.1.1.5,25,0.010,0.010,0.010,0.000,0.000,0.000
1644362181589287168,2022-02-08-23:16:21,10.1.1.5,20,-0.080,-0.080,-0.080,0.000,0.000,0.000
1644362181809703168,2022-02-08-23:16:21,10.1.1.5,38,-0.100,-0.100,-0.100,0.000,0.000,0.000
1644362181909359872,2022-02-08-23:16:21,10.1.1.5,38,-0.090,-0.090,-0.090,0.000,0.000,0.000
1644362182013478912,2022-02-08-23:16:22,10.1.1.5,41,-0.080,-0.080,-0.080,0.000,0.000,0.000
1644362182109699072,2022-02-08-23:16:22,10.1.1.5,36,-0.070,-0.070,-0.070,0.000,0.000,0.000
1644362182209172992,2022-02-08-23:16:22,10.1.1.5,35,-0.060,-0.060,-0.060,0.000,0.000,0.000
1644362183009262080,2022-02-08-23:16:23,10.1.1.5,28,0.020,0.020,0.020,0.000,0.000,0.000
1644362183109519872,2022-02-08-23:16:23,10.1.1.5,27,0.030,0.030,0.030,0.000,0.000,0.000
1644362183209563904,2022-02-08-23:16:23,10.1.1.5,27,0.040,0.040,0.040,0.000,0.000,0.000
1644362183309510912,2022-02-08-23:16:23,10.1.1.5,26,0.050,0.050,0.050,0.000,0.000,0.000
1644362183410316032,2022-02-08-23:16:23,10.1.1.5,25,0.060,0.060,0.060,0.000,0.000,0.000
1644362183511558912,2022-02-08-23:16:23,10.1.1.5,25,0.070,0.070,0.070,0.000,0.000,0.000
1644362184109452032,2022-02-08-23:16:24,10.1.1.5,22,0.070,0.070,0.070,0.000,0.000,0.000
1644362184529208832,2022-02-08-23:16:24,10.1.1.5,40,0.030,0.030,0.030,0.000,0.000,0.000
1644362184629911808,2022-02-08-23:16:24,10.1.1.5,39,0.020,0.020,0.020,0.000,0.000,0.000
1644362184729271040,2022-02-08-23:16:24,10.1.1.5,38,0.010,0.010,0.010,0.000,0.000,0.000
1644362184829593856,2022-02-08-23:16:24,10.1.1.5,37,0.000,0.000,0.000,0.000,0.000,0.000
1644362184930414080,2022-02-08-23:16:24,10.1.1.5,37,-0.010,-0.010,-0.010,0.000,0.000,0.000
1644362185030649856,2022-02-08-23:16:25,10.1.1.5,37,-0.020,-0.020,-0.020,0.000,0.000,0.000
1644362185529938944,2022-02-08-23:16:25,10.1.1.5,29,-0.070,-0.070,-0.070,0.000,0.000,0.000
1644362185629501184,2022-02-08-23:16:25,10.1.1.5,29,-0.080,-0.080,-0.080,0.000,0.000,0.000
1644362185729483008,2022-02-08-23:16:25,10.1.1.5,28,-0.090,-0.090,-0.090,0.000,0.000,0.000
1644362185829058816,2022-02-08-23:16:25,10.1.1.5,28,-0.100,-0.100,-0.100,0.000,0.000,0.000
1644362185929869056,2022-02-08-23:16:25,10.1.1.5,28,-0.090,-0.090,-0.090,0.000,0.000,0.000
1644362186029411072,2022-02-08-23:16:26,10.1.1.5,27,-0.080,-0.080,-0.080,0.000,0.000,0.000
1644362186129126144,2022-02-08-23:16:26,10.1.1.5,26,-0.070,-0.070,-0.070,0.000,0.000,0.000
1644362186229222912,2022-02-08-23:16:26,10.1.1.5,26,-0.060,-0.060,-0.060,0.000,0.000,0.000
1644362186329449984,2022-02-08-23:16:26,10.1.1.5,25,-0.050,-0.050,-0.050,0.000,0.000,0.000
1644362186429658880,2022-02-08-23:16:26,10.1.1.5,25,-0.040,-0.040,-0.040,0.000,0.000,0.000
1644362186835951104,2022-02-08-23:16:26,10.1.1.5,20,0.000,0.000,0.000,0.000,0.000,0.000
1644362186949528832,2022-02-08-23:16:26,10.1.1.5,39,0.010,0.010,0.010,0.000,0.000,0.000
1644362187049221120,2022-02-08-23:16:27,10.1.1.5,38,0.020,0.020,0.020,0.000,0.000,0.000
1644362187149971968,2022-02-08-23:16:27,10.1.1.5,37,0.030,0.030,0.030,0.000,0.000,0.000
1644362187249281792,2022-02-08-23:16:27,10.1.1.5,37,0.040,0.040,0.040,0.000,0.000,0.000
1644362187349934080,2022-02-08-23:16:27,10.1.1.5,36,0.050,0.050,0.050,0.000,0.000,0.000
1644362187449425920,2022-02-08-23:16:27,10.1.1.5,36,0.060,0.060,0.060,0.000,0.000,0.000
1644362187549607936,2022-02-08-23:16:27,10.1.1.5,35,0.070,0.070,0.070,0.000,0.000,0.000
1644362187649196032,2022-02-08-23:16:27,10.1.1.5,35,0.080,0.080,0.080,0.000,0.000,0.000
1644362187749068032,2022-02-08-23:16:27,10.1.1.5,34,0.090,0.090,0.090,0.000,0.000,0.000
1644362187929310976,2022-02-08-23:16:27,10.1.1.5,14,0.090,0.090,0.090,0.000,0.000,0.000
1644362188849725952,2022-02-08-23:16:28,10.1.1.5,30,0.000,0.000,0.000,0.000,0.000,0.000
1644362188949918976,2022-02-08-23:16:28,10.1.1.5,29,-0.010,-0.010,-0.010,0.000,0.000,0.000
1644362189049382912,2022-02-08-23:16:29,10.1.1.5,28,-0.020,-0.020,-0.020,0.000,0.000,0.000
1644362189149463808,2022-02-08-23:16:29,10.1.1.5,28,-0.030,-0.030,-0.030,0.000,0.000,0.000
1644362189250013184,2022-02-08-23:16:29,10.1.1.5,27,-0.040,-0.040,-0.040,0.000,0.000,0.000
1644362189350609152,2022-02-08-23:16:29,10.1.1.5,26,-0.050,-0.050,-0.050,0.000,0.000,0.000
1644362189449520128,2022-02-08-23:16:29,10.1.1.5,25,-0.060,-0.060,-0.060,0.000,0.000,0.000
1644362190249838080,2022-02-08-23:16:30,10.1.1.5,20,-0.060,-0.060,-0.060,0.000,0.000,0.000
1644362190450084096,2022-02-08-23:16:30,10.1.1.5,19,-0.040,-0.040,-0.040,0.000,0.000,0.000
1644362190569821952,2022-02-08-23:16:30,10.1.1.5,39,-0.030,-0.030,-0.030,0.000,0.000,0.000
1644362190669396992,2022-02-08-23:16:30,10.1.1.5,38,-0.020,-0.020,-0.020,0.000,0.000,0.000
1644362190769433856,2022-02-08-23:16:30,10.1.1.5,38,-0.010,-0.010,-0.010,0.000,0.000,0.000
1644362190869891840,2022-02-08-23:16:30,10.1.1.5,37,0.000,0.000,0.000,0.000,0.000,0.000
1644362190969007872,2022-02-08-23:16:30,10.1.1.5,37,0.010,0.010,0.010,0.000,0.000,0.000
1644362191069272064,2022-02-08-23:16:31,10.1.1.5,36,0.020,0.020,0.020,0.000,0.000,0.000
1644362191169739008,2022-02-08-23:16:31,10.1.1.5,36,0.030,0.030,0.030,0.000,0.000,0.000
1644362191269612032,2022-02-08-23:16:31,10.1.1.5,35,0.040,0.040,0.040,0.000,0.000,0.000
1644362191369359104,2022-02-08-23:16:31,10.1.1.5,35,0.050,0.050,0.050,0.000,0.000,0.000
1644362191881560064,2022-02-08-23:16:31,10.1.1.5,29,0.100,0.100,0.100,0.000,0.000,0.000
1644362192089568000,2022-02-08-23:16:32,10.1.1.5,37,0.080,0.080,0.080,0.000,0.000,0.000
1644362192190119936,2022-02-08-23:16:32,10.1.1.5,37,0.070,0.070,0.070,0.000,0.000,0.000
1644362192290030848,2022-02-08-23:16:32,10.1.1.5,36,0.060,0.060,0.060,0.000,0.000,0.000
1644362192389709056,2022-02-08-23:16:32,10.1.1.5,36,0.050,0.050,0.050,0.000,0.000,0.000
1644362192490017024,2022-02-08-23:16:32,10.1.1.5,35,0.040,0.040,0.040,0.000,0.000,0.000
1644362192590630912,2022-02-08-23:16:32,10.1.1.5,35,0.030,0.030,0.030,0.000,0.000,0.000
1644362192689654016,2022-02-08-23:16:32,10.1.1.5,34,0.020,0.020,0.020,0.000,0.000,0.000
1644362193589734144,2022-02-08-23:16:33,10.1.1.5,29,-0.070,-0.070,-0.070,0.000,0.000,0.000
1644362193689913088,2022-02-08-23:16:33,10.1.1.5,29,-0.080,-0.080,-0.080,0.000,0.000,0.000
1644362193789655808,2022-02-08-23:16:33,10.1.1.5,28,-0.090,-0.090,-0.090,0.000,0.000,0.000
1644362193890482944,2022-02-08-23:16:33,10.1.1.5,27,-0.100,-0.100,-0.100,0.000,0.000,0.000
1644362193989559808,2022-02-08-23:16:33,10.1.1.5,26,-0.090,-0.090,-0.090,0.000,0.000,0.000
1644362194591437056,2022-02-08-23:16:34,10.1.1.5,20,-0.030,-0.030,-0.030,0.000,0.000,0.000
1644362194710359040,2022-02-08-23:16:34,10.1.1.5,38,-0.020,-0.020,-0.020,0.000,0.000,0.000
1644362194810012160,2022-02-08-23:16:34,10.1.1.5,37,-0.010,-0.010,-0.010,0.000,0.000,0.000
1644362194911284992,2022-02-08-23:16:34,10.1.1.5,36,0.000,0.000,0.000,0.000,0.000,0.000
1644362195010653952,2022-02-08-23:16:35,10.1.1.5,35,0.010,0.010,0.010,0.000,0.000,0.000
1644362195110996992,2022-02-08-23:16:35,10.1.1.5,35,0.020,0.020,0.020,0.000,0.000,0.000
1644362195710500096,2022-02-08-23:16:35,10.1.1.5,29,0.080,0.080,0.080,0.000,0.000,0.000
1644362195810252032,2022-02-08-23:16:35,10.1.1.5,28,0.090,0.090,0.090,0.000,0.000,0.000
1644362195910722048,2022-02-08-23:16:35,10.1.1.5,28,0.100,0.100,0.100,0.000,0.000,0.000
1644362196009680128,2022-02-08-23:16:36,10.1.1.5,27,0.090,0.090,0.090,0.000,0.000,0.000
1644362196110255872,2022-02-08-23:16:36,10.1.1.5,26,0.080,0.080,0.080,0.000,0.000,0.000
1644362196210555136,2022-02-08-23:16:36,10.1.1.5,25,0.070,0.070,0.070,0.000,0.000,0.000
1644362197031258112,2022-02-08-23:16:37,10.1.1.5,39,-0.010,-0.010,-0.010,0.000,0.000,0.000
1644362197130883072,2022-02-08-23:16:37,10.1.1.5,38,-0.020,-0.020,-0.020,0.000,0.000,0.000
1644362197231774976,2022-02-08-23:16:37,10.1.1.5,38,-0.030,-0.030,-0.030,0.000,0.000,0.000
1644362197330387968,2022-02-08-23:16:37,10.1.1.5,37,-0.040,-0.040,-0.040,0.000,0.000,0.000
1644362197431177984,2022-02-08-23:16:37,10.1.1.5,37,-0.050,-0.050,-0.050,0.000,0.000,0.000
1644362197531527168,2022-02-08-23:16:37,10.1.1.5,36,-0.060,-0.060,-0.060,0.000,0.000,0.000
1644362197630510080,2022-02-08-23:16:37,10.1.1.5,35,-0.070,-0.070,-0.070,0.000,0.000,0.000
1644362198210233856,2022-02-08-23:16:38,10.1.1.5,10,-0.070,-0.070,-0.070,0.000,0.000,0.000
1644362198430044928,2022-02-08-23:16:38,10.1.1.5,29,-0.050,-0.050,-0.050,0.000,0.000,0.000
1644362198529999104,2022-02-08-23:16:38,10.1.1.5,28,-0.040,-0.040,-0.040,0.000,0.000,0.000
1644362198632069120,2022-02-08-23:16:38,10.1.1.5,27,-0.030,-0.030,-0.030,0.000,0.000,0.000
1644362198730215168,2022-02-08-23:16:38,10.1.1.5,27,-0.020,-0.020,-0.020,0.000,0.000,0.000
1644362198830667008,2022-02-08-23:16:38,10.1.1.5,26,-0.010,-0.010,-0.010,0.000,0.000,0.000
1644362199849915136,2022-02-08-23:16:39,10.1.1.5,39,0.090,0.090,0.090,0.000,0.000,0.000
1644362199949739008,2022-02-08-23:16:39,10.1.1.5,39,0.100,0.100,0.100,0.000,0.000,0.000
1644362200051493888,2022-02-08-23:16:40,10.1.1.5,37,0.090,0.090,0.090,0.000,0.000,0.000
1644362200150268928,2022-02-08-23:16:40,10.1.1.5,37,0.080,0.080,0.080,0.000,0.000,0.000
1644362200251092992,2022-02-08-23:16:40,10.1.1.5,36,0.070,0.070,0.070,0.000,0.000,0.000
1644362200350925824,2022-02-08-23:16:40,10.1.1.5,35,0.060,0.060,0.060,0.000,0.000,0.000
1644362200950429952,2022-02-08-23:16:40,10.1.1.5,29,0.000,0.000,0.000,0.000,0.000,0.000
1644362201049801984,2022-02-08-23:16:41,10.1.1.5,28,-0.010,-0.010,-0.010,0.000,0.000,0.000
1644362201149918976,2022-02-08-23:16:41,10.1.1.5,28,-0.020,-0.020,-0.020,0.000,0.000,0.000
1644362201249691904,2022-02-08-23:16:41,10.1.1.5,27,-0.030,-0.030,-0.030,0.000,0.000,0.000
1644362201349849856,2022-02-08-23:16:41,10.1.1.5,26,-0.040,-0.040,-0.040,0.000,0.000,0.000
1644362201449481984,2022-02-08-23:16:41,10.1.1.5,26,-0.050,-0.050,-0.050,0.000,0.000,0.000
1644362201551876096,2022-02-08-23:16:41,10.1.1.5,25,-0.060,-0.060,-0.060,0.000,0.000,0.000
1644362202250843136,2022-02-08-23:16:42,10.1.1.5,19,-0.069,-0.069,-0.069,0.000,0.000,0.000
1644362202370546944,2022-02-08-23:16:42,10.1.1.5,38,-0.060,-0.060,-0.060,0.000,0.000,0.000
1644362202469462016,2022-02-08-23:16:42,10.1.1.5,38,-0.050,-0.050,-0.050,0.000,0.000,0.000
1644362202570874880,2022-02-08-23:16:42,10.1.1.5,37,-0.040,-0.040,-0.040,0.000,0.000,0.000
1644362202669436928,2022-02-08-23:16:42,10.1.1.5,36,-0.030,-0.030,-0.030,0.000,0.000,0.000
1644362202769593088,2022-02-08-23:16:42,10.1.1.5,36,-0.020,-0.020,-0.020,0.000,0.000,0.000
1644362202869862144,2022-02-08-23:16:42,10.1.1.5,35,-0.010,-0.010,-0.010,0.000,0.000,0.000
1644362203570593024,2022-02-08-23:16:43,10.1.1.5,29,0.060,0.060,0.060,0.000,0.000,0.000
1644362203669154816,2022-02-08-23:16:43,10.1.1.5,28,0.070,0.070,0.070,0.000,0.000,0.000
1644362203769295872,2022-02-08-23:16:43,10.1.1.5,28,0.080,0.080,0.080,0.000,0.000,0.000
1644362203871109888,2022-02-08-23:16:43,10.1.1.5,26,0.090,0.090,0.090,0.000,0.000,0.000
1644362204052470016,2022-02-08-23:16:44,10.1.1.5,5,0.090,0.090,0.090,0.000,0.000,0.000
1644362204869600000,2022-02-08-23:16:44,10.1.1.5,19,0.010,0.010,0.010,0.000,0.000,0.000
1644362204989624064,2022-02-08-23:16:44,10.1.1.5,38,0.000,0.000,0.000,0.000,0.000,0.000
1644362205089765120,2022-02-08-23:16:45,10.1.1.5,37,-0.010,-0.010,-0.010,0.000,0.000,0.000
1644362205189347072,2022-02-08-23:16:45,10.1.1.5,37,-0.020,-0.020,-0.020,0.000,0.000,0.000
1644362205290411008,2022-02-08-23:16:45,10.1.1.5,36,-0.030,-0.030,-0.030,0.000,0.000,0.000
1644362205389554944,2022-02-08-23:16:45,10.1.1.5,36,-0.040,-0.040,-0.040,0.000,0.000,0.000
1644362205489779968,2022-02-08-23:16:45,10.1.1.5,35,-0.050,-0.050,-0.050,0.000,0.000,0.000
1644362206291223040,2022-02-08-23:16:46,10.1.1.5,29,-0.070,-0.070,-0.070,0.000,0.000,0.000
1644362206391910144,2022-02-08-23:16:46,10.1.1.5,29,-0.060,-0.060,-0.060,0.000,0.000,0.000
1644362206492030976,2022-02-08-23:16:46,10.1.1.5,27,-0.050,-0.050,-0.050,0.000,0.000,0.000
1644362206691407872,2022-02-08-23:16:46,10.1.1.5,26,-0.030,-0.030,-0.030,0.000,0.000,0.000
1644362206791579136,2022-02-08-23:16:46,10.1.1.5,26,-0.020,-0.020,-0.020,0.000,0.000,0.000
1644362206890396160,2022-02-08-23:16:46,10.1.1.5,25,-0.010,-0.010,-0.010,0.000,0.000,0.000
1644362206990173952,2022-02-08-23:16:46,10.1.1.5,24,0.000,0.000,0.000,0.000,0.000,0.000
1644362207590807808,2022-02-08-23:16:47,10.1.1.5,20,0.060,0.060,0.060,0.000,0.000,0.000
1644362207709594880,2022-02-08-23:16:47,10.1.1.5,38,0.070,0.070,0.070,0.000,0.000,0.000
1644362207810674944,2022-02-08-23:16:47,10.1.1.5,37,0.080,0.080,0.080,0.000,0.000,0.000
1644362207911387904,2022-02-08-23:16:47,10.1.1.5,37,0.090,0.090,0.090,0.000,0.000,0.000
1644362208010413824,2022-02-08-23:16:48,10.1.1.5,36,0.100,0.100,0.100,0.000,0.000,0.000
1644362208110622976,2022-02-08-23:16:48,10.1.1.5,35,0.090,0.090,0.090,0.000,0.000,0.000
1644362208957276160,2022-02-08-23:16:48,10.1.1.5,27,0.010,0.010,0.010,0.000,0.000,0.000
1644362209010274048,2022-02-08-23:16:49,10.1.1.5,26,0.000,0.000,0.000,0.000,0.000,0.000
1644362210009236992,2022-02-08-23:16:50,10.1.1.5,19,-0.100,-0.100,-0.100,0.000,0.000,0.000
1644362210130109184,2022-02-08-23:16:50,10.1.1.5,39,-0.090,-0.090,-0.090,0.000,0.000,0.000
1644362210231249920,2022-02-08-23:16:50,10.1.1.5,38,-0.080,-0.080,-0.080,0.000,0.000,0.000
1644362210330151168,2022-02-08-23:16:50,10.1.1.5,38,-0.070,-0.070,-0.070,0.000,0.000,0.000
1644362210430320896,2022-02-08-23:16:50,10.1.1.5,37,-0.060,-0.060,-0.060,0.000,0.000,0.000
1644362210529342976,2022-02-08-23:16:50,10.1.1.5,35,-0.050,-0.050,-0.050,0.000,0.000,0.000
1644362211130893824,2022-02-08-23:16:51,10.1.1.5,29,0.010,0.010,0.010,0.000,0.000,0.000
1644362211231076096,2022-02-08-23:16:51,10.1.1.5,29,0.020,0.020,0.020,0.000,0.000,0.000
1644362211330801920,2022-02-08-23:16:51,10.1.1.5,28,0.030,0.030,0.030,0.000,0.000,0.000
1644362211431122176,2022-02-08-23:16:51,10.1.1.5,28,0.040,0.040,0.040,0.000,0.000,0.000
1644362211531270912,2022-02-08-23:16:51,10.1.1.5,27,0.050,0.050,0.050,0.000,0.000,0.000
1644362211631814912,2022-02-08-23:16:51,10.1.1.5,27,0.060,0.060,0.060,0.000,0.000,0.000
1644362211731138048,2022-02-08-23:16:51,10.1.1.5,27,0.070,0.070,0.070,0.000,0.000,0.000
1644362211830225920,2022-02-08-23:16:51,10.1.1.5,26,0.080,0.080,0.080,0.000,0.000,0.000
1644362211930352896,2022-02-08-23:16:51,10.1.1.5,26,0.090,0.090,0.090,0.000,0.000,0.000
1644362212111367936,2022-02-08-23:16:52,10.1.1.5,4,0.090,0.090,0.090,0.000,0.000,0.000
1644362213049652992,2022-02-08-23:16:53,10.1.1.5,39,-0.000,-0.000,-0.000,0.000,0.000,0.000
1644362213150959872,2022-02-08-23:16:53,10.1.1.5,39,-0.010,-0.010,-0.010,0.000,0.000,0.000
1644362213249650944,2022-02-08-23:16:53,10.1.1.5,37,-0.020,-0.020,-0.020,0.000,0.000,0.000
1644362213350840064,2022-02-08-23:16:53,10.1.1.5,36,-0.030,-0.030,-0.030,0.000,0.000,0.000
1644362213450675968,2022-02-08-23:16:53,10.1.1.5,35,-0.040,-0.040,-0.040,0.000,0.000,0.000
1644362214249715200,2022-02-08-23:16:54,10.1.1.5,29,-0.080,-0.080,-0.080,0.000,0.000,0.000
1644362214349654016,2022-02-08-23:16:54,10.1.1.5,29,-0.070,-0.070,-0.070,0.000,0.000,0.000
1644362214450129152,2022-02-08-23:16:54,10.1.1.5,29,-0.060,-0.060,-0.060,0.000,0.000,0.000
1644362214550311936,2022-02-08-23:16:54,10.1.1.5,28,-0.050,-0.050,-0.050,0.000,0.000,0.000
1644362214650036224,2022-02-08-23:16:54,10.1.1.5,27,-0.040,-0.040,-0.040,0.000,0.000,0.000
1644362214749882880,2022-02-08-23:16:54,10.1.1.5,26,-0.030,-0.030,-0.030,0.000,0.000,0.000
1644362214850312960,2022-02-08-23:16:54,10.1.1.5,25,-0.020,-0.020,-0.020,0.000,0.000,0.000
1644362214949394944,2022-02-08-23:16:54,10.1.1.5,25,-0.010,-0.010,-0.010,0.000,0.000,0.000
1644362215049850880,2022-02-08-23:16:55,10.1.1.5,25,0.000,0.000,0.000,0.000,0.000,0.000
1644362215970347776,2022-02-08-23:16:55,10.1.1.5,38,0.090,0.090,0.090,0.000,0.000,0.000
1644362216071419904,2022-02-08-23:16:56,10.1.1.5,38,0.100,0.100,0.100,0.000,0.000,0.000
1644362216169543936,2022-02-08-23:16:56,10.1.1.5,37,0.090,0.090,0.090,0.000,0.000,0.000
1644362216270361856,2022-02-08-23:16:56,10.1.1.5,37,0.080,0.080,0.080,0.000,0.000,0.000
1644362216369585152,2022-02-08-23:16:56,10.1.1.5,36,0.070,0.070,0.070,0.000,0.000,0.000
1644362216469559808,2022-02-08-23:16:56,10.1.1.5,35,0.060,0.060,0.060,0.000,0.000,0.000
1644362216569506816,2022-02-08-23:16:56,10.1.1.5,35,0.050,0.050,0.050,0.000,0.000,0.000
1644362217569769984,2022-02-08-23:16:57,10.1.1.5,29,-0.050,-0.050,-0.050,0.000,0.000,0.000
1644362217670754816,2022-02-08-23:16:57,10.1.1.5,28,-0.060,-0.060,-0.060,0.000,0.000,0.000
1644362217769465856,2022-02-08-23:16:57,10.1.1.5,27,-0.070,-0.070,-0.070,0.000,0.000,0.000
1644362217869598976,2022-02-08-23:16:57,10.1.1.5,26,-0.080,-0.080,-0.080,0.000,0.000,0.000
1644362217969953024,2022-02-08-23:16:57,10.1.1.5,26,-0.090,-0.090,-0.090,0.000,0.000,0.000
1644362218070596864,2022-02-08-23:16:58,10.1.1.5,25,-0.100,-0.100,-0.100,0.000,0.000,0.000
1644362218169538048,2022-02-08-23:16:58,10.1.1.5,24,-0.090,-0.090,-0.090,0.000,0.000,0.000
1644362218989635840,2022-02-08-23:16:58,10.1.1.5,38,-0.010,-0.010,-0.010,0.000,0.000,0.000
1644362219089942016,2022-02-08-23:16:59,10.1.1.5,38,0.000,0.000,0.000,0.000,0.000,0.000
1644362219189867008,2022-02-08-23:16:59,10.1.1.5,37,0.010,0.010,0.010,0.000,0.000,0.000
1644362219289735936,2022-02-08-23:16:59,10.1.1.5,37,0.020,0.020,0.020,0.000,0.000,0.000
1644362219390149120,2022-02-08-23:16:59,10.1.1.5,36,0.030,0.030,0.030,0.000,0.000,0.000
1644362219490627072,2022-02-08-23:16:59,10.1.1.5,36,0.040,0.040,0.040,0.000,0.000,0.000
1644362219589797888,2022-02-08-23:16:59,10.1.1.5,35,0.050,0.050,0.050,0.000,0.000,0.000
1644362219689698048,2022-02-08-23:16:59,10.1.1.5,35,0.060,0.060,0.060,0.000,0.000,0.000
1644362219790062848,2022-02-08-23:16:59,10.1.1.5,34,0.070,0.070,0.070,0.000,0.000,0.000
1644362220369849088,2022-02-08-23:17:00,10.1.1.5,9,0.070,0.070,0.070,0.000,0.000,0.000
1644362220490676992,2022-02-08-23:17:00,10.1.1.5,29,0.060,0.060,0.060,0.000,0.000,0.000
1644362220590200832,2022-02-08-23:17:00,10.1.1.5,28,0.050,0.050,0.050,0.000,0.000,0.000
1644362220690113024,2022-02-08-23:17:00,10.1.1.5,28,0.040,0.040,0.040,0.000,0.000,0.000
1644362220790664960,2022-02-08-23:17:00,10.1.1.5,27,0.030,0.030,0.030,0.000,0.000,0.000
1644362220890466816,2022-02-08-23:17:00,10.1.1.5,26,0.020,0.020,0.020,0.000,0.000,0.000
1644362220990112000,2022-02-08-23:17:00,10.1.1.5,25,0.010,0.010,0.010,0.000,0.000,0.000
1644362221090679808,2022-02-08-23:17:01,10.1.1.5,25,0.000,0.000,0.000,0.000,0.000,0.000
1644362221809603072,2022-02-08-23:17:01,10.1.1.5,39,-0.070,-0.070,-0.070,0.000,0.000,0.000
1644362221910428160,2022-02-08-23:17:01,10.1.1.5,39,-0.080,-0.080,-0.080,0.000,0.000,0.000
1644362222010605056,2022-02-08-23:17:02,10.1.1.5,38,-0.090,-0.090,-0.090,0.000,0.000,0.000
1644362222110194944,2022-02-08-23:17:02,10.1.1.5,38,-0.100,-0.100,-0.100,0.000,0.000,0.000
1644362222210372864,2022-02-08-23:17:02,10.1.1.5,38,-0.090,-0.090,-0.090,0.000,0.000,0.000
1644362222309801984,2022-02-08-23:17:02,10.1.1.5,37,-0.080,-0.080,-0.080,0.000,0.000,0.000
1644362222410744064,2022-02-08-23:17:02,10.1.1.5,36,-0.070,-0.070,-0.070,0.000,0.000,0.000
1644362222510062848,2022-02-08-23:17:02,10.1.1.5,36,-0.060,-0.060,-0.060,0.000,0.000,0.000
1644362222609894912,2022-02-08-23:17:02,10.1.1.5,35,-0.050,-0.050,-0.050,0.000,0.000,0.000
1644362222710194944,2022-02-08-23:17:02,10.1.1.5,35,-0.040,-0.040,-0.040,0.000,0.000,0.000
1644362222810492928,2022-02-08-23:17:02,10.1.1.5,34,-0.030,-0.030,-0.030,0.000,0.000,0.000
1644362223710621184,2022-02-08-23:17:03,10.1.1.5,29,0.060,0.060,0.060,0.000,0.000,0.000
1644362223810105088,2022-02-08-23:17:03,10.1.1.5,28,0.070,0.070,0.070,0.000,0.000,0.000
1644362223909760000,2022-02-08-23:17:03,10.1.1.5,27,0.080,0.080,0.080,0.000,0.000,0.000
1644362224009946112,2022-02-08-23:17:04,10.1.1.5,26,0.090,0.090,0.090,0.000,0.000,0.000
1644362224110157056,2022-02-08-23:17:04,10.1.1.5,25,0.100,0.100,0.100,0.000,0.000,0.000
1644362224930211072,2022-02-08-23:17:04,10.1.1.5,39,0.020,0.020,0.020,0.000,0.000,0.000
1644362225030871040,2022-02-08-23:17:05,10.1.1.5,39,0.010,0.010,0.010,0.000,0.000,0.000
1644362225130691072,2022-02-08-23:17:05,10.1.1.5,38,0.000,0.000,0.000,0.000,0.000,0.000
1644362225230680832,2022-02-08-23:17:05,10.1.1.5,38,-0.010,-0.010,-0.010,0.000,0.000,0.000
1644362225331201024,2022-02-08-23:17:05,10.1.1.5,37,-0.020,-0.020,-0.020,0.000,0.000,0.000
1644362225430994944,2022-02-08-23:17:05,10.1.1.5,37,-0.030,-0.030,-0.030,0.000,0.000,0.000
1644362225530119936,2022-02-08-23:17:05,10.1.1.5,36,-0.040,-0.040,-0.040,0.000,0.000,0.000
1644362225633619968,2022-02-08-23:17:05,10.1.1.5,35,-0.050,-0.050,-0.050,0.000,0.000,0.000
1644362225730368000,2022-02-08-23:17:05,10.1.1.5,35,-0.060,-0.060,-0.060,0.000,0.000,0.000
1644362225829575936,2022-02-08-23:17:05,10.1.1.5,34,-0.070,-0.070,-0.070,0.000,0.000,0.000
1644362226410883840,2022-02-08-23:17:06,10.1.1.5,12,-0.070,-0.070,-0.070,0.000,0.000,0.000
1644362226930198784,2022-02-08-23:17:06,10.1.1.5,29,-0.020,-0.020,-0.020,0.000,0.000,0.000
1644362227030742016,2022-02-08-23:17:07,10.1.1.5,28,-0.010,-0.010,-0.010,0.000,0.000,0.000
1644362227129739008,2022-02-08-23:17:07,10.1.1.5,28,0.000,0.000,0.000,0.000,0.000,0.000
1644362227230830848,2022-02-08-23:17:07,10.1.1.5,27,0.010,0.010,0.010,0.000,0.000,0.000
1644362227329350912,2022-02-08-23:17:07,10.1.1.5,26,0.020,0.020,0.020,0.000,0.000,0.000
1644362227430480128,2022-02-08-23:17:07,10.1.1.5,26,0.030,0.030,0.030,0.000,0.000,0.000
1644362227530653952,2022-02-08-23:17:07,10.1.1.5,25,0.040,0.040,0.040,0.000,0.000,0.000
1644362227630414080,2022-02-08-23:17:07,10.1.1.5,25,0.050,0.050,0.050,0.000,0.000,0.000
1644362228551186176,2022-02-08-23:17:08,10.1.1.5,39,0.060,0.060,0.060,0.000,0.000,0.000
1644362228649769984,2022-02-08-23:17:08,10.1.1.5,39,0.050,0.050,0.050,0.000,0.000,0.000
1644362228750190848,2022-02-08-23:17:08,10.1.1.5,38,0.040,0.040,0.040,0.000,0.000,0.000
1644362228850408960,2022-02-08-23:17:08,10.1.1.5,38,0.030,0.030,0.030,0.000,0.000,0.000
1644362228950009088,2022-02-08-23:17:08,10.1.1.5,37,0.020,0.020,0.020,0.000,0.000,0.000
1644362229050176000,2022-02-08-23:17:09,10.1.1.5,37,0.010,0.010,0.010,0.000,0.000,0.000
1644362229150897920,2022-02-08-23:17:09,10.1.1.5,37,0.000,0.000,0.000,0.000,0.000,0.000
1644362229250468864,2022-02-08-23:17:09,10.1.1.5,36,-0.010,-0.010,-0.010,0.000,0.000,0.000
1644362229350425088,2022-02-08-23:17:09,10.1.1.5,36,-0.020,-0.020,-0.020,0.000,0.000,0.000
1644362229449729024,2022-02-08-23:17:09,10.1.1.5,35,-0.030,-0.030,-0.030,0.000,0.000,0.000
1644362229550262016,2022-02-08-23:17:09,10.1.1.5,35,-0.040,-0.040,-0.040,0.000,0.000,0.000
1644362229649914112,2022-02-08-23:17:09,10.1.1.5,34,-0.050,-0.050,-0.050,0.000,0.000,0.000
1644362230630127872,2022-02-08-23:17:10,10.1.1.5,9,-0.050,-0.050,-0.050,0.000,0.000,0.000
1644362230749897984,2022-02-08-23:17:10,10.1.1.5,29,-0.040,-0.040,-0.040,0.000,0.000,0.000
1644362230850405888,2022-02-08-23:17:10,10.1.1.5,28,-0.030,-0.030,-0.030,0.000,0.000,0.000
1644362230950402048,2022-02-08-23:17:10,10.1.1.5,28,-0.020,-0.020,-0.020,0.000,0.000,0.000
1644362231150206208,2022-02-08-23:17:11,10.1.1.5,26,0.000,0.000,0.000,0.000,0.000,0.000
1644362231250264832,2022-02-08-23:17:11,10.1.1.5,25,0.010,0.010,0.010,0.000,0.000,0.000
1644362231350670080,2022-02-08-23:17:11,10.1.1.5,25,0.020,0.020,0.020,0.000,0.000,0.000
1644362231550600960,2022-02-08-23:17:11,10.1.1.5,24,0.040,0.040,0.040,0.000,0.000,0.000
1644362232570300160,2022-02-08-23:17:12,10.1.1.5,38,0.060,0.060,0.060,0.000,0.000,0.000
1644362232670317824,2022-02-08-23:17:12,10.1.1.5,38,0.050,0.050,0.050,0.000,0.000,0.000
1644362232770433024,2022-02-08-23:17:12,10.1.1.5,37,0.040,0.040,0.040,0.000,0.000,0.000
1644362232870553856,2022-02-08-23:17:12,10.1.1.5,37,0.030,0.030,0.030,0.000,0.000,0.000
1644362232970583808,2022-02-08-23:17:12,10.1.1.5,37,0.020,0.020,0.020,0.000,0.000,0.000
1644362233070748928,2022-02-08-23:17:13,10.1.1.5,36,0.010,0.010,0.010,0.000,0.000,0.000
1644362233170563072,2022-02-08-23:17:13,10.1.1.5,36,0.000,0.000,0.000,0.000,0.000,0.000
1644362233270329088,2022-02-08-23:17:13,10.1.1.5,35,-0.010,-0.010,-0.010,0.000,0.000,0.000
1644362233374274048,2022-02-08-23:17:13,10.1.1.5,39,-0.020,-0.020,-0.020,0.000,0.000,0.000
1644362233470600960,2022-02-08-23:17:13,10.1.1.5,34,-0.030,-0.030,-0.030,0.000,0.000,0.000
1644362233569858048,2022-02-08-23:17:13,10.1.1.5,34,-0.040,-0.040,-0.040,0.000,0.000,0.000
1644362234191198976,2022-02-08-23:17:14,10.1.1.5,39,-0.100,-0.100,-0.100,0.000,0.000,0.000
1644362234290321152,2022-02-08-23:17:14,10.1.1.5,39,-0.090,-0.090,-0.090,0.000,0.000,0.000
1644362234390440960,2022-02-08-23:17:14,10.1.1.5,38,-0.080,-0.080,-0.080,0.000,0.000,0.000
1644362234490448896,2022-02-08-23:17:14,10.1.1.5,38,-0.070,-0.070,-0.070,0.000,0.000,0.000
1644362234590783232,2022-02-08-23:17:14,10.1.1.5,37,-0.060,-0.060,-0.060,0.000,0.000,0.000
1644362234690476800,2022-02-08-23:17:14,10.1.1.5,37,-0.050,-0.050,-0.050,0.000,0.000,0.000
1644362234790337024,2022-02-08-23:17:14,10.1.1.5,36,-0.040,-0.040,-0.040,0.000,0.000,0.000
1644362234891052032,2022-02-08-23:17:14,10.1.1.5,36,-0.030,-0.030,-0.030,0.000,0.000,0.000
1644362234990243840,2022-02-08-23:17:14,10.1.1.5,35,-0.020,-0.020,-0.020,0.000,0.000,0.000
1644362235090667008,2022-02-08-23:17:15,10.1.1.5,34,-0.010,-0.010,-0.010,0.000,0.000,0.000
1644362235191193088,2022-02-08-23:17:15,10.1.1.5,34,0.000,0.000,0.000,0.000,0.000,0.000
1644362236090283008,2022-02-08-23:17:16,10.1.1.5,29,0.090,0.090,0.090,0.000,0.000,0.000
1644362236190550016,2022-02-08-23:17:16,10.1.1.5,29,0.100,0.100,0.100,0.000,0.000,0.000
1644362236290519040,2022-02-08-23:17:16,10.1.1.5,28,0.090,0.090,0.090,0.000,0.000,0.000
1644362236398371840,2022-02-08-23:17:16,10.1.1.5,27,0.080,0.080,0.080,0.000,0.000,0.000
1644362236490622976,2022-02-08-23:17:16,10.1.1.5,27,0.070,0.070,0.070,0.000,0.000,0.000
1644362236590042112,2022-02-08-23:17:16,10.1.1.5,26,0.060,0.060,0.060,0.000,0.000,0.000
1644362236690407936,2022-02-08-23:17:16,10.1.1.5,26,0.050,0.050,0.050,0.000,0.000,0.000
1644362236791215872,2022-02-08-23:17:16,10.1.1.5,25,0.040,0.040,0.040,0.000,0.000,0.000
1644362236890671872,2022-02-08-23:17:16,10.1.1.5,25,0.030,0.030,0.030,0.000,0.000,0.000
1644362236990274048,2022-02-08-23:17:16,10.1.1.5,24,0.020,0.020,0.020,0.000,0.000,0.000
1644362237091185152,2022-02-08-23:17:17,10.1.1.5,24,0.010,0.010,0.010,0.000,0.000,0.000
1644362237190566144,2022-02-08-23:17:17,10.1.1.5,24,0.000,0.000,0.000,0.000,0.000,0.000
1644362238010637056,2022-02-08-23:17:18,10.1.1.5,29,-0.080,-0.080,-0.080,0.000,0.000,0.000
1644362238111218944,2022-02-08-23:17:18,10.1.1.5,29,-0.090,-0.090,-0.090,0.000,0.000,0.000
1644362238210308096,2022-02-08-23:17:18,10.1.1.5,29,-0.100,-0.100,-0.100,0.000,0.000,0.000
1644362238310429184,2022-02-08-23:17:18,10.1.1.5,28,-0.090,-0.090,-0.090,0.000,0.000,0.000
1644362238410391040,2022-02-08-23:17:18,10.1.1.5,28,-0.080,-0.080,-0.080,0.000,0.000,0.000
1644362238511759872,2022-02-08-23:17:18,10.1.1.5,27,-0.070,-0.070,-0.070,0.000,0.000,0.000
1644362238611286016,2022-02-08-23:17:18,10.1.1.5,26,-0.060,-0.060,-0.060,0.000,0.000,0.000
1644362238711046912,2022-02-08-23:17:18,10.1.1.5,25,-0.050,-0.050,-0.050,0.000,0.000,0.000
1644362238811073024,2022-02-08-23:17:18,10.1.1.5,25,-0.040,-0.040,-0.040,0.000,0.000,0.000
1644362238910761216,2022-02-08-23:17:18,10.1.1.5,25,-0.030,-0.030,-0.030,0.000,0.000,0.000
1644362239731163904,2022-02-08-23:17:19,10.1.1.5,39,0.050,0.050,0.050,0.000,0.000,0.000
1644362239830490112,2022-02-08-23:17:19,10.1.1.5,38,0.060,0.060,0.060,0.000,0.000,0.000
1644362239930022912,2022-02-08-23:17:19,10.1.1.5,38,0.070,0.070,0.070,0.000,0.000,0.000
1644362240030498048,2022-02-08-23:17:20,10.1.1.5,38,0.080,0.080,0.080,0.000,0.000,0.000
1644362240130814976,2022-02-08-23:17:20,10.1.1.5,37,0.090,0.090,0.090,0.000,0.000,0.000
1644362240231270144,2022-02-08-23:17:20,10.1.1.5,37,0.100,0.100,0.100,0.000,0.000,0.000
1644362240331009024,2022-02-08-23:17:20,10.1.1.5,37,0.090,0.090,0.090,0.000,0.000,0.000
1644362240431312128,2022-02-08-23:17:20,10.1.1.5,36,0.080,0.080,0.080,0.000,0.000,0.000
1644362240530662912,2022-02-08-23:17:20,10.1.1.5,35,0.070,0.070,0.070,0.000,0.000,0.000
1644362240631572992,2022-02-08-23:17:20,10.1.1.5,35,0.060,0.060,0.060,0.000,0.000,0.000
1644362240731241984,2022-02-08-23:17:20,10.1.1.5,35,0.050,0.050,0.050,0.000,0.000,0.000
1644362240831884032,2022-02-08-23:17:20,10.1.1.5,34,0.040,0.040,0.040,0.000,0.000,0.000
1644362241130426880,2022-02-08-23:17:21,10.1.1.5,28,0.010,0.010,0.010,0.000,0.000,0.000
1644362241230834944,2022-02-08-23:17:21,10.1.1.5,28,0.000,0.000,0.000,0.000,0.000,0.000
1644362241330796032,2022-02-08-23:17:21,10.1.1.5,27,-0.010,-0.010,-0.010,0.000,0.000,0.000
1644362241430560000,2022-02-08-23:17:21,10.1.1.5,27,-0.020,-0.020,-0.020,0.000,0.000,0.000
1644362241531193856,2022-02-08-23:17:21,10.1.1.5,26,-0.030,-0.030,-0.030,0.000,0.000,0.000
1644362241630928896,2022-02-08-23:17:21,10.1.1.5,24,-0.040,-0.040,-0.040,0.000,0.000,0.000
1644362242030353152,2022-02-08-23:17:22,10.1.1.5,19,-0.079,-0.079,-0.079,0.000,0.000,0.000
1644362242150721024,2022-02-08-23:17:22,10.1.1.5,39,-0.090,-0.090,-0.090,0.000,0.000,0.000
1644362242250915072,2022-02-08-23:17:22,10.1.1.5,39,-0.100,-0.100,-0.100,0.000,0.000,0.000
1644362242350838784,2022-02-08-23:17:22,10.1.1.5,37,-0.090,-0.090,-0.090,0.000,0.000,0.000
1644362242450797056,2022-02-08-23:17:22,10.1.1.5,37,-0.080,-0.080,-0.080,0.000,0.000,0.000
1644362242551870976,2022-02-08-23:17:22,10.1.1.5,36,-0.070,-0.070,-0.070,0.000,0.000,0.000
1644362242650779904,2022-02-08-23:17:22,10.1.1.5,35,-0.060,-0.060,-0.060,0.000,0.000,0.000
1644362242752032000,2022-02-08-23:17:22,10.1.1.5,34,-0.050,-0.050,-0.050,0.000,0.000,0.000
1644362243250361856,2022-02-08-23:17:23,10.1.1.5,29,0.000,0.000,0.000,0.000,0.000,0.000
1644362243351440896,2022-02-08-23:17:23,10.1.1.5,29,0.010,0.010,0.010,0.000,0.000,0.000
1644362243450771200,2022-02-08-23:17:23,10.1.1.5,28,0.020,0.020,0.020,0.000,0.000,0.000
1644362243551198976,2022-02-08-23:17:23,10.1.1.5,28,0.030,0.030,0.030,0.000,0.000,0.000
1644362243651479040,2022-02-08-23:17:23,10.1.1.5,28,0.040,0.040,0.040,0.000,0.000,0.000
1644362243751442944,2022-02-08-23:17:23,10.1.1.5,27,0.050,0.050,0.050,0.000,0.000,0.000
1644362243855384064,2022-02-08-23:17:23,10.1.1.5,27,0.060,0.060,0.060,0.000,0.000,0.000
1644362243951148032,2022-02-08-23:17:23,10.1.1.5,27,0.070,0.070,0.070,0.000,0.000,0.000
1644362244050651136,2022-02-08-23:17:24,10.1.1.5,26,0.080,0.080,0.080,0.000,0.000,0.000
1644362244151169024,2022-02-08-23:17:24,10.1.1.5,25,0.090,0.090,0.090,0.000,0.000,0.000
1644362244331411968,2022-02-08-23:17:24,10.1.1.5,3,0.090,0.090,0.090,0.000,0.000,0.000
1644362244551035904,2022-02-08-23:17:24,10.1.1.5,23,0.070,0.070,0.070,0.000,0.000,0.000
1644362245151065088,2022-02-08-23:17:25,10.1.1.5,20,0.010,0.010,0.010,0.000,0.000,0.000
1644362245331422976,2022-02-08-23:17:25,10.1.1.5,39,0.000,0.000,0.000,0.000,0.000,0.000
1644362245470616064,2022-02-08-23:17:25,10.1.1.5,36,-0.020,-0.020,-0.020,0.000,0.000,0.000
1644362245570502144,2022-02-08-23:17:25,10.1.1.5,36,-0.030,-0.030,-0.030,0.000,0.000,0.000
1644362245670723840,2022-02-08-23:17:25,10.1.1.5,35,-0.040,-0.040,-0.040,0.000,0.000,0.000
1644362245770638848,2022-02-08-23:17:25,10.1.1.5,34,-0.050,-0.050,-0.050,0.000,0.000,0.000
1644362245871188992,2022-02-08-23:17:25,10.1.1.5,33,-0.060,-0.060,-0.060,0.000,0.000,0.000
1644362246471496192,2022-02-08-23:17:26,10.1.1.5,29,-0.080,-0.080,-0.080,0.000,0.000,0.000
1644362246571520000,2022-02-08-23:17:26,10.1.1.5,28,-0.070,-0.070,-0.070,0.000,0.000,0.000
1644362246671622144,2022-02-08-23:17:26,10.1.1.5,27,-0.060,-0.060,-0.060,0.000,0.000,0.000
1644362246771401984,2022-02-08-23:17:26,10.1.1.5,26,-0.050,-0.050,-0.050,0.000,0.000,0.000
1644362246871774976,2022-02-08-23:17:26,10.1.1.5,25,-0.040,-0.040,-0.040,0.000,0.000,0.000
1644362246972229888,2022-02-08-23:17:26,10.1.1.5,25,-0.030,-0.030,-0.030,0.000,0.000,0.000
1644362247072864000,2022-02-08-23:17:27,10.1.1.5,24,-0.020,-0.020,-0.020,0.000,0.000,0.000
1644362247271153920,2022-02-08-23:17:27,10.1.1.5,23,0.000,0.000,0.000,0.000,0.000,0.000
1644362247891419904,2022-02-08-23:17:27,10.1.1.5,39,0.060,0.060,0.060,0.000,0.000,0.000
1644362247991662080,2022-02-08-23:17:27,10.1.1.5,37,0.070,0.070,0.070,0.000,0.000,0.000
1644362248091154944,2022-02-08-23:17:28,10.1.1.5,36,0.080,0.080,0.080,0.000,0.000,0.000
1644362248192018944,2022-02-08-23:17:28,10.1.1.5,35,0.090,0.090,0.090,0.000,0.000,0.000
1644362248291032064,2022-02-08-23:17:28,10.1.1.5,34,0.100,0.100,0.100,0.000,0.000,0.000
1644362248692476160,2022-02-08-23:17:28,10.1.1.5,31,0.060,0.060,0.060,0.000,0.000,0.000
1644362248891379200,2022-02-08-23:17:28,10.1.1.5,29,0.040,0.040,0.040,0.000,0.000,0.000
1644362248991719936,2022-02-08-23:17:28,10.1.1.5,28,0.030,0.030,0.030,0.000,0.000,0.000
1644362249091744000,2022-02-08-23:17:29,10.1.1.5,28,0.020,0.020,0.020,0.000,0.000,0.000
1644362249191403008,2022-02-08-23:17:29,10.1.1.5,27,0.010,0.010,0.010,0.000,0.000,0.000
1644362249291091968,2022-02-08-23:17:29,10.1.1.5,26,0.000,0.000,0.000,0.000,0.000,0.000
1644362249391955968,2022-02-08-23:17:29,10.1.1.5,25,-0.010,-0.010,-0.010,0.000,0.000,0.000
1644362249491211776,2022-02-08-23:17:29,10.1.1.5,25,-0.020,-0.020,-0.020,0.000,0.000,0.000
1644362249592678144,2022-02-08-23:17:29,10.1.1.5,24,-0.030,-0.030,-0.030,0.000,0.000,0.000
1644362249691559168,2022-02-08-23:17:29,10.1.1.5,23,-0.040,-0.040,-0.040,0.000,0.000,0.000
1644362250111320064,2022-02-08-23:17:30,10.1.1.5,39,-0.080,-0.080,-0.080,0.000,0.000,0.000
1644362250211073024,2022-02-08-23:17:30,10.1.1.5,38,-0.090,-0.090,-0.090,0.000,0.000,0.000
1644362250311613952,2022-02-08-23:17:30,10.1.1.5,38,-0.100,-0.100,-0.100,0.000,0.000,0.000
1644362250412645120,2022-02-08-23:17:30,10.1.1.5,36,-0.090,-0.090,-0.090,0.000,0.000,0.000
1644362250511176960,2022-02-08-23:17:30,10.1.1.5,36,-0.080,-0.080,-0.080,0.000,0.000,0.000
1644362250611361024,2022-02-08-23:17:30,10.1.1.5,35,-0.070,-0.070,-0.070,0.000,0.000,0.000
1644362250711366912,2022-02-08-23:17:30,10.1.1.5,34,-0.060,-0.060,-0.060,0.000,0.000,0.000
1644362250811428096,2022-02-08-23:17:30,10.1.1.5,34,-0.050,-0.050,-0.050,0.000,0.000,0.000
1644362250911963904,2022-02-08-23:17:30,10.1.1.5,33,-0.040,-0.040,-0.040,0.000,0.000,0.000
1644362251512100864,2022-02-08-23:17:31,10.1.1.5,29,0.020,0.020,0.020,0.000,0.000,0.000
1644362251611702016,2022-02-08-23:17:31,10.1.1.5,28,0.030,0.030,0.030,0.000,0.000,0.000
1644362251711200000,2022-02-08-23:17:31,10.1.1.5,27,0.040,0.040,0.040,0.000,0.000,0.000
1644362251810953984,2022-02-08-23:17:31,10.1.1.5,26,0.050,0.050,0.050,0.000,0.000,0.000
1644362251912313088,2022-02-08-23:17:31,10.1.1.5,25,0.060,0.060,0.060,0.000,0.000,0.000
1644362252011197184,2022-02-08-23:17:32,10.1.1.5,24,0.070,0.070,0.070,0.000,0.000,0.000
1644362252111130112,2022-02-08-23:17:32,10.1.1.5,23,0.080,0.080,0.080,0.000,0.000,0.000
1644362252512025088,2022-02-08-23:17:32,10.1.1.5,19,0.080,0.080,0.080,0.000,0.000,0.000
1644362252631136768,2022-02-08-23:17:32,10.1.1.5,38,0.070,0.070,0.070,0.000,0.000,0.000
1644362252732353024,2022-02-08-23:17:32,10.1.1.5,36,0.060,0.060,0.060,0.000,0.000,0.000
1644362252831193088,2022-02-08-23:17:32,10.1.1.5,36,0.050,0.050,0.050,0.000,0.000,0.000
1644362252931802880,2022-02-08-23:17:32,10.1.1.5,35,0.040,0.040,0.040,0.000,0.000,0.000
1644362253031954176,2022-02-08-23:17:33,10.1.1.5,34,0.030,0.030,0.030,0.000,0.000,0.000
1644362253131331072,2022-02-08-23:17:33,10.1.1.5,33,0.020,0.020,0.020,0.000,0.000,0.000
1644362253231538944,2022-02-08-23:17:33,10.1.1.5,33,0.010,0.010,0.010,0.000,0.000,0.000
1644362253831603968,2022-02-08-23:17:33,10.1.1.5,29,-0.050,-0.050,-0.050,0.000,0.000,0.000
1644362253936439040,2022-02-08-23:17:33,10.1.1.5,31,-0.060,-0.060,-0.060,0.000,0.000,0.000
1644362254031766784,2022-02-08-23:17:34,10.1.1.5,27,-0.070,-0.070,-0.070,0.000,0.000,0.000
1644362254131438080,2022-02-08-23:17:34,10.1.1.5,26,-0.080,-0.080,-0.080,0.000,0.000,0.000
1644362254231565056,2022-02-08-23:17:34,10.1.1.5,25,-0.090,-0.090,-0.090,0.000,0.000,0.000
1644362254412369920,2022-02-08-23:17:34,10.1.1.5,1,-0.090,-0.090,-0.090,0.000,0.000,0.000
1644362254651726080,2022-02-08-23:17:34,10.1.1.5,38,-0.070,-0.070,-0.070,0.000,0.000,0.000
1644362254751489024,2022-02-08-23:17:34,10.1.1.5,37,-0.060,-0.060,-0.060,0.000,0.000,0.000
1644362254851403008,2022-02-08-23:17:34,10.1.1.5,37,-0.050,-0.050,-0.050,0.000,0.000,0.000
1644362254952092928,2022-02-08-23:17:34,10.1.1.5,36,-0.040,-0.040,-0.040,0.000,0.000,0.000
1644362255051671040,2022-02-08-23:17:35,10.1.1.5,36,-0.030,-0.030,-0.030,0.000,0.000,0.000
1644362255151393024,2022-02-08-23:17:35,10.1.1.5,35,-0.020,-0.020,-0.020,0.000,0.000,0.000
1644362255250958080,2022-02-08-23:17:35,10.1.1.5,34,-0.010,-0.010,-0.010,0.000,0.000,0.000
1644362255352339968,2022-02-08-23:17:35,10.1.1.5,33,0.000,0.000,0.000,0.000,0.000,0.000
1644362255851874048,2022-02-08-23:17:35,10.1.1.5,29,0.050,0.050,0.050,0.000,0.000,0.000
1644362255951726848,2022-02-08-23:17:35,10.1.1.5,28,0.060,0.060,0.060,0.000,0.000,0.000
1644362256051603968,2022-02-08-23:17:36,10.1.1.5,28,0.070,0.070,0.070,0.000,0.000,0.000
1644362256151587072,2022-02-08-23:17:36,10.1.1.5,27,0.080,0.080,0.080,0.000,0.000,0.000
1644362256251586048,2022-02-08-23:17:36,10.1.1.5,26,0.090,0.090,0.090,0.000,0.000,0.000
1644362256350758144,2022-02-08-23:17:36,10.1.1.5,25,0.100,0.100,0.100,0.000,0.000,0.000
1644362256452254976,2022-02-08-23:17:36,10.1.1.5,24,0.090,0.090,0.090,0.000,0.000,0.000
1644362256551750912,2022-02-08-23:17:36,10.1.1.5,24,0.080,0.080,0.080,0.000,0.000,0.000
1644362256651181056,2022-02-08-23:17:36,10.1.1.5,23,0.070,0.070,0.070,0.000,0.000,0.000
1644362256871105792,2022-02-08-23:17:36,10.1.1.5,39,0.050,0.050,0.050,0.000,0.000,0.000
1644362256971493120,2022-02-08-23:17:36,10.1.1.5,38,0.040,0.040,0.040,0.000,0.000,0.000
1644362257072228864,2022-02-08-23:17:37,10.1.1.5,38,0.030,0.030,0.030,0.000,0.000,0.000
1644362257171572992,2022-02-08-23:17:37,10.1.1.5,36,0.020,0.020,0.020,0.000,0.000,0.000
1644362257270935040,2022-02-08-23:17:37,10.1.1.5,35,0.010,0.010,0.010,0.000,0.000,0.000
1644362257383897088,2022-02-08-23:17:37,10.1.1.5,34,0.000,0.000,0.000,0.000,0.000,0.000
1644362257892667136,2022-02-08-23:17:37,10.1.1.5,39,-0.050,-0.050,-0.050,0.000,0.000,0.000
1644362257992417024,2022-02-08-23:17:37,10.1.1.5,38,-0.060,-0.060,-0.060,0.000,0.000,0.000
1644362258092953088,2022-02-08-23:17:38,10.1.1.5,37,-0.070,-0.070,-0.070,0.000,0.000,0.000
1644362258191207936,2022-02-08-23:17:38,10.1.1.5,36,-0.080,-0.080,-0.080,0.000,0.000,0.000
1644362258291623168,2022-02-08-23:17:38,10.1.1.5,35,-0.090,-0.090,-0.090,0.000,0.000,0.000
1644362258391667968,2022-02-08-23:17:38,10.1.1.5,35,-0.100,-0.100,-0.100,0.000,0.000,0.000
1644362258491486976,2022-02-08-23:17:38,10.1.1.5,34,-0.090,-0.090,-0.090,0.000,0.000,0.000
1644362258591193856,2022-02-08-23:17:38,10.1.1.5,34,-0.080,-0.080,-0.080,0.000,0.000,0.000
1644362258691731968,2022-02-08-23:17:38,10.1.1.5,34,-0.070,-0.070,-0.070,0.000,0.000,0.000
1644362258791460864,2022-02-08-23:17:38,10.1.1.5,33,-0.060,-0.060,-0.060,0.000,0.000,0.000
1644362258891095040,2022-02-08-23:17:38,10.1.1.5,32,-0.050,-0.050,-0.050,0.000,0.000,0.000
1644362259391129088,2022-02-08-23:17:39,10.1.1.5,30,0.000,0.000,0.000,0.000,0.000,0.000
1644362259491821056,2022-02-08-23:17:39,10.1.1.5,29,0.010,0.010,0.010,0.000,0.000,0.000
1644362259591684096,2022-02-08-23:17:39,10.1.1.5,28,0.020,0.020,0.020,0.000,0.000,0.000
1644362259691298048,2022-02-08-23:17:39,10.1.1.5,28,0.030,0.030,0.030,0.000,0.000,0.000
1644362259791485952,2022-02-08-23:17:39,10.1.1.5,27,0.040,0.040,0.040,0.000,0.000,0.000
1644362259891782144,2022-02-08-23:17:39,10.1.1.5,27,0.050,0.050,0.050,0.000,0.000,0.000
1644362259991904000,2022-02-08-23:17:39,10.1.1.5,26,0.060,0.060,0.060,0.000,0.000,0.000
1644362260091314176,2022-02-08-23:17:40,10.1.1.5,26,0.070,0.070,0.070,0.000,0.000,0.000
1644362260191129856,2022-02-08-23:17:40,10.1.1.5,25,0.080,0.080,0.080,0.000,0.000,0.000
1644362260291879936,2022-02-08-23:17:40,10.1.1.5,25,0.090,0.090,0.090,0.000,0.000,0.000
1644362260391990784,2022-02-08-23:17:40,10.1.1.5,24,0.100,0.100,0.100,0.000,0.000,0.000
1644362260491770112,2022-02-08-23:17:40,10.1.1.5,24,0.090,0.090,0.090,0.000,0.000,0.000
1644362260592134912,2022-02-08-23:17:40,10.1.1.5,24,0.080,0.080,0.080,0.000,0.000,0.000
1644362260692697088,2022-02-08-23:17:40,10.1.1.5,23,0.070,0.070,0.070,0.000,0.000,0.000
1644362261091721984,2022-02-08-23:17:41,10.1.1.5,19,0.030,0.030,0.030,0.000,0.000,0.000
1644362261191601152,2022-02-08-23:17:41,10.1.1.5,19,0.020,0.020,0.020,0.000,0.000,0.000
1644362261311556096,2022-02-08-23:17:41,10.1.1.5,38,0.010,0.010,0.010,0.000,0.000,0.000
1644362261411895040,2022-02-08-23:17:41,10.1.1.5,38,0.000,0.000,0.000,0.000,0.000,0.000
1644362261512155904,2022-02-08-23:17:41,10.1.1.5,38,-0.010,-0.010,-0.010,0.000,0.000,0.000
1644362261611501056,2022-02-08-23:17:41,10.1.1.5,37,-0.020,-0.020,-0.020,0.000,0.000,0.000
1644362261711843072,2022-02-08-23:17:41,10.1.1.5,37,-0.030,-0.030,-0.030,0.000,0.000,0.000
1644362261811165952,2022-02-08-23:17:41,10.1.1.5,36,-0.040,-0.040,-0.040,0.000,0.000,0.000
1644362261912033024,2022-02-08-23:17:41,10.1.1.5,36,-0.050,-0.050,-0.050,0.000,0.000,0.000
1644362262011325952,2022-02-08-23:17:42,10.1.1.5,35,-0.060,-0.060,-0.060,0.000,0.000,0.000
1644362262111307008,2022-02-08-23:17:42,10.1.1.5,35,-0.070,-0.070,-0.070,0.000,0.000,0.000
1644362262211496192,2022-02-08-23:17:42,10.1.1.5,35,-0.080,-0.080,-0.080,0.000,0.000,0.000
1644362262311486976,2022-02-08-23:17:42,10.1.1.5,34,-0.090,-0.090,-0.090,0.000,0.000,0.000
1644362262411457024,2022-02-08-23:17:42,10.1.1.5,33,-0.100,-0.100,-0.100,0.000,0.000,0.000
1644362262512677888,2022-02-08-23:17:42,10.1.1.5,33,-0.090,-0.090,-0.090,0.000,0.000,0.000
1644362263210876928,2022-02-08-23:17:43,10.1.1.5,29,-0.020,-0.020,-0.020,0.000,0.000,0.000
1644362263311559936,2022-02-08-23:17:43,10.1.1.5,29,-0.010,-0.010,-0.010,0.000,0.000,0.000
1644362263411806976,2022-02-08-23:17:43,10.1.1.5,28,0.000,0.000,0.000,0.000,0.000,0.000
1644362263511804160,2022-02-08-23:17:43,10.1.1.5,28,0.010,0.010,0.010,0.000,0.000,0.000
1644362263611476992,2022-02-08-23:17:43,10.1.1.5,27,0.020,0.020,0.020,0.000,0.000,0.000
1644362263711962112,2022-02-08-23:17:43,10.1.1.5,27,0.030,0.030,0.030,0.000,0.000,0.000
1644362263812269824,2022-02-08-23:17:43,10.1.1.5,25,0.040,0.040,0.040,0.000,0.000,0.000
1644362263911377920,2022-02-08-23:17:43,10.1.1.5,24,0.050,0.050,0.050,0.000,0.000,0.000
1644362264011252992,2022-02-08-23:17:44,10.1.1.5,24,0.060,0.060,0.060,0.000,0.000,0.000
1644362264113138944,2022-02-08-23:17:44,10.1.1.5,25,0.070,0.070,0.070,0.000,0.000,0.000
1644362264211293952,2022-02-08-23:17:44,10.1.1.5,23,0.080,0.080,0.080,0.000,0.000,0.000
1644362264411587840,2022-02-08-23:17:44,10.1.1.5,22,0.100,0.100,0.100,0.000,0.000,0.000
1644362264831631872,2022-02-08-23:17:44,10.1.1.5,40,0.060,0.060,0.060,0.000,0.000,0.000
1644362264931653888,2022-02-08-23:17:44,10.1.1.5,39,0.050,0.050,0.050,0.000,0.000,0.000
1644362265032346880,2022-02-08-23:17:45,10.1.1.5,38,0.040,0.040,0.040,0.000,0.000,0.000
1644362265131835904,2022-02-08-23:17:45,10.1.1.5,37,0.030,0.030,0.030,0.000,0.000,0.000
1644362265231954176,2022-02-08-23:17:45,10.1.1.5,37,0.020,0.020,0.020,0.000,0.000,0.000
1644362265331620864,2022-02-08-23:17:45,10.1.1.5,36,0.010,0.010,0.010,0.000,0.000,0.000
1644362265432176128,2022-02-08-23:17:45,10.1.1.5,35,0.000,0.000,0.000,0.000,0.000,0.000
1644362265531027968,2022-02-08-23:17:45,10.1.1.5,35,-0.010,-0.010,-0.010,0.000,0.000,0.000
1644362265632133888,2022-02-08-23:17:45,10.1.1.5,35,-0.020,-0.020,-0.020,0.000,0.000,0.000
1644362265731784192,2022-02-08-23:17:45,10.1.1.5,34,-0.030,-0.030,-0.030,0.000,0.000,0.000
1644362265831869952,2022-02-08-23:17:45,10.1.1.5,33,-0.040,-0.040,-0.040,0.000,0.000,0.000
1644362266231604224,2022-02-08-23:17:46,10.1.1.5,29,-0.080,-0.080,-0.080,0.000,0.000,0.000
1644362266332134912,2022-02-08-23:17:46,10.1.1.5,29,-0.090,-0.090,-0.090,0.000,0.000,0.000
1644362266432035072,2022-02-08-23:17:46,10.1.1.5,28,-0.100,-0.100,-0.100,0.000,0.000,0.000
1644362266532058880,2022-02-08-23:17:46,10.1.1.5,28,-0.090,-0.090,-0.090,0.000,0.000,0.000
1644362266632313856,2022-02-08-23:17:46,10.1.1.5,27,-0.080,-0.080,-0.080,0.000,0.000,0.000
1644362266731887104,2022-02-08-23:17:46,10.1.1.5,27,-0.070,-0.070,-0.070,0.000,0.000,0.000
1644362266831795968,2022-02-08-23:17:46,10.1.1.5,27,-0.060,-0.060,-0.060,0.000,0.000,0.000
1644362266931951872,2022-02-08-23:17:46,10.1.1.5,26,-0.050,-0.050,-0.050,0.000,0.000,0.000
1644362267031172864,2022-02-08-23:17:47,10.1.1.5,26,-0.040,-0.040,-0.040,0.000,0.000,0.000
1644362267131556864,2022-02-08-23:17:47,10.1.1.5,25,-0.030,-0.030,-0.030,0.000,0.000,0.000
1644362267232076800,2022-02-08-23:17:47,10.1.1.5,25,-0.020,-0.020,-0.020,0.000,0.000,0.000
1644362267331706880,2022-02-08-23:17:47,10.1.1.5,24,-0.010,-0.010,-0.010,0.000,0.000,0.000
1644362267431884032,2022-02-08-23:17:47,10.1.1.5,24,0.000,0.000,0.000,0.000,0.000,0.000
1644362267531560960,2022-02-08-23:17:47,10.1.1.5,23,0.010,0.010,0.010,0.000,0.000,0.000
1644362267631685888,2022-02-08-23:17:47,10.1.1.5,23,0.020,0.020,0.020,0.000,0.000,0.000
1644362267831554048,2022-02-08-23:17:47,10.1.1.5,22,0.040,0.040,0.040,0.000,0.000,0.000
1644362268151606016,2022-02-08-23:17:48,10.1.1.5,38,0.070,0.070,0.070,0.000,0.000,0.000
1644362268252104960,2022-02-08-23:17:48,10.1.1.5,38,0.080,0.080,0.080,0.000,0.000,0.000
1644362268352603904,2022-02-08-23:17:48,10.1.1.5,38,0.090,0.090,0.090,0.000,0.000,0.000
1644362268451654912,2022-02-08-23:17:48,10.1.1.5,37,0.100,0.100,0.100,0.000,0.000,0.000
1644362268551627008,2022-02-08-23:17:48,10.1.1.5,37,0.090,0.090,0.090,0.000,0.000,0.000
1644362268651408896,2022-02-08-23:17:48,10.1.1.5,36,0.080,0.080,0.080,0.000,0.000,0.000
1644362268751668992,2022-02-08-23:17:48,10.1.1.5,35,0.070,0.070,0.070,0.000,0.000,0.000
1644362268851556096,2022-02-08-23:17:48,10.1.1.5,35,0.060,0.060,0.060,0.000,0.000,0.000
1644362268951785984,2022-02-08-23:17:48,10.1.1.5,34,0.050,0.050,0.050,0.000,0.000,0.000
1644362269051648000,2022-02-08-23:17:49,10.1.1.5,34,0.040,0.040,0.040,0.000,0.000,0.000
1644362269151372800,2022-02-08-23:17:49,10.1.1.5,33,0.030,0.030,0.030,0.000,0.000,0.000
1644362269751960064,2022-02-08-23:17:49,10.1.1.5,29,-0.030,-0.030,-0.030,0.000,0.000,0.000
1644362269852065024,2022-02-08-23:17:49,10.1.1.5,29,-0.040,-0.040,-0.040,0.000,0.000,0.000
1644362269952004864,2022-02-08-23:17:49,10.1.1.5,28,-0.050,-0.050,-0.050,0.000,0.000,0.000
1644362270051665920,2022-02-08-23:17:50,10.1.1.5,28,-0.060,-0.060,-0.060,0.000,0.000,0.000
1644362270151719168,2022-02-08-23:17:50,10.1.1.5,27,-0.070,-0.070,-0.070,0.000,0.000,0.000
1644362270251621120,2022-02-08-23:17:50,10.1.1.5,27,-0.080,-0.080,-0.080,0.000,0.000,0.000
1644362270352350976,2022-02-08-23:17:50,10.1.1.5,27,-0.090,-0.090,-0.090,0.000,0.000,0.000
1644362270451970048,2022-02-08-23:17:50,10.1.1.5,26,-0.100,-0.100,-0.100,0.000,0.000,0.000
1644362270592865024,2022-02-08-23:17:50,10.1.1.5,26,-0.090,-0.090,-0.090,0.000,0.000,0.000
1644362270651910912,2022-02-08-23:17:50,10.1.1.5,26,-0.080,-0.080,-0.080,0.000,0.000,0.000
1644362270751406080,2022-02-08-23:17:50,10.1.1.5,25,-0.070,-0.070,-0.070,0.000,0.000,0.000
1644362270852264960,2022-02-08-23:17:50,10.1.1.5,25,-0.060,-0.060,-0.060,0.000,0.000,0.000
1644362270951643904,2022-02-08-23:17:50,10.1.1.5,24,-0.050,-0.050,-0.050,0.000,0.000,0.000
1644362271251799040,2022-02-08-23:17:51,10.1.1.5,23,-0.020,-0.020,-0.020,0.000,0.000,0.000
1644362271351842048,2022-02-08-23:17:51,10.1.1.5,22,-0.010,-0.010,-0.010,0.000,0.000,0.000
1644362271571448064,2022-02-08-23:17:51,10.1.1.5,39,0.010,0.010,0.010,0.000,0.000,0.000
1644362271671901952,2022-02-08-23:17:51,10.1.1.5,39,0.020,0.020,0.020,0.000,0.000,0.000
1644362271772079104,2022-02-08-23:17:51,10.1.1.5,38,0.030,0.030,0.030,0.000,0.000,0.000
1644362271872229120,2022-02-08-23:17:51,10.1.1.5,37,0.040,0.040,0.040,0.000,0.000,0.000
1644362271972238080,2022-02-08-23:17:51,10.1.1.5,37,0.050,0.050,0.050,0.000,0.000,0.000
1644362272072377088,2022-02-08-23:17:52,10.1.1.5,36,0.060,0.060,0.060,0.000,0.000,0.000
1644362272172158976,2022-02-08-23:17:52,10.1.1.5,36,0.070,0.070,0.070,0.000,0.000,0.000
1644362272273246976,2022-02-08-23:17:52,10.1.1.5,35,0.080,0.080,0.080,0.000,0.000,0.000
1644362272372121088,2022-02-08-23:17:52,10.1.1.5,34,0.090,0.090,0.090,0.000,0.000,0.000
1644362272553262848,2022-02-08-23:17:52,10.1.1.5,13,0.090,0.090,0.090,0.000,0.000,0.000
1644362272871869952,2022-02-08-23:17:52,10.1.1.5,30,0.060,0.060,0.060,0.000,0.000,0.000
1644362272971863040,2022-02-08-23:17:52,10.1.1.5,29,0.050,0.050,0.050,0.000,0.000,0.000
1644362273072402944,2022-02-08-23:17:53,10.1.1.5,28,0.040,0.040,0.040,0.000,0.000,0.000
1644362273172264192,2022-02-08-23:17:53,10.1.1.5,28,0.030,0.030,0.030,0.000,0.000,0.000
1644362273271984128,2022-02-08-23:17:53,10.1.1.5,27,0.020,0.020,0.020,0.000,0.000,0.000
1644362273372131072,2022-02-08-23:17:53,10.1.1.5,27,0.010,0.010,0.010,0.000,0.000,0.000
1644362273471862016,2022-02-08-23:17:53,10.1.1.5,26,0.000,0.000,0.000,0.000,0.000,0.000
1644362273574395904,2022-02-08-23:17:53,10.1.1.5,24,-0.010,-0.010,-0.010,0.000,0.000,0.000
1644362273993917952,2022-02-08-23:17:53,10.1.1.5,39,-0.050,-0.050,-0.050,0.000,0.000,0.000
1644362274092203008,2022-02-08-23:17:54,10.1.1.5,38,-0.060,-0.060,-0.060,0.000,0.000,0.000
1644362274192557056,2022-02-08-23:17:54,10.1.1.5,37,-0.070,-0.070,-0.070,0.000,0.000,0.000
1644362274291717888,2022-02-08-23:17:54,10.1.1.5,36,-0.080,-0.080,-0.080,0.000,0.000,0.000
1644362274394530048,2022-02-08-23:17:54,10.1.1.5,36,-0.090,-0.090,-0.090,0.000,0.000,0.000
1644362274491880960,2022-02-08-23:17:54,10.1.1.5,34,-0.100,-0.100,-0.100,0.000,0.000,0.000
1644362274591804928,2022-02-08-23:17:54,10.1.1.5,33,-0.090,-0.090,-0.090,0.000,0.000,0.000
1644362274892044032,2022-02-08-23:17:54,10.1.1.5,27,-0.060,-0.060,-0.060,0.000,0.000,0.000
1644362274992180224,2022-02-08-23:17:54,10.1.1.5,26,-0.050,-0.050,-0.050,0.000,0.000,0.000
1644362275092381952,2022-02-08-23:17:55,10.1.1.5,26,-0.040,-0.040,-0.040,0.000,0.000,0.000
1644362275192226048,2022-02-08-23:17:55,10.1.1.5,24,-0.030,-0.030,-0.030,0.000,0.000,0.000
1644362275292072960,2022-02-08-23:17:55,10.1.1.5,24,-0.020,-0.020,-0.020,0.000,0.000,0.000
1644362275713052928,2022-02-08-23:17:55,10.1.1.5,39,0.020,0.020,0.020,0.000,0.000,0.000
1644362275811988224,2022-02-08-23:17:55,10.1.1.5,36,0.030,0.030,0.030,0.000,0.000,0.000
1644362275912309760,2022-02-08-23:17:55,10.1.1.5,35,0.040,0.040,0.040,0.000,0.000,0.000
1644362276011956992,2022-02-08-23:17:56,10.1.1.5,34,0.050,0.050,0.050,0.000,0.000,0.000
1644362276112977152,2022-02-08-23:17:56,10.1.1.5,34,0.060,0.060,0.060,0.000,0.000,0.000
1644362276211944960,2022-02-08-23:17:56,10.1.1.5,32,0.070,0.070,0.070,0.000,0.000,0.000
1644362276412147968,2022-02-08-23:17:56,10.1.1.5,29,0.090,0.090,0.090,0.000,0.000,0.000
1644362276513003008,2022-02-08-23:17:56,10.1.1.5,29,0.100,0.100,0.100,0.000,0.000,0.000
1644362276612188160,2022-02-08-23:17:56,10.1.1.5,27,0.090,0.090,0.090,0.000,0.000,0.000
1644362276713005056,2022-02-08-23:17:56,10.1.1.5,27,0.080,0.080,0.080,0.000,0.000,0.000
1644362276811981056,2022-02-08-23:17:56,10.1.1.5,26,0.070,0.070,0.070,0.000,0.000,0.000
1644362276912538112,2022-02-08-23:17:56,10.1.1.5,25,0.060,0.060,0.060,0.000,0.000,0.000
1644362277012600064,2022-02-08-23:17:57,10.1.1.5,24,0.050,0.050,0.050,0.000,0.000,0.000
1644362277113231872,2022-02-08-23:17:57,10.1.1.5,21,0.040,0.040,0.040,0.000,0.000,0.000
1644362277232114944,2022-02-08-23:17:57,10.1.1.5,39,0.030,0.030,0.030,0.000,0.000,0.000
1644362277334373120,2022-02-08-23:17:57,10.1.1.5,39,0.020,0.020,0.020,0.000,0.000,0.000
1644362277432828928,2022-02-08-23:17:57,10.1.1.5,38,0.010,0.010,0.010,0.000,0.000,0.000
1644362277532548864,2022-02-08-23:17:57,10.1.1.5,37,0.000,0.000,0.000,0.000,0.000,0.000
1644362277632904960,2022-02-08-23:17:57,10.1.1.5,36,-0.010,-0.010,-0.010,0.000,0.000,0.000
1644362277733292032,2022-02-08-23:17:57,10.1.1.5,35,-0.020,-0.020,-0.020,0.000,0.000,0.000
1644362277833030912,2022-02-08-23:17:57,10.1.1.5,34,-0.030,-0.030,-0.030,0.000,0.000,0.000
1644362277932260096,2022-02-08-23:17:57,10.1.1.5,34,-0.040,-0.040,-0.040,0.000,0.000,0.000
1644362278033266176,2022-02-08-23:17:58,10.1.1.5,32,-0.050,-0.050,-0.050,0.000,0.000,0.000
1644362278231742976,2022-02-08-23:17:58,10.1.1.5,29,-0.070,-0.070,-0.070,0.000,0.000,0.000
1644362278332884992,2022-02-08-23:17:58,10.1.1.5,28,-0.080,-0.080,-0.080,0.000,0.000,0.000
1644362278432892160,2022-02-08-23:17:58,10.1.1.5,27,-0.090,-0.090,-0.090,0.000,0.000,0.000
1644362278532297984,2022-02-08-23:17:58,10.1.1.5,26,-0.100,-0.100,-0.100,0.000,0.000,0.000
1644362278632041984,2022-02-08-23:17:58,10.1.1.5,26,-0.090,-0.090,-0.090,0.000,0.000,0.000
1644362278731728128,2022-02-08-23:17:58,10.1.1.5,25,-0.080,-0.080,-0.080,0.000,0.000,0.000
1644362278832739072,2022-02-08-23:17:58,10.1.1.5,24,-0.070,-0.070,-0.070,0.000,0.000,0.000
1644362278933573120,2022-02-08-23:17:58,10.1.1.5,23,-0.060,-0.060,-0.060,0.000,0.000,0.000
1644362279251889920,2022-02-08-23:17:59,10.1.1.5,38,-0.030,-0.030,-0.030,0.000,0.000,0.000
1644362279352402944,2022-02-08-23:17:59,10.1.1.5,37,-0.020,-0.020,-0.020,0.000,0.000,0.000
1644362279452400896,2022-02-08-23:17:59,10.1.1.5,36,-0.010,-0.010,-0.010,0.000,0.000,0.000
1644362279553026048,2022-02-08-23:17:59,10.1.1.5,36,0.000,0.000,0.000,0.000,0.000,0.000
1644362279652934144,2022-02-08-23:17:59,10.1.1.5,35,0.010,0.010,0.010,0.000,0.000,0.000
1644362279751951872,2022-02-08-23:17:59,10.1.1.5,34,0.020,0.020,0.020,0.000,0.000,0.000
1644362279852449792,2022-02-08-23:17:59,10.1.1.5,33,0.030,0.030,0.030,0.000,0.000,0.000
1644362279952305920,2022-02-08-23:17:59,10.1.1.5,32,0.040,0.040,0.040,0.000,0.000,0.000
1644362280152271104,2022-02-08-23:18:00,10.1.1.5,30,0.060,0.060,0.060,0.000,0.000,0.000
1644362280251998976,2022-02-08-23:18:00,10.1.1.5,29,0.070,0.070,0.070,0.000,0.000,0.000
1644362280352274944,2022-02-08-23:18:00,10.1.1.5,27,0.080,0.080,0.080,0.000,0.000,0.000
1644362280452524800,2022-02-08-23:18:00,10.1.1.5,26,0.090,0.090,0.090,0.000,0.000,0.000
1644362280552509952,2022-02-08-23:18:00,10.1.1.5,25,0.100,0.100,0.100,0.000,0.000,0.000
1644362280652471040,2022-02-08-23:18:00,10.1.1.5,23,0.090,0.090,0.090,0.000,0.000,0.000
1644362280752832000,2022-02-08-23:18:00,10.1.1.5,22,0.080,0.080,0.080,0.000,0.000,0.000
1644362281071878912,2022-02-08-23:18:01,10.1.1.5,38,0.050,0.050,0.050,0.000,0.000,0.000
1644362281172236800,2022-02-08-23:18:01,10.1.1.5,38,0.040,0.040,0.040,0.000,0.000,0.000
1644362281272567040,2022-02-08-23:18:01,10.1.1.5,37,0.030,0.030,0.030,0.000,0.000,0.000
1644362281372380928,2022-02-08-23:18:01,10.1.1.5,36,0.020,0.020,0.020,0.000,0.000,0.000
1644362281472531968,2022-02-08-23:18:01,10.1.1.5,36,0.010,0.010,0.010,0.000,0.000,0.000
1644362281572787968,2022-02-08-23:18:01,10.1.1.5,35,0.000,0.000,0.000,0.000,0.000,0.000
1644362281673208832,2022-02-08-23:18:01,10.1.1.5,34,-0.010,-0.010,-0.010,0.000,0.000,0.000
1644362281772342016,2022-02-08-23:18:01,10.1.1.5,33,-0.020,-0.020,-0.020,0.000,0.000,0.000
1644362281872708096,2022-02-08-23:18:01,10.1.1.5,33,-0.030,-0.030,-0.030,0.000,0.000,0.000
