FedericoMungari/DigitalTwin_service/01_WiredScenario/Output/Output_script/script_ROSAPI_output_robots2_freq0_2.txt.csv
timestamp,node,latency,joint_1,joint_2,joint_3,joint_4,joint_5,joint_6
1640053513955954944,"2021-12-21,02:25:13",10.1.1.3,4446,0.000,0.000,0.000,0.000,0.000,0.000
1640053516292672000,"2021-12-21,02:25:16",10.1.1.3,337,-0.010,-0.010,-0.010,0.000,0.000,0.000
1640053516319195904,"2021-12-21,02:25:16",10.1.1.3,0.3636128902435303,-0.010,-0.010,-0.010,0.000,0.000,0.000
1640053516663497984,"2021-12-21,02:25:16",10.1.1.3,341,-0.020,-0.020,-0.020,0.000,0.000,0.000
1640053516678601984,"2021-12-21,02:25:16",10.1.1.3,0.3572239875793457,-0.020,-0.020,-0.020,0.000,0.000,0.000
1640053516993475840,"2021-12-21,02:25:16",10.1.1.3,311,-0.030,-0.030,-0.030,0.000,0.000,0.000
1640053517034584064,"2021-12-21,02:25:17",10.1.1.3,0.3524138927459717,-0.030,-0.030,-0.030,0.000,0.000,0.000
1640053517361479936,"2021-12-21,02:25:17",10.1.1.3,325,-0.040,-0.040,-0.040,0.000,0.000,0.000
1640053517422182144,"2021-12-21,02:25:17",10.1.1.3,0.38576698303222656,-0.040,-0.040,-0.040,0.000,0.000,0.000
1640053517769299968,"2021-12-21,02:25:17",10.1.1.3,345,-0.050,-0.050,-0.050,0.000,0.000,0.000
1640053517780383232,"2021-12-21,02:25:17",10.1.1.3,0.35672688484191895,-0.050,-0.050,-0.050,0.000,0.000,0.000
1640053518120520192,"2021-12-21,02:25:18",10.1.1.3,337,-0.060,-0.060,-0.060,0.000,0.000,0.000
1640053518168643840,"2021-12-21,02:25:18",10.1.1.3,0.38613104820251465,-0.060,-0.060,-0.060,0.000,0.000,0.000
1640053518529225984,"2021-12-21,02:25:18",10.1.1.3,359,-0.070,-0.070,-0.070,0.000,0.000,0.000
1640053518592535040,"2021-12-21,02:25:18",10.1.1.3,0.4225289821624756,-0.070,-0.070,-0.070,0.000,0.000,0.000
1640053518919538944,"2021-12-21,02:25:18",10.1.1.3,325,-0.080,-0.080,-0.080,0.000,0.000,0.000
1640053518955843840,"2021-12-21,02:25:18",10.1.1.3,0.3618190288543701,-0.080,-0.080,-0.080,0.000,0.000,0.000
1640053519328669952,"2021-12-21,02:25:19",10.1.1.3,371,-0.090,-0.090,-0.090,0.000,0.000,0.000
1640053519365766912,"2021-12-21,02:25:19",10.1.1.3,0.40775609016418457,-0.090,-0.090,-0.090,0.000,0.000,0.000
1640053519688086016,"2021-12-21,02:25:19",10.1.1.3,319,-0.100,-0.100,-0.100,0.000,0.000,0.000
1640053519727524096,"2021-12-21,02:25:19",10.1.1.3,0.35909485816955566,-0.100,-0.100,-0.100,0.000,0.000,0.000
1640053520076641024,"2021-12-21,02:25:20",10.1.1.3,347,-0.110,-0.110,-0.110,0.000,0.000,0.000
1640053520117913856,"2021-12-21,02:25:20",10.1.1.3,0.38875389099121094,-0.110,-0.110,-0.110,0.000,0.000,0.000
1640053520478275072,"2021-12-21,02:25:20",10.1.1.3,358,-0.120,-0.120,-0.120,0.000,0.000,0.000
1640053520516243968,"2021-12-21,02:25:20",10.1.1.3,0.3964090347290039,-0.120,-0.120,-0.120,0.000,0.000,0.000
1640053520856080128,"2021-12-21,02:25:20",10.1.1.3,337,-0.130,-0.130,-0.130,0.000,0.000,0.000
1640053520906161152,"2021-12-21,02:25:20",10.1.1.3,0.3881042003631592,-0.130,-0.130,-0.130,0.000,0.000,0.000
1640053521226339072,"2021-12-21,02:25:21",10.1.1.3,315,-0.140,-0.140,-0.140,0.000,0.000,0.000
1640053521272098048,"2021-12-21,02:25:21",10.1.1.3,0.3617069721221924,-0.140,-0.140,-0.140,0.000,0.000,0.000
1640053521618006016,"2021-12-21,02:25:21",10.1.1.3,342,-0.150,-0.150,-0.150,0.000,0.000,0.000
1640053521630925056,"2021-12-21,02:25:21",10.1.1.3,0.3562760353088379,-0.150,-0.150,-0.150,0.000,0.000,0.000
1640053521956116992,"2021-12-21,02:25:21",10.1.1.3,322,-0.160,-0.160,-0.160,0.000,0.000,0.000
1640053521990681856,"2021-12-21,02:25:21",10.1.1.3,0.3572549819946289,-0.160,-0.160,-0.160,0.000,0.000,0.000
1640053522324604160,"2021-12-21,02:25:22",10.1.1.3,332,-0.170,-0.170,-0.170,0.000,0.000,0.000
1640053522377655040,"2021-12-21,02:25:22",10.1.1.3,0.3854498863220215,-0.170,-0.170,-0.170,0.000,0.000,0.000
1640053522704008960,"2021-12-21,02:25:22",10.1.1.3,324,-0.180,-0.180,-0.180,0.000,0.000,0.000
1640053522768559104,"2021-12-21,02:25:22",10.1.1.3,0.3894479274749756,-0.180,-0.180,-0.180,0.000,0.000,0.000
1640053523113501952,"2021-12-21,02:25:23",10.1.1.3,343,-0.190,-0.190,-0.190,0.000,0.000,0.000
1640053523128726016,"2021-12-21,02:25:23",10.1.1.3,0.3587229251861572,-0.190,-0.190,-0.190,0.000,0.000,0.000
1640053523462928128,"2021-12-21,02:25:23",10.1.1.3,332,-0.200,-0.200,-0.200,0.000,0.000,0.000
1640053523516007936,"2021-12-21,02:25:23",10.1.1.3,0.38547515869140625,-0.200,-0.200,-0.200,0.000,0.000,0.000
1640053523861259008,"2021-12-21,02:25:23",10.1.1.3,343,-0.210,-0.210,-0.210,0.000,0.000,0.000
1640053523900933120,"2021-12-21,02:25:23",10.1.1.3,0.3833959102630615,-0.210,-0.210,-0.210,0.000,0.000,0.000
1640053524230204160,"2021-12-21,02:25:24",10.1.1.3,323,-0.220,-0.220,-0.220,0.000,0.000,0.000
1640053524261954048,"2021-12-21,02:25:24",10.1.1.3,0.3555600643157959,-0.220,-0.220,-0.220,0.000,0.000,0.000
1640053524612355840,"2021-12-21,02:25:24",10.1.1.3,347,-0.230,-0.230,-0.230,0.000,0.000,0.000
1640053524617490176,"2021-12-21,02:25:24",10.1.1.3,0.3528480529785156,-0.230,-0.230,-0.230,0.000,0.000,0.000
1640053524939609088,"2021-12-21,02:25:24",10.1.1.3,318,-0.240,-0.240,-0.240,0.000,0.000,0.000
1640053524972267008,"2021-12-21,02:25:24",10.1.1.3,0.3507728576660156,-0.240,-0.240,-0.240,0.000,0.000,0.000
1640053525300609024,"2021-12-21,02:25:25",10.1.1.3,326,-0.250,-0.250,-0.250,0.000,0.000,0.000
1640053525364749824,"2021-12-21,02:25:25",10.1.1.3,0.3907630443572998,-0.250,-0.250,-0.250,0.000,0.000,0.000
1640053525713073920,"2021-12-21,02:25:25",10.1.1.3,346,-0.260,-0.260,-0.260,0.000,0.000,0.000
1640053525750909184,"2021-12-21,02:25:25",10.1.1.3,0.38454389572143555,-0.260,-0.260,-0.260,0.000,0.000,0.000
1640053526096252928,"2021-12-21,02:25:26",10.1.1.3,343,-0.270,-0.270,-0.270,0.000,0.000,0.000
1640053526106548992,"2021-12-21,02:25:26",10.1.1.3,0.35340213775634766,-0.270,-0.270,-0.270,0.000,0.000,0.000
1640053526427619840,"2021-12-21,02:25:26",10.1.1.3,319,-0.280,-0.280,-0.280,0.000,0.000,0.000
1640053526465501952,"2021-12-21,02:25:26",10.1.1.3,0.3575718402862549,-0.280,-0.280,-0.280,0.000,0.000,0.000
1640053526798962176,"2021-12-21,02:25:26",10.1.1.3,330,-0.290,-0.290,-0.290,0.000,0.000,0.000
1640053526814366208,"2021-12-21,02:25:26",10.1.1.3,0.3459911346435547,-0.290,-0.290,-0.290,0.000,0.000,0.000
1640053527159706112,"2021-12-21,02:25:27",10.1.1.3,343,-0.300,-0.300,-0.300,0.000,0.000,0.000
1640053527243482112,"2021-12-21,02:25:27",10.1.1.3,0.42740607261657715,-0.300,-0.300,-0.300,0.000,0.000,0.000
1640053527581705984,"2021-12-21,02:25:27",10.1.1.3,336,-0.310,-0.310,-0.310,0.000,0.000,0.000
1640053527625495808,"2021-12-21,02:25:27",10.1.1.3,0.3804011344909668,-0.310,-0.310,-0.310,0.000,0.000,0.000
1640053527942411776,"2021-12-21,02:25:27",10.1.1.3,315,-0.320,-0.320,-0.320,0.000,0.000,0.000
1640053527984872192,"2021-12-21,02:25:27",10.1.1.3,0.35793304443359375,-0.320,-0.320,-0.320,0.000,0.000,0.000
1640053528304135168,"2021-12-21,02:25:28",10.1.1.3,317,-0.330,-0.330,-0.330,0.000,0.000,0.000
1640053528337078016,"2021-12-21,02:25:28",10.1.1.3,0.3506748676300049,-0.330,-0.330,-0.330,0.000,0.000,0.000
1640053528664645888,"2021-12-21,02:25:28",10.1.1.3,325,-0.340,-0.340,-0.340,0.000,0.000,0.000
1640053528695971840,"2021-12-21,02:25:28",10.1.1.3,0.3574061393737793,-0.340,-0.340,-0.340,0.000,0.000,0.000
1640053529027323904,"2021-12-21,02:25:29",10.1.1.3,329,-0.350,-0.350,-0.350,0.000,0.000,0.000
1640053529080094208,"2021-12-21,02:25:29",10.1.1.3,0.3827059268951416,-0.350,-0.350,-0.350,0.000,0.000,0.000
1640053529417105920,"2021-12-21,02:25:29",10.1.1.3,335,-0.360,-0.360,-0.360,0.000,0.000,0.000
1640053529464067840,"2021-12-21,02:25:29",10.1.1.3,0.38199687004089355,-0.360,-0.360,-0.360,0.000,0.000,0.000
1640053529789305856,"2021-12-21,02:25:29",10.1.1.3,322,-0.370,-0.370,-0.370,0.000,0.000,0.000
1640053529822782976,"2021-12-21,02:25:29",10.1.1.3,0.35732388496398926,-0.370,-0.370,-0.370,0.000,0.000,0.000
1640053530151490048,"2021-12-21,02:25:30",10.1.1.3,326,-0.380,-0.380,-0.380,0.000,0.000,0.000
1640053530180690176,"2021-12-21,02:25:30",10.1.1.3,0.3563809394836426,-0.380,-0.380,-0.380,0.000,0.000,0.000
1640053530509161984,"2021-12-21,02:25:30",10.1.1.3,326,-0.390,-0.390,-0.390,0.000,0.000,0.000
1640053530571145984,"2021-12-21,02:25:30",10.1.1.3,0.3885688781738281,-0.390,-0.390,-0.390,0.000,0.000,0.000
1640053530912830208,"2021-12-21,02:25:30",10.1.1.3,340,-0.400,-0.400,-0.400,0.000,0.000,0.000
1640053530932476928,"2021-12-21,02:25:30",10.1.1.3,0.3594069480895996,-0.400,-0.400,-0.400,0.000,0.000,0.000
1640053531271132928,"2021-12-21,02:25:31",10.1.1.3,337,-0.410,-0.410,-0.410,0.000,0.000,0.000
1640053531287343872,"2021-12-21,02:25:31",10.1.1.3,0.3533899784088135,-0.410,-0.410,-0.410,0.000,0.000,0.000
1640053531620944128,"2021-12-21,02:25:31",10.1.1.3,331,-0.420,-0.420,-0.420,0.000,0.000,0.000
1640053531641115904,"2021-12-21,02:25:31",10.1.1.3,0.3522050380706787,-0.420,-0.420,-0.420,0.000,0.000,0.000
1640053531992986880,"2021-12-21,02:25:31",10.1.1.3,349,-0.430,-0.430,-0.430,0.000,0.000,0.000
1640053532023646976,"2021-12-21,02:25:32",10.1.1.3,0.37994909286499023,-0.430,-0.430,-0.430,0.000,0.000,0.000
1640053532365804800,"2021-12-21,02:25:32",10.1.1.3,340,-0.440,-0.440,-0.440,0.000,0.000,0.000
1640053532414308096,"2021-12-21,02:25:32",10.1.1.3,0.38919496536254883,-0.440,-0.440,-0.440,0.000,0.000,0.000
1640053532754174976,"2021-12-21,02:25:32",10.1.1.3,338,-0.450,-0.450,-0.450,0.000,0.000,0.000
1640053532771939072,"2021-12-21,02:25:32",10.1.1.3,0.35628700256347656,-0.450,-0.450,-0.450,0.000,0.000,0.000
1640053533103091968,"2021-12-21,02:25:33",10.1.1.3,329,-0.460,-0.460,-0.460,0.000,0.000,0.000
1640053533165064192,"2021-12-21,02:25:33",10.1.1.3,0.3913400173187256,-0.460,-0.460,-0.460,0.000,0.000,0.000
1640053533492137984,"2021-12-21,02:25:33",10.1.1.3,325,-0.470,-0.470,-0.470,0.000,0.000,0.000
1640053533550082048,"2021-12-21,02:25:33",10.1.1.3,0.3832559585571289,-0.470,-0.470,-0.470,0.000,0.000,0.000
1640053533873675008,"2021-12-21,02:25:33",10.1.1.3,321,-0.480,-0.480,-0.480,0.000,0.000,0.000
1640053533902981120,"2021-12-21,02:25:33",10.1.1.3,0.3513529300689697,-0.480,-0.480,-0.480,0.000,0.000,0.000
1640053534213206016,"2021-12-21,02:25:34",10.1.1.3,308,-0.490,-0.490,-0.490,0.000,0.000,0.000
1640053534254749952,"2021-12-21,02:25:34",10.1.1.3,0.3503079414367676,-0.490,-0.490,-0.490,0.000,0.000,0.000
1640053534584500992,"2021-12-21,02:25:34",10.1.1.3,326,-0.480,-0.480,-0.480,0.000,0.000,0.000
1640053534642676224,"2021-12-21,02:25:34",10.1.1.3,0.38649415969848633,-0.480,-0.480,-0.480,0.000,0.000,0.000
1640053534984172032,"2021-12-21,02:25:34",10.1.1.3,339,-0.470,-0.470,-0.470,0.000,0.000,0.000
1640053535033272064,"2021-12-21,02:25:35",10.1.1.3,0.38913798332214355,-0.470,-0.470,-0.470,0.000,0.000,0.000
1640053535343610880,"2021-12-21,02:25:35",10.1.1.3,308,-0.460,-0.460,-0.460,0.000,0.000,0.000
1640053535393475072,"2021-12-21,02:25:35",10.1.1.3,0.3584780693054199,-0.460,-0.460,-0.460,0.000,0.000,0.000
1640053535734752768,"2021-12-21,02:25:35",10.1.1.3,338,-0.450,-0.450,-0.450,0.000,0.000,0.000
1640053535751801856,"2021-12-21,02:25:35",10.1.1.3,0.3568549156188965,-0.450,-0.450,-0.450,0.000,0.000,0.000
1640053536094726912,"2021-12-21,02:25:36",10.1.1.3,340,-0.440,-0.440,-0.440,0.000,0.000,0.000
1640053536146550784,"2021-12-21,02:25:36",10.1.1.3,0.3922100067138672,-0.440,-0.440,-0.440,0.000,0.000,0.000
1640053536489815040,"2021-12-21,02:25:36",10.1.1.3,341,-0.430,-0.430,-0.430,0.000,0.000,0.000
1640053536533885952,"2021-12-21,02:25:36",10.1.1.3,0.385714054107666,-0.430,-0.430,-0.430,0.000,0.000,0.000
1640053536854209792,"2021-12-21,02:25:36",10.1.1.3,317,-0.420,-0.420,-0.420,0.000,0.000,0.000
1640053536891561984,"2021-12-21,02:25:36",10.1.1.3,0.3551819324493408,-0.420,-0.420,-0.420,0.000,0.000,0.000
1640053537223186944,"2021-12-21,02:25:37",10.1.1.3,327,-0.410,-0.410,-0.410,0.000,0.000,0.000
1640053537279066112,"2021-12-21,02:25:37",10.1.1.3,0.3831958770751953,-0.410,-0.410,-0.410,0.000,0.000,0.000
1640053537605294848,"2021-12-21,02:25:37",10.1.1.3,324,-0.400,-0.400,-0.400,0.000,0.000,0.000
1640053537666456064,"2021-12-21,02:25:37",10.1.1.3,0.38592100143432617,-0.400,-0.400,-0.400,0.000,0.000,0.000
1640053537995014912,"2021-12-21,02:25:37",10.1.1.3,326,-0.390,-0.390,-0.390,0.000,0.000,0.000
1640053538029656832,"2021-12-21,02:25:38",10.1.1.3,0.361706018447876,-0.390,-0.390,-0.390,0.000,0.000,0.000
1640053538364545024,"2021-12-21,02:25:38",10.1.1.3,333,-0.380,-0.380,-0.380,0.000,0.000,0.000
1640053538382468096,"2021-12-21,02:25:38",10.1.1.3,0.3513491153717041,-0.380,-0.380,-0.380,0.000,0.000,0.000
1640053538744914176,"2021-12-21,02:25:38",10.1.1.3,360,-0.370,-0.370,-0.370,0.000,0.000,0.000
1640053538777026816,"2021-12-21,02:25:38",10.1.1.3,0.3925750255584717,-0.370,-0.370,-0.370,0.000,0.000,0.000
1640053539113476096,"2021-12-21,02:25:39",10.1.1.3,334,-0.360,-0.360,-0.360,0.000,0.000,0.000
1640053539164681984,"2021-12-21,02:25:39",10.1.1.3,0.3861989974975586,-0.360,-0.360,-0.360,0.000,0.000,0.000
1640053539494031872,"2021-12-21,02:25:39",10.1.1.3,327,-0.350,-0.350,-0.350,0.000,0.000,0.000
1640053539551085824,"2021-12-21,02:25:39",10.1.1.3,0.384890079498291,-0.350,-0.350,-0.350,0.000,0.000,0.000
1640053539892709120,"2021-12-21,02:25:39",10.1.1.3,339,-0.340,-0.340,-0.340,0.000,0.000,0.000
1640053539903588096,"2021-12-21,02:25:39",10.1.1.3,0.35006117820739746,-0.340,-0.340,-0.340,0.000,0.000,0.000
1640053540232128000,"2021-12-21,02:25:40",10.1.1.3,326,-0.330,-0.330,-0.330,0.000,0.000,0.000
1640053540290981120,"2021-12-21,02:25:40",10.1.1.3,0.38539600372314453,-0.330,-0.330,-0.330,0.000,0.000,0.000
1640053540662727168,"2021-12-21,02:25:40",10.1.1.3,369,-0.320,-0.320,-0.320,0.000,0.000,0.000
1640053540680753920,"2021-12-21,02:25:40",10.1.1.3,0.3878769874572754,-0.320,-0.320,-0.320,0.000,0.000,0.000
1640053541002774016,"2021-12-21,02:25:41",10.1.1.3,319,-0.310,-0.310,-0.310,0.000,0.000,0.000
1640053541068051200,"2021-12-21,02:25:41",10.1.1.3,0.3847920894622803,-0.310,-0.310,-0.310,0.000,0.000,0.000
1640053541392462848,"2021-12-21,02:25:41",10.1.1.3,322,-0.300,-0.300,-0.300,0.000,0.000,0.000
1640053541416593152,"2021-12-21,02:25:41",10.1.1.3,0.3470039367675781,-0.300,-0.300,-0.300,0.000,0.000,0.000
1640053541753285888,"2021-12-21,02:25:41",10.1.1.3,335,-0.290,-0.290,-0.290,0.000,0.000,0.000
1640053541773513984,"2021-12-21,02:25:41",10.1.1.3,0.3555591106414795,-0.290,-0.290,-0.290,0.000,0.000,0.000
1640053542101056000,"2021-12-21,02:25:42",10.1.1.3,325,-0.280,-0.280,-0.280,0.000,0.000,0.000
1640053542162403072,"2021-12-21,02:25:42",10.1.1.3,0.3871769905090332,-0.280,-0.280,-0.280,0.000,0.000,0.000
1640053542489865984,"2021-12-21,02:25:42",10.1.1.3,325,-0.270,-0.270,-0.270,0.000,0.000,0.000
1640053542580342016,"2021-12-21,02:25:42",10.1.1.3,0.41602301597595215,-0.270,-0.270,-0.270,0.000,0.000,0.000
1640053542899329024,"2021-12-21,02:25:42",10.1.1.3,315,-0.260,-0.260,-0.260,0.000,0.000,0.000
1640053542940579840,"2021-12-21,02:25:42",10.1.1.3,0.3572568893432617,-0.260,-0.260,-0.260,0.000,0.000,0.000
1640053543240427008,"2021-12-21,02:25:43",10.1.1.3,297,-0.250,-0.250,-0.250,0.000,0.000,0.000
1640053543272943872,"2021-12-21,02:25:43",10.1.1.3,0.33094191551208496,-0.250,-0.250,-0.250,0.000,0.000,0.000
1640053543629242880,"2021-12-21,02:25:43",10.1.1.3,354,-0.240,-0.240,-0.240,0.000,0.000,0.000
1640053543697700096,"2021-12-21,02:25:43",10.1.1.3,0.4222409725189209,-0.240,-0.240,-0.240,0.000,0.000,0.000
1640053544029378048,"2021-12-21,02:25:44",10.1.1.3,328,-0.230,-0.230,-0.230,0.000,0.000,0.000
1640053544087838976,"2021-12-21,02:25:44",10.1.1.3,0.3874790668487549,-0.230,-0.230,-0.230,0.000,0.000,0.000
1640053544430473984,"2021-12-21,02:25:44",10.1.1.3,340,-0.220,-0.220,-0.220,0.000,0.000,0.000
1640053544475332864,"2021-12-21,02:25:44",10.1.1.3,0.38565897941589355,-0.220,-0.220,-0.220,0.000,0.000,0.000
1640053544819104000,"2021-12-21,02:25:44",10.1.1.3,342,-0.210,-0.210,-0.210,0.000,0.000,0.000
1640053544867847936,"2021-12-21,02:25:44",10.1.1.3,0.3909950256347656,-0.210,-0.210,-0.210,0.000,0.000,0.000
1640053545197225984,"2021-12-21,02:25:45",10.1.1.3,327,-0.200,-0.200,-0.200,0.000,0.000,0.000
1640053545233787136,"2021-12-21,02:25:45",10.1.1.3,0.3636322021484375,-0.200,-0.200,-0.200,0.000,0.000,0.000
1640053545555890944,"2021-12-21,02:25:45",10.1.1.3,320,-0.190,-0.190,-0.190,0.000,0.000,0.000
1640053545617923072,"2021-12-21,02:25:45",10.1.1.3,0.3827838897705078,-0.190,-0.190,-0.190,0.000,0.000,0.000
1640053545956573952,"2021-12-21,02:25:45",10.1.1.3,336,-0.180,-0.180,-0.180,0.000,0.000,0.000
1640053546040709888,"2021-12-21,02:25:46",10.1.1.3,0.42064404487609863,-0.180,-0.180,-0.180,0.000,0.000,0.000
1640053546366215936,"2021-12-21,02:25:46",10.1.1.3,323,-0.170,-0.170,-0.170,0.000,0.000,0.000
1640053546430898944,"2021-12-21,02:25:46",10.1.1.3,0.38870811462402344,-0.170,-0.170,-0.170,0.000,0.000,0.000
1640053546765238016,"2021-12-21,02:25:46",10.1.1.3,332,-0.160,-0.160,-0.160,0.000,0.000,0.000
1640053546792179968,"2021-12-21,02:25:46",10.1.1.3,0.35990285873413086,-0.160,-0.160,-0.160,0.000,0.000,0.000
1640053547125920000,"2021-12-21,02:25:47",10.1.1.3,329,-0.150,-0.150,-0.150,0.000,0.000,0.000
1640053547216875008,"2021-12-21,02:25:47",10.1.1.3,0.42075109481811523,-0.150,-0.150,-0.150,0.000,0.000,0.000
1640053547534656000,"2021-12-21,02:25:47",10.1.1.3,316,-0.140,-0.140,-0.140,0.000,0.000,0.000
1640053547572140032,"2021-12-21,02:25:47",10.1.1.3,0.3536698818206787,-0.140,-0.140,-0.140,0.000,0.000,0.000
1640053547916145152,"2021-12-21,02:25:47",10.1.1.3,339,-0.130,-0.130,-0.130,0.000,0.000,0.000
1640053547927855872,"2021-12-21,02:25:47",10.1.1.3,0.3536849021911621,-0.130,-0.130,-0.130,0.000,0.000,0.000
1640053548282969088,"2021-12-21,02:25:48",10.1.1.3,352,-0.120,-0.120,-0.120,0.000,0.000,0.000
1640053548324978944,"2021-12-21,02:25:48",10.1.1.3,0.3943910598754883,-0.120,-0.120,-0.120,0.000,0.000,0.000
1640053548672516096,"2021-12-21,02:25:48",10.1.1.3,345,-0.110,-0.110,-0.110,0.000,0.000,0.000
1640053548713385984,"2021-12-21,02:25:48",10.1.1.3,0.38652491569519043,-0.110,-0.110,-0.110,0.000,0.000,0.000
1640053549061913088,"2021-12-21,02:25:49",10.1.1.3,345,-0.100,-0.100,-0.100,0.000,0.000,0.000
1640053549106116096,"2021-12-21,02:25:49",10.1.1.3,0.39043402671813965,-0.100,-0.100,-0.100,0.000,0.000,0.000
1640053549444087040,"2021-12-21,02:25:49",10.1.1.3,336,-0.090,-0.090,-0.090,0.000,0.000,0.000
1640053549463833088,"2021-12-21,02:25:49",10.1.1.3,0.3562500476837158,-0.090,-0.090,-0.090,0.000,0.000,0.000
1640053549810985984,"2021-12-21,02:25:49",10.1.1.3,344,-0.080,-0.080,-0.080,0.000,0.000,0.000
1640053549861126912,"2021-12-21,02:25:49",10.1.1.3,0.39488720893859863,-0.080,-0.080,-0.080,0.000,0.000,0.000
1640053550191118080,"2021-12-21,02:25:50",10.1.1.3,328,-0.070,-0.070,-0.070,0.000,0.000,0.000
1640053550250046976,"2021-12-21,02:25:50",10.1.1.3,0.3875548839569092,-0.070,-0.070,-0.070,0.000,0.000,0.000
1640053550600673792,"2021-12-21,02:25:50",10.1.1.3,348,-0.060,-0.060,-0.060,0.000,0.000,0.000
1640053550639269120,"2021-12-21,02:25:50",10.1.1.3,0.38757896423339844,-0.060,-0.060,-0.060,0.000,0.000,0.000
1640053550989116928,"2021-12-21,02:25:50",10.1.1.3,347,-0.050,-0.050,-0.050,0.000,0.000,0.000
1640053551036561920,"2021-12-21,02:25:51",10.1.1.3,0.39533185958862305,-0.050,-0.050,-0.050,0.000,0.000,0.000
1640053551359757056,"2021-12-21,02:25:51",10.1.1.3,321,-0.040,-0.040,-0.040,0.000,0.000,0.000
1640053551394428928,"2021-12-21,02:25:51",10.1.1.3,0.3563570976257324,-0.040,-0.040,-0.040,0.000,0.000,0.000
1640053551739033856,"2021-12-21,02:25:51",10.1.1.3,343,-0.030,-0.030,-0.030,0.000,0.000,0.000
1640053551785274880,"2021-12-21,02:25:51",10.1.1.3,0.3893730640411377,-0.030,-0.030,-0.030,0.000,0.000,0.000
1640053552128004096,"2021-12-21,02:25:52",10.1.1.3,340,-0.020,-0.020,-0.020,0.000,0.000,0.000
1640053552177265920,"2021-12-21,02:25:52",10.1.1.3,0.3900010585784912,-0.020,-0.020,-0.020,0.000,0.000,0.000
1640053552517252864,"2021-12-21,02:25:52",10.1.1.3,338,-0.010,-0.010,-0.010,0.000,0.000,0.000
1640053552577021952,"2021-12-21,02:25:52",10.1.1.3,0.39808201789855957,-0.010,-0.010,-0.010,0.000,0.000,0.000
1640053552938736896,"2021-12-21,02:25:52",10.1.1.3,356,0.000,0.000,0.000,0.000,0.000,0.000
1640053552996990976,"2021-12-21,02:25:52",10.1.1.3,0.4155609607696533,0.000,0.000,0.000,0.000,0.000,0.000
1640053553325463040,"2021-12-21,02:25:53",10.1.1.3,325,-0.010,-0.010,-0.010,0.000,0.000,0.000
1640053553386604032,"2021-12-21,02:25:53",10.1.1.3,0.38652586936950684,-0.010,-0.010,-0.010,0.000,0.000,0.000
1640053553736219904,"2021-12-21,02:25:53",10.1.1.3,347,-0.020,-0.020,-0.020,0.000,0.000,0.000
1640053553754913024,"2021-12-21,02:25:53",10.1.1.3,0.3664250373840332,-0.020,-0.020,-0.020,0.000,0.000,0.000
1640053554097260032,"2021-12-21,02:25:54",10.1.1.3,340,-0.030,-0.030,-0.030,0.000,0.000,0.000
1640053554154510080,"2021-12-21,02:25:54",10.1.1.3,0.39737892150878906,-0.030,-0.030,-0.030,0.000,0.000,0.000
1640053554504011008,"2021-12-21,02:25:54",10.1.1.3,346,-0.040,-0.040,-0.040,0.000,0.000,0.000
1640053554578551040,"2021-12-21,02:25:54",10.1.1.3,0.4214479923248291,-0.040,-0.040,-0.040,0.000,0.000,0.000
1640053554905582848,"2021-12-21,02:25:54",10.1.1.3,324,-0.050,-0.050,-0.050,0.000,0.000,0.000
1640053554968209152,"2021-12-21,02:25:54",10.1.1.3,0.38715386390686035,-0.050,-0.050,-0.050,0.000,0.000,0.000
1640053555302854912,"2021-12-21,02:25:55",10.1.1.3,333,-0.060,-0.060,-0.060,0.000,0.000,0.000
1640053555323556864,"2021-12-21,02:25:55",10.1.1.3,0.3535590171813965,-0.060,-0.060,-0.060,0.000,0.000,0.000
1640053555653775872,"2021-12-21,02:25:55",10.1.1.3,328,-0.070,-0.070,-0.070,0.000,0.000,0.000
1640053555684165120,"2021-12-21,02:25:55",10.1.1.3,0.35918307304382324,-0.070,-0.070,-0.070,0.000,0.000,0.000
1640053556031523840,"2021-12-21,02:25:56",10.1.1.3,343,-0.080,-0.080,-0.080,0.000,0.000,0.000
1640053556110310144,"2021-12-21,02:25:56",10.1.1.3,0.42204999923706055,-0.080,-0.080,-0.080,0.000,0.000,0.000
1640053556423859968,"2021-12-21,02:25:56",10.1.1.3,311,-0.090,-0.090,-0.090,0.000,0.000,0.000
1640053556462887168,"2021-12-21,02:25:56",10.1.1.3,0.3509490489959717,-0.090,-0.090,-0.090,0.000,0.000,0.000
1640053556770832128,"2021-12-21,02:25:56",10.1.1.3,306,-0.100,-0.100,-0.100,0.000,0.000,0.000
1640053556817508864,"2021-12-21,02:25:56",10.1.1.3,0.3528728485107422,-0.100,-0.100,-0.100,0.000,0.000,0.000
1640053557153364992,"2021-12-21,02:25:57",10.1.1.3,332,-0.110,-0.110,-0.110,0.000,0.000,0.000
1640053557240462080,"2021-12-21,02:25:57",10.1.1.3,0.42014503479003906,-0.110,-0.110,-0.110,0.000,0.000,0.000
1640053557583833088,"2021-12-21,02:25:57",10.1.1.3,341,-0.120,-0.120,-0.120,0.000,0.000,0.000
1640053557629221888,"2021-12-21,02:25:57",10.1.1.3,0.38738298416137695,-0.120,-0.120,-0.120,0.000,0.000,0.000
1640053557957110016,"2021-12-21,02:25:57",10.1.1.3,325,-0.130,-0.130,-0.130,0.000,0.000,0.000
1640053557986443008,"2021-12-21,02:25:57",10.1.1.3,0.355449914932251,-0.130,-0.130,-0.130,0.000,0.000,0.000
1640053558326970112,"2021-12-21,02:25:58",10.1.1.3,338,-0.140,-0.140,-0.140,0.000,0.000,0.000
1640053558346499072,"2021-12-21,02:25:58",10.1.1.3,0.3582150936126709,-0.140,-0.140,-0.140,0.000,0.000,0.000
1640053558688731904,"2021-12-21,02:25:58",10.1.1.3,339,-0.150,-0.150,-0.150,0.000,0.000,0.000
1640053558736422912,"2021-12-21,02:25:58",10.1.1.3,0.3881042003631592,-0.150,-0.150,-0.150,0.000,0.000,0.000
1640053559070658816,"2021-12-21,02:25:59",10.1.1.3,332,-0.160,-0.160,-0.160,0.000,0.000,0.000
1640053559125512960,"2021-12-21,02:25:59",10.1.1.3,0.38738107681274414,-0.160,-0.160,-0.160,0.000,0.000,0.000
1640053559484723968,"2021-12-21,02:25:59",10.1.1.3,357,-0.170,-0.170,-0.170,0.000,0.000,0.000
1640053559513159936,"2021-12-21,02:25:59",10.1.1.3,0.3858799934387207,-0.170,-0.170,-0.170,0.000,0.000,0.000
1640053559843332096,"2021-12-21,02:25:59",10.1.1.3,328,-0.180,-0.180,-0.180,0.000,0.000,0.000
1640053559937712896,"2021-12-21,02:25:59",10.1.1.3,0.42306017875671387,-0.180,-0.180,-0.180,0.000,0.000,0.000
1640053560273728000,"2021-12-21,02:26:00",10.1.1.3,334,-0.190,-0.190,-0.190,0.000,0.000,0.000
1640053560329321984,"2021-12-21,02:26:00",10.1.1.3,0.38999390602111816,-0.190,-0.190,-0.190,0.000,0.000,0.000
1640053560664880128,"2021-12-21,02:26:00",10.1.1.3,334,-0.200,-0.200,-0.200,0.000,0.000,0.000
1640053560716008960,"2021-12-21,02:26:00",10.1.1.3,0.38515305519104004,-0.200,-0.200,-0.200,0.000,0.000,0.000
1640053561067154944,"2021-12-21,02:26:01",10.1.1.3,349,-0.210,-0.210,-0.210,0.000,0.000,0.000
1640053561079108864,"2021-12-21,02:26:01",10.1.1.3,0.36151885986328125,-0.210,-0.210,-0.210,0.000,0.000,0.000
1640053561409246976,"2021-12-21,02:26:01",10.1.1.3,328,-0.220,-0.220,-0.220,0.000,0.000,0.000
1640053561443081984,"2021-12-21,02:26:01",10.1.1.3,0.36220622062683105,-0.220,-0.220,-0.220,0.000,0.000,0.000
1640053561798542080,"2021-12-21,02:26:01",10.1.1.3,352,-0.230,-0.230,-0.230,0.000,0.000,0.000
1640053561836723200,"2021-12-21,02:26:01",10.1.1.3,0.39069199562072754,-0.230,-0.230,-0.230,0.000,0.000,0.000
1640053562164470016,"2021-12-21,02:26:02",10.1.1.3,325,-0.240,-0.240,-0.240,0.000,0.000,0.000
1640053562190272000,"2021-12-21,02:26:02",10.1.1.3,0.3520548343658447,-0.240,-0.240,-0.240,0.000,0.000,0.000
1640053562519661056,"2021-12-21,02:26:02",10.1.1.3,327,-0.250,-0.250,-0.250,0.000,0.000,0.000
1640053562582252032,"2021-12-21,02:26:02",10.1.1.3,0.3902549743652344,-0.250,-0.250,-0.250,0.000,0.000,0.000
1640053562920934912,"2021-12-21,02:26:02",10.1.1.3,336,-0.260,-0.260,-0.260,0.000,0.000,0.000
1640053563005628160,"2021-12-21,02:26:03",10.1.1.3,0.4215550422668457,-0.260,-0.260,-0.260,0.000,0.000,0.000
1640053563351314176,"2021-12-21,02:26:03",10.1.1.3,344,-0.270,-0.270,-0.270,0.000,0.000,0.000
1640053563403044096,"2021-12-21,02:26:03",10.1.1.3,0.39602088928222656,-0.270,-0.270,-0.270,0.000,0.000,0.000
1640053563722306048,"2021-12-21,02:26:03",10.1.1.3,316,-0.280,-0.280,-0.280,0.000,0.000,0.000
1640053563759310080,"2021-12-21,02:26:03",10.1.1.3,0.35398292541503906,-0.280,-0.280,-0.280,0.000,0.000,0.000
1640053564105808896,"2021-12-21,02:26:04",10.1.1.3,344,-0.290,-0.290,-0.290,0.000,0.000,0.000
1640053564146688000,"2021-12-21,02:26:04",10.1.1.3,0.38553309440612793,-0.290,-0.290,-0.290,0.000,0.000,0.000
1640053564504196864,"2021-12-21,02:26:04",10.1.1.3,354,-0.300,-0.300,-0.300,0.000,0.000,0.000
1640053564528812800,"2021-12-21,02:26:04",10.1.1.3,0.38050317764282227,-0.300,-0.300,-0.300,0.000,0.000,0.000
1640053564853078016,"2021-12-21,02:26:04",10.1.1.3,320,-0.310,-0.310,-0.310,0.000,0.000,0.000
1640053564918530048,"2021-12-21,02:26:04",10.1.1.3,0.38581180572509766,-0.310,-0.310,-0.310,0.000,0.000,0.000
1640053565276883968,"2021-12-21,02:26:05",10.1.1.3,354,-0.320,-0.320,-0.320,0.000,0.000,0.000
1640053565313359872,"2021-12-21,02:26:05",10.1.1.3,0.3904409408569336,-0.320,-0.320,-0.320,0.000,0.000,0.000
1640053565634496000,"2021-12-21,02:26:05",10.1.1.3,317,-0.330,-0.330,-0.330,0.000,0.000,0.000
1640053565676073984,"2021-12-21,02:26:05",10.1.1.3,0.35918402671813965,-0.330,-0.330,-0.330,0.000,0.000,0.000
1640053566045232128,"2021-12-21,02:26:06",10.1.1.3,367,-0.340,-0.340,-0.340,0.000,0.000,0.000
1640053566066117888,"2021-12-21,02:26:06",10.1.1.3,0.3884890079498291,-0.340,-0.340,-0.340,0.000,0.000,0.000
1640053566404634112,"2021-12-21,02:26:06",10.1.1.3,336,-0.350,-0.350,-0.350,0.000,0.000,0.000
1640053566449330944,"2021-12-21,02:26:06",10.1.1.3,0.38175296783447266,-0.350,-0.350,-0.350,0.000,0.000,0.000
1640053566796681984,"2021-12-21,02:26:06",10.1.1.3,345,-0.360,-0.360,-0.360,0.000,0.000,0.000
1640053566851557888,"2021-12-21,02:26:06",10.1.1.3,0.4008018970489502,-0.360,-0.360,-0.360,0.000,0.000,0.000
1640053567185196032,"2021-12-21,02:26:07",10.1.1.3,331,-0.370,-0.370,-0.370,0.000,0.000,0.000
1640053567218681088,"2021-12-21,02:26:07",10.1.1.3,0.3645210266113281,-0.370,-0.370,-0.370,0.000,0.000,0.000
1640053567555964928,"2021-12-21,02:26:07",10.1.1.3,334,-0.380,-0.380,-0.380,0.000,0.000,0.000
1640053567577169920,"2021-12-21,02:26:07",10.1.1.3,0.3561379909515381,-0.380,-0.380,-0.380,0.000,0.000,0.000
1640053567924870912,"2021-12-21,02:26:07",10.1.1.3,344,-0.390,-0.390,-0.390,0.000,0.000,0.000
1640053567976409856,"2021-12-21,02:26:07",10.1.1.3,0.39652395248413086,-0.390,-0.390,-0.390,0.000,0.000,0.000
1640053568294609920,"2021-12-21,02:26:08",10.1.1.3,316,-0.400,-0.400,-0.400,0.000,0.000,0.000
1640053568339674880,"2021-12-21,02:26:08",10.1.1.3,0.36121511459350586,-0.400,-0.400,-0.400,0.000,0.000,0.000
1640053568695421952,"2021-12-21,02:26:08",10.1.1.3,353,-0.410,-0.410,-0.410,0.000,0.000,0.000
1640053568726504192,"2021-12-21,02:26:08",10.1.1.3,0.38510799407958984,-0.410,-0.410,-0.410,0.000,0.000,0.000
1640053569055639040,"2021-12-21,02:26:09",10.1.1.3,327,-0.420,-0.420,-0.420,0.000,0.000,0.000
1640053569088439040,"2021-12-21,02:26:09",10.1.1.3,0.36040782928466797,-0.420,-0.420,-0.420,0.000,0.000,0.000
1640053569425018112,"2021-12-21,02:26:09",10.1.1.3,334,-0.430,-0.430,-0.430,0.000,0.000,0.000
1640053569478967040,"2021-12-21,02:26:09",10.1.1.3,0.3873789310455322,-0.430,-0.430,-0.430,0.000,0.000,0.000
1640053569806778880,"2021-12-21,02:26:09",10.1.1.3,326,-0.440,-0.440,-0.440,0.000,0.000,0.000
1640053569871977984,"2021-12-21,02:26:09",10.1.1.3,0.3913869857788086,-0.440,-0.440,-0.440,0.000,0.000,0.000
1640053570204116992,"2021-12-21,02:26:10",10.1.1.3,330,-0.450,-0.450,-0.450,0.000,0.000,0.000
1640053570263014144,"2021-12-21,02:26:10",10.1.1.3,0.3895449638366699,-0.450,-0.450,-0.450,0.000,0.000,0.000
1640053570594297856,"2021-12-21,02:26:10",10.1.1.3,329,-0.460,-0.460,-0.460,0.000,0.000,0.000
1640053570658737920,"2021-12-21,02:26:10",10.1.1.3,0.39415812492370605,-0.460,-0.460,-0.460,0.000,0.000,0.000
1640053570963219968,"2021-12-21,02:26:10",10.1.1.3,302,-0.470,-0.470,-0.470,0.000,0.000,0.000
1640053571015928064,"2021-12-21,02:26:11",10.1.1.3,0.35547900199890137,-0.470,-0.470,-0.470,0.000,0.000,0.000
1640053571367494144,"2021-12-21,02:26:11",10.1.1.3,349,-0.480,-0.480,-0.480,0.000,0.000,0.000
1640053571435751936,"2021-12-21,02:26:11",10.1.1.3,0.4177532196044922,-0.480,-0.480,-0.480,0.000,0.000,0.000
1640053571775842048,"2021-12-21,02:26:11",10.1.1.3,338,-0.490,-0.490,-0.490,0.000,0.000,0.000
1640053571857114112,"2021-12-21,02:26:11",10.1.1.3,0.4199061393737793,-0.490,-0.490,-0.490,0.000,0.000,0.000
1640053572174519040,"2021-12-21,02:26:12",10.1.1.3,315,-0.480,-0.480,-0.480,0.000,0.000,0.000
1640053572217515008,"2021-12-21,02:26:12",10.1.1.3,0.3581681251525879,-0.480,-0.480,-0.480,0.000,0.000,0.000
1640053572532558848,"2021-12-21,02:26:12",10.1.1.3,312,-0.470,-0.470,-0.470,0.000,0.000,0.000
1640053572572559104,"2021-12-21,02:26:12",10.1.1.3,0.35300302505493164,-0.470,-0.470,-0.470,0.000,0.000,0.000
1640053572882253824,"2021-12-21,02:26:12",10.1.1.3,307,-0.460,-0.460,-0.460,0.000,0.000,0.000
1640053572968024064,"2021-12-21,02:26:12",10.1.1.3,0.39357900619506836,-0.460,-0.460,-0.460,0.000,0.000,0.000
1640053573331729920,"2021-12-21,02:26:13",10.1.1.3,360,-0.450,-0.450,-0.450,0.000,0.000,0.000
1640053573365814016,"2021-12-21,02:26:13",10.1.1.3,0.39461183547973633,-0.450,-0.450,-0.450,0.000,0.000,0.000
1640053573712956928,"2021-12-21,02:26:13",10.1.1.3,345,-0.440,-0.440,-0.440,0.000,0.000,0.000
1640053573750649088,"2021-12-21,02:26:13",10.1.1.3,0.38321590423583984,-0.440,-0.440,-0.440,0.000,0.000,0.000
1640053574093132032,"2021-12-21,02:26:14",10.1.1.3,340,-0.430,-0.430,-0.430,0.000,0.000,0.000
1640053574134684160,"2021-12-21,02:26:14",10.1.1.3,0.38202881813049316,-0.430,-0.430,-0.430,0.000,0.000,0.000
1640053574451066112,"2021-12-21,02:26:14",10.1.1.3,314,-0.420,-0.420,-0.420,0.000,0.000,0.000
1640053574525319168,"2021-12-21,02:26:14",10.1.1.3,0.38926100730895996,-0.420,-0.420,-0.420,0.000,0.000,0.000
1640053574882141952,"2021-12-21,02:26:14",10.1.1.3,354,-0.410,-0.410,-0.410,0.000,0.000,0.000
1640053574915330816,"2021-12-21,02:26:14",10.1.1.3,0.3883800506591797,-0.410,-0.410,-0.410,0.000,0.000,0.000
1640053575230014208,"2021-12-21,02:26:15",10.1.1.3,313,-0.400,-0.400,-0.400,0.000,0.000,0.000
1640053575299581952,"2021-12-21,02:26:15",10.1.1.3,0.38274478912353516,-0.400,-0.400,-0.400,0.000,0.000,0.000
1640053575621423104,"2021-12-21,02:26:15",10.1.1.3,319,-0.390,-0.390,-0.390,0.000,0.000,0.000
1640053575686914048,"2021-12-21,02:26:15",10.1.1.3,0.3853778839111328,-0.390,-0.390,-0.390,0.000,0.000,0.000
1640053576040152064,"2021-12-21,02:26:16",10.1.1.3,347,-0.380,-0.380,-0.380,0.000,0.000,0.000
1640053576080559872,"2021-12-21,02:26:16",10.1.1.3,0.3879518508911133,-0.380,-0.380,-0.380,0.000,0.000,0.000
1640053576429529856,"2021-12-21,02:26:16",10.1.1.3,347,-0.370,-0.370,-0.370,0.000,0.000,0.000
1640053576473506816,"2021-12-21,02:26:16",10.1.1.3,0.3911631107330322,-0.370,-0.370,-0.370,0.000,0.000,0.000
1640053576789155840,"2021-12-21,02:26:16",10.1.1.3,314,-0.360,-0.360,-0.360,0.000,0.000,0.000
1640053576822337024,"2021-12-21,02:26:16",10.1.1.3,0.3472599983215332,-0.360,-0.360,-0.360,0.000,0.000,0.000
1640053577181110016,"2021-12-21,02:26:17",10.1.1.3,356,-0.350,-0.350,-0.350,0.000,0.000,0.000
1640053577222685952,"2021-12-21,02:26:17",10.1.1.3,0.3985788822174072,-0.350,-0.350,-0.350,0.000,0.000,0.000
1640053577538420992,"2021-12-21,02:26:17",10.1.1.3,313,-0.340,-0.340,-0.340,0.000,0.000,0.000
1640053577581937920,"2021-12-21,02:26:17",10.1.1.3,0.3575570583343506,-0.340,-0.340,-0.340,0.000,0.000,0.000
1640053577937711104,"2021-12-21,02:26:17",10.1.1.3,353,-0.330,-0.330,-0.330,0.000,0.000,0.000
1640053577984282112,"2021-12-21,02:26:17",10.1.1.3,0.3998889923095703,-0.330,-0.330,-0.330,0.000,0.000,0.000
1640053578328756992,"2021-12-21,02:26:18",10.1.1.3,341,-0.320,-0.320,-0.320,0.000,0.000,0.000
1640053578412380928,"2021-12-21,02:26:18",10.1.1.3,0.42602992057800293,-0.320,-0.320,-0.320,0.000,0.000,0.000
1640053578747262976,"2021-12-21,02:26:18",10.1.1.3,332,-0.310,-0.310,-0.310,0.000,0.000,0.000
1640053578806492160,"2021-12-21,02:26:18",10.1.1.3,0.39261317253112793,-0.310,-0.310,-0.310,0.000,0.000,0.000
1640053579155886848,"2021-12-21,02:26:19",10.1.1.3,347,-0.300,-0.300,-0.300,0.000,0.000,0.000
1640053579178062080,"2021-12-21,02:26:19",10.1.1.3,0.3700079917907715,-0.300,-0.300,-0.300,0.000,0.000,0.000
1640053579536026880,"2021-12-21,02:26:19",10.1.1.3,354,-0.290,-0.290,-0.290,0.000,0.000,0.000
1640053579586775040,"2021-12-21,02:26:19",10.1.1.3,0.4023771286010742,-0.290,-0.290,-0.290,0.000,0.000,0.000
1640053579903357952,"2021-12-21,02:26:19",10.1.1.3,315,-0.280,-0.280,-0.280,0.000,0.000,0.000
1640053579944624896,"2021-12-21,02:26:19",10.1.1.3,0.35649800300598145,-0.280,-0.280,-0.280,0.000,0.000,0.000
1640053580224371968,"2021-12-21,02:26:20",10.1.1.3,277,-0.270,-0.270,-0.270,0.000,0.000,0.000
1640053580265388032,"2021-12-21,02:26:20",10.1.1.3,0.31894397735595703,-0.270,-0.270,-0.270,0.000,0.000,0.000
1640053580606176000,"2021-12-21,02:26:20",10.1.1.3,339,-0.260,-0.260,-0.260,0.000,0.000,0.000
1640053580651560192,"2021-12-21,02:26:20",10.1.1.3,0.3846738338470459,-0.260,-0.260,-0.260,0.000,0.000,0.000
1640053581004225024,"2021-12-21,02:26:21",10.1.1.3,350,-0.250,-0.250,-0.250,0.000,0.000,0.000
1640053581045522944,"2021-12-21,02:26:21",10.1.1.3,0.39263296127319336,-0.250,-0.250,-0.250,0.000,0.000,0.000
1640053581385144064,"2021-12-21,02:26:21",10.1.1.3,336,-0.240,-0.240,-0.240,0.000,0.000,0.000
1640053581441190912,"2021-12-21,02:26:21",10.1.1.3,0.39343786239624023,-0.240,-0.240,-0.240,0.000,0.000,0.000
1640053581802452992,"2021-12-21,02:26:21",10.1.1.3,359,-0.230,-0.230,-0.230,0.000,0.000,0.000
1640053581837946880,"2021-12-21,02:26:21",10.1.1.3,0.39524102210998535,-0.230,-0.230,-0.230,0.000,0.000,0.000
1640053582162183168,"2021-12-21,02:26:22",10.1.1.3,322,-0.220,-0.220,-0.220,0.000,0.000,0.000
1640053582202040064,"2021-12-21,02:26:22",10.1.1.3,0.36276698112487793,-0.220,-0.220,-0.220,0.000,0.000,0.000
1640053582530496000,"2021-12-21,02:26:22",10.1.1.3,326,-0.210,-0.210,-0.210,0.000,0.000,0.000
1640053582591411968,"2021-12-21,02:26:22",10.1.1.3,0.38771796226501465,-0.210,-0.210,-0.210,0.000,0.000,0.000
1640053582911353088,"2021-12-21,02:26:22",10.1.1.3,318,-0.200,-0.200,-0.200,0.000,0.000,0.000
1640053582953902848,"2021-12-21,02:26:22",10.1.1.3,0.3610539436340332,-0.200,-0.200,-0.200,0.000,0.000,0.000
1640053583320416000,"2021-12-21,02:26:23",10.1.1.3,364,-0.190,-0.190,-0.190,0.000,0.000,0.000
1640053583348214016,"2021-12-21,02:26:23",10.1.1.3,0.39217209815979004,-0.190,-0.190,-0.190,0.000,0.000,0.000
1640053583679780096,"2021-12-21,02:26:23",10.1.1.3,329,-0.180,-0.180,-0.180,0.000,0.000,0.000
1640053583702351104,"2021-12-21,02:26:23",10.1.1.3,0.35254502296447754,-0.180,-0.180,-0.180,0.000,0.000,0.000
1640053584048765952,"2021-12-21,02:26:24",10.1.1.3,344,-0.170,-0.170,-0.170,0.000,0.000,0.000
1640053584068111872,"2021-12-21,02:26:24",10.1.1.3,0.36385679244995117,-0.170,-0.170,-0.170,0.000,0.000,0.000
1640053584418391040,"2021-12-21,02:26:24",10.1.1.3,347,-0.160,-0.160,-0.160,0.000,0.000,0.000
1640053584464101120,"2021-12-21,02:26:24",10.1.1.3,0.39403700828552246,-0.160,-0.160,-0.160,0.000,0.000,0.000
1640053584826611968,"2021-12-21,02:26:24",10.1.1.3,361,-0.150,-0.150,-0.150,0.000,0.000,0.000
1640053584902401024,"2021-12-21,02:26:24",10.1.1.3,0.43686795234680176,-0.150,-0.150,-0.150,0.000,0.000,0.000
1640053585216459008,"2021-12-21,02:26:25",10.1.1.3,312,-0.140,-0.140,-0.140,0.000,0.000,0.000
1640053585252964864,"2021-12-21,02:26:25",10.1.1.3,0.3490560054779053,-0.140,-0.140,-0.140,0.000,0.000,0.000
1640053585597056000,"2021-12-21,02:26:25",10.1.1.3,341,-0.130,-0.130,-0.130,0.000,0.000,0.000
1640053585655699968,"2021-12-21,02:26:25",10.1.1.3,0.40080714225769043,-0.130,-0.130,-0.130,0.000,0.000,0.000
1640053585976396032,"2021-12-21,02:26:25",10.1.1.3,318,-0.120,-0.120,-0.120,0.000,0.000,0.000
1640053586011962880,"2021-12-21,02:26:26",10.1.1.3,0.354686975479126,-0.120,-0.120,-0.120,0.000,0.000,0.000
1640053586345101056,"2021-12-21,02:26:26",10.1.1.3,328,-0.110,-0.110,-0.110,0.000,0.000,0.000
1640053586388720128,"2021-12-21,02:26:26",10.1.1.3,0.37253308296203613,-0.110,-0.110,-0.110,0.000,0.000,0.000
1640053586738269184,"2021-12-21,02:26:26",10.1.1.3,347,-0.100,-0.100,-0.100,0.000,0.000,0.000
1640053586788197120,"2021-12-21,02:26:26",10.1.1.3,0.3978569507598877,-0.100,-0.100,-0.100,0.000,0.000,0.000
1640053587154267904,"2021-12-21,02:26:27",10.1.1.3,362,-0.090,-0.090,-0.090,0.000,0.000,0.000
1640053587198045952,"2021-12-21,02:26:27",10.1.1.3,0.40661096572875977,-0.090,-0.090,-0.090,0.000,0.000,0.000
1640053587543740160,"2021-12-21,02:26:27",10.1.1.3,343,-0.080,-0.080,-0.080,0.000,0.000,0.000
1640053587580375040,"2021-12-21,02:26:27",10.1.1.3,0.38077402114868164,-0.080,-0.080,-0.080,0.000,0.000,0.000
1640053587932569856,"2021-12-21,02:26:27",10.1.1.3,350,-0.070,-0.070,-0.070,0.000,0.000,0.000
1640053587956877824,"2021-12-21,02:26:27",10.1.1.3,0.37477588653564453,-0.070,-0.070,-0.070,0.000,0.000,0.000
1640053588313177088,"2021-12-21,02:26:28",10.1.1.3,353,-0.060,-0.060,-0.060,0.000,0.000,0.000
1640053588351744768,"2021-12-21,02:26:28",10.1.1.3,0.39296412467956543,-0.060,-0.060,-0.060,0.000,0.000,0.000
1640053588691190016,"2021-12-21,02:26:28",10.1.1.3,337,-0.050,-0.050,-0.050,0.000,0.000,0.000
1640053588752135936,"2021-12-21,02:26:28",10.1.1.3,0.3984699249267578,-0.050,-0.050,-0.050,0.000,0.000,0.000
1640053589082305792,"2021-12-21,02:26:29",10.1.1.3,328,-0.040,-0.040,-0.040,0.000,0.000,0.000
1640053589137932032,"2021-12-21,02:26:29",10.1.1.3,0.38396501541137695,-0.040,-0.040,-0.040,0.000,0.000,0.000
1640053589504219136,"2021-12-21,02:26:29",10.1.1.3,362,-0.030,-0.030,-0.030,0.000,0.000,0.000
1640053589530204160,"2021-12-21,02:26:29",10.1.1.3,0.38824892044067383,-0.030,-0.030,-0.030,0.000,0.000,0.000
1640053589878912000,"2021-12-21,02:26:29",10.1.1.3,346,-0.020,-0.020,-0.020,0.000,0.000,0.000
1640053589923908096,"2021-12-21,02:26:29",10.1.1.3,0.39190196990966797,-0.020,-0.020,-0.020,0.000,0.000,0.000
1640053590276851968,"2021-12-21,02:26:30",10.1.1.3,350,-0.010,-0.010,-0.010,0.000,0.000,0.000
1640053590288584960,"2021-12-21,02:26:30",10.1.1.3,0.36232590675354004,-0.010,-0.010,-0.010,0.000,0.000,0.000
1640053590619040000,"2021-12-21,02:26:30",10.1.1.3,327,0.000,0.000,0.000,0.000,0.000,0.000
1640053590656676096,"2021-12-21,02:26:30",10.1.1.3,0.3652620315551758,0.000,0.000,0.000,0.000,0.000,0.000
1640053591000386048,"2021-12-21,02:26:30",10.1.1.3,341,-0.010,-0.010,-0.010,0.000,0.000,0.000
1640053591071662848,"2021-12-21,02:26:31",10.1.1.3,0.41359519958496094,-0.010,-0.010,-0.010,0.000,0.000,0.000
1640053591401596928,"2021-12-21,02:26:31",10.1.1.3,326,-0.020,-0.020,-0.020,0.000,0.000,0.000
1640053591470086144,"2021-12-21,02:26:31",10.1.1.3,0.39478182792663574,-0.020,-0.020,-0.020,0.000,0.000,0.000
1640053591814205952,"2021-12-21,02:26:31",10.1.1.3,342,-0.030,-0.030,-0.030,0.000,0.000,0.000
1640053591867172864,"2021-12-21,02:26:31",10.1.1.3,0.395611047744751,-0.030,-0.030,-0.030,0.000,0.000,0.000
1640053592216032000,"2021-12-21,02:26:32",10.1.1.3,347,-0.040,-0.040,-0.040,0.000,0.000,0.000
1640053592287174912,"2021-12-21,02:26:32",10.1.1.3,0.4184548854827881,-0.040,-0.040,-0.040,0.000,0.000,0.000
1640053592617304064,"2021-12-21,02:26:32",10.1.1.3,328,-0.050,-0.050,-0.050,0.000,0.000,0.000
1640053592686917120,"2021-12-21,02:26:32",10.1.1.3,0.3980400562286377,-0.050,-0.050,-0.050,0.000,0.000,0.000
1640053592987977984,"2021-12-21,02:26:32",10.1.1.3,299,-0.060,-0.060,-0.060,0.000,0.000,0.000
1640053593019501056,"2021-12-21,02:26:33",10.1.1.3,0.3309609889984131,-0.060,-0.060,-0.060,0.000,0.000,0.000
1640053593384274944,"2021-12-21,02:26:33",10.1.1.3,362,-0.070,-0.070,-0.070,0.000,0.000,0.000
1640053593403570944,"2021-12-21,02:26:33",10.1.1.3,0.3817868232727051,-0.070,-0.070,-0.070,0.000,0.000,0.000
1640053593740790016,"2021-12-21,02:26:33",10.1.1.3,334,-0.080,-0.080,-0.080,0.000,0.000,0.000
1640053593792722944,"2021-12-21,02:26:33",10.1.1.3,0.38691115379333496,-0.080,-0.080,-0.080,0.000,0.000,0.000
1640053594142731008,"2021-12-21,02:26:34",10.1.1.3,348,-0.090,-0.090,-0.090,0.000,0.000,0.000
1640053594193945856,"2021-12-21,02:26:34",10.1.1.3,0.3998069763183594,-0.090,-0.090,-0.090,0.000,0.000,0.000
1640053594525314048,"2021-12-21,02:26:34",10.1.1.3,329,-0.100,-0.100,-0.100,0.000,0.000,0.000
1640053594557904896,"2021-12-21,02:26:34",10.1.1.3,0.36238980293273926,-0.100,-0.100,-0.100,0.000,0.000,0.000
1640053594932241920,"2021-12-21,02:26:34",10.1.1.3,372,-0.110,-0.110,-0.110,0.000,0.000,0.000
1640053594980092928,"2021-12-21,02:26:34",10.1.1.3,0.42006683349609375,-0.110,-0.110,-0.110,0.000,0.000,0.000
1640053595333612800,"2021-12-21,02:26:35",10.1.1.3,352,-0.120,-0.120,-0.120,0.000,0.000,0.000
1640053595379486976,"2021-12-21,02:26:35",10.1.1.3,0.3979339599609375,-0.120,-0.120,-0.120,0.000,0.000,0.000
1640053595734394112,"2021-12-21,02:26:35",10.1.1.3,353,-0.130,-0.130,-0.130,0.000,0.000,0.000
1640053595768733952,"2021-12-21,02:26:35",10.1.1.3,0.3878309726715088,-0.130,-0.130,-0.130,0.000,0.000,0.000
1640053596123270144,"2021-12-21,02:26:36",10.1.1.3,348,-0.140,-0.140,-0.140,0.000,0.000,0.000
1640053596160667904,"2021-12-21,02:26:36",10.1.1.3,0.3863198757171631,-0.140,-0.140,-0.140,0.000,0.000,0.000
1640053596493455872,"2021-12-21,02:26:36",10.1.1.3,329,-0.150,-0.150,-0.150,0.000,0.000,0.000
1640053596555716096,"2021-12-21,02:26:36",10.1.1.3,0.39270806312561035,-0.150,-0.150,-0.150,0.000,0.000,0.000
1640053596915365888,"2021-12-21,02:26:36",10.1.1.3,353,-0.160,-0.160,-0.160,0.000,0.000,0.000
1640053596947539200,"2021-12-21,02:26:36",10.1.1.3,0.38612890243530273,-0.160,-0.160,-0.160,0.000,0.000,0.000
1640053597304899072,"2021-12-21,02:26:37",10.1.1.3,356,-0.170,-0.170,-0.170,0.000,0.000,0.000
1640053597320178944,"2021-12-21,02:26:37",10.1.1.3,0.37140393257141113,-0.170,-0.170,-0.170,0.000,0.000,0.000
1640053597665411072,"2021-12-21,02:26:37",10.1.1.3,342,-0.180,-0.180,-0.180,0.000,0.000,0.000
1640053597692997888,"2021-12-21,02:26:37",10.1.1.3,0.3702430725097656,-0.180,-0.180,-0.180,0.000,0.000,0.000
1640053598025120000,"2021-12-21,02:26:38",10.1.1.3,330,-0.190,-0.190,-0.190,0.000,0.000,0.000
1640053598055607040,"2021-12-21,02:26:38",10.1.1.3,0.36114001274108887,-0.190,-0.190,-0.190,0.000,0.000,0.000
1640053598396177920,"2021-12-21,02:26:38",10.1.1.3,338,-0.200,-0.200,-0.200,0.000,0.000,0.000
1640053598445127936,"2021-12-21,02:26:38",10.1.1.3,0.38792991638183594,-0.200,-0.200,-0.200,0.000,0.000,0.000
1640053598765490944,"2021-12-21,02:26:38",10.1.1.3,317,-0.210,-0.210,-0.210,0.000,0.000,0.000
1640053598811901184,"2021-12-21,02:26:38",10.1.1.3,0.364487886428833,-0.210,-0.210,-0.210,0.000,0.000,0.000
1640053599145872128,"2021-12-21,02:26:39",10.1.1.3,331,-0.220,-0.220,-0.220,0.000,0.000,0.000
1640053599198447104,"2021-12-21,02:26:39",10.1.1.3,0.38463592529296875,-0.220,-0.220,-0.220,0.000,0.000,0.000
1640053599514545920,"2021-12-21,02:26:39",10.1.1.3,314,-0.230,-0.230,-0.230,0.000,0.000,0.000
1640053599578810880,"2021-12-21,02:26:39",10.1.1.3,0.3787260055541992,-0.230,-0.230,-0.230,0.000,0.000,0.000
1640053599915062016,"2021-12-21,02:26:39",10.1.1.3,334,-0.240,-0.240,-0.240,0.000,0.000,0.000
1640053599963543040,"2021-12-21,02:26:39",10.1.1.3,0.38317394256591797,-0.240,-0.240,-0.240,0.000,0.000,0.000
1640053600305371904,"2021-12-21,02:26:40",10.1.1.3,340,-0.250,-0.250,-0.250,0.000,0.000,0.000
1640053600348903936,"2021-12-21,02:26:40",10.1.1.3,0.3837289810180664,-0.250,-0.250,-0.250,0.000,0.000,0.000
1640053600694643968,"2021-12-21,02:26:40",10.1.1.3,344,-0.260,-0.260,-0.260,0.000,0.000,0.000
1640053600742307840,"2021-12-21,02:26:40",10.1.1.3,0.3919038772583008,-0.260,-0.260,-0.260,0.000,0.000,0.000
1640053601085377024,"2021-12-21,02:26:41",10.1.1.3,341,-0.270,-0.270,-0.270,0.000,0.000,0.000
1640053601136118784,"2021-12-21,02:26:41",10.1.1.3,0.39212918281555176,-0.270,-0.270,-0.270,0.000,0.000,0.000
1640053601455014912,"2021-12-21,02:26:41",10.1.1.3,316,-0.280,-0.280,-0.280,0.000,0.000,0.000
1640053601529268992,"2021-12-21,02:26:41",10.1.1.3,0.39133596420288086,-0.280,-0.280,-0.280,0.000,0.000,0.000
1640053601864567040,"2021-12-21,02:26:41",10.1.1.3,333,-0.290,-0.290,-0.290,0.000,0.000,0.000
1640053601953912064,"2021-12-21,02:26:41",10.1.1.3,0.4229772090911865,-0.290,-0.290,-0.290,0.000,0.000,0.000
1640053602325076224,"2021-12-21,02:26:42",10.1.1.3,369,-0.300,-0.300,-0.300,0.000,0.000,0.000
1640053602359302144,"2021-12-21,02:26:42",10.1.1.3,0.40369701385498047,-0.300,-0.300,-0.300,0.000,0.000,0.000
1640053602697245952,"2021-12-21,02:26:42",10.1.1.3,336,-0.310,-0.310,-0.310,0.000,0.000,0.000
1640053602716238080,"2021-12-21,02:26:42",10.1.1.3,0.3554189205169678,-0.310,-0.310,-0.310,0.000,0.000,0.000
1640053603045483008,"2021-12-21,02:26:43",10.1.1.3,327,-0.320,-0.320,-0.320,0.000,0.000,0.000
1640053603087896064,"2021-12-21,02:26:43",10.1.1.3,0.36931586265563965,-0.320,-0.320,-0.320,0.000,0.000,0.000
1640053603434721024,"2021-12-21,02:26:43",10.1.1.3,341,-0.330,-0.330,-0.330,0.000,0.000,0.000
1640053603489568000,"2021-12-21,02:26:43",10.1.1.3,0.3966999053955078,-0.330,-0.330,-0.330,0.000,0.000,0.000
1640053603835369984,"2021-12-21,02:26:43",10.1.1.3,343,-0.340,-0.340,-0.340,0.000,0.000,0.000
1640053603854598144,"2021-12-21,02:26:43",10.1.1.3,0.36265110969543457,-0.340,-0.340,-0.340,0.000,0.000,0.000
1640053604174246144,"2021-12-21,02:26:44",10.1.1.3,316,-0.350,-0.350,-0.350,0.000,0.000,0.000
1640053604259123200,"2021-12-21,02:26:44",10.1.1.3,0.4015061855316162,-0.350,-0.350,-0.350,0.000,0.000,0.000
1640053604594025984,"2021-12-21,02:26:44",10.1.1.3,331,-0.360,-0.360,-0.360,0.000,0.000,0.000
1640053604656443136,"2021-12-21,02:26:44",10.1.1.3,0.39440488815307617,-0.360,-0.360,-0.360,0.000,0.000,0.000
1640053604964658944,"2021-12-21,02:26:44",10.1.1.3,306,-0.370,-0.370,-0.370,0.000,0.000,0.000
1640053605012083968,"2021-12-21,02:26:45",10.1.1.3,0.3536059856414795,-0.370,-0.370,-0.370,0.000,0.000,0.000
1640053605343475200,"2021-12-21,02:26:45",10.1.1.3,329,-0.380,-0.380,-0.380,0.000,0.000,0.000
1640053605372751872,"2021-12-21,02:26:45",10.1.1.3,0.3593759536743164,-0.380,-0.380,-0.380,0.000,0.000,0.000
1640053605722426880,"2021-12-21,02:26:45",10.1.1.3,342,-0.390,-0.390,-0.390,0.000,0.000,0.000
1640053605768704000,"2021-12-21,02:26:45",10.1.1.3,0.3886909484863281,-0.390,-0.390,-0.390,0.000,0.000,0.000
1640053606102423808,"2021-12-21,02:26:46",10.1.1.3,331,-0.400,-0.400,-0.400,0.000,0.000,0.000
1640053606163815936,"2021-12-21,02:26:46",10.1.1.3,0.3937549591064453,-0.400,-0.400,-0.400,0.000,0.000,0.000
1640053606512190208,"2021-12-21,02:26:46",10.1.1.3,346,-0.410,-0.410,-0.410,0.000,0.000,0.000
1640053606606283008,"2021-12-21,02:26:46",10.1.1.3,0.44072699546813965,-0.410,-0.410,-0.410,0.000,0.000,0.000
1640053606904155136,"2021-12-21,02:26:46",10.1.1.3,295,-0.420,-0.420,-0.420,0.000,0.000,0.000
1640053606951757824,"2021-12-21,02:26:46",10.1.1.3,0.34355592727661133,-0.420,-0.420,-0.420,0.000,0.000,0.000
1640053607280772864,"2021-12-21,02:26:47",10.1.1.3,327,-0.430,-0.430,-0.430,0.000,0.000,0.000
1640053607341597952,"2021-12-21,02:26:47",10.1.1.3,0.3883230686187744,-0.430,-0.430,-0.430,0.000,0.000,0.000
1640053607670081024,"2021-12-21,02:26:47",10.1.1.3,326,-0.440,-0.440,-0.440,0.000,0.000,0.000
1640053607735506176,"2021-12-21,02:26:47",10.1.1.3,0.39226293563842773,-0.440,-0.440,-0.440,0.000,0.000,0.000
1640053608060056064,"2021-12-21,02:26:48",10.1.1.3,321,-0.450,-0.450,-0.450,0.000,0.000,0.000
1640053608122329088,"2021-12-21,02:26:48",10.1.1.3,0.38469600677490234,-0.450,-0.450,-0.450,0.000,0.000,0.000
1640053608449254144,"2021-12-21,02:26:48",10.1.1.3,325,-0.460,-0.460,-0.460,0.000,0.000,0.000
1640053608479556096,"2021-12-21,02:26:48",10.1.1.3,0.35528087615966797,-0.460,-0.460,-0.460,0.000,0.000,0.000
1640053608823000064,"2021-12-21,02:26:48",10.1.1.3,341,-0.470,-0.470,-0.470,0.000,0.000,0.000
1640053608846611968,"2021-12-21,02:26:48",10.1.1.3,0.36490797996520996,-0.470,-0.470,-0.470,0.000,0.000,0.000
1640053609168251904,"2021-12-21,02:26:49",10.1.1.3,320,-0.480,-0.480,-0.480,0.000,0.000,0.000
1640053609243966208,"2021-12-21,02:26:49",10.1.1.3,0.3959648609161377,-0.480,-0.480,-0.480,0.000,0.000,0.000
1640053609568659968,"2021-12-21,02:26:49",10.1.1.3,323,-0.490,-0.490,-0.490,0.000,0.000,0.000
1640053609611803136,"2021-12-21,02:26:49",10.1.1.3,0.3663780689239502,-0.490,-0.490,-0.490,0.000,0.000,0.000
1640053609927973120,"2021-12-21,02:26:49",10.1.1.3,314,-0.480,-0.480,-0.480,0.000,0.000,0.000
1640053609991878144,"2021-12-21,02:26:49",10.1.1.3,0.37880587577819824,-0.480,-0.480,-0.480,0.000,0.000,0.000
1640053610286863104,"2021-12-21,02:26:50",10.1.1.3,293,-0.470,-0.470,-0.470,0.000,0.000,0.000
1640053610342720000,"2021-12-21,02:26:50",10.1.1.3,0.34876418113708496,-0.470,-0.470,-0.470,0.000,0.000,0.000
1640053610657021952,"2021-12-21,02:26:50",10.1.1.3,312,-0.460,-0.460,-0.460,0.000,0.000,0.000
1640053610728880896,"2021-12-21,02:26:50",10.1.1.3,0.38469886779785156,-0.460,-0.460,-0.460,0.000,0.000,0.000
1640053611026125824,"2021-12-21,02:26:51",10.1.1.3,295,-0.450,-0.450,-0.450,0.000,0.000,0.000
1640053611071804928,"2021-12-21,02:26:51",10.1.1.3,0.34122705459594727,-0.450,-0.450,-0.450,0.000,0.000,0.000
1640053611386135040,"2021-12-21,02:26:51",10.1.1.3,312,-0.440,-0.440,-0.440,0.000,0.000,0.000
1640053611436526080,"2021-12-21,02:26:51",10.1.1.3,0.363239049911499,-0.440,-0.440,-0.440,0.000,0.000,0.000
1640053611754596096,"2021-12-21,02:26:51",10.1.1.3,316,-0.430,-0.430,-0.430,0.000,0.000,0.000
1640053611788897024,"2021-12-21,02:26:51",10.1.1.3,0.35109400749206543,-0.430,-0.430,-0.430,0.000,0.000,0.000
1640053612136751872,"2021-12-21,02:26:52",10.1.1.3,342,-0.420,-0.420,-0.420,0.000,0.000,0.000
1640053612160364032,"2021-12-21,02:26:52",10.1.1.3,0.36783814430236816,-0.420,-0.420,-0.420,0.000,0.000,0.000
1640053612494618880,"2021-12-21,02:26:52",10.1.1.3,332,-0.410,-0.410,-0.410,0.000,0.000,0.000
1640053612514592000,"2021-12-21,02:26:52",10.1.1.3,0.3527681827545166,-0.410,-0.410,-0.410,0.000,0.000,0.000
1640053612844414976,"2021-12-21,02:26:52",10.1.1.3,324,-0.400,-0.400,-0.400,0.000,0.000,0.000
1640053612898286080,"2021-12-21,02:26:52",10.1.1.3,0.37842798233032227,-0.400,-0.400,-0.400,0.000,0.000,0.000
1640053613242980864,"2021-12-21,02:26:53",10.1.1.3,342,-0.390,-0.390,-0.390,0.000,0.000,0.000
1640053613296041984,"2021-12-21,02:26:53",10.1.1.3,0.3960151672363281,-0.390,-0.390,-0.390,0.000,0.000,0.000
1640053613642723072,"2021-12-21,02:26:53",10.1.1.3,344,-0.380,-0.380,-0.380,0.000,0.000,0.000
1640053613695867136,"2021-12-21,02:26:53",10.1.1.3,0.3976728916168213,-0.380,-0.380,-0.380,0.000,0.000,0.000
1640053614044465152,"2021-12-21,02:26:54",10.1.1.3,346,-0.370,-0.370,-0.370,0.000,0.000,0.000
1640053614089682944,"2021-12-21,02:26:54",10.1.1.3,0.39200711250305176,-0.370,-0.370,-0.370,0.000,0.000,0.000
1640053614420851968,"2021-12-21,02:26:54",10.1.1.3,329,-0.360,-0.360,-0.360,0.000,0.000,0.000
1640053614458075136,"2021-12-21,02:26:54",10.1.1.3,0.36693382263183594,-0.360,-0.360,-0.360,0.000,0.000,0.000
1640053614800386816,"2021-12-21,02:26:54",10.1.1.3,340,-0.350,-0.350,-0.350,0.000,0.000,0.000
1640053614840958208,"2021-12-21,02:26:54",10.1.1.3,0.38102006912231445,-0.350,-0.350,-0.350,0.000,0.000,0.000
1640053615181953792,"2021-12-21,02:26:55",10.1.1.3,338,-0.340,-0.340,-0.340,0.000,0.000,0.000
1640053615214626048,"2021-12-21,02:26:55",10.1.1.3,0.37199902534484863,-0.340,-0.340,-0.340,0.000,0.000,0.000
1640053615559590144,"2021-12-21,02:26:55",10.1.1.3,343,-0.330,-0.330,-0.330,0.000,0.000,0.000
1640053615607585792,"2021-12-21,02:26:55",10.1.1.3,0.3915390968322754,-0.330,-0.330,-0.330,0.000,0.000,0.000
1640053615930754048,"2021-12-21,02:26:55",10.1.1.3,320,-0.320,-0.320,-0.320,0.000,0.000,0.000
1640053616015889920,"2021-12-21,02:26:56",10.1.1.3,0.4064810276031494,-0.320,-0.320,-0.320,0.000,0.000,0.000
1640053616320866048,"2021-12-21,02:26:56",10.1.1.3,301,-0.310,-0.310,-0.310,0.000,0.000,0.000
1640053616339569152,"2021-12-21,02:26:56",10.1.1.3,0.3222470283508301,-0.310,-0.310,-0.310,0.000,0.000,0.000
1640053616669477888,"2021-12-21,02:26:56",10.1.1.3,324,-0.300,-0.300,-0.300,0.000,0.000,0.000
1640053616736787968,"2021-12-21,02:26:56",10.1.1.3,0.39230799674987793,-0.300,-0.300,-0.300,0.000,0.000,0.000
1640053617067404032,"2021-12-21,02:26:57",10.1.1.3,328,-0.290,-0.290,-0.290,0.000,0.000,0.000
1640053617159614208,"2021-12-21,02:26:57",10.1.1.3,0.421032190322876,-0.290,-0.290,-0.290,0.000,0.000,0.000
1640053617516872960,"2021-12-21,02:26:57",10.1.1.3,355,-0.280,-0.280,-0.280,0.000,0.000,0.000
1640053617565403904,"2021-12-21,02:26:57",10.1.1.3,0.4037001132965088,-0.280,-0.280,-0.280,0.000,0.000,0.000
1640053617925968896,"2021-12-21,02:26:57",10.1.1.3,358,-0.270,-0.270,-0.270,0.000,0.000,0.000
1640053617957987072,"2021-12-21,02:26:57",10.1.1.3,0.39095211029052734,-0.270,-0.270,-0.270,0.000,0.000,0.000
1640053618318522880,"2021-12-21,02:26:58",10.1.1.3,355,-0.260,-0.260,-0.260,0.000,0.000,0.000
1640053618392796160,"2021-12-21,02:26:58",10.1.1.3,0.4323139190673828,-0.260,-0.260,-0.260,0.000,0.000,0.000
1640053618755549952,"2021-12-21,02:26:58",10.1.1.3,359,-0.250,-0.250,-0.250,0.000,0.000,0.000
1640053618788367872,"2021-12-21,02:26:58",10.1.1.3,0.39306187629699707,-0.250,-0.250,-0.250,0.000,0.000,0.000
1640053619126545920,"2021-12-21,02:26:59",10.1.1.3,333,-0.240,-0.240,-0.240,0.000,0.000,0.000
1640053619149372928,"2021-12-21,02:26:59",10.1.1.3,0.35632991790771484,-0.240,-0.240,-0.240,0.000,0.000,0.000
1640053619503585024,"2021-12-21,02:26:59",10.1.1.3,351,-0.230,-0.230,-0.230,0.000,0.000,0.000
1640053619524941056,"2021-12-21,02:26:59",10.1.1.3,0.3733031749725342,-0.230,-0.230,-0.230,0.000,0.000,0.000
1640053619873990144,"2021-12-21,02:26:59",10.1.1.3,346,-0.220,-0.220,-0.220,0.000,0.000,0.000
1640053619928032000,"2021-12-21,02:26:59",10.1.1.3,0.40100789070129395,-0.220,-0.220,-0.220,0.000,0.000,0.000
1640053620272233984,"2021-12-21,02:27:00",10.1.1.3,342,-0.210,-0.210,-0.210,0.000,0.000,0.000
1640053620291194880,"2021-12-21,02:27:00",10.1.1.3,0.3613300323486328,-0.210,-0.210,-0.210,0.000,0.000,0.000
1640053620632688128,"2021-12-21,02:27:00",10.1.1.3,339,-0.200,-0.200,-0.200,0.000,0.000,0.000
1640053620650278144,"2021-12-21,02:27:00",10.1.1.3,0.35728883743286133,-0.200,-0.200,-0.200,0.000,0.000,0.000
1640053621001244928,"2021-12-21,02:27:01",10.1.1.3,344,-0.190,-0.190,-0.190,0.000,0.000,0.000
1640053621022833152,"2021-12-21,02:27:01",10.1.1.3,0.3660290241241455,-0.190,-0.190,-0.190,0.000,0.000,0.000
1640053621344327936,"2021-12-21,02:27:01",10.1.1.3,317,-0.180,-0.180,-0.180,0.000,0.000,0.000
1640053621369189120,"2021-12-21,02:27:01",10.1.1.3,0.3426330089569092,-0.180,-0.180,-0.180,0.000,0.000,0.000
1640053621727532032,"2021-12-21,02:27:01",10.1.1.3,354,-0.170,-0.170,-0.170,0.000,0.000,0.000
1640053621799650048,"2021-12-21,02:27:01",10.1.1.3,0.42896413803100586,-0.170,-0.170,-0.170,0.000,0.000,0.000
1640053622107407104,"2021-12-21,02:27:02",10.1.1.3,305,-0.160,-0.160,-0.160,0.000,0.000,0.000
1640053622155137024,"2021-12-21,02:27:02",10.1.1.3,0.3535749912261963,-0.160,-0.160,-0.160,0.000,0.000,0.000
1640053622510345984,"2021-12-21,02:27:02",10.1.1.3,353,-0.150,-0.150,-0.150,0.000,0.000,0.000
1640053622544563968,"2021-12-21,02:27:02",10.1.1.3,0.3881101608276367,-0.150,-0.150,-0.150,0.000,0.000,0.000
1640053622870099968,"2021-12-21,02:27:02",10.1.1.3,324,-0.140,-0.140,-0.140,0.000,0.000,0.000
1640053622932396800,"2021-12-21,02:27:02",10.1.1.3,0.38643598556518555,-0.140,-0.140,-0.140,0.000,0.000,0.000
1640053623272424960,"2021-12-21,02:27:03",10.1.1.3,338,-0.130,-0.130,-0.130,0.000,0.000,0.000
1640053623317029120,"2021-12-21,02:27:03",10.1.1.3,0.3830249309539795,-0.130,-0.130,-0.130,0.000,0.000,0.000
1640053623663040000,"2021-12-21,02:27:03",10.1.1.3,344,-0.120,-0.120,-0.120,0.000,0.000,0.000
1640053623686919936,"2021-12-21,02:27:03",10.1.1.3,0.3683960437774658,-0.120,-0.120,-0.120,0.000,0.000,0.000
1640053624056072960,"2021-12-21,02:27:04",10.1.1.3,357,-0.110,-0.110,-0.110,0.000,0.000,0.000
1640053624127141888,"2021-12-21,02:27:04",10.1.1.3,0.42834997177124023,-0.110,-0.110,-0.110,0.000,0.000,0.000
1640053624466938880,"2021-12-21,02:27:04",10.1.1.3,338,-0.100,-0.100,-0.100,0.000,0.000,0.000
1640053624497644800,"2021-12-21,02:27:04",10.1.1.3,0.3688669204711914,-0.100,-0.100,-0.100,0.000,0.000,0.000
1640053624867904000,"2021-12-21,02:27:04",10.1.1.3,366,-0.090,-0.090,-0.090,0.000,0.000,0.000
1640053624902020864,"2021-12-21,02:27:04",10.1.1.3,0.4003159999847412,-0.090,-0.090,-0.090,0.000,0.000,0.000
1640053625238065920,"2021-12-21,02:27:05",10.1.1.3,333,-0.080,-0.080,-0.080,0.000,0.000,0.000
1640053625284399104,"2021-12-21,02:27:05",10.1.1.3,0.38042497634887695,-0.080,-0.080,-0.080,0.000,0.000,0.000
1640053625619118080,"2021-12-21,02:27:05",10.1.1.3,330,-0.070,-0.070,-0.070,0.000,0.000,0.000
1640053625677110784,"2021-12-21,02:27:05",10.1.1.3,0.3887929916381836,-0.070,-0.070,-0.070,0.000,0.000,0.000
1640053626022672896,"2021-12-21,02:27:06",10.1.1.3,342,-0.060,-0.060,-0.060,0.000,0.000,0.000
1640053626075464960,"2021-12-21,02:27:06",10.1.1.3,0.3952798843383789,-0.060,-0.060,-0.060,0.000,0.000,0.000
1640053626392242944,"2021-12-21,02:27:06",10.1.1.3,314,-0.050,-0.050,-0.050,0.000,0.000,0.000
1640053626465519872,"2021-12-21,02:27:06",10.1.1.3,0.3883030414581299,-0.050,-0.050,-0.050,0.000,0.000,0.000
1640053626812235008,"2021-12-21,02:27:06",10.1.1.3,344,-0.040,-0.040,-0.040,0.000,0.000,0.000
1640053626826823936,"2021-12-21,02:27:06",10.1.1.3,0.35922694206237793,-0.040,-0.040,-0.040,0.000,0.000,0.000
1640053627121989888,"2021-12-21,02:27:07",10.1.1.3,293,-0.030,-0.030,-0.030,0.000,0.000,0.000
1640053627158483968,"2021-12-21,02:27:07",10.1.1.3,0.33004307746887207,-0.030,-0.030,-0.030,0.000,0.000,0.000
1640053627465325056,"2021-12-21,02:27:07",10.1.1.3,305,-0.020,-0.020,-0.020,0.000,0.000,0.000
1640053627547576064,"2021-12-21,02:27:07",10.1.1.3,0.38753795623779297,-0.020,-0.020,-0.020,0.000,0.000,0.000
1640053627853751040,"2021-12-21,02:27:07",10.1.1.3,303,-0.010,-0.010,-0.010,0.000,0.000,0.000
1640053627886324992,"2021-12-21,02:27:07",10.1.1.3,0.3366360664367676,-0.010,-0.010,-0.010,0.000,0.000,0.000
1640053628223550976,"2021-12-21,02:27:08",10.1.1.3,335,0.000,0.000,0.000,0.000,0.000,0.000
1640053628260471040,"2021-12-21,02:27:08",10.1.1.3,0.37212514877319336,0.000,0.000,0.000,0.000,0.000,0.000
1640053628595031040,"2021-12-21,02:27:08",10.1.1.3,332,-0.010,-0.010,-0.010,0.000,0.000,0.000
1640053628618290944,"2021-12-21,02:27:08",10.1.1.3,0.3562028408050537,-0.010,-0.010,-0.010,0.000,0.000,0.000
1640053628995909888,"2021-12-21,02:27:08",10.1.1.3,375,-0.020,-0.020,-0.020,0.000,0.000,0.000
1640053629022530048,"2021-12-21,02:27:09",10.1.1.3,0.4022529125213623,-0.020,-0.020,-0.020,0.000,0.000,0.000
1640053629346268928,"2021-12-21,02:27:09",10.1.1.3,322,-0.030,-0.030,-0.030,0.000,0.000,0.000
1640053629386149888,"2021-12-21,02:27:09",10.1.1.3,0.36116695404052734,-0.030,-0.030,-0.030,0.000,0.000,0.000
1640053629729438976,"2021-12-21,02:27:09",10.1.1.3,338,-0.040,-0.040,-0.040,0.000,0.000,0.000
1640053629762100992,"2021-12-21,02:27:09",10.1.1.3,0.374431848526001,-0.040,-0.040,-0.040,0.000,0.000,0.000
1640053630095804928,"2021-12-21,02:27:10",10.1.1.3,332,-0.050,-0.050,-0.050,0.000,0.000,0.000
1640053630148655872,"2021-12-21,02:27:10",10.1.1.3,0.38521385192871094,-0.050,-0.050,-0.050,0.000,0.000,0.000
1640053630526566144,"2021-12-21,02:27:10",10.1.1.3,375,-0.060,-0.060,-0.060,0.000,0.000,0.000
1640053630540081920,"2021-12-21,02:27:10",10.1.1.3,0.38942503929138184,-0.060,-0.060,-0.060,0.000,0.000,0.000
1640053630845249792,"2021-12-21,02:27:10",10.1.1.3,303,-0.070,-0.070,-0.070,0.000,0.000,0.000
1640053630870031104,"2021-12-21,02:27:10",10.1.1.3,0.3285970687866211,-0.070,-0.070,-0.070,0.000,0.000,0.000
1640053631166618112,"2021-12-21,02:27:11",10.1.1.3,294,-0.080,-0.080,-0.080,0.000,0.000,0.000
1640053631180707072,"2021-12-21,02:27:11",10.1.1.3,0.3093409538269043,-0.080,-0.080,-0.080,0.000,0.000,0.000
1640053631456798976,"2021-12-21,02:27:11",10.1.1.3,274,-0.090,-0.090,-0.090,0.000,0.000,0.000
1640053631493911040,"2021-12-21,02:27:11",10.1.1.3,0.31189918518066406,-0.090,-0.090,-0.090,0.000,0.000,0.000
1640053631776261120,"2021-12-21,02:27:11",10.1.1.3,280,-0.100,-0.100,-0.100,0.000,0.000,0.000
1640053631804769024,"2021-12-21,02:27:11",10.1.1.3,0.30911993980407715,-0.100,-0.100,-0.100,0.000,0.000,0.000
1640053632108110848,"2021-12-21,02:27:12",10.1.1.3,301,-0.110,-0.110,-0.110,0.000,0.000,0.000
1640053632146910976,"2021-12-21,02:27:12",10.1.1.3,0.34079885482788086,-0.110,-0.110,-0.110,0.000,0.000,0.000
1640053632456334080,"2021-12-21,02:27:12",10.1.1.3,307,-0.120,-0.120,-0.120,0.000,0.000,0.000
1640053632495110144,"2021-12-21,02:27:12",10.1.1.3,0.3466989994049072,-0.120,-0.120,-0.120,0.000,0.000,0.000
1640053632825638144,"2021-12-21,02:27:12",10.1.1.3,328,-0.130,-0.130,-0.130,0.000,0.000,0.000
1640053632880187136,"2021-12-21,02:27:12",10.1.1.3,0.3833949565887451,-0.130,-0.130,-0.130,0.000,0.000,0.000
1640053633175749120,"2021-12-21,02:27:13",10.1.1.3,294,-0.140,-0.140,-0.140,0.000,0.000,0.000
1640053633212524800,"2021-12-21,02:27:13",10.1.1.3,0.33113789558410645,-0.140,-0.140,-0.140,0.000,0.000,0.000
1640053633529510912,"2021-12-21,02:27:13",10.1.1.3,314,-0.150,-0.150,-0.150,0.000,0.000,0.000
1640053633536552960,"2021-12-21,02:27:13",10.1.1.3,0.32227087020874023,-0.150,-0.150,-0.150,0.000,0.000,0.000
1640053633836646912,"2021-12-21,02:27:13",10.1.1.3,298,-0.160,-0.160,-0.160,0.000,0.000,0.000
1640053633857978112,"2021-12-21,02:27:13",10.1.1.3,0.3195149898529053,-0.160,-0.160,-0.160,0.000,0.000,0.000
1640053634136371968,"2021-12-21,02:27:14",10.1.1.3,276,-0.170,-0.170,-0.170,0.000,0.000,0.000
1640053634166953984,"2021-12-21,02:27:14",10.1.1.3,0.3078129291534424,-0.170,-0.170,-0.170,0.000,0.000,0.000
1640053634476669184,"2021-12-21,02:27:14",10.1.1.3,307,-0.180,-0.180,-0.180,0.000,0.000,0.000
1640053634484421120,"2021-12-21,02:27:14",10.1.1.3,0.31578779220581055,-0.180,-0.180,-0.180,0.000,0.000,0.000
1640053634765537024,"2021-12-21,02:27:14",10.1.1.3,279,-0.190,-0.190,-0.190,0.000,0.000,0.000
1640053634811393024,"2021-12-21,02:27:14",10.1.1.3,0.3256828784942627,-0.190,-0.190,-0.190,0.000,0.000,0.000
1640053635115705856,"2021-12-21,02:27:15",10.1.1.3,302,-0.200,-0.200,-0.200,0.000,0.000,0.000
1640053635186490112,"2021-12-21,02:27:15",10.1.1.3,0.3736228942871094,-0.200,-0.200,-0.200,0.000,0.000,0.000
1640053635484167168,"2021-12-21,02:27:15",10.1.1.3,296,-0.210,-0.210,-0.210,0.000,0.000,0.000
1640053635506119936,"2021-12-21,02:27:15",10.1.1.3,0.3182699680328369,-0.210,-0.210,-0.210,0.000,0.000,0.000
1640053635793800192,"2021-12-21,02:27:15",10.1.1.3,286,-0.220,-0.220,-0.220,0.000,0.000,0.000
1640053635830724864,"2021-12-21,02:27:15",10.1.1.3,0.3233659267425537,-0.220,-0.220,-0.220,0.000,0.000,0.000
1640053636155795968,"2021-12-21,02:27:16",10.1.1.3,323,-0.230,-0.230,-0.230,0.000,0.000,0.000
1640053636165975040,"2021-12-21,02:27:16",10.1.1.3,0.33394503593444824,-0.230,-0.230,-0.230,0.000,0.000,0.000
1640053636524944128,"2021-12-21,02:27:16",10.1.1.3,355,-0.240,-0.240,-0.240,0.000,0.000,0.000
1640053636591175168,"2021-12-21,02:27:16",10.1.1.3,0.42270493507385254,-0.240,-0.240,-0.240,0.000,0.000,0.000
1640053636915067904,"2021-12-21,02:27:16",10.1.1.3,322,-0.250,-0.250,-0.250,0.000,0.000,0.000
1640053636978693888,"2021-12-21,02:27:16",10.1.1.3,0.3858988285064697,-0.250,-0.250,-0.250,0.000,0.000,0.000
1640053637305906944,"2021-12-21,02:27:17",10.1.1.3,325,-0.260,-0.260,-0.260,0.000,0.000,0.000
1640053637376250880,"2021-12-21,02:27:17",10.1.1.3,0.3958470821380615,-0.260,-0.260,-0.260,0.000,0.000,0.000
1640053637708737024,"2021-12-21,02:27:17",10.1.1.3,330,-0.270,-0.270,-0.270,0.000,0.000,0.000
1640053637767527936,"2021-12-21,02:27:17",10.1.1.3,0.3894960880279541,-0.270,-0.270,-0.270,0.000,0.000,0.000
1640053638083833088,"2021-12-21,02:27:18",10.1.1.3,314,-0.280,-0.280,-0.280,0.000,0.000,0.000
1640053638153979904,"2021-12-21,02:27:18",10.1.1.3,0.38500499725341797,-0.280,-0.280,-0.280,0.000,0.000,0.000
1640053638482429952,"2021-12-21,02:27:18",10.1.1.3,324,-0.290,-0.290,-0.290,0.000,0.000,0.000
1640053638553282048,"2021-12-21,02:27:18",10.1.1.3,0.39575910568237305,-0.290,-0.290,-0.290,0.000,0.000,0.000
1640053638902673920,"2021-12-21,02:27:18",10.1.1.3,347,-0.300,-0.300,-0.300,0.000,0.000,0.000
1640053638976646912,"2021-12-21,02:27:18",10.1.1.3,0.42192697525024414,-0.300,-0.300,-0.300,0.000,0.000,0.000
1640053639311391232,"2021-12-21,02:27:19",10.1.1.3,332,-0.310,-0.310,-0.310,0.000,0.000,0.000
1640053639377805056,"2021-12-21,02:27:19",10.1.1.3,0.3992938995361328,-0.310,-0.310,-0.310,0.000,0.000,0.000
1640053639705136896,"2021-12-21,02:27:19",10.1.1.3,325,-0.320,-0.320,-0.320,0.000,0.000,0.000
1640053639768173824,"2021-12-21,02:27:19",10.1.1.3,0.38859987258911133,-0.320,-0.320,-0.320,0.000,0.000,0.000
1640053640120097024,"2021-12-21,02:27:20",10.1.1.3,349,-0.330,-0.330,-0.330,0.000,0.000,0.000
1640053640154927104,"2021-12-21,02:27:20",10.1.1.3,0.38448190689086914,-0.330,-0.330,-0.330,0.000,0.000,0.000
1640053640440926976,"2021-12-21,02:27:20",10.1.1.3,284,-0.340,-0.340,-0.340,0.000,0.000,0.000
1640053640483141888,"2021-12-21,02:27:20",10.1.1.3,0.3268768787384033,-0.340,-0.340,-0.340,0.000,0.000,0.000
1640053640807015936,"2021-12-21,02:27:20",10.1.1.3,321,-0.350,-0.350,-0.350,0.000,0.000,0.000
1640053640843319040,"2021-12-21,02:27:20",10.1.1.3,0.35857582092285156,-0.350,-0.350,-0.350,0.000,0.000,0.000
1640053641171329024,"2021-12-21,02:27:21",10.1.1.3,325,-0.360,-0.360,-0.360,0.000,0.000,0.000
1640053641206423040,"2021-12-21,02:27:21",10.1.1.3,0.3617079257965088,-0.360,-0.360,-0.360,0.000,0.000,0.000
1640053641530574080,"2021-12-21,02:27:21",10.1.1.3,322,-0.370,-0.370,-0.370,0.000,0.000,0.000
1640053641607983104,"2021-12-21,02:27:21",10.1.1.3,0.3996298313140869,-0.370,-0.370,-0.370,0.000,0.000,0.000
1640053641929721088,"2021-12-21,02:27:21",10.1.1.3,319,-0.380,-0.380,-0.380,0.000,0.000,0.000
1640053642003602944,"2021-12-21,02:27:22",10.1.1.3,0.3940451145172119,-0.380,-0.380,-0.380,0.000,0.000,0.000
1640053642328702976,"2021-12-21,02:27:22",10.1.1.3,323,-0.390,-0.390,-0.390,0.000,0.000,0.000
1640053642371607040,"2021-12-21,02:27:22",10.1.1.3,0.3663928508758545,-0.390,-0.390,-0.390,0.000,0.000,0.000
1640053642739584000,"2021-12-21,02:27:22",10.1.1.3,365,-0.400,-0.400,-0.400,0.000,0.000,0.000
1640053642772538880,"2021-12-21,02:27:22",10.1.1.3,0.39896392822265625,-0.400,-0.400,-0.400,0.000,0.000,0.000
1640053643056820992,"2021-12-21,02:27:23",10.1.1.3,282,-0.410,-0.410,-0.410,0.000,0.000,0.000
1640053643080868864,"2021-12-21,02:27:23",10.1.1.3,0.30704808235168457,-0.410,-0.410,-0.410,0.000,0.000,0.000
1640053643386811904,"2021-12-21,02:27:23",10.1.1.3,304,-0.420,-0.420,-0.420,0.000,0.000,0.000
1640053643425633024,"2021-12-21,02:27:23",10.1.1.3,0.34359192848205566,-0.420,-0.420,-0.420,0.000,0.000,0.000
1640053643725936896,"2021-12-21,02:27:23",10.1.1.3,297,-0.430,-0.430,-0.430,0.000,0.000,0.000
1640053643803982848,"2021-12-21,02:27:23",10.1.1.3,0.37590503692626953,-0.430,-0.430,-0.430,0.000,0.000,0.000
1640053644087739904,"2021-12-21,02:27:24",10.1.1.3,281,-0.440,-0.440,-0.440,0.000,0.000,0.000
1640053644182849792,"2021-12-21,02:27:24",10.1.1.3,0.3773798942565918,-0.440,-0.440,-0.440,0.000,0.000,0.000
1640053644526650880,"2021-12-21,02:27:24",10.1.1.3,342,-0.450,-0.450,-0.450,0.000,0.000,0.000
1640053644581090048,"2021-12-21,02:27:24",10.1.1.3,0.3968539237976074,-0.450,-0.450,-0.450,0.000,0.000,0.000
1640053644905029120,"2021-12-21,02:27:24",10.1.1.3,319,-0.460,-0.460,-0.460,0.000,0.000,0.000
1640053644986258944,"2021-12-21,02:27:24",10.1.1.3,0.4003870487213135,-0.460,-0.460,-0.460,0.000,0.000,0.000
1640053645335643136,"2021-12-21,02:27:25",10.1.1.3,347,-0.470,-0.470,-0.470,0.000,0.000,0.000
1640053645448108800,"2021-12-21,02:27:25",10.1.1.3,0.4604461193084717,-0.470,-0.470,-0.470,0.000,0.000,0.000
1640053645804001024,"2021-12-21,02:27:25",10.1.1.3,353,-0.480,-0.480,-0.480,0.000,0.000,0.000
1640053645885582848,"2021-12-21,02:27:25",10.1.1.3,0.4359118938446045,-0.480,-0.480,-0.480,0.000,0.000,0.000
1640053646203154944,"2021-12-21,02:27:26",10.1.1.3,315,-0.490,-0.490,-0.490,0.000,0.000,0.000
1640053646241666048,"2021-12-21,02:27:26",10.1.1.3,0.3545811176300049,-0.490,-0.490,-0.490,0.000,0.000,0.000
1640053646592089856,"2021-12-21,02:27:26",10.1.1.3,348,-0.480,-0.480,-0.480,0.000,0.000,0.000
1640053646636967936,"2021-12-21,02:27:26",10.1.1.3,0.3932681083679199,-0.480,-0.480,-0.480,0.000,0.000,0.000
1640053646942543872,"2021-12-21,02:27:26",10.1.1.3,304,-0.470,-0.470,-0.470,0.000,0.000,0.000
1640053647037928192,"2021-12-21,02:27:27",10.1.1.3,0.3994719982147217,-0.470,-0.470,-0.470,0.000,0.000,0.000
1640053647381361920,"2021-12-21,02:27:27",10.1.1.3,341,-0.460,-0.460,-0.460,0.000,0.000,0.000
1640053647403599104,"2021-12-21,02:27:27",10.1.1.3,0.3642761707305908,-0.460,-0.460,-0.460,0.000,0.000,0.000
1640053647753387008,"2021-12-21,02:27:27",10.1.1.3,345,-0.450,-0.450,-0.450,0.000,0.000,0.000
1640053647796432128,"2021-12-21,02:27:27",10.1.1.3,0.38915395736694336,-0.450,-0.450,-0.450,0.000,0.000,0.000
1640053648130987776,"2021-12-21,02:27:28",10.1.1.3,330,-0.440,-0.440,-0.440,0.000,0.000,0.000
1640053648193430016,"2021-12-21,02:27:28",10.1.1.3,0.39350390434265137,-0.440,-0.440,-0.440,0.000,0.000,0.000
1640053648541603072,"2021-12-21,02:27:28",10.1.1.3,341,-0.430,-0.430,-0.430,0.000,0.000,0.000
1640053648588599808,"2021-12-21,02:27:28",10.1.1.3,0.38968801498413086,-0.430,-0.430,-0.430,0.000,0.000,0.000
1640053648919759104,"2021-12-21,02:27:28",10.1.1.3,329,-0.420,-0.420,-0.420,0.000,0.000,0.000
1640053648992891904,"2021-12-21,02:27:28",10.1.1.3,0.4024500846862793,-0.420,-0.420,-0.420,0.000,0.000,0.000
1640053649308675072,"2021-12-21,02:27:29",10.1.1.3,314,-0.410,-0.410,-0.410,0.000,0.000,0.000
1640053649383631104,"2021-12-21,02:27:29",10.1.1.3,0.3892641067504883,-0.410,-0.410,-0.410,0.000,0.000,0.000
1640053649709280000,"2021-12-21,02:27:29",10.1.1.3,324,-0.400,-0.400,-0.400,0.000,0.000,0.000
1640053649774620160,"2021-12-21,02:27:29",10.1.1.3,0.3896481990814209,-0.400,-0.400,-0.400,0.000,0.000,0.000
1640053650107259136,"2021-12-21,02:27:30",10.1.1.3,330,-0.390,-0.390,-0.390,0.000,0.000,0.000
1640053650175441152,"2021-12-21,02:27:30",10.1.1.3,0.39931297302246094,-0.390,-0.390,-0.390,0.000,0.000,0.000
1640053650536609024,"2021-12-21,02:27:30",10.1.1.3,356,-0.380,-0.380,-0.380,0.000,0.000,0.000
1640053650580459008,"2021-12-21,02:27:30",10.1.1.3,0.40073490142822266,-0.380,-0.380,-0.380,0.000,0.000,0.000
1640053650905926912,"2021-12-21,02:27:30",10.1.1.3,323,-0.370,-0.370,-0.370,0.000,0.000,0.000
1640053650970151936,"2021-12-21,02:27:30",10.1.1.3,0.3882319927215576,-0.370,-0.370,-0.370,0.000,0.000,0.000
1640053651286082048,"2021-12-21,02:27:31",10.1.1.3,313,-0.360,-0.360,-0.360,0.000,0.000,0.000
1640053651329135872,"2021-12-21,02:27:31",10.1.1.3,0.3572249412536621,-0.360,-0.360,-0.360,0.000,0.000,0.000
1640053651685616128,"2021-12-21,02:27:31",10.1.1.3,354,-0.350,-0.350,-0.350,0.000,0.000,0.000
1640053651720525056,"2021-12-21,02:27:31",10.1.1.3,0.3898611068725586,-0.350,-0.350,-0.350,0.000,0.000,0.000
1640053652035535104,"2021-12-21,02:27:32",10.1.1.3,312,-0.340,-0.340,-0.340,0.000,0.000,0.000
1640053652076419072,"2021-12-21,02:27:32",10.1.1.3,0.35378384590148926,-0.340,-0.340,-0.340,0.000,0.000,0.000
1640053652083358976,"2021-12-21,02:27:32",10.1.1.3,-1,-0.330,-0.330,-0.330,0.000,0.000,0.000
1640053652459794944,"2021-12-21,02:27:32",10.1.1.3,0.381943941116333,-0.330,-0.330,-0.330,0.000,0.000,0.000
1640053652785840896,"2021-12-21,02:27:32",10.1.1.3,324,-0.320,-0.320,-0.320,0.000,0.000,0.000
1640053652826838016,"2021-12-21,02:27:32",10.1.1.3,0.36508822441101074,-0.320,-0.320,-0.320,0.000,0.000,0.000
1640053653172627968,"2021-12-21,02:27:33",10.1.1.3,340,-0.310,-0.310,-0.310,0.000,0.000,0.000
1640053653202477056,"2021-12-21,02:27:33",10.1.1.3,0.37039613723754883,-0.310,-0.310,-0.310,0.000,0.000,0.000
1640053653531908096,"2021-12-21,02:27:33",10.1.1.3,326,-0.300,-0.300,-0.300,0.000,0.000,0.000
1640053653575865856,"2021-12-21,02:27:33",10.1.1.3,0.370805025100708,-0.300,-0.300,-0.300,0.000,0.000,0.000
1640053653912601856,"2021-12-21,02:27:33",10.1.1.3,331,-0.290,-0.290,-0.290,0.000,0.000,0.000
1640053653942897152,"2021-12-21,02:27:33",10.1.1.3,0.3620619773864746,-0.290,-0.290,-0.290,0.000,0.000,0.000
1640053654292733952,"2021-12-21,02:27:34",10.1.1.3,348,-0.280,-0.280,-0.280,0.000,0.000,0.000
1640053654330091008,"2021-12-21,02:27:34",10.1.1.3,0.38483095169067383,-0.280,-0.280,-0.280,0.000,0.000,0.000
1640053654660824064,"2021-12-21,02:27:34",10.1.1.3,328,-0.270,-0.270,-0.270,0.000,0.000,0.000
1640053654699613184,"2021-12-21,02:27:34",10.1.1.3,0.36704301834106445,-0.270,-0.270,-0.270,0.000,0.000,0.000
1640053655005774080,"2021-12-21,02:27:35",10.1.1.3,304,-0.260,-0.260,-0.260,0.000,0.000,0.000
1640053655046025984,"2021-12-21,02:27:35",10.1.1.3,0.34493112564086914,-0.260,-0.260,-0.260,0.000,0.000,0.000
1640053655367600896,"2021-12-21,02:27:35",10.1.1.3,319,-0.250,-0.250,-0.250,0.000,0.000,0.000
1640053655393486080,"2021-12-21,02:27:35",10.1.1.3,0.34596705436706543,-0.250,-0.250,-0.250,0.000,0.000,0.000
1640053655699513856,"2021-12-21,02:27:35",10.1.1.3,304,-0.240,-0.240,-0.240,0.000,0.000,0.000
1640053655780260096,"2021-12-21,02:27:35",10.1.1.3,0.3853888511657715,-0.240,-0.240,-0.240,0.000,0.000,0.000
1640053656125638912,"2021-12-21,02:27:36",10.1.1.3,342,-0.230,-0.230,-0.230,0.000,0.000,0.000
1640053656169862912,"2021-12-21,02:27:36",10.1.1.3,0.38722801208496094,-0.230,-0.230,-0.230,0.000,0.000,0.000
1640053656513922048,"2021-12-21,02:27:36",10.1.1.3,341,-0.220,-0.220,-0.220,0.000,0.000,0.000
1640053656560730880,"2021-12-21,02:27:36",10.1.1.3,0.38907384872436523,-0.220,-0.220,-0.220,0.000,0.000,0.000
1640053656904339968,"2021-12-21,02:27:36",10.1.1.3,341,-0.210,-0.210,-0.210,0.000,0.000,0.000
1640053657003832064,"2021-12-21,02:27:37",10.1.1.3,0.44148898124694824,-0.210,-0.210,-0.210,0.000,0.000,0.000
1640053657358958848,"2021-12-21,02:27:37",10.1.1.3,353,-0.200,-0.200,-0.200,0.000,0.000,0.000
1640053657426940928,"2021-12-21,02:27:37",10.1.1.3,0.4215538501739502,-0.200,-0.200,-0.200,0.000,0.000,0.000
1640053657767357952,"2021-12-21,02:27:37",10.1.1.3,338,-0.190,-0.190,-0.190,0.000,0.000,0.000
1640053657858213888,"2021-12-21,02:27:37",10.1.1.3,0.4299051761627197,-0.190,-0.190,-0.190,0.000,0.000,0.000
1640053658209465856,"2021-12-21,02:27:38",10.1.1.3,346,-0.180,-0.180,-0.180,0.000,0.000,0.000
1640053658242542080,"2021-12-21,02:27:38",10.1.1.3,0.3796241283416748,-0.180,-0.180,-0.180,0.000,0.000,0.000
1640053658588505088,"2021-12-21,02:27:38",10.1.1.3,343,-0.170,-0.170,-0.170,0.000,0.000,0.000
1640053658629946112,"2021-12-21,02:27:38",10.1.1.3,0.3840920925140381,-0.170,-0.170,-0.170,0.000,0.000,0.000
1640053658972260864,"2021-12-21,02:27:38",10.1.1.3,339,-0.160,-0.160,-0.160,0.000,0.000,0.000
1640053659027458816,"2021-12-21,02:27:39",10.1.1.3,0.3947110176086426,-0.160,-0.160,-0.160,0.000,0.000,0.000
1640053659340730880,"2021-12-21,02:27:39",10.1.1.3,310,-0.150,-0.150,-0.150,0.000,0.000,0.000
1640053659394407936,"2021-12-21,02:27:39",10.1.1.3,0.3643670082092285,-0.150,-0.150,-0.150,0.000,0.000,0.000
1640053659732777984,"2021-12-21,02:27:39",10.1.1.3,336,-0.140,-0.140,-0.140,0.000,0.000,0.000
1640053659752082176,"2021-12-21,02:27:39",10.1.1.3,0.3554370403289795,-0.140,-0.140,-0.140,0.000,0.000,0.000
1640053660081651968,"2021-12-21,02:27:40",10.1.1.3,326,-0.130,-0.130,-0.130,0.000,0.000,0.000
1640053660104877824,"2021-12-21,02:27:40",10.1.1.3,0.3498098850250244,-0.130,-0.130,-0.130,0.000,0.000,0.000
1640053660442061056,"2021-12-21,02:27:40",10.1.1.3,334,-0.120,-0.120,-0.120,0.000,0.000,0.000
1640053660463593984,"2021-12-21,02:27:40",10.1.1.3,0.35665297508239746,-0.120,-0.120,-0.120,0.000,0.000,0.000
1640053660803565056,"2021-12-21,02:27:40",10.1.1.3,336,-0.110,-0.110,-0.110,0.000,0.000,0.000
1640053660828088064,"2021-12-21,02:27:40",10.1.1.3,0.3613910675048828,-0.110,-0.110,-0.110,0.000,0.000,0.000
1640053661132910080,"2021-12-21,02:27:41",10.1.1.3,302,-0.100,-0.100,-0.100,0.000,0.000,0.000
1640053661168598784,"2021-12-21,02:27:41",10.1.1.3,0.3388378620147705,-0.100,-0.100,-0.100,0.000,0.000,0.000
1640053661453620992,"2021-12-21,02:27:41",10.1.1.3,283,-0.090,-0.090,-0.090,0.000,0.000,0.000
1640053661503339008,"2021-12-21,02:27:41",10.1.1.3,0.3329448699951172,-0.090,-0.090,-0.090,0.000,0.000,0.000
1640053661803764224,"2021-12-21,02:27:41",10.1.1.3,298,-0.080,-0.080,-0.080,0.000,0.000,0.000
1640053661851051008,"2021-12-21,02:27:41",10.1.1.3,0.34632086753845215,-0.080,-0.080,-0.080,0.000,0.000,0.000
1640053662143429120,"2021-12-21,02:27:42",10.1.1.3,287,-0.070,-0.070,-0.070,0.000,0.000,0.000
1640053662177121024,"2021-12-21,02:27:42",10.1.1.3,0.3211991786956787,-0.070,-0.070,-0.070,0.000,0.000,0.000
1640053662463916032,"2021-12-21,02:27:42",10.1.1.3,284,-0.060,-0.060,-0.060,0.000,0.000,0.000
1640053662519409920,"2021-12-21,02:27:42",10.1.1.3,0.34055018424987793,-0.060,-0.060,-0.060,0.000,0.000,0.000
1640053662900013824,"2021-12-21,02:27:42",10.1.1.3,379,-0.050,-0.050,-0.050,0.000,0.000,0.000
1640053662915108864,"2021-12-21,02:27:42",10.1.1.3,0.3941159248352051,-0.050,-0.050,-0.050,0.000,0.000,0.000
1640053663256576000,"2021-12-21,02:27:43",10.1.1.3,336,-0.040,-0.040,-0.040,0.000,0.000,0.000
1640053663318754816,"2021-12-21,02:27:43",10.1.1.3,0.39836597442626953,-0.040,-0.040,-0.040,0.000,0.000,0.000
1640053663665541888,"2021-12-21,02:27:43",10.1.1.3,344,-0.030,-0.030,-0.030,0.000,0.000,0.000
1640053663718278912,"2021-12-21,02:27:43",10.1.1.3,0.39783501625061035,-0.030,-0.030,-0.030,0.000,0.000,0.000
1640053664036699904,"2021-12-21,02:27:44",10.1.1.3,315,-0.020,-0.020,-0.020,0.000,0.000,0.000
1640053664104346880,"2021-12-21,02:27:44",10.1.1.3,0.3838059902191162,-0.020,-0.020,-0.020,0.000,0.000,0.000
1640053664449475072,"2021-12-21,02:27:44",10.1.1.3,343,-0.010,-0.010,-0.010,0.000,0.000,0.000
1640053664502500096,"2021-12-21,02:27:44",10.1.1.3,0.3966851234436035,-0.010,-0.010,-0.010,0.000,0.000,0.000
1640053664817327872,"2021-12-21,02:27:44",10.1.1.3,312,0.000,0.000,0.000,0.000,0.000,0.000
1640053664859307008,"2021-12-21,02:27:44",10.1.1.3,0.3551628589630127,0.000,0.000,0.000,0.000,0.000,0.000
1640053665186050816,"2021-12-21,02:27:45",10.1.1.3,324,-0.010,-0.010,-0.010,0.000,0.000,0.000
1640053665227130880,"2021-12-21,02:27:45",10.1.1.3,0.36576008796691895,-0.010,-0.010,-0.010,0.000,0.000,0.000
1640053665545219840,"2021-12-21,02:27:45",10.1.1.3,316,-0.020,-0.020,-0.020,0.000,0.000,0.000
1640053665609793792,"2021-12-21,02:27:45",10.1.1.3,0.3808150291442871,-0.020,-0.020,-0.020,0.000,0.000,0.000
1640053665935348992,"2021-12-21,02:27:45",10.1.1.3,323,-0.030,-0.030,-0.030,0.000,0.000,0.000
1640053666010525952,"2021-12-21,02:27:46",10.1.1.3,0.39919495582580566,-0.030,-0.030,-0.030,0.000,0.000,0.000
1640053666335810048,"2021-12-21,02:27:46",10.1.1.3,323,-0.040,-0.040,-0.040,0.000,0.000,0.000
1640053666409735936,"2021-12-21,02:27:46",10.1.1.3,0.39786195755004883,-0.040,-0.040,-0.040,0.000,0.000,0.000
1640053666725630976,"2021-12-21,02:27:46",10.1.1.3,313,-0.050,-0.050,-0.050,0.000,0.000,0.000
1640053666802330880,"2021-12-21,02:27:46",10.1.1.3,0.3910958766937256,-0.050,-0.050,-0.050,0.000,0.000,0.000
1640053667145103872,"2021-12-21,02:27:47",10.1.1.3,341,-0.060,-0.060,-0.060,0.000,0.000,0.000
1640053667189441792,"2021-12-21,02:27:47",10.1.1.3,0.3857588768005371,-0.060,-0.060,-0.060,0.000,0.000,0.000
1640053667496280064,"2021-12-21,02:27:47",10.1.1.3,305,-0.070,-0.070,-0.070,0.000,0.000,0.000
1640053667580677888,"2021-12-21,02:27:47",10.1.1.3,0.38951897621154785,-0.070,-0.070,-0.070,0.000,0.000,0.000
1640053667922290176,"2021-12-21,02:27:47",10.1.1.3,340,-0.080,-0.080,-0.080,0.000,0.000,0.000
1640053667981622016,"2021-12-21,02:27:47",10.1.1.3,0.39951086044311523,-0.080,-0.080,-0.080,0.000,0.000,0.000
1640053668294529792,"2021-12-21,02:27:48",10.1.1.3,311,-0.090,-0.090,-0.090,0.000,0.000,0.000
1640053668357368064,"2021-12-21,02:27:48",10.1.1.3,0.37430715560913086,-0.090,-0.090,-0.090,0.000,0.000,0.000
1640053668663623168,"2021-12-21,02:27:48",10.1.1.3,304,-0.100,-0.100,-0.100,0.000,0.000,0.000
1640053668716120832,"2021-12-21,02:27:48",10.1.1.3,0.3569002151489258,-0.100,-0.100,-0.100,0.000,0.000,0.000
1640053669073741056,"2021-12-21,02:27:49",10.1.1.3,355,-0.110,-0.110,-0.110,0.000,0.000,0.000
1640053669110610944,"2021-12-21,02:27:49",10.1.1.3,0.3929879665374756,-0.110,-0.110,-0.110,0.000,0.000,0.000
1640053669463619072,"2021-12-21,02:27:49",10.1.1.3,351,-0.120,-0.120,-0.120,0.000,0.000,0.000
1640053669546067968,"2021-12-21,02:27:49",10.1.1.3,0.4340801239013672,-0.120,-0.120,-0.120,0.000,0.000,0.000
1640053669868689920,"2021-12-21,02:27:49",10.1.1.3,319,-0.130,-0.130,-0.130,0.000,0.000,0.000
1640053669919958016,"2021-12-21,02:27:49",10.1.1.3,0.3711390495300293,-0.130,-0.130,-0.130,0.000,0.000,0.000
1640053670258841088,"2021-12-21,02:27:50",10.1.1.3,329,-0.140,-0.140,-0.140,0.000,0.000,0.000
1640053670293179904,"2021-12-21,02:27:50",10.1.1.3,0.3642442226409912,-0.140,-0.140,-0.140,0.000,0.000,0.000
1640053670598434048,"2021-12-21,02:27:50",10.1.1.3,303,-0.150,-0.150,-0.150,0.000,0.000,0.000
1640053670641735936,"2021-12-21,02:27:50",10.1.1.3,0.3469550609588623,-0.150,-0.150,-0.150,0.000,0.000,0.000
1640053670948192000,"2021-12-21,02:27:50",10.1.1.3,304,-0.160,-0.160,-0.160,0.000,0.000,0.000
1640053671054127872,"2021-12-21,02:27:51",10.1.1.3,0.41092705726623535,-0.160,-0.160,-0.160,0.000,0.000,0.000
1640053671337590016,"2021-12-21,02:27:51",10.1.1.3,281,-0.170,-0.170,-0.170,0.000,0.000,0.000
1640053671405831936,"2021-12-21,02:27:51",10.1.1.3,0.3502960205078125,-0.170,-0.170,-0.170,0.000,0.000,0.000
1640053671731465984,"2021-12-21,02:27:51",10.1.1.3,321,-0.180,-0.180,-0.180,0.000,0.000,0.000
1640053671763286016,"2021-12-21,02:27:51",10.1.1.3,0.35381603240966797,-0.180,-0.180,-0.180,0.000,0.000,0.000
1640053672098633984,"2021-12-21,02:27:52",10.1.1.3,333,-0.190,-0.190,-0.190,0.000,0.000,0.000
1640053672157649920,"2021-12-21,02:27:52",10.1.1.3,0.39267611503601074,-0.190,-0.190,-0.190,0.000,0.000,0.000
1640053672506278912,"2021-12-21,02:27:52",10.1.1.3,346,-0.200,-0.200,-0.200,0.000,0.000,0.000
1640053672547849984,"2021-12-21,02:27:52",10.1.1.3,0.38814592361450195,-0.200,-0.200,-0.200,0.000,0.000,0.000
1640053672856683008,"2021-12-21,02:27:52",10.1.1.3,303,-0.210,-0.210,-0.210,0.000,0.000,0.000
1640053672882618880,"2021-12-21,02:27:52",10.1.1.3,0.329754114151001,-0.210,-0.210,-0.210,0.000,0.000,0.000
1640053673207969792,"2021-12-21,02:27:53",10.1.1.3,322,-0.220,-0.220,-0.220,0.000,0.000,0.000
1640053673276702976,"2021-12-21,02:27:53",10.1.1.3,0.3911449909210205,-0.220,-0.220,-0.220,0.000,0.000,0.000
1640053673605673984,"2021-12-21,02:27:53",10.1.1.3,327,-0.230,-0.230,-0.230,0.000,0.000,0.000
1640053673655875072,"2021-12-21,02:27:53",10.1.1.3,0.37776994705200195,-0.230,-0.230,-0.230,0.000,0.000,0.000
1640053673974249984,"2021-12-21,02:27:53",10.1.1.3,316,-0.240,-0.240,-0.240,0.000,0.000,0.000
1640053674037291008,"2021-12-21,02:27:54",10.1.1.3,0.3799750804901123,-0.240,-0.240,-0.240,0.000,0.000,0.000
1640053674364016128,"2021-12-21,02:27:54",10.1.1.3,324,-0.250,-0.250,-0.250,0.000,0.000,0.000
1640053674425286912,"2021-12-21,02:27:54",10.1.1.3,0.38633203506469727,-0.250,-0.250,-0.250,0.000,0.000,0.000
1640053674713243904,"2021-12-21,02:27:54",10.1.1.3,286,-0.260,-0.260,-0.260,0.000,0.000,0.000
1640053674775366912,"2021-12-21,02:27:54",10.1.1.3,0.34850406646728516,-0.260,-0.260,-0.260,0.000,0.000,0.000
1640053675081886976,"2021-12-21,02:27:55",10.1.1.3,304,-0.270,-0.270,-0.270,0.000,0.000,0.000
1640053675101465856,"2021-12-21,02:27:55",10.1.1.3,0.32427191734313965,-0.270,-0.270,-0.270,0.000,0.000,0.000
1640053675402447104,"2021-12-21,02:27:55",10.1.1.3,299,-0.280,-0.280,-0.280,0.000,0.000,0.000
1640053675425245952,"2021-12-21,02:27:55",10.1.1.3,0.32235193252563477,-0.280,-0.280,-0.280,0.000,0.000,0.000
1640053675712243968,"2021-12-21,02:27:55",10.1.1.3,284,-0.290,-0.290,-0.290,0.000,0.000,0.000
1640053675741434112,"2021-12-21,02:27:55",10.1.1.3,0.31375908851623535,-0.290,-0.290,-0.290,0.000,0.000,0.000
1640053676042903040,"2021-12-21,02:27:56",10.1.1.3,297,-0.300,-0.300,-0.300,0.000,0.000,0.000
1640053676095794944,"2021-12-21,02:27:56",10.1.1.3,0.3500988483428955,-0.300,-0.300,-0.300,0.000,0.000,0.000
1640053676434446080,"2021-12-21,02:27:56",10.1.1.3,337,-0.310,-0.310,-0.310,0.000,0.000,0.000
1640053676461829888,"2021-12-21,02:27:56",10.1.1.3,0.36456894874572754,-0.310,-0.310,-0.310,0.000,0.000,0.000
1640053676761601024,"2021-12-21,02:27:56",10.1.1.3,294,-0.320,-0.320,-0.320,0.000,0.000,0.000
1640053676802000128,"2021-12-21,02:27:56",10.1.1.3,0.3358910083770752,-0.320,-0.320,-0.320,0.000,0.000,0.000
1640053677134974976,"2021-12-21,02:27:57",10.1.1.3,330,-0.330,-0.330,-0.330,0.000,0.000,0.000
1640053677175631104,"2021-12-21,02:27:57",10.1.1.3,0.37204718589782715,-0.330,-0.330,-0.330,0.000,0.000,0.000
1640053677484390912,"2021-12-21,02:27:57",10.1.1.3,305,-0.340,-0.340,-0.340,0.000,0.000,0.000
1640053677563156992,"2021-12-21,02:27:57",10.1.1.3,0.3844640254974365,-0.340,-0.340,-0.340,0.000,0.000,0.000
1640053677883727104,"2021-12-21,02:27:57",10.1.1.3,318,-0.350,-0.350,-0.350,0.000,0.000,0.000
1640053677930610944,"2021-12-21,02:27:57",10.1.1.3,0.36591291427612305,-0.350,-0.350,-0.350,0.000,0.000,0.000
1640053678258637056,"2021-12-21,02:27:58",10.1.1.3,326,-0.360,-0.360,-0.360,0.000,0.000,0.000
1640053678328576000,"2021-12-21,02:27:58",10.1.1.3,0.39632105827331543,-0.360,-0.360,-0.360,0.000,0.000,0.000
1640053678648112896,"2021-12-21,02:27:58",10.1.1.3,317,-0.370,-0.370,-0.370,0.000,0.000,0.000
1640053678726546176,"2021-12-21,02:27:58",10.1.1.3,0.39650702476501465,-0.370,-0.370,-0.370,0.000,0.000,0.000
1640053679028548096,"2021-12-21,02:27:59",10.1.1.3,300,-0.380,-0.380,-0.380,0.000,0.000,0.000
1640053679120429056,"2021-12-21,02:27:59",10.1.1.3,0.3924241065979004,-0.380,-0.380,-0.380,0.000,0.000,0.000
1640053679476936192,"2021-12-21,02:27:59",10.1.1.3,354,-0.390,-0.390,-0.390,0.000,0.000,0.000
1640053679501789184,"2021-12-21,02:27:59",10.1.1.3,0.37909388542175293,-0.390,-0.390,-0.390,0.000,0.000,0.000
1640053679847249920,"2021-12-21,02:27:59",10.1.1.3,339,-0.400,-0.400,-0.400,0.000,0.000,0.000
1640053679907216128,"2021-12-21,02:27:59",10.1.1.3,0.397014856338501,-0.400,-0.400,-0.400,0.000,0.000,0.000
1640053680269315072,"2021-12-21,02:28:00",10.1.1.3,359,-0.410,-0.410,-0.410,0.000,0.000,0.000
1640053680334036224,"2021-12-21,02:28:00",10.1.1.3,0.42413902282714844,-0.410,-0.410,-0.410,0.000,0.000,0.000
1640053680656333056,"2021-12-21,02:28:00",10.1.1.3,318,-0.420,-0.420,-0.420,0.000,0.000,0.000
1640053680733891072,"2021-12-21,02:28:00",10.1.1.3,0.3971409797668457,-0.420,-0.420,-0.420,0.000,0.000,0.000
1640053681025209856,"2021-12-21,02:28:01",10.1.1.3,289,-0.430,-0.430,-0.430,0.000,0.000,0.000
1640053681077726976,"2021-12-21,02:28:01",10.1.1.3,0.34194302558898926,-0.430,-0.430,-0.430,0.000,0.000,0.000
1640053681406671104,"2021-12-21,02:28:01",10.1.1.3,327,-0.440,-0.440,-0.440,0.000,0.000,0.000
1640053681445779968,"2021-12-21,02:28:01",10.1.1.3,0.36637091636657715,-0.440,-0.440,-0.440,0.000,0.000,0.000
1640053681775554048,"2021-12-21,02:28:01",10.1.1.3,327,-0.450,-0.450,-0.450,0.000,0.000,0.000
1640053681816978944,"2021-12-21,02:28:01",10.1.1.3,0.3690941333770752,-0.450,-0.450,-0.450,0.000,0.000,0.000
1640053682122577920,"2021-12-21,02:28:02",10.1.1.3,303,-0.460,-0.460,-0.460,0.000,0.000,0.000
1640053682173222144,"2021-12-21,02:28:02",10.1.1.3,0.35432910919189453,-0.460,-0.460,-0.460,0.000,0.000,0.000
1640053682493519104,"2021-12-21,02:28:02",10.1.1.3,317,-0.470,-0.470,-0.470,0.000,0.000,0.000
1640053682538109952,"2021-12-21,02:28:02",10.1.1.3,0.3624989986419678,-0.470,-0.470,-0.470,0.000,0.000,0.000
1640053682901199104,"2021-12-21,02:28:02",10.1.1.3,361,-0.480,-0.480,-0.480,0.000,0.000,0.000
1640053682928939008,"2021-12-21,02:28:02",10.1.1.3,0.3890519142150879,-0.480,-0.480,-0.480,0.000,0.000,0.000
1640053683231812096,"2021-12-21,02:28:03",10.1.1.3,301,-0.490,-0.490,-0.490,0.000,0.000,0.000
1640053683284017920,"2021-12-21,02:28:03",10.1.1.3,0.3537418842315674,-0.490,-0.490,-0.490,0.000,0.000,0.000
1640053683600896000,"2021-12-21,02:28:03",10.1.1.3,315,-0.480,-0.480,-0.480,0.000,0.000,0.000
1640053683635013120,"2021-12-21,02:28:03",10.1.1.3,0.3492910861968994,-0.480,-0.480,-0.480,0.000,0.000,0.000
1640053683930008832,"2021-12-21,02:28:03",10.1.1.3,290,-0.470,-0.470,-0.470,0.000,0.000,0.000
1640053683978352896,"2021-12-21,02:28:03",10.1.1.3,0.3393850326538086,-0.470,-0.470,-0.470,0.000,0.000,0.000
1640053684330034944,"2021-12-21,02:28:04",10.1.1.3,338,-0.460,-0.460,-0.460,0.000,0.000,0.000
1640053684386884864,"2021-12-21,02:28:04",10.1.1.3,0.39556002616882324,-0.460,-0.460,-0.460,0.000,0.000,0.000
1640053684697865984,"2021-12-21,02:28:04",10.1.1.3,301,-0.450,-0.450,-0.450,0.000,0.000,0.000
1640053684786204160,"2021-12-21,02:28:04",10.1.1.3,0.38982605934143066,-0.450,-0.450,-0.450,0.000,0.000,0.000
1640053685089804800,"2021-12-21,02:28:05",10.1.1.3,302,-0.440,-0.440,-0.440,0.000,0.000,0.000
1640053685166906112,"2021-12-21,02:28:05",10.1.1.3,0.37938714027404785,-0.440,-0.440,-0.440,0.000,0.000,0.000
1640053685490192896,"2021-12-21,02:28:05",10.1.1.3,321,-0.430,-0.430,-0.430,0.000,0.000,0.000
1640053685569222912,"2021-12-21,02:28:05",10.1.1.3,0.4002549648284912,-0.430,-0.430,-0.430,0.000,0.000,0.000
1640053685896532992,"2021-12-21,02:28:05",10.1.1.3,324,-0.420,-0.420,-0.420,0.000,0.000,0.000
1640053685965667072,"2021-12-21,02:28:05",10.1.1.3,0.3942689895629883,-0.420,-0.420,-0.420,0.000,0.000,0.000
1640053686258630144,"2021-12-21,02:28:06",10.1.1.3,291,-0.410,-0.410,-0.410,0.000,0.000,0.000
1640053686313512192,"2021-12-21,02:28:06",10.1.1.3,0.34641098976135254,-0.410,-0.410,-0.410,0.000,0.000,0.000
1640053686680990976,"2021-12-21,02:28:06",10.1.1.3,365,-0.400,-0.400,-0.400,0.000,0.000,0.000
1640053686737762816,"2021-12-21,02:28:06",10.1.1.3,0.42222118377685547,-0.400,-0.400,-0.400,0.000,0.000,0.000
1640053687082317056,"2021-12-21,02:28:07",10.1.1.3,342,-0.390,-0.390,-0.390,0.000,0.000,0.000
1640053687160759040,"2021-12-21,02:28:07",10.1.1.3,0.4215559959411621,-0.390,-0.390,-0.390,0.000,0.000,0.000
1640053687504483840,"2021-12-21,02:28:07",10.1.1.3,341,-0.380,-0.380,-0.380,0.000,0.000,0.000
1640053687555902976,"2021-12-21,02:28:07",10.1.1.3,0.39252495765686035,-0.380,-0.380,-0.380,0.000,0.000,0.000
1640053687896248064,"2021-12-21,02:28:07",10.1.1.3,338,-0.370,-0.370,-0.370,0.000,0.000,0.000
1640053687938051840,"2021-12-21,02:28:07",10.1.1.3,0.38082408905029297,-0.370,-0.370,-0.370,0.000,0.000,0.000
1640053688250291200,"2021-12-21,02:28:08",10.1.1.3,310,-0.360,-0.360,-0.360,0.000,0.000,0.000
1640053688295746048,"2021-12-21,02:28:08",10.1.1.3,0.35618114471435547,-0.360,-0.360,-0.360,0.000,0.000,0.000
1640053688617809920,"2021-12-21,02:28:08",10.1.1.3,320,-0.350,-0.350,-0.350,0.000,0.000,0.000
1640053688722016000,"2021-12-21,02:28:08",10.1.1.3,0.42474889755249023,-0.350,-0.350,-0.350,0.000,0.000,0.000
1640053689042404864,"2021-12-21,02:28:09",10.1.1.3,318,-0.340,-0.340,-0.340,0.000,0.000,0.000
1640053689082052096,"2021-12-21,02:28:09",10.1.1.3,0.35846400260925293,-0.340,-0.340,-0.340,0.000,0.000,0.000
1640053689431138048,"2021-12-21,02:28:09",10.1.1.3,347,-0.330,-0.330,-0.330,0.000,0.000,0.000
1640053689474289920,"2021-12-21,02:28:09",10.1.1.3,0.3905520439147949,-0.330,-0.330,-0.330,0.000,0.000,0.000
1640053689791994112,"2021-12-21,02:28:09",10.1.1.3,316,-0.320,-0.320,-0.320,0.000,0.000,0.000
1640053689878344960,"2021-12-21,02:28:09",10.1.1.3,0.40271782875061035,-0.320,-0.320,-0.320,0.000,0.000,0.000
1640053690184500992,"2021-12-21,02:28:10",10.1.1.3,303,-0.310,-0.310,-0.310,0.000,0.000,0.000
1640053690274349056,"2021-12-21,02:28:10",10.1.1.3,0.393359899520874,-0.310,-0.310,-0.310,0.000,0.000,0.000
1640053690585123072,"2021-12-21,02:28:10",10.1.1.3,308,-0.300,-0.300,-0.300,0.000,0.000,0.000
1640053690621543936,"2021-12-21,02:28:10",10.1.1.3,0.3456449508666992,-0.300,-0.300,-0.300,0.000,0.000,0.000
1640053690944550912,"2021-12-21,02:28:10",10.1.1.3,320,-0.290,-0.290,-0.290,0.000,0.000,0.000
1640053691039374080,"2021-12-21,02:28:11",10.1.1.3,0.41507887840270996,-0.290,-0.290,-0.290,0.000,0.000,0.000
1640053691336146176,"2021-12-21,02:28:11",10.1.1.3,294,-0.280,-0.280,-0.280,0.000,0.000,0.000
1640053691403692032,"2021-12-21,02:28:11",10.1.1.3,0.36234116554260254,-0.280,-0.280,-0.280,0.000,0.000,0.000
1640053691717320960,"2021-12-21,02:28:11",10.1.1.3,311,-0.270,-0.270,-0.270,0.000,0.000,0.000
1640053691809305856,"2021-12-21,02:28:11",10.1.1.3,0.4038701057434082,-0.270,-0.270,-0.270,0.000,0.000,0.000
1640053692118436096,"2021-12-21,02:28:12",10.1.1.3,306,-0.260,-0.260,-0.260,0.000,0.000,0.000
1640053692167820032,"2021-12-21,02:28:12",10.1.1.3,0.3564579486846924,-0.260,-0.260,-0.260,0.000,0.000,0.000
1640053692497026048,"2021-12-21,02:28:12",10.1.1.3,327,-0.250,-0.250,-0.250,0.000,0.000,0.000
1640053692552553984,"2021-12-21,02:28:12",10.1.1.3,0.3832731246948242,-0.250,-0.250,-0.250,0.000,0.000,0.000
1640053692898294016,"2021-12-21,02:28:12",10.1.1.3,342,-0.240,-0.240,-0.240,0.000,0.000,0.000
1640053692953659136,"2021-12-21,02:28:12",10.1.1.3,0.39818906784057617,-0.240,-0.240,-0.240,0.000,0.000,0.000
1640053693320005888,"2021-12-21,02:28:13",10.1.1.3,364,-0.230,-0.230,-0.230,0.000,0.000,0.000
1640053693407138048,"2021-12-21,02:28:13",10.1.1.3,0.4516110420227051,-0.230,-0.230,-0.230,0.000,0.000,0.000
1640053693739806976,"2021-12-21,02:28:13",10.1.1.3,329,-0.220,-0.220,-0.220,0.000,0.000,0.000
1640053693776231168,"2021-12-21,02:28:13",10.1.1.3,0.3662588596343994,-0.220,-0.220,-0.220,0.000,0.000,0.000
1640053694090076928,"2021-12-21,02:28:14",10.1.1.3,303,-0.210,-0.210,-0.210,0.000,0.000,0.000
1640053694183373824,"2021-12-21,02:28:14",10.1.1.3,0.3967859745025635,-0.210,-0.210,-0.210,0.000,0.000,0.000
1640053694501422848,"2021-12-21,02:28:14",10.1.1.3,316,-0.200,-0.200,-0.200,0.000,0.000,0.000
1640053694543865856,"2021-12-21,02:28:14",10.1.1.3,0.35896992683410645,-0.200,-0.200,-0.200,0.000,0.000,0.000
1640053694851675136,"2021-12-21,02:28:14",10.1.1.3,303,-0.190,-0.190,-0.190,0.000,0.000,0.000
1640053694912507136,"2021-12-21,02:28:14",10.1.1.3,0.36534786224365234,-0.190,-0.190,-0.190,0.000,0.000,0.000
1640053695230149888,"2021-12-21,02:28:15",10.1.1.3,314,-0.180,-0.180,-0.180,0.000,0.000,0.000
1640053695320753152,"2021-12-21,02:28:15",10.1.1.3,0.40540194511413574,-0.180,-0.180,-0.180,0.000,0.000,0.000
1640053695639931904,"2021-12-21,02:28:15",10.1.1.3,317,-0.170,-0.170,-0.170,0.000,0.000,0.000
1640053695712605952,"2021-12-21,02:28:15",10.1.1.3,0.39026498794555664,-0.170,-0.170,-0.170,0.000,0.000,0.000
1640053696042212096,"2021-12-21,02:28:16",10.1.1.3,325,-0.160,-0.160,-0.160,0.000,0.000,0.000
1640053696137840896,"2021-12-21,02:28:16",10.1.1.3,0.4219839572906494,-0.160,-0.160,-0.160,0.000,0.000,0.000
1640053696480912896,"2021-12-21,02:28:16",10.1.1.3,341,-0.150,-0.150,-0.150,0.000,0.000,0.000
1640053696531371008,"2021-12-21,02:28:16",10.1.1.3,0.3916659355163574,-0.150,-0.150,-0.150,0.000,0.000,0.000
1640053696871025920,"2021-12-21,02:28:16",10.1.1.3,337,-0.140,-0.140,-0.140,0.000,0.000,0.000
1640053696961318144,"2021-12-21,02:28:16",10.1.1.3,0.42851686477661133,-0.140,-0.140,-0.140,0.000,0.000,0.000
1640053697291156992,"2021-12-21,02:28:17",10.1.1.3,328,-0.130,-0.130,-0.130,0.000,0.000,0.000
1640053697356400896,"2021-12-21,02:28:17",10.1.1.3,0.39342308044433594,-0.130,-0.130,-0.130,0.000,0.000,0.000
1640053697680139008,"2021-12-21,02:28:17",10.1.1.3,322,-0.120,-0.120,-0.120,0.000,0.000,0.000
1640053697753912064,"2021-12-21,02:28:17",10.1.1.3,0.3959648609161377,-0.120,-0.120,-0.120,0.000,0.000,0.000
1640053698090908928,"2021-12-21,02:28:18",10.1.1.3,335,-0.110,-0.110,-0.110,0.000,0.000,0.000
1640053698108252928,"2021-12-21,02:28:18",10.1.1.3,0.35286784172058105,-0.110,-0.110,-0.110,0.000,0.000,0.000
1640053698419759104,"2021-12-21,02:28:18",10.1.1.3,307,-0.100,-0.100,-0.100,0.000,0.000,0.000
1640053698519067136,"2021-12-21,02:28:18",10.1.1.3,0.4074580669403076,-0.100,-0.100,-0.100,0.000,0.000,0.000
1640053698821765888,"2021-12-21,02:28:18",10.1.1.3,299,-0.090,-0.090,-0.090,0.000,0.000,0.000
1640053698906508032,"2021-12-21,02:28:18",10.1.1.3,0.3857898712158203,-0.090,-0.090,-0.090,0.000,0.000,0.000
1640053699231537152,"2021-12-21,02:28:19",10.1.1.3,323,-0.080,-0.080,-0.080,0.000,0.000,0.000
1640053699286824960,"2021-12-21,02:28:19",10.1.1.3,0.37906503677368164,-0.080,-0.080,-0.080,0.000,0.000,0.000
1640053699598691072,"2021-12-21,02:28:19",10.1.1.3,310,-0.070,-0.070,-0.070,0.000,0.000,0.000
1640053699639751936,"2021-12-21,02:28:19",10.1.1.3,0.3517038822174072,-0.070,-0.070,-0.070,0.000,0.000,0.000
1640053699943613952,"2021-12-21,02:28:19",10.1.1.3,302,-0.060,-0.060,-0.060,0.000,0.000,0.000
1640053700021518848,"2021-12-21,02:28:20",10.1.1.3,0.3805420398712158,-0.060,-0.060,-0.060,0.000,0.000,0.000
1640053700308439040,"2021-12-21,02:28:20",10.1.1.3,285,-0.050,-0.050,-0.050,0.000,0.000,0.000
1640053700339993856,"2021-12-21,02:28:20",10.1.1.3,0.3168189525604248,-0.050,-0.050,-0.050,0.000,0.000,0.000
1640053700638350848,"2021-12-21,02:28:20",10.1.1.3,297,-0.040,-0.040,-0.040,0.000,0.000,0.000
1640053700658010112,"2021-12-21,02:28:20",10.1.1.3,0.31678295135498047,-0.040,-0.040,-0.040,0.000,0.000,0.000
