FedericoMungari/DigitalTwin_service/01_WiredScenario/Output/Output_script/script_rosapi_2_output_robots8_freq0_8.txt
timestamp,date,node,latency,joint_1,joint_2,joint_3,joint_4,joint_5,joint_6
1644915526819891968,2022-02-15-08:58:46,10.1.1.9,2,-0.100,-0.100,-0.100,0.000,0.000,0.000
1644915527019810048,2022-02-15-08:58:47,10.1.1.9,35,-0.070,-0.070,-0.070,0.000,0.000,0.000
1644915527059748864,2022-02-15-08:58:47,10.1.1.9,25,-0.060,-0.060,-0.060,0.000,0.000,0.000
1644915527119920896,2022-02-15-08:58:47,10.1.1.9,34,-0.050,-0.050,-0.050,0.000,0.000,0.000
1644915527159444992,2022-02-15-08:58:47,10.1.1.9,24,-0.040,-0.040,-0.040,0.000,0.000,0.000
1644915527219689984,2022-02-15-08:58:47,10.1.1.9,33,-0.030,-0.030,-0.030,0.000,0.000,0.000
1644915527419697152,2022-02-15-08:58:47,10.1.1.9,29,0.010,0.010,0.010,0.000,0.000,0.000
1644915527479390976,2022-02-15-08:58:47,10.1.1.9,38,0.020,0.020,0.020,0.000,0.000,0.000
1644915527519588096,2022-02-15-08:58:47,10.1.1.9,28,0.030,0.030,0.030,0.000,0.000,0.000
1644915527579715072,2022-02-15-08:58:47,10.1.1.9,37,0.040,0.040,0.040,0.000,0.000,0.000
1644915527620081920,2022-02-15-08:58:47,10.1.1.9,27,0.050,0.050,0.050,0.000,0.000,0.000
1644915527679603200,2022-02-15-08:58:47,10.1.1.9,36,0.060,0.060,0.060,0.000,0.000,0.000
1644915527719825152,2022-02-15-08:58:47,10.1.1.9,25,0.070,0.070,0.070,0.000,0.000,0.000
1644915527779815936,2022-02-15-08:58:47,10.1.1.9,34,0.080,0.080,0.080,0.000,0.000,0.000
1644915527820673024,2022-02-15-08:58:47,10.1.1.9,24,0.090,0.090,0.090,0.000,0.000,0.000
1644915527879609088,2022-02-15-08:58:47,10.1.1.9,33,0.100,0.100,0.100,0.000,0.000,0.000
1644915528120499968,2022-02-15-08:58:48,10.1.1.9,20,0.050,0.050,0.050,0.000,0.000,0.000
1644915528239703040,2022-02-15-08:58:48,10.1.1.9,39,0.030,0.030,0.030,0.000,0.000,0.000
1644915528281955072,2022-02-15-08:58:48,10.1.1.9,29,0.020,0.020,0.020,0.000,0.000,0.000
1644915528342866944,2022-02-15-08:58:48,10.1.1.9,38,0.010,0.010,0.010,0.000,0.000,0.000
1644915528379950080,2022-02-15-08:58:48,10.1.1.9,27,0.000,0.000,0.000,0.000,0.000,0.000
1644915528440453888,2022-02-15-08:58:48,10.1.1.9,36,-0.010,-0.010,-0.010,0.000,0.000,0.000
1644915528480066048,2022-02-15-08:58:48,10.1.1.9,26,-0.020,-0.020,-0.020,0.000,0.000,0.000
1644915528543273984,2022-02-15-08:58:48,10.1.1.9,36,-0.030,-0.030,-0.030,0.000,0.000,0.000
1644915528579811072,2022-02-15-08:58:48,10.1.1.9,25,-0.040,-0.040,-0.040,0.000,0.000,0.000
1644915528639993856,2022-02-15-08:58:48,10.1.1.9,34,-0.050,-0.050,-0.050,0.000,0.000,0.000
1644915528681348096,2022-02-15-08:58:48,10.1.1.9,24,-0.060,-0.060,-0.060,0.000,0.000,0.000
1644915528739821824,2022-02-15-08:58:48,10.1.1.9,33,-0.070,-0.070,-0.070,0.000,0.000,0.000
1644915528780224000,2022-02-15-08:58:48,10.1.1.9,23,-0.080,-0.080,-0.080,0.000,0.000,0.000
1644915528839920128,2022-02-15-08:58:48,10.1.1.9,32,-0.090,-0.090,-0.090,0.000,0.000,0.000
1644915528920197888,2022-02-15-08:58:48,10.1.1.9,11,-0.090,-0.090,-0.090,0.000,0.000,0.000
1644915529199811840,2022-02-15-08:58:49,10.1.1.9,39,-0.040,-0.040,-0.040,0.000,0.000,0.000
1644915529240317184,2022-02-15-08:58:49,10.1.1.9,28,-0.030,-0.030,-0.030,0.000,0.000,0.000
1644915529300556800,2022-02-15-08:58:49,10.1.1.9,38,-0.020,-0.020,-0.020,0.000,0.000,0.000
1644915529339983104,2022-02-15-08:58:49,10.1.1.9,27,-0.010,-0.010,-0.010,0.000,0.000,0.000
1644915529405071104,2022-02-15-08:58:49,10.1.1.9,36,0.000,0.000,0.000,0.000,0.000,0.000
1644915529501129984,2022-02-15-08:58:49,10.1.1.9,25,0.020,0.020,0.020,0.000,0.000,0.000
1644915529560165888,2022-02-15-08:58:49,10.1.1.9,35,0.030,0.030,0.030,0.000,0.000,0.000
1644915529600009984,2022-02-15-08:58:49,10.1.1.9,24,0.040,0.040,0.040,0.000,0.000,0.000
1644915529659915008,2022-02-15-08:58:49,10.1.1.9,34,0.050,0.050,0.050,0.000,0.000,0.000
1644915529859800064,2022-02-15-08:58:49,10.1.1.9,28,0.090,0.090,0.090,0.000,0.000,0.000
1644915529922935040,2022-02-15-08:58:49,10.1.1.9,38,0.100,0.100,0.100,0.000,0.000,0.000
1644915529959953152,2022-02-15-08:58:49,10.1.1.9,27,0.090,0.090,0.090,0.000,0.000,0.000
1644915530020194048,2022-02-15-08:58:50,10.1.1.9,36,0.080,0.080,0.080,0.000,0.000,0.000
1644915530060344832,2022-02-15-08:58:50,10.1.1.9,26,0.070,0.070,0.070,0.000,0.000,0.000
1644915530122812928,2022-02-15-08:58:50,10.1.1.9,35,0.060,0.060,0.060,0.000,0.000,0.000
1644915530161654016,2022-02-15-08:58:50,10.1.1.9,25,0.050,0.050,0.050,0.000,0.000,0.000
1644915530219934976,2022-02-15-08:58:50,10.1.1.9,33,0.040,0.040,0.040,0.000,0.000,0.000
1644915530520409088,2022-02-15-08:58:50,10.1.1.9,28,-0.020,-0.020,-0.020,0.000,0.000,0.000
1644915530579749120,2022-02-15-08:58:50,10.1.1.9,37,-0.030,-0.030,-0.030,0.000,0.000,0.000
1644915530620343040,2022-02-15-08:58:50,10.1.1.9,27,-0.040,-0.040,-0.040,0.000,0.000,0.000
1644915530679702016,2022-02-15-08:58:50,10.1.1.9,36,-0.050,-0.050,-0.050,0.000,0.000,0.000
1644915530720400128,2022-02-15-08:58:50,10.1.1.9,26,-0.060,-0.060,-0.060,0.000,0.000,0.000
1644915530779536128,2022-02-15-08:58:50,10.1.1.9,35,-0.070,-0.070,-0.070,0.000,0.000,0.000
1644915530820195072,2022-02-15-08:58:50,10.1.1.9,25,-0.080,-0.080,-0.080,0.000,0.000,0.000
1644915530880337920,2022-02-15-08:58:50,10.1.1.9,35,-0.090,-0.090,-0.090,0.000,0.000,0.000
1644915530919968000,2022-02-15-08:58:50,10.1.1.9,24,-0.100,-0.100,-0.100,0.000,0.000,0.000
1644915530979949056,2022-02-15-08:58:50,10.1.1.9,34,-0.090,-0.090,-0.090,0.000,0.000,0.000
1644915531280071936,2022-02-15-08:58:51,10.1.1.9,29,-0.030,-0.030,-0.030,0.000,0.000,0.000
1644915531340039936,2022-02-15-08:58:51,10.1.1.9,38,-0.020,-0.020,-0.020,0.000,0.000,0.000
1644915531380043008,2022-02-15-08:58:51,10.1.1.9,28,-0.010,-0.010,-0.010,0.000,0.000,0.000
1644915531440025088,2022-02-15-08:58:51,10.1.1.9,38,0.000,0.000,0.000,0.000,0.000,0.000
1644915531479969024,2022-02-15-08:58:51,10.1.1.9,27,0.010,0.010,0.010,0.000,0.000,0.000
1644915531540397056,2022-02-15-08:58:51,10.1.1.9,36,0.020,0.020,0.020,0.000,0.000,0.000
1644915531579838976,2022-02-15-08:58:51,10.1.1.9,26,0.030,0.030,0.030,0.000,0.000,0.000
1644915531639812864,2022-02-15-08:58:51,10.1.1.9,35,0.040,0.040,0.040,0.000,0.000,0.000
1644915531679704832,2022-02-15-08:58:51,10.1.1.9,25,0.050,0.050,0.050,0.000,0.000,0.000
1644915531739751936,2022-02-15-08:58:51,10.1.1.9,34,0.060,0.060,0.060,0.000,0.000,0.000
1644915531779712000,2022-02-15-08:58:51,10.1.1.9,24,0.070,0.070,0.070,0.000,0.000,0.000
1644915531840199936,2022-02-15-08:58:51,10.1.1.9,34,0.080,0.080,0.080,0.000,0.000,0.000
1644915532019918848,2022-02-15-08:58:52,10.1.1.9,11,0.080,0.080,0.080,0.000,0.000,0.000
1644915532199950848,2022-02-15-08:58:52,10.1.1.9,39,0.050,0.050,0.050,0.000,0.000,0.000
1644915532240012032,2022-02-15-08:58:52,10.1.1.9,28,0.040,0.040,0.040,0.000,0.000,0.000
1644915532301554944,2022-02-15-08:58:52,10.1.1.9,37,0.030,0.030,0.030,0.000,0.000,0.000
1644915532340050944,2022-02-15-08:58:52,10.1.1.9,27,0.020,0.020,0.020,0.000,0.000,0.000
1644915532399867904,2022-02-15-08:58:52,10.1.1.9,36,0.010,0.010,0.010,0.000,0.000,0.000
1644915532439666944,2022-02-15-08:58:52,10.1.1.9,25,0.000,0.000,0.000,0.000,0.000,0.000
1644915532499702016,2022-02-15-08:58:52,10.1.1.9,35,-0.010,-0.010,-0.010,0.000,0.000,0.000
1644915532540297984,2022-02-15-08:58:52,10.1.1.9,24,-0.020,-0.020,-0.020,0.000,0.000,0.000
1644915532600150016,2022-02-15-08:58:52,10.1.1.9,34,-0.030,-0.030,-0.030,0.000,0.000,0.000
1644915532640110848,2022-02-15-08:58:52,10.1.1.9,23,-0.040,-0.040,-0.040,0.000,0.000,0.000
1644915533059676928,2022-02-15-08:58:53,10.1.1.9,39,-0.080,-0.080,-0.080,0.000,0.000,0.000
1644915533100121088,2022-02-15-08:58:53,10.1.1.9,27,-0.070,-0.070,-0.070,0.000,0.000,0.000
1644915533159832064,2022-02-15-08:58:53,10.1.1.9,37,-0.060,-0.060,-0.060,0.000,0.000,0.000
1644915533199642880,2022-02-15-08:58:53,10.1.1.9,26,-0.050,-0.050,-0.050,0.000,0.000,0.000
1644915533259695104,2022-02-15-08:58:53,10.1.1.9,35,-0.040,-0.040,-0.040,0.000,0.000,0.000
1644915533299926016,2022-02-15-08:58:53,10.1.1.9,25,-0.030,-0.030,-0.030,0.000,0.000,0.000
1644915533359983872,2022-02-15-08:58:53,10.1.1.9,34,-0.020,-0.020,-0.020,0.000,0.000,0.000
1644915533399887104,2022-02-15-08:58:53,10.1.1.9,24,-0.010,-0.010,-0.010,0.000,0.000,0.000
1644915533460062976,2022-02-15-08:58:53,10.1.1.9,33,0.000,0.000,0.000,0.000,0.000,0.000
1644915533719981824,2022-02-15-08:58:53,10.1.1.9,33,0.050,0.050,0.050,0.000,0.000,0.000
1644915533861149184,2022-02-15-08:58:53,10.1.1.9,39,0.070,0.070,0.070,0.000,0.000,0.000
1644915533900232192,2022-02-15-08:58:53,10.1.1.9,29,0.080,0.080,0.080,0.000,0.000,0.000
1644915533959435008,2022-02-15-08:58:53,10.1.1.9,37,0.090,0.090,0.090,0.000,0.000,0.000
1644915534011432960,2022-02-15-08:58:54,10.1.1.9,26,0.100,0.100,0.100,0.000,0.000,0.000
1644915534259491840,2022-02-15-08:58:54,10.1.1.9,27,0.060,0.060,0.060,0.000,0.000,0.000
1644915534319671040,2022-02-15-08:58:54,10.1.1.9,35,0.050,0.050,0.050,0.000,0.000,0.000
1644915534359710976,2022-02-15-08:58:54,10.1.1.9,24,0.040,0.040,0.040,0.000,0.000,0.000
1644915534420315136,2022-02-15-08:58:54,10.1.1.9,33,0.030,0.030,0.030,0.000,0.000,0.000
1644915534620871168,2022-02-15-08:58:54,10.1.1.9,27,-0.010,-0.010,-0.010,0.000,0.000,0.000
1644915534680668160,2022-02-15-08:58:54,10.1.1.9,36,-0.020,-0.020,-0.020,0.000,0.000,0.000
1644915534719366912,2022-02-15-08:58:54,10.1.1.9,26,-0.030,-0.030,-0.030,0.000,0.000,0.000
1644915534780195072,2022-02-15-08:58:54,10.1.1.9,35,-0.040,-0.040,-0.040,0.000,0.000,0.000
1644915534820190976,2022-02-15-08:58:54,10.1.1.9,23,-0.050,-0.050,-0.050,0.000,0.000,0.000
1644915535080337920,2022-02-15-08:58:55,10.1.1.9,30,-0.100,-0.100,-0.100,0.000,0.000,0.000
1644915535139944960,2022-02-15-08:58:55,10.1.1.9,39,-0.090,-0.090,-0.090,0.000,0.000,0.000
1644915535180179200,2022-02-15-08:58:55,10.1.1.9,28,-0.080,-0.080,-0.080,0.000,0.000,0.000
1644915535240540928,2022-02-15-08:58:55,10.1.1.9,37,-0.070,-0.070,-0.070,0.000,0.000,0.000
1644915535280642048,2022-02-15-08:58:55,10.1.1.9,26,-0.060,-0.060,-0.060,0.000,0.000,0.000
1644915535340492032,2022-02-15-08:58:55,10.1.1.9,36,-0.050,-0.050,-0.050,0.000,0.000,0.000
1644915535379849984,2022-02-15-08:58:55,10.1.1.9,26,-0.040,-0.040,-0.040,0.000,0.000,0.000
1644915535439729920,2022-02-15-08:58:55,10.1.1.9,35,-0.030,-0.030,-0.030,0.000,0.000,0.000
1644915535480225024,2022-02-15-08:58:55,10.1.1.9,25,-0.020,-0.020,-0.020,0.000,0.000,0.000
1644915535539851776,2022-02-15-08:58:55,10.1.1.9,34,-0.010,-0.010,-0.010,0.000,0.000,0.000
1644915535580125184,2022-02-15-08:58:55,10.1.1.9,23,0.000,0.000,0.000,0.000,0.000,0.000
1644915535639906816,2022-02-15-08:58:55,10.1.1.9,33,0.010,0.010,0.010,0.000,0.000,0.000
1644915535939846144,2022-02-15-08:58:55,10.1.1.9,29,0.070,0.070,0.070,0.000,0.000,0.000
1644915535999706112,2022-02-15-08:58:55,10.1.1.9,38,0.080,0.080,0.080,0.000,0.000,0.000
1644915536040489984,2022-02-15-08:58:56,10.1.1.9,28,0.090,0.090,0.090,0.000,0.000,0.000
1644915536099994880,2022-02-15-08:58:56,10.1.1.9,38,0.100,0.100,0.100,0.000,0.000,0.000
1644915536140188928,2022-02-15-08:58:56,10.1.1.9,27,0.090,0.090,0.090,0.000,0.000,0.000
1644915536200753920,2022-02-15-08:58:56,10.1.1.9,37,0.080,0.080,0.080,0.000,0.000,0.000
1644915536240556032,2022-02-15-08:58:56,10.1.1.9,27,0.070,0.070,0.070,0.000,0.000,0.000
1644915536299838976,2022-02-15-08:58:56,10.1.1.9,36,0.060,0.060,0.060,0.000,0.000,0.000
1644915536340024064,2022-02-15-08:58:56,10.1.1.9,25,0.050,0.050,0.050,0.000,0.000,0.000
1644915536400090880,2022-02-15-08:58:56,10.1.1.9,34,0.040,0.040,0.040,0.000,0.000,0.000
1644915536439830016,2022-02-15-08:58:56,10.1.1.9,24,0.030,0.030,0.030,0.000,0.000,0.000
1644915536500760064,2022-02-15-08:58:56,10.1.1.9,33,0.020,0.020,0.020,0.000,0.000,0.000
1644915536760050176,2022-02-15-08:58:56,10.1.1.9,39,-0.030,-0.030,-0.030,0.000,0.000,0.000
1644915536800009984,2022-02-15-08:58:56,10.1.1.9,28,-0.040,-0.040,-0.040,0.000,0.000,0.000
1644915536860148992,2022-02-15-08:58:56,10.1.1.9,37,-0.050,-0.050,-0.050,0.000,0.000,0.000
1644915536899588096,2022-02-15-08:58:56,10.1.1.9,27,-0.060,-0.060,-0.060,0.000,0.000,0.000
1644915536961283072,2022-02-15-08:58:56,10.1.1.9,37,-0.070,-0.070,-0.070,0.000,0.000,0.000
1644915537000528128,2022-02-15-08:58:57,10.1.1.9,26,-0.080,-0.080,-0.080,0.000,0.000,0.000
1644915537059618048,2022-02-15-08:58:57,10.1.1.9,36,-0.090,-0.090,-0.090,0.000,0.000,0.000
1644915537099672064,2022-02-15-08:58:57,10.1.1.9,25,-0.100,-0.100,-0.100,0.000,0.000,0.000
1644915537160494080,2022-02-15-08:58:57,10.1.1.9,35,-0.090,-0.090,-0.090,0.000,0.000,0.000
1644915537200048896,2022-02-15-08:58:57,10.1.1.9,24,-0.080,-0.080,-0.080,0.000,0.000,0.000
1644915537259560192,2022-02-15-08:58:57,10.1.1.9,34,-0.070,-0.070,-0.070,0.000,0.000,0.000
1644915537299727872,2022-02-15-08:58:57,10.1.1.9,24,-0.060,-0.060,-0.060,0.000,0.000,0.000
1644915537359522048,2022-02-15-08:58:57,10.1.1.9,33,-0.050,-0.050,-0.050,0.000,0.000,0.000
1644915537659540992,2022-02-15-08:58:57,10.1.1.9,29,0.010,0.010,0.010,0.000,0.000,0.000
1644915538159940864,2022-02-15-08:58:58,10.1.1.9,37,0.100,0.100,0.100,0.000,0.000,0.000
1644915538199974912,2022-02-15-08:58:58,10.1.1.9,26,0.090,0.090,0.090,0.000,0.000,0.000
1644915538259980800,2022-02-15-08:58:58,10.1.1.9,36,0.080,0.080,0.080,0.000,0.000,0.000
1644915538300044032,2022-02-15-08:58:58,10.1.1.9,25,0.070,0.070,0.070,0.000,0.000,0.000
1644915538420012032,2022-02-15-08:58:58,10.1.1.9,39,0.050,0.050,0.050,0.000,0.000,0.000
1644915538460568064,2022-02-15-08:58:58,10.1.1.9,29,0.040,0.040,0.040,0.000,0.000,0.000
1644915538520477952,2022-02-15-08:58:58,10.1.1.9,38,0.030,0.030,0.030,0.000,0.000,0.000
1644915538559678976,2022-02-15-08:58:58,10.1.1.9,27,0.020,0.020,0.020,0.000,0.000,0.000
1644915538621847040,2022-02-15-08:58:58,10.1.1.9,37,0.010,0.010,0.010,0.000,0.000,0.000
1644915538660494080,2022-02-15-08:58:58,10.1.1.9,27,0.000,0.000,0.000,0.000,0.000,0.000
1644915538719492864,2022-02-15-08:58:58,10.1.1.9,36,-0.010,-0.010,-0.010,0.000,0.000,0.000
1644915538759939072,2022-02-15-08:58:58,10.1.1.9,25,-0.020,-0.020,-0.020,0.000,0.000,0.000
1644915538820340992,2022-02-15-08:58:58,10.1.1.9,36,-0.030,-0.030,-0.030,0.000,0.000,0.000
1644915538859934208,2022-02-15-08:58:58,10.1.1.9,25,-0.040,-0.040,-0.040,0.000,0.000,0.000
1644915538920212992,2022-02-15-08:58:58,10.1.1.9,34,-0.050,-0.050,-0.050,0.000,0.000,0.000
1644915538959764992,2022-02-15-08:58:58,10.1.1.9,24,-0.060,-0.060,-0.060,0.000,0.000,0.000
1644915539020424960,2022-02-15-08:58:59,10.1.1.9,34,-0.070,-0.070,-0.070,0.000,0.000,0.000
1644915539059878144,2022-02-15-08:58:59,10.1.1.9,23,-0.080,-0.080,-0.080,0.000,0.000,0.000
1644915539243323136,2022-02-15-08:58:59,10.1.1.9,1,-0.080,-0.080,-0.080,0.000,0.000,0.000
1644915539420097024,2022-02-15-08:58:59,10.1.1.9,29,-0.050,-0.050,-0.050,0.000,0.000,0.000
1644915539480635904,2022-02-15-08:58:59,10.1.1.9,39,-0.040,-0.040,-0.040,0.000,0.000,0.000
1644915539519996928,2022-02-15-08:58:59,10.1.1.9,29,-0.030,-0.030,-0.030,0.000,0.000,0.000
1644915539580073984,2022-02-15-08:58:59,10.1.1.9,38,-0.020,-0.020,-0.020,0.000,0.000,0.000
1644915539619810048,2022-02-15-08:58:59,10.1.1.9,27,-0.010,-0.010,-0.010,0.000,0.000,0.000
1644915539679977984,2022-02-15-08:58:59,10.1.1.9,37,0.000,0.000,0.000,0.000,0.000,0.000
1644915539719970048,2022-02-15-08:58:59,10.1.1.9,26,0.010,0.010,0.010,0.000,0.000,0.000
1644915539780185856,2022-02-15-08:58:59,10.1.1.9,36,0.020,0.020,0.020,0.000,0.000,0.000
1644915539820363008,2022-02-15-08:58:59,10.1.1.9,25,0.030,0.030,0.030,0.000,0.000,0.000
1644915539880193024,2022-02-15-08:58:59,10.1.1.9,35,0.040,0.040,0.040,0.000,0.000,0.000
1644915539920566016,2022-02-15-08:58:59,10.1.1.9,24,0.050,0.050,0.050,0.000,0.000,0.000
1644915539980005120,2022-02-15-08:58:59,10.1.1.9,34,0.060,0.060,0.060,0.000,0.000,0.000
1644915540019911936,2022-02-15-08:59:00,10.1.1.9,24,0.070,0.070,0.070,0.000,0.000,0.000
1644915540120224000,2022-02-15-08:59:00,10.1.1.9,23,0.090,0.090,0.090,0.000,0.000,0.000
1644915540200092928,2022-02-15-08:59:00,10.1.1.9,2,0.090,0.090,0.090,0.000,0.000,0.000
1644915540419883008,2022-02-15-08:59:00,10.1.1.9,36,0.060,0.060,0.060,0.000,0.000,0.000
1644915540459772160,2022-02-15-08:59:00,10.1.1.9,25,0.050,0.050,0.050,0.000,0.000,0.000
1644915540519593984,2022-02-15-08:59:00,10.1.1.9,35,0.040,0.040,0.040,0.000,0.000,0.000
1644915540559806208,2022-02-15-08:59:00,10.1.1.9,25,0.030,0.030,0.030,0.000,0.000,0.000
1644915540619544064,2022-02-15-08:59:00,10.1.1.9,34,0.020,0.020,0.020,0.000,0.000,0.000
1644915540660013824,2022-02-15-08:59:00,10.1.1.9,24,0.010,0.010,0.010,0.000,0.000,0.000
1644915540719521024,2022-02-15-08:59:00,10.1.1.9,33,0.000,0.000,0.000,0.000,0.000,0.000
1644915540760567808,2022-02-15-08:59:00,10.1.1.9,24,-0.010,-0.010,-0.010,0.000,0.000,0.000
1644915541120866048,2022-02-15-08:59:01,10.1.1.9,30,-0.080,-0.080,-0.080,0.000,0.000,0.000
1644915541222217984,2022-02-15-08:59:01,10.1.1.9,29,-0.100,-0.100,-0.100,0.000,0.000,0.000
1644915541279998976,2022-02-15-08:59:01,10.1.1.9,38,-0.090,-0.090,-0.090,0.000,0.000,0.000
1644915541319928832,2022-02-15-08:59:01,10.1.1.9,27,-0.080,-0.080,-0.080,0.000,0.000,0.000
1644915541379748096,2022-02-15-08:59:01,10.1.1.9,37,-0.070,-0.070,-0.070,0.000,0.000,0.000
1644915541420977152,2022-02-15-08:59:01,10.1.1.9,26,-0.060,-0.060,-0.060,0.000,0.000,0.000
1644915541479888896,2022-02-15-08:59:01,10.1.1.9,36,-0.050,-0.050,-0.050,0.000,0.000,0.000
1644915541519923968,2022-02-15-08:59:01,10.1.1.9,25,-0.040,-0.040,-0.040,0.000,0.000,0.000
1644915541581569792,2022-02-15-08:59:01,10.1.1.9,35,-0.030,-0.030,-0.030,0.000,0.000,0.000
1644915541620795136,2022-02-15-08:59:01,10.1.1.9,24,-0.020,-0.020,-0.020,0.000,0.000,0.000
1644915541680065024,2022-02-15-08:59:01,10.1.1.9,34,-0.010,-0.010,-0.010,0.000,0.000,0.000
1644915541720724224,2022-02-15-08:59:01,10.1.1.9,23,0.000,0.000,0.000,0.000,0.000,0.000
1644915541980249856,2022-02-15-08:59:01,10.1.1.9,28,0.050,0.050,0.050,0.000,0.000,0.000
1644915542042159104,2022-02-15-08:59:02,10.1.1.9,37,0.060,0.060,0.060,0.000,0.000,0.000
1644915542140232192,2022-02-15-08:59:02,10.1.1.9,27,0.080,0.080,0.080,0.000,0.000,0.000
1644915542200359168,2022-02-15-08:59:02,10.1.1.9,36,0.090,0.090,0.090,0.000,0.000,0.000
1644915542239607040,2022-02-15-08:59:02,10.1.1.9,25,0.100,0.100,0.100,0.000,0.000,0.000
1644915542299788032,2022-02-15-08:59:02,10.1.1.9,35,0.090,0.090,0.090,0.000,0.000,0.000
1644915542340775936,2022-02-15-08:59:02,10.1.1.9,23,0.080,0.080,0.080,0.000,0.000,0.000
1644915542479859968,2022-02-15-08:59:02,10.1.1.9,35,0.060,0.060,0.060,0.000,0.000,0.000
1644915542519497984,2022-02-15-08:59:02,10.1.1.9,23,0.050,0.050,0.050,0.000,0.000,0.000
1644915542879787008,2022-02-15-08:59:02,10.1.1.9,29,-0.020,-0.020,-0.020,0.000,0.000,0.000
1644915542946520064,2022-02-15-08:59:02,10.1.1.9,38,-0.030,-0.030,-0.030,0.000,0.000,0.000
1644915543060153088,2022-02-15-08:59:03,10.1.1.9,33,-0.050,-0.050,-0.050,0.000,0.000,0.000
1644915543359671040,2022-02-15-08:59:03,10.1.1.9,29,-0.090,-0.090,-0.090,0.000,0.000,0.000
1644915543419869952,2022-02-15-08:59:03,10.1.1.9,38,-0.080,-0.080,-0.080,0.000,0.000,0.000
1644915543460292096,2022-02-15-08:59:03,10.1.1.9,27,-0.070,-0.070,-0.070,0.000,0.000,0.000
1644915543519879936,2022-02-15-08:59:03,10.1.1.9,36,-0.060,-0.060,-0.060,0.000,0.000,0.000
1644915543559986944,2022-02-15-08:59:03,10.1.1.9,26,-0.050,-0.050,-0.050,0.000,0.000,0.000
1644915543620218880,2022-02-15-08:59:03,10.1.1.9,35,-0.040,-0.040,-0.040,0.000,0.000,0.000
1644915543660009984,2022-02-15-08:59:03,10.1.1.9,25,-0.030,-0.030,-0.030,0.000,0.000,0.000
1644915543719707904,2022-02-15-08:59:03,10.1.1.9,34,-0.020,-0.020,-0.020,0.000,0.000,0.000
1644915543759848960,2022-02-15-08:59:03,10.1.1.9,24,-0.010,-0.010,-0.010,0.000,0.000,0.000
1644915543889728000,2022-02-15-08:59:03,10.1.1.9,25,0.010,0.010,0.010,0.000,0.000,0.000
1644915543940186880,2022-02-15-08:59:03,10.1.1.9,34,0.020,0.020,0.020,0.000,0.000,0.000
1644915543979840000,2022-02-15-08:59:03,10.1.1.9,24,0.030,0.030,0.030,0.000,0.000,0.000
1644915544042458112,2022-02-15-08:59:04,10.1.1.9,25,0.040,0.040,0.040,0.000,0.000,0.000
1644915544160141824,2022-02-15-08:59:04,10.1.1.9,39,0.060,0.060,0.060,0.000,0.000,0.000
1644915544200313088,2022-02-15-08:59:04,10.1.1.9,28,0.070,0.070,0.070,0.000,0.000,0.000
1644915544259809024,2022-02-15-08:59:04,10.1.1.9,37,0.080,0.080,0.080,0.000,0.000,0.000
1644915544300094976,2022-02-15-08:59:04,10.1.1.9,26,0.090,0.090,0.090,0.000,0.000,0.000
1644915544359886848,2022-02-15-08:59:04,10.1.1.9,35,0.100,0.100,0.100,0.000,0.000,0.000
1644915544399746816,2022-02-15-08:59:04,10.1.1.9,24,0.090,0.090,0.090,0.000,0.000,0.000
1644915544460207104,2022-02-15-08:59:04,10.1.1.9,33,0.080,0.080,0.080,0.000,0.000,0.000
1644915544659823872,2022-02-15-08:59:04,10.1.1.9,29,0.040,0.040,0.040,0.000,0.000,0.000
1644915544719718912,2022-02-15-08:59:04,10.1.1.9,38,0.030,0.030,0.030,0.000,0.000,0.000
1644915544760094976,2022-02-15-08:59:04,10.1.1.9,27,0.020,0.020,0.020,0.000,0.000,0.000
1644915544820236032,2022-02-15-08:59:04,10.1.1.9,36,0.010,0.010,0.010,0.000,0.000,0.000
1644915544859918080,2022-02-15-08:59:04,10.1.1.9,25,0.000,0.000,0.000,0.000,0.000,0.000
1644915544919928064,2022-02-15-08:59:04,10.1.1.9,35,-0.010,-0.010,-0.010,0.000,0.000,0.000
1644915544960011008,2022-02-15-08:59:04,10.1.1.9,24,-0.020,-0.020,-0.020,0.000,0.000,0.000
1644915545019656960,2022-02-15-08:59:05,10.1.1.9,33,-0.030,-0.030,-0.030,0.000,0.000,0.000
1644915545279953920,2022-02-15-08:59:05,10.1.1.9,38,-0.080,-0.080,-0.080,0.000,0.000,0.000
1644915545320583936,2022-02-15-08:59:05,10.1.1.9,28,-0.090,-0.090,-0.090,0.000,0.000,0.000
1644915545380100864,2022-02-15-08:59:05,10.1.1.9,37,-0.100,-0.100,-0.100,0.000,0.000,0.000
1644915545421700096,2022-02-15-08:59:05,10.1.1.9,27,-0.090,-0.090,-0.090,0.000,0.000,0.000
1644915545479847936,2022-02-15-08:59:05,10.1.1.9,36,-0.080,-0.080,-0.080,0.000,0.000,0.000
1644915545520364032,2022-02-15-08:59:05,10.1.1.9,25,-0.070,-0.070,-0.070,0.000,0.000,0.000
1644915545579554048,2022-02-15-08:59:05,10.1.1.9,34,-0.060,-0.060,-0.060,0.000,0.000,0.000
1644915545622489856,2022-02-15-08:59:05,10.1.1.9,24,-0.050,-0.050,-0.050,0.000,0.000,0.000
1644915545780150784,2022-02-15-08:59:05,10.1.1.9,27,-0.020,-0.020,-0.020,0.000,0.000,0.000
1644915545840002048,2022-02-15-08:59:05,10.1.1.9,36,-0.010,-0.010,-0.010,0.000,0.000,0.000
1644915545880069120,2022-02-15-08:59:05,10.1.1.9,26,0.000,0.000,0.000,0.000,0.000,0.000
1644915545940133120,2022-02-15-08:59:05,10.1.1.9,36,0.010,0.010,0.010,0.000,0.000,0.000
1644915545980297984,2022-02-15-08:59:05,10.1.1.9,25,0.020,0.020,0.020,0.000,0.000,0.000
1644915546039969024,2022-02-15-08:59:06,10.1.1.9,34,0.030,0.030,0.030,0.000,0.000,0.000
1644915546080141056,2022-02-15-08:59:06,10.1.1.9,24,0.040,0.040,0.040,0.000,0.000,0.000
1644915546140450048,2022-02-15-08:59:06,10.1.1.9,34,0.050,0.050,0.050,0.000,0.000,0.000
1644915546179816960,2022-02-15-08:59:06,10.1.1.9,23,0.060,0.060,0.060,0.000,0.000,0.000
1644915546240395008,2022-02-15-08:59:06,10.1.1.9,33,0.070,0.070,0.070,0.000,0.000,0.000
1644915546439619072,2022-02-15-08:59:06,10.1.1.9,30,0.090,0.090,0.090,0.000,0.000,0.000
1644915546480384000,2022-02-15-08:59:06,10.1.1.9,20,0.080,0.080,0.080,0.000,0.000,0.000
1644915546539983872,2022-02-15-08:59:06,10.1.1.9,28,0.070,0.070,0.070,0.000,0.000,0.000
1644915546600581888,2022-02-15-08:59:06,10.1.1.9,38,0.060,0.060,0.060,0.000,0.000,0.000
1644915546639867904,2022-02-15-08:59:06,10.1.1.9,27,0.050,0.050,0.050,0.000,0.000,0.000
1644915546701530880,2022-02-15-08:59:06,10.1.1.9,37,0.040,0.040,0.040,0.000,0.000,0.000
1644915546739726080,2022-02-15-08:59:06,10.1.1.9,26,0.030,0.030,0.030,0.000,0.000,0.000
1644915546800519936,2022-02-15-08:59:06,10.1.1.9,36,0.020,0.020,0.020,0.000,0.000,0.000
1644915546840243968,2022-02-15-08:59:06,10.1.1.9,25,0.010,0.010,0.010,0.000,0.000,0.000
1644915546899741952,2022-02-15-08:59:06,10.1.1.9,35,0.000,0.000,0.000,0.000,0.000,0.000
1644915546939641088,2022-02-15-08:59:06,10.1.1.9,24,-0.010,-0.010,-0.010,0.000,0.000,0.000
1644915546999644928,2022-02-15-08:59:06,10.1.1.9,34,-0.020,-0.020,-0.020,0.000,0.000,0.000
1644915547260130816,2022-02-15-08:59:07,10.1.1.9,39,-0.070,-0.070,-0.070,0.000,0.000,0.000
1644915547300167936,2022-02-15-08:59:07,10.1.1.9,28,-0.080,-0.080,-0.080,0.000,0.000,0.000
1644915547360305152,2022-02-15-08:59:07,10.1.1.9,38,-0.090,-0.090,-0.090,0.000,0.000,0.000
1644915547399655936,2022-02-15-08:59:07,10.1.1.9,27,-0.100,-0.100,-0.100,0.000,0.000,0.000
1644915547460055040,2022-02-15-08:59:07,10.1.1.9,37,-0.090,-0.090,-0.090,0.000,0.000,0.000
1644915547500304896,2022-02-15-08:59:07,10.1.1.9,26,-0.080,-0.080,-0.080,0.000,0.000,0.000
1644915547560125952,2022-02-15-08:59:07,10.1.1.9,36,-0.070,-0.070,-0.070,0.000,0.000,0.000
1644915547599947008,2022-02-15-08:59:07,10.1.1.9,25,-0.060,-0.060,-0.060,0.000,0.000,0.000
1644915547660136960,2022-02-15-08:59:07,10.1.1.9,35,-0.050,-0.050,-0.050,0.000,0.000,0.000
1644915547700368896,2022-02-15-08:59:07,10.1.1.9,24,-0.040,-0.040,-0.040,0.000,0.000,0.000
1644915547760126208,2022-02-15-08:59:07,10.1.1.9,34,-0.030,-0.030,-0.030,0.000,0.000,0.000
1644915547800883968,2022-02-15-08:59:07,10.1.1.9,24,-0.020,-0.020,-0.020,0.000,0.000,0.000
1644915547859923968,2022-02-15-08:59:07,10.1.1.9,33,-0.010,-0.010,-0.010,0.000,0.000,0.000
1644915548160054016,2022-02-15-08:59:08,10.1.1.9,30,0.050,0.050,0.050,0.000,0.000,0.000
1644915548199800064,2022-02-15-08:59:08,10.1.1.9,19,0.059,0.059,0.059,0.000,0.000,0.000
1644915548260254976,2022-02-15-08:59:08,10.1.1.9,29,0.070,0.070,0.070,0.000,0.000,0.000
1644915548319603968,2022-02-15-08:59:08,10.1.1.9,38,0.080,0.080,0.080,0.000,0.000,0.000
1644915548360101888,2022-02-15-08:59:08,10.1.1.9,28,0.090,0.090,0.090,0.000,0.000,0.000
1644915548422354944,2022-02-15-08:59:08,10.1.1.9,38,0.100,0.100,0.100,0.000,0.000,0.000
1644915548459762176,2022-02-15-08:59:08,10.1.1.9,27,0.090,0.090,0.090,0.000,0.000,0.000
1644915548519849984,2022-02-15-08:59:08,10.1.1.9,36,0.080,0.080,0.080,0.000,0.000,0.000
1644915548560218112,2022-02-15-08:59:08,10.1.1.9,26,0.070,0.070,0.070,0.000,0.000,0.000
1644915548620350976,2022-02-15-08:59:08,10.1.1.9,35,0.060,0.060,0.060,0.000,0.000,0.000
1644915548659694080,2022-02-15-08:59:08,10.1.1.9,24,0.050,0.050,0.050,0.000,0.000,0.000
1644915548720356864,2022-02-15-08:59:08,10.1.1.9,34,0.040,0.040,0.040,0.000,0.000,0.000
1644915548760485888,2022-02-15-08:59:08,10.1.1.9,23,0.030,0.030,0.030,0.000,0.000,0.000
1644915548820171008,2022-02-15-08:59:08,10.1.1.9,33,0.020,0.020,0.020,0.000,0.000,0.000
1644915549019963904,2022-02-15-08:59:09,10.1.1.9,28,-0.020,-0.020,-0.020,0.000,0.000,0.000
1644915549079667968,2022-02-15-08:59:09,10.1.1.9,38,-0.030,-0.030,-0.030,0.000,0.000,0.000
1644915549120486912,2022-02-15-08:59:09,10.1.1.9,27,-0.040,-0.040,-0.040,0.000,0.000,0.000
1644915549179794944,2022-02-15-08:59:09,10.1.1.9,36,-0.050,-0.050,-0.050,0.000,0.000,0.000
1644915549220290816,2022-02-15-08:59:09,10.1.1.9,26,-0.060,-0.060,-0.060,0.000,0.000,0.000
1644915549279822080,2022-02-15-08:59:09,10.1.1.9,35,-0.070,-0.070,-0.070,0.000,0.000,0.000
1644915549319837184,2022-02-15-08:59:09,10.1.1.9,24,-0.080,-0.080,-0.080,0.000,0.000,0.000
1644915549385660928,2022-02-15-08:59:09,10.1.1.9,33,-0.090,-0.090,-0.090,0.000,0.000,0.000
1644915549500164096,2022-02-15-08:59:09,10.1.1.9,1,-0.090,-0.090,-0.090,0.000,0.000,0.000
1644915549679794944,2022-02-15-08:59:09,10.1.1.9,29,-0.060,-0.060,-0.060,0.000,0.000,0.000
1644915549739895040,2022-02-15-08:59:09,10.1.1.9,38,-0.050,-0.050,-0.050,0.000,0.000,0.000
1644915549779822080,2022-02-15-08:59:09,10.1.1.9,27,-0.040,-0.040,-0.040,0.000,0.000,0.000
1644915549840485120,2022-02-15-08:59:09,10.1.1.9,37,-0.030,-0.030,-0.030,0.000,0.000,0.000
1644915549880126976,2022-02-15-08:59:09,10.1.1.9,27,-0.020,-0.020,-0.020,0.000,0.000,0.000
1644915549939620864,2022-02-15-08:59:09,10.1.1.9,36,-0.010,-0.010,-0.010,0.000,0.000,0.000
1644915549980156928,2022-02-15-08:59:09,10.1.1.9,26,0.000,0.000,0.000,0.000,0.000,0.000
1644915550140283136,2022-02-15-08:59:10,10.1.1.9,27,0.030,0.030,0.030,0.000,0.000,0.000
1644915550199757056,2022-02-15-08:59:10,10.1.1.9,36,0.040,0.040,0.040,0.000,0.000,0.000
1644915550240342016,2022-02-15-08:59:10,10.1.1.9,26,0.050,0.050,0.050,0.000,0.000,0.000
1644915550300136192,2022-02-15-08:59:10,10.1.1.9,35,0.060,0.060,0.060,0.000,0.000,0.000
1644915550340152064,2022-02-15-08:59:10,10.1.1.9,25,0.070,0.070,0.070,0.000,0.000,0.000
1644915550399937024,2022-02-15-08:59:10,10.1.1.9,34,0.080,0.080,0.080,0.000,0.000,0.000
1644915550440860928,2022-02-15-08:59:10,10.1.1.9,24,0.090,0.090,0.090,0.000,0.000,0.000
1644915550500454912,2022-02-15-08:59:10,10.1.1.9,34,0.100,0.100,0.100,0.000,0.000,0.000
1644915550540150784,2022-02-15-08:59:10,10.1.1.9,23,0.090,0.090,0.090,0.000,0.000,0.000
1644915550800448768,2022-02-15-08:59:10,10.1.1.9,28,0.040,0.040,0.040,0.000,0.000,0.000
1644915550859985152,2022-02-15-08:59:10,10.1.1.9,38,0.030,0.030,0.030,0.000,0.000,0.000
1644915550900207872,2022-02-15-08:59:10,10.1.1.9,27,0.020,0.020,0.020,0.000,0.000,0.000
1644915550959995904,2022-02-15-08:59:10,10.1.1.9,37,0.010,0.010,0.010,0.000,0.000,0.000
1644915551000567040,2022-02-15-08:59:11,10.1.1.9,27,0.000,0.000,0.000,0.000,0.000,0.000
1644915551059941888,2022-02-15-08:59:11,10.1.1.9,36,-0.010,-0.010,-0.010,0.000,0.000,0.000
1644915551100253952,2022-02-15-08:59:11,10.1.1.9,25,-0.020,-0.020,-0.020,0.000,0.000,0.000
1644915551160398080,2022-02-15-08:59:11,10.1.1.9,35,-0.030,-0.030,-0.030,0.000,0.000,0.000
1644915551199855104,2022-02-15-08:59:11,10.1.1.9,24,-0.040,-0.040,-0.040,0.000,0.000,0.000
1644915551261462016,2022-02-15-08:59:11,10.1.1.9,34,-0.050,-0.050,-0.050,0.000,0.000,0.000
1644915551300942848,2022-02-15-08:59:11,10.1.1.9,24,-0.060,-0.060,-0.060,0.000,0.000,0.000
1644915551359774208,2022-02-15-08:59:11,10.1.1.9,33,-0.070,-0.070,-0.070,0.000,0.000,0.000
1644915551570365952,2022-02-15-08:59:11,10.1.1.9,28,-0.090,-0.090,-0.090,0.000,0.000,0.000
1644915551840101888,2022-02-15-08:59:11,10.1.1.9,39,-0.040,-0.040,-0.040,0.000,0.000,0.000
1644915551879913984,2022-02-15-08:59:11,10.1.1.9,27,-0.030,-0.030,-0.030,0.000,0.000,0.000
1644915551940752896,2022-02-15-08:59:11,10.1.1.9,37,-0.020,-0.020,-0.020,0.000,0.000,0.000
1644915551979932928,2022-02-15-08:59:11,10.1.1.9,26,-0.010,-0.010,-0.010,0.000,0.000,0.000
1644915552040093952,2022-02-15-08:59:12,10.1.1.9,35,0.000,0.000,0.000,0.000,0.000,0.000
1644915552081619968,2022-02-15-08:59:12,10.1.1.9,25,0.010,0.010,0.010,0.000,0.000,0.000
1644915552140227072,2022-02-15-08:59:12,10.1.1.9,34,0.020,0.020,0.020,0.000,0.000,0.000
1644915552181523200,2022-02-15-08:59:12,10.1.1.9,23,0.030,0.030,0.030,0.000,0.000,0.000
1644915552241959936,2022-02-15-08:59:12,10.1.1.9,33,0.040,0.040,0.040,0.000,0.000,0.000
1644915552499964928,2022-02-15-08:59:12,10.1.1.9,39,0.090,0.090,0.090,0.000,0.000,0.000
1644915552541115136,2022-02-15-08:59:12,10.1.1.9,28,0.100,0.100,0.100,0.000,0.000,0.000
1644915552612157184,2022-02-15-08:59:12,10.1.1.9,34,0.090,0.090,0.090,0.000,0.000,0.000
1644915552964392960,2022-02-15-08:59:12,10.1.1.9,38,0.020,0.020,0.020,0.000,0.000,0.000
1644915552999936000,2022-02-15-08:59:12,10.1.1.9,26,0.010,0.010,0.010,0.000,0.000,0.000
1644915553065761024,2022-02-15-08:59:13,10.1.1.9,35,0.000,0.000,0.000,0.000,0.000,0.000
1644915553200001024,2022-02-15-08:59:13,10.1.1.9,23,-0.030,-0.030,-0.030,0.000,0.000,0.000
1644915553259963136,2022-02-15-08:59:13,10.1.1.9,33,-0.040,-0.040,-0.040,0.000,0.000,0.000
1644915553620178944,2022-02-15-08:59:13,10.1.1.9,39,-0.090,-0.090,-0.090,0.000,0.000,0.000
1644915553660044800,2022-02-15-08:59:13,10.1.1.9,29,-0.080,-0.080,-0.080,0.000,0.000,0.000
1644915553722296832,2022-02-15-08:59:13,10.1.1.9,37,-0.070,-0.070,-0.070,0.000,0.000,0.000
1644915553880353024,2022-02-15-08:59:13,10.1.1.9,25,-0.040,-0.040,-0.040,0.000,0.000,0.000
1644915553939960832,2022-02-15-08:59:13,10.1.1.9,33,-0.030,-0.030,-0.030,0.000,0.000,0.000
1644915554400165120,2022-02-15-08:59:14,10.1.1.9,28,0.060,0.060,0.060,0.000,0.000,0.000
1644915554459703808,2022-02-15-08:59:14,10.1.1.9,37,0.070,0.070,0.070,0.000,0.000,0.000
1644915554560066816,2022-02-15-08:59:14,10.1.1.9,36,0.090,0.090,0.090,0.000,0.000,0.000
1644915554640180224,2022-02-15-08:59:14,10.1.1.9,11,0.090,0.090,0.090,0.000,0.000,0.000
1644915554762292992,2022-02-15-08:59:14,10.1.1.9,29,0.070,0.070,0.070,0.000,0.000,0.000
1644915554819910144,2022-02-15-08:59:14,10.1.1.9,38,0.060,0.060,0.060,0.000,0.000,0.000
1644915554874198016,2022-02-15-08:59:14,10.1.1.9,37,0.050,0.050,0.050,0.000,0.000,0.000
1644915554919985152,2022-02-15-08:59:14,10.1.1.9,37,0.040,0.040,0.040,0.000,0.000,0.000
1644915554962234880,2022-02-15-08:59:14,10.1.1.9,26,0.030,0.030,0.030,0.000,0.000,0.000
1644915555019845888,2022-02-15-08:59:15,10.1.1.9,36,0.020,0.020,0.020,0.000,0.000,0.000
1644915555062311936,2022-02-15-08:59:15,10.1.1.9,25,0.010,0.010,0.010,0.000,0.000,0.000
1644915555601785856,2022-02-15-08:59:15,10.1.1.9,39,-0.090,-0.090,-0.090,0.000,0.000,0.000
1644915555641324032,2022-02-15-08:59:15,10.1.1.9,29,-0.100,-0.100,-0.100,0.000,0.000,0.000
1644915555699832064,2022-02-15-08:59:15,10.1.1.9,38,-0.090,-0.090,-0.090,0.000,0.000,0.000
1644915555751692032,2022-02-15-08:59:15,10.1.1.9,36,-0.080,-0.080,-0.080,0.000,0.000,0.000
1644915555899863040,2022-02-15-08:59:15,10.1.1.9,29,-0.050,-0.050,-0.050,0.000,0.000,0.000
1644915556161561856,2022-02-15-08:59:16,10.1.1.9,37,0.000,0.000,0.000,0.000,0.000,0.000
1644915556202418176,2022-02-15-08:59:16,10.1.1.9,25,0.010,0.010,0.010,0.000,0.000,0.000
1644915556255744000,2022-02-15-08:59:16,10.1.1.9,29,0.020,0.020,0.020,0.000,0.000,0.000
1644915556371469056,2022-02-15-08:59:16,10.1.1.9,30,0.040,0.040,0.040,0.000,0.000,0.000
1644915556420499200,2022-02-15-08:59:16,10.1.1.9,37,0.050,0.050,0.050,0.000,0.000,0.000
1644915556459499008,2022-02-15-08:59:16,10.1.1.9,26,0.060,0.060,0.060,0.000,0.000,0.000
1644915556522912000,2022-02-15-08:59:16,10.1.1.9,29,0.070,0.070,0.070,0.000,0.000,0.000
1644915556720123904,2022-02-15-08:59:16,10.1.1.9,29,0.090,0.090,0.090,0.000,0.000,0.000
1644915556781467904,2022-02-15-08:59:16,10.1.1.9,37,0.080,0.080,0.080,0.000,0.000,0.000
1644915556844665088,2022-02-15-08:59:16,10.1.1.9,39,0.070,0.070,0.070,0.000,0.000,0.000
1644915556881444864,2022-02-15-08:59:16,10.1.1.9,27,0.060,0.060,0.060,0.000,0.000,0.000
1644915556951021824,2022-02-15-08:59:16,10.1.1.9,45,0.050,0.050,0.050,0.000,0.000,0.000
1644915557040839936,2022-02-15-08:59:17,10.1.1.9,27,0.030,0.030,0.030,0.000,0.000,0.000
1644915557100265984,2022-02-15-08:59:17,10.1.1.9,34,0.020,0.020,0.020,0.000,0.000,0.000
1644915557144211968,2022-02-15-08:59:17,10.1.1.9,25,0.010,0.010,0.010,0.000,0.000,0.000
1644915557359979008,2022-02-15-08:59:17,10.1.1.9,40,-0.030,-0.030,-0.030,0.000,0.000,0.000
1644915557461740032,2022-02-15-08:59:17,10.1.1.9,38,-0.050,-0.050,-0.050,0.000,0.000,0.000
1644915557500685824,2022-02-15-08:59:17,10.1.1.9,28,-0.060,-0.060,-0.060,0.000,0.000,0.000
1644915557560305152,2022-02-15-08:59:17,10.1.1.9,37,-0.070,-0.070,-0.070,0.000,0.000,0.000
1644915557600320000,2022-02-15-08:59:17,10.1.1.9,26,-0.080,-0.080,-0.080,0.000,0.000,0.000
1644915557660473088,2022-02-15-08:59:17,10.1.1.9,36,-0.090,-0.090,-0.090,0.000,0.000,0.000
1644915557700719104,2022-02-15-08:59:17,10.1.1.9,24,-0.100,-0.100,-0.100,0.000,0.000,0.000
1644915557760818944,2022-02-15-08:59:17,10.1.1.9,35,-0.090,-0.090,-0.090,0.000,0.000,0.000
1644915557913952000,2022-02-15-08:59:17,10.1.1.9,33,-0.060,-0.060,-0.060,0.000,0.000,0.000
1644915557960276992,2022-02-15-08:59:17,10.1.1.9,26,-0.050,-0.050,-0.050,0.000,0.000,0.000
1644915558020154112,2022-02-15-08:59:18,10.1.1.9,35,-0.040,-0.040,-0.040,0.000,0.000,0.000
1644915558180398080,2022-02-15-08:59:18,10.1.1.9,39,-0.010,-0.010,-0.010,0.000,0.000,0.000
1644915558219748096,2022-02-15-08:59:18,10.1.1.9,27,0.000,0.000,0.000,0.000,0.000,0.000
1644915558281235968,2022-02-15-08:59:18,10.1.1.9,37,0.010,0.010,0.010,0.000,0.000,0.000
1644915558325753088,2022-02-15-08:59:18,10.1.1.9,25,0.020,0.020,0.020,0.000,0.000,0.000
1644915558380139008,2022-02-15-08:59:18,10.1.1.9,34,0.030,0.030,0.030,0.000,0.000,0.000
1644915558639770112,2022-02-15-08:59:18,10.1.1.9,39,0.080,0.080,0.080,0.000,0.000,0.000
1644915558679652864,2022-02-15-08:59:18,10.1.1.9,27,0.090,0.090,0.090,0.000,0.000,0.000
1644915558739901184,2022-02-15-08:59:18,10.1.1.9,36,0.100,0.100,0.100,0.000,0.000,0.000
1644915558782452992,2022-02-15-08:59:18,10.1.1.9,25,0.090,0.090,0.090,0.000,0.000,0.000
1644915558839916032,2022-02-15-08:59:18,10.1.1.9,35,0.080,0.080,0.080,0.000,0.000,0.000
1644915558879684864,2022-02-15-08:59:18,10.1.1.9,24,0.070,0.070,0.070,0.000,0.000,0.000
1644915558942950912,2022-02-15-08:59:18,10.1.1.9,33,0.060,0.060,0.060,0.000,0.000,0.000
1644915558980649984,2022-02-15-08:59:18,10.1.1.9,23,0.050,0.050,0.050,0.000,0.000,0.000
1644915559240331776,2022-02-15-08:59:19,10.1.1.9,28,0.000,0.000,0.000,0.000,0.000,0.000
1644915559300147968,2022-02-15-08:59:19,10.1.1.9,38,-0.010,-0.010,-0.010,0.000,0.000,0.000
1644915559340023040,2022-02-15-08:59:19,10.1.1.9,26,-0.020,-0.020,-0.020,0.000,0.000,0.000
1644915559399852032,2022-02-15-08:59:19,10.1.1.9,35,-0.030,-0.030,-0.030,0.000,0.000,0.000
1644915559440499968,2022-02-15-08:59:19,10.1.1.9,25,-0.040,-0.040,-0.040,0.000,0.000,0.000
1644915559499769088,2022-02-15-08:59:19,10.1.1.9,35,-0.050,-0.050,-0.050,0.000,0.000,0.000
1644915559540226816,2022-02-15-08:59:19,10.1.1.9,24,-0.060,-0.060,-0.060,0.000,0.000,0.000
1644915559599927040,2022-02-15-08:59:19,10.1.1.9,33,-0.070,-0.070,-0.070,0.000,0.000,0.000
1644915559859507968,2022-02-15-08:59:19,10.1.1.9,38,-0.080,-0.080,-0.080,0.000,0.000,0.000
1644915559901067008,2022-02-15-08:59:19,10.1.1.9,27,-0.070,-0.070,-0.070,0.000,0.000,0.000
1644915559959534848,2022-02-15-08:59:19,10.1.1.9,36,-0.060,-0.060,-0.060,0.000,0.000,0.000
1644915560000096000,2022-02-15-08:59:20,10.1.1.9,26,-0.050,-0.050,-0.050,0.000,0.000,0.000
1644915560059592960,2022-02-15-08:59:20,10.1.1.9,35,-0.040,-0.040,-0.040,0.000,0.000,0.000
1644915560100384000,2022-02-15-08:59:20,10.1.1.9,25,-0.030,-0.030,-0.030,0.000,0.000,0.000
1644915560159898112,2022-02-15-08:59:20,10.1.1.9,34,-0.020,-0.020,-0.020,0.000,0.000,0.000
1644915560199561984,2022-02-15-08:59:20,10.1.1.9,24,-0.010,-0.010,-0.010,0.000,0.000,0.000
1644915560259910144,2022-02-15-08:59:20,10.1.1.9,33,0.000,0.000,0.000,0.000,0.000,0.000
1644915560461793792,2022-02-15-08:59:20,10.1.1.9,27,0.040,0.040,0.040,0.000,0.000,0.000
1644915560523407104,2022-02-15-08:59:20,10.1.1.9,37,0.050,0.050,0.050,0.000,0.000,0.000
1644915560559794944,2022-02-15-08:59:20,10.1.1.9,26,0.060,0.060,0.060,0.000,0.000,0.000
1644915560622915072,2022-02-15-08:59:20,10.1.1.9,36,0.070,0.070,0.070,0.000,0.000,0.000
1644915560660065024,2022-02-15-08:59:20,10.1.1.9,26,0.080,0.080,0.080,0.000,0.000,0.000
1644915560720392960,2022-02-15-08:59:20,10.1.1.9,35,0.090,0.090,0.090,0.000,0.000,0.000
1644915560760385024,2022-02-15-08:59:20,10.1.1.9,25,0.100,0.100,0.100,0.000,0.000,0.000
1644915560822288128,2022-02-15-08:59:20,10.1.1.9,34,0.090,0.090,0.090,0.000,0.000,0.000
1644915560860119040,2022-02-15-08:59:20,10.1.1.9,23,0.080,0.080,0.080,0.000,0.000,0.000
1644915560980302080,2022-02-15-08:59:20,10.1.1.9,39,0.060,0.060,0.060,0.000,0.000,0.000
1644915561023204096,2022-02-15-08:59:21,10.1.1.9,28,0.050,0.050,0.050,0.000,0.000,0.000
1644915561080611840,2022-02-15-08:59:21,10.1.1.9,36,0.040,0.040,0.040,0.000,0.000,0.000
1644915561125042944,2022-02-15-08:59:21,10.1.1.9,25,0.030,0.030,0.030,0.000,0.000,0.000
1644915561184133888,2022-02-15-08:59:21,10.1.1.9,33,0.020,0.020,0.020,0.000,0.000,0.000
1644915561343673088,2022-02-15-08:59:21,10.1.1.9,25,-0.010,-0.010,-0.010,0.000,0.000,0.000
1644915561400009984,2022-02-15-08:59:21,10.1.1.9,34,-0.020,-0.020,-0.020,0.000,0.000,0.000
1644915561439739904,2022-02-15-08:59:21,10.1.1.9,23,-0.030,-0.030,-0.030,0.000,0.000,0.000
1644915561519779840,2022-02-15-08:59:21,10.1.1.9,33,-0.040,-0.040,-0.040,0.000,0.000,0.000
1644915561779766016,2022-02-15-08:59:21,10.1.1.9,39,-0.090,-0.090,-0.090,0.000,0.000,0.000
1644915561820028928,2022-02-15-08:59:21,10.1.1.9,29,-0.100,-0.100,-0.100,0.000,0.000,0.000
1644915561879700992,2022-02-15-08:59:21,10.1.1.9,38,-0.090,-0.090,-0.090,0.000,0.000,0.000
1644915561920260864,2022-02-15-08:59:21,10.1.1.9,28,-0.080,-0.080,-0.080,0.000,0.000,0.000
1644915561983171072,2022-02-15-08:59:21,10.1.1.9,37,-0.070,-0.070,-0.070,0.000,0.000,0.000
1644915562019859200,2022-02-15-08:59:22,10.1.1.9,27,-0.060,-0.060,-0.060,0.000,0.000,0.000
1644915562080302848,2022-02-15-08:59:22,10.1.1.9,37,-0.050,-0.050,-0.050,0.000,0.000,0.000
1644915562120448000,2022-02-15-08:59:22,10.1.1.9,26,-0.040,-0.040,-0.040,0.000,0.000,0.000
1644915562179590912,2022-02-15-08:59:22,10.1.1.9,35,-0.030,-0.030,-0.030,0.000,0.000,0.000
1644915562220088064,2022-02-15-08:59:22,10.1.1.9,25,-0.020,-0.020,-0.020,0.000,0.000,0.000
1644915562279550976,2022-02-15-08:59:22,10.1.1.9,34,-0.010,-0.010,-0.010,0.000,0.000,0.000
1644915562580204032,2022-02-15-08:59:22,10.1.1.9,29,0.050,0.050,0.050,0.000,0.000,0.000
1644915562641860096,2022-02-15-08:59:22,10.1.1.9,39,0.060,0.060,0.060,0.000,0.000,0.000
1644915562680103168,2022-02-15-08:59:22,10.1.1.9,28,0.070,0.070,0.070,0.000,0.000,0.000
1644915562739712000,2022-02-15-08:59:22,10.1.1.9,38,0.080,0.080,0.080,0.000,0.000,0.000
1644915562780414208,2022-02-15-08:59:22,10.1.1.9,28,0.090,0.090,0.090,0.000,0.000,0.000
1644915562840024064,2022-02-15-08:59:22,10.1.1.9,37,0.100,0.100,0.100,0.000,0.000,0.000
1644915562879898112,2022-02-15-08:59:22,10.1.1.9,26,0.090,0.090,0.090,0.000,0.000,0.000
1644915562940335104,2022-02-15-08:59:22,10.1.1.9,35,0.080,0.080,0.080,0.000,0.000,0.000
1644915562979958016,2022-02-15-08:59:22,10.1.1.9,23,0.070,0.070,0.070,0.000,0.000,0.000
1644915563240058880,2022-02-15-08:59:23,10.1.1.9,28,0.020,0.020,0.020,0.000,0.000,0.000
1644915563365662976,2022-02-15-08:59:23,10.1.1.9,38,0.000,0.000,0.000,0.000,0.000,0.000
1644915563399763968,2022-02-15-08:59:23,10.1.1.9,28,-0.010,-0.010,-0.010,0.000,0.000,0.000
1644915563459405824,2022-02-15-08:59:23,10.1.1.9,38,-0.020,-0.020,-0.020,0.000,0.000,0.000
1644915563500325888,2022-02-15-08:59:23,10.1.1.9,27,-0.030,-0.030,-0.030,0.000,0.000,0.000
1644915563559979008,2022-02-15-08:59:23,10.1.1.9,36,-0.040,-0.040,-0.040,0.000,0.000,0.000
1644915563600663040,2022-02-15-08:59:23,10.1.1.9,26,-0.050,-0.050,-0.050,0.000,0.000,0.000
1644915563662359040,2022-02-15-08:59:23,10.1.1.9,33,-0.060,-0.060,-0.060,0.000,0.000,0.000
1644915563783031040,2022-02-15-08:59:23,10.1.1.9,26,-0.080,-0.080,-0.080,0.000,0.000,0.000
1644915563840312064,2022-02-15-08:59:23,10.1.1.9,35,-0.090,-0.090,-0.090,0.000,0.000,0.000
1644915563879905024,2022-02-15-08:59:23,10.1.1.9,25,-0.100,-0.100,-0.100,0.000,0.000,0.000
1644915564040695808,2022-02-15-08:59:24,10.1.1.9,29,-0.070,-0.070,-0.070,0.000,0.000,0.000
1644915564102635008,2022-02-15-08:59:24,10.1.1.9,38,-0.060,-0.060,-0.060,0.000,0.000,0.000
1644915564140472832,2022-02-15-08:59:24,10.1.1.9,26,-0.050,-0.050,-0.050,0.000,0.000,0.000
1644915564200203008,2022-02-15-08:59:24,10.1.1.9,35,-0.040,-0.040,-0.040,0.000,0.000,0.000
1644915564240406016,2022-02-15-08:59:24,10.1.1.9,24,-0.030,-0.030,-0.030,0.000,0.000,0.000
1644915564300462848,2022-02-15-08:59:24,10.1.1.9,34,-0.020,-0.020,-0.020,0.000,0.000,0.000
1644915564560265984,2022-02-15-08:59:24,10.1.1.9,37,0.030,0.030,0.030,0.000,0.000,0.000
1644915564606297088,2022-02-15-08:59:24,10.1.1.9,27,0.040,0.040,0.040,0.000,0.000,0.000
1644915564660919808,2022-02-15-08:59:24,10.1.1.9,36,0.050,0.050,0.050,0.000,0.000,0.000
1644915564699641856,2022-02-15-08:59:24,10.1.1.9,24,0.060,0.060,0.060,0.000,0.000,0.000
1644915565060125184,2022-02-15-08:59:25,10.1.1.9,20,0.070,0.070,0.070,0.000,0.000,0.000
1644915565121737984,2022-02-15-08:59:25,10.1.1.9,26,0.060,0.060,0.060,0.000,0.000,0.000
1644915565181878016,2022-02-15-08:59:25,10.1.1.9,35,0.050,0.050,0.050,0.000,0.000,0.000
1644915565220290048,2022-02-15-08:59:25,10.1.1.9,24,0.040,0.040,0.040,0.000,0.000,0.000
1644915565282494976,2022-02-15-08:59:25,10.1.1.9,33,0.030,0.030,0.030,0.000,0.000,0.000
1644915565320491008,2022-02-15-08:59:25,10.1.1.9,23,0.020,0.020,0.020,0.000,0.000,0.000
1644915565780975104,2022-02-15-08:59:25,10.1.1.9,38,-0.050,-0.050,-0.050,0.000,0.000,0.000
1644915565820044032,2022-02-15-08:59:25,10.1.1.9,27,-0.060,-0.060,-0.060,0.000,0.000,0.000
1644915565885910016,2022-02-15-08:59:25,10.1.1.9,36,-0.070,-0.070,-0.070,0.000,0.000,0.000
1644915565921058816,2022-02-15-08:59:25,10.1.1.9,25,-0.080,-0.080,-0.080,0.000,0.000,0.000
1644915565979981824,2022-02-15-08:59:25,10.1.1.9,34,-0.090,-0.090,-0.090,0.000,0.000,0.000
1644915566019810816,2022-02-15-08:59:26,10.1.1.9,24,-0.100,-0.100,-0.100,0.000,0.000,0.000
1644915566080028928,2022-02-15-08:59:26,10.1.1.9,33,-0.090,-0.090,-0.090,0.000,0.000,0.000
1644915566583975936,2022-02-15-08:59:26,10.1.1.9,37,-0.000,-0.000,-0.000,0.000,0.000,0.000
1644915566619493888,2022-02-15-08:59:26,10.1.1.9,27,0.010,0.010,0.010,0.000,0.000,0.000
1644915566679870976,2022-02-15-08:59:26,10.1.1.9,37,0.020,0.020,0.020,0.000,0.000,0.000
1644915566719424000,2022-02-15-08:59:26,10.1.1.9,25,0.030,0.030,0.030,0.000,0.000,0.000
1644915566919879936,2022-02-15-08:59:26,10.1.1.9,19,0.060,0.060,0.060,0.000,0.000,0.000
1644915566979378944,2022-02-15-08:59:26,10.1.1.9,29,0.070,0.070,0.070,0.000,0.000,0.000
1644915567039480832,2022-02-15-08:59:27,10.1.1.9,39,0.080,0.080,0.080,0.000,0.000,0.000
1644915567079569152,2022-02-15-08:59:27,10.1.1.9,28,0.090,0.090,0.090,0.000,0.000,0.000
1644915567139875840,2022-02-15-08:59:27,10.1.1.9,37,0.100,0.100,0.100,0.000,0.000,0.000
1644915567179584000,2022-02-15-08:59:27,10.1.1.9,27,0.090,0.090,0.090,0.000,0.000,0.000
1644915567240001024,2022-02-15-08:59:27,10.1.1.9,34,0.080,0.080,0.080,0.000,0.000,0.000
1644915567279566080,2022-02-15-08:59:27,10.1.1.9,24,0.070,0.070,0.070,0.000,0.000,0.000
1644915567639926784,2022-02-15-08:59:27,10.1.1.9,29,0.000,0.000,0.000,0.000,0.000,0.000
1644915567700846080,2022-02-15-08:59:27,10.1.1.9,38,-0.010,-0.010,-0.010,0.000,0.000,0.000
1644915567779592960,2022-02-15-08:59:27,10.1.1.9,28,-0.020,-0.020,-0.020,0.000,0.000,0.000
1644915567831000064,2022-02-15-08:59:27,10.1.1.9,25,-0.030,-0.030,-0.030,0.000,0.000,0.000
1644915567879784192,2022-02-15-08:59:27,10.1.1.9,35,-0.040,-0.040,-0.040,0.000,0.000,0.000
1644915567919761920,2022-02-15-08:59:27,10.1.1.9,24,-0.050,-0.050,-0.050,0.000,0.000,0.000
1644915567979717888,2022-02-15-08:59:27,10.1.1.9,33,-0.060,-0.060,-0.060,0.000,0.000,0.000
1644915568142401024,2022-02-15-08:59:28,10.1.1.9,26,-0.090,-0.090,-0.090,0.000,0.000,0.000
1644915568202343936,2022-02-15-08:59:28,10.1.1.9,35,-0.100,-0.100,-0.100,0.000,0.000,0.000
1644915568239908864,2022-02-15-08:59:28,10.1.1.9,24,-0.090,-0.090,-0.090,0.000,0.000,0.000
1644915568459713024,2022-02-15-08:59:28,10.1.1.9,38,-0.050,-0.050,-0.050,0.000,0.000,0.000
1644915568499923968,2022-02-15-08:59:28,10.1.1.9,27,-0.040,-0.040,-0.040,0.000,0.000,0.000
1644915568560385024,2022-02-15-08:59:28,10.1.1.9,37,-0.030,-0.030,-0.030,0.000,0.000,0.000
1644915568759933952,2022-02-15-08:59:28,10.1.1.9,28,0.010,0.010,0.010,0.000,0.000,0.000
1644915568819595008,2022-02-15-08:59:28,10.1.1.9,38,0.020,0.020,0.020,0.000,0.000,0.000
1644915568859688960,2022-02-15-08:59:28,10.1.1.9,27,0.030,0.030,0.030,0.000,0.000,0.000
1644915568919922176,2022-02-15-08:59:28,10.1.1.9,36,0.040,0.040,0.040,0.000,0.000,0.000
1644915568959883008,2022-02-15-08:59:28,10.1.1.9,26,0.050,0.050,0.050,0.000,0.000,0.000
1644915569019763968,2022-02-15-08:59:29,10.1.1.9,35,0.060,0.060,0.060,0.000,0.000,0.000
1644915569059657984,2022-02-15-08:59:29,10.1.1.9,25,0.070,0.070,0.070,0.000,0.000,0.000
1644915569119755008,2022-02-15-08:59:29,10.1.1.9,34,0.080,0.080,0.080,0.000,0.000,0.000
1644915569159449088,2022-02-15-08:59:29,10.1.1.9,24,0.090,0.090,0.090,0.000,0.000,0.000
1644915569219301888,2022-02-15-08:59:29,10.1.1.9,33,0.100,0.100,0.100,0.000,0.000,0.000
1644915569579313152,2022-02-15-08:59:29,10.1.1.9,38,0.030,0.030,0.030,0.000,0.000,0.000
1644915569619700992,2022-02-15-08:59:29,10.1.1.9,27,0.020,0.020,0.020,0.000,0.000,0.000
1644915569687098880,2022-02-15-08:59:29,10.1.1.9,37,0.010,0.010,0.010,0.000,0.000,0.000
1644915569720082944,2022-02-15-08:59:29,10.1.1.9,27,0.000,0.000,0.000,0.000,0.000,0.000
1644915569785121792,2022-02-15-08:59:29,10.1.1.9,36,-0.010,-0.010,-0.010,0.000,0.000,0.000
1644915569979481856,2022-02-15-08:59:29,10.1.1.9,29,-0.050,-0.050,-0.050,0.000,0.000,0.000
1644915570039683072,2022-02-15-08:59:30,10.1.1.9,38,-0.060,-0.060,-0.060,0.000,0.000,0.000
1644915570079469056,2022-02-15-08:59:30,10.1.1.9,27,-0.070,-0.070,-0.070,0.000,0.000,0.000
1644915570139388928,2022-02-15-08:59:30,10.1.1.9,36,-0.080,-0.080,-0.080,0.000,0.000,0.000
1644915570179506944,2022-02-15-08:59:30,10.1.1.9,26,-0.090,-0.090,-0.090,0.000,0.000,0.000
1644915570239661824,2022-02-15-08:59:30,10.1.1.9,34,-0.100,-0.100,-0.100,0.000,0.000,0.000
1644915570340133888,2022-02-15-08:59:30,10.1.1.9,34,-0.080,-0.080,-0.080,0.000,0.000,0.000
1644915570459543040,2022-02-15-08:59:30,10.1.1.9,36,-0.060,-0.060,-0.060,0.000,0.000,0.000
1644915570499748096,2022-02-15-08:59:30,10.1.1.9,25,-0.050,-0.050,-0.050,0.000,0.000,0.000
1644915570660036096,2022-02-15-08:59:30,10.1.1.9,25,-0.020,-0.020,-0.020,0.000,0.000,0.000
1644915570726914816,2022-02-15-08:59:30,10.1.1.9,34,-0.010,-0.010,-0.010,0.000,0.000,0.000
1644915570819843072,2022-02-15-08:59:30,10.1.1.9,29,0.010,0.010,0.010,0.000,0.000,0.000
1644915570879966976,2022-02-15-08:59:30,10.1.1.9,36,0.020,0.020,0.020,0.000,0.000,0.000
1644915570920079104,2022-02-15-08:59:30,10.1.1.9,25,0.030,0.030,0.030,0.000,0.000,0.000
1644915570983287040,2022-02-15-08:59:30,10.1.1.9,34,0.040,0.040,0.040,0.000,0.000,0.000
1644915571024071936,2022-02-15-08:59:31,10.1.1.9,23,0.050,0.050,0.050,0.000,0.000,0.000
1644915571281644032,2022-02-15-08:59:31,10.1.1.9,20,0.100,0.100,0.100,0.000,0.000,0.000
1644915571343579904,2022-02-15-08:59:31,10.1.1.9,23,0.090,0.090,0.090,0.000,0.000,0.000
1644915571440197888,2022-02-15-08:59:31,10.1.1.9,19,0.070,0.070,0.070,0.000,0.000,0.000
1644915571524225024,2022-02-15-08:59:31,10.1.1.9,46,0.060,0.060,0.060,0.000,0.000,0.000
1644915571564719872,2022-02-15-08:59:31,10.1.1.9,36,0.050,0.050,0.050,0.000,0.000,0.000
1644915571600139008,2022-02-15-08:59:31,10.1.1.9,24,0.040,0.040,0.040,0.000,0.000,0.000
1644915571819399168,2022-02-15-08:59:31,10.1.1.9,39,0.000,0.000,0.000,0.000,0.000,0.000
1644915571980806144,2022-02-15-08:59:31,10.1.1.9,33,-0.030,-0.030,-0.030,0.000,0.000,0.000
1644915572080148992,2022-02-15-08:59:32,10.1.1.9,30,-0.050,-0.050,-0.050,0.000,0.000,0.000
1644915572140249856,2022-02-15-08:59:32,10.1.1.9,37,-0.060,-0.060,-0.060,0.000,0.000,0.000
1644915572179943936,2022-02-15-08:59:32,10.1.1.9,26,-0.070,-0.070,-0.070,0.000,0.000,0.000
1644915572239691008,2022-02-15-08:59:32,10.1.1.9,35,-0.080,-0.080,-0.080,0.000,0.000,0.000
1644915572279958016,2022-02-15-08:59:32,10.1.1.9,24,-0.090,-0.090,-0.090,0.000,0.000,0.000
1644915572339997952,2022-02-15-08:59:32,10.1.1.9,34,-0.100,-0.100,-0.100,0.000,0.000,0.000
1644915572544126976,2022-02-15-08:59:32,10.1.1.9,29,-0.060,-0.060,-0.060,0.000,0.000,0.000
1644915572600084992,2022-02-15-08:59:32,10.1.1.9,38,-0.050,-0.050,-0.050,0.000,0.000,0.000
1644915572642097920,2022-02-15-08:59:32,10.1.1.9,27,-0.040,-0.040,-0.040,0.000,0.000,0.000
1644915572760098048,2022-02-15-08:59:32,10.1.1.9,34,-0.020,-0.020,-0.020,0.000,0.000,0.000
1644915572802347008,2022-02-15-08:59:32,10.1.1.9,23,-0.010,-0.010,-0.010,0.000,0.000,0.000
1644915572921242880,2022-02-15-08:59:32,10.1.1.9,36,0.010,0.010,0.010,0.000,0.000,0.000
1644915572965794048,2022-02-15-08:59:32,10.1.1.9,25,0.020,0.020,0.020,0.000,0.000,0.000
1644915573020393984,2022-02-15-08:59:33,10.1.1.9,33,0.030,0.030,0.030,0.000,0.000,0.000
1644915573064696064,2022-02-15-08:59:33,10.1.1.9,23,0.040,0.040,0.040,0.000,0.000,0.000
1644915573123134976,2022-02-15-08:59:33,10.1.1.9,30,0.050,0.050,0.050,0.000,0.000,0.000
1644915573180599808,2022-02-15-08:59:33,10.1.1.9,35,0.060,0.060,0.060,0.000,0.000,0.000
1644915573220078080,2022-02-15-08:59:33,10.1.1.9,23,0.070,0.070,0.070,0.000,0.000,0.000
1644915573520143872,2022-02-15-08:59:33,10.1.1.9,20,0.070,0.070,0.070,0.000,0.000,0.000
1644915573586036992,2022-02-15-08:59:33,10.1.1.9,29,0.060,0.060,0.060,0.000,0.000,0.000
1644915573641052928,2022-02-15-08:59:33,10.1.1.9,38,0.050,0.050,0.050,0.000,0.000,0.000
1644915573680280832,2022-02-15-08:59:33,10.1.1.9,27,0.040,0.040,0.040,0.000,0.000,0.000
1644915573748670208,2022-02-15-08:59:33,10.1.1.9,36,0.030,0.030,0.030,0.000,0.000,0.000
1644915573780026880,2022-02-15-08:59:33,10.1.1.9,25,0.020,0.020,0.020,0.000,0.000,0.000
1644915573844544768,2022-02-15-08:59:33,10.1.1.9,35,0.010,0.010,0.010,0.000,0.000,0.000
1644915573884058112,2022-02-15-08:59:33,10.1.1.9,24,0.000,0.000,0.000,0.000,0.000,0.000
1644915573944942080,2022-02-15-08:59:33,10.1.1.9,34,-0.010,-0.010,-0.010,0.000,0.000,0.000
1644915573980269824,2022-02-15-08:59:33,10.1.1.9,23,-0.020,-0.020,-0.020,0.000,0.000,0.000
1644915574140166912,2022-02-15-08:59:34,10.1.1.9,29,-0.050,-0.050,-0.050,0.000,0.000,0.000
1644915574201106176,2022-02-15-08:59:34,10.1.1.9,38,-0.060,-0.060,-0.060,0.000,0.000,0.000
1644915574244611072,2022-02-15-08:59:34,10.1.1.9,27,-0.070,-0.070,-0.070,0.000,0.000,0.000
1644915574300546816,2022-02-15-08:59:34,10.1.1.9,36,-0.080,-0.080,-0.080,0.000,0.000,0.000
1644915574339936000,2022-02-15-08:59:34,10.1.1.9,25,-0.090,-0.090,-0.090,0.000,0.000,0.000
1644915574400468224,2022-02-15-08:59:34,10.1.1.9,33,-0.100,-0.100,-0.100,0.000,0.000,0.000
1644915574600677888,2022-02-15-08:59:34,10.1.1.9,28,-0.060,-0.060,-0.060,0.000,0.000,0.000
1644915574660367872,2022-02-15-08:59:34,10.1.1.9,37,-0.050,-0.050,-0.050,0.000,0.000,0.000
1644915574699965952,2022-02-15-08:59:34,10.1.1.9,26,-0.040,-0.040,-0.040,0.000,0.000,0.000
1644915574759823104,2022-02-15-08:59:34,10.1.1.9,34,-0.030,-0.030,-0.030,0.000,0.000,0.000
1644915574800101888,2022-02-15-08:59:34,10.1.1.9,24,-0.020,-0.020,-0.020,0.000,0.000,0.000
1644915574859996160,2022-02-15-08:59:34,10.1.1.9,33,-0.010,-0.010,-0.010,0.000,0.000,0.000
1644915575020677120,2022-02-15-08:59:35,10.1.1.9,38,0.020,0.020,0.020,0.000,0.000,0.000
1644915575060182016,2022-02-15-08:59:35,10.1.1.9,27,0.030,0.030,0.030,0.000,0.000,0.000
1644915575120338944,2022-02-15-08:59:35,10.1.1.9,36,0.040,0.040,0.040,0.000,0.000,0.000
1644915575159752960,2022-02-15-08:59:35,10.1.1.9,25,0.050,0.050,0.050,0.000,0.000,0.000
1644915575222643968,2022-02-15-08:59:35,10.1.1.9,35,0.060,0.060,0.060,0.000,0.000,0.000
1644915575420890112,2022-02-15-08:59:35,10.1.1.9,29,0.100,0.100,0.100,0.000,0.000,0.000
1644915575480203008,2022-02-15-08:59:35,10.1.1.9,38,0.090,0.090,0.090,0.000,0.000,0.000
1644915575519525888,2022-02-15-08:59:35,10.1.1.9,28,0.080,0.080,0.080,0.000,0.000,0.000
1644915575580313856,2022-02-15-08:59:35,10.1.1.9,38,0.070,0.070,0.070,0.000,0.000,0.000
1644915575620924928,2022-02-15-08:59:35,10.1.1.9,27,0.060,0.060,0.060,0.000,0.000,0.000
1644915575683343872,2022-02-15-08:59:35,10.1.1.9,37,0.050,0.050,0.050,0.000,0.000,0.000
1644915575719770880,2022-02-15-08:59:35,10.1.1.9,26,0.040,0.040,0.040,0.000,0.000,0.000
1644915575779969024,2022-02-15-08:59:35,10.1.1.9,36,0.030,0.030,0.030,0.000,0.000,0.000
1644915575820063232,2022-02-15-08:59:35,10.1.1.9,25,0.020,0.020,0.020,0.000,0.000,0.000
1644915575879847168,2022-02-15-08:59:35,10.1.1.9,34,0.010,0.010,0.010,0.000,0.000,0.000
1644915575920547072,2022-02-15-08:59:35,10.1.1.9,23,0.000,0.000,0.000,0.000,0.000,0.000
1644915576280005888,2022-02-15-08:59:36,10.1.1.9,29,-0.070,-0.070,-0.070,0.000,0.000,0.000
1644915576340457984,2022-02-15-08:59:36,10.1.1.9,38,-0.080,-0.080,-0.080,0.000,0.000,0.000
1644915576380093952,2022-02-15-08:59:36,10.1.1.9,28,-0.090,-0.090,-0.090,0.000,0.000,0.000
1644915576440201984,2022-02-15-08:59:36,10.1.1.9,37,-0.100,-0.100,-0.100,0.000,0.000,0.000
1644915576480658176,2022-02-15-08:59:36,10.1.1.9,28,-0.090,-0.090,-0.090,0.000,0.000,0.000
1644915576540900096,2022-02-15-08:59:36,10.1.1.9,36,-0.080,-0.080,-0.080,0.000,0.000,0.000
1644915576580861184,2022-02-15-08:59:36,10.1.1.9,26,-0.070,-0.070,-0.070,0.000,0.000,0.000
1644915576642953984,2022-02-15-08:59:36,10.1.1.9,35,-0.060,-0.060,-0.060,0.000,0.000,0.000
1644915576680401152,2022-02-15-08:59:36,10.1.1.9,25,-0.050,-0.050,-0.050,0.000,0.000,0.000
1644915576740524032,2022-02-15-08:59:36,10.1.1.9,34,-0.040,-0.040,-0.040,0.000,0.000,0.000
1644915576840274176,2022-02-15-08:59:36,10.1.1.9,33,-0.020,-0.020,-0.020,0.000,0.000,0.000
1644915577139952896,2022-02-15-08:59:37,10.1.1.9,29,0.040,0.040,0.040,0.000,0.000,0.000
1644915577201400064,2022-02-15-08:59:37,10.1.1.9,38,0.050,0.050,0.050,0.000,0.000,0.000
1644915577240236032,2022-02-15-08:59:37,10.1.1.9,26,0.060,0.060,0.060,0.000,0.000,0.000
1644915577303769088,2022-02-15-08:59:37,10.1.1.9,36,0.070,0.070,0.070,0.000,0.000,0.000
1644915577339984896,2022-02-15-08:59:37,10.1.1.9,25,0.080,0.080,0.080,0.000,0.000,0.000
1644915577403857920,2022-02-15-08:59:37,10.1.1.9,34,0.090,0.090,0.090,0.000,0.000,0.000
1644915577443595008,2022-02-15-08:59:37,10.1.1.9,23,0.100,0.100,0.100,0.000,0.000,0.000
1644915577860002048,2022-02-15-08:59:37,10.1.1.9,39,0.020,0.020,0.020,0.000,0.000,0.000
1644915577900697856,2022-02-15-08:59:37,10.1.1.9,28,0.010,0.010,0.010,0.000,0.000,0.000
1644915578061522944,2022-02-15-08:59:38,10.1.1.9,23,-0.020,-0.020,-0.020,0.000,0.000,0.000
1644915578480576000,2022-02-15-08:59:38,10.1.1.9,39,-0.100,-0.100,-0.100,0.000,0.000,0.000
1644915578523109888,2022-02-15-08:59:38,10.1.1.9,29,-0.090,-0.090,-0.090,0.000,0.000,0.000
1644915578580014848,2022-02-15-08:59:38,10.1.1.9,38,-0.080,-0.080,-0.080,0.000,0.000,0.000
1644915578620749056,2022-02-15-08:59:38,10.1.1.9,28,-0.070,-0.070,-0.070,0.000,0.000,0.000
1644915578686670080,2022-02-15-08:59:38,10.1.1.9,38,-0.060,-0.060,-0.060,0.000,0.000,0.000
1644915578726695936,2022-02-15-08:59:38,10.1.1.9,27,-0.050,-0.050,-0.050,0.000,0.000,0.000
1644915578780140032,2022-02-15-08:59:38,10.1.1.9,37,-0.040,-0.040,-0.040,0.000,0.000,0.000
1644915578828020992,2022-02-15-08:59:38,10.1.1.9,26,-0.030,-0.030,-0.030,0.000,0.000,0.000
1644915578880449024,2022-02-15-08:59:38,10.1.1.9,36,-0.020,-0.020,-0.020,0.000,0.000,0.000
1644915578920720128,2022-02-15-08:59:38,10.1.1.9,25,-0.010,-0.010,-0.010,0.000,0.000,0.000
1644915578980029952,2022-02-15-08:59:38,10.1.1.9,35,0.000,0.000,0.000,0.000,0.000,0.000
1644915579020338944,2022-02-15-08:59:39,10.1.1.9,24,0.010,0.010,0.010,0.000,0.000,0.000
1644915579080111104,2022-02-15-08:59:39,10.1.1.9,34,0.020,0.020,0.020,0.000,0.000,0.000
1644915579439676160,2022-02-15-08:59:39,10.1.1.9,29,0.090,0.090,0.090,0.000,0.000,0.000
1644915579500086016,2022-02-15-08:59:39,10.1.1.9,39,0.100,0.100,0.100,0.000,0.000,0.000
1644915579539804928,2022-02-15-08:59:39,10.1.1.9,28,0.090,0.090,0.090,0.000,0.000,0.000
1644915579599752960,2022-02-15-08:59:39,10.1.1.9,37,0.080,0.080,0.080,0.000,0.000,0.000
1644915579646368000,2022-02-15-08:59:39,10.1.1.9,27,0.070,0.070,0.070,0.000,0.000,0.000
1644915579702294016,2022-02-15-08:59:39,10.1.1.9,35,0.060,0.060,0.060,0.000,0.000,0.000
1644915579740989952,2022-02-15-08:59:39,10.1.1.9,24,0.050,0.050,0.050,0.000,0.000,0.000
1644915579800026880,2022-02-15-08:59:39,10.1.1.9,34,0.040,0.040,0.040,0.000,0.000,0.000
1644915580060247040,2022-02-15-08:59:40,10.1.1.9,39,-0.010,-0.010,-0.010,0.000,0.000,0.000
1644915580099857152,2022-02-15-08:59:40,10.1.1.9,28,-0.020,-0.020,-0.020,0.000,0.000,0.000
1644915580160285952,2022-02-15-08:59:40,10.1.1.9,38,-0.030,-0.030,-0.030,0.000,0.000,0.000
1644915580200346880,2022-02-15-08:59:40,10.1.1.9,27,-0.040,-0.040,-0.040,0.000,0.000,0.000
1644915580260220160,2022-02-15-08:59:40,10.1.1.9,37,-0.050,-0.050,-0.050,0.000,0.000,0.000
1644915580299886848,2022-02-15-08:59:40,10.1.1.9,26,-0.060,-0.060,-0.060,0.000,0.000,0.000
1644915580360044032,2022-02-15-08:59:40,10.1.1.9,34,-0.070,-0.070,-0.070,0.000,0.000,0.000
1644915580640250880,2022-02-15-08:59:40,10.1.1.9,8,-0.070,-0.070,-0.070,0.000,0.000,0.000
1644915580720150016,2022-02-15-08:59:40,10.1.1.9,37,-0.060,-0.060,-0.060,0.000,0.000,0.000
1644915580760312064,2022-02-15-08:59:40,10.1.1.9,27,-0.050,-0.050,-0.050,0.000,0.000,0.000
1644915580850380800,2022-02-15-08:59:40,10.1.1.9,35,-0.040,-0.040,-0.040,0.000,0.000,0.000
1644915581100192000,2022-02-15-08:59:41,10.1.1.9,34,0.010,0.010,0.010,0.000,0.000,0.000
1644915581299560192,2022-02-15-08:59:41,10.1.1.9,26,0.050,0.050,0.050,0.000,0.000,0.000
1644915581360833024,2022-02-15-08:59:41,10.1.1.9,35,0.060,0.060,0.060,0.000,0.000,0.000
1644915581403799040,2022-02-15-08:59:41,10.1.1.9,24,0.070,0.070,0.070,0.000,0.000,0.000
1644915581459752192,2022-02-15-08:59:41,10.1.1.9,33,0.080,0.080,0.080,0.000,0.000,0.000
1644915581559880960,2022-02-15-08:59:41,10.1.1.9,28,0.100,0.100,0.100,0.000,0.000,0.000
1644915581622832128,2022-02-15-08:59:41,10.1.1.9,36,0.090,0.090,0.090,0.000,0.000,0.000
1644915581659964160,2022-02-15-08:59:41,10.1.1.9,26,0.080,0.080,0.080,0.000,0.000,0.000
1644915581919825920,2022-02-15-08:59:41,10.1.1.9,27,0.030,0.030,0.030,0.000,0.000,0.000
1644915581980637184,2022-02-15-08:59:41,10.1.1.9,35,0.020,0.020,0.020,0.000,0.000,0.000
1644915582021069056,2022-02-15-08:59:42,10.1.1.9,24,0.010,0.010,0.010,0.000,0.000,0.000
1644915582182822912,2022-02-15-08:59:42,10.1.1.9,28,-0.020,-0.020,-0.020,0.000,0.000,0.000
1644915582243223808,2022-02-15-08:59:42,10.1.1.9,37,-0.030,-0.030,-0.030,0.000,0.000,0.000
1644915582280178176,2022-02-15-08:59:42,10.1.1.9,24,-0.040,-0.040,-0.040,0.000,0.000,0.000
1644915582340247040,2022-02-15-08:59:42,10.1.1.9,34,-0.050,-0.050,-0.050,0.000,0.000,0.000
1644915582383866112,2022-02-15-08:59:42,10.1.1.9,23,-0.060,-0.060,-0.060,0.000,0.000,0.000
1644915582640136960,2022-02-15-08:59:42,10.1.1.9,30,-0.100,-0.100,-0.100,0.000,0.000,0.000
1644915582701065984,2022-02-15-08:59:42,10.1.1.9,39,-0.090,-0.090,-0.090,0.000,0.000,0.000
1644915582740185856,2022-02-15-08:59:42,10.1.1.9,28,-0.080,-0.080,-0.080,0.000,0.000,0.000
1644915582800448768,2022-02-15-08:59:42,10.1.1.9,36,-0.070,-0.070,-0.070,0.000,0.000,0.000
1644915582840199936,2022-02-15-08:59:42,10.1.1.9,25,-0.060,-0.060,-0.060,0.000,0.000,0.000
1644915582903259904,2022-02-15-08:59:42,10.1.1.9,35,-0.050,-0.050,-0.050,0.000,0.000,0.000
1644915582940162048,2022-02-15-08:59:42,10.1.1.9,24,-0.040,-0.040,-0.040,0.000,0.000,0.000
1644915583000515072,2022-02-15-08:59:43,10.1.1.9,34,-0.030,-0.030,-0.030,0.000,0.000,0.000
1644915583200526848,2022-02-15-08:59:43,10.1.1.9,26,0.010,0.010,0.010,0.000,0.000,0.000
1644915583263355904,2022-02-15-08:59:43,10.1.1.9,34,0.020,0.020,0.020,0.000,0.000,0.000
1644915583459780864,2022-02-15-08:59:43,10.1.1.9,26,0.060,0.060,0.060,0.000,0.000,0.000
1644915583520174080,2022-02-15-08:59:43,10.1.1.9,35,0.070,0.070,0.070,0.000,0.000,0.000
1644915583559763968,2022-02-15-08:59:43,10.1.1.9,24,0.080,0.080,0.080,0.000,0.000,0.000
1644915583761473024,2022-02-15-08:59:43,10.1.1.9,15,0.080,0.080,0.080,0.000,0.000,0.000
1644915583821673984,2022-02-15-08:59:43,10.1.1.9,25,0.070,0.070,0.070,0.000,0.000,0.000
1644915583912320000,2022-02-15-08:59:43,10.1.1.9,34,0.060,0.060,0.060,0.000,0.000,0.000
1644915584239500032,2022-02-15-08:59:44,10.1.1.9,39,0.000,0.000,0.000,0.000,0.000,0.000
1644915584280111104,2022-02-15-08:59:44,10.1.1.9,28,-0.010,-0.010,-0.010,0.000,0.000,0.000
1644915584340302080,2022-02-15-08:59:44,10.1.1.9,38,-0.020,-0.020,-0.020,0.000,0.000,0.000
1644915584380232192,2022-02-15-08:59:44,10.1.1.9,27,-0.030,-0.030,-0.030,0.000,0.000,0.000
1644915584440235008,2022-02-15-08:59:44,10.1.1.9,37,-0.040,-0.040,-0.040,0.000,0.000,0.000
1644915584485889024,2022-02-15-08:59:44,10.1.1.9,26,-0.050,-0.050,-0.050,0.000,0.000,0.000
1644915584599816960,2022-02-15-08:59:44,10.1.1.9,36,-0.070,-0.070,-0.070,0.000,0.000,0.000
1644915584640142080,2022-02-15-08:59:44,10.1.1.9,25,-0.080,-0.080,-0.080,0.000,0.000,0.000
1644915584705260032,2022-02-15-08:59:44,10.1.1.9,34,-0.090,-0.090,-0.090,0.000,0.000,0.000
1644915584780220928,2022-02-15-08:59:44,10.1.1.9,11,-0.090,-0.090,-0.090,0.000,0.000,0.000
1644915585060153088,2022-02-15-08:59:45,10.1.1.9,39,-0.040,-0.040,-0.040,0.000,0.000,0.000
1644915585100132864,2022-02-15-08:59:45,10.1.1.9,28,-0.030,-0.030,-0.030,0.000,0.000,0.000
1644915585160303104,2022-02-15-08:59:45,10.1.1.9,38,-0.020,-0.020,-0.020,0.000,0.000,0.000
1644915585199764992,2022-02-15-08:59:45,10.1.1.9,28,-0.010,-0.010,-0.010,0.000,0.000,0.000
1644915585259805952,2022-02-15-08:59:45,10.1.1.9,37,0.000,0.000,0.000,0.000,0.000,0.000
1644915585300086016,2022-02-15-08:59:45,10.1.1.9,27,0.010,0.010,0.010,0.000,0.000,0.000
1644915585360097792,2022-02-15-08:59:45,10.1.1.9,36,0.020,0.020,0.020,0.000,0.000,0.000
1644915585399732224,2022-02-15-08:59:45,10.1.1.9,25,0.030,0.030,0.030,0.000,0.000,0.000
1644915585459905024,2022-02-15-08:59:45,10.1.1.9,34,0.040,0.040,0.040,0.000,0.000,0.000
1644915585500212992,2022-02-15-08:59:45,10.1.1.9,24,0.050,0.050,0.050,0.000,0.000,0.000
1644915585559507968,2022-02-15-08:59:45,10.1.1.9,34,0.060,0.060,0.060,0.000,0.000,0.000
1644915585739906048,2022-02-15-08:59:45,10.1.1.9,38,0.090,0.090,0.090,0.000,0.000,0.000
1644915585779975936,2022-02-15-08:59:45,10.1.1.9,28,0.100,0.100,0.100,0.000,0.000,0.000
1644915585840049920,2022-02-15-08:59:45,10.1.1.9,37,0.090,0.090,0.090,0.000,0.000,0.000
1644915585880121856,2022-02-15-08:59:45,10.1.1.9,27,0.080,0.080,0.080,0.000,0.000,0.000
1644915585939764992,2022-02-15-08:59:45,10.1.1.9,37,0.070,0.070,0.070,0.000,0.000,0.000
1644915585981174016,2022-02-15-08:59:45,10.1.1.9,26,0.060,0.060,0.060,0.000,0.000,0.000
1644915586040594176,2022-02-15-08:59:46,10.1.1.9,36,0.050,0.050,0.050,0.000,0.000,0.000
1644915586082222080,2022-02-15-08:59:46,10.1.1.9,26,0.040,0.040,0.040,0.000,0.000,0.000
1644915586140058880,2022-02-15-08:59:46,10.1.1.9,35,0.030,0.030,0.030,0.000,0.000,0.000
1644915586183901184,2022-02-15-08:59:46,10.1.1.9,25,0.020,0.020,0.020,0.000,0.000,0.000
1644915586240315904,2022-02-15-08:59:46,10.1.1.9,34,0.010,0.010,0.010,0.000,0.000,0.000
1644915586400491008,2022-02-15-08:59:46,10.1.1.9,34,-0.020,-0.020,-0.020,0.000,0.000,0.000
1644915586660285952,2022-02-15-08:59:46,10.1.1.9,38,-0.070,-0.070,-0.070,0.000,0.000,0.000
1644915586700016128,2022-02-15-08:59:46,10.1.1.9,25,-0.080,-0.080,-0.080,0.000,0.000,0.000
1644915586900026112,2022-02-15-08:59:46,10.1.1.9,19,-0.080,-0.080,-0.080,0.000,0.000,0.000
1644915586960300032,2022-02-15-08:59:46,10.1.1.9,25,-0.070,-0.070,-0.070,0.000,0.000,0.000
1644915587124200960,2022-02-15-08:59:47,10.1.1.9,28,-0.040,-0.040,-0.040,0.000,0.000,0.000
1644915587184008960,2022-02-15-08:59:47,10.1.1.9,37,-0.030,-0.030,-0.030,0.000,0.000,0.000
1644915587400046080,2022-02-15-08:59:47,10.1.1.9,37,0.010,0.010,0.010,0.000,0.000,0.000
1644915587441033984,2022-02-15-08:59:47,10.1.1.9,26,0.020,0.020,0.020,0.000,0.000,0.000
1644915587503806976,2022-02-15-08:59:47,10.1.1.9,27,0.030,0.030,0.030,0.000,0.000,0.000
1644915587560516096,2022-02-15-08:59:47,10.1.1.9,36,0.040,0.040,0.040,0.000,0.000,0.000
1644915587600038912,2022-02-15-08:59:47,10.1.1.9,25,0.050,0.050,0.050,0.000,0.000,0.000
1644915587822948096,2022-02-15-08:59:47,10.1.1.9,36,0.090,0.090,0.090,0.000,0.000,0.000
1644915587862631936,2022-02-15-08:59:47,10.1.1.9,26,0.100,0.100,0.100,0.000,0.000,0.000
1644915587984464896,2022-02-15-08:59:47,10.1.1.9,39,0.080,0.080,0.080,0.000,0.000,0.000
1644915588027916032,2022-02-15-08:59:48,10.1.1.9,26,0.070,0.070,0.070,0.000,0.000,0.000
1644915588080174080,2022-02-15-08:59:48,10.1.1.9,36,0.060,0.060,0.060,0.000,0.000,0.000
1644915588125758976,2022-02-15-08:59:48,10.1.1.9,25,0.050,0.050,0.050,0.000,0.000,0.000
1644915588180830976,2022-02-15-08:59:48,10.1.1.9,34,0.040,0.040,0.040,0.000,0.000,0.000
1644915588294120960,2022-02-15-08:59:48,10.1.1.9,24,0.020,0.020,0.020,0.000,0.000,0.000
1644915588443279104,2022-02-15-08:59:48,10.1.1.9,26,-0.010,-0.010,-0.010,0.000,0.000,0.000
1644915588499955968,2022-02-15-08:59:48,10.1.1.9,26,-0.020,-0.020,-0.020,0.000,0.000,0.000
1644915588565542912,2022-02-15-08:59:48,10.1.1.9,35,-0.030,-0.030,-0.030,0.000,0.000,0.000
1644915588605660928,2022-02-15-08:59:48,10.1.1.9,24,-0.040,-0.040,-0.040,0.000,0.000,0.000
1644915588664840960,2022-02-15-08:59:48,10.1.1.9,34,-0.050,-0.050,-0.050,0.000,0.000,0.000
1644915588862688000,2022-02-15-08:59:48,10.1.1.9,25,-0.090,-0.090,-0.090,0.000,0.000,0.000
1644915588920514048,2022-02-15-08:59:48,10.1.1.9,34,-0.100,-0.100,-0.100,0.000,0.000,0.000
1644915589083867904,2022-02-15-08:59:49,10.1.1.9,37,-0.070,-0.070,-0.070,0.000,0.000,0.000
1644915589124175104,2022-02-15-08:59:49,10.1.1.9,25,-0.060,-0.060,-0.060,0.000,0.000,0.000
1644915589180297984,2022-02-15-08:59:49,10.1.1.9,33,-0.050,-0.050,-0.050,0.000,0.000,0.000
1644915589280060160,2022-02-15-08:59:49,10.1.1.9,25,-0.030,-0.030,-0.030,0.000,0.000,0.000
1644915589582066944,2022-02-15-08:59:49,10.1.1.9,34,0.020,0.020,0.020,0.000,0.000,0.000
1644915589622927872,2022-02-15-08:59:49,10.1.1.9,23,0.030,0.030,0.030,0.000,0.000,0.000
1644915589682018048,2022-02-15-08:59:49,10.1.1.9,33,0.040,0.040,0.040,0.000,0.000,0.000
1644915589934860032,2022-02-15-08:59:49,10.1.1.9,20,0.090,0.090,0.090,0.000,0.000,0.000
1644915590019485952,2022-02-15-08:59:50,10.1.1.9,19,0.090,0.090,0.090,0.000,0.000,0.000
1644915590081856000,2022-02-15-08:59:50,10.1.1.9,27,0.080,0.080,0.080,0.000,0.000,0.000
1644915590140187136,2022-02-15-08:59:50,10.1.1.9,36,0.070,0.070,0.070,0.000,0.000,0.000
1644915590196312064,2022-02-15-08:59:50,10.1.1.9,25,0.060,0.060,0.060,0.000,0.000,0.000
1644915590499986944,2022-02-15-08:59:50,10.1.1.9,38,0.000,0.000,0.000,0.000,0.000,0.000
1644915590541011200,2022-02-15-08:59:50,10.1.1.9,28,-0.010,-0.010,-0.010,0.000,0.000,0.000
1644915590600570880,2022-02-15-08:59:50,10.1.1.9,36,-0.020,-0.020,-0.020,0.000,0.000,0.000
1644915590640114944,2022-02-15-08:59:50,10.1.1.9,25,-0.030,-0.030,-0.030,0.000,0.000,0.000
1644915590700412928,2022-02-15-08:59:50,10.1.1.9,35,-0.040,-0.040,-0.040,0.000,0.000,0.000
1644915590745531136,2022-02-15-08:59:50,10.1.1.9,25,-0.050,-0.050,-0.050,0.000,0.000,0.000
1644915590799792896,2022-02-15-08:59:50,10.1.1.9,34,-0.060,-0.060,-0.060,0.000,0.000,0.000
1644915590842938880,2022-02-15-08:59:50,10.1.1.9,23,-0.070,-0.070,-0.070,0.000,0.000,0.000
1644915591123720960,2022-02-15-08:59:51,10.1.1.9,-1,-0.070,-0.070,-0.070,0.000,0.000,0.000
1644915591200093952,2022-02-15-08:59:51,10.1.1.9,28,-0.060,-0.060,-0.060,0.000,0.000,0.000
1644915591260552960,2022-02-15-08:59:51,10.1.1.9,38,-0.050,-0.050,-0.050,0.000,0.000,0.000
1644915591300160000,2022-02-15-08:59:51,10.1.1.9,27,-0.040,-0.040,-0.040,0.000,0.000,0.000
1644915591363310080,2022-02-15-08:59:51,10.1.1.9,36,-0.030,-0.030,-0.030,0.000,0.000,0.000
1644915591400203008,2022-02-15-08:59:51,10.1.1.9,26,-0.020,-0.020,-0.020,0.000,0.000,0.000
1644915591460068864,2022-02-15-08:59:51,10.1.1.9,35,-0.010,-0.010,-0.010,0.000,0.000,0.000
1644915591500459008,2022-02-15-08:59:51,10.1.1.9,24,0.000,0.000,0.000,0.000,0.000,0.000
1644915591760616192,2022-02-15-08:59:51,10.1.1.9,28,0.050,0.050,0.050,0.000,0.000,0.000
1644915591823435008,2022-02-15-08:59:51,10.1.1.9,38,0.060,0.060,0.060,0.000,0.000,0.000
1644915591862048000,2022-02-15-08:59:51,10.1.1.9,27,0.070,0.070,0.070,0.000,0.000,0.000
1644915591920088064,2022-02-15-08:59:51,10.1.1.9,37,0.080,0.080,0.080,0.000,0.000,0.000
1644915591963779072,2022-02-15-08:59:51,10.1.1.9,26,0.090,0.090,0.090,0.000,0.000,0.000
1644915592022598144,2022-02-15-08:59:52,10.1.1.9,35,0.100,0.100,0.100,0.000,0.000,0.000
1644915592220397056,2022-02-15-08:59:52,10.1.1.9,29,0.060,0.060,0.060,0.000,0.000,0.000
1644915592284118016,2022-02-15-08:59:52,10.1.1.9,39,0.050,0.050,0.050,0.000,0.000,0.000
1644915592320111104,2022-02-15-08:59:52,10.1.1.9,29,0.040,0.040,0.040,0.000,0.000,0.000
1644915592386113024,2022-02-15-08:59:52,10.1.1.9,38,0.030,0.030,0.030,0.000,0.000,0.000
1644915592420218112,2022-02-15-08:59:52,10.1.1.9,28,0.020,0.020,0.020,0.000,0.000,0.000
1644915592480091136,2022-02-15-08:59:52,10.1.1.9,37,0.010,0.010,0.010,0.000,0.000,0.000
1644915592520495872,2022-02-15-08:59:52,10.1.1.9,27,0.000,0.000,0.000,0.000,0.000,0.000
1644915592582878208,2022-02-15-08:59:52,10.1.1.9,36,-0.010,-0.010,-0.010,0.000,0.000,0.000
1644915592622683136,2022-02-15-08:59:52,10.1.1.9,25,-0.020,-0.020,-0.020,0.000,0.000,0.000
1644915592683693056,2022-02-15-08:59:52,10.1.1.9,34,-0.030,-0.030,-0.030,0.000,0.000,0.000
1644915592720025088,2022-02-15-08:59:52,10.1.1.9,23,-0.040,-0.040,-0.040,0.000,0.000,0.000
1644915592879909120,2022-02-15-08:59:52,10.1.1.9,30,-0.070,-0.070,-0.070,0.000,0.000,0.000
1644915592941411072,2022-02-15-08:59:52,10.1.1.9,38,-0.080,-0.080,-0.080,0.000,0.000,0.000
1644915592980369920,2022-02-15-08:59:52,10.1.1.9,27,-0.090,-0.090,-0.090,0.000,0.000,0.000
1644915593040355072,2022-02-15-08:59:53,10.1.1.9,36,-0.100,-0.100,-0.100,0.000,0.000,0.000
1644915593080560896,2022-02-15-08:59:53,10.1.1.9,25,-0.090,-0.090,-0.090,0.000,0.000,0.000
1644915593140326144,2022-02-15-08:59:53,10.1.1.9,34,-0.080,-0.080,-0.080,0.000,0.000,0.000
1644915593180530176,2022-02-15-08:59:53,10.1.1.9,24,-0.070,-0.070,-0.070,0.000,0.000,0.000
1644915593340080128,2022-02-15-08:59:53,10.1.1.9,30,-0.040,-0.040,-0.040,0.000,0.000,0.000
1644915593400311040,2022-02-15-08:59:53,10.1.1.9,39,-0.030,-0.030,-0.030,0.000,0.000,0.000
1644915593444370944,2022-02-15-08:59:53,10.1.1.9,29,-0.020,-0.020,-0.020,0.000,0.000,0.000
1644915593499846912,2022-02-15-08:59:53,10.1.1.9,38,-0.010,-0.010,-0.010,0.000,0.000,0.000
1644915593540934912,2022-02-15-08:59:53,10.1.1.9,27,0.000,0.000,0.000,0.000,0.000,0.000
1644915593602668032,2022-02-15-08:59:53,10.1.1.9,37,0.010,0.010,0.010,0.000,0.000,0.000
1644915593643953920,2022-02-15-08:59:53,10.1.1.9,26,0.020,0.020,0.020,0.000,0.000,0.000
1644915593703474944,2022-02-15-08:59:53,10.1.1.9,36,0.030,0.030,0.030,0.000,0.000,0.000
1644915594000153088,2022-02-15-08:59:54,10.1.1.9,26,0.090,0.090,0.090,0.000,0.000,0.000
1644915594060157184,2022-02-15-08:59:54,10.1.1.9,35,0.100,0.100,0.100,0.000,0.000,0.000
1644915594319822080,2022-02-15-08:59:54,10.1.1.9,25,0.060,0.060,0.060,0.000,0.000,0.000
1644915594380346112,2022-02-15-08:59:54,10.1.1.9,34,0.050,0.050,0.050,0.000,0.000,0.000
1644915594419843840,2022-02-15-08:59:54,10.1.1.9,24,0.040,0.040,0.040,0.000,0.000,0.000
1644915594480079872,2022-02-15-08:59:54,10.1.1.9,33,0.030,0.030,0.030,0.000,0.000,0.000
1644915594739788032,2022-02-15-08:59:54,10.1.1.9,37,-0.020,-0.020,-0.020,0.000,0.000,0.000
1644915594812333056,2022-02-15-08:59:54,10.1.1.9,26,-0.030,-0.030,-0.030,0.000,0.000,0.000
1644915594919985920,2022-02-15-08:59:54,10.1.1.9,28,-0.050,-0.050,-0.050,0.000,0.000,0.000
1644915594980007936,2022-02-15-08:59:54,10.1.1.9,37,-0.060,-0.060,-0.060,0.000,0.000,0.000
1644915595019838976,2022-02-15-08:59:55,10.1.1.9,27,-0.070,-0.070,-0.070,0.000,0.000,0.000
1644915595080459008,2022-02-15-08:59:55,10.1.1.9,36,-0.080,-0.080,-0.080,0.000,0.000,0.000
1644915595120119040,2022-02-15-08:59:55,10.1.1.9,26,-0.090,-0.090,-0.090,0.000,0.000,0.000
1644915595180737024,2022-02-15-08:59:55,10.1.1.9,34,-0.100,-0.100,-0.100,0.000,0.000,0.000
1644915595220524032,2022-02-15-08:59:55,10.1.1.9,24,-0.090,-0.090,-0.090,0.000,0.000,0.000
1644915595280092928,2022-02-15-08:59:55,10.1.1.9,33,-0.080,-0.080,-0.080,0.000,0.000,0.000
1644915595559478016,2022-02-15-08:59:55,10.1.1.9,39,-0.030,-0.030,-0.030,0.000,0.000,0.000
1644915595659835136,2022-02-15-08:59:55,10.1.1.9,29,-0.010,-0.010,-0.010,0.000,0.000,0.000
1644915595723165952,2022-02-15-08:59:55,10.1.1.9,37,0.000,0.000,0.000,0.000,0.000,0.000
1644915595761032960,2022-02-15-08:59:55,10.1.1.9,25,0.010,0.010,0.010,0.000,0.000,0.000
1644915595819542784,2022-02-15-08:59:55,10.1.1.9,34,0.020,0.020,0.020,0.000,0.000,0.000
1644915596019921920,2022-02-15-08:59:56,10.1.1.9,29,0.060,0.060,0.060,0.000,0.000,0.000
1644915596079878144,2022-02-15-08:59:56,10.1.1.9,38,0.070,0.070,0.070,0.000,0.000,0.000
1644915596121097984,2022-02-15-08:59:56,10.1.1.9,28,0.080,0.080,0.080,0.000,0.000,0.000
1644915596179760896,2022-02-15-08:59:56,10.1.1.9,37,0.090,0.090,0.090,0.000,0.000,0.000
1644915596219577088,2022-02-15-08:59:56,10.1.1.9,26,0.100,0.100,0.100,0.000,0.000,0.000
1644915596279747072,2022-02-15-08:59:56,10.1.1.9,36,0.090,0.090,0.090,0.000,0.000,0.000
1644915596320317952,2022-02-15-08:59:56,10.1.1.9,25,0.080,0.080,0.080,0.000,0.000,0.000
1644915596379920128,2022-02-15-08:59:56,10.1.1.9,35,0.070,0.070,0.070,0.000,0.000,0.000
1644915596421582848,2022-02-15-08:59:56,10.1.1.9,23,0.060,0.060,0.060,0.000,0.000,0.000
1644915596620461824,2022-02-15-08:59:56,10.1.1.9,28,0.030,0.030,0.030,0.000,0.000,0.000
1644915596679956992,2022-02-15-08:59:56,10.1.1.9,37,0.020,0.020,0.020,0.000,0.000,0.000
1644915596719785984,2022-02-15-08:59:56,10.1.1.9,26,0.010,0.010,0.010,0.000,0.000,0.000
1644915596779709952,2022-02-15-08:59:56,10.1.1.9,36,0.000,0.000,0.000,0.000,0.000,0.000
1644915596820020992,2022-02-15-08:59:56,10.1.1.9,24,-0.010,-0.010,-0.010,0.000,0.000,0.000
1644915596880018944,2022-02-15-08:59:56,10.1.1.9,34,-0.020,-0.020,-0.020,0.000,0.000,0.000
1644915596919536128,2022-02-15-08:59:56,10.1.1.9,23,-0.030,-0.030,-0.030,0.000,0.000,0.000
1644915597180242176,2022-02-15-08:59:57,10.1.1.9,28,-0.080,-0.080,-0.080,0.000,0.000,0.000
1644915597300334080,2022-02-15-08:59:57,10.1.1.9,35,-0.090,-0.090,-0.090,0.000,0.000,0.000
1644915597341839104,2022-02-15-08:59:57,10.1.1.9,24,-0.100,-0.100,-0.100,0.000,0.000,0.000
1644915597400755968,2022-02-15-08:59:57,10.1.1.9,33,-0.090,-0.090,-0.090,0.000,0.000,0.000
1644915598020423936,2022-02-15-08:59:58,10.1.1.9,39,0.030,0.030,0.030,0.000,0.000,0.000
1644915598059761152,2022-02-15-08:59:58,10.1.1.9,29,0.040,0.040,0.040,0.000,0.000,0.000
1644915598121531136,2022-02-15-08:59:58,10.1.1.9,38,0.050,0.050,0.050,0.000,0.000,0.000
1644915598161199104,2022-02-15-08:59:58,10.1.1.9,28,0.060,0.060,0.060,0.000,0.000,0.000
1644915598222448128,2022-02-15-08:59:58,10.1.1.9,37,0.070,0.070,0.070,0.000,0.000,0.000
1644915598262924800,2022-02-15-08:59:58,10.1.1.9,26,0.080,0.080,0.080,0.000,0.000,0.000
1644915598319657984,2022-02-15-08:59:58,10.1.1.9,36,0.090,0.090,0.090,0.000,0.000,0.000
1644915598400423168,2022-02-15-08:59:58,10.1.1.9,14,0.090,0.090,0.090,0.000,0.000,0.000
1644915598819698944,2022-02-15-08:59:58,10.1.1.9,29,0.010,0.010,0.010,0.000,0.000,0.000
1644915598879687168,2022-02-15-08:59:58,10.1.1.9,38,0.000,0.000,0.000,0.000,0.000,0.000
1644915598919897088,2022-02-15-08:59:58,10.1.1.9,28,-0.010,-0.010,-0.010,0.000,0.000,0.000
1644915598980179968,2022-02-15-08:59:58,10.1.1.9,37,-0.020,-0.020,-0.020,0.000,0.000,0.000
1644915599019702784,2022-02-15-08:59:59,10.1.1.9,26,-0.030,-0.030,-0.030,0.000,0.000,0.000
1644915599080247040,2022-02-15-08:59:59,10.1.1.9,36,-0.040,-0.040,-0.040,0.000,0.000,0.000
1644915599123105024,2022-02-15-08:59:59,10.1.1.9,25,-0.050,-0.050,-0.050,0.000,0.000,0.000
1644915599224209920,2022-02-15-08:59:59,10.1.1.9,24,-0.070,-0.070,-0.070,0.000,0.000,0.000
1644915599519866112,2022-02-15-08:59:59,10.1.1.9,20,-0.070,-0.070,-0.070,0.000,0.000,0.000
1644915599579832064,2022-02-15-08:59:59,10.1.1.9,28,-0.060,-0.060,-0.060,0.000,0.000,0.000
1644915599640355072,2022-02-15-08:59:59,10.1.1.9,38,-0.050,-0.050,-0.050,0.000,0.000,0.000
1644915599680200192,2022-02-15-08:59:59,10.1.1.9,27,-0.040,-0.040,-0.040,0.000,0.000,0.000
1644915599740178176,2022-02-15-08:59:59,10.1.1.9,36,-0.030,-0.030,-0.030,0.000,0.000,0.000
1644915599780039168,2022-02-15-08:59:59,10.1.1.9,26,-0.020,-0.020,-0.020,0.000,0.000,0.000
1644915599839735040,2022-02-15-08:59:59,10.1.1.9,34,-0.010,-0.010,-0.010,0.000,0.000,0.000
1644915600099875840,2022-02-15-09:00:00,10.1.1.9,39,0.040,0.040,0.040,0.000,0.000,0.000
1644915600139956992,2022-02-15-09:00:00,10.1.1.9,27,0.050,0.050,0.050,0.000,0.000,0.000
1644915600199537920,2022-02-15-09:00:00,10.1.1.9,36,0.060,0.060,0.060,0.000,0.000,0.000
1644915600240022016,2022-02-15-09:00:00,10.1.1.9,25,0.070,0.070,0.070,0.000,0.000,0.000
1644915600299523072,2022-02-15-09:00:00,10.1.1.9,35,0.080,0.080,0.080,0.000,0.000,0.000
1644915600340023040,2022-02-15-09:00:00,10.1.1.9,24,0.090,0.090,0.090,0.000,0.000,0.000
1644915600399880960,2022-02-15-09:00:00,10.1.1.9,33,0.100,0.100,0.100,0.000,0.000,0.000
1644915600559954944,2022-02-15-09:00:00,10.1.1.9,37,0.070,0.070,0.070,0.000,0.000,0.000
1644915600599621888,2022-02-15-09:00:00,10.1.1.9,26,0.060,0.060,0.060,0.000,0.000,0.000
1644915600659837952,2022-02-15-09:00:00,10.1.1.9,35,0.050,0.050,0.050,0.000,0.000,0.000
1644915600699380992,2022-02-15-09:00:00,10.1.1.9,24,0.040,0.040,0.040,0.000,0.000,0.000
1644915600759694080,2022-02-15-09:00:00,10.1.1.9,34,0.030,0.030,0.030,0.000,0.000,0.000
1644915600859303936,2022-02-15-09:00:00,10.1.1.9,29,0.010,0.010,0.010,0.000,0.000,0.000
1644915600919878912,2022-02-15-09:00:00,10.1.1.9,38,0.000,0.000,0.000,0.000,0.000,0.000
1644915600960359168,2022-02-15-09:00:00,10.1.1.9,28,-0.010,-0.010,-0.010,0.000,0.000,0.000
1644915601019675136,2022-02-15-09:00:01,10.1.1.9,37,-0.020,-0.020,-0.020,0.000,0.000,0.000
1644915601059683072,2022-02-15-09:00:01,10.1.1.9,26,-0.030,-0.030,-0.030,0.000,0.000,0.000
1644915601120926976,2022-02-15-09:00:01,10.1.1.9,34,-0.040,-0.040,-0.040,0.000,0.000,0.000
1644915601339653888,2022-02-15-09:00:01,10.1.1.9,37,-0.080,-0.080,-0.080,0.000,0.000,0.000
1644915601380950016,2022-02-15-09:00:01,10.1.1.9,26,-0.090,-0.090,-0.090,0.000,0.000,0.000
1644915601919785984,2022-02-15-09:00:01,10.1.1.9,19,-0.010,-0.010,-0.010,0.000,0.000,0.000
1644915601979310080,2022-02-15-09:00:01,10.1.1.9,28,0.000,0.000,0.000,0.000,0.000,0.000
1644915602039894016,2022-02-15-09:00:02,10.1.1.9,36,0.010,0.010,0.010,0.000,0.000,0.000
1644915602079763968,2022-02-15-09:00:02,10.1.1.9,25,0.020,0.020,0.020,0.000,0.000,0.000
1644915602279835904,2022-02-15-09:00:02,10.1.1.9,20,0.060,0.060,0.060,0.000,0.000,0.000
1644915602339909120,2022-02-15-09:00:02,10.1.1.9,28,0.070,0.070,0.070,0.000,0.000,0.000
1644915602400428032,2022-02-15-09:00:02,10.1.1.9,37,0.080,0.080,0.080,0.000,0.000,0.000
1644915602440151040,2022-02-15-09:00:02,10.1.1.9,27,0.090,0.090,0.090,0.000,0.000,0.000
1644915602500361984,2022-02-15-09:00:02,10.1.1.9,36,0.100,0.100,0.100,0.000,0.000,0.000
1644915602540393984,2022-02-15-09:00:02,10.1.1.9,25,0.090,0.090,0.090,0.000,0.000,0.000
1644915602599736832,2022-02-15-09:00:02,10.1.1.9,33,0.080,0.080,0.080,0.000,0.000,0.000
1644915602764144896,2022-02-15-09:00:02,10.1.1.9,38,0.050,0.050,0.050,0.000,0.000,0.000
1644915602799837952,2022-02-15-09:00:02,10.1.1.9,27,0.040,0.040,0.040,0.000,0.000,0.000
1644915602868130816,2022-02-15-09:00:02,10.1.1.9,35,0.030,0.030,0.030,0.000,0.000,0.000
1644915602903384064,2022-02-15-09:00:02,10.1.1.9,23,0.020,0.020,0.020,0.000,0.000,0.000
1644915602960001024,2022-02-15-09:00:02,10.1.1.9,33,0.010,0.010,0.010,0.000,0.000,0.000
1644915603125236992,2022-02-15-09:00:03,10.1.1.9,38,-0.020,-0.020,-0.020,0.000,0.000,0.000
1644915603165687040,2022-02-15-09:00:03,10.1.1.9,26,-0.030,-0.030,-0.030,0.000,0.000,0.000
1644915603320555008,2022-02-15-09:00:03,10.1.1.9,27,-0.060,-0.060,-0.060,0.000,0.000,0.000
1644915603379697920,2022-02-15-09:00:03,10.1.1.9,36,-0.070,-0.070,-0.070,0.000,0.000,0.000
1644915603424617984,2022-02-15-09:00:03,10.1.1.9,24,-0.080,-0.080,-0.080,0.000,0.000,0.000
1644915603637588992,2022-02-15-09:00:03,10.1.1.9,8,-0.080,-0.080,-0.080,0.000,0.000,0.000
1644915604019872000,2022-02-15-09:00:04,10.1.1.9,29,-0.010,-0.010,-0.010,0.000,0.000,0.000
1644915604079755008,2022-02-15-09:00:04,10.1.1.9,38,0.000,0.000,0.000,0.000,0.000,0.000
1644915604119930112,2022-02-15-09:00:04,10.1.1.9,28,0.010,0.010,0.010,0.000,0.000,0.000
1644915604179462912,2022-02-15-09:00:04,10.1.1.9,38,0.020,0.020,0.020,0.000,0.000,0.000
1644915604219640064,2022-02-15-09:00:04,10.1.1.9,27,0.030,0.030,0.030,0.000,0.000,0.000
1644915604279141888,2022-02-15-09:00:04,10.1.1.9,37,0.040,0.040,0.040,0.000,0.000,0.000
1644915604319545088,2022-02-15-09:00:04,10.1.1.9,27,0.050,0.050,0.050,0.000,0.000,0.000
1644915604379940096,2022-02-15-09:00:04,10.1.1.9,36,0.060,0.060,0.060,0.000,0.000,0.000
1644915604420233984,2022-02-15-09:00:04,10.1.1.9,26,0.070,0.070,0.070,0.000,0.000,0.000
1644915604479496960,2022-02-15-09:00:04,10.1.1.9,35,0.080,0.080,0.080,0.000,0.000,0.000
1644915604659934976,2022-02-15-09:00:04,10.1.1.9,9,0.080,0.080,0.080,0.000,0.000,0.000
1644915604740012800,2022-02-15-09:00:04,10.1.1.9,39,0.070,0.070,0.070,0.000,0.000,0.000
1644915604779445760,2022-02-15-09:00:04,10.1.1.9,29,0.060,0.060,0.060,0.000,0.000,0.000
1644915604840086016,2022-02-15-09:00:04,10.1.1.9,38,0.050,0.050,0.050,0.000,0.000,0.000
1644915604879987968,2022-02-15-09:00:04,10.1.1.9,28,0.040,0.040,0.040,0.000,0.000,0.000
1644915604939680000,2022-02-15-09:00:04,10.1.1.9,37,0.030,0.030,0.030,0.000,0.000,0.000
1644915604979623168,2022-02-15-09:00:04,10.1.1.9,26,0.020,0.020,0.020,0.000,0.000,0.000
1644915605039704064,2022-02-15-09:00:05,10.1.1.9,36,0.010,0.010,0.010,0.000,0.000,0.000
1644915605079761152,2022-02-15-09:00:05,10.1.1.9,25,0.000,0.000,0.000,0.000,0.000,0.000
1644915605139767040,2022-02-15-09:00:05,10.1.1.9,35,-0.010,-0.010,-0.010,0.000,0.000,0.000
1644915605179950080,2022-02-15-09:00:05,10.1.1.9,23,-0.020,-0.020,-0.020,0.000,0.000,0.000
1644915605639585024,2022-02-15-09:00:05,10.1.1.9,19,-0.089,-0.089,-0.089,0.000,0.000,0.000
1644915605701767936,2022-02-15-09:00:05,10.1.1.9,29,-0.080,-0.080,-0.080,0.000,0.000,0.000
1644915605761593088,2022-02-15-09:00:05,10.1.1.9,35,-0.070,-0.070,-0.070,0.000,0.000,0.000
1644915605800029952,2022-02-15-09:00:05,10.1.1.9,24,-0.060,-0.060,-0.060,0.000,0.000,0.000
1644915605859628800,2022-02-15-09:00:05,10.1.1.9,33,-0.050,-0.050,-0.050,0.000,0.000,0.000
1644915605899627008,2022-02-15-09:00:05,10.1.1.9,23,-0.040,-0.040,-0.040,0.000,0.000,0.000
1644915605959318016,2022-02-15-09:00:05,10.1.1.9,33,-0.030,-0.030,-0.030,0.000,0.000,0.000
1644915606319698944,2022-02-15-09:00:06,10.1.1.9,38,0.040,0.040,0.040,0.000,0.000,0.000
1644915606359572992,2022-02-15-09:00:06,10.1.1.9,27,0.050,0.050,0.050,0.000,0.000,0.000
1644915606545558016,2022-02-15-09:00:06,10.1.1.9,27,0.070,0.070,0.070,0.000,0.000,0.000
1644915606779956224,2022-02-15-09:00:06,10.1.1.9,10,0.080,0.080,0.080,0.000,0.000,0.000
1644915606859354880,2022-02-15-09:00:06,10.1.1.9,39,0.070,0.070,0.070,0.000,0.000,0.000
1644915606899728128,2022-02-15-09:00:06,10.1.1.9,28,0.060,0.060,0.060,0.000,0.000,0.000
1644915606959508992,2022-02-15-09:00:06,10.1.1.9,38,0.050,0.050,0.050,0.000,0.000,0.000
1644915606999700992,2022-02-15-09:00:06,10.1.1.9,27,0.040,0.040,0.040,0.000,0.000,0.000
1644915607059362048,2022-02-15-09:00:07,10.1.1.9,37,0.030,0.030,0.030,0.000,0.000,0.000
1644915607099854080,2022-02-15-09:00:07,10.1.1.9,26,0.020,0.020,0.020,0.000,0.000,0.000
1644915607159586816,2022-02-15-09:00:07,10.1.1.9,36,0.010,0.010,0.010,0.000,0.000,0.000
1644915607199478016,2022-02-15-09:00:07,10.1.1.9,25,0.000,0.000,0.000,0.000,0.000,0.000
1644915607259730944,2022-02-15-09:00:07,10.1.1.9,34,-0.010,-0.010,-0.010,0.000,0.000,0.000
1644915607299331840,2022-02-15-09:00:07,10.1.1.9,24,-0.020,-0.020,-0.020,0.000,0.000,0.000
1644915607361662976,2022-02-15-09:00:07,10.1.1.9,34,-0.030,-0.030,-0.030,0.000,0.000,0.000
1644915607620506112,2022-02-15-09:00:07,10.1.1.9,39,-0.080,-0.080,-0.080,0.000,0.000,0.000
1644915607659759104,2022-02-15-09:00:07,10.1.1.9,26,-0.090,-0.090,-0.090,0.000,0.000,0.000
1644915607759692032,2022-02-15-09:00:07,10.1.1.9,17,-0.090,-0.090,-0.090,0.000,0.000,0.000
1644915607939369984,2022-02-15-09:00:07,10.1.1.9,38,-0.060,-0.060,-0.060,0.000,0.000,0.000
1644915607979636992,2022-02-15-09:00:07,10.1.1.9,27,-0.050,-0.050,-0.050,0.000,0.000,0.000
1644915608039416064,2022-02-15-09:00:08,10.1.1.9,36,-0.040,-0.040,-0.040,0.000,0.000,0.000
1644915608080081920,2022-02-15-09:00:08,10.1.1.9,24,-0.030,-0.030,-0.030,0.000,0.000,0.000
1644915608139857152,2022-02-15-09:00:08,10.1.1.9,34,-0.020,-0.020,-0.020,0.000,0.000,0.000
1644915608305989120,2022-02-15-09:00:08,10.1.1.9,37,0.010,0.010,0.010,0.000,0.000,0.000
1644915608339613952,2022-02-15-09:00:08,10.1.1.9,26,0.020,0.020,0.020,0.000,0.000,0.000
1644915608399945984,2022-02-15-09:00:08,10.1.1.9,36,0.030,0.030,0.030,0.000,0.000,0.000
1644915608440665856,2022-02-15-09:00:08,10.1.1.9,25,0.040,0.040,0.040,0.000,0.000,0.000
1644915608624006144,2022-02-15-09:00:08,10.1.1.9,37,0.070,0.070,0.070,0.000,0.000,0.000
1644915608664187904,2022-02-15-09:00:08,10.1.1.9,26,0.080,0.080,0.080,0.000,0.000,0.000
1644915608780355072,2022-02-15-09:00:08,10.1.1.9,20,0.100,0.100,0.100,0.000,0.000,0.000
1644915609039355904,2022-02-15-09:00:09,10.1.1.9,20,0.050,0.050,0.050,0.000,0.000,0.000
1644915609100045824,2022-02-15-09:00:09,10.1.1.9,28,0.040,0.040,0.040,0.000,0.000,0.000
1644915609159652096,2022-02-15-09:00:09,10.1.1.9,38,0.030,0.030,0.030,0.000,0.000,0.000
1644915609200472064,2022-02-15-09:00:09,10.1.1.9,27,0.020,0.020,0.020,0.000,0.000,0.000
1644915609260288000,2022-02-15-09:00:09,10.1.1.9,36,0.010,0.010,0.010,0.000,0.000,0.000
1644915609300175872,2022-02-15-09:00:09,10.1.1.9,25,0.000,0.000,0.000,0.000,0.000,0.000
1644915609360946944,2022-02-15-09:00:09,10.1.1.9,33,-0.010,-0.010,-0.010,0.000,0.000,0.000
1644915609959714048,2022-02-15-09:00:09,10.1.1.9,20,-0.070,-0.070,-0.070,0.000,0.000,0.000
1644915610019557120,2022-02-15-09:00:10,10.1.1.9,29,-0.060,-0.060,-0.060,0.000,0.000,0.000
1644915610079597824,2022-02-15-09:00:10,10.1.1.9,39,-0.050,-0.050,-0.050,0.000,0.000,0.000
1644915610119674880,2022-02-15-09:00:10,10.1.1.9,28,-0.040,-0.040,-0.040,0.000,0.000,0.000
1644915610179527168,2022-02-15-09:00:10,10.1.1.9,38,-0.030,-0.030,-0.030,0.000,0.000,0.000
1644915610219430912,2022-02-15-09:00:10,10.1.1.9,27,-0.020,-0.020,-0.020,0.000,0.000,0.000
1644915610279891968,2022-02-15-09:00:10,10.1.1.9,37,-0.010,-0.010,-0.010,0.000,0.000,0.000
1644915610319953920,2022-02-15-09:00:10,10.1.1.9,27,0.000,0.000,0.000,0.000,0.000,0.000
1644915610379589120,2022-02-15-09:00:10,10.1.1.9,36,0.010,0.010,0.010,0.000,0.000,0.000
1644915610419513856,2022-02-15-09:00:10,10.1.1.9,26,0.020,0.020,0.020,0.000,0.000,0.000
1644915610479724032,2022-02-15-09:00:10,10.1.1.9,35,0.030,0.030,0.030,0.000,0.000,0.000
1644915610519751168,2022-02-15-09:00:10,10.1.1.9,25,0.040,0.040,0.040,0.000,0.000,0.000
1644915610580229120,2022-02-15-09:00:10,10.1.1.9,34,0.050,0.050,0.050,0.000,0.000,0.000
1644915610619386880,2022-02-15-09:00:10,10.1.1.9,24,0.060,0.060,0.060,0.000,0.000,0.000
1644915610679425024,2022-02-15-09:00:10,10.1.1.9,33,0.070,0.070,0.070,0.000,0.000,0.000
1644915610959724032,2022-02-15-09:00:10,10.1.1.9,8,0.070,0.070,0.070,0.000,0.000,0.000
1644915611040011776,2022-02-15-09:00:11,10.1.1.9,37,0.060,0.060,0.060,0.000,0.000,0.000
1644915611079835904,2022-02-15-09:00:11,10.1.1.9,26,0.050,0.050,0.050,0.000,0.000,0.000
1644915611140371968,2022-02-15-09:00:11,10.1.1.9,35,0.040,0.040,0.040,0.000,0.000,0.000
1644915611182176000,2022-02-15-09:00:11,10.1.1.9,23,0.030,0.030,0.030,0.000,0.000,0.000
1644915611240237824,2022-02-15-09:00:11,10.1.1.9,33,0.020,0.020,0.020,0.000,0.000,0.000
1644915611400218880,2022-02-15-09:00:11,10.1.1.9,37,-0.010,-0.010,-0.010,0.000,0.000,0.000
1644915611441106176,2022-02-15-09:00:11,10.1.1.9,26,-0.020,-0.020,-0.020,0.000,0.000,0.000
1644915611500564992,2022-02-15-09:00:11,10.1.1.9,34,-0.030,-0.030,-0.030,0.000,0.000,0.000
1644915611539895040,2022-02-15-09:00:11,10.1.1.9,24,-0.040,-0.040,-0.040,0.000,0.000,0.000
1644915611700866816,2022-02-15-09:00:11,10.1.1.9,28,-0.070,-0.070,-0.070,0.000,0.000,0.000
1644915611761147136,2022-02-15-09:00:11,10.1.1.9,37,-0.080,-0.080,-0.080,0.000,0.000,0.000
1644915611800088832,2022-02-15-09:00:11,10.1.1.9,25,-0.090,-0.090,-0.090,0.000,0.000,0.000
1644915611860626944,2022-02-15-09:00:11,10.1.1.9,34,-0.100,-0.100,-0.100,0.000,0.000,0.000
1644915612020046080,2022-02-15-09:00:12,10.1.1.9,38,-0.070,-0.070,-0.070,0.000,0.000,0.000
1644915612060551936,2022-02-15-09:00:12,10.1.1.9,27,-0.060,-0.060,-0.060,0.000,0.000,0.000
1644915612221308928,2022-02-15-09:00:12,10.1.1.9,28,-0.030,-0.030,-0.030,0.000,0.000,0.000
1644915612282608896,2022-02-15-09:00:12,10.1.1.9,37,-0.020,-0.020,-0.020,0.000,0.000,0.000
1644915612320367104,2022-02-15-09:00:12,10.1.1.9,20,-0.010,-0.010,-0.010,0.000,0.000,0.000
1644915612380517120,2022-02-15-09:00:12,10.1.1.9,27,0.000,0.000,0.000,0.000,0.000,0.000
1644915612439974912,2022-02-15-09:00:12,10.1.1.9,35,0.010,0.010,0.010,0.000,0.000,0.000
1644915612502449152,2022-02-15-09:00:12,10.1.1.9,24,0.020,0.020,0.020,0.000,0.000,0.000
1644915612699686912,2022-02-15-09:00:12,10.1.1.9,38,0.060,0.060,0.060,0.000,0.000,0.000
1644915612740060928,2022-02-15-09:00:12,10.1.1.9,28,0.070,0.070,0.070,0.000,0.000,0.000
1644915612799982080,2022-02-15-09:00:12,10.1.1.9,37,0.080,0.080,0.080,0.000,0.000,0.000
1644915612840141056,2022-02-15-09:00:12,10.1.1.9,25,0.090,0.090,0.090,0.000,0.000,0.000
1644915612899866112,2022-02-15-09:00:12,10.1.1.9,34,0.100,0.100,0.100,0.000,0.000,0.000
1644915612939591936,2022-02-15-09:00:12,10.1.1.9,23,0.090,0.090,0.090,0.000,0.000,0.000
1644915613199760896,2022-02-15-09:00:13,10.1.1.9,29,0.040,0.040,0.040,0.000,0.000,0.000
1644915613261334784,2022-02-15-09:00:13,10.1.1.9,38,0.030,0.030,0.030,0.000,0.000,0.000
1644915613299546112,2022-02-15-09:00:13,10.1.1.9,28,0.020,0.020,0.020,0.000,0.000,0.000
1644915613359942912,2022-02-15-09:00:13,10.1.1.9,37,0.010,0.010,0.010,0.000,0.000,0.000
1644915613399693056,2022-02-15-09:00:13,10.1.1.9,26,0.000,0.000,0.000,0.000,0.000,0.000
1644915613459865088,2022-02-15-09:00:13,10.1.1.9,36,-0.010,-0.010,-0.010,0.000,0.000,0.000
1644915613559783936,2022-02-15-09:00:13,10.1.1.9,29,-0.030,-0.030,-0.030,0.000,0.000,0.000
1644915613621251072,2022-02-15-09:00:13,10.1.1.9,38,-0.040,-0.040,-0.040,0.000,0.000,0.000
1644915613659405824,2022-02-15-09:00:13,10.1.1.9,28,-0.050,-0.050,-0.050,0.000,0.000,0.000
1644915613720154112,2022-02-15-09:00:13,10.1.1.9,37,-0.060,-0.060,-0.060,0.000,0.000,0.000
1644915613759663104,2022-02-15-09:00:13,10.1.1.9,27,-0.070,-0.070,-0.070,0.000,0.000,0.000
1644915613819523072,2022-02-15-09:00:13,10.1.1.9,36,-0.080,-0.080,-0.080,0.000,0.000,0.000
1644915613859927040,2022-02-15-09:00:13,10.1.1.9,25,-0.090,-0.090,-0.090,0.000,0.000,0.000
1644915613919780096,2022-02-15-09:00:13,10.1.1.9,35,-0.100,-0.100,-0.100,0.000,0.000,0.000
1644915614219954944,2022-02-15-09:00:14,10.1.1.9,29,-0.040,-0.040,-0.040,0.000,0.000,0.000
1644915614279798016,2022-02-15-09:00:14,10.1.1.9,38,-0.030,-0.030,-0.030,0.000,0.000,0.000
1644915614319650048,2022-02-15-09:00:14,10.1.1.9,27,-0.020,-0.020,-0.020,0.000,0.000,0.000
1644915614380038144,2022-02-15-09:00:14,10.1.1.9,37,-0.010,-0.010,-0.010,0.000,0.000,0.000
1644915614419851008,2022-02-15-09:00:14,10.1.1.9,26,0.000,0.000,0.000,0.000,0.000,0.000
1644915614479432960,2022-02-15-09:00:14,10.1.1.9,35,0.010,0.010,0.010,0.000,0.000,0.000
1644915614519778048,2022-02-15-09:00:14,10.1.1.9,25,0.020,0.020,0.020,0.000,0.000,0.000
1644915614580014080,2022-02-15-09:00:14,10.1.1.9,34,0.030,0.030,0.030,0.000,0.000,0.000
1644915614620760064,2022-02-15-09:00:14,10.1.1.9,23,0.040,0.040,0.040,0.000,0.000,0.000
1644915614679645184,2022-02-15-09:00:14,10.1.1.9,33,0.050,0.050,0.050,0.000,0.000,0.000
1644915614880347904,2022-02-15-09:00:14,10.1.1.9,28,0.090,0.090,0.090,0.000,0.000,0.000
1644915614940046080,2022-02-15-09:00:14,10.1.1.9,38,0.100,0.100,0.100,0.000,0.000,0.000
1644915614979436032,2022-02-15-09:00:14,10.1.1.9,27,0.090,0.090,0.090,0.000,0.000,0.000
1644915615039532032,2022-02-15-09:00:15,10.1.1.9,37,0.080,0.080,0.080,0.000,0.000,0.000
1644915615079718144,2022-02-15-09:00:15,10.1.1.9,26,0.070,0.070,0.070,0.000,0.000,0.000
1644915615142529024,2022-02-15-09:00:15,10.1.1.9,34,0.060,0.060,0.060,0.000,0.000,0.000
1644915615199729920,2022-02-15-09:00:15,10.1.1.9,24,0.050,0.050,0.050,0.000,0.000,0.000
1644915615420125952,2022-02-15-09:00:15,10.1.1.9,36,0.010,0.010,0.010,0.000,0.000,0.000
1644915615460369152,2022-02-15-09:00:15,10.1.1.9,26,0.000,0.000,0.000,0.000,0.000,0.000
1644915615519720960,2022-02-15-09:00:15,10.1.1.9,35,-0.010,-0.010,-0.010,0.000,0.000,0.000
1644915615559782144,2022-02-15-09:00:15,10.1.1.9,25,-0.020,-0.020,-0.020,0.000,0.000,0.000
1644915615621139968,2022-02-15-09:00:15,10.1.1.9,34,-0.030,-0.030,-0.030,0.000,0.000,0.000
1644915615660263936,2022-02-15-09:00:15,10.1.1.9,23,-0.040,-0.040,-0.040,0.000,0.000,0.000
1644915615880525056,2022-02-15-09:00:15,10.1.1.9,37,-0.080,-0.080,-0.080,0.000,0.000,0.000
1644915615919497984,2022-02-15-09:00:15,10.1.1.9,26,-0.090,-0.090,-0.090,0.000,0.000,0.000
1644915615986006016,2022-02-15-09:00:15,10.1.1.9,35,-0.100,-0.100,-0.100,0.000,0.000,0.000
1644915616080708096,2022-02-15-09:00:16,10.1.1.9,26,-0.080,-0.080,-0.080,0.000,0.000,0.000
1644915616144197888,2022-02-15-09:00:16,10.1.1.9,34,-0.070,-0.070,-0.070,0.000,0.000,0.000
1644915616180825088,2022-02-15-09:00:16,10.1.1.9,23,-0.060,-0.060,-0.060,0.000,0.000,0.000
1644915616400887040,2022-02-15-09:00:16,10.1.1.9,36,-0.020,-0.020,-0.020,0.000,0.000,0.000
1644915616440422144,2022-02-15-09:00:16,10.1.1.9,24,-0.010,-0.010,-0.010,0.000,0.000,0.000
1644915616703769856,2022-02-15-09:00:16,10.1.1.9,25,0.040,0.040,0.040,0.000,0.000,0.000
1644915616759718912,2022-02-15-09:00:16,10.1.1.9,35,0.050,0.050,0.050,0.000,0.000,0.000
1644915616805885952,2022-02-15-09:00:16,10.1.1.9,24,0.060,0.060,0.060,0.000,0.000,0.000
1644915616960316928,2022-02-15-09:00:16,10.1.1.9,27,0.090,0.090,0.090,0.000,0.000,0.000
1644915617023484928,2022-02-15-09:00:17,10.1.1.9,36,0.100,0.100,0.100,0.000,0.000,0.000
1644915617059756032,2022-02-15-09:00:17,10.1.1.9,25,0.090,0.090,0.090,0.000,0.000,0.000
1644915617220052992,2022-02-15-09:00:17,10.1.1.9,25,0.060,0.060,0.060,0.000,0.000,0.000
1644915617283476224,2022-02-15-09:00:17,10.1.1.9,34,0.050,0.050,0.050,0.000,0.000,0.000
1644915617384289024,2022-02-15-09:00:17,10.1.1.9,29,0.030,0.030,0.030,0.000,0.000,0.000
1644915617443810816,2022-02-15-09:00:17,10.1.1.9,25,0.020,0.020,0.020,0.000,0.000,0.000
1644915617500525824,2022-02-15-09:00:17,10.1.1.9,34,0.010,0.010,0.010,0.000,0.000,0.000
1644915617613225984,2022-02-15-09:00:17,10.1.1.9,28,-0.010,-0.010,-0.010,0.000,0.000,0.000
1644915617739589888,2022-02-15-09:00:17,10.1.1.9,26,-0.030,-0.030,-0.030,0.000,0.000,0.000
1644915617799791104,2022-02-15-09:00:17,10.1.1.9,35,-0.040,-0.040,-0.040,0.000,0.000,0.000
1644915617840022016,2022-02-15-09:00:17,10.1.1.9,24,-0.050,-0.050,-0.050,0.000,0.000,0.000
1644915617900080896,2022-02-15-09:00:17,10.1.1.9,33,-0.060,-0.060,-0.060,0.000,0.000,0.000
1644915618062980864,2022-02-15-09:00:18,10.1.1.9,39,-0.090,-0.090,-0.090,0.000,0.000,0.000
1644915618115953920,2022-02-15-09:00:18,10.1.1.9,27,-0.100,-0.100,-0.100,0.000,0.000,0.000
1644915618159609088,2022-02-15-09:00:18,10.1.1.9,36,-0.090,-0.090,-0.090,0.000,0.000,0.000
1644915618199499008,2022-02-15-09:00:18,10.1.1.9,25,-0.080,-0.080,-0.080,0.000,0.000,0.000
1644915618260011008,2022-02-15-09:00:18,10.1.1.9,34,-0.070,-0.070,-0.070,0.000,0.000,0.000
1644915618639965184,2022-02-15-09:00:18,10.1.1.9,38,0.000,0.000,0.000,0.000,0.000,0.000
1644915618680502016,2022-02-15-09:00:18,10.1.1.9,27,0.010,0.010,0.010,0.000,0.000,0.000
1644915618739897856,2022-02-15-09:00:18,10.1.1.9,36,0.020,0.020,0.020,0.000,0.000,0.000
1644915618779553792,2022-02-15-09:00:18,10.1.1.9,25,0.030,0.030,0.030,0.000,0.000,0.000
