FedericoMungari/DigitalTwin_service/01_WiredScenario/Output/Output_script/script_rosapi_2_output_robots8_freq0_1.txt
timestamp,date,node,latency,joint_1,joint_2,joint_3,joint_4,joint_5,joint_6
1643293140119955968,2022-01-27-14:19:00,10.1.1.2,35,-0.011,-0.011,-0.011,0.000,0.000,0.000
1643293140316406016,2022-01-27-14:19:00,10.1.1.2,30,-0.021,-0.021,-0.021,0.000,0.000,0.000
1643293140515139072,2022-01-27-14:19:00,10.1.1.2,28,-0.031,-0.031,-0.031,0.000,0.000,0.000
1643293140714610944,2022-01-27-14:19:00,10.1.1.2,27,-0.041,-0.041,-0.041,0.000,0.000,0.000
1643293140914856960,2022-01-27-14:19:00,10.1.1.2,27,-0.050,-0.050,-0.050,0.000,0.000,0.000
1643293141114140928,2022-01-27-14:19:01,10.1.1.2,19,-0.060,-0.060,-0.060,0.000,0.000,0.000
1643293141314856960,2022-01-27-14:19:01,10.1.1.2,15,-0.070,-0.070,-0.070,0.000,0.000,0.000
1643293141535220992,2022-01-27-14:19:01,10.1.1.2,35,-0.081,-0.081,-0.081,0.000,0.000,0.000
1643293141734790144,2022-01-27-14:19:01,10.1.1.2,34,-0.091,-0.091,-0.091,0.000,0.000,0.000
1643293141934766080,2022-01-27-14:19:01,10.1.1.2,33,-0.101,-0.101,-0.101,0.000,0.000,0.000
1643293142135107072,2022-01-27-14:19:02,10.1.1.2,33,-0.111,-0.111,-0.111,0.000,0.000,0.000
1643293142334252032,2022-01-27-14:19:02,10.1.1.2,31,-0.121,-0.121,-0.121,0.000,0.000,0.000
1643293142541261056,2022-01-27-14:19:02,10.1.1.2,35,-0.131,-0.131,-0.131,0.000,0.000,0.000
1643293142735260928,2022-01-27-14:19:02,10.1.1.2,29,-0.140,-0.140,-0.140,0.000,0.000,0.000
1643293142935633920,2022-01-27-14:19:02,10.1.1.2,28,-0.150,-0.150,-0.150,0.000,0.000,0.000
1643293143136180992,2022-01-27-14:19:03,10.1.1.2,27,-0.160,-0.160,-0.160,0.000,0.000,0.000
1643293143335144960,2022-01-27-14:19:03,10.1.1.2,25,-0.170,-0.170,-0.170,0.000,0.000,0.000
1643293143534557952,2022-01-27-14:19:03,10.1.1.2,24,-0.180,-0.180,-0.180,0.000,0.000,0.000
1643293143735537920,2022-01-27-14:19:03,10.1.1.2,24,-0.190,-0.190,-0.190,0.000,0.000,0.000
1643293143934920192,2022-01-27-14:19:03,10.1.1.2,23,-0.200,-0.200,-0.200,0.000,0.000,0.000
1643293144134402048,2022-01-27-14:19:04,10.1.1.2,22,-0.210,-0.210,-0.210,0.000,0.000,0.000
1643293144334835968,2022-01-27-14:19:04,10.1.1.2,21,-0.220,-0.220,-0.220,0.000,0.000,0.000
1643293144534571776,2022-01-27-14:19:04,10.1.1.2,20,-0.230,-0.230,-0.230,0.000,0.000,0.000
1643293144734206976,2022-01-27-14:19:04,10.1.1.2,18,-0.240,-0.240,-0.240,0.000,0.000,0.000
1643293144934467072,2022-01-27-14:19:04,10.1.1.2,18,-0.250,-0.250,-0.250,0.000,0.000,0.000
1643293145135104768,2022-01-27-14:19:05,10.1.1.2,18,-0.260,-0.260,-0.260,0.000,0.000,0.000
1643293145334871040,2022-01-27-14:19:05,10.1.1.2,18,-0.270,-0.270,-0.270,0.000,0.000,0.000
1643293145535335168,2022-01-27-14:19:05,10.1.1.2,17,-0.280,-0.280,-0.280,0.000,0.000,0.000
1643293145754503936,2022-01-27-14:19:05,10.1.1.2,36,-0.291,-0.291,-0.291,0.000,0.000,0.000
1643293145954706944,2022-01-27-14:19:05,10.1.1.2,32,-0.300,-0.300,-0.300,0.000,0.000,0.000
1643293146154630912,2022-01-27-14:19:06,10.1.1.2,29,-0.310,-0.310,-0.310,0.000,0.000,0.000
1643293146355150848,2022-01-27-14:19:06,10.1.1.2,28,-0.320,-0.320,-0.320,0.000,0.000,0.000
1643293146555078912,2022-01-27-14:19:06,10.1.1.2,27,-0.330,-0.330,-0.330,0.000,0.000,0.000
1643293146754888960,2022-01-27-14:19:06,10.1.1.2,27,-0.340,-0.340,-0.340,0.000,0.000,0.000
1643293146954889984,2022-01-27-14:19:06,10.1.1.2,26,-0.350,-0.350,-0.350,0.000,0.000,0.000
1643293147156096000,2022-01-27-14:19:07,10.1.1.2,27,-0.360,-0.360,-0.360,0.000,0.000,0.000
1643293147356059904,2022-01-27-14:19:07,10.1.1.2,26,-0.370,-0.370,-0.370,0.000,0.000,0.000
1643293147554624000,2022-01-27-14:19:07,10.1.1.2,23,-0.380,-0.380,-0.380,0.000,0.000,0.000
1643293147755067136,2022-01-27-14:19:07,10.1.1.2,23,-0.390,-0.390,-0.390,0.000,0.000,0.000
1643293147954917888,2022-01-27-14:19:07,10.1.1.2,22,-0.400,-0.400,-0.400,0.000,0.000,0.000
1643293148155112960,2022-01-27-14:19:08,10.1.1.2,22,-0.410,-0.410,-0.410,0.000,0.000,0.000
1643293148354990848,2022-01-27-14:19:08,10.1.1.2,20,-0.420,-0.420,-0.420,0.000,0.000,0.000
1643293148554838784,2022-01-27-14:19:08,10.1.1.2,19,-0.430,-0.430,-0.430,0.000,0.000,0.000
1643293148775396096,2022-01-27-14:19:08,10.1.1.2,39,-0.441,-0.441,-0.441,0.000,0.000,0.000
1643293148975197952,2022-01-27-14:19:08,10.1.1.2,36,-0.451,-0.451,-0.451,0.000,0.000,0.000
1643293149175057920,2022-01-27-14:19:09,10.1.1.2,35,-0.461,-0.461,-0.461,0.000,0.000,0.000
1643293149374614016,2022-01-27-14:19:09,10.1.1.2,34,-0.471,-0.471,-0.471,0.000,0.000,0.000
1643293149574800128,2022-01-27-14:19:09,10.1.1.2,34,-0.481,-0.481,-0.481,0.000,0.000,0.000
1643293149755521024,2022-01-27-14:19:09,10.1.1.2,14,-0.490,-0.490,-0.490,0.000,0.000,0.000
1643293149977142016,2022-01-27-14:19:09,10.1.1.2,34,-0.479,-0.479,-0.479,0.000,0.000,0.000
1643293150175527936,2022-01-27-14:19:10,10.1.1.2,31,-0.470,-0.470,-0.470,0.000,0.000,0.000
1643293150375094784,2022-01-27-14:19:10,10.1.1.2,30,-0.459,-0.459,-0.459,0.000,0.000,0.000
1643293150575139072,2022-01-27-14:19:10,10.1.1.2,29,-0.449,-0.449,-0.449,0.000,0.000,0.000
1643293150795529984,2022-01-27-14:19:10,10.1.1.2,47,-0.439,-0.439,-0.439,0.000,0.000,0.000
1643293150975058176,2022-01-27-14:19:10,10.1.1.2,25,-0.430,-0.430,-0.430,0.000,0.000,0.000
1643293151175236864,2022-01-27-14:19:11,10.1.1.2,25,-0.420,-0.420,-0.420,0.000,0.000,0.000
1643293151374936064,2022-01-27-14:19:11,10.1.1.2,23,-0.410,-0.410,-0.410,0.000,0.000,0.000
1643293151575494912,2022-01-27-14:19:11,10.1.1.2,23,-0.400,-0.400,-0.400,0.000,0.000,0.000
1643293151775382016,2022-01-27-14:19:11,10.1.1.2,22,-0.390,-0.390,-0.390,0.000,0.000,0.000
1643293151975353856,2022-01-27-14:19:11,10.1.1.2,22,-0.380,-0.380,-0.380,0.000,0.000,0.000
1643293152175246080,2022-01-27-14:19:12,10.1.1.2,21,-0.370,-0.370,-0.370,0.000,0.000,0.000
1643293152379597824,2022-01-27-14:19:12,10.1.1.2,22,-0.360,-0.360,-0.360,0.000,0.000,0.000
1643293152595884032,2022-01-27-14:19:12,10.1.1.2,37,-0.349,-0.349,-0.349,0.000,0.000,0.000
1643293152819271936,2022-01-27-14:19:12,10.1.1.2,53,-0.339,-0.339,-0.339,0.000,0.000,0.000
1643293152997092864,2022-01-27-14:19:12,10.1.1.2,30,-0.329,-0.329,-0.329,0.000,0.000,0.000
1643293153196527104,2022-01-27-14:19:13,10.1.1.2,27,-0.320,-0.320,-0.320,0.000,0.000,0.000
1643293153396090112,2022-01-27-14:19:13,10.1.1.2,26,-0.309,-0.309,-0.309,0.000,0.000,0.000
1643293153599385088,2022-01-27-14:19:13,10.1.1.2,29,-0.300,-0.300,-0.300,0.000,0.000,0.000
1643293153817255936,2022-01-27-14:19:13,10.1.1.2,45,-0.289,-0.289,-0.289,0.000,0.000,0.000
1643293154015752192,2022-01-27-14:19:14,10.1.1.2,43,-0.279,-0.279,-0.279,0.000,0.000,0.000
1643293154205310208,2022-01-27-14:19:14,10.1.1.2,30,-0.270,-0.270,-0.270,0.000,0.000,0.000
1643293154415239936,2022-01-27-14:19:14,10.1.1.2,39,-0.259,-0.259,-0.259,0.000,0.000,0.000
1643293154617861120,2022-01-27-14:19:14,10.1.1.2,41,-0.249,-0.249,-0.249,0.000,0.000,0.000
1643293154795454976,2022-01-27-14:19:14,10.1.1.2,17,-0.240,-0.240,-0.240,0.000,0.000,0.000
1643293154995877120,2022-01-27-14:19:14,10.1.1.2,17,-0.230,-0.230,-0.230,0.000,0.000,0.000
1643293155214850048,2022-01-27-14:19:15,10.1.1.2,35,-0.219,-0.219,-0.219,0.000,0.000,0.000
1643293155415254016,2022-01-27-14:19:15,10.1.1.2,35,-0.209,-0.209,-0.209,0.000,0.000,0.000
1643293155614902016,2022-01-27-14:19:15,10.1.1.2,33,-0.199,-0.199,-0.199,0.000,0.000,0.000
1643293155814973952,2022-01-27-14:19:15,10.1.1.2,33,-0.189,-0.189,-0.189,0.000,0.000,0.000
1643293156015183872,2022-01-27-14:19:16,10.1.1.2,33,-0.179,-0.179,-0.179,0.000,0.000,0.000
1643293156215424000,2022-01-27-14:19:16,10.1.1.2,32,-0.169,-0.169,-0.169,0.000,0.000,0.000
1643293156415515904,2022-01-27-14:19:16,10.1.1.2,32,-0.159,-0.159,-0.159,0.000,0.000,0.000
1643293156615328000,2022-01-27-14:19:16,10.1.1.2,31,-0.149,-0.149,-0.149,0.000,0.000,0.000
1643293156814828032,2022-01-27-14:19:16,10.1.1.2,30,-0.139,-0.139,-0.139,0.000,0.000,0.000
1643293157015098112,2022-01-27-14:19:17,10.1.1.2,30,-0.129,-0.129,-0.129,0.000,0.000,0.000
1643293157214892032,2022-01-27-14:19:17,10.1.1.2,29,-0.119,-0.119,-0.119,0.000,0.000,0.000
1643293157417506048,2022-01-27-14:19:17,10.1.1.2,18,-0.110,-0.110,-0.110,0.000,0.000,0.000
1643293157639558912,2022-01-27-14:19:17,10.1.1.2,40,-0.099,-0.099,-0.099,0.000,0.000,0.000
1643293157834571008,2022-01-27-14:19:17,10.1.1.2,34,-0.089,-0.089,-0.089,0.000,0.000,0.000
1643293158034950912,2022-01-27-14:19:18,10.1.1.2,33,-0.079,-0.079,-0.079,0.000,0.000,0.000
1643293158234914048,2022-01-27-14:19:18,10.1.1.2,33,-0.069,-0.069,-0.069,0.000,0.000,0.000
1643293158434482944,2022-01-27-14:19:18,10.1.1.2,33,-0.059,-0.059,-0.059,0.000,0.000,0.000
1643293158636281856,2022-01-27-14:19:18,10.1.1.2,34,-0.049,-0.049,-0.049,0.000,0.000,0.000
1643293158835246080,2022-01-27-14:19:18,10.1.1.2,33,-0.039,-0.039,-0.039,0.000,0.000,0.000
1643293159044930048,2022-01-27-14:19:19,10.1.1.2,42,-0.029,-0.029,-0.029,0.000,0.000,0.000
1643293159234964992,2022-01-27-14:19:19,10.1.1.2,31,-0.019,-0.019,-0.019,0.000,0.000,0.000
1643293159434457088,2022-01-27-14:19:19,10.1.1.2,29,-0.009,-0.009,-0.009,0.000,0.000,0.000
1643293159614959104,2022-01-27-14:19:19,10.1.1.2,9,-0.000,-0.000,-0.000,0.000,0.000,0.000
1643293159835781120,2022-01-27-14:19:19,10.1.1.2,26,-0.010,-0.010,-0.010,0.000,0.000,0.000
1643293160034763008,2022-01-27-14:19:20,10.1.1.2,25,-0.020,-0.020,-0.020,0.000,0.000,0.000
1643293160234641152,2022-01-27-14:19:20,10.1.1.2,24,-0.030,-0.030,-0.030,0.000,0.000,0.000
1643293160434740992,2022-01-27-14:19:20,10.1.1.2,23,-0.040,-0.040,-0.040,0.000,0.000,0.000
1643293160635229952,2022-01-27-14:19:20,10.1.1.2,22,-0.050,-0.050,-0.050,0.000,0.000,0.000
1643293160835556864,2022-01-27-14:19:20,10.1.1.2,22,-0.060,-0.060,-0.060,0.000,0.000,0.000
1643293161034284032,2022-01-27-14:19:21,10.1.1.2,21,-0.070,-0.070,-0.070,0.000,0.000,0.000
1643293161236180992,2022-01-27-14:19:21,10.1.1.2,21,-0.080,-0.080,-0.080,0.000,0.000,0.000
1643293161434446080,2022-01-27-14:19:21,10.1.1.2,20,-0.090,-0.090,-0.090,0.000,0.000,0.000
1643293161634537984,2022-01-27-14:19:21,10.1.1.2,19,-0.100,-0.100,-0.100,0.000,0.000,0.000
1643293161834832896,2022-01-27-14:19:21,10.1.1.2,19,-0.110,-0.110,-0.110,0.000,0.000,0.000
1643293162034600960,2022-01-27-14:19:22,10.1.1.2,19,-0.120,-0.120,-0.120,0.000,0.000,0.000
1643293162235084032,2022-01-27-14:19:22,10.1.1.2,19,-0.130,-0.130,-0.130,0.000,0.000,0.000
1643293162435136000,2022-01-27-14:19:22,10.1.1.2,18,-0.140,-0.140,-0.140,0.000,0.000,0.000
1643293162654984960,2022-01-27-14:19:22,10.1.1.2,37,-0.151,-0.151,-0.151,0.000,0.000,0.000
1643293162854743040,2022-01-27-14:19:22,10.1.1.2,37,-0.161,-0.161,-0.161,0.000,0.000,0.000
1643293163055140864,2022-01-27-14:19:23,10.1.1.2,33,-0.170,-0.170,-0.170,0.000,0.000,0.000
1643293163254999040,2022-01-27-14:19:23,10.1.1.2,26,-0.180,-0.180,-0.180,0.000,0.000,0.000
1643293163454926848,2022-01-27-14:19:23,10.1.1.2,25,-0.190,-0.190,-0.190,0.000,0.000,0.000
1643293163655767808,2022-01-27-14:19:23,10.1.1.2,25,-0.200,-0.200,-0.200,0.000,0.000,0.000
1643293163855383040,2022-01-27-14:19:23,10.1.1.2,23,-0.210,-0.210,-0.210,0.000,0.000,0.000
1643293164055960832,2022-01-27-14:19:24,10.1.1.2,23,-0.220,-0.220,-0.220,0.000,0.000,0.000
1643293164275394816,2022-01-27-14:19:24,10.1.1.2,41,-0.231,-0.231,-0.231,0.000,0.000,0.000
1643293164455933952,2022-01-27-14:19:24,10.1.1.2,19,-0.240,-0.240,-0.240,0.000,0.000,0.000
1643293164656939008,2022-01-27-14:19:24,10.1.1.2,19,-0.250,-0.250,-0.250,0.000,0.000,0.000
1643293164875901952,2022-01-27-14:19:24,10.1.1.2,36,-0.261,-0.261,-0.261,0.000,0.000,0.000
1643293165075902976,2022-01-27-14:19:25,10.1.1.2,35,-0.271,-0.271,-0.271,0.000,0.000,0.000
1643293165274995968,2022-01-27-14:19:25,10.1.1.2,21,-0.280,-0.280,-0.280,0.000,0.000,0.000
1643293165475194880,2022-01-27-14:19:25,10.1.1.2,20,-0.290,-0.290,-0.290,0.000,0.000,0.000
1643293165674951168,2022-01-27-14:19:25,10.1.1.2,19,-0.300,-0.300,-0.300,0.000,0.000,0.000
1643293165876225024,2022-01-27-14:19:25,10.1.1.2,20,-0.310,-0.310,-0.310,0.000,0.000,0.000
1643293166094605824,2022-01-27-14:19:26,10.1.1.2,37,-0.321,-0.321,-0.321,0.000,0.000,0.000
1643293166294974208,2022-01-27-14:19:26,10.1.1.2,37,-0.331,-0.331,-0.331,0.000,0.000,0.000
1643293166494902016,2022-01-27-14:19:26,10.1.1.2,36,-0.341,-0.341,-0.341,0.000,0.000,0.000
1643293166695183104,2022-01-27-14:19:26,10.1.1.2,32,-0.351,-0.351,-0.351,0.000,0.000,0.000
1643293166894723840,2022-01-27-14:19:26,10.1.1.2,31,-0.361,-0.361,-0.361,0.000,0.000,0.000
1643293167095088896,2022-01-27-14:19:27,10.1.1.2,31,-0.371,-0.371,-0.371,0.000,0.000,0.000
1643293167295059968,2022-01-27-14:19:27,10.1.1.2,30,-0.380,-0.380,-0.380,0.000,0.000,0.000
1643293167494745088,2022-01-27-14:19:27,10.1.1.2,29,-0.390,-0.390,-0.390,0.000,0.000,0.000
1643293167694865920,2022-01-27-14:19:27,10.1.1.2,29,-0.400,-0.400,-0.400,0.000,0.000,0.000
1643293167894830848,2022-01-27-14:19:27,10.1.1.2,28,-0.410,-0.410,-0.410,0.000,0.000,0.000
1643293168095310848,2022-01-27-14:19:28,10.1.1.2,28,-0.421,-0.421,-0.421,0.000,0.000,0.000
1643293168295641856,2022-01-27-14:19:28,10.1.1.2,28,-0.430,-0.430,-0.430,0.000,0.000,0.000
1643293168495472896,2022-01-27-14:19:28,10.1.1.2,27,-0.440,-0.440,-0.440,0.000,0.000,0.000
1643293168695121920,2022-01-27-14:19:28,10.1.1.2,26,-0.450,-0.450,-0.450,0.000,0.000,0.000
1643293168895704064,2022-01-27-14:19:28,10.1.1.2,26,-0.460,-0.460,-0.460,0.000,0.000,0.000
1643293169096378112,2022-01-27-14:19:29,10.1.1.2,26,-0.470,-0.470,-0.470,0.000,0.000,0.000
1643293169295026944,2022-01-27-14:19:29,10.1.1.2,23,-0.480,-0.480,-0.480,0.000,0.000,0.000
1643293169474889984,2022-01-27-14:19:29,10.1.1.2,0,-0.489,-0.489,-0.489,0.000,0.000,0.000
1643293169695945984,2022-01-27-14:19:29,10.1.1.2,21,-0.480,-0.480,-0.480,0.000,0.000,0.000
1643293169916246016,2022-01-27-14:19:29,10.1.1.2,39,-0.470,-0.470,-0.470,0.000,0.000,0.000
1643293170117811968,2022-01-27-14:19:30,10.1.1.2,34,-0.460,-0.460,-0.460,0.000,0.000,0.000
1643293170315555072,2022-01-27-14:19:30,10.1.1.2,31,-0.449,-0.449,-0.449,0.000,0.000,0.000
1643293170515033088,2022-01-27-14:19:30,10.1.1.2,29,-0.440,-0.440,-0.440,0.000,0.000,0.000
1643293170715931904,2022-01-27-14:19:30,10.1.1.2,29,-0.430,-0.430,-0.430,0.000,0.000,0.000
1643293170915419136,2022-01-27-14:19:30,10.1.1.2,28,-0.419,-0.419,-0.419,0.000,0.000,0.000
1643293171115372800,2022-01-27-14:19:31,10.1.1.2,28,-0.410,-0.410,-0.410,0.000,0.000,0.000
1643293171316060160,2022-01-27-14:19:31,10.1.1.2,28,-0.400,-0.400,-0.400,0.000,0.000,0.000
1643293171515332864,2022-01-27-14:19:31,10.1.1.2,26,-0.390,-0.390,-0.390,0.000,0.000,0.000
1643293171716008960,2022-01-27-14:19:31,10.1.1.2,26,-0.380,-0.380,-0.380,0.000,0.000,0.000
1643293171917515008,2022-01-27-14:19:31,10.1.1.2,27,-0.370,-0.370,-0.370,0.000,0.000,0.000
1643293172116290048,2022-01-27-14:19:32,10.1.1.2,25,-0.360,-0.360,-0.360,0.000,0.000,0.000
1643293172315431168,2022-01-27-14:19:32,10.1.1.2,23,-0.350,-0.350,-0.350,0.000,0.000,0.000
1643293172534895872,2022-01-27-14:19:32,10.1.1.2,42,-0.339,-0.339,-0.339,0.000,0.000,0.000
1643293172718060032,2022-01-27-14:19:32,10.1.1.2,23,-0.330,-0.330,-0.330,0.000,0.000,0.000
1643293172937366016,2022-01-27-14:19:32,10.1.1.2,41,-0.319,-0.319,-0.319,0.000,0.000,0.000
1643293173115136000,2022-01-27-14:19:33,10.1.1.2,18,-0.310,-0.310,-0.310,0.000,0.000,0.000
1643293173315546112,2022-01-27-14:19:33,10.1.1.2,18,-0.300,-0.300,-0.300,0.000,0.000,0.000
1643293173536184064,2022-01-27-14:19:33,10.1.1.2,38,-0.289,-0.289,-0.289,0.000,0.000,0.000
1643293173734853888,2022-01-27-14:19:33,10.1.1.2,36,-0.279,-0.279,-0.279,0.000,0.000,0.000
1643293173935430144,2022-01-27-14:19:33,10.1.1.2,36,-0.269,-0.269,-0.269,0.000,0.000,0.000
1643293174135979776,2022-01-27-14:19:34,10.1.1.2,36,-0.259,-0.259,-0.259,0.000,0.000,0.000
1643293174336081152,2022-01-27-14:19:34,10.1.1.2,26,-0.250,-0.250,-0.250,0.000,0.000,0.000
1643293174536137984,2022-01-27-14:19:34,10.1.1.2,25,-0.240,-0.240,-0.240,0.000,0.000,0.000
1643293174735608064,2022-01-27-14:19:34,10.1.1.2,23,-0.230,-0.230,-0.230,0.000,0.000,0.000
1643293174935710976,2022-01-27-14:19:34,10.1.1.2,22,-0.220,-0.220,-0.220,0.000,0.000,0.000
1643293175155087872,2022-01-27-14:19:35,10.1.1.2,41,-0.209,-0.209,-0.209,0.000,0.000,0.000
1643293175354567936,2022-01-27-14:19:35,10.1.1.2,40,-0.199,-0.199,-0.199,0.000,0.000,0.000
1643293175535262976,2022-01-27-14:19:35,10.1.1.2,20,-0.190,-0.190,-0.190,0.000,0.000,0.000
1643293175735224064,2022-01-27-14:19:35,10.1.1.2,19,-0.180,-0.180,-0.180,0.000,0.000,0.000
1643293175934760192,2022-01-27-14:19:35,10.1.1.2,18,-0.170,-0.170,-0.170,0.000,0.000,0.000
1643293176157905152,2022-01-27-14:19:36,10.1.1.2,40,-0.159,-0.159,-0.159,0.000,0.000,0.000
1643293176355037952,2022-01-27-14:19:36,10.1.1.2,36,-0.149,-0.149,-0.149,0.000,0.000,0.000
1643293176554881024,2022-01-27-14:19:36,10.1.1.2,35,-0.139,-0.139,-0.139,0.000,0.000,0.000
1643293176754568960,2022-01-27-14:19:36,10.1.1.2,34,-0.129,-0.129,-0.129,0.000,0.000,0.000
1643293176954958080,2022-01-27-14:19:36,10.1.1.2,34,-0.119,-0.119,-0.119,0.000,0.000,0.000
1643293177154746112,2022-01-27-14:19:37,10.1.1.2,34,-0.109,-0.109,-0.109,0.000,0.000,0.000
1643293177354928128,2022-01-27-14:19:37,10.1.1.2,33,-0.099,-0.099,-0.099,0.000,0.000,0.000
1643293177555171840,2022-01-27-14:19:37,10.1.1.2,33,-0.089,-0.089,-0.089,0.000,0.000,0.000
1643293177755875072,2022-01-27-14:19:37,10.1.1.2,33,-0.079,-0.079,-0.079,0.000,0.000,0.000
1643293177954701056,2022-01-27-14:19:37,10.1.1.2,32,-0.069,-0.069,-0.069,0.000,0.000,0.000
1643293178154422016,2022-01-27-14:19:38,10.1.1.2,31,-0.059,-0.059,-0.059,0.000,0.000,0.000
1643293178354624000,2022-01-27-14:19:38,10.1.1.2,29,-0.050,-0.050,-0.050,0.000,0.000,0.000
1643293178554642944,2022-01-27-14:19:38,10.1.1.2,28,-0.039,-0.039,-0.039,0.000,0.000,0.000
1643293178754985216,2022-01-27-14:19:38,10.1.1.2,28,-0.029,-0.029,-0.029,0.000,0.000,0.000
1643293178954834944,2022-01-27-14:19:38,10.1.1.2,28,-0.020,-0.020,-0.020,0.000,0.000,0.000
1643293179154717952,2022-01-27-14:19:39,10.1.1.2,27,-0.010,-0.010,-0.010,0.000,0.000,0.000
1643293179335865856,2022-01-27-14:19:39,10.1.1.2,7,-0.001,-0.001,-0.001,0.000,0.000,0.000
1643293179555443968,2022-01-27-14:19:39,10.1.1.2,26,-0.010,-0.010,-0.010,0.000,0.000,0.000
1643293179755009024,2022-01-27-14:19:39,10.1.1.2,26,-0.020,-0.020,-0.020,0.000,0.000,0.000
1643293179955117056,2022-01-27-14:19:39,10.1.1.2,25,-0.030,-0.030,-0.030,0.000,0.000,0.000
1643293180155156992,2022-01-27-14:19:40,10.1.1.2,25,-0.040,-0.040,-0.040,0.000,0.000,0.000
1643293180355649024,2022-01-27-14:19:40,10.1.1.2,24,-0.050,-0.050,-0.050,0.000,0.000,0.000
1643293180554728960,2022-01-27-14:19:40,10.1.1.2,22,-0.060,-0.060,-0.060,0.000,0.000,0.000
1643293180754658048,2022-01-27-14:19:40,10.1.1.2,22,-0.070,-0.070,-0.070,0.000,0.000,0.000
1643293180955276032,2022-01-27-14:19:40,10.1.1.2,21,-0.080,-0.080,-0.080,0.000,0.000,0.000
1643293181154803968,2022-01-27-14:19:41,10.1.1.2,20,-0.090,-0.090,-0.090,0.000,0.000,0.000
1643293181355192064,2022-01-27-14:19:41,10.1.1.2,20,-0.100,-0.100,-0.100,0.000,0.000,0.000
1643293181555046144,2022-01-27-14:19:41,10.1.1.2,18,-0.110,-0.110,-0.110,0.000,0.000,0.000
1643293181756875008,2022-01-27-14:19:41,10.1.1.2,19,-0.120,-0.120,-0.120,0.000,0.000,0.000
1643293181975161088,2022-01-27-14:19:41,10.1.1.2,36,-0.131,-0.131,-0.131,0.000,0.000,0.000
1643293182175286016,2022-01-27-14:19:42,10.1.1.2,36,-0.141,-0.141,-0.141,0.000,0.000,0.000
1643293182375288064,2022-01-27-14:19:42,10.1.1.2,36,-0.151,-0.151,-0.151,0.000,0.000,0.000
1643293182574886912,2022-01-27-14:19:42,10.1.1.2,34,-0.161,-0.161,-0.161,0.000,0.000,0.000
1643293182776333056,2022-01-27-14:19:42,10.1.1.2,35,-0.171,-0.171,-0.171,0.000,0.000,0.000
1643293182975397120,2022-01-27-14:19:42,10.1.1.2,32,-0.181,-0.181,-0.181,0.000,0.000,0.000
1643293183175575040,2022-01-27-14:19:43,10.1.1.2,32,-0.190,-0.190,-0.190,0.000,0.000,0.000
1643293183374932992,2022-01-27-14:19:43,10.1.1.2,29,-0.201,-0.201,-0.201,0.000,0.000,0.000
1643293183575773952,2022-01-27-14:19:43,10.1.1.2,29,-0.211,-0.211,-0.211,0.000,0.000,0.000
1643293183799962880,2022-01-27-14:19:43,10.1.1.2,52,-0.221,-0.221,-0.221,0.000,0.000,0.000
1643293183975163904,2022-01-27-14:19:43,10.1.1.2,26,-0.230,-0.230,-0.230,0.000,0.000,0.000
1643293184175153920,2022-01-27-14:19:44,10.1.1.2,25,-0.240,-0.240,-0.240,0.000,0.000,0.000
1643293184378653952,2022-01-27-14:19:44,10.1.1.2,29,-0.250,-0.250,-0.250,0.000,0.000,0.000
1643293184575372032,2022-01-27-14:19:44,10.1.1.2,23,-0.260,-0.260,-0.260,0.000,0.000,0.000
1643293184775758080,2022-01-27-14:19:44,10.1.1.2,23,-0.270,-0.270,-0.270,0.000,0.000,0.000
1643293184994964992,2022-01-27-14:19:44,10.1.1.2,41,-0.281,-0.281,-0.281,0.000,0.000,0.000
1643293185176502016,2022-01-27-14:19:45,10.1.1.2,22,-0.290,-0.290,-0.290,0.000,0.000,0.000
1643293185375702016,2022-01-27-14:19:45,10.1.1.2,20,-0.300,-0.300,-0.300,0.000,0.000,0.000
1643293185575735040,2022-01-27-14:19:45,10.1.1.2,20,-0.310,-0.310,-0.310,0.000,0.000,0.000
1643293185795269120,2022-01-27-14:19:45,10.1.1.2,39,-0.321,-0.321,-0.321,0.000,0.000,0.000
1643293185975686912,2022-01-27-14:19:45,10.1.1.2,19,-0.330,-0.330,-0.330,0.000,0.000,0.000
1643293186175572992,2022-01-27-14:19:46,10.1.1.2,18,-0.340,-0.340,-0.340,0.000,0.000,0.000
1643293186395715840,2022-01-27-14:19:46,10.1.1.2,38,-0.351,-0.351,-0.351,0.000,0.000,0.000
1643293186595168000,2022-01-27-14:19:46,10.1.1.2,36,-0.361,-0.361,-0.361,0.000,0.000,0.000
1643293186795479040,2022-01-27-14:19:46,10.1.1.2,36,-0.371,-0.371,-0.371,0.000,0.000,0.000
1643293186995879936,2022-01-27-14:19:46,10.1.1.2,36,-0.381,-0.381,-0.381,0.000,0.000,0.000
1643293187195308800,2022-01-27-14:19:47,10.1.1.2,35,-0.391,-0.391,-0.391,0.000,0.000,0.000
1643293187395940096,2022-01-27-14:19:47,10.1.1.2,35,-0.401,-0.401,-0.401,0.000,0.000,0.000
1643293187595058944,2022-01-27-14:19:47,10.1.1.2,34,-0.411,-0.411,-0.411,0.000,0.000,0.000
1643293187794984960,2022-01-27-14:19:47,10.1.1.2,33,-0.421,-0.421,-0.421,0.000,0.000,0.000
1643293187995994112,2022-01-27-14:19:47,10.1.1.2,33,-0.431,-0.431,-0.431,0.000,0.000,0.000
1643293188195636992,2022-01-27-14:19:48,10.1.1.2,32,-0.441,-0.441,-0.441,0.000,0.000,0.000
1643293188396182016,2022-01-27-14:19:48,10.1.1.2,32,-0.451,-0.451,-0.451,0.000,0.000,0.000
1643293188596354048,2022-01-27-14:19:48,10.1.1.2,31,-0.460,-0.460,-0.460,0.000,0.000,0.000
1643293188795437056,2022-01-27-14:19:48,10.1.1.2,30,-0.470,-0.470,-0.470,0.000,0.000,0.000
1643293188995578880,2022-01-27-14:19:48,10.1.1.2,29,-0.481,-0.481,-0.481,0.000,0.000,0.000
1643293189175791104,2022-01-27-14:19:49,10.1.1.2,9,-0.490,-0.490,-0.490,0.000,0.000,0.000
1643293189395158016,2022-01-27-14:19:49,10.1.1.2,27,-0.479,-0.479,-0.479,0.000,0.000,0.000
1643293189596081920,2022-01-27-14:19:49,10.1.1.2,28,-0.470,-0.470,-0.470,0.000,0.000,0.000
1643293189795265792,2022-01-27-14:19:49,10.1.1.2,25,-0.460,-0.460,-0.460,0.000,0.000,0.000
1643293189995656960,2022-01-27-14:19:49,10.1.1.2,24,-0.450,-0.450,-0.450,0.000,0.000,0.000
1643293190194652160,2022-01-27-14:19:50,10.1.1.2,22,-0.440,-0.440,-0.440,0.000,0.000,0.000
1643293190415614976,2022-01-27-14:19:50,10.1.1.2,42,-0.429,-0.429,-0.429,0.000,0.000,0.000
1643293190614836992,2022-01-27-14:19:50,10.1.1.2,40,-0.419,-0.419,-0.419,0.000,0.000,0.000
1643293190815272192,2022-01-27-14:19:50,10.1.1.2,40,-0.409,-0.409,-0.409,0.000,0.000,0.000
1643293190995431936,2022-01-27-14:19:50,10.1.1.2,19,-0.400,-0.400,-0.400,0.000,0.000,0.000
1643293191214808832,2022-01-27-14:19:51,10.1.1.2,38,-0.389,-0.389,-0.389,0.000,0.000,0.000
1643293191395732992,2022-01-27-14:19:51,10.1.1.2,18,-0.380,-0.380,-0.380,0.000,0.000,0.000
1643293191614889984,2022-01-27-14:19:51,10.1.1.2,35,-0.369,-0.369,-0.369,0.000,0.000,0.000
1643293191816272128,2022-01-27-14:19:51,10.1.1.2,36,-0.359,-0.359,-0.359,0.000,0.000,0.000
1643293192016407040,2022-01-27-14:19:52,10.1.1.2,36,-0.349,-0.349,-0.349,0.000,0.000,0.000
1643293192214919936,2022-01-27-14:19:52,10.1.1.2,33,-0.339,-0.339,-0.339,0.000,0.000,0.000
1643293192415385856,2022-01-27-14:19:52,10.1.1.2,33,-0.329,-0.329,-0.329,0.000,0.000,0.000
1643293192615180032,2022-01-27-14:19:52,10.1.1.2,32,-0.319,-0.319,-0.319,0.000,0.000,0.000
1643293192814938112,2022-01-27-14:19:52,10.1.1.2,31,-0.309,-0.309,-0.309,0.000,0.000,0.000
1643293193014803968,2022-01-27-14:19:53,10.1.1.2,31,-0.299,-0.299,-0.299,0.000,0.000,0.000
1643293193215472896,2022-01-27-14:19:53,10.1.1.2,30,-0.290,-0.290,-0.290,0.000,0.000,0.000
1643293193415106048,2022-01-27-14:19:53,10.1.1.2,28,-0.279,-0.279,-0.279,0.000,0.000,0.000
1643293193614758912,2022-01-27-14:19:53,10.1.1.2,27,-0.270,-0.270,-0.270,0.000,0.000,0.000
1643293193814946048,2022-01-27-14:19:53,10.1.1.2,27,-0.260,-0.260,-0.260,0.000,0.000,0.000
1643293194014785024,2022-01-27-14:19:54,10.1.1.2,26,-0.250,-0.250,-0.250,0.000,0.000,0.000
1643293194214395136,2022-01-27-14:19:54,10.1.1.2,25,-0.240,-0.240,-0.240,0.000,0.000,0.000
1643293194414465024,2022-01-27-14:19:54,10.1.1.2,25,-0.230,-0.230,-0.230,0.000,0.000,0.000
1643293194617126912,2022-01-27-14:19:54,10.1.1.2,26,-0.220,-0.220,-0.220,0.000,0.000,0.000
1643293194814841088,2022-01-27-14:19:54,10.1.1.2,23,-0.210,-0.210,-0.210,0.000,0.000,0.000
1643293195015054080,2022-01-27-14:19:55,10.1.1.2,22,-0.200,-0.200,-0.200,0.000,0.000,0.000
1643293195235961856,2022-01-27-14:19:55,10.1.1.2,42,-0.189,-0.189,-0.189,0.000,0.000,0.000
1643293195434732800,2022-01-27-14:19:55,10.1.1.2,40,-0.179,-0.179,-0.179,0.000,0.000,0.000
1643293195634656000,2022-01-27-14:19:55,10.1.1.2,39,-0.169,-0.169,-0.169,0.000,0.000,0.000
1643293195814942976,2022-01-27-14:19:55,10.1.1.2,19,-0.160,-0.160,-0.160,0.000,0.000,0.000
1643293196015042048,2022-01-27-14:19:56,10.1.1.2,18,-0.150,-0.150,-0.150,0.000,0.000,0.000
1643293196214876928,2022-01-27-14:19:56,10.1.1.2,18,-0.140,-0.140,-0.140,0.000,0.000,0.000
1643293196415579136,2022-01-27-14:19:56,10.1.1.2,18,-0.130,-0.130,-0.130,0.000,0.000,0.000
1643293196635611136,2022-01-27-14:19:56,10.1.1.2,36,-0.119,-0.119,-0.119,0.000,0.000,0.000
1643293196835383040,2022-01-27-14:19:56,10.1.1.2,35,-0.109,-0.109,-0.109,0.000,0.000,0.000
1643293197035417088,2022-01-27-14:19:57,10.1.1.2,34,-0.099,-0.099,-0.099,0.000,0.000,0.000
1643293197235136000,2022-01-27-14:19:57,10.1.1.2,32,-0.089,-0.089,-0.089,0.000,0.000,0.000
1643293197435343104,2022-01-27-14:19:57,10.1.1.2,31,-0.079,-0.079,-0.079,0.000,0.000,0.000
1643293197635731968,2022-01-27-14:19:57,10.1.1.2,31,-0.069,-0.069,-0.069,0.000,0.000,0.000
1643293197836233984,2022-01-27-14:19:57,10.1.1.2,30,-0.060,-0.060,-0.060,0.000,0.000,0.000
1643293198035414016,2022-01-27-14:19:58,10.1.1.2,28,-0.050,-0.050,-0.050,0.000,0.000,0.000
1643293198234801920,2022-01-27-14:19:58,10.1.1.2,27,-0.040,-0.040,-0.040,0.000,0.000,0.000
1643293198434765056,2022-01-27-14:19:58,10.1.1.2,26,-0.030,-0.030,-0.030,0.000,0.000,0.000
1643293198635958016,2022-01-27-14:19:58,10.1.1.2,27,-0.020,-0.020,-0.020,0.000,0.000,0.000
1643293198835053056,2022-01-27-14:19:58,10.1.1.2,25,-0.010,-0.010,-0.010,0.000,0.000,0.000
1643293199015057152,2022-01-27-14:19:59,10.1.1.2,4,-0.001,-0.001,-0.001,0.000,0.000,0.000
1643293199234523136,2022-01-27-14:19:59,10.1.1.2,23,-0.010,-0.010,-0.010,0.000,0.000,0.000
1643293199435523072,2022-01-27-14:19:59,10.1.1.2,23,-0.020,-0.020,-0.020,0.000,0.000,0.000
1643293199637277952,2022-01-27-14:19:59,10.1.1.2,24,-0.030,-0.030,-0.030,0.000,0.000,0.000
1643293199835179008,2022-01-27-14:19:59,10.1.1.2,20,-0.040,-0.040,-0.040,0.000,0.000,0.000
1643293200054712064,2022-01-27-14:20:00,10.1.1.2,39,-0.051,-0.051,-0.051,0.000,0.000,0.000
1643293200235708928,2022-01-27-14:20:00,10.1.1.2,19,-0.060,-0.060,-0.060,0.000,0.000,0.000
1643293200436507904,2022-01-27-14:20:00,10.1.1.2,19,-0.070,-0.070,-0.070,0.000,0.000,0.000
1643293200636573952,2022-01-27-14:20:00,10.1.1.2,19,-0.080,-0.080,-0.080,0.000,0.000,0.000
1643293200835737856,2022-01-27-14:20:00,10.1.1.2,17,-0.090,-0.090,-0.090,0.000,0.000,0.000
1643293201055578880,2022-01-27-14:20:01,10.1.1.2,36,-0.101,-0.101,-0.101,0.000,0.000,0.000
1643293201254808832,2022-01-27-14:20:01,10.1.1.2,34,-0.111,-0.111,-0.111,0.000,0.000,0.000
1643293201455169024,2022-01-27-14:20:01,10.1.1.2,34,-0.121,-0.121,-0.121,0.000,0.000,0.000
1643293201655347968,2022-01-27-14:20:01,10.1.1.2,34,-0.131,-0.131,-0.131,0.000,0.000,0.000
1643293201854888960,2022-01-27-14:20:01,10.1.1.2,33,-0.141,-0.141,-0.141,0.000,0.000,0.000
1643293202054857984,2022-01-27-14:20:02,10.1.1.2,32,-0.151,-0.151,-0.151,0.000,0.000,0.000
1643293202255870208,2022-01-27-14:20:02,10.1.1.2,32,-0.160,-0.160,-0.160,0.000,0.000,0.000
1643293202455603968,2022-01-27-14:20:02,10.1.1.2,23,-0.170,-0.170,-0.170,0.000,0.000,0.000
1643293202654990848,2022-01-27-14:20:02,10.1.1.2,22,-0.180,-0.180,-0.180,0.000,0.000,0.000
1643293202855415040,2022-01-27-14:20:02,10.1.1.2,21,-0.190,-0.190,-0.190,0.000,0.000,0.000
1643293203056199936,2022-01-27-14:20:03,10.1.1.2,21,-0.200,-0.200,-0.200,0.000,0.000,0.000
1643293203275304192,2022-01-27-14:20:03,10.1.1.2,39,-0.211,-0.211,-0.211,0.000,0.000,0.000
1643293203476037120,2022-01-27-14:20:03,10.1.1.2,38,-0.221,-0.221,-0.221,0.000,0.000,0.000
1643293203675270144,2022-01-27-14:20:03,10.1.1.2,37,-0.231,-0.231,-0.231,0.000,0.000,0.000
1643293203874874112,2022-01-27-14:20:03,10.1.1.2,36,-0.241,-0.241,-0.241,0.000,0.000,0.000
1643293204074966016,2022-01-27-14:20:04,10.1.1.2,36,-0.251,-0.251,-0.251,0.000,0.000,0.000
1643293204275279872,2022-01-27-14:20:04,10.1.1.2,35,-0.261,-0.261,-0.261,0.000,0.000,0.000
1643293204475686912,2022-01-27-14:20:04,10.1.1.2,35,-0.271,-0.271,-0.271,0.000,0.000,0.000
1643293204675829760,2022-01-27-14:20:04,10.1.1.2,34,-0.281,-0.281,-0.281,0.000,0.000,0.000
1643293204875441152,2022-01-27-14:20:04,10.1.1.2,33,-0.291,-0.291,-0.291,0.000,0.000,0.000
1643293205075657984,2022-01-27-14:20:05,10.1.1.2,33,-0.301,-0.301,-0.301,0.000,0.000,0.000
1643293205274972928,2022-01-27-14:20:05,10.1.1.2,31,-0.310,-0.310,-0.310,0.000,0.000,0.000
1643293205475280896,2022-01-27-14:20:05,10.1.1.2,31,-0.320,-0.320,-0.320,0.000,0.000,0.000
1643293205675318016,2022-01-27-14:20:05,10.1.1.2,30,-0.330,-0.330,-0.330,0.000,0.000,0.000
1643293205875896064,2022-01-27-14:20:05,10.1.1.2,30,-0.340,-0.340,-0.340,0.000,0.000,0.000
1643293206075653120,2022-01-27-14:20:06,10.1.1.2,29,-0.350,-0.350,-0.350,0.000,0.000,0.000
1643293206275741952,2022-01-27-14:20:06,10.1.1.2,28,-0.361,-0.361,-0.361,0.000,0.000,0.000
1643293206475600128,2022-01-27-14:20:06,10.1.1.2,27,-0.370,-0.370,-0.370,0.000,0.000,0.000
1643293206677256960,2022-01-27-14:20:06,10.1.1.2,28,-0.380,-0.380,-0.380,0.000,0.000,0.000
1643293206875857152,2022-01-27-14:20:06,10.1.1.2,26,-0.390,-0.390,-0.390,0.000,0.000,0.000
1643293207075480832,2022-01-27-14:20:07,10.1.1.2,25,-0.400,-0.400,-0.400,0.000,0.000,0.000
1643293207275568896,2022-01-27-14:20:07,10.1.1.2,24,-0.410,-0.410,-0.410,0.000,0.000,0.000
1643293207475217152,2022-01-27-14:20:07,10.1.1.2,23,-0.420,-0.420,-0.420,0.000,0.000,0.000
1643293207675437824,2022-01-27-14:20:07,10.1.1.2,23,-0.430,-0.430,-0.430,0.000,0.000,0.000
1643293207874819072,2022-01-27-14:20:07,10.1.1.2,21,-0.440,-0.440,-0.440,0.000,0.000,0.000
1643293208075177984,2022-01-27-14:20:08,10.1.1.2,20,-0.450,-0.450,-0.450,0.000,0.000,0.000
1643293208275393024,2022-01-27-14:20:08,10.1.1.2,19,-0.460,-0.460,-0.460,0.000,0.000,0.000
1643293208475318016,2022-01-27-14:20:08,10.1.1.2,19,-0.470,-0.470,-0.470,0.000,0.000,0.000
1643293208675503104,2022-01-27-14:20:08,10.1.1.2,18,-0.480,-0.480,-0.480,0.000,0.000,0.000
1643293208874988032,2022-01-27-14:20:08,10.1.1.2,17,-0.490,-0.490,-0.490,0.000,0.000,0.000
1643293209095382016,2022-01-27-14:20:09,10.1.1.2,37,-0.479,-0.479,-0.479,0.000,0.000,0.000
1643293209294737152,2022-01-27-14:20:09,10.1.1.2,35,-0.469,-0.469,-0.469,0.000,0.000,0.000
1643293209495014912,2022-01-27-14:20:09,10.1.1.2,35,-0.459,-0.459,-0.459,0.000,0.000,0.000
1643293209694867968,2022-01-27-14:20:09,10.1.1.2,35,-0.449,-0.449,-0.449,0.000,0.000,0.000
1643293209895164928,2022-01-27-14:20:09,10.1.1.2,35,-0.439,-0.439,-0.439,0.000,0.000,0.000
1643293210095324928,2022-01-27-14:20:10,10.1.1.2,34,-0.429,-0.429,-0.429,0.000,0.000,0.000
1643293210295586048,2022-01-27-14:20:10,10.1.1.2,34,-0.419,-0.419,-0.419,0.000,0.000,0.000
1643293210494971904,2022-01-27-14:20:10,10.1.1.2,31,-0.409,-0.409,-0.409,0.000,0.000,0.000
1643293210694784000,2022-01-27-14:20:10,10.1.1.2,30,-0.400,-0.400,-0.400,0.000,0.000,0.000
1643293210894637056,2022-01-27-14:20:10,10.1.1.2,29,-0.390,-0.390,-0.390,0.000,0.000,0.000
1643293211095267072,2022-01-27-14:20:11,10.1.1.2,29,-0.379,-0.379,-0.379,0.000,0.000,0.000
1643293211295236096,2022-01-27-14:20:11,10.1.1.2,28,-0.369,-0.369,-0.369,0.000,0.000,0.000
1643293211497960192,2022-01-27-14:20:11,10.1.1.2,31,-0.359,-0.359,-0.359,0.000,0.000,0.000
1643293211695763200,2022-01-27-14:20:11,10.1.1.2,28,-0.350,-0.350,-0.350,0.000,0.000,0.000
1643293211896576000,2022-01-27-14:20:11,10.1.1.2,28,-0.340,-0.340,-0.340,0.000,0.000,0.000
1643293212094819072,2022-01-27-14:20:12,10.1.1.2,25,-0.330,-0.330,-0.330,0.000,0.000,0.000
1643293212294647040,2022-01-27-14:20:12,10.1.1.2,24,-0.320,-0.320,-0.320,0.000,0.000,0.000
1643293212495130112,2022-01-27-14:20:12,10.1.1.2,24,-0.310,-0.310,-0.310,0.000,0.000,0.000
1643293212694832128,2022-01-27-14:20:12,10.1.1.2,23,-0.300,-0.300,-0.300,0.000,0.000,0.000
1643293212915996160,2022-01-27-14:20:12,10.1.1.2,36,-0.289,-0.289,-0.289,0.000,0.000,0.000
1643293213115264768,2022-01-27-14:20:13,10.1.1.2,34,-0.279,-0.279,-0.279,0.000,0.000,0.000
1643293213315099904,2022-01-27-14:20:13,10.1.1.2,34,-0.269,-0.269,-0.269,0.000,0.000,0.000
1643293213515068928,2022-01-27-14:20:13,10.1.1.2,33,-0.259,-0.259,-0.259,0.000,0.000,0.000
1643293213716242944,2022-01-27-14:20:13,10.1.1.2,33,-0.249,-0.249,-0.249,0.000,0.000,0.000
1643293213917385216,2022-01-27-14:20:13,10.1.1.2,30,-0.240,-0.240,-0.240,0.000,0.000,0.000
1643293214115384064,2022-01-27-14:20:14,10.1.1.2,27,-0.230,-0.230,-0.230,0.000,0.000,0.000
1643293214314825984,2022-01-27-14:20:14,10.1.1.2,25,-0.220,-0.220,-0.220,0.000,0.000,0.000
1643293214515543040,2022-01-27-14:20:14,10.1.1.2,25,-0.210,-0.210,-0.210,0.000,0.000,0.000
1643293214716204800,2022-01-27-14:20:14,10.1.1.2,24,-0.200,-0.200,-0.200,0.000,0.000,0.000
1643293214915177984,2022-01-27-14:20:14,10.1.1.2,20,-0.190,-0.190,-0.190,0.000,0.000,0.000
1643293215096126976,2022-01-27-14:20:15,10.1.1.2,-1,-0.181,-0.181,-0.181,0.000,0.000,0.000
1643293215315588864,2022-01-27-14:20:15,10.1.1.2,19,-0.170,-0.170,-0.170,0.000,0.000,0.000
1643293215515425024,2022-01-27-14:20:15,10.1.1.2,18,-0.160,-0.160,-0.160,0.000,0.000,0.000
1643293215734749184,2022-01-27-14:20:15,10.1.1.2,36,-0.149,-0.149,-0.149,0.000,0.000,0.000
1643293215934957056,2022-01-27-14:20:15,10.1.1.2,36,-0.139,-0.139,-0.139,0.000,0.000,0.000
1643293216135150080,2022-01-27-14:20:16,10.1.1.2,36,-0.129,-0.129,-0.129,0.000,0.000,0.000
1643293216334600960,2022-01-27-14:20:16,10.1.1.2,34,-0.119,-0.119,-0.119,0.000,0.000,0.000
1643293216535223040,2022-01-27-14:20:16,10.1.1.2,34,-0.109,-0.109,-0.109,0.000,0.000,0.000
1643293216736224000,2022-01-27-14:20:16,10.1.1.2,35,-0.099,-0.099,-0.099,0.000,0.000,0.000
1643293216935286016,2022-01-27-14:20:16,10.1.1.2,33,-0.089,-0.089,-0.089,0.000,0.000,0.000
1643293217135689984,2022-01-27-14:20:17,10.1.1.2,32,-0.079,-0.079,-0.079,0.000,0.000,0.000
1643293217336108032,2022-01-27-14:20:17,10.1.1.2,31,-0.069,-0.069,-0.069,0.000,0.000,0.000
1643293217535160064,2022-01-27-14:20:17,10.1.1.2,29,-0.059,-0.059,-0.059,0.000,0.000,0.000
1643293217735673856,2022-01-27-14:20:17,10.1.1.2,28,-0.050,-0.050,-0.050,0.000,0.000,0.000
1643293217935260928,2022-01-27-14:20:17,10.1.1.2,27,-0.040,-0.040,-0.040,0.000,0.000,0.000
1643293218135886848,2022-01-27-14:20:18,10.1.1.2,26,-0.030,-0.030,-0.030,0.000,0.000,0.000
1643293218334995968,2022-01-27-14:20:18,10.1.1.2,24,-0.020,-0.020,-0.020,0.000,0.000,0.000
1643293218538048000,2022-01-27-14:20:18,10.1.1.2,26,-0.010,-0.010,-0.010,0.000,0.000,0.000
1643293218716595968,2022-01-27-14:20:18,10.1.1.2,3,-0.001,-0.001,-0.001,0.000,0.000,0.000
1643293218935761920,2022-01-27-14:20:18,10.1.1.2,22,-0.010,-0.010,-0.010,0.000,0.000,0.000
1643293219157180928,2022-01-27-14:20:19,10.1.1.2,42,-0.021,-0.021,-0.021,0.000,0.000,0.000
1643293219336664832,2022-01-27-14:20:19,10.1.1.2,19,-0.030,-0.030,-0.030,0.000,0.000,0.000
1643293219556407808,2022-01-27-14:20:19,10.1.1.2,38,-0.041,-0.041,-0.041,0.000,0.000,0.000
1643293219755382016,2022-01-27-14:20:19,10.1.1.2,35,-0.051,-0.051,-0.051,0.000,0.000,0.000
1643293219955607040,2022-01-27-14:20:19,10.1.1.2,34,-0.061,-0.061,-0.061,0.000,0.000,0.000
1643293220155906816,2022-01-27-14:20:20,10.1.1.2,34,-0.071,-0.071,-0.071,0.000,0.000,0.000
1643293220355400960,2022-01-27-14:20:20,10.1.1.2,33,-0.080,-0.080,-0.080,0.000,0.000,0.000
1643293220555704064,2022-01-27-14:20:20,10.1.1.2,32,-0.090,-0.090,-0.090,0.000,0.000,0.000
1643293220756401152,2022-01-27-14:20:20,10.1.1.2,32,-0.100,-0.100,-0.100,0.000,0.000,0.000
1643293220956093952,2022-01-27-14:20:20,10.1.1.2,31,-0.110,-0.110,-0.110,0.000,0.000,0.000
1643293221155430912,2022-01-27-14:20:21,10.1.1.2,26,-0.120,-0.120,-0.120,0.000,0.000,0.000
1643293221355454976,2022-01-27-14:20:21,10.1.1.2,26,-0.130,-0.130,-0.130,0.000,0.000,0.000
1643293221556459008,2022-01-27-14:20:21,10.1.1.2,26,-0.140,-0.140,-0.140,0.000,0.000,0.000
1643293221755450880,2022-01-27-14:20:21,10.1.1.2,24,-0.150,-0.150,-0.150,0.000,0.000,0.000
1643293221955243008,2022-01-27-14:20:21,10.1.1.2,23,-0.160,-0.160,-0.160,0.000,0.000,0.000
1643293222155326976,2022-01-27-14:20:22,10.1.1.2,21,-0.170,-0.170,-0.170,0.000,0.000,0.000
1643293222376022016,2022-01-27-14:20:22,10.1.1.2,39,-0.181,-0.181,-0.181,0.000,0.000,0.000
1643293222575567872,2022-01-27-14:20:22,10.1.1.2,38,-0.191,-0.191,-0.191,0.000,0.000,0.000
1643293222775144960,2022-01-27-14:20:22,10.1.1.2,37,-0.201,-0.201,-0.201,0.000,0.000,0.000
1643293222975586816,2022-01-27-14:20:22,10.1.1.2,37,-0.211,-0.211,-0.211,0.000,0.000,0.000
1643293223178694912,2022-01-27-14:20:23,10.1.1.2,39,-0.221,-0.221,-0.221,0.000,0.000,0.000
1643293223375778048,2022-01-27-14:20:23,10.1.1.2,34,-0.231,-0.231,-0.231,0.000,0.000,0.000
1643293223575647232,2022-01-27-14:20:23,10.1.1.2,33,-0.241,-0.241,-0.241,0.000,0.000,0.000
1643293223776118016,2022-01-27-14:20:23,10.1.1.2,32,-0.251,-0.251,-0.251,0.000,0.000,0.000
1643293223975058176,2022-01-27-14:20:23,10.1.1.2,29,-0.260,-0.260,-0.260,0.000,0.000,0.000
1643293224175968000,2022-01-27-14:20:24,10.1.1.2,29,-0.271,-0.271,-0.271,0.000,0.000,0.000
1643293224375656960,2022-01-27-14:20:24,10.1.1.2,28,-0.280,-0.280,-0.280,0.000,0.000,0.000
1643293224575238912,2022-01-27-14:20:24,10.1.1.2,27,-0.290,-0.290,-0.290,0.000,0.000,0.000
1643293224775266048,2022-01-27-14:20:24,10.1.1.2,26,-0.300,-0.300,-0.300,0.000,0.000,0.000
1643293224975819008,2022-01-27-14:20:24,10.1.1.2,26,-0.310,-0.310,-0.310,0.000,0.000,0.000
1643293225176243968,2022-01-27-14:20:25,10.1.1.2,25,-0.320,-0.320,-0.320,0.000,0.000,0.000
1643293225377047040,2022-01-27-14:20:25,10.1.1.2,25,-0.330,-0.330,-0.330,0.000,0.000,0.000
1643293225575907072,2022-01-27-14:20:25,10.1.1.2,23,-0.340,-0.340,-0.340,0.000,0.000,0.000
1643293225775393024,2022-01-27-14:20:25,10.1.1.2,22,-0.350,-0.350,-0.350,0.000,0.000,0.000
1643293225975457024,2022-01-27-14:20:25,10.1.1.2,21,-0.360,-0.360,-0.360,0.000,0.000,0.000
1643293226176471040,2022-01-27-14:20:26,10.1.1.2,22,-0.370,-0.370,-0.370,0.000,0.000,0.000
1643293226376753920,2022-01-27-14:20:26,10.1.1.2,21,-0.380,-0.380,-0.380,0.000,0.000,0.000
1643293226575505920,2022-01-27-14:20:26,10.1.1.2,19,-0.390,-0.390,-0.390,0.000,0.000,0.000
1643293226776781056,2022-01-27-14:20:26,10.1.1.2,19,-0.400,-0.400,-0.400,0.000,0.000,0.000
1643293226975372032,2022-01-27-14:20:26,10.1.1.2,17,-0.410,-0.410,-0.410,0.000,0.000,0.000
1643293227195034112,2022-01-27-14:20:27,10.1.1.2,37,-0.421,-0.421,-0.421,0.000,0.000,0.000
1643293227395526912,2022-01-27-14:20:27,10.1.1.2,37,-0.431,-0.431,-0.431,0.000,0.000,0.000
1643293227594944000,2022-01-27-14:20:27,10.1.1.2,36,-0.441,-0.441,-0.441,0.000,0.000,0.000
1643293227795505152,2022-01-27-14:20:27,10.1.1.2,35,-0.451,-0.451,-0.451,0.000,0.000,0.000
1643293227995238912,2022-01-27-14:20:27,10.1.1.2,34,-0.461,-0.461,-0.461,0.000,0.000,0.000
1643293228195080960,2022-01-27-14:20:28,10.1.1.2,33,-0.471,-0.471,-0.471,0.000,0.000,0.000
1643293228395549952,2022-01-27-14:20:28,10.1.1.2,33,-0.480,-0.480,-0.480,0.000,0.000,0.000
1643293228575334912,2022-01-27-14:20:28,10.1.1.2,12,-0.490,-0.490,-0.490,0.000,0.000,0.000
1643293228795447040,2022-01-27-14:20:28,10.1.1.2,31,-0.479,-0.479,-0.479,0.000,0.000,0.000
1643293228995033856,2022-01-27-14:20:28,10.1.1.2,28,-0.470,-0.470,-0.470,0.000,0.000,0.000
1643293229195027968,2022-01-27-14:20:29,10.1.1.2,28,-0.460,-0.460,-0.460,0.000,0.000,0.000
1643293229395435008,2022-01-27-14:20:29,10.1.1.2,27,-0.450,-0.450,-0.450,0.000,0.000,0.000
1643293229594863872,2022-01-27-14:20:29,10.1.1.2,26,-0.440,-0.440,-0.440,0.000,0.000,0.000
1643293229795671040,2022-01-27-14:20:29,10.1.1.2,26,-0.430,-0.430,-0.430,0.000,0.000,0.000
1643293229995096064,2022-01-27-14:20:29,10.1.1.2,24,-0.420,-0.420,-0.420,0.000,0.000,0.000
1643293230194777088,2022-01-27-14:20:30,10.1.1.2,23,-0.410,-0.410,-0.410,0.000,0.000,0.000
1643293230395000064,2022-01-27-14:20:30,10.1.1.2,23,-0.400,-0.400,-0.400,0.000,0.000,0.000
1643293230594945792,2022-01-27-14:20:30,10.1.1.2,22,-0.390,-0.390,-0.390,0.000,0.000,0.000
1643293230815033856,2022-01-27-14:20:30,10.1.1.2,40,-0.379,-0.379,-0.379,0.000,0.000,0.000
1643293230995922176,2022-01-27-14:20:30,10.1.1.2,20,-0.370,-0.370,-0.370,0.000,0.000,0.000
1643293231195104000,2022-01-27-14:20:31,10.1.1.2,19,-0.360,-0.360,-0.360,0.000,0.000,0.000
1643293231394978048,2022-01-27-14:20:31,10.1.1.2,18,-0.350,-0.350,-0.350,0.000,0.000,0.000
1643293231615330816,2022-01-27-14:20:31,10.1.1.2,38,-0.339,-0.339,-0.339,0.000,0.000,0.000
1643293231814980096,2022-01-27-14:20:31,10.1.1.2,37,-0.329,-0.329,-0.329,0.000,0.000,0.000
1643293232015394048,2022-01-27-14:20:32,10.1.1.2,36,-0.319,-0.319,-0.319,0.000,0.000,0.000
1643293232215287040,2022-01-27-14:20:32,10.1.1.2,36,-0.309,-0.309,-0.309,0.000,0.000,0.000
1643293232414892800,2022-01-27-14:20:32,10.1.1.2,34,-0.299,-0.299,-0.299,0.000,0.000,0.000
1643293232615723008,2022-01-27-14:20:32,10.1.1.2,34,-0.289,-0.289,-0.289,0.000,0.000,0.000
1643293232815287040,2022-01-27-14:20:32,10.1.1.2,31,-0.279,-0.279,-0.279,0.000,0.000,0.000
1643293233015026944,2022-01-27-14:20:33,10.1.1.2,29,-0.270,-0.270,-0.270,0.000,0.000,0.000
1643293233216193792,2022-01-27-14:20:33,10.1.1.2,30,-0.259,-0.259,-0.259,0.000,0.000,0.000
1643293233416166912,2022-01-27-14:20:33,10.1.1.2,29,-0.249,-0.249,-0.249,0.000,0.000,0.000
1643293233615677952,2022-01-27-14:20:33,10.1.1.2,28,-0.240,-0.240,-0.240,0.000,0.000,0.000
1643293233816144896,2022-01-27-14:20:33,10.1.1.2,28,-0.230,-0.230,-0.230,0.000,0.000,0.000
1643293234015768064,2022-01-27-14:20:34,10.1.1.2,27,-0.220,-0.220,-0.220,0.000,0.000,0.000
1643293234215792896,2022-01-27-14:20:34,10.1.1.2,26,-0.210,-0.210,-0.210,0.000,0.000,0.000
1643293234415185920,2022-01-27-14:20:34,10.1.1.2,25,-0.200,-0.200,-0.200,0.000,0.000,0.000
1643293234615467008,2022-01-27-14:20:34,10.1.1.2,25,-0.190,-0.190,-0.190,0.000,0.000,0.000
1643293234815638016,2022-01-27-14:20:34,10.1.1.2,24,-0.180,-0.180,-0.180,0.000,0.000,0.000
1643293235015990016,2022-01-27-14:20:35,10.1.1.2,24,-0.170,-0.170,-0.170,0.000,0.000,0.000
1643293235215301888,2022-01-27-14:20:35,10.1.1.2,23,-0.160,-0.160,-0.160,0.000,0.000,0.000
1643293235414949888,2022-01-27-14:20:35,10.1.1.2,22,-0.150,-0.150,-0.150,0.000,0.000,0.000
1643293235616334080,2022-01-27-14:20:35,10.1.1.2,22,-0.140,-0.140,-0.140,0.000,0.000,0.000
1643293235815565056,2022-01-27-14:20:35,10.1.1.2,21,-0.130,-0.130,-0.130,0.000,0.000,0.000
1643293236015321856,2022-01-27-14:20:36,10.1.1.2,20,-0.120,-0.120,-0.120,0.000,0.000,0.000
1643293236216100864,2022-01-27-14:20:36,10.1.1.2,20,-0.110,-0.110,-0.110,0.000,0.000,0.000
1643293236415813888,2022-01-27-14:20:36,10.1.1.2,19,-0.100,-0.100,-0.100,0.000,0.000,0.000
1643293236615723008,2022-01-27-14:20:36,10.1.1.2,19,-0.090,-0.090,-0.090,0.000,0.000,0.000
1643293236815661824,2022-01-27-14:20:36,10.1.1.2,18,-0.080,-0.080,-0.080,0.000,0.000,0.000
1643293237035685120,2022-01-27-14:20:37,10.1.1.2,38,-0.069,-0.069,-0.069,0.000,0.000,0.000
1643293237235405056,2022-01-27-14:20:37,10.1.1.2,37,-0.059,-0.059,-0.059,0.000,0.000,0.000
1643293237435371008,2022-01-27-14:20:37,10.1.1.2,36,-0.049,-0.049,-0.049,0.000,0.000,0.000
1643293237635560960,2022-01-27-14:20:37,10.1.1.2,36,-0.039,-0.039,-0.039,0.000,0.000,0.000
1643293237837364992,2022-01-27-14:20:37,10.1.1.2,37,-0.029,-0.029,-0.029,0.000,0.000,0.000
1643293238035504128,2022-01-27-14:20:38,10.1.1.2,35,-0.019,-0.019,-0.019,0.000,0.000,0.000
1643293238236460032,2022-01-27-14:20:38,10.1.1.2,34,-0.009,-0.009,-0.009,0.000,0.000,0.000
1643293238416084992,2022-01-27-14:20:38,10.1.1.2,13,-0.000,-0.000,-0.000,0.000,0.000,0.000
1643293238635611904,2022-01-27-14:20:38,10.1.1.2,32,-0.011,-0.011,-0.011,0.000,0.000,0.000
1643293238836247808,2022-01-27-14:20:38,10.1.1.2,32,-0.021,-0.021,-0.021,0.000,0.000,0.000
1643293239035928064,2022-01-27-14:20:39,10.1.1.2,30,-0.031,-0.031,-0.031,0.000,0.000,0.000
1643293239235888128,2022-01-27-14:20:39,10.1.1.2,29,-0.040,-0.040,-0.040,0.000,0.000,0.000
1643293239435918080,2022-01-27-14:20:39,10.1.1.2,28,-0.051,-0.051,-0.051,0.000,0.000,0.000
1643293239635635968,2022-01-27-14:20:39,10.1.1.2,28,-0.060,-0.060,-0.060,0.000,0.000,0.000
1643293239836178944,2022-01-27-14:20:39,10.1.1.2,27,-0.070,-0.070,-0.070,0.000,0.000,0.000
1643293240035716096,2022-01-27-14:20:40,10.1.1.2,26,-0.080,-0.080,-0.080,0.000,0.000,0.000
1643293240235522048,2022-01-27-14:20:40,10.1.1.2,24,-0.090,-0.090,-0.090,0.000,0.000,0.000
1643293240435928064,2022-01-27-14:20:40,10.1.1.2,24,-0.100,-0.100,-0.100,0.000,0.000,0.000
1643293240635260160,2022-01-27-14:20:40,10.1.1.2,22,-0.110,-0.110,-0.110,0.000,0.000,0.000
1643293240836478976,2022-01-27-14:20:40,10.1.1.2,23,-0.120,-0.120,-0.120,0.000,0.000,0.000
1643293241035943936,2022-01-27-14:20:41,10.1.1.2,22,-0.130,-0.130,-0.130,0.000,0.000,0.000
1643293241236599040,2022-01-27-14:20:41,10.1.1.2,22,-0.140,-0.140,-0.140,0.000,0.000,0.000
1643293241436400896,2022-01-27-14:20:41,10.1.1.2,21,-0.150,-0.150,-0.150,0.000,0.000,0.000
1643293241636135936,2022-01-27-14:20:41,10.1.1.2,20,-0.160,-0.160,-0.160,0.000,0.000,0.000
1643293241855948800,2022-01-27-14:20:41,10.1.1.2,39,-0.171,-0.171,-0.171,0.000,0.000,0.000
1643293242037015040,2022-01-27-14:20:42,10.1.1.2,19,-0.180,-0.180,-0.180,0.000,0.000,0.000
1643293242255762944,2022-01-27-14:20:42,10.1.1.2,38,-0.191,-0.191,-0.191,0.000,0.000,0.000
1643293242455276032,2022-01-27-14:20:42,10.1.1.2,37,-0.201,-0.201,-0.201,0.000,0.000,0.000
1643293242655302144,2022-01-27-14:20:42,10.1.1.2,36,-0.211,-0.211,-0.211,0.000,0.000,0.000
1643293242855613952,2022-01-27-14:20:42,10.1.1.2,35,-0.221,-0.221,-0.221,0.000,0.000,0.000
1643293243055485952,2022-01-27-14:20:43,10.1.1.2,35,-0.231,-0.231,-0.231,0.000,0.000,0.000
1643293243255559936,2022-01-27-14:20:43,10.1.1.2,34,-0.241,-0.241,-0.241,0.000,0.000,0.000
1643293243456044032,2022-01-27-14:20:43,10.1.1.2,34,-0.251,-0.251,-0.251,0.000,0.000,0.000
1643293243655776000,2022-01-27-14:20:43,10.1.1.2,33,-0.261,-0.261,-0.261,0.000,0.000,0.000
1643293243856004864,2022-01-27-14:20:43,10.1.1.2,32,-0.271,-0.271,-0.271,0.000,0.000,0.000
1643293244055254016,2022-01-27-14:20:44,10.1.1.2,31,-0.280,-0.280,-0.280,0.000,0.000,0.000
1643293244255729920,2022-01-27-14:20:44,10.1.1.2,30,-0.291,-0.291,-0.291,0.000,0.000,0.000
1643293244455161088,2022-01-27-14:20:44,10.1.1.2,29,-0.301,-0.301,-0.301,0.000,0.000,0.000
1643293244655560960,2022-01-27-14:20:44,10.1.1.2,28,-0.310,-0.310,-0.310,0.000,0.000,0.000
1643293244854956032,2022-01-27-14:20:44,10.1.1.2,27,-0.320,-0.320,-0.320,0.000,0.000,0.000
1643293245054841088,2022-01-27-14:20:45,10.1.1.2,26,-0.330,-0.330,-0.330,0.000,0.000,0.000
1643293245255192064,2022-01-27-14:20:45,10.1.1.2,26,-0.340,-0.340,-0.340,0.000,0.000,0.000
1643293245455262976,2022-01-27-14:20:45,10.1.1.2,25,-0.350,-0.350,-0.350,0.000,0.000,0.000
1643293245655356928,2022-01-27-14:20:45,10.1.1.2,25,-0.360,-0.360,-0.360,0.000,0.000,0.000
1643293245855276032,2022-01-27-14:20:45,10.1.1.2,23,-0.370,-0.370,-0.370,0.000,0.000,0.000
1643293246054876928,2022-01-27-14:20:46,10.1.1.2,22,-0.380,-0.380,-0.380,0.000,0.000,0.000
1643293246255883008,2022-01-27-14:20:46,10.1.1.2,22,-0.390,-0.390,-0.390,0.000,0.000,0.000
1643293246454909184,2022-01-27-14:20:46,10.1.1.2,20,-0.400,-0.400,-0.400,0.000,0.000,0.000
1643293246655150848,2022-01-27-14:20:46,10.1.1.2,20,-0.410,-0.410,-0.410,0.000,0.000,0.000
1643293246855144960,2022-01-27-14:20:46,10.1.1.2,19,-0.420,-0.420,-0.420,0.000,0.000,0.000
1643293247055587072,2022-01-27-14:20:47,10.1.1.2,19,-0.430,-0.430,-0.430,0.000,0.000,0.000
1643293247275387136,2022-01-27-14:20:47,10.1.1.2,38,-0.441,-0.441,-0.441,0.000,0.000,0.000
1643293247455043072,2022-01-27-14:20:47,10.1.1.2,17,-0.450,-0.450,-0.450,0.000,0.000,0.000
1643293247675985152,2022-01-27-14:20:47,10.1.1.2,38,-0.461,-0.461,-0.461,0.000,0.000,0.000
1643293247875174912,2022-01-27-14:20:47,10.1.1.2,36,-0.471,-0.471,-0.471,0.000,0.000,0.000
1643293248074919936,2022-01-27-14:20:48,10.1.1.2,35,-0.481,-0.481,-0.481,0.000,0.000,0.000
1643293248255713024,2022-01-27-14:20:48,10.1.1.2,15,-0.490,-0.490,-0.490,0.000,0.000,0.000
1643293248474737920,2022-01-27-14:20:48,10.1.1.2,34,-0.479,-0.479,-0.479,0.000,0.000,0.000
1643293248675045120,2022-01-27-14:20:48,10.1.1.2,34,-0.469,-0.469,-0.469,0.000,0.000,0.000
1643293248874708992,2022-01-27-14:20:48,10.1.1.2,32,-0.459,-0.459,-0.459,0.000,0.000,0.000
1643293249075293184,2022-01-27-14:20:49,10.1.1.2,32,-0.449,-0.449,-0.449,0.000,0.000,0.000
1643293249275094016,2022-01-27-14:20:49,10.1.1.2,31,-0.439,-0.439,-0.439,0.000,0.000,0.000
1643293249475400960,2022-01-27-14:20:49,10.1.1.2,29,-0.430,-0.430,-0.430,0.000,0.000,0.000
1643293249675169024,2022-01-27-14:20:49,10.1.1.2,28,-0.419,-0.419,-0.419,0.000,0.000,0.000
1643293249874790912,2022-01-27-14:20:49,10.1.1.2,28,-0.410,-0.410,-0.410,0.000,0.000,0.000
1643293250077594880,2022-01-27-14:20:50,10.1.1.2,29,-0.400,-0.400,-0.400,0.000,0.000,0.000
1643293250275286016,2022-01-27-14:20:50,10.1.1.2,26,-0.390,-0.390,-0.390,0.000,0.000,0.000
1643293250474950912,2022-01-27-14:20:50,10.1.1.2,25,-0.380,-0.380,-0.380,0.000,0.000,0.000
1643293250675195904,2022-01-27-14:20:50,10.1.1.2,24,-0.370,-0.370,-0.370,0.000,0.000,0.000
1643293250876058112,2022-01-27-14:20:50,10.1.1.2,25,-0.360,-0.360,-0.360,0.000,0.000,0.000
1643293251075448064,2022-01-27-14:20:51,10.1.1.2,23,-0.350,-0.350,-0.350,0.000,0.000,0.000
1643293251275707904,2022-01-27-14:20:51,10.1.1.2,23,-0.340,-0.340,-0.340,0.000,0.000,0.000
1643293251495677952,2022-01-27-14:20:51,10.1.1.2,42,-0.329,-0.329,-0.329,0.000,0.000,0.000
1643293251675187968,2022-01-27-14:20:51,10.1.1.2,21,-0.320,-0.320,-0.320,0.000,0.000,0.000
1643293251875601920,2022-01-27-14:20:51,10.1.1.2,19,-0.310,-0.310,-0.310,0.000,0.000,0.000
1643293252075479040,2022-01-27-14:20:52,10.1.1.2,19,-0.300,-0.300,-0.300,0.000,0.000,0.000
1643293252275689984,2022-01-27-14:20:52,10.1.1.2,19,-0.290,-0.290,-0.290,0.000,0.000,0.000
1643293252475380992,2022-01-27-14:20:52,10.1.1.2,18,-0.280,-0.280,-0.280,0.000,0.000,0.000
1643293252695728896,2022-01-27-14:20:52,10.1.1.2,38,-0.269,-0.269,-0.269,0.000,0.000,0.000
1643293252895697152,2022-01-27-14:20:52,10.1.1.2,37,-0.259,-0.259,-0.259,0.000,0.000,0.000
1643293253095469056,2022-01-27-14:20:53,10.1.1.2,37,-0.249,-0.249,-0.249,0.000,0.000,0.000
1643293253295932160,2022-01-27-14:20:53,10.1.1.2,37,-0.239,-0.239,-0.239,0.000,0.000,0.000
1643293253496382976,2022-01-27-14:20:53,10.1.1.2,36,-0.229,-0.229,-0.229,0.000,0.000,0.000
1643293253695354880,2022-01-27-14:20:53,10.1.1.2,34,-0.219,-0.219,-0.219,0.000,0.000,0.000
1643293253896167936,2022-01-27-14:20:53,10.1.1.2,34,-0.209,-0.209,-0.209,0.000,0.000,0.000
1643293254097060864,2022-01-27-14:20:54,10.1.1.2,33,-0.199,-0.199,-0.199,0.000,0.000,0.000
1643293254295793152,2022-01-27-14:20:54,10.1.1.2,29,-0.190,-0.190,-0.190,0.000,0.000,0.000
1643293254495512064,2022-01-27-14:20:54,10.1.1.2,26,-0.180,-0.180,-0.180,0.000,0.000,0.000
1643293254695246848,2022-01-27-14:20:54,10.1.1.2,25,-0.170,-0.170,-0.170,0.000,0.000,0.000
1643293254895648000,2022-01-27-14:20:54,10.1.1.2,24,-0.160,-0.160,-0.160,0.000,0.000,0.000
1643293255095944960,2022-01-27-14:20:55,10.1.1.2,24,-0.150,-0.150,-0.150,0.000,0.000,0.000
1643293255295619840,2022-01-27-14:20:55,10.1.1.2,23,-0.140,-0.140,-0.140,0.000,0.000,0.000
1643293255496470016,2022-01-27-14:20:55,10.1.1.2,23,-0.130,-0.130,-0.130,0.000,0.000,0.000
1643293255695646976,2022-01-27-14:20:55,10.1.1.2,21,-0.120,-0.120,-0.120,0.000,0.000,0.000
1643293255895664896,2022-01-27-14:20:55,10.1.1.2,19,-0.110,-0.110,-0.110,0.000,0.000,0.000
1643293256116019968,2022-01-27-14:20:56,10.1.1.2,38,-0.099,-0.099,-0.099,0.000,0.000,0.000
1643293256296056064,2022-01-27-14:20:56,10.1.1.2,18,-0.090,-0.090,-0.090,0.000,0.000,0.000
1643293256515428096,2022-01-27-14:20:56,10.1.1.2,36,-0.079,-0.079,-0.079,0.000,0.000,0.000
1643293256716528896,2022-01-27-14:20:56,10.1.1.2,37,-0.069,-0.069,-0.069,0.000,0.000,0.000
1643293256915628032,2022-01-27-14:20:56,10.1.1.2,35,-0.059,-0.059,-0.059,0.000,0.000,0.000
1643293257116164096,2022-01-27-14:20:57,10.1.1.2,35,-0.049,-0.049,-0.049,0.000,0.000,0.000
1643293257315699968,2022-01-27-14:20:57,10.1.1.2,34,-0.039,-0.039,-0.039,0.000,0.000,0.000
1643293257516320000,2022-01-27-14:20:57,10.1.1.2,33,-0.030,-0.030,-0.030,0.000,0.000,0.000
1643293257717033984,2022-01-27-14:20:57,10.1.1.2,31,-0.020,-0.020,-0.020,0.000,0.000,0.000
1643293257917833984,2022-01-27-14:20:57,10.1.1.2,29,-0.010,-0.010,-0.010,0.000,0.000,0.000
1643293258096726016,2022-01-27-14:20:58,10.1.1.2,7,-0.001,-0.001,-0.001,0.000,0.000,0.000
1643293258316356864,2022-01-27-14:20:58,10.1.1.2,23,-0.010,-0.010,-0.010,0.000,0.000,0.000
1643293258516217856,2022-01-27-14:20:58,10.1.1.2,23,-0.020,-0.020,-0.020,0.000,0.000,0.000
1643293258715676160,2022-01-27-14:20:58,10.1.1.2,21,-0.030,-0.030,-0.030,0.000,0.000,0.000
1643293258916135168,2022-01-27-14:20:58,10.1.1.2,21,-0.040,-0.040,-0.040,0.000,0.000,0.000
1643293259116729088,2022-01-27-14:20:59,10.1.1.2,21,-0.050,-0.050,-0.050,0.000,0.000,0.000
1643293259315870976,2022-01-27-14:20:59,10.1.1.2,20,-0.060,-0.060,-0.060,0.000,0.000,0.000
1643293259515596032,2022-01-27-14:20:59,10.1.1.2,19,-0.070,-0.070,-0.070,0.000,0.000,0.000
1643293259716649984,2022-01-27-14:20:59,10.1.1.2,19,-0.080,-0.080,-0.080,0.000,0.000,0.000
1643293259936999168,2022-01-27-14:20:59,10.1.1.2,39,-0.091,-0.091,-0.091,0.000,0.000,0.000
1643293260135621120,2022-01-27-14:21:00,10.1.1.2,37,-0.101,-0.101,-0.101,0.000,0.000,0.000
1643293260336694016,2022-01-27-14:21:00,10.1.1.2,36,-0.111,-0.111,-0.111,0.000,0.000,0.000
1643293260535867904,2022-01-27-14:21:00,10.1.1.2,34,-0.121,-0.121,-0.121,0.000,0.000,0.000
1643293260735730944,2022-01-27-14:21:00,10.1.1.2,32,-0.131,-0.131,-0.131,0.000,0.000,0.000
1643293260935988992,2022-01-27-14:21:00,10.1.1.2,31,-0.140,-0.140,-0.140,0.000,0.000,0.000
1643293261135484928,2022-01-27-14:21:01,10.1.1.2,28,-0.151,-0.151,-0.151,0.000,0.000,0.000
1643293261336622848,2022-01-27-14:21:01,10.1.1.2,28,-0.160,-0.160,-0.160,0.000,0.000,0.000
1643293261556567040,2022-01-27-14:21:01,10.1.1.2,47,-0.171,-0.171,-0.171,0.000,0.000,0.000
1643293261736677888,2022-01-27-14:21:01,10.1.1.2,27,-0.180,-0.180,-0.180,0.000,0.000,0.000
1643293261935458048,2022-01-27-14:21:01,10.1.1.2,24,-0.190,-0.190,-0.190,0.000,0.000,0.000
1643293262136871168,2022-01-27-14:21:02,10.1.1.2,24,-0.200,-0.200,-0.200,0.000,0.000,0.000
1643293262336052992,2022-01-27-14:21:02,10.1.1.2,22,-0.210,-0.210,-0.210,0.000,0.000,0.000
1643293262536493056,2022-01-27-14:21:02,10.1.1.2,21,-0.220,-0.220,-0.220,0.000,0.000,0.000
1643293262735929856,2022-01-27-14:21:02,10.1.1.2,19,-0.230,-0.230,-0.230,0.000,0.000,0.000
1643293262935076864,2022-01-27-14:21:02,10.1.1.2,18,-0.240,-0.240,-0.240,0.000,0.000,0.000
1643293263156033024,2022-01-27-14:21:03,10.1.1.2,37,-0.251,-0.251,-0.251,0.000,0.000,0.000
1643293263355475968,2022-01-27-14:21:03,10.1.1.2,36,-0.261,-0.261,-0.261,0.000,0.000,0.000
1643293263555098112,2022-01-27-14:21:03,10.1.1.2,35,-0.271,-0.271,-0.271,0.000,0.000,0.000
1643293263755507968,2022-01-27-14:21:03,10.1.1.2,35,-0.281,-0.281,-0.281,0.000,0.000,0.000
1643293263956037888,2022-01-27-14:21:03,10.1.1.2,34,-0.291,-0.291,-0.291,0.000,0.000,0.000
1643293264155672064,2022-01-27-14:21:04,10.1.1.2,32,-0.301,-0.301,-0.301,0.000,0.000,0.000
1643293264355976960,2022-01-27-14:21:04,10.1.1.2,32,-0.311,-0.311,-0.311,0.000,0.000,0.000
1643293264555881984,2022-01-27-14:21:04,10.1.1.2,29,-0.320,-0.320,-0.320,0.000,0.000,0.000
1643293264755996928,2022-01-27-14:21:04,10.1.1.2,28,-0.330,-0.330,-0.330,0.000,0.000,0.000
1643293264956442112,2022-01-27-14:21:04,10.1.1.2,27,-0.340,-0.340,-0.340,0.000,0.000,0.000
1643293265156457984,2022-01-27-14:21:05,10.1.1.2,26,-0.350,-0.350,-0.350,0.000,0.000,0.000
1643293265356212992,2022-01-27-14:21:05,10.1.1.2,25,-0.360,-0.360,-0.360,0.000,0.000,0.000
1643293265555824128,2022-01-27-14:21:05,10.1.1.2,24,-0.370,-0.370,-0.370,0.000,0.000,0.000
1643293265755719936,2022-01-27-14:21:05,10.1.1.2,22,-0.380,-0.380,-0.380,0.000,0.000,0.000
1643293265976948992,2022-01-27-14:21:05,10.1.1.2,41,-0.391,-0.391,-0.391,0.000,0.000,0.000
1643293266176506880,2022-01-27-14:21:06,10.1.1.2,39,-0.401,-0.401,-0.401,0.000,0.000,0.000
1643293266376915968,2022-01-27-14:21:06,10.1.1.2,38,-0.411,-0.411,-0.411,0.000,0.000,0.000
1643293266578063872,2022-01-27-14:21:06,10.1.1.2,37,-0.421,-0.421,-0.421,0.000,0.000,0.000
1643293266775937024,2022-01-27-14:21:06,10.1.1.2,36,-0.431,-0.431,-0.431,0.000,0.000,0.000
1643293266976197120,2022-01-27-14:21:06,10.1.1.2,35,-0.441,-0.441,-0.441,0.000,0.000,0.000
1643293267177381888,2022-01-27-14:21:07,10.1.1.2,36,-0.451,-0.451,-0.451,0.000,0.000,0.000
1643293267375847168,2022-01-27-14:21:07,10.1.1.2,34,-0.461,-0.461,-0.461,0.000,0.000,0.000
1643293267576499968,2022-01-27-14:21:07,10.1.1.2,34,-0.470,-0.470,-0.470,0.000,0.000,0.000
1643293267776019968,2022-01-27-14:21:07,10.1.1.2,32,-0.481,-0.481,-0.481,0.000,0.000,0.000
1643293267956367104,2022-01-27-14:21:07,10.1.1.2,10,-0.490,-0.490,-0.490,0.000,0.000,0.000
1643293268175895808,2022-01-27-14:21:08,10.1.1.2,28,-0.480,-0.480,-0.480,0.000,0.000,0.000
1643293268376472064,2022-01-27-14:21:08,10.1.1.2,28,-0.470,-0.470,-0.470,0.000,0.000,0.000
1643293268576532992,2022-01-27-14:21:08,10.1.1.2,27,-0.460,-0.460,-0.460,0.000,0.000,0.000
1643293268776588032,2022-01-27-14:21:08,10.1.1.2,26,-0.450,-0.450,-0.450,0.000,0.000,0.000
1643293268976135936,2022-01-27-14:21:08,10.1.1.2,25,-0.440,-0.440,-0.440,0.000,0.000,0.000
1643293269176192000,2022-01-27-14:21:09,10.1.1.2,24,-0.430,-0.430,-0.430,0.000,0.000,0.000
1643293269375879168,2022-01-27-14:21:09,10.1.1.2,23,-0.420,-0.420,-0.420,0.000,0.000,0.000
1643293269576692992,2022-01-27-14:21:09,10.1.1.2,22,-0.410,-0.410,-0.410,0.000,0.000,0.000
1643293269775898880,2022-01-27-14:21:09,10.1.1.2,20,-0.400,-0.400,-0.400,0.000,0.000,0.000
1643293269996912128,2022-01-27-14:21:09,10.1.1.2,39,-0.389,-0.389,-0.389,0.000,0.000,0.000
1643293270195993856,2022-01-27-14:21:10,10.1.1.2,37,-0.379,-0.379,-0.379,0.000,0.000,0.000
1643293270396614144,2022-01-27-14:21:10,10.1.1.2,37,-0.369,-0.369,-0.369,0.000,0.000,0.000
1643293270596345856,2022-01-27-14:21:10,10.1.1.2,36,-0.359,-0.359,-0.359,0.000,0.000,0.000
1643293270795663104,2022-01-27-14:21:10,10.1.1.2,35,-0.349,-0.349,-0.349,0.000,0.000,0.000
1643293270995333888,2022-01-27-14:21:10,10.1.1.2,34,-0.339,-0.339,-0.339,0.000,0.000,0.000
1643293271195902208,2022-01-27-14:21:11,10.1.1.2,34,-0.329,-0.329,-0.329,0.000,0.000,0.000
1643293271395983872,2022-01-27-14:21:11,10.1.1.2,33,-0.319,-0.319,-0.319,0.000,0.000,0.000
1643293271595755008,2022-01-27-14:21:11,10.1.1.2,32,-0.310,-0.310,-0.310,0.000,0.000,0.000
1643293271796640000,2022-01-27-14:21:11,10.1.1.2,31,-0.300,-0.300,-0.300,0.000,0.000,0.000
1643293271995950848,2022-01-27-14:21:11,10.1.1.2,29,-0.289,-0.289,-0.289,0.000,0.000,0.000
1643293272196350208,2022-01-27-14:21:12,10.1.1.2,24,-0.280,-0.280,-0.280,0.000,0.000,0.000
1643293272396702976,2022-01-27-14:21:12,10.1.1.2,23,-0.270,-0.270,-0.270,0.000,0.000,0.000
1643293272597632000,2022-01-27-14:21:12,10.1.1.2,24,-0.260,-0.260,-0.260,0.000,0.000,0.000
1643293272795880192,2022-01-27-14:21:12,10.1.1.2,20,-0.250,-0.250,-0.250,0.000,0.000,0.000
1643293272995840000,2022-01-27-14:21:12,10.1.1.2,19,-0.240,-0.240,-0.240,0.000,0.000,0.000
1643293273195741952,2022-01-27-14:21:13,10.1.1.2,18,-0.230,-0.230,-0.230,0.000,0.000,0.000
1643293273415770112,2022-01-27-14:21:13,10.1.1.2,38,-0.219,-0.219,-0.219,0.000,0.000,0.000
1643293273615963904,2022-01-27-14:21:13,10.1.1.2,37,-0.209,-0.209,-0.209,0.000,0.000,0.000
1643293273815671808,2022-01-27-14:21:13,10.1.1.2,35,-0.199,-0.199,-0.199,0.000,0.000,0.000
1643293274014946048,2022-01-27-14:21:14,10.1.1.2,34,-0.189,-0.189,-0.189,0.000,0.000,0.000
1643293274215643904,2022-01-27-14:21:14,10.1.1.2,34,-0.179,-0.179,-0.179,0.000,0.000,0.000
1643293274415716864,2022-01-27-14:21:14,10.1.1.2,33,-0.169,-0.169,-0.169,0.000,0.000,0.000
1643293274615348992,2022-01-27-14:21:14,10.1.1.2,32,-0.159,-0.159,-0.159,0.000,0.000,0.000
1643293274815604992,2022-01-27-14:21:14,10.1.1.2,31,-0.149,-0.149,-0.149,0.000,0.000,0.000
1643293275015961856,2022-01-27-14:21:15,10.1.1.2,30,-0.139,-0.139,-0.139,0.000,0.000,0.000
1643293275216023808,2022-01-27-14:21:15,10.1.1.2,29,-0.130,-0.130,-0.130,0.000,0.000,0.000
1643293275416668928,2022-01-27-14:21:15,10.1.1.2,30,-0.120,-0.120,-0.120,0.000,0.000,0.000
1643293275615453952,2022-01-27-14:21:15,10.1.1.2,28,-0.110,-0.110,-0.110,0.000,0.000,0.000
1643293275817022208,2022-01-27-14:21:15,10.1.1.2,29,-0.100,-0.100,-0.100,0.000,0.000,0.000
1643293276015044096,2022-01-27-14:21:16,10.1.1.2,26,-0.090,-0.090,-0.090,0.000,0.000,0.000
1643293276214932992,2022-01-27-14:21:16,10.1.1.2,25,-0.080,-0.080,-0.080,0.000,0.000,0.000
1643293276414850048,2022-01-27-14:21:16,10.1.1.2,25,-0.070,-0.070,-0.070,0.000,0.000,0.000
1643293276615396864,2022-01-27-14:21:16,10.1.1.2,25,-0.060,-0.060,-0.060,0.000,0.000,0.000
1643293276815373824,2022-01-27-14:21:16,10.1.1.2,25,-0.050,-0.050,-0.050,0.000,0.000,0.000
1643293277014941952,2022-01-27-14:21:17,10.1.1.2,24,-0.040,-0.040,-0.040,0.000,0.000,0.000
1643293277214976000,2022-01-27-14:21:17,10.1.1.2,23,-0.030,-0.030,-0.030,0.000,0.000,0.000
1643293277419003136,2022-01-27-14:21:17,10.1.1.2,27,-0.020,-0.020,-0.020,0.000,0.000,0.000
1643293277615113984,2022-01-27-14:21:17,10.1.1.2,22,-0.010,-0.010,-0.010,0.000,0.000,0.000
1643293277796134912,2022-01-27-14:21:17,10.1.1.2,2,-0.001,-0.001,-0.001,0.000,0.000,0.000
1643293278015115008,2022-01-27-14:21:18,10.1.1.2,21,-0.010,-0.010,-0.010,0.000,0.000,0.000
1643293278217776128,2022-01-27-14:21:18,10.1.1.2,23,-0.020,-0.020,-0.020,0.000,0.000,0.000
1643293278414853120,2022-01-27-14:21:18,10.1.1.2,19,-0.030,-0.030,-0.030,0.000,0.000,0.000
1643293278615430144,2022-01-27-14:21:18,10.1.1.2,19,-0.040,-0.040,-0.040,0.000,0.000,0.000
1643293278816095232,2022-01-27-14:21:18,10.1.1.2,19,-0.050,-0.050,-0.050,0.000,0.000,0.000
1643293279036288000,2022-01-27-14:21:19,10.1.1.2,38,-0.061,-0.061,-0.061,0.000,0.000,0.000
1643293279215947008,2022-01-27-14:21:19,10.1.1.2,17,-0.070,-0.070,-0.070,0.000,0.000,0.000
1643293279435681024,2022-01-27-14:21:19,10.1.1.2,37,-0.081,-0.081,-0.081,0.000,0.000,0.000
1643293279635936000,2022-01-27-14:21:19,10.1.1.2,36,-0.091,-0.091,-0.091,0.000,0.000,0.000
1643293279835511040,2022-01-27-14:21:19,10.1.1.2,35,-0.101,-0.101,-0.101,0.000,0.000,0.000
1643293280035670016,2022-01-27-14:21:20,10.1.1.2,35,-0.111,-0.111,-0.111,0.000,0.000,0.000
1643293280235797760,2022-01-27-14:21:20,10.1.1.2,35,-0.121,-0.121,-0.121,0.000,0.000,0.000
1643293280436193024,2022-01-27-14:21:20,10.1.1.2,35,-0.131,-0.131,-0.131,0.000,0.000,0.000
1643293280635601152,2022-01-27-14:21:20,10.1.1.2,33,-0.141,-0.141,-0.141,0.000,0.000,0.000
1643293280835525120,2022-01-27-14:21:20,10.1.1.2,33,-0.151,-0.151,-0.151,0.000,0.000,0.000
1643293281037388032,2022-01-27-14:21:21,10.1.1.2,34,-0.161,-0.161,-0.161,0.000,0.000,0.000
1643293281235757056,2022-01-27-14:21:21,10.1.1.2,32,-0.170,-0.170,-0.170,0.000,0.000,0.000
1643293281436503808,2022-01-27-14:21:21,10.1.1.2,32,-0.181,-0.181,-0.181,0.000,0.000,0.000
1643293281635736832,2022-01-27-14:21:21,10.1.1.2,31,-0.191,-0.191,-0.191,0.000,0.000,0.000
1643293281835688960,2022-01-27-14:21:21,10.1.1.2,30,-0.200,-0.200,-0.200,0.000,0.000,0.000
1643293282035276032,2022-01-27-14:21:22,10.1.1.2,29,-0.210,-0.210,-0.210,0.000,0.000,0.000
1643293282235923968,2022-01-27-14:21:22,10.1.1.2,29,-0.220,-0.220,-0.220,0.000,0.000,0.000
1643293282435698944,2022-01-27-14:21:22,10.1.1.2,28,-0.230,-0.230,-0.230,0.000,0.000,0.000
1643293282635528192,2022-01-27-14:21:22,10.1.1.2,27,-0.240,-0.240,-0.240,0.000,0.000,0.000
1643293282835681024,2022-01-27-14:21:22,10.1.1.2,26,-0.250,-0.250,-0.250,0.000,0.000,0.000
1643293283035715072,2022-01-27-14:21:23,10.1.1.2,25,-0.260,-0.260,-0.260,0.000,0.000,0.000
1643293283235816960,2022-01-27-14:21:23,10.1.1.2,25,-0.270,-0.270,-0.270,0.000,0.000,0.000
1643293283436691968,2022-01-27-14:21:23,10.1.1.2,25,-0.280,-0.280,-0.280,0.000,0.000,0.000
1643293283636414976,2022-01-27-14:21:23,10.1.1.2,24,-0.290,-0.290,-0.290,0.000,0.000,0.000
1643293283836299008,2022-01-27-14:21:23,10.1.1.2,23,-0.300,-0.300,-0.300,0.000,0.000,0.000
1643293284035772928,2022-01-27-14:21:24,10.1.1.2,22,-0.310,-0.310,-0.310,0.000,0.000,0.000
1643293284255577088,2022-01-27-14:21:24,10.1.1.2,41,-0.321,-0.321,-0.321,0.000,0.000,0.000
1643293284435821056,2022-01-27-14:21:24,10.1.1.2,21,-0.330,-0.330,-0.330,0.000,0.000,0.000
1643293284636160000,2022-01-27-14:21:24,10.1.1.2,20,-0.340,-0.340,-0.340,0.000,0.000,0.000
1643293284835931904,2022-01-27-14:21:24,10.1.1.2,19,-0.350,-0.350,-0.350,0.000,0.000,0.000
1643293285035433984,2022-01-27-14:21:25,10.1.1.2,18,-0.360,-0.360,-0.360,0.000,0.000,0.000
1643293285255348992,2022-01-27-14:21:25,10.1.1.2,37,-0.371,-0.371,-0.371,0.000,0.000,0.000
1643293285455254016,2022-01-27-14:21:25,10.1.1.2,36,-0.381,-0.381,-0.381,0.000,0.000,0.000
1643293285657114880,2022-01-27-14:21:25,10.1.1.2,37,-0.391,-0.391,-0.391,0.000,0.000,0.000
1643293285856311040,2022-01-27-14:21:25,10.1.1.2,36,-0.401,-0.401,-0.401,0.000,0.000,0.000
1643293286055953152,2022-01-27-14:21:26,10.1.1.2,35,-0.411,-0.411,-0.411,0.000,0.000,0.000
1643293286255575808,2022-01-27-14:21:26,10.1.1.2,34,-0.421,-0.421,-0.421,0.000,0.000,0.000
1643293286457801984,2022-01-27-14:21:26,10.1.1.2,35,-0.431,-0.431,-0.431,0.000,0.000,0.000
1643293286655700992,2022-01-27-14:21:26,10.1.1.2,31,-0.440,-0.440,-0.440,0.000,0.000,0.000
1643293286855003136,2022-01-27-14:21:26,10.1.1.2,28,-0.450,-0.450,-0.450,0.000,0.000,0.000
1643293287055473920,2022-01-27-14:21:27,10.1.1.2,27,-0.461,-0.461,-0.461,0.000,0.000,0.000
1643293287255728896,2022-01-27-14:21:27,10.1.1.2,27,-0.470,-0.470,-0.470,0.000,0.000,0.000
1643293287455641088,2022-01-27-14:21:27,10.1.1.2,26,-0.480,-0.480,-0.480,0.000,0.000,0.000
1643293287635565056,2022-01-27-14:21:27,10.1.1.2,6,-0.489,-0.489,-0.489,0.000,0.000,0.000
1643293287855811072,2022-01-27-14:21:27,10.1.1.2,25,-0.480,-0.480,-0.480,0.000,0.000,0.000
1643293288055959040,2022-01-27-14:21:28,10.1.1.2,25,-0.470,-0.470,-0.470,0.000,0.000,0.000
1643293288255121920,2022-01-27-14:21:28,10.1.1.2,24,-0.460,-0.460,-0.460,0.000,0.000,0.000
1643293288455857920,2022-01-27-14:21:28,10.1.1.2,24,-0.450,-0.450,-0.450,0.000,0.000,0.000
1643293288656546048,2022-01-27-14:21:28,10.1.1.2,24,-0.440,-0.440,-0.440,0.000,0.000,0.000
1643293288856146944,2022-01-27-14:21:28,10.1.1.2,24,-0.430,-0.430,-0.430,0.000,0.000,0.000
1643293289076124928,2022-01-27-14:21:29,10.1.1.2,43,-0.419,-0.419,-0.419,0.000,0.000,0.000
1643293289275481088,2022-01-27-14:21:29,10.1.1.2,41,-0.409,-0.409,-0.409,0.000,0.000,0.000
1643293289458530816,2022-01-27-14:21:29,10.1.1.2,23,-0.400,-0.400,-0.400,0.000,0.000,0.000
1643293289655682048,2022-01-27-14:21:29,10.1.1.2,20,-0.390,-0.390,-0.390,0.000,0.000,0.000
1643293289856012032,2022-01-27-14:21:29,10.1.1.2,19,-0.380,-0.380,-0.380,0.000,0.000,0.000
1643293290055772928,2022-01-27-14:21:30,10.1.1.2,18,-0.370,-0.370,-0.370,0.000,0.000,0.000
1643293290255772160,2022-01-27-14:21:30,10.1.1.2,18,-0.360,-0.360,-0.360,0.000,0.000,0.000
1643293290455846144,2022-01-27-14:21:30,10.1.1.2,17,-0.350,-0.350,-0.350,0.000,0.000,0.000
1643293290675593984,2022-01-27-14:21:30,10.1.1.2,36,-0.339,-0.339,-0.339,0.000,0.000,0.000
1643293290875927040,2022-01-27-14:21:30,10.1.1.2,36,-0.329,-0.329,-0.329,0.000,0.000,0.000
1643293291075504128,2022-01-27-14:21:31,10.1.1.2,35,-0.319,-0.319,-0.319,0.000,0.000,0.000
1643293291275361024,2022-01-27-14:21:31,10.1.1.2,34,-0.309,-0.309,-0.309,0.000,0.000,0.000
1643293291476048896,2022-01-27-14:21:31,10.1.1.2,34,-0.299,-0.299,-0.299,0.000,0.000,0.000
1643293291677204992,2022-01-27-14:21:31,10.1.1.2,35,-0.289,-0.289,-0.289,0.000,0.000,0.000
1643293291876473856,2022-01-27-14:21:31,10.1.1.2,33,-0.279,-0.279,-0.279,0.000,0.000,0.000
1643293292076971008,2022-01-27-14:21:32,10.1.1.2,32,-0.269,-0.269,-0.269,0.000,0.000,0.000
1643293292275141120,2022-01-27-14:21:32,10.1.1.2,30,-0.260,-0.260,-0.260,0.000,0.000,0.000
1643293292475788032,2022-01-27-14:21:32,10.1.1.2,30,-0.250,-0.250,-0.250,0.000,0.000,0.000
1643293292675259136,2022-01-27-14:21:32,10.1.1.2,29,-0.239,-0.239,-0.239,0.000,0.000,0.000
1643293292875696896,2022-01-27-14:21:32,10.1.1.2,28,-0.229,-0.229,-0.229,0.000,0.000,0.000
1643293293075557120,2022-01-27-14:21:33,10.1.1.2,27,-0.220,-0.220,-0.220,0.000,0.000,0.000
1643293293275888896,2022-01-27-14:21:33,10.1.1.2,27,-0.210,-0.210,-0.210,0.000,0.000,0.000
1643293293476171008,2022-01-27-14:21:33,10.1.1.2,27,-0.200,-0.200,-0.200,0.000,0.000,0.000
1643293293676084992,2022-01-27-14:21:33,10.1.1.2,26,-0.190,-0.190,-0.190,0.000,0.000,0.000
1643293293875674112,2022-01-27-14:21:33,10.1.1.2,25,-0.180,-0.180,-0.180,0.000,0.000,0.000
1643293294076084992,2022-01-27-14:21:34,10.1.1.2,25,-0.170,-0.170,-0.170,0.000,0.000,0.000
1643293294276196096,2022-01-27-14:21:34,10.1.1.2,24,-0.160,-0.160,-0.160,0.000,0.000,0.000
1643293294475811840,2022-01-27-14:21:34,10.1.1.2,24,-0.150,-0.150,-0.150,0.000,0.000,0.000
1643293294675585024,2022-01-27-14:21:34,10.1.1.2,23,-0.140,-0.140,-0.140,0.000,0.000,0.000
1643293294875799040,2022-01-27-14:21:34,10.1.1.2,22,-0.130,-0.130,-0.130,0.000,0.000,0.000
1643293295075879168,2022-01-27-14:21:35,10.1.1.2,22,-0.120,-0.120,-0.120,0.000,0.000,0.000
1643293295275668992,2022-01-27-14:21:35,10.1.1.2,21,-0.110,-0.110,-0.110,0.000,0.000,0.000
1643293295475627008,2022-01-27-14:21:35,10.1.1.2,20,-0.100,-0.100,-0.100,0.000,0.000,0.000
1643293295675671040,2022-01-27-14:21:35,10.1.1.2,19,-0.090,-0.090,-0.090,0.000,0.000,0.000
1643293295875289856,2022-01-27-14:21:35,10.1.1.2,18,-0.080,-0.080,-0.080,0.000,0.000,0.000
1643293296095880960,2022-01-27-14:21:36,10.1.1.2,38,-0.069,-0.069,-0.069,0.000,0.000,0.000
1643293296295179008,2022-01-27-14:21:36,10.1.1.2,37,-0.059,-0.059,-0.059,0.000,0.000,0.000
1643293296495417088,2022-01-27-14:21:36,10.1.1.2,37,-0.049,-0.049,-0.049,0.000,0.000,0.000
1643293296695106048,2022-01-27-14:21:36,10.1.1.2,36,-0.039,-0.039,-0.039,0.000,0.000,0.000
1643293296895577856,2022-01-27-14:21:36,10.1.1.2,36,-0.029,-0.029,-0.029,0.000,0.000,0.000
1643293297110102016,2022-01-27-14:21:37,10.1.1.2,40,-0.019,-0.019,-0.019,0.000,0.000,0.000
1643293297295533056,2022-01-27-14:21:37,10.1.1.2,35,-0.009,-0.009,-0.009,0.000,0.000,0.000
1643293297475366144,2022-01-27-14:21:37,10.1.1.2,14,-0.000,-0.000,-0.000,0.000,0.000,0.000
1643293297695537920,2022-01-27-14:21:37,10.1.1.2,34,-0.011,-0.011,-0.011,0.000,0.000,0.000
1643293297895708160,2022-01-27-14:21:37,10.1.1.2,34,-0.021,-0.021,-0.021,0.000,0.000,0.000
1643293298095199232,2022-01-27-14:21:38,10.1.1.2,31,-0.031,-0.031,-0.031,0.000,0.000,0.000
1643293298296047872,2022-01-27-14:21:38,10.1.1.2,31,-0.041,-0.041,-0.041,0.000,0.000,0.000
1643293298495888896,2022-01-27-14:21:38,10.1.1.2,30,-0.051,-0.051,-0.051,0.000,0.000,0.000
1643293298695508992,2022-01-27-14:21:38,10.1.1.2,29,-0.060,-0.060,-0.060,0.000,0.000,0.000
1643293298895458816,2022-01-27-14:21:38,10.1.1.2,27,-0.070,-0.070,-0.070,0.000,0.000,0.000
1643293299095791104,2022-01-27-14:21:39,10.1.1.2,26,-0.080,-0.080,-0.080,0.000,0.000,0.000
1643293299296088064,2022-01-27-14:21:39,10.1.1.2,25,-0.090,-0.090,-0.090,0.000,0.000,0.000
1643293299496009216,2022-01-27-14:21:39,10.1.1.2,25,-0.100,-0.100,-0.100,0.000,0.000,0.000
1643293299694886912,2022-01-27-14:21:39,10.1.1.2,23,-0.110,-0.110,-0.110,0.000,0.000,0.000
1643293299894974976,2022-01-27-14:21:39,10.1.1.2,23,-0.120,-0.120,-0.120,0.000,0.000,0.000
1643293300116547072,2022-01-27-14:21:40,10.1.1.2,43,-0.131,-0.131,-0.131,0.000,0.000,0.000
1643293300295290112,2022-01-27-14:21:40,10.1.1.2,21,-0.140,-0.140,-0.140,0.000,0.000,0.000
1643293300495716096,2022-01-27-14:21:40,10.1.1.2,21,-0.150,-0.150,-0.150,0.000,0.000,0.000
1643293300695559936,2022-01-27-14:21:40,10.1.1.2,20,-0.160,-0.160,-0.160,0.000,0.000,0.000
1643293300895792896,2022-01-27-14:21:40,10.1.1.2,20,-0.170,-0.170,-0.170,0.000,0.000,0.000
1643293301095758848,2022-01-27-14:21:41,10.1.1.2,19,-0.180,-0.180,-0.180,0.000,0.000,0.000
1643293301295499008,2022-01-27-14:21:41,10.1.1.2,18,-0.190,-0.190,-0.190,0.000,0.000,0.000
1643293301495403008,2022-01-27-14:21:41,10.1.1.2,18,-0.200,-0.200,-0.200,0.000,0.000,0.000
1643293301695750912,2022-01-27-14:21:41,10.1.1.2,18,-0.210,-0.210,-0.210,0.000,0.000,0.000
1643293301915642112,2022-01-27-14:21:41,10.1.1.2,37,-0.221,-0.221,-0.221,0.000,0.000,0.000
1643293302115545088,2022-01-27-14:21:42,10.1.1.2,37,-0.231,-0.231,-0.231,0.000,0.000,0.000
1643293302315682816,2022-01-27-14:21:42,10.1.1.2,36,-0.241,-0.241,-0.241,0.000,0.000,0.000
1643293302516155904,2022-01-27-14:21:42,10.1.1.2,36,-0.251,-0.251,-0.251,0.000,0.000,0.000
1643293302715549952,2022-01-27-14:21:42,10.1.1.2,35,-0.261,-0.261,-0.261,0.000,0.000,0.000
1643293302915884032,2022-01-27-14:21:42,10.1.1.2,35,-0.271,-0.271,-0.271,0.000,0.000,0.000
1643293303115622144,2022-01-27-14:21:43,10.1.1.2,34,-0.281,-0.281,-0.281,0.000,0.000,0.000
1643293303315766016,2022-01-27-14:21:43,10.1.1.2,33,-0.291,-0.291,-0.291,0.000,0.000,0.000
1643293303516474112,2022-01-27-14:21:43,10.1.1.2,33,-0.301,-0.301,-0.301,0.000,0.000,0.000
1643293303715683840,2022-01-27-14:21:43,10.1.1.2,32,-0.311,-0.311,-0.311,0.000,0.000,0.000
1643293303915919104,2022-01-27-14:21:43,10.1.1.2,32,-0.321,-0.321,-0.321,0.000,0.000,0.000
1643293304115823104,2022-01-27-14:21:44,10.1.1.2,31,-0.330,-0.330,-0.330,0.000,0.000,0.000
1643293304315251968,2022-01-27-14:21:44,10.1.1.2,29,-0.340,-0.340,-0.340,0.000,0.000,0.000
1643293304516450816,2022-01-27-14:21:44,10.1.1.2,29,-0.350,-0.350,-0.350,0.000,0.000,0.000
1643293304719973120,2022-01-27-14:21:44,10.1.1.2,32,-0.360,-0.360,-0.360,0.000,0.000,0.000
1643293304917954816,2022-01-27-14:21:44,10.1.1.2,29,-0.370,-0.370,-0.370,0.000,0.000,0.000
1643293305117410048,2022-01-27-14:21:45,10.1.1.2,26,-0.380,-0.380,-0.380,0.000,0.000,0.000
1643293305316237056,2022-01-27-14:21:45,10.1.1.2,24,-0.390,-0.390,-0.390,0.000,0.000,0.000
1643293305516793856,2022-01-27-14:21:45,10.1.1.2,23,-0.400,-0.400,-0.400,0.000,0.000,0.000
1643293305736360960,2022-01-27-14:21:45,10.1.1.2,36,-0.411,-0.411,-0.411,0.000,0.000,0.000
1643293305935659776,2022-01-27-14:21:45,10.1.1.2,34,-0.421,-0.421,-0.421,0.000,0.000,0.000
1643293306136210944,2022-01-27-14:21:46,10.1.1.2,34,-0.431,-0.431,-0.431,0.000,0.000,0.000
1643293306336154112,2022-01-27-14:21:46,10.1.1.2,33,-0.441,-0.441,-0.441,0.000,0.000,0.000
1643293306536220928,2022-01-27-14:21:46,10.1.1.2,33,-0.451,-0.451,-0.451,0.000,0.000,0.000
1643293306735738880,2022-01-27-14:21:46,10.1.1.2,31,-0.461,-0.461,-0.461,0.000,0.000,0.000
1643293306935467008,2022-01-27-14:21:46,10.1.1.2,31,-0.470,-0.470,-0.470,0.000,0.000,0.000
1643293307135200000,2022-01-27-14:21:47,10.1.1.2,30,-0.481,-0.481,-0.481,0.000,0.000,0.000
1643293307315983104,2022-01-27-14:21:47,10.1.1.2,9,-0.490,-0.490,-0.490,0.000,0.000,0.000
1643293307535406080,2022-01-27-14:21:47,10.1.1.2,28,-0.480,-0.480,-0.480,0.000,0.000,0.000
1643293307736190208,2022-01-27-14:21:47,10.1.1.2,26,-0.470,-0.470,-0.470,0.000,0.000,0.000
1643293307935537152,2022-01-27-14:21:47,10.1.1.2,25,-0.460,-0.460,-0.460,0.000,0.000,0.000
1643293308135731968,2022-01-27-14:21:48,10.1.1.2,24,-0.450,-0.450,-0.450,0.000,0.000,0.000
1643293308335644928,2022-01-27-14:21:48,10.1.1.2,24,-0.440,-0.440,-0.440,0.000,0.000,0.000
1643293308535790848,2022-01-27-14:21:48,10.1.1.2,23,-0.430,-0.430,-0.430,0.000,0.000,0.000
1643293308735795968,2022-01-27-14:21:48,10.1.1.2,22,-0.420,-0.420,-0.420,0.000,0.000,0.000
1643293308935589120,2022-01-27-14:21:48,10.1.1.2,22,-0.410,-0.410,-0.410,0.000,0.000,0.000
1643293309135751936,2022-01-27-14:21:49,10.1.1.2,21,-0.400,-0.400,-0.400,0.000,0.000,0.000
1643293309335941120,2022-01-27-14:21:49,10.1.1.2,20,-0.390,-0.390,-0.390,0.000,0.000,0.000
1643293309536513024,2022-01-27-14:21:49,10.1.1.2,20,-0.380,-0.380,-0.380,0.000,0.000,0.000
1643293309735950848,2022-01-27-14:21:49,10.1.1.2,18,-0.370,-0.370,-0.370,0.000,0.000,0.000
1643293309956043008,2022-01-27-14:21:49,10.1.1.2,38,-0.359,-0.359,-0.359,0.000,0.000,0.000
1643293310155656960,2022-01-27-14:21:50,10.1.1.2,37,-0.349,-0.349,-0.349,0.000,0.000,0.000
1643293310355979008,2022-01-27-14:21:50,10.1.1.2,36,-0.339,-0.339,-0.339,0.000,0.000,0.000
1643293310555542016,2022-01-27-14:21:50,10.1.1.2,35,-0.329,-0.329,-0.329,0.000,0.000,0.000
1643293310756005888,2022-01-27-14:21:50,10.1.1.2,34,-0.319,-0.319,-0.319,0.000,0.000,0.000
1643293310955860992,2022-01-27-14:21:50,10.1.1.2,34,-0.309,-0.309,-0.309,0.000,0.000,0.000
1643293311155354880,2022-01-27-14:21:51,10.1.1.2,32,-0.299,-0.299,-0.299,0.000,0.000,0.000
1643293311354968064,2022-01-27-14:21:51,10.1.1.2,31,-0.289,-0.289,-0.289,0.000,0.000,0.000
1643293311555671040,2022-01-27-14:21:51,10.1.1.2,31,-0.280,-0.280,-0.280,0.000,0.000,0.000
1643293311756783872,2022-01-27-14:21:51,10.1.1.2,30,-0.269,-0.269,-0.269,0.000,0.000,0.000
1643293311956128000,2022-01-27-14:21:51,10.1.1.2,29,-0.259,-0.259,-0.259,0.000,0.000,0.000
1643293312155538944,2022-01-27-14:21:52,10.1.1.2,27,-0.250,-0.250,-0.250,0.000,0.000,0.000
1643293312356225024,2022-01-27-14:21:52,10.1.1.2,28,-0.240,-0.240,-0.240,0.000,0.000,0.000
1643293312555998976,2022-01-27-14:21:52,10.1.1.2,27,-0.230,-0.230,-0.230,0.000,0.000,0.000
1643293312755641088,2022-01-27-14:21:52,10.1.1.2,26,-0.220,-0.220,-0.220,0.000,0.000,0.000
1643293312955607040,2022-01-27-14:21:52,10.1.1.2,24,-0.210,-0.210,-0.210,0.000,0.000,0.000
1643293313156132864,2022-01-27-14:21:53,10.1.1.2,24,-0.200,-0.200,-0.200,0.000,0.000,0.000
1643293313355555072,2022-01-27-14:21:53,10.1.1.2,23,-0.190,-0.190,-0.190,0.000,0.000,0.000
1643293313555386112,2022-01-27-14:21:53,10.1.1.2,22,-0.180,-0.180,-0.180,0.000,0.000,0.000
1643293313755902976,2022-01-27-14:21:53,10.1.1.2,22,-0.170,-0.170,-0.170,0.000,0.000,0.000
1643293313975447808,2022-01-27-14:21:53,10.1.1.2,41,-0.159,-0.159,-0.159,0.000,0.000,0.000
1643293314155009024,2022-01-27-14:21:54,10.1.1.2,20,-0.150,-0.150,-0.150,0.000,0.000,0.000
1643293314376512000,2022-01-27-14:21:54,10.1.1.2,40,-0.139,-0.139,-0.139,0.000,0.000,0.000
1643293314555974912,2022-01-27-14:21:54,10.1.1.2,19,-0.130,-0.130,-0.130,0.000,0.000,0.000
1643293314755307008,2022-01-27-14:21:54,10.1.1.2,18,-0.120,-0.120,-0.120,0.000,0.000,0.000
1643293314954926848,2022-01-27-14:21:54,10.1.1.2,17,-0.110,-0.110,-0.110,0.000,0.000,0.000
1643293315175659776,2022-01-27-14:21:55,10.1.1.2,37,-0.099,-0.099,-0.099,0.000,0.000,0.000
1643293315375219200,2022-01-27-14:21:55,10.1.1.2,35,-0.089,-0.089,-0.089,0.000,0.000,0.000
1643293315575401984,2022-01-27-14:21:55,10.1.1.2,34,-0.079,-0.079,-0.079,0.000,0.000,0.000
1643293315775297024,2022-01-27-14:21:55,10.1.1.2,34,-0.069,-0.069,-0.069,0.000,0.000,0.000
1643293315975056896,2022-01-27-14:21:55,10.1.1.2,33,-0.059,-0.059,-0.059,0.000,0.000,0.000
1643293316174983936,2022-01-27-14:21:56,10.1.1.2,32,-0.049,-0.049,-0.049,0.000,0.000,0.000
1643293316375969024,2022-01-27-14:21:56,10.1.1.2,32,-0.039,-0.039,-0.039,0.000,0.000,0.000
1643293316575077120,2022-01-27-14:21:56,10.1.1.2,31,-0.029,-0.029,-0.029,0.000,0.000,0.000
1643293316775301888,2022-01-27-14:21:56,10.1.1.2,30,-0.020,-0.020,-0.020,0.000,0.000,0.000
1643293316975928064,2022-01-27-14:21:56,10.1.1.2,30,-0.010,-0.010,-0.010,0.000,0.000,0.000
1643293317155962880,2022-01-27-14:21:57,10.1.1.2,9,-0.000,-0.000,-0.000,0.000,0.000,0.000
1643293317379555072,2022-01-27-14:21:57,10.1.1.2,31,-0.010,-0.010,-0.010,0.000,0.000,0.000
1643293317577342976,2022-01-27-14:21:57,10.1.1.2,27,-0.020,-0.020,-0.020,0.000,0.000,0.000
1643293317775763968,2022-01-27-14:21:57,10.1.1.2,24,-0.030,-0.030,-0.030,0.000,0.000,0.000
1643293317975554048,2022-01-27-14:21:57,10.1.1.2,23,-0.040,-0.040,-0.040,0.000,0.000,0.000
1643293318176978176,2022-01-27-14:21:58,10.1.1.2,24,-0.050,-0.050,-0.050,0.000,0.000,0.000
1643293318375809792,2022-01-27-14:21:58,10.1.1.2,22,-0.060,-0.060,-0.060,0.000,0.000,0.000
1643293318575687936,2022-01-27-14:21:58,10.1.1.2,22,-0.070,-0.070,-0.070,0.000,0.000,0.000
1643293318776462080,2022-01-27-14:21:58,10.1.1.2,22,-0.080,-0.080,-0.080,0.000,0.000,0.000
1643293318976648192,2022-01-27-14:21:58,10.1.1.2,21,-0.090,-0.090,-0.090,0.000,0.000,0.000
1643293319176090880,2022-01-27-14:21:59,10.1.1.2,20,-0.100,-0.100,-0.100,0.000,0.000,0.000
1643293319382426880,2022-01-27-14:21:59,10.1.1.2,20,-0.110,-0.110,-0.110,0.000,0.000,0.000
1643293319598957056,2022-01-27-14:21:59,10.1.1.2,34,-0.121,-0.121,-0.121,0.000,0.000,0.000
1643293319795672832,2022-01-27-14:21:59,10.1.1.2,29,-0.130,-0.130,-0.130,0.000,0.000,0.000
1643293319996758016,2022-01-27-14:21:59,10.1.1.2,29,-0.141,-0.141,-0.141,0.000,0.000,0.000
1643293320196003840,2022-01-27-14:22:00,10.1.1.2,27,-0.150,-0.150,-0.150,0.000,0.000,0.000
1643293320396924928,2022-01-27-14:22:00,10.1.1.2,25,-0.160,-0.160,-0.160,0.000,0.000,0.000
1643293320595896064,2022-01-27-14:22:00,10.1.1.2,24,-0.170,-0.170,-0.170,0.000,0.000,0.000
1643293320796109056,2022-01-27-14:22:00,10.1.1.2,23,-0.180,-0.180,-0.180,0.000,0.000,0.000
1643293321016540928,2022-01-27-14:22:01,10.1.1.2,43,-0.191,-0.191,-0.191,0.000,0.000,0.000
1643293321195968000,2022-01-27-14:22:01,10.1.1.2,19,-0.200,-0.200,-0.200,0.000,0.000,0.000
1643293321415955968,2022-01-27-14:22:01,10.1.1.2,37,-0.211,-0.211,-0.211,0.000,0.000,0.000
1643293321616573952,2022-01-27-14:22:01,10.1.1.2,37,-0.221,-0.221,-0.221,0.000,0.000,0.000
1643293321816696832,2022-01-27-14:22:01,10.1.1.2,36,-0.231,-0.231,-0.231,0.000,0.000,0.000
1643293322017390080,2022-01-27-14:22:02,10.1.1.2,36,-0.241,-0.241,-0.241,0.000,0.000,0.000
1643293322216444928,2022-01-27-14:22:02,10.1.1.2,35,-0.251,-0.251,-0.251,0.000,0.000,0.000
1643293322415571968,2022-01-27-14:22:02,10.1.1.2,32,-0.261,-0.261,-0.261,0.000,0.000,0.000
1643293322616604928,2022-01-27-14:22:02,10.1.1.2,33,-0.270,-0.270,-0.270,0.000,0.000,0.000
1643293322816241920,2022-01-27-14:22:02,10.1.1.2,31,-0.280,-0.280,-0.280,0.000,0.000,0.000
1643293323016557824,2022-01-27-14:22:03,10.1.1.2,30,-0.290,-0.290,-0.290,0.000,0.000,0.000
1643293323216203008,2022-01-27-14:22:03,10.1.1.2,28,-0.300,-0.300,-0.300,0.000,0.000,0.000
1643293323416712960,2022-01-27-14:22:03,10.1.1.2,28,-0.310,-0.310,-0.310,0.000,0.000,0.000
1643293323616844800,2022-01-27-14:22:03,10.1.1.2,27,-0.320,-0.320,-0.320,0.000,0.000,0.000
1643293323815866112,2022-01-27-14:22:03,10.1.1.2,26,-0.330,-0.330,-0.330,0.000,0.000,0.000
1643293324016364032,2022-01-27-14:22:04,10.1.1.2,26,-0.340,-0.340,-0.340,0.000,0.000,0.000
1643293324216862976,2022-01-27-14:22:04,10.1.1.2,25,-0.350,-0.350,-0.350,0.000,0.000,0.000
1643293324417084928,2022-01-27-14:22:04,10.1.1.2,25,-0.360,-0.360,-0.360,0.000,0.000,0.000
1643293324616518144,2022-01-27-14:22:04,10.1.1.2,24,-0.370,-0.370,-0.370,0.000,0.000,0.000
1643293324816544000,2022-01-27-14:22:04,10.1.1.2,23,-0.380,-0.380,-0.380,0.000,0.000,0.000
1643293325017133056,2022-01-27-14:22:05,10.1.1.2,23,-0.390,-0.390,-0.390,0.000,0.000,0.000
1643293325217716992,2022-01-27-14:22:05,10.1.1.2,22,-0.400,-0.400,-0.400,0.000,0.000,0.000
1643293325415996928,2022-01-27-14:22:05,10.1.1.2,20,-0.410,-0.410,-0.410,0.000,0.000,0.000
1643293325616657920,2022-01-27-14:22:05,10.1.1.2,19,-0.420,-0.420,-0.420,0.000,0.000,0.000
1643293325841953024,2022-01-27-14:22:05,10.1.1.2,44,-0.431,-0.431,-0.431,0.000,0.000,0.000
1643293326036382976,2022-01-27-14:22:06,10.1.1.2,38,-0.441,-0.441,-0.441,0.000,0.000,0.000
1643293326236144896,2022-01-27-14:22:06,10.1.1.2,37,-0.451,-0.451,-0.451,0.000,0.000,0.000
1643293326436062208,2022-01-27-14:22:06,10.1.1.2,36,-0.461,-0.461,-0.461,0.000,0.000,0.000
1643293326635951104,2022-01-27-14:22:06,10.1.1.2,35,-0.471,-0.471,-0.471,0.000,0.000,0.000
1643293326835912960,2022-01-27-14:22:06,10.1.1.2,34,-0.481,-0.481,-0.481,0.000,0.000,0.000
1643293327016974848,2022-01-27-14:22:07,10.1.1.2,14,-0.490,-0.490,-0.490,0.000,0.000,0.000
1643293327236030208,2022-01-27-14:22:07,10.1.1.2,33,-0.479,-0.479,-0.479,0.000,0.000,0.000
1643293327436335104,2022-01-27-14:22:07,10.1.1.2,33,-0.469,-0.469,-0.469,0.000,0.000,0.000
1643293327636208128,2022-01-27-14:22:07,10.1.1.2,32,-0.460,-0.460,-0.460,0.000,0.000,0.000
1643293327836977920,2022-01-27-14:22:07,10.1.1.2,32,-0.449,-0.449,-0.449,0.000,0.000,0.000
1643293328038311936,2022-01-27-14:22:08,10.1.1.2,33,-0.440,-0.440,-0.440,0.000,0.000,0.000
1643293328237263872,2022-01-27-14:22:08,10.1.1.2,30,-0.429,-0.429,-0.429,0.000,0.000,0.000
1643293328436404992,2022-01-27-14:22:08,10.1.1.2,28,-0.420,-0.420,-0.420,0.000,0.000,0.000
1643293328637815040,2022-01-27-14:22:08,10.1.1.2,29,-0.410,-0.410,-0.410,0.000,0.000,0.000
1643293328837126144,2022-01-27-14:22:08,10.1.1.2,28,-0.400,-0.400,-0.400,0.000,0.000,0.000
1643293329037700864,2022-01-27-14:22:09,10.1.1.2,28,-0.390,-0.390,-0.390,0.000,0.000,0.000
1643293329237449984,2022-01-27-14:22:09,10.1.1.2,27,-0.380,-0.380,-0.380,0.000,0.000,0.000
1643293329437006080,2022-01-27-14:22:09,10.1.1.2,26,-0.370,-0.370,-0.370,0.000,0.000,0.000
1643293329637917952,2022-01-27-14:22:09,10.1.1.2,26,-0.360,-0.360,-0.360,0.000,0.000,0.000
1643293329836452864,2022-01-27-14:22:09,10.1.1.2,24,-0.350,-0.350,-0.350,0.000,0.000,0.000
1643293330057015040,2022-01-27-14:22:10,10.1.1.2,43,-0.339,-0.339,-0.339,0.000,0.000,0.000
1643293330236104960,2022-01-27-14:22:10,10.1.1.2,21,-0.330,-0.330,-0.330,0.000,0.000,0.000
1643293330436274176,2022-01-27-14:22:10,10.1.1.2,21,-0.320,-0.320,-0.320,0.000,0.000,0.000
1643293330657767168,2022-01-27-14:22:10,10.1.1.2,41,-0.309,-0.309,-0.309,0.000,0.000,0.000
1643293330856332032,2022-01-27-14:22:10,10.1.1.2,39,-0.299,-0.299,-0.299,0.000,0.000,0.000
1643293331039351040,2022-01-27-14:22:11,10.1.1.2,21,-0.290,-0.290,-0.290,0.000,0.000,0.000
1643293331256342784,2022-01-27-14:22:11,10.1.1.2,38,-0.279,-0.279,-0.279,0.000,0.000,0.000
1643293331455616000,2022-01-27-14:22:11,10.1.1.2,36,-0.269,-0.269,-0.269,0.000,0.000,0.000
1643293331656189952,2022-01-27-14:22:11,10.1.1.2,35,-0.259,-0.259,-0.259,0.000,0.000,0.000
1643293331856364032,2022-01-27-14:22:11,10.1.1.2,32,-0.249,-0.249,-0.249,0.000,0.000,0.000
1643293332055845888,2022-01-27-14:22:12,10.1.1.2,32,-0.240,-0.240,-0.240,0.000,0.000,0.000
1643293332256145920,2022-01-27-14:22:12,10.1.1.2,31,-0.229,-0.229,-0.229,0.000,0.000,0.000
1643293332456327936,2022-01-27-14:22:12,10.1.1.2,30,-0.219,-0.219,-0.219,0.000,0.000,0.000
1643293332655941888,2022-01-27-14:22:12,10.1.1.2,28,-0.210,-0.210,-0.210,0.000,0.000,0.000
1643293332856244992,2022-01-27-14:22:12,10.1.1.2,28,-0.200,-0.200,-0.200,0.000,0.000,0.000
1643293333055875072,2022-01-27-14:22:13,10.1.1.2,27,-0.190,-0.190,-0.190,0.000,0.000,0.000
1643293333255884032,2022-01-27-14:22:13,10.1.1.2,26,-0.180,-0.180,-0.180,0.000,0.000,0.000
1643293333455902208,2022-01-27-14:22:13,10.1.1.2,25,-0.170,-0.170,-0.170,0.000,0.000,0.000
1643293333655625984,2022-01-27-14:22:13,10.1.1.2,25,-0.160,-0.160,-0.160,0.000,0.000,0.000
1643293333855724032,2022-01-27-14:22:13,10.1.1.2,24,-0.150,-0.150,-0.150,0.000,0.000,0.000
1643293334055768064,2022-01-27-14:22:14,10.1.1.2,24,-0.140,-0.140,-0.140,0.000,0.000,0.000
1643293334255665920,2022-01-27-14:22:14,10.1.1.2,23,-0.130,-0.130,-0.130,0.000,0.000,0.000
1643293334456100096,2022-01-27-14:22:14,10.1.1.2,23,-0.120,-0.120,-0.120,0.000,0.000,0.000
1643293334655486208,2022-01-27-14:22:14,10.1.1.2,22,-0.110,-0.110,-0.110,0.000,0.000,0.000
1643293334855900160,2022-01-27-14:22:14,10.1.1.2,21,-0.100,-0.100,-0.100,0.000,0.000,0.000
1643293335055963904,2022-01-27-14:22:15,10.1.1.2,20,-0.090,-0.090,-0.090,0.000,0.000,0.000
1643293335255863040,2022-01-27-14:22:15,10.1.1.2,19,-0.080,-0.080,-0.080,0.000,0.000,0.000
1643293335475838976,2022-01-27-14:22:15,10.1.1.2,38,-0.069,-0.069,-0.069,0.000,0.000,0.000
1643293335675504896,2022-01-27-14:22:15,10.1.1.2,38,-0.059,-0.059,-0.059,0.000,0.000,0.000
1643293335856571904,2022-01-27-14:22:15,10.1.1.2,18,-0.050,-0.050,-0.050,0.000,0.000,0.000
1643293336075870976,2022-01-27-14:22:16,10.1.1.2,37,-0.039,-0.039,-0.039,0.000,0.000,0.000
1643293336275851008,2022-01-27-14:22:16,10.1.1.2,36,-0.029,-0.029,-0.029,0.000,0.000,0.000
1643293336475667968,2022-01-27-14:22:16,10.1.1.2,34,-0.019,-0.019,-0.019,0.000,0.000,0.000
1643293336675735040,2022-01-27-14:22:16,10.1.1.2,33,-0.009,-0.009,-0.009,0.000,0.000,0.000
1643293336855595008,2022-01-27-14:22:16,10.1.1.2,12,-0.000,-0.000,-0.000,0.000,0.000,0.000
1643293337077189888,2022-01-27-14:22:17,10.1.1.2,32,-0.011,-0.011,-0.011,0.000,0.000,0.000
1643293337276923904,2022-01-27-14:22:17,10.1.1.2,28,-0.020,-0.020,-0.020,0.000,0.000,0.000
1643293337476419072,2022-01-27-14:22:17,10.1.1.2,27,-0.030,-0.030,-0.030,0.000,0.000,0.000
1643293337676583168,2022-01-27-14:22:17,10.1.1.2,26,-0.040,-0.040,-0.040,0.000,0.000,0.000
1643293337875570176,2022-01-27-14:22:17,10.1.1.2,24,-0.050,-0.050,-0.050,0.000,0.000,0.000
1643293338076244992,2022-01-27-14:22:18,10.1.1.2,23,-0.060,-0.060,-0.060,0.000,0.000,0.000
1643293338276057856,2022-01-27-14:22:18,10.1.1.2,23,-0.070,-0.070,-0.070,0.000,0.000,0.000
1643293338476460032,2022-01-27-14:22:18,10.1.1.2,22,-0.080,-0.080,-0.080,0.000,0.000,0.000
1643293338676570880,2022-01-27-14:22:18,10.1.1.2,20,-0.090,-0.090,-0.090,0.000,0.000,0.000
1643293338876323072,2022-01-27-14:22:18,10.1.1.2,19,-0.100,-0.100,-0.100,0.000,0.000,0.000
1643293339075892992,2022-01-27-14:22:19,10.1.1.2,18,-0.110,-0.110,-0.110,0.000,0.000,0.000
1643293339296407040,2022-01-27-14:22:19,10.1.1.2,38,-0.121,-0.121,-0.121,0.000,0.000,0.000
1643293339496359936,2022-01-27-14:22:19,10.1.1.2,37,-0.131,-0.131,-0.131,0.000,0.000,0.000
1643293339696322816,2022-01-27-14:22:19,10.1.1.2,36,-0.141,-0.141,-0.141,0.000,0.000,0.000
1643293339896219904,2022-01-27-14:22:19,10.1.1.2,35,-0.151,-0.151,-0.151,0.000,0.000,0.000
1643293340096399104,2022-01-27-14:22:20,10.1.1.2,34,-0.161,-0.161,-0.161,0.000,0.000,0.000
1643293340301485056,2022-01-27-14:22:20,10.1.1.2,38,-0.171,-0.171,-0.171,0.000,0.000,0.000
1643293340496741888,2022-01-27-14:22:20,10.1.1.2,33,-0.181,-0.181,-0.181,0.000,0.000,0.000
1643293340696132864,2022-01-27-14:22:20,10.1.1.2,31,-0.190,-0.190,-0.190,0.000,0.000,0.000
1643293340896699904,2022-01-27-14:22:20,10.1.1.2,28,-0.200,-0.200,-0.200,0.000,0.000,0.000
1643293341095865856,2022-01-27-14:22:21,10.1.1.2,27,-0.210,-0.210,-0.210,0.000,0.000,0.000
1643293341296487168,2022-01-27-14:22:21,10.1.1.2,27,-0.220,-0.220,-0.220,0.000,0.000,0.000
1643293341496186880,2022-01-27-14:22:21,10.1.1.2,25,-0.230,-0.230,-0.230,0.000,0.000,0.000
1643293341696296960,2022-01-27-14:22:21,10.1.1.2,25,-0.240,-0.240,-0.240,0.000,0.000,0.000
1643293341897500160,2022-01-27-14:22:21,10.1.1.2,26,-0.250,-0.250,-0.250,0.000,0.000,0.000
1643293342116434176,2022-01-27-14:22:22,10.1.1.2,42,-0.261,-0.261,-0.261,0.000,0.000,0.000
1643293342296022784,2022-01-27-14:22:22,10.1.1.2,21,-0.270,-0.270,-0.270,0.000,0.000,0.000
1643293342516148992,2022-01-27-14:22:22,10.1.1.2,38,-0.281,-0.281,-0.281,0.000,0.000,0.000
1643293342718348032,2022-01-27-14:22:22,10.1.1.2,40,-0.291,-0.291,-0.291,0.000,0.000,0.000
1643293342916461824,2022-01-27-14:22:22,10.1.1.2,37,-0.301,-0.301,-0.301,0.000,0.000,0.000
1643293343118146816,2022-01-27-14:22:23,10.1.1.2,38,-0.311,-0.311,-0.311,0.000,0.000,0.000
1643293343317089024,2022-01-27-14:22:23,10.1.1.2,36,-0.321,-0.321,-0.321,0.000,0.000,0.000
1643293343516640000,2022-01-27-14:22:23,10.1.1.2,35,-0.331,-0.331,-0.331,0.000,0.000,0.000
1643293343716741120,2022-01-27-14:22:23,10.1.1.2,35,-0.341,-0.341,-0.341,0.000,0.000,0.000
1643293343916766976,2022-01-27-14:22:23,10.1.1.2,33,-0.350,-0.350,-0.350,0.000,0.000,0.000
1643293344116461056,2022-01-27-14:22:24,10.1.1.2,28,-0.360,-0.360,-0.360,0.000,0.000,0.000
1643293344316396032,2022-01-27-14:22:24,10.1.1.2,27,-0.370,-0.370,-0.370,0.000,0.000,0.000
1643293344516604928,2022-01-27-14:22:24,10.1.1.2,27,-0.380,-0.380,-0.380,0.000,0.000,0.000
1643293344717190144,2022-01-27-14:22:24,10.1.1.2,27,-0.390,-0.390,-0.390,0.000,0.000,0.000
1643293344916197888,2022-01-27-14:22:24,10.1.1.2,25,-0.400,-0.400,-0.400,0.000,0.000,0.000
1643293345116754176,2022-01-27-14:22:25,10.1.1.2,24,-0.410,-0.410,-0.410,0.000,0.000,0.000
1643293345316317952,2022-01-27-14:22:25,10.1.1.2,23,-0.420,-0.420,-0.420,0.000,0.000,0.000
1643293345516325888,2022-01-27-14:22:25,10.1.1.2,22,-0.430,-0.430,-0.430,0.000,0.000,0.000
1643293345716640000,2022-01-27-14:22:25,10.1.1.2,21,-0.440,-0.440,-0.440,0.000,0.000,0.000
1643293345939661056,2022-01-27-14:22:25,10.1.1.2,42,-0.451,-0.451,-0.451,0.000,0.000,0.000
1643293346135710976,2022-01-27-14:22:26,10.1.1.2,31,-0.461,-0.461,-0.461,0.000,0.000,0.000
1643293346335463168,2022-01-27-14:22:26,10.1.1.2,30,-0.471,-0.471,-0.471,0.000,0.000,0.000
1643293346536933888,2022-01-27-14:22:26,10.1.1.2,30,-0.480,-0.480,-0.480,0.000,0.000,0.000
1643293346716666880,2022-01-27-14:22:26,10.1.1.2,8,-0.490,-0.490,-0.490,0.000,0.000,0.000
1643293346935462912,2022-01-27-14:22:26,10.1.1.2,27,-0.480,-0.480,-0.480,0.000,0.000,0.000
1643293347137618176,2022-01-27-14:22:27,10.1.1.2,28,-0.470,-0.470,-0.470,0.000,0.000,0.000
1643293347337132032,2022-01-27-14:22:27,10.1.1.2,26,-0.460,-0.460,-0.460,0.000,0.000,0.000
1643293347536101120,2022-01-27-14:22:27,10.1.1.2,25,-0.450,-0.450,-0.450,0.000,0.000,0.000
1643293347737081088,2022-01-27-14:22:27,10.1.1.2,25,-0.440,-0.440,-0.440,0.000,0.000,0.000
1643293347935689984,2022-01-27-14:22:27,10.1.1.2,23,-0.430,-0.430,-0.430,0.000,0.000,0.000
1643293348135325952,2022-01-27-14:22:28,10.1.1.2,22,-0.420,-0.420,-0.420,0.000,0.000,0.000
1643293348335460864,2022-01-27-14:22:28,10.1.1.2,21,-0.410,-0.410,-0.410,0.000,0.000,0.000
1643293348536154880,2022-01-27-14:22:28,10.1.1.2,21,-0.400,-0.400,-0.400,0.000,0.000,0.000
1643293348755940864,2022-01-27-14:22:28,10.1.1.2,39,-0.389,-0.389,-0.389,0.000,0.000,0.000
1643293348955576832,2022-01-27-14:22:28,10.1.1.2,38,-0.379,-0.379,-0.379,0.000,0.000,0.000
1643293349155790080,2022-01-27-14:22:29,10.1.1.2,38,-0.369,-0.369,-0.369,0.000,0.000,0.000
1643293349356075008,2022-01-27-14:22:29,10.1.1.2,36,-0.359,-0.359,-0.359,0.000,0.000,0.000
1643293349555932928,2022-01-27-14:22:29,10.1.1.2,35,-0.349,-0.349,-0.349,0.000,0.000,0.000
1643293349755587072,2022-01-27-14:22:29,10.1.1.2,35,-0.339,-0.339,-0.339,0.000,0.000,0.000
1643293349956904960,2022-01-27-14:22:29,10.1.1.2,35,-0.329,-0.329,-0.329,0.000,0.000,0.000
1643293350155693056,2022-01-27-14:22:30,10.1.1.2,33,-0.319,-0.319,-0.319,0.000,0.000,0.000
1643293350356231936,2022-01-27-14:22:30,10.1.1.2,33,-0.309,-0.309,-0.309,0.000,0.000,0.000
1643293350555738880,2022-01-27-14:22:30,10.1.1.2,32,-0.299,-0.299,-0.299,0.000,0.000,0.000
1643293350755554048,2022-01-27-14:22:30,10.1.1.2,29,-0.289,-0.289,-0.289,0.000,0.000,0.000
1643293350955387136,2022-01-27-14:22:30,10.1.1.2,29,-0.280,-0.280,-0.280,0.000,0.000,0.000
1643293351155621120,2022-01-27-14:22:31,10.1.1.2,28,-0.270,-0.270,-0.270,0.000,0.000,0.000
1643293351355593984,2022-01-27-14:22:31,10.1.1.2,28,-0.260,-0.260,-0.260,0.000,0.000,0.000
1643293351555473920,2022-01-27-14:22:31,10.1.1.2,27,-0.250,-0.250,-0.250,0.000,0.000,0.000
1643293351755243008,2022-01-27-14:22:31,10.1.1.2,26,-0.240,-0.240,-0.240,0.000,0.000,0.000
1643293351955777792,2022-01-27-14:22:31,10.1.1.2,26,-0.230,-0.230,-0.230,0.000,0.000,0.000
1643293352155684864,2022-01-27-14:22:32,10.1.1.2,25,-0.220,-0.220,-0.220,0.000,0.000,0.000
1643293352355591936,2022-01-27-14:22:32,10.1.1.2,25,-0.210,-0.210,-0.210,0.000,0.000,0.000
1643293352556354048,2022-01-27-14:22:32,10.1.1.2,25,-0.200,-0.200,-0.200,0.000,0.000,0.000
1643293352755964160,2022-01-27-14:22:32,10.1.1.2,24,-0.190,-0.190,-0.190,0.000,0.000,0.000
1643293352956423936,2022-01-27-14:22:32,10.1.1.2,23,-0.180,-0.180,-0.180,0.000,0.000,0.000
1643293353156016128,2022-01-27-14:22:33,10.1.1.2,23,-0.170,-0.170,-0.170,0.000,0.000,0.000
1643293353356620032,2022-01-27-14:22:33,10.1.1.2,23,-0.160,-0.160,-0.160,0.000,0.000,0.000
1643293353556477952,2022-01-27-14:22:33,10.1.1.2,22,-0.150,-0.150,-0.150,0.000,0.000,0.000
1643293353756504064,2022-01-27-14:22:33,10.1.1.2,21,-0.140,-0.140,-0.140,0.000,0.000,0.000
1643293353957259008,2022-01-27-14:22:33,10.1.1.2,21,-0.130,-0.130,-0.130,0.000,0.000,0.000
1643293354155692032,2022-01-27-14:22:34,10.1.1.2,18,-0.120,-0.120,-0.120,0.000,0.000,0.000
1643293354356171008,2022-01-27-14:22:34,10.1.1.2,18,-0.110,-0.110,-0.110,0.000,0.000,0.000
1643293354556279040,2022-01-27-14:22:34,10.1.1.2,18,-0.100,-0.100,-0.100,0.000,0.000,0.000
1643293354776334080,2022-01-27-14:22:34,10.1.1.2,37,-0.089,-0.089,-0.089,0.000,0.000,0.000
1643293354975994112,2022-01-27-14:22:34,10.1.1.2,36,-0.079,-0.079,-0.079,0.000,0.000,0.000
1643293355175941888,2022-01-27-14:22:35,10.1.1.2,35,-0.069,-0.069,-0.069,0.000,0.000,0.000
1643293355377038080,2022-01-27-14:22:35,10.1.1.2,35,-0.059,-0.059,-0.059,0.000,0.000,0.000
1643293355575723776,2022-01-27-14:22:35,10.1.1.2,33,-0.049,-0.049,-0.049,0.000,0.000,0.000
1643293355776578048,2022-01-27-14:22:35,10.1.1.2,33,-0.039,-0.039,-0.039,0.000,0.000,0.000
1643293355976993024,2022-01-27-14:22:35,10.1.1.2,33,-0.029,-0.029,-0.029,0.000,0.000,0.000
1643293356176346112,2022-01-27-14:22:36,10.1.1.2,31,-0.019,-0.019,-0.019,0.000,0.000,0.000
1643293356375979776,2022-01-27-14:22:36,10.1.1.2,30,-0.009,-0.009,-0.009,0.000,0.000,0.000
1643293356556536064,2022-01-27-14:22:36,10.1.1.2,9,-0.000,-0.000,-0.000,0.000,0.000,0.000
1643293356776951040,2022-01-27-14:22:36,10.1.1.2,29,-0.011,-0.011,-0.011,0.000,0.000,0.000
1643293356975898880,2022-01-27-14:22:36,10.1.1.2,28,-0.020,-0.020,-0.020,0.000,0.000,0.000
1643293357175988992,2022-01-27-14:22:37,10.1.1.2,27,-0.030,-0.030,-0.030,0.000,0.000,0.000
1643293357376577024,2022-01-27-14:22:37,10.1.1.2,27,-0.040,-0.040,-0.040,0.000,0.000,0.000
1643293357576310016,2022-01-27-14:22:37,10.1.1.2,26,-0.050,-0.050,-0.050,0.000,0.000,0.000
1643293357776078080,2022-01-27-14:22:37,10.1.1.2,25,-0.060,-0.060,-0.060,0.000,0.000,0.000
1643293357976940032,2022-01-27-14:22:37,10.1.1.2,25,-0.070,-0.070,-0.070,0.000,0.000,0.000
1643293358176542976,2022-01-27-14:22:38,10.1.1.2,24,-0.080,-0.080,-0.080,0.000,0.000,0.000
