FedericoMungari/DigitalTwin_service/01_WiredScenario/Output/Output_script/script_rosapi_2_output_robots8_freq0_3.txt
timestamp,date,node,latency,joint_1,joint_2,joint_3,joint_4,joint_5,joint_6
1641207846587475968,2022-01-03-11:04:06,10.1.1.4,164,-0.010,-0.010,-0.010,0.000,0.000,0.000
1641207846787645952,2022-01-03-11:04:06,10.1.1.4,164,-0.020,-0.020,-0.020,0.000,0.000,0.000
1641207846987204096,2022-01-03-11:04:06,10.1.1.4,163,-0.030,-0.030,-0.030,0.000,0.000,0.000
1641207847186340096,2022-01-03-11:04:07,10.1.1.4,162,-0.040,-0.040,-0.040,0.000,0.000,0.000
1641207847386210048,2022-01-03-11:04:07,10.1.1.4,160,-0.050,-0.050,-0.050,0.000,0.000,0.000
1641207847605742080,2022-01-03-11:04:07,10.1.1.4,179,-0.060,-0.060,-0.060,0.000,0.000,0.000
1641207847805185024,2022-01-03-11:04:07,10.1.1.4,178,-0.070,-0.070,-0.070,0.000,0.000,0.000
1641207848012099072,2022-01-03-11:04:08,10.1.1.4,184,-0.080,-0.080,-0.080,0.000,0.000,0.000
1641207848204966144,2022-01-03-11:04:08,10.1.1.4,176,-0.090,-0.090,-0.090,0.000,0.000,0.000
1641207848405807872,2022-01-03-11:04:08,10.1.1.4,176,-0.100,-0.100,-0.100,0.000,0.000,0.000
1641207848610831104,2022-01-03-11:04:08,10.1.1.4,180,-0.110,-0.110,-0.110,0.000,0.000,0.000
1641207848803319040,2022-01-03-11:04:08,10.1.1.4,171,-0.120,-0.120,-0.120,0.000,0.000,0.000
1641207849003140096,2022-01-03-11:04:09,10.1.1.4,170,-0.130,-0.130,-0.130,0.000,0.000,0.000
1641207849206001920,2022-01-03-11:04:09,10.1.1.4,172,-0.140,-0.140,-0.140,0.000,0.000,0.000
1641207849408587008,2022-01-03-11:04:09,10.1.1.4,174,-0.150,-0.150,-0.150,0.000,0.000,0.000
1641207849611623936,2022-01-03-11:04:09,10.1.1.4,171,-0.160,-0.160,-0.160,0.000,0.000,0.000
1641207849807939072,2022-01-03-11:04:09,10.1.1.4,170,-0.170,-0.170,-0.170,0.000,0.000,0.000
1641207850008264192,2022-01-03-11:04:10,10.1.1.4,169,-0.180,-0.180,-0.180,0.000,0.000,0.000
1641207850209873920,2022-01-03-11:04:10,10.1.1.4,169,-0.190,-0.190,-0.190,0.000,0.000,0.000
1641207850410136064,2022-01-03-11:04:10,10.1.1.4,168,-0.200,-0.200,-0.200,0.000,0.000,0.000
1641207850611478016,2022-01-03-11:04:10,10.1.1.4,168,-0.210,-0.210,-0.210,0.000,0.000,0.000
1641207850812086016,2022-01-03-11:04:10,10.1.1.4,167,-0.220,-0.220,-0.220,0.000,0.000,0.000
1641207851013133056,2022-01-03-11:04:11,10.1.1.4,167,-0.230,-0.230,-0.230,0.000,0.000,0.000
1641207851214149888,2022-01-03-11:04:11,10.1.1.4,167,-0.240,-0.240,-0.240,0.000,0.000,0.000
1641207851434312192,2022-01-03-11:04:11,10.1.1.4,187,-0.250,-0.250,-0.250,0.000,0.000,0.000
1641207851637840896,2022-01-03-11:04:11,10.1.1.4,187,-0.260,-0.260,-0.260,0.000,0.000,0.000
1641207851837475072,2022-01-03-11:04:11,10.1.1.4,188,-0.270,-0.270,-0.270,0.000,0.000,0.000
1641207852036911104,2022-01-03-11:04:12,10.1.1.4,185,-0.280,-0.280,-0.280,0.000,0.000,0.000
1641207852237035008,2022-01-03-11:04:12,10.1.1.4,185,-0.290,-0.290,-0.290,0.000,0.000,0.000
1641207852437740032,2022-01-03-11:04:12,10.1.1.4,185,-0.300,-0.300,-0.300,0.000,0.000,0.000
1641207852637979136,2022-01-03-11:04:12,10.1.1.4,184,-0.310,-0.310,-0.310,0.000,0.000,0.000
1641207852838552064,2022-01-03-11:04:12,10.1.1.4,184,-0.320,-0.320,-0.320,0.000,0.000,0.000
1641207853039188992,2022-01-03-11:04:13,10.1.1.4,183,-0.330,-0.330,-0.330,0.000,0.000,0.000
1641207853241808896,2022-01-03-11:04:13,10.1.1.4,183,-0.340,-0.340,-0.340,0.000,0.000,0.000
1641207853440627200,2022-01-03-11:04:13,10.1.1.4,181,-0.350,-0.350,-0.350,0.000,0.000,0.000
1641207853643974912,2022-01-03-11:04:13,10.1.1.4,181,-0.360,-0.360,-0.360,0.000,0.000,0.000
1641207853847008000,2022-01-03-11:04:13,10.1.1.4,185,-0.370,-0.370,-0.370,0.000,0.000,0.000
1641207854042460928,2022-01-03-11:04:14,10.1.1.4,180,-0.380,-0.380,-0.380,0.000,0.000,0.000
1641207854244787968,2022-01-03-11:04:14,10.1.1.4,178,-0.390,-0.390,-0.390,0.000,0.000,0.000
1641207854462063104,2022-01-03-11:04:14,10.1.1.4,195,-0.400,-0.400,-0.400,0.000,0.000,0.000
1641207854662348032,2022-01-03-11:04:14,10.1.1.4,191,-0.410,-0.410,-0.410,0.000,0.000,0.000
1641207854862344960,2022-01-03-11:04:14,10.1.1.4,190,-0.420,-0.420,-0.420,0.000,0.000,0.000
1641207855065044992,2022-01-03-11:04:15,10.1.1.4,192,-0.430,-0.430,-0.430,0.000,0.000,0.000
1641207855268731136,2022-01-03-11:04:15,10.1.1.4,195,-0.440,-0.440,-0.440,0.000,0.000,0.000
1641207855464709120,2022-01-03-11:04:15,10.1.1.4,190,-0.450,-0.450,-0.450,0.000,0.000,0.000
1641207855664603904,2022-01-03-11:04:15,10.1.1.4,189,-0.460,-0.460,-0.460,0.000,0.000,0.000
1641207855864937984,2022-01-03-11:04:15,10.1.1.4,189,-0.470,-0.470,-0.470,0.000,0.000,0.000
1641207856067084032,2022-01-03-11:04:16,10.1.1.4,190,-0.480,-0.480,-0.480,0.000,0.000,0.000
1641207856264345856,2022-01-03-11:04:16,10.1.1.4,186,-0.490,-0.490,-0.490,0.000,0.000,0.000
1641207856465133824,2022-01-03-11:04:16,10.1.1.4,186,-0.480,-0.480,-0.480,0.000,0.000,0.000
1641207856665339904,2022-01-03-11:04:16,10.1.1.4,186,-0.470,-0.470,-0.470,0.000,0.000,0.000
1641207856865016064,2022-01-03-11:04:16,10.1.1.4,185,-0.460,-0.460,-0.460,0.000,0.000,0.000
1641207857065515008,2022-01-03-11:04:17,10.1.1.4,185,-0.450,-0.450,-0.450,0.000,0.000,0.000
1641207857265955072,2022-01-03-11:04:17,10.1.1.4,184,-0.440,-0.440,-0.440,0.000,0.000,0.000
1641207857466177024,2022-01-03-11:04:17,10.1.1.4,183,-0.430,-0.430,-0.430,0.000,0.000,0.000
1641207857665929984,2022-01-03-11:04:17,10.1.1.4,182,-0.420,-0.420,-0.420,0.000,0.000,0.000
1641207857866219008,2022-01-03-11:04:17,10.1.1.4,182,-0.410,-0.410,-0.410,0.000,0.000,0.000
1641207858066351872,2022-01-03-11:04:18,10.1.1.4,182,-0.400,-0.400,-0.400,0.000,0.000,0.000
1641207858266368000,2022-01-03-11:04:18,10.1.1.4,181,-0.390,-0.390,-0.390,0.000,0.000,0.000
1641207858465852928,2022-01-03-11:04:18,10.1.1.4,180,-0.380,-0.380,-0.380,0.000,0.000,0.000
1641207858666040064,2022-01-03-11:04:18,10.1.1.4,179,-0.370,-0.370,-0.370,0.000,0.000,0.000
1641207858886436096,2022-01-03-11:04:18,10.1.1.4,199,-0.360,-0.360,-0.360,0.000,0.000,0.000
1641207859086544896,2022-01-03-11:04:19,10.1.1.4,198,-0.350,-0.350,-0.350,0.000,0.000,0.000
1641207859285953024,2022-01-03-11:04:19,10.1.1.4,197,-0.340,-0.340,-0.340,0.000,0.000,0.000
1641207859486555136,2022-01-03-11:04:19,10.1.1.4,197,-0.330,-0.330,-0.330,0.000,0.000,0.000
1641207859686791936,2022-01-03-11:04:19,10.1.1.4,197,-0.320,-0.320,-0.320,0.000,0.000,0.000
1641207859886491136,2022-01-03-11:04:19,10.1.1.4,196,-0.310,-0.310,-0.310,0.000,0.000,0.000
1641207860086157056,2022-01-03-11:04:20,10.1.1.4,195,-0.300,-0.300,-0.300,0.000,0.000,0.000
1641207860286658048,2022-01-03-11:04:20,10.1.1.4,194,-0.290,-0.290,-0.290,0.000,0.000,0.000
1641207860486473984,2022-01-03-11:04:20,10.1.1.4,192,-0.280,-0.280,-0.280,0.000,0.000,0.000
1641207860688687104,2022-01-03-11:04:20,10.1.1.4,191,-0.270,-0.270,-0.270,0.000,0.000,0.000
1641207861107391232,2022-01-03-11:04:21,10.1.1.4,193,-0.250,-0.250,-0.250,0.000,0.000,0.000
1641207861306616064,2022-01-03-11:04:21,10.1.1.4,192,-0.240,-0.240,-0.240,0.000,0.000,0.000
1641207861508389120,2022-01-03-11:04:21,10.1.1.4,189,-0.230,-0.230,-0.230,0.000,0.000,0.000
1641207861709029888,2022-01-03-11:04:21,10.1.1.4,190,-0.220,-0.220,-0.220,0.000,0.000,0.000
1641207861908412928,2022-01-03-11:04:21,10.1.1.4,187,-0.210,-0.210,-0.210,0.000,0.000,0.000
1641207862106516992,2022-01-03-11:04:22,10.1.1.4,183,-0.200,-0.200,-0.200,0.000,0.000,0.000
1641207862305681920,2022-01-03-11:04:22,10.1.1.4,181,-0.190,-0.190,-0.190,0.000,0.000,0.000
1641207862506031872,2022-01-03-11:04:22,10.1.1.4,181,-0.180,-0.180,-0.180,0.000,0.000,0.000
1641207862706563072,2022-01-03-11:04:22,10.1.1.4,180,-0.170,-0.170,-0.170,0.000,0.000,0.000
1641207862926039808,2022-01-03-11:04:22,10.1.1.4,198,-0.160,-0.160,-0.160,0.000,0.000,0.000
1641207863125861888,2022-01-03-11:04:23,10.1.1.4,197,-0.150,-0.150,-0.150,0.000,0.000,0.000
1641207863324888832,2022-01-03-11:04:23,10.1.1.4,195,-0.140,-0.140,-0.140,0.000,0.000,0.000
1641207863525309184,2022-01-03-11:04:23,10.1.1.4,195,-0.130,-0.130,-0.130,0.000,0.000,0.000
1641207863724436992,2022-01-03-11:04:23,10.1.1.4,193,-0.120,-0.120,-0.120,0.000,0.000,0.000
1641207863924809984,2022-01-03-11:04:23,10.1.1.4,193,-0.110,-0.110,-0.110,0.000,0.000,0.000
1641207864136976896,2022-01-03-11:04:24,10.1.1.4,198,-0.100,-0.100,-0.100,0.000,0.000,0.000
1641207864324897024,2022-01-03-11:04:24,10.1.1.4,187,-0.090,-0.090,-0.090,0.000,0.000,0.000
1641207864525656064,2022-01-03-11:04:24,10.1.1.4,187,-0.080,-0.080,-0.080,0.000,0.000,0.000
1641207864724324864,2022-01-03-11:04:24,10.1.1.4,185,-0.070,-0.070,-0.070,0.000,0.000,0.000
1641207864924494080,2022-01-03-11:04:24,10.1.1.4,183,-0.060,-0.060,-0.060,0.000,0.000,0.000
1641207865125152000,2022-01-03-11:04:25,10.1.1.4,184,-0.050,-0.050,-0.050,0.000,0.000,0.000
1641207865323357952,2022-01-03-11:04:25,10.1.1.4,181,-0.040,-0.040,-0.040,0.000,0.000,0.000
1641207865524125952,2022-01-03-11:04:25,10.1.1.4,181,-0.030,-0.030,-0.030,0.000,0.000,0.000
1641207865724015104,2022-01-03-11:04:25,10.1.1.4,181,-0.020,-0.020,-0.020,0.000,0.000,0.000
1641207865923527936,2022-01-03-11:04:25,10.1.1.4,180,-0.010,-0.010,-0.010,0.000,0.000,0.000
1641207866122652928,2022-01-03-11:04:26,10.1.1.4,178,0.000,0.000,0.000,0.000,0.000,0.000
1641207866322718976,2022-01-03-11:04:26,10.1.1.4,177,-0.010,-0.010,-0.010,0.000,0.000,0.000
1641207866523207936,2022-01-03-11:04:26,10.1.1.4,177,-0.020,-0.020,-0.020,0.000,0.000,0.000
1641207866722398976,2022-01-03-11:04:26,10.1.1.4,176,-0.030,-0.030,-0.030,0.000,0.000,0.000
1641207866948318976,2022-01-03-11:04:26,10.1.1.4,201,-0.040,-0.040,-0.040,0.000,0.000,0.000
1641207867143569920,2022-01-03-11:04:27,10.1.1.4,194,-0.050,-0.050,-0.050,0.000,0.000,0.000
1641207867341406208,2022-01-03-11:04:27,10.1.1.4,191,-0.060,-0.060,-0.060,0.000,0.000,0.000
1641207867541452032,2022-01-03-11:04:27,10.1.1.4,191,-0.070,-0.070,-0.070,0.000,0.000,0.000
1641207867741241088,2022-01-03-11:04:27,10.1.1.4,190,-0.080,-0.080,-0.080,0.000,0.000,0.000
1641207867940839936,2022-01-03-11:04:27,10.1.1.4,188,-0.090,-0.090,-0.090,0.000,0.000,0.000
1641207868143307008,2022-01-03-11:04:28,10.1.1.4,189,-0.100,-0.100,-0.100,0.000,0.000,0.000
1641207868340438016,2022-01-03-11:04:28,10.1.1.4,187,-0.110,-0.110,-0.110,0.000,0.000,0.000
1641207868540154880,2022-01-03-11:04:28,10.1.1.4,182,-0.120,-0.120,-0.120,0.000,0.000,0.000
1641207868739420928,2022-01-03-11:04:28,10.1.1.4,180,-0.130,-0.130,-0.130,0.000,0.000,0.000
1641207868940967168,2022-01-03-11:04:28,10.1.1.4,181,-0.140,-0.140,-0.140,0.000,0.000,0.000
1641207869139971072,2022-01-03-11:04:29,10.1.1.4,178,-0.150,-0.150,-0.150,0.000,0.000,0.000
1641207869343055872,2022-01-03-11:04:29,10.1.1.4,180,-0.160,-0.160,-0.160,0.000,0.000,0.000
1641207869541234944,2022-01-03-11:04:29,10.1.1.4,178,-0.170,-0.170,-0.170,0.000,0.000,0.000
1641207869738478848,2022-01-03-11:04:29,10.1.1.4,175,-0.180,-0.180,-0.180,0.000,0.000,0.000
1641207869938343168,2022-01-03-11:04:29,10.1.1.4,173,-0.190,-0.190,-0.190,0.000,0.000,0.000
1641207870137944832,2022-01-03-11:04:30,10.1.1.4,172,-0.200,-0.200,-0.200,0.000,0.000,0.000
1641207870339673088,2022-01-03-11:04:30,10.1.1.4,173,-0.210,-0.210,-0.210,0.000,0.000,0.000
1641207870558209024,2022-01-03-11:04:30,10.1.1.4,191,-0.220,-0.220,-0.220,0.000,0.000,0.000
1641207870757374976,2022-01-03-11:04:30,10.1.1.4,190,-0.230,-0.230,-0.230,0.000,0.000,0.000
1641207870959260928,2022-01-03-11:04:30,10.1.1.4,191,-0.240,-0.240,-0.240,0.000,0.000,0.000
1641207871156573184,2022-01-03-11:04:31,10.1.1.4,186,-0.250,-0.250,-0.250,0.000,0.000,0.000
1641207871356712960,2022-01-03-11:04:31,10.1.1.4,182,-0.260,-0.260,-0.260,0.000,0.000,0.000
1641207871556765952,2022-01-03-11:04:31,10.1.1.4,181,-0.270,-0.270,-0.270,0.000,0.000,0.000
1641207871755835904,2022-01-03-11:04:31,10.1.1.4,177,-0.280,-0.280,-0.280,0.000,0.000,0.000
1641207871956419840,2022-01-03-11:04:31,10.1.1.4,176,-0.290,-0.290,-0.290,0.000,0.000,0.000
1641207872155756032,2022-01-03-11:04:32,10.1.1.4,175,-0.300,-0.300,-0.300,0.000,0.000,0.000
1641207872355794944,2022-01-03-11:04:32,10.1.1.4,174,-0.310,-0.310,-0.310,0.000,0.000,0.000
1641207872554935808,2022-01-03-11:04:32,10.1.1.4,173,-0.320,-0.320,-0.320,0.000,0.000,0.000
1641207872757353984,2022-01-03-11:04:32,10.1.1.4,174,-0.330,-0.330,-0.330,0.000,0.000,0.000
1641207872955159040,2022-01-03-11:04:32,10.1.1.4,171,-0.340,-0.340,-0.340,0.000,0.000,0.000
1641207873154407936,2022-01-03-11:04:33,10.1.1.4,169,-0.350,-0.350,-0.350,0.000,0.000,0.000
1641207873573470208,2022-01-03-11:04:33,10.1.1.4,180,-0.370,-0.370,-0.370,0.000,0.000,0.000
1641207873773487104,2022-01-03-11:04:33,10.1.1.4,180,-0.380,-0.380,-0.380,0.000,0.000,0.000
1641207873976800000,2022-01-03-11:04:33,10.1.1.4,182,-0.390,-0.390,-0.390,0.000,0.000,0.000
1641207874173872896,2022-01-03-11:04:34,10.1.1.4,178,-0.400,-0.400,-0.400,0.000,0.000,0.000
1641207874372834048,2022-01-03-11:04:34,10.1.1.4,177,-0.410,-0.410,-0.410,0.000,0.000,0.000
1641207874574053120,2022-01-03-11:04:34,10.1.1.4,177,-0.420,-0.420,-0.420,0.000,0.000,0.000
1641207874773222912,2022-01-03-11:04:34,10.1.1.4,176,-0.430,-0.430,-0.430,0.000,0.000,0.000
1641207874971771904,2022-01-03-11:04:34,10.1.1.4,174,-0.440,-0.440,-0.440,0.000,0.000,0.000
1641207875171665920,2022-01-03-11:04:35,10.1.1.4,174,-0.450,-0.450,-0.450,0.000,0.000,0.000
1641207875370861056,2022-01-03-11:04:35,10.1.1.4,171,-0.460,-0.460,-0.460,0.000,0.000,0.000
1641207875570477056,2022-01-03-11:04:35,10.1.1.4,170,-0.470,-0.470,-0.470,0.000,0.000,0.000
1641207875770482176,2022-01-03-11:04:35,10.1.1.4,169,-0.480,-0.480,-0.480,0.000,0.000,0.000
1641207875970330112,2022-01-03-11:04:35,10.1.1.4,168,-0.490,-0.490,-0.490,0.000,0.000,0.000
1641207876170145024,2022-01-03-11:04:36,10.1.1.4,167,-0.480,-0.480,-0.480,0.000,0.000,0.000
1641207876370196992,2022-01-03-11:04:36,10.1.1.4,167,-0.470,-0.470,-0.470,0.000,0.000,0.000
1641207876571377152,2022-01-03-11:04:36,10.1.1.4,168,-0.460,-0.460,-0.460,0.000,0.000,0.000
1641207876769399040,2022-01-03-11:04:36,10.1.1.4,165,-0.450,-0.450,-0.450,0.000,0.000,0.000
1641207876985396992,2022-01-03-11:04:36,10.1.1.4,181,-0.440,-0.440,-0.440,0.000,0.000,0.000
1641207877169076992,2022-01-03-11:04:37,10.1.1.4,164,-0.430,-0.430,-0.430,0.000,0.000,0.000
1641207877399792896,2022-01-03-11:04:37,10.1.1.4,194,-0.420,-0.420,-0.420,0.000,0.000,0.000
1641207877587582976,2022-01-03-11:04:37,10.1.1.4,177,-0.410,-0.410,-0.410,0.000,0.000,0.000
1641207877787683072,2022-01-03-11:04:37,10.1.1.4,177,-0.400,-0.400,-0.400,0.000,0.000,0.000
1641207877987413760,2022-01-03-11:04:37,10.1.1.4,176,-0.390,-0.390,-0.390,0.000,0.000,0.000
1641207878186333952,2022-01-03-11:04:38,10.1.1.4,174,-0.380,-0.380,-0.380,0.000,0.000,0.000
1641207878386006016,2022-01-03-11:04:38,10.1.1.4,173,-0.370,-0.370,-0.370,0.000,0.000,0.000
1641207878588433152,2022-01-03-11:04:38,10.1.1.4,175,-0.360,-0.360,-0.360,0.000,0.000,0.000
1641207878786102016,2022-01-03-11:04:38,10.1.1.4,172,-0.350,-0.350,-0.350,0.000,0.000,0.000
1641207878987492096,2022-01-03-11:04:38,10.1.1.4,173,-0.340,-0.340,-0.340,0.000,0.000,0.000
1641207879185687040,2022-01-03-11:04:39,10.1.1.4,171,-0.330,-0.330,-0.330,0.000,0.000,0.000
1641207879384717056,2022-01-03-11:04:39,10.1.1.4,169,-0.320,-0.320,-0.320,0.000,0.000,0.000
1641207879589660928,2022-01-03-11:04:39,10.1.1.4,173,-0.310,-0.310,-0.310,0.000,0.000,0.000
1641207879783834880,2022-01-03-11:04:39,10.1.1.4,165,-0.300,-0.300,-0.300,0.000,0.000,0.000
1641207879984530944,2022-01-03-11:04:39,10.1.1.4,166,-0.290,-0.290,-0.290,0.000,0.000,0.000
1641207880183581952,2022-01-03-11:04:40,10.1.1.4,163,-0.280,-0.280,-0.280,0.000,0.000,0.000
1641207880383787008,2022-01-03-11:04:40,10.1.1.4,162,-0.270,-0.270,-0.270,0.000,0.000,0.000
1641207880582755072,2022-01-03-11:04:40,10.1.1.4,160,-0.260,-0.260,-0.260,0.000,0.000,0.000
1641207880782844928,2022-01-03-11:04:40,10.1.1.4,160,-0.250,-0.250,-0.250,0.000,0.000,0.000
1641207880982025984,2022-01-03-11:04:40,10.1.1.4,158,-0.240,-0.240,-0.240,0.000,0.000,0.000
1641207881182984960,2022-01-03-11:04:41,10.1.1.4,159,-0.230,-0.230,-0.230,0.000,0.000,0.000
1641207881383889920,2022-01-03-11:04:41,10.1.1.4,159,-0.220,-0.220,-0.220,0.000,0.000,0.000
1641207881585585152,2022-01-03-11:04:41,10.1.1.4,160,-0.210,-0.210,-0.210,0.000,0.000,0.000
1641207881786742016,2022-01-03-11:04:41,10.1.1.4,161,-0.200,-0.200,-0.200,0.000,0.000,0.000
1641207881987163904,2022-01-03-11:04:41,10.1.1.4,161,-0.190,-0.190,-0.190,0.000,0.000,0.000
1641207882209070080,2022-01-03-11:04:42,10.1.1.4,182,-0.180,-0.180,-0.180,0.000,0.000,0.000
1641207882412306176,2022-01-03-11:04:42,10.1.1.4,184,-0.170,-0.170,-0.170,0.000,0.000,0.000
1641207882609867008,2022-01-03-11:04:42,10.1.1.4,181,-0.160,-0.160,-0.160,0.000,0.000,0.000
1641207882810513920,2022-01-03-11:04:42,10.1.1.4,181,-0.150,-0.150,-0.150,0.000,0.000,0.000
1641207883011900928,2022-01-03-11:04:43,10.1.1.4,182,-0.140,-0.140,-0.140,0.000,0.000,0.000
1641207883212359936,2022-01-03-11:04:43,10.1.1.4,182,-0.130,-0.130,-0.130,0.000,0.000,0.000
1641207883412910080,2022-01-03-11:04:43,10.1.1.4,182,-0.120,-0.120,-0.120,0.000,0.000,0.000
1641207883614072064,2022-01-03-11:04:43,10.1.1.4,183,-0.110,-0.110,-0.110,0.000,0.000,0.000
1641207883814419968,2022-01-03-11:04:43,10.1.1.4,183,-0.100,-0.100,-0.100,0.000,0.000,0.000
1641207884015505920,2022-01-03-11:04:44,10.1.1.4,183,-0.090,-0.090,-0.090,0.000,0.000,0.000
1641207884215493888,2022-01-03-11:04:44,10.1.1.4,183,-0.080,-0.080,-0.080,0.000,0.000,0.000
1641207884416659968,2022-01-03-11:04:44,10.1.1.4,184,-0.070,-0.070,-0.070,0.000,0.000,0.000
1641207884616846080,2022-01-03-11:04:44,10.1.1.4,183,-0.060,-0.060,-0.060,0.000,0.000,0.000
1641207884817347072,2022-01-03-11:04:44,10.1.1.4,183,-0.050,-0.050,-0.050,0.000,0.000,0.000
1641207885024859904,2022-01-03-11:04:45,10.1.1.4,189,-0.040,-0.040,-0.040,0.000,0.000,0.000
1641207885218588160,2022-01-03-11:04:45,10.1.1.4,180,-0.030,-0.030,-0.030,0.000,0.000,0.000
1641207885419064064,2022-01-03-11:04:45,10.1.1.4,173,-0.020,-0.020,-0.020,0.000,0.000,0.000
1641207885639697920,2022-01-03-11:04:45,10.1.1.4,192,-0.010,-0.010,-0.010,0.000,0.000,0.000
1641207885840203008,2022-01-03-11:04:45,10.1.1.4,192,0.000,0.000,0.000,0.000,0.000,0.000
1641207886040836096,2022-01-03-11:04:46,10.1.1.4,192,-0.010,-0.010,-0.010,0.000,0.000,0.000
1641207886241848064,2022-01-03-11:04:46,10.1.1.4,193,-0.020,-0.020,-0.020,0.000,0.000,0.000
1641207886441803008,2022-01-03-11:04:46,10.1.1.4,192,-0.030,-0.030,-0.030,0.000,0.000,0.000
1641207886642092032,2022-01-03-11:04:46,10.1.1.4,192,-0.040,-0.040,-0.040,0.000,0.000,0.000
1641207886844057088,2022-01-03-11:04:46,10.1.1.4,193,-0.050,-0.050,-0.050,0.000,0.000,0.000
1641207887042823936,2022-01-03-11:04:47,10.1.1.4,192,-0.060,-0.060,-0.060,0.000,0.000,0.000
1641207887243079936,2022-01-03-11:04:47,10.1.1.4,192,-0.070,-0.070,-0.070,0.000,0.000,0.000
1641207887446190080,2022-01-03-11:04:47,10.1.1.4,194,-0.080,-0.080,-0.080,0.000,0.000,0.000
1641207887644079872,2022-01-03-11:04:47,10.1.1.4,191,-0.090,-0.090,-0.090,0.000,0.000,0.000
1641207887844080896,2022-01-03-11:04:47,10.1.1.4,188,-0.100,-0.100,-0.100,0.000,0.000,0.000
1641207888044698880,2022-01-03-11:04:48,10.1.1.4,188,-0.110,-0.110,-0.110,0.000,0.000,0.000
1641207888244677120,2022-01-03-11:04:48,10.1.1.4,187,-0.120,-0.120,-0.120,0.000,0.000,0.000
1641207888444376832,2022-01-03-11:04:48,10.1.1.4,186,-0.130,-0.130,-0.130,0.000,0.000,0.000
1641207888644651008,2022-01-03-11:04:48,10.1.1.4,186,-0.140,-0.140,-0.140,0.000,0.000,0.000
1641207888844922112,2022-01-03-11:04:48,10.1.1.4,186,-0.150,-0.150,-0.150,0.000,0.000,0.000
1641207889045321984,2022-01-03-11:04:49,10.1.1.4,186,-0.160,-0.160,-0.160,0.000,0.000,0.000
1641207889245142016,2022-01-03-11:04:49,10.1.1.4,185,-0.170,-0.170,-0.170,0.000,0.000,0.000
1641207889449188864,2022-01-03-11:04:49,10.1.1.4,189,-0.180,-0.180,-0.180,0.000,0.000,0.000
1641207889646047232,2022-01-03-11:04:49,10.1.1.4,186,-0.190,-0.190,-0.190,0.000,0.000,0.000
1641207889849051904,2022-01-03-11:04:49,10.1.1.4,188,-0.200,-0.200,-0.200,0.000,0.000,0.000
1641207890046183168,2022-01-03-11:04:50,10.1.1.4,184,-0.210,-0.210,-0.210,0.000,0.000,0.000
1641207890246582016,2022-01-03-11:04:50,10.1.1.4,184,-0.220,-0.220,-0.220,0.000,0.000,0.000
1641207890451206912,2022-01-03-11:04:50,10.1.1.4,188,-0.230,-0.230,-0.230,0.000,0.000,0.000
1641207890647060992,2022-01-03-11:04:50,10.1.1.4,183,-0.240,-0.240,-0.240,0.000,0.000,0.000
1641207890845916160,2022-01-03-11:04:50,10.1.1.4,182,-0.250,-0.250,-0.250,0.000,0.000,0.000
1641207891045851904,2022-01-03-11:04:51,10.1.1.4,181,-0.260,-0.260,-0.260,0.000,0.000,0.000
1641207891246351104,2022-01-03-11:04:51,10.1.1.4,181,-0.270,-0.270,-0.270,0.000,0.000,0.000
1641207891447312128,2022-01-03-11:04:51,10.1.1.4,181,-0.280,-0.280,-0.280,0.000,0.000,0.000
1641207891646660096,2022-01-03-11:04:51,10.1.1.4,180,-0.290,-0.290,-0.290,0.000,0.000,0.000
1641207891867052032,2022-01-03-11:04:51,10.1.1.4,200,-0.300,-0.300,-0.300,0.000,0.000,0.000
1641207892067158016,2022-01-03-11:04:52,10.1.1.4,199,-0.310,-0.310,-0.310,0.000,0.000,0.000
1641207892266916864,2022-01-03-11:04:52,10.1.1.4,199,-0.320,-0.320,-0.320,0.000,0.000,0.000
1641207892466594048,2022-01-03-11:04:52,10.1.1.4,197,-0.330,-0.330,-0.330,0.000,0.000,0.000
1641207892666313984,2022-01-03-11:04:52,10.1.1.4,196,-0.340,-0.340,-0.340,0.000,0.000,0.000
1641207892867228928,2022-01-03-11:04:52,10.1.1.4,196,-0.350,-0.350,-0.350,0.000,0.000,0.000
1641207893066432000,2022-01-03-11:04:53,10.1.1.4,195,-0.360,-0.360,-0.360,0.000,0.000,0.000
1641207893265774848,2022-01-03-11:04:53,10.1.1.4,194,-0.370,-0.370,-0.370,0.000,0.000,0.000
1641207893466236160,2022-01-03-11:04:53,10.1.1.4,194,-0.380,-0.380,-0.380,0.000,0.000,0.000
1641207893666260992,2022-01-03-11:04:53,10.1.1.4,194,-0.390,-0.390,-0.390,0.000,0.000,0.000
1641207893866447872,2022-01-03-11:04:53,10.1.1.4,193,-0.400,-0.400,-0.400,0.000,0.000,0.000
1641207894065684992,2022-01-03-11:04:54,10.1.1.4,192,-0.410,-0.410,-0.410,0.000,0.000,0.000
1641207894266813952,2022-01-03-11:04:54,10.1.1.4,192,-0.420,-0.420,-0.420,0.000,0.000,0.000
1641207894468270080,2022-01-03-11:04:54,10.1.1.4,193,-0.430,-0.430,-0.430,0.000,0.000,0.000
1641207894667577856,2022-01-03-11:04:54,10.1.1.4,187,-0.440,-0.440,-0.440,0.000,0.000,0.000
1641207894871531008,2022-01-03-11:04:54,10.1.1.4,189,-0.450,-0.450,-0.450,0.000,0.000,0.000
1641207895065745152,2022-01-03-11:04:55,10.1.1.4,182,-0.460,-0.460,-0.460,0.000,0.000,0.000
1641207895265257984,2022-01-03-11:04:55,10.1.1.4,181,-0.470,-0.470,-0.470,0.000,0.000,0.000
1641207895465285120,2022-01-03-11:04:55,10.1.1.4,181,-0.480,-0.480,-0.480,0.000,0.000,0.000
1641207895665292032,2022-01-03-11:04:55,10.1.1.4,180,-0.490,-0.490,-0.490,0.000,0.000,0.000
1641207895864846080,2022-01-03-11:04:55,10.1.1.4,179,-0.480,-0.480,-0.480,0.000,0.000,0.000
1641207896086852096,2022-01-03-11:04:56,10.1.1.4,200,-0.470,-0.470,-0.470,0.000,0.000,0.000
1641207896284539904,2022-01-03-11:04:56,10.1.1.4,196,-0.460,-0.460,-0.460,0.000,0.000,0.000
1641207896485049088,2022-01-03-11:04:56,10.1.1.4,196,-0.450,-0.450,-0.450,0.000,0.000,0.000
1641207896685260032,2022-01-03-11:04:56,10.1.1.4,193,-0.440,-0.440,-0.440,0.000,0.000,0.000
1641207896884457216,2022-01-03-11:04:56,10.1.1.4,192,-0.430,-0.430,-0.430,0.000,0.000,0.000
1641207897084905984,2022-01-03-11:04:57,10.1.1.4,191,-0.420,-0.420,-0.420,0.000,0.000,0.000
1641207897284143872,2022-01-03-11:04:57,10.1.1.4,190,-0.410,-0.410,-0.410,0.000,0.000,0.000
1641207897484066048,2022-01-03-11:04:57,10.1.1.4,190,-0.400,-0.400,-0.400,0.000,0.000,0.000
1641207897684343040,2022-01-03-11:04:57,10.1.1.4,189,-0.390,-0.390,-0.390,0.000,0.000,0.000
1641207897884421120,2022-01-03-11:04:57,10.1.1.4,189,-0.380,-0.380,-0.380,0.000,0.000,0.000
1641207898083218176,2022-01-03-11:04:58,10.1.1.4,187,-0.370,-0.370,-0.370,0.000,0.000,0.000
1641207898282846976,2022-01-03-11:04:58,10.1.1.4,185,-0.360,-0.360,-0.360,0.000,0.000,0.000
1641207898482734848,2022-01-03-11:04:58,10.1.1.4,185,-0.350,-0.350,-0.350,0.000,0.000,0.000
1641207898682008064,2022-01-03-11:04:58,10.1.1.4,183,-0.340,-0.340,-0.340,0.000,0.000,0.000
1641207898885655040,2022-01-03-11:04:58,10.1.1.4,185,-0.330,-0.330,-0.330,0.000,0.000,0.000
1641207899082114816,2022-01-03-11:04:59,10.1.1.4,181,-0.320,-0.320,-0.320,0.000,0.000,0.000
1641207899281758976,2022-01-03-11:04:59,10.1.1.4,179,-0.310,-0.310,-0.310,0.000,0.000,0.000
1641207899481779200,2022-01-03-11:04:59,10.1.1.4,177,-0.300,-0.300,-0.300,0.000,0.000,0.000
1641207899682320128,2022-01-03-11:04:59,10.1.1.4,177,-0.290,-0.290,-0.290,0.000,0.000,0.000
1641207899882222848,2022-01-03-11:04:59,10.1.1.4,176,-0.280,-0.280,-0.280,0.000,0.000,0.000
1641207900101519104,2022-01-03-11:05:00,10.1.1.4,195,-0.270,-0.270,-0.270,0.000,0.000,0.000
1641207900300747008,2022-01-03-11:05:00,10.1.1.4,193,-0.260,-0.260,-0.260,0.000,0.000,0.000
1641207900505629952,2022-01-03-11:05:00,10.1.1.4,197,-0.250,-0.250,-0.250,0.000,0.000,0.000
1641207900701085952,2022-01-03-11:05:00,10.1.1.4,192,-0.240,-0.240,-0.240,0.000,0.000,0.000
1641207900901405184,2022-01-03-11:05:00,10.1.1.4,192,-0.230,-0.230,-0.230,0.000,0.000,0.000
1641207901100400896,2022-01-03-11:05:01,10.1.1.4,191,-0.220,-0.220,-0.220,0.000,0.000,0.000
1641207901300353024,2022-01-03-11:05:01,10.1.1.4,190,-0.210,-0.210,-0.210,0.000,0.000,0.000
1641207901499458048,2022-01-03-11:05:01,10.1.1.4,189,-0.200,-0.200,-0.200,0.000,0.000,0.000
1641207901699262976,2022-01-03-11:05:01,10.1.1.4,188,-0.190,-0.190,-0.190,0.000,0.000,0.000
1641207901900845056,2022-01-03-11:05:01,10.1.1.4,189,-0.180,-0.180,-0.180,0.000,0.000,0.000
1641207902098856960,2022-01-03-11:05:02,10.1.1.4,186,-0.170,-0.170,-0.170,0.000,0.000,0.000
1641207902299640064,2022-01-03-11:05:02,10.1.1.4,186,-0.160,-0.160,-0.160,0.000,0.000,0.000
1641207902498590976,2022-01-03-11:05:02,10.1.1.4,178,-0.150,-0.150,-0.150,0.000,0.000,0.000
1641207902699604992,2022-01-03-11:05:02,10.1.1.4,177,-0.140,-0.140,-0.140,0.000,0.000,0.000
1641207902899841024,2022-01-03-11:05:02,10.1.1.4,176,-0.130,-0.130,-0.130,0.000,0.000,0.000
1641207903097358848,2022-01-03-11:05:03,10.1.1.4,173,-0.120,-0.120,-0.120,0.000,0.000,0.000
1641207903317199104,2022-01-03-11:05:03,10.1.1.4,189,-0.110,-0.110,-0.110,0.000,0.000,0.000
1641207903517415936,2022-01-03-11:05:03,10.1.1.4,177,-0.100,-0.100,-0.100,0.000,0.000,0.000
1641207903718105088,2022-01-03-11:05:03,10.1.1.4,177,-0.090,-0.090,-0.090,0.000,0.000,0.000
1641207903917094912,2022-01-03-11:05:03,10.1.1.4,175,-0.080,-0.080,-0.080,0.000,0.000,0.000
1641207904116297984,2022-01-03-11:05:04,10.1.1.4,173,-0.070,-0.070,-0.070,0.000,0.000,0.000
1641207904320413184,2022-01-03-11:05:04,10.1.1.4,177,-0.060,-0.060,-0.060,0.000,0.000,0.000
1641207904515322880,2022-01-03-11:05:04,10.1.1.4,171,-0.050,-0.050,-0.050,0.000,0.000,0.000
1641207904715152896,2022-01-03-11:05:04,10.1.1.4,170,-0.040,-0.040,-0.040,0.000,0.000,0.000
1641207904915174912,2022-01-03-11:05:04,10.1.1.4,170,-0.030,-0.030,-0.030,0.000,0.000,0.000
1641207905115650048,2022-01-03-11:05:05,10.1.1.4,169,-0.020,-0.020,-0.020,0.000,0.000,0.000
1641207905335199232,2022-01-03-11:05:05,10.1.1.4,188,-0.010,-0.010,-0.010,0.000,0.000,0.000
1641207905534599168,2022-01-03-11:05:05,10.1.1.4,186,0.000,0.000,0.000,0.000,0.000,0.000
1641207905734201856,2022-01-03-11:05:05,10.1.1.4,185,-0.010,-0.010,-0.010,0.000,0.000,0.000
1641207905933788928,2022-01-03-11:05:05,10.1.1.4,184,-0.020,-0.020,-0.020,0.000,0.000,0.000
1641207906133282048,2022-01-03-11:05:06,10.1.1.4,183,-0.030,-0.030,-0.030,0.000,0.000,0.000
1641207906332612864,2022-01-03-11:05:06,10.1.1.4,182,-0.040,-0.040,-0.040,0.000,0.000,0.000
1641207906533965056,2022-01-03-11:05:06,10.1.1.4,183,-0.050,-0.050,-0.050,0.000,0.000,0.000
1641207906732441856,2022-01-03-11:05:06,10.1.1.4,181,-0.060,-0.060,-0.060,0.000,0.000,0.000
1641207906932467968,2022-01-03-11:05:06,10.1.1.4,180,-0.070,-0.070,-0.070,0.000,0.000,0.000
1641207907131695872,2022-01-03-11:05:07,10.1.1.4,179,-0.080,-0.080,-0.080,0.000,0.000,0.000
1641207907332092928,2022-01-03-11:05:07,10.1.1.4,179,-0.090,-0.090,-0.090,0.000,0.000,0.000
1641207907530766848,2022-01-03-11:05:07,10.1.1.4,177,-0.100,-0.100,-0.100,0.000,0.000,0.000
1641207907730434048,2022-01-03-11:05:07,10.1.1.4,176,-0.110,-0.110,-0.110,0.000,0.000,0.000
1641207907930583040,2022-01-03-11:05:07,10.1.1.4,176,-0.120,-0.120,-0.120,0.000,0.000,0.000
1641207908131059968,2022-01-03-11:05:08,10.1.1.4,176,-0.130,-0.130,-0.130,0.000,0.000,0.000
1641207908329797120,2022-01-03-11:05:08,10.1.1.4,174,-0.140,-0.140,-0.140,0.000,0.000,0.000
1641207908529243904,2022-01-03-11:05:08,10.1.1.4,173,-0.150,-0.150,-0.150,0.000,0.000,0.000
1641207908729789952,2022-01-03-11:05:08,10.1.1.4,172,-0.160,-0.160,-0.160,0.000,0.000,0.000
1641207908928776960,2022-01-03-11:05:08,10.1.1.4,171,-0.170,-0.170,-0.170,0.000,0.000,0.000
1641207909128609792,2022-01-03-11:05:09,10.1.1.4,170,-0.180,-0.180,-0.180,0.000,0.000,0.000
1641207909328264960,2022-01-03-11:05:09,10.1.1.4,169,-0.190,-0.190,-0.190,0.000,0.000,0.000
1641207909548477952,2022-01-03-11:05:09,10.1.1.4,175,-0.200,-0.200,-0.200,0.000,0.000,0.000
1641207909749156864,2022-01-03-11:05:09,10.1.1.4,175,-0.210,-0.210,-0.210,0.000,0.000,0.000
1641207909947141888,2022-01-03-11:05:09,10.1.1.4,171,-0.220,-0.220,-0.220,0.000,0.000,0.000
1641207910148070144,2022-01-03-11:05:10,10.1.1.4,171,-0.230,-0.230,-0.230,0.000,0.000,0.000
1641207910347667968,2022-01-03-11:05:10,10.1.1.4,169,-0.240,-0.240,-0.240,0.000,0.000,0.000
1641207910546756864,2022-01-03-11:05:10,10.1.1.4,168,-0.250,-0.250,-0.250,0.000,0.000,0.000
1641207910745691904,2022-01-03-11:05:10,10.1.1.4,167,-0.260,-0.260,-0.260,0.000,0.000,0.000
1641207910945931008,2022-01-03-11:05:10,10.1.1.4,166,-0.270,-0.270,-0.270,0.000,0.000,0.000
1641207911145775104,2022-01-03-11:05:11,10.1.1.4,166,-0.280,-0.280,-0.280,0.000,0.000,0.000
1641207911350625024,2022-01-03-11:05:11,10.1.1.4,169,-0.290,-0.290,-0.290,0.000,0.000,0.000
1641207911544929024,2022-01-03-11:05:11,10.1.1.4,162,-0.300,-0.300,-0.300,0.000,0.000,0.000
1641207911744529920,2022-01-03-11:05:11,10.1.1.4,162,-0.310,-0.310,-0.310,0.000,0.000,0.000
1641207911944794880,2022-01-03-11:05:11,10.1.1.4,162,-0.320,-0.320,-0.320,0.000,0.000,0.000
1641207912144012032,2022-01-03-11:05:12,10.1.1.4,161,-0.330,-0.330,-0.330,0.000,0.000,0.000
1641207912342920192,2022-01-03-11:05:12,10.1.1.4,159,-0.340,-0.340,-0.340,0.000,0.000,0.000
1641207912544212224,2022-01-03-11:05:12,10.1.1.4,159,-0.350,-0.350,-0.350,0.000,0.000,0.000
1641207912743112192,2022-01-03-11:05:12,10.1.1.4,158,-0.360,-0.360,-0.360,0.000,0.000,0.000
1641207912942724096,2022-01-03-11:05:12,10.1.1.4,157,-0.370,-0.370,-0.370,0.000,0.000,0.000
1641207913142412032,2022-01-03-11:05:13,10.1.1.4,156,-0.380,-0.380,-0.380,0.000,0.000,0.000
1641207913365669888,2022-01-03-11:05:13,10.1.1.4,177,-0.390,-0.390,-0.390,0.000,0.000,0.000
1641207913561872128,2022-01-03-11:05:13,10.1.1.4,174,-0.400,-0.400,-0.400,0.000,0.000,0.000
1641207913762531072,2022-01-03-11:05:13,10.1.1.4,169,-0.410,-0.410,-0.410,0.000,0.000,0.000
1641207913963462144,2022-01-03-11:05:13,10.1.1.4,167,-0.420,-0.420,-0.420,0.000,0.000,0.000
1641207914161339904,2022-01-03-11:05:14,10.1.1.4,166,-0.430,-0.430,-0.430,0.000,0.000,0.000
1641207914362914048,2022-01-03-11:05:14,10.1.1.4,165,-0.440,-0.440,-0.440,0.000,0.000,0.000
1641207914564155136,2022-01-03-11:05:14,10.1.1.4,165,-0.450,-0.450,-0.450,0.000,0.000,0.000
1641207914765146880,2022-01-03-11:05:14,10.1.1.4,166,-0.460,-0.460,-0.460,0.000,0.000,0.000
1641207914966178816,2022-01-03-11:05:14,10.1.1.4,166,-0.470,-0.470,-0.470,0.000,0.000,0.000
1641207915166708992,2022-01-03-11:05:15,10.1.1.4,166,-0.480,-0.480,-0.480,0.000,0.000,0.000
1641207915368427008,2022-01-03-11:05:15,10.1.1.4,167,-0.490,-0.490,-0.490,0.000,0.000,0.000
1641207915568708864,2022-01-03-11:05:15,10.1.1.4,166,-0.480,-0.480,-0.480,0.000,0.000,0.000
1641207915769680896,2022-01-03-11:05:15,10.1.1.4,166,-0.470,-0.470,-0.470,0.000,0.000,0.000
1641207915972069120,2022-01-03-11:05:15,10.1.1.4,167,-0.460,-0.460,-0.460,0.000,0.000,0.000
1641207916171488000,2022-01-03-11:05:16,10.1.1.4,166,-0.450,-0.450,-0.450,0.000,0.000,0.000
1641207916372091136,2022-01-03-11:05:16,10.1.1.4,166,-0.440,-0.440,-0.440,0.000,0.000,0.000
1641207916572577024,2022-01-03-11:05:16,10.1.1.4,166,-0.430,-0.430,-0.430,0.000,0.000,0.000
1641207916793179136,2022-01-03-11:05:16,10.1.1.4,186,-0.420,-0.420,-0.420,0.000,0.000,0.000
1641207916994205952,2022-01-03-11:05:16,10.1.1.4,186,-0.410,-0.410,-0.410,0.000,0.000,0.000
1641207917196548864,2022-01-03-11:05:17,10.1.1.4,188,-0.400,-0.400,-0.400,0.000,0.000,0.000
1641207917394990080,2022-01-03-11:05:17,10.1.1.4,186,-0.390,-0.390,-0.390,0.000,0.000,0.000
1641207917596066048,2022-01-03-11:05:17,10.1.1.4,186,-0.380,-0.380,-0.380,0.000,0.000,0.000
1641207917796648960,2022-01-03-11:05:17,10.1.1.4,186,-0.370,-0.370,-0.370,0.000,0.000,0.000
1641207917998416896,2022-01-03-11:05:17,10.1.1.4,186,-0.360,-0.360,-0.360,0.000,0.000,0.000
1641207918207297024,2022-01-03-11:05:18,10.1.1.4,194,-0.350,-0.350,-0.350,0.000,0.000,0.000
1641207918405474048,2022-01-03-11:05:18,10.1.1.4,191,-0.340,-0.340,-0.340,0.000,0.000,0.000
1641207918599066880,2022-01-03-11:05:18,10.1.1.4,184,-0.330,-0.330,-0.330,0.000,0.000,0.000
1641207918800311040,2022-01-03-11:05:18,10.1.1.4,184,-0.320,-0.320,-0.320,0.000,0.000,0.000
1641207919000643072,2022-01-03-11:05:19,10.1.1.4,183,-0.310,-0.310,-0.310,0.000,0.000,0.000
1641207919200907008,2022-01-03-11:05:19,10.1.1.4,183,-0.300,-0.300,-0.300,0.000,0.000,0.000
1641207919400684032,2022-01-03-11:05:19,10.1.1.4,182,-0.290,-0.290,-0.290,0.000,0.000,0.000
1641207919601203968,2022-01-03-11:05:19,10.1.1.4,182,-0.280,-0.280,-0.280,0.000,0.000,0.000
1641207919801601024,2022-01-03-11:05:19,10.1.1.4,182,-0.270,-0.270,-0.270,0.000,0.000,0.000
1641207920001713920,2022-01-03-11:05:20,10.1.1.4,179,-0.260,-0.260,-0.260,0.000,0.000,0.000
1641207920201880832,2022-01-03-11:05:20,10.1.1.4,179,-0.250,-0.250,-0.250,0.000,0.000,0.000
1641207920402462976,2022-01-03-11:05:20,10.1.1.4,178,-0.240,-0.240,-0.240,0.000,0.000,0.000
1641207920603399936,2022-01-03-11:05:20,10.1.1.4,178,-0.230,-0.230,-0.230,0.000,0.000,0.000
1641207920803769088,2022-01-03-11:05:20,10.1.1.4,178,-0.220,-0.220,-0.220,0.000,0.000,0.000
1641207921003265024,2022-01-03-11:05:21,10.1.1.4,177,-0.210,-0.210,-0.210,0.000,0.000,0.000
1641207921223446016,2022-01-03-11:05:21,10.1.1.4,196,-0.200,-0.200,-0.200,0.000,0.000,0.000
1641207921423223040,2022-01-03-11:05:21,10.1.1.4,195,-0.190,-0.190,-0.190,0.000,0.000,0.000
1641207921623467008,2022-01-03-11:05:21,10.1.1.4,194,-0.180,-0.180,-0.180,0.000,0.000,0.000
1641207921828584960,2022-01-03-11:05:21,10.1.1.4,197,-0.170,-0.170,-0.170,0.000,0.000,0.000
1641207922024283904,2022-01-03-11:05:22,10.1.1.4,191,-0.160,-0.160,-0.160,0.000,0.000,0.000
1641207922224164864,2022-01-03-11:05:22,10.1.1.4,187,-0.150,-0.150,-0.150,0.000,0.000,0.000
1641207922424647936,2022-01-03-11:05:22,10.1.1.4,187,-0.140,-0.140,-0.140,0.000,0.000,0.000
1641207922624770048,2022-01-03-11:05:22,10.1.1.4,186,-0.130,-0.130,-0.130,0.000,0.000,0.000
1641207922825227008,2022-01-03-11:05:22,10.1.1.4,186,-0.120,-0.120,-0.120,0.000,0.000,0.000
1641207923024697088,2022-01-03-11:05:23,10.1.1.4,185,-0.110,-0.110,-0.110,0.000,0.000,0.000
1641207923225158912,2022-01-03-11:05:23,10.1.1.4,180,-0.100,-0.100,-0.100,0.000,0.000,0.000
1641207923426817024,2022-01-03-11:05:23,10.1.1.4,181,-0.090,-0.090,-0.090,0.000,0.000,0.000
1641207923644845056,2022-01-03-11:05:23,10.1.1.4,198,-0.080,-0.080,-0.080,0.000,0.000,0.000
1641207923845107200,2022-01-03-11:05:23,10.1.1.4,197,-0.070,-0.070,-0.070,0.000,0.000,0.000
1641207924045914880,2022-01-03-11:05:24,10.1.1.4,197,-0.060,-0.060,-0.060,0.000,0.000,0.000
1641207924245889792,2022-01-03-11:05:24,10.1.1.4,196,-0.050,-0.050,-0.050,0.000,0.000,0.000
1641207924445893120,2022-01-03-11:05:24,10.1.1.4,196,-0.040,-0.040,-0.040,0.000,0.000,0.000
1641207924645804800,2022-01-03-11:05:24,10.1.1.4,195,-0.030,-0.030,-0.030,0.000,0.000,0.000
1641207924845472000,2022-01-03-11:05:24,10.1.1.4,194,-0.020,-0.020,-0.020,0.000,0.000,0.000
1641207925050676224,2022-01-03-11:05:25,10.1.1.4,198,-0.010,-0.010,-0.010,0.000,0.000,0.000
1641207925245300992,2022-01-03-11:05:25,10.1.1.4,192,0.000,0.000,0.000,0.000,0.000,0.000
1641207925445532160,2022-01-03-11:05:25,10.1.1.4,192,-0.010,-0.010,-0.010,0.000,0.000,0.000
1641207925645726976,2022-01-03-11:05:25,10.1.1.4,192,-0.020,-0.020,-0.020,0.000,0.000,0.000
1641207925845214976,2022-01-03-11:05:25,10.1.1.4,188,-0.030,-0.030,-0.030,0.000,0.000,0.000
1641207926045104128,2022-01-03-11:05:26,10.1.1.4,182,-0.040,-0.040,-0.040,0.000,0.000,0.000
1641207926247497984,2022-01-03-11:05:26,10.1.1.4,184,-0.050,-0.050,-0.050,0.000,0.000,0.000
1641207926445202176,2022-01-03-11:05:26,10.1.1.4,181,-0.060,-0.060,-0.060,0.000,0.000,0.000
1641207926648692992,2022-01-03-11:05:26,10.1.1.4,184,-0.070,-0.070,-0.070,0.000,0.000,0.000
1641207926845107968,2022-01-03-11:05:26,10.1.1.4,179,-0.080,-0.080,-0.080,0.000,0.000,0.000
1641207927065140992,2022-01-03-11:05:27,10.1.1.4,197,-0.090,-0.090,-0.090,0.000,0.000,0.000
1641207927265074944,2022-01-03-11:05:27,10.1.1.4,196,-0.100,-0.100,-0.100,0.000,0.000,0.000
1641207927465573120,2022-01-03-11:05:27,10.1.1.4,196,-0.110,-0.110,-0.110,0.000,0.000,0.000
1641207927665134080,2022-01-03-11:05:27,10.1.1.4,194,-0.120,-0.120,-0.120,0.000,0.000,0.000
1641207927864640000,2022-01-03-11:05:27,10.1.1.4,191,-0.130,-0.130,-0.130,0.000,0.000,0.000
1641207928064795904,2022-01-03-11:05:28,10.1.1.4,190,-0.140,-0.140,-0.140,0.000,0.000,0.000
1641207928264976128,2022-01-03-11:05:28,10.1.1.4,189,-0.150,-0.150,-0.150,0.000,0.000,0.000
1641207928464276992,2022-01-03-11:05:28,10.1.1.4,187,-0.160,-0.160,-0.160,0.000,0.000,0.000
1641207928664797184,2022-01-03-11:05:28,10.1.1.4,187,-0.170,-0.170,-0.170,0.000,0.000,0.000
1641207928865380096,2022-01-03-11:05:28,10.1.1.4,187,-0.180,-0.180,-0.180,0.000,0.000,0.000
1641207929063857152,2022-01-03-11:05:29,10.1.1.4,185,-0.190,-0.190,-0.190,0.000,0.000,0.000
1641207929263716096,2022-01-03-11:05:29,10.1.1.4,184,-0.200,-0.200,-0.200,0.000,0.000,0.000
1641207929463972096,2022-01-03-11:05:29,10.1.1.4,184,-0.210,-0.210,-0.210,0.000,0.000,0.000
1641207929663986944,2022-01-03-11:05:29,10.1.1.4,183,-0.220,-0.220,-0.220,0.000,0.000,0.000
1641207929863276032,2022-01-03-11:05:29,10.1.1.4,182,-0.230,-0.230,-0.230,0.000,0.000,0.000
1641207930063781888,2022-01-03-11:05:30,10.1.1.4,179,-0.240,-0.240,-0.240,0.000,0.000,0.000
1641207930263484928,2022-01-03-11:05:30,10.1.1.4,177,-0.250,-0.250,-0.250,0.000,0.000,0.000
1641207930482670080,2022-01-03-11:05:30,10.1.1.4,196,-0.260,-0.260,-0.260,0.000,0.000,0.000
1641207930682693888,2022-01-03-11:05:30,10.1.1.4,194,-0.270,-0.270,-0.270,0.000,0.000,0.000
1641207930882534144,2022-01-03-11:05:30,10.1.1.4,194,-0.280,-0.280,-0.280,0.000,0.000,0.000
1641207931082625024,2022-01-03-11:05:31,10.1.1.4,193,-0.290,-0.290,-0.290,0.000,0.000,0.000
1641207931282004224,2022-01-03-11:05:31,10.1.1.4,192,-0.300,-0.300,-0.300,0.000,0.000,0.000
1641207931481693952,2022-01-03-11:05:31,10.1.1.4,192,-0.310,-0.310,-0.310,0.000,0.000,0.000
1641207931682359040,2022-01-03-11:05:31,10.1.1.4,192,-0.320,-0.320,-0.320,0.000,0.000,0.000
1641207931882339072,2022-01-03-11:05:31,10.1.1.4,191,-0.330,-0.330,-0.330,0.000,0.000,0.000
1641207932081468160,2022-01-03-11:05:32,10.1.1.4,190,-0.340,-0.340,-0.340,0.000,0.000,0.000
1641207932281341184,2022-01-03-11:05:32,10.1.1.4,189,-0.350,-0.350,-0.350,0.000,0.000,0.000
1641207932480807168,2022-01-03-11:05:32,10.1.1.4,188,-0.360,-0.360,-0.360,0.000,0.000,0.000
1641207932682300160,2022-01-03-11:05:32,10.1.1.4,189,-0.370,-0.370,-0.370,0.000,0.000,0.000
1641207932881360128,2022-01-03-11:05:32,10.1.1.4,187,-0.380,-0.380,-0.380,0.000,0.000,0.000
1641207933081603072,2022-01-03-11:05:33,10.1.1.4,187,-0.390,-0.390,-0.390,0.000,0.000,0.000
1641207933280492032,2022-01-03-11:05:33,10.1.1.4,185,-0.400,-0.400,-0.400,0.000,0.000,0.000
1641207933480078080,2022-01-03-11:05:33,10.1.1.4,184,-0.410,-0.410,-0.410,0.000,0.000,0.000
1641207933679897088,2022-01-03-11:05:33,10.1.1.4,183,-0.420,-0.420,-0.420,0.000,0.000,0.000
1641207933879504896,2022-01-03-11:05:33,10.1.1.4,182,-0.430,-0.430,-0.430,0.000,0.000,0.000
1641207934080054016,2022-01-03-11:05:34,10.1.1.4,181,-0.440,-0.440,-0.440,0.000,0.000,0.000
1641207934278592000,2022-01-03-11:05:34,10.1.1.4,180,-0.450,-0.450,-0.450,0.000,0.000,0.000
1641207934485566976,2022-01-03-11:05:34,10.1.1.4,186,-0.460,-0.460,-0.460,0.000,0.000,0.000
1641207934678572032,2022-01-03-11:05:34,10.1.1.4,178,-0.470,-0.470,-0.470,0.000,0.000,0.000
1641207934877972992,2022-01-03-11:05:34,10.1.1.4,177,-0.480,-0.480,-0.480,0.000,0.000,0.000
1641207935077646080,2022-01-03-11:05:35,10.1.1.4,176,-0.490,-0.490,-0.490,0.000,0.000,0.000
1641207935281430016,2022-01-03-11:05:35,10.1.1.4,180,-0.480,-0.480,-0.480,0.000,0.000,0.000
1641207935477843968,2022-01-03-11:05:35,10.1.1.4,176,-0.470,-0.470,-0.470,0.000,0.000,0.000
1641207935677206016,2022-01-03-11:05:35,10.1.1.4,175,-0.460,-0.460,-0.460,0.000,0.000,0.000
1641207935877022976,2022-01-03-11:05:35,10.1.1.4,174,-0.450,-0.450,-0.450,0.000,0.000,0.000
1641207936076622848,2022-01-03-11:05:36,10.1.1.4,173,-0.440,-0.440,-0.440,0.000,0.000,0.000
1641207936277544960,2022-01-03-11:05:36,10.1.1.4,173,-0.430,-0.430,-0.430,0.000,0.000,0.000
1641207936476044032,2022-01-03-11:05:36,10.1.1.4,171,-0.420,-0.420,-0.420,0.000,0.000,0.000
1641207936676665088,2022-01-03-11:05:36,10.1.1.4,171,-0.410,-0.410,-0.410,0.000,0.000,0.000
1641207936876208128,2022-01-03-11:05:36,10.1.1.4,171,-0.400,-0.400,-0.400,0.000,0.000,0.000
1641207937075404800,2022-01-03-11:05:37,10.1.1.4,170,-0.390,-0.390,-0.390,0.000,0.000,0.000
1641207937275808000,2022-01-03-11:05:37,10.1.1.4,169,-0.380,-0.380,-0.380,0.000,0.000,0.000
1641207937495054848,2022-01-03-11:05:37,10.1.1.4,188,-0.370,-0.370,-0.370,0.000,0.000,0.000
1641207937694434816,2022-01-03-11:05:37,10.1.1.4,187,-0.360,-0.360,-0.360,0.000,0.000,0.000
1641207937894105856,2022-01-03-11:05:37,10.1.1.4,186,-0.350,-0.350,-0.350,0.000,0.000,0.000
1641207938094953984,2022-01-03-11:05:38,10.1.1.4,186,-0.340,-0.340,-0.340,0.000,0.000,0.000
1641207938293346816,2022-01-03-11:05:38,10.1.1.4,183,-0.330,-0.330,-0.330,0.000,0.000,0.000
1641207938495254016,2022-01-03-11:05:38,10.1.1.4,169,-0.320,-0.320,-0.320,0.000,0.000,0.000
1641207938718004992,2022-01-03-11:05:38,10.1.1.4,182,-0.310,-0.310,-0.310,0.000,0.000,0.000
1641207938912983808,2022-01-03-11:05:38,10.1.1.4,176,-0.300,-0.300,-0.300,0.000,0.000,0.000
1641207939113360896,2022-01-03-11:05:39,10.1.1.4,175,-0.290,-0.290,-0.290,0.000,0.000,0.000
1641207939313856000,2022-01-03-11:05:39,10.1.1.4,175,-0.280,-0.280,-0.280,0.000,0.000,0.000
1641207939511916032,2022-01-03-11:05:39,10.1.1.4,171,-0.270,-0.270,-0.270,0.000,0.000,0.000
1641207939711397888,2022-01-03-11:05:39,10.1.1.4,170,-0.260,-0.260,-0.260,0.000,0.000,0.000
1641207939911375104,2022-01-03-11:05:39,10.1.1.4,170,-0.250,-0.250,-0.250,0.000,0.000,0.000
1641207940111248128,2022-01-03-11:05:40,10.1.1.4,169,-0.240,-0.240,-0.240,0.000,0.000,0.000
1641207940312176896,2022-01-03-11:05:40,10.1.1.4,169,-0.230,-0.230,-0.230,0.000,0.000,0.000
1641207940511464960,2022-01-03-11:05:40,10.1.1.4,168,-0.220,-0.220,-0.220,0.000,0.000,0.000
1641207940712707072,2022-01-03-11:05:40,10.1.1.4,169,-0.210,-0.210,-0.210,0.000,0.000,0.000
1641207940910093056,2022-01-03-11:05:40,10.1.1.4,165,-0.200,-0.200,-0.200,0.000,0.000,0.000
1641207941110845184,2022-01-03-11:05:41,10.1.1.4,166,-0.190,-0.190,-0.190,0.000,0.000,0.000
1641207941309413888,2022-01-03-11:05:41,10.1.1.4,163,-0.180,-0.180,-0.180,0.000,0.000,0.000
1641207941508229120,2022-01-03-11:05:41,10.1.1.4,161,-0.170,-0.170,-0.170,0.000,0.000,0.000
1641207941728269056,2022-01-03-11:05:41,10.1.1.4,181,-0.160,-0.160,-0.160,0.000,0.000,0.000
1641207941907996928,2022-01-03-11:05:41,10.1.1.4,160,-0.150,-0.150,-0.150,0.000,0.000,0.000
1641207942127716096,2022-01-03-11:05:42,10.1.1.4,179,-0.140,-0.140,-0.140,0.000,0.000,0.000
1641207942327491072,2022-01-03-11:05:42,10.1.1.4,179,-0.130,-0.130,-0.130,0.000,0.000,0.000
1641207942527810048,2022-01-03-11:05:42,10.1.1.4,179,-0.120,-0.120,-0.120,0.000,0.000,0.000
1641207942727229184,2022-01-03-11:05:42,10.1.1.4,176,-0.110,-0.110,-0.110,0.000,0.000,0.000
1641207942926211072,2022-01-03-11:05:42,10.1.1.4,175,-0.100,-0.100,-0.100,0.000,0.000,0.000
1641207943125812992,2022-01-03-11:05:43,10.1.1.4,174,-0.090,-0.090,-0.090,0.000,0.000,0.000
1641207943326157056,2022-01-03-11:05:43,10.1.1.4,174,-0.080,-0.080,-0.080,0.000,0.000,0.000
1641207943525960960,2022-01-03-11:05:43,10.1.1.4,173,-0.070,-0.070,-0.070,0.000,0.000,0.000
1641207943724878080,2022-01-03-11:05:43,10.1.1.4,172,-0.060,-0.060,-0.060,0.000,0.000,0.000
1641207943925161984,2022-01-03-11:05:43,10.1.1.4,171,-0.050,-0.050,-0.050,0.000,0.000,0.000
1641207944124573952,2022-01-03-11:05:44,10.1.1.4,170,-0.040,-0.040,-0.040,0.000,0.000,0.000
1641207944324812800,2022-01-03-11:05:44,10.1.1.4,170,-0.030,-0.030,-0.030,0.000,0.000,0.000
1641207944524118784,2022-01-03-11:05:44,10.1.1.4,169,-0.020,-0.020,-0.020,0.000,0.000,0.000
1641207944723973888,2022-01-03-11:05:44,10.1.1.4,168,-0.010,-0.010,-0.010,0.000,0.000,0.000
1641207944923506944,2022-01-03-11:05:44,10.1.1.4,167,0.000,0.000,0.000,0.000,0.000,0.000
1641207945122989824,2022-01-03-11:05:45,10.1.1.4,166,-0.010,-0.010,-0.010,0.000,0.000,0.000
1641207945324418048,2022-01-03-11:05:45,10.1.1.4,166,-0.020,-0.020,-0.020,0.000,0.000,0.000
1641207945522659072,2022-01-03-11:05:45,10.1.1.4,165,-0.030,-0.030,-0.030,0.000,0.000,0.000
1641207945721779200,2022-01-03-11:05:45,10.1.1.4,163,-0.040,-0.040,-0.040,0.000,0.000,0.000
1641207945921061888,2022-01-03-11:05:45,10.1.1.4,162,-0.050,-0.050,-0.050,0.000,0.000,0.000
1641207946122468864,2022-01-03-11:05:46,10.1.1.4,163,-0.060,-0.060,-0.060,0.000,0.000,0.000
1641207946322989056,2022-01-03-11:05:46,10.1.1.4,162,-0.070,-0.070,-0.070,0.000,0.000,0.000
1641207946524396800,2022-01-03-11:05:46,10.1.1.4,162,-0.080,-0.080,-0.080,0.000,0.000,0.000
1641207946725754112,2022-01-03-11:05:46,10.1.1.4,163,-0.090,-0.090,-0.090,0.000,0.000,0.000
1641207946763278848,2022-01-03-11:05:46,10.1.1.4,-1,-0.090,-0.090,-0.090,0.000,0.000,0.000
1641207947126811904,2022-01-03-11:05:47,10.1.1.4,163,-0.110,-0.110,-0.110,0.000,0.000,0.000
1641207947328411136,2022-01-03-11:05:47,10.1.1.4,164,-0.120,-0.120,-0.120,0.000,0.000,0.000
1641207947533228032,2022-01-03-11:05:47,10.1.1.4,168,-0.130,-0.130,-0.130,0.000,0.000,0.000
1641207947750319104,2022-01-03-11:05:47,10.1.1.4,183,-0.140,-0.140,-0.140,0.000,0.000,0.000
1641207947951385856,2022-01-03-11:05:47,10.1.1.4,182,-0.150,-0.150,-0.150,0.000,0.000,0.000
1641207948152478976,2022-01-03-11:05:48,10.1.1.4,182,-0.160,-0.160,-0.160,0.000,0.000,0.000
1641207948352392960,2022-01-03-11:05:48,10.1.1.4,182,-0.170,-0.170,-0.170,0.000,0.000,0.000
1641207948557446912,2022-01-03-11:05:48,10.1.1.4,186,-0.180,-0.180,-0.180,0.000,0.000,0.000
1641207948754812928,2022-01-03-11:05:48,10.1.1.4,182,-0.190,-0.190,-0.190,0.000,0.000,0.000
1641207948957932032,2022-01-03-11:05:48,10.1.1.4,185,-0.200,-0.200,-0.200,0.000,0.000,0.000
1641207949155980032,2022-01-03-11:05:49,10.1.1.4,182,-0.210,-0.210,-0.210,0.000,0.000,0.000
1641207949356979968,2022-01-03-11:05:49,10.1.1.4,183,-0.220,-0.220,-0.220,0.000,0.000,0.000
1641207949556989952,2022-01-03-11:05:49,10.1.1.4,182,-0.230,-0.230,-0.230,0.000,0.000,0.000
1641207949758704896,2022-01-03-11:05:49,10.1.1.4,183,-0.240,-0.240,-0.240,0.000,0.000,0.000
1641207949958256896,2022-01-03-11:05:49,10.1.1.4,182,-0.250,-0.250,-0.250,0.000,0.000,0.000
1641207950158294016,2022-01-03-11:05:50,10.1.1.4,182,-0.260,-0.260,-0.260,0.000,0.000,0.000
1641207950359396864,2022-01-03-11:05:50,10.1.1.4,182,-0.270,-0.270,-0.270,0.000,0.000,0.000
1641207950560646144,2022-01-03-11:05:50,10.1.1.4,182,-0.280,-0.280,-0.280,0.000,0.000,0.000
1641207950760126976,2022-01-03-11:05:50,10.1.1.4,181,-0.290,-0.290,-0.290,0.000,0.000,0.000
1641207950960732928,2022-01-03-11:05:50,10.1.1.4,181,-0.300,-0.300,-0.300,0.000,0.000,0.000
1641207951161360896,2022-01-03-11:05:51,10.1.1.4,182,-0.310,-0.310,-0.310,0.000,0.000,0.000
1641207951364832000,2022-01-03-11:05:51,10.1.1.4,185,-0.320,-0.320,-0.320,0.000,0.000,0.000
1641207951564593920,2022-01-03-11:05:51,10.1.1.4,184,-0.330,-0.330,-0.330,0.000,0.000,0.000
1641207951761789184,2022-01-03-11:05:51,10.1.1.4,180,-0.340,-0.340,-0.340,0.000,0.000,0.000
1641207951961956096,2022-01-03-11:05:51,10.1.1.4,180,-0.350,-0.350,-0.350,0.000,0.000,0.000
1641207952162179840,2022-01-03-11:05:52,10.1.1.4,179,-0.360,-0.360,-0.360,0.000,0.000,0.000
1641207952362412032,2022-01-03-11:05:52,10.1.1.4,178,-0.370,-0.370,-0.370,0.000,0.000,0.000
1641207952562721024,2022-01-03-11:05:52,10.1.1.4,178,-0.380,-0.380,-0.380,0.000,0.000,0.000
1641207952763112960,2022-01-03-11:05:52,10.1.1.4,177,-0.390,-0.390,-0.390,0.000,0.000,0.000
1641207952964803072,2022-01-03-11:05:52,10.1.1.4,177,-0.400,-0.400,-0.400,0.000,0.000,0.000
1641207953184258816,2022-01-03-11:05:53,10.1.1.4,196,-0.410,-0.410,-0.410,0.000,0.000,0.000
1641207953384433920,2022-01-03-11:05:53,10.1.1.4,195,-0.420,-0.420,-0.420,0.000,0.000,0.000
1641207953585541888,2022-01-03-11:05:53,10.1.1.4,196,-0.430,-0.430,-0.430,0.000,0.000,0.000
1641207953784646912,2022-01-03-11:05:53,10.1.1.4,193,-0.440,-0.440,-0.440,0.000,0.000,0.000
1641207953984890880,2022-01-03-11:05:53,10.1.1.4,192,-0.450,-0.450,-0.450,0.000,0.000,0.000
1641207954186880000,2022-01-03-11:05:54,10.1.1.4,193,-0.460,-0.460,-0.460,0.000,0.000,0.000
1641207954384655872,2022-01-03-11:05:54,10.1.1.4,190,-0.470,-0.470,-0.470,0.000,0.000,0.000
1641207954585935104,2022-01-03-11:05:54,10.1.1.4,191,-0.480,-0.480,-0.480,0.000,0.000,0.000
1641207954785348864,2022-01-03-11:05:54,10.1.1.4,190,-0.490,-0.490,-0.490,0.000,0.000,0.000
1641207954984928000,2022-01-03-11:05:54,10.1.1.4,188,-0.480,-0.480,-0.480,0.000,0.000,0.000
1641207955185955072,2022-01-03-11:05:55,10.1.1.4,189,-0.470,-0.470,-0.470,0.000,0.000,0.000
1641207955385710848,2022-01-03-11:05:55,10.1.1.4,188,-0.460,-0.460,-0.460,0.000,0.000,0.000
1641207955586782976,2022-01-03-11:05:55,10.1.1.4,188,-0.450,-0.450,-0.450,0.000,0.000,0.000
1641207955785569792,2022-01-03-11:05:55,10.1.1.4,186,-0.440,-0.440,-0.440,0.000,0.000,0.000
1641207955985758976,2022-01-03-11:05:55,10.1.1.4,186,-0.430,-0.430,-0.430,0.000,0.000,0.000
1641207956186025984,2022-01-03-11:05:56,10.1.1.4,185,-0.420,-0.420,-0.420,0.000,0.000,0.000
1641207956392240128,2022-01-03-11:05:56,10.1.1.4,191,-0.410,-0.410,-0.410,0.000,0.000,0.000
1641207956585544192,2022-01-03-11:05:56,10.1.1.4,184,-0.400,-0.400,-0.400,0.000,0.000,0.000
1641207956786642176,2022-01-03-11:05:56,10.1.1.4,184,-0.390,-0.390,-0.390,0.000,0.000,0.000
1641207956986697984,2022-01-03-11:05:56,10.1.1.4,184,-0.380,-0.380,-0.380,0.000,0.000,0.000
1641207957185821952,2022-01-03-11:05:57,10.1.1.4,183,-0.370,-0.370,-0.370,0.000,0.000,0.000
1641207957386828032,2022-01-03-11:05:57,10.1.1.4,183,-0.360,-0.360,-0.360,0.000,0.000,0.000
1641207957586502912,2022-01-03-11:05:57,10.1.1.4,182,-0.350,-0.350,-0.350,0.000,0.000,0.000
1641207957786726912,2022-01-03-11:05:57,10.1.1.4,181,-0.340,-0.340,-0.340,0.000,0.000,0.000
1641207957986195968,2022-01-03-11:05:57,10.1.1.4,180,-0.330,-0.330,-0.330,0.000,0.000,0.000
1641207958205960960,2022-01-03-11:05:58,10.1.1.4,197,-0.320,-0.320,-0.320,0.000,0.000,0.000
1641207958606158848,2022-01-03-11:05:58,10.1.1.4,195,-0.300,-0.300,-0.300,0.000,0.000,0.000
1641207958805083136,2022-01-03-11:05:58,10.1.1.4,194,-0.290,-0.290,-0.290,0.000,0.000,0.000
1641207959005705216,2022-01-03-11:05:59,10.1.1.4,194,-0.280,-0.280,-0.280,0.000,0.000,0.000
1641207959205220096,2022-01-03-11:05:59,10.1.1.4,192,-0.270,-0.270,-0.270,0.000,0.000,0.000
1641207959406196224,2022-01-03-11:05:59,10.1.1.4,193,-0.260,-0.260,-0.260,0.000,0.000,0.000
1641207959605911040,2022-01-03-11:05:59,10.1.1.4,192,-0.250,-0.250,-0.250,0.000,0.000,0.000
1641207959805336064,2022-01-03-11:05:59,10.1.1.4,191,-0.240,-0.240,-0.240,0.000,0.000,0.000
1641207960008012032,2022-01-03-11:06:00,10.1.1.4,193,-0.230,-0.230,-0.230,0.000,0.000,0.000
1641207960205022976,2022-01-03-11:06:00,10.1.1.4,190,-0.220,-0.220,-0.220,0.000,0.000,0.000
1641207960407203072,2022-01-03-11:06:00,10.1.1.4,191,-0.210,-0.210,-0.210,0.000,0.000,0.000
1641207960604525056,2022-01-03-11:06:00,10.1.1.4,188,-0.200,-0.200,-0.200,0.000,0.000,0.000
1641207960805922048,2022-01-03-11:06:00,10.1.1.4,188,-0.190,-0.190,-0.190,0.000,0.000,0.000
1641207961005278208,2022-01-03-11:06:01,10.1.1.4,188,-0.180,-0.180,-0.180,0.000,0.000,0.000
1641207961204588800,2022-01-03-11:06:01,10.1.1.4,186,-0.170,-0.170,-0.170,0.000,0.000,0.000
1641207961404480000,2022-01-03-11:06:01,10.1.1.4,186,-0.160,-0.160,-0.160,0.000,0.000,0.000
1641207961605928960,2022-01-03-11:06:01,10.1.1.4,187,-0.150,-0.150,-0.150,0.000,0.000,0.000
1641207961803468032,2022-01-03-11:06:01,10.1.1.4,184,-0.140,-0.140,-0.140,0.000,0.000,0.000
1641207962006937856,2022-01-03-11:06:02,10.1.1.4,187,-0.130,-0.130,-0.130,0.000,0.000,0.000
1641207962202985984,2022-01-03-11:06:02,10.1.1.4,182,-0.120,-0.120,-0.120,0.000,0.000,0.000
1641207962404835840,2022-01-03-11:06:02,10.1.1.4,183,-0.110,-0.110,-0.110,0.000,0.000,0.000
1641207962603333120,2022-01-03-11:06:02,10.1.1.4,181,-0.100,-0.100,-0.100,0.000,0.000,0.000
1641207962803382016,2022-01-03-11:06:02,10.1.1.4,180,-0.090,-0.090,-0.090,0.000,0.000,0.000
1641207963002893056,2022-01-03-11:06:03,10.1.1.4,179,-0.080,-0.080,-0.080,0.000,0.000,0.000
1641207963203496960,2022-01-03-11:06:03,10.1.1.4,179,-0.070,-0.070,-0.070,0.000,0.000,0.000
1641207963402023168,2022-01-03-11:06:03,10.1.1.4,177,-0.060,-0.060,-0.060,0.000,0.000,0.000
1641207963602152192,2022-01-03-11:06:03,10.1.1.4,176,-0.050,-0.050,-0.050,0.000,0.000,0.000
1641207963802048000,2022-01-03-11:06:03,10.1.1.4,176,-0.040,-0.040,-0.040,0.000,0.000,0.000
1641207964022025216,2022-01-03-11:06:04,10.1.1.4,194,-0.030,-0.030,-0.030,0.000,0.000,0.000
1641207964221401856,2022-01-03-11:06:04,10.1.1.4,193,-0.020,-0.020,-0.020,0.000,0.000,0.000
1641207964421075200,2022-01-03-11:06:04,10.1.1.4,191,-0.010,-0.010,-0.010,0.000,0.000,0.000
1641207964621159936,2022-01-03-11:06:04,10.1.1.4,190,0.000,0.000,0.000,0.000,0.000,0.000
1641207964820636160,2022-01-03-11:06:04,10.1.1.4,189,-0.010,-0.010,-0.010,0.000,0.000,0.000
1641207965020733952,2022-01-03-11:06:05,10.1.1.4,188,-0.020,-0.020,-0.020,0.000,0.000,0.000
1641207965220022016,2022-01-03-11:06:05,10.1.1.4,187,-0.030,-0.030,-0.030,0.000,0.000,0.000
1641207965419835136,2022-01-03-11:06:05,10.1.1.4,186,-0.040,-0.040,-0.040,0.000,0.000,0.000
1641207965619494912,2022-01-03-11:06:05,10.1.1.4,185,-0.050,-0.050,-0.050,0.000,0.000,0.000
1641207965820899840,2022-01-03-11:06:05,10.1.1.4,185,-0.060,-0.060,-0.060,0.000,0.000,0.000
1641207966019675904,2022-01-03-11:06:06,10.1.1.4,183,-0.070,-0.070,-0.070,0.000,0.000,0.000
1641207966218748928,2022-01-03-11:06:06,10.1.1.4,182,-0.080,-0.080,-0.080,0.000,0.000,0.000
1641207966419097856,2022-01-03-11:06:06,10.1.1.4,182,-0.090,-0.090,-0.090,0.000,0.000,0.000
1641207966619069952,2022-01-03-11:06:06,10.1.1.4,181,-0.100,-0.100,-0.100,0.000,0.000,0.000
1641207966818507008,2022-01-03-11:06:06,10.1.1.4,179,-0.110,-0.110,-0.110,0.000,0.000,0.000
1641207967018445056,2022-01-03-11:06:07,10.1.1.4,177,-0.120,-0.120,-0.120,0.000,0.000,0.000
1641207967218902016,2022-01-03-11:06:07,10.1.1.4,177,-0.130,-0.130,-0.130,0.000,0.000,0.000
1641207967418107136,2022-01-03-11:06:07,10.1.1.4,176,-0.140,-0.140,-0.140,0.000,0.000,0.000
1641207967617405952,2022-01-03-11:06:07,10.1.1.4,175,-0.150,-0.150,-0.150,0.000,0.000,0.000
1641207967817456128,2022-01-03-11:06:07,10.1.1.4,174,-0.160,-0.160,-0.160,0.000,0.000,0.000
1641207968036753920,2022-01-03-11:06:08,10.1.1.4,189,-0.170,-0.170,-0.170,0.000,0.000,0.000
1641207968236278016,2022-01-03-11:06:08,10.1.1.4,188,-0.180,-0.180,-0.180,0.000,0.000,0.000
1641207968435972864,2022-01-03-11:06:08,10.1.1.4,186,-0.190,-0.190,-0.190,0.000,0.000,0.000
1641207968635533056,2022-01-03-11:06:08,10.1.1.4,186,-0.200,-0.200,-0.200,0.000,0.000,0.000
1641207968835730176,2022-01-03-11:06:08,10.1.1.4,185,-0.210,-0.210,-0.210,0.000,0.000,0.000
1641207969037170944,2022-01-03-11:06:09,10.1.1.4,186,-0.220,-0.220,-0.220,0.000,0.000,0.000
1641207969234957824,2022-01-03-11:06:09,10.1.1.4,183,-0.230,-0.230,-0.230,0.000,0.000,0.000
1641207969435012096,2022-01-03-11:06:09,10.1.1.4,183,-0.240,-0.240,-0.240,0.000,0.000,0.000
1641207969635063808,2022-01-03-11:06:09,10.1.1.4,183,-0.250,-0.250,-0.250,0.000,0.000,0.000
1641207969834691072,2022-01-03-11:06:09,10.1.1.4,181,-0.260,-0.260,-0.260,0.000,0.000,0.000
1641207970033878016,2022-01-03-11:06:10,10.1.1.4,180,-0.270,-0.270,-0.270,0.000,0.000,0.000
1641207970237684992,2022-01-03-11:06:10,10.1.1.4,183,-0.280,-0.280,-0.280,0.000,0.000,0.000
1641207970433481984,2022-01-03-11:06:10,10.1.1.4,179,-0.290,-0.290,-0.290,0.000,0.000,0.000
1641207970632908032,2022-01-03-11:06:10,10.1.1.4,178,-0.300,-0.300,-0.300,0.000,0.000,0.000
1641207970833005824,2022-01-03-11:06:10,10.1.1.4,177,-0.310,-0.310,-0.310,0.000,0.000,0.000
1641207971032486912,2022-01-03-11:06:11,10.1.1.4,176,-0.320,-0.320,-0.320,0.000,0.000,0.000
1641207971232503808,2022-01-03-11:06:11,10.1.1.4,176,-0.330,-0.330,-0.330,0.000,0.000,0.000
1641207971431567872,2022-01-03-11:06:11,10.1.1.4,174,-0.340,-0.340,-0.340,0.000,0.000,0.000
1641207971631582976,2022-01-03-11:06:11,10.1.1.4,173,-0.350,-0.350,-0.350,0.000,0.000,0.000
1641207971831206144,2022-01-03-11:06:11,10.1.1.4,172,-0.360,-0.360,-0.360,0.000,0.000,0.000
1641207972030811136,2022-01-03-11:06:12,10.1.1.4,171,-0.370,-0.370,-0.370,0.000,0.000,0.000
1641207972231172096,2022-01-03-11:06:12,10.1.1.4,171,-0.380,-0.380,-0.380,0.000,0.000,0.000
1641207972430600960,2022-01-03-11:06:12,10.1.1.4,170,-0.390,-0.390,-0.390,0.000,0.000,0.000
1641207972630842880,2022-01-03-11:06:12,10.1.1.4,170,-0.400,-0.400,-0.400,0.000,0.000,0.000
1641207972830327040,2022-01-03-11:06:12,10.1.1.4,169,-0.410,-0.410,-0.410,0.000,0.000,0.000
1641207973029288960,2022-01-03-11:06:13,10.1.1.4,167,-0.420,-0.420,-0.420,0.000,0.000,0.000
1641207973229573888,2022-01-03-11:06:13,10.1.1.4,166,-0.430,-0.430,-0.430,0.000,0.000,0.000
1641207973429160192,2022-01-03-11:06:13,10.1.1.4,164,-0.440,-0.440,-0.440,0.000,0.000,0.000
1641207973628385024,2022-01-03-11:06:13,10.1.1.4,163,-0.450,-0.450,-0.450,0.000,0.000,0.000
1641207973848300032,2022-01-03-11:06:13,10.1.1.4,181,-0.460,-0.460,-0.460,0.000,0.000,0.000
1641207974047831040,2022-01-03-11:06:14,10.1.1.4,181,-0.470,-0.470,-0.470,0.000,0.000,0.000
1641207974247404032,2022-01-03-11:06:14,10.1.1.4,180,-0.480,-0.480,-0.480,0.000,0.000,0.000
1641207974451098880,2022-01-03-11:06:14,10.1.1.4,183,-0.490,-0.490,-0.490,0.000,0.000,0.000
1641207974647203840,2022-01-03-11:06:14,10.1.1.4,178,-0.480,-0.480,-0.480,0.000,0.000,0.000
1641207974854016000,2022-01-03-11:06:14,10.1.1.4,185,-0.470,-0.470,-0.470,0.000,0.000,0.000
1641207975046892800,2022-01-03-11:06:15,10.1.1.4,177,-0.460,-0.460,-0.460,0.000,0.000,0.000
1641207975246392064,2022-01-03-11:06:15,10.1.1.4,174,-0.450,-0.450,-0.450,0.000,0.000,0.000
1641207975455426816,2022-01-03-11:06:15,10.1.1.4,183,-0.440,-0.440,-0.440,0.000,0.000,0.000
1641207975645473024,2022-01-03-11:06:15,10.1.1.4,172,-0.430,-0.430,-0.430,0.000,0.000,0.000
1641207975845161984,2022-01-03-11:06:15,10.1.1.4,171,-0.420,-0.420,-0.420,0.000,0.000,0.000
1641207976045064960,2022-01-03-11:06:16,10.1.1.4,170,-0.410,-0.410,-0.410,0.000,0.000,0.000
1641207976244577024,2022-01-03-11:06:16,10.1.1.4,169,-0.400,-0.400,-0.400,0.000,0.000,0.000
1641207976444099840,2022-01-03-11:06:16,10.1.1.4,167,-0.390,-0.390,-0.390,0.000,0.000,0.000
1641207976644573952,2022-01-03-11:06:16,10.1.1.4,166,-0.380,-0.380,-0.380,0.000,0.000,0.000
1641207976843632896,2022-01-03-11:06:16,10.1.1.4,164,-0.370,-0.370,-0.370,0.000,0.000,0.000
1641207977045831936,2022-01-03-11:06:17,10.1.1.4,166,-0.360,-0.360,-0.360,0.000,0.000,0.000
1641207977242706176,2022-01-03-11:06:17,10.1.1.4,162,-0.350,-0.350,-0.350,0.000,0.000,0.000
1641207977448542208,2022-01-03-11:06:17,10.1.1.4,164,-0.340,-0.340,-0.340,0.000,0.000,0.000
1641207977642409984,2022-01-03-11:06:17,10.1.1.4,160,-0.330,-0.330,-0.330,0.000,0.000,0.000
1641207977842642176,2022-01-03-11:06:17,10.1.1.4,160,-0.320,-0.320,-0.320,0.000,0.000,0.000
1641207978041652992,2022-01-03-11:06:18,10.1.1.4,158,-0.310,-0.310,-0.310,0.000,0.000,0.000
1641207978243127040,2022-01-03-11:06:18,10.1.1.4,158,-0.300,-0.300,-0.300,0.000,0.000,0.000
1641207978444411136,2022-01-03-11:06:18,10.1.1.4,158,-0.290,-0.290,-0.290,0.000,0.000,0.000
1641207978665831168,2022-01-03-11:06:18,10.1.1.4,178,-0.280,-0.280,-0.280,0.000,0.000,0.000
1641207978866488064,2022-01-03-11:06:18,10.1.1.4,178,-0.270,-0.270,-0.270,0.000,0.000,0.000
1641207979067610880,2022-01-03-11:06:19,10.1.1.4,178,-0.260,-0.260,-0.260,0.000,0.000,0.000
1641207979268961792,2022-01-03-11:06:19,10.1.1.4,179,-0.250,-0.250,-0.250,0.000,0.000,0.000
1641207979469773056,2022-01-03-11:06:19,10.1.1.4,179,-0.240,-0.240,-0.240,0.000,0.000,0.000
1641207979673552896,2022-01-03-11:06:19,10.1.1.4,182,-0.230,-0.230,-0.230,0.000,0.000,0.000
1641207979871277056,2022-01-03-11:06:19,10.1.1.4,179,-0.220,-0.220,-0.220,0.000,0.000,0.000
1641207980072147968,2022-01-03-11:06:20,10.1.1.4,178,-0.210,-0.210,-0.210,0.000,0.000,0.000
1641207980273495808,2022-01-03-11:06:20,10.1.1.4,178,-0.200,-0.200,-0.200,0.000,0.000,0.000
1641207980474180864,2022-01-03-11:06:20,10.1.1.4,179,-0.190,-0.190,-0.190,0.000,0.000,0.000
1641207980674951168,2022-01-03-11:06:20,10.1.1.4,179,-0.180,-0.180,-0.180,0.000,0.000,0.000
1641207980874515968,2022-01-03-11:06:20,10.1.1.4,178,-0.170,-0.170,-0.170,0.000,0.000,0.000
1641207981075584768,2022-01-03-11:06:21,10.1.1.4,178,-0.160,-0.160,-0.160,0.000,0.000,0.000
1641207981279697920,2022-01-03-11:06:21,10.1.1.4,182,-0.150,-0.150,-0.150,0.000,0.000,0.000
1641207981476807168,2022-01-03-11:06:21,10.1.1.4,175,-0.140,-0.140,-0.140,0.000,0.000,0.000
1641207981678096896,2022-01-03-11:06:21,10.1.1.4,175,-0.130,-0.130,-0.130,0.000,0.000,0.000
1641207981878475008,2022-01-03-11:06:21,10.1.1.4,174,-0.120,-0.120,-0.120,0.000,0.000,0.000
1641207982079129088,2022-01-03-11:06:22,10.1.1.4,174,-0.110,-0.110,-0.110,0.000,0.000,0.000
1641207982283194112,2022-01-03-11:06:22,10.1.1.4,178,-0.100,-0.100,-0.100,0.000,0.000,0.000
1641207982481022976,2022-01-03-11:06:22,10.1.1.4,174,-0.090,-0.090,-0.090,0.000,0.000,0.000
1641207982700670976,2022-01-03-11:06:22,10.1.1.4,193,-0.080,-0.080,-0.080,0.000,0.000,0.000
1641207982901895168,2022-01-03-11:06:22,10.1.1.4,193,-0.070,-0.070,-0.070,0.000,0.000,0.000
1641207983105268992,2022-01-03-11:06:23,10.1.1.4,196,-0.060,-0.060,-0.060,0.000,0.000,0.000
1641207983301660160,2022-01-03-11:06:23,10.1.1.4,192,-0.050,-0.050,-0.050,0.000,0.000,0.000
1641207983501793024,2022-01-03-11:06:23,10.1.1.4,190,-0.040,-0.040,-0.040,0.000,0.000,0.000
1641207983702786048,2022-01-03-11:06:23,10.1.1.4,188,-0.030,-0.030,-0.030,0.000,0.000,0.000
1641207983905196032,2022-01-03-11:06:23,10.1.1.4,187,-0.020,-0.020,-0.020,0.000,0.000,0.000
1641207984103041792,2022-01-03-11:06:24,10.1.1.4,186,-0.010,-0.010,-0.010,0.000,0.000,0.000
1641207984303057920,2022-01-03-11:06:24,10.1.1.4,185,0.000,0.000,0.000,0.000,0.000,0.000
1641207984504566784,2022-01-03-11:06:24,10.1.1.4,187,-0.010,-0.010,-0.010,0.000,0.000,0.000
1641207984703564800,2022-01-03-11:06:24,10.1.1.4,185,-0.020,-0.020,-0.020,0.000,0.000,0.000
1641207984905256960,2022-01-03-11:06:24,10.1.1.4,185,-0.030,-0.030,-0.030,0.000,0.000,0.000
1641207985104374784,2022-01-03-11:06:25,10.1.1.4,184,-0.040,-0.040,-0.040,0.000,0.000,0.000
1641207985304019968,2022-01-03-11:06:25,10.1.1.4,183,-0.050,-0.050,-0.050,0.000,0.000,0.000
1641207985504755968,2022-01-03-11:06:25,10.1.1.4,183,-0.060,-0.060,-0.060,0.000,0.000,0.000
1641207985705501184,2022-01-03-11:06:25,10.1.1.4,180,-0.070,-0.070,-0.070,0.000,0.000,0.000
1641207985906140160,2022-01-03-11:06:25,10.1.1.4,180,-0.080,-0.080,-0.080,0.000,0.000,0.000
1641207986105740032,2022-01-03-11:06:26,10.1.1.4,179,-0.090,-0.090,-0.090,0.000,0.000,0.000
1641207986325454848,2022-01-03-11:06:26,10.1.1.4,198,-0.100,-0.100,-0.100,0.000,0.000,0.000
1641207986526081024,2022-01-03-11:06:26,10.1.1.4,198,-0.110,-0.110,-0.110,0.000,0.000,0.000
1641207986725312000,2022-01-03-11:06:26,10.1.1.4,197,-0.120,-0.120,-0.120,0.000,0.000,0.000
1641207986926150144,2022-01-03-11:06:26,10.1.1.4,197,-0.130,-0.130,-0.130,0.000,0.000,0.000
1641207987125737984,2022-01-03-11:06:27,10.1.1.4,196,-0.140,-0.140,-0.140,0.000,0.000,0.000
1641207987326425088,2022-01-03-11:06:27,10.1.1.4,195,-0.150,-0.150,-0.150,0.000,0.000,0.000
1641207987528830976,2022-01-03-11:06:27,10.1.1.4,197,-0.160,-0.160,-0.160,0.000,0.000,0.000
1641207987727375872,2022-01-03-11:06:27,10.1.1.4,195,-0.170,-0.170,-0.170,0.000,0.000,0.000
1641207987926639104,2022-01-03-11:06:27,10.1.1.4,193,-0.180,-0.180,-0.180,0.000,0.000,0.000
1641207988126449152,2022-01-03-11:06:28,10.1.1.4,191,-0.190,-0.190,-0.190,0.000,0.000,0.000
1641207988327738880,2022-01-03-11:06:28,10.1.1.4,191,-0.200,-0.200,-0.200,0.000,0.000,0.000
1641207988526226944,2022-01-03-11:06:28,10.1.1.4,189,-0.210,-0.210,-0.210,0.000,0.000,0.000
1641207988729216000,2022-01-03-11:06:28,10.1.1.4,191,-0.220,-0.220,-0.220,0.000,0.000,0.000
1641207988926720000,2022-01-03-11:06:28,10.1.1.4,187,-0.230,-0.230,-0.230,0.000,0.000,0.000
1641207989126555904,2022-01-03-11:06:29,10.1.1.4,186,-0.240,-0.240,-0.240,0.000,0.000,0.000
1641207989326129920,2022-01-03-11:06:29,10.1.1.4,185,-0.250,-0.250,-0.250,0.000,0.000,0.000
1641207989526014208,2022-01-03-11:06:29,10.1.1.4,184,-0.260,-0.260,-0.260,0.000,0.000,0.000
1641207989726445824,2022-01-03-11:06:29,10.1.1.4,184,-0.270,-0.270,-0.270,0.000,0.000,0.000
1641207989926742016,2022-01-03-11:06:29,10.1.1.4,184,-0.280,-0.280,-0.280,0.000,0.000,0.000
1641207990126859008,2022-01-03-11:06:30,10.1.1.4,183,-0.290,-0.290,-0.290,0.000,0.000,0.000
1641207990330216960,2022-01-03-11:06:30,10.1.1.4,186,-0.300,-0.300,-0.300,0.000,0.000,0.000
1641207990526386944,2022-01-03-11:06:30,10.1.1.4,181,-0.310,-0.310,-0.310,0.000,0.000,0.000
1641207990726320128,2022-01-03-11:06:30,10.1.1.4,181,-0.320,-0.320,-0.320,0.000,0.000,0.000
1641207990925858048,2022-01-03-11:06:30,10.1.1.4,180,-0.330,-0.330,-0.330,0.000,0.000,0.000
1641207991146198016,2022-01-03-11:06:31,10.1.1.4,199,-0.340,-0.340,-0.340,0.000,0.000,0.000
1641207991545918976,2022-01-03-11:06:31,10.1.1.4,197,-0.360,-0.360,-0.360,0.000,0.000,0.000
1641207991745488896,2022-01-03-11:06:31,10.1.1.4,195,-0.370,-0.370,-0.370,0.000,0.000,0.000
1641207991945561856,2022-01-03-11:06:31,10.1.1.4,194,-0.380,-0.380,-0.380,0.000,0.000,0.000
1641207992145545984,2022-01-03-11:06:32,10.1.1.4,192,-0.390,-0.390,-0.390,0.000,0.000,0.000
1641207992345714176,2022-01-03-11:06:32,10.1.1.4,192,-0.400,-0.400,-0.400,0.000,0.000,0.000
1641207992550640128,2022-01-03-11:06:32,10.1.1.4,197,-0.410,-0.410,-0.410,0.000,0.000,0.000
1641207992745189888,2022-01-03-11:06:32,10.1.1.4,191,-0.420,-0.420,-0.420,0.000,0.000,0.000
1641207992945246976,2022-01-03-11:06:32,10.1.1.4,190,-0.430,-0.430,-0.430,0.000,0.000,0.000
1641207993144367104,2022-01-03-11:06:33,10.1.1.4,189,-0.440,-0.440,-0.440,0.000,0.000,0.000
1641207993345057024,2022-01-03-11:06:33,10.1.1.4,188,-0.450,-0.450,-0.450,0.000,0.000,0.000
1641207993544763136,2022-01-03-11:06:33,10.1.1.4,187,-0.460,-0.460,-0.460,0.000,0.000,0.000
1641207993744512000,2022-01-03-11:06:33,10.1.1.4,186,-0.470,-0.470,-0.470,0.000,0.000,0.000
1641207993944619776,2022-01-03-11:06:33,10.1.1.4,185,-0.480,-0.480,-0.480,0.000,0.000,0.000
1641207994144474112,2022-01-03-11:06:34,10.1.1.4,184,-0.490,-0.490,-0.490,0.000,0.000,0.000
1641207994343815936,2022-01-03-11:06:34,10.1.1.4,182,-0.480,-0.480,-0.480,0.000,0.000,0.000
1641207994543903232,2022-01-03-11:06:34,10.1.1.4,182,-0.470,-0.470,-0.470,0.000,0.000,0.000
1641207994744508928,2022-01-03-11:06:34,10.1.1.4,182,-0.460,-0.460,-0.460,0.000,0.000,0.000
1641207994965856000,2022-01-03-11:06:34,10.1.1.4,192,-0.450,-0.450,-0.450,0.000,0.000,0.000
1641207995163620864,2022-01-03-11:06:35,10.1.1.4,180,-0.440,-0.440,-0.440,0.000,0.000,0.000
1641207995362836992,2022-01-03-11:06:35,10.1.1.4,179,-0.430,-0.430,-0.430,0.000,0.000,0.000
1641207995562479104,2022-01-03-11:06:35,10.1.1.4,176,-0.420,-0.420,-0.420,0.000,0.000,0.000
1641207995782182912,2022-01-03-11:06:35,10.1.1.4,195,-0.410,-0.410,-0.410,0.000,0.000,0.000
1641207995982312960,2022-01-03-11:06:35,10.1.1.4,194,-0.400,-0.400,-0.400,0.000,0.000,0.000
1641207996181886976,2022-01-03-11:06:36,10.1.1.4,193,-0.390,-0.390,-0.390,0.000,0.000,0.000
1641207996381882880,2022-01-03-11:06:36,10.1.1.4,192,-0.380,-0.380,-0.380,0.000,0.000,0.000
1641207996581847808,2022-01-03-11:06:36,10.1.1.4,191,-0.370,-0.370,-0.370,0.000,0.000,0.000
1641207996781893120,2022-01-03-11:06:36,10.1.1.4,190,-0.360,-0.360,-0.360,0.000,0.000,0.000
1641207996986944000,2022-01-03-11:06:36,10.1.1.4,195,-0.350,-0.350,-0.350,0.000,0.000,0.000
1641207997181932800,2022-01-03-11:06:37,10.1.1.4,189,-0.340,-0.340,-0.340,0.000,0.000,0.000
1641207997380929024,2022-01-03-11:06:37,10.1.1.4,187,-0.330,-0.330,-0.330,0.000,0.000,0.000
1641207997580732160,2022-01-03-11:06:37,10.1.1.4,185,-0.320,-0.320,-0.320,0.000,0.000,0.000
1641207997780806144,2022-01-03-11:06:37,10.1.1.4,184,-0.310,-0.310,-0.310,0.000,0.000,0.000
1641207997980145920,2022-01-03-11:06:37,10.1.1.4,183,-0.300,-0.300,-0.300,0.000,0.000,0.000
1641207998180356096,2022-01-03-11:06:38,10.1.1.4,183,-0.290,-0.290,-0.290,0.000,0.000,0.000
1641207998379548928,2022-01-03-11:06:38,10.1.1.4,181,-0.280,-0.280,-0.280,0.000,0.000,0.000
1641207998579371008,2022-01-03-11:06:38,10.1.1.4,180,-0.270,-0.270,-0.270,0.000,0.000,0.000
1641207998778961920,2022-01-03-11:06:38,10.1.1.4,179,-0.260,-0.260,-0.260,0.000,0.000,0.000
1641207998978652928,2022-01-03-11:06:38,10.1.1.4,177,-0.250,-0.250,-0.250,0.000,0.000,0.000
1641207999178818816,2022-01-03-11:06:39,10.1.1.4,177,-0.240,-0.240,-0.240,0.000,0.000,0.000
1641207999378701824,2022-01-03-11:06:39,10.1.1.4,176,-0.230,-0.230,-0.230,0.000,0.000,0.000
1641207999579084032,2022-01-03-11:06:39,10.1.1.4,175,-0.220,-0.220,-0.220,0.000,0.000,0.000
1641207999778492928,2022-01-03-11:06:39,10.1.1.4,172,-0.210,-0.210,-0.210,0.000,0.000,0.000
1641207999997852928,2022-01-03-11:06:39,10.1.1.4,191,-0.200,-0.200,-0.200,0.000,0.000,0.000
1641208000197213952,2022-01-03-11:06:40,10.1.1.4,190,-0.190,-0.190,-0.190,0.000,0.000,0.000
1641208000397334016,2022-01-03-11:06:40,10.1.1.4,188,-0.180,-0.180,-0.180,0.000,0.000,0.000
1641208000596476928,2022-01-03-11:06:40,10.1.1.4,187,-0.170,-0.170,-0.170,0.000,0.000,0.000
1641208000797277952,2022-01-03-11:06:40,10.1.1.4,187,-0.160,-0.160,-0.160,0.000,0.000,0.000
1641208000997888000,2022-01-03-11:06:40,10.1.1.4,187,-0.150,-0.150,-0.150,0.000,0.000,0.000
1641208001199105024,2022-01-03-11:06:41,10.1.1.4,187,-0.140,-0.140,-0.140,0.000,0.000,0.000
1641208001395420928,2022-01-03-11:06:41,10.1.1.4,183,-0.130,-0.130,-0.130,0.000,0.000,0.000
1641208001597754112,2022-01-03-11:06:41,10.1.1.4,185,-0.120,-0.120,-0.120,0.000,0.000,0.000
1641208001798923008,2022-01-03-11:06:41,10.1.1.4,182,-0.110,-0.110,-0.110,0.000,0.000,0.000
1641208001997734912,2022-01-03-11:06:41,10.1.1.4,184,-0.100,-0.100,-0.100,0.000,0.000,0.000
1641208002194233856,2022-01-03-11:06:42,10.1.1.4,180,-0.090,-0.090,-0.090,0.000,0.000,0.000
1641208002394718976,2022-01-03-11:06:42,10.1.1.4,180,-0.080,-0.080,-0.080,0.000,0.000,0.000
1641208002594313984,2022-01-03-11:06:42,10.1.1.4,179,-0.070,-0.070,-0.070,0.000,0.000,0.000
1641208002794208000,2022-01-03-11:06:42,10.1.1.4,178,-0.060,-0.060,-0.060,0.000,0.000,0.000
1641208002995058176,2022-01-03-11:06:42,10.1.1.4,179,-0.050,-0.050,-0.050,0.000,0.000,0.000
1641208003192630016,2022-01-03-11:06:43,10.1.1.4,175,-0.040,-0.040,-0.040,0.000,0.000,0.000
1641208003392755968,2022-01-03-11:06:43,10.1.1.4,175,-0.030,-0.030,-0.030,0.000,0.000,0.000
1641208003592432896,2022-01-03-11:06:43,10.1.1.4,174,-0.020,-0.020,-0.020,0.000,0.000,0.000
1641208003791877120,2022-01-03-11:06:43,10.1.1.4,173,-0.010,-0.010,-0.010,0.000,0.000,0.000
1641208003992647936,2022-01-03-11:06:43,10.1.1.4,173,0.000,0.000,0.000,0.000,0.000,0.000
1641208004191548160,2022-01-03-11:06:44,10.1.1.4,171,-0.010,-0.010,-0.010,0.000,0.000,0.000
1641208004391590144,2022-01-03-11:06:44,10.1.1.4,170,-0.020,-0.020,-0.020,0.000,0.000,0.000
1641208004591955968,2022-01-03-11:06:44,10.1.1.4,170,-0.030,-0.030,-0.030,0.000,0.000,0.000
1641208004790693120,2022-01-03-11:06:44,10.1.1.4,168,-0.040,-0.040,-0.040,0.000,0.000,0.000
1641208005013917952,2022-01-03-11:06:45,10.1.1.4,191,-0.050,-0.050,-0.050,0.000,0.000,0.000
1641208005211521024,2022-01-03-11:06:45,10.1.1.4,185,-0.060,-0.060,-0.060,0.000,0.000,0.000
1641208005409651968,2022-01-03-11:06:45,10.1.1.4,182,-0.070,-0.070,-0.070,0.000,0.000,0.000
1641208005609394944,2022-01-03-11:06:45,10.1.1.4,181,-0.080,-0.080,-0.080,0.000,0.000,0.000
1641208005808975872,2022-01-03-11:06:45,10.1.1.4,180,-0.090,-0.090,-0.090,0.000,0.000,0.000
1641208006008891136,2022-01-03-11:06:46,10.1.1.4,179,-0.100,-0.100,-0.100,0.000,0.000,0.000
1641208006208532992,2022-01-03-11:06:46,10.1.1.4,178,-0.110,-0.110,-0.110,0.000,0.000,0.000
1641208006407887872,2022-01-03-11:06:46,10.1.1.4,177,-0.120,-0.120,-0.120,0.000,0.000,0.000
1641208006608105984,2022-01-03-11:06:46,10.1.1.4,176,-0.130,-0.130,-0.130,0.000,0.000,0.000
1641208006810238976,2022-01-03-11:06:46,10.1.1.4,176,-0.140,-0.140,-0.140,0.000,0.000,0.000
1641208007007200000,2022-01-03-11:06:47,10.1.1.4,173,-0.150,-0.150,-0.150,0.000,0.000,0.000
1641208007207480832,2022-01-03-11:06:47,10.1.1.4,171,-0.160,-0.160,-0.160,0.000,0.000,0.000
1641208007407279872,2022-01-03-11:06:47,10.1.1.4,170,-0.170,-0.170,-0.170,0.000,0.000,0.000
1641208007606501120,2022-01-03-11:06:47,10.1.1.4,168,-0.180,-0.180,-0.180,0.000,0.000,0.000
1641208007807256832,2022-01-03-11:06:47,10.1.1.4,168,-0.190,-0.190,-0.190,0.000,0.000,0.000
1641208008005458176,2022-01-03-11:06:48,10.1.1.4,165,-0.200,-0.200,-0.200,0.000,0.000,0.000
1641208008205699840,2022-01-03-11:06:48,10.1.1.4,164,-0.210,-0.210,-0.210,0.000,0.000,0.000
1641208008405262080,2022-01-03-11:06:48,10.1.1.4,164,-0.220,-0.220,-0.220,0.000,0.000,0.000
1641208008605371904,2022-01-03-11:06:48,10.1.1.4,163,-0.230,-0.230,-0.230,0.000,0.000,0.000
1641208008805270784,2022-01-03-11:06:48,10.1.1.4,162,-0.240,-0.240,-0.240,0.000,0.000,0.000
1641208009024701184,2022-01-03-11:06:49,10.1.1.4,178,-0.250,-0.250,-0.250,0.000,0.000,0.000
1641208009229346048,2022-01-03-11:06:49,10.1.1.4,181,-0.260,-0.260,-0.260,0.000,0.000,0.000
1641208009424307200,2022-01-03-11:06:49,10.1.1.4,175,-0.270,-0.270,-0.270,0.000,0.000,0.000
1641208009623353088,2022-01-03-11:06:49,10.1.1.4,173,-0.280,-0.280,-0.280,0.000,0.000,0.000
1641208009822722816,2022-01-03-11:06:49,10.1.1.4,171,-0.290,-0.290,-0.290,0.000,0.000,0.000
1641208010022886912,2022-01-03-11:06:50,10.1.1.4,169,-0.300,-0.300,-0.300,0.000,0.000,0.000
1641208010223436032,2022-01-03-11:06:50,10.1.1.4,170,-0.310,-0.310,-0.310,0.000,0.000,0.000
1641208010424832000,2022-01-03-11:06:50,10.1.1.4,170,-0.320,-0.320,-0.320,0.000,0.000,0.000
1641208010625765120,2022-01-03-11:06:50,10.1.1.4,170,-0.330,-0.330,-0.330,0.000,0.000,0.000
1641208010827598080,2022-01-03-11:06:50,10.1.1.4,170,-0.340,-0.340,-0.340,0.000,0.000,0.000
1641208011028270080,2022-01-03-11:06:51,10.1.1.4,170,-0.350,-0.350,-0.350,0.000,0.000,0.000
1641208011230202880,2022-01-03-11:06:51,10.1.1.4,171,-0.360,-0.360,-0.360,0.000,0.000,0.000
1641208011431350016,2022-01-03-11:06:51,10.1.1.4,171,-0.370,-0.370,-0.370,0.000,0.000,0.000
1641208011630702080,2022-01-03-11:06:51,10.1.1.4,168,-0.380,-0.380,-0.380,0.000,0.000,0.000
1641208011832470784,2022-01-03-11:06:51,10.1.1.4,169,-0.390,-0.390,-0.390,0.000,0.000,0.000
1641208012033229056,2022-01-03-11:06:52,10.1.1.4,169,-0.400,-0.400,-0.400,0.000,0.000,0.000
1641208012236824064,2022-01-03-11:06:52,10.1.1.4,172,-0.410,-0.410,-0.410,0.000,0.000,0.000
1641208012433931008,2022-01-03-11:06:52,10.1.1.4,168,-0.420,-0.420,-0.420,0.000,0.000,0.000
1641208012634792960,2022-01-03-11:06:52,10.1.1.4,168,-0.430,-0.430,-0.430,0.000,0.000,0.000
1641208012835277056,2022-01-03-11:06:52,10.1.1.4,169,-0.440,-0.440,-0.440,0.000,0.000,0.000
1641208013055758080,2022-01-03-11:06:53,10.1.1.4,189,-0.450,-0.450,-0.450,0.000,0.000,0.000
1641208013256599808,2022-01-03-11:06:53,10.1.1.4,189,-0.460,-0.460,-0.460,0.000,0.000,0.000
1641208013459547904,2022-01-03-11:06:53,10.1.1.4,191,-0.470,-0.470,-0.470,0.000,0.000,0.000
1641208013658225920,2022-01-03-11:06:53,10.1.1.4,189,-0.480,-0.480,-0.480,0.000,0.000,0.000
1641208013858272000,2022-01-03-11:06:53,10.1.1.4,186,-0.490,-0.490,-0.490,0.000,0.000,0.000
1641208014059282176,2022-01-03-11:06:54,10.1.1.4,187,-0.480,-0.480,-0.480,0.000,0.000,0.000
1641208014259321088,2022-01-03-11:06:54,10.1.1.4,186,-0.470,-0.470,-0.470,0.000,0.000,0.000
1641208014460734976,2022-01-03-11:06:54,10.1.1.4,187,-0.460,-0.460,-0.460,0.000,0.000,0.000
1641208014660301056,2022-01-03-11:06:54,10.1.1.4,186,-0.450,-0.450,-0.450,0.000,0.000,0.000
1641208014861334016,2022-01-03-11:06:54,10.1.1.4,187,-0.440,-0.440,-0.440,0.000,0.000,0.000
1641208015061373952,2022-01-03-11:06:55,10.1.1.4,185,-0.430,-0.430,-0.430,0.000,0.000,0.000
1641208015262327040,2022-01-03-11:06:55,10.1.1.4,186,-0.420,-0.420,-0.420,0.000,0.000,0.000
1641208015463264000,2022-01-03-11:06:55,10.1.1.4,186,-0.410,-0.410,-0.410,0.000,0.000,0.000
1641208015666776832,2022-01-03-11:06:55,10.1.1.4,189,-0.400,-0.400,-0.400,0.000,0.000,0.000
1641208015863799040,2022-01-03-11:06:55,10.1.1.4,185,-0.390,-0.390,-0.390,0.000,0.000,0.000
1641208016065478144,2022-01-03-11:06:56,10.1.1.4,185,-0.380,-0.380,-0.380,0.000,0.000,0.000
1641208016263976960,2022-01-03-11:06:56,10.1.1.4,184,-0.370,-0.370,-0.370,0.000,0.000,0.000
1641208016464423936,2022-01-03-11:06:56,10.1.1.4,183,-0.360,-0.360,-0.360,0.000,0.000,0.000
1641208016663996928,2022-01-03-11:06:56,10.1.1.4,182,-0.350,-0.350,-0.350,0.000,0.000,0.000
1641208016865072896,2022-01-03-11:06:56,10.1.1.4,183,-0.340,-0.340,-0.340,0.000,0.000,0.000
1641208017065860096,2022-01-03-11:06:57,10.1.1.4,183,-0.330,-0.330,-0.330,0.000,0.000,0.000
1641208017265660160,2022-01-03-11:06:57,10.1.1.4,182,-0.320,-0.320,-0.320,0.000,0.000,0.000
1641208017465128960,2022-01-03-11:06:57,10.1.1.4,180,-0.310,-0.310,-0.310,0.000,0.000,0.000
1641208017667869184,2022-01-03-11:06:57,10.1.1.4,183,-0.300,-0.300,-0.300,0.000,0.000,0.000
1641208017887245824,2022-01-03-11:06:57,10.1.1.4,199,-0.290,-0.290,-0.290,0.000,0.000,0.000
1641208018085881088,2022-01-03-11:06:58,10.1.1.4,197,-0.280,-0.280,-0.280,0.000,0.000,0.000
1641208018286194944,2022-01-03-11:06:58,10.1.1.4,197,-0.270,-0.270,-0.270,0.000,0.000,0.000
1641208018486102016,2022-01-03-11:06:58,10.1.1.4,196,-0.260,-0.260,-0.260,0.000,0.000,0.000
1641208018686444032,2022-01-03-11:06:58,10.1.1.4,196,-0.250,-0.250,-0.250,0.000,0.000,0.000
1641208018906651904,2022-01-03-11:06:58,10.1.1.4,196,-0.240,-0.240,-0.240,0.000,0.000,0.000
1641208019086787072,2022-01-03-11:06:59,10.1.1.4,181,-0.230,-0.230,-0.230,0.000,0.000,0.000
1641208019287556864,2022-01-03-11:06:59,10.1.1.4,181,-0.220,-0.220,-0.220,0.000,0.000,0.000
1641208019506941952,2022-01-03-11:06:59,10.1.1.4,199,-0.210,-0.210,-0.210,0.000,0.000,0.000
1641208019706603008,2022-01-03-11:06:59,10.1.1.4,198,-0.200,-0.200,-0.200,0.000,0.000,0.000
1641208019907243008,2022-01-03-11:06:59,10.1.1.4,198,-0.190,-0.190,-0.190,0.000,0.000,0.000
1641208020106946048,2022-01-03-11:07:00,10.1.1.4,197,-0.180,-0.180,-0.180,0.000,0.000,0.000
1641208020307145984,2022-01-03-11:07:00,10.1.1.4,196,-0.170,-0.170,-0.170,0.000,0.000,0.000
1641208020508809216,2022-01-03-11:07:00,10.1.1.4,196,-0.160,-0.160,-0.160,0.000,0.000,0.000
1641208020708381952,2022-01-03-11:07:00,10.1.1.4,182,-0.150,-0.150,-0.150,0.000,0.000,0.000
1641208020926980864,2022-01-03-11:07:00,10.1.1.4,200,-0.140,-0.140,-0.140,0.000,0.000,0.000
1641208021127102976,2022-01-03-11:07:01,10.1.1.4,199,-0.130,-0.130,-0.130,0.000,0.000,0.000
1641208021326853120,2022-01-03-11:07:01,10.1.1.4,199,-0.120,-0.120,-0.120,0.000,0.000,0.000
1641208021527120128,2022-01-03-11:07:01,10.1.1.4,198,-0.110,-0.110,-0.110,0.000,0.000,0.000
1641208021927354112,2022-01-03-11:07:01,10.1.1.4,198,-0.090,-0.090,-0.090,0.000,0.000,0.000
1641208022128217856,2022-01-03-11:07:02,10.1.1.4,198,-0.080,-0.080,-0.080,0.000,0.000,0.000
1641208022327245056,2022-01-03-11:07:02,10.1.1.4,197,-0.070,-0.070,-0.070,0.000,0.000,0.000
1641208022526856960,2022-01-03-11:07:02,10.1.1.4,196,-0.060,-0.060,-0.060,0.000,0.000,0.000
1641208022728365056,2022-01-03-11:07:02,10.1.1.4,197,-0.050,-0.050,-0.050,0.000,0.000,0.000
1641208022926973952,2022-01-03-11:07:02,10.1.1.4,194,-0.040,-0.040,-0.040,0.000,0.000,0.000
1641208023126432000,2022-01-03-11:07:03,10.1.1.4,192,-0.030,-0.030,-0.030,0.000,0.000,0.000
1641208023326510848,2022-01-03-11:07:03,10.1.1.4,192,-0.020,-0.020,-0.020,0.000,0.000,0.000
1641208023527915008,2022-01-03-11:07:03,10.1.1.4,193,-0.010,-0.010,-0.010,0.000,0.000,0.000
1641208023726728960,2022-01-03-11:07:03,10.1.1.4,191,0.000,0.000,0.000,0.000,0.000,0.000
1641208023928950016,2022-01-03-11:07:03,10.1.1.4,192,-0.010,-0.010,-0.010,0.000,0.000,0.000
1641208024126720000,2022-01-03-11:07:04,10.1.1.4,189,-0.020,-0.020,-0.020,0.000,0.000,0.000
1641208024326672128,2022-01-03-11:07:04,10.1.1.4,188,-0.030,-0.030,-0.030,0.000,0.000,0.000
1641208024526503936,2022-01-03-11:07:04,10.1.1.4,186,-0.040,-0.040,-0.040,0.000,0.000,0.000
1641208024726747904,2022-01-03-11:07:04,10.1.1.4,184,-0.050,-0.050,-0.050,0.000,0.000,0.000
1641208024925252864,2022-01-03-11:07:04,10.1.1.4,183,-0.060,-0.060,-0.060,0.000,0.000,0.000
1641208025125298944,2022-01-03-11:07:05,10.1.1.4,182,-0.070,-0.070,-0.070,0.000,0.000,0.000
1641208025327912960,2022-01-03-11:07:05,10.1.1.4,184,-0.080,-0.080,-0.080,0.000,0.000,0.000
1641208025525017856,2022-01-03-11:07:05,10.1.1.4,179,-0.090,-0.090,-0.090,0.000,0.000,0.000
1641208025726136064,2022-01-03-11:07:05,10.1.1.4,179,-0.100,-0.100,-0.100,0.000,0.000,0.000
1641208025944755200,2022-01-03-11:07:05,10.1.1.4,197,-0.110,-0.110,-0.110,0.000,0.000,0.000
1641208026144993024,2022-01-03-11:07:06,10.1.1.4,196,-0.120,-0.120,-0.120,0.000,0.000,0.000
1641208026345782016,2022-01-03-11:07:06,10.1.1.4,197,-0.130,-0.130,-0.130,0.000,0.000,0.000
1641208026544348928,2022-01-03-11:07:06,10.1.1.4,194,-0.140,-0.140,-0.140,0.000,0.000,0.000
1641208026744390912,2022-01-03-11:07:06,10.1.1.4,194,-0.150,-0.150,-0.150,0.000,0.000,0.000
1641208026944062976,2022-01-03-11:07:06,10.1.1.4,191,-0.160,-0.160,-0.160,0.000,0.000,0.000
1641208027143627776,2022-01-03-11:07:07,10.1.1.4,190,-0.170,-0.170,-0.170,0.000,0.000,0.000
1641208027343960064,2022-01-03-11:07:07,10.1.1.4,189,-0.180,-0.180,-0.180,0.000,0.000,0.000
1641208027544135936,2022-01-03-11:07:07,10.1.1.4,189,-0.190,-0.190,-0.190,0.000,0.000,0.000
1641208027743222016,2022-01-03-11:07:07,10.1.1.4,188,-0.200,-0.200,-0.200,0.000,0.000,0.000
1641208027943023872,2022-01-03-11:07:07,10.1.1.4,186,-0.210,-0.210,-0.210,0.000,0.000,0.000
1641208028143207936,2022-01-03-11:07:08,10.1.1.4,186,-0.220,-0.220,-0.220,0.000,0.000,0.000
1641208028344795904,2022-01-03-11:07:08,10.1.1.4,186,-0.230,-0.230,-0.230,0.000,0.000,0.000
1641208028542490112,2022-01-03-11:07:08,10.1.1.4,184,-0.240,-0.240,-0.240,0.000,0.000,0.000
1641208028742806784,2022-01-03-11:07:08,10.1.1.4,184,-0.250,-0.250,-0.250,0.000,0.000,0.000
1641208028942195968,2022-01-03-11:07:08,10.1.1.4,183,-0.260,-0.260,-0.260,0.000,0.000,0.000
1641208029148144896,2022-01-03-11:07:09,10.1.1.4,188,-0.270,-0.270,-0.270,0.000,0.000,0.000
1641208029342029056,2022-01-03-11:07:09,10.1.1.4,181,-0.280,-0.280,-0.280,0.000,0.000,0.000
1641208029541307904,2022-01-03-11:07:09,10.1.1.4,180,-0.290,-0.290,-0.290,0.000,0.000,0.000
1641208029740695040,2022-01-03-11:07:09,10.1.1.4,178,-0.300,-0.300,-0.300,0.000,0.000,0.000
1641208029941307904,2022-01-03-11:07:09,10.1.1.4,179,-0.310,-0.310,-0.310,0.000,0.000,0.000
1641208030141282048,2022-01-03-11:07:10,10.1.1.4,178,-0.320,-0.320,-0.320,0.000,0.000,0.000
1641208030340893952,2022-01-03-11:07:10,10.1.1.4,177,-0.330,-0.330,-0.330,0.000,0.000,0.000
1641208030540749056,2022-01-03-11:07:10,10.1.1.4,176,-0.340,-0.340,-0.340,0.000,0.000,0.000
1641208030739948032,2022-01-03-11:07:10,10.1.1.4,174,-0.350,-0.350,-0.350,0.000,0.000,0.000
1641208030939414016,2022-01-03-11:07:10,10.1.1.4,173,-0.360,-0.360,-0.360,0.000,0.000,0.000
1641208031140086016,2022-01-03-11:07:11,10.1.1.4,173,-0.370,-0.370,-0.370,0.000,0.000,0.000
1641208031359371008,2022-01-03-11:07:11,10.1.1.4,192,-0.380,-0.380,-0.380,0.000,0.000,0.000
1641208031560264192,2022-01-03-11:07:11,10.1.1.4,192,-0.390,-0.390,-0.390,0.000,0.000,0.000
1641208031758416896,2022-01-03-11:07:11,10.1.1.4,190,-0.400,-0.400,-0.400,0.000,0.000,0.000
1641208031958125056,2022-01-03-11:07:11,10.1.1.4,189,-0.410,-0.410,-0.410,0.000,0.000,0.000
1641208032158076160,2022-01-03-11:07:12,10.1.1.4,188,-0.420,-0.420,-0.420,0.000,0.000,0.000
1641208032358877952,2022-01-03-11:07:12,10.1.1.4,189,-0.430,-0.430,-0.430,0.000,0.000,0.000
1641208032558042880,2022-01-03-11:07:12,10.1.1.4,187,-0.440,-0.440,-0.440,0.000,0.000,0.000
1641208032757378048,2022-01-03-11:07:12,10.1.1.4,186,-0.450,-0.450,-0.450,0.000,0.000,0.000
1641208032957235968,2022-01-03-11:07:12,10.1.1.4,186,-0.460,-0.460,-0.460,0.000,0.000,0.000
1641208033156363008,2022-01-03-11:07:13,10.1.1.4,184,-0.470,-0.470,-0.470,0.000,0.000,0.000
1641208033356475136,2022-01-03-11:07:13,10.1.1.4,184,-0.480,-0.480,-0.480,0.000,0.000,0.000
1641208033559360000,2022-01-03-11:07:13,10.1.1.4,185,-0.490,-0.490,-0.490,0.000,0.000,0.000
1641208033758941952,2022-01-03-11:07:13,10.1.1.4,182,-0.480,-0.480,-0.480,0.000,0.000,0.000
1641208033955030016,2022-01-03-11:07:13,10.1.1.4,178,-0.470,-0.470,-0.470,0.000,0.000,0.000
1641208034155184128,2022-01-03-11:07:14,10.1.1.4,176,-0.460,-0.460,-0.460,0.000,0.000,0.000
1641208034355355136,2022-01-03-11:07:14,10.1.1.4,176,-0.450,-0.450,-0.450,0.000,0.000,0.000
1641208034554569984,2022-01-03-11:07:14,10.1.1.4,174,-0.440,-0.440,-0.440,0.000,0.000,0.000
1641208034755086848,2022-01-03-11:07:14,10.1.1.4,174,-0.430,-0.430,-0.430,0.000,0.000,0.000
1641208034954263040,2022-01-03-11:07:14,10.1.1.4,173,-0.420,-0.420,-0.420,0.000,0.000,0.000
1641208035153476096,2022-01-03-11:07:15,10.1.1.4,172,-0.410,-0.410,-0.410,0.000,0.000,0.000
1641208035352950016,2022-01-03-11:07:15,10.1.1.4,171,-0.400,-0.400,-0.400,0.000,0.000,0.000
1641208035553908992,2022-01-03-11:07:15,10.1.1.4,171,-0.390,-0.390,-0.390,0.000,0.000,0.000
1641208035752763136,2022-01-03-11:07:15,10.1.1.4,170,-0.380,-0.380,-0.380,0.000,0.000,0.000
1641208035952655104,2022-01-03-11:07:15,10.1.1.4,169,-0.370,-0.370,-0.370,0.000,0.000,0.000
1641208036152679936,2022-01-03-11:07:16,10.1.1.4,168,-0.360,-0.360,-0.360,0.000,0.000,0.000
1641208036352781056,2022-01-03-11:07:16,10.1.1.4,167,-0.350,-0.350,-0.350,0.000,0.000,0.000
1641208036552314112,2022-01-03-11:07:16,10.1.1.4,166,-0.340,-0.340,-0.340,0.000,0.000,0.000
1641208036752177920,2022-01-03-11:07:16,10.1.1.4,166,-0.330,-0.330,-0.330,0.000,0.000,0.000
1641208036972708864,2022-01-03-11:07:16,10.1.1.4,186,-0.320,-0.320,-0.320,0.000,0.000,0.000
1641208037171030016,2022-01-03-11:07:17,10.1.1.4,183,-0.310,-0.310,-0.310,0.000,0.000,0.000
1641208037370680064,2022-01-03-11:07:17,10.1.1.4,183,-0.300,-0.300,-0.300,0.000,0.000,0.000
1641208037570769920,2022-01-03-11:07:17,10.1.1.4,182,-0.290,-0.290,-0.290,0.000,0.000,0.000
1641208037769712896,2022-01-03-11:07:17,10.1.1.4,181,-0.280,-0.280,-0.280,0.000,0.000,0.000
1641208037969480960,2022-01-03-11:07:17,10.1.1.4,180,-0.270,-0.270,-0.270,0.000,0.000,0.000
1641208038169393920,2022-01-03-11:07:18,10.1.1.4,175,-0.260,-0.260,-0.260,0.000,0.000,0.000
1641208038372322048,2022-01-03-11:07:18,10.1.1.4,177,-0.250,-0.250,-0.250,0.000,0.000,0.000
1641208038568715008,2022-01-03-11:07:18,10.1.1.4,173,-0.240,-0.240,-0.240,0.000,0.000,0.000
1641208038769312000,2022-01-03-11:07:18,10.1.1.4,173,-0.230,-0.230,-0.230,0.000,0.000,0.000
1641208038968564992,2022-01-03-11:07:18,10.1.1.4,171,-0.220,-0.220,-0.220,0.000,0.000,0.000
1641208039167823104,2022-01-03-11:07:19,10.1.1.4,170,-0.210,-0.210,-0.210,0.000,0.000,0.000
1641208039367780864,2022-01-03-11:07:19,10.1.1.4,168,-0.200,-0.200,-0.200,0.000,0.000,0.000
1641208039566909184,2022-01-03-11:07:19,10.1.1.4,167,-0.190,-0.190,-0.190,0.000,0.000,0.000
1641208039766455040,2022-01-03-11:07:19,10.1.1.4,166,-0.180,-0.180,-0.180,0.000,0.000,0.000
1641208039966200064,2022-01-03-11:07:19,10.1.1.4,165,-0.170,-0.170,-0.170,0.000,0.000,0.000
1641208040166078208,2022-01-03-11:07:20,10.1.1.4,165,-0.160,-0.160,-0.160,0.000,0.000,0.000
1641208040365263104,2022-01-03-11:07:20,10.1.1.4,163,-0.150,-0.150,-0.150,0.000,0.000,0.000
1641208040565736960,2022-01-03-11:07:20,10.1.1.4,163,-0.140,-0.140,-0.140,0.000,0.000,0.000
1641208040765795072,2022-01-03-11:07:20,10.1.1.4,162,-0.130,-0.130,-0.130,0.000,0.000,0.000
1641208040965054976,2022-01-03-11:07:20,10.1.1.4,160,-0.120,-0.120,-0.120,0.000,0.000,0.000
1641208041165065984,2022-01-03-11:07:21,10.1.1.4,160,-0.110,-0.110,-0.110,0.000,0.000,0.000
1641208041363918080,2022-01-03-11:07:21,10.1.1.4,158,-0.100,-0.100,-0.100,0.000,0.000,0.000
1641208041563869952,2022-01-03-11:07:21,10.1.1.4,157,-0.090,-0.090,-0.090,0.000,0.000,0.000
1641208041783990016,2022-01-03-11:07:21,10.1.1.4,177,-0.080,-0.080,-0.080,0.000,0.000,0.000
1641208041984613888,2022-01-03-11:07:21,10.1.1.4,175,-0.070,-0.070,-0.070,0.000,0.000,0.000
1641208042186331136,2022-01-03-11:07:22,10.1.1.4,166,-0.060,-0.060,-0.060,0.000,0.000,0.000
1641208042382615040,2022-01-03-11:07:22,10.1.1.4,161,-0.050,-0.050,-0.050,0.000,0.000,0.000
1641208042582294016,2022-01-03-11:07:22,10.1.1.4,161,-0.040,-0.040,-0.040,0.000,0.000,0.000
1641208042781634048,2022-01-03-11:07:22,10.1.1.4,159,-0.030,-0.030,-0.030,0.000,0.000,0.000
1641208042983428864,2022-01-03-11:07:22,10.1.1.4,160,-0.020,-0.020,-0.020,0.000,0.000,0.000
1641208043182620160,2022-01-03-11:07:23,10.1.1.4,158,-0.010,-0.010,-0.010,0.000,0.000,0.000
1641208043404731904,2022-01-03-11:07:23,10.1.1.4,177,0.000,0.000,0.000,0.000,0.000,0.000
1641208043607129088,2022-01-03-11:07:23,10.1.1.4,179,-0.010,-0.010,-0.010,0.000,0.000,0.000
1641208043806210048,2022-01-03-11:07:23,10.1.1.4,177,-0.020,-0.020,-0.020,0.000,0.000,0.000
1641208044006921984,2022-01-03-11:07:24,10.1.1.4,177,-0.030,-0.030,-0.030,0.000,0.000,0.000
1641208044207764992,2022-01-03-11:07:24,10.1.1.4,176,-0.040,-0.040,-0.040,0.000,0.000,0.000
1641208044472436992,2022-01-03-11:07:24,10.1.1.4,183,-0.050,-0.050,-0.050,0.000,0.000,0.000
1641208044671528192,2022-01-03-11:07:24,10.1.1.4,182,-0.060,-0.060,-0.060,0.000,0.000,0.000
1641208044870551040,2022-01-03-11:07:24,10.1.1.4,181,-0.070,-0.070,-0.070,0.000,0.000,0.000
1641208045072193024,2022-01-03-11:07:25,10.1.1.4,181,-0.080,-0.080,-0.080,0.000,0.000,0.000
1641208045272054784,2022-01-03-11:07:25,10.1.1.4,181,-0.090,-0.090,-0.090,0.000,0.000,0.000
1641208045472870144,2022-01-03-11:07:25,10.1.1.4,181,-0.100,-0.100,-0.100,0.000,0.000,0.000
1641208045673837824,2022-01-03-11:07:25,10.1.1.4,181,-0.110,-0.110,-0.110,0.000,0.000,0.000
1641208045875938048,2022-01-03-11:07:25,10.1.1.4,182,-0.120,-0.120,-0.120,0.000,0.000,0.000
1641208046075084800,2022-01-03-11:07:26,10.1.1.4,181,-0.130,-0.130,-0.130,0.000,0.000,0.000
1641208046276750080,2022-01-03-11:07:26,10.1.1.4,182,-0.140,-0.140,-0.140,0.000,0.000,0.000
1641208046476994048,2022-01-03-11:07:26,10.1.1.4,180,-0.150,-0.150,-0.150,0.000,0.000,0.000
1641208046677238016,2022-01-03-11:07:26,10.1.1.4,179,-0.160,-0.160,-0.160,0.000,0.000,0.000
1641208046878185984,2022-01-03-11:07:26,10.1.1.4,179,-0.170,-0.170,-0.170,0.000,0.000,0.000
1641208047078644992,2022-01-03-11:07:27,10.1.1.4,179,-0.180,-0.180,-0.180,0.000,0.000,0.000
1641208047279036160,2022-01-03-11:07:27,10.1.1.4,179,-0.190,-0.190,-0.190,0.000,0.000,0.000
1641208047491204096,2022-01-03-11:07:27,10.1.1.4,191,-0.200,-0.200,-0.200,0.000,0.000,0.000
1641208047680566016,2022-01-03-11:07:27,10.1.1.4,179,-0.210,-0.210,-0.210,0.000,0.000,0.000
1641208047880308992,2022-01-03-11:07:27,10.1.1.4,179,-0.220,-0.220,-0.220,0.000,0.000,0.000
1641208048080369920,2022-01-03-11:07:28,10.1.1.4,178,-0.230,-0.230,-0.230,0.000,0.000,0.000
1641208048281410816,2022-01-03-11:07:28,10.1.1.4,179,-0.240,-0.240,-0.240,0.000,0.000,0.000
1641208048304626944,2022-01-03-11:07:28,10.1.1.4,-1,-0.240,-0.240,-0.240,0.000,0.000,0.000
1641208048682279936,2022-01-03-11:07:28,10.1.1.4,177,-0.260,-0.260,-0.260,0.000,0.000,0.000
1641208048893132800,2022-01-03-11:07:28,10.1.1.4,187,-0.270,-0.270,-0.270,0.000,0.000,0.000
1641208049102447872,2022-01-03-11:07:29,10.1.1.4,194,-0.280,-0.280,-0.280,0.000,0.000,0.000
1641208049304440064,2022-01-03-11:07:29,10.1.1.4,192,-0.290,-0.290,-0.290,0.000,0.000,0.000
1641208049502947072,2022-01-03-11:07:29,10.1.1.4,190,-0.300,-0.300,-0.300,0.000,0.000,0.000
1641208049704886016,2022-01-03-11:07:29,10.1.1.4,191,-0.310,-0.310,-0.310,0.000,0.000,0.000
1641208050124382976,2022-01-03-11:07:30,10.1.1.4,195,-0.330,-0.330,-0.330,0.000,0.000,0.000
1641208050328023040,2022-01-03-11:07:30,10.1.1.4,198,-0.340,-0.340,-0.340,0.000,0.000,0.000
1641208050525094912,2022-01-03-11:07:30,10.1.1.4,192,-0.350,-0.350,-0.350,0.000,0.000,0.000
1641208050725445888,2022-01-03-11:07:30,10.1.1.4,191,-0.360,-0.360,-0.360,0.000,0.000,0.000
1641208050925594112,2022-01-03-11:07:30,10.1.1.4,192,-0.370,-0.370,-0.370,0.000,0.000,0.000
1641208051125276160,2022-01-03-11:07:31,10.1.1.4,191,-0.380,-0.380,-0.380,0.000,0.000,0.000
1641208051325352960,2022-01-03-11:07:31,10.1.1.4,190,-0.390,-0.390,-0.390,0.000,0.000,0.000
1641208051525496832,2022-01-03-11:07:31,10.1.1.4,190,-0.400,-0.400,-0.400,0.000,0.000,0.000
1641208051727054080,2022-01-03-11:07:31,10.1.1.4,191,-0.410,-0.410,-0.410,0.000,0.000,0.000
1641208051929667840,2022-01-03-11:07:31,10.1.1.4,192,-0.420,-0.420,-0.420,0.000,0.000,0.000
1641208052125477120,2022-01-03-11:07:32,10.1.1.4,187,-0.430,-0.430,-0.430,0.000,0.000,0.000
1641208052325519104,2022-01-03-11:07:32,10.1.1.4,187,-0.440,-0.440,-0.440,0.000,0.000,0.000
1641208052526544128,2022-01-03-11:07:32,10.1.1.4,186,-0.450,-0.450,-0.450,0.000,0.000,0.000
1641208052727385088,2022-01-03-11:07:32,10.1.1.4,186,-0.460,-0.460,-0.460,0.000,0.000,0.000
1641208052927208960,2022-01-03-11:07:32,10.1.1.4,184,-0.470,-0.470,-0.470,0.000,0.000,0.000
1641208053125629952,2022-01-03-11:07:33,10.1.1.4,182,-0.480,-0.480,-0.480,0.000,0.000,0.000
1641208053326456064,2022-01-03-11:07:33,10.1.1.4,183,-0.490,-0.490,-0.490,0.000,0.000,0.000
1641208053526260992,2022-01-03-11:07:33,10.1.1.4,182,-0.480,-0.480,-0.480,0.000,0.000,0.000
1641208053727616000,2022-01-03-11:07:33,10.1.1.4,182,-0.470,-0.470,-0.470,0.000,0.000,0.000
1641208053928628992,2022-01-03-11:07:33,10.1.1.4,182,-0.460,-0.460,-0.460,0.000,0.000,0.000
1641208054145953024,2022-01-03-11:07:34,10.1.1.4,199,-0.450,-0.450,-0.450,0.000,0.000,0.000
1641208054346611968,2022-01-03-11:07:34,10.1.1.4,199,-0.440,-0.440,-0.440,0.000,0.000,0.000
1641208054546745088,2022-01-03-11:07:34,10.1.1.4,198,-0.430,-0.430,-0.430,0.000,0.000,0.000
1641208054748953088,2022-01-03-11:07:34,10.1.1.4,200,-0.420,-0.420,-0.420,0.000,0.000,0.000
1641208054946436864,2022-01-03-11:07:34,10.1.1.4,196,-0.410,-0.410,-0.410,0.000,0.000,0.000
1641208055147260928,2022-01-03-11:07:35,10.1.1.4,196,-0.400,-0.400,-0.400,0.000,0.000,0.000
1641208055346008064,2022-01-03-11:07:35,10.1.1.4,194,-0.390,-0.390,-0.390,0.000,0.000,0.000
1641208055546813952,2022-01-03-11:07:35,10.1.1.4,193,-0.380,-0.380,-0.380,0.000,0.000,0.000
1641208055745955840,2022-01-03-11:07:35,10.1.1.4,192,-0.370,-0.370,-0.370,0.000,0.000,0.000
1641208055946088960,2022-01-03-11:07:35,10.1.1.4,191,-0.360,-0.360,-0.360,0.000,0.000,0.000
1641208056146223104,2022-01-03-11:07:36,10.1.1.4,191,-0.350,-0.350,-0.350,0.000,0.000,0.000
1641208056345897984,2022-01-03-11:07:36,10.1.1.4,190,-0.340,-0.340,-0.340,0.000,0.000,0.000
1641208056545454080,2022-01-03-11:07:36,10.1.1.4,189,-0.330,-0.330,-0.330,0.000,0.000,0.000
1641208056746438144,2022-01-03-11:07:36,10.1.1.4,189,-0.320,-0.320,-0.320,0.000,0.000,0.000
1641208056949132800,2022-01-03-11:07:36,10.1.1.4,191,-0.310,-0.310,-0.310,0.000,0.000,0.000
1641208057145174016,2022-01-03-11:07:37,10.1.1.4,186,-0.300,-0.300,-0.300,0.000,0.000,0.000
1641208057344862976,2022-01-03-11:07:37,10.1.1.4,186,-0.290,-0.290,-0.290,0.000,0.000,0.000
1641208057545309184,2022-01-03-11:07:37,10.1.1.4,185,-0.280,-0.280,-0.280,0.000,0.000,0.000
1641208057744896768,2022-01-03-11:07:37,10.1.1.4,185,-0.270,-0.270,-0.270,0.000,0.000,0.000
1641208057944992000,2022-01-03-11:07:37,10.1.1.4,184,-0.260,-0.260,-0.260,0.000,0.000,0.000
1641208058145658880,2022-01-03-11:07:38,10.1.1.4,184,-0.250,-0.250,-0.250,0.000,0.000,0.000
1641208058350779136,2022-01-03-11:07:38,10.1.1.4,188,-0.240,-0.240,-0.240,0.000,0.000,0.000
1641208058544451840,2022-01-03-11:07:38,10.1.1.4,180,-0.230,-0.230,-0.230,0.000,0.000,0.000
1641208058744375040,2022-01-03-11:07:38,10.1.1.4,179,-0.220,-0.220,-0.220,0.000,0.000,0.000
1641208058944272896,2022-01-03-11:07:38,10.1.1.4,178,-0.210,-0.210,-0.210,0.000,0.000,0.000
1641208059144354048,2022-01-03-11:07:39,10.1.1.4,178,-0.200,-0.200,-0.200,0.000,0.000,0.000
1641208059365554944,2022-01-03-11:07:39,10.1.1.4,198,-0.190,-0.190,-0.190,0.000,0.000,0.000
1641208059563965184,2022-01-03-11:07:39,10.1.1.4,196,-0.180,-0.180,-0.180,0.000,0.000,0.000
1641208059764730880,2022-01-03-11:07:39,10.1.1.4,197,-0.170,-0.170,-0.170,0.000,0.000,0.000
1641208059963411968,2022-01-03-11:07:39,10.1.1.4,195,-0.160,-0.160,-0.160,0.000,0.000,0.000
1641208060163563008,2022-01-03-11:07:40,10.1.1.4,193,-0.150,-0.150,-0.150,0.000,0.000,0.000
1641208060362822912,2022-01-03-11:07:40,10.1.1.4,191,-0.140,-0.140,-0.140,0.000,0.000,0.000
1641208060562271232,2022-01-03-11:07:40,10.1.1.4,190,-0.130,-0.130,-0.130,0.000,0.000,0.000
1641208060763356928,2022-01-03-11:07:40,10.1.1.4,190,-0.120,-0.120,-0.120,0.000,0.000,0.000
1641208060962542080,2022-01-03-11:07:40,10.1.1.4,189,-0.110,-0.110,-0.110,0.000,0.000,0.000
1641208061161837056,2022-01-03-11:07:41,10.1.1.4,187,-0.100,-0.100,-0.100,0.000,0.000,0.000
1641208061368505856,2022-01-03-11:07:41,10.1.1.4,193,-0.090,-0.090,-0.090,0.000,0.000,0.000
1641208061562035968,2022-01-03-11:07:41,10.1.1.4,186,-0.080,-0.080,-0.080,0.000,0.000,0.000
1641208061761632000,2022-01-03-11:07:41,10.1.1.4,184,-0.070,-0.070,-0.070,0.000,0.000,0.000
1641208061960781056,2022-01-03-11:07:41,10.1.1.4,182,-0.060,-0.060,-0.060,0.000,0.000,0.000
1641208062172532992,2022-01-03-11:07:42,10.1.1.4,191,-0.050,-0.050,-0.050,0.000,0.000,0.000
1641208062361304064,2022-01-03-11:07:42,10.1.1.4,178,-0.040,-0.040,-0.040,0.000,0.000,0.000
1641208062561003008,2022-01-03-11:07:42,10.1.1.4,176,-0.030,-0.030,-0.030,0.000,0.000,0.000
1641208062760570112,2022-01-03-11:07:42,10.1.1.4,175,-0.020,-0.020,-0.020,0.000,0.000,0.000
1641208062959985920,2022-01-03-11:07:42,10.1.1.4,173,-0.010,-0.010,-0.010,0.000,0.000,0.000
1641208063180062976,2022-01-03-11:07:43,10.1.1.4,193,0.000,0.000,0.000,0.000,0.000,0.000
1641208063379286016,2022-01-03-11:07:43,10.1.1.4,191,-0.010,-0.010,-0.010,0.000,0.000,0.000
1641208063578926080,2022-01-03-11:07:43,10.1.1.4,190,-0.020,-0.020,-0.020,0.000,0.000,0.000
