FedericoMungari/DigitalTwin_service/01_WiredScenario/Output/Output_script/script_rosapi_2_output_robots6_freq0_3.txt
timestamp,date,node,latency,joint_1,joint_2,joint_3,joint_4,joint_5,joint_6
1643279371494884096,2022-01-27-10:29:31,10.1.1.4,26,-0.011,-0.011,-0.011,0.000,0.000,0.000
1643279371696215040,2022-01-27-10:29:31,10.1.1.4,27,-0.021,-0.021,-0.021,0.000,0.000,0.000
1643279371895418880,2022-01-27-10:29:31,10.1.1.4,24,-0.030,-0.030,-0.030,0.000,0.000,0.000
1643279372116868096,2022-01-27-10:29:32,10.1.1.4,45,-0.041,-0.041,-0.041,0.000,0.000,0.000
1643279372317281024,2022-01-27-10:29:32,10.1.1.4,44,-0.051,-0.051,-0.051,0.000,0.000,0.000
1643279372496231168,2022-01-27-10:29:32,10.1.1.4,19,-0.060,-0.060,-0.060,0.000,0.000,0.000
1643279372697691904,2022-01-27-10:29:32,10.1.1.4,19,-0.070,-0.070,-0.070,0.000,0.000,0.000
1643279372901736960,2022-01-27-10:29:32,10.1.1.4,22,-0.080,-0.080,-0.080,0.000,0.000,0.000
1643279373095730944,2022-01-27-10:29:33,10.1.1.4,14,-0.090,-0.090,-0.090,0.000,0.000,0.000
1643279373295904000,2022-01-27-10:29:33,10.1.1.4,13,-0.100,-0.100,-0.100,0.000,0.000,0.000
1643279373515512832,2022-01-27-10:29:33,10.1.1.4,32,-0.111,-0.111,-0.111,0.000,0.000,0.000
1643279373717481984,2022-01-27-10:29:33,10.1.1.4,34,-0.121,-0.121,-0.121,0.000,0.000,0.000
1643279373915518976,2022-01-27-10:29:33,10.1.1.4,31,-0.131,-0.131,-0.131,0.000,0.000,0.000
1643279374116472832,2022-01-27-10:29:34,10.1.1.4,31,-0.141,-0.141,-0.141,0.000,0.000,0.000
1643279374315484928,2022-01-27-10:29:34,10.1.1.4,30,-0.151,-0.151,-0.151,0.000,0.000,0.000
1643279374516233984,2022-01-27-10:29:34,10.1.1.4,30,-0.161,-0.161,-0.161,0.000,0.000,0.000
1643279374716043008,2022-01-27-10:29:34,10.1.1.4,28,-0.171,-0.171,-0.171,0.000,0.000,0.000
1643279374916461824,2022-01-27-10:29:34,10.1.1.4,27,-0.181,-0.181,-0.181,0.000,0.000,0.000
1643279375117646848,2022-01-27-10:29:35,10.1.1.4,27,-0.191,-0.191,-0.191,0.000,0.000,0.000
1643279375315680000,2022-01-27-10:29:35,10.1.1.4,24,-0.201,-0.201,-0.201,0.000,0.000,0.000
1643279375537164032,2022-01-27-10:29:35,10.1.1.4,45,-0.211,-0.211,-0.211,0.000,0.000,0.000
1643279375736107008,2022-01-27-10:29:35,10.1.1.4,42,-0.221,-0.221,-0.221,0.000,0.000,0.000
1643279375914763008,2022-01-27-10:29:35,10.1.1.4,17,-0.230,-0.230,-0.230,0.000,0.000,0.000
1643279376115065088,2022-01-27-10:29:36,10.1.1.4,17,-0.240,-0.240,-0.240,0.000,0.000,0.000
1643279376336539136,2022-01-27-10:29:36,10.1.1.4,38,-0.251,-0.251,-0.251,0.000,0.000,0.000
1643279376535309056,2022-01-27-10:29:36,10.1.1.4,34,-0.261,-0.261,-0.261,0.000,0.000,0.000
1643279376736820992,2022-01-27-10:29:36,10.1.1.4,33,-0.271,-0.271,-0.271,0.000,0.000,0.000
1643279376936739072,2022-01-27-10:29:36,10.1.1.4,32,-0.281,-0.281,-0.281,0.000,0.000,0.000
1643279377135890944,2022-01-27-10:29:37,10.1.1.4,31,-0.291,-0.291,-0.291,0.000,0.000,0.000
1643279377336270080,2022-01-27-10:29:37,10.1.1.4,30,-0.301,-0.301,-0.301,0.000,0.000,0.000
1643279377537368064,2022-01-27-10:29:37,10.1.1.4,25,-0.310,-0.310,-0.310,0.000,0.000,0.000
1643279377756900096,2022-01-27-10:29:37,10.1.1.4,44,-0.321,-0.321,-0.321,0.000,0.000,0.000
1643279377957005056,2022-01-27-10:29:37,10.1.1.4,39,-0.331,-0.331,-0.331,0.000,0.000,0.000
1643279378135417856,2022-01-27-10:29:38,10.1.1.4,17,-0.340,-0.340,-0.340,0.000,0.000,0.000
1643279378336790016,2022-01-27-10:29:38,10.1.1.4,18,-0.350,-0.350,-0.350,0.000,0.000,0.000
1643279378537456896,2022-01-27-10:29:38,10.1.1.4,17,-0.360,-0.360,-0.360,0.000,0.000,0.000
1643279378737968896,2022-01-27-10:29:38,10.1.1.4,17,-0.370,-0.370,-0.370,0.000,0.000,0.000
1643279378956412160,2022-01-27-10:29:38,10.1.1.4,34,-0.381,-0.381,-0.381,0.000,0.000,0.000
1643279379157167872,2022-01-27-10:29:39,10.1.1.4,34,-0.391,-0.391,-0.391,0.000,0.000,0.000
1643279379357449984,2022-01-27-10:29:39,10.1.1.4,34,-0.401,-0.401,-0.401,0.000,0.000,0.000
1643279379555380992,2022-01-27-10:29:39,10.1.1.4,29,-0.411,-0.411,-0.411,0.000,0.000,0.000
1643279379757672960,2022-01-27-10:29:39,10.1.1.4,30,-0.421,-0.421,-0.421,0.000,0.000,0.000
1643279379956336896,2022-01-27-10:29:39,10.1.1.4,26,-0.431,-0.431,-0.431,0.000,0.000,0.000
1643279380158492928,2022-01-27-10:29:40,10.1.1.4,27,-0.440,-0.440,-0.440,0.000,0.000,0.000
1643279380357206016,2022-01-27-10:29:40,10.1.1.4,25,-0.450,-0.450,-0.450,0.000,0.000,0.000
1643279380558217984,2022-01-27-10:29:40,10.1.1.4,21,-0.460,-0.460,-0.460,0.000,0.000,0.000
1643279380755976960,2022-01-27-10:29:40,10.1.1.4,18,-0.470,-0.470,-0.470,0.000,0.000,0.000
1643279380956070912,2022-01-27-10:29:40,10.1.1.4,16,-0.480,-0.480,-0.480,0.000,0.000,0.000
1643279381175856128,2022-01-27-10:29:41,10.1.1.4,35,-0.489,-0.489,-0.489,0.000,0.000,0.000
1643279381355209984,2022-01-27-10:29:41,10.1.1.4,14,-0.480,-0.480,-0.480,0.000,0.000,0.000
1643279381578023936,2022-01-27-10:29:41,10.1.1.4,36,-0.469,-0.469,-0.469,0.000,0.000,0.000
1643279381776331776,2022-01-27-10:29:41,10.1.1.4,32,-0.459,-0.459,-0.459,0.000,0.000,0.000
1643279381977669888,2022-01-27-10:29:41,10.1.1.4,32,-0.449,-0.449,-0.449,0.000,0.000,0.000
1643279382175075072,2022-01-27-10:29:42,10.1.1.4,28,-0.439,-0.439,-0.439,0.000,0.000,0.000
1643279382376296960,2022-01-27-10:29:42,10.1.1.4,29,-0.429,-0.429,-0.429,0.000,0.000,0.000
1643279382576440064,2022-01-27-10:29:42,10.1.1.4,28,-0.419,-0.419,-0.419,0.000,0.000,0.000
1643279382776267008,2022-01-27-10:29:42,10.1.1.4,27,-0.409,-0.409,-0.409,0.000,0.000,0.000
1643279382997046016,2022-01-27-10:29:42,10.1.1.4,41,-0.399,-0.399,-0.399,0.000,0.000,0.000
1643279383199142912,2022-01-27-10:29:43,10.1.1.4,42,-0.389,-0.389,-0.389,0.000,0.000,0.000
1643279383379154944,2022-01-27-10:29:43,10.1.1.4,21,-0.380,-0.380,-0.380,0.000,0.000,0.000
1643279383578119936,2022-01-27-10:29:43,10.1.1.4,18,-0.370,-0.370,-0.370,0.000,0.000,0.000
1643279383803966976,2022-01-27-10:29:43,10.1.1.4,41,-0.359,-0.359,-0.359,0.000,0.000,0.000
1643279383999672832,2022-01-27-10:29:43,10.1.1.4,38,-0.349,-0.349,-0.349,0.000,0.000,0.000
1643279384195214080,2022-01-27-10:29:44,10.1.1.4,32,-0.339,-0.339,-0.339,0.000,0.000,0.000
1643279384397392896,2022-01-27-10:29:44,10.1.1.4,31,-0.329,-0.329,-0.329,0.000,0.000,0.000
1643279384597337088,2022-01-27-10:29:44,10.1.1.4,30,-0.319,-0.319,-0.319,0.000,0.000,0.000
1643279384797428992,2022-01-27-10:29:44,10.1.1.4,26,-0.310,-0.310,-0.310,0.000,0.000,0.000
1643279385000011008,2022-01-27-10:29:44,10.1.1.4,20,-0.300,-0.300,-0.300,0.000,0.000,0.000
1643279385219593984,2022-01-27-10:29:45,10.1.1.4,35,-0.289,-0.289,-0.289,0.000,0.000,0.000
1643279385416333056,2022-01-27-10:29:45,10.1.1.4,28,-0.279,-0.279,-0.279,0.000,0.000,0.000
1643279385621606144,2022-01-27-10:29:45,10.1.1.4,32,-0.269,-0.269,-0.269,0.000,0.000,0.000
1643279385825388032,2022-01-27-10:29:45,10.1.1.4,32,-0.260,-0.260,-0.260,0.000,0.000,0.000
1643279386037988864,2022-01-27-10:29:46,10.1.1.4,34,-0.249,-0.249,-0.249,0.000,0.000,0.000
1643279386234981888,2022-01-27-10:29:46,10.1.1.4,26,-0.239,-0.239,-0.239,0.000,0.000,0.000
1643279386439109120,2022-01-27-10:29:46,10.1.1.4,27,-0.230,-0.230,-0.230,0.000,0.000,0.000
1643279386655680000,2022-01-27-10:29:46,10.1.1.4,43,-0.219,-0.219,-0.219,0.000,0.000,0.000
1643279386836296192,2022-01-27-10:29:46,10.1.1.4,20,-0.210,-0.210,-0.210,0.000,0.000,0.000
1643279387039536896,2022-01-27-10:29:47,10.1.1.4,20,-0.200,-0.200,-0.200,0.000,0.000,0.000
1643279387263014912,2022-01-27-10:29:47,10.1.1.4,40,-0.189,-0.189,-0.189,0.000,0.000,0.000
1643279387459770880,2022-01-27-10:29:47,10.1.1.4,33,-0.179,-0.179,-0.179,0.000,0.000,0.000
1643279387660866048,2022-01-27-10:29:47,10.1.1.4,30,-0.169,-0.169,-0.169,0.000,0.000,0.000
1643279387881640960,2022-01-27-10:29:47,10.1.1.4,49,-0.159,-0.159,-0.159,0.000,0.000,0.000
1643279388077826048,2022-01-27-10:29:48,10.1.1.4,41,-0.149,-0.149,-0.149,0.000,0.000,0.000
1643279388278383104,2022-01-27-10:29:48,10.1.1.4,40,-0.139,-0.139,-0.139,0.000,0.000,0.000
1643279388460264960,2022-01-27-10:29:48,10.1.1.4,17,-0.130,-0.130,-0.130,0.000,0.000,0.000
1643279388677934848,2022-01-27-10:29:48,10.1.1.4,33,-0.119,-0.119,-0.119,0.000,0.000,0.000
1643279388876719104,2022-01-27-10:29:48,10.1.1.4,30,-0.109,-0.109,-0.109,0.000,0.000,0.000
1643279389076189952,2022-01-27-10:29:49,10.1.1.4,28,-0.099,-0.099,-0.099,0.000,0.000,0.000
1643279389275646976,2022-01-27-10:29:49,10.1.1.4,27,-0.089,-0.089,-0.089,0.000,0.000,0.000
1643279389476311040,2022-01-27-10:29:49,10.1.1.4,27,-0.079,-0.079,-0.079,0.000,0.000,0.000
1643279389676665088,2022-01-27-10:29:49,10.1.1.4,24,-0.070,-0.070,-0.070,0.000,0.000,0.000
1643279389897607168,2022-01-27-10:29:49,10.1.1.4,40,-0.059,-0.059,-0.059,0.000,0.000,0.000
1643279390080646912,2022-01-27-10:29:50,10.1.1.4,19,-0.050,-0.050,-0.050,0.000,0.000,0.000
1643279390298897920,2022-01-27-10:29:50,10.1.1.4,38,-0.039,-0.039,-0.039,0.000,0.000,0.000
1643279390497752832,2022-01-27-10:29:50,10.1.1.4,35,-0.029,-0.029,-0.029,0.000,0.000,0.000
1643279390697309952,2022-01-27-10:29:50,10.1.1.4,29,-0.019,-0.019,-0.019,0.000,0.000,0.000
1643279390900221184,2022-01-27-10:29:50,10.1.1.4,27,-0.009,-0.009,-0.009,0.000,0.000,0.000
1643279391076625152,2022-01-27-10:29:51,10.1.1.4,5,-0.000,-0.000,-0.000,0.000,0.000,0.000
1643279391303319040,2022-01-27-10:29:51,10.1.1.4,25,-0.010,-0.010,-0.010,0.000,0.000,0.000
1643279391496784896,2022-01-27-10:29:51,10.1.1.4,16,-0.020,-0.020,-0.020,0.000,0.000,0.000
1643279391718851072,2022-01-27-10:29:51,10.1.1.4,30,-0.031,-0.031,-0.031,0.000,0.000,0.000
1643279391917248000,2022-01-27-10:29:51,10.1.1.4,26,-0.041,-0.041,-0.041,0.000,0.000,0.000
1643279392137444864,2022-01-27-10:29:52,10.1.1.4,40,-0.051,-0.051,-0.051,0.000,0.000,0.000
1643279392335828992,2022-01-27-10:29:52,10.1.1.4,35,-0.061,-0.061,-0.061,0.000,0.000,0.000
1643279392515779072,2022-01-27-10:29:52,10.1.1.4,14,-0.070,-0.070,-0.070,0.000,0.000,0.000
1643279392728333824,2022-01-27-10:29:52,10.1.1.4,24,-0.080,-0.080,-0.080,0.000,0.000,0.000
1643279392938349056,2022-01-27-10:29:52,10.1.1.4,33,-0.091,-0.091,-0.091,0.000,0.000,0.000
1643279393139388160,2022-01-27-10:29:53,10.1.1.4,32,-0.101,-0.101,-0.101,0.000,0.000,0.000
1643279393337778944,2022-01-27-10:29:53,10.1.1.4,30,-0.111,-0.111,-0.111,0.000,0.000,0.000
1643279393536262912,2022-01-27-10:29:53,10.1.1.4,23,-0.120,-0.120,-0.120,0.000,0.000,0.000
1643279393756592128,2022-01-27-10:29:53,10.1.1.4,34,-0.131,-0.131,-0.131,0.000,0.000,0.000
1643279393956041216,2022-01-27-10:29:53,10.1.1.4,30,-0.141,-0.141,-0.141,0.000,0.000,0.000
1643279394159427840,2022-01-27-10:29:54,10.1.1.4,30,-0.151,-0.151,-0.151,0.000,0.000,0.000
1643279394358205184,2022-01-27-10:29:54,10.1.1.4,28,-0.161,-0.161,-0.161,0.000,0.000,0.000
1643279394555944960,2022-01-27-10:29:54,10.1.1.4,24,-0.171,-0.171,-0.171,0.000,0.000,0.000
1643279394775450880,2022-01-27-10:29:54,10.1.1.4,40,-0.181,-0.181,-0.181,0.000,0.000,0.000
1643279394955322112,2022-01-27-10:29:54,10.1.1.4,18,-0.190,-0.190,-0.190,0.000,0.000,0.000
1643279395175427840,2022-01-27-10:29:55,10.1.1.4,34,-0.201,-0.201,-0.201,0.000,0.000,0.000
1643279395375538944,2022-01-27-10:29:55,10.1.1.4,32,-0.211,-0.211,-0.211,0.000,0.000,0.000
1643279395575537920,2022-01-27-10:29:55,10.1.1.4,31,-0.221,-0.221,-0.221,0.000,0.000,0.000
1643279395775814144,2022-01-27-10:29:55,10.1.1.4,30,-0.231,-0.231,-0.231,0.000,0.000,0.000
1643279395975222016,2022-01-27-10:29:55,10.1.1.4,28,-0.241,-0.241,-0.241,0.000,0.000,0.000
1643279396176279040,2022-01-27-10:29:56,10.1.1.4,29,-0.251,-0.251,-0.251,0.000,0.000,0.000
1643279396377897984,2022-01-27-10:29:56,10.1.1.4,29,-0.261,-0.261,-0.261,0.000,0.000,0.000
1643279396577011200,2022-01-27-10:29:56,10.1.1.4,26,-0.271,-0.271,-0.271,0.000,0.000,0.000
1643279396799431936,2022-01-27-10:29:56,10.1.1.4,40,-0.281,-0.281,-0.281,0.000,0.000,0.000
1643279396979962112,2022-01-27-10:29:56,10.1.1.4,21,-0.290,-0.290,-0.290,0.000,0.000,0.000
1643279397197712896,2022-01-27-10:29:57,10.1.1.4,34,-0.301,-0.301,-0.301,0.000,0.000,0.000
1643279397397314048,2022-01-27-10:29:57,10.1.1.4,35,-0.311,-0.311,-0.311,0.000,0.000,0.000
1643279397598824960,2022-01-27-10:29:57,10.1.1.4,36,-0.321,-0.321,-0.321,0.000,0.000,0.000
1643279397799593984,2022-01-27-10:29:57,10.1.1.4,36,-0.331,-0.331,-0.331,0.000,0.000,0.000
1643279397996630784,2022-01-27-10:29:57,10.1.1.4,28,-0.341,-0.341,-0.341,0.000,0.000,0.000
1643279398197413888,2022-01-27-10:29:58,10.1.1.4,27,-0.351,-0.351,-0.351,0.000,0.000,0.000
1643279398418658048,2022-01-27-10:29:58,10.1.1.4,43,-0.361,-0.361,-0.361,0.000,0.000,0.000
1643279398596493056,2022-01-27-10:29:58,10.1.1.4,18,-0.370,-0.370,-0.370,0.000,0.000,0.000
1643279398817502976,2022-01-27-10:29:58,10.1.1.4,39,-0.381,-0.381,-0.381,0.000,0.000,0.000
1643279398998441984,2022-01-27-10:29:58,10.1.1.4,15,-0.390,-0.390,-0.390,0.000,0.000,0.000
1643279399215827968,2022-01-27-10:29:59,10.1.1.4,34,-0.401,-0.401,-0.401,0.000,0.000,0.000
1643279399418481152,2022-01-27-10:29:59,10.1.1.4,35,-0.411,-0.411,-0.411,0.000,0.000,0.000
1643279399617618944,2022-01-27-10:29:59,10.1.1.4,33,-0.421,-0.421,-0.421,0.000,0.000,0.000
1643279399814909952,2022-01-27-10:29:59,10.1.1.4,27,-0.431,-0.431,-0.431,0.000,0.000,0.000
1643279400037233152,2022-01-27-10:30:00,10.1.1.4,43,-0.441,-0.441,-0.441,0.000,0.000,0.000
1643279400235966976,2022-01-27-10:30:00,10.1.1.4,41,-0.451,-0.451,-0.451,0.000,0.000,0.000
1643279400416527872,2022-01-27-10:30:00,10.1.1.4,14,-0.460,-0.460,-0.460,0.000,0.000,0.000
1643279400638993152,2022-01-27-10:30:00,10.1.1.4,37,-0.471,-0.471,-0.471,0.000,0.000,0.000
1643279400838813952,2022-01-27-10:30:00,10.1.1.4,32,-0.481,-0.481,-0.481,0.000,0.000,0.000
1643279401018771968,2022-01-27-10:30:01,10.1.1.4,10,-0.490,-0.490,-0.490,0.000,0.000,0.000
1643279401235654144,2022-01-27-10:30:01,10.1.1.4,24,-0.479,-0.479,-0.479,0.000,0.000,0.000
1643279401455004928,2022-01-27-10:30:01,10.1.1.4,42,-0.469,-0.469,-0.469,0.000,0.000,0.000
1643279401655256064,2022-01-27-10:30:01,10.1.1.4,41,-0.459,-0.459,-0.459,0.000,0.000,0.000
1643279401838636032,2022-01-27-10:30:01,10.1.1.4,19,-0.450,-0.450,-0.450,0.000,0.000,0.000
1643279402064666112,2022-01-27-10:30:02,10.1.1.4,44,-0.439,-0.439,-0.439,0.000,0.000,0.000
1643279402256952064,2022-01-27-10:30:02,10.1.1.4,29,-0.429,-0.429,-0.429,0.000,0.000,0.000
1643279402457703168,2022-01-27-10:30:02,10.1.1.4,26,-0.419,-0.419,-0.419,0.000,0.000,0.000
1643279402661166848,2022-01-27-10:30:02,10.1.1.4,29,-0.410,-0.410,-0.410,0.000,0.000,0.000
1643279402877847808,2022-01-27-10:30:02,10.1.1.4,41,-0.399,-0.399,-0.399,0.000,0.000,0.000
1643279403057593088,2022-01-27-10:30:03,10.1.1.4,20,-0.390,-0.390,-0.390,0.000,0.000,0.000
1643279403276403968,2022-01-27-10:30:03,10.1.1.4,38,-0.379,-0.379,-0.379,0.000,0.000,0.000
1643279403482124032,2022-01-27-10:30:03,10.1.1.4,41,-0.369,-0.369,-0.369,0.000,0.000,0.000
1643279403675906048,2022-01-27-10:30:03,10.1.1.4,34,-0.359,-0.359,-0.359,0.000,0.000,0.000
1643279403884290816,2022-01-27-10:30:03,10.1.1.4,41,-0.349,-0.349,-0.349,0.000,0.000,0.000
1643279404079169024,2022-01-27-10:30:04,10.1.1.4,34,-0.339,-0.339,-0.339,0.000,0.000,0.000
1643279404276845824,2022-01-27-10:30:04,10.1.1.4,30,-0.329,-0.329,-0.329,0.000,0.000,0.000
1643279404478422016,2022-01-27-10:30:04,10.1.1.4,30,-0.319,-0.319,-0.319,0.000,0.000,0.000
1643279404675451136,2022-01-27-10:30:04,10.1.1.4,26,-0.309,-0.309,-0.309,0.000,0.000,0.000
1643279404877191936,2022-01-27-10:30:04,10.1.1.4,27,-0.300,-0.300,-0.300,0.000,0.000,0.000
1643279405077744896,2022-01-27-10:30:05,10.1.1.4,23,-0.290,-0.290,-0.290,0.000,0.000,0.000
1643279405275332096,2022-01-27-10:30:05,10.1.1.4,23,-0.280,-0.280,-0.280,0.000,0.000,0.000
1643279405461949184,2022-01-27-10:30:05,10.1.1.4,-1,-0.271,-0.271,-0.271,0.000,0.000,0.000
1643279405699400960,2022-01-27-10:30:05,10.1.1.4,37,-0.259,-0.259,-0.259,0.000,0.000,0.000
1643279405896009984,2022-01-27-10:30:05,10.1.1.4,34,-0.249,-0.249,-0.249,0.000,0.000,0.000
1643279406095875072,2022-01-27-10:30:06,10.1.1.4,33,-0.239,-0.239,-0.239,0.000,0.000,0.000
1643279406296209152,2022-01-27-10:30:06,10.1.1.4,33,-0.229,-0.229,-0.229,0.000,0.000,0.000
1643279406496068096,2022-01-27-10:30:06,10.1.1.4,28,-0.220,-0.220,-0.220,0.000,0.000,0.000
1643279406695163904,2022-01-27-10:30:06,10.1.1.4,26,-0.209,-0.209,-0.209,0.000,0.000,0.000
1643279406894927104,2022-01-27-10:30:06,10.1.1.4,25,-0.200,-0.200,-0.200,0.000,0.000,0.000
1643279407095249920,2022-01-27-10:30:07,10.1.1.4,23,-0.189,-0.189,-0.189,0.000,0.000,0.000
1643279407296556032,2022-01-27-10:30:07,10.1.1.4,24,-0.180,-0.180,-0.180,0.000,0.000,0.000
1643279407518528000,2022-01-27-10:30:07,10.1.1.4,45,-0.169,-0.169,-0.169,0.000,0.000,0.000
1643279407697038848,2022-01-27-10:30:07,10.1.1.4,22,-0.160,-0.160,-0.160,0.000,0.000,0.000
1643279407915628032,2022-01-27-10:30:07,10.1.1.4,37,-0.149,-0.149,-0.149,0.000,0.000,0.000
1643279408095643136,2022-01-27-10:30:08,10.1.1.4,16,-0.140,-0.140,-0.140,0.000,0.000,0.000
1643279408296344064,2022-01-27-10:30:08,10.1.1.4,16,-0.130,-0.130,-0.130,0.000,0.000,0.000
1643279408499036160,2022-01-27-10:30:08,10.1.1.4,18,-0.120,-0.120,-0.120,0.000,0.000,0.000
1643279408696805888,2022-01-27-10:30:08,10.1.1.4,14,-0.110,-0.110,-0.110,0.000,0.000,0.000
1643279408916048896,2022-01-27-10:30:08,10.1.1.4,29,-0.099,-0.099,-0.099,0.000,0.000,0.000
1643279409117576960,2022-01-27-10:30:09,10.1.1.4,28,-0.090,-0.090,-0.090,0.000,0.000,0.000
1643279409317250048,2022-01-27-10:30:09,10.1.1.4,27,-0.079,-0.079,-0.079,0.000,0.000,0.000
1643279409536871936,2022-01-27-10:30:09,10.1.1.4,44,-0.069,-0.069,-0.069,0.000,0.000,0.000
1643279409715860992,2022-01-27-10:30:09,10.1.1.4,20,-0.060,-0.060,-0.060,0.000,0.000,0.000
1643279409934875904,2022-01-27-10:30:09,10.1.1.4,38,-0.049,-0.049,-0.049,0.000,0.000,0.000
1643279410116308992,2022-01-27-10:30:10,10.1.1.4,18,-0.040,-0.040,-0.040,0.000,0.000,0.000
1643279410335987200,2022-01-27-10:30:10,10.1.1.4,37,-0.029,-0.029,-0.029,0.000,0.000,0.000
1643279410516582912,2022-01-27-10:30:10,10.1.1.4,15,-0.020,-0.020,-0.020,0.000,0.000,0.000
1643279410735254016,2022-01-27-10:30:10,10.1.1.4,35,-0.009,-0.009,-0.009,0.000,0.000,0.000
1643279410944994816,2022-01-27-10:30:10,10.1.1.4,43,-0.001,-0.001,-0.001,0.000,0.000,0.000
1643279411134931200,2022-01-27-10:30:11,10.1.1.4,30,-0.011,-0.011,-0.011,0.000,0.000,0.000
1643279411335164928,2022-01-27-10:30:11,10.1.1.4,29,-0.021,-0.021,-0.021,0.000,0.000,0.000
1643279411535296000,2022-01-27-10:30:11,10.1.1.4,29,-0.031,-0.031,-0.031,0.000,0.000,0.000
1643279411735944960,2022-01-27-10:30:11,10.1.1.4,28,-0.041,-0.041,-0.041,0.000,0.000,0.000
1643279411936253184,2022-01-27-10:30:11,10.1.1.4,27,-0.050,-0.050,-0.050,0.000,0.000,0.000
1643279412138951936,2022-01-27-10:30:12,10.1.1.4,27,-0.061,-0.061,-0.061,0.000,0.000,0.000
1643279412336987136,2022-01-27-10:30:12,10.1.1.4,25,-0.070,-0.070,-0.070,0.000,0.000,0.000
1643279412540133888,2022-01-27-10:30:12,10.1.1.4,20,-0.080,-0.080,-0.080,0.000,0.000,0.000
1643279412738576896,2022-01-27-10:30:12,10.1.1.4,15,-0.090,-0.090,-0.090,0.000,0.000,0.000
1643279412955120128,2022-01-27-10:30:12,10.1.1.4,25,-0.101,-0.101,-0.101,0.000,0.000,0.000
1643279413159838976,2022-01-27-10:30:13,10.1.1.4,27,-0.110,-0.110,-0.110,0.000,0.000,0.000
1643279413355699968,2022-01-27-10:30:13,10.1.1.4,22,-0.120,-0.120,-0.120,0.000,0.000,0.000
1643279413555293952,2022-01-27-10:30:13,10.1.1.4,20,-0.130,-0.130,-0.130,0.000,0.000,0.000
1643279413757415936,2022-01-27-10:30:13,10.1.1.4,21,-0.140,-0.140,-0.140,0.000,0.000,0.000
1643279413962456832,2022-01-27-10:30:13,10.1.1.4,25,-0.150,-0.150,-0.150,0.000,0.000,0.000
1643279414155759104,2022-01-27-10:30:14,10.1.1.4,17,-0.160,-0.160,-0.160,0.000,0.000,0.000
1643279414356115200,2022-01-27-10:30:14,10.1.1.4,15,-0.170,-0.170,-0.170,0.000,0.000,0.000
1643279414556384000,2022-01-27-10:30:14,10.1.1.4,15,-0.180,-0.180,-0.180,0.000,0.000,0.000
1643279414775401984,2022-01-27-10:30:14,10.1.1.4,32,-0.191,-0.191,-0.191,0.000,0.000,0.000
1643279414976186880,2022-01-27-10:30:14,10.1.1.4,30,-0.201,-0.201,-0.201,0.000,0.000,0.000
1643279415177229824,2022-01-27-10:30:15,10.1.1.4,30,-0.211,-0.211,-0.211,0.000,0.000,0.000
1643279415375190016,2022-01-27-10:30:15,10.1.1.4,26,-0.221,-0.221,-0.221,0.000,0.000,0.000
1643279415575524096,2022-01-27-10:30:15,10.1.1.4,24,-0.231,-0.231,-0.231,0.000,0.000,0.000
1643279415776099072,2022-01-27-10:30:15,10.1.1.4,24,-0.240,-0.240,-0.240,0.000,0.000,0.000
1643279416000084992,2022-01-27-10:30:15,10.1.1.4,44,-0.251,-0.251,-0.251,0.000,0.000,0.000
1643279416198081024,2022-01-27-10:30:16,10.1.1.4,37,-0.261,-0.261,-0.261,0.000,0.000,0.000
1643279416396676096,2022-01-27-10:30:16,10.1.1.4,31,-0.271,-0.271,-0.271,0.000,0.000,0.000
1643279416597623040,2022-01-27-10:30:16,10.1.1.4,31,-0.281,-0.281,-0.281,0.000,0.000,0.000
1643279416796957952,2022-01-27-10:30:16,10.1.1.4,28,-0.291,-0.291,-0.291,0.000,0.000,0.000
1643279416996144896,2022-01-27-10:30:16,10.1.1.4,26,-0.301,-0.301,-0.301,0.000,0.000,0.000
1643279417197772032,2022-01-27-10:30:17,10.1.1.4,25,-0.310,-0.310,-0.310,0.000,0.000,0.000
1643279417398049024,2022-01-27-10:30:17,10.1.1.4,23,-0.320,-0.320,-0.320,0.000,0.000,0.000
1643279417595076096,2022-01-27-10:30:17,10.1.1.4,19,-0.330,-0.330,-0.330,0.000,0.000,0.000
1643279417797504000,2022-01-27-10:30:17,10.1.1.4,18,-0.340,-0.340,-0.340,0.000,0.000,0.000
1643279418016002048,2022-01-27-10:30:18,10.1.1.4,34,-0.351,-0.351,-0.351,0.000,0.000,0.000
1643279418216492800,2022-01-27-10:30:18,10.1.1.4,33,-0.361,-0.361,-0.361,0.000,0.000,0.000
1643279418416225024,2022-01-27-10:30:18,10.1.1.4,32,-0.371,-0.371,-0.371,0.000,0.000,0.000
1643279418614928896,2022-01-27-10:30:18,10.1.1.4,30,-0.381,-0.381,-0.381,0.000,0.000,0.000
1643279418819853056,2022-01-27-10:30:18,10.1.1.4,33,-0.391,-0.391,-0.391,0.000,0.000,0.000
1643279419016641024,2022-01-27-10:30:19,10.1.1.4,29,-0.401,-0.401,-0.401,0.000,0.000,0.000
1643279419221852160,2022-01-27-10:30:19,10.1.1.4,32,-0.411,-0.411,-0.411,0.000,0.000,0.000
1643279419437253888,2022-01-27-10:30:19,10.1.1.4,45,-0.421,-0.421,-0.421,0.000,0.000,0.000
1643279419635965952,2022-01-27-10:30:19,10.1.1.4,43,-0.431,-0.431,-0.431,0.000,0.000,0.000
1643279419836052992,2022-01-27-10:30:19,10.1.1.4,41,-0.441,-0.441,-0.441,0.000,0.000,0.000
1643279420035981824,2022-01-27-10:30:20,10.1.1.4,35,-0.451,-0.451,-0.451,0.000,0.000,0.000
1643279420236158976,2022-01-27-10:30:20,10.1.1.4,31,-0.460,-0.460,-0.460,0.000,0.000,0.000
1643279420435055872,2022-01-27-10:30:20,10.1.1.4,27,-0.471,-0.471,-0.471,0.000,0.000,0.000
1643279420636754944,2022-01-27-10:30:20,10.1.1.4,28,-0.480,-0.480,-0.480,0.000,0.000,0.000
1643279420823968768,2022-01-27-10:30:20,10.1.1.4,12,-0.490,-0.490,-0.490,0.000,0.000,0.000
1643279421058403072,2022-01-27-10:30:21,10.1.1.4,45,-0.479,-0.479,-0.479,0.000,0.000,0.000
1643279421256467968,2022-01-27-10:30:21,10.1.1.4,42,-0.469,-0.469,-0.469,0.000,0.000,0.000
1643279421435663872,2022-01-27-10:30:21,10.1.1.4,19,-0.460,-0.460,-0.460,0.000,0.000,0.000
1643279421637769984,2022-01-27-10:30:21,10.1.1.4,21,-0.450,-0.450,-0.450,0.000,0.000,0.000
1643279421837053184,2022-01-27-10:30:21,10.1.1.4,19,-0.440,-0.440,-0.440,0.000,0.000,0.000
1643279422036212992,2022-01-27-10:30:22,10.1.1.4,15,-0.430,-0.430,-0.430,0.000,0.000,0.000
1643279422254857984,2022-01-27-10:30:22,10.1.1.4,33,-0.419,-0.419,-0.419,0.000,0.000,0.000
1643279422455023104,2022-01-27-10:30:22,10.1.1.4,31,-0.409,-0.409,-0.409,0.000,0.000,0.000
1643279422654946048,2022-01-27-10:30:22,10.1.1.4,30,-0.400,-0.400,-0.400,0.000,0.000,0.000
1643279422856188160,2022-01-27-10:30:22,10.1.1.4,31,-0.389,-0.389,-0.389,0.000,0.000,0.000
1643279423057336064,2022-01-27-10:30:23,10.1.1.4,30,-0.379,-0.379,-0.379,0.000,0.000,0.000
1643279423254912000,2022-01-27-10:30:23,10.1.1.4,25,-0.370,-0.370,-0.370,0.000,0.000,0.000
1643279423456850944,2022-01-27-10:30:23,10.1.1.4,26,-0.359,-0.359,-0.359,0.000,0.000,0.000
1643279423661075200,2022-01-27-10:30:23,10.1.1.4,27,-0.350,-0.350,-0.350,0.000,0.000,0.000
1643279423877340160,2022-01-27-10:30:23,10.1.1.4,39,-0.339,-0.339,-0.339,0.000,0.000,0.000
1643279424076463872,2022-01-27-10:30:24,10.1.1.4,31,-0.329,-0.329,-0.329,0.000,0.000,0.000
1643279424278031104,2022-01-27-10:30:24,10.1.1.4,32,-0.319,-0.319,-0.319,0.000,0.000,0.000
1643279424479332096,2022-01-27-10:30:24,10.1.1.4,29,-0.309,-0.309,-0.309,0.000,0.000,0.000
1643279424674320896,2022-01-27-10:30:24,10.1.1.4,19,-0.300,-0.300,-0.300,0.000,0.000,0.000
1643279424897347072,2022-01-27-10:30:24,10.1.1.4,38,-0.289,-0.289,-0.289,0.000,0.000,0.000
1643279425096009984,2022-01-27-10:30:25,10.1.1.4,35,-0.279,-0.279,-0.279,0.000,0.000,0.000
1643279425297602816,2022-01-27-10:30:25,10.1.1.4,30,-0.269,-0.269,-0.269,0.000,0.000,0.000
1643279425494398976,2022-01-27-10:30:25,10.1.1.4,26,-0.259,-0.259,-0.259,0.000,0.000,0.000
1643279425697463040,2022-01-27-10:30:25,10.1.1.4,28,-0.249,-0.249,-0.249,0.000,0.000,0.000
1643279425896805120,2022-01-27-10:30:25,10.1.1.4,20,-0.240,-0.240,-0.240,0.000,0.000,0.000
1643279426095313152,2022-01-27-10:30:26,10.1.1.4,15,-0.230,-0.230,-0.230,0.000,0.000,0.000
1643279426317616896,2022-01-27-10:30:26,10.1.1.4,35,-0.219,-0.219,-0.219,0.000,0.000,0.000
1643279426514760960,2022-01-27-10:30:26,10.1.1.4,32,-0.209,-0.209,-0.209,0.000,0.000,0.000
1643279426714596096,2022-01-27-10:30:26,10.1.1.4,30,-0.199,-0.199,-0.199,0.000,0.000,0.000
1643279426914566144,2022-01-27-10:30:26,10.1.1.4,28,-0.189,-0.189,-0.189,0.000,0.000,0.000
1643279427115924992,2022-01-27-10:30:27,10.1.1.4,27,-0.179,-0.179,-0.179,0.000,0.000,0.000
1643279427320036864,2022-01-27-10:30:27,10.1.1.4,30,-0.169,-0.169,-0.169,0.000,0.000,0.000
1643279427537272064,2022-01-27-10:30:27,10.1.1.4,39,-0.159,-0.159,-0.159,0.000,0.000,0.000
1643279427737948928,2022-01-27-10:30:27,10.1.1.4,38,-0.149,-0.149,-0.149,0.000,0.000,0.000
1643279427914992128,2022-01-27-10:30:27,10.1.1.4,14,-0.140,-0.140,-0.140,0.000,0.000,0.000
1643279428117278976,2022-01-27-10:30:28,10.1.1.4,13,-0.130,-0.130,-0.130,0.000,0.000,0.000
1643279428336476928,2022-01-27-10:30:28,10.1.1.4,34,-0.119,-0.119,-0.119,0.000,0.000,0.000
1643279428535343872,2022-01-27-10:30:28,10.1.1.4,32,-0.109,-0.109,-0.109,0.000,0.000,0.000
1643279428734843136,2022-01-27-10:30:28,10.1.1.4,30,-0.099,-0.099,-0.099,0.000,0.000,0.000
1643279428937071104,2022-01-27-10:30:28,10.1.1.4,31,-0.089,-0.089,-0.089,0.000,0.000,0.000
1643279429134771968,2022-01-27-10:30:29,10.1.1.4,27,-0.079,-0.079,-0.079,0.000,0.000,0.000
1643279429336303872,2022-01-27-10:30:29,10.1.1.4,26,-0.069,-0.069,-0.069,0.000,0.000,0.000
1643279429537936896,2022-01-27-10:30:29,10.1.1.4,27,-0.059,-0.059,-0.059,0.000,0.000,0.000
1643279429740240128,2022-01-27-10:30:29,10.1.1.4,29,-0.050,-0.050,-0.050,0.000,0.000,0.000
1643279429957784064,2022-01-27-10:30:29,10.1.1.4,45,-0.039,-0.039,-0.039,0.000,0.000,0.000
1643279430137041920,2022-01-27-10:30:30,10.1.1.4,19,-0.030,-0.030,-0.030,0.000,0.000,0.000
1643279430336412928,2022-01-27-10:30:30,10.1.1.4,17,-0.020,-0.020,-0.020,0.000,0.000,0.000
1643279430554740992,2022-01-27-10:30:30,10.1.1.4,33,-0.009,-0.009,-0.009,0.000,0.000,0.000
1643279430735392000,2022-01-27-10:30:30,10.1.1.4,7,-0.000,-0.000,-0.000,0.000,0.000,0.000
1643279430957319936,2022-01-27-10:30:30,10.1.1.4,28,-0.010,-0.010,-0.010,0.000,0.000,0.000
1643279431175302144,2022-01-27-10:30:31,10.1.1.4,39,-0.021,-0.021,-0.021,0.000,0.000,0.000
1643279431355153920,2022-01-27-10:30:31,10.1.1.4,18,-0.030,-0.030,-0.030,0.000,0.000,0.000
1643279431561384960,2022-01-27-10:30:31,10.1.1.4,20,-0.040,-0.040,-0.040,0.000,0.000,0.000
1643279431756722944,2022-01-27-10:30:31,10.1.1.4,18,-0.050,-0.050,-0.050,0.000,0.000,0.000
1643279431955668992,2022-01-27-10:30:31,10.1.1.4,16,-0.060,-0.060,-0.060,0.000,0.000,0.000
1643279432155973888,2022-01-27-10:30:32,10.1.1.4,15,-0.070,-0.070,-0.070,0.000,0.000,0.000
1643279432356195840,2022-01-27-10:30:32,10.1.1.4,12,-0.080,-0.080,-0.080,0.000,0.000,0.000
1643279432576011008,2022-01-27-10:30:32,10.1.1.4,30,-0.091,-0.091,-0.091,0.000,0.000,0.000
1643279432775942144,2022-01-27-10:30:32,10.1.1.4,27,-0.101,-0.101,-0.101,0.000,0.000,0.000
1643279432975619072,2022-01-27-10:30:32,10.1.1.4,24,-0.110,-0.110,-0.110,0.000,0.000,0.000
1643279433176079872,2022-01-27-10:30:33,10.1.1.4,22,-0.120,-0.120,-0.120,0.000,0.000,0.000
1643279433380590080,2022-01-27-10:30:33,10.1.1.4,24,-0.130,-0.130,-0.130,0.000,0.000,0.000
1643279433577869056,2022-01-27-10:30:33,10.1.1.4,20,-0.140,-0.140,-0.140,0.000,0.000,0.000
1643279433776817152,2022-01-27-10:30:33,10.1.1.4,18,-0.150,-0.150,-0.150,0.000,0.000,0.000
1643279433995299072,2022-01-27-10:30:33,10.1.1.4,36,-0.161,-0.161,-0.161,0.000,0.000,0.000
1643279434175964160,2022-01-27-10:30:34,10.1.1.4,16,-0.170,-0.170,-0.170,0.000,0.000,0.000
1643279434394476032,2022-01-27-10:30:34,10.1.1.4,30,-0.181,-0.181,-0.181,0.000,0.000,0.000
1643279434598978048,2022-01-27-10:30:34,10.1.1.4,33,-0.191,-0.191,-0.191,0.000,0.000,0.000
1643279434797571840,2022-01-27-10:30:34,10.1.1.4,29,-0.201,-0.201,-0.201,0.000,0.000,0.000
1643279434996020992,2022-01-27-10:30:34,10.1.1.4,23,-0.210,-0.210,-0.210,0.000,0.000,0.000
1643279435216566016,2022-01-27-10:30:35,10.1.1.4,43,-0.221,-0.221,-0.221,0.000,0.000,0.000
1643279435417833216,2022-01-27-10:30:35,10.1.1.4,41,-0.231,-0.231,-0.231,0.000,0.000,0.000
1643279435615828992,2022-01-27-10:30:35,10.1.1.4,39,-0.241,-0.241,-0.241,0.000,0.000,0.000
1643279435797579008,2022-01-27-10:30:35,10.1.1.4,18,-0.250,-0.250,-0.250,0.000,0.000,0.000
1643279436018011136,2022-01-27-10:30:36,10.1.1.4,37,-0.261,-0.261,-0.261,0.000,0.000,0.000
1643279436216256000,2022-01-27-10:30:36,10.1.1.4,33,-0.271,-0.271,-0.271,0.000,0.000,0.000
1643279436414891008,2022-01-27-10:30:36,10.1.1.4,27,-0.281,-0.281,-0.281,0.000,0.000,0.000
1643279436617392128,2022-01-27-10:30:36,10.1.1.4,27,-0.291,-0.291,-0.291,0.000,0.000,0.000
1643279436838076160,2022-01-27-10:30:36,10.1.1.4,46,-0.301,-0.301,-0.301,0.000,0.000,0.000
1643279437018784000,2022-01-27-10:30:37,10.1.1.4,25,-0.310,-0.310,-0.310,0.000,0.000,0.000
1643279437216804864,2022-01-27-10:30:37,10.1.1.4,19,-0.320,-0.320,-0.320,0.000,0.000,0.000
1643279437437253120,2022-01-27-10:30:37,10.1.1.4,35,-0.331,-0.331,-0.331,0.000,0.000,0.000
1643279437635590144,2022-01-27-10:30:37,10.1.1.4,32,-0.341,-0.341,-0.341,0.000,0.000,0.000
1643279437836619008,2022-01-27-10:30:37,10.1.1.4,31,-0.351,-0.351,-0.351,0.000,0.000,0.000
1643279438034959104,2022-01-27-10:30:38,10.1.1.4,28,-0.361,-0.361,-0.361,0.000,0.000,0.000
1643279438237132032,2022-01-27-10:30:38,10.1.1.4,29,-0.371,-0.371,-0.371,0.000,0.000,0.000
1643279438435132928,2022-01-27-10:30:38,10.1.1.4,24,-0.381,-0.381,-0.381,0.000,0.000,0.000
1643279438637765888,2022-01-27-10:30:38,10.1.1.4,26,-0.391,-0.391,-0.391,0.000,0.000,0.000
1643279438856662016,2022-01-27-10:30:38,10.1.1.4,44,-0.401,-0.401,-0.401,0.000,0.000,0.000
1643279439035085056,2022-01-27-10:30:39,10.1.1.4,16,-0.410,-0.410,-0.410,0.000,0.000,0.000
1643279439254519040,2022-01-27-10:30:39,10.1.1.4,33,-0.421,-0.421,-0.421,0.000,0.000,0.000
1643279439456398080,2022-01-27-10:30:39,10.1.1.4,31,-0.431,-0.431,-0.431,0.000,0.000,0.000
1643279439657427968,2022-01-27-10:30:39,10.1.1.4,29,-0.441,-0.441,-0.441,0.000,0.000,0.000
1643279439859472128,2022-01-27-10:30:39,10.1.1.4,30,-0.451,-0.451,-0.451,0.000,0.000,0.000
1643279440059570176,2022-01-27-10:30:40,10.1.1.4,29,-0.461,-0.461,-0.461,0.000,0.000,0.000
1643279440259166976,2022-01-27-10:30:40,10.1.1.4,27,-0.470,-0.470,-0.470,0.000,0.000,0.000
1643279440456488960,2022-01-27-10:30:40,10.1.1.4,24,-0.480,-0.480,-0.480,0.000,0.000,0.000
1643279440636990976,2022-01-27-10:30:40,10.1.1.4,2,-0.489,-0.489,-0.489,0.000,0.000,0.000
1643279440855535872,2022-01-27-10:30:40,10.1.1.4,20,-0.480,-0.480,-0.480,0.000,0.000,0.000
1643279441076890880,2022-01-27-10:30:41,10.1.1.4,41,-0.469,-0.469,-0.469,0.000,0.000,0.000
1643279441277563136,2022-01-27-10:30:41,10.1.1.4,37,-0.459,-0.459,-0.459,0.000,0.000,0.000
1643279441457849856,2022-01-27-10:30:41,10.1.1.4,20,-0.450,-0.450,-0.450,0.000,0.000,0.000
1643279441676428032,2022-01-27-10:30:41,10.1.1.4,37,-0.439,-0.439,-0.439,0.000,0.000,0.000
1643279441875643136,2022-01-27-10:30:41,10.1.1.4,35,-0.429,-0.429,-0.429,0.000,0.000,0.000
1643279442057756928,2022-01-27-10:30:42,10.1.1.4,17,-0.420,-0.420,-0.420,0.000,0.000,0.000
1643279442276882944,2022-01-27-10:30:42,10.1.1.4,35,-0.409,-0.409,-0.409,0.000,0.000,0.000
1643279442477662976,2022-01-27-10:30:42,10.1.1.4,34,-0.399,-0.399,-0.399,0.000,0.000,0.000
1643279442679440896,2022-01-27-10:30:42,10.1.1.4,33,-0.389,-0.389,-0.389,0.000,0.000,0.000
1643279442876222976,2022-01-27-10:30:42,10.1.1.4,28,-0.379,-0.379,-0.379,0.000,0.000,0.000
1643279443077699072,2022-01-27-10:30:43,10.1.1.4,28,-0.370,-0.370,-0.370,0.000,0.000,0.000
1643279443278244096,2022-01-27-10:30:43,10.1.1.4,28,-0.359,-0.359,-0.359,0.000,0.000,0.000
1643279443477335808,2022-01-27-10:30:43,10.1.1.4,27,-0.349,-0.349,-0.349,0.000,0.000,0.000
1643279443677926912,2022-01-27-10:30:43,10.1.1.4,26,-0.340,-0.340,-0.340,0.000,0.000,0.000
1643279443895205888,2022-01-27-10:30:43,10.1.1.4,40,-0.329,-0.329,-0.329,0.000,0.000,0.000
1643279444076214016,2022-01-27-10:30:44,10.1.1.4,20,-0.320,-0.320,-0.320,0.000,0.000,0.000
1643279444297108992,2022-01-27-10:30:44,10.1.1.4,39,-0.309,-0.309,-0.309,0.000,0.000,0.000
1643279444475738880,2022-01-27-10:30:44,10.1.1.4,17,-0.300,-0.300,-0.300,0.000,0.000,0.000
1643279444675260160,2022-01-27-10:30:44,10.1.1.4,15,-0.290,-0.290,-0.290,0.000,0.000,0.000
1643279444897298944,2022-01-27-10:30:44,10.1.1.4,36,-0.279,-0.279,-0.279,0.000,0.000,0.000
1643279445096386816,2022-01-27-10:30:45,10.1.1.4,35,-0.269,-0.269,-0.269,0.000,0.000,0.000
1643279445295522048,2022-01-27-10:30:45,10.1.1.4,31,-0.259,-0.259,-0.259,0.000,0.000,0.000
1643279445495729920,2022-01-27-10:30:45,10.1.1.4,28,-0.249,-0.249,-0.249,0.000,0.000,0.000
1643279445696369920,2022-01-27-10:30:45,10.1.1.4,28,-0.239,-0.239,-0.239,0.000,0.000,0.000
1643279445896614144,2022-01-27-10:30:45,10.1.1.4,26,-0.230,-0.230,-0.230,0.000,0.000,0.000
1643279446097398016,2022-01-27-10:30:46,10.1.1.4,27,-0.219,-0.219,-0.219,0.000,0.000,0.000
1643279446298036992,2022-01-27-10:30:46,10.1.1.4,27,-0.209,-0.209,-0.209,0.000,0.000,0.000
1643279446495790848,2022-01-27-10:30:46,10.1.1.4,22,-0.200,-0.200,-0.200,0.000,0.000,0.000
1643279446696521984,2022-01-27-10:30:46,10.1.1.4,17,-0.190,-0.190,-0.190,0.000,0.000,0.000
1643279446917475840,2022-01-27-10:30:46,10.1.1.4,35,-0.179,-0.179,-0.179,0.000,0.000,0.000
1643279447119062016,2022-01-27-10:30:47,10.1.1.4,36,-0.169,-0.169,-0.169,0.000,0.000,0.000
1643279447319526912,2022-01-27-10:30:47,10.1.1.4,35,-0.159,-0.159,-0.159,0.000,0.000,0.000
1643279447516475904,2022-01-27-10:30:47,10.1.1.4,28,-0.149,-0.149,-0.149,0.000,0.000,0.000
1643279447718686208,2022-01-27-10:30:47,10.1.1.4,29,-0.139,-0.139,-0.139,0.000,0.000,0.000
1643279447917145088,2022-01-27-10:30:47,10.1.1.4,25,-0.130,-0.130,-0.130,0.000,0.000,0.000
1643279448116080896,2022-01-27-10:30:48,10.1.1.4,23,-0.120,-0.120,-0.120,0.000,0.000,0.000
1643279448316492032,2022-01-27-10:30:48,10.1.1.4,22,-0.110,-0.110,-0.110,0.000,0.000,0.000
1643279448518956800,2022-01-27-10:30:48,10.1.1.4,21,-0.100,-0.100,-0.100,0.000,0.000,0.000
1643279448715141888,2022-01-27-10:30:48,10.1.1.4,18,-0.090,-0.090,-0.090,0.000,0.000,0.000
1643279448917083136,2022-01-27-10:30:48,10.1.1.4,18,-0.080,-0.080,-0.080,0.000,0.000,0.000
1643279449116796928,2022-01-27-10:30:49,10.1.1.4,17,-0.070,-0.070,-0.070,0.000,0.000,0.000
1643279449319977984,2022-01-27-10:30:49,10.1.1.4,18,-0.060,-0.060,-0.060,0.000,0.000,0.000
1643279449540864000,2022-01-27-10:30:49,10.1.1.4,34,-0.049,-0.049,-0.049,0.000,0.000,0.000
1643279449737054208,2022-01-27-10:30:49,10.1.1.4,34,-0.039,-0.039,-0.039,0.000,0.000,0.000
1643279449935278848,2022-01-27-10:30:49,10.1.1.4,31,-0.029,-0.029,-0.029,0.000,0.000,0.000
1643279450136579072,2022-01-27-10:30:50,10.1.1.4,30,-0.019,-0.019,-0.019,0.000,0.000,0.000
1643279450336262912,2022-01-27-10:30:50,10.1.1.4,29,-0.009,-0.009,-0.009,0.000,0.000,0.000
1643279450515517952,2022-01-27-10:30:50,10.1.1.4,7,-0.000,-0.000,-0.000,0.000,0.000,0.000
1643279450738449152,2022-01-27-10:30:50,10.1.1.4,29,-0.011,-0.011,-0.011,0.000,0.000,0.000
1643279450935906048,2022-01-27-10:30:50,10.1.1.4,23,-0.020,-0.020,-0.020,0.000,0.000,0.000
1643279451156744960,2022-01-27-10:30:51,10.1.1.4,42,-0.031,-0.031,-0.031,0.000,0.000,0.000
1643279451357904896,2022-01-27-10:30:51,10.1.1.4,41,-0.041,-0.041,-0.041,0.000,0.000,0.000
1643279451558902016,2022-01-27-10:30:51,10.1.1.4,40,-0.051,-0.051,-0.051,0.000,0.000,0.000
1643279451756314112,2022-01-27-10:30:51,10.1.1.4,36,-0.061,-0.061,-0.061,0.000,0.000,0.000
1643279451937949952,2022-01-27-10:30:51,10.1.1.4,17,-0.070,-0.070,-0.070,0.000,0.000,0.000
1643279452138246144,2022-01-27-10:30:52,10.1.1.4,15,-0.080,-0.080,-0.080,0.000,0.000,0.000
1643279452357484032,2022-01-27-10:30:52,10.1.1.4,32,-0.091,-0.091,-0.091,0.000,0.000,0.000
1643279452554825984,2022-01-27-10:30:52,10.1.1.4,27,-0.101,-0.101,-0.101,0.000,0.000,0.000
1643279452756854016,2022-01-27-10:30:52,10.1.1.4,24,-0.110,-0.110,-0.110,0.000,0.000,0.000
1643279452957346816,2022-01-27-10:30:52,10.1.1.4,21,-0.120,-0.120,-0.120,0.000,0.000,0.000
1643279453155749120,2022-01-27-10:30:53,10.1.1.4,18,-0.130,-0.130,-0.130,0.000,0.000,0.000
1643279453357434880,2022-01-27-10:30:53,10.1.1.4,19,-0.140,-0.140,-0.140,0.000,0.000,0.000
1643279453576036096,2022-01-27-10:30:53,10.1.1.4,36,-0.151,-0.151,-0.151,0.000,0.000,0.000
1643279453775206144,2022-01-27-10:30:53,10.1.1.4,34,-0.161,-0.161,-0.161,0.000,0.000,0.000
1643279453977755136,2022-01-27-10:30:53,10.1.1.4,36,-0.171,-0.171,-0.171,0.000,0.000,0.000
1643279454175885824,2022-01-27-10:30:54,10.1.1.4,33,-0.181,-0.181,-0.181,0.000,0.000,0.000
1643279454376761856,2022-01-27-10:30:54,10.1.1.4,27,-0.191,-0.191,-0.191,0.000,0.000,0.000
1643279454577863936,2022-01-27-10:30:54,10.1.1.4,29,-0.201,-0.201,-0.201,0.000,0.000,0.000
1643279454775808000,2022-01-27-10:30:54,10.1.1.4,24,-0.210,-0.210,-0.210,0.000,0.000,0.000
1643279454975992832,2022-01-27-10:30:54,10.1.1.4,23,-0.220,-0.220,-0.220,0.000,0.000,0.000
1643279455177782016,2022-01-27-10:30:55,10.1.1.4,24,-0.230,-0.230,-0.230,0.000,0.000,0.000
1643279455377723904,2022-01-27-10:30:55,10.1.1.4,16,-0.240,-0.240,-0.240,0.000,0.000,0.000
1643279455594844160,2022-01-27-10:30:55,10.1.1.4,32,-0.251,-0.251,-0.251,0.000,0.000,0.000
1643279455794866944,2022-01-27-10:30:55,10.1.1.4,31,-0.261,-0.261,-0.261,0.000,0.000,0.000
1643279455994995968,2022-01-27-10:30:55,10.1.1.4,29,-0.271,-0.271,-0.271,0.000,0.000,0.000
1643279456197061120,2022-01-27-10:30:56,10.1.1.4,30,-0.281,-0.281,-0.281,0.000,0.000,0.000
1643279456397423104,2022-01-27-10:30:56,10.1.1.4,30,-0.290,-0.290,-0.290,0.000,0.000,0.000
1643279456596196864,2022-01-27-10:30:56,10.1.1.4,26,-0.301,-0.301,-0.301,0.000,0.000,0.000
1643279456799546880,2022-01-27-10:30:56,10.1.1.4,28,-0.311,-0.311,-0.311,0.000,0.000,0.000
1643279456999887872,2022-01-27-10:30:56,10.1.1.4,27,-0.320,-0.320,-0.320,0.000,0.000,0.000
1643279457198349056,2022-01-27-10:30:57,10.1.1.4,20,-0.330,-0.330,-0.330,0.000,0.000,0.000
1643279457415333888,2022-01-27-10:30:57,10.1.1.4,37,-0.341,-0.341,-0.341,0.000,0.000,0.000
1643279457615120896,2022-01-27-10:30:57,10.1.1.4,36,-0.351,-0.351,-0.351,0.000,0.000,0.000
1643279457796144128,2022-01-27-10:30:57,10.1.1.4,16,-0.360,-0.360,-0.360,0.000,0.000,0.000
1643279458018785024,2022-01-27-10:30:58,10.1.1.4,38,-0.371,-0.371,-0.371,0.000,0.000,0.000
1643279458220932864,2022-01-27-10:30:58,10.1.1.4,32,-0.381,-0.381,-0.381,0.000,0.000,0.000
1643279458415525888,2022-01-27-10:30:58,10.1.1.4,29,-0.391,-0.391,-0.391,0.000,0.000,0.000
1643279458615984896,2022-01-27-10:30:58,10.1.1.4,23,-0.400,-0.400,-0.400,0.000,0.000,0.000
1643279458839694080,2022-01-27-10:30:58,10.1.1.4,47,-0.411,-0.411,-0.411,0.000,0.000,0.000
1643279459015289088,2022-01-27-10:30:59,10.1.1.4,21,-0.420,-0.420,-0.420,0.000,0.000,0.000
1643279459216911104,2022-01-27-10:30:59,10.1.1.4,21,-0.430,-0.430,-0.430,0.000,0.000,0.000
1643279459434418944,2022-01-27-10:30:59,10.1.1.4,36,-0.441,-0.441,-0.441,0.000,0.000,0.000
1643279459636655104,2022-01-27-10:30:59,10.1.1.4,35,-0.450,-0.450,-0.450,0.000,0.000,0.000
1643279459838931200,2022-01-27-10:30:59,10.1.1.4,35,-0.461,-0.461,-0.461,0.000,0.000,0.000
1643279460037466880,2022-01-27-10:31:00,10.1.1.4,33,-0.471,-0.471,-0.471,0.000,0.000,0.000
1643279460235912192,2022-01-27-10:31:00,10.1.1.4,29,-0.481,-0.481,-0.481,0.000,0.000,0.000
1643279460416532992,2022-01-27-10:31:00,10.1.1.4,8,-0.490,-0.490,-0.490,0.000,0.000,0.000
1643279460657457152,2022-01-27-10:31:00,10.1.1.4,45,-0.479,-0.479,-0.479,0.000,0.000,0.000
1643279460856111104,2022-01-27-10:31:00,10.1.1.4,43,-0.469,-0.469,-0.469,0.000,0.000,0.000
1643279461055362048,2022-01-27-10:31:01,10.1.1.4,37,-0.459,-0.459,-0.459,0.000,0.000,0.000
1643279461255432960,2022-01-27-10:31:01,10.1.1.4,36,-0.449,-0.449,-0.449,0.000,0.000,0.000
1643279461436819968,2022-01-27-10:31:01,10.1.1.4,15,-0.440,-0.440,-0.440,0.000,0.000,0.000
1643279461656396032,2022-01-27-10:31:01,10.1.1.4,33,-0.429,-0.429,-0.429,0.000,0.000,0.000
1643279461860062976,2022-01-27-10:31:01,10.1.1.4,36,-0.419,-0.419,-0.419,0.000,0.000,0.000
1643279462057174016,2022-01-27-10:31:02,10.1.1.4,32,-0.409,-0.409,-0.409,0.000,0.000,0.000
1643279462256210944,2022-01-27-10:31:02,10.1.1.4,30,-0.399,-0.399,-0.399,0.000,0.000,0.000
1643279462459137792,2022-01-27-10:31:02,10.1.1.4,32,-0.389,-0.389,-0.389,0.000,0.000,0.000
1643279462655169024,2022-01-27-10:31:02,10.1.1.4,25,-0.379,-0.379,-0.379,0.000,0.000,0.000
1643279462856973824,2022-01-27-10:31:02,10.1.1.4,21,-0.370,-0.370,-0.370,0.000,0.000,0.000
1643279463057425920,2022-01-27-10:31:03,10.1.1.4,20,-0.360,-0.360,-0.360,0.000,0.000,0.000
1643279463257543168,2022-01-27-10:31:03,10.1.1.4,18,-0.350,-0.350,-0.350,0.000,0.000,0.000
1643279463476851968,2022-01-27-10:31:03,10.1.1.4,36,-0.339,-0.339,-0.339,0.000,0.000,0.000
1643279463655721984,2022-01-27-10:31:03,10.1.1.4,14,-0.330,-0.330,-0.330,0.000,0.000,0.000
1643279463878560000,2022-01-27-10:31:03,10.1.1.4,35,-0.319,-0.319,-0.319,0.000,0.000,0.000
1643279464077244928,2022-01-27-10:31:04,10.1.1.4,34,-0.309,-0.309,-0.309,0.000,0.000,0.000
1643279464274867968,2022-01-27-10:31:04,10.1.1.4,31,-0.299,-0.299,-0.299,0.000,0.000,0.000
1643279464479625984,2022-01-27-10:31:04,10.1.1.4,32,-0.289,-0.289,-0.289,0.000,0.000,0.000
1643279464697815040,2022-01-27-10:31:04,10.1.1.4,52,-0.278,-0.278,-0.278,0.000,0.000,0.000
1643279464876278016,2022-01-27-10:31:04,10.1.1.4,27,-0.269,-0.269,-0.269,0.000,0.000,0.000
1643279465075335936,2022-01-27-10:31:05,10.1.1.4,21,-0.260,-0.260,-0.260,0.000,0.000,0.000
1643279465301575936,2022-01-27-10:31:05,10.1.1.4,46,-0.249,-0.249,-0.249,0.000,0.000,0.000
1643279465498629120,2022-01-27-10:31:05,10.1.1.4,40,-0.240,-0.240,-0.240,0.000,0.000,0.000
1643279465707638016,2022-01-27-10:31:05,10.1.1.4,47,-0.229,-0.229,-0.229,0.000,0.000,0.000
1643279465919397120,2022-01-27-10:31:05,10.1.1.4,50,-0.219,-0.219,-0.219,0.000,0.000,0.000
1643279466101381120,2022-01-27-10:31:06,10.1.1.4,23,-0.210,-0.210,-0.210,0.000,0.000,0.000
1643279466296870912,2022-01-27-10:31:06,10.1.1.4,18,-0.200,-0.200,-0.200,0.000,0.000,0.000
1643279466514566912,2022-01-27-10:31:06,10.1.1.4,34,-0.189,-0.189,-0.189,0.000,0.000,0.000
1643279466717550080,2022-01-27-10:31:06,10.1.1.4,37,-0.179,-0.179,-0.179,0.000,0.000,0.000
1643279466919352064,2022-01-27-10:31:06,10.1.1.4,37,-0.169,-0.169,-0.169,0.000,0.000,0.000
1643279467114850048,2022-01-27-10:31:07,10.1.1.4,29,-0.159,-0.159,-0.159,0.000,0.000,0.000
1643279467314616832,2022-01-27-10:31:07,10.1.1.4,25,-0.149,-0.149,-0.149,0.000,0.000,0.000
1643279467514473984,2022-01-27-10:31:07,10.1.1.4,24,-0.139,-0.139,-0.139,0.000,0.000,0.000
1643279467714842112,2022-01-27-10:31:07,10.1.1.4,13,-0.130,-0.130,-0.130,0.000,0.000,0.000
1643279467935735040,2022-01-27-10:31:07,10.1.1.4,33,-0.119,-0.119,-0.119,0.000,0.000,0.000
1643279468114012928,2022-01-27-10:31:08,10.1.1.4,4,-0.110,-0.110,-0.110,0.000,0.000,0.000
1643279468334699008,2022-01-27-10:31:08,10.1.1.4,22,-0.100,-0.100,-0.100,0.000,0.000,0.000
1643279468537508864,2022-01-27-10:31:08,10.1.1.4,23,-0.090,-0.090,-0.090,0.000,0.000,0.000
1643279468736148224,2022-01-27-10:31:08,10.1.1.4,19,-0.080,-0.080,-0.080,0.000,0.000,0.000
1643279468956000000,2022-01-27-10:31:08,10.1.1.4,37,-0.069,-0.069,-0.069,0.000,0.000,0.000
1643279469155553024,2022-01-27-10:31:09,10.1.1.4,29,-0.059,-0.059,-0.059,0.000,0.000,0.000
1643279469354724864,2022-01-27-10:31:09,10.1.1.4,27,-0.049,-0.049,-0.049,0.000,0.000,0.000
1643279469555409920,2022-01-27-10:31:09,10.1.1.4,25,-0.039,-0.039,-0.039,0.000,0.000,0.000
1643279469756387072,2022-01-27-10:31:09,10.1.1.4,24,-0.030,-0.030,-0.030,0.000,0.000,0.000
1643279469959224064,2022-01-27-10:31:09,10.1.1.4,25,-0.020,-0.020,-0.020,0.000,0.000,0.000
1643279470175345920,2022-01-27-10:31:10,10.1.1.4,39,-0.009,-0.009,-0.009,0.000,0.000,0.000
1643279470355796992,2022-01-27-10:31:10,10.1.1.4,19,-0.000,-0.000,-0.000,0.000,0.000,0.000
1643279470579924224,2022-01-27-10:31:10,10.1.1.4,42,-0.011,-0.011,-0.011,0.000,0.000,0.000
1643279470755464960,2022-01-27-10:31:10,10.1.1.4,16,-0.020,-0.020,-0.020,0.000,0.000,0.000
1643279470979342080,2022-01-27-10:31:10,10.1.1.4,39,-0.031,-0.031,-0.031,0.000,0.000,0.000
1643279471156732928,2022-01-27-10:31:11,10.1.1.4,15,-0.040,-0.040,-0.040,0.000,0.000,0.000
1643279471374809088,2022-01-27-10:31:11,10.1.1.4,32,-0.051,-0.051,-0.051,0.000,0.000,0.000
1643279471575865856,2022-01-27-10:31:11,10.1.1.4,32,-0.061,-0.061,-0.061,0.000,0.000,0.000
1643279471775856896,2022-01-27-10:31:11,10.1.1.4,31,-0.071,-0.071,-0.071,0.000,0.000,0.000
1643279471977349120,2022-01-27-10:31:11,10.1.1.4,28,-0.081,-0.081,-0.081,0.000,0.000,0.000
1643279472177206016,2022-01-27-10:31:12,10.1.1.4,26,-0.091,-0.091,-0.091,0.000,0.000,0.000
1643279472374771200,2022-01-27-10:31:12,10.1.1.4,21,-0.100,-0.100,-0.100,0.000,0.000,0.000
1643279472577454080,2022-01-27-10:31:12,10.1.1.4,19,-0.110,-0.110,-0.110,0.000,0.000,0.000
1643279472781302016,2022-01-27-10:31:12,10.1.1.4,20,-0.120,-0.120,-0.120,0.000,0.000,0.000
1643279472997018112,2022-01-27-10:31:12,10.1.1.4,37,-0.131,-0.131,-0.131,0.000,0.000,0.000
1643279473198097920,2022-01-27-10:31:13,10.1.1.4,36,-0.141,-0.141,-0.141,0.000,0.000,0.000
1643279473398504960,2022-01-27-10:31:13,10.1.1.4,33,-0.151,-0.151,-0.151,0.000,0.000,0.000
1643279473600235008,2022-01-27-10:31:13,10.1.1.4,32,-0.161,-0.161,-0.161,0.000,0.000,0.000
1643279473821618944,2022-01-27-10:31:13,10.1.1.4,48,-0.171,-0.171,-0.171,0.000,0.000,0.000
1643279473995052032,2022-01-27-10:31:13,10.1.1.4,18,-0.180,-0.180,-0.180,0.000,0.000,0.000
1643279474215228160,2022-01-27-10:31:14,10.1.1.4,36,-0.191,-0.191,-0.191,0.000,0.000,0.000
1643279474394309120,2022-01-27-10:31:14,10.1.1.4,15,-0.200,-0.200,-0.200,0.000,0.000,0.000
1643279474615737856,2022-01-27-10:31:14,10.1.1.4,35,-0.211,-0.211,-0.211,0.000,0.000,0.000
1643279474816713984,2022-01-27-10:31:14,10.1.1.4,35,-0.221,-0.221,-0.221,0.000,0.000,0.000
1643279475014443008,2022-01-27-10:31:15,10.1.1.4,32,-0.231,-0.231,-0.231,0.000,0.000,0.000
1643279475215117056,2022-01-27-10:31:15,10.1.1.4,30,-0.241,-0.241,-0.241,0.000,0.000,0.000
1643279475414827008,2022-01-27-10:31:15,10.1.1.4,29,-0.251,-0.251,-0.251,0.000,0.000,0.000
1643279475614914816,2022-01-27-10:31:15,10.1.1.4,25,-0.261,-0.261,-0.261,0.000,0.000,0.000
1643279475815498240,2022-01-27-10:31:15,10.1.1.4,21,-0.270,-0.270,-0.270,0.000,0.000,0.000
1643279476015140096,2022-01-27-10:31:16,10.1.1.4,18,-0.280,-0.280,-0.280,0.000,0.000,0.000
1643279476234298880,2022-01-27-10:31:16,10.1.1.4,36,-0.291,-0.291,-0.291,0.000,0.000,0.000
1643279476414510080,2022-01-27-10:31:16,10.1.1.4,16,-0.300,-0.300,-0.300,0.000,0.000,0.000
1643279476634916096,2022-01-27-10:31:16,10.1.1.4,34,-0.311,-0.311,-0.311,0.000,0.000,0.000
1643279476835767040,2022-01-27-10:31:16,10.1.1.4,34,-0.321,-0.321,-0.321,0.000,0.000,0.000
1643279477035064832,2022-01-27-10:31:17,10.1.1.4,33,-0.331,-0.331,-0.331,0.000,0.000,0.000
1643279477235424000,2022-01-27-10:31:17,10.1.1.4,32,-0.341,-0.341,-0.341,0.000,0.000,0.000
1643279477434930944,2022-01-27-10:31:17,10.1.1.4,30,-0.351,-0.351,-0.351,0.000,0.000,0.000
1643279477635350016,2022-01-27-10:31:17,10.1.1.4,29,-0.361,-0.361,-0.361,0.000,0.000,0.000
1643279477835395072,2022-01-27-10:31:17,10.1.1.4,27,-0.371,-0.371,-0.371,0.000,0.000,0.000
1643279478055169024,2022-01-27-10:31:18,10.1.1.4,43,-0.381,-0.381,-0.381,0.000,0.000,0.000
1643279478256133120,2022-01-27-10:31:18,10.1.1.4,41,-0.391,-0.391,-0.391,0.000,0.000,0.000
1643279478455177984,2022-01-27-10:31:18,10.1.1.4,34,-0.401,-0.401,-0.401,0.000,0.000,0.000
1643279478655344128,2022-01-27-10:31:18,10.1.1.4,33,-0.411,-0.411,-0.411,0.000,0.000,0.000
1643279478854188032,2022-01-27-10:31:18,10.1.1.4,27,-0.421,-0.421,-0.421,0.000,0.000,0.000
1643279479056726016,2022-01-27-10:31:19,10.1.1.4,27,-0.431,-0.431,-0.431,0.000,0.000,0.000
1643279479255304960,2022-01-27-10:31:19,10.1.1.4,23,-0.440,-0.440,-0.440,0.000,0.000,0.000
1643279479455485184,2022-01-27-10:31:19,10.1.1.4,20,-0.450,-0.450,-0.450,0.000,0.000,0.000
1643279479675182080,2022-01-27-10:31:19,10.1.1.4,38,-0.461,-0.461,-0.461,0.000,0.000,0.000
1643279479875382016,2022-01-27-10:31:19,10.1.1.4,37,-0.471,-0.471,-0.471,0.000,0.000,0.000
1643279480075529216,2022-01-27-10:31:20,10.1.1.4,35,-0.481,-0.481,-0.481,0.000,0.000,0.000
1643279480275182080,2022-01-27-10:31:20,10.1.1.4,29,-0.489,-0.489,-0.489,0.000,0.000,0.000
1643279480475652096,2022-01-27-10:31:20,10.1.1.4,26,-0.479,-0.479,-0.479,0.000,0.000,0.000
1643279480675339008,2022-01-27-10:31:20,10.1.1.4,25,-0.469,-0.469,-0.469,0.000,0.000,0.000
1643279480876172032,2022-01-27-10:31:20,10.1.1.4,21,-0.460,-0.460,-0.460,0.000,0.000,0.000
1643279481097043968,2022-01-27-10:31:21,10.1.1.4,41,-0.449,-0.449,-0.449,0.000,0.000,0.000
1643279481275599104,2022-01-27-10:31:21,10.1.1.4,19,-0.440,-0.440,-0.440,0.000,0.000,0.000
1643279481475558144,2022-01-27-10:31:21,10.1.1.4,18,-0.430,-0.430,-0.430,0.000,0.000,0.000
1643279481695333888,2022-01-27-10:31:21,10.1.1.4,36,-0.419,-0.419,-0.419,0.000,0.000,0.000
1643279481895670784,2022-01-27-10:31:21,10.1.1.4,34,-0.409,-0.409,-0.409,0.000,0.000,0.000
1643279482094749952,2022-01-27-10:31:22,10.1.1.4,31,-0.399,-0.399,-0.399,0.000,0.000,0.000
1643279482295954944,2022-01-27-10:31:22,10.1.1.4,31,-0.389,-0.389,-0.389,0.000,0.000,0.000
1643279482495908864,2022-01-27-10:31:22,10.1.1.4,27,-0.379,-0.379,-0.379,0.000,0.000,0.000
1643279482696353024,2022-01-27-10:31:22,10.1.1.4,26,-0.369,-0.369,-0.369,0.000,0.000,0.000
1643279482918885888,2022-01-27-10:31:22,10.1.1.4,47,-0.359,-0.359,-0.359,0.000,0.000,0.000
1643279483095657216,2022-01-27-10:31:23,10.1.1.4,20,-0.350,-0.350,-0.350,0.000,0.000,0.000
1643279483296092928,2022-01-27-10:31:23,10.1.1.4,20,-0.340,-0.340,-0.340,0.000,0.000,0.000
1643279483516172800,2022-01-27-10:31:23,10.1.1.4,38,-0.329,-0.329,-0.329,0.000,0.000,0.000
1643279483715596800,2022-01-27-10:31:23,10.1.1.4,37,-0.319,-0.319,-0.319,0.000,0.000,0.000
1643279483897488128,2022-01-27-10:31:23,10.1.1.4,17,-0.310,-0.310,-0.310,0.000,0.000,0.000
1643279484120812800,2022-01-27-10:31:24,10.1.1.4,36,-0.299,-0.299,-0.299,0.000,0.000,0.000
1643279484322500096,2022-01-27-10:31:24,10.1.1.4,37,-0.289,-0.289,-0.289,0.000,0.000,0.000
1643279484519619840,2022-01-27-10:31:24,10.1.1.4,33,-0.279,-0.279,-0.279,0.000,0.000,0.000
1643279484719116800,2022-01-27-10:31:24,10.1.1.4,29,-0.270,-0.270,-0.270,0.000,0.000,0.000
1643279484941082880,2022-01-27-10:31:24,10.1.1.4,47,-0.259,-0.259,-0.259,0.000,0.000,0.000
1643279485141298944,2022-01-27-10:31:25,10.1.1.4,45,-0.249,-0.249,-0.249,0.000,0.000,0.000
1643279485335366912,2022-01-27-10:31:25,10.1.1.4,37,-0.239,-0.239,-0.239,0.000,0.000,0.000
1643279485514426112,2022-01-27-10:31:25,10.1.1.4,14,-0.230,-0.230,-0.230,0.000,0.000,0.000
1643279485740704000,2022-01-27-10:31:25,10.1.1.4,38,-0.219,-0.219,-0.219,0.000,0.000,0.000
1643279485936001024,2022-01-27-10:31:25,10.1.1.4,30,-0.209,-0.209,-0.209,0.000,0.000,0.000
1643279486137912064,2022-01-27-10:31:26,10.1.1.4,23,-0.199,-0.199,-0.199,0.000,0.000,0.000
1643279486356272896,2022-01-27-10:31:26,10.1.1.4,43,-0.189,-0.189,-0.189,0.000,0.000,0.000
1643279486556307968,2022-01-27-10:31:26,10.1.1.4,41,-0.179,-0.179,-0.179,0.000,0.000,0.000
1643279486756755200,2022-01-27-10:31:26,10.1.1.4,41,-0.169,-0.169,-0.169,0.000,0.000,0.000
1643279486959016960,2022-01-27-10:31:26,10.1.1.4,41,-0.159,-0.159,-0.159,0.000,0.000,0.000
1643279487158551808,2022-01-27-10:31:27,10.1.1.4,38,-0.149,-0.149,-0.149,0.000,0.000,0.000
1643279487355344896,2022-01-27-10:31:27,10.1.1.4,34,-0.139,-0.139,-0.139,0.000,0.000,0.000
1643279487557296128,2022-01-27-10:31:27,10.1.1.4,33,-0.129,-0.129,-0.129,0.000,0.000,0.000
1643279487757069056,2022-01-27-10:31:27,10.1.1.4,23,-0.120,-0.120,-0.120,0.000,0.000,0.000
1643279487957239040,2022-01-27-10:31:27,10.1.1.4,19,-0.110,-0.110,-0.110,0.000,0.000,0.000
1643279488161122048,2022-01-27-10:31:28,10.1.1.4,16,-0.100,-0.100,-0.100,0.000,0.000,0.000
1643279488375075072,2022-01-27-10:31:28,10.1.1.4,28,-0.089,-0.089,-0.089,0.000,0.000,0.000
1643279488576178176,2022-01-27-10:31:28,10.1.1.4,28,-0.079,-0.079,-0.079,0.000,0.000,0.000
1643279488774710016,2022-01-27-10:31:28,10.1.1.4,26,-0.069,-0.069,-0.069,0.000,0.000,0.000
1643279488981285120,2022-01-27-10:31:28,10.1.1.4,30,-0.060,-0.060,-0.060,0.000,0.000,0.000
1643279489199124224,2022-01-27-10:31:29,10.1.1.4,38,-0.049,-0.049,-0.049,0.000,0.000,0.000
1643279489395924992,2022-01-27-10:31:29,10.1.1.4,33,-0.039,-0.039,-0.039,0.000,0.000,0.000
1643279489595042048,2022-01-27-10:31:29,10.1.1.4,28,-0.029,-0.029,-0.029,0.000,0.000,0.000
1643279489815995904,2022-01-27-10:31:29,10.1.1.4,41,-0.019,-0.019,-0.019,0.000,0.000,0.000
1643279489994718976,2022-01-27-10:31:29,10.1.1.4,17,-0.010,-0.010,-0.010,0.000,0.000,0.000
1643279490195342080,2022-01-27-10:31:30,10.1.1.4,17,-0.000,-0.000,-0.000,0.000,0.000,0.000
1643279490395073792,2022-01-27-10:31:30,10.1.1.4,15,-0.010,-0.010,-0.010,0.000,0.000,0.000
1643279490615919104,2022-01-27-10:31:30,10.1.1.4,30,-0.021,-0.021,-0.021,0.000,0.000,0.000
1643279490813714944,2022-01-27-10:31:30,10.1.1.4,26,-0.031,-0.031,-0.031,0.000,0.000,0.000
1643279491015102976,2022-01-27-10:31:31,10.1.1.4,26,-0.041,-0.041,-0.041,0.000,0.000,0.000
1643279491215457024,2022-01-27-10:31:31,10.1.1.4,24,-0.050,-0.050,-0.050,0.000,0.000,0.000
1643279491416697088,2022-01-27-10:31:31,10.1.1.4,21,-0.060,-0.060,-0.060,0.000,0.000,0.000
1643279491615853056,2022-01-27-10:31:31,10.1.1.4,12,-0.070,-0.070,-0.070,0.000,0.000,0.000
1643279491836339968,2022-01-27-10:31:31,10.1.1.4,28,-0.081,-0.081,-0.081,0.000,0.000,0.000
1643279492036276992,2022-01-27-10:31:32,10.1.1.4,16,-0.090,-0.090,-0.090,0.000,0.000,0.000
1643279492237498112,2022-01-27-10:31:32,10.1.1.4,16,-0.100,-0.100,-0.100,0.000,0.000,0.000
1643279492437160960,2022-01-27-10:31:32,10.1.1.4,13,-0.110,-0.110,-0.110,0.000,0.000,0.000
1643279492659307008,2022-01-27-10:31:32,10.1.1.4,33,-0.121,-0.121,-0.121,0.000,0.000,0.000
1643279492856748032,2022-01-27-10:31:32,10.1.1.4,29,-0.131,-0.131,-0.131,0.000,0.000,0.000
1643279493061446912,2022-01-27-10:31:33,10.1.1.4,30,-0.140,-0.140,-0.140,0.000,0.000,0.000
1643279493276859136,2022-01-27-10:31:33,10.1.1.4,41,-0.151,-0.151,-0.151,0.000,0.000,0.000
1643279493460825856,2022-01-27-10:31:33,10.1.1.4,21,-0.160,-0.160,-0.160,0.000,0.000,0.000
1643279493679471872,2022-01-27-10:31:33,10.1.1.4,38,-0.171,-0.171,-0.171,0.000,0.000,0.000
1643279493875771904,2022-01-27-10:31:33,10.1.1.4,32,-0.181,-0.181,-0.181,0.000,0.000,0.000
1643279494075752960,2022-01-27-10:31:34,10.1.1.4,30,-0.190,-0.190,-0.190,0.000,0.000,0.000
1643279494278563072,2022-01-27-10:31:34,10.1.1.4,30,-0.201,-0.201,-0.201,0.000,0.000,0.000
1643279494476783104,2022-01-27-10:31:34,10.1.1.4,27,-0.211,-0.211,-0.211,0.000,0.000,0.000
1643279494701724928,2022-01-27-10:31:34,10.1.1.4,49,-0.221,-0.221,-0.221,0.000,0.000,0.000
1643279494895745024,2022-01-27-10:31:34,10.1.1.4,33,-0.231,-0.231,-0.231,0.000,0.000,0.000
1643279495096434944,2022-01-27-10:31:35,10.1.1.4,27,-0.241,-0.241,-0.241,0.000,0.000,0.000
1643279495318893056,2022-01-27-10:31:35,10.1.1.4,41,-0.251,-0.251,-0.251,0.000,0.000,0.000
1643279495520900864,2022-01-27-10:31:35,10.1.1.4,40,-0.261,-0.261,-0.261,0.000,0.000,0.000
1643279495716244992,2022-01-27-10:31:35,10.1.1.4,34,-0.271,-0.271,-0.271,0.000,0.000,0.000
1643279495916250880,2022-01-27-10:31:35,10.1.1.4,30,-0.281,-0.281,-0.281,0.000,0.000,0.000
1643279496117524992,2022-01-27-10:31:36,10.1.1.4,31,-0.291,-0.291,-0.291,0.000,0.000,0.000
1643279496317976064,2022-01-27-10:31:36,10.1.1.4,20,-0.300,-0.300,-0.300,0.000,0.000,0.000
1643279496534883072,2022-01-27-10:31:36,10.1.1.4,35,-0.311,-0.311,-0.311,0.000,0.000,0.000
1643279496736804864,2022-01-27-10:31:36,10.1.1.4,35,-0.321,-0.321,-0.321,0.000,0.000,0.000
1643279496938685952,2022-01-27-10:31:36,10.1.1.4,30,-0.331,-0.331,-0.331,0.000,0.000,0.000
1643279497135170816,2022-01-27-10:31:37,10.1.1.4,26,-0.340,-0.340,-0.340,0.000,0.000,0.000
1643279497336883968,2022-01-27-10:31:37,10.1.1.4,26,-0.351,-0.351,-0.351,0.000,0.000,0.000
1643279497557337088,2022-01-27-10:31:37,10.1.1.4,45,-0.361,-0.361,-0.361,0.000,0.000,0.000
1643279497756057088,2022-01-27-10:31:37,10.1.1.4,40,-0.371,-0.371,-0.371,0.000,0.000,0.000
1643279497955737088,2022-01-27-10:31:37,10.1.1.4,30,-0.381,-0.381,-0.381,0.000,0.000,0.000
1643279498156267008,2022-01-27-10:31:38,10.1.1.4,28,-0.391,-0.391,-0.391,0.000,0.000,0.000
1643279498360493056,2022-01-27-10:31:38,10.1.1.4,24,-0.400,-0.400,-0.400,0.000,0.000,0.000
1643279498579130880,2022-01-27-10:31:38,10.1.1.4,41,-0.411,-0.411,-0.411,0.000,0.000,0.000
1643279498778853888,2022-01-27-10:31:38,10.1.1.4,39,-0.421,-0.421,-0.421,0.000,0.000,0.000
1643279498976461056,2022-01-27-10:31:38,10.1.1.4,32,-0.431,-0.431,-0.431,0.000,0.000,0.000
1643279499177911040,2022-01-27-10:31:39,10.1.1.4,32,-0.441,-0.441,-0.441,0.000,0.000,0.000
1643279499379333120,2022-01-27-10:31:39,10.1.1.4,32,-0.451,-0.451,-0.451,0.000,0.000,0.000
1643279499578520064,2022-01-27-10:31:39,10.1.1.4,30,-0.461,-0.461,-0.461,0.000,0.000,0.000
1643279499781601792,2022-01-27-10:31:39,10.1.1.4,31,-0.471,-0.471,-0.471,0.000,0.000,0.000
1643279500000727808,2022-01-27-10:31:39,10.1.1.4,47,-0.481,-0.481,-0.481,0.000,0.000,0.000
1643279500158432000,2022-01-27-10:31:40,10.1.1.4,2,-0.490,-0.490,-0.490,0.000,0.000,0.000
1643279500375890944,2022-01-27-10:31:40,10.1.1.4,17,-0.480,-0.480,-0.480,0.000,0.000,0.000
1643279500596837888,2022-01-27-10:31:40,10.1.1.4,34,-0.469,-0.469,-0.469,0.000,0.000,0.000
1643279500797088000,2022-01-27-10:31:40,10.1.1.4,29,-0.459,-0.459,-0.459,0.000,0.000,0.000
1643279500996082944,2022-01-27-10:31:40,10.1.1.4,26,-0.449,-0.449,-0.449,0.000,0.000,0.000
1643279501196350976,2022-01-27-10:31:41,10.1.1.4,21,-0.440,-0.440,-0.440,0.000,0.000,0.000
1643279501396305920,2022-01-27-10:31:41,10.1.1.4,18,-0.430,-0.430,-0.430,0.000,0.000,0.000
1643279501615881984,2022-01-27-10:31:41,10.1.1.4,30,-0.419,-0.419,-0.419,0.000,0.000,0.000
1643279501816470016,2022-01-27-10:31:41,10.1.1.4,26,-0.410,-0.410,-0.410,0.000,0.000,0.000
1643279502035337984,2022-01-27-10:31:42,10.1.1.4,43,-0.399,-0.399,-0.399,0.000,0.000,0.000
1643279502235825152,2022-01-27-10:31:42,10.1.1.4,41,-0.389,-0.389,-0.389,0.000,0.000,0.000
1643279502415777024,2022-01-27-10:31:42,10.1.1.4,19,-0.380,-0.380,-0.380,0.000,0.000,0.000
1643279502635834880,2022-01-27-10:31:42,10.1.1.4,34,-0.369,-0.369,-0.369,0.000,0.000,0.000
1643279502836147968,2022-01-27-10:31:42,10.1.1.4,32,-0.360,-0.360,-0.360,0.000,0.000,0.000
1643279503036612864,2022-01-27-10:31:43,10.1.1.4,32,-0.349,-0.349,-0.349,0.000,0.000,0.000
1643279503237982976,2022-01-27-10:31:43,10.1.1.4,28,-0.339,-0.339,-0.339,0.000,0.000,0.000
1643279503438114816,2022-01-27-10:31:43,10.1.1.4,26,-0.330,-0.330,-0.330,0.000,0.000,0.000
1643279503635207936,2022-01-27-10:31:43,10.1.1.4,22,-0.320,-0.320,-0.320,0.000,0.000,0.000
1643279503835091968,2022-01-27-10:31:43,10.1.1.4,16,-0.310,-0.310,-0.310,0.000,0.000,0.000
1643279504055566080,2022-01-27-10:31:44,10.1.1.4,34,-0.299,-0.299,-0.299,0.000,0.000,0.000
1643279504255013888,2022-01-27-10:31:44,10.1.1.4,30,-0.289,-0.289,-0.289,0.000,0.000,0.000
1643279504456047104,2022-01-27-10:31:44,10.1.1.4,30,-0.279,-0.279,-0.279,0.000,0.000,0.000
1643279504657010944,2022-01-27-10:31:44,10.1.1.4,23,-0.270,-0.270,-0.270,0.000,0.000,0.000
1643279504856160000,2022-01-27-10:31:44,10.1.1.4,21,-0.260,-0.260,-0.260,0.000,0.000,0.000
1643279505075598080,2022-01-27-10:31:45,10.1.1.4,38,-0.249,-0.249,-0.249,0.000,0.000,0.000
1643279505277116160,2022-01-27-10:31:45,10.1.1.4,37,-0.239,-0.239,-0.239,0.000,0.000,0.000
1643279505478876160,2022-01-27-10:31:45,10.1.1.4,37,-0.229,-0.229,-0.229,0.000,0.000,0.000
1643279505675909888,2022-01-27-10:31:45,10.1.1.4,33,-0.219,-0.219,-0.219,0.000,0.000,0.000
1643279505875729920,2022-01-27-10:31:45,10.1.1.4,33,-0.209,-0.209,-0.209,0.000,0.000,0.000
1643279506075192064,2022-01-27-10:31:46,10.1.1.4,29,-0.199,-0.199,-0.199,0.000,0.000,0.000
1643279506277160960,2022-01-27-10:31:46,10.1.1.4,30,-0.190,-0.190,-0.190,0.000,0.000,0.000
1643279506481144832,2022-01-27-10:31:46,10.1.1.4,28,-0.180,-0.180,-0.180,0.000,0.000,0.000
1643279506697092096,2022-01-27-10:31:46,10.1.1.4,40,-0.169,-0.169,-0.169,0.000,0.000,0.000
1643279506878243072,2022-01-27-10:31:46,10.1.1.4,21,-0.160,-0.160,-0.160,0.000,0.000,0.000
1643279507075195904,2022-01-27-10:31:47,10.1.1.4,15,-0.150,-0.150,-0.150,0.000,0.000,0.000
1643279507295026176,2022-01-27-10:31:47,10.1.1.4,34,-0.139,-0.139,-0.139,0.000,0.000,0.000
1643279507482893056,2022-01-27-10:31:47,10.1.1.4,19,-0.130,-0.130,-0.130,0.000,0.000,0.000
1643279507703156992,2022-01-27-10:31:47,10.1.1.4,33,-0.119,-0.119,-0.119,0.000,0.000,0.000
1643279507899340032,2022-01-27-10:31:47,10.1.1.4,27,-0.110,-0.110,-0.110,0.000,0.000,0.000
1643279508104249856,2022-01-27-10:31:48,10.1.1.4,31,-0.100,-0.100,-0.100,0.000,0.000,0.000
1643279508301056000,2022-01-27-10:31:48,10.1.1.4,24,-0.090,-0.090,-0.090,0.000,0.000,0.000
1643279508496957184,2022-01-27-10:31:48,10.1.1.4,18,-0.080,-0.080,-0.080,0.000,0.000,0.000
1643279508715595008,2022-01-27-10:31:48,10.1.1.4,36,-0.069,-0.069,-0.069,0.000,0.000,0.000
1643279508894385152,2022-01-27-10:31:48,10.1.1.4,14,-0.060,-0.060,-0.060,0.000,0.000,0.000
1643279509114824960,2022-01-27-10:31:49,10.1.1.4,32,-0.049,-0.049,-0.049,0.000,0.000,0.000
1643279509314675968,2022-01-27-10:31:49,10.1.1.4,31,-0.039,-0.039,-0.039,0.000,0.000,0.000
1643279509516880896,2022-01-27-10:31:49,10.1.1.4,31,-0.029,-0.029,-0.029,0.000,0.000,0.000
1643279509716990976,2022-01-27-10:31:49,10.1.1.4,30,-0.019,-0.019,-0.019,0.000,0.000,0.000
1643279509915625984,2022-01-27-10:31:49,10.1.1.4,25,-0.010,-0.010,-0.010,0.000,0.000,0.000
1643279510095508224,2022-01-27-10:31:50,10.1.1.4,4,-0.000,-0.000,-0.000,0.000,0.000,0.000
1643279510317244160,2022-01-27-10:31:50,10.1.1.4,25,-0.011,-0.011,-0.011,0.000,0.000,0.000
1643279510537081856,2022-01-27-10:31:50,10.1.1.4,44,-0.021,-0.021,-0.021,0.000,0.000,0.000
1643279510717159936,2022-01-27-10:31:50,10.1.1.4,22,-0.030,-0.030,-0.030,0.000,0.000,0.000
1643279510936578048,2022-01-27-10:31:50,10.1.1.4,40,-0.041,-0.041,-0.041,0.000,0.000,0.000
1643279511136529920,2022-01-27-10:31:51,10.1.1.4,38,-0.051,-0.051,-0.051,0.000,0.000,0.000
1643279511335792128,2022-01-27-10:31:51,10.1.1.4,36,-0.061,-0.061,-0.061,0.000,0.000,0.000
1643279511516253952,2022-01-27-10:31:51,10.1.1.4,14,-0.070,-0.070,-0.070,0.000,0.000,0.000
1643279511736203008,2022-01-27-10:31:51,10.1.1.4,31,-0.081,-0.081,-0.081,0.000,0.000,0.000
1643279511938437888,2022-01-27-10:31:51,10.1.1.4,30,-0.091,-0.091,-0.091,0.000,0.000,0.000
1643279512135067904,2022-01-27-10:31:52,10.1.1.4,25,-0.101,-0.101,-0.101,0.000,0.000,0.000
1643279512335576064,2022-01-27-10:31:52,10.1.1.4,24,-0.110,-0.110,-0.110,0.000,0.000,0.000
1643279512536238080,2022-01-27-10:31:52,10.1.1.4,20,-0.120,-0.120,-0.120,0.000,0.000,0.000
1643279512756145920,2022-01-27-10:31:52,10.1.1.4,40,-0.131,-0.131,-0.131,0.000,0.000,0.000
1643279512938505984,2022-01-27-10:31:52,10.1.1.4,21,-0.140,-0.140,-0.140,0.000,0.000,0.000
1643279513143006976,2022-01-27-10:31:53,10.1.1.4,22,-0.150,-0.150,-0.150,0.000,0.000,0.000
1643279513356262912,2022-01-27-10:31:53,10.1.1.4,35,-0.161,-0.161,-0.161,0.000,0.000,0.000
1643279513557776896,2022-01-27-10:31:53,10.1.1.4,35,-0.171,-0.171,-0.171,0.000,0.000,0.000
1643279513758220800,2022-01-27-10:31:53,10.1.1.4,34,-0.181,-0.181,-0.181,0.000,0.000,0.000
1643279513958125056,2022-01-27-10:31:53,10.1.1.4,32,-0.191,-0.191,-0.191,0.000,0.000,0.000
1643279514157929984,2022-01-27-10:31:54,10.1.1.4,27,-0.201,-0.201,-0.201,0.000,0.000,0.000
1643279514375228928,2022-01-27-10:31:54,10.1.1.4,42,-0.211,-0.211,-0.211,0.000,0.000,0.000
1643279514555713024,2022-01-27-10:31:54,10.1.1.4,19,-0.220,-0.220,-0.220,0.000,0.000,0.000
1643279514776073984,2022-01-27-10:31:54,10.1.1.4,38,-0.231,-0.231,-0.231,0.000,0.000,0.000
1643279514958049024,2022-01-27-10:31:54,10.1.1.4,18,-0.240,-0.240,-0.240,0.000,0.000,0.000
1643279515176050944,2022-01-27-10:31:55,10.1.1.4,35,-0.251,-0.251,-0.251,0.000,0.000,0.000
1643279515375638016,2022-01-27-10:31:55,10.1.1.4,33,-0.261,-0.261,-0.261,0.000,0.000,0.000
1643279515579674112,2022-01-27-10:31:55,10.1.1.4,34,-0.271,-0.271,-0.271,0.000,0.000,0.000
1643279515776851968,2022-01-27-10:31:55,10.1.1.4,29,-0.281,-0.281,-0.281,0.000,0.000,0.000
1643279515981178112,2022-01-27-10:31:55,10.1.1.4,31,-0.291,-0.291,-0.291,0.000,0.000,0.000
1643279516175993856,2022-01-27-10:31:56,10.1.1.4,23,-0.300,-0.300,-0.300,0.000,0.000,0.000
1643279516376274944,2022-01-27-10:31:56,10.1.1.4,23,-0.310,-0.310,-0.310,0.000,0.000,0.000
1643279516596718080,2022-01-27-10:31:56,10.1.1.4,40,-0.321,-0.321,-0.321,0.000,0.000,0.000
1643279516774938112,2022-01-27-10:31:56,10.1.1.4,16,-0.330,-0.330,-0.330,0.000,0.000,0.000
1643279516996439040,2022-01-27-10:31:56,10.1.1.4,37,-0.341,-0.341,-0.341,0.000,0.000,0.000
1643279517179402240,2022-01-27-10:31:57,10.1.1.4,19,-0.350,-0.350,-0.350,0.000,0.000,0.000
1643279517376019968,2022-01-27-10:31:57,10.1.1.4,15,-0.360,-0.360,-0.360,0.000,0.000,0.000
1643279517594641920,2022-01-27-10:31:57,10.1.1.4,32,-0.371,-0.371,-0.371,0.000,0.000,0.000
1643279517794308864,2022-01-27-10:31:57,10.1.1.4,30,-0.381,-0.381,-0.381,0.000,0.000,0.000
1643279517996251136,2022-01-27-10:31:57,10.1.1.4,31,-0.391,-0.391,-0.391,0.000,0.000,0.000
1643279518195512064,2022-01-27-10:31:58,10.1.1.4,29,-0.401,-0.401,-0.401,0.000,0.000,0.000
1643279518394320128,2022-01-27-10:31:58,10.1.1.4,27,-0.411,-0.411,-0.411,0.000,0.000,0.000
1643279518598249984,2022-01-27-10:31:58,10.1.1.4,29,-0.421,-0.421,-0.421,0.000,0.000,0.000
1643279518816168960,2022-01-27-10:31:58,10.1.1.4,44,-0.431,-0.431,-0.431,0.000,0.000,0.000
1643279519000535040,2022-01-27-10:31:59,10.1.1.4,21,-0.440,-0.440,-0.440,0.000,0.000,0.000
1643279519216443136,2022-01-27-10:31:59,10.1.1.4,34,-0.451,-0.451,-0.451,0.000,0.000,0.000
1643279519420600064,2022-01-27-10:31:59,10.1.1.4,36,-0.461,-0.461,-0.461,0.000,0.000,0.000
1643279519629708032,2022-01-27-10:31:59,10.1.1.4,44,-0.471,-0.471,-0.471,0.000,0.000,0.000
1643279519820578048,2022-01-27-10:31:59,10.1.1.4,30,-0.481,-0.481,-0.481,0.000,0.000,0.000
1643279520002917888,2022-01-27-10:32:00,10.1.1.4,15,-0.490,-0.490,-0.490,0.000,0.000,0.000
1643279520222693888,2022-01-27-10:32:00,10.1.1.4,32,-0.480,-0.480,-0.480,0.000,0.000,0.000
1643279520437607168,2022-01-27-10:32:00,10.1.1.4,44,-0.469,-0.469,-0.469,0.000,0.000,0.000
1643279520636576000,2022-01-27-10:32:00,10.1.1.4,42,-0.459,-0.459,-0.459,0.000,0.000,0.000
1643279520820710912,2022-01-27-10:32:00,10.1.1.4,25,-0.450,-0.450,-0.450,0.000,0.000,0.000
1643279521017159936,2022-01-27-10:32:01,10.1.1.4,20,-0.440,-0.440,-0.440,0.000,0.000,0.000
1643279521237778944,2022-01-27-10:32:01,10.1.1.4,39,-0.429,-0.429,-0.429,0.000,0.000,0.000
1643279521436558848,2022-01-27-10:32:01,10.1.1.4,36,-0.419,-0.419,-0.419,0.000,0.000,0.000
1643279521635948800,2022-01-27-10:32:01,10.1.1.4,32,-0.409,-0.409,-0.409,0.000,0.000,0.000
1643279521840955904,2022-01-27-10:32:01,10.1.1.4,36,-0.399,-0.399,-0.399,0.000,0.000,0.000
1643279522038393856,2022-01-27-10:32:02,10.1.1.4,30,-0.389,-0.389,-0.389,0.000,0.000,0.000
1643279522235488000,2022-01-27-10:32:02,10.1.1.4,27,-0.379,-0.379,-0.379,0.000,0.000,0.000
1643279522459510016,2022-01-27-10:32:02,10.1.1.4,48,-0.369,-0.369,-0.369,0.000,0.000,0.000
1643279522662435072,2022-01-27-10:32:02,10.1.1.4,48,-0.359,-0.359,-0.359,0.000,0.000,0.000
1643279522838493952,2022-01-27-10:32:02,10.1.1.4,23,-0.350,-0.350,-0.350,0.000,0.000,0.000
1643279523060889088,2022-01-27-10:32:03,10.1.1.4,45,-0.339,-0.339,-0.339,0.000,0.000,0.000
1643279523236088064,2022-01-27-10:32:03,10.1.1.4,19,-0.330,-0.330,-0.330,0.000,0.000,0.000
1643279523461838848,2022-01-27-10:32:03,10.1.1.4,42,-0.319,-0.319,-0.319,0.000,0.000,0.000
1643279523634525184,2022-01-27-10:32:03,10.1.1.4,15,-0.310,-0.310,-0.310,0.000,0.000,0.000
1643279523856504832,2022-01-27-10:32:03,10.1.1.4,33,-0.300,-0.300,-0.300,0.000,0.000,0.000
1643279524055560960,2022-01-27-10:32:04,10.1.1.4,29,-0.289,-0.289,-0.289,0.000,0.000,0.000
1643279524257024000,2022-01-27-10:32:04,10.1.1.4,28,-0.279,-0.279,-0.279,0.000,0.000,0.000
1643279524456232960,2022-01-27-10:32:04,10.1.1.4,25,-0.269,-0.269,-0.269,0.000,0.000,0.000
1643279524657124096,2022-01-27-10:32:04,10.1.1.4,25,-0.260,-0.260,-0.260,0.000,0.000,0.000
1643279524856986112,2022-01-27-10:32:04,10.1.1.4,23,-0.250,-0.250,-0.250,0.000,0.000,0.000
1643279525058374912,2022-01-27-10:32:05,10.1.1.4,22,-0.240,-0.240,-0.240,0.000,0.000,0.000
1643279525276515840,2022-01-27-10:32:05,10.1.1.4,39,-0.229,-0.229,-0.229,0.000,0.000,0.000
1643279525478155008,2022-01-27-10:32:05,10.1.1.4,39,-0.219,-0.219,-0.219,0.000,0.000,0.000
1643279525678931968,2022-01-27-10:32:05,10.1.1.4,40,-0.209,-0.209,-0.209,0.000,0.000,0.000
1643279525859904000,2022-01-27-10:32:05,10.1.1.4,20,-0.200,-0.200,-0.200,0.000,0.000,0.000
1643279526060261888,2022-01-27-10:32:06,10.1.1.4,18,-0.190,-0.190,-0.190,0.000,0.000,0.000
1643279526280581888,2022-01-27-10:32:06,10.1.1.4,39,-0.179,-0.179,-0.179,0.000,0.000,0.000
1643279526479838976,2022-01-27-10:32:06,10.1.1.4,37,-0.169,-0.169,-0.169,0.000,0.000,0.000
1643279526682387968,2022-01-27-10:32:06,10.1.1.4,38,-0.159,-0.159,-0.159,0.000,0.000,0.000
1643279526885200896,2022-01-27-10:32:06,10.1.1.4,37,-0.149,-0.149,-0.149,0.000,0.000,0.000
1643279527081027072,2022-01-27-10:32:07,10.1.1.4,29,-0.140,-0.140,-0.140,0.000,0.000,0.000
1643279527276019968,2022-01-27-10:32:07,10.1.1.4,23,-0.130,-0.130,-0.130,0.000,0.000,0.000
1643279527480064000,2022-01-27-10:32:07,10.1.1.4,25,-0.120,-0.120,-0.120,0.000,0.000,0.000
1643279527675453952,2022-01-27-10:32:07,10.1.1.4,19,-0.110,-0.110,-0.110,0.000,0.000,0.000
1643279527876027136,2022-01-27-10:32:07,10.1.1.4,18,-0.100,-0.100,-0.100,0.000,0.000,0.000
1643279528077645056,2022-01-27-10:32:08,10.1.1.4,18,-0.090,-0.090,-0.090,0.000,0.000,0.000
1643279528279436032,2022-01-27-10:32:08,10.1.1.4,20,-0.080,-0.080,-0.080,0.000,0.000,0.000
1643279528500087040,2022-01-27-10:32:08,10.1.1.4,39,-0.069,-0.069,-0.069,0.000,0.000,0.000
1643279528695585024,2022-01-27-10:32:08,10.1.1.4,33,-0.059,-0.059,-0.059,0.000,0.000,0.000
1643279528896235008,2022-01-27-10:32:08,10.1.1.4,32,-0.049,-0.049,-0.049,0.000,0.000,0.000
1643279529097467904,2022-01-27-10:32:09,10.1.1.4,33,-0.039,-0.039,-0.039,0.000,0.000,0.000
1643279529295510016,2022-01-27-10:32:09,10.1.1.4,27,-0.029,-0.029,-0.029,0.000,0.000,0.000
1643279529496748032,2022-01-27-10:32:09,10.1.1.4,28,-0.020,-0.020,-0.020,0.000,0.000,0.000
1643279529699554816,2022-01-27-10:32:09,10.1.1.4,29,-0.009,-0.009,-0.009,0.000,0.000,0.000
1643279529883531008,2022-01-27-10:32:09,10.1.1.4,11,-0.000,-0.000,-0.000,0.000,0.000,0.000
1643279530118994944,2022-01-27-10:32:10,10.1.1.4,41,-0.011,-0.011,-0.011,0.000,0.000,0.000
1643279530318420992,2022-01-27-10:32:10,10.1.1.4,40,-0.021,-0.021,-0.021,0.000,0.000,0.000
1643279530514995968,2022-01-27-10:32:10,10.1.1.4,36,-0.031,-0.031,-0.031,0.000,0.000,0.000
1643279530716156928,2022-01-27-10:32:10,10.1.1.4,36,-0.041,-0.041,-0.041,0.000,0.000,0.000
1643279530914569984,2022-01-27-10:32:10,10.1.1.4,32,-0.050,-0.050,-0.050,0.000,0.000,0.000
1643279531117038848,2022-01-27-10:32:11,10.1.1.4,34,-0.061,-0.061,-0.061,0.000,0.000,0.000
1643279531319715072,2022-01-27-10:32:11,10.1.1.4,34,-0.071,-0.071,-0.071,0.000,0.000,0.000
1643279531515821056,2022-01-27-10:32:11,10.1.1.4,28,-0.080,-0.080,-0.080,0.000,0.000,0.000
1643279531717929984,2022-01-27-10:32:11,10.1.1.4,25,-0.090,-0.090,-0.090,0.000,0.000,0.000
1643279531916003072,2022-01-27-10:32:11,10.1.1.4,22,-0.100,-0.100,-0.100,0.000,0.000,0.000
1643279532115462144,2022-01-27-10:32:12,10.1.1.4,18,-0.110,-0.110,-0.110,0.000,0.000,0.000
1643279532316278016,2022-01-27-10:32:12,10.1.1.4,17,-0.120,-0.120,-0.120,0.000,0.000,0.000
1643279532516385024,2022-01-27-10:32:12,10.1.1.4,16,-0.130,-0.130,-0.130,0.000,0.000,0.000
1643279532735944960,2022-01-27-10:32:12,10.1.1.4,34,-0.141,-0.141,-0.141,0.000,0.000,0.000
1643279532935175936,2022-01-27-10:32:12,10.1.1.4,31,-0.151,-0.151,-0.151,0.000,0.000,0.000
1643279533135056896,2022-01-27-10:32:13,10.1.1.4,30,-0.161,-0.161,-0.161,0.000,0.000,0.000
1643279533335522048,2022-01-27-10:32:13,10.1.1.4,28,-0.170,-0.170,-0.170,0.000,0.000,0.000
1643279533536801024,2022-01-27-10:32:13,10.1.1.4,28,-0.181,-0.181,-0.181,0.000,0.000,0.000
1643279533759098880,2022-01-27-10:32:13,10.1.1.4,42,-0.191,-0.191,-0.191,0.000,0.000,0.000
1643279533959991808,2022-01-27-10:32:13,10.1.1.4,41,-0.201,-0.201,-0.201,0.000,0.000,0.000
1643279534164220160,2022-01-27-10:32:14,10.1.1.4,35,-0.211,-0.211,-0.211,0.000,0.000,0.000
1643279534375655936,2022-01-27-10:32:14,10.1.1.4,44,-0.221,-0.221,-0.221,0.000,0.000,0.000
1643279534578461952,2022-01-27-10:32:14,10.1.1.4,46,-0.231,-0.231,-0.231,0.000,0.000,0.000
1643279534775719936,2022-01-27-10:32:14,10.1.1.4,38,-0.241,-0.241,-0.241,0.000,0.000,0.000
1643279534976617984,2022-01-27-10:32:14,10.1.1.4,38,-0.251,-0.251,-0.251,0.000,0.000,0.000
1643279535175183104,2022-01-27-10:32:15,10.1.1.4,32,-0.261,-0.261,-0.261,0.000,0.000,0.000
1643279535395004160,2022-01-27-10:32:15,10.1.1.4,44,-0.271,-0.271,-0.271,0.000,0.000,0.000
1643279535577990912,2022-01-27-10:32:15,10.1.1.4,26,-0.280,-0.280,-0.280,0.000,0.000,0.000
1643279535797708032,2022-01-27-10:32:15,10.1.1.4,40,-0.291,-0.291,-0.291,0.000,0.000,0.000
1643279535999778048,2022-01-27-10:32:15,10.1.1.4,38,-0.301,-0.301,-0.301,0.000,0.000,0.000
1643279536199793152,2022-01-27-10:32:16,10.1.1.4,37,-0.311,-0.311,-0.311,0.000,0.000,0.000
1643279536395059200,2022-01-27-10:32:16,10.1.1.4,28,-0.321,-0.321,-0.321,0.000,0.000,0.000
1643279536599726848,2022-01-27-10:32:16,10.1.1.4,21,-0.330,-0.330,-0.330,0.000,0.000,0.000
1643279536794593024,2022-01-27-10:32:16,10.1.1.4,14,-0.340,-0.340,-0.340,0.000,0.000,0.000
1643279537017031936,2022-01-27-10:32:17,10.1.1.4,36,-0.351,-0.351,-0.351,0.000,0.000,0.000
1643279537219592192,2022-01-27-10:32:17,10.1.1.4,31,-0.361,-0.361,-0.361,0.000,0.000,0.000
1643279537415394048,2022-01-27-10:32:17,10.1.1.4,26,-0.370,-0.370,-0.370,0.000,0.000,0.000
1643279537615904000,2022-01-27-10:32:17,10.1.1.4,25,-0.380,-0.380,-0.380,0.000,0.000,0.000
1643279537837133056,2022-01-27-10:32:17,10.1.1.4,42,-0.391,-0.391,-0.391,0.000,0.000,0.000
1643279538034871040,2022-01-27-10:32:18,10.1.1.4,36,-0.401,-0.401,-0.401,0.000,0.000,0.000
1643279538215246080,2022-01-27-10:32:18,10.1.1.4,15,-0.410,-0.410,-0.410,0.000,0.000,0.000
1643279538437947136,2022-01-27-10:32:18,10.1.1.4,34,-0.421,-0.421,-0.421,0.000,0.000,0.000
1643279538634611968,2022-01-27-10:32:18,10.1.1.4,30,-0.431,-0.431,-0.431,0.000,0.000,0.000
1643279538838427904,2022-01-27-10:32:18,10.1.1.4,27,-0.441,-0.441,-0.441,0.000,0.000,0.000
1643279539054536192,2022-01-27-10:32:19,10.1.1.4,42,-0.451,-0.451,-0.451,0.000,0.000,0.000
1643279539235958016,2022-01-27-10:32:19,10.1.1.4,23,-0.460,-0.460,-0.460,0.000,0.000,0.000
1643279539435013888,2022-01-27-10:32:19,10.1.1.4,16,-0.470,-0.470,-0.470,0.000,0.000,0.000
1643279539655643904,2022-01-27-10:32:19,10.1.1.4,35,-0.481,-0.481,-0.481,0.000,0.000,0.000
1643279539855360000,2022-01-27-10:32:19,10.1.1.4,31,-0.489,-0.489,-0.489,0.000,0.000,0.000
1643279540055210240,2022-01-27-10:32:20,10.1.1.4,30,-0.479,-0.479,-0.479,0.000,0.000,0.000
1643279540254406912,2022-01-27-10:32:20,10.1.1.4,28,-0.469,-0.469,-0.469,0.000,0.000,0.000
1643279540459294976,2022-01-27-10:32:20,10.1.1.4,30,-0.459,-0.459,-0.459,0.000,0.000,0.000
1643279540657380096,2022-01-27-10:32:20,10.1.1.4,26,-0.449,-0.449,-0.449,0.000,0.000,0.000
1643279540880892160,2022-01-27-10:32:20,10.1.1.4,49,-0.439,-0.439,-0.439,0.000,0.000,0.000
1643279541056611072,2022-01-27-10:32:21,10.1.1.4,24,-0.430,-0.430,-0.430,0.000,0.000,0.000
1643279541257622016,2022-01-27-10:32:21,10.1.1.4,21,-0.420,-0.420,-0.420,0.000,0.000,0.000
1643279541461059072,2022-01-27-10:32:21,10.1.1.4,20,-0.410,-0.410,-0.410,0.000,0.000,0.000
1643279541678525952,2022-01-27-10:32:21,10.1.1.4,38,-0.399,-0.399,-0.399,0.000,0.000,0.000
1643279541880600064,2022-01-27-10:32:21,10.1.1.4,36,-0.389,-0.389,-0.389,0.000,0.000,0.000
1643279542077189888,2022-01-27-10:32:22,10.1.1.4,29,-0.379,-0.379,-0.379,0.000,0.000,0.000
1643279542297418240,2022-01-27-10:32:22,10.1.1.4,44,-0.369,-0.369,-0.369,0.000,0.000,0.000
1643279542495378944,2022-01-27-10:32:22,10.1.1.4,39,-0.359,-0.359,-0.359,0.000,0.000,0.000
1643279542696039936,2022-01-27-10:32:22,10.1.1.4,39,-0.349,-0.349,-0.349,0.000,0.000,0.000
1643279542896222976,2022-01-27-10:32:22,10.1.1.4,37,-0.339,-0.339,-0.339,0.000,0.000,0.000
1643279543077460992,2022-01-27-10:32:23,10.1.1.4,17,-0.330,-0.330,-0.330,0.000,0.000,0.000
1643279543295355136,2022-01-27-10:32:23,10.1.1.4,34,-0.319,-0.319,-0.319,0.000,0.000,0.000
1643279543495793152,2022-01-27-10:32:23,10.1.1.4,33,-0.309,-0.309,-0.309,0.000,0.000,0.000
1643279543695826176,2022-01-27-10:32:23,10.1.1.4,25,-0.299,-0.299,-0.299,0.000,0.000,0.000
1643279543915721984,2022-01-27-10:32:23,10.1.1.4,44,-0.289,-0.289,-0.289,0.000,0.000,0.000
1643279544116173056,2022-01-27-10:32:24,10.1.1.4,35,-0.279,-0.279,-0.279,0.000,0.000,0.000
1643279544314765824,2022-01-27-10:32:24,10.1.1.4,30,-0.269,-0.269,-0.269,0.000,0.000,0.000
1643279544514926848,2022-01-27-10:32:24,10.1.1.4,29,-0.259,-0.259,-0.259,0.000,0.000,0.000
1643279544720602112,2022-01-27-10:32:24,10.1.1.4,31,-0.249,-0.249,-0.249,0.000,0.000,0.000
1643279544916241920,2022-01-27-10:32:24,10.1.1.4,26,-0.239,-0.239,-0.239,0.000,0.000,0.000
1643279545116499968,2022-01-27-10:32:25,10.1.1.4,25,-0.230,-0.230,-0.230,0.000,0.000,0.000
1643279545316438016,2022-01-27-10:32:25,10.1.1.4,17,-0.220,-0.220,-0.220,0.000,0.000,0.000
1643279545516350976,2022-01-27-10:32:25,10.1.1.4,15,-0.210,-0.210,-0.210,0.000,0.000,0.000
1643279545741182976,2022-01-27-10:32:25,10.1.1.4,37,-0.199,-0.199,-0.199,0.000,0.000,0.000
1643279545937204992,2022-01-27-10:32:25,10.1.1.4,34,-0.189,-0.189,-0.189,0.000,0.000,0.000
1643279546138147072,2022-01-27-10:32:26,10.1.1.4,33,-0.179,-0.179,-0.179,0.000,0.000,0.000
1643279546335619072,2022-01-27-10:32:26,10.1.1.4,29,-0.169,-0.169,-0.169,0.000,0.000,0.000
1643279546536314880,2022-01-27-10:32:26,10.1.1.4,28,-0.160,-0.160,-0.160,0.000,0.000,0.000
1643279546737634048,2022-01-27-10:32:26,10.1.1.4,29,-0.149,-0.149,-0.149,0.000,0.000,0.000
1643279546956132864,2022-01-27-10:32:26,10.1.1.4,44,-0.139,-0.139,-0.139,0.000,0.000,0.000
1643279547135495936,2022-01-27-10:32:27,10.1.1.4,23,-0.130,-0.130,-0.130,0.000,0.000,0.000
1643279547335858944,2022-01-27-10:32:27,10.1.1.4,20,-0.120,-0.120,-0.120,0.000,0.000,0.000
1643279547541611008,2022-01-27-10:32:27,10.1.1.4,24,-0.110,-0.110,-0.110,0.000,0.000,0.000
1643279547736331008,2022-01-27-10:32:27,10.1.1.4,18,-0.100,-0.100,-0.100,0.000,0.000,0.000
1643279547938749184,2022-01-27-10:32:27,10.1.1.4,20,-0.090,-0.090,-0.090,0.000,0.000,0.000
1643279548147369984,2022-01-27-10:32:28,10.1.1.4,24,-0.080,-0.080,-0.080,0.000,0.000,0.000
1643279548358309120,2022-01-27-10:32:28,10.1.1.4,37,-0.069,-0.069,-0.069,0.000,0.000,0.000
1643279548557362944,2022-01-27-10:32:28,10.1.1.4,32,-0.059,-0.059,-0.059,0.000,0.000,0.000
1643279548760171008,2022-01-27-10:32:28,10.1.1.4,34,-0.049,-0.049,-0.049,0.000,0.000,0.000
1643279548962451968,2022-01-27-10:32:28,10.1.1.4,30,-0.040,-0.040,-0.040,0.000,0.000,0.000
1643279549161047808,2022-01-27-10:32:29,10.1.1.4,23,-0.030,-0.030,-0.030,0.000,0.000,0.000
1643279549377662976,2022-01-27-10:32:29,10.1.1.4,38,-0.019,-0.019,-0.019,0.000,0.000,0.000
1643279549576174848,2022-01-27-10:32:29,10.1.1.4,36,-0.009,-0.009,-0.009,0.000,0.000,0.000
1643279549778985984,2022-01-27-10:32:29,10.1.1.4,37,-0.001,-0.001,-0.001,0.000,0.000,0.000
1643279549985413120,2022-01-27-10:32:29,10.1.1.4,41,-0.011,-0.011,-0.011,0.000,0.000,0.000
1643279550175434240,2022-01-27-10:32:30,10.1.1.4,31,-0.021,-0.021,-0.021,0.000,0.000,0.000
1643279550376713984,2022-01-27-10:32:30,10.1.1.4,31,-0.031,-0.031,-0.031,0.000,0.000,0.000
1643279550577882880,2022-01-27-10:32:30,10.1.1.4,32,-0.041,-0.041,-0.041,0.000,0.000,0.000
1643279550776359168,2022-01-27-10:32:30,10.1.1.4,28,-0.051,-0.051,-0.051,0.000,0.000,0.000
1643279550975991040,2022-01-27-10:32:30,10.1.1.4,26,-0.061,-0.061,-0.061,0.000,0.000,0.000
1643279551175322112,2022-01-27-10:32:31,10.1.1.4,23,-0.070,-0.070,-0.070,0.000,0.000,0.000
1643279551375930112,2022-01-27-10:32:31,10.1.1.4,22,-0.080,-0.080,-0.080,0.000,0.000,0.000
1643279551577325056,2022-01-27-10:32:31,10.1.1.4,21,-0.090,-0.090,-0.090,0.000,0.000,0.000
1643279551776529920,2022-01-27-10:32:31,10.1.1.4,9,-0.100,-0.100,-0.100,0.000,0.000,0.000
1643279551994990080,2022-01-27-10:32:31,10.1.1.4,26,-0.111,-0.111,-0.111,0.000,0.000,0.000
1643279552201970176,2022-01-27-10:32:32,10.1.1.4,31,-0.120,-0.120,-0.120,0.000,0.000,0.000
1643279552419401984,2022-01-27-10:32:32,10.1.1.4,46,-0.131,-0.131,-0.131,0.000,0.000,0.000
1643279552617764864,2022-01-27-10:32:32,10.1.1.4,39,-0.141,-0.141,-0.141,0.000,0.000,0.000
1643279552795414016,2022-01-27-10:32:32,10.1.1.4,15,-0.150,-0.150,-0.150,0.000,0.000,0.000
1643279553016158208,2022-01-27-10:32:33,10.1.1.4,35,-0.161,-0.161,-0.161,0.000,0.000,0.000
1643279553218558976,2022-01-27-10:32:33,10.1.1.4,36,-0.171,-0.171,-0.171,0.000,0.000,0.000
1643279553417298176,2022-01-27-10:32:33,10.1.1.4,32,-0.181,-0.181,-0.181,0.000,0.000,0.000
1643279553616763136,2022-01-27-10:32:33,10.1.1.4,29,-0.191,-0.191,-0.191,0.000,0.000,0.000
1643279553821545984,2022-01-27-10:32:33,10.1.1.4,33,-0.201,-0.201,-0.201,0.000,0.000,0.000
1643279554017340928,2022-01-27-10:32:34,10.1.1.4,26,-0.210,-0.210,-0.210,0.000,0.000,0.000
1643279554240488960,2022-01-27-10:32:34,10.1.1.4,46,-0.221,-0.221,-0.221,0.000,0.000,0.000
1643279554437148928,2022-01-27-10:32:34,10.1.1.4,38,-0.231,-0.231,-0.231,0.000,0.000,0.000
1643279554613929984,2022-01-27-10:32:34,10.1.1.4,14,-0.240,-0.240,-0.240,0.000,0.000,0.000
1643279554834650880,2022-01-27-10:32:34,10.1.1.4,33,-0.251,-0.251,-0.251,0.000,0.000,0.000
1643279555036033024,2022-01-27-10:32:35,10.1.1.4,33,-0.261,-0.261,-0.261,0.000,0.000,0.000
1643279555234853888,2022-01-27-10:32:35,10.1.1.4,30,-0.271,-0.271,-0.271,0.000,0.000,0.000
1643279555436070912,2022-01-27-10:32:35,10.1.1.4,28,-0.281,-0.281,-0.281,0.000,0.000,0.000
1643279555635073792,2022-01-27-10:32:35,10.1.1.4,26,-0.291,-0.291,-0.291,0.000,0.000,0.000
1643279555834800896,2022-01-27-10:32:35,10.1.1.4,21,-0.300,-0.300,-0.300,0.000,0.000,0.000
1643279556035554816,2022-01-27-10:32:36,10.1.1.4,20,-0.310,-0.310,-0.310,0.000,0.000,0.000
1643279556217725952,2022-01-27-10:32:36,10.1.1.4,-3,-0.319,-0.319,-0.319,0.000,0.000,0.000
1643279556434784768,2022-01-27-10:32:36,10.1.1.4,16,-0.330,-0.330,-0.330,0.000,0.000,0.000
1643279556636833792,2022-01-27-10:32:36,10.1.1.4,16,-0.340,-0.340,-0.340,0.000,0.000,0.000
1643279556858156032,2022-01-27-10:32:36,10.1.1.4,34,-0.351,-0.351,-0.351,0.000,0.000,0.000
1643279557056126976,2022-01-27-10:32:37,10.1.1.4,30,-0.361,-0.361,-0.361,0.000,0.000,0.000
1643279557255130880,2022-01-27-10:32:37,10.1.1.4,25,-0.371,-0.371,-0.371,0.000,0.000,0.000
1643279557458492928,2022-01-27-10:32:37,10.1.1.4,27,-0.380,-0.380,-0.380,0.000,0.000,0.000
1643279557654851840,2022-01-27-10:32:37,10.1.1.4,18,-0.390,-0.390,-0.390,0.000,0.000,0.000
1643279557876833024,2022-01-27-10:32:37,10.1.1.4,39,-0.401,-0.401,-0.401,0.000,0.000,0.000
1643279558080139008,2022-01-27-10:32:38,10.1.1.4,42,-0.411,-0.411,-0.411,0.000,0.000,0.000
1643279558279601152,2022-01-27-10:32:38,10.1.1.4,37,-0.421,-0.421,-0.421,0.000,0.000,0.000
1643279558478669824,2022-01-27-10:32:38,10.1.1.4,35,-0.431,-0.431,-0.431,0.000,0.000,0.000
1643279558677186048,2022-01-27-10:32:38,10.1.1.4,31,-0.441,-0.441,-0.441,0.000,0.000,0.000
1643279558879024128,2022-01-27-10:32:38,10.1.1.4,30,-0.451,-0.451,-0.451,0.000,0.000,0.000
1643279559076653056,2022-01-27-10:32:39,10.1.1.4,22,-0.460,-0.460,-0.460,0.000,0.000,0.000
1643279559275706112,2022-01-27-10:32:39,10.1.1.4,19,-0.470,-0.470,-0.470,0.000,0.000,0.000
1643279559499751936,2022-01-27-10:32:39,10.1.1.4,37,-0.481,-0.481,-0.481,0.000,0.000,0.000
1643279559679879936,2022-01-27-10:32:39,10.1.1.4,12,-0.490,-0.490,-0.490,0.000,0.000,0.000
1643279559895945984,2022-01-27-10:32:39,10.1.1.4,27,-0.479,-0.479,-0.479,0.000,0.000,0.000
1643279560094801920,2022-01-27-10:32:40,10.1.1.4,24,-0.469,-0.469,-0.469,0.000,0.000,0.000
1643279560295454976,2022-01-27-10:32:40,10.1.1.4,22,-0.460,-0.460,-0.460,0.000,0.000,0.000
1643279560516984832,2022-01-27-10:32:40,10.1.1.4,37,-0.449,-0.449,-0.449,0.000,0.000,0.000
1643279560694030080,2022-01-27-10:32:40,10.1.1.4,13,-0.440,-0.440,-0.440,0.000,0.000,0.000
1643279560914087168,2022-01-27-10:32:40,10.1.1.4,32,-0.429,-0.429,-0.429,0.000,0.000,0.000
1643279561115514112,2022-01-27-10:32:41,10.1.1.4,31,-0.420,-0.420,-0.420,0.000,0.000,0.000
1643279561314994944,2022-01-27-10:32:41,10.1.1.4,28,-0.409,-0.409,-0.409,0.000,0.000,0.000
1643279561514998016,2022-01-27-10:32:41,10.1.1.4,26,-0.399,-0.399,-0.399,0.000,0.000,0.000
1643279561734298880,2022-01-27-10:32:41,10.1.1.4,41,-0.389,-0.389,-0.389,0.000,0.000,0.000
1643279561915517952,2022-01-27-10:32:41,10.1.1.4,22,-0.380,-0.380,-0.380,0.000,0.000,0.000
1643279562135078912,2022-01-27-10:32:42,10.1.1.4,38,-0.369,-0.369,-0.369,0.000,0.000,0.000
1643279562315289088,2022-01-27-10:32:42,10.1.1.4,16,-0.360,-0.360,-0.360,0.000,0.000,0.000
1643279562536290816,2022-01-27-10:32:42,10.1.1.4,35,-0.349,-0.349,-0.349,0.000,0.000,0.000
1643279562737564160,2022-01-27-10:32:42,10.1.1.4,34,-0.339,-0.339,-0.339,0.000,0.000,0.000
1643279562935739136,2022-01-27-10:32:42,10.1.1.4,31,-0.329,-0.329,-0.329,0.000,0.000,0.000
1643279563134552064,2022-01-27-10:32:43,10.1.1.4,28,-0.319,-0.319,-0.319,0.000,0.000,0.000
1643279563336952064,2022-01-27-10:32:43,10.1.1.4,26,-0.310,-0.310,-0.310,0.000,0.000,0.000
1643279563535700992,2022-01-27-10:32:43,10.1.1.4,19,-0.300,-0.300,-0.300,0.000,0.000,0.000
1643279563755490048,2022-01-27-10:32:43,10.1.1.4,38,-0.289,-0.289,-0.289,0.000,0.000,0.000
1643279563935985152,2022-01-27-10:32:43,10.1.1.4,17,-0.280,-0.280,-0.280,0.000,0.000,0.000
1643279564156801024,2022-01-27-10:32:44,10.1.1.4,37,-0.269,-0.269,-0.269,0.000,0.000,0.000
1643279564355556864,2022-01-27-10:32:44,10.1.1.4,35,-0.259,-0.259,-0.259,0.000,0.000,0.000
1643279564555856896,2022-01-27-10:32:44,10.1.1.4,32,-0.249,-0.249,-0.249,0.000,0.000,0.000
1643279564755162112,2022-01-27-10:32:44,10.1.1.4,31,-0.239,-0.239,-0.239,0.000,0.000,0.000
1643279564956846080,2022-01-27-10:32:44,10.1.1.4,30,-0.229,-0.229,-0.229,0.000,0.000,0.000
1643279565156709888,2022-01-27-10:32:45,10.1.1.4,29,-0.219,-0.219,-0.219,0.000,0.000,0.000
1643279565359636992,2022-01-27-10:32:45,10.1.1.4,31,-0.209,-0.209,-0.209,0.000,0.000,0.000
1643279565558471936,2022-01-27-10:32:45,10.1.1.4,29,-0.199,-0.199,-0.199,0.000,0.000,0.000
1643279565756418048,2022-01-27-10:32:45,10.1.1.4,26,-0.190,-0.190,-0.190,0.000,0.000,0.000
1643279565980003072,2022-01-27-10:32:45,10.1.1.4,47,-0.179,-0.179,-0.179,0.000,0.000,0.000
1643279566180425984,2022-01-27-10:32:46,10.1.1.4,46,-0.169,-0.169,-0.169,0.000,0.000,0.000
1643279566355021056,2022-01-27-10:32:46,10.1.1.4,15,-0.160,-0.160,-0.160,0.000,0.000,0.000
1643279566579731968,2022-01-27-10:32:46,10.1.1.4,38,-0.149,-0.149,-0.149,0.000,0.000,0.000
1643279566776829952,2022-01-27-10:32:46,10.1.1.4,33,-0.139,-0.139,-0.139,0.000,0.000,0.000
1643279566974960128,2022-01-27-10:32:46,10.1.1.4,29,-0.129,-0.129,-0.129,0.000,0.000,0.000
1643279567176140032,2022-01-27-10:32:47,10.1.1.4,29,-0.119,-0.119,-0.119,0.000,0.000,0.000
1643279567376150016,2022-01-27-10:32:47,10.1.1.4,27,-0.109,-0.109,-0.109,0.000,0.000,0.000
1643279567575717888,2022-01-27-10:32:47,10.1.1.4,20,-0.100,-0.100,-0.100,0.000,0.000,0.000
1643279567776196864,2022-01-27-10:32:47,10.1.1.4,18,-0.090,-0.090,-0.090,0.000,0.000,0.000
1643279567975223040,2022-01-27-10:32:47,10.1.1.4,16,-0.080,-0.080,-0.080,0.000,0.000,0.000
1643279568197905152,2022-01-27-10:32:48,10.1.1.4,38,-0.069,-0.069,-0.069,0.000,0.000,0.000
1643279568396868864,2022-01-27-10:32:48,10.1.1.4,35,-0.059,-0.059,-0.059,0.000,0.000,0.000
1643279568597424896,2022-01-27-10:32:48,10.1.1.4,29,-0.049,-0.049,-0.049,0.000,0.000,0.000
1643279568799729152,2022-01-27-10:32:48,10.1.1.4,26,-0.040,-0.040,-0.040,0.000,0.000,0.000
1643279569014828032,2022-01-27-10:32:49,10.1.1.4,39,-0.029,-0.029,-0.029,0.000,0.000,0.000
1643279569197627904,2022-01-27-10:32:49,10.1.1.4,21,-0.020,-0.020,-0.020,0.000,0.000,0.000
1643279569416655104,2022-01-27-10:32:49,10.1.1.4,37,-0.009,-0.009,-0.009,0.000,0.000,0.000
1643279569616101120,2022-01-27-10:32:49,10.1.1.4,36,-0.001,-0.001,-0.001,0.000,0.000,0.000
1643279569817154048,2022-01-27-10:32:49,10.1.1.4,33,-0.011,-0.011,-0.011,0.000,0.000,0.000
1643279570017488128,2022-01-27-10:32:50,10.1.1.4,32,-0.021,-0.021,-0.021,0.000,0.000,0.000
1643279570217726976,2022-01-27-10:32:50,10.1.1.4,31,-0.031,-0.031,-0.031,0.000,0.000,0.000
1643279570417839104,2022-01-27-10:32:50,10.1.1.4,30,-0.041,-0.041,-0.041,0.000,0.000,0.000
1643279570616103936,2022-01-27-10:32:50,10.1.1.4,27,-0.051,-0.051,-0.051,0.000,0.000,0.000
1643279570816574976,2022-01-27-10:32:50,10.1.1.4,24,-0.060,-0.060,-0.060,0.000,0.000,0.000
1643279571015291904,2022-01-27-10:32:51,10.1.1.4,21,-0.070,-0.070,-0.070,0.000,0.000,0.000
1643279571216025088,2022-01-27-10:32:51,10.1.1.4,19,-0.080,-0.080,-0.080,0.000,0.000,0.000
1643279571419208960,2022-01-27-10:32:51,10.1.1.4,19,-0.090,-0.090,-0.090,0.000,0.000,0.000
1643279571621336064,2022-01-27-10:32:51,10.1.1.4,20,-0.100,-0.100,-0.100,0.000,0.000,0.000
1643279571820347136,2022-01-27-10:32:51,10.1.1.4,17,-0.110,-0.110,-0.110,0.000,0.000,0.000
1643279572034265088,2022-01-27-10:32:52,10.1.1.4,30,-0.121,-0.121,-0.121,0.000,0.000,0.000
1643279572235165184,2022-01-27-10:32:52,10.1.1.4,30,-0.131,-0.131,-0.131,0.000,0.000,0.000
1643279572433958144,2022-01-27-10:32:52,10.1.1.4,28,-0.141,-0.141,-0.141,0.000,0.000,0.000
1643279572634254848,2022-01-27-10:32:52,10.1.1.4,27,-0.150,-0.150,-0.150,0.000,0.000,0.000
1643279572834780928,2022-01-27-10:32:52,10.1.1.4,23,-0.160,-0.160,-0.160,0.000,0.000,0.000
1643279573037182208,2022-01-27-10:32:53,10.1.1.4,22,-0.170,-0.170,-0.170,0.000,0.000,0.000
1643279573234806016,2022-01-27-10:32:53,10.1.1.4,18,-0.180,-0.180,-0.180,0.000,0.000,0.000
1643279573436201984,2022-01-27-10:32:53,10.1.1.4,15,-0.190,-0.190,-0.190,0.000,0.000,0.000
1643279573655081984,2022-01-27-10:32:53,10.1.1.4,33,-0.201,-0.201,-0.201,0.000,0.000,0.000
1643279573855206912,2022-01-27-10:32:53,10.1.1.4,31,-0.211,-0.211,-0.211,0.000,0.000,0.000
1643279574055467008,2022-01-27-10:32:54,10.1.1.4,25,-0.220,-0.220,-0.220,0.000,0.000,0.000
1643279574275240960,2022-01-27-10:32:54,10.1.1.4,43,-0.231,-0.231,-0.231,0.000,0.000,0.000
1643279574474472960,2022-01-27-10:32:54,10.1.1.4,42,-0.241,-0.241,-0.241,0.000,0.000,0.000
1643279574655337984,2022-01-27-10:32:54,10.1.1.4,22,-0.250,-0.250,-0.250,0.000,0.000,0.000
1643279574856973056,2022-01-27-10:32:54,10.1.1.4,22,-0.260,-0.260,-0.260,0.000,0.000,0.000
1643279575058556928,2022-01-27-10:32:55,10.1.1.4,21,-0.270,-0.270,-0.270,0.000,0.000,0.000
1643279575279845888,2022-01-27-10:32:55,10.1.1.4,38,-0.281,-0.281,-0.281,0.000,0.000,0.000
1643279575480256000,2022-01-27-10:32:55,10.1.1.4,37,-0.291,-0.291,-0.291,0.000,0.000,0.000
1643279575677026048,2022-01-27-10:32:55,10.1.1.4,33,-0.300,-0.300,-0.300,0.000,0.000,0.000
1643279575874320128,2022-01-27-10:32:55,10.1.1.4,29,-0.311,-0.311,-0.311,0.000,0.000,0.000
1643279576074748928,2022-01-27-10:32:56,10.1.1.4,28,-0.321,-0.321,-0.321,0.000,0.000,0.000
1643279576275501056,2022-01-27-10:32:56,10.1.1.4,28,-0.330,-0.330,-0.330,0.000,0.000,0.000
1643279576477255168,2022-01-27-10:32:56,10.1.1.4,29,-0.341,-0.341,-0.341,0.000,0.000,0.000
1643279576678205952,2022-01-27-10:32:56,10.1.1.4,29,-0.351,-0.351,-0.351,0.000,0.000,0.000
1643279576875439872,2022-01-27-10:32:56,10.1.1.4,24,-0.361,-0.361,-0.361,0.000,0.000,0.000
1643279577098695936,2022-01-27-10:32:57,10.1.1.4,46,-0.371,-0.371,-0.371,0.000,0.000,0.000
1643279577277105920,2022-01-27-10:32:57,10.1.1.4,18,-0.380,-0.380,-0.380,0.000,0.000,0.000
1643279577497116160,2022-01-27-10:32:57,10.1.1.4,36,-0.391,-0.391,-0.391,0.000,0.000,0.000
1643279577698242816,2022-01-27-10:32:57,10.1.1.4,34,-0.401,-0.401,-0.401,0.000,0.000,0.000
1643279577898459904,2022-01-27-10:32:57,10.1.1.4,33,-0.411,-0.411,-0.411,0.000,0.000,0.000
1643279578095648000,2022-01-27-10:32:58,10.1.1.4,29,-0.421,-0.421,-0.421,0.000,0.000,0.000
1643279578295435008,2022-01-27-10:32:58,10.1.1.4,25,-0.431,-0.431,-0.431,0.000,0.000,0.000
1643279578497540096,2022-01-27-10:32:58,10.1.1.4,26,-0.441,-0.441,-0.441,0.000,0.000,0.000
1643279578717259776,2022-01-27-10:32:58,10.1.1.4,44,-0.451,-0.451,-0.451,0.000,0.000,0.000
1643279578917421056,2022-01-27-10:32:58,10.1.1.4,41,-0.461,-0.461,-0.461,0.000,0.000,0.000
1643279579100163840,2022-01-27-10:32:59,10.1.1.4,21,-0.470,-0.470,-0.470,0.000,0.000,0.000
1643279579300729088,2022-01-27-10:32:59,10.1.1.4,19,-0.480,-0.480,-0.480,0.000,0.000,0.000
1643279579496584960,2022-01-27-10:32:59,10.1.1.4,16,-0.490,-0.490,-0.490,0.000,0.000,0.000
1643279579716981760,2022-01-27-10:32:59,10.1.1.4,36,-0.479,-0.479,-0.479,0.000,0.000,0.000
1643279579917253888,2022-01-27-10:32:59,10.1.1.4,35,-0.469,-0.469,-0.469,0.000,0.000,0.000
1643279580117646848,2022-01-27-10:33:00,10.1.1.4,35,-0.459,-0.459,-0.459,0.000,0.000,0.000
1643279580316566016,2022-01-27-10:33:00,10.1.1.4,32,-0.449,-0.449,-0.449,0.000,0.000,0.000
1643279580517029120,2022-01-27-10:33:00,10.1.1.4,32,-0.439,-0.439,-0.439,0.000,0.000,0.000
1643279580717367040,2022-01-27-10:33:00,10.1.1.4,31,-0.429,-0.429,-0.429,0.000,0.000,0.000
1643279580915867136,2022-01-27-10:33:00,10.1.1.4,29,-0.419,-0.419,-0.419,0.000,0.000,0.000
1643279581114263040,2022-01-27-10:33:01,10.1.1.4,26,-0.410,-0.410,-0.410,0.000,0.000,0.000
1643279581314498048,2022-01-27-10:33:01,10.1.1.4,26,-0.399,-0.399,-0.399,0.000,0.000,0.000
1643279581520088832,2022-01-27-10:33:01,10.1.1.4,30,-0.390,-0.390,-0.390,0.000,0.000,0.000
1643279581739353856,2022-01-27-10:33:01,10.1.1.4,48,-0.379,-0.379,-0.379,0.000,0.000,0.000
1643279581936616960,2022-01-27-10:33:01,10.1.1.4,43,-0.369,-0.369,-0.369,0.000,0.000,0.000
1643279582135905024,2022-01-27-10:33:02,10.1.1.4,34,-0.359,-0.359,-0.359,0.000,0.000,0.000
1643279582336994816,2022-01-27-10:33:02,10.1.1.4,31,-0.349,-0.349,-0.349,0.000,0.000,0.000
1643279582540115200,2022-01-27-10:33:02,10.1.1.4,29,-0.340,-0.340,-0.340,0.000,0.000,0.000
1643279582736604928,2022-01-27-10:33:02,10.1.1.4,25,-0.330,-0.330,-0.330,0.000,0.000,0.000
1643279582955707904,2022-01-27-10:33:02,10.1.1.4,43,-0.319,-0.319,-0.319,0.000,0.000,0.000
1643279583137029888,2022-01-27-10:33:03,10.1.1.4,22,-0.310,-0.310,-0.310,0.000,0.000,0.000
1643279583358340864,2022-01-27-10:33:03,10.1.1.4,37,-0.299,-0.299,-0.299,0.000,0.000,0.000
1643279583578257152,2022-01-27-10:33:03,10.1.1.4,56,-0.288,-0.288,-0.288,0.000,0.000,0.000
1643279583761053184,2022-01-27-10:33:03,10.1.1.4,38,-0.279,-0.279,-0.279,0.000,0.000,0.000
1643279583955130112,2022-01-27-10:33:03,10.1.1.4,30,-0.269,-0.269,-0.269,0.000,0.000,0.000
1643279584155401984,2022-01-27-10:33:04,10.1.1.4,28,-0.259,-0.259,-0.259,0.000,0.000,0.000
1643279584355716096,2022-01-27-10:33:04,10.1.1.4,27,-0.249,-0.249,-0.249,0.000,0.000,0.000
1643279584554912000,2022-01-27-10:33:04,10.1.1.4,23,-0.240,-0.240,-0.240,0.000,0.000,0.000
1643279584754170880,2022-01-27-10:33:04,10.1.1.4,19,-0.230,-0.230,-0.230,0.000,0.000,0.000
1643279584976947968,2022-01-27-10:33:04,10.1.1.4,37,-0.219,-0.219,-0.219,0.000,0.000,0.000
1643279585155036928,2022-01-27-10:33:05,10.1.1.4,14,-0.210,-0.210,-0.210,0.000,0.000,0.000
1643279585379847936,2022-01-27-10:33:05,10.1.1.4,38,-0.199,-0.199,-0.199,0.000,0.000,0.000
1643279585574713856,2022-01-27-10:33:05,10.1.1.4,32,-0.189,-0.189,-0.189,0.000,0.000,0.000
1643279585777949184,2022-01-27-10:33:05,10.1.1.4,34,-0.179,-0.179,-0.179,0.000,0.000,0.000
1643279585974199040,2022-01-27-10:33:05,10.1.1.4,29,-0.169,-0.169,-0.169,0.000,0.000,0.000
1643279586177221888,2022-01-27-10:33:06,10.1.1.4,29,-0.159,-0.159,-0.159,0.000,0.000,0.000
1643279586376779008,2022-01-27-10:33:06,10.1.1.4,29,-0.149,-0.149,-0.149,0.000,0.000,0.000
1643279586573942784,2022-01-27-10:33:06,10.1.1.4,26,-0.139,-0.139,-0.139,0.000,0.000,0.000
1643279586774571776,2022-01-27-10:33:06,10.1.1.4,25,-0.129,-0.129,-0.129,0.000,0.000,0.000
1643279586978169856,2022-01-27-10:33:06,10.1.1.4,26,-0.119,-0.119,-0.119,0.000,0.000,0.000
1643279587174946048,2022-01-27-10:33:07,10.1.1.4,23,-0.110,-0.110,-0.110,0.000,0.000,0.000
1643279587374913024,2022-01-27-10:33:07,10.1.1.4,18,-0.100,-0.100,-0.100,0.000,0.000,0.000
1643279587576651008,2022-01-27-10:33:07,10.1.1.4,18,-0.090,-0.090,-0.090,0.000,0.000,0.000
1643279587775919872,2022-01-27-10:33:07,10.1.1.4,17,-0.080,-0.080,-0.080,0.000,0.000,0.000
1643279587998478848,2022-01-27-10:33:07,10.1.1.4,38,-0.069,-0.069,-0.069,0.000,0.000,0.000
1643279588194797056,2022-01-27-10:33:08,10.1.1.4,32,-0.060,-0.060,-0.060,0.000,0.000,0.000
1643279588394537984,2022-01-27-10:33:08,10.1.1.4,31,-0.049,-0.049,-0.049,0.000,0.000,0.000
1643279588597889792,2022-01-27-10:33:08,10.1.1.4,25,-0.040,-0.040,-0.040,0.000,0.000,0.000
1643279588796243968,2022-01-27-10:33:08,10.1.1.4,21,-0.030,-0.030,-0.030,0.000,0.000,0.000
1643279589015525120,2022-01-27-10:33:09,10.1.1.4,38,-0.019,-0.019,-0.019,0.000,0.000,0.000
1643279589198309888,2022-01-27-10:33:09,10.1.1.4,20,-0.010,-0.010,-0.010,0.000,0.000,0.000
1643279589416225024,2022-01-27-10:33:09,10.1.1.4,37,-0.001,-0.001,-0.001,0.000,0.000,0.000
1643279589618409984,2022-01-27-10:33:09,10.1.1.4,39,-0.011,-0.011,-0.011,0.000,0.000,0.000
1643279589817365760,2022-01-27-10:33:09,10.1.1.4,36,-0.021,-0.021,-0.021,0.000,0.000,0.000
1643279590015847936,2022-01-27-10:33:10,10.1.1.4,30,-0.031,-0.031,-0.031,0.000,0.000,0.000
1643279590223526912,2022-01-27-10:33:10,10.1.1.4,37,-0.041,-0.041,-0.041,0.000,0.000,0.000
1643279590416984064,2022-01-27-10:33:10,10.1.1.4,28,-0.051,-0.051,-0.051,0.000,0.000,0.000
1643279590618215936,2022-01-27-10:33:10,10.1.1.4,29,-0.061,-0.061,-0.061,0.000,0.000,0.000
1643279590813607936,2022-01-27-10:33:10,10.1.1.4,24,-0.071,-0.071,-0.071,0.000,0.000,0.000
1643279591018414080,2022-01-27-10:33:11,10.1.1.4,27,-0.080,-0.080,-0.080,0.000,0.000,0.000
