FedericoMungari/DigitalTwin_service/01_WiredScenario/Output/Output_script/script_rosapi_2_output_robots8_freq0_4.txt
timestamp,date,node,latency,joint_1,joint_2,joint_3,joint_4,joint_5,joint_6
1643293139724900864,2022-01-27-14:18:59,10.1.1.5,32,-0.011,-0.011,-0.011,0.000,0.000,0.000
1643293139925498880,2022-01-27-14:18:59,10.1.1.5,31,-0.021,-0.021,-0.021,0.000,0.000,0.000
1643293140129283072,2022-01-27-14:19:00,10.1.1.5,34,-0.030,-0.030,-0.030,0.000,0.000,0.000
1643293140325412096,2022-01-27-14:19:00,10.1.1.5,29,-0.041,-0.041,-0.041,0.000,0.000,0.000
1643293140526854912,2022-01-27-14:19:00,10.1.1.5,31,-0.051,-0.051,-0.051,0.000,0.000,0.000
1643293140728396032,2022-01-27-14:19:00,10.1.1.5,29,-0.061,-0.061,-0.061,0.000,0.000,0.000
1643293140925708032,2022-01-27-14:19:00,10.1.1.5,29,-0.070,-0.070,-0.070,0.000,0.000,0.000
1643293141124509952,2022-01-27-14:19:01,10.1.1.5,25,-0.080,-0.080,-0.080,0.000,0.000,0.000
1643293141325495040,2022-01-27-14:19:01,10.1.1.5,25,-0.090,-0.090,-0.090,0.000,0.000,0.000
1643293141523663104,2022-01-27-14:19:01,10.1.1.5,23,-0.100,-0.100,-0.100,0.000,0.000,0.000
1643293141724322048,2022-01-27-14:19:01,10.1.1.5,23,-0.110,-0.110,-0.110,0.000,0.000,0.000
1643293141925506048,2022-01-27-14:19:01,10.1.1.5,20,-0.120,-0.120,-0.120,0.000,0.000,0.000
1643293142124593920,2022-01-27-14:19:02,10.1.1.5,18,-0.130,-0.130,-0.130,0.000,0.000,0.000
1643293142345377024,2022-01-27-14:19:02,10.1.1.5,38,-0.141,-0.141,-0.141,0.000,0.000,0.000
1643293142539810816,2022-01-27-14:19:02,10.1.1.5,31,-0.150,-0.150,-0.150,0.000,0.000,0.000
1643293142745007104,2022-01-27-14:19:02,10.1.1.5,36,-0.161,-0.161,-0.161,0.000,0.000,0.000
1643293142944345856,2022-01-27-14:19:02,10.1.1.5,34,-0.171,-0.171,-0.171,0.000,0.000,0.000
1643293143144387072,2022-01-27-14:19:03,10.1.1.5,34,-0.181,-0.181,-0.181,0.000,0.000,0.000
1643293143345561088,2022-01-27-14:19:03,10.1.1.5,34,-0.191,-0.191,-0.191,0.000,0.000,0.000
1643293143544256000,2022-01-27-14:19:03,10.1.1.5,32,-0.201,-0.201,-0.201,0.000,0.000,0.000
1643293143745491968,2022-01-27-14:19:03,10.1.1.5,33,-0.211,-0.211,-0.211,0.000,0.000,0.000
1643293143945188096,2022-01-27-14:19:03,10.1.1.5,32,-0.221,-0.221,-0.221,0.000,0.000,0.000
1643293144143811072,2022-01-27-14:19:04,10.1.1.5,30,-0.231,-0.231,-0.231,0.000,0.000,0.000
1643293144344784896,2022-01-27-14:19:04,10.1.1.5,30,-0.241,-0.241,-0.241,0.000,0.000,0.000
1643293144545840128,2022-01-27-14:19:04,10.1.1.5,30,-0.251,-0.251,-0.251,0.000,0.000,0.000
1643293144747884032,2022-01-27-14:19:04,10.1.1.5,32,-0.260,-0.260,-0.260,0.000,0.000,0.000
1643293144944400128,2022-01-27-14:19:04,10.1.1.5,28,-0.271,-0.271,-0.271,0.000,0.000,0.000
1643293145146714880,2022-01-27-14:19:05,10.1.1.5,30,-0.280,-0.280,-0.280,0.000,0.000,0.000
1643293145345238016,2022-01-27-14:19:05,10.1.1.5,27,-0.290,-0.290,-0.290,0.000,0.000,0.000
1643293145545108992,2022-01-27-14:19:05,10.1.1.5,26,-0.300,-0.300,-0.300,0.000,0.000,0.000
1643293145746542080,2022-01-27-14:19:05,10.1.1.5,27,-0.310,-0.310,-0.310,0.000,0.000,0.000
1643293145966185216,2022-01-27-14:19:05,10.1.1.5,45,-0.321,-0.321,-0.321,0.000,0.000,0.000
1643293146164627968,2022-01-27-14:19:06,10.1.1.5,41,-0.331,-0.331,-0.331,0.000,0.000,0.000
1643293146366630912,2022-01-27-14:19:06,10.1.1.5,42,-0.341,-0.341,-0.341,0.000,0.000,0.000
1643293146566968832,2022-01-27-14:19:06,10.1.1.5,41,-0.351,-0.351,-0.351,0.000,0.000,0.000
1643293146768368896,2022-01-27-14:19:06,10.1.1.5,42,-0.361,-0.361,-0.361,0.000,0.000,0.000
1643293146966803200,2022-01-27-14:19:06,10.1.1.5,39,-0.371,-0.371,-0.371,0.000,0.000,0.000
1643293147166309120,2022-01-27-14:19:07,10.1.1.5,38,-0.381,-0.381,-0.381,0.000,0.000,0.000
1643293147366094080,2022-01-27-14:19:07,10.1.1.5,37,-0.391,-0.391,-0.391,0.000,0.000,0.000
1643293147567038976,2022-01-27-14:19:07,10.1.1.5,37,-0.401,-0.401,-0.401,0.000,0.000,0.000
1643293147767805184,2022-01-27-14:19:07,10.1.1.5,37,-0.411,-0.411,-0.411,0.000,0.000,0.000
1643293147965230080,2022-01-27-14:19:07,10.1.1.5,33,-0.421,-0.421,-0.421,0.000,0.000,0.000
1643293148167771136,2022-01-27-14:19:08,10.1.1.5,35,-0.431,-0.431,-0.431,0.000,0.000,0.000
1643293148367561216,2022-01-27-14:19:08,10.1.1.5,35,-0.440,-0.440,-0.440,0.000,0.000,0.000
1643293148567506176,2022-01-27-14:19:08,10.1.1.5,34,-0.450,-0.450,-0.450,0.000,0.000,0.000
1643293148767033088,2022-01-27-14:19:08,10.1.1.5,33,-0.461,-0.461,-0.461,0.000,0.000,0.000
1643293148966244096,2022-01-27-14:19:08,10.1.1.5,31,-0.470,-0.470,-0.470,0.000,0.000,0.000
1643293149168530944,2022-01-27-14:19:09,10.1.1.5,33,-0.480,-0.480,-0.480,0.000,0.000,0.000
1643293149356862976,2022-01-27-14:19:09,10.1.1.5,20,-0.490,-0.490,-0.490,0.000,0.000,0.000
1643293149565166080,2022-01-27-14:19:09,10.1.1.5,26,-0.480,-0.480,-0.480,0.000,0.000,0.000
1643293149764009984,2022-01-27-14:19:09,10.1.1.5,23,-0.470,-0.470,-0.470,0.000,0.000,0.000
1643293149984997120,2022-01-27-14:19:09,10.1.1.5,43,-0.459,-0.459,-0.459,0.000,0.000,0.000
1643293150184596992,2022-01-27-14:19:10,10.1.1.5,35,-0.449,-0.449,-0.449,0.000,0.000,0.000
1643293150385679104,2022-01-27-14:19:10,10.1.1.5,35,-0.439,-0.439,-0.439,0.000,0.000,0.000
1643293150585953024,2022-01-27-14:19:10,10.1.1.5,35,-0.429,-0.429,-0.429,0.000,0.000,0.000
1643293150827489024,2022-01-27-14:19:10,10.1.1.5,47,-0.419,-0.419,-0.419,0.000,0.000,0.000
1643293151027527168,2022-01-27-14:19:11,10.1.1.5,36,-0.409,-0.409,-0.409,0.000,0.000,0.000
1643293151225519872,2022-01-27-14:19:11,10.1.1.5,32,-0.399,-0.399,-0.399,0.000,0.000,0.000
1643293151426894848,2022-01-27-14:19:11,10.1.1.5,33,-0.389,-0.389,-0.389,0.000,0.000,0.000
1643293151625571840,2022-01-27-14:19:11,10.1.1.5,31,-0.379,-0.379,-0.379,0.000,0.000,0.000
1643293151825787904,2022-01-27-14:19:11,10.1.1.5,29,-0.370,-0.370,-0.370,0.000,0.000,0.000
1643293152025352960,2022-01-27-14:19:12,10.1.1.5,28,-0.360,-0.360,-0.360,0.000,0.000,0.000
1643293152224342016,2022-01-27-14:19:12,10.1.1.5,25,-0.350,-0.350,-0.350,0.000,0.000,0.000
1643293152427087104,2022-01-27-14:19:12,10.1.1.5,27,-0.340,-0.340,-0.340,0.000,0.000,0.000
1643293152624797184,2022-01-27-14:19:12,10.1.1.5,23,-0.330,-0.330,-0.330,0.000,0.000,0.000
1643293152845419008,2022-01-27-14:19:12,10.1.1.5,34,-0.320,-0.320,-0.320,0.000,0.000,0.000
1643293153066128896,2022-01-27-14:19:13,10.1.1.5,38,-0.309,-0.309,-0.309,0.000,0.000,0.000
1643293153269092096,2022-01-27-14:19:13,10.1.1.5,38,-0.300,-0.300,-0.300,0.000,0.000,0.000
1643293153465017088,2022-01-27-14:19:13,10.1.1.5,35,-0.289,-0.289,-0.289,0.000,0.000,0.000
1643293153665038080,2022-01-27-14:19:13,10.1.1.5,34,-0.279,-0.279,-0.279,0.000,0.000,0.000
1643293153864649984,2022-01-27-14:19:13,10.1.1.5,33,-0.269,-0.269,-0.269,0.000,0.000,0.000
1643293154077952000,2022-01-27-14:19:14,10.1.1.5,45,-0.259,-0.259,-0.259,0.000,0.000,0.000
1643293154286107904,2022-01-27-14:19:14,10.1.1.5,53,-0.248,-0.248,-0.248,0.000,0.000,0.000
1643293154497308928,2022-01-27-14:19:14,10.1.1.5,59,-0.239,-0.239,-0.239,0.000,0.000,0.000
1643293154666153984,2022-01-27-14:19:14,10.1.1.5,28,-0.230,-0.230,-0.230,0.000,0.000,0.000
1643293154865206016,2022-01-27-14:19:14,10.1.1.5,26,-0.220,-0.220,-0.220,0.000,0.000,0.000
1643293155065638912,2022-01-27-14:19:15,10.1.1.5,26,-0.210,-0.210,-0.210,0.000,0.000,0.000
1643293155264993024,2022-01-27-14:19:15,10.1.1.5,25,-0.200,-0.200,-0.200,0.000,0.000,0.000
1643293155467872000,2022-01-27-14:19:15,10.1.1.5,27,-0.190,-0.190,-0.190,0.000,0.000,0.000
1643293155666508032,2022-01-27-14:19:15,10.1.1.5,26,-0.180,-0.180,-0.180,0.000,0.000,0.000
1643293155864752128,2022-01-27-14:19:15,10.1.1.5,23,-0.170,-0.170,-0.170,0.000,0.000,0.000
1643293156085820928,2022-01-27-14:19:16,10.1.1.5,43,-0.159,-0.159,-0.159,0.000,0.000,0.000
1643293156285939968,2022-01-27-14:19:16,10.1.1.5,39,-0.149,-0.149,-0.149,0.000,0.000,0.000
1643293156485776896,2022-01-27-14:19:16,10.1.1.5,39,-0.139,-0.139,-0.139,0.000,0.000,0.000
1643293156685366016,2022-01-27-14:19:16,10.1.1.5,38,-0.129,-0.129,-0.129,0.000,0.000,0.000
1643293156886776064,2022-01-27-14:19:16,10.1.1.5,38,-0.119,-0.119,-0.119,0.000,0.000,0.000
1643293157085473024,2022-01-27-14:19:17,10.1.1.5,37,-0.109,-0.109,-0.109,0.000,0.000,0.000
1643293157285383936,2022-01-27-14:19:17,10.1.1.5,35,-0.099,-0.099,-0.099,0.000,0.000,0.000
1643293157486596096,2022-01-27-14:19:17,10.1.1.5,36,-0.089,-0.089,-0.089,0.000,0.000,0.000
1643293157687105024,2022-01-27-14:19:17,10.1.1.5,32,-0.079,-0.079,-0.079,0.000,0.000,0.000
1643293157885485056,2022-01-27-14:19:17,10.1.1.5,29,-0.070,-0.070,-0.070,0.000,0.000,0.000
1643293158085880064,2022-01-27-14:19:18,10.1.1.5,29,-0.060,-0.060,-0.060,0.000,0.000,0.000
1643293158287860992,2022-01-27-14:19:18,10.1.1.5,30,-0.050,-0.050,-0.050,0.000,0.000,0.000
1643293158483844096,2022-01-27-14:19:18,10.1.1.5,25,-0.040,-0.040,-0.040,0.000,0.000,0.000
1643293158684525056,2022-01-27-14:19:18,10.1.1.5,25,-0.030,-0.030,-0.030,0.000,0.000,0.000
1643293158885852928,2022-01-27-14:19:18,10.1.1.5,25,-0.020,-0.020,-0.020,0.000,0.000,0.000
1643293159087590912,2022-01-27-14:19:19,10.1.1.5,25,-0.010,-0.010,-0.010,0.000,0.000,0.000
1643293159264431872,2022-01-27-14:19:19,10.1.1.5,2,-0.001,-0.001,-0.001,0.000,0.000,0.000
1643293159486004224,2022-01-27-14:19:19,10.1.1.5,23,-0.010,-0.010,-0.010,0.000,0.000,0.000
1643293159686728960,2022-01-27-14:19:19,10.1.1.5,23,-0.020,-0.020,-0.020,0.000,0.000,0.000
1643293159904922880,2022-01-27-14:19:19,10.1.1.5,40,-0.031,-0.031,-0.031,0.000,0.000,0.000
1643293160105426176,2022-01-27-14:19:20,10.1.1.5,40,-0.041,-0.041,-0.041,0.000,0.000,0.000
1643293160286525952,2022-01-27-14:19:20,10.1.1.5,20,-0.050,-0.050,-0.050,0.000,0.000,0.000
1643293160505914880,2022-01-27-14:19:20,10.1.1.5,39,-0.061,-0.061,-0.061,0.000,0.000,0.000
1643293160705369088,2022-01-27-14:19:20,10.1.1.5,38,-0.071,-0.071,-0.071,0.000,0.000,0.000
1643293160905083904,2022-01-27-14:19:20,10.1.1.5,37,-0.081,-0.081,-0.081,0.000,0.000,0.000
1643293161105530880,2022-01-27-14:19:21,10.1.1.5,37,-0.091,-0.091,-0.091,0.000,0.000,0.000
1643293161306840064,2022-01-27-14:19:21,10.1.1.5,37,-0.101,-0.101,-0.101,0.000,0.000,0.000
1643293161504907008,2022-01-27-14:19:21,10.1.1.5,35,-0.111,-0.111,-0.111,0.000,0.000,0.000
1643293161708119040,2022-01-27-14:19:21,10.1.1.5,38,-0.121,-0.121,-0.121,0.000,0.000,0.000
1643293161906435840,2022-01-27-14:19:21,10.1.1.5,35,-0.131,-0.131,-0.131,0.000,0.000,0.000
1643293162110845952,2022-01-27-14:19:22,10.1.1.5,33,-0.141,-0.141,-0.141,0.000,0.000,0.000
1643293162305232896,2022-01-27-14:19:22,10.1.1.5,30,-0.151,-0.151,-0.151,0.000,0.000,0.000
1643293162510042880,2022-01-27-14:19:22,10.1.1.5,32,-0.160,-0.160,-0.160,0.000,0.000,0.000
1643293162710569984,2022-01-27-14:19:22,10.1.1.5,32,-0.170,-0.170,-0.170,0.000,0.000,0.000
1643293162906171136,2022-01-27-14:19:22,10.1.1.5,26,-0.180,-0.180,-0.180,0.000,0.000,0.000
1643293163104166912,2022-01-27-14:19:23,10.1.1.5,23,-0.190,-0.190,-0.190,0.000,0.000,0.000
1643293163305451008,2022-01-27-14:19:23,10.1.1.5,24,-0.200,-0.200,-0.200,0.000,0.000,0.000
1643293163525420800,2022-01-27-14:19:23,10.1.1.5,42,-0.211,-0.211,-0.211,0.000,0.000,0.000
1643293163724584192,2022-01-27-14:19:23,10.1.1.5,41,-0.221,-0.221,-0.221,0.000,0.000,0.000
1643293163905196032,2022-01-27-14:19:23,10.1.1.5,21,-0.230,-0.230,-0.230,0.000,0.000,0.000
1643293164126988032,2022-01-27-14:19:24,10.1.1.5,40,-0.241,-0.241,-0.241,0.000,0.000,0.000
1643293164346251008,2022-01-27-14:19:24,10.1.1.5,38,-0.251,-0.251,-0.251,0.000,0.000,0.000
1643293164547673088,2022-01-27-14:19:24,10.1.1.5,38,-0.261,-0.261,-0.261,0.000,0.000,0.000
1643293164746510080,2022-01-27-14:19:24,10.1.1.5,33,-0.271,-0.271,-0.271,0.000,0.000,0.000
1643293164948466944,2022-01-27-14:19:24,10.1.1.5,34,-0.280,-0.280,-0.280,0.000,0.000,0.000
1643293165146617856,2022-01-27-14:19:25,10.1.1.5,31,-0.290,-0.290,-0.290,0.000,0.000,0.000
1643293165346008064,2022-01-27-14:19:25,10.1.1.5,30,-0.300,-0.300,-0.300,0.000,0.000,0.000
1643293165545760000,2022-01-27-14:19:25,10.1.1.5,29,-0.311,-0.311,-0.311,0.000,0.000,0.000
1643293165745117952,2022-01-27-14:19:25,10.1.1.5,25,-0.320,-0.320,-0.320,0.000,0.000,0.000
1643293165945712128,2022-01-27-14:19:25,10.1.1.5,25,-0.330,-0.330,-0.330,0.000,0.000,0.000
1643293166146394112,2022-01-27-14:19:26,10.1.1.5,24,-0.340,-0.340,-0.340,0.000,0.000,0.000
1643293166346940928,2022-01-27-14:19:26,10.1.1.5,23,-0.350,-0.350,-0.350,0.000,0.000,0.000
1643293166566099968,2022-01-27-14:19:26,10.1.1.5,42,-0.361,-0.361,-0.361,0.000,0.000,0.000
1643293166744972032,2022-01-27-14:19:26,10.1.1.5,19,-0.370,-0.370,-0.370,0.000,0.000,0.000
1643293166945678080,2022-01-27-14:19:26,10.1.1.5,19,-0.380,-0.380,-0.380,0.000,0.000,0.000
1643293167165743104,2022-01-27-14:19:27,10.1.1.5,39,-0.391,-0.391,-0.391,0.000,0.000,0.000
1643293167367106048,2022-01-27-14:19:27,10.1.1.5,39,-0.401,-0.401,-0.401,0.000,0.000,0.000
1643293167565673984,2022-01-27-14:19:27,10.1.1.5,37,-0.411,-0.411,-0.411,0.000,0.000,0.000
1643293167764571904,2022-01-27-14:19:27,10.1.1.5,36,-0.421,-0.421,-0.421,0.000,0.000,0.000
1643293167993212928,2022-01-27-14:19:27,10.1.1.5,63,-0.431,-0.431,-0.431,0.000,0.000,0.000
1643293168167737856,2022-01-27-14:19:28,10.1.1.5,37,-0.441,-0.441,-0.441,0.000,0.000,0.000
1643293168364655104,2022-01-27-14:19:28,10.1.1.5,33,-0.451,-0.451,-0.451,0.000,0.000,0.000
1643293168567429120,2022-01-27-14:19:28,10.1.1.5,35,-0.461,-0.461,-0.461,0.000,0.000,0.000
1643293168766227968,2022-01-27-14:19:28,10.1.1.5,33,-0.471,-0.471,-0.471,0.000,0.000,0.000
1643293168966831872,2022-01-27-14:19:28,10.1.1.5,34,-0.481,-0.481,-0.481,0.000,0.000,0.000
1643293169146023936,2022-01-27-14:19:29,10.1.1.5,12,-0.490,-0.490,-0.490,0.000,0.000,0.000
1643293169365705984,2022-01-27-14:19:29,10.1.1.5,30,-0.479,-0.479,-0.479,0.000,0.000,0.000
1643293169565138944,2022-01-27-14:19:29,10.1.1.5,29,-0.469,-0.469,-0.469,0.000,0.000,0.000
1643293169768385024,2022-01-27-14:19:29,10.1.1.5,32,-0.459,-0.459,-0.459,0.000,0.000,0.000
1643293169971956992,2022-01-27-14:19:29,10.1.1.5,32,-0.450,-0.450,-0.450,0.000,0.000,0.000
1643293170186265088,2022-01-27-14:19:30,10.1.1.5,44,-0.439,-0.439,-0.439,0.000,0.000,0.000
1643293170365093888,2022-01-27-14:19:30,10.1.1.5,23,-0.430,-0.430,-0.430,0.000,0.000,0.000
1643293170566746880,2022-01-27-14:19:30,10.1.1.5,24,-0.420,-0.420,-0.420,0.000,0.000,0.000
1643293170821563904,2022-01-27-14:19:30,10.1.1.5,50,-0.409,-0.409,-0.409,0.000,0.000,0.000
1643293170986565120,2022-01-27-14:19:30,10.1.1.5,33,-0.399,-0.399,-0.399,0.000,0.000,0.000
1643293171187517952,2022-01-27-14:19:31,10.1.1.5,33,-0.389,-0.389,-0.389,0.000,0.000,0.000
1643293171385908992,2022-01-27-14:19:31,10.1.1.5,30,-0.379,-0.379,-0.379,0.000,0.000,0.000
1643293171585863168,2022-01-27-14:19:31,10.1.1.5,29,-0.369,-0.369,-0.369,0.000,0.000,0.000
1643293171786281216,2022-01-27-14:19:31,10.1.1.5,29,-0.360,-0.360,-0.360,0.000,0.000,0.000
1643293171985960960,2022-01-27-14:19:31,10.1.1.5,28,-0.350,-0.350,-0.350,0.000,0.000,0.000
1643293172186817024,2022-01-27-14:19:32,10.1.1.5,28,-0.340,-0.340,-0.340,0.000,0.000,0.000
1643293172387304192,2022-01-27-14:19:32,10.1.1.5,25,-0.330,-0.330,-0.330,0.000,0.000,0.000
1643293172585392896,2022-01-27-14:19:32,10.1.1.5,25,-0.320,-0.320,-0.320,0.000,0.000,0.000
1643293172785917952,2022-01-27-14:19:32,10.1.1.5,25,-0.310,-0.310,-0.310,0.000,0.000,0.000
1643293173004712960,2022-01-27-14:19:33,10.1.1.5,40,-0.300,-0.300,-0.300,0.000,0.000,0.000
1643293173225078016,2022-01-27-14:19:33,10.1.1.5,37,-0.289,-0.289,-0.289,0.000,0.000,0.000
1643293173424761088,2022-01-27-14:19:33,10.1.1.5,36,-0.279,-0.279,-0.279,0.000,0.000,0.000
1643293173624463104,2022-01-27-14:19:33,10.1.1.5,35,-0.269,-0.269,-0.269,0.000,0.000,0.000
1643293173825213952,2022-01-27-14:19:33,10.1.1.5,35,-0.259,-0.259,-0.259,0.000,0.000,0.000
1643293174025149952,2022-01-27-14:19:34,10.1.1.5,34,-0.249,-0.249,-0.249,0.000,0.000,0.000
1643293174225980160,2022-01-27-14:19:34,10.1.1.5,35,-0.239,-0.239,-0.239,0.000,0.000,0.000
1643293174426220032,2022-01-27-14:19:34,10.1.1.5,33,-0.230,-0.230,-0.230,0.000,0.000,0.000
1643293174627747072,2022-01-27-14:19:34,10.1.1.5,32,-0.219,-0.219,-0.219,0.000,0.000,0.000
1643293174826064128,2022-01-27-14:19:34,10.1.1.5,28,-0.210,-0.210,-0.210,0.000,0.000,0.000
1643293175028057088,2022-01-27-14:19:35,10.1.1.5,29,-0.200,-0.200,-0.200,0.000,0.000,0.000
1643293175226159104,2022-01-27-14:19:35,10.1.1.5,26,-0.190,-0.190,-0.190,0.000,0.000,0.000
1643293175424824832,2022-01-27-14:19:35,10.1.1.5,25,-0.180,-0.180,-0.180,0.000,0.000,0.000
1643293175625475840,2022-01-27-14:19:35,10.1.1.5,24,-0.170,-0.170,-0.170,0.000,0.000,0.000
1643293175825341952,2022-01-27-14:19:35,10.1.1.5,24,-0.160,-0.160,-0.160,0.000,0.000,0.000
1643293176028036096,2022-01-27-14:19:36,10.1.1.5,26,-0.150,-0.150,-0.150,0.000,0.000,0.000
1643293176224667904,2022-01-27-14:19:36,10.1.1.5,19,-0.140,-0.140,-0.140,0.000,0.000,0.000
1643293176424338176,2022-01-27-14:19:36,10.1.1.5,17,-0.130,-0.130,-0.130,0.000,0.000,0.000
1643293176645731072,2022-01-27-14:19:36,10.1.1.5,38,-0.119,-0.119,-0.119,0.000,0.000,0.000
1643293176844929024,2022-01-27-14:19:36,10.1.1.5,36,-0.109,-0.109,-0.109,0.000,0.000,0.000
1643293177044727040,2022-01-27-14:19:37,10.1.1.5,36,-0.099,-0.099,-0.099,0.000,0.000,0.000
1643293177246269952,2022-01-27-14:19:37,10.1.1.5,36,-0.089,-0.089,-0.089,0.000,0.000,0.000
1643293177445115136,2022-01-27-14:19:37,10.1.1.5,34,-0.079,-0.079,-0.079,0.000,0.000,0.000
1643293177646394880,2022-01-27-14:19:37,10.1.1.5,35,-0.069,-0.069,-0.069,0.000,0.000,0.000
1643293177849479936,2022-01-27-14:19:37,10.1.1.5,37,-0.059,-0.059,-0.059,0.000,0.000,0.000
1643293178047164928,2022-01-27-14:19:38,10.1.1.5,34,-0.049,-0.049,-0.049,0.000,0.000,0.000
1643293178247415040,2022-01-27-14:19:38,10.1.1.5,32,-0.039,-0.039,-0.039,0.000,0.000,0.000
1643293178447066112,2022-01-27-14:19:38,10.1.1.5,30,-0.030,-0.030,-0.030,0.000,0.000,0.000
1643293178646476032,2022-01-27-14:19:38,10.1.1.5,28,-0.020,-0.020,-0.020,0.000,0.000,0.000
1643293178845687040,2022-01-27-14:19:38,10.1.1.5,26,-0.010,-0.010,-0.010,0.000,0.000,0.000
1643293179047357184,2022-01-27-14:19:39,10.1.1.5,27,-0.000,-0.000,-0.000,0.000,0.000,0.000
1643293179247303936,2022-01-27-14:19:39,10.1.1.5,25,-0.010,-0.010,-0.010,0.000,0.000,0.000
1643293179464505856,2022-01-27-14:19:39,10.1.1.5,41,-0.021,-0.021,-0.021,0.000,0.000,0.000
1643293179644692992,2022-01-27-14:19:39,10.1.1.5,20,-0.030,-0.030,-0.030,0.000,0.000,0.000
1643293179865564160,2022-01-27-14:19:39,10.1.1.5,38,-0.041,-0.041,-0.041,0.000,0.000,0.000
1643293180065022976,2022-01-27-14:19:40,10.1.1.5,37,-0.051,-0.051,-0.051,0.000,0.000,0.000
1643293180265934848,2022-01-27-14:19:40,10.1.1.5,38,-0.061,-0.061,-0.061,0.000,0.000,0.000
1643293180467106048,2022-01-27-14:19:40,10.1.1.5,38,-0.071,-0.071,-0.071,0.000,0.000,0.000
1643293180665841152,2022-01-27-14:19:40,10.1.1.5,36,-0.081,-0.081,-0.081,0.000,0.000,0.000
1643293180864773888,2022-01-27-14:19:40,10.1.1.5,34,-0.091,-0.091,-0.091,0.000,0.000,0.000
1643293181064177152,2022-01-27-14:19:41,10.1.1.5,34,-0.101,-0.101,-0.101,0.000,0.000,0.000
1643293181265260032,2022-01-27-14:19:41,10.1.1.5,34,-0.111,-0.111,-0.111,0.000,0.000,0.000
1643293181467152128,2022-01-27-14:19:41,10.1.1.5,35,-0.121,-0.121,-0.121,0.000,0.000,0.000
1643293181665815040,2022-01-27-14:19:41,10.1.1.5,32,-0.131,-0.131,-0.131,0.000,0.000,0.000
1643293181866182144,2022-01-27-14:19:41,10.1.1.5,33,-0.141,-0.141,-0.141,0.000,0.000,0.000
1643293182067121152,2022-01-27-14:19:42,10.1.1.5,33,-0.151,-0.151,-0.151,0.000,0.000,0.000
1643293182265259008,2022-01-27-14:19:42,10.1.1.5,28,-0.161,-0.161,-0.161,0.000,0.000,0.000
1643293182467956992,2022-01-27-14:19:42,10.1.1.5,27,-0.170,-0.170,-0.170,0.000,0.000,0.000
1643293182665405952,2022-01-27-14:19:42,10.1.1.5,27,-0.180,-0.180,-0.180,0.000,0.000,0.000
1643293182867929088,2022-01-27-14:19:42,10.1.1.5,28,-0.190,-0.190,-0.190,0.000,0.000,0.000
1643293183065704192,2022-01-27-14:19:43,10.1.1.5,25,-0.200,-0.200,-0.200,0.000,0.000,0.000
1643293183264216064,2022-01-27-14:19:43,10.1.1.5,23,-0.210,-0.210,-0.210,0.000,0.000,0.000
1643293183465164800,2022-01-27-14:19:43,10.1.1.5,23,-0.220,-0.220,-0.220,0.000,0.000,0.000
1643293183685452032,2022-01-27-14:19:43,10.1.1.5,43,-0.231,-0.231,-0.231,0.000,0.000,0.000
1643293183885672192,2022-01-27-14:19:43,10.1.1.5,42,-0.241,-0.241,-0.241,0.000,0.000,0.000
1643293184065829888,2022-01-27-14:19:44,10.1.1.5,22,-0.250,-0.250,-0.250,0.000,0.000,0.000
1643293184264425984,2022-01-27-14:19:44,10.1.1.5,20,-0.260,-0.260,-0.260,0.000,0.000,0.000
1643293184465367040,2022-01-27-14:19:44,10.1.1.5,20,-0.270,-0.270,-0.270,0.000,0.000,0.000
1643293184665616128,2022-01-27-14:19:44,10.1.1.5,19,-0.280,-0.280,-0.280,0.000,0.000,0.000
1643293184887444992,2022-01-27-14:19:44,10.1.1.5,40,-0.291,-0.291,-0.291,0.000,0.000,0.000
1643293185087508992,2022-01-27-14:19:45,10.1.1.5,39,-0.301,-0.301,-0.301,0.000,0.000,0.000
1643293185284599040,2022-01-27-14:19:45,10.1.1.5,36,-0.311,-0.311,-0.311,0.000,0.000,0.000
1643293185484646144,2022-01-27-14:19:45,10.1.1.5,36,-0.321,-0.321,-0.321,0.000,0.000,0.000
1643293185685506048,2022-01-27-14:19:45,10.1.1.5,36,-0.331,-0.331,-0.331,0.000,0.000,0.000
1643293185887060992,2022-01-27-14:19:45,10.1.1.5,37,-0.341,-0.341,-0.341,0.000,0.000,0.000
1643293186084553984,2022-01-27-14:19:46,10.1.1.5,34,-0.351,-0.351,-0.351,0.000,0.000,0.000
1643293186284583936,2022-01-27-14:19:46,10.1.1.5,33,-0.361,-0.361,-0.361,0.000,0.000,0.000
1643293186485945856,2022-01-27-14:19:46,10.1.1.5,34,-0.371,-0.371,-0.371,0.000,0.000,0.000
1643293186686081024,2022-01-27-14:19:46,10.1.1.5,34,-0.380,-0.380,-0.380,0.000,0.000,0.000
1643293186885932032,2022-01-27-14:19:46,10.1.1.5,33,-0.391,-0.391,-0.391,0.000,0.000,0.000
1643293187086605056,2022-01-27-14:19:47,10.1.1.5,33,-0.400,-0.400,-0.400,0.000,0.000,0.000
1643293187285868800,2022-01-27-14:19:47,10.1.1.5,31,-0.411,-0.411,-0.411,0.000,0.000,0.000
1643293187485254144,2022-01-27-14:19:47,10.1.1.5,30,-0.421,-0.421,-0.421,0.000,0.000,0.000
1643293187687143936,2022-01-27-14:19:47,10.1.1.5,31,-0.430,-0.430,-0.430,0.000,0.000,0.000
1643293187885691904,2022-01-27-14:19:47,10.1.1.5,28,-0.440,-0.440,-0.440,0.000,0.000,0.000
1643293188086683136,2022-01-27-14:19:48,10.1.1.5,28,-0.450,-0.450,-0.450,0.000,0.000,0.000
1643293188285305856,2022-01-27-14:19:48,10.1.1.5,25,-0.460,-0.460,-0.460,0.000,0.000,0.000
1643293188489963008,2022-01-27-14:19:48,10.1.1.5,27,-0.470,-0.470,-0.470,0.000,0.000,0.000
1643293188687286016,2022-01-27-14:19:48,10.1.1.5,24,-0.480,-0.480,-0.480,0.000,0.000,0.000
1643293188866872064,2022-01-27-14:19:48,10.1.1.5,3,-0.489,-0.489,-0.489,0.000,0.000,0.000
1643293189086257920,2022-01-27-14:19:49,10.1.1.5,20,-0.480,-0.480,-0.480,0.000,0.000,0.000
1643293189286077952,2022-01-27-14:19:49,10.1.1.5,19,-0.470,-0.470,-0.470,0.000,0.000,0.000
1643293189504537088,2022-01-27-14:19:49,10.1.1.5,37,-0.459,-0.459,-0.459,0.000,0.000,0.000
1643293189668168192,2022-01-27-14:19:49,10.1.1.5,-1,-0.451,-0.451,-0.451,0.000,0.000,0.000
1643293189907568896,2022-01-27-14:19:49,10.1.1.5,38,-0.439,-0.439,-0.439,0.000,0.000,0.000
1643293190104738048,2022-01-27-14:19:50,10.1.1.5,33,-0.429,-0.429,-0.429,0.000,0.000,0.000
1643293190306998016,2022-01-27-14:19:50,10.1.1.5,34,-0.419,-0.419,-0.419,0.000,0.000,0.000
1643293190507442944,2022-01-27-14:19:50,10.1.1.5,34,-0.410,-0.410,-0.410,0.000,0.000,0.000
1643293190707431936,2022-01-27-14:19:50,10.1.1.5,33,-0.399,-0.399,-0.399,0.000,0.000,0.000
1643293190905769984,2022-01-27-14:19:50,10.1.1.5,31,-0.390,-0.390,-0.390,0.000,0.000,0.000
1643293191106460160,2022-01-27-14:19:51,10.1.1.5,31,-0.380,-0.380,-0.380,0.000,0.000,0.000
1643293191306957056,2022-01-27-14:19:51,10.1.1.5,30,-0.370,-0.370,-0.370,0.000,0.000,0.000
1643293191505987840,2022-01-27-14:19:51,10.1.1.5,29,-0.360,-0.360,-0.360,0.000,0.000,0.000
1643293191705793024,2022-01-27-14:19:51,10.1.1.5,28,-0.350,-0.350,-0.350,0.000,0.000,0.000
1643293191906973952,2022-01-27-14:19:51,10.1.1.5,28,-0.340,-0.340,-0.340,0.000,0.000,0.000
1643293192106589952,2022-01-27-14:19:52,10.1.1.5,26,-0.330,-0.330,-0.330,0.000,0.000,0.000
1643293192305722880,2022-01-27-14:19:52,10.1.1.5,24,-0.320,-0.320,-0.320,0.000,0.000,0.000
1643293192504780032,2022-01-27-14:19:52,10.1.1.5,21,-0.310,-0.310,-0.310,0.000,0.000,0.000
1643293192705818880,2022-01-27-14:19:52,10.1.1.5,22,-0.300,-0.300,-0.300,0.000,0.000,0.000
1643293192925661952,2022-01-27-14:19:52,10.1.1.5,39,-0.289,-0.289,-0.289,0.000,0.000,0.000
1643293193124568064,2022-01-27-14:19:53,10.1.1.5,37,-0.279,-0.279,-0.279,0.000,0.000,0.000
1643293193324666112,2022-01-27-14:19:53,10.1.1.5,36,-0.269,-0.269,-0.269,0.000,0.000,0.000
1643293193526319872,2022-01-27-14:19:53,10.1.1.5,36,-0.259,-0.259,-0.259,0.000,0.000,0.000
1643293193724660992,2022-01-27-14:19:53,10.1.1.5,33,-0.249,-0.249,-0.249,0.000,0.000,0.000
1643293193925712128,2022-01-27-14:19:53,10.1.1.5,33,-0.239,-0.239,-0.239,0.000,0.000,0.000
1643293194125974784,2022-01-27-14:19:54,10.1.1.5,33,-0.229,-0.229,-0.229,0.000,0.000,0.000
1643293194325908992,2022-01-27-14:19:54,10.1.1.5,33,-0.219,-0.219,-0.219,0.000,0.000,0.000
1643293194527046912,2022-01-27-14:19:54,10.1.1.5,32,-0.209,-0.209,-0.209,0.000,0.000,0.000
1643293194725393920,2022-01-27-14:19:54,10.1.1.5,29,-0.200,-0.200,-0.200,0.000,0.000,0.000
1643293194924841984,2022-01-27-14:19:54,10.1.1.5,28,-0.190,-0.190,-0.190,0.000,0.000,0.000
1643293195144721152,2022-01-27-14:19:55,10.1.1.5,38,-0.179,-0.179,-0.179,0.000,0.000,0.000
1643293195345125888,2022-01-27-14:19:55,10.1.1.5,36,-0.169,-0.169,-0.169,0.000,0.000,0.000
1643293195545558016,2022-01-27-14:19:55,10.1.1.5,35,-0.159,-0.159,-0.159,0.000,0.000,0.000
1643293195745479168,2022-01-27-14:19:55,10.1.1.5,34,-0.149,-0.149,-0.149,0.000,0.000,0.000
1643293195946640896,2022-01-27-14:19:55,10.1.1.5,35,-0.139,-0.139,-0.139,0.000,0.000,0.000
1643293196143876096,2022-01-27-14:19:56,10.1.1.5,31,-0.129,-0.129,-0.129,0.000,0.000,0.000
1643293196344091904,2022-01-27-14:19:56,10.1.1.5,31,-0.119,-0.119,-0.119,0.000,0.000,0.000
1643293196547152896,2022-01-27-14:19:56,10.1.1.5,33,-0.109,-0.109,-0.109,0.000,0.000,0.000
1643293196746021120,2022-01-27-14:19:56,10.1.1.5,31,-0.099,-0.099,-0.099,0.000,0.000,0.000
1643293196938096128,2022-01-27-14:19:56,10.1.1.5,23,-0.090,-0.090,-0.090,0.000,0.000,0.000
1643293197144001024,2022-01-27-14:19:57,10.1.1.5,28,-0.079,-0.079,-0.079,0.000,0.000,0.000
1643293197345468928,2022-01-27-14:19:57,10.1.1.5,29,-0.069,-0.069,-0.069,0.000,0.000,0.000
1643293197546245120,2022-01-27-14:19:57,10.1.1.5,29,-0.060,-0.060,-0.060,0.000,0.000,0.000
1643293197746984960,2022-01-27-14:19:57,10.1.1.5,28,-0.050,-0.050,-0.050,0.000,0.000,0.000
1643293197945123072,2022-01-27-14:19:57,10.1.1.5,25,-0.040,-0.040,-0.040,0.000,0.000,0.000
1643293198145639936,2022-01-27-14:19:58,10.1.1.5,25,-0.030,-0.030,-0.030,0.000,0.000,0.000
1643293198348983040,2022-01-27-14:19:58,10.1.1.5,27,-0.020,-0.020,-0.020,0.000,0.000,0.000
1643293198598483200,2022-01-27-14:19:58,10.1.1.5,75,-0.010,-0.010,-0.010,0.000,0.000,0.000
1643293198744442112,2022-01-27-14:19:58,10.1.1.5,20,-0.000,-0.000,-0.000,0.000,0.000,0.000
1643293198965656064,2022-01-27-14:19:58,10.1.1.5,39,-0.011,-0.011,-0.011,0.000,0.000,0.000
1643293199167649024,2022-01-27-14:19:59,10.1.1.5,40,-0.021,-0.021,-0.021,0.000,0.000,0.000
1643293199366415104,2022-01-27-14:19:59,10.1.1.5,38,-0.031,-0.031,-0.031,0.000,0.000,0.000
1643293199567485952,2022-01-27-14:19:59,10.1.1.5,38,-0.041,-0.041,-0.041,0.000,0.000,0.000
1643293199766476032,2022-01-27-14:19:59,10.1.1.5,36,-0.051,-0.051,-0.051,0.000,0.000,0.000
1643293199966935040,2022-01-27-14:19:59,10.1.1.5,36,-0.061,-0.061,-0.061,0.000,0.000,0.000
1643293200165432832,2022-01-27-14:20:00,10.1.1.5,33,-0.071,-0.071,-0.071,0.000,0.000,0.000
1643293200366974208,2022-01-27-14:20:00,10.1.1.5,33,-0.080,-0.080,-0.080,0.000,0.000,0.000
1643293200565320960,2022-01-27-14:20:00,10.1.1.5,31,-0.091,-0.091,-0.091,0.000,0.000,0.000
1643293200766000128,2022-01-27-14:20:00,10.1.1.5,31,-0.100,-0.100,-0.100,0.000,0.000,0.000
1643293200966284032,2022-01-27-14:20:00,10.1.1.5,31,-0.111,-0.111,-0.111,0.000,0.000,0.000
1643293201165163008,2022-01-27-14:20:01,10.1.1.5,29,-0.121,-0.121,-0.121,0.000,0.000,0.000
1643293201366628864,2022-01-27-14:20:01,10.1.1.5,30,-0.130,-0.130,-0.130,0.000,0.000,0.000
1643293201565746944,2022-01-27-14:20:01,10.1.1.5,29,-0.140,-0.140,-0.140,0.000,0.000,0.000
1643293201765453056,2022-01-27-14:20:01,10.1.1.5,28,-0.150,-0.150,-0.150,0.000,0.000,0.000
1643293201966841856,2022-01-27-14:20:01,10.1.1.5,29,-0.160,-0.160,-0.160,0.000,0.000,0.000
1643293202168062976,2022-01-27-14:20:02,10.1.1.5,29,-0.170,-0.170,-0.170,0.000,0.000,0.000
1643293202365926912,2022-01-27-14:20:02,10.1.1.5,27,-0.180,-0.180,-0.180,0.000,0.000,0.000
1643293202567328000,2022-01-27-14:20:02,10.1.1.5,27,-0.190,-0.190,-0.190,0.000,0.000,0.000
1643293202766670080,2022-01-27-14:20:02,10.1.1.5,26,-0.200,-0.200,-0.200,0.000,0.000,0.000
1643293202967063808,2022-01-27-14:20:02,10.1.1.5,26,-0.210,-0.210,-0.210,0.000,0.000,0.000
1643293203165617920,2022-01-27-14:20:03,10.1.1.5,24,-0.220,-0.220,-0.220,0.000,0.000,0.000
1643293203365266944,2022-01-27-14:20:03,10.1.1.5,22,-0.230,-0.230,-0.230,0.000,0.000,0.000
1643293203565453056,2022-01-27-14:20:03,10.1.1.5,21,-0.240,-0.240,-0.240,0.000,0.000,0.000
1643293203765517056,2022-01-27-14:20:03,10.1.1.5,20,-0.250,-0.250,-0.250,0.000,0.000,0.000
1643293203965358080,2022-01-27-14:20:03,10.1.1.5,20,-0.260,-0.260,-0.260,0.000,0.000,0.000
1643293204146018048,2022-01-27-14:20:04,10.1.1.5,-1,-0.269,-0.269,-0.269,0.000,0.000,0.000
1643293204366846976,2022-01-27-14:20:04,10.1.1.5,20,-0.280,-0.280,-0.280,0.000,0.000,0.000
1643293204567352064,2022-01-27-14:20:04,10.1.1.5,20,-0.290,-0.290,-0.290,0.000,0.000,0.000
1643293204784807936,2022-01-27-14:20:04,10.1.1.5,37,-0.301,-0.301,-0.301,0.000,0.000,0.000
1643293204985846016,2022-01-27-14:20:04,10.1.1.5,37,-0.311,-0.311,-0.311,0.000,0.000,0.000
1643293205185466880,2022-01-27-14:20:05,10.1.1.5,36,-0.321,-0.321,-0.321,0.000,0.000,0.000
1643293205386205952,2022-01-27-14:20:05,10.1.1.5,36,-0.331,-0.331,-0.331,0.000,0.000,0.000
1643293205585673984,2022-01-27-14:20:05,10.1.1.5,35,-0.341,-0.341,-0.341,0.000,0.000,0.000
1643293205785229824,2022-01-27-14:20:05,10.1.1.5,33,-0.351,-0.351,-0.351,0.000,0.000,0.000
1643293205985376000,2022-01-27-14:20:05,10.1.1.5,33,-0.361,-0.361,-0.361,0.000,0.000,0.000
1643293206185559040,2022-01-27-14:20:06,10.1.1.5,32,-0.371,-0.371,-0.371,0.000,0.000,0.000
1643293206386023168,2022-01-27-14:20:06,10.1.1.5,31,-0.381,-0.381,-0.381,0.000,0.000,0.000
1643293206585678080,2022-01-27-14:20:06,10.1.1.5,30,-0.391,-0.391,-0.391,0.000,0.000,0.000
1643293206786857984,2022-01-27-14:20:06,10.1.1.5,30,-0.400,-0.400,-0.400,0.000,0.000,0.000
1643293206987155968,2022-01-27-14:20:06,10.1.1.5,29,-0.410,-0.410,-0.410,0.000,0.000,0.000
1643293207186846976,2022-01-27-14:20:07,10.1.1.5,28,-0.420,-0.420,-0.420,0.000,0.000,0.000
1643293207386953216,2022-01-27-14:20:07,10.1.1.5,26,-0.430,-0.430,-0.430,0.000,0.000,0.000
1643293207586724096,2022-01-27-14:20:07,10.1.1.5,25,-0.440,-0.440,-0.440,0.000,0.000,0.000
1643293207785239040,2022-01-27-14:20:07,10.1.1.5,23,-0.450,-0.450,-0.450,0.000,0.000,0.000
1643293207984795136,2022-01-27-14:20:07,10.1.1.5,21,-0.460,-0.460,-0.460,0.000,0.000,0.000
1643293208205316096,2022-01-27-14:20:08,10.1.1.5,41,-0.471,-0.471,-0.471,0.000,0.000,0.000
1643293208386043136,2022-01-27-14:20:08,10.1.1.5,20,-0.480,-0.480,-0.480,0.000,0.000,0.000
1643293208585447936,2022-01-27-14:20:08,10.1.1.5,19,-0.490,-0.490,-0.490,0.000,0.000,0.000
1643293208805360128,2022-01-27-14:20:08,10.1.1.5,37,-0.479,-0.479,-0.479,0.000,0.000,0.000
1643293209006194176,2022-01-27-14:20:09,10.1.1.5,35,-0.469,-0.469,-0.469,0.000,0.000,0.000
1643293209211227904,2022-01-27-14:20:09,10.1.1.5,40,-0.459,-0.459,-0.459,0.000,0.000,0.000
1643293209405533952,2022-01-27-14:20:09,10.1.1.5,35,-0.449,-0.449,-0.449,0.000,0.000,0.000
1643293209606332928,2022-01-27-14:20:09,10.1.1.5,35,-0.439,-0.439,-0.439,0.000,0.000,0.000
1643293209805545216,2022-01-27-14:20:09,10.1.1.5,33,-0.430,-0.430,-0.430,0.000,0.000,0.000
1643293210005570816,2022-01-27-14:20:10,10.1.1.5,32,-0.419,-0.419,-0.419,0.000,0.000,0.000
1643293210205861120,2022-01-27-14:20:10,10.1.1.5,31,-0.409,-0.409,-0.409,0.000,0.000,0.000
1643293210405335040,2022-01-27-14:20:10,10.1.1.5,30,-0.400,-0.400,-0.400,0.000,0.000,0.000
1643293210605711104,2022-01-27-14:20:10,10.1.1.5,29,-0.389,-0.389,-0.389,0.000,0.000,0.000
1643293210806384128,2022-01-27-14:20:10,10.1.1.5,29,-0.380,-0.380,-0.380,0.000,0.000,0.000
1643293211005857024,2022-01-27-14:20:11,10.1.1.5,28,-0.370,-0.370,-0.370,0.000,0.000,0.000
1643293211206067968,2022-01-27-14:20:11,10.1.1.5,28,-0.360,-0.360,-0.360,0.000,0.000,0.000
1643293211405242880,2022-01-27-14:20:11,10.1.1.5,25,-0.350,-0.350,-0.350,0.000,0.000,0.000
1643293211605559040,2022-01-27-14:20:11,10.1.1.5,25,-0.340,-0.340,-0.340,0.000,0.000,0.000
1643293211805507840,2022-01-27-14:20:11,10.1.1.5,25,-0.330,-0.330,-0.330,0.000,0.000,0.000
1643293212006444032,2022-01-27-14:20:12,10.1.1.5,25,-0.320,-0.320,-0.320,0.000,0.000,0.000
1643293212206362112,2022-01-27-14:20:12,10.1.1.5,24,-0.310,-0.310,-0.310,0.000,0.000,0.000
1643293212424481024,2022-01-27-14:20:12,10.1.1.5,41,-0.299,-0.299,-0.299,0.000,0.000,0.000
1643293212625897984,2022-01-27-14:20:12,10.1.1.5,41,-0.289,-0.289,-0.289,0.000,0.000,0.000
1643293212825010944,2022-01-27-14:20:12,10.1.1.5,39,-0.279,-0.279,-0.279,0.000,0.000,0.000
1643293213005344000,2022-01-27-14:20:13,10.1.1.5,19,-0.270,-0.270,-0.270,0.000,0.000,0.000
1643293213228950016,2022-01-27-14:20:13,10.1.1.5,41,-0.259,-0.259,-0.259,0.000,0.000,0.000
1643293213424804864,2022-01-27-14:20:13,10.1.1.5,36,-0.249,-0.249,-0.249,0.000,0.000,0.000
1643293213624211968,2022-01-27-14:20:13,10.1.1.5,35,-0.239,-0.239,-0.239,0.000,0.000,0.000
1643293213825699072,2022-01-27-14:20:13,10.1.1.5,35,-0.229,-0.229,-0.229,0.000,0.000,0.000
1643293214026167040,2022-01-27-14:20:14,10.1.1.5,33,-0.219,-0.219,-0.219,0.000,0.000,0.000
1643293214226695168,2022-01-27-14:20:14,10.1.1.5,32,-0.210,-0.210,-0.210,0.000,0.000,0.000
1643293214429042176,2022-01-27-14:20:14,10.1.1.5,32,-0.200,-0.200,-0.200,0.000,0.000,0.000
1643293214629240064,2022-01-27-14:20:14,10.1.1.5,32,-0.190,-0.190,-0.190,0.000,0.000,0.000
1643293214829394176,2022-01-27-14:20:14,10.1.1.5,31,-0.180,-0.180,-0.180,0.000,0.000,0.000
1643293215028600064,2022-01-27-14:20:15,10.1.1.5,30,-0.170,-0.170,-0.170,0.000,0.000,0.000
1643293215231257856,2022-01-27-14:20:15,10.1.1.5,31,-0.160,-0.160,-0.160,0.000,0.000,0.000
1643293215425430016,2022-01-27-14:20:15,10.1.1.5,24,-0.150,-0.150,-0.150,0.000,0.000,0.000
1643293215628807936,2022-01-27-14:20:15,10.1.1.5,27,-0.140,-0.140,-0.140,0.000,0.000,0.000
1643293215826551808,2022-01-27-14:20:15,10.1.1.5,24,-0.130,-0.130,-0.130,0.000,0.000,0.000
1643293216026788096,2022-01-27-14:20:16,10.1.1.5,23,-0.120,-0.120,-0.120,0.000,0.000,0.000
1643293216226840064,2022-01-27-14:20:16,10.1.1.5,21,-0.110,-0.110,-0.110,0.000,0.000,0.000
1643293216426390784,2022-01-27-14:20:16,10.1.1.5,20,-0.100,-0.100,-0.100,0.000,0.000,0.000
1643293216626512896,2022-01-27-14:20:16,10.1.1.5,19,-0.090,-0.090,-0.090,0.000,0.000,0.000
1643293216846853888,2022-01-27-14:20:16,10.1.1.5,39,-0.079,-0.079,-0.079,0.000,0.000,0.000
1643293217046813952,2022-01-27-14:20:17,10.1.1.5,37,-0.069,-0.069,-0.069,0.000,0.000,0.000
1643293217245524992,2022-01-27-14:20:17,10.1.1.5,36,-0.059,-0.059,-0.059,0.000,0.000,0.000
1643293217445528064,2022-01-27-14:20:17,10.1.1.5,35,-0.049,-0.049,-0.049,0.000,0.000,0.000
1643293217645587968,2022-01-27-14:20:17,10.1.1.5,35,-0.039,-0.039,-0.039,0.000,0.000,0.000
1643293217845626112,2022-01-27-14:20:17,10.1.1.5,34,-0.029,-0.029,-0.029,0.000,0.000,0.000
1643293218047096064,2022-01-27-14:20:18,10.1.1.5,34,-0.019,-0.019,-0.019,0.000,0.000,0.000
1643293218247272960,2022-01-27-14:20:18,10.1.1.5,32,-0.010,-0.010,-0.010,0.000,0.000,0.000
1643293218424969984,2022-01-27-14:20:18,10.1.1.5,9,-0.000,-0.000,-0.000,0.000,0.000,0.000
1643293218647034880,2022-01-27-14:20:18,10.1.1.5,29,-0.010,-0.010,-0.010,0.000,0.000,0.000
1643293218847603200,2022-01-27-14:20:18,10.1.1.5,30,-0.020,-0.020,-0.020,0.000,0.000,0.000
1643293219045849088,2022-01-27-14:20:19,10.1.1.5,27,-0.030,-0.030,-0.030,0.000,0.000,0.000
1643293219246131968,2022-01-27-14:20:19,10.1.1.5,26,-0.040,-0.040,-0.040,0.000,0.000,0.000
1643293219447388928,2022-01-27-14:20:19,10.1.1.5,26,-0.050,-0.050,-0.050,0.000,0.000,0.000
1643293219647335936,2022-01-27-14:20:19,10.1.1.5,26,-0.060,-0.060,-0.060,0.000,0.000,0.000
1643293219845285888,2022-01-27-14:20:19,10.1.1.5,22,-0.070,-0.070,-0.070,0.000,0.000,0.000
1643293220048041216,2022-01-27-14:20:20,10.1.1.5,24,-0.080,-0.080,-0.080,0.000,0.000,0.000
1643293220244893952,2022-01-27-14:20:20,10.1.1.5,19,-0.090,-0.090,-0.090,0.000,0.000,0.000
1643293220445024000,2022-01-27-14:20:20,10.1.1.5,17,-0.100,-0.100,-0.100,0.000,0.000,0.000
1643293220664710912,2022-01-27-14:20:20,10.1.1.5,35,-0.111,-0.111,-0.111,0.000,0.000,0.000
1643293220866803968,2022-01-27-14:20:20,10.1.1.5,36,-0.121,-0.121,-0.121,0.000,0.000,0.000
1643293221067884032,2022-01-27-14:20:21,10.1.1.5,36,-0.131,-0.131,-0.131,0.000,0.000,0.000
1643293221267493120,2022-01-27-14:20:21,10.1.1.5,33,-0.141,-0.141,-0.141,0.000,0.000,0.000
1643293221465940992,2022-01-27-14:20:21,10.1.1.5,29,-0.150,-0.150,-0.150,0.000,0.000,0.000
1643293221667288064,2022-01-27-14:20:21,10.1.1.5,29,-0.160,-0.160,-0.160,0.000,0.000,0.000
1643293221868724992,2022-01-27-14:20:21,10.1.1.5,30,-0.170,-0.170,-0.170,0.000,0.000,0.000
1643293222067433984,2022-01-27-14:20:22,10.1.1.5,27,-0.180,-0.180,-0.180,0.000,0.000,0.000
1643293222267452928,2022-01-27-14:20:22,10.1.1.5,26,-0.190,-0.190,-0.190,0.000,0.000,0.000
1643293222468614144,2022-01-27-14:20:22,10.1.1.5,26,-0.200,-0.200,-0.200,0.000,0.000,0.000
1643293222688726016,2022-01-27-14:20:22,10.1.1.5,44,-0.211,-0.211,-0.211,0.000,0.000,0.000
1643293222868262912,2022-01-27-14:20:22,10.1.1.5,22,-0.220,-0.220,-0.220,0.000,0.000,0.000
1643293223087534848,2022-01-27-14:20:23,10.1.1.5,39,-0.231,-0.231,-0.231,0.000,0.000,0.000
1643293223286895104,2022-01-27-14:20:23,10.1.1.5,37,-0.241,-0.241,-0.241,0.000,0.000,0.000
1643293223487122176,2022-01-27-14:20:23,10.1.1.5,37,-0.251,-0.251,-0.251,0.000,0.000,0.000
1643293223684654080,2022-01-27-14:20:23,10.1.1.5,33,-0.261,-0.261,-0.261,0.000,0.000,0.000
1643293223887949824,2022-01-27-14:20:23,10.1.1.5,35,-0.271,-0.271,-0.271,0.000,0.000,0.000
1643293224088474880,2022-01-27-14:20:24,10.1.1.5,35,-0.281,-0.281,-0.281,0.000,0.000,0.000
1643293224289830912,2022-01-27-14:20:24,10.1.1.5,35,-0.291,-0.291,-0.291,0.000,0.000,0.000
1643293224485671936,2022-01-27-14:20:24,10.1.1.5,29,-0.300,-0.300,-0.300,0.000,0.000,0.000
1643293224685760000,2022-01-27-14:20:24,10.1.1.5,28,-0.310,-0.310,-0.310,0.000,0.000,0.000
1643293224887226112,2022-01-27-14:20:24,10.1.1.5,29,-0.320,-0.320,-0.320,0.000,0.000,0.000
1643293225085385984,2022-01-27-14:20:25,10.1.1.5,26,-0.330,-0.330,-0.330,0.000,0.000,0.000
1643293225286516992,2022-01-27-14:20:25,10.1.1.5,26,-0.340,-0.340,-0.340,0.000,0.000,0.000
1643293225485456896,2022-01-27-14:20:25,10.1.1.5,24,-0.350,-0.350,-0.350,0.000,0.000,0.000
1643293225705508096,2022-01-27-14:20:25,10.1.1.5,43,-0.361,-0.361,-0.361,0.000,0.000,0.000
1643293225907535104,2022-01-27-14:20:25,10.1.1.5,43,-0.371,-0.371,-0.371,0.000,0.000,0.000
1643293226105721088,2022-01-27-14:20:26,10.1.1.5,30,-0.381,-0.381,-0.381,0.000,0.000,0.000
1643293226306284800,2022-01-27-14:20:26,10.1.1.5,30,-0.390,-0.390,-0.390,0.000,0.000,0.000
1643293226505955072,2022-01-27-14:20:26,10.1.1.5,29,-0.400,-0.400,-0.400,0.000,0.000,0.000
1643293226704690944,2022-01-27-14:20:26,10.1.1.5,27,-0.410,-0.410,-0.410,0.000,0.000,0.000
1643293226905881856,2022-01-27-14:20:26,10.1.1.5,26,-0.420,-0.420,-0.420,0.000,0.000,0.000
1643293227105832960,2022-01-27-14:20:27,10.1.1.5,26,-0.430,-0.430,-0.430,0.000,0.000,0.000
1643293227304567040,2022-01-27-14:20:27,10.1.1.5,24,-0.440,-0.440,-0.440,0.000,0.000,0.000
1643293227505043968,2022-01-27-14:20:27,10.1.1.5,24,-0.450,-0.450,-0.450,0.000,0.000,0.000
1643293227705481984,2022-01-27-14:20:27,10.1.1.5,24,-0.460,-0.460,-0.460,0.000,0.000,0.000
1643293227906119168,2022-01-27-14:20:27,10.1.1.5,23,-0.470,-0.470,-0.470,0.000,0.000,0.000
1643293228126530048,2022-01-27-14:20:28,10.1.1.5,42,-0.481,-0.481,-0.481,0.000,0.000,0.000
1643293228326350848,2022-01-27-14:20:28,10.1.1.5,39,-0.489,-0.489,-0.489,0.000,0.000,0.000
1643293228527848960,2022-01-27-14:20:28,10.1.1.5,40,-0.479,-0.479,-0.479,0.000,0.000,0.000
1643293228727746048,2022-01-27-14:20:28,10.1.1.5,39,-0.469,-0.469,-0.469,0.000,0.000,0.000
1643293228926423040,2022-01-27-14:20:28,10.1.1.5,37,-0.459,-0.459,-0.459,0.000,0.000,0.000
1643293229128089856,2022-01-27-14:20:29,10.1.1.5,38,-0.449,-0.449,-0.449,0.000,0.000,0.000
1643293229326206976,2022-01-27-14:20:29,10.1.1.5,35,-0.439,-0.439,-0.439,0.000,0.000,0.000
1643293229526458880,2022-01-27-14:20:29,10.1.1.5,34,-0.429,-0.429,-0.429,0.000,0.000,0.000
1643293229725980928,2022-01-27-14:20:29,10.1.1.5,32,-0.419,-0.419,-0.419,0.000,0.000,0.000
1643293229925875968,2022-01-27-14:20:29,10.1.1.5,31,-0.409,-0.409,-0.409,0.000,0.000,0.000
1643293230126563072,2022-01-27-14:20:30,10.1.1.5,30,-0.400,-0.400,-0.400,0.000,0.000,0.000
1643293230326208000,2022-01-27-14:20:30,10.1.1.5,26,-0.390,-0.390,-0.390,0.000,0.000,0.000
1643293230526995968,2022-01-27-14:20:30,10.1.1.5,26,-0.380,-0.380,-0.380,0.000,0.000,0.000
1643293230725640960,2022-01-27-14:20:30,10.1.1.5,26,-0.370,-0.370,-0.370,0.000,0.000,0.000
1643293230925182976,2022-01-27-14:20:30,10.1.1.5,25,-0.360,-0.360,-0.360,0.000,0.000,0.000
1643293231126387968,2022-01-27-14:20:31,10.1.1.5,23,-0.350,-0.350,-0.350,0.000,0.000,0.000
1643293231325609984,2022-01-27-14:20:31,10.1.1.5,24,-0.340,-0.340,-0.340,0.000,0.000,0.000
1643293231525315072,2022-01-27-14:20:31,10.1.1.5,23,-0.330,-0.330,-0.330,0.000,0.000,0.000
1643293231726962944,2022-01-27-14:20:31,10.1.1.5,24,-0.320,-0.320,-0.320,0.000,0.000,0.000
1643293231926230016,2022-01-27-14:20:31,10.1.1.5,23,-0.310,-0.310,-0.310,0.000,0.000,0.000
1643293232146769920,2022-01-27-14:20:32,10.1.1.5,40,-0.299,-0.299,-0.299,0.000,0.000,0.000
1643293232347619072,2022-01-27-14:20:32,10.1.1.5,38,-0.289,-0.289,-0.289,0.000,0.000,0.000
1643293232545000960,2022-01-27-14:20:32,10.1.1.5,34,-0.279,-0.279,-0.279,0.000,0.000,0.000
1643293232745992960,2022-01-27-14:20:32,10.1.1.5,35,-0.269,-0.269,-0.269,0.000,0.000,0.000
1643293232945117952,2022-01-27-14:20:32,10.1.1.5,33,-0.259,-0.259,-0.259,0.000,0.000,0.000
1643293233146977024,2022-01-27-14:20:33,10.1.1.5,34,-0.249,-0.249,-0.249,0.000,0.000,0.000
1643293233344690944,2022-01-27-14:20:33,10.1.1.5,31,-0.239,-0.239,-0.239,0.000,0.000,0.000
1643293233545277952,2022-01-27-14:20:33,10.1.1.5,30,-0.230,-0.230,-0.230,0.000,0.000,0.000
1643293233746146816,2022-01-27-14:20:33,10.1.1.5,29,-0.219,-0.219,-0.219,0.000,0.000,0.000
1643293233946832896,2022-01-27-14:20:33,10.1.1.5,30,-0.209,-0.209,-0.209,0.000,0.000,0.000
1643293234146685952,2022-01-27-14:20:34,10.1.1.5,29,-0.200,-0.200,-0.200,0.000,0.000,0.000
1643293234346436096,2022-01-27-14:20:34,10.1.1.5,28,-0.190,-0.190,-0.190,0.000,0.000,0.000
1643293234547805184,2022-01-27-14:20:34,10.1.1.5,29,-0.180,-0.180,-0.180,0.000,0.000,0.000
1643293234745242112,2022-01-27-14:20:34,10.1.1.5,26,-0.170,-0.170,-0.170,0.000,0.000,0.000
1643293234945404160,2022-01-27-14:20:34,10.1.1.5,26,-0.160,-0.160,-0.160,0.000,0.000,0.000
1643293235146043904,2022-01-27-14:20:35,10.1.1.5,26,-0.150,-0.150,-0.150,0.000,0.000,0.000
1643293235345797120,2022-01-27-14:20:35,10.1.1.5,25,-0.140,-0.140,-0.140,0.000,0.000,0.000
1643293235546670080,2022-01-27-14:20:35,10.1.1.5,25,-0.130,-0.130,-0.130,0.000,0.000,0.000
1643293235746144000,2022-01-27-14:20:35,10.1.1.5,22,-0.120,-0.120,-0.120,0.000,0.000,0.000
1643293235945202944,2022-01-27-14:20:35,10.1.1.5,21,-0.110,-0.110,-0.110,0.000,0.000,0.000
1643293236145908992,2022-01-27-14:20:36,10.1.1.5,21,-0.100,-0.100,-0.100,0.000,0.000,0.000
1643293236345361920,2022-01-27-14:20:36,10.1.1.5,20,-0.090,-0.090,-0.090,0.000,0.000,0.000
1643293236545517824,2022-01-27-14:20:36,10.1.1.5,19,-0.080,-0.080,-0.080,0.000,0.000,0.000
1643293236767560960,2022-01-27-14:20:36,10.1.1.5,40,-0.069,-0.069,-0.069,0.000,0.000,0.000
1643293236966115840,2022-01-27-14:20:36,10.1.1.5,38,-0.059,-0.059,-0.059,0.000,0.000,0.000
1643293237167025152,2022-01-27-14:20:37,10.1.1.5,38,-0.049,-0.049,-0.049,0.000,0.000,0.000
1643293237365351936,2022-01-27-14:20:37,10.1.1.5,36,-0.039,-0.039,-0.039,0.000,0.000,0.000
1643293237566569216,2022-01-27-14:20:37,10.1.1.5,37,-0.029,-0.029,-0.029,0.000,0.000,0.000
1643293237765137920,2022-01-27-14:20:37,10.1.1.5,35,-0.019,-0.019,-0.019,0.000,0.000,0.000
1643293237965208064,2022-01-27-14:20:37,10.1.1.5,35,-0.009,-0.009,-0.009,0.000,0.000,0.000
1643293238146681088,2022-01-27-14:20:38,10.1.1.5,16,-0.000,-0.000,-0.000,0.000,0.000,0.000
1643293238366441984,2022-01-27-14:20:38,10.1.1.5,35,-0.011,-0.011,-0.011,0.000,0.000,0.000
1643293238566256128,2022-01-27-14:20:38,10.1.1.5,34,-0.021,-0.021,-0.021,0.000,0.000,0.000
1643293238765335040,2022-01-27-14:20:38,10.1.1.5,32,-0.031,-0.031,-0.031,0.000,0.000,0.000
1643293238967044096,2022-01-27-14:20:38,10.1.1.5,32,-0.040,-0.040,-0.040,0.000,0.000,0.000
1643293239166362112,2022-01-27-14:20:39,10.1.1.5,30,-0.051,-0.051,-0.051,0.000,0.000,0.000
1643293239365816064,2022-01-27-14:20:39,10.1.1.5,29,-0.060,-0.060,-0.060,0.000,0.000,0.000
1643293239566683136,2022-01-27-14:20:39,10.1.1.5,29,-0.070,-0.070,-0.070,0.000,0.000,0.000
1643293239766347776,2022-01-27-14:20:39,10.1.1.5,27,-0.080,-0.080,-0.080,0.000,0.000,0.000
1643293239967556096,2022-01-27-14:20:39,10.1.1.5,26,-0.090,-0.090,-0.090,0.000,0.000,0.000
1643293240165739008,2022-01-27-14:20:40,10.1.1.5,23,-0.100,-0.100,-0.100,0.000,0.000,0.000
1643293240365591040,2022-01-27-14:20:40,10.1.1.5,21,-0.110,-0.110,-0.110,0.000,0.000,0.000
1643293240567715840,2022-01-27-14:20:40,10.1.1.5,22,-0.120,-0.120,-0.120,0.000,0.000,0.000
1643293240785444864,2022-01-27-14:20:40,10.1.1.5,38,-0.131,-0.131,-0.131,0.000,0.000,0.000
1643293240987677952,2022-01-27-14:20:40,10.1.1.5,40,-0.141,-0.141,-0.141,0.000,0.000,0.000
1643293241186469120,2022-01-27-14:20:41,10.1.1.5,38,-0.151,-0.151,-0.151,0.000,0.000,0.000
1643293241386946048,2022-01-27-14:20:41,10.1.1.5,38,-0.161,-0.161,-0.161,0.000,0.000,0.000
1643293241585190912,2022-01-27-14:20:41,10.1.1.5,36,-0.171,-0.171,-0.171,0.000,0.000,0.000
1643293241786254848,2022-01-27-14:20:41,10.1.1.5,34,-0.181,-0.181,-0.181,0.000,0.000,0.000
1643293241986136064,2022-01-27-14:20:41,10.1.1.5,32,-0.191,-0.191,-0.191,0.000,0.000,0.000
1643293242187288064,2022-01-27-14:20:42,10.1.1.5,33,-0.200,-0.200,-0.200,0.000,0.000,0.000
1643293242387425792,2022-01-27-14:20:42,10.1.1.5,31,-0.210,-0.210,-0.210,0.000,0.000,0.000
1643293242604566016,2022-01-27-14:20:42,10.1.1.5,45,-0.220,-0.220,-0.220,0.000,0.000,0.000
1643293242787025920,2022-01-27-14:20:42,10.1.1.5,27,-0.230,-0.230,-0.230,0.000,0.000,0.000
1643293242985029888,2022-01-27-14:20:42,10.1.1.5,24,-0.240,-0.240,-0.240,0.000,0.000,0.000
1643293243185366016,2022-01-27-14:20:43,10.1.1.5,24,-0.250,-0.250,-0.250,0.000,0.000,0.000
1643293243387394048,2022-01-27-14:20:43,10.1.1.5,25,-0.260,-0.260,-0.260,0.000,0.000,0.000
1643293243587377920,2022-01-27-14:20:43,10.1.1.5,25,-0.270,-0.270,-0.270,0.000,0.000,0.000
1643293243784590080,2022-01-27-14:20:43,10.1.1.5,21,-0.280,-0.280,-0.280,0.000,0.000,0.000
1643293243986555136,2022-01-27-14:20:43,10.1.1.5,22,-0.290,-0.290,-0.290,0.000,0.000,0.000
1643293244206636032,2022-01-27-14:20:44,10.1.1.5,38,-0.301,-0.301,-0.301,0.000,0.000,0.000
1643293244405196032,2022-01-27-14:20:44,10.1.1.5,36,-0.311,-0.311,-0.311,0.000,0.000,0.000
1643293244607499008,2022-01-27-14:20:44,10.1.1.5,36,-0.321,-0.321,-0.321,0.000,0.000,0.000
1643293244807697152,2022-01-27-14:20:44,10.1.1.5,35,-0.331,-0.331,-0.331,0.000,0.000,0.000
1643293245005900032,2022-01-27-14:20:45,10.1.1.5,33,-0.341,-0.341,-0.341,0.000,0.000,0.000
1643293245205563136,2022-01-27-14:20:45,10.1.1.5,29,-0.350,-0.350,-0.350,0.000,0.000,0.000
1643293245405006848,2022-01-27-14:20:45,10.1.1.5,27,-0.360,-0.360,-0.360,0.000,0.000,0.000
1643293245605971968,2022-01-27-14:20:45,10.1.1.5,27,-0.370,-0.370,-0.370,0.000,0.000,0.000
1643293245805593856,2022-01-27-14:20:45,10.1.1.5,25,-0.380,-0.380,-0.380,0.000,0.000,0.000
1643293246004939008,2022-01-27-14:20:46,10.1.1.5,25,-0.390,-0.390,-0.390,0.000,0.000,0.000
1643293246206064896,2022-01-27-14:20:46,10.1.1.5,25,-0.400,-0.400,-0.400,0.000,0.000,0.000
1643293246405628928,2022-01-27-14:20:46,10.1.1.5,24,-0.410,-0.410,-0.410,0.000,0.000,0.000
1643293246605071104,2022-01-27-14:20:46,10.1.1.5,22,-0.420,-0.420,-0.420,0.000,0.000,0.000
1643293246826230016,2022-01-27-14:20:46,10.1.1.5,42,-0.431,-0.431,-0.431,0.000,0.000,0.000
1643293247005261056,2022-01-27-14:20:47,10.1.1.5,18,-0.440,-0.440,-0.440,0.000,0.000,0.000
1643293247226351872,2022-01-27-14:20:47,10.1.1.5,39,-0.451,-0.451,-0.451,0.000,0.000,0.000
1643293247427393024,2022-01-27-14:20:47,10.1.1.5,39,-0.461,-0.461,-0.461,0.000,0.000,0.000
1643293247626740992,2022-01-27-14:20:47,10.1.1.5,38,-0.471,-0.471,-0.471,0.000,0.000,0.000
1643293247825829888,2022-01-27-14:20:47,10.1.1.5,36,-0.481,-0.481,-0.481,0.000,0.000,0.000
1643293248005084160,2022-01-27-14:20:48,10.1.1.5,14,-0.490,-0.490,-0.490,0.000,0.000,0.000
1643293248225108992,2022-01-27-14:20:48,10.1.1.5,34,-0.479,-0.479,-0.479,0.000,0.000,0.000
1643293248426085888,2022-01-27-14:20:48,10.1.1.5,34,-0.469,-0.469,-0.469,0.000,0.000,0.000
1643293248626347008,2022-01-27-14:20:48,10.1.1.5,34,-0.459,-0.459,-0.459,0.000,0.000,0.000
1643293248825042944,2022-01-27-14:20:48,10.1.1.5,32,-0.449,-0.449,-0.449,0.000,0.000,0.000
1643293249018033920,2022-01-27-14:20:49,10.1.1.5,24,-0.440,-0.440,-0.440,0.000,0.000,0.000
1643293249225227008,2022-01-27-14:20:49,10.1.1.5,29,-0.429,-0.429,-0.429,0.000,0.000,0.000
1643293249447794944,2022-01-27-14:20:49,10.1.1.5,51,-0.418,-0.418,-0.418,0.000,0.000,0.000
1643293249625545984,2022-01-27-14:20:49,10.1.1.5,28,-0.410,-0.410,-0.410,0.000,0.000,0.000
1643293249826189056,2022-01-27-14:20:49,10.1.1.5,28,-0.400,-0.400,-0.400,0.000,0.000,0.000
1643293250025043968,2022-01-27-14:20:50,10.1.1.5,26,-0.390,-0.390,-0.390,0.000,0.000,0.000
1643293250227987968,2022-01-27-14:20:50,10.1.1.5,29,-0.380,-0.380,-0.380,0.000,0.000,0.000
1643293250426052096,2022-01-27-14:20:50,10.1.1.5,26,-0.370,-0.370,-0.370,0.000,0.000,0.000
1643293250625037824,2022-01-27-14:20:50,10.1.1.5,24,-0.360,-0.360,-0.360,0.000,0.000,0.000
1643293250825867008,2022-01-27-14:20:50,10.1.1.5,24,-0.350,-0.350,-0.350,0.000,0.000,0.000
1643293251047584000,2022-01-27-14:20:51,10.1.1.5,45,-0.339,-0.339,-0.339,0.000,0.000,0.000
1643293251248062976,2022-01-27-14:20:51,10.1.1.5,44,-0.329,-0.329,-0.329,0.000,0.000,0.000
1643293251445818880,2022-01-27-14:20:51,10.1.1.5,37,-0.319,-0.319,-0.319,0.000,0.000,0.000
1643293251647305984,2022-01-27-14:20:51,10.1.1.5,39,-0.309,-0.309,-0.309,0.000,0.000,0.000
1643293251844697856,2022-01-27-14:20:51,10.1.1.5,35,-0.299,-0.299,-0.299,0.000,0.000,0.000
1643293252047760896,2022-01-27-14:20:52,10.1.1.5,38,-0.289,-0.289,-0.289,0.000,0.000,0.000
1643293252247097088,2022-01-27-14:20:52,10.1.1.5,36,-0.279,-0.279,-0.279,0.000,0.000,0.000
1643293252445617920,2022-01-27-14:20:52,10.1.1.5,33,-0.269,-0.269,-0.269,0.000,0.000,0.000
1643293252645067008,2022-01-27-14:20:52,10.1.1.5,30,-0.260,-0.260,-0.260,0.000,0.000,0.000
1643293252845746944,2022-01-27-14:20:52,10.1.1.5,30,-0.249,-0.249,-0.249,0.000,0.000,0.000
1643293253045286912,2022-01-27-14:20:53,10.1.1.5,29,-0.239,-0.239,-0.239,0.000,0.000,0.000
1643293253245460992,2022-01-27-14:20:53,10.1.1.5,29,-0.229,-0.229,-0.229,0.000,0.000,0.000
1643293253446768896,2022-01-27-14:20:53,10.1.1.5,29,-0.220,-0.220,-0.220,0.000,0.000,0.000
1643293253648555008,2022-01-27-14:20:53,10.1.1.5,30,-0.210,-0.210,-0.210,0.000,0.000,0.000
1643293253847321088,2022-01-27-14:20:53,10.1.1.5,28,-0.200,-0.200,-0.200,0.000,0.000,0.000
1643293254045326080,2022-01-27-14:20:54,10.1.1.5,25,-0.190,-0.190,-0.190,0.000,0.000,0.000
1643293254246448128,2022-01-27-14:20:54,10.1.1.5,25,-0.180,-0.180,-0.180,0.000,0.000,0.000
1643293254447542016,2022-01-27-14:20:54,10.1.1.5,26,-0.170,-0.170,-0.170,0.000,0.000,0.000
1643293254648314880,2022-01-27-14:20:54,10.1.1.5,25,-0.160,-0.160,-0.160,0.000,0.000,0.000
1643293254865849856,2022-01-27-14:20:54,10.1.1.5,38,-0.149,-0.149,-0.149,0.000,0.000,0.000
1643293255065658112,2022-01-27-14:20:55,10.1.1.5,37,-0.139,-0.139,-0.139,0.000,0.000,0.000
1643293255266260992,2022-01-27-14:20:55,10.1.1.5,36,-0.129,-0.129,-0.129,0.000,0.000,0.000
1643293255466464000,2022-01-27-14:20:55,10.1.1.5,35,-0.119,-0.119,-0.119,0.000,0.000,0.000
1643293255665437952,2022-01-27-14:20:55,10.1.1.5,33,-0.109,-0.109,-0.109,0.000,0.000,0.000
1643293255867429120,2022-01-27-14:20:55,10.1.1.5,35,-0.099,-0.099,-0.099,0.000,0.000,0.000
1643293256068424960,2022-01-27-14:20:56,10.1.1.5,35,-0.089,-0.089,-0.089,0.000,0.000,0.000
1643293256267314944,2022-01-27-14:20:56,10.1.1.5,30,-0.080,-0.080,-0.080,0.000,0.000,0.000
1643293256470253824,2022-01-27-14:20:56,10.1.1.5,32,-0.070,-0.070,-0.070,0.000,0.000,0.000
1643293256668477184,2022-01-27-14:20:56,10.1.1.5,30,-0.060,-0.060,-0.060,0.000,0.000,0.000
1643293256866571008,2022-01-27-14:20:56,10.1.1.5,27,-0.050,-0.050,-0.050,0.000,0.000,0.000
1643293257068770816,2022-01-27-14:20:57,10.1.1.5,27,-0.040,-0.040,-0.040,0.000,0.000,0.000
1643293257286274048,2022-01-27-14:20:57,10.1.1.5,44,-0.029,-0.029,-0.029,0.000,0.000,0.000
1643293257487646208,2022-01-27-14:20:57,10.1.1.5,44,-0.019,-0.019,-0.019,0.000,0.000,0.000
1643293257672776960,2022-01-27-14:20:57,10.1.1.5,29,-0.010,-0.010,-0.010,0.000,0.000,0.000
1643293257848242944,2022-01-27-14:20:57,10.1.1.5,1,-0.001,-0.001,-0.001,0.000,0.000,0.000
1643293258087851008,2022-01-27-14:20:58,10.1.1.5,38,-0.011,-0.011,-0.011,0.000,0.000,0.000
1643293258286338048,2022-01-27-14:20:58,10.1.1.5,36,-0.021,-0.021,-0.021,0.000,0.000,0.000
1643293258487724032,2022-01-27-14:20:58,10.1.1.5,36,-0.031,-0.031,-0.031,0.000,0.000,0.000
1643293258685026816,2022-01-27-14:20:58,10.1.1.5,33,-0.041,-0.041,-0.041,0.000,0.000,0.000
1643293258885868032,2022-01-27-14:20:58,10.1.1.5,33,-0.051,-0.051,-0.051,0.000,0.000,0.000
1643293259088612096,2022-01-27-14:20:59,10.1.1.5,35,-0.061,-0.061,-0.061,0.000,0.000,0.000
1643293259287239168,2022-01-27-14:20:59,10.1.1.5,32,-0.071,-0.071,-0.071,0.000,0.000,0.000
1643293259487217920,2022-01-27-14:20:59,10.1.1.5,31,-0.081,-0.081,-0.081,0.000,0.000,0.000
1643293259685414912,2022-01-27-14:20:59,10.1.1.5,28,-0.090,-0.090,-0.090,0.000,0.000,0.000
1643293259887003904,2022-01-27-14:20:59,10.1.1.5,29,-0.100,-0.100,-0.100,0.000,0.000,0.000
1643293260088187904,2022-01-27-14:21:00,10.1.1.5,30,-0.110,-0.110,-0.110,0.000,0.000,0.000
1643293260288732928,2022-01-27-14:21:00,10.1.1.5,29,-0.120,-0.120,-0.120,0.000,0.000,0.000
1643293260487341824,2022-01-27-14:21:00,10.1.1.5,27,-0.130,-0.130,-0.130,0.000,0.000,0.000
1643293260687403008,2022-01-27-14:21:00,10.1.1.5,25,-0.140,-0.140,-0.140,0.000,0.000,0.000
1643293260906631936,2022-01-27-14:21:00,10.1.1.5,43,-0.151,-0.151,-0.151,0.000,0.000,0.000
1643293261087666944,2022-01-27-14:21:01,10.1.1.5,23,-0.160,-0.160,-0.160,0.000,0.000,0.000
1643293261307485184,2022-01-27-14:21:01,10.1.1.5,40,-0.171,-0.171,-0.171,0.000,0.000,0.000
1643293261507662080,2022-01-27-14:21:01,10.1.1.5,39,-0.181,-0.181,-0.181,0.000,0.000,0.000
1643293261705600000,2022-01-27-14:21:01,10.1.1.5,37,-0.191,-0.191,-0.191,0.000,0.000,0.000
1643293261907588096,2022-01-27-14:21:01,10.1.1.5,38,-0.201,-0.201,-0.201,0.000,0.000,0.000
1643293262109022976,2022-01-27-14:21:02,10.1.1.5,39,-0.211,-0.211,-0.211,0.000,0.000,0.000
1643293262307641088,2022-01-27-14:21:02,10.1.1.5,37,-0.221,-0.221,-0.221,0.000,0.000,0.000
1643293262506283008,2022-01-27-14:21:02,10.1.1.5,35,-0.231,-0.231,-0.231,0.000,0.000,0.000
1643293262706278144,2022-01-27-14:21:02,10.1.1.5,34,-0.241,-0.241,-0.241,0.000,0.000,0.000
1643293262907538944,2022-01-27-14:21:02,10.1.1.5,34,-0.251,-0.251,-0.251,0.000,0.000,0.000
1643293263108366080,2022-01-27-14:21:03,10.1.1.5,33,-0.261,-0.261,-0.261,0.000,0.000,0.000
1643293263307371008,2022-01-27-14:21:03,10.1.1.5,30,-0.270,-0.270,-0.270,0.000,0.000,0.000
1643293263505654016,2022-01-27-14:21:03,10.1.1.5,28,-0.280,-0.280,-0.280,0.000,0.000,0.000
1643293263706973952,2022-01-27-14:21:03,10.1.1.5,28,-0.290,-0.290,-0.290,0.000,0.000,0.000
1643293263905835008,2022-01-27-14:21:03,10.1.1.5,27,-0.300,-0.300,-0.300,0.000,0.000,0.000
1643293264109040896,2022-01-27-14:21:04,10.1.1.5,26,-0.310,-0.310,-0.310,0.000,0.000,0.000
1643293264305984000,2022-01-27-14:21:04,10.1.1.5,26,-0.320,-0.320,-0.320,0.000,0.000,0.000
1643293264508111104,2022-01-27-14:21:04,10.1.1.5,27,-0.330,-0.330,-0.330,0.000,0.000,0.000
1643293264706906112,2022-01-27-14:21:04,10.1.1.5,25,-0.340,-0.340,-0.340,0.000,0.000,0.000
1643293264906904064,2022-01-27-14:21:04,10.1.1.5,24,-0.350,-0.350,-0.350,0.000,0.000,0.000
1643293265107689984,2022-01-27-14:21:05,10.1.1.5,24,-0.360,-0.360,-0.360,0.000,0.000,0.000
1643293265309029120,2022-01-27-14:21:05,10.1.1.5,25,-0.370,-0.370,-0.370,0.000,0.000,0.000
1643293265506750208,2022-01-27-14:21:05,10.1.1.5,21,-0.380,-0.380,-0.380,0.000,0.000,0.000
1643293265725751040,2022-01-27-14:21:05,10.1.1.5,38,-0.391,-0.391,-0.391,0.000,0.000,0.000
1643293265925795072,2022-01-27-14:21:05,10.1.1.5,37,-0.401,-0.401,-0.401,0.000,0.000,0.000
1643293266126332160,2022-01-27-14:21:06,10.1.1.5,37,-0.411,-0.411,-0.411,0.000,0.000,0.000
1643293266327585024,2022-01-27-14:21:06,10.1.1.5,37,-0.421,-0.421,-0.421,0.000,0.000,0.000
1643293266527857152,2022-01-27-14:21:06,10.1.1.5,36,-0.431,-0.431,-0.431,0.000,0.000,0.000
1643293266726073088,2022-01-27-14:21:06,10.1.1.5,33,-0.441,-0.441,-0.441,0.000,0.000,0.000
1643293266927418112,2022-01-27-14:21:06,10.1.1.5,33,-0.450,-0.450,-0.450,0.000,0.000,0.000
1643293267127161856,2022-01-27-14:21:07,10.1.1.5,32,-0.460,-0.460,-0.460,0.000,0.000,0.000
1643293267328598016,2022-01-27-14:21:07,10.1.1.5,32,-0.470,-0.470,-0.470,0.000,0.000,0.000
1643293267527739904,2022-01-27-14:21:07,10.1.1.5,31,-0.480,-0.480,-0.480,0.000,0.000,0.000
1643293267708327936,2022-01-27-14:21:07,10.1.1.5,11,-0.489,-0.489,-0.489,0.000,0.000,0.000
1643293267925699840,2022-01-27-14:21:07,10.1.1.5,27,-0.480,-0.480,-0.480,0.000,0.000,0.000
1643293268128227072,2022-01-27-14:21:08,10.1.1.5,29,-0.470,-0.470,-0.470,0.000,0.000,0.000
1643293268327373056,2022-01-27-14:21:08,10.1.1.5,28,-0.460,-0.460,-0.460,0.000,0.000,0.000
1643293268530284800,2022-01-27-14:21:08,10.1.1.5,26,-0.450,-0.450,-0.450,0.000,0.000,0.000
1643293268728470016,2022-01-27-14:21:08,10.1.1.5,27,-0.440,-0.440,-0.440,0.000,0.000,0.000
1643293268927791104,2022-01-27-14:21:08,10.1.1.5,26,-0.430,-0.430,-0.430,0.000,0.000,0.000
1643293269127749888,2022-01-27-14:21:09,10.1.1.5,26,-0.420,-0.420,-0.420,0.000,0.000,0.000
1643293269347811840,2022-01-27-14:21:09,10.1.1.5,45,-0.409,-0.409,-0.409,0.000,0.000,0.000
1643293269528142848,2022-01-27-14:21:09,10.1.1.5,22,-0.400,-0.400,-0.400,0.000,0.000,0.000
1643293269726990080,2022-01-27-14:21:09,10.1.1.5,23,-0.390,-0.390,-0.390,0.000,0.000,0.000
1643293269929249024,2022-01-27-14:21:09,10.1.1.5,24,-0.380,-0.380,-0.380,0.000,0.000,0.000
1643293270146616832,2022-01-27-14:21:10,10.1.1.5,39,-0.369,-0.369,-0.369,0.000,0.000,0.000
1643293270378115840,2022-01-27-14:21:10,10.1.1.5,57,-0.359,-0.359,-0.359,0.000,0.000,0.000
1643293270567495936,2022-01-27-14:21:10,10.1.1.5,25,-0.350,-0.350,-0.350,0.000,0.000,0.000
1643293270766877952,2022-01-27-14:21:10,10.1.1.5,23,-0.340,-0.340,-0.340,0.000,0.000,0.000
1643293270985625856,2022-01-27-14:21:10,10.1.1.5,41,-0.329,-0.329,-0.329,0.000,0.000,0.000
1643293271187215104,2022-01-27-14:21:11,10.1.1.5,39,-0.319,-0.319,-0.319,0.000,0.000,0.000
1643293271388411904,2022-01-27-14:21:11,10.1.1.5,40,-0.309,-0.309,-0.309,0.000,0.000,0.000
1643293271584587008,2022-01-27-14:21:11,10.1.1.5,35,-0.299,-0.299,-0.299,0.000,0.000,0.000
1643293271789225216,2022-01-27-14:21:11,10.1.1.5,39,-0.289,-0.289,-0.289,0.000,0.000,0.000
1643293271986721024,2022-01-27-14:21:11,10.1.1.5,36,-0.279,-0.279,-0.279,0.000,0.000,0.000
1643293272185328128,2022-01-27-14:21:12,10.1.1.5,33,-0.269,-0.269,-0.269,0.000,0.000,0.000
1643293272387202048,2022-01-27-14:21:12,10.1.1.5,34,-0.260,-0.260,-0.260,0.000,0.000,0.000
1643293272587002880,2022-01-27-14:21:12,10.1.1.5,32,-0.249,-0.249,-0.249,0.000,0.000,0.000
1643293272787058944,2022-01-27-14:21:12,10.1.1.5,31,-0.240,-0.240,-0.240,0.000,0.000,0.000
1643293272986831872,2022-01-27-14:21:12,10.1.1.5,28,-0.230,-0.230,-0.230,0.000,0.000,0.000
1643293273186659072,2022-01-27-14:21:13,10.1.1.5,28,-0.220,-0.220,-0.220,0.000,0.000,0.000
1643293273387025152,2022-01-27-14:21:13,10.1.1.5,27,-0.210,-0.210,-0.210,0.000,0.000,0.000
1643293273588227072,2022-01-27-14:21:13,10.1.1.5,27,-0.200,-0.200,-0.200,0.000,0.000,0.000
1643293273785352960,2022-01-27-14:21:13,10.1.1.5,24,-0.190,-0.190,-0.190,0.000,0.000,0.000
1643293273985411840,2022-01-27-14:21:13,10.1.1.5,24,-0.180,-0.180,-0.180,0.000,0.000,0.000
1643293274186459136,2022-01-27-14:21:14,10.1.1.5,24,-0.170,-0.170,-0.170,0.000,0.000,0.000
1643293274385627904,2022-01-27-14:21:14,10.1.1.5,23,-0.160,-0.160,-0.160,0.000,0.000,0.000
1643293274587273984,2022-01-27-14:21:14,10.1.1.5,23,-0.150,-0.150,-0.150,0.000,0.000,0.000
1643293274807055104,2022-01-27-14:21:14,10.1.1.5,36,-0.139,-0.139,-0.139,0.000,0.000,0.000
1643293275006490880,2022-01-27-14:21:15,10.1.1.5,34,-0.129,-0.129,-0.129,0.000,0.000,0.000
1643293275205594112,2022-01-27-14:21:15,10.1.1.5,32,-0.119,-0.119,-0.119,0.000,0.000,0.000
1643293275406230016,2022-01-27-14:21:15,10.1.1.5,31,-0.109,-0.109,-0.109,0.000,0.000,0.000
1643293275607040000,2022-01-27-14:21:15,10.1.1.5,30,-0.099,-0.099,-0.099,0.000,0.000,0.000
1643293275807678976,2022-01-27-14:21:15,10.1.1.5,30,-0.090,-0.090,-0.090,0.000,0.000,0.000
1643293276006576128,2022-01-27-14:21:16,10.1.1.5,28,-0.080,-0.080,-0.080,0.000,0.000,0.000
1643293276207261184,2022-01-27-14:21:16,10.1.1.5,28,-0.070,-0.070,-0.070,0.000,0.000,0.000
1643293276405157120,2022-01-27-14:21:16,10.1.1.5,24,-0.060,-0.060,-0.060,0.000,0.000,0.000
1643293276605041920,2022-01-27-14:21:16,10.1.1.5,24,-0.050,-0.050,-0.050,0.000,0.000,0.000
1643293276805708800,2022-01-27-14:21:16,10.1.1.5,24,-0.040,-0.040,-0.040,0.000,0.000,0.000
1643293277005494016,2022-01-27-14:21:17,10.1.1.5,23,-0.030,-0.030,-0.030,0.000,0.000,0.000
1643293277205918976,2022-01-27-14:21:17,10.1.1.5,23,-0.020,-0.020,-0.020,0.000,0.000,0.000
1643293277405179136,2022-01-27-14:21:17,10.1.1.5,22,-0.010,-0.010,-0.010,0.000,0.000,0.000
1643293277586028032,2022-01-27-14:21:17,10.1.1.5,2,-0.001,-0.001,-0.001,0.000,0.000,0.000
1643293277825634048,2022-01-27-14:21:17,10.1.1.5,39,-0.011,-0.011,-0.011,0.000,0.000,0.000
1643293278026894080,2022-01-27-14:21:18,10.1.1.5,40,-0.021,-0.021,-0.021,0.000,0.000,0.000
1643293278242695936,2022-01-27-14:21:18,10.1.1.5,55,-0.031,-0.031,-0.031,0.000,0.000,0.000
1643293278426747136,2022-01-27-14:21:18,10.1.1.5,39,-0.041,-0.041,-0.041,0.000,0.000,0.000
1643293278627348992,2022-01-27-14:21:18,10.1.1.5,37,-0.051,-0.051,-0.051,0.000,0.000,0.000
1643293278827214080,2022-01-27-14:21:18,10.1.1.5,38,-0.061,-0.061,-0.061,0.000,0.000,0.000
1643293279025723904,2022-01-27-14:21:19,10.1.1.5,36,-0.071,-0.071,-0.071,0.000,0.000,0.000
1643293279226798080,2022-01-27-14:21:19,10.1.1.5,36,-0.081,-0.081,-0.081,0.000,0.000,0.000
1643293279425775104,2022-01-27-14:21:19,10.1.1.5,34,-0.091,-0.091,-0.091,0.000,0.000,0.000
1643293279627991808,2022-01-27-14:21:19,10.1.1.5,36,-0.101,-0.101,-0.101,0.000,0.000,0.000
1643293279827617792,2022-01-27-14:21:19,10.1.1.5,35,-0.111,-0.111,-0.111,0.000,0.000,0.000
1643293280027252992,2022-01-27-14:21:20,10.1.1.5,32,-0.121,-0.121,-0.121,0.000,0.000,0.000
1643293280227382784,2022-01-27-14:21:20,10.1.1.5,33,-0.131,-0.131,-0.131,0.000,0.000,0.000
1643293280426786816,2022-01-27-14:21:20,10.1.1.5,32,-0.141,-0.141,-0.141,0.000,0.000,0.000
1643293280626630912,2022-01-27-14:21:20,10.1.1.5,31,-0.151,-0.151,-0.151,0.000,0.000,0.000
1643293280827042048,2022-01-27-14:21:20,10.1.1.5,30,-0.160,-0.160,-0.160,0.000,0.000,0.000
1643293281025417216,2022-01-27-14:21:21,10.1.1.5,28,-0.170,-0.170,-0.170,0.000,0.000,0.000
1643293281226329088,2022-01-27-14:21:21,10.1.1.5,28,-0.180,-0.180,-0.180,0.000,0.000,0.000
1643293281425679872,2022-01-27-14:21:21,10.1.1.5,27,-0.190,-0.190,-0.190,0.000,0.000,0.000
1643293281627968000,2022-01-27-14:21:21,10.1.1.5,27,-0.200,-0.200,-0.200,0.000,0.000,0.000
1643293281825378816,2022-01-27-14:21:21,10.1.1.5,26,-0.210,-0.210,-0.210,0.000,0.000,0.000
1643293282027010048,2022-01-27-14:21:22,10.1.1.5,27,-0.220,-0.220,-0.220,0.000,0.000,0.000
1643293282224963072,2022-01-27-14:21:22,10.1.1.5,24,-0.230,-0.230,-0.230,0.000,0.000,0.000
1643293282425842944,2022-01-27-14:21:22,10.1.1.5,25,-0.240,-0.240,-0.240,0.000,0.000,0.000
1643293282645335040,2022-01-27-14:21:22,10.1.1.5,42,-0.251,-0.251,-0.251,0.000,0.000,0.000
1643293282825860096,2022-01-27-14:21:22,10.1.1.5,22,-0.260,-0.260,-0.260,0.000,0.000,0.000
1643293283025944832,2022-01-27-14:21:23,10.1.1.5,21,-0.270,-0.270,-0.270,0.000,0.000,0.000
1643293283245646848,2022-01-27-14:21:23,10.1.1.5,38,-0.281,-0.281,-0.281,0.000,0.000,0.000
1643293283444983040,2022-01-27-14:21:23,10.1.1.5,37,-0.291,-0.291,-0.291,0.000,0.000,0.000
1643293283646348032,2022-01-27-14:21:23,10.1.1.5,37,-0.301,-0.301,-0.301,0.000,0.000,0.000
1643293283845326848,2022-01-27-14:21:23,10.1.1.5,36,-0.311,-0.311,-0.311,0.000,0.000,0.000
1643293284046077952,2022-01-27-14:21:24,10.1.1.5,36,-0.321,-0.321,-0.321,0.000,0.000,0.000
1643293284246373888,2022-01-27-14:21:24,10.1.1.5,36,-0.331,-0.331,-0.331,0.000,0.000,0.000
1643293284445871104,2022-01-27-14:21:24,10.1.1.5,34,-0.341,-0.341,-0.341,0.000,0.000,0.000
1643293284648646144,2022-01-27-14:21:24,10.1.1.5,36,-0.351,-0.351,-0.351,0.000,0.000,0.000
1643293284846779136,2022-01-27-14:21:24,10.1.1.5,34,-0.360,-0.360,-0.360,0.000,0.000,0.000
1643293285046968064,2022-01-27-14:21:25,10.1.1.5,33,-0.370,-0.370,-0.370,0.000,0.000,0.000
1643293285244823808,2022-01-27-14:21:25,10.1.1.5,31,-0.381,-0.381,-0.381,0.000,0.000,0.000
1643293285445323008,2022-01-27-14:21:25,10.1.1.5,30,-0.391,-0.391,-0.391,0.000,0.000,0.000
1643293285644851968,2022-01-27-14:21:25,10.1.1.5,29,-0.401,-0.401,-0.401,0.000,0.000,0.000
1643293285846667008,2022-01-27-14:21:25,10.1.1.5,30,-0.411,-0.411,-0.411,0.000,0.000,0.000
1643293286046364928,2022-01-27-14:21:26,10.1.1.5,29,-0.421,-0.421,-0.421,0.000,0.000,0.000
1643293286245837056,2022-01-27-14:21:26,10.1.1.5,27,-0.430,-0.430,-0.430,0.000,0.000,0.000
1643293286461198080,2022-01-27-14:21:26,10.1.1.5,42,-0.440,-0.440,-0.440,0.000,0.000,0.000
1643293286658902016,2022-01-27-14:21:26,10.1.1.5,-13,-0.448,-0.448,-0.448,0.000,0.000,0.000
1643293286867108096,2022-01-27-14:21:26,10.1.1.5,22,-0.460,-0.460,-0.460,0.000,0.000,0.000
1643293287067739904,2022-01-27-14:21:27,10.1.1.5,22,-0.470,-0.470,-0.470,0.000,0.000,0.000
1643293287286749952,2022-01-27-14:21:27,10.1.1.5,39,-0.481,-0.481,-0.481,0.000,0.000,0.000
1643293287466449920,2022-01-27-14:21:27,10.1.1.5,19,-0.490,-0.490,-0.490,0.000,0.000,0.000
1643293287685977088,2022-01-27-14:21:27,10.1.1.5,38,-0.479,-0.479,-0.479,0.000,0.000,0.000
1643293287885490944,2022-01-27-14:21:27,10.1.1.5,37,-0.469,-0.469,-0.469,0.000,0.000,0.000
1643293288085467136,2022-01-27-14:21:28,10.1.1.5,36,-0.459,-0.459,-0.459,0.000,0.000,0.000
1643293288284869888,2022-01-27-14:21:28,10.1.1.5,35,-0.449,-0.449,-0.449,0.000,0.000,0.000
1643293288484872960,2022-01-27-14:21:28,10.1.1.5,34,-0.439,-0.439,-0.439,0.000,0.000,0.000
1643293288684788992,2022-01-27-14:21:28,10.1.1.5,33,-0.429,-0.429,-0.429,0.000,0.000,0.000
1643293288884773120,2022-01-27-14:21:28,10.1.1.5,33,-0.419,-0.419,-0.419,0.000,0.000,0.000
1643293289085766912,2022-01-27-14:21:29,10.1.1.5,33,-0.409,-0.409,-0.409,0.000,0.000,0.000
1643293289287478016,2022-01-27-14:21:29,10.1.1.5,33,-0.399,-0.399,-0.399,0.000,0.000,0.000
1643293289492476928,2022-01-27-14:21:29,10.1.1.5,39,-0.389,-0.389,-0.389,0.000,0.000,0.000
1643293289687165952,2022-01-27-14:21:29,10.1.1.5,32,-0.379,-0.379,-0.379,0.000,0.000,0.000
1643293289885003008,2022-01-27-14:21:29,10.1.1.5,29,-0.369,-0.369,-0.369,0.000,0.000,0.000
1643293290086690816,2022-01-27-14:21:30,10.1.1.5,28,-0.359,-0.359,-0.359,0.000,0.000,0.000
1643293290285569792,2022-01-27-14:21:30,10.1.1.5,28,-0.350,-0.350,-0.350,0.000,0.000,0.000
1643293290486296064,2022-01-27-14:21:30,10.1.1.5,27,-0.340,-0.340,-0.340,0.000,0.000,0.000
1643293290685487104,2022-01-27-14:21:30,10.1.1.5,27,-0.330,-0.330,-0.330,0.000,0.000,0.000
1643293290888165888,2022-01-27-14:21:30,10.1.1.5,30,-0.320,-0.320,-0.320,0.000,0.000,0.000
1643293291088615936,2022-01-27-14:21:31,10.1.1.5,29,-0.310,-0.310,-0.310,0.000,0.000,0.000
1643293291287395840,2022-01-27-14:21:31,10.1.1.5,28,-0.300,-0.300,-0.300,0.000,0.000,0.000
1643293291486130944,2022-01-27-14:21:31,10.1.1.5,25,-0.290,-0.290,-0.290,0.000,0.000,0.000
1643293291688311040,2022-01-27-14:21:31,10.1.1.5,27,-0.280,-0.280,-0.280,0.000,0.000,0.000
1643293291908269824,2022-01-27-14:21:31,10.1.1.5,46,-0.269,-0.269,-0.269,0.000,0.000,0.000
1643293292087369984,2022-01-27-14:21:32,10.1.1.5,24,-0.260,-0.260,-0.260,0.000,0.000,0.000
1643293292288372992,2022-01-27-14:21:32,10.1.1.5,24,-0.250,-0.250,-0.250,0.000,0.000,0.000
1643293292506663168,2022-01-27-14:21:32,10.1.1.5,42,-0.239,-0.239,-0.239,0.000,0.000,0.000
1643293292707598080,2022-01-27-14:21:32,10.1.1.5,40,-0.229,-0.229,-0.229,0.000,0.000,0.000
1643293292907260928,2022-01-27-14:21:32,10.1.1.5,39,-0.219,-0.219,-0.219,0.000,0.000,0.000
1643293293105266944,2022-01-27-14:21:33,10.1.1.5,36,-0.209,-0.209,-0.209,0.000,0.000,0.000
1643293293306947072,2022-01-27-14:21:33,10.1.1.5,37,-0.199,-0.199,-0.199,0.000,0.000,0.000
1643293293506438144,2022-01-27-14:21:33,10.1.1.5,36,-0.189,-0.189,-0.189,0.000,0.000,0.000
1643293293708858880,2022-01-27-14:21:33,10.1.1.5,38,-0.179,-0.179,-0.179,0.000,0.000,0.000
1643293293906825984,2022-01-27-14:21:33,10.1.1.5,35,-0.169,-0.169,-0.169,0.000,0.000,0.000
1643293294105700864,2022-01-27-14:21:34,10.1.1.5,33,-0.159,-0.159,-0.159,0.000,0.000,0.000
1643293294306428928,2022-01-27-14:21:34,10.1.1.5,33,-0.149,-0.149,-0.149,0.000,0.000,0.000
1643293294506807040,2022-01-27-14:21:34,10.1.1.5,33,-0.139,-0.139,-0.139,0.000,0.000,0.000
1643293294707181824,2022-01-27-14:21:34,10.1.1.5,33,-0.130,-0.130,-0.130,0.000,0.000,0.000
1643293294906703872,2022-01-27-14:21:34,10.1.1.5,31,-0.119,-0.119,-0.119,0.000,0.000,0.000
1643293295106297856,2022-01-27-14:21:35,10.1.1.5,29,-0.110,-0.110,-0.110,0.000,0.000,0.000
1643293295306624000,2022-01-27-14:21:35,10.1.1.5,29,-0.100,-0.100,-0.100,0.000,0.000,0.000
1643293295507854080,2022-01-27-14:21:35,10.1.1.5,30,-0.090,-0.090,-0.090,0.000,0.000,0.000
1643293295704595200,2022-01-27-14:21:35,10.1.1.5,26,-0.080,-0.080,-0.080,0.000,0.000,0.000
1643293295906316032,2022-01-27-14:21:35,10.1.1.5,27,-0.070,-0.070,-0.070,0.000,0.000,0.000
1643293296106957056,2022-01-27-14:21:36,10.1.1.5,26,-0.060,-0.060,-0.060,0.000,0.000,0.000
1643293296306083072,2022-01-27-14:21:36,10.1.1.5,25,-0.050,-0.050,-0.050,0.000,0.000,0.000
1643293296506140928,2022-01-27-14:21:36,10.1.1.5,25,-0.040,-0.040,-0.040,0.000,0.000,0.000
1643293296706466816,2022-01-27-14:21:36,10.1.1.5,24,-0.030,-0.030,-0.030,0.000,0.000,0.000
1643293296905779968,2022-01-27-14:21:36,10.1.1.5,23,-0.020,-0.020,-0.020,0.000,0.000,0.000
1643293297140922112,2022-01-27-14:21:37,10.1.1.5,57,-0.009,-0.009,-0.009,0.000,0.000,0.000
1643293297326027008,2022-01-27-14:21:37,10.1.1.5,33,-0.001,-0.001,-0.001,0.000,0.000,0.000
1643293297527792896,2022-01-27-14:21:37,10.1.1.5,33,-0.011,-0.011,-0.011,0.000,0.000,0.000
1643293297735835136,2022-01-27-14:21:37,10.1.1.5,36,-0.020,-0.020,-0.020,0.000,0.000,0.000
1643293297937473024,2022-01-27-14:21:37,10.1.1.5,40,-0.030,-0.030,-0.030,0.000,0.000,0.000
1643293298127779072,2022-01-27-14:21:38,10.1.1.5,29,-0.040,-0.040,-0.040,0.000,0.000,0.000
1643293298327657984,2022-01-27-14:21:38,10.1.1.5,27,-0.050,-0.050,-0.050,0.000,0.000,0.000
1643293298528652800,2022-01-27-14:21:38,10.1.1.5,27,-0.060,-0.060,-0.060,0.000,0.000,0.000
1643293298726254080,2022-01-27-14:21:38,10.1.1.5,23,-0.070,-0.070,-0.070,0.000,0.000,0.000
1643293298926753024,2022-01-27-14:21:38,10.1.1.5,23,-0.080,-0.080,-0.080,0.000,0.000,0.000
1643293299125843968,2022-01-27-14:21:39,10.1.1.5,21,-0.090,-0.090,-0.090,0.000,0.000,0.000
1643293299328738048,2022-01-27-14:21:39,10.1.1.5,24,-0.100,-0.100,-0.100,0.000,0.000,0.000
1643293299527241984,2022-01-27-14:21:39,10.1.1.5,19,-0.110,-0.110,-0.110,0.000,0.000,0.000
1643293299725501952,2022-01-27-14:21:39,10.1.1.5,18,-0.120,-0.120,-0.120,0.000,0.000,0.000
1643293299946695168,2022-01-27-14:21:39,10.1.1.5,40,-0.131,-0.131,-0.131,0.000,0.000,0.000
1643293300146626048,2022-01-27-14:21:40,10.1.1.5,39,-0.141,-0.141,-0.141,0.000,0.000,0.000
1643293300345082880,2022-01-27-14:21:40,10.1.1.5,37,-0.151,-0.151,-0.151,0.000,0.000,0.000
1643293300545448192,2022-01-27-14:21:40,10.1.1.5,37,-0.161,-0.161,-0.161,0.000,0.000,0.000
1643293300746727936,2022-01-27-14:21:40,10.1.1.5,36,-0.171,-0.171,-0.171,0.000,0.000,0.000
1643293300945928960,2022-01-27-14:21:40,10.1.1.5,36,-0.181,-0.181,-0.181,0.000,0.000,0.000
1643293301146851072,2022-01-27-14:21:41,10.1.1.5,36,-0.191,-0.191,-0.191,0.000,0.000,0.000
1643293301345020928,2022-01-27-14:21:41,10.1.1.5,34,-0.201,-0.201,-0.201,0.000,0.000,0.000
1643293301547517184,2022-01-27-14:21:41,10.1.1.5,36,-0.211,-0.211,-0.211,0.000,0.000,0.000
1643293301747601152,2022-01-27-14:21:41,10.1.1.5,33,-0.221,-0.221,-0.221,0.000,0.000,0.000
1643293301945370880,2022-01-27-14:21:41,10.1.1.5,33,-0.231,-0.231,-0.231,0.000,0.000,0.000
1643293302147241216,2022-01-27-14:21:42,10.1.1.5,34,-0.241,-0.241,-0.241,0.000,0.000,0.000
1643293302337210880,2022-01-27-14:21:42,10.1.1.5,24,-0.250,-0.250,-0.250,0.000,0.000,0.000
1643293302544614912,2022-01-27-14:21:42,10.1.1.5,31,-0.261,-0.261,-0.261,0.000,0.000,0.000
1643293302749712896,2022-01-27-14:21:42,10.1.1.5,34,-0.271,-0.271,-0.271,0.000,0.000,0.000
1643293302946994944,2022-01-27-14:21:42,10.1.1.5,30,-0.281,-0.281,-0.281,0.000,0.000,0.000
1643293303145780992,2022-01-27-14:21:43,10.1.1.5,29,-0.290,-0.290,-0.290,0.000,0.000,0.000
1643293303346467072,2022-01-27-14:21:43,10.1.1.5,29,-0.301,-0.301,-0.301,0.000,0.000,0.000
1643293303546163968,2022-01-27-14:21:43,10.1.1.5,28,-0.310,-0.310,-0.310,0.000,0.000,0.000
1643293303745925888,2022-01-27-14:21:43,10.1.1.5,27,-0.320,-0.320,-0.320,0.000,0.000,0.000
1643293303945569024,2022-01-27-14:21:43,10.1.1.5,26,-0.330,-0.330,-0.330,0.000,0.000,0.000
1643293304145605120,2022-01-27-14:21:44,10.1.1.5,26,-0.340,-0.340,-0.340,0.000,0.000,0.000
1643293304347905024,2022-01-27-14:21:44,10.1.1.5,27,-0.350,-0.350,-0.350,0.000,0.000,0.000
1643293304552208896,2022-01-27-14:21:44,10.1.1.5,30,-0.360,-0.360,-0.360,0.000,0.000,0.000
1643293304748659968,2022-01-27-14:21:44,10.1.1.5,27,-0.370,-0.370,-0.370,0.000,0.000,0.000
1643293304962008832,2022-01-27-14:21:44,10.1.1.5,35,-0.380,-0.380,-0.380,0.000,0.000,0.000
1643293305165826048,2022-01-27-14:21:45,10.1.1.5,38,-0.391,-0.391,-0.391,0.000,0.000,0.000
1643293305366731776,2022-01-27-14:21:45,10.1.1.5,39,-0.401,-0.401,-0.401,0.000,0.000,0.000
1643293305568144128,2022-01-27-14:21:45,10.1.1.5,40,-0.411,-0.411,-0.411,0.000,0.000,0.000
1643293305766705920,2022-01-27-14:21:45,10.1.1.5,38,-0.421,-0.421,-0.421,0.000,0.000,0.000
1643293305968563968,2022-01-27-14:21:45,10.1.1.5,39,-0.431,-0.431,-0.431,0.000,0.000,0.000
1643293306168267008,2022-01-27-14:21:46,10.1.1.5,38,-0.441,-0.441,-0.441,0.000,0.000,0.000
1643293306365135872,2022-01-27-14:21:46,10.1.1.5,34,-0.451,-0.451,-0.451,0.000,0.000,0.000
1643293306567655936,2022-01-27-14:21:46,10.1.1.5,36,-0.461,-0.461,-0.461,0.000,0.000,0.000
1643293306767334912,2022-01-27-14:21:46,10.1.1.5,35,-0.471,-0.471,-0.471,0.000,0.000,0.000
1643293306967827200,2022-01-27-14:21:46,10.1.1.5,35,-0.481,-0.481,-0.481,0.000,0.000,0.000
1643293307146622976,2022-01-27-14:21:47,10.1.1.5,13,-0.490,-0.490,-0.490,0.000,0.000,0.000
1643293307369211904,2022-01-27-14:21:47,10.1.1.5,35,-0.479,-0.479,-0.479,0.000,0.000,0.000
1643293307566765056,2022-01-27-14:21:47,10.1.1.5,30,-0.470,-0.470,-0.470,0.000,0.000,0.000
1643293307766078976,2022-01-27-14:21:47,10.1.1.5,28,-0.460,-0.460,-0.460,0.000,0.000,0.000
1643293307969424128,2022-01-27-14:21:47,10.1.1.5,31,-0.450,-0.450,-0.450,0.000,0.000,0.000
1643293308166749952,2022-01-27-14:21:48,10.1.1.5,27,-0.440,-0.440,-0.440,0.000,0.000,0.000
1643293308367787008,2022-01-27-14:21:48,10.1.1.5,28,-0.430,-0.430,-0.430,0.000,0.000,0.000
1643293308565899008,2022-01-27-14:21:48,10.1.1.5,25,-0.420,-0.420,-0.420,0.000,0.000,0.000
1643293308767340032,2022-01-27-14:21:48,10.1.1.5,24,-0.410,-0.410,-0.410,0.000,0.000,0.000
1643293308968098048,2022-01-27-14:21:48,10.1.1.5,24,-0.400,-0.400,-0.400,0.000,0.000,0.000
1643293309168000000,2022-01-27-14:21:49,10.1.1.5,20,-0.390,-0.390,-0.390,0.000,0.000,0.000
1643293309387597056,2022-01-27-14:21:49,10.1.1.5,40,-0.379,-0.379,-0.379,0.000,0.000,0.000
1643293309587980032,2022-01-27-14:21:49,10.1.1.5,39,-0.369,-0.369,-0.369,0.000,0.000,0.000
1643293309787128064,2022-01-27-14:21:49,10.1.1.5,38,-0.359,-0.359,-0.359,0.000,0.000,0.000
1643293309985004800,2022-01-27-14:21:49,10.1.1.5,35,-0.349,-0.349,-0.349,0.000,0.000,0.000
1643293310186886912,2022-01-27-14:21:50,10.1.1.5,36,-0.339,-0.339,-0.339,0.000,0.000,0.000
1643293310385137152,2022-01-27-14:21:50,10.1.1.5,34,-0.329,-0.329,-0.329,0.000,0.000,0.000
1643293310587511040,2022-01-27-14:21:50,10.1.1.5,34,-0.319,-0.319,-0.319,0.000,0.000,0.000
1643293310788116992,2022-01-27-14:21:50,10.1.1.5,36,-0.309,-0.309,-0.309,0.000,0.000,0.000
1643293310988097792,2022-01-27-14:21:50,10.1.1.5,36,-0.299,-0.299,-0.299,0.000,0.000,0.000
1643293311190062080,2022-01-27-14:21:51,10.1.1.5,37,-0.289,-0.289,-0.289,0.000,0.000,0.000
1643293311387943936,2022-01-27-14:21:51,10.1.1.5,34,-0.280,-0.280,-0.280,0.000,0.000,0.000
1643293311586950144,2022-01-27-14:21:51,10.1.1.5,32,-0.269,-0.269,-0.269,0.000,0.000,0.000
1643293311785993984,2022-01-27-14:21:51,10.1.1.5,30,-0.260,-0.260,-0.260,0.000,0.000,0.000
1643293311987113984,2022-01-27-14:21:51,10.1.1.5,30,-0.249,-0.249,-0.249,0.000,0.000,0.000
1643293312186568960,2022-01-27-14:21:52,10.1.1.5,29,-0.240,-0.240,-0.240,0.000,0.000,0.000
1643293312385574144,2022-01-27-14:21:52,10.1.1.5,28,-0.230,-0.230,-0.230,0.000,0.000,0.000
1643293312586440192,2022-01-27-14:21:52,10.1.1.5,28,-0.220,-0.220,-0.220,0.000,0.000,0.000
1643293312787048192,2022-01-27-14:21:52,10.1.1.5,27,-0.210,-0.210,-0.210,0.000,0.000,0.000
1643293312986377984,2022-01-27-14:21:52,10.1.1.5,25,-0.200,-0.200,-0.200,0.000,0.000,0.000
1643293313187849984,2022-01-27-14:21:53,10.1.1.5,24,-0.190,-0.190,-0.190,0.000,0.000,0.000
1643293313406603008,2022-01-27-14:21:53,10.1.1.5,42,-0.179,-0.179,-0.179,0.000,0.000,0.000
1643293313606697984,2022-01-27-14:21:53,10.1.1.5,40,-0.169,-0.169,-0.169,0.000,0.000,0.000
1643293313805946112,2022-01-27-14:21:53,10.1.1.5,38,-0.159,-0.159,-0.159,0.000,0.000,0.000
1643293314005698816,2022-01-27-14:21:54,10.1.1.5,37,-0.149,-0.149,-0.149,0.000,0.000,0.000
1643293314204638976,2022-01-27-14:21:54,10.1.1.5,35,-0.139,-0.139,-0.139,0.000,0.000,0.000
1643293314408404992,2022-01-27-14:21:54,10.1.1.5,38,-0.129,-0.129,-0.129,0.000,0.000,0.000
1643293314605954816,2022-01-27-14:21:54,10.1.1.5,35,-0.119,-0.119,-0.119,0.000,0.000,0.000
1643293314806215936,2022-01-27-14:21:54,10.1.1.5,34,-0.109,-0.109,-0.109,0.000,0.000,0.000
1643293315006309888,2022-01-27-14:21:55,10.1.1.5,33,-0.099,-0.099,-0.099,0.000,0.000,0.000
1643293315207133952,2022-01-27-14:21:55,10.1.1.5,30,-0.089,-0.089,-0.089,0.000,0.000,0.000
1643293315407608064,2022-01-27-14:21:55,10.1.1.5,30,-0.080,-0.080,-0.080,0.000,0.000,0.000
1643293315606530816,2022-01-27-14:21:55,10.1.1.5,29,-0.070,-0.070,-0.070,0.000,0.000,0.000
1643293315805931008,2022-01-27-14:21:55,10.1.1.5,27,-0.060,-0.060,-0.060,0.000,0.000,0.000
1643293316007249152,2022-01-27-14:21:56,10.1.1.5,27,-0.050,-0.050,-0.050,0.000,0.000,0.000
1643293316205795072,2022-01-27-14:21:56,10.1.1.5,25,-0.040,-0.040,-0.040,0.000,0.000,0.000
1643293316405672192,2022-01-27-14:21:56,10.1.1.5,25,-0.030,-0.030,-0.030,0.000,0.000,0.000
1643293316605937920,2022-01-27-14:21:56,10.1.1.5,25,-0.020,-0.020,-0.020,0.000,0.000,0.000
1643293316804500224,2022-01-27-14:21:56,10.1.1.5,22,-0.010,-0.010,-0.010,0.000,0.000,0.000
1643293316985563136,2022-01-27-14:21:56,10.1.1.5,3,-0.001,-0.001,-0.001,0.000,0.000,0.000
1643293317206151936,2022-01-27-14:21:57,10.1.1.5,23,-0.010,-0.010,-0.010,0.000,0.000,0.000
1643293317407116800,2022-01-27-14:21:57,10.1.1.5,22,-0.020,-0.020,-0.020,0.000,0.000,0.000
1643293317626499840,2022-01-27-14:21:57,10.1.1.5,33,-0.031,-0.031,-0.031,0.000,0.000,0.000
1643293317826010880,2022-01-27-14:21:57,10.1.1.5,32,-0.040,-0.040,-0.040,0.000,0.000,0.000
1643293318029062144,2022-01-27-14:21:58,10.1.1.5,35,-0.051,-0.051,-0.051,0.000,0.000,0.000
1643293318226618112,2022-01-27-14:21:58,10.1.1.5,31,-0.061,-0.061,-0.061,0.000,0.000,0.000
1643293318427620864,2022-01-27-14:21:58,10.1.1.5,32,-0.071,-0.071,-0.071,0.000,0.000,0.000
1643293318625539072,2022-01-27-14:21:58,10.1.1.5,29,-0.080,-0.080,-0.080,0.000,0.000,0.000
1643293318825895936,2022-01-27-14:21:58,10.1.1.5,28,-0.090,-0.090,-0.090,0.000,0.000,0.000
1643293319026009088,2022-01-27-14:21:59,10.1.1.5,28,-0.100,-0.100,-0.100,0.000,0.000,0.000
1643293319225677056,2022-01-27-14:21:59,10.1.1.5,27,-0.110,-0.110,-0.110,0.000,0.000,0.000
1643293319426491904,2022-01-27-14:21:59,10.1.1.5,27,-0.120,-0.120,-0.120,0.000,0.000,0.000
1643293319630289152,2022-01-27-14:21:59,10.1.1.5,29,-0.130,-0.130,-0.130,0.000,0.000,0.000
1643293319826553088,2022-01-27-14:21:59,10.1.1.5,25,-0.140,-0.140,-0.140,0.000,0.000,0.000
1643293320026663936,2022-01-27-14:22:00,10.1.1.5,25,-0.150,-0.150,-0.150,0.000,0.000,0.000
1643293320227191808,2022-01-27-14:22:00,10.1.1.5,25,-0.160,-0.160,-0.160,0.000,0.000,0.000
1643293320425463808,2022-01-27-14:22:00,10.1.1.5,22,-0.170,-0.170,-0.170,0.000,0.000,0.000
1643293320627790080,2022-01-27-14:22:00,10.1.1.5,22,-0.180,-0.180,-0.180,0.000,0.000,0.000
1643293320846659840,2022-01-27-14:22:00,10.1.1.5,40,-0.191,-0.191,-0.191,0.000,0.000,0.000
1643293321048371968,2022-01-27-14:22:01,10.1.1.5,40,-0.201,-0.201,-0.201,0.000,0.000,0.000
1643293321246931200,2022-01-27-14:22:01,10.1.1.5,37,-0.211,-0.211,-0.211,0.000,0.000,0.000
1643293321445017088,2022-01-27-14:22:01,10.1.1.5,34,-0.221,-0.221,-0.221,0.000,0.000,0.000
1643293321647598080,2022-01-27-14:22:01,10.1.1.5,35,-0.231,-0.231,-0.231,0.000,0.000,0.000
1643293321848987136,2022-01-27-14:22:01,10.1.1.5,35,-0.240,-0.240,-0.240,0.000,0.000,0.000
1643293322050700032,2022-01-27-14:22:02,10.1.1.5,36,-0.251,-0.251,-0.251,0.000,0.000,0.000
1643293322246632192,2022-01-27-14:22:02,10.1.1.5,31,-0.260,-0.260,-0.260,0.000,0.000,0.000
1643293322448357120,2022-01-27-14:22:02,10.1.1.5,31,-0.270,-0.270,-0.270,0.000,0.000,0.000
1643293322648612096,2022-01-27-14:22:02,10.1.1.5,30,-0.280,-0.280,-0.280,0.000,0.000,0.000
1643293322845803008,2022-01-27-14:22:02,10.1.1.5,27,-0.290,-0.290,-0.290,0.000,0.000,0.000
1643293323046236928,2022-01-27-14:22:03,10.1.1.5,26,-0.300,-0.300,-0.300,0.000,0.000,0.000
1643293323247550976,2022-01-27-14:22:03,10.1.1.5,27,-0.310,-0.310,-0.310,0.000,0.000,0.000
1643293323445736960,2022-01-27-14:22:03,10.1.1.5,24,-0.320,-0.320,-0.320,0.000,0.000,0.000
1643293323645811968,2022-01-27-14:22:03,10.1.1.5,23,-0.330,-0.330,-0.330,0.000,0.000,0.000
1643293323845056000,2022-01-27-14:22:03,10.1.1.5,22,-0.340,-0.340,-0.340,0.000,0.000,0.000
1643293324048477952,2022-01-27-14:22:04,10.1.1.5,22,-0.350,-0.350,-0.350,0.000,0.000,0.000
1643293324247490816,2022-01-27-14:22:04,10.1.1.5,22,-0.360,-0.360,-0.360,0.000,0.000,0.000
1643293324466340096,2022-01-27-14:22:04,10.1.1.5,38,-0.371,-0.371,-0.371,0.000,0.000,0.000
1643293324666006016,2022-01-27-14:22:04,10.1.1.5,37,-0.381,-0.381,-0.381,0.000,0.000,0.000
1643293324865920000,2022-01-27-14:22:04,10.1.1.5,36,-0.391,-0.391,-0.391,0.000,0.000,0.000
1643293325067555840,2022-01-27-14:22:05,10.1.1.5,37,-0.401,-0.401,-0.401,0.000,0.000,0.000
1643293325265795072,2022-01-27-14:22:05,10.1.1.5,34,-0.411,-0.411,-0.411,0.000,0.000,0.000
1643293325468456960,2022-01-27-14:22:05,10.1.1.5,35,-0.420,-0.420,-0.420,0.000,0.000,0.000
1643293325668251136,2022-01-27-14:22:05,10.1.1.5,35,-0.431,-0.431,-0.431,0.000,0.000,0.000
1643293325868278016,2022-01-27-14:22:05,10.1.1.5,32,-0.441,-0.441,-0.441,0.000,0.000,0.000
1643293326068909056,2022-01-27-14:22:06,10.1.1.5,29,-0.450,-0.450,-0.450,0.000,0.000,0.000
1643293326265483008,2022-01-27-14:22:06,10.1.1.5,25,-0.460,-0.460,-0.460,0.000,0.000,0.000
1643293326469413888,2022-01-27-14:22:06,10.1.1.5,28,-0.470,-0.470,-0.470,0.000,0.000,0.000
1643293326668551936,2022-01-27-14:22:06,10.1.1.5,26,-0.480,-0.480,-0.480,0.000,0.000,0.000
1643293326848050176,2022-01-27-14:22:06,10.1.1.5,5,-0.489,-0.489,-0.489,0.000,0.000,0.000
1643293327068172032,2022-01-27-14:22:07,10.1.1.5,25,-0.480,-0.480,-0.480,0.000,0.000,0.000
1643293327267451136,2022-01-27-14:22:07,10.1.1.5,23,-0.470,-0.470,-0.470,0.000,0.000,0.000
1643293327465761024,2022-01-27-14:22:07,10.1.1.5,21,-0.460,-0.460,-0.460,0.000,0.000,0.000
1643293327666066944,2022-01-27-14:22:07,10.1.1.5,20,-0.450,-0.450,-0.450,0.000,0.000,0.000
1643293327888704000,2022-01-27-14:22:07,10.1.1.5,36,-0.439,-0.439,-0.439,0.000,0.000,0.000
1643293328087111936,2022-01-27-14:22:08,10.1.1.5,37,-0.429,-0.429,-0.429,0.000,0.000,0.000
1643293328285356032,2022-01-27-14:22:08,10.1.1.5,33,-0.419,-0.419,-0.419,0.000,0.000,0.000
1643293328488142848,2022-01-27-14:22:08,10.1.1.5,34,-0.409,-0.409,-0.409,0.000,0.000,0.000
1643293328689730816,2022-01-27-14:22:08,10.1.1.5,32,-0.400,-0.400,-0.400,0.000,0.000,0.000
1643293328890419968,2022-01-27-14:22:08,10.1.1.5,31,-0.390,-0.390,-0.390,0.000,0.000,0.000
1643293329086817024,2022-01-27-14:22:09,10.1.1.5,27,-0.380,-0.380,-0.380,0.000,0.000,0.000
1643293329288408064,2022-01-27-14:22:09,10.1.1.5,27,-0.370,-0.370,-0.370,0.000,0.000,0.000
1643293329488594944,2022-01-27-14:22:09,10.1.1.5,26,-0.360,-0.360,-0.360,0.000,0.000,0.000
1643293329688776960,2022-01-27-14:22:09,10.1.1.5,25,-0.350,-0.350,-0.350,0.000,0.000,0.000
1643293329906619136,2022-01-27-14:22:09,10.1.1.5,37,-0.339,-0.339,-0.339,0.000,0.000,0.000
1643293330106206976,2022-01-27-14:22:10,10.1.1.5,35,-0.329,-0.329,-0.329,0.000,0.000,0.000
1643293330307938048,2022-01-27-14:22:10,10.1.1.5,36,-0.320,-0.320,-0.320,0.000,0.000,0.000
1643293330506803968,2022-01-27-14:22:10,10.1.1.5,33,-0.310,-0.310,-0.310,0.000,0.000,0.000
1643293330707657216,2022-01-27-14:22:10,10.1.1.5,30,-0.300,-0.300,-0.300,0.000,0.000,0.000
1643293330909076992,2022-01-27-14:22:10,10.1.1.5,30,-0.290,-0.290,-0.290,0.000,0.000,0.000
1643293331106999040,2022-01-27-14:22:11,10.1.1.5,27,-0.280,-0.280,-0.280,0.000,0.000,0.000
1643293331307640064,2022-01-27-14:22:11,10.1.1.5,27,-0.270,-0.270,-0.270,0.000,0.000,0.000
1643293331507580928,2022-01-27-14:22:11,10.1.1.5,26,-0.260,-0.260,-0.260,0.000,0.000,0.000
1643293331709261824,2022-01-27-14:22:11,10.1.1.5,27,-0.250,-0.250,-0.250,0.000,0.000,0.000
1643293331927643136,2022-01-27-14:22:11,10.1.1.5,37,-0.239,-0.239,-0.239,0.000,0.000,0.000
1643293332127777024,2022-01-27-14:22:12,10.1.1.5,36,-0.229,-0.229,-0.229,0.000,0.000,0.000
1643293332326558976,2022-01-27-14:22:12,10.1.1.5,34,-0.219,-0.219,-0.219,0.000,0.000,0.000
1643293332528966912,2022-01-27-14:22:12,10.1.1.5,35,-0.209,-0.209,-0.209,0.000,0.000,0.000
1643293332727566080,2022-01-27-14:22:12,10.1.1.5,31,-0.200,-0.200,-0.200,0.000,0.000,0.000
1643293332925726976,2022-01-27-14:22:12,10.1.1.5,29,-0.190,-0.190,-0.190,0.000,0.000,0.000
1643293333126828800,2022-01-27-14:22:13,10.1.1.5,29,-0.180,-0.180,-0.180,0.000,0.000,0.000
1643293333324713984,2022-01-27-14:22:13,10.1.1.5,26,-0.170,-0.170,-0.170,0.000,0.000,0.000
1643293333527975168,2022-01-27-14:22:13,10.1.1.5,27,-0.160,-0.160,-0.160,0.000,0.000,0.000
1643293333727951104,2022-01-27-14:22:13,10.1.1.5,27,-0.150,-0.150,-0.150,0.000,0.000,0.000
1643293333926433024,2022-01-27-14:22:13,10.1.1.5,24,-0.140,-0.140,-0.140,0.000,0.000,0.000
1643293334127201024,2022-01-27-14:22:14,10.1.1.5,22,-0.130,-0.130,-0.130,0.000,0.000,0.000
1643293334326448896,2022-01-27-14:22:14,10.1.1.5,22,-0.120,-0.120,-0.120,0.000,0.000,0.000
1643293334527177216,2022-01-27-14:22:14,10.1.1.5,22,-0.110,-0.110,-0.110,0.000,0.000,0.000
1643293334732957952,2022-01-27-14:22:14,10.1.1.5,27,-0.100,-0.100,-0.100,0.000,0.000,0.000
1643293334930521856,2022-01-27-14:22:14,10.1.1.5,23,-0.090,-0.090,-0.090,0.000,0.000,0.000
1643293335125335808,2022-01-27-14:22:15,10.1.1.5,18,-0.080,-0.080,-0.080,0.000,0.000,0.000
1643293335348228864,2022-01-27-14:22:15,10.1.1.5,40,-0.069,-0.069,-0.069,0.000,0.000,0.000
1643293335549057024,2022-01-27-14:22:15,10.1.1.5,41,-0.059,-0.059,-0.059,0.000,0.000,0.000
1643293335747510016,2022-01-27-14:22:15,10.1.1.5,38,-0.049,-0.049,-0.049,0.000,0.000,0.000
1643293335945044992,2022-01-27-14:22:15,10.1.1.5,35,-0.039,-0.039,-0.039,0.000,0.000,0.000
1643293336146087936,2022-01-27-14:22:16,10.1.1.5,36,-0.029,-0.029,-0.029,0.000,0.000,0.000
1643293336346899968,2022-01-27-14:22:16,10.1.1.5,36,-0.019,-0.019,-0.019,0.000,0.000,0.000
1643293336546299904,2022-01-27-14:22:16,10.1.1.5,33,-0.009,-0.009,-0.009,0.000,0.000,0.000
1643293336725399040,2022-01-27-14:22:16,10.1.1.5,12,-0.000,-0.000,-0.000,0.000,0.000,0.000
1643293336947404032,2022-01-27-14:22:16,10.1.1.5,33,-0.011,-0.011,-0.011,0.000,0.000,0.000
1643293337146241024,2022-01-27-14:22:17,10.1.1.5,31,-0.021,-0.021,-0.021,0.000,0.000,0.000
1643293337347017984,2022-01-27-14:22:17,10.1.1.5,31,-0.030,-0.030,-0.030,0.000,0.000,0.000
1643293337552578816,2022-01-27-14:22:17,10.1.1.5,32,-0.040,-0.040,-0.040,0.000,0.000,0.000
1643293337748716032,2022-01-27-14:22:17,10.1.1.5,31,-0.050,-0.050,-0.050,0.000,0.000,0.000
1643293337945807872,2022-01-27-14:22:17,10.1.1.5,28,-0.060,-0.060,-0.060,0.000,0.000,0.000
1643293338145872128,2022-01-27-14:22:18,10.1.1.5,27,-0.070,-0.070,-0.070,0.000,0.000,0.000
1643293338346930944,2022-01-27-14:22:18,10.1.1.5,28,-0.080,-0.080,-0.080,0.000,0.000,0.000
1643293338548343808,2022-01-27-14:22:18,10.1.1.5,28,-0.090,-0.090,-0.090,0.000,0.000,0.000
1643293338749420032,2022-01-27-14:22:18,10.1.1.5,29,-0.100,-0.100,-0.100,0.000,0.000,0.000
1643293338947377920,2022-01-27-14:22:18,10.1.1.5,25,-0.110,-0.110,-0.110,0.000,0.000,0.000
1643293339149612800,2022-01-27-14:22:19,10.1.1.5,28,-0.120,-0.120,-0.120,0.000,0.000,0.000
1643293339369858048,2022-01-27-14:22:19,10.1.1.5,47,-0.131,-0.131,-0.131,0.000,0.000,0.000
1643293339569460992,2022-01-27-14:22:19,10.1.1.5,45,-0.141,-0.141,-0.141,0.000,0.000,0.000
1643293339768101888,2022-01-27-14:22:19,10.1.1.5,39,-0.151,-0.151,-0.151,0.000,0.000,0.000
1643293339967889152,2022-01-27-14:22:19,10.1.1.5,39,-0.161,-0.161,-0.161,0.000,0.000,0.000
1643293340167685888,2022-01-27-14:22:20,10.1.1.5,37,-0.171,-0.171,-0.171,0.000,0.000,0.000
1643293340371095040,2022-01-27-14:22:20,10.1.1.5,39,-0.181,-0.181,-0.181,0.000,0.000,0.000
1643293340566152192,2022-01-27-14:22:20,10.1.1.5,34,-0.191,-0.191,-0.191,0.000,0.000,0.000
1643293340770242816,2022-01-27-14:22:20,10.1.1.5,37,-0.200,-0.200,-0.200,0.000,0.000,0.000
1643293340973079040,2022-01-27-14:22:20,10.1.1.5,35,-0.210,-0.210,-0.210,0.000,0.000,0.000
1643293341168905984,2022-01-27-14:22:21,10.1.1.5,30,-0.220,-0.220,-0.220,0.000,0.000,0.000
1643293341367346944,2022-01-27-14:22:21,10.1.1.5,28,-0.230,-0.230,-0.230,0.000,0.000,0.000
1643293341567506176,2022-01-27-14:22:21,10.1.1.5,27,-0.240,-0.240,-0.240,0.000,0.000,0.000
1643293341767344896,2022-01-27-14:22:21,10.1.1.5,26,-0.250,-0.250,-0.250,0.000,0.000,0.000
1643293341967761152,2022-01-27-14:22:21,10.1.1.5,26,-0.260,-0.260,-0.260,0.000,0.000,0.000
1643293342169282816,2022-01-27-14:22:22,10.1.1.5,27,-0.270,-0.270,-0.270,0.000,0.000,0.000
1643293342370906112,2022-01-27-14:22:22,10.1.1.5,28,-0.280,-0.280,-0.280,0.000,0.000,0.000
1643293342567992832,2022-01-27-14:22:22,10.1.1.5,25,-0.290,-0.290,-0.290,0.000,0.000,0.000
1643293342769517056,2022-01-27-14:22:22,10.1.1.5,24,-0.300,-0.300,-0.300,0.000,0.000,0.000
1643293342967088896,2022-01-27-14:22:22,10.1.1.5,23,-0.310,-0.310,-0.310,0.000,0.000,0.000
1643293343165605120,2022-01-27-14:22:23,10.1.1.5,20,-0.320,-0.320,-0.320,0.000,0.000,0.000
1643293343391491840,2022-01-27-14:22:23,10.1.1.5,43,-0.331,-0.331,-0.331,0.000,0.000,0.000
1643293343586899968,2022-01-27-14:22:23,10.1.1.5,37,-0.341,-0.341,-0.341,0.000,0.000,0.000
1643293343786833920,2022-01-27-14:22:23,10.1.1.5,36,-0.351,-0.351,-0.351,0.000,0.000,0.000
1643293343986830080,2022-01-27-14:22:23,10.1.1.5,35,-0.360,-0.360,-0.360,0.000,0.000,0.000
1643293344188630016,2022-01-27-14:22:24,10.1.1.5,34,-0.370,-0.370,-0.370,0.000,0.000,0.000
1643293344386967040,2022-01-27-14:22:24,10.1.1.5,31,-0.381,-0.381,-0.381,0.000,0.000,0.000
1643293344585860096,2022-01-27-14:22:24,10.1.1.5,28,-0.390,-0.390,-0.390,0.000,0.000,0.000
1643293344787450112,2022-01-27-14:22:24,10.1.1.5,29,-0.400,-0.400,-0.400,0.000,0.000,0.000
1643293344990770944,2022-01-27-14:22:24,10.1.1.5,30,-0.410,-0.410,-0.410,0.000,0.000,0.000
1643293345187983104,2022-01-27-14:22:25,10.1.1.5,27,-0.420,-0.420,-0.420,0.000,0.000,0.000
1643293345385401856,2022-01-27-14:22:25,10.1.1.5,23,-0.430,-0.430,-0.430,0.000,0.000,0.000
1643293345608463104,2022-01-27-14:22:25,10.1.1.5,44,-0.441,-0.441,-0.441,0.000,0.000,0.000
1643293345788477952,2022-01-27-14:22:25,10.1.1.5,22,-0.450,-0.450,-0.450,0.000,0.000,0.000
1643293346006778112,2022-01-27-14:22:26,10.1.1.5,37,-0.461,-0.461,-0.461,0.000,0.000,0.000
1643293346206646016,2022-01-27-14:22:26,10.1.1.5,36,-0.471,-0.471,-0.471,0.000,0.000,0.000
1643293346419140096,2022-01-27-14:22:26,10.1.1.5,38,-0.481,-0.481,-0.481,0.000,0.000,0.000
1643293346586039040,2022-01-27-14:22:26,10.1.1.5,10,-0.490,-0.490,-0.490,0.000,0.000,0.000
1643293346805188864,2022-01-27-14:22:26,10.1.1.5,25,-0.480,-0.480,-0.480,0.000,0.000,0.000
1643293347008395008,2022-01-27-14:22:27,10.1.1.5,28,-0.470,-0.470,-0.470,0.000,0.000,0.000
1643293347208001024,2022-01-27-14:22:27,10.1.1.5,27,-0.460,-0.460,-0.460,0.000,0.000,0.000
1643293347406640128,2022-01-27-14:22:27,10.1.1.5,25,-0.450,-0.450,-0.450,0.000,0.000,0.000
1643293347607247104,2022-01-27-14:22:27,10.1.1.5,25,-0.440,-0.440,-0.440,0.000,0.000,0.000
1643293347807016960,2022-01-27-14:22:27,10.1.1.5,24,-0.430,-0.430,-0.430,0.000,0.000,0.000
1643293348008941824,2022-01-27-14:22:28,10.1.1.5,24,-0.420,-0.420,-0.420,0.000,0.000,0.000
1643293348227892992,2022-01-27-14:22:28,10.1.1.5,44,-0.409,-0.409,-0.409,0.000,0.000,0.000
1643293348428994048,2022-01-27-14:22:28,10.1.1.5,42,-0.399,-0.399,-0.399,0.000,0.000,0.000
1643293348629390848,2022-01-27-14:22:28,10.1.1.5,41,-0.389,-0.389,-0.389,0.000,0.000,0.000
1643293348827600128,2022-01-27-14:22:28,10.1.1.5,38,-0.379,-0.379,-0.379,0.000,0.000,0.000
1643293349027769088,2022-01-27-14:22:29,10.1.1.5,36,-0.369,-0.369,-0.369,0.000,0.000,0.000
1643293349227356928,2022-01-27-14:22:29,10.1.1.5,35,-0.359,-0.359,-0.359,0.000,0.000,0.000
1643293349428781056,2022-01-27-14:22:29,10.1.1.5,35,-0.349,-0.349,-0.349,0.000,0.000,0.000
1643293349626413056,2022-01-27-14:22:29,10.1.1.5,32,-0.340,-0.340,-0.340,0.000,0.000,0.000
1643293349828644864,2022-01-27-14:22:29,10.1.1.5,32,-0.330,-0.330,-0.330,0.000,0.000,0.000
1643293350027003136,2022-01-27-14:22:30,10.1.1.5,29,-0.320,-0.320,-0.320,0.000,0.000,0.000
1643293350226905088,2022-01-27-14:22:30,10.1.1.5,29,-0.310,-0.310,-0.310,0.000,0.000,0.000
1643293350428921856,2022-01-27-14:22:30,10.1.1.5,30,-0.300,-0.300,-0.300,0.000,0.000,0.000
1643293350625669120,2022-01-27-14:22:30,10.1.1.5,26,-0.290,-0.290,-0.290,0.000,0.000,0.000
1643293350829297152,2022-01-27-14:22:30,10.1.1.5,28,-0.280,-0.280,-0.280,0.000,0.000,0.000
1643293351026916864,2022-01-27-14:22:31,10.1.1.5,25,-0.270,-0.270,-0.270,0.000,0.000,0.000
1643293351226182912,2022-01-27-14:22:31,10.1.1.5,23,-0.260,-0.260,-0.260,0.000,0.000,0.000
1643293351445053952,2022-01-27-14:22:31,10.1.1.5,42,-0.249,-0.249,-0.249,0.000,0.000,0.000
1643293351647618048,2022-01-27-14:22:31,10.1.1.5,43,-0.239,-0.239,-0.239,0.000,0.000,0.000
1643293351849849088,2022-01-27-14:22:31,10.1.1.5,45,-0.229,-0.229,-0.229,0.000,0.000,0.000
1643293352027512064,2022-01-27-14:22:32,10.1.1.5,21,-0.220,-0.220,-0.220,0.000,0.000,0.000
1643293352247714048,2022-01-27-14:22:32,10.1.1.5,39,-0.209,-0.209,-0.209,0.000,0.000,0.000
1643293352448432896,2022-01-27-14:22:32,10.1.1.5,38,-0.199,-0.199,-0.199,0.000,0.000,0.000
1643293352646567168,2022-01-27-14:22:32,10.1.1.5,36,-0.189,-0.189,-0.189,0.000,0.000,0.000
1643293352848113920,2022-01-27-14:22:32,10.1.1.5,36,-0.179,-0.179,-0.179,0.000,0.000,0.000
1643293353047185920,2022-01-27-14:22:33,10.1.1.5,35,-0.169,-0.169,-0.169,0.000,0.000,0.000
1643293353245673984,2022-01-27-14:22:33,10.1.1.5,32,-0.159,-0.159,-0.159,0.000,0.000,0.000
1643293353450351872,2022-01-27-14:22:33,10.1.1.5,35,-0.149,-0.149,-0.149,0.000,0.000,0.000
1643293353647376128,2022-01-27-14:22:33,10.1.1.5,29,-0.140,-0.140,-0.140,0.000,0.000,0.000
1643293353848376064,2022-01-27-14:22:33,10.1.1.5,31,-0.130,-0.130,-0.130,0.000,0.000,0.000
1643293354046343936,2022-01-27-14:22:34,10.1.1.5,28,-0.120,-0.120,-0.120,0.000,0.000,0.000
1643293354248135936,2022-01-27-14:22:34,10.1.1.5,29,-0.110,-0.110,-0.110,0.000,0.000,0.000
1643293354449566976,2022-01-27-14:22:34,10.1.1.5,30,-0.100,-0.100,-0.100,0.000,0.000,0.000
1643293354647906048,2022-01-27-14:22:34,10.1.1.5,28,-0.090,-0.090,-0.090,0.000,0.000,0.000
1643293354848228096,2022-01-27-14:22:34,10.1.1.5,27,-0.080,-0.080,-0.080,0.000,0.000,0.000
1643293355045534976,2022-01-27-14:22:35,10.1.1.5,23,-0.070,-0.070,-0.070,0.000,0.000,0.000
1643293355266225152,2022-01-27-14:22:35,10.1.1.5,43,-0.059,-0.059,-0.059,0.000,0.000,0.000
1643293355448007168,2022-01-27-14:22:35,10.1.1.5,24,-0.050,-0.050,-0.050,0.000,0.000,0.000
1643293355648698112,2022-01-27-14:22:35,10.1.1.5,23,-0.040,-0.040,-0.040,0.000,0.000,0.000
1643293355866752000,2022-01-27-14:22:35,10.1.1.5,40,-0.029,-0.029,-0.029,0.000,0.000,0.000
1643293356068196096,2022-01-27-14:22:36,10.1.1.5,39,-0.019,-0.019,-0.019,0.000,0.000,0.000
1643293356267517952,2022-01-27-14:22:36,10.1.1.5,38,-0.009,-0.009,-0.009,0.000,0.000,0.000
1643293356446365184,2022-01-27-14:22:36,10.1.1.5,17,-0.000,-0.000,-0.000,0.000,0.000,0.000
1643293356668732928,2022-01-27-14:22:36,10.1.1.5,38,-0.011,-0.011,-0.011,0.000,0.000,0.000
1643293356867787008,2022-01-27-14:22:36,10.1.1.5,37,-0.021,-0.021,-0.021,0.000,0.000,0.000
1643293357066065152,2022-01-27-14:22:37,10.1.1.5,34,-0.031,-0.031,-0.031,0.000,0.000,0.000
1643293357270993920,2022-01-27-14:22:37,10.1.1.5,38,-0.041,-0.041,-0.041,0.000,0.000,0.000
1643293357466893056,2022-01-27-14:22:37,10.1.1.5,34,-0.051,-0.051,-0.051,0.000,0.000,0.000
1643293357666966016,2022-01-27-14:22:37,10.1.1.5,31,-0.060,-0.060,-0.060,0.000,0.000,0.000
1643293357869456128,2022-01-27-14:22:37,10.1.1.5,31,-0.070,-0.070,-0.070,0.000,0.000,0.000
1643293358070453760,2022-01-27-14:22:38,10.1.1.5,29,-0.080,-0.080,-0.080,0.000,0.000,0.000
