FedericoMungari/DigitalTwin_service/01_WiredScenario/Output/Output_script/script_rosapi_2_output_robots8_freq0_1.txt
timestamp,date,node,latency,joint_1,joint_2,joint_3,joint_4,joint_5,joint_6
1641102609490934016,2022-01-02-05:50:09,10.1.1.2,185,-0.010,-0.010,-0.010,0.000,0.000,0.000
1641102609690884096,2022-01-02-05:50:09,10.1.1.2,184,-0.020,-0.020,-0.020,0.000,0.000,0.000
1641102609889166080,2022-01-02-05:50:09,10.1.1.2,182,-0.030,-0.030,-0.030,0.000,0.000,0.000
1641102610089787904,2022-01-02-05:50:10,10.1.1.2,181,-0.040,-0.040,-0.040,0.000,0.000,0.000
1641102610320584960,2022-01-02-05:50:10,10.1.1.2,193,-0.050,-0.050,-0.050,0.000,0.000,0.000
1641102610509979136,2022-01-02-05:50:10,10.1.1.2,188,-0.060,-0.060,-0.060,0.000,0.000,0.000
1641102610709486080,2022-01-02-05:50:10,10.1.1.2,187,-0.070,-0.070,-0.070,0.000,0.000,0.000
1641102610908162048,2022-01-02-05:50:10,10.1.1.2,184,-0.080,-0.080,-0.080,0.000,0.000,0.000
1641102611107691008,2022-01-02-05:50:11,10.1.1.2,183,-0.090,-0.090,-0.090,0.000,0.000,0.000
1641102611307499008,2022-01-02-05:50:11,10.1.1.2,181,-0.100,-0.100,-0.100,0.000,0.000,0.000
1641102611508832000,2022-01-02-05:50:11,10.1.1.2,181,-0.110,-0.110,-0.110,0.000,0.000,0.000
1641102611708941056,2022-01-02-05:50:11,10.1.1.2,179,-0.120,-0.120,-0.120,0.000,0.000,0.000
1641102611906984960,2022-01-02-05:50:11,10.1.1.2,177,-0.130,-0.130,-0.130,0.000,0.000,0.000
1641102612107415040,2022-01-02-05:50:12,10.1.1.2,177,-0.140,-0.140,-0.140,0.000,0.000,0.000
1641102612308052992,2022-01-02-05:50:12,10.1.1.2,177,-0.150,-0.150,-0.150,0.000,0.000,0.000
1641102612508570880,2022-01-02-05:50:12,10.1.1.2,176,-0.160,-0.160,-0.160,0.000,0.000,0.000
1641102612707298048,2022-01-02-05:50:12,10.1.1.2,174,-0.170,-0.170,-0.170,0.000,0.000,0.000
1641102612906540032,2022-01-02-05:50:12,10.1.1.2,172,-0.180,-0.180,-0.180,0.000,0.000,0.000
1641102613107451904,2022-01-02-05:50:13,10.1.1.2,173,-0.190,-0.190,-0.190,0.000,0.000,0.000
1641102613305527808,2022-01-02-05:50:13,10.1.1.2,170,-0.200,-0.200,-0.200,0.000,0.000,0.000
1641102613505553920,2022-01-02-05:50:13,10.1.1.2,170,-0.210,-0.210,-0.210,0.000,0.000,0.000
1641102613705036032,2022-01-02-05:50:13,10.1.1.2,169,-0.220,-0.220,-0.220,0.000,0.000,0.000
1641102613903630848,2022-01-02-05:50:13,10.1.1.2,166,-0.230,-0.230,-0.230,0.000,0.000,0.000
1641102614103117056,2022-01-02-05:50:14,10.1.1.2,165,-0.240,-0.240,-0.240,0.000,0.000,0.000
1641102614304265984,2022-01-02-05:50:14,10.1.1.2,166,-0.250,-0.250,-0.250,0.000,0.000,0.000
1641102614502449920,2022-01-02-05:50:14,10.1.1.2,163,-0.260,-0.260,-0.260,0.000,0.000,0.000
1641102614721613824,2022-01-02-05:50:14,10.1.1.2,180,-0.270,-0.270,-0.270,0.000,0.000,0.000
1641102614924804864,2022-01-02-05:50:14,10.1.1.2,182,-0.280,-0.280,-0.280,0.000,0.000,0.000
1641102615121862912,2022-01-02-05:50:15,10.1.1.2,178,-0.290,-0.290,-0.290,0.000,0.000,0.000
1641102615321187072,2022-01-02-05:50:15,10.1.1.2,177,-0.300,-0.300,-0.300,0.000,0.000,0.000
1641102615521106944,2022-01-02-05:50:15,10.1.1.2,176,-0.310,-0.310,-0.310,0.000,0.000,0.000
1641102615720580096,2022-01-02-05:50:15,10.1.1.2,175,-0.320,-0.320,-0.320,0.000,0.000,0.000
1641102615921641216,2022-01-02-05:50:15,10.1.1.2,176,-0.330,-0.330,-0.330,0.000,0.000,0.000
1641102616120136960,2022-01-02-05:50:16,10.1.1.2,174,-0.340,-0.340,-0.340,0.000,0.000,0.000
1641102616320818944,2022-01-02-05:50:16,10.1.1.2,173,-0.350,-0.350,-0.350,0.000,0.000,0.000
1641102616521451008,2022-01-02-05:50:16,10.1.1.2,173,-0.360,-0.360,-0.360,0.000,0.000,0.000
1641102616720599808,2022-01-02-05:50:16,10.1.1.2,172,-0.370,-0.370,-0.370,0.000,0.000,0.000
1641102616920782080,2022-01-02-05:50:16,10.1.1.2,171,-0.380,-0.380,-0.380,0.000,0.000,0.000
1641102617119512064,2022-01-02-05:50:17,10.1.1.2,169,-0.390,-0.390,-0.390,0.000,0.000,0.000
1641102617319913984,2022-01-02-05:50:17,10.1.1.2,169,-0.400,-0.400,-0.400,0.000,0.000,0.000
1641102617519038976,2022-01-02-05:50:17,10.1.1.2,168,-0.410,-0.410,-0.410,0.000,0.000,0.000
1641102617721498880,2022-01-02-05:50:17,10.1.1.2,170,-0.420,-0.420,-0.420,0.000,0.000,0.000
1641102617918461184,2022-01-02-05:50:17,10.1.1.2,165,-0.430,-0.430,-0.430,0.000,0.000,0.000
1641102618117614080,2022-01-02-05:50:18,10.1.1.2,164,-0.440,-0.440,-0.440,0.000,0.000,0.000
1641102618317188096,2022-01-02-05:50:18,10.1.1.2,163,-0.450,-0.450,-0.450,0.000,0.000,0.000
1641102618537224960,2022-01-02-05:50:18,10.1.1.2,174,-0.460,-0.460,-0.460,0.000,0.000,0.000
1641102618739158016,2022-01-02-05:50:18,10.1.1.2,173,-0.470,-0.470,-0.470,0.000,0.000,0.000
1641102618936894976,2022-01-02-05:50:18,10.1.1.2,170,-0.480,-0.480,-0.480,0.000,0.000,0.000
1641102619137155072,2022-01-02-05:50:19,10.1.1.2,169,-0.490,-0.490,-0.490,0.000,0.000,0.000
1641102619340071936,2022-01-02-05:50:19,10.1.1.2,170,-0.480,-0.480,-0.480,0.000,0.000,0.000
1641102619540442112,2022-01-02-05:50:19,10.1.1.2,170,-0.470,-0.470,-0.470,0.000,0.000,0.000
1641102619740054016,2022-01-02-05:50:19,10.1.1.2,169,-0.460,-0.460,-0.460,0.000,0.000,0.000
1641102619940265984,2022-01-02-05:50:19,10.1.1.2,169,-0.450,-0.450,-0.450,0.000,0.000,0.000
1641102620141339136,2022-01-02-05:50:20,10.1.1.2,169,-0.440,-0.440,-0.440,0.000,0.000,0.000
1641102620341684992,2022-01-02-05:50:20,10.1.1.2,169,-0.430,-0.430,-0.430,0.000,0.000,0.000
1641102620542651904,2022-01-02-05:50:20,10.1.1.2,169,-0.420,-0.420,-0.420,0.000,0.000,0.000
1641102620743614976,2022-01-02-05:50:20,10.1.1.2,170,-0.410,-0.410,-0.410,0.000,0.000,0.000
1641102620944907008,2022-01-02-05:50:20,10.1.1.2,171,-0.400,-0.400,-0.400,0.000,0.000,0.000
1641102621145052928,2022-01-02-05:50:21,10.1.1.2,170,-0.390,-0.390,-0.390,0.000,0.000,0.000
1641102621346512128,2022-01-02-05:50:21,10.1.1.2,171,-0.380,-0.380,-0.380,0.000,0.000,0.000
1641102621546867968,2022-01-02-05:50:21,10.1.1.2,171,-0.370,-0.370,-0.370,0.000,0.000,0.000
1641102621748449024,2022-01-02-05:50:21,10.1.1.2,172,-0.360,-0.360,-0.360,0.000,0.000,0.000
1641102621948564992,2022-01-02-05:50:21,10.1.1.2,172,-0.350,-0.350,-0.350,0.000,0.000,0.000
1641102622149171968,2022-01-02-05:50:22,10.1.1.2,172,-0.340,-0.340,-0.340,0.000,0.000,0.000
1641102622351676928,2022-01-02-05:50:22,10.1.1.2,173,-0.330,-0.330,-0.330,0.000,0.000,0.000
1641102622550468864,2022-01-02-05:50:22,10.1.1.2,172,-0.320,-0.320,-0.320,0.000,0.000,0.000
1641102622750449920,2022-01-02-05:50:22,10.1.1.2,172,-0.310,-0.310,-0.310,0.000,0.000,0.000
1641102622951563008,2022-01-02-05:50:22,10.1.1.2,172,-0.300,-0.300,-0.300,0.000,0.000,0.000
1641102623152502016,2022-01-02-05:50:23,10.1.1.2,172,-0.290,-0.290,-0.290,0.000,0.000,0.000
1641102623372488960,2022-01-02-05:50:23,10.1.1.2,192,-0.280,-0.280,-0.280,0.000,0.000,0.000
1641102623578608128,2022-01-02-05:50:23,10.1.1.2,198,-0.270,-0.270,-0.270,0.000,0.000,0.000
1641102623773755136,2022-01-02-05:50:23,10.1.1.2,192,-0.260,-0.260,-0.260,0.000,0.000,0.000
1641102623978426880,2022-01-02-05:50:23,10.1.1.2,196,-0.250,-0.250,-0.250,0.000,0.000,0.000
1641102624174604032,2022-01-02-05:50:24,10.1.1.2,192,-0.240,-0.240,-0.240,0.000,0.000,0.000
1641102624374459904,2022-01-02-05:50:24,10.1.1.2,191,-0.230,-0.230,-0.230,0.000,0.000,0.000
1641102624574523904,2022-01-02-05:50:24,10.1.1.2,191,-0.220,-0.220,-0.220,0.000,0.000,0.000
1641102624775443200,2022-01-02-05:50:24,10.1.1.2,192,-0.210,-0.210,-0.210,0.000,0.000,0.000
1641102624975624192,2022-01-02-05:50:24,10.1.1.2,191,-0.200,-0.200,-0.200,0.000,0.000,0.000
1641102625175923968,2022-01-02-05:50:25,10.1.1.2,191,-0.190,-0.190,-0.190,0.000,0.000,0.000
1641102625377038080,2022-01-02-05:50:25,10.1.1.2,192,-0.180,-0.180,-0.180,0.000,0.000,0.000
1641102625576670976,2022-01-02-05:50:25,10.1.1.2,191,-0.170,-0.170,-0.170,0.000,0.000,0.000
1641102626189583104,2022-01-02-05:50:26,10.1.1.2,201,-0.140,-0.140,-0.140,0.000,0.000,0.000
1641102626384140032,2022-01-02-05:50:26,10.1.1.2,188,-0.130,-0.130,-0.130,0.000,0.000,0.000
1641102626579837184,2022-01-02-05:50:26,10.1.1.2,182,-0.120,-0.120,-0.120,0.000,0.000,0.000
1641102626779234816,2022-01-02-05:50:26,10.1.1.2,181,-0.110,-0.110,-0.110,0.000,0.000,0.000
1641102626998651904,2022-01-02-05:50:26,10.1.1.2,195,-0.100,-0.100,-0.100,0.000,0.000,0.000
1641102627201607936,2022-01-02-05:50:27,10.1.1.2,197,-0.090,-0.090,-0.090,0.000,0.000,0.000
1641102627398697984,2022-01-02-05:50:27,10.1.1.2,193,-0.080,-0.080,-0.080,0.000,0.000,0.000
1641102627608248064,2022-01-02-05:50:27,10.1.1.2,199,-0.070,-0.070,-0.070,0.000,0.000,0.000
1641102627798618112,2022-01-02-05:50:27,10.1.1.2,181,-0.060,-0.060,-0.060,0.000,0.000,0.000
1641102628000258816,2022-01-02-05:50:28,10.1.1.2,183,-0.050,-0.050,-0.050,0.000,0.000,0.000
1641102628201095936,2022-01-02-05:50:28,10.1.1.2,182,-0.040,-0.040,-0.040,0.000,0.000,0.000
1641102628401840896,2022-01-02-05:50:28,10.1.1.2,182,-0.030,-0.030,-0.030,0.000,0.000,0.000
1641102628621197824,2022-01-02-05:50:28,10.1.1.2,199,-0.020,-0.020,-0.020,0.000,0.000,0.000
1641102628820769024,2022-01-02-05:50:28,10.1.1.2,199,-0.010,-0.010,-0.010,0.000,0.000,0.000
1641102629020286208,2022-01-02-05:50:29,10.1.1.2,198,0.000,0.000,0.000,0.000,0.000,0.000
1641102629220856064,2022-01-02-05:50:29,10.1.1.2,196,-0.010,-0.010,-0.010,0.000,0.000,0.000
1641102629421964032,2022-01-02-05:50:29,10.1.1.2,197,-0.020,-0.020,-0.020,0.000,0.000,0.000
1641102629620284928,2022-01-02-05:50:29,10.1.1.2,194,-0.030,-0.030,-0.030,0.000,0.000,0.000
1641102629819991040,2022-01-02-05:50:29,10.1.1.2,194,-0.040,-0.040,-0.040,0.000,0.000,0.000
1641102630021470976,2022-01-02-05:50:30,10.1.1.2,195,-0.050,-0.050,-0.050,0.000,0.000,0.000
1641102630221894144,2022-01-02-05:50:30,10.1.1.2,194,-0.060,-0.060,-0.060,0.000,0.000,0.000
1641102630422074112,2022-01-02-05:50:30,10.1.1.2,194,-0.070,-0.070,-0.070,0.000,0.000,0.000
1641102630622083072,2022-01-02-05:50:30,10.1.1.2,194,-0.080,-0.080,-0.080,0.000,0.000,0.000
1641102630821293056,2022-01-02-05:50:30,10.1.1.2,192,-0.090,-0.090,-0.090,0.000,0.000,0.000
1641102631020920064,2022-01-02-05:50:31,10.1.1.2,192,-0.100,-0.100,-0.100,0.000,0.000,0.000
1641102631231951104,2022-01-02-05:50:31,10.1.1.2,202,-0.110,-0.110,-0.110,0.000,0.000,0.000
1641102631419126016,2022-01-02-05:50:31,10.1.1.2,186,-0.120,-0.120,-0.120,0.000,0.000,0.000
1641102631619968000,2022-01-02-05:50:31,10.1.1.2,187,-0.130,-0.130,-0.130,0.000,0.000,0.000
1641102631823571968,2022-01-02-05:50:31,10.1.1.2,190,-0.140,-0.140,-0.140,0.000,0.000,0.000
1641102632019643904,2022-01-02-05:50:32,10.1.1.2,185,-0.150,-0.150,-0.150,0.000,0.000,0.000
1641102632226020096,2022-01-02-05:50:32,10.1.1.2,191,-0.160,-0.160,-0.160,0.000,0.000,0.000
1641102632419020032,2022-01-02-05:50:32,10.1.1.2,183,-0.170,-0.170,-0.170,0.000,0.000,0.000
1641102632619916800,2022-01-02-05:50:32,10.1.1.2,184,-0.180,-0.180,-0.180,0.000,0.000,0.000
1641102632820123904,2022-01-02-05:50:32,10.1.1.2,183,-0.190,-0.190,-0.190,0.000,0.000,0.000
1641102633020451072,2022-01-02-05:50:33,10.1.1.2,182,-0.200,-0.200,-0.200,0.000,0.000,0.000
1641102633218471936,2022-01-02-05:50:33,10.1.1.2,178,-0.210,-0.210,-0.210,0.000,0.000,0.000
1641102633438793984,2022-01-02-05:50:33,10.1.1.2,197,-0.220,-0.220,-0.220,0.000,0.000,0.000
1641102633639721984,2022-01-02-05:50:33,10.1.1.2,197,-0.230,-0.230,-0.230,0.000,0.000,0.000
1641102633838673152,2022-01-02-05:50:33,10.1.1.2,195,-0.240,-0.240,-0.240,0.000,0.000,0.000
1641102634038309120,2022-01-02-05:50:34,10.1.1.2,194,-0.250,-0.250,-0.250,0.000,0.000,0.000
1641102634237651200,2022-01-02-05:50:34,10.1.1.2,192,-0.260,-0.260,-0.260,0.000,0.000,0.000
1641102634441319936,2022-01-02-05:50:34,10.1.1.2,195,-0.270,-0.270,-0.270,0.000,0.000,0.000
1641102634638544128,2022-01-02-05:50:34,10.1.1.2,192,-0.280,-0.280,-0.280,0.000,0.000,0.000
1641102634837799168,2022-01-02-05:50:34,10.1.1.2,191,-0.290,-0.290,-0.290,0.000,0.000,0.000
1641102635037656064,2022-01-02-05:50:35,10.1.1.2,190,-0.300,-0.300,-0.300,0.000,0.000,0.000
1641102635237234944,2022-01-02-05:50:35,10.1.1.2,189,-0.310,-0.310,-0.310,0.000,0.000,0.000
1641102635437405952,2022-01-02-05:50:35,10.1.1.2,188,-0.320,-0.320,-0.320,0.000,0.000,0.000
1641102635637646848,2022-01-02-05:50:35,10.1.1.2,188,-0.330,-0.330,-0.330,0.000,0.000,0.000
1641102635836937984,2022-01-02-05:50:35,10.1.1.2,187,-0.340,-0.340,-0.340,0.000,0.000,0.000
1641102636036135936,2022-01-02-05:50:36,10.1.1.2,185,-0.350,-0.350,-0.350,0.000,0.000,0.000
1641102636237191936,2022-01-02-05:50:36,10.1.1.2,184,-0.360,-0.360,-0.360,0.000,0.000,0.000
1641102636436097024,2022-01-02-05:50:36,10.1.1.2,183,-0.370,-0.370,-0.370,0.000,0.000,0.000
1641102636635499008,2022-01-02-05:50:36,10.1.1.2,181,-0.380,-0.380,-0.380,0.000,0.000,0.000
1641102636836352000,2022-01-02-05:50:36,10.1.1.2,181,-0.390,-0.390,-0.390,0.000,0.000,0.000
1641102637037113856,2022-01-02-05:50:37,10.1.1.2,180,-0.400,-0.400,-0.400,0.000,0.000,0.000
1641102637235073024,2022-01-02-05:50:37,10.1.1.2,177,-0.410,-0.410,-0.410,0.000,0.000,0.000
1641102637435272960,2022-01-02-05:50:37,10.1.1.2,176,-0.420,-0.420,-0.420,0.000,0.000,0.000
1641102637633965056,2022-01-02-05:50:37,10.1.1.2,174,-0.430,-0.430,-0.430,0.000,0.000,0.000
1641102637854712064,2022-01-02-05:50:37,10.1.1.2,194,-0.440,-0.440,-0.440,0.000,0.000,0.000
1641102638054420992,2022-01-02-05:50:38,10.1.1.2,193,-0.450,-0.450,-0.450,0.000,0.000,0.000
1641102638255255040,2022-01-02-05:50:38,10.1.1.2,193,-0.460,-0.460,-0.460,0.000,0.000,0.000
1641102638453885952,2022-01-02-05:50:38,10.1.1.2,191,-0.470,-0.470,-0.470,0.000,0.000,0.000
1641102638663856128,2022-01-02-05:50:38,10.1.1.2,199,-0.480,-0.480,-0.480,0.000,0.000,0.000
1641102638853275904,2022-01-02-05:50:38,10.1.1.2,187,-0.490,-0.490,-0.490,0.000,0.000,0.000
1641102639053786112,2022-01-02-05:50:39,10.1.1.2,187,-0.480,-0.480,-0.480,0.000,0.000,0.000
1641102639253651968,2022-01-02-05:50:39,10.1.1.2,186,-0.470,-0.470,-0.470,0.000,0.000,0.000
1641102639453135104,2022-01-02-05:50:39,10.1.1.2,184,-0.460,-0.460,-0.460,0.000,0.000,0.000
1641102639655776000,2022-01-02-05:50:39,10.1.1.2,186,-0.450,-0.450,-0.450,0.000,0.000,0.000
1641102639851689216,2022-01-02-05:50:39,10.1.1.2,179,-0.440,-0.440,-0.440,0.000,0.000,0.000
1641102640051857920,2022-01-02-05:50:40,10.1.1.2,179,-0.430,-0.430,-0.430,0.000,0.000,0.000
1641102640251985920,2022-01-02-05:50:40,10.1.1.2,178,-0.420,-0.420,-0.420,0.000,0.000,0.000
1641102640454601984,2022-01-02-05:50:40,10.1.1.2,180,-0.410,-0.410,-0.410,0.000,0.000,0.000
1641102640650620928,2022-01-02-05:50:40,10.1.1.2,176,-0.400,-0.400,-0.400,0.000,0.000,0.000
1641102640850068992,2022-01-02-05:50:40,10.1.1.2,175,-0.390,-0.390,-0.390,0.000,0.000,0.000
1641102641050578944,2022-01-02-05:50:41,10.1.1.2,175,-0.380,-0.380,-0.380,0.000,0.000,0.000
1641102641251503104,2022-01-02-05:50:41,10.1.1.2,176,-0.370,-0.370,-0.370,0.000,0.000,0.000
1641102641449965056,2022-01-02-05:50:41,10.1.1.2,173,-0.360,-0.360,-0.360,0.000,0.000,0.000
1641102641649605888,2022-01-02-05:50:41,10.1.1.2,173,-0.350,-0.350,-0.350,0.000,0.000,0.000
1641102641848648192,2022-01-02-05:50:41,10.1.1.2,169,-0.340,-0.340,-0.340,0.000,0.000,0.000
1641102642073520896,2022-01-02-05:50:42,10.1.1.2,192,-0.330,-0.330,-0.330,0.000,0.000,0.000
1641102642269468160,2022-01-02-05:50:42,10.1.1.2,180,-0.320,-0.320,-0.320,0.000,0.000,0.000
1641102642468688896,2022-01-02-05:50:42,10.1.1.2,175,-0.310,-0.310,-0.310,0.000,0.000,0.000
1641102642670872064,2022-01-02-05:50:42,10.1.1.2,177,-0.300,-0.300,-0.300,0.000,0.000,0.000
1641102642868964864,2022-01-02-05:50:42,10.1.1.2,174,-0.290,-0.290,-0.290,0.000,0.000,0.000
1641102643068873984,2022-01-02-05:50:43,10.1.1.2,174,-0.280,-0.280,-0.280,0.000,0.000,0.000
1641102643268229888,2022-01-02-05:50:43,10.1.1.2,172,-0.270,-0.270,-0.270,0.000,0.000,0.000
1641102643468249088,2022-01-02-05:50:43,10.1.1.2,171,-0.260,-0.260,-0.260,0.000,0.000,0.000
1641102643667852032,2022-01-02-05:50:43,10.1.1.2,170,-0.250,-0.250,-0.250,0.000,0.000,0.000
1641102643866460928,2022-01-02-05:50:43,10.1.1.2,168,-0.240,-0.240,-0.240,0.000,0.000,0.000
1641102644065562880,2022-01-02-05:50:44,10.1.1.2,167,-0.230,-0.230,-0.230,0.000,0.000,0.000
1641102644265684992,2022-01-02-05:50:44,10.1.1.2,166,-0.220,-0.220,-0.220,0.000,0.000,0.000
1641102644466434048,2022-01-02-05:50:44,10.1.1.2,167,-0.210,-0.210,-0.210,0.000,0.000,0.000
1641102644685072896,2022-01-02-05:50:44,10.1.1.2,185,-0.200,-0.200,-0.200,0.000,0.000,0.000
1641102644886366976,2022-01-02-05:50:44,10.1.1.2,185,-0.190,-0.190,-0.190,0.000,0.000,0.000
1641102645084669952,2022-01-02-05:50:45,10.1.1.2,183,-0.180,-0.180,-0.180,0.000,0.000,0.000
1641102645285073152,2022-01-02-05:50:45,10.1.1.2,183,-0.170,-0.170,-0.170,0.000,0.000,0.000
1641102645484759040,2022-01-02-05:50:45,10.1.1.2,182,-0.160,-0.160,-0.160,0.000,0.000,0.000
1641102645684791040,2022-01-02-05:50:45,10.1.1.2,182,-0.150,-0.150,-0.150,0.000,0.000,0.000
1641102645884519936,2022-01-02-05:50:45,10.1.1.2,180,-0.140,-0.140,-0.140,0.000,0.000,0.000
1641102646084180224,2022-01-02-05:50:46,10.1.1.2,178,-0.130,-0.130,-0.130,0.000,0.000,0.000
1641102646284121088,2022-01-02-05:50:46,10.1.1.2,178,-0.120,-0.120,-0.120,0.000,0.000,0.000
1641102646483792896,2022-01-02-05:50:46,10.1.1.2,177,-0.110,-0.110,-0.110,0.000,0.000,0.000
1641102646683312896,2022-01-02-05:50:46,10.1.1.2,175,-0.100,-0.100,-0.100,0.000,0.000,0.000
1641102646887543808,2022-01-02-05:50:46,10.1.1.2,179,-0.090,-0.090,-0.090,0.000,0.000,0.000
1641102647083420928,2022-01-02-05:50:47,10.1.1.2,173,-0.080,-0.080,-0.080,0.000,0.000,0.000
1641102647281712896,2022-01-02-05:50:47,10.1.1.2,168,-0.070,-0.070,-0.070,0.000,0.000,0.000
1641102647480932096,2022-01-02-05:50:47,10.1.1.2,167,-0.060,-0.060,-0.060,0.000,0.000,0.000
1641102647681405184,2022-01-02-05:50:47,10.1.1.2,166,-0.050,-0.050,-0.050,0.000,0.000,0.000
1641102647880120064,2022-01-02-05:50:47,10.1.1.2,165,-0.040,-0.040,-0.040,0.000,0.000,0.000
1641102648083131136,2022-01-02-05:50:48,10.1.1.2,164,-0.030,-0.030,-0.030,0.000,0.000,0.000
1641102648300534016,2022-01-02-05:50:48,10.1.1.2,170,-0.020,-0.020,-0.020,0.000,0.000,0.000
1641102648499442944,2022-01-02-05:50:48,10.1.1.2,168,-0.010,-0.010,-0.010,0.000,0.000,0.000
1641102648702009856,2022-01-02-05:50:48,10.1.1.2,170,0.000,0.000,0.000,0.000,0.000,0.000
1641102648899298048,2022-01-02-05:50:48,10.1.1.2,166,-0.010,-0.010,-0.010,0.000,0.000,0.000
1641102649098688000,2022-01-02-05:50:49,10.1.1.2,165,-0.020,-0.020,-0.020,0.000,0.000,0.000
1641102649302295040,2022-01-02-05:50:49,10.1.1.2,168,-0.030,-0.030,-0.030,0.000,0.000,0.000
1641102649498337024,2022-01-02-05:50:49,10.1.1.2,162,-0.040,-0.040,-0.040,0.000,0.000,0.000
1641102649697395200,2022-01-02-05:50:49,10.1.1.2,160,-0.050,-0.050,-0.050,0.000,0.000,0.000
1641102649897455104,2022-01-02-05:50:49,10.1.1.2,159,-0.060,-0.060,-0.060,0.000,0.000,0.000
1641102650103173888,2022-01-02-05:50:50,10.1.1.2,164,-0.070,-0.070,-0.070,0.000,0.000,0.000
1641102650318469888,2022-01-02-05:50:50,10.1.1.2,177,-0.080,-0.080,-0.080,0.000,0.000,0.000
1641102650516926976,2022-01-02-05:50:50,10.1.1.2,175,-0.090,-0.090,-0.090,0.000,0.000,0.000
1641102650717408000,2022-01-02-05:50:50,10.1.1.2,175,-0.100,-0.100,-0.100,0.000,0.000,0.000
1641102650915096064,2022-01-02-05:50:50,10.1.1.2,172,-0.110,-0.110,-0.110,0.000,0.000,0.000
1641102651116358912,2022-01-02-05:50:51,10.1.1.2,170,-0.120,-0.120,-0.120,0.000,0.000,0.000
1641102651321625088,2022-01-02-05:50:51,10.1.1.2,173,-0.130,-0.130,-0.130,0.000,0.000,0.000
1641102651518286080,2022-01-02-05:50:51,10.1.1.2,169,-0.140,-0.140,-0.140,0.000,0.000,0.000
1641102651721213952,2022-01-02-05:50:51,10.1.1.2,171,-0.150,-0.150,-0.150,0.000,0.000,0.000
1641102651920419840,2022-01-02-05:50:51,10.1.1.2,169,-0.160,-0.160,-0.160,0.000,0.000,0.000
1641102652121644032,2022-01-02-05:50:52,10.1.1.2,170,-0.170,-0.170,-0.170,0.000,0.000,0.000
1641102652322141952,2022-01-02-05:50:52,10.1.1.2,169,-0.180,-0.180,-0.180,0.000,0.000,0.000
1641102652524115968,2022-01-02-05:50:52,10.1.1.2,169,-0.190,-0.190,-0.190,0.000,0.000,0.000
1641102652724901888,2022-01-02-05:50:52,10.1.1.2,169,-0.200,-0.200,-0.200,0.000,0.000,0.000
1641102652925310976,2022-01-02-05:50:52,10.1.1.2,169,-0.210,-0.210,-0.210,0.000,0.000,0.000
1641102653127808000,2022-01-02-05:50:53,10.1.1.2,171,-0.220,-0.220,-0.220,0.000,0.000,0.000
1641102653327037184,2022-01-02-05:50:53,10.1.1.2,169,-0.230,-0.230,-0.230,0.000,0.000,0.000
1641102653528770048,2022-01-02-05:50:53,10.1.1.2,170,-0.240,-0.240,-0.240,0.000,0.000,0.000
1641102653731591936,2022-01-02-05:50:53,10.1.1.2,172,-0.250,-0.250,-0.250,0.000,0.000,0.000
1641102653949085952,2022-01-02-05:50:53,10.1.1.2,188,-0.260,-0.260,-0.260,0.000,0.000,0.000
1641102654150667008,2022-01-02-05:50:54,10.1.1.2,189,-0.270,-0.270,-0.270,0.000,0.000,0.000
1641102654359168000,2022-01-02-05:50:54,10.1.1.2,197,-0.280,-0.280,-0.280,0.000,0.000,0.000
1641102654551038976,2022-01-02-05:50:54,10.1.1.2,188,-0.290,-0.290,-0.290,0.000,0.000,0.000
1641102654751970048,2022-01-02-05:50:54,10.1.1.2,188,-0.300,-0.300,-0.300,0.000,0.000,0.000
1641102654953868032,2022-01-02-05:50:54,10.1.1.2,188,-0.310,-0.310,-0.310,0.000,0.000,0.000
1641102655153915904,2022-01-02-05:50:55,10.1.1.2,187,-0.320,-0.320,-0.320,0.000,0.000,0.000
1641102655353633024,2022-01-02-05:50:55,10.1.1.2,186,-0.330,-0.330,-0.330,0.000,0.000,0.000
1641102655554327040,2022-01-02-05:50:55,10.1.1.2,186,-0.340,-0.340,-0.340,0.000,0.000,0.000
1641102655755172864,2022-01-02-05:50:55,10.1.1.2,186,-0.350,-0.350,-0.350,0.000,0.000,0.000
1641102655954878208,2022-01-02-05:50:55,10.1.1.2,185,-0.360,-0.360,-0.360,0.000,0.000,0.000
1641102656155486208,2022-01-02-05:50:56,10.1.1.2,185,-0.370,-0.370,-0.370,0.000,0.000,0.000
1641102656357358080,2022-01-02-05:50:56,10.1.1.2,185,-0.380,-0.380,-0.380,0.000,0.000,0.000
1641102656557671168,2022-01-02-05:50:56,10.1.1.2,186,-0.390,-0.390,-0.390,0.000,0.000,0.000
1641102656758439168,2022-01-02-05:50:56,10.1.1.2,186,-0.400,-0.400,-0.400,0.000,0.000,0.000
1641102657184040960,2022-01-02-05:50:57,10.1.1.2,197,-0.420,-0.420,-0.420,0.000,0.000,0.000
1641102657383513088,2022-01-02-05:50:57,10.1.1.2,195,-0.430,-0.430,-0.430,0.000,0.000,0.000
1641102657582667008,2022-01-02-05:50:57,10.1.1.2,192,-0.440,-0.440,-0.440,0.000,0.000,0.000
1641102657782583040,2022-01-02-05:50:57,10.1.1.2,191,-0.450,-0.450,-0.450,0.000,0.000,0.000
1641102657982717952,2022-01-02-05:50:57,10.1.1.2,189,-0.460,-0.460,-0.460,0.000,0.000,0.000
1641102658181039104,2022-01-02-05:50:58,10.1.1.2,187,-0.470,-0.470,-0.470,0.000,0.000,0.000
1641102658379298048,2022-01-02-05:50:58,10.1.1.2,184,-0.480,-0.480,-0.480,0.000,0.000,0.000
1641102658581681920,2022-01-02-05:50:58,10.1.1.2,186,-0.490,-0.490,-0.490,0.000,0.000,0.000
1641102658784025856,2022-01-02-05:50:58,10.1.1.2,188,-0.480,-0.480,-0.480,0.000,0.000,0.000
1641102658983011840,2022-01-02-05:50:58,10.1.1.2,185,-0.470,-0.470,-0.470,0.000,0.000,0.000
1641102659181345024,2022-01-02-05:50:59,10.1.1.2,182,-0.460,-0.460,-0.460,0.000,0.000,0.000
1641102659801528832,2022-01-02-05:50:59,10.1.1.2,196,-0.430,-0.430,-0.430,0.000,0.000,0.000
1641102660004455168,2022-01-02-05:51:00,10.1.1.2,199,-0.420,-0.420,-0.420,0.000,0.000,0.000
1641102660202712064,2022-01-02-05:51:00,10.1.1.2,195,-0.410,-0.410,-0.410,0.000,0.000,0.000
1641102660402883072,2022-01-02-05:51:00,10.1.1.2,194,-0.400,-0.400,-0.400,0.000,0.000,0.000
1641102660603298816,2022-01-02-05:51:00,10.1.1.2,193,-0.390,-0.390,-0.390,0.000,0.000,0.000
1641102660802760960,2022-01-02-05:51:00,10.1.1.2,192,-0.380,-0.380,-0.380,0.000,0.000,0.000
1641102661002931968,2022-01-02-05:51:01,10.1.1.2,189,-0.370,-0.370,-0.370,0.000,0.000,0.000
1641102661201392896,2022-01-02-05:51:01,10.1.1.2,187,-0.360,-0.360,-0.360,0.000,0.000,0.000
1641102661400374784,2022-01-02-05:51:01,10.1.1.2,185,-0.350,-0.350,-0.350,0.000,0.000,0.000
1641102661601008896,2022-01-02-05:51:01,10.1.1.2,184,-0.340,-0.340,-0.340,0.000,0.000,0.000
1641102661800856064,2022-01-02-05:51:01,10.1.1.2,184,-0.330,-0.330,-0.330,0.000,0.000,0.000
1641102662001594112,2022-01-02-05:51:02,10.1.1.2,182,-0.320,-0.320,-0.320,0.000,0.000,0.000
1641102662421895936,2022-01-02-05:51:02,10.1.1.2,198,-0.300,-0.300,-0.300,0.000,0.000,0.000
1641102662635991040,2022-01-02-05:51:02,10.1.1.2,198,-0.290,-0.290,-0.290,0.000,0.000,0.000
1641102662843844864,2022-01-02-05:51:02,10.1.1.2,202,-0.280,-0.280,-0.280,0.000,0.000,0.000
1641102663063212032,2022-01-02-05:51:03,10.1.1.2,196,-0.270,-0.270,-0.270,0.000,0.000,0.000
1641102663261300992,2022-01-02-05:51:03,10.1.1.2,191,-0.260,-0.260,-0.260,0.000,0.000,0.000
1641102663461033984,2022-01-02-05:51:03,10.1.1.2,190,-0.250,-0.250,-0.250,0.000,0.000,0.000
1641102663661783808,2022-01-02-05:51:03,10.1.1.2,190,-0.240,-0.240,-0.240,0.000,0.000,0.000
1641102663860388096,2022-01-02-05:51:03,10.1.1.2,188,-0.230,-0.230,-0.230,0.000,0.000,0.000
1641102664064790016,2022-01-02-05:51:04,10.1.1.2,192,-0.220,-0.220,-0.220,0.000,0.000,0.000
1641102664261027072,2022-01-02-05:51:04,10.1.1.2,186,-0.210,-0.210,-0.210,0.000,0.000,0.000
1641102664460596992,2022-01-02-05:51:04,10.1.1.2,185,-0.200,-0.200,-0.200,0.000,0.000,0.000
1641102664660924928,2022-01-02-05:51:04,10.1.1.2,184,-0.190,-0.190,-0.190,0.000,0.000,0.000
1641102664860734976,2022-01-02-05:51:04,10.1.1.2,184,-0.180,-0.180,-0.180,0.000,0.000,0.000
1641102665060307968,2022-01-02-05:51:05,10.1.1.2,182,-0.170,-0.170,-0.170,0.000,0.000,0.000
1641102665259943936,2022-01-02-05:51:05,10.1.1.2,181,-0.160,-0.160,-0.160,0.000,0.000,0.000
1641102665481446912,2022-01-02-05:51:05,10.1.1.2,201,-0.150,-0.150,-0.150,0.000,0.000,0.000
1641102665680328960,2022-01-02-05:51:05,10.1.1.2,198,-0.140,-0.140,-0.140,0.000,0.000,0.000
1641102665879962880,2022-01-02-05:51:05,10.1.1.2,197,-0.130,-0.130,-0.130,0.000,0.000,0.000
1641102666080208896,2022-01-02-05:51:06,10.1.1.2,196,-0.120,-0.120,-0.120,0.000,0.000,0.000
1641102666279800064,2022-01-02-05:51:06,10.1.1.2,195,-0.110,-0.110,-0.110,0.000,0.000,0.000
1641102666478825984,2022-01-02-05:51:06,10.1.1.2,194,-0.100,-0.100,-0.100,0.000,0.000,0.000
1641102666679065088,2022-01-02-05:51:06,10.1.1.2,194,-0.090,-0.090,-0.090,0.000,0.000,0.000
1641102666879895808,2022-01-02-05:51:06,10.1.1.2,194,-0.080,-0.080,-0.080,0.000,0.000,0.000
1641102667079909120,2022-01-02-05:51:07,10.1.1.2,193,-0.070,-0.070,-0.070,0.000,0.000,0.000
1641102667278604032,2022-01-02-05:51:07,10.1.1.2,192,-0.060,-0.060,-0.060,0.000,0.000,0.000
1641102667479877120,2022-01-02-05:51:07,10.1.1.2,192,-0.050,-0.050,-0.050,0.000,0.000,0.000
1641102667679075072,2022-01-02-05:51:07,10.1.1.2,190,-0.040,-0.040,-0.040,0.000,0.000,0.000
1641102667879066880,2022-01-02-05:51:07,10.1.1.2,189,-0.030,-0.030,-0.030,0.000,0.000,0.000
1641102668081190144,2022-01-02-05:51:08,10.1.1.2,190,-0.020,-0.020,-0.020,0.000,0.000,0.000
1641102668279654912,2022-01-02-05:51:08,10.1.1.2,187,-0.010,-0.010,-0.010,0.000,0.000,0.000
1641102668477203968,2022-01-02-05:51:08,10.1.1.2,183,0.000,0.000,0.000,0.000,0.000,0.000
1641102668677079808,2022-01-02-05:51:08,10.1.1.2,181,-0.010,-0.010,-0.010,0.000,0.000,0.000
1641102668877569792,2022-01-02-05:51:08,10.1.1.2,181,-0.020,-0.020,-0.020,0.000,0.000,0.000
1641102669076793856,2022-01-02-05:51:09,10.1.1.2,179,-0.030,-0.030,-0.030,0.000,0.000,0.000
1641102669280463872,2022-01-02-05:51:09,10.1.1.2,182,-0.040,-0.040,-0.040,0.000,0.000,0.000
1641102669476461824,2022-01-02-05:51:09,10.1.1.2,177,-0.050,-0.050,-0.050,0.000,0.000,0.000
1641102669697609984,2022-01-02-05:51:09,10.1.1.2,196,-0.060,-0.060,-0.060,0.000,0.000,0.000
1641102669896207104,2022-01-02-05:51:09,10.1.1.2,194,-0.070,-0.070,-0.070,0.000,0.000,0.000
1641102670295890944,2022-01-02-05:51:10,10.1.1.2,191,-0.090,-0.090,-0.090,0.000,0.000,0.000
1641102670494676224,2022-01-02-05:51:10,10.1.1.2,189,-0.100,-0.100,-0.100,0.000,0.000,0.000
1641102670696173824,2022-01-02-05:51:10,10.1.1.2,190,-0.110,-0.110,-0.110,0.000,0.000,0.000
1641102670894604800,2022-01-02-05:51:10,10.1.1.2,188,-0.120,-0.120,-0.120,0.000,0.000,0.000
1641102671094546176,2022-01-02-05:51:11,10.1.1.2,187,-0.130,-0.130,-0.130,0.000,0.000,0.000
1641102671294513920,2022-01-02-05:51:11,10.1.1.2,186,-0.140,-0.140,-0.140,0.000,0.000,0.000
1641102671493892864,2022-01-02-05:51:11,10.1.1.2,185,-0.150,-0.150,-0.150,0.000,0.000,0.000
1641102671694509056,2022-01-02-05:51:11,10.1.1.2,186,-0.160,-0.160,-0.160,0.000,0.000,0.000
1641102671893291008,2022-01-02-05:51:11,10.1.1.2,184,-0.170,-0.170,-0.170,0.000,0.000,0.000
1641102672094832896,2022-01-02-05:51:12,10.1.1.2,184,-0.180,-0.180,-0.180,0.000,0.000,0.000
1641102672293731072,2022-01-02-05:51:12,10.1.1.2,183,-0.190,-0.190,-0.190,0.000,0.000,0.000
1641102672504496128,2022-01-02-05:51:12,10.1.1.2,192,-0.200,-0.200,-0.200,0.000,0.000,0.000
1641102672694138880,2022-01-02-05:51:12,10.1.1.2,182,-0.210,-0.210,-0.210,0.000,0.000,0.000
1641102672892756992,2022-01-02-05:51:12,10.1.1.2,180,-0.220,-0.220,-0.220,0.000,0.000,0.000
1641102673092749056,2022-01-02-05:51:13,10.1.1.2,179,-0.230,-0.230,-0.230,0.000,0.000,0.000
1641102673294228992,2022-01-02-05:51:13,10.1.1.2,179,-0.240,-0.240,-0.240,0.000,0.000,0.000
1641102673492590848,2022-01-02-05:51:13,10.1.1.2,177,-0.250,-0.250,-0.250,0.000,0.000,0.000
1641102673692259072,2022-01-02-05:51:13,10.1.1.2,177,-0.260,-0.260,-0.260,0.000,0.000,0.000
1641102673899104000,2022-01-02-05:51:13,10.1.1.2,182,-0.270,-0.270,-0.270,0.000,0.000,0.000
1641102674091461888,2022-01-02-05:51:14,10.1.1.2,174,-0.280,-0.280,-0.280,0.000,0.000,0.000
1641102674291940096,2022-01-02-05:51:14,10.1.1.2,174,-0.290,-0.290,-0.290,0.000,0.000,0.000
1641102674490863104,2022-01-02-05:51:14,10.1.1.2,172,-0.300,-0.300,-0.300,0.000,0.000,0.000
1641102674689598208,2022-01-02-05:51:14,10.1.1.2,170,-0.310,-0.310,-0.310,0.000,0.000,0.000
1641102674889816064,2022-01-02-05:51:14,10.1.1.2,169,-0.320,-0.320,-0.320,0.000,0.000,0.000
1641102675110782976,2022-01-02-05:51:15,10.1.1.2,190,-0.330,-0.330,-0.330,0.000,0.000,0.000
1641102675311296000,2022-01-02-05:51:15,10.1.1.2,190,-0.340,-0.340,-0.340,0.000,0.000,0.000
1641102675509648128,2022-01-02-05:51:15,10.1.1.2,186,-0.350,-0.350,-0.350,0.000,0.000,0.000
1641102675709528064,2022-01-02-05:51:15,10.1.1.2,185,-0.360,-0.360,-0.360,0.000,0.000,0.000
1641102675909068032,2022-01-02-05:51:15,10.1.1.2,184,-0.370,-0.370,-0.370,0.000,0.000,0.000
1641102676108550144,2022-01-02-05:51:16,10.1.1.2,183,-0.380,-0.380,-0.380,0.000,0.000,0.000
1641102676308695040,2022-01-02-05:51:16,10.1.1.2,182,-0.390,-0.390,-0.390,0.000,0.000,0.000
1641102676507529984,2022-01-02-05:51:16,10.1.1.2,180,-0.400,-0.400,-0.400,0.000,0.000,0.000
1641102676708148992,2022-01-02-05:51:16,10.1.1.2,179,-0.410,-0.410,-0.410,0.000,0.000,0.000
1641102676907527936,2022-01-02-05:51:16,10.1.1.2,178,-0.420,-0.420,-0.420,0.000,0.000,0.000
1641102677107389952,2022-01-02-05:51:17,10.1.1.2,178,-0.430,-0.430,-0.430,0.000,0.000,0.000
1641102677306606080,2022-01-02-05:51:17,10.1.1.2,176,-0.440,-0.440,-0.440,0.000,0.000,0.000
1641102677509864192,2022-01-02-05:51:17,10.1.1.2,179,-0.450,-0.450,-0.450,0.000,0.000,0.000
1641102677707272960,2022-01-02-05:51:17,10.1.1.2,176,-0.460,-0.460,-0.460,0.000,0.000,0.000
1641102677906482944,2022-01-02-05:51:17,10.1.1.2,175,-0.470,-0.470,-0.470,0.000,0.000,0.000
1641102678105072896,2022-01-02-05:51:18,10.1.1.2,173,-0.480,-0.480,-0.480,0.000,0.000,0.000
1641102678304486144,2022-01-02-05:51:18,10.1.1.2,172,-0.490,-0.490,-0.490,0.000,0.000,0.000
1641102678504808960,2022-01-02-05:51:18,10.1.1.2,172,-0.480,-0.480,-0.480,0.000,0.000,0.000
1641102678705480960,2022-01-02-05:51:18,10.1.1.2,172,-0.470,-0.470,-0.470,0.000,0.000,0.000
1641102678904005120,2022-01-02-05:51:18,10.1.1.2,169,-0.460,-0.460,-0.460,0.000,0.000,0.000
1641102679103176192,2022-01-02-05:51:19,10.1.1.2,166,-0.450,-0.450,-0.450,0.000,0.000,0.000
1641102679305576192,2022-01-02-05:51:19,10.1.1.2,168,-0.440,-0.440,-0.440,0.000,0.000,0.000
1641102679505007104,2022-01-02-05:51:19,10.1.1.2,167,-0.430,-0.430,-0.430,0.000,0.000,0.000
1641102679704189952,2022-01-02-05:51:19,10.1.1.2,165,-0.420,-0.420,-0.420,0.000,0.000,0.000
1641102679904059904,2022-01-02-05:51:19,10.1.1.2,164,-0.410,-0.410,-0.410,0.000,0.000,0.000
1641102680127111936,2022-01-02-05:51:20,10.1.1.2,183,-0.400,-0.400,-0.400,0.000,0.000,0.000
1641102680321890048,2022-01-02-05:51:20,10.1.1.2,179,-0.390,-0.390,-0.390,0.000,0.000,0.000
1641102680521672960,2022-01-02-05:51:20,10.1.1.2,178,-0.380,-0.380,-0.380,0.000,0.000,0.000
1641102680720920064,2022-01-02-05:51:20,10.1.1.2,177,-0.370,-0.370,-0.370,0.000,0.000,0.000
1641102680920094976,2022-01-02-05:51:20,10.1.1.2,176,-0.360,-0.360,-0.360,0.000,0.000,0.000
1641102681120624896,2022-01-02-05:51:21,10.1.1.2,175,-0.350,-0.350,-0.350,0.000,0.000,0.000
1641102681320038144,2022-01-02-05:51:21,10.1.1.2,174,-0.340,-0.340,-0.340,0.000,0.000,0.000
1641102681520471040,2022-01-02-05:51:21,10.1.1.2,174,-0.330,-0.330,-0.330,0.000,0.000,0.000
1641102681719296000,2022-01-02-05:51:21,10.1.1.2,172,-0.320,-0.320,-0.320,0.000,0.000,0.000
1641102681919430912,2022-01-02-05:51:21,10.1.1.2,171,-0.310,-0.310,-0.310,0.000,0.000,0.000
1641102682121856000,2022-01-02-05:51:22,10.1.1.2,174,-0.300,-0.300,-0.300,0.000,0.000,0.000
1641102682319896064,2022-01-02-05:51:22,10.1.1.2,166,-0.290,-0.290,-0.290,0.000,0.000,0.000
1641102682522976000,2022-01-02-05:51:22,10.1.1.2,168,-0.280,-0.280,-0.280,0.000,0.000,0.000
1641102682719973120,2022-01-02-05:51:22,10.1.1.2,164,-0.270,-0.270,-0.270,0.000,0.000,0.000
1641102682917108992,2022-01-02-05:51:22,10.1.1.2,160,-0.260,-0.260,-0.260,0.000,0.000,0.000
1641102683118371072,2022-01-02-05:51:23,10.1.1.2,161,-0.250,-0.250,-0.250,0.000,0.000,0.000
1641102683317886976,2022-01-02-05:51:23,10.1.1.2,160,-0.240,-0.240,-0.240,0.000,0.000,0.000
1641102683516550144,2022-01-02-05:51:23,10.1.1.2,158,-0.230,-0.230,-0.230,0.000,0.000,0.000
1641102683715747072,2022-01-02-05:51:23,10.1.1.2,156,-0.220,-0.220,-0.220,0.000,0.000,0.000
1641102683915858944,2022-01-02-05:51:23,10.1.1.2,156,-0.210,-0.210,-0.210,0.000,0.000,0.000
1641102684136044032,2022-01-02-05:51:24,10.1.1.2,176,-0.200,-0.200,-0.200,0.000,0.000,0.000
1641102684336992000,2022-01-02-05:51:24,10.1.1.2,175,-0.190,-0.190,-0.190,0.000,0.000,0.000
1641102684537731840,2022-01-02-05:51:24,10.1.1.2,175,-0.180,-0.180,-0.180,0.000,0.000,0.000
1641102684738995968,2022-01-02-05:51:24,10.1.1.2,174,-0.170,-0.170,-0.170,0.000,0.000,0.000
1641102684940728064,2022-01-02-05:51:24,10.1.1.2,175,-0.160,-0.160,-0.160,0.000,0.000,0.000
1641102685142608896,2022-01-02-05:51:25,10.1.1.2,177,-0.150,-0.150,-0.150,0.000,0.000,0.000
1641102685341509120,2022-01-02-05:51:25,10.1.1.2,175,-0.140,-0.140,-0.140,0.000,0.000,0.000
1641102685542681856,2022-01-02-05:51:25,10.1.1.2,176,-0.130,-0.130,-0.130,0.000,0.000,0.000
1641102685744069120,2022-01-02-05:51:25,10.1.1.2,176,-0.120,-0.120,-0.120,0.000,0.000,0.000
1641102685945873920,2022-01-02-05:51:25,10.1.1.2,178,-0.110,-0.110,-0.110,0.000,0.000,0.000
1641102686145711872,2022-01-02-05:51:26,10.1.1.2,177,-0.100,-0.100,-0.100,0.000,0.000,0.000
1641102686346065920,2022-01-02-05:51:26,10.1.1.2,176,-0.090,-0.090,-0.090,0.000,0.000,0.000
1641102686546688000,2022-01-02-05:51:26,10.1.1.2,176,-0.080,-0.080,-0.080,0.000,0.000,0.000
1641102686748809984,2022-01-02-05:51:26,10.1.1.2,178,-0.070,-0.070,-0.070,0.000,0.000,0.000
1641102686948025088,2022-01-02-05:51:26,10.1.1.2,177,-0.060,-0.060,-0.060,0.000,0.000,0.000
1641102687148627968,2022-01-02-05:51:27,10.1.1.2,177,-0.050,-0.050,-0.050,0.000,0.000,0.000
1641102687357149952,2022-01-02-05:51:27,10.1.1.2,185,-0.040,-0.040,-0.040,0.000,0.000,0.000
1641102687552064768,2022-01-02-05:51:27,10.1.1.2,179,-0.030,-0.030,-0.030,0.000,0.000,0.000
1641102687756463104,2022-01-02-05:51:27,10.1.1.2,183,-0.020,-0.020,-0.020,0.000,0.000,0.000
1641102687953273088,2022-01-02-05:51:27,10.1.1.2,179,-0.010,-0.010,-0.010,0.000,0.000,0.000
1641102688151834880,2022-01-02-05:51:28,10.1.1.2,178,0.000,0.000,0.000,0.000,0.000,0.000
1641102688352269056,2022-01-02-05:51:28,10.1.1.2,177,-0.010,-0.010,-0.010,0.000,0.000,0.000
1641102688554470144,2022-01-02-05:51:28,10.1.1.2,179,-0.020,-0.020,-0.020,0.000,0.000,0.000
1641102688753121024,2022-01-02-05:51:28,10.1.1.2,176,-0.030,-0.030,-0.030,0.000,0.000,0.000
1641102688954560000,2022-01-02-05:51:28,10.1.1.2,176,-0.040,-0.040,-0.040,0.000,0.000,0.000
1641102689155111936,2022-01-02-05:51:29,10.1.1.2,176,-0.050,-0.050,-0.050,0.000,0.000,0.000
1641102689357737984,2022-01-02-05:51:29,10.1.1.2,177,-0.060,-0.060,-0.060,0.000,0.000,0.000
1641102689556366848,2022-01-02-05:51:29,10.1.1.2,176,-0.070,-0.070,-0.070,0.000,0.000,0.000
1641102689776632064,2022-01-02-05:51:29,10.1.1.2,195,-0.080,-0.080,-0.080,0.000,0.000,0.000
1641102689975662080,2022-01-02-05:51:29,10.1.1.2,193,-0.090,-0.090,-0.090,0.000,0.000,0.000
1641102690175261952,2022-01-02-05:51:30,10.1.1.2,192,-0.100,-0.100,-0.100,0.000,0.000,0.000
1641102690375965184,2022-01-02-05:51:30,10.1.1.2,192,-0.110,-0.110,-0.110,0.000,0.000,0.000
1641102690579032064,2022-01-02-05:51:30,10.1.1.2,195,-0.120,-0.120,-0.120,0.000,0.000,0.000
1641102690776221952,2022-01-02-05:51:30,10.1.1.2,192,-0.130,-0.130,-0.130,0.000,0.000,0.000
1641102690976783104,2022-01-02-05:51:30,10.1.1.2,192,-0.140,-0.140,-0.140,0.000,0.000,0.000
1641102691176461824,2022-01-02-05:51:31,10.1.1.2,190,-0.150,-0.150,-0.150,0.000,0.000,0.000
1641102691377479936,2022-01-02-05:51:31,10.1.1.2,188,-0.160,-0.160,-0.160,0.000,0.000,0.000
1641102691577575936,2022-01-02-05:51:31,10.1.1.2,186,-0.170,-0.170,-0.170,0.000,0.000,0.000
1641102691778461952,2022-01-02-05:51:31,10.1.1.2,186,-0.180,-0.180,-0.180,0.000,0.000,0.000
1641102691977526016,2022-01-02-05:51:31,10.1.1.2,184,-0.190,-0.190,-0.190,0.000,0.000,0.000
1641102692178286080,2022-01-02-05:51:32,10.1.1.2,184,-0.200,-0.200,-0.200,0.000,0.000,0.000
1641102692379981056,2022-01-02-05:51:32,10.1.1.2,185,-0.210,-0.210,-0.210,0.000,0.000,0.000
1641102692580179968,2022-01-02-05:51:32,10.1.1.2,184,-0.220,-0.220,-0.220,0.000,0.000,0.000
1641102692779484160,2022-01-02-05:51:32,10.1.1.2,182,-0.230,-0.230,-0.230,0.000,0.000,0.000
1641102692979152896,2022-01-02-05:51:32,10.1.1.2,179,-0.240,-0.240,-0.240,0.000,0.000,0.000
1641102693178256128,2022-01-02-05:51:33,10.1.1.2,178,-0.250,-0.250,-0.250,0.000,0.000,0.000
1641102693400275968,2022-01-02-05:51:33,10.1.1.2,200,-0.260,-0.260,-0.260,0.000,0.000,0.000
1641102693599316992,2022-01-02-05:51:33,10.1.1.2,198,-0.270,-0.270,-0.270,0.000,0.000,0.000
1641102693799243008,2022-01-02-05:51:33,10.1.1.2,198,-0.280,-0.280,-0.280,0.000,0.000,0.000
1641102694000030976,2022-01-02-05:51:33,10.1.1.2,198,-0.290,-0.290,-0.290,0.000,0.000,0.000
1641102694199880960,2022-01-02-05:51:34,10.1.1.2,197,-0.300,-0.300,-0.300,0.000,0.000,0.000
1641102694399037952,2022-01-02-05:51:34,10.1.1.2,196,-0.310,-0.310,-0.310,0.000,0.000,0.000
1641102694599486208,2022-01-02-05:51:34,10.1.1.2,195,-0.320,-0.320,-0.320,0.000,0.000,0.000
1641102694800331008,2022-01-02-05:51:34,10.1.1.2,195,-0.330,-0.330,-0.330,0.000,0.000,0.000
1641102694999737088,2022-01-02-05:51:34,10.1.1.2,191,-0.340,-0.340,-0.340,0.000,0.000,0.000
1641102695198779136,2022-01-02-05:51:35,10.1.1.2,190,-0.350,-0.350,-0.350,0.000,0.000,0.000
1641102695400105984,2022-01-02-05:51:35,10.1.1.2,190,-0.360,-0.360,-0.360,0.000,0.000,0.000
1641102695598526976,2022-01-02-05:51:35,10.1.1.2,187,-0.370,-0.370,-0.370,0.000,0.000,0.000
1641102695798893056,2022-01-02-05:51:35,10.1.1.2,187,-0.380,-0.380,-0.380,0.000,0.000,0.000
1641102695998627840,2022-01-02-05:51:35,10.1.1.2,185,-0.390,-0.390,-0.390,0.000,0.000,0.000
1641102696200346112,2022-01-02-05:51:36,10.1.1.2,187,-0.400,-0.400,-0.400,0.000,0.000,0.000
1641102696400082944,2022-01-02-05:51:36,10.1.1.2,186,-0.410,-0.410,-0.410,0.000,0.000,0.000
1641102696603796992,2022-01-02-05:51:36,10.1.1.2,186,-0.420,-0.420,-0.420,0.000,0.000,0.000
1641102696800035072,2022-01-02-05:51:36,10.1.1.2,183,-0.430,-0.430,-0.430,0.000,0.000,0.000
1641102696999623936,2022-01-02-05:51:36,10.1.1.2,181,-0.440,-0.440,-0.440,0.000,0.000,0.000
1641102697202238976,2022-01-02-05:51:37,10.1.1.2,182,-0.450,-0.450,-0.450,0.000,0.000,0.000
1641102697419261952,2022-01-02-05:51:37,10.1.1.2,198,-0.460,-0.460,-0.460,0.000,0.000,0.000
1641102697618489856,2022-01-02-05:51:37,10.1.1.2,197,-0.470,-0.470,-0.470,0.000,0.000,0.000
1641102697819303936,2022-01-02-05:51:37,10.1.1.2,196,-0.480,-0.480,-0.480,0.000,0.000,0.000
1641102698018289920,2022-01-02-05:51:38,10.1.1.2,194,-0.490,-0.490,-0.490,0.000,0.000,0.000
1641102698220578048,2022-01-02-05:51:38,10.1.1.2,195,-0.480,-0.480,-0.480,0.000,0.000,0.000
1641102698420933120,2022-01-02-05:51:38,10.1.1.2,195,-0.470,-0.470,-0.470,0.000,0.000,0.000
1641102698618503936,2022-01-02-05:51:38,10.1.1.2,191,-0.460,-0.460,-0.460,0.000,0.000,0.000
1641102698820015872,2022-01-02-05:51:38,10.1.1.2,192,-0.450,-0.450,-0.450,0.000,0.000,0.000
1641102699018676992,2022-01-02-05:51:39,10.1.1.2,190,-0.440,-0.440,-0.440,0.000,0.000,0.000
1641102699218210816,2022-01-02-05:51:39,10.1.1.2,189,-0.430,-0.430,-0.430,0.000,0.000,0.000
1641102699417143040,2022-01-02-05:51:39,10.1.1.2,187,-0.420,-0.420,-0.420,0.000,0.000,0.000
1641102699618861824,2022-01-02-05:51:39,10.1.1.2,188,-0.410,-0.410,-0.410,0.000,0.000,0.000
1641102699818018048,2022-01-02-05:51:39,10.1.1.2,186,-0.400,-0.400,-0.400,0.000,0.000,0.000
1641102700016299008,2022-01-02-05:51:40,10.1.1.2,183,-0.390,-0.390,-0.390,0.000,0.000,0.000
1641102700219501056,2022-01-02-05:51:40,10.1.1.2,184,-0.380,-0.380,-0.380,0.000,0.000,0.000
1641102700417003008,2022-01-02-05:51:40,10.1.1.2,179,-0.370,-0.370,-0.370,0.000,0.000,0.000
1641102700615782144,2022-01-02-05:51:40,10.1.1.2,177,-0.360,-0.360,-0.360,0.000,0.000,0.000
1641102700817651968,2022-01-02-05:51:40,10.1.1.2,178,-0.350,-0.350,-0.350,0.000,0.000,0.000
1641102701036105984,2022-01-02-05:51:41,10.1.1.2,195,-0.340,-0.340,-0.340,0.000,0.000,0.000
1641102701236229888,2022-01-02-05:51:41,10.1.1.2,194,-0.330,-0.330,-0.330,0.000,0.000,0.000
1641102701434774016,2022-01-02-05:51:41,10.1.1.2,191,-0.320,-0.320,-0.320,0.000,0.000,0.000
1641102701634896896,2022-01-02-05:51:41,10.1.1.2,191,-0.310,-0.310,-0.310,0.000,0.000,0.000
1641102701837015040,2022-01-02-05:51:41,10.1.1.2,192,-0.300,-0.300,-0.300,0.000,0.000,0.000
1641102702036310784,2022-01-02-05:51:42,10.1.1.2,191,-0.290,-0.290,-0.290,0.000,0.000,0.000
1641102702235537152,2022-01-02-05:51:42,10.1.1.2,190,-0.280,-0.280,-0.280,0.000,0.000,0.000
1641102702435826176,2022-01-02-05:51:42,10.1.1.2,189,-0.270,-0.270,-0.270,0.000,0.000,0.000
1641102702634792960,2022-01-02-05:51:42,10.1.1.2,188,-0.260,-0.260,-0.260,0.000,0.000,0.000
1641102702833692928,2022-01-02-05:51:42,10.1.1.2,185,-0.250,-0.250,-0.250,0.000,0.000,0.000
1641102703035186944,2022-01-02-05:51:43,10.1.1.2,186,-0.240,-0.240,-0.240,0.000,0.000,0.000
1641102703234492160,2022-01-02-05:51:43,10.1.1.2,185,-0.230,-0.230,-0.230,0.000,0.000,0.000
1641102703433667072,2022-01-02-05:51:43,10.1.1.2,184,-0.220,-0.220,-0.220,0.000,0.000,0.000
1641102703634007808,2022-01-02-05:51:43,10.1.1.2,183,-0.210,-0.210,-0.210,0.000,0.000,0.000
1641102703832591104,2022-01-02-05:51:43,10.1.1.2,180,-0.200,-0.200,-0.200,0.000,0.000,0.000
1641102704031704832,2022-01-02-05:51:44,10.1.1.2,178,-0.190,-0.190,-0.190,0.000,0.000,0.000
1641102704232062976,2022-01-02-05:51:44,10.1.1.2,178,-0.180,-0.180,-0.180,0.000,0.000,0.000
1641102704431799040,2022-01-02-05:51:44,10.1.1.2,177,-0.170,-0.170,-0.170,0.000,0.000,0.000
1641102704631918848,2022-01-02-05:51:44,10.1.1.2,177,-0.160,-0.160,-0.160,0.000,0.000,0.000
1641102704831527936,2022-01-02-05:51:44,10.1.1.2,175,-0.150,-0.150,-0.150,0.000,0.000,0.000
1641102705031824128,2022-01-02-05:51:45,10.1.1.2,175,-0.140,-0.140,-0.140,0.000,0.000,0.000
1641102705230051072,2022-01-02-05:51:45,10.1.1.2,173,-0.130,-0.130,-0.130,0.000,0.000,0.000
1641102705430275840,2022-01-02-05:51:45,10.1.1.2,172,-0.120,-0.120,-0.120,0.000,0.000,0.000
1641102705630404096,2022-01-02-05:51:45,10.1.1.2,172,-0.110,-0.110,-0.110,0.000,0.000,0.000
1641102705833910016,2022-01-02-05:51:45,10.1.1.2,175,-0.100,-0.100,-0.100,0.000,0.000,0.000
1641102706030320896,2022-01-02-05:51:46,10.1.1.2,170,-0.090,-0.090,-0.090,0.000,0.000,0.000
1641102706249676032,2022-01-02-05:51:46,10.1.1.2,187,-0.080,-0.080,-0.080,0.000,0.000,0.000
1641102706448601088,2022-01-02-05:51:46,10.1.1.2,185,-0.070,-0.070,-0.070,0.000,0.000,0.000
1641102706648431104,2022-01-02-05:51:46,10.1.1.2,185,-0.060,-0.060,-0.060,0.000,0.000,0.000
1641102706848542976,2022-01-02-05:51:46,10.1.1.2,184,-0.050,-0.050,-0.050,0.000,0.000,0.000
1641102707050429952,2022-01-02-05:51:47,10.1.1.2,184,-0.040,-0.040,-0.040,0.000,0.000,0.000
1641102707248132096,2022-01-02-05:51:47,10.1.1.2,181,-0.030,-0.030,-0.030,0.000,0.000,0.000
1641102707448539136,2022-01-02-05:51:47,10.1.1.2,176,-0.020,-0.020,-0.020,0.000,0.000,0.000
1641102707646558976,2022-01-02-05:51:47,10.1.1.2,174,-0.010,-0.010,-0.010,0.000,0.000,0.000
1641102707846731776,2022-01-02-05:51:47,10.1.1.2,174,0.000,0.000,0.000,0.000,0.000,0.000
1641102708047430144,2022-01-02-05:51:48,10.1.1.2,174,-0.010,-0.010,-0.010,0.000,0.000,0.000
1641102708246611968,2022-01-02-05:51:48,10.1.1.2,172,-0.020,-0.020,-0.020,0.000,0.000,0.000
1641102708446345984,2022-01-02-05:51:48,10.1.1.2,172,-0.030,-0.030,-0.030,0.000,0.000,0.000
1641102708645605120,2022-01-02-05:51:48,10.1.1.2,170,-0.040,-0.040,-0.040,0.000,0.000,0.000
1641102708849412864,2022-01-02-05:51:48,10.1.1.2,174,-0.050,-0.050,-0.050,0.000,0.000,0.000
1641102709045455104,2022-01-02-05:51:49,10.1.1.2,169,-0.060,-0.060,-0.060,0.000,0.000,0.000
1641102709249427968,2022-01-02-05:51:49,10.1.1.2,173,-0.070,-0.070,-0.070,0.000,0.000,0.000
1641102709446872064,2022-01-02-05:51:49,10.1.1.2,170,-0.080,-0.080,-0.080,0.000,0.000,0.000
1641102709645178112,2022-01-02-05:51:49,10.1.1.2,168,-0.090,-0.090,-0.090,0.000,0.000,0.000
1641102709844901120,2022-01-02-05:51:49,10.1.1.2,167,-0.100,-0.100,-0.100,0.000,0.000,0.000
1641102710045656832,2022-01-02-05:51:50,10.1.1.2,167,-0.110,-0.110,-0.110,0.000,0.000,0.000
1641102710245806080,2022-01-02-05:51:50,10.1.1.2,167,-0.120,-0.120,-0.120,0.000,0.000,0.000
1641102710443128064,2022-01-02-05:51:50,10.1.1.2,164,-0.130,-0.130,-0.130,0.000,0.000,0.000
1641102710663528960,2022-01-02-05:51:50,10.1.1.2,182,-0.140,-0.140,-0.140,0.000,0.000,0.000
1641102710862211840,2022-01-02-05:51:50,10.1.1.2,179,-0.150,-0.150,-0.150,0.000,0.000,0.000
1641102711062167040,2022-01-02-05:51:51,10.1.1.2,178,-0.160,-0.160,-0.160,0.000,0.000,0.000
1641102711262353920,2022-01-02-05:51:51,10.1.1.2,178,-0.170,-0.170,-0.170,0.000,0.000,0.000
1641102711461276160,2022-01-02-05:51:51,10.1.1.2,176,-0.180,-0.180,-0.180,0.000,0.000,0.000
1641102711662589952,2022-01-02-05:51:51,10.1.1.2,177,-0.190,-0.190,-0.190,0.000,0.000,0.000
1641102711862632960,2022-01-02-05:51:51,10.1.1.2,177,-0.200,-0.200,-0.200,0.000,0.000,0.000
1641102712064675072,2022-01-02-05:51:52,10.1.1.2,178,-0.210,-0.210,-0.210,0.000,0.000,0.000
1641102712260628992,2022-01-02-05:51:52,10.1.1.2,174,-0.220,-0.220,-0.220,0.000,0.000,0.000
1641102712460818944,2022-01-02-05:51:52,10.1.1.2,173,-0.230,-0.230,-0.230,0.000,0.000,0.000
1641102712659988992,2022-01-02-05:51:52,10.1.1.2,172,-0.240,-0.240,-0.240,0.000,0.000,0.000
1641102712859536896,2022-01-02-05:51:52,10.1.1.2,170,-0.250,-0.250,-0.250,0.000,0.000,0.000
1641102713058823936,2022-01-02-05:51:53,10.1.1.2,169,-0.260,-0.260,-0.260,0.000,0.000,0.000
1641102713261029888,2022-01-02-05:51:53,10.1.1.2,168,-0.270,-0.270,-0.270,0.000,0.000,0.000
1641102713458555904,2022-01-02-05:51:53,10.1.1.2,167,-0.280,-0.280,-0.280,0.000,0.000,0.000
1641102713658464000,2022-01-02-05:51:53,10.1.1.2,166,-0.290,-0.290,-0.290,0.000,0.000,0.000
1641102713858840832,2022-01-02-05:51:53,10.1.1.2,163,-0.300,-0.300,-0.300,0.000,0.000,0.000
1641102714057977088,2022-01-02-05:51:54,10.1.1.2,161,-0.310,-0.310,-0.310,0.000,0.000,0.000
1641102714257225984,2022-01-02-05:51:54,10.1.1.2,158,-0.320,-0.320,-0.320,0.000,0.000,0.000
1641102714458936064,2022-01-02-05:51:54,10.1.1.2,160,-0.330,-0.330,-0.330,0.000,0.000,0.000
1641102714656745984,2022-01-02-05:51:54,10.1.1.2,157,-0.340,-0.340,-0.340,0.000,0.000,0.000
1641102714877708800,2022-01-02-05:51:54,10.1.1.2,177,-0.350,-0.350,-0.350,0.000,0.000,0.000
1641102715079920128,2022-01-02-05:51:55,10.1.1.2,179,-0.360,-0.360,-0.360,0.000,0.000,0.000
1641102715278258944,2022-01-02-05:51:55,10.1.1.2,177,-0.370,-0.370,-0.370,0.000,0.000,0.000
1641102715475548928,2022-01-02-05:51:55,10.1.1.2,173,-0.380,-0.380,-0.380,0.000,0.000,0.000
1641102715674644992,2022-01-02-05:51:55,10.1.1.2,172,-0.390,-0.390,-0.390,0.000,0.000,0.000
1641102715874657024,2022-01-02-05:51:55,10.1.1.2,172,-0.400,-0.400,-0.400,0.000,0.000,0.000
1641102716084774912,2022-01-02-05:51:56,10.1.1.2,181,-0.410,-0.410,-0.410,0.000,0.000,0.000
1641102716277435136,2022-01-02-05:51:56,10.1.1.2,173,-0.420,-0.420,-0.420,0.000,0.000,0.000
1641102716477497088,2022-01-02-05:51:56,10.1.1.2,173,-0.430,-0.430,-0.430,0.000,0.000,0.000
1641102716678256896,2022-01-02-05:51:56,10.1.1.2,172,-0.440,-0.440,-0.440,0.000,0.000,0.000
1641102716878892800,2022-01-02-05:51:56,10.1.1.2,172,-0.450,-0.450,-0.450,0.000,0.000,0.000
1641102717080312064,2022-01-02-05:51:57,10.1.1.2,173,-0.460,-0.460,-0.460,0.000,0.000,0.000
1641102717281008128,2022-01-02-05:51:57,10.1.1.2,173,-0.470,-0.470,-0.470,0.000,0.000,0.000
1641102717486253056,2022-01-02-05:51:57,10.1.1.2,177,-0.480,-0.480,-0.480,0.000,0.000,0.000
1641102717685612800,2022-01-02-05:51:57,10.1.1.2,176,-0.490,-0.490,-0.490,0.000,0.000,0.000
1641102717884715008,2022-01-02-05:51:57,10.1.1.2,174,-0.480,-0.480,-0.480,0.000,0.000,0.000
1641102718084603904,2022-01-02-05:51:58,10.1.1.2,173,-0.470,-0.470,-0.470,0.000,0.000,0.000
1641102718286385152,2022-01-02-05:51:58,10.1.1.2,175,-0.460,-0.460,-0.460,0.000,0.000,0.000
1641102718485972992,2022-01-02-05:51:58,10.1.1.2,174,-0.450,-0.450,-0.450,0.000,0.000,0.000
1641102718686861056,2022-01-02-05:51:58,10.1.1.2,174,-0.440,-0.440,-0.440,0.000,0.000,0.000
1641102718887747072,2022-01-02-05:51:58,10.1.1.2,174,-0.430,-0.430,-0.430,0.000,0.000,0.000
1641102719093377024,2022-01-02-05:51:59,10.1.1.2,179,-0.420,-0.420,-0.420,0.000,0.000,0.000
1641102719288156160,2022-01-02-05:51:59,10.1.1.2,174,-0.410,-0.410,-0.410,0.000,0.000,0.000
1641102719488750848,2022-01-02-05:51:59,10.1.1.2,173,-0.400,-0.400,-0.400,0.000,0.000,0.000
1641102719690105088,2022-01-02-05:51:59,10.1.1.2,174,-0.390,-0.390,-0.390,0.000,0.000,0.000
1641102719892153856,2022-01-02-05:51:59,10.1.1.2,175,-0.380,-0.380,-0.380,0.000,0.000,0.000
1641102720091724032,2022-01-02-05:52:00,10.1.1.2,174,-0.370,-0.370,-0.370,0.000,0.000,0.000
1641102720291943936,2022-01-02-05:52:00,10.1.1.2,173,-0.360,-0.360,-0.360,0.000,0.000,0.000
1641102720493863168,2022-01-02-05:52:00,10.1.1.2,175,-0.350,-0.350,-0.350,0.000,0.000,0.000
1641102720692054016,2022-01-02-05:52:00,10.1.1.2,172,-0.340,-0.340,-0.340,0.000,0.000,0.000
1641102720912759040,2022-01-02-05:52:00,10.1.1.2,192,-0.330,-0.330,-0.330,0.000,0.000,0.000
1641102721113907200,2022-01-02-05:52:01,10.1.1.2,193,-0.320,-0.320,-0.320,0.000,0.000,0.000
1641102721313371904,2022-01-02-05:52:01,10.1.1.2,192,-0.310,-0.310,-0.310,0.000,0.000,0.000
1641102721514113792,2022-01-02-05:52:01,10.1.1.2,191,-0.300,-0.300,-0.300,0.000,0.000,0.000
1641102721713847040,2022-01-02-05:52:01,10.1.1.2,191,-0.290,-0.290,-0.290,0.000,0.000,0.000
1641102721915268864,2022-01-02-05:52:01,10.1.1.2,192,-0.280,-0.280,-0.280,0.000,0.000,0.000
1641102722114615808,2022-01-02-05:52:02,10.1.1.2,190,-0.270,-0.270,-0.270,0.000,0.000,0.000
1641102722316230144,2022-01-02-05:52:02,10.1.1.2,191,-0.260,-0.260,-0.260,0.000,0.000,0.000
1641102722516609792,2022-01-02-05:52:02,10.1.1.2,191,-0.250,-0.250,-0.250,0.000,0.000,0.000
1641102722716173824,2022-01-02-05:52:02,10.1.1.2,190,-0.240,-0.240,-0.240,0.000,0.000,0.000
1641102722916486912,2022-01-02-05:52:02,10.1.1.2,190,-0.230,-0.230,-0.230,0.000,0.000,0.000
1641102723115992064,2022-01-02-05:52:03,10.1.1.2,189,-0.220,-0.220,-0.220,0.000,0.000,0.000
1641102723316828928,2022-01-02-05:52:03,10.1.1.2,190,-0.210,-0.210,-0.210,0.000,0.000,0.000
1641102723517769984,2022-01-02-05:52:03,10.1.1.2,190,-0.200,-0.200,-0.200,0.000,0.000,0.000
1641102723717870080,2022-01-02-05:52:03,10.1.1.2,190,-0.190,-0.190,-0.190,0.000,0.000,0.000
1641102723921981184,2022-01-02-05:52:03,10.1.1.2,194,-0.180,-0.180,-0.180,0.000,0.000,0.000
1641102724117943040,2022-01-02-05:52:04,10.1.1.2,189,-0.170,-0.170,-0.170,0.000,0.000,0.000
1641102724318007040,2022-01-02-05:52:04,10.1.1.2,189,-0.160,-0.160,-0.160,0.000,0.000,0.000
1641102724518873856,2022-01-02-05:52:04,10.1.1.2,189,-0.150,-0.150,-0.150,0.000,0.000,0.000
1641102724718496000,2022-01-02-05:52:04,10.1.1.2,188,-0.140,-0.140,-0.140,0.000,0.000,0.000
1641102724917984000,2022-01-02-05:52:04,10.1.1.2,187,-0.130,-0.130,-0.130,0.000,0.000,0.000
1641102725118304000,2022-01-02-05:52:05,10.1.1.2,187,-0.120,-0.120,-0.120,0.000,0.000,0.000
1641102725317943040,2022-01-02-05:52:05,10.1.1.2,186,-0.110,-0.110,-0.110,0.000,0.000,0.000
1641102725518598912,2022-01-02-05:52:05,10.1.1.2,186,-0.100,-0.100,-0.100,0.000,0.000,0.000
1641102725720184064,2022-01-02-05:52:05,10.1.1.2,186,-0.090,-0.090,-0.090,0.000,0.000,0.000
1641102725918839040,2022-01-02-05:52:05,10.1.1.2,185,-0.080,-0.080,-0.080,0.000,0.000,0.000
1641102726119052800,2022-01-02-05:52:06,10.1.1.2,185,-0.070,-0.070,-0.070,0.000,0.000,0.000
1641102726322065152,2022-01-02-05:52:06,10.1.1.2,187,-0.060,-0.060,-0.060,0.000,0.000,0.000
1641102726518230016,2022-01-02-05:52:06,10.1.1.2,183,-0.050,-0.050,-0.050,0.000,0.000,0.000
1641102726718962944,2022-01-02-05:52:06,10.1.1.2,183,-0.040,-0.040,-0.040,0.000,0.000,0.000
1641102726918803968,2022-01-02-05:52:06,10.1.1.2,182,-0.030,-0.030,-0.030,0.000,0.000,0.000
1641102727119010048,2022-01-02-05:52:07,10.1.1.2,182,-0.020,-0.020,-0.020,0.000,0.000,0.000
1641102727318386944,2022-01-02-05:52:07,10.1.1.2,181,-0.010,-0.010,-0.010,0.000,0.000,0.000
1641102727518654976,2022-01-02-05:52:07,10.1.1.2,180,0.000,0.000,0.000,0.000,0.000,0.000
1641102727718476032,2022-01-02-05:52:07,10.1.1.2,179,-0.010,-0.010,-0.010,0.000,0.000,0.000
1641102727938416896,2022-01-02-05:52:07,10.1.1.2,198,-0.020,-0.020,-0.020,0.000,0.000,0.000
1641102728139672064,2022-01-02-05:52:08,10.1.1.2,198,-0.030,-0.030,-0.030,0.000,0.000,0.000
1641102728338504192,2022-01-02-05:52:08,10.1.1.2,197,-0.040,-0.040,-0.040,0.000,0.000,0.000
1641102728539425024,2022-01-02-05:52:08,10.1.1.2,197,-0.050,-0.050,-0.050,0.000,0.000,0.000
1641102728738352896,2022-01-02-05:52:08,10.1.1.2,195,-0.060,-0.060,-0.060,0.000,0.000,0.000
1641102728939951872,2022-01-02-05:52:08,10.1.1.2,196,-0.070,-0.070,-0.070,0.000,0.000,0.000
1641102729137860096,2022-01-02-05:52:09,10.1.1.2,193,-0.080,-0.080,-0.080,0.000,0.000,0.000
1641102729338386944,2022-01-02-05:52:09,10.1.1.2,193,-0.090,-0.090,-0.090,0.000,0.000,0.000
1641102729537832960,2022-01-02-05:52:09,10.1.1.2,192,-0.100,-0.100,-0.100,0.000,0.000,0.000
1641102729741132032,2022-01-02-05:52:09,10.1.1.2,194,-0.110,-0.110,-0.110,0.000,0.000,0.000
1641102729937745152,2022-01-02-05:52:09,10.1.1.2,191,-0.120,-0.120,-0.120,0.000,0.000,0.000
1641102730137833216,2022-01-02-05:52:10,10.1.1.2,190,-0.130,-0.130,-0.130,0.000,0.000,0.000
1641102730337655040,2022-01-02-05:52:10,10.1.1.2,189,-0.140,-0.140,-0.140,0.000,0.000,0.000
1641102730537237760,2022-01-02-05:52:10,10.1.1.2,188,-0.150,-0.150,-0.150,0.000,0.000,0.000
1641102730737202944,2022-01-02-05:52:10,10.1.1.2,188,-0.160,-0.160,-0.160,0.000,0.000,0.000
1641102730940376064,2022-01-02-05:52:10,10.1.1.2,191,-0.170,-0.170,-0.170,0.000,0.000,0.000
1641102731136549120,2022-01-02-05:52:11,10.1.1.2,186,-0.180,-0.180,-0.180,0.000,0.000,0.000
1641102731337285120,2022-01-02-05:52:11,10.1.1.2,186,-0.190,-0.190,-0.190,0.000,0.000,0.000
1641102731536894976,2022-01-02-05:52:11,10.1.1.2,186,-0.200,-0.200,-0.200,0.000,0.000,0.000
1641102731737417984,2022-01-02-05:52:11,10.1.1.2,186,-0.210,-0.210,-0.210,0.000,0.000,0.000
1641102731936605952,2022-01-02-05:52:11,10.1.1.2,184,-0.220,-0.220,-0.220,0.000,0.000,0.000
1641102732136708864,2022-01-02-05:52:12,10.1.1.2,183,-0.230,-0.230,-0.230,0.000,0.000,0.000
1641102732337504000,2022-01-02-05:52:12,10.1.1.2,184,-0.240,-0.240,-0.240,0.000,0.000,0.000
1641102732538140160,2022-01-02-05:52:12,10.1.1.2,182,-0.250,-0.250,-0.250,0.000,0.000,0.000
1641102732757733120,2022-01-02-05:52:12,10.1.1.2,197,-0.260,-0.260,-0.260,0.000,0.000,0.000
1641102732956705024,2022-01-02-05:52:12,10.1.1.2,195,-0.270,-0.270,-0.270,0.000,0.000,0.000
1641102733156035840,2022-01-02-05:52:13,10.1.1.2,193,-0.280,-0.280,-0.280,0.000,0.000,0.000
1641102733355136000,2022-01-02-05:52:13,10.1.1.2,192,-0.290,-0.290,-0.290,0.000,0.000,0.000
1641102733554765056,2022-01-02-05:52:13,10.1.1.2,191,-0.300,-0.300,-0.300,0.000,0.000,0.000
1641102733754456064,2022-01-02-05:52:13,10.1.1.2,190,-0.310,-0.310,-0.310,0.000,0.000,0.000
1641102733954833152,2022-01-02-05:52:13,10.1.1.2,190,-0.320,-0.320,-0.320,0.000,0.000,0.000
1641102734155174912,2022-01-02-05:52:14,10.1.1.2,190,-0.330,-0.330,-0.330,0.000,0.000,0.000
1641102734354862080,2022-01-02-05:52:14,10.1.1.2,189,-0.340,-0.340,-0.340,0.000,0.000,0.000
1641102734554102784,2022-01-02-05:52:14,10.1.1.2,188,-0.350,-0.350,-0.350,0.000,0.000,0.000
1641102734754024960,2022-01-02-05:52:14,10.1.1.2,187,-0.360,-0.360,-0.360,0.000,0.000,0.000
1641102734952877056,2022-01-02-05:52:14,10.1.1.2,186,-0.370,-0.370,-0.370,0.000,0.000,0.000
1641102735153048064,2022-01-02-05:52:15,10.1.1.2,185,-0.380,-0.380,-0.380,0.000,0.000,0.000
1641102735353071872,2022-01-02-05:52:15,10.1.1.2,183,-0.390,-0.390,-0.390,0.000,0.000,0.000
1641102735553852160,2022-01-02-05:52:15,10.1.1.2,182,-0.400,-0.400,-0.400,0.000,0.000,0.000
1641102735752520960,2022-01-02-05:52:15,10.1.1.2,180,-0.410,-0.410,-0.410,0.000,0.000,0.000
1641102735952316160,2022-01-02-05:52:15,10.1.1.2,179,-0.420,-0.420,-0.420,0.000,0.000,0.000
1641102736172295168,2022-01-02-05:52:16,10.1.1.2,190,-0.430,-0.430,-0.430,0.000,0.000,0.000
1641102736376540928,2022-01-02-05:52:16,10.1.1.2,193,-0.440,-0.440,-0.440,0.000,0.000,0.000
1641102736574938112,2022-01-02-05:52:16,10.1.1.2,190,-0.450,-0.450,-0.450,0.000,0.000,0.000
1641102736776081152,2022-01-02-05:52:16,10.1.1.2,190,-0.460,-0.460,-0.460,0.000,0.000,0.000
1641102736972843776,2022-01-02-05:52:16,10.1.1.2,186,-0.470,-0.470,-0.470,0.000,0.000,0.000
1641102737173841920,2022-01-02-05:52:17,10.1.1.2,186,-0.480,-0.480,-0.480,0.000,0.000,0.000
1641102737373835008,2022-01-02-05:52:17,10.1.1.2,182,-0.490,-0.490,-0.490,0.000,0.000,0.000
1641102737572257024,2022-01-02-05:52:17,10.1.1.2,178,-0.480,-0.480,-0.480,0.000,0.000,0.000
1641102737771152896,2022-01-02-05:52:17,10.1.1.2,176,-0.470,-0.470,-0.470,0.000,0.000,0.000
1641102737971236864,2022-01-02-05:52:17,10.1.1.2,175,-0.460,-0.460,-0.460,0.000,0.000,0.000
1641102738170132992,2022-01-02-05:52:18,10.1.1.2,172,-0.450,-0.450,-0.450,0.000,0.000,0.000
1641102738371823104,2022-01-02-05:52:18,10.1.1.2,173,-0.440,-0.440,-0.440,0.000,0.000,0.000
1641102738568638976,2022-01-02-05:52:18,10.1.1.2,169,-0.430,-0.430,-0.430,0.000,0.000,0.000
1641102738790107136,2022-01-02-05:52:18,10.1.1.2,190,-0.420,-0.420,-0.420,0.000,0.000,0.000
1641102738990336000,2022-01-02-05:52:18,10.1.1.2,189,-0.410,-0.410,-0.410,0.000,0.000,0.000
1641102739189827840,2022-01-02-05:52:19,10.1.1.2,188,-0.400,-0.400,-0.400,0.000,0.000,0.000
1641102739387974144,2022-01-02-05:52:19,10.1.1.2,183,-0.390,-0.390,-0.390,0.000,0.000,0.000
1641102739591507968,2022-01-02-05:52:19,10.1.1.2,186,-0.380,-0.380,-0.380,0.000,0.000,0.000
1641102739789003008,2022-01-02-05:52:19,10.1.1.2,182,-0.370,-0.370,-0.370,0.000,0.000,0.000
1641102739993483008,2022-01-02-05:52:19,10.1.1.2,184,-0.360,-0.360,-0.360,0.000,0.000,0.000
1641102740188855040,2022-01-02-05:52:20,10.1.1.2,178,-0.350,-0.350,-0.350,0.000,0.000,0.000
1641102740386991872,2022-01-02-05:52:20,10.1.1.2,174,-0.340,-0.340,-0.340,0.000,0.000,0.000
1641102740586275072,2022-01-02-05:52:20,10.1.1.2,172,-0.330,-0.330,-0.330,0.000,0.000,0.000
1641102740787724032,2022-01-02-05:52:20,10.1.1.2,172,-0.320,-0.320,-0.320,0.000,0.000,0.000
1641102740985444096,2022-01-02-05:52:20,10.1.1.2,169,-0.310,-0.310,-0.310,0.000,0.000,0.000
1641102741186227968,2022-01-02-05:52:21,10.1.1.2,170,-0.300,-0.300,-0.300,0.000,0.000,0.000
1641102741385253888,2022-01-02-05:52:21,10.1.1.2,167,-0.290,-0.290,-0.290,0.000,0.000,0.000
1641102741584834048,2022-01-02-05:52:21,10.1.1.2,166,-0.280,-0.280,-0.280,0.000,0.000,0.000
1641102741785263104,2022-01-02-05:52:21,10.1.1.2,166,-0.270,-0.270,-0.270,0.000,0.000,0.000
1641102741984801024,2022-01-02-05:52:21,10.1.1.2,165,-0.260,-0.260,-0.260,0.000,0.000,0.000
1641102742203617024,2022-01-02-05:52:22,10.1.1.2,183,-0.250,-0.250,-0.250,0.000,0.000,0.000
1641102742405193216,2022-01-02-05:52:22,10.1.1.2,185,-0.240,-0.240,-0.240,0.000,0.000,0.000
1641102742614422016,2022-01-02-05:52:22,10.1.1.2,188,-0.230,-0.230,-0.230,0.000,0.000,0.000
1641102742803693056,2022-01-02-05:52:22,10.1.1.2,176,-0.220,-0.220,-0.220,0.000,0.000,0.000
1641102743009533952,2022-01-02-05:52:23,10.1.1.2,180,-0.210,-0.210,-0.210,0.000,0.000,0.000
1641102743203557888,2022-01-02-05:52:23,10.1.1.2,172,-0.200,-0.200,-0.200,0.000,0.000,0.000
1641102743404104960,2022-01-02-05:52:23,10.1.1.2,171,-0.190,-0.190,-0.190,0.000,0.000,0.000
1641102743602579968,2022-01-02-05:52:23,10.1.1.2,169,-0.180,-0.180,-0.180,0.000,0.000,0.000
1641102743813189888,2022-01-02-05:52:23,10.1.1.2,166,-0.170,-0.170,-0.170,0.000,0.000,0.000
1641102744002326016,2022-01-02-05:52:24,10.1.1.2,166,-0.160,-0.160,-0.160,0.000,0.000,0.000
1641102744200994048,2022-01-02-05:52:24,10.1.1.2,163,-0.150,-0.150,-0.150,0.000,0.000,0.000
1641102744401534208,2022-01-02-05:52:24,10.1.1.2,163,-0.140,-0.140,-0.140,0.000,0.000,0.000
1641102744619975936,2022-01-02-05:52:24,10.1.1.2,177,-0.130,-0.130,-0.130,0.000,0.000,0.000
1641102744817030912,2022-01-02-05:52:24,10.1.1.2,172,-0.120,-0.120,-0.120,0.000,0.000,0.000
1641102745021590016,2022-01-02-05:52:25,10.1.1.2,176,-0.110,-0.110,-0.110,0.000,0.000,0.000
1641102745221772800,2022-01-02-05:52:25,10.1.1.2,175,-0.100,-0.100,-0.100,0.000,0.000,0.000
1641102745420188928,2022-01-02-05:52:25,10.1.1.2,172,-0.090,-0.090,-0.090,0.000,0.000,0.000
1641102745619136000,2022-01-02-05:52:25,10.1.1.2,167,-0.080,-0.080,-0.080,0.000,0.000,0.000
1641102745821001984,2022-01-02-05:52:25,10.1.1.2,168,-0.070,-0.070,-0.070,0.000,0.000,0.000
1641102746018398976,2022-01-02-05:52:26,10.1.1.2,165,-0.060,-0.060,-0.060,0.000,0.000,0.000
1641102746225501184,2022-01-02-05:52:26,10.1.1.2,171,-0.050,-0.050,-0.050,0.000,0.000,0.000
1641102746416801024,2022-01-02-05:52:26,10.1.1.2,162,-0.040,-0.040,-0.040,0.000,0.000,0.000
1641102746618201856,2022-01-02-05:52:26,10.1.1.2,162,-0.030,-0.030,-0.030,0.000,0.000,0.000
1641102746817081088,2022-01-02-05:52:26,10.1.1.2,160,-0.020,-0.020,-0.020,0.000,0.000,0.000
1641102747018098944,2022-01-02-05:52:27,10.1.1.2,159,-0.010,-0.010,-0.010,0.000,0.000,0.000
1641102747217135872,2022-01-02-05:52:27,10.1.1.2,158,-0.000,-0.000,-0.000,0.000,0.000,0.000
1641102747417763072,2022-01-02-05:52:27,10.1.1.2,158,-0.010,-0.010,-0.010,0.000,0.000,0.000
1641102747640094976,2022-01-02-05:52:27,10.1.1.2,180,-0.020,-0.020,-0.020,0.000,0.000,0.000
1641102747835342848,2022-01-02-05:52:27,10.1.1.2,174,-0.030,-0.030,-0.030,0.000,0.000,0.000
1641102748036523008,2022-01-02-05:52:28,10.1.1.2,175,-0.040,-0.040,-0.040,0.000,0.000,0.000
1641102748237581056,2022-01-02-05:52:28,10.1.1.2,176,-0.050,-0.050,-0.050,0.000,0.000,0.000
1641102748437347840,2022-01-02-05:52:28,10.1.1.2,175,-0.060,-0.060,-0.060,0.000,0.000,0.000
1641102748638822144,2022-01-02-05:52:28,10.1.1.2,176,-0.070,-0.070,-0.070,0.000,0.000,0.000
1641102748838781184,2022-01-02-05:52:28,10.1.1.2,174,-0.080,-0.080,-0.080,0.000,0.000,0.000
1641102749040846080,2022-01-02-05:52:29,10.1.1.2,174,-0.090,-0.090,-0.090,0.000,0.000,0.000
1641102749240732928,2022-01-02-05:52:29,10.1.1.2,174,-0.100,-0.100,-0.100,0.000,0.000,0.000
1641102749442379008,2022-01-02-05:52:29,10.1.1.2,175,-0.110,-0.110,-0.110,0.000,0.000,0.000
1641102749643938048,2022-01-02-05:52:29,10.1.1.2,175,-0.120,-0.120,-0.120,0.000,0.000,0.000
1641102749845475072,2022-01-02-05:52:29,10.1.1.2,175,-0.130,-0.130,-0.130,0.000,0.000,0.000
1641102750044892160,2022-01-02-05:52:30,10.1.1.2,175,-0.140,-0.140,-0.140,0.000,0.000,0.000
1641102750253943040,2022-01-02-05:52:30,10.1.1.2,184,-0.150,-0.150,-0.150,0.000,0.000,0.000
1641102750450587136,2022-01-02-05:52:30,10.1.1.2,180,-0.160,-0.160,-0.160,0.000,0.000,0.000
1641102750646478848,2022-01-02-05:52:30,10.1.1.2,175,-0.170,-0.170,-0.170,0.000,0.000,0.000
1641102750848083968,2022-01-02-05:52:30,10.1.1.2,176,-0.180,-0.180,-0.180,0.000,0.000,0.000
1641102751048242944,2022-01-02-05:52:31,10.1.1.2,176,-0.190,-0.190,-0.190,0.000,0.000,0.000
1641102751252911104,2022-01-02-05:52:31,10.1.1.2,178,-0.200,-0.200,-0.200,0.000,0.000,0.000
1641102751453555968,2022-01-02-05:52:31,10.1.1.2,178,-0.210,-0.210,-0.210,0.000,0.000,0.000
1641102751650173952,2022-01-02-05:52:31,10.1.1.2,173,-0.220,-0.220,-0.220,0.000,0.000,0.000
1641102751851577088,2022-01-02-05:52:31,10.1.1.2,173,-0.230,-0.230,-0.230,0.000,0.000,0.000
1641102752054887936,2022-01-02-05:52:32,10.1.1.2,177,-0.240,-0.240,-0.240,0.000,0.000,0.000
1641102752251377152,2022-01-02-05:52:32,10.1.1.2,172,-0.250,-0.250,-0.250,0.000,0.000,0.000
1641102752456561920,2022-01-02-05:52:32,10.1.1.2,177,-0.260,-0.260,-0.260,0.000,0.000,0.000
1641102752674823168,2022-01-02-05:52:32,10.1.1.2,194,-0.270,-0.270,-0.270,0.000,0.000,0.000
1641102752873830144,2022-01-02-05:52:32,10.1.1.2,192,-0.280,-0.280,-0.280,0.000,0.000,0.000
1641102753074497024,2022-01-02-05:52:33,10.1.1.2,192,-0.290,-0.290,-0.290,0.000,0.000,0.000
1641102753273799936,2022-01-02-05:52:33,10.1.1.2,191,-0.300,-0.300,-0.300,0.000,0.000,0.000
1641102753474272000,2022-01-02-05:52:33,10.1.1.2,191,-0.310,-0.310,-0.310,0.000,0.000,0.000
1641102753675828992,2022-01-02-05:52:33,10.1.1.2,191,-0.320,-0.320,-0.320,0.000,0.000,0.000
1641102753876193024,2022-01-02-05:52:33,10.1.1.2,191,-0.330,-0.330,-0.330,0.000,0.000,0.000
1641102754076018944,2022-01-02-05:52:34,10.1.1.2,190,-0.340,-0.340,-0.340,0.000,0.000,0.000
1641102754276945152,2022-01-02-05:52:34,10.1.1.2,190,-0.350,-0.350,-0.350,0.000,0.000,0.000
1641102754476363776,2022-01-02-05:52:34,10.1.1.2,189,-0.360,-0.360,-0.360,0.000,0.000,0.000
1641102754678242048,2022-01-02-05:52:34,10.1.1.2,187,-0.370,-0.370,-0.370,0.000,0.000,0.000
1641102754880481024,2022-01-02-05:52:34,10.1.1.2,187,-0.380,-0.380,-0.380,0.000,0.000,0.000
1641102755077207040,2022-01-02-05:52:35,10.1.1.2,183,-0.390,-0.390,-0.390,0.000,0.000,0.000
1641102755277595136,2022-01-02-05:52:35,10.1.1.2,182,-0.400,-0.400,-0.400,0.000,0.000,0.000
1641102755480144896,2022-01-02-05:52:35,10.1.1.2,183,-0.410,-0.410,-0.410,0.000,0.000,0.000
1641102755678958848,2022-01-02-05:52:35,10.1.1.2,179,-0.420,-0.420,-0.420,0.000,0.000,0.000
1641102755899857152,2022-01-02-05:52:35,10.1.1.2,199,-0.430,-0.430,-0.430,0.000,0.000,0.000
1641102756098190080,2022-01-02-05:52:36,10.1.1.2,197,-0.440,-0.440,-0.440,0.000,0.000,0.000
1641102756299923968,2022-01-02-05:52:36,10.1.1.2,198,-0.450,-0.450,-0.450,0.000,0.000,0.000
1641102756499313152,2022-01-02-05:52:36,10.1.1.2,197,-0.460,-0.460,-0.460,0.000,0.000,0.000
1641102756700689920,2022-01-02-05:52:36,10.1.1.2,198,-0.470,-0.470,-0.470,0.000,0.000,0.000
1641102756899697920,2022-01-02-05:52:36,10.1.1.2,196,-0.480,-0.480,-0.480,0.000,0.000,0.000
1641102757100302848,2022-01-02-05:52:37,10.1.1.2,195,-0.490,-0.490,-0.490,0.000,0.000,0.000
1641102757303579136,2022-01-02-05:52:37,10.1.1.2,196,-0.480,-0.480,-0.480,0.000,0.000,0.000
1641102757499968000,2022-01-02-05:52:37,10.1.1.2,193,-0.470,-0.470,-0.470,0.000,0.000,0.000
1641102757699481856,2022-01-02-05:52:37,10.1.1.2,192,-0.460,-0.460,-0.460,0.000,0.000,0.000
1641102757899985920,2022-01-02-05:52:37,10.1.1.2,192,-0.450,-0.450,-0.450,0.000,0.000,0.000
1641102758100087040,2022-01-02-05:52:38,10.1.1.2,191,-0.440,-0.440,-0.440,0.000,0.000,0.000
1641102758303320832,2022-01-02-05:52:38,10.1.1.2,192,-0.430,-0.430,-0.430,0.000,0.000,0.000
1641102758502168064,2022-01-02-05:52:38,10.1.1.2,189,-0.420,-0.420,-0.420,0.000,0.000,0.000
1641102758705116928,2022-01-02-05:52:38,10.1.1.2,190,-0.410,-0.410,-0.410,0.000,0.000,0.000
1641102758901277184,2022-01-02-05:52:38,10.1.1.2,188,-0.400,-0.400,-0.400,0.000,0.000,0.000
1641102759100854016,2022-01-02-05:52:39,10.1.1.2,187,-0.390,-0.390,-0.390,0.000,0.000,0.000
1641102759304503040,2022-01-02-05:52:39,10.1.1.2,190,-0.380,-0.380,-0.380,0.000,0.000,0.000
1641102759500775168,2022-01-02-05:52:39,10.1.1.2,185,-0.370,-0.370,-0.370,0.000,0.000,0.000
1641102759700190976,2022-01-02-05:52:39,10.1.1.2,184,-0.360,-0.360,-0.360,0.000,0.000,0.000
1641102759904210176,2022-01-02-05:52:39,10.1.1.2,187,-0.350,-0.350,-0.350,0.000,0.000,0.000
1641102760100517888,2022-01-02-05:52:40,10.1.1.2,183,-0.340,-0.340,-0.340,0.000,0.000,0.000
1641102760302813952,2022-01-02-05:52:40,10.1.1.2,184,-0.330,-0.330,-0.330,0.000,0.000,0.000
1641102760501612800,2022-01-02-05:52:40,10.1.1.2,181,-0.320,-0.320,-0.320,0.000,0.000,0.000
1641102760719186176,2022-01-02-05:52:40,10.1.1.2,198,-0.310,-0.310,-0.310,0.000,0.000,0.000
1641102760919457792,2022-01-02-05:52:40,10.1.1.2,198,-0.300,-0.300,-0.300,0.000,0.000,0.000
1641102761119877120,2022-01-02-05:52:41,10.1.1.2,197,-0.290,-0.290,-0.290,0.000,0.000,0.000
1641102761321149952,2022-01-02-05:52:41,10.1.1.2,198,-0.280,-0.280,-0.280,0.000,0.000,0.000
1641102761518656000,2022-01-02-05:52:41,10.1.1.2,195,-0.270,-0.270,-0.270,0.000,0.000,0.000
1641102761720724992,2022-01-02-05:52:41,10.1.1.2,196,-0.260,-0.260,-0.260,0.000,0.000,0.000
1641102761918649856,2022-01-02-05:52:41,10.1.1.2,193,-0.250,-0.250,-0.250,0.000,0.000,0.000
1641102762118804992,2022-01-02-05:52:42,10.1.1.2,193,-0.240,-0.240,-0.240,0.000,0.000,0.000
1641102762318876928,2022-01-02-05:52:42,10.1.1.2,192,-0.230,-0.230,-0.230,0.000,0.000,0.000
1641102762518578176,2022-01-02-05:52:42,10.1.1.2,191,-0.220,-0.220,-0.220,0.000,0.000,0.000
1641102762720974848,2022-01-02-05:52:42,10.1.1.2,193,-0.210,-0.210,-0.210,0.000,0.000,0.000
1641102762918392832,2022-01-02-05:52:42,10.1.1.2,190,-0.200,-0.200,-0.200,0.000,0.000,0.000
1641102763118264064,2022-01-02-05:52:43,10.1.1.2,190,-0.190,-0.190,-0.190,0.000,0.000,0.000
1641102763317494016,2022-01-02-05:52:43,10.1.1.2,188,-0.180,-0.180,-0.180,0.000,0.000,0.000
1641102763517666048,2022-01-02-05:52:43,10.1.1.2,188,-0.170,-0.170,-0.170,0.000,0.000,0.000
1641102763717434880,2022-01-02-05:52:43,10.1.1.2,187,-0.160,-0.160,-0.160,0.000,0.000,0.000
1641102763919653888,2022-01-02-05:52:43,10.1.1.2,189,-0.150,-0.150,-0.150,0.000,0.000,0.000
1641102764121076992,2022-01-02-05:52:44,10.1.1.2,189,-0.140,-0.140,-0.140,0.000,0.000,0.000
1641102764319052032,2022-01-02-05:52:44,10.1.1.2,187,-0.130,-0.130,-0.130,0.000,0.000,0.000
1641102764517818880,2022-01-02-05:52:44,10.1.1.2,185,-0.120,-0.120,-0.120,0.000,0.000,0.000
1641102764718758144,2022-01-02-05:52:44,10.1.1.2,185,-0.110,-0.110,-0.110,0.000,0.000,0.000
1641102764917225984,2022-01-02-05:52:44,10.1.1.2,183,-0.100,-0.100,-0.100,0.000,0.000,0.000
1641102765124436992,2022-01-02-05:52:45,10.1.1.2,189,-0.090,-0.090,-0.090,0.000,0.000,0.000
1641102765318042112,2022-01-02-05:52:45,10.1.1.2,181,-0.080,-0.080,-0.080,0.000,0.000,0.000
1641102765521726976,2022-01-02-05:52:45,10.1.1.2,184,-0.070,-0.070,-0.070,0.000,0.000,0.000
1641102765718110208,2022-01-02-05:52:45,10.1.1.2,180,-0.060,-0.060,-0.060,0.000,0.000,0.000
1641102765916090880,2022-01-02-05:52:45,10.1.1.2,177,-0.050,-0.050,-0.050,0.000,0.000,0.000
1641102766115490048,2022-01-02-05:52:46,10.1.1.2,176,-0.040,-0.040,-0.040,0.000,0.000,0.000
1641102766337779968,2022-01-02-05:52:46,10.1.1.2,197,-0.030,-0.030,-0.030,0.000,0.000,0.000
1641102766522499072,2022-01-02-05:52:46,10.1.1.2,181,-0.020,-0.020,-0.020,0.000,0.000,0.000
1641102766737487104,2022-01-02-05:52:46,10.1.1.2,195,-0.010,-0.010,-0.010,0.000,0.000,0.000
1641102766937531904,2022-01-02-05:52:46,10.1.1.2,194,0.000,0.000,0.000,0.000,0.000,0.000
1641102767135227904,2022-01-02-05:52:47,10.1.1.2,192,-0.010,-0.010,-0.010,0.000,0.000,0.000
1641102767334575872,2022-01-02-05:52:47,10.1.1.2,190,-0.020,-0.020,-0.020,0.000,0.000,0.000
1641102767533906944,2022-01-02-05:52:47,10.1.1.2,189,-0.030,-0.030,-0.030,0.000,0.000,0.000
1641102767733478144,2022-01-02-05:52:47,10.1.1.2,187,-0.040,-0.040,-0.040,0.000,0.000,0.000
1641102767932972800,2022-01-02-05:52:47,10.1.1.2,186,-0.050,-0.050,-0.050,0.000,0.000,0.000
1641102768133972992,2022-01-02-05:52:48,10.1.1.2,187,-0.060,-0.060,-0.060,0.000,0.000,0.000
1641102768335556096,2022-01-02-05:52:48,10.1.1.2,187,-0.070,-0.070,-0.070,0.000,0.000,0.000
1641102768533662208,2022-01-02-05:52:48,10.1.1.2,185,-0.080,-0.080,-0.080,0.000,0.000,0.000
1641102768733159936,2022-01-02-05:52:48,10.1.1.2,184,-0.090,-0.090,-0.090,0.000,0.000,0.000
1641102768932944896,2022-01-02-05:52:48,10.1.1.2,183,-0.100,-0.100,-0.100,0.000,0.000,0.000
1641102769131576064,2022-01-02-05:52:49,10.1.1.2,181,-0.110,-0.110,-0.110,0.000,0.000,0.000
1641102769333005056,2022-01-02-05:52:49,10.1.1.2,182,-0.120,-0.120,-0.120,0.000,0.000,0.000
1641102769533078784,2022-01-02-05:52:49,10.1.1.2,180,-0.130,-0.130,-0.130,0.000,0.000,0.000
1641102769732366080,2022-01-02-05:52:49,10.1.1.2,178,-0.140,-0.140,-0.140,0.000,0.000,0.000
1641102769931057920,2022-01-02-05:52:49,10.1.1.2,176,-0.150,-0.150,-0.150,0.000,0.000,0.000
1641102770132445952,2022-01-02-05:52:50,10.1.1.2,176,-0.160,-0.160,-0.160,0.000,0.000,0.000
1641102770331260928,2022-01-02-05:52:50,10.1.1.2,174,-0.170,-0.170,-0.170,0.000,0.000,0.000
1641102770533329920,2022-01-02-05:52:50,10.1.1.2,175,-0.180,-0.180,-0.180,0.000,0.000,0.000
1641102770730756096,2022-01-02-05:52:50,10.1.1.2,171,-0.190,-0.190,-0.190,0.000,0.000,0.000
1641102770954606080,2022-01-02-05:52:50,10.1.1.2,194,-0.200,-0.200,-0.200,0.000,0.000,0.000
1641102771148420096,2022-01-02-05:52:51,10.1.1.2,187,-0.210,-0.210,-0.210,0.000,0.000,0.000
1641102771349998080,2022-01-02-05:52:51,10.1.1.2,187,-0.220,-0.220,-0.220,0.000,0.000,0.000
1641102771549742848,2022-01-02-05:52:51,10.1.1.2,187,-0.230,-0.230,-0.230,0.000,0.000,0.000
1641102771750170880,2022-01-02-05:52:51,10.1.1.2,186,-0.240,-0.240,-0.240,0.000,0.000,0.000
1641102771948734976,2022-01-02-05:52:51,10.1.1.2,184,-0.250,-0.250,-0.250,0.000,0.000,0.000
1641102772148813056,2022-01-02-05:52:52,10.1.1.2,183,-0.260,-0.260,-0.260,0.000,0.000,0.000
1641102772353713152,2022-01-02-05:52:52,10.1.1.2,184,-0.270,-0.270,-0.270,0.000,0.000,0.000
1641102772550793984,2022-01-02-05:52:52,10.1.1.2,179,-0.280,-0.280,-0.280,0.000,0.000,0.000
1641102772747000832,2022-01-02-05:52:52,10.1.1.2,175,-0.290,-0.290,-0.290,0.000,0.000,0.000
1641102772948218112,2022-01-02-05:52:52,10.1.1.2,176,-0.300,-0.300,-0.300,0.000,0.000,0.000
1641102773149157888,2022-01-02-05:52:53,10.1.1.2,175,-0.310,-0.310,-0.310,0.000,0.000,0.000
1641102773346628864,2022-01-02-05:52:53,10.1.1.2,171,-0.320,-0.320,-0.320,0.000,0.000,0.000
1641102773546374912,2022-01-02-05:52:53,10.1.1.2,170,-0.330,-0.330,-0.330,0.000,0.000,0.000
1641102773748308992,2022-01-02-05:52:53,10.1.1.2,172,-0.340,-0.340,-0.340,0.000,0.000,0.000
1641102773945088000,2022-01-02-05:52:53,10.1.1.2,168,-0.350,-0.350,-0.350,0.000,0.000,0.000
1641102774148044032,2022-01-02-05:52:54,10.1.1.2,170,-0.360,-0.360,-0.360,0.000,0.000,0.000
1641102774345524992,2022-01-02-05:52:54,10.1.1.2,166,-0.370,-0.370,-0.370,0.000,0.000,0.000
1641102774565298176,2022-01-02-05:52:54,10.1.1.2,185,-0.380,-0.380,-0.380,0.000,0.000,0.000
1641102774763612928,2022-01-02-05:52:54,10.1.1.2,182,-0.390,-0.390,-0.390,0.000,0.000,0.000
1641102774963618048,2022-01-02-05:52:54,10.1.1.2,181,-0.400,-0.400,-0.400,0.000,0.000,0.000
1641102775163261952,2022-01-02-05:52:55,10.1.1.2,180,-0.410,-0.410,-0.410,0.000,0.000,0.000
1641102775362478848,2022-01-02-05:52:55,10.1.1.2,179,-0.420,-0.420,-0.420,0.000,0.000,0.000
1641102775562784000,2022-01-02-05:52:55,10.1.1.2,178,-0.430,-0.430,-0.430,0.000,0.000,0.000
1641102775762334976,2022-01-02-05:52:55,10.1.1.2,177,-0.440,-0.440,-0.440,0.000,0.000,0.000
1641102775961795072,2022-01-02-05:52:55,10.1.1.2,176,-0.450,-0.450,-0.450,0.000,0.000,0.000
1641102776161703168,2022-01-02-05:52:56,10.1.1.2,175,-0.460,-0.460,-0.460,0.000,0.000,0.000
1641102776361402880,2022-01-02-05:52:56,10.1.1.2,174,-0.470,-0.470,-0.470,0.000,0.000,0.000
1641102776561168896,2022-01-02-05:52:56,10.1.1.2,172,-0.480,-0.480,-0.480,0.000,0.000,0.000
1641102776762347008,2022-01-02-05:52:56,10.1.1.2,171,-0.490,-0.490,-0.490,0.000,0.000,0.000
1641102776965090048,2022-01-02-05:52:56,10.1.1.2,174,-0.480,-0.480,-0.480,0.000,0.000,0.000
1641102777164547840,2022-01-02-05:52:57,10.1.1.2,172,-0.470,-0.470,-0.470,0.000,0.000,0.000
1641102777363104000,2022-01-02-05:52:57,10.1.1.2,169,-0.460,-0.460,-0.460,0.000,0.000,0.000
1641102777560179968,2022-01-02-05:52:57,10.1.1.2,166,-0.450,-0.450,-0.450,0.000,0.000,0.000
1641102777760252928,2022-01-02-05:52:57,10.1.1.2,166,-0.440,-0.440,-0.440,0.000,0.000,0.000
1641102777958797056,2022-01-02-05:52:57,10.1.1.2,163,-0.430,-0.430,-0.430,0.000,0.000,0.000
1641102778158318080,2022-01-02-05:52:58,10.1.1.2,162,-0.420,-0.420,-0.420,0.000,0.000,0.000
1641102778362027776,2022-01-02-05:52:58,10.1.1.2,164,-0.410,-0.410,-0.410,0.000,0.000,0.000
1641102778580238080,2022-01-02-05:52:58,10.1.1.2,179,-0.400,-0.400,-0.400,0.000,0.000,0.000
1641102778780091904,2022-01-02-05:52:58,10.1.1.2,178,-0.390,-0.390,-0.390,0.000,0.000,0.000
1641102778977929984,2022-01-02-05:52:58,10.1.1.2,175,-0.380,-0.380,-0.380,0.000,0.000,0.000
1641102779179574016,2022-01-02-05:52:59,10.1.1.2,176,-0.370,-0.370,-0.370,0.000,0.000,0.000
1641102779376866048,2022-01-02-05:52:59,10.1.1.2,172,-0.360,-0.360,-0.360,0.000,0.000,0.000
1641102779576681984,2022-01-02-05:52:59,10.1.1.2,171,-0.350,-0.350,-0.350,0.000,0.000,0.000
1641102779776073984,2022-01-02-05:52:59,10.1.1.2,170,-0.340,-0.340,-0.340,0.000,0.000,0.000
1641102779976317952,2022-01-02-05:52:59,10.1.1.2,169,-0.330,-0.330,-0.330,0.000,0.000,0.000
1641102780177061120,2022-01-02-05:53:00,10.1.1.2,168,-0.320,-0.320,-0.320,0.000,0.000,0.000
1641102780377615872,2022-01-02-05:53:00,10.1.1.2,168,-0.310,-0.310,-0.310,0.000,0.000,0.000
1641102780579084032,2022-01-02-05:53:00,10.1.1.2,168,-0.300,-0.300,-0.300,0.000,0.000,0.000
1641102780782028800,2022-01-02-05:53:00,10.1.1.2,168,-0.290,-0.290,-0.290,0.000,0.000,0.000
1641102780981523968,2022-01-02-05:53:00,10.1.1.2,167,-0.280,-0.280,-0.280,0.000,0.000,0.000
1641102781183129088,2022-01-02-05:53:01,10.1.1.2,168,-0.270,-0.270,-0.270,0.000,0.000,0.000
1641102781383408896,2022-01-02-05:53:01,10.1.1.2,167,-0.260,-0.260,-0.260,0.000,0.000,0.000
1641102781583646976,2022-01-02-05:53:01,10.1.1.2,166,-0.250,-0.250,-0.250,0.000,0.000,0.000
1641102781786046976,2022-01-02-05:53:01,10.1.1.2,168,-0.240,-0.240,-0.240,0.000,0.000,0.000
1641102781988325120,2022-01-02-05:53:01,10.1.1.2,170,-0.230,-0.230,-0.230,0.000,0.000,0.000
1641102782188108032,2022-01-02-05:53:02,10.1.1.2,168,-0.220,-0.220,-0.220,0.000,0.000,0.000
1641102782388269824,2022-01-02-05:53:02,10.1.1.2,168,-0.210,-0.210,-0.210,0.000,0.000,0.000
1641102782608705024,2022-01-02-05:53:02,10.1.1.2,187,-0.200,-0.200,-0.200,0.000,0.000,0.000
1641102782809129984,2022-01-02-05:53:02,10.1.1.2,187,-0.190,-0.190,-0.190,0.000,0.000,0.000
1641102783010135040,2022-01-02-05:53:03,10.1.1.2,188,-0.180,-0.180,-0.180,0.000,0.000,0.000
1641102783211894016,2022-01-02-05:53:03,10.1.1.2,188,-0.170,-0.170,-0.170,0.000,0.000,0.000
1641102783410459904,2022-01-02-05:53:03,10.1.1.2,186,-0.160,-0.160,-0.160,0.000,0.000,0.000
1641102783611730944,2022-01-02-05:53:03,10.1.1.2,186,-0.150,-0.150,-0.150,0.000,0.000,0.000
1641102783814059008,2022-01-02-05:53:03,10.1.1.2,188,-0.140,-0.140,-0.140,0.000,0.000,0.000
1641102784015172864,2022-01-02-05:53:04,10.1.1.2,189,-0.130,-0.130,-0.130,0.000,0.000,0.000
1641102784214996992,2022-01-02-05:53:04,10.1.1.2,188,-0.120,-0.120,-0.120,0.000,0.000,0.000
1641102784414916096,2022-01-02-05:53:04,10.1.1.2,187,-0.110,-0.110,-0.110,0.000,0.000,0.000
1641102784616220928,2022-01-02-05:53:04,10.1.1.2,188,-0.100,-0.100,-0.100,0.000,0.000,0.000
1641102784818202880,2022-01-02-05:53:04,10.1.1.2,189,-0.090,-0.090,-0.090,0.000,0.000,0.000
1641102785017952000,2022-01-02-05:53:05,10.1.1.2,188,-0.080,-0.080,-0.080,0.000,0.000,0.000
1641102785217292032,2022-01-02-05:53:05,10.1.1.2,186,-0.070,-0.070,-0.070,0.000,0.000,0.000
1641102785416099072,2022-01-02-05:53:05,10.1.1.2,184,-0.060,-0.060,-0.060,0.000,0.000,0.000
1641102785616323072,2022-01-02-05:53:05,10.1.1.2,184,-0.050,-0.050,-0.050,0.000,0.000,0.000
1641102785818532096,2022-01-02-05:53:05,10.1.1.2,185,-0.040,-0.040,-0.040,0.000,0.000,0.000
1641102786017980928,2022-01-02-05:53:06,10.1.1.2,184,-0.030,-0.030,-0.030,0.000,0.000,0.000
1641102786217894144,2022-01-02-05:53:06,10.1.1.2,183,-0.020,-0.020,-0.020,0.000,0.000,0.000
1641102786417960960,2022-01-02-05:53:06,10.1.1.2,180,-0.010,-0.010,-0.010,0.000,0.000,0.000
1641102786618191104,2022-01-02-05:53:06,10.1.1.2,179,-0.000,-0.000,-0.000,0.000,0.000,0.000
1641102786838684160,2022-01-02-05:53:06,10.1.1.2,197,-0.010,-0.010,-0.010,0.000,0.000,0.000
1641102787040769024,2022-01-02-05:53:07,10.1.1.2,199,-0.020,-0.020,-0.020,0.000,0.000,0.000
1641102787238365952,2022-01-02-05:53:07,10.1.1.2,196,-0.030,-0.030,-0.030,0.000,0.000,0.000
1641102787439081984,2022-01-02-05:53:07,10.1.1.2,195,-0.040,-0.040,-0.040,0.000,0.000,0.000
1641102787642477056,2022-01-02-05:53:07,10.1.1.2,198,-0.050,-0.050,-0.050,0.000,0.000,0.000
1641102787842571008,2022-01-02-05:53:07,10.1.1.2,196,-0.060,-0.060,-0.060,0.000,0.000,0.000
1641102788040417024,2022-01-02-05:53:08,10.1.1.2,193,-0.070,-0.070,-0.070,0.000,0.000,0.000
1641102788240119040,2022-01-02-05:53:08,10.1.1.2,193,-0.080,-0.080,-0.080,0.000,0.000,0.000
1641102788439245056,2022-01-02-05:53:08,10.1.1.2,190,-0.090,-0.090,-0.090,0.000,0.000,0.000
1641102788641382912,2022-01-02-05:53:08,10.1.1.2,192,-0.100,-0.100,-0.100,0.000,0.000,0.000
1641102788841564928,2022-01-02-05:53:08,10.1.1.2,190,-0.110,-0.110,-0.110,0.000,0.000,0.000
1641102789042694144,2022-01-02-05:53:09,10.1.1.2,190,-0.120,-0.120,-0.120,0.000,0.000,0.000
1641102789240344064,2022-01-02-05:53:09,10.1.1.2,184,-0.130,-0.130,-0.130,0.000,0.000,0.000
1641102789441400064,2022-01-02-05:53:09,10.1.1.2,184,-0.140,-0.140,-0.140,0.000,0.000,0.000
1641102789640741120,2022-01-02-05:53:09,10.1.1.2,183,-0.150,-0.150,-0.150,0.000,0.000,0.000
1641102789840687104,2022-01-02-05:53:09,10.1.1.2,182,-0.160,-0.160,-0.160,0.000,0.000,0.000
1641102790040728064,2022-01-02-05:53:10,10.1.1.2,182,-0.170,-0.170,-0.170,0.000,0.000,0.000
1641102790242352128,2022-01-02-05:53:10,10.1.1.2,182,-0.180,-0.180,-0.180,0.000,0.000,0.000
1641102790460390144,2022-01-02-05:53:10,10.1.1.2,198,-0.190,-0.190,-0.190,0.000,0.000,0.000
1641102790861121792,2022-01-02-05:53:10,10.1.1.2,187,-0.210,-0.210,-0.210,0.000,0.000,0.000
1641102791060434176,2022-01-02-05:53:11,10.1.1.2,185,-0.220,-0.220,-0.220,0.000,0.000,0.000
1641102791263886080,2022-01-02-05:53:11,10.1.1.2,187,-0.230,-0.230,-0.230,0.000,0.000,0.000
1641102791461113856,2022-01-02-05:53:11,10.1.1.2,184,-0.240,-0.240,-0.240,0.000,0.000,0.000
1641102791660504064,2022-01-02-05:53:11,10.1.1.2,183,-0.250,-0.250,-0.250,0.000,0.000,0.000
1641102791861490944,2022-01-02-05:53:11,10.1.1.2,182,-0.260,-0.260,-0.260,0.000,0.000,0.000
1641102792080813824,2022-01-02-05:53:12,10.1.1.2,200,-0.270,-0.270,-0.270,0.000,0.000,0.000
1641102792281197056,2022-01-02-05:53:12,10.1.1.2,199,-0.280,-0.280,-0.280,0.000,0.000,0.000
1641102792481277952,2022-01-02-05:53:12,10.1.1.2,199,-0.290,-0.290,-0.290,0.000,0.000,0.000
1641102792681011968,2022-01-02-05:53:12,10.1.1.2,198,-0.300,-0.300,-0.300,0.000,0.000,0.000
1641102792880023040,2022-01-02-05:53:12,10.1.1.2,196,-0.310,-0.310,-0.310,0.000,0.000,0.000
1641102793081580032,2022-01-02-05:53:13,10.1.1.2,197,-0.320,-0.320,-0.320,0.000,0.000,0.000
1641102793280695808,2022-01-02-05:53:13,10.1.1.2,196,-0.330,-0.330,-0.330,0.000,0.000,0.000
1641102793481040896,2022-01-02-05:53:13,10.1.1.2,196,-0.340,-0.340,-0.340,0.000,0.000,0.000
1641102793679991040,2022-01-02-05:53:13,10.1.1.2,194,-0.350,-0.350,-0.350,0.000,0.000,0.000
1641102793880116992,2022-01-02-05:53:13,10.1.1.2,194,-0.360,-0.360,-0.360,0.000,0.000,0.000
1641102794080015872,2022-01-02-05:53:14,10.1.1.2,193,-0.370,-0.370,-0.370,0.000,0.000,0.000
1641102794279233024,2022-01-02-05:53:14,10.1.1.2,192,-0.380,-0.380,-0.380,0.000,0.000,0.000
1641102794479294976,2022-01-02-05:53:14,10.1.1.2,191,-0.390,-0.390,-0.390,0.000,0.000,0.000
1641102794679180032,2022-01-02-05:53:14,10.1.1.2,190,-0.400,-0.400,-0.400,0.000,0.000,0.000
1641102794880555008,2022-01-02-05:53:14,10.1.1.2,190,-0.410,-0.410,-0.410,0.000,0.000,0.000
1641102795079596032,2022-01-02-05:53:15,10.1.1.2,188,-0.420,-0.420,-0.420,0.000,0.000,0.000
1641102795278809088,2022-01-02-05:53:15,10.1.1.2,187,-0.430,-0.430,-0.430,0.000,0.000,0.000
1641102795480203008,2022-01-02-05:53:15,10.1.1.2,188,-0.440,-0.440,-0.440,0.000,0.000,0.000
1641102795678666240,2022-01-02-05:53:15,10.1.1.2,185,-0.450,-0.450,-0.450,0.000,0.000,0.000
1641102795878663936,2022-01-02-05:53:15,10.1.1.2,185,-0.460,-0.460,-0.460,0.000,0.000,0.000
1641102796079309056,2022-01-02-05:53:16,10.1.1.2,185,-0.470,-0.470,-0.470,0.000,0.000,0.000
1641102796279297024,2022-01-02-05:53:16,10.1.1.2,185,-0.480,-0.480,-0.480,0.000,0.000,0.000
1641102796477212928,2022-01-02-05:53:16,10.1.1.2,182,-0.490,-0.490,-0.490,0.000,0.000,0.000
1641102796677871872,2022-01-02-05:53:16,10.1.1.2,180,-0.480,-0.480,-0.480,0.000,0.000,0.000
1641102796877823232,2022-01-02-05:53:16,10.1.1.2,179,-0.470,-0.470,-0.470,0.000,0.000,0.000
1641102797076924928,2022-01-02-05:53:17,10.1.1.2,177,-0.460,-0.460,-0.460,0.000,0.000,0.000
1641102797279789824,2022-01-02-05:53:17,10.1.1.2,180,-0.450,-0.450,-0.450,0.000,0.000,0.000
1641102797498760960,2022-01-02-05:53:17,10.1.1.2,198,-0.440,-0.440,-0.440,0.000,0.000,0.000
1641102797696843008,2022-01-02-05:53:17,10.1.1.2,195,-0.430,-0.430,-0.430,0.000,0.000,0.000
1641102797896477952,2022-01-02-05:53:17,10.1.1.2,195,-0.420,-0.420,-0.420,0.000,0.000,0.000
1641102798096393216,2022-01-02-05:53:18,10.1.1.2,194,-0.410,-0.410,-0.410,0.000,0.000,0.000
1641102798295495936,2022-01-02-05:53:18,10.1.1.2,193,-0.400,-0.400,-0.400,0.000,0.000,0.000
1641102798496801024,2022-01-02-05:53:18,10.1.1.2,193,-0.390,-0.390,-0.390,0.000,0.000,0.000
1641102798695176960,2022-01-02-05:53:18,10.1.1.2,190,-0.380,-0.380,-0.380,0.000,0.000,0.000
1641102798895685888,2022-01-02-05:53:18,10.1.1.2,190,-0.370,-0.370,-0.370,0.000,0.000,0.000
1641102799101892096,2022-01-02-05:53:19,10.1.1.2,195,-0.360,-0.360,-0.360,0.000,0.000,0.000
1641102799296847104,2022-01-02-05:53:19,10.1.1.2,189,-0.350,-0.350,-0.350,0.000,0.000,0.000
1641102799496385024,2022-01-02-05:53:19,10.1.1.2,188,-0.340,-0.340,-0.340,0.000,0.000,0.000
1641102799695382016,2022-01-02-05:53:19,10.1.1.2,186,-0.330,-0.330,-0.330,0.000,0.000,0.000
1641102799894670080,2022-01-02-05:53:19,10.1.1.2,185,-0.320,-0.320,-0.320,0.000,0.000,0.000
1641102800095465984,2022-01-02-05:53:20,10.1.1.2,184,-0.310,-0.310,-0.310,0.000,0.000,0.000
1641102800295002880,2022-01-02-05:53:20,10.1.1.2,184,-0.300,-0.300,-0.300,0.000,0.000,0.000
1641102800498449920,2022-01-02-05:53:20,10.1.1.2,185,-0.290,-0.290,-0.290,0.000,0.000,0.000
1641102800693703936,2022-01-02-05:53:20,10.1.1.2,177,-0.280,-0.280,-0.280,0.000,0.000,0.000
1641102800894450944,2022-01-02-05:53:20,10.1.1.2,176,-0.270,-0.270,-0.270,0.000,0.000,0.000
1641102801092518144,2022-01-02-05:53:21,10.1.1.2,174,-0.260,-0.260,-0.260,0.000,0.000,0.000
1641102801292980992,2022-01-02-05:53:21,10.1.1.2,174,-0.250,-0.250,-0.250,0.000,0.000,0.000
1641102801492037888,2022-01-02-05:53:21,10.1.1.2,173,-0.240,-0.240,-0.240,0.000,0.000,0.000
1641102801692894976,2022-01-02-05:53:21,10.1.1.2,173,-0.230,-0.230,-0.230,0.000,0.000,0.000
1641102801913027072,2022-01-02-05:53:21,10.1.1.2,193,-0.220,-0.220,-0.220,0.000,0.000,0.000
1641102802111057152,2022-01-02-05:53:22,10.1.1.2,190,-0.210,-0.210,-0.210,0.000,0.000,0.000
1641102802312092928,2022-01-02-05:53:22,10.1.1.2,191,-0.200,-0.200,-0.200,0.000,0.000,0.000
1641102802510880000,2022-01-02-05:53:22,10.1.1.2,189,-0.190,-0.190,-0.190,0.000,0.000,0.000
1641102802710473984,2022-01-02-05:53:22,10.1.1.2,188,-0.180,-0.180,-0.180,0.000,0.000,0.000
1641102802910238976,2022-01-02-05:53:22,10.1.1.2,187,-0.170,-0.170,-0.170,0.000,0.000,0.000
1641102803109942016,2022-01-02-05:53:23,10.1.1.2,186,-0.160,-0.160,-0.160,0.000,0.000,0.000
1641102803309467136,2022-01-02-05:53:23,10.1.1.2,184,-0.150,-0.150,-0.150,0.000,0.000,0.000
1641102803509912064,2022-01-02-05:53:23,10.1.1.2,184,-0.140,-0.140,-0.140,0.000,0.000,0.000
1641102803709858816,2022-01-02-05:53:23,10.1.1.2,183,-0.130,-0.130,-0.130,0.000,0.000,0.000
1641102803909127936,2022-01-02-05:53:23,10.1.1.2,181,-0.120,-0.120,-0.120,0.000,0.000,0.000
1641102804109647104,2022-01-02-05:53:24,10.1.1.2,181,-0.110,-0.110,-0.110,0.000,0.000,0.000
1641102804308811776,2022-01-02-05:53:24,10.1.1.2,178,-0.100,-0.100,-0.100,0.000,0.000,0.000
1641102804508094976,2022-01-02-05:53:24,10.1.1.2,177,-0.090,-0.090,-0.090,0.000,0.000,0.000
1641102804708286976,2022-01-02-05:53:24,10.1.1.2,176,-0.080,-0.080,-0.080,0.000,0.000,0.000
1641102804908759040,2022-01-02-05:53:24,10.1.1.2,176,-0.070,-0.070,-0.070,0.000,0.000,0.000
1641102805108203008,2022-01-02-05:53:25,10.1.1.2,174,-0.060,-0.060,-0.060,0.000,0.000,0.000
1641102805309436928,2022-01-02-05:53:25,10.1.1.2,175,-0.050,-0.050,-0.050,0.000,0.000,0.000
1641102805507955968,2022-01-02-05:53:25,10.1.1.2,173,-0.040,-0.040,-0.040,0.000,0.000,0.000
1641102805706646016,2022-01-02-05:53:25,10.1.1.2,171,-0.030,-0.030,-0.030,0.000,0.000,0.000
1641102805906408960,2022-01-02-05:53:25,10.1.1.2,170,-0.020,-0.020,-0.020,0.000,0.000,0.000
1641102806105547008,2022-01-02-05:53:26,10.1.1.2,168,-0.010,-0.010,-0.010,0.000,0.000,0.000
1641102806305598976,2022-01-02-05:53:26,10.1.1.2,167,0.000,0.000,0.000,0.000,0.000,0.000
1641102806505929984,2022-01-02-05:53:26,10.1.1.2,167,-0.010,-0.010,-0.010,0.000,0.000,0.000
1641102806704911104,2022-01-02-05:53:26,10.1.1.2,165,-0.020,-0.020,-0.020,0.000,0.000,0.000
1641102806925147136,2022-01-02-05:53:26,10.1.1.2,185,-0.030,-0.030,-0.030,0.000,0.000,0.000
1641102807125207808,2022-01-02-05:53:27,10.1.1.2,183,-0.040,-0.040,-0.040,0.000,0.000,0.000
1641102807324440832,2022-01-02-05:53:27,10.1.1.2,183,-0.050,-0.050,-0.050,0.000,0.000,0.000
1641102807528665088,2022-01-02-05:53:27,10.1.1.2,186,-0.060,-0.060,-0.060,0.000,0.000,0.000
1641102807723428864,2022-01-02-05:53:27,10.1.1.2,180,-0.070,-0.070,-0.070,0.000,0.000,0.000
1641102807923902976,2022-01-02-05:53:27,10.1.1.2,176,-0.080,-0.080,-0.080,0.000,0.000,0.000
1641102808122471936,2022-01-02-05:53:28,10.1.1.2,174,-0.090,-0.090,-0.090,0.000,0.000,0.000
1641102808323544064,2022-01-02-05:53:28,10.1.1.2,173,-0.100,-0.100,-0.100,0.000,0.000,0.000
1641102808522257152,2022-01-02-05:53:28,10.1.1.2,171,-0.110,-0.110,-0.110,0.000,0.000,0.000
1641102808723721984,2022-01-02-05:53:28,10.1.1.2,172,-0.120,-0.120,-0.120,0.000,0.000,0.000
1641102808921561856,2022-01-02-05:53:28,10.1.1.2,168,-0.130,-0.130,-0.130,0.000,0.000,0.000
1641102809121076992,2022-01-02-05:53:29,10.1.1.2,167,-0.140,-0.140,-0.140,0.000,0.000,0.000
1641102809320729088,2022-01-02-05:53:29,10.1.1.2,166,-0.150,-0.150,-0.150,0.000,0.000,0.000
1641102809520312064,2022-01-02-05:53:29,10.1.1.2,165,-0.160,-0.160,-0.160,0.000,0.000,0.000
1641102809720113920,2022-01-02-05:53:29,10.1.1.2,165,-0.170,-0.170,-0.170,0.000,0.000,0.000
1641102809919715840,2022-01-02-05:53:29,10.1.1.2,163,-0.180,-0.180,-0.180,0.000,0.000,0.000
1641102810119543040,2022-01-02-05:53:30,10.1.1.2,162,-0.190,-0.190,-0.190,0.000,0.000,0.000
1641102810319492096,2022-01-02-05:53:30,10.1.1.2,161,-0.200,-0.200,-0.200,0.000,0.000,0.000
1641102810518894848,2022-01-02-05:53:30,10.1.1.2,160,-0.210,-0.210,-0.210,0.000,0.000,0.000
1641102810739460864,2022-01-02-05:53:30,10.1.1.2,179,-0.220,-0.220,-0.220,0.000,0.000,0.000
1641102810938597888,2022-01-02-05:53:30,10.1.1.2,177,-0.230,-0.230,-0.230,0.000,0.000,0.000
1641102811138144000,2022-01-02-05:53:31,10.1.1.2,176,-0.240,-0.240,-0.240,0.000,0.000,0.000
1641102811338329088,2022-01-02-05:53:31,10.1.1.2,176,-0.250,-0.250,-0.250,0.000,0.000,0.000
1641102811538372096,2022-01-02-05:53:31,10.1.1.2,175,-0.260,-0.260,-0.260,0.000,0.000,0.000
1641102811739561984,2022-01-02-05:53:31,10.1.1.2,175,-0.270,-0.270,-0.270,0.000,0.000,0.000
1641102811936409088,2022-01-02-05:53:31,10.1.1.2,172,-0.280,-0.280,-0.280,0.000,0.000,0.000
1641102812139264000,2022-01-02-05:53:32,10.1.1.2,172,-0.290,-0.290,-0.290,0.000,0.000,0.000
1641102812344364032,2022-01-02-05:53:32,10.1.1.2,176,-0.300,-0.300,-0.300,0.000,0.000,0.000
1641102812537123072,2022-01-02-05:53:32,10.1.1.2,169,-0.310,-0.310,-0.310,0.000,0.000,0.000
1641102812735555840,2022-01-02-05:53:32,10.1.1.2,166,-0.320,-0.320,-0.320,0.000,0.000,0.000
1641102812936484096,2022-01-02-05:53:32,10.1.1.2,166,-0.330,-0.330,-0.330,0.000,0.000,0.000
1641102813135727872,2022-01-02-05:53:33,10.1.1.2,164,-0.340,-0.340,-0.340,0.000,0.000,0.000
1641102813336745984,2022-01-02-05:53:33,10.1.1.2,165,-0.350,-0.350,-0.350,0.000,0.000,0.000
1641102813537134848,2022-01-02-05:53:33,10.1.1.2,164,-0.360,-0.360,-0.360,0.000,0.000,0.000
1641102813739854080,2022-01-02-05:53:33,10.1.1.2,167,-0.370,-0.370,-0.370,0.000,0.000,0.000
1641102813940045056,2022-01-02-05:53:33,10.1.1.2,166,-0.380,-0.380,-0.380,0.000,0.000,0.000
1641102814140630016,2022-01-02-05:53:34,10.1.1.2,166,-0.390,-0.390,-0.390,0.000,0.000,0.000
1641102814341686016,2022-01-02-05:53:34,10.1.1.2,166,-0.400,-0.400,-0.400,0.000,0.000,0.000
1641102814542707968,2022-01-02-05:53:34,10.1.1.2,166,-0.410,-0.410,-0.410,0.000,0.000,0.000
1641102814742667008,2022-01-02-05:53:34,10.1.1.2,165,-0.420,-0.420,-0.420,0.000,0.000,0.000
1641102814943963136,2022-01-02-05:53:34,10.1.1.2,166,-0.430,-0.430,-0.430,0.000,0.000,0.000
1641102815145876992,2022-01-02-05:53:35,10.1.1.2,166,-0.440,-0.440,-0.440,0.000,0.000,0.000
1641102815347401984,2022-01-02-05:53:35,10.1.1.2,168,-0.450,-0.450,-0.450,0.000,0.000,0.000
1641102815566972928,2022-01-02-05:53:35,10.1.1.2,187,-0.460,-0.460,-0.460,0.000,0.000,0.000
1641102815767055104,2022-01-02-05:53:35,10.1.1.2,186,-0.470,-0.470,-0.470,0.000,0.000,0.000
1641102815967876864,2022-01-02-05:53:35,10.1.1.2,186,-0.480,-0.480,-0.480,0.000,0.000,0.000
1641102816168452096,2022-01-02-05:53:36,10.1.1.2,186,-0.490,-0.490,-0.490,0.000,0.000,0.000
1641102816368905984,2022-01-02-05:53:36,10.1.1.2,186,-0.480,-0.480,-0.480,0.000,0.000,0.000
1641102816569436160,2022-01-02-05:53:36,10.1.1.2,185,-0.470,-0.470,-0.470,0.000,0.000,0.000
1641102816770001920,2022-01-02-05:53:36,10.1.1.2,185,-0.460,-0.460,-0.460,0.000,0.000,0.000
1641102816970657024,2022-01-02-05:53:36,10.1.1.2,185,-0.450,-0.450,-0.450,0.000,0.000,0.000
1641102817172296960,2022-01-02-05:53:37,10.1.1.2,184,-0.440,-0.440,-0.440,0.000,0.000,0.000
1641102817372263936,2022-01-02-05:53:37,10.1.1.2,184,-0.430,-0.430,-0.430,0.000,0.000,0.000
1641102817572387072,2022-01-02-05:53:37,10.1.1.2,183,-0.420,-0.420,-0.420,0.000,0.000,0.000
1641102817772761088,2022-01-02-05:53:37,10.1.1.2,183,-0.410,-0.410,-0.410,0.000,0.000,0.000
1641102817973068032,2022-01-02-05:53:37,10.1.1.2,183,-0.400,-0.400,-0.400,0.000,0.000,0.000
1641102818173698816,2022-01-02-05:53:38,10.1.1.2,182,-0.390,-0.390,-0.390,0.000,0.000,0.000
1641102818373724928,2022-01-02-05:53:38,10.1.1.2,181,-0.380,-0.380,-0.380,0.000,0.000,0.000
1641102818574626816,2022-01-02-05:53:38,10.1.1.2,182,-0.370,-0.370,-0.370,0.000,0.000,0.000
1641102818774873088,2022-01-02-05:53:38,10.1.1.2,181,-0.360,-0.360,-0.360,0.000,0.000,0.000
1641102818974670848,2022-01-02-05:53:38,10.1.1.2,179,-0.350,-0.350,-0.350,0.000,0.000,0.000
1641102819177780992,2022-01-02-05:53:39,10.1.1.2,182,-0.340,-0.340,-0.340,0.000,0.000,0.000
1641102819375924992,2022-01-02-05:53:39,10.1.1.2,179,-0.330,-0.330,-0.330,0.000,0.000,0.000
1641102819580444928,2022-01-02-05:53:39,10.1.1.2,183,-0.320,-0.320,-0.320,0.000,0.000,0.000
1641102819995982848,2022-01-02-05:53:39,10.1.1.2,189,-0.300,-0.300,-0.300,0.000,0.000,0.000
1641102820204898048,2022-01-02-05:53:40,10.1.1.2,197,-0.290,-0.290,-0.290,0.000,0.000,0.000
1641102820397003776,2022-01-02-05:53:40,10.1.1.2,188,-0.280,-0.280,-0.280,0.000,0.000,0.000
1641102820597745920,2022-01-02-05:53:40,10.1.1.2,188,-0.270,-0.270,-0.270,0.000,0.000,0.000
1641102820797457920,2022-01-02-05:53:40,10.1.1.2,187,-0.260,-0.260,-0.260,0.000,0.000,0.000
1641102820997217024,2022-01-02-05:53:40,10.1.1.2,186,-0.250,-0.250,-0.250,0.000,0.000,0.000
1641102821197516032,2022-01-02-05:53:41,10.1.1.2,186,-0.240,-0.240,-0.240,0.000,0.000,0.000
1641102821397304064,2022-01-02-05:53:41,10.1.1.2,185,-0.230,-0.230,-0.230,0.000,0.000,0.000
1641102821598388992,2022-01-02-05:53:41,10.1.1.2,185,-0.220,-0.220,-0.220,0.000,0.000,0.000
1641102821798668032,2022-01-02-05:53:41,10.1.1.2,185,-0.210,-0.210,-0.210,0.000,0.000,0.000
1641102821999761152,2022-01-02-05:53:41,10.1.1.2,185,-0.200,-0.200,-0.200,0.000,0.000,0.000
1641102822197989888,2022-01-02-05:53:42,10.1.1.2,181,-0.190,-0.190,-0.190,0.000,0.000,0.000
1641102822418215936,2022-01-02-05:53:42,10.1.1.2,184,-0.180,-0.180,-0.180,0.000,0.000,0.000
1641102822617922048,2022-01-02-05:53:42,10.1.1.2,183,-0.170,-0.170,-0.170,0.000,0.000,0.000
1641102822818230016,2022-01-02-05:53:42,10.1.1.2,182,-0.160,-0.160,-0.160,0.000,0.000,0.000
1641102823018749952,2022-01-02-05:53:43,10.1.1.2,181,-0.150,-0.150,-0.150,0.000,0.000,0.000
1641102823218341120,2022-01-02-05:53:43,10.1.1.2,179,-0.140,-0.140,-0.140,0.000,0.000,0.000
1641102823638132992,2022-01-02-05:53:43,10.1.1.2,197,-0.120,-0.120,-0.120,0.000,0.000,0.000
1641102823838411008,2022-01-02-05:53:43,10.1.1.2,197,-0.110,-0.110,-0.110,0.000,0.000,0.000
1641102824040372992,2022-01-02-05:53:44,10.1.1.2,198,-0.100,-0.100,-0.100,0.000,0.000,0.000
1641102824238732032,2022-01-02-05:53:44,10.1.1.2,195,-0.090,-0.090,-0.090,0.000,0.000,0.000
1641102824440069888,2022-01-02-05:53:44,10.1.1.2,195,-0.080,-0.080,-0.080,0.000,0.000,0.000
1641102824641395200,2022-01-02-05:53:44,10.1.1.2,196,-0.070,-0.070,-0.070,0.000,0.000,0.000
1641102824839252992,2022-01-02-05:53:44,10.1.1.2,194,-0.060,-0.060,-0.060,0.000,0.000,0.000
1641102825040189952,2022-01-02-05:53:45,10.1.1.2,194,-0.050,-0.050,-0.050,0.000,0.000,0.000
1641102825241550848,2022-01-02-05:53:45,10.1.1.2,195,-0.040,-0.040,-0.040,0.000,0.000,0.000
1641102825440327936,2022-01-02-05:53:45,10.1.1.2,193,-0.030,-0.030,-0.030,0.000,0.000,0.000
1641102825638973952,2022-01-02-05:53:45,10.1.1.2,191,-0.020,-0.020,-0.020,0.000,0.000,0.000
1641102825842484992,2022-01-02-05:53:45,10.1.1.2,194,-0.010,-0.010,-0.010,0.000,0.000,0.000
1641102826039625984,2022-01-02-05:53:46,10.1.1.2,190,0.000,0.000,0.000,0.000,0.000,0.000
1641102826238621952,2022-01-02-05:53:46,10.1.1.2,189,-0.010,-0.010,-0.010,0.000,0.000,0.000
1641102826439789056,2022-01-02-05:53:46,10.1.1.2,189,-0.020,-0.020,-0.020,0.000,0.000,0.000
1641102826639357184,2022-01-02-05:53:46,10.1.1.2,187,-0.030,-0.030,-0.030,0.000,0.000,0.000
1641102826839337216,2022-01-02-05:53:46,10.1.1.2,187,-0.040,-0.040,-0.040,0.000,0.000,0.000
1641102827037143040,2022-01-02-05:53:47,10.1.1.2,184,-0.050,-0.050,-0.050,0.000,0.000,0.000
1641102827238377216,2022-01-02-05:53:47,10.1.1.2,184,-0.060,-0.060,-0.060,0.000,0.000,0.000
