FedericoMungari/DigitalTwin_service/01_WiredScenario/Output/Output_script/script_rosapi_2_output_robots8_freq0_4.txt
timestamp,date,node,latency,joint_1,joint_2,joint_3,joint_4,joint_5,joint_6
1644915518958334976,2022-02-15-08:58:38,10.1.1.5,11,-0.100,-0.100,-0.100,-0.000,-0.000,0.000
1644915519138812928,2022-02-15-08:58:39,10.1.1.5,39,-0.070,-0.070,-0.070,0.000,0.000,0.000
1644915519178417920,2022-02-15-08:58:39,10.1.1.5,27,-0.060,-0.060,-0.060,0.000,0.000,0.000
1644915519237796096,2022-02-15-08:58:39,10.1.1.5,37,-0.050,-0.050,-0.050,0.000,0.000,0.000
1644915519278275072,2022-02-15-08:58:39,10.1.1.5,26,-0.040,-0.040,-0.040,0.000,0.000,0.000
1644915519337801984,2022-02-15-08:58:39,10.1.1.5,35,-0.030,-0.030,-0.030,0.000,0.000,0.000
1644915519377934080,2022-02-15-08:58:39,10.1.1.5,25,-0.020,-0.020,-0.020,0.000,0.000,0.000
1644915519438060032,2022-02-15-08:58:39,10.1.1.5,34,-0.010,-0.010,-0.010,0.000,0.000,0.000
1644915519478281984,2022-02-15-08:58:39,10.1.1.5,24,0.000,0.000,0.000,0.000,0.000,0.000
1644915519537792000,2022-02-15-08:58:39,10.1.1.5,33,0.010,0.010,0.010,0.000,0.000,0.000
1644915519577734912,2022-02-15-08:58:39,10.1.1.5,23,0.020,0.020,0.020,0.000,0.000,0.000
1644915519897846016,2022-02-15-08:58:39,10.1.1.5,39,0.080,0.080,0.080,0.000,0.000,0.000
1644915519938412032,2022-02-15-08:58:39,10.1.1.5,28,0.090,0.090,0.090,0.000,0.000,0.000
1644915519998308864,2022-02-15-08:58:39,10.1.1.5,37,0.100,0.100,0.100,0.000,0.000,0.000
1644915520038161152,2022-02-15-08:58:40,10.1.1.5,26,0.090,0.090,0.090,0.000,0.000,0.000
1644915520097935872,2022-02-15-08:58:40,10.1.1.5,35,0.080,0.080,0.080,0.000,0.000,0.000
1644915520137991936,2022-02-15-08:58:40,10.1.1.5,25,0.070,0.070,0.070,0.000,0.000,0.000
1644915520198217984,2022-02-15-08:58:40,10.1.1.5,34,0.060,0.060,0.060,0.000,0.000,0.000
1644915520238327040,2022-02-15-08:58:40,10.1.1.5,23,0.050,0.050,0.050,0.000,0.000,0.000
1644915520398225920,2022-02-15-08:58:40,10.1.1.5,29,0.020,0.020,0.020,0.000,0.000,0.000
1644915520458736896,2022-02-15-08:58:40,10.1.1.5,38,0.010,0.010,0.010,0.000,0.000,0.000
1644915520498106880,2022-02-15-08:58:40,10.1.1.5,28,0.000,0.000,0.000,0.000,0.000,0.000
1644915520557811968,2022-02-15-08:58:40,10.1.1.5,35,-0.010,-0.010,-0.010,0.000,0.000,0.000
1644915520598148096,2022-02-15-08:58:40,10.1.1.5,24,-0.020,-0.020,-0.020,0.000,0.000,0.000
1644915520658364160,2022-02-15-08:58:40,10.1.1.5,33,-0.030,-0.030,-0.030,0.000,0.000,0.000
1644915520698499840,2022-02-15-08:58:40,10.1.1.5,23,-0.040,-0.040,-0.040,0.000,0.000,0.000
1644915521017682944,2022-02-15-08:58:41,10.1.1.5,39,-0.100,-0.100,-0.100,0.000,0.000,0.000
1644915521057790976,2022-02-15-08:58:41,10.1.1.5,29,-0.090,-0.090,-0.090,0.000,0.000,0.000
1644915521117847040,2022-02-15-08:58:41,10.1.1.5,38,-0.080,-0.080,-0.080,0.000,0.000,0.000
1644915521157680128,2022-02-15-08:58:41,10.1.1.5,26,-0.070,-0.070,-0.070,0.000,0.000,0.000
1644915521218803968,2022-02-15-08:58:41,10.1.1.5,36,-0.060,-0.060,-0.060,0.000,0.000,0.000
1644915521258196224,2022-02-15-08:58:41,10.1.1.5,25,-0.050,-0.050,-0.050,0.000,0.000,0.000
1644915521318164224,2022-02-15-08:58:41,10.1.1.5,35,-0.040,-0.040,-0.040,0.000,0.000,0.000
1644915521357856000,2022-02-15-08:58:41,10.1.1.5,23,-0.030,-0.030,-0.030,0.000,0.000,0.000
1644915521717815040,2022-02-15-08:58:41,10.1.1.5,29,0.040,0.040,0.040,0.000,0.000,0.000
1644915521778088192,2022-02-15-08:58:41,10.1.1.5,39,0.050,0.050,0.050,0.000,0.000,0.000
1644915521817903104,2022-02-15-08:58:41,10.1.1.5,28,0.060,0.060,0.060,0.000,0.000,0.000
1644915521877954048,2022-02-15-08:58:41,10.1.1.5,38,0.070,0.070,0.070,0.000,0.000,0.000
1644915521918312192,2022-02-15-08:58:41,10.1.1.5,26,0.080,0.080,0.080,0.000,0.000,0.000
1644915521978147072,2022-02-15-08:58:41,10.1.1.5,35,0.090,0.090,0.090,0.000,0.000,0.000
1644915522017844992,2022-02-15-08:58:42,10.1.1.5,25,0.100,0.100,0.100,0.000,0.000,0.000
1644915522078070016,2022-02-15-08:58:42,10.1.1.5,34,0.090,0.090,0.090,0.000,0.000,0.000
1644915522117860096,2022-02-15-08:58:42,10.1.1.5,24,0.080,0.080,0.080,0.000,0.000,0.000
1644915522178221056,2022-02-15-08:58:42,10.1.1.5,34,0.070,0.070,0.070,0.000,0.000,0.000
1644915522478812928,2022-02-15-08:58:42,10.1.1.5,29,0.010,0.010,0.010,0.000,0.000,0.000
1644915522539572992,2022-02-15-08:58:42,10.1.1.5,29,0.000,0.000,0.000,0.000,0.000,0.000
1644915522598169088,2022-02-15-08:58:42,10.1.1.5,35,-0.010,-0.010,-0.010,0.000,0.000,0.000
1644915522638562048,2022-02-15-08:58:42,10.1.1.5,24,-0.020,-0.020,-0.020,0.000,0.000,0.000
1644915522697943040,2022-02-15-08:58:42,10.1.1.5,33,-0.030,-0.030,-0.030,0.000,0.000,0.000
1644915522958020864,2022-02-15-08:58:42,10.1.1.5,38,-0.080,-0.080,-0.080,0.000,0.000,0.000
1644915522998348032,2022-02-15-08:58:42,10.1.1.5,26,-0.090,-0.090,-0.090,0.000,0.000,0.000
1644915523058388992,2022-02-15-08:58:43,10.1.1.5,35,-0.100,-0.100,-0.100,0.000,0.000,0.000
1644915523098722816,2022-02-15-08:58:43,10.1.1.5,25,-0.090,-0.090,-0.090,0.000,0.000,0.000
1644915523157957120,2022-02-15-08:58:43,10.1.1.5,35,-0.080,-0.080,-0.080,0.000,0.000,0.000
1644915523198548992,2022-02-15-08:58:43,10.1.1.5,23,-0.070,-0.070,-0.070,0.000,0.000,0.000
1644915523258064128,2022-02-15-08:58:43,10.1.1.5,33,-0.060,-0.060,-0.060,0.000,0.000,0.000
1644915523417718016,2022-02-15-08:58:43,10.1.1.5,39,-0.030,-0.030,-0.030,0.000,0.000,0.000
1644915523457960960,2022-02-15-08:58:43,10.1.1.5,29,-0.020,-0.020,-0.020,0.000,0.000,0.000
1644915523518394880,2022-02-15-08:58:43,10.1.1.5,38,-0.010,-0.010,-0.010,0.000,0.000,0.000
1644915523558548992,2022-02-15-08:58:43,10.1.1.5,27,0.000,0.000,0.000,0.000,0.000,0.000
1644915523618262016,2022-02-15-08:58:43,10.1.1.5,37,0.010,0.010,0.010,0.000,0.000,0.000
1644915523657761024,2022-02-15-08:58:43,10.1.1.5,26,0.020,0.020,0.020,0.000,0.000,0.000
1644915523717701888,2022-02-15-08:58:43,10.1.1.5,35,0.030,0.030,0.030,0.000,0.000,0.000
1644915523757863936,2022-02-15-08:58:43,10.1.1.5,25,0.040,0.040,0.040,0.000,0.000,0.000
1644915523817743104,2022-02-15-08:58:43,10.1.1.5,35,0.050,0.050,0.050,0.000,0.000,0.000
1644915523858035200,2022-02-15-08:58:43,10.1.1.5,24,0.060,0.060,0.060,0.000,0.000,0.000
1644915523918701824,2022-02-15-08:58:43,10.1.1.5,34,0.070,0.070,0.070,0.000,0.000,0.000
1644915523958242816,2022-02-15-08:58:43,10.1.1.5,23,0.080,0.080,0.080,0.000,0.000,0.000
1644915524138551040,2022-02-15-08:58:44,10.1.1.5,1,0.080,0.080,0.080,0.000,0.000,0.000
1644915524317895936,2022-02-15-08:58:44,10.1.1.5,29,0.050,0.050,0.050,0.000,0.000,0.000
1644915524377985024,2022-02-15-08:58:44,10.1.1.5,38,0.040,0.040,0.040,0.000,0.000,0.000
1644915524418766848,2022-02-15-08:58:44,10.1.1.5,28,0.030,0.030,0.030,0.000,0.000,0.000
1644915524478866944,2022-02-15-08:58:44,10.1.1.5,37,0.020,0.020,0.020,0.000,0.000,0.000
1644915524517854976,2022-02-15-08:58:44,10.1.1.5,26,0.010,0.010,0.010,0.000,0.000,0.000
1644915524578820864,2022-02-15-08:58:44,10.1.1.5,35,0.000,0.000,0.000,0.000,0.000,0.000
1644915524618256128,2022-02-15-08:58:44,10.1.1.5,25,-0.010,-0.010,-0.010,0.000,0.000,0.000
1644915524678771968,2022-02-15-08:58:44,10.1.1.5,34,-0.020,-0.020,-0.020,0.000,0.000,0.000
1644915524718031872,2022-02-15-08:58:44,10.1.1.5,23,-0.030,-0.030,-0.030,0.000,0.000,0.000
1644915524838480896,2022-02-15-08:58:44,10.1.1.5,38,-0.050,-0.050,-0.050,0.000,0.000,0.000
1644915524878016000,2022-02-15-08:58:44,10.1.1.5,27,-0.060,-0.060,-0.060,0.000,0.000,0.000
1644915524938530816,2022-02-15-08:58:44,10.1.1.5,36,-0.070,-0.070,-0.070,0.000,0.000,0.000
1644915524978416896,2022-02-15-08:58:44,10.1.1.5,25,-0.080,-0.080,-0.080,0.000,0.000,0.000
1644915525038968064,2022-02-15-08:58:45,10.1.1.5,35,-0.090,-0.090,-0.090,0.000,0.000,0.000
1644915525078208000,2022-02-15-08:58:45,10.1.1.5,24,-0.100,-0.100,-0.100,0.000,0.000,0.000
1644915525138198016,2022-02-15-08:58:45,10.1.1.5,34,-0.090,-0.090,-0.090,0.000,0.000,0.000
1644915525178352128,2022-02-15-08:58:45,10.1.1.5,23,-0.080,-0.080,-0.080,0.000,0.000,0.000
1644915525238176000,2022-02-15-08:58:45,10.1.1.5,33,-0.070,-0.070,-0.070,0.000,0.000,0.000
1644915525638024960,2022-02-15-08:58:45,10.1.1.5,29,0.010,0.010,0.010,0.000,0.000,0.000
1644915525698245120,2022-02-15-08:58:45,10.1.1.5,39,0.020,0.020,0.020,0.000,0.000,0.000
1644915525737998080,2022-02-15-08:58:45,10.1.1.5,28,0.030,0.030,0.030,0.000,0.000,0.000
1644915525797998848,2022-02-15-08:58:45,10.1.1.5,38,0.040,0.040,0.040,0.000,0.000,0.000
1644915525837879040,2022-02-15-08:58:45,10.1.1.5,27,0.050,0.050,0.050,0.000,0.000,0.000
1644915525898540032,2022-02-15-08:58:45,10.1.1.5,37,0.060,0.060,0.060,0.000,0.000,0.000
1644915525937778944,2022-02-15-08:58:45,10.1.1.5,27,0.070,0.070,0.070,0.000,0.000,0.000
1644915525997939200,2022-02-15-08:58:45,10.1.1.5,36,0.080,0.080,0.080,0.000,0.000,0.000
1644915526038146048,2022-02-15-08:58:46,10.1.1.5,26,0.090,0.090,0.090,0.000,0.000,0.000
1644915526098232064,2022-02-15-08:58:46,10.1.1.5,35,0.100,0.100,0.100,0.000,0.000,0.000
1644915526138108928,2022-02-15-08:58:46,10.1.1.5,25,0.090,0.090,0.090,0.000,0.000,0.000
1644915526198237952,2022-02-15-08:58:46,10.1.1.5,34,0.080,0.080,0.080,0.000,0.000,0.000
1644915526237762048,2022-02-15-08:58:46,10.1.1.5,23,0.070,0.070,0.070,0.000,0.000,0.000
1644915526697964800,2022-02-15-08:58:46,10.1.1.5,29,-0.020,-0.020,-0.020,0.000,0.000,0.000
1644915526757960960,2022-02-15-08:58:46,10.1.1.5,39,-0.030,-0.030,-0.030,0.000,0.000,0.000
1644915526798397952,2022-02-15-08:58:46,10.1.1.5,28,-0.040,-0.040,-0.040,0.000,0.000,0.000
1644915526857944064,2022-02-15-08:58:46,10.1.1.5,37,-0.050,-0.050,-0.050,0.000,0.000,0.000
1644915526958560000,2022-02-15-08:58:46,10.1.1.5,35,-0.070,-0.070,-0.070,0.000,0.000,0.000
1644915526998657024,2022-02-15-08:58:46,10.1.1.5,24,-0.080,-0.080,-0.080,0.000,0.000,0.000
1644915527057807872,2022-02-15-08:58:47,10.1.1.5,34,-0.090,-0.090,-0.090,0.000,0.000,0.000
1644915527097971968,2022-02-15-08:58:47,10.1.1.5,23,-0.100,-0.100,-0.100,0.000,0.000,0.000
1644915527157702912,2022-02-15-08:58:47,10.1.1.5,33,-0.090,-0.090,-0.090,0.000,0.000,0.000
1644915527418764032,2022-02-15-08:58:47,10.1.1.5,39,-0.040,-0.040,-0.040,0.000,0.000,0.000
1644915527458347008,2022-02-15-08:58:47,10.1.1.5,28,-0.030,-0.030,-0.030,0.000,0.000,0.000
1644915527518487808,2022-02-15-08:58:47,10.1.1.5,37,-0.020,-0.020,-0.020,0.000,0.000,0.000
1644915527558446848,2022-02-15-08:58:47,10.1.1.5,26,-0.010,-0.010,-0.010,0.000,0.000,0.000
1644915527617910016,2022-02-15-08:58:47,10.1.1.5,36,0.000,0.000,0.000,0.000,0.000,0.000
1644915527658050048,2022-02-15-08:58:47,10.1.1.5,26,0.010,0.010,0.010,0.000,0.000,0.000
1644915527718235136,2022-02-15-08:58:47,10.1.1.5,35,0.020,0.020,0.020,0.000,0.000,0.000
1644915527758168064,2022-02-15-08:58:47,10.1.1.5,25,0.030,0.030,0.030,0.000,0.000,0.000
1644915527818330880,2022-02-15-08:58:47,10.1.1.5,35,0.040,0.040,0.040,0.000,0.000,0.000
1644915527858158080,2022-02-15-08:58:47,10.1.1.5,24,0.050,0.050,0.050,0.000,0.000,0.000
1644915527918113024,2022-02-15-08:58:47,10.1.1.5,34,0.060,0.060,0.060,0.000,0.000,0.000
1644915527958525952,2022-02-15-08:58:47,10.1.1.5,23,0.070,0.070,0.070,0.000,0.000,0.000
1644915528017975040,2022-02-15-08:58:48,10.1.1.5,33,0.080,0.080,0.080,0.000,0.000,0.000
1644915528198290944,2022-02-15-08:58:48,10.1.1.5,11,0.080,0.080,0.080,0.000,0.000,0.000
1644915528378396928,2022-02-15-08:58:48,10.1.1.5,40,0.050,0.050,0.050,0.000,0.000,0.000
1644915528419065088,2022-02-15-08:58:48,10.1.1.5,29,0.040,0.040,0.040,0.000,0.000,0.000
1644915528477937920,2022-02-15-08:58:48,10.1.1.5,39,0.030,0.030,0.030,0.000,0.000,0.000
1644915528518053120,2022-02-15-08:58:48,10.1.1.5,28,0.020,0.020,0.020,0.000,0.000,0.000
1644915528578306048,2022-02-15-08:58:48,10.1.1.5,36,0.010,0.010,0.010,0.000,0.000,0.000
1644915528618615040,2022-02-15-08:58:48,10.1.1.5,26,0.000,0.000,0.000,0.000,0.000,0.000
1644915528678586880,2022-02-15-08:58:48,10.1.1.5,34,-0.010,-0.010,-0.010,0.000,0.000,0.000
1644915528718298880,2022-02-15-08:58:48,10.1.1.5,23,-0.020,-0.020,-0.020,0.000,0.000,0.000
1644915528937972992,2022-02-15-08:58:48,10.1.1.5,39,-0.060,-0.060,-0.060,0.000,0.000,0.000
1644915528978163968,2022-02-15-08:58:48,10.1.1.5,28,-0.070,-0.070,-0.070,0.000,0.000,0.000
1644915529038436864,2022-02-15-08:58:49,10.1.1.5,37,-0.080,-0.080,-0.080,0.000,0.000,0.000
1644915529078080000,2022-02-15-08:58:49,10.1.1.5,26,-0.090,-0.090,-0.090,0.000,0.000,0.000
1644915529138392064,2022-02-15-08:58:49,10.1.1.5,34,-0.100,-0.100,-0.100,0.000,0.000,0.000
1644915529178345984,2022-02-15-08:58:49,10.1.1.5,24,-0.090,-0.090,-0.090,0.000,0.000,0.000
1644915529238105088,2022-02-15-08:58:49,10.1.1.5,33,-0.080,-0.080,-0.080,0.000,0.000,0.000
1644915529497922048,2022-02-15-08:58:49,10.1.1.5,37,-0.030,-0.030,-0.030,0.000,0.000,0.000
1644915529538324992,2022-02-15-08:58:49,10.1.1.5,26,-0.020,-0.020,-0.020,0.000,0.000,0.000
1644915529597996032,2022-02-15-08:58:49,10.1.1.5,35,-0.010,-0.010,-0.010,0.000,0.000,0.000
1644915529638316032,2022-02-15-08:58:49,10.1.1.5,24,0.000,0.000,0.000,0.000,0.000,0.000
1644915529697808896,2022-02-15-08:58:49,10.1.1.5,33,0.010,0.010,0.010,0.000,0.000,0.000
1644915529958018048,2022-02-15-08:58:49,10.1.1.5,39,0.060,0.060,0.060,0.000,0.000,0.000
1644915529998323968,2022-02-15-08:58:49,10.1.1.5,28,0.070,0.070,0.070,0.000,0.000,0.000
1644915530057872128,2022-02-15-08:58:50,10.1.1.5,37,0.080,0.080,0.080,0.000,0.000,0.000
1644915530098018048,2022-02-15-08:58:50,10.1.1.5,26,0.090,0.090,0.090,0.000,0.000,0.000
1644915530158577920,2022-02-15-08:58:50,10.1.1.5,35,0.100,0.100,0.100,0.000,0.000,0.000
1644915530198342912,2022-02-15-08:58:50,10.1.1.5,24,0.090,0.090,0.090,0.000,0.000,0.000
1644915530258248192,2022-02-15-08:58:50,10.1.1.5,34,0.080,0.080,0.080,0.000,0.000,0.000
1644915530298630912,2022-02-15-08:58:50,10.1.1.5,24,0.070,0.070,0.070,0.000,0.000,0.000
1644915530458540032,2022-02-15-08:58:50,10.1.1.5,30,0.040,0.040,0.040,0.000,0.000,0.000
1644915530518178048,2022-02-15-08:58:50,10.1.1.5,39,0.030,0.030,0.030,0.000,0.000,0.000
1644915530557904128,2022-02-15-08:58:50,10.1.1.5,28,0.020,0.020,0.020,0.000,0.000,0.000
1644915530618761984,2022-02-15-08:58:50,10.1.1.5,36,0.010,0.010,0.010,0.000,0.000,0.000
1644915530658489088,2022-02-15-08:58:50,10.1.1.5,26,0.000,0.000,0.000,0.000,0.000,0.000
1644915530719183872,2022-02-15-08:58:50,10.1.1.5,35,-0.010,-0.010,-0.010,0.000,0.000,0.000
1644915530758522880,2022-02-15-08:58:50,10.1.1.5,24,-0.020,-0.020,-0.020,0.000,0.000,0.000
1644915530818046208,2022-02-15-08:58:50,10.1.1.5,33,-0.030,-0.030,-0.030,0.000,0.000,0.000
1644915531018040064,2022-02-15-08:58:51,10.1.1.5,30,-0.070,-0.070,-0.070,0.000,0.000,0.000
1644915531079021056,2022-02-15-08:58:51,10.1.1.5,38,-0.080,-0.080,-0.080,0.000,0.000,0.000
1644915531118196992,2022-02-15-08:58:51,10.1.1.5,27,-0.090,-0.090,-0.090,0.000,0.000,0.000
1644915531177895936,2022-02-15-08:58:51,10.1.1.5,34,-0.100,-0.100,-0.100,0.000,0.000,0.000
1644915531218624000,2022-02-15-08:58:51,10.1.1.5,24,-0.090,-0.090,-0.090,0.000,0.000,0.000
1644915531277878016,2022-02-15-08:58:51,10.1.1.5,33,-0.080,-0.080,-0.080,0.000,0.000,0.000
1644915531578605824,2022-02-15-08:58:51,10.1.1.5,29,-0.020,-0.020,-0.020,0.000,0.000,0.000
1644915531637996800,2022-02-15-08:58:51,10.1.1.5,38,-0.010,-0.010,-0.010,0.000,0.000,0.000
1644915531678249984,2022-02-15-08:58:51,10.1.1.5,27,0.000,0.000,0.000,0.000,0.000,0.000
1644915531738182144,2022-02-15-08:58:51,10.1.1.5,37,0.010,0.010,0.010,0.000,0.000,0.000
1644915531778420992,2022-02-15-08:58:51,10.1.1.5,26,0.020,0.020,0.020,0.000,0.000,0.000
1644915531838068992,2022-02-15-08:58:51,10.1.1.5,35,0.030,0.030,0.030,0.000,0.000,0.000
1644915531877872896,2022-02-15-08:58:51,10.1.1.5,24,0.040,0.040,0.040,0.000,0.000,0.000
1644915531938657024,2022-02-15-08:58:51,10.1.1.5,34,0.050,0.050,0.050,0.000,0.000,0.000
1644915531978571776,2022-02-15-08:58:51,10.1.1.5,23,0.060,0.060,0.060,0.000,0.000,0.000
1644915532378140928,2022-02-15-08:58:52,10.1.1.5,18,0.060,0.060,0.060,0.000,0.000,0.000
1644915532438344960,2022-02-15-08:58:52,10.1.1.5,26,0.050,0.050,0.050,0.000,0.000,0.000
1644915532498725888,2022-02-15-08:58:52,10.1.1.5,36,0.040,0.040,0.040,0.000,0.000,0.000
1644915532540285184,2022-02-15-08:58:52,10.1.1.5,25,0.030,0.030,0.030,0.000,0.000,0.000
1644915532598952960,2022-02-15-08:58:52,10.1.1.5,34,0.020,0.020,0.020,0.000,0.000,0.000
1644915532638749952,2022-02-15-08:58:52,10.1.1.5,23,0.010,0.010,0.010,0.000,0.000,0.000
1644915532898199040,2022-02-15-08:58:52,10.1.1.5,29,-0.040,-0.040,-0.040,0.000,0.000,0.000
1644915532957822208,2022-02-15-08:58:52,10.1.1.5,39,-0.050,-0.050,-0.050,0.000,0.000,0.000
1644915532998398976,2022-02-15-08:58:52,10.1.1.5,27,-0.060,-0.060,-0.060,0.000,0.000,0.000
1644915533058587136,2022-02-15-08:58:53,10.1.1.5,37,-0.070,-0.070,-0.070,0.000,0.000,0.000
1644915533098149888,2022-02-15-08:58:53,10.1.1.5,26,-0.080,-0.080,-0.080,0.000,0.000,0.000
1644915533158096128,2022-02-15-08:58:53,10.1.1.5,35,-0.090,-0.090,-0.090,0.000,0.000,0.000
1644915533198200064,2022-02-15-08:58:53,10.1.1.5,24,-0.100,-0.100,-0.100,0.000,0.000,0.000
1644915533457936128,2022-02-15-08:58:53,10.1.1.5,29,-0.050,-0.050,-0.050,0.000,0.000,0.000
1644915533517901056,2022-02-15-08:58:53,10.1.1.5,36,-0.040,-0.040,-0.040,0.000,0.000,0.000
1644915533558630912,2022-02-15-08:58:53,10.1.1.5,24,-0.030,-0.030,-0.030,0.000,0.000,0.000
1644915533618413056,2022-02-15-08:58:53,10.1.1.5,33,-0.020,-0.020,-0.020,0.000,0.000,0.000
1644915533725465088,2022-02-15-08:58:53,10.1.1.5,28,0.000,0.000,0.000,0.000,0.000,0.000
1644915533789854976,2022-02-15-08:58:53,10.1.1.5,37,0.010,0.010,0.010,0.000,0.000,0.000
1644915533838867968,2022-02-15-08:58:53,10.1.1.5,36,0.020,0.020,0.020,0.000,0.000,0.000
1644915533878386944,2022-02-15-08:58:53,10.1.1.5,25,0.030,0.030,0.030,0.000,0.000,0.000
1644915533938152960,2022-02-15-08:58:53,10.1.1.5,34,0.040,0.040,0.040,0.000,0.000,0.000
1644915533978265088,2022-02-15-08:58:53,10.1.1.5,24,0.050,0.050,0.050,0.000,0.000,0.000
1644915534040741888,2022-02-15-08:58:54,10.1.1.5,25,0.060,0.060,0.060,0.000,0.000,0.000
1644915534098088960,2022-02-15-08:58:54,10.1.1.5,30,0.070,0.070,0.070,0.000,0.000,0.000
1644915534158097920,2022-02-15-08:58:54,10.1.1.5,38,0.080,0.080,0.080,0.000,0.000,0.000
1644915534198227968,2022-02-15-08:58:54,10.1.1.5,27,0.090,0.090,0.090,0.000,0.000,0.000
1644915534258259968,2022-02-15-08:58:54,10.1.1.5,36,0.100,0.100,0.100,0.000,0.000,0.000
1644915534298046976,2022-02-15-08:58:54,10.1.1.5,26,0.090,0.090,0.090,0.000,0.000,0.000
1644915534358117120,2022-02-15-08:58:54,10.1.1.5,35,0.080,0.080,0.080,0.000,0.000,0.000
1644915534398251008,2022-02-15-08:58:54,10.1.1.5,25,0.070,0.070,0.070,0.000,0.000,0.000
1644915534458483968,2022-02-15-08:58:54,10.1.1.5,34,0.060,0.060,0.060,0.000,0.000,0.000
1644915534497974016,2022-02-15-08:58:54,10.1.1.5,24,0.050,0.050,0.050,0.000,0.000,0.000
1644915534818406144,2022-02-15-08:58:54,10.1.1.5,39,-0.010,-0.010,-0.010,0.000,0.000,0.000
1644915534857831936,2022-02-15-08:58:54,10.1.1.5,29,-0.020,-0.020,-0.020,0.000,0.000,0.000
1644915534917996800,2022-02-15-08:58:54,10.1.1.5,38,-0.030,-0.030,-0.030,0.000,0.000,0.000
1644915534958136064,2022-02-15-08:58:54,10.1.1.5,27,-0.040,-0.040,-0.040,0.000,0.000,0.000
1644915535018224128,2022-02-15-08:58:55,10.1.1.5,37,-0.050,-0.050,-0.050,0.000,0.000,0.000
1644915535058312960,2022-02-15-08:58:55,10.1.1.5,25,-0.060,-0.060,-0.060,0.000,0.000,0.000
1644915535118304000,2022-02-15-08:58:55,10.1.1.5,34,-0.070,-0.070,-0.070,0.000,0.000,0.000
1644915535158333952,2022-02-15-08:58:55,10.1.1.5,24,-0.080,-0.080,-0.080,0.000,0.000,0.000
1644915535218574080,2022-02-15-08:58:55,10.1.1.5,33,-0.090,-0.090,-0.090,0.000,0.000,0.000
1644915535298168832,2022-02-15-08:58:55,10.1.1.5,12,-0.090,-0.090,-0.090,0.000,0.000,0.000
1644915535578080000,2022-02-15-08:58:55,10.1.1.5,39,-0.040,-0.040,-0.040,0.000,0.000,0.000
1644915535618528000,2022-02-15-08:58:55,10.1.1.5,28,-0.030,-0.030,-0.030,0.000,0.000,0.000
1644915535678301952,2022-02-15-08:58:55,10.1.1.5,37,-0.020,-0.020,-0.020,0.000,0.000,0.000
1644915535718004992,2022-02-15-08:58:55,10.1.1.5,26,-0.010,-0.010,-0.010,0.000,0.000,0.000
1644915535778573056,2022-02-15-08:58:55,10.1.1.5,36,0.000,0.000,0.000,0.000,0.000,0.000
1644915535818092032,2022-02-15-08:58:55,10.1.1.5,25,0.010,0.010,0.010,0.000,0.000,0.000
1644915535878336000,2022-02-15-08:58:55,10.1.1.5,35,0.020,0.020,0.020,0.000,0.000,0.000
1644915535918162944,2022-02-15-08:58:55,10.1.1.5,24,0.030,0.030,0.030,0.000,0.000,0.000
1644915535978231808,2022-02-15-08:58:55,10.1.1.5,34,0.040,0.040,0.040,0.000,0.000,0.000
1644915536018612992,2022-02-15-08:58:56,10.1.1.5,24,0.050,0.050,0.050,0.000,0.000,0.000
1644915536078403072,2022-02-15-08:58:56,10.1.1.5,33,0.060,0.060,0.060,0.000,0.000,0.000
1644915536438558208,2022-02-15-08:58:56,10.1.1.5,38,0.070,0.070,0.070,0.000,0.000,0.000
1644915536478617856,2022-02-15-08:58:56,10.1.1.5,27,0.060,0.060,0.060,0.000,0.000,0.000
1644915536538583040,2022-02-15-08:58:56,10.1.1.5,36,0.050,0.050,0.050,0.000,0.000,0.000
1644915536578104064,2022-02-15-08:58:56,10.1.1.5,25,0.040,0.040,0.040,0.000,0.000,0.000
1644915536638388992,2022-02-15-08:58:56,10.1.1.5,35,0.030,0.030,0.030,0.000,0.000,0.000
1644915536678266112,2022-02-15-08:58:56,10.1.1.5,24,0.020,0.020,0.020,0.000,0.000,0.000
1644915536737792000,2022-02-15-08:58:56,10.1.1.5,33,0.010,0.010,0.010,0.000,0.000,0.000
1644915537138199040,2022-02-15-08:58:57,10.1.1.5,29,-0.070,-0.070,-0.070,0.000,0.000,0.000
1644915537197881856,2022-02-15-08:58:57,10.1.1.5,38,-0.080,-0.080,-0.080,0.000,0.000,0.000
1644915537237878016,2022-02-15-08:58:57,10.1.1.5,28,-0.090,-0.090,-0.090,0.000,0.000,0.000
1644915537297835008,2022-02-15-08:58:57,10.1.1.5,37,-0.100,-0.100,-0.100,0.000,0.000,0.000
1644915537338273024,2022-02-15-08:58:57,10.1.1.5,25,-0.090,-0.090,-0.090,0.000,0.000,0.000
1644915537398390016,2022-02-15-08:58:57,10.1.1.5,34,-0.080,-0.080,-0.080,0.000,0.000,0.000
1644915537706390016,2022-02-15-08:58:57,10.1.1.5,29,-0.020,-0.020,-0.020,0.000,0.000,0.000
1644915537765820928,2022-02-15-08:58:57,10.1.1.5,35,-0.010,-0.010,-0.010,0.000,0.000,0.000
1644915537798144000,2022-02-15-08:58:57,10.1.1.5,24,0.000,0.000,0.000,0.000,0.000,0.000
1644915537857801984,2022-02-15-08:58:57,10.1.1.5,33,0.010,0.010,0.010,0.000,0.000,0.000
1644915538158171904,2022-02-15-08:58:58,10.1.1.5,30,0.070,0.070,0.070,0.000,0.000,0.000
1644915538218651136,2022-02-15-08:58:58,10.1.1.5,39,0.080,0.080,0.080,0.000,0.000,0.000
1644915538258878976,2022-02-15-08:58:58,10.1.1.5,28,0.090,0.090,0.090,0.000,0.000,0.000
1644915538326131200,2022-02-15-08:58:58,10.1.1.5,37,0.100,0.100,0.100,0.000,0.000,0.000
1644915538559855872,2022-02-15-08:58:58,10.1.1.5,36,0.060,0.060,0.060,0.000,0.000,0.000
1644915538599011072,2022-02-15-08:58:58,10.1.1.5,25,0.050,0.050,0.050,0.000,0.000,0.000
1644915538658426880,2022-02-15-08:58:58,10.1.1.5,33,0.040,0.040,0.040,0.000,0.000,0.000
1644915538918607104,2022-02-15-08:58:58,10.1.1.5,38,-0.010,-0.010,-0.010,0.000,0.000,0.000
1644915538958301952,2022-02-15-08:58:58,10.1.1.5,26,-0.020,-0.020,-0.020,0.000,0.000,0.000
1644915539018810880,2022-02-15-08:58:59,10.1.1.5,35,-0.030,-0.030,-0.030,0.000,0.000,0.000
1644915539057914880,2022-02-15-08:58:59,10.1.1.5,24,-0.040,-0.040,-0.040,0.000,0.000,0.000
1644915539118144000,2022-02-15-08:58:59,10.1.1.5,33,-0.050,-0.050,-0.050,0.000,0.000,0.000
1644915539317724928,2022-02-15-08:58:59,10.1.1.5,25,-0.090,-0.090,-0.090,0.000,0.000,0.000
1644915539378205184,2022-02-15-08:58:59,10.1.1.5,34,-0.100,-0.100,-0.100,0.000,0.000,0.000
1644915539418342144,2022-02-15-08:58:59,10.1.1.5,24,-0.090,-0.090,-0.090,0.000,0.000,0.000
1644915539478491904,2022-02-15-08:58:59,10.1.1.5,33,-0.080,-0.080,-0.080,0.000,0.000,0.000
1644915539838309120,2022-02-15-08:58:59,10.1.1.5,39,-0.010,-0.010,-0.010,0.000,0.000,0.000
1644915539878262016,2022-02-15-08:58:59,10.1.1.5,28,0.000,0.000,0.000,0.000,0.000,0.000
1644915539938344960,2022-02-15-08:58:59,10.1.1.5,38,0.010,0.010,0.010,0.000,0.000,0.000
1644915539978825984,2022-02-15-08:58:59,10.1.1.5,27,0.020,0.020,0.020,0.000,0.000,0.000
1644915540038411008,2022-02-15-08:59:00,10.1.1.5,36,0.030,0.030,0.030,0.000,0.000,0.000
1644915540078386176,2022-02-15-08:59:00,10.1.1.5,25,0.040,0.040,0.040,0.000,0.000,0.000
1644915540138746880,2022-02-15-08:59:00,10.1.1.5,34,0.050,0.050,0.050,0.000,0.000,0.000
1644915540178368000,2022-02-15-08:59:00,10.1.1.5,24,0.060,0.060,0.060,0.000,0.000,0.000
1644915540397857792,2022-02-15-08:59:00,10.1.1.5,38,0.100,0.100,0.100,0.000,0.000,0.000
1644915540437874176,2022-02-15-08:59:00,10.1.1.5,27,0.090,0.090,0.090,0.000,0.000,0.000
1644915540498119168,2022-02-15-08:59:00,10.1.1.5,37,0.080,0.080,0.080,0.000,0.000,0.000
1644915540538439936,2022-02-15-08:59:00,10.1.1.5,26,0.070,0.070,0.070,0.000,0.000,0.000
1644915540598654976,2022-02-15-08:59:00,10.1.1.5,36,0.060,0.060,0.060,0.000,0.000,0.000
1644915540638174976,2022-02-15-08:59:00,10.1.1.5,25,0.050,0.050,0.050,0.000,0.000,0.000
1644915540698183936,2022-02-15-08:59:00,10.1.1.5,35,0.040,0.040,0.040,0.000,0.000,0.000
1644915540738338048,2022-02-15-08:59:00,10.1.1.5,24,0.030,0.030,0.030,0.000,0.000,0.000
1644915540798749952,2022-02-15-08:59:00,10.1.1.5,34,0.020,0.020,0.020,0.000,0.000,0.000
1644915540838205952,2022-02-15-08:59:00,10.1.1.5,23,0.010,0.010,0.010,0.000,0.000,0.000
1644915540898305792,2022-02-15-08:59:00,10.1.1.5,33,0.000,0.000,0.000,0.000,0.000,0.000
1644915541198551040,2022-02-15-08:59:01,10.1.1.5,30,-0.060,-0.060,-0.060,0.000,0.000,0.000
1644915541297993984,2022-02-15-08:59:01,10.1.1.5,29,-0.080,-0.080,-0.080,0.000,0.000,0.000
1644915541358027008,2022-02-15-08:59:01,10.1.1.5,38,-0.090,-0.090,-0.090,0.000,0.000,0.000
1644915541398472192,2022-02-15-08:59:01,10.1.1.5,28,-0.100,-0.100,-0.100,0.000,0.000,0.000
1644915541458522112,2022-02-15-08:59:01,10.1.1.5,37,-0.090,-0.090,-0.090,0.000,0.000,0.000
1644915541498323968,2022-02-15-08:59:01,10.1.1.5,27,-0.080,-0.080,-0.080,0.000,0.000,0.000
1644915541558600960,2022-02-15-08:59:01,10.1.1.5,36,-0.070,-0.070,-0.070,0.000,0.000,0.000
1644915541598552832,2022-02-15-08:59:01,10.1.1.5,26,-0.060,-0.060,-0.060,0.000,0.000,0.000
1644915541657825024,2022-02-15-08:59:01,10.1.1.5,35,-0.050,-0.050,-0.050,0.000,0.000,0.000
1644915541698401024,2022-02-15-08:59:01,10.1.1.5,25,-0.040,-0.040,-0.040,0.000,0.000,0.000
1644915541758057984,2022-02-15-08:59:01,10.1.1.5,35,-0.030,-0.030,-0.030,0.000,0.000,0.000
1644915541798199808,2022-02-15-08:59:01,10.1.1.5,24,-0.020,-0.020,-0.020,0.000,0.000,0.000
1644915541857949952,2022-02-15-08:59:01,10.1.1.5,34,-0.010,-0.010,-0.010,0.000,0.000,0.000
1644915541898034944,2022-02-15-08:59:01,10.1.1.5,23,0.000,0.000,0.000,0.000,0.000,0.000
1644915541958427904,2022-02-15-08:59:01,10.1.1.5,33,0.010,0.010,0.010,0.000,0.000,0.000
1644915542277982976,2022-02-15-08:59:02,10.1.1.5,29,0.070,0.070,0.070,0.000,0.000,0.000
1644915542338578944,2022-02-15-08:59:02,10.1.1.5,38,0.080,0.080,0.080,0.000,0.000,0.000
1644915542387315968,2022-02-15-08:59:02,10.1.1.5,27,0.090,0.090,0.090,0.000,0.000,0.000
1644915542457828096,2022-02-15-08:59:02,10.1.1.5,1,0.090,0.090,0.090,0.000,0.000,0.000
1644915542738980096,2022-02-15-08:59:02,10.1.1.5,29,0.040,0.040,0.040,0.000,0.000,0.000
1644915542798003968,2022-02-15-08:59:02,10.1.1.5,39,0.030,0.030,0.030,0.000,0.000,0.000
1644915542838334976,2022-02-15-08:59:02,10.1.1.5,28,0.020,0.020,0.020,0.000,0.000,0.000
1644915542898171904,2022-02-15-08:59:02,10.1.1.5,38,0.010,0.010,0.010,0.000,0.000,0.000
1644915542965692928,2022-02-15-08:59:02,10.1.1.5,27,0.000,0.000,0.000,0.000,0.000,0.000
1644915543198178048,2022-02-15-08:59:03,10.1.1.5,30,-0.050,-0.050,-0.050,0.000,0.000,0.000
1644915543258227968,2022-02-15-08:59:03,10.1.1.5,39,-0.060,-0.060,-0.060,0.000,0.000,0.000
1644915543298518784,2022-02-15-08:59:03,10.1.1.5,29,-0.070,-0.070,-0.070,0.000,0.000,0.000
1644915543358726912,2022-02-15-08:59:03,10.1.1.5,37,-0.080,-0.080,-0.080,0.000,0.000,0.000
1644915543398394112,2022-02-15-08:59:03,10.1.1.5,26,-0.090,-0.090,-0.090,0.000,0.000,0.000
1644915543458067968,2022-02-15-08:59:03,10.1.1.5,36,-0.100,-0.100,-0.100,0.000,0.000,0.000
1644915543498590976,2022-02-15-08:59:03,10.1.1.5,25,-0.090,-0.090,-0.090,0.000,0.000,0.000
1644915543557907200,2022-02-15-08:59:03,10.1.1.5,35,-0.080,-0.080,-0.080,0.000,0.000,0.000
1644915543597882880,2022-02-15-08:59:03,10.1.1.5,24,-0.070,-0.070,-0.070,0.000,0.000,0.000
1644915543658546944,2022-02-15-08:59:03,10.1.1.5,34,-0.060,-0.060,-0.060,0.000,0.000,0.000
1644915543698263040,2022-02-15-08:59:03,10.1.1.5,24,-0.050,-0.050,-0.050,0.000,0.000,0.000
1644915543918580992,2022-02-15-08:59:03,10.1.1.5,25,-0.010,-0.010,-0.010,0.000,0.000,0.000
1644915543978548992,2022-02-15-08:59:03,10.1.1.5,35,0.000,0.000,0.000,0.000,0.000,0.000
1644915544178435072,2022-02-15-08:59:04,10.1.1.5,29,0.040,0.040,0.040,0.000,0.000,0.000
1644915544238266112,2022-02-15-08:59:04,10.1.1.5,39,0.050,0.050,0.050,0.000,0.000,0.000
1644915544278992896,2022-02-15-08:59:04,10.1.1.5,26,0.060,0.060,0.060,0.000,0.000,0.000
1644915544338501888,2022-02-15-08:59:04,10.1.1.5,35,0.070,0.070,0.070,0.000,0.000,0.000
1644915544378669056,2022-02-15-08:59:04,10.1.1.5,24,0.080,0.080,0.080,0.000,0.000,0.000
1644915544558355968,2022-02-15-08:59:04,10.1.1.5,1,0.080,0.080,0.080,0.000,0.000,0.000
1644915544698569984,2022-02-15-08:59:04,10.1.1.5,39,0.060,0.060,0.060,0.000,0.000,0.000
1644915544738253056,2022-02-15-08:59:04,10.1.1.5,28,0.050,0.050,0.050,0.000,0.000,0.000
1644915544798782208,2022-02-15-08:59:04,10.1.1.5,37,0.040,0.040,0.040,0.000,0.000,0.000
1644915544838521088,2022-02-15-08:59:04,10.1.1.5,25,0.030,0.030,0.030,0.000,0.000,0.000
1644915544898436096,2022-02-15-08:59:04,10.1.1.5,35,0.020,0.020,0.020,0.000,0.000,0.000
1644915544938784000,2022-02-15-08:59:04,10.1.1.5,24,0.010,0.010,0.010,0.000,0.000,0.000
1644915544998251008,2022-02-15-08:59:04,10.1.1.5,34,0.000,0.000,0.000,0.000,0.000,0.000
1644915545039046912,2022-02-15-08:59:05,10.1.1.5,23,-0.010,-0.010,-0.010,0.000,0.000,0.000
1644915545358108928,2022-02-15-08:59:05,10.1.1.5,39,-0.070,-0.070,-0.070,0.000,0.000,0.000
1644915545398418944,2022-02-15-08:59:05,10.1.1.5,28,-0.080,-0.080,-0.080,0.000,0.000,0.000
1644915545458898176,2022-02-15-08:59:05,10.1.1.5,37,-0.090,-0.090,-0.090,0.000,0.000,0.000
1644915545499387136,2022-02-15-08:59:05,10.1.1.5,26,-0.100,-0.100,-0.100,0.000,0.000,0.000
1644915545558362880,2022-02-15-08:59:05,10.1.1.5,35,-0.090,-0.090,-0.090,0.000,0.000,0.000
1644915545598952960,2022-02-15-08:59:05,10.1.1.5,25,-0.080,-0.080,-0.080,0.000,0.000,0.000
1644915545658422016,2022-02-15-08:59:05,10.1.1.5,34,-0.070,-0.070,-0.070,0.000,0.000,0.000
1644915545918176768,2022-02-15-08:59:05,10.1.1.5,37,-0.020,-0.020,-0.020,0.000,0.000,0.000
1644915545958309888,2022-02-15-08:59:05,10.1.1.5,25,-0.010,-0.010,-0.010,0.000,0.000,0.000
1644915546018369024,2022-02-15-08:59:06,10.1.1.5,35,0.000,0.000,0.000,0.000,0.000,0.000
1644915546058195968,2022-02-15-08:59:06,10.1.1.5,24,0.010,0.010,0.010,0.000,0.000,0.000
1644915546318311936,2022-02-15-08:59:06,10.1.1.5,26,0.060,0.060,0.060,0.000,0.000,0.000
1644915546378793984,2022-02-15-08:59:06,10.1.1.5,35,0.070,0.070,0.070,0.000,0.000,0.000
1644915546418689024,2022-02-15-08:59:06,10.1.1.5,25,0.080,0.080,0.080,0.000,0.000,0.000
1644915546478635008,2022-02-15-08:59:06,10.1.1.5,34,0.090,0.090,0.090,0.000,0.000,0.000
1644915546518395904,2022-02-15-08:59:06,10.1.1.5,23,0.100,0.100,0.100,0.000,0.000,0.000
1644915546578401024,2022-02-15-08:59:06,10.1.1.5,33,0.090,0.090,0.090,0.000,0.000,0.000
1644915546778245888,2022-02-15-08:59:06,10.1.1.5,30,0.050,0.050,0.050,0.000,0.000,0.000
1644915546838191872,2022-02-15-08:59:06,10.1.1.5,39,0.040,0.040,0.040,0.000,0.000,0.000
1644915546878585088,2022-02-15-08:59:06,10.1.1.5,28,0.030,0.030,0.030,0.000,0.000,0.000
1644915546938267904,2022-02-15-08:59:06,10.1.1.5,35,0.020,0.020,0.020,0.000,0.000,0.000
1644915546978262016,2022-02-15-08:59:06,10.1.1.5,25,0.010,0.010,0.010,0.000,0.000,0.000
1644915547038769920,2022-02-15-08:59:07,10.1.1.5,34,0.000,0.000,0.000,0.000,0.000,0.000
1644915547078087936,2022-02-15-08:59:07,10.1.1.5,23,-0.010,-0.010,-0.010,0.000,0.000,0.000
1644915547138516992,2022-02-15-08:59:07,10.1.1.5,33,-0.020,-0.020,-0.020,0.000,0.000,0.000
1644915547338552064,2022-02-15-08:59:07,10.1.1.5,30,-0.060,-0.060,-0.060,0.000,0.000,0.000
1644915547398045952,2022-02-15-08:59:07,10.1.1.5,38,-0.070,-0.070,-0.070,0.000,0.000,0.000
1644915547438553088,2022-02-15-08:59:07,10.1.1.5,27,-0.080,-0.080,-0.080,0.000,0.000,0.000
1644915547498147072,2022-02-15-08:59:07,10.1.1.5,36,-0.090,-0.090,-0.090,0.000,0.000,0.000
1644915547538384896,2022-02-15-08:59:07,10.1.1.5,25,-0.100,-0.100,-0.100,0.000,0.000,0.000
1644915547598479104,2022-02-15-08:59:07,10.1.1.5,34,-0.090,-0.090,-0.090,0.000,0.000,0.000
1644915547638725120,2022-02-15-08:59:07,10.1.1.5,24,-0.080,-0.080,-0.080,0.000,0.000,0.000
1644915547858174976,2022-02-15-08:59:07,10.1.1.5,38,-0.040,-0.040,-0.040,0.000,0.000,0.000
1644915547898526976,2022-02-15-08:59:07,10.1.1.5,28,-0.030,-0.030,-0.030,0.000,0.000,0.000
1644915547959026176,2022-02-15-08:59:07,10.1.1.5,37,-0.020,-0.020,-0.020,0.000,0.000,0.000
1644915547998107904,2022-02-15-08:59:07,10.1.1.5,26,-0.010,-0.010,-0.010,0.000,0.000,0.000
1644915548058914816,2022-02-15-08:59:08,10.1.1.5,35,0.000,0.000,0.000,0.000,0.000,0.000
1644915548098020096,2022-02-15-08:59:08,10.1.1.5,24,0.010,0.010,0.010,0.000,0.000,0.000
1644915548158181888,2022-02-15-08:59:08,10.1.1.5,33,0.020,0.020,0.020,0.000,0.000,0.000
1644915548419060992,2022-02-15-08:59:08,10.1.1.5,39,0.070,0.070,0.070,0.000,0.000,0.000
1644915548458535936,2022-02-15-08:59:08,10.1.1.5,28,0.080,0.080,0.080,0.000,0.000,0.000
1644915548519131904,2022-02-15-08:59:08,10.1.1.5,38,0.090,0.090,0.090,0.000,0.000,0.000
1644915548558726912,2022-02-15-08:59:08,10.1.1.5,26,0.100,0.100,0.100,0.000,0.000,0.000
1644915548619021824,2022-02-15-08:59:08,10.1.1.5,36,0.090,0.090,0.090,0.000,0.000,0.000
1644915548657989120,2022-02-15-08:59:08,10.1.1.5,25,0.080,0.080,0.080,0.000,0.000,0.000
1644915548718363136,2022-02-15-08:59:08,10.1.1.5,35,0.070,0.070,0.070,0.000,0.000,0.000
1644915548758301952,2022-02-15-08:59:08,10.1.1.5,24,0.060,0.060,0.060,0.000,0.000,0.000
1644915548818530048,2022-02-15-08:59:08,10.1.1.5,33,0.050,0.050,0.050,0.000,0.000,0.000
1644915549018852096,2022-02-15-08:59:09,10.1.1.5,29,0.010,0.010,0.010,0.000,0.000,0.000
1644915549077894912,2022-02-15-08:59:09,10.1.1.5,37,0.000,0.000,0.000,0.000,0.000,0.000
1644915549117891072,2022-02-15-08:59:09,10.1.1.5,25,-0.010,-0.010,-0.010,0.000,0.000,0.000
1644915549177725952,2022-02-15-08:59:09,10.1.1.5,34,-0.020,-0.020,-0.020,0.000,0.000,0.000
1644915549218126080,2022-02-15-08:59:09,10.1.1.5,24,-0.030,-0.030,-0.030,0.000,0.000,0.000
1644915549278417152,2022-02-15-08:59:09,10.1.1.5,33,-0.040,-0.040,-0.040,0.000,0.000,0.000
1644915549478286080,2022-02-15-08:59:09,10.1.1.5,27,-0.080,-0.080,-0.080,0.000,0.000,0.000
1644915549658277888,2022-02-15-08:59:09,10.1.1.5,1,-0.080,-0.080,-0.080,0.000,0.000,0.000
1644915549898407936,2022-02-15-08:59:09,10.1.1.5,39,-0.040,-0.040,-0.040,0.000,0.000,0.000
1644915549938252800,2022-02-15-08:59:09,10.1.1.5,28,-0.030,-0.030,-0.030,0.000,0.000,0.000
1644915549999052032,2022-02-15-08:59:09,10.1.1.5,38,-0.020,-0.020,-0.020,0.000,0.000,0.000
1644915550118563840,2022-02-15-08:59:10,10.1.1.5,34,0.000,0.000,0.000,0.000,0.000,0.000
1644915550158108928,2022-02-15-08:59:10,10.1.1.5,23,0.010,0.010,0.010,0.000,0.000,0.000
1644915550218404096,2022-02-15-08:59:10,10.1.1.5,33,0.020,0.020,0.020,0.000,0.000,0.000
1644915550578056960,2022-02-15-08:59:10,10.1.1.5,39,0.090,0.090,0.090,0.000,0.000,0.000
1644915550618854144,2022-02-15-08:59:10,10.1.1.5,28,0.100,0.100,0.100,0.000,0.000,0.000
1644915550678860032,2022-02-15-08:59:10,10.1.1.5,37,0.090,0.090,0.090,0.000,0.000,0.000
1644915550718596096,2022-02-15-08:59:10,10.1.1.5,27,0.080,0.080,0.080,0.000,0.000,0.000
1644915550778775040,2022-02-15-08:59:10,10.1.1.5,36,0.070,0.070,0.070,0.000,0.000,0.000
1644915550818001920,2022-02-15-08:59:10,10.1.1.5,26,0.060,0.060,0.060,0.000,0.000,0.000
1644915550878217984,2022-02-15-08:59:10,10.1.1.5,35,0.050,0.050,0.050,0.000,0.000,0.000
1644915550918550016,2022-02-15-08:59:10,10.1.1.5,25,0.040,0.040,0.040,0.000,0.000,0.000
1644915550978288896,2022-02-15-08:59:10,10.1.1.5,34,0.030,0.030,0.030,0.000,0.000,0.000
1644915551018042112,2022-02-15-08:59:11,10.1.1.5,24,0.020,0.020,0.020,0.000,0.000,0.000
1644915551078178816,2022-02-15-08:59:11,10.1.1.5,33,0.010,0.010,0.010,0.000,0.000,0.000
1644915551417783040,2022-02-15-08:59:11,10.1.1.5,19,-0.060,-0.060,-0.060,0.000,0.000,0.000
1644915551477821952,2022-02-15-08:59:11,10.1.1.5,29,-0.070,-0.070,-0.070,0.000,0.000,0.000
1644915551539045120,2022-02-15-08:59:11,10.1.1.5,39,-0.080,-0.080,-0.080,0.000,0.000,0.000
1644915551586475008,2022-02-15-08:59:11,10.1.1.5,27,-0.090,-0.090,-0.090,0.000,0.000,0.000
1644915551638750976,2022-02-15-08:59:11,10.1.1.5,34,-0.100,-0.100,-0.100,0.000,0.000,0.000
1644915551678531840,2022-02-15-08:59:11,10.1.1.5,23,-0.090,-0.090,-0.090,0.000,0.000,0.000
1644915551997905920,2022-02-15-08:59:11,10.1.1.5,39,-0.030,-0.030,-0.030,0.000,0.000,0.000
1644915552038991872,2022-02-15-08:59:12,10.1.1.5,29,-0.020,-0.020,-0.020,0.000,0.000,0.000
1644915552098361856,2022-02-15-08:59:12,10.1.1.5,38,-0.010,-0.010,-0.010,0.000,0.000,0.000
1644915552138798080,2022-02-15-08:59:12,10.1.1.5,28,0.000,0.000,0.000,0.000,0.000,0.000
1644915552198705920,2022-02-15-08:59:12,10.1.1.5,37,0.010,0.010,0.010,0.000,0.000,0.000
1644915552238568192,2022-02-15-08:59:12,10.1.1.5,27,0.020,0.020,0.020,0.000,0.000,0.000
1644915552298786048,2022-02-15-08:59:12,10.1.1.5,36,0.030,0.030,0.030,0.000,0.000,0.000
1644915552337801984,2022-02-15-08:59:12,10.1.1.5,25,0.040,0.040,0.040,0.000,0.000,0.000
1644915552398916096,2022-02-15-08:59:12,10.1.1.5,35,0.050,0.050,0.050,0.000,0.000,0.000
1644915552438836224,2022-02-15-08:59:12,10.1.1.5,25,0.060,0.060,0.060,0.000,0.000,0.000
1644915552497987072,2022-02-15-08:59:12,10.1.1.5,33,0.070,0.070,0.070,0.000,0.000,0.000
1644915552757720832,2022-02-15-08:59:12,10.1.1.5,20,0.080,0.080,0.080,0.000,0.000,0.000
1644915552817924096,2022-02-15-08:59:12,10.1.1.5,30,0.070,0.070,0.070,0.000,0.000,0.000
1644915552878228992,2022-02-15-08:59:12,10.1.1.5,39,0.060,0.060,0.060,0.000,0.000,0.000
1644915553070544896,2022-02-15-08:59:13,10.1.1.5,34,0.030,0.030,0.030,0.000,0.000,0.000
1644915553538744064,2022-02-15-08:59:13,10.1.1.5,39,-0.060,-0.060,-0.060,0.000,0.000,0.000
1644915553578383872,2022-02-15-08:59:13,10.1.1.5,28,-0.070,-0.070,-0.070,0.000,0.000,0.000
1644915553638505984,2022-02-15-08:59:13,10.1.1.5,37,-0.080,-0.080,-0.080,0.000,0.000,0.000
1644915553678450176,2022-02-15-08:59:13,10.1.1.5,26,-0.090,-0.090,-0.090,0.000,0.000,0.000
1644915553958523136,2022-02-15-08:59:13,10.1.1.5,29,-0.060,-0.060,-0.060,0.000,0.000,0.000
1644915554018407168,2022-02-15-08:59:14,10.1.1.5,37,-0.050,-0.050,-0.050,0.000,0.000,0.000
1644915554058470912,2022-02-15-08:59:14,10.1.1.5,26,-0.040,-0.040,-0.040,0.000,0.000,0.000
1644915554118392064,2022-02-15-08:59:14,10.1.1.5,35,-0.030,-0.030,-0.030,0.000,0.000,0.000
1644915554158329088,2022-02-15-08:59:14,10.1.1.5,24,-0.020,-0.020,-0.020,0.000,0.000,0.000
1644915554218552064,2022-02-15-08:59:14,10.1.1.5,34,-0.010,-0.010,-0.010,0.000,0.000,0.000
1644915554265513984,2022-02-15-08:59:14,10.1.1.5,23,0.000,0.000,0.000,0.000,0.000,0.000
1644915554319315968,2022-02-15-08:59:14,10.1.1.5,26,0.010,0.010,0.010,0.000,0.000,0.000
1644915554378556928,2022-02-15-08:59:14,10.1.1.5,34,0.020,0.020,0.020,0.000,0.000,0.000
1644915554418473984,2022-02-15-08:59:14,10.1.1.5,24,0.030,0.030,0.030,0.000,0.000,0.000
1644915554479380992,2022-02-15-08:59:14,10.1.1.5,34,0.040,0.040,0.040,0.000,0.000,0.000
1644915554578948096,2022-02-15-08:59:14,10.1.1.5,33,0.060,0.060,0.060,0.000,0.000,0.000
1644915554958756864,2022-02-15-08:59:14,10.1.1.5,9,0.060,0.060,0.060,0.000,0.000,0.000
1644915555038291968,2022-02-15-08:59:15,10.1.1.5,39,0.050,0.050,0.050,0.000,0.000,0.000
1644915555079993856,2022-02-15-08:59:15,10.1.1.5,28,0.040,0.040,0.040,0.000,0.000,0.000
1644915555598584832,2022-02-15-08:59:15,10.1.1.5,39,-0.060,-0.060,-0.060,0.000,0.000,0.000
1644915555638052096,2022-02-15-08:59:15,10.1.1.5,29,-0.070,-0.070,-0.070,0.000,0.000,0.000
1644915555697670912,2022-02-15-08:59:15,10.1.1.5,37,-0.080,-0.080,-0.080,0.000,0.000,0.000
1644915555753735168,2022-02-15-08:59:15,10.1.1.5,27,-0.090,-0.090,-0.090,0.000,0.000,0.000
1644915555831817984,2022-02-15-08:59:15,10.1.1.5,-1,-0.090,-0.090,-0.090,0.000,0.000,0.000
1644915555901828096,2022-02-15-08:59:15,10.1.1.5,28,-0.080,-0.080,-0.080,0.000,0.000,0.000
1644915555950676992,2022-02-15-08:59:15,10.1.1.5,20,-0.070,-0.070,-0.070,0.000,0.000,0.000
1644915556158468864,2022-02-15-08:59:16,10.1.1.5,33,-0.030,-0.030,-0.030,0.000,0.000,0.000
1644915556419055104,2022-02-15-08:59:16,10.1.1.5,32,0.020,0.020,0.020,0.000,0.000,0.000
1644915556524701184,2022-02-15-08:59:16,10.1.1.5,30,0.040,0.040,0.040,0.000,0.000,0.000
1644915556620249088,2022-02-15-08:59:16,10.1.1.5,26,0.060,0.060,0.060,0.000,0.000,0.000
1644915556878209024,2022-02-15-08:59:16,10.1.1.5,27,0.090,0.090,0.090,0.000,0.000,0.000
1644915557143709952,2022-02-15-08:59:17,10.1.1.5,32,0.040,0.040,0.040,0.000,0.000,0.000
1644915557246441984,2022-02-15-08:59:17,10.1.1.5,33,0.020,0.020,0.020,0.000,0.000,0.000
1644915557300626944,2022-02-15-08:59:17,10.1.1.5,37,0.010,0.010,0.010,0.000,0.000,0.000
1644915557338769920,2022-02-15-08:59:17,10.1.1.5,27,0.000,0.000,0.000,0.000,0.000,0.000
1644915557399501056,2022-02-15-08:59:17,10.1.1.5,37,-0.010,-0.010,-0.010,0.000,0.000,0.000
1644915557438004992,2022-02-15-08:59:17,10.1.1.5,25,-0.020,-0.020,-0.020,0.000,0.000,0.000
1644915557499718912,2022-02-15-08:59:17,10.1.1.5,35,-0.030,-0.030,-0.030,0.000,0.000,0.000
1644915557538832896,2022-02-15-08:59:17,10.1.1.5,24,-0.040,-0.040,-0.040,0.000,0.000,0.000
1644915557598743808,2022-02-15-08:59:17,10.1.1.5,34,-0.050,-0.050,-0.050,0.000,0.000,0.000
1644915557641331968,2022-02-15-08:59:17,10.1.1.5,26,-0.060,-0.060,-0.060,0.000,0.000,0.000
1644915557698332160,2022-02-15-08:59:17,10.1.1.5,33,-0.070,-0.070,-0.070,0.000,0.000,0.000
1644915557958754048,2022-02-15-08:59:17,10.1.1.5,36,-0.080,-0.080,-0.080,0.000,0.000,0.000
1644915557998304000,2022-02-15-08:59:17,10.1.1.5,26,-0.070,-0.070,-0.070,0.000,0.000,0.000
1644915558058116864,2022-02-15-08:59:18,10.1.1.5,35,-0.060,-0.060,-0.060,0.000,0.000,0.000
1644915558099049984,2022-02-15-08:59:18,10.1.1.5,25,-0.050,-0.050,-0.050,0.000,0.000,0.000
1644915558158211072,2022-02-15-08:59:18,10.1.1.5,33,-0.040,-0.040,-0.040,0.000,0.000,0.000
1644915558198565888,2022-02-15-08:59:18,10.1.1.5,23,-0.030,-0.030,-0.030,0.000,0.000,0.000
1644915558358266112,2022-02-15-08:59:18,10.1.1.5,28,0.000,0.000,0.000,0.000,0.000,0.000
1644915558418606080,2022-02-15-08:59:18,10.1.1.5,37,0.010,0.010,0.010,0.000,0.000,0.000
1644915558458155008,2022-02-15-08:59:18,10.1.1.5,26,0.020,0.020,0.020,0.000,0.000,0.000
1644915558518202112,2022-02-15-08:59:18,10.1.1.5,36,0.030,0.030,0.030,0.000,0.000,0.000
1644915558558188800,2022-02-15-08:59:18,10.1.1.5,25,0.040,0.040,0.040,0.000,0.000,0.000
1644915558618010112,2022-02-15-08:59:18,10.1.1.5,34,0.050,0.050,0.050,0.000,0.000,0.000
1644915558918607104,2022-02-15-08:59:18,10.1.1.5,28,0.090,0.090,0.090,0.000,0.000,0.000
1644915558977981952,2022-02-15-08:59:18,10.1.1.5,35,0.080,0.080,0.080,0.000,0.000,0.000
1644915559018420992,2022-02-15-08:59:19,10.1.1.5,25,0.070,0.070,0.070,0.000,0.000,0.000
1644915559078407168,2022-02-15-08:59:19,10.1.1.5,33,0.060,0.060,0.060,0.000,0.000,0.000
1644915559118580992,2022-02-15-08:59:19,10.1.1.5,23,0.050,0.050,0.050,0.000,0.000,0.000
1644915559378500096,2022-02-15-08:59:19,10.1.1.5,29,0.000,0.000,0.000,0.000,0.000,0.000
1644915559438575872,2022-02-15-08:59:19,10.1.1.5,38,-0.010,-0.010,-0.010,0.000,0.000,0.000
1644915559479144192,2022-02-15-08:59:19,10.1.1.5,27,-0.020,-0.020,-0.020,0.000,0.000,0.000
1644915559538330112,2022-02-15-08:59:19,10.1.1.5,37,-0.030,-0.030,-0.030,0.000,0.000,0.000
1644915559578422016,2022-02-15-08:59:19,10.1.1.5,26,-0.040,-0.040,-0.040,0.000,0.000,0.000
1644915559638544128,2022-02-15-08:59:19,10.1.1.5,36,-0.050,-0.050,-0.050,0.000,0.000,0.000
1644915559678904064,2022-02-15-08:59:19,10.1.1.5,25,-0.060,-0.060,-0.060,0.000,0.000,0.000
1644915559738797056,2022-02-15-08:59:19,10.1.1.5,33,-0.070,-0.070,-0.070,0.000,0.000,0.000
1644915559938169088,2022-02-15-08:59:19,10.1.1.5,30,-0.090,-0.090,-0.090,0.000,0.000,0.000
1644915559997842944,2022-02-15-08:59:19,10.1.1.5,39,-0.080,-0.080,-0.080,0.000,0.000,0.000
1644915560037945088,2022-02-15-08:59:20,10.1.1.5,28,-0.070,-0.070,-0.070,0.000,0.000,0.000
1644915560097958144,2022-02-15-08:59:20,10.1.1.5,36,-0.060,-0.060,-0.060,0.000,0.000,0.000
1644915560138304000,2022-02-15-08:59:20,10.1.1.5,25,-0.050,-0.050,-0.050,0.000,0.000,0.000
1644915560199493888,2022-02-15-08:59:20,10.1.1.5,34,-0.040,-0.040,-0.040,0.000,0.000,0.000
1644915560238003968,2022-02-15-08:59:20,10.1.1.5,23,-0.030,-0.030,-0.030,0.000,0.000,0.000
1644915560458633984,2022-02-15-08:59:20,10.1.1.5,34,0.010,0.010,0.010,0.000,0.000,0.000
1644915560498616832,2022-02-15-08:59:20,10.1.1.5,24,0.020,0.020,0.020,0.000,0.000,0.000
1644915560658247936,2022-02-15-08:59:20,10.1.1.5,29,0.050,0.050,0.050,0.000,0.000,0.000
1644915560718283776,2022-02-15-08:59:20,10.1.1.5,34,0.060,0.060,0.060,0.000,0.000,0.000
1644915560758949120,2022-02-15-08:59:20,10.1.1.5,23,0.070,0.070,0.070,0.000,0.000,0.000
1644915560918327040,2022-02-15-08:59:20,10.1.1.5,23,0.100,0.100,0.100,0.000,0.000,0.000
1644915561078649088,2022-02-15-08:59:21,10.1.1.5,29,0.070,0.070,0.070,0.000,0.000,0.000
1644915561138504960,2022-02-15-08:59:21,10.1.1.5,36,0.060,0.060,0.060,0.000,0.000,0.000
1644915561178765056,2022-02-15-08:59:21,10.1.1.5,26,0.050,0.050,0.050,0.000,0.000,0.000
1644915561238365952,2022-02-15-08:59:21,10.1.1.5,34,0.040,0.040,0.040,0.000,0.000,0.000
1644915561398152192,2022-02-15-08:59:21,10.1.1.5,39,0.010,0.010,0.010,0.000,0.000,0.000
1644915561438327040,2022-02-15-08:59:21,10.1.1.5,28,0.000,0.000,0.000,0.000,0.000,0.000
1644915561718599168,2022-02-15-08:59:21,10.1.1.5,29,-0.050,-0.050,-0.050,0.000,0.000,0.000
1644915561778091008,2022-02-15-08:59:21,10.1.1.5,39,-0.060,-0.060,-0.060,0.000,0.000,0.000
1644915561818147072,2022-02-15-08:59:21,10.1.1.5,28,-0.070,-0.070,-0.070,0.000,0.000,0.000
1644915561878022912,2022-02-15-08:59:21,10.1.1.5,36,-0.080,-0.080,-0.080,0.000,0.000,0.000
1644915561918562816,2022-02-15-08:59:21,10.1.1.5,24,-0.090,-0.090,-0.090,0.000,0.000,0.000
1644915561978244096,2022-02-15-08:59:21,10.1.1.5,33,-0.100,-0.100,-0.100,0.000,0.000,0.000
1644915562137892864,2022-02-15-08:59:22,10.1.1.5,38,-0.070,-0.070,-0.070,0.000,0.000,0.000
1644915562178256896,2022-02-15-08:59:22,10.1.1.5,27,-0.060,-0.060,-0.060,0.000,0.000,0.000
1644915562238174976,2022-02-15-08:59:22,10.1.1.5,37,-0.050,-0.050,-0.050,0.000,0.000,0.000
1644915562278028032,2022-02-15-08:59:22,10.1.1.5,26,-0.040,-0.040,-0.040,0.000,0.000,0.000
1644915562338077184,2022-02-15-08:59:22,10.1.1.5,36,-0.030,-0.030,-0.030,0.000,0.000,0.000
1644915562378430976,2022-02-15-08:59:22,10.1.1.5,25,-0.020,-0.020,-0.020,0.000,0.000,0.000
1644915562538126080,2022-02-15-08:59:22,10.1.1.5,29,0.010,0.010,0.010,0.000,0.000,0.000
1644915562598164992,2022-02-15-08:59:22,10.1.1.5,38,0.020,0.020,0.020,0.000,0.000,0.000
1644915562638316032,2022-02-15-08:59:22,10.1.1.5,27,0.030,0.030,0.030,0.000,0.000,0.000
1644915562698196992,2022-02-15-08:59:22,10.1.1.5,36,0.040,0.040,0.040,0.000,0.000,0.000
1644915562738221056,2022-02-15-08:59:22,10.1.1.5,25,0.050,0.050,0.050,0.000,0.000,0.000
1644915562798459904,2022-02-15-08:59:22,10.1.1.5,34,0.060,0.060,0.060,0.000,0.000,0.000
1644915562837865984,2022-02-15-08:59:22,10.1.1.5,23,0.070,0.070,0.070,0.000,0.000,0.000
1644915562898518016,2022-02-15-08:59:22,10.1.1.5,33,0.080,0.080,0.080,0.000,0.000,0.000
1644915563037966080,2022-02-15-08:59:23,10.1.1.5,20,0.090,0.090,0.090,0.000,0.000,0.000
1644915563097976832,2022-02-15-08:59:23,10.1.1.5,29,0.080,0.080,0.080,0.000,0.000,0.000
1644915563198158080,2022-02-15-08:59:23,10.1.1.5,28,0.060,0.060,0.060,0.000,0.000,0.000
1644915563261796864,2022-02-15-08:59:23,10.1.1.5,36,0.050,0.050,0.050,0.000,0.000,0.000
1644915563518670080,2022-02-15-08:59:23,10.1.1.5,39,0.000,0.000,0.000,0.000,0.000,0.000
1644915563558100992,2022-02-15-08:59:23,10.1.1.5,28,-0.010,-0.010,-0.010,0.000,0.000,0.000
1644915563618899200,2022-02-15-08:59:23,10.1.1.5,38,-0.020,-0.020,-0.020,0.000,0.000,0.000
1644915563658222080,2022-02-15-08:59:23,10.1.1.5,27,-0.030,-0.030,-0.030,0.000,0.000,0.000
1644915563839654912,2022-02-15-08:59:23,10.1.1.5,19,-0.060,-0.060,-0.060,0.000,0.000,0.000
1644915563898758912,2022-02-15-08:59:23,10.1.1.5,29,-0.070,-0.070,-0.070,0.000,0.000,0.000
1644915563963924992,2022-02-15-08:59:23,10.1.1.5,38,-0.080,-0.080,-0.080,0.000,0.000,0.000
1644915563998292992,2022-02-15-08:59:23,10.1.1.5,28,-0.090,-0.090,-0.090,0.000,0.000,0.000
1644915564060550912,2022-02-15-08:59:24,10.1.1.5,36,-0.100,-0.100,-0.100,0.000,0.000,0.000
1644915564258290944,2022-02-15-08:59:24,10.1.1.5,29,-0.060,-0.060,-0.060,0.000,0.000,0.000
1644915564319250944,2022-02-15-08:59:24,10.1.1.5,39,-0.050,-0.050,-0.050,0.000,0.000,0.000
1644915564357999104,2022-02-15-08:59:24,10.1.1.5,28,-0.040,-0.040,-0.040,0.000,0.000,0.000
1644915564419225856,2022-02-15-08:59:24,10.1.1.5,38,-0.030,-0.030,-0.030,0.000,0.000,0.000
1644915564458586880,2022-02-15-08:59:24,10.1.1.5,27,-0.020,-0.020,-0.020,0.000,0.000,0.000
1644915564518283008,2022-02-15-08:59:24,10.1.1.5,36,-0.010,-0.010,-0.010,0.000,0.000,0.000
1644915564558092032,2022-02-15-08:59:24,10.1.1.5,25,0.000,0.000,0.000,0.000,0.000,0.000
1644915564618386944,2022-02-15-08:59:24,10.1.1.5,35,0.010,0.010,0.010,0.000,0.000,0.000
1644915564657715200,2022-02-15-08:59:24,10.1.1.5,24,0.020,0.020,0.020,0.000,0.000,0.000
1644915564718012928,2022-02-15-08:59:24,10.1.1.5,34,0.030,0.030,0.030,0.000,0.000,0.000
1644915564758294016,2022-02-15-08:59:24,10.1.1.5,23,0.040,0.040,0.040,0.000,0.000,0.000
1644915564928062976,2022-02-15-08:59:24,10.1.1.5,25,0.070,0.070,0.070,0.000,0.000,0.000
1644915564978200832,2022-02-15-08:59:24,10.1.1.5,33,0.080,0.080,0.080,0.000,0.000,0.000
1644915565158238976,2022-02-15-08:59:25,10.1.1.5,11,0.080,0.080,0.080,0.000,0.000,0.000
1644915565278403072,2022-02-15-08:59:25,10.1.1.5,29,0.060,0.060,0.060,0.000,0.000,0.000
1644915565338099968,2022-02-15-08:59:25,10.1.1.5,39,0.050,0.050,0.050,0.000,0.000,0.000
1644915565379692032,2022-02-15-08:59:25,10.1.1.5,28,0.040,0.040,0.040,0.000,0.000,0.000
1644915565579632128,2022-02-15-08:59:25,10.1.1.5,25,0.010,0.010,0.010,0.000,0.000,0.000
1644915565638833920,2022-02-15-08:59:25,10.1.1.5,34,0.000,0.000,0.000,0.000,0.000,0.000
1644915565998459136,2022-02-15-08:59:25,10.1.1.5,23,-0.070,-0.070,-0.070,0.000,0.000,0.000
1644915566237807872,2022-02-15-08:59:26,10.1.1.5,35,-0.090,-0.090,-0.090,0.000,0.000,0.000
1644915566277882112,2022-02-15-08:59:26,10.1.1.5,25,-0.080,-0.080,-0.080,0.000,0.000,0.000
1644915566398108928,2022-02-15-08:59:26,10.1.1.5,34,-0.060,-0.060,-0.060,0.000,0.000,0.000
1644915566437916928,2022-02-15-08:59:26,10.1.1.5,24,-0.050,-0.050,-0.050,0.000,0.000,0.000
1644915566498274048,2022-02-15-08:59:26,10.1.1.5,28,-0.040,-0.040,-0.040,0.000,0.000,0.000
1644915566657838080,2022-02-15-08:59:26,10.1.1.5,37,-0.010,-0.010,-0.010,0.000,0.000,0.000
1644915566698206976,2022-02-15-08:59:26,10.1.1.5,26,0.000,0.000,0.000,0.000,0.000,0.000
1644915566765819136,2022-02-15-08:59:26,10.1.1.5,35,0.010,0.010,0.010,0.000,0.000,0.000
1644915566798500096,2022-02-15-08:59:26,10.1.1.5,24,0.020,0.020,0.020,0.000,0.000,0.000
1644915567118173952,2022-02-15-08:59:27,10.1.1.5,39,0.080,0.080,0.080,0.000,0.000,0.000
1644915567157740032,2022-02-15-08:59:27,10.1.1.5,29,0.090,0.090,0.090,0.000,0.000,0.000
1644915567218779136,2022-02-15-08:59:27,10.1.1.5,38,0.100,0.100,0.100,0.000,0.000,0.000
1644915567258616832,2022-02-15-08:59:27,10.1.1.5,27,0.090,0.090,0.090,0.000,0.000,0.000
1644915567318171904,2022-02-15-08:59:27,10.1.1.5,37,0.080,0.080,0.080,0.000,0.000,0.000
1644915567358822144,2022-02-15-08:59:27,10.1.1.5,27,0.070,0.070,0.070,0.000,0.000,0.000
1644915567422684928,2022-02-15-08:59:27,10.1.1.5,36,0.060,0.060,0.060,0.000,0.000,0.000
1644915567457686784,2022-02-15-08:59:27,10.1.1.5,26,0.050,0.050,0.050,0.000,0.000,0.000
1644915567518467840,2022-02-15-08:59:27,10.1.1.5,34,0.040,0.040,0.040,0.000,0.000,0.000
1644915567558259968,2022-02-15-08:59:27,10.1.1.5,23,0.030,0.030,0.030,0.000,0.000,0.000
1644915567837651968,2022-02-15-08:59:27,10.1.1.5,29,-0.020,-0.020,-0.020,0.000,0.000,0.000
1644915567878057984,2022-02-15-08:59:27,10.1.1.5,38,-0.030,-0.030,-0.030,0.000,0.000,0.000
1644915567979019008,2022-02-15-08:59:27,10.1.1.5,24,-0.050,-0.050,-0.050,0.000,0.000,0.000
1644915568039859968,2022-02-15-08:59:28,10.1.1.5,33,-0.060,-0.060,-0.060,0.000,0.000,0.000
1644915568164727040,2022-02-15-08:59:28,10.1.1.5,29,-0.080,-0.080,-0.080,0.000,0.000,0.000
1644915568218124032,2022-02-15-08:59:28,10.1.1.5,38,-0.090,-0.090,-0.090,0.000,0.000,0.000
1644915568258501888,2022-02-15-08:59:28,10.1.1.5,27,-0.100,-0.100,-0.100,0.000,0.000,0.000
1644915568318279936,2022-02-15-08:59:28,10.1.1.5,36,-0.090,-0.090,-0.090,0.000,0.000,0.000
1644915568358094080,2022-02-15-08:59:28,10.1.1.5,25,-0.080,-0.080,-0.080,0.000,0.000,0.000
1644915568418951936,2022-02-15-08:59:28,10.1.1.5,34,-0.070,-0.070,-0.070,0.000,0.000,0.000
1644915568738061056,2022-02-15-08:59:28,10.1.1.5,39,-0.010,-0.010,-0.010,0.000,0.000,0.000
1644915568779116032,2022-02-15-08:59:28,10.1.1.5,28,0.000,0.000,0.000,0.000,0.000,0.000
1644915568838426112,2022-02-15-08:59:28,10.1.1.5,37,0.010,0.010,0.010,0.000,0.000,0.000
1644915568878519040,2022-02-15-08:59:28,10.1.1.5,26,0.020,0.020,0.020,0.000,0.000,0.000
1644915569198082048,2022-02-15-08:59:29,10.1.1.5,39,0.080,0.080,0.080,0.000,0.000,0.000
1644915569238137088,2022-02-15-08:59:29,10.1.1.5,29,0.090,0.090,0.090,0.000,0.000,0.000
1644915569303942912,2022-02-15-08:59:29,10.1.1.5,35,0.100,0.100,0.100,0.000,0.000,0.000
1644915569338781952,2022-02-15-08:59:29,10.1.1.5,24,0.090,0.090,0.090,0.000,0.000,0.000
1644915569398029056,2022-02-15-08:59:29,10.1.1.5,34,0.080,0.080,0.080,0.000,0.000,0.000
1644915569557931776,2022-02-15-08:59:29,10.1.1.5,34,0.050,0.050,0.050,0.000,0.000,0.000
1644915569818641920,2022-02-15-08:59:29,10.1.1.5,33,0.000,0.000,0.000,0.000,0.000,0.000
1644915569978066944,2022-02-15-08:59:29,10.1.1.5,38,-0.030,-0.030,-0.030,0.000,0.000,0.000
1644915570018317824,2022-02-15-08:59:30,10.1.1.5,24,-0.040,-0.040,-0.040,0.000,0.000,0.000
1644915570277826048,2022-02-15-08:59:30,10.1.1.5,29,-0.090,-0.090,-0.090,0.000,0.000,0.000
1644915570338259968,2022-02-15-08:59:30,10.1.1.5,38,-0.100,-0.100,-0.100,0.000,0.000,0.000
1644915570378080000,2022-02-15-08:59:30,10.1.1.5,26,-0.090,-0.090,-0.090,0.000,0.000,0.000
1644915570438187008,2022-02-15-08:59:30,10.1.1.5,35,-0.080,-0.080,-0.080,0.000,0.000,0.000
1644915570477800960,2022-02-15-08:59:30,10.1.1.5,25,-0.070,-0.070,-0.070,0.000,0.000,0.000
1644915570538285056,2022-02-15-08:59:30,10.1.1.5,34,-0.060,-0.060,-0.060,0.000,0.000,0.000
1644915570578116864,2022-02-15-08:59:30,10.1.1.5,23,-0.050,-0.050,-0.050,0.000,0.000,0.000
1644915570738936064,2022-02-15-08:59:30,10.1.1.5,29,-0.020,-0.020,-0.020,0.000,0.000,0.000
1644915570798452992,2022-02-15-08:59:30,10.1.1.5,37,-0.010,-0.010,-0.010,0.000,0.000,0.000
1644915570838450944,2022-02-15-08:59:30,10.1.1.5,26,0.000,0.000,0.000,0.000,0.000,0.000
1644915570898329088,2022-02-15-08:59:30,10.1.1.5,36,0.010,0.010,0.010,0.000,0.000,0.000
1644915570938353920,2022-02-15-08:59:30,10.1.1.5,25,0.020,0.020,0.020,0.000,0.000,0.000
1644915570998354944,2022-02-15-08:59:30,10.1.1.5,34,0.030,0.030,0.030,0.000,0.000,0.000
1644915571098486016,2022-02-15-08:59:31,10.1.1.5,25,0.050,0.050,0.050,0.000,0.000,0.000
1644915571158561024,2022-02-15-08:59:31,10.1.1.5,34,0.060,0.060,0.060,0.000,0.000,0.000
1644915571358342912,2022-02-15-08:59:31,10.1.1.5,25,0.100,0.100,0.100,0.000,0.000,0.000
1644915571422085888,2022-02-15-08:59:31,10.1.1.5,35,0.090,0.090,0.090,0.000,0.000,0.000
1644915571458058240,2022-02-15-08:59:31,10.1.1.5,25,0.080,0.080,0.080,0.000,0.000,0.000
1644915571519584000,2022-02-15-08:59:31,10.1.1.5,34,0.070,0.070,0.070,0.000,0.000,0.000
1644915571618675968,2022-02-15-08:59:31,10.1.1.5,25,0.050,0.050,0.050,0.000,0.000,0.000
1644915571677993984,2022-02-15-08:59:31,10.1.1.5,35,0.040,0.040,0.040,0.000,0.000,0.000
1644915571718398976,2022-02-15-08:59:31,10.1.1.5,25,0.030,0.030,0.030,0.000,0.000,0.000
1644915571778744832,2022-02-15-08:59:31,10.1.1.5,34,0.020,0.020,0.020,0.000,0.000,0.000
1644915571818136832,2022-02-15-08:59:31,10.1.1.5,23,0.010,0.010,0.010,0.000,0.000,0.000
1644915572038027008,2022-02-15-08:59:32,10.1.1.5,39,-0.030,-0.030,-0.030,0.000,0.000,0.000
1644915572078537984,2022-02-15-08:59:32,10.1.1.5,28,-0.040,-0.040,-0.040,0.000,0.000,0.000
1644915572138362880,2022-02-15-08:59:32,10.1.1.5,38,-0.050,-0.050,-0.050,0.000,0.000,0.000
1644915572179110144,2022-02-15-08:59:32,10.1.1.5,27,-0.060,-0.060,-0.060,0.000,0.000,0.000
1644915572238569984,2022-02-15-08:59:32,10.1.1.5,37,-0.070,-0.070,-0.070,0.000,0.000,0.000
1644915572279206144,2022-02-15-08:59:32,10.1.1.5,26,-0.080,-0.080,-0.080,0.000,0.000,0.000
1644915572338757120,2022-02-15-08:59:32,10.1.1.5,36,-0.090,-0.090,-0.090,0.000,0.000,0.000
1644915572378654976,2022-02-15-08:59:32,10.1.1.5,25,-0.100,-0.100,-0.100,0.000,0.000,0.000
1644915572438317056,2022-02-15-08:59:32,10.1.1.5,35,-0.090,-0.090,-0.090,0.000,0.000,0.000
1644915572478374912,2022-02-15-08:59:32,10.1.1.5,25,-0.080,-0.080,-0.080,0.000,0.000,0.000
1644915572539486976,2022-02-15-08:59:32,10.1.1.5,33,-0.070,-0.070,-0.070,0.000,0.000,0.000
1644915572698565888,2022-02-15-08:59:32,10.1.1.5,29,-0.040,-0.040,-0.040,0.000,0.000,0.000
1644915572758394112,2022-02-15-08:59:32,10.1.1.5,39,-0.030,-0.030,-0.030,0.000,0.000,0.000
1644915572799036928,2022-02-15-08:59:32,10.1.1.5,29,-0.020,-0.020,-0.020,0.000,0.000,0.000
1644915572861648128,2022-02-15-08:59:32,10.1.1.5,36,-0.010,-0.010,-0.010,0.000,0.000,0.000
1644915573066884096,2022-02-15-08:59:33,10.1.1.5,29,0.030,0.030,0.030,0.000,0.000,0.000
1644915573130237184,2022-02-15-08:59:33,10.1.1.5,36,0.040,0.040,0.040,0.000,0.000,0.000
1644915573178319872,2022-02-15-08:59:33,10.1.1.5,28,0.050,0.050,0.050,0.000,0.000,0.000
1644915573238082816,2022-02-15-08:59:33,10.1.1.5,38,0.060,0.060,0.060,0.000,0.000,0.000
1644915573278529024,2022-02-15-08:59:33,10.1.1.5,27,0.070,0.070,0.070,0.000,0.000,0.000
1644915573338507776,2022-02-15-08:59:33,10.1.1.5,37,0.080,0.080,0.080,0.000,0.000,0.000
1644915573377948160,2022-02-15-08:59:33,10.1.1.5,26,0.090,0.090,0.090,0.000,0.000,0.000
1644915573438166016,2022-02-15-08:59:33,10.1.1.5,35,0.100,0.100,0.100,0.000,0.000,0.000
1644915573498023936,2022-02-15-08:59:33,10.1.1.5,39,0.090,0.090,0.090,0.000,0.000,0.000
1644915573538144000,2022-02-15-08:59:33,10.1.1.5,27,0.080,0.080,0.080,0.000,0.000,0.000
1644915573599788032,2022-02-15-08:59:33,10.1.1.5,36,0.070,0.070,0.070,0.000,0.000,0.000
1644915573638744064,2022-02-15-08:59:33,10.1.1.5,26,0.060,0.060,0.060,0.000,0.000,0.000
1644915573698744064,2022-02-15-08:59:33,10.1.1.5,35,0.050,0.050,0.050,0.000,0.000,0.000
1644915573738068224,2022-02-15-08:59:33,10.1.1.5,23,0.040,0.040,0.040,0.000,0.000,0.000
1644915573997883136,2022-02-15-08:59:33,10.1.1.5,30,-0.010,-0.010,-0.010,0.000,0.000,0.000
1644915574057854976,2022-02-15-08:59:34,10.1.1.5,39,-0.020,-0.020,-0.020,0.000,0.000,0.000
1644915574098358016,2022-02-15-08:59:34,10.1.1.5,28,-0.030,-0.030,-0.030,0.000,0.000,0.000
1644915574157928960,2022-02-15-08:59:34,10.1.1.5,38,-0.040,-0.040,-0.040,0.000,0.000,0.000
1644915574198643968,2022-02-15-08:59:34,10.1.1.5,23,-0.050,-0.050,-0.050,0.000,0.000,0.000
1644915574458120960,2022-02-15-08:59:34,10.1.1.5,29,-0.100,-0.100,-0.100,0.000,0.000,0.000
1644915574518625024,2022-02-15-08:59:34,10.1.1.5,38,-0.090,-0.090,-0.090,0.000,0.000,0.000
1644915574558660864,2022-02-15-08:59:34,10.1.1.5,28,-0.080,-0.080,-0.080,0.000,0.000,0.000
1644915574617947136,2022-02-15-08:59:34,10.1.1.5,37,-0.070,-0.070,-0.070,0.000,0.000,0.000
1644915574658308096,2022-02-15-08:59:34,10.1.1.5,26,-0.060,-0.060,-0.060,0.000,0.000,0.000
1644915574718221056,2022-02-15-08:59:34,10.1.1.5,35,-0.050,-0.050,-0.050,0.000,0.000,0.000
1644915574758588160,2022-02-15-08:59:34,10.1.1.5,24,-0.040,-0.040,-0.040,0.000,0.000,0.000
1644915575017963008,2022-02-15-08:59:35,10.1.1.5,29,0.010,0.010,0.010,0.000,0.000,0.000
1644915575077837824,2022-02-15-08:59:35,10.1.1.5,39,0.020,0.020,0.020,0.000,0.000,0.000
1644915575118333952,2022-02-15-08:59:35,10.1.1.5,28,0.030,0.030,0.030,0.000,0.000,0.000
1644915575178489088,2022-02-15-08:59:35,10.1.1.5,37,0.040,0.040,0.040,0.000,0.000,0.000
1644915575242022144,2022-02-15-08:59:35,10.1.1.5,26,0.050,0.050,0.050,0.000,0.000,0.000
1644915575279046144,2022-02-15-08:59:35,10.1.1.5,33,0.060,0.060,0.060,0.000,0.000,0.000
1644915575597959936,2022-02-15-08:59:35,10.1.1.5,39,0.080,0.080,0.080,0.000,0.000,0.000
1644915575638483968,2022-02-15-08:59:35,10.1.1.5,28,0.070,0.070,0.070,0.000,0.000,0.000
1644915575957786112,2022-02-15-08:59:35,10.1.1.5,39,0.010,0.010,0.010,0.000,0.000,0.000
1644915575998027008,2022-02-15-08:59:35,10.1.1.5,28,0.000,0.000,0.000,0.000,0.000,0.000
1644915576058223104,2022-02-15-08:59:36,10.1.1.5,36,-0.010,-0.010,-0.010,0.000,0.000,0.000
1644915576098142976,2022-02-15-08:59:36,10.1.1.5,25,-0.020,-0.020,-0.020,0.000,0.000,0.000
1644915576158313984,2022-02-15-08:59:36,10.1.1.5,35,-0.030,-0.030,-0.030,0.000,0.000,0.000
1644915576198156032,2022-02-15-08:59:36,10.1.1.5,24,-0.040,-0.040,-0.040,0.000,0.000,0.000
1644915576258213120,2022-02-15-08:59:36,10.1.1.5,34,-0.050,-0.050,-0.050,0.000,0.000,0.000
1644915576297814016,2022-02-15-08:59:36,10.1.1.5,24,-0.060,-0.060,-0.060,0.000,0.000,0.000
1644915576358247936,2022-02-15-08:59:36,10.1.1.5,33,-0.070,-0.070,-0.070,0.000,0.000,0.000
1644915576558630912,2022-02-15-08:59:36,10.1.1.5,29,-0.090,-0.090,-0.090,0.000,0.000,0.000
1644915576618489088,2022-02-15-08:59:36,10.1.1.5,39,-0.080,-0.080,-0.080,0.000,0.000,0.000
1644915576658419968,2022-02-15-08:59:36,10.1.1.5,28,-0.070,-0.070,-0.070,0.000,0.000,0.000
1644915576717905152,2022-02-15-08:59:36,10.1.1.5,37,-0.060,-0.060,-0.060,0.000,0.000,0.000
1644915576758351104,2022-02-15-08:59:36,10.1.1.5,26,-0.050,-0.050,-0.050,0.000,0.000,0.000
1644915576818232064,2022-02-15-08:59:36,10.1.1.5,35,-0.040,-0.040,-0.040,0.000,0.000,0.000
1644915576858159104,2022-02-15-08:59:36,10.1.1.5,25,-0.030,-0.030,-0.030,0.000,0.000,0.000
1644915577019606016,2022-02-15-08:59:37,10.1.1.5,28,0.000,0.000,0.000,0.000,0.000,0.000
1644915577078515968,2022-02-15-08:59:37,10.1.1.5,37,0.010,0.010,0.010,0.000,0.000,0.000
1644915577117969920,2022-02-15-08:59:37,10.1.1.5,25,0.020,0.020,0.020,0.000,0.000,0.000
1644915577178912000,2022-02-15-08:59:37,10.1.1.5,34,0.030,0.030,0.030,0.000,0.000,0.000
1644915577219014912,2022-02-15-08:59:37,10.1.1.5,23,0.040,0.040,0.040,0.000,0.000,0.000
1644915577378670080,2022-02-15-08:59:37,10.1.1.5,29,0.070,0.070,0.070,0.000,0.000,0.000
1644915577438620928,2022-02-15-08:59:37,10.1.1.5,38,0.080,0.080,0.080,0.000,0.000,0.000
1644915577478749952,2022-02-15-08:59:37,10.1.1.5,27,0.090,0.090,0.090,0.000,0.000,0.000
1644915577558865152,2022-02-15-08:59:37,10.1.1.5,0,0.090,0.090,0.090,0.000,0.000,0.000
1644915577698259200,2022-02-15-08:59:37,10.1.1.5,39,0.070,0.070,0.070,0.000,0.000,0.000
1644915577738467840,2022-02-15-08:59:37,10.1.1.5,28,0.060,0.060,0.060,0.000,0.000,0.000
1644915577798696960,2022-02-15-08:59:37,10.1.1.5,38,0.050,0.050,0.050,0.000,0.000,0.000
1644915577837867008,2022-02-15-08:59:37,10.1.1.5,26,0.040,0.040,0.040,0.000,0.000,0.000
1644915577898327040,2022-02-15-08:59:37,10.1.1.5,34,0.030,0.030,0.030,0.000,0.000,0.000
1644915578078136064,2022-02-15-08:59:38,10.1.1.5,39,0.000,0.000,0.000,0.000,0.000,0.000
1644915578118464000,2022-02-15-08:59:38,10.1.1.5,28,-0.010,-0.010,-0.010,0.000,0.000,0.000
1644915578179197952,2022-02-15-08:59:38,10.1.1.5,37,-0.020,-0.020,-0.020,0.000,0.000,0.000
1644915578218477056,2022-02-15-08:59:38,10.1.1.5,26,-0.030,-0.030,-0.030,0.000,0.000,0.000
1644915578278369024,2022-02-15-08:59:38,10.1.1.5,35,-0.040,-0.040,-0.040,0.000,0.000,0.000
1644915578318408960,2022-02-15-08:59:38,10.1.1.5,24,-0.050,-0.050,-0.050,0.000,0.000,0.000
1644915578538142976,2022-02-15-08:59:38,10.1.1.5,39,-0.090,-0.090,-0.090,0.000,0.000,0.000
1644915578578912000,2022-02-15-08:59:38,10.1.1.5,27,-0.100,-0.100,-0.100,0.000,0.000,0.000
1644915578638798080,2022-02-15-08:59:38,10.1.1.5,36,-0.090,-0.090,-0.090,0.000,0.000,0.000
1644915578683100928,2022-02-15-08:59:38,10.1.1.5,25,-0.080,-0.080,-0.080,0.000,0.000,0.000
1644915578738539008,2022-02-15-08:59:38,10.1.1.5,33,-0.070,-0.070,-0.070,0.000,0.000,0.000
1644915578838260992,2022-02-15-08:59:38,10.1.1.5,25,-0.050,-0.050,-0.050,0.000,0.000,0.000
1644915578902000896,2022-02-15-08:59:38,10.1.1.5,35,-0.040,-0.040,-0.040,0.000,0.000,0.000
1644915578999517952,2022-02-15-08:59:38,10.1.1.5,29,-0.020,-0.020,-0.020,0.000,0.000,0.000
1644915579058319104,2022-02-15-08:59:39,10.1.1.5,38,-0.010,-0.010,-0.010,0.000,0.000,0.000
1644915579098278912,2022-02-15-08:59:39,10.1.1.5,27,0.000,0.000,0.000,0.000,0.000,0.000
1644915579158142208,2022-02-15-08:59:39,10.1.1.5,36,0.010,0.010,0.010,0.000,0.000,0.000
1644915579377703936,2022-02-15-08:59:39,10.1.1.5,29,0.050,0.050,0.050,0.000,0.000,0.000
1644915579438568192,2022-02-15-08:59:39,10.1.1.5,39,0.060,0.060,0.060,0.000,0.000,0.000
1644915579478265088,2022-02-15-08:59:39,10.1.1.5,29,0.070,0.070,0.070,0.000,0.000,0.000
1644915579538402048,2022-02-15-08:59:39,10.1.1.5,38,0.080,0.080,0.080,0.000,0.000,0.000
1644915579578522880,2022-02-15-08:59:39,10.1.1.5,26,0.090,0.090,0.090,0.000,0.000,0.000
1644915579640440064,2022-02-15-08:59:39,10.1.1.5,36,0.100,0.100,0.100,0.000,0.000,0.000
1644915579678589184,2022-02-15-08:59:39,10.1.1.5,23,0.090,0.090,0.090,0.000,0.000,0.000
1644915579937662976,2022-02-15-08:59:39,10.1.1.5,30,0.040,0.040,0.040,0.000,0.000,0.000
1644915579998380800,2022-02-15-08:59:39,10.1.1.5,39,0.030,0.030,0.030,0.000,0.000,0.000
1644915580038206976,2022-02-15-08:59:40,10.1.1.5,29,0.020,0.020,0.020,0.000,0.000,0.000
1644915580098031104,2022-02-15-08:59:40,10.1.1.5,37,0.010,0.010,0.010,0.000,0.000,0.000
1644915580138324992,2022-02-15-08:59:40,10.1.1.5,26,0.000,0.000,0.000,0.000,0.000,0.000
1644915580198319872,2022-02-15-08:59:40,10.1.1.5,35,-0.010,-0.010,-0.010,0.000,0.000,0.000
1644915580239442176,2022-02-15-08:59:40,10.1.1.5,23,-0.020,-0.020,-0.020,0.000,0.000,0.000
1644915580498266880,2022-02-15-08:59:40,10.1.1.5,29,-0.070,-0.070,-0.070,0.000,0.000,0.000
1644915580558131968,2022-02-15-08:59:40,10.1.1.5,38,-0.080,-0.080,-0.080,0.000,0.000,0.000
1644915580598526976,2022-02-15-08:59:40,10.1.1.5,27,-0.090,-0.090,-0.090,0.000,0.000,0.000
1644915580658253824,2022-02-15-08:59:40,10.1.1.5,36,-0.100,-0.100,-0.100,0.000,0.000,0.000
1644915580698297856,2022-02-15-08:59:40,10.1.1.5,25,-0.090,-0.090,-0.090,0.000,0.000,0.000
1644915580758117888,2022-02-15-08:59:40,10.1.1.5,34,-0.080,-0.080,-0.080,0.000,0.000,0.000
1644915580810244096,2022-02-15-08:59:40,10.1.1.5,24,-0.070,-0.070,-0.070,0.000,0.000,0.000
1644915581098632960,2022-02-15-08:59:41,10.1.1.5,39,-0.020,-0.020,-0.020,0.000,0.000,0.000
1644915581138914048,2022-02-15-08:59:41,10.1.1.5,24,-0.010,-0.010,-0.010,0.000,0.000,0.000
1644915581198000896,2022-02-15-08:59:41,10.1.1.5,33,0.000,0.000,0.000,0.000,0.000,0.000
1644915581558085888,2022-02-15-08:59:41,10.1.1.5,35,0.070,0.070,0.070,0.000,0.000,0.000
1644915581598426112,2022-02-15-08:59:41,10.1.1.5,24,0.080,0.080,0.080,0.000,0.000,0.000
1644915581658107136,2022-02-15-08:59:41,10.1.1.5,33,0.090,0.090,0.090,0.000,0.000,0.000
1644915581738320128,2022-02-15-08:59:41,10.1.1.5,12,0.090,0.090,0.090,0.000,0.000,0.000
1644915581918579968,2022-02-15-08:59:41,10.1.1.5,39,0.060,0.060,0.060,0.000,0.000,0.000
1644915581958659840,2022-02-15-08:59:41,10.1.1.5,28,0.050,0.050,0.050,0.000,0.000,0.000
1644915582017980160,2022-02-15-08:59:42,10.1.1.5,34,0.040,0.040,0.040,0.000,0.000,0.000
1644915582057825024,2022-02-15-08:59:42,10.1.1.5,23,0.030,0.030,0.030,0.000,0.000,0.000
1644915582378778880,2022-02-15-08:59:42,10.1.1.5,36,-0.030,-0.030,-0.030,0.000,0.000,0.000
1644915582858221056,2022-02-15-08:59:42,10.1.1.5,29,-0.080,-0.080,-0.080,0.000,0.000,0.000
1644915582918554112,2022-02-15-08:59:42,10.1.1.5,39,-0.070,-0.070,-0.070,0.000,0.000,0.000
1644915582959332096,2022-02-15-08:59:42,10.1.1.5,28,-0.060,-0.060,-0.060,0.000,0.000,0.000
1644915583020567040,2022-02-15-08:59:43,10.1.1.5,38,-0.050,-0.050,-0.050,0.000,0.000,0.000
1644915583058737152,2022-02-15-08:59:43,10.1.1.5,27,-0.040,-0.040,-0.040,0.000,0.000,0.000
1644915583118625024,2022-02-15-08:59:43,10.1.1.5,37,-0.030,-0.030,-0.030,0.000,0.000,0.000
1644915583158265088,2022-02-15-08:59:43,10.1.1.5,26,-0.020,-0.020,-0.020,0.000,0.000,0.000
1644915583219443968,2022-02-15-08:59:43,10.1.1.5,36,-0.010,-0.010,-0.010,0.000,0.000,0.000
1644915583258819072,2022-02-15-08:59:43,10.1.1.5,25,0.000,0.000,0.000,0.000,0.000,0.000
1644915583318507008,2022-02-15-08:59:43,10.1.1.5,34,0.010,0.010,0.010,0.000,0.000,0.000
1644915583358215936,2022-02-15-08:59:43,10.1.1.5,24,0.020,0.020,0.020,0.000,0.000,0.000
1644915583419032064,2022-02-15-08:59:43,10.1.1.5,34,0.030,0.030,0.030,0.000,0.000,0.000
1644915583458572032,2022-02-15-08:59:43,10.1.1.5,23,0.040,0.040,0.040,0.000,0.000,0.000
1644915583517947904,2022-02-15-08:59:43,10.1.1.5,32,0.050,0.050,0.050,0.000,0.000,0.000
1644915583678706944,2022-02-15-08:59:43,10.1.1.5,39,0.080,0.080,0.080,0.000,0.000,0.000
1644915583718233088,2022-02-15-08:59:43,10.1.1.5,29,0.090,0.090,0.090,0.000,0.000,0.000
1644915583778918912,2022-02-15-08:59:43,10.1.1.5,38,0.100,0.100,0.100,0.000,0.000,0.000
1644915583818141952,2022-02-15-08:59:43,10.1.1.5,27,0.090,0.090,0.090,0.000,0.000,0.000
1644915583897938944,2022-02-15-08:59:43,10.1.1.5,36,0.080,0.080,0.080,0.000,0.000,0.000
1644915583998662912,2022-02-15-08:59:43,10.1.1.5,39,0.060,0.060,0.060,0.000,0.000,0.000
1644915584039863040,2022-02-15-08:59:44,10.1.1.5,26,0.050,0.050,0.050,0.000,0.000,0.000
1644915584197801216,2022-02-15-08:59:44,10.1.1.5,29,0.020,0.020,0.020,0.000,0.000,0.000
1644915584258200832,2022-02-15-08:59:44,10.1.1.5,38,0.010,0.010,0.010,0.000,0.000,0.000
1644915584297698048,2022-02-15-08:59:44,10.1.1.5,27,0.000,0.000,0.000,0.000,0.000,0.000
1644915584358022912,2022-02-15-08:59:44,10.1.1.5,36,-0.010,-0.010,-0.010,0.000,0.000,0.000
1644915584398836992,2022-02-15-08:59:44,10.1.1.5,25,-0.020,-0.020,-0.020,0.000,0.000,0.000
1644915584559566848,2022-02-15-08:59:44,10.1.1.5,24,-0.050,-0.050,-0.050,0.000,0.000,0.000
1644915585038450944,2022-02-15-08:59:45,10.1.1.5,29,-0.060,-0.060,-0.060,0.000,0.000,0.000
1644915585098608128,2022-02-15-08:59:45,10.1.1.5,39,-0.050,-0.050,-0.050,0.000,0.000,0.000
1644915585138284800,2022-02-15-08:59:45,10.1.1.5,28,-0.040,-0.040,-0.040,0.000,0.000,0.000
1644915585198612992,2022-02-15-08:59:45,10.1.1.5,37,-0.030,-0.030,-0.030,0.000,0.000,0.000
1644915585237870080,2022-02-15-08:59:45,10.1.1.5,27,-0.020,-0.020,-0.020,0.000,0.000,0.000
1644915585298140928,2022-02-15-08:59:45,10.1.1.5,36,-0.010,-0.010,-0.010,0.000,0.000,0.000
1644915585338532864,2022-02-15-08:59:45,10.1.1.5,26,0.000,0.000,0.000,0.000,0.000,0.000
1644915585398405120,2022-02-15-08:59:45,10.1.1.5,35,0.010,0.010,0.010,0.000,0.000,0.000
1644915585438700800,2022-02-15-08:59:45,10.1.1.5,25,0.020,0.020,0.020,0.000,0.000,0.000
1644915585498219008,2022-02-15-08:59:45,10.1.1.5,34,0.030,0.030,0.030,0.000,0.000,0.000
1644915585537998848,2022-02-15-08:59:45,10.1.1.5,24,0.040,0.040,0.040,0.000,0.000,0.000
1644915585611555072,2022-02-15-08:59:45,10.1.1.5,34,0.050,0.050,0.050,0.000,0.000,0.000
1644915585718238208,2022-02-15-08:59:45,10.1.1.5,26,0.070,0.070,0.070,0.000,0.000,0.000
1644915585778522880,2022-02-15-08:59:45,10.1.1.5,35,0.080,0.080,0.080,0.000,0.000,0.000
1644915585818496000,2022-02-15-08:59:45,10.1.1.5,25,0.090,0.090,0.090,0.000,0.000,0.000
1644915585877935872,2022-02-15-08:59:45,10.1.1.5,34,0.100,0.100,0.100,0.000,0.000,0.000
1644915585918402048,2022-02-15-08:59:45,10.1.1.5,23,0.090,0.090,0.090,0.000,0.000,0.000
1644915586238075136,2022-02-15-08:59:46,10.1.1.5,38,0.030,0.030,0.030,0.000,0.000,0.000
1644915586278543104,2022-02-15-08:59:46,10.1.1.5,27,0.020,0.020,0.020,0.000,0.000,0.000
1644915586337763072,2022-02-15-08:59:46,10.1.1.5,36,0.010,0.010,0.010,0.000,0.000,0.000
1644915586378177792,2022-02-15-08:59:46,10.1.1.5,26,0.000,0.000,0.000,0.000,0.000,0.000
1644915586438657024,2022-02-15-08:59:46,10.1.1.5,35,-0.010,-0.010,-0.010,0.000,0.000,0.000
1644915586478450176,2022-02-15-08:59:46,10.1.1.5,24,-0.020,-0.020,-0.020,0.000,0.000,0.000
1644915586538184960,2022-02-15-08:59:46,10.1.1.5,33,-0.030,-0.030,-0.030,0.000,0.000,0.000
1644915586698316032,2022-02-15-08:59:46,10.1.1.5,39,-0.060,-0.060,-0.060,0.000,0.000,0.000
1644915586738172928,2022-02-15-08:59:46,10.1.1.5,28,-0.070,-0.070,-0.070,0.000,0.000,0.000
1644915586798102016,2022-02-15-08:59:46,10.1.1.5,37,-0.080,-0.080,-0.080,0.000,0.000,0.000
1644915586838726144,2022-02-15-08:59:46,10.1.1.5,25,-0.090,-0.090,-0.090,0.000,0.000,0.000
1644915586898210048,2022-02-15-08:59:46,10.1.1.5,33,-0.100,-0.100,-0.100,0.000,0.000,0.000
1644915587098967040,2022-02-15-08:59:47,10.1.1.5,26,-0.060,-0.060,-0.060,0.000,0.000,0.000
1644915587159490048,2022-02-15-08:59:47,10.1.1.5,36,-0.050,-0.050,-0.050,0.000,0.000,0.000
1644915587198596096,2022-02-15-08:59:47,10.1.1.5,25,-0.040,-0.040,-0.040,0.000,0.000,0.000
1644915587358042880,2022-02-15-08:59:47,10.1.1.5,29,-0.010,-0.010,-0.010,0.000,0.000,0.000
1644915587417840128,2022-02-15-08:59:47,10.1.1.5,38,0.000,0.000,0.000,0.000,0.000,0.000
1644915587459657984,2022-02-15-08:59:47,10.1.1.5,27,0.010,0.010,0.010,0.000,0.000,0.000
1644915587518219008,2022-02-15-08:59:47,10.1.1.5,36,0.020,0.020,0.020,0.000,0.000,0.000
1644915587558382080,2022-02-15-08:59:47,10.1.1.5,26,0.030,0.030,0.030,0.000,0.000,0.000
1644915587618174976,2022-02-15-08:59:47,10.1.1.5,33,0.040,0.040,0.040,0.000,0.000,0.000
1644915587658032896,2022-02-15-08:59:47,10.1.1.5,22,0.050,0.050,0.050,0.000,0.000,0.000
1644915587878452992,2022-02-15-08:59:47,10.1.1.5,38,0.090,0.090,0.090,0.000,0.000,0.000
1644915587918181888,2022-02-15-08:59:47,10.1.1.5,24,0.100,0.100,0.100,0.000,0.000,0.000
1644915587978310144,2022-02-15-08:59:47,10.1.1.5,33,0.090,0.090,0.090,0.000,0.000,0.000
1644915588078294016,2022-02-15-08:59:48,10.1.1.5,29,0.070,0.070,0.070,0.000,0.000,0.000
1644915588138840832,2022-02-15-08:59:48,10.1.1.5,37,0.060,0.060,0.060,0.000,0.000,0.000
1644915588179336960,2022-02-15-08:59:48,10.1.1.5,26,0.050,0.050,0.050,0.000,0.000,0.000
1644915588238766080,2022-02-15-08:59:48,10.1.1.5,34,0.040,0.040,0.040,0.000,0.000,0.000
1644915588280421888,2022-02-15-08:59:48,10.1.1.5,24,0.030,0.030,0.030,0.000,0.000,0.000
1644915588338240000,2022-02-15-08:59:48,10.1.1.5,33,0.020,0.020,0.020,0.000,0.000,0.000
1644915588538383104,2022-02-15-08:59:48,10.1.1.5,29,-0.020,-0.020,-0.020,0.000,0.000,0.000
1644915588597976832,2022-02-15-08:59:48,10.1.1.5,37,-0.030,-0.030,-0.030,0.000,0.000,0.000
1644915588658130944,2022-02-15-08:59:48,10.1.1.5,39,-0.040,-0.040,-0.040,0.000,0.000,0.000
1644915588984016896,2022-02-15-08:59:48,10.1.1.5,38,-0.100,-0.100,-0.100,0.000,0.000,0.000
1644915589179388160,2022-02-15-08:59:49,10.1.1.5,25,-0.060,-0.060,-0.060,0.000,0.000,0.000
1644915589338021120,2022-02-15-08:59:49,10.1.1.5,29,-0.030,-0.030,-0.030,0.000,0.000,0.000
1644915589399287040,2022-02-15-08:59:49,10.1.1.5,37,-0.020,-0.020,-0.020,0.000,0.000,0.000
1644915589468542208,2022-02-15-08:59:49,10.1.1.5,25,-0.010,-0.010,-0.010,0.000,0.000,0.000
1644915589579503104,2022-02-15-08:59:49,10.1.1.5,34,0.010,0.010,0.010,0.000,0.000,0.000
1644915589618530048,2022-02-15-08:59:49,10.1.1.5,23,0.020,0.020,0.020,0.000,0.000,0.000
1644915589878534912,2022-02-15-08:59:49,10.1.1.5,29,0.070,0.070,0.070,0.000,0.000,0.000
1644915589938631936,2022-02-15-08:59:49,10.1.1.5,38,0.080,0.080,0.080,0.000,0.000,0.000
1644915589979015168,2022-02-15-08:59:49,10.1.1.5,28,0.090,0.090,0.090,0.000,0.000,0.000
1644915590038799104,2022-02-15-08:59:50,10.1.1.5,37,0.100,0.100,0.100,0.000,0.000,0.000
1644915590078950912,2022-02-15-08:59:50,10.1.1.5,26,0.090,0.090,0.090,0.000,0.000,0.000
1644915590138391040,2022-02-15-08:59:50,10.1.1.5,34,0.080,0.080,0.080,0.000,0.000,0.000
1644915590298075904,2022-02-15-08:59:50,10.1.1.5,37,0.050,0.050,0.050,0.000,0.000,0.000
1644915590338191872,2022-02-15-08:59:50,10.1.1.5,27,0.040,0.040,0.040,0.000,0.000,0.000
1644915590397958144,2022-02-15-08:59:50,10.1.1.5,36,0.030,0.030,0.030,0.000,0.000,0.000
1644915590438627072,2022-02-15-08:59:50,10.1.1.5,26,0.020,0.020,0.020,0.000,0.000,0.000
1644915590497786112,2022-02-15-08:59:50,10.1.1.5,35,0.010,0.010,0.010,0.000,0.000,0.000
1644915590538053888,2022-02-15-08:59:50,10.1.1.5,25,-0.000,-0.000,-0.000,0.000,0.000,0.000
1644915590598284032,2022-02-15-08:59:50,10.1.1.5,34,-0.010,-0.010,-0.010,0.000,0.000,0.000
1644915590798496000,2022-02-15-08:59:50,10.1.1.5,29,-0.050,-0.050,-0.050,0.000,0.000,0.000
1644915590858667008,2022-02-15-08:59:50,10.1.1.5,38,-0.060,-0.060,-0.060,0.000,0.000,0.000
1644915590898664960,2022-02-15-08:59:50,10.1.1.5,27,-0.070,-0.070,-0.070,0.000,0.000,0.000
1644915590957837056,2022-02-15-08:59:50,10.1.1.5,36,-0.080,-0.080,-0.080,0.000,0.000,0.000
1644915590998411776,2022-02-15-08:59:50,10.1.1.5,25,-0.090,-0.090,-0.090,0.000,0.000,0.000
1644915591059011072,2022-02-15-08:59:51,10.1.1.5,27,-0.100,-0.100,-0.100,0.000,0.000,0.000
1644915591117882112,2022-02-15-08:59:51,10.1.1.5,36,-0.090,-0.090,-0.090,0.000,0.000,0.000
1644915591158464000,2022-02-15-08:59:51,10.1.1.5,25,-0.080,-0.080,-0.080,0.000,0.000,0.000
1644915591258807808,2022-02-15-08:59:51,10.1.1.5,23,-0.060,-0.060,-0.060,0.000,0.000,0.000
1644915591419114240,2022-02-15-08:59:51,10.1.1.5,30,-0.030,-0.030,-0.030,0.000,0.000,0.000
1644915591478828800,2022-02-15-08:59:51,10.1.1.5,39,-0.020,-0.020,-0.020,0.000,0.000,0.000
1644915591678680832,2022-02-15-08:59:51,10.1.1.5,29,0.020,0.020,0.020,0.000,0.000,0.000
1644915591738274048,2022-02-15-08:59:51,10.1.1.5,38,0.030,0.030,0.030,0.000,0.000,0.000
1644915591778906112,2022-02-15-08:59:51,10.1.1.5,27,0.040,0.040,0.040,0.000,0.000,0.000
1644915591838432000,2022-02-15-08:59:51,10.1.1.5,35,0.050,0.050,0.050,0.000,0.000,0.000
1644915591877952000,2022-02-15-08:59:51,10.1.1.5,24,0.060,0.060,0.060,0.000,0.000,0.000
1644915591998878976,2022-02-15-08:59:51,10.1.1.5,39,0.080,0.080,0.080,0.000,0.000,0.000
1644915592038764032,2022-02-15-08:59:52,10.1.1.5,26,0.090,0.090,0.090,0.000,0.000,0.000
1644915592098764032,2022-02-15-08:59:52,10.1.1.5,35,0.100,0.100,0.100,0.000,0.000,0.000
1644915592198419200,2022-02-15-08:59:52,10.1.1.5,28,0.080,0.080,0.080,0.000,0.000,0.000
1644915592258833920,2022-02-15-08:59:52,10.1.1.5,34,0.070,0.070,0.070,0.000,0.000,0.000
1644915592458504960,2022-02-15-08:59:52,10.1.1.5,29,0.030,0.030,0.030,0.000,0.000,0.000
1644915592518528000,2022-02-15-08:59:52,10.1.1.5,38,0.020,0.020,0.020,0.000,0.000,0.000
1644915592557991936,2022-02-15-08:59:52,10.1.1.5,25,0.010,0.010,0.010,0.000,0.000,0.000
1644915592718569984,2022-02-15-08:59:52,10.1.1.5,29,-0.020,-0.020,-0.020,0.000,0.000,0.000
1644915592778296064,2022-02-15-08:59:52,10.1.1.5,36,-0.030,-0.030,-0.030,0.000,0.000,0.000
1644915592877785856,2022-02-15-08:59:52,10.1.1.5,29,-0.050,-0.050,-0.050,0.000,0.000,0.000
1644915592943944960,2022-02-15-08:59:52,10.1.1.5,37,-0.060,-0.060,-0.060,0.000,0.000,0.000
1644915592983782144,2022-02-15-08:59:52,10.1.1.5,27,-0.070,-0.070,-0.070,0.000,0.000,0.000
1644915593038096896,2022-02-15-08:59:53,10.1.1.5,35,-0.080,-0.080,-0.080,0.000,0.000,0.000
1644915593078237184,2022-02-15-08:59:53,10.1.1.5,24,-0.090,-0.090,-0.090,0.000,0.000,0.000
1644915593138680064,2022-02-15-08:59:53,10.1.1.5,34,-0.100,-0.100,-0.100,0.000,0.000,0.000
1644915593338299136,2022-02-15-08:59:53,10.1.1.5,29,-0.060,-0.060,-0.060,0.000,0.000,0.000
1644915593398714112,2022-02-15-08:59:53,10.1.1.5,38,-0.050,-0.050,-0.050,0.000,0.000,0.000
1644915593443180032,2022-02-15-08:59:53,10.1.1.5,27,-0.040,-0.040,-0.040,0.000,0.000,0.000
1644915593499015168,2022-02-15-08:59:53,10.1.1.5,35,-0.030,-0.030,-0.030,0.000,0.000,0.000
1644915593538255104,2022-02-15-08:59:53,10.1.1.5,24,-0.020,-0.020,-0.020,0.000,0.000,0.000
1644915593598861056,2022-02-15-08:59:53,10.1.1.5,33,-0.010,-0.010,-0.010,0.000,0.000,0.000
1644915593858118912,2022-02-15-08:59:53,10.1.1.5,38,0.040,0.040,0.040,0.000,0.000,0.000
1644915593927757056,2022-02-15-08:59:53,10.1.1.5,25,0.050,0.050,0.050,0.000,0.000,0.000
1644915593978514944,2022-02-15-08:59:53,10.1.1.5,25,0.060,0.060,0.060,0.000,0.000,0.000
1644915594179197184,2022-02-15-08:59:54,10.1.1.5,28,0.090,0.090,0.090,0.000,0.000,0.000
1644915594257174016,2022-02-15-08:59:54,10.1.1.5,37,0.100,0.100,0.100,0.000,0.000,0.000
1644915594338339072,2022-02-15-08:59:54,10.1.1.5,25,0.080,0.080,0.080,0.000,0.000,0.000
1644915594398232064,2022-02-15-08:59:54,10.1.1.5,35,0.070,0.070,0.070,0.000,0.000,0.000
1644915594437912832,2022-02-15-08:59:54,10.1.1.5,24,0.060,0.060,0.060,0.000,0.000,0.000
1644915594597985024,2022-02-15-08:59:54,10.1.1.5,29,0.030,0.030,0.030,0.000,0.000,0.000
1644915594658359040,2022-02-15-08:59:54,10.1.1.5,38,0.020,0.020,0.020,0.000,0.000,0.000
1644915594698363904,2022-02-15-08:59:54,10.1.1.5,26,0.010,0.010,0.010,0.000,0.000,0.000
1644915594758321920,2022-02-15-08:59:54,10.1.1.5,33,0.000,0.000,0.000,0.000,0.000,0.000
1644915594855334144,2022-02-15-08:59:54,10.1.1.5,38,-0.010,-0.010,-0.010,0.000,0.000,0.000
1644915595097990912,2022-02-15-08:59:55,10.1.1.5,29,-0.060,-0.060,-0.060,0.000,0.000,0.000
1644915595158548224,2022-02-15-08:59:55,10.1.1.5,37,-0.070,-0.070,-0.070,0.000,0.000,0.000
1644915595198937856,2022-02-15-08:59:55,10.1.1.5,25,-0.080,-0.080,-0.080,0.000,0.000,0.000
1644915595260227072,2022-02-15-08:59:55,10.1.1.5,35,-0.090,-0.090,-0.090,0.000,0.000,0.000
1644915595300376064,2022-02-15-08:59:55,10.1.1.5,23,-0.100,-0.100,-0.100,0.000,0.000,0.000
1644915595458352128,2022-02-15-08:59:55,10.1.1.5,29,-0.070,-0.070,-0.070,0.000,0.000,0.000
1644915595897906944,2022-02-15-08:59:55,10.1.1.5,39,0.000,0.000,0.000,0.000,0.000,0.000
1644915595938200832,2022-02-15-08:59:55,10.1.1.5,28,0.010,0.010,0.010,0.000,0.000,0.000
1644915595998662912,2022-02-15-08:59:55,10.1.1.5,37,0.020,0.020,0.020,0.000,0.000,0.000
1644915596038224896,2022-02-15-08:59:56,10.1.1.5,27,0.030,0.030,0.030,0.000,0.000,0.000
1644915596098679040,2022-02-15-08:59:56,10.1.1.5,37,0.040,0.040,0.040,0.000,0.000,0.000
1644915596138236928,2022-02-15-08:59:56,10.1.1.5,26,0.050,0.050,0.050,0.000,0.000,0.000
1644915596198492160,2022-02-15-08:59:56,10.1.1.5,35,0.060,0.060,0.060,0.000,0.000,0.000
1644915596238509056,2022-02-15-08:59:56,10.1.1.5,25,0.070,0.070,0.070,0.000,0.000,0.000
1644915596298198016,2022-02-15-08:59:56,10.1.1.5,35,0.080,0.080,0.080,0.000,0.000,0.000
1644915596338281984,2022-02-15-08:59:56,10.1.1.5,24,0.090,0.090,0.090,0.000,0.000,0.000
1644915596398435072,2022-02-15-08:59:56,10.1.1.5,34,0.100,0.100,0.100,0.000,0.000,0.000
1644915596558393088,2022-02-15-08:59:56,10.1.1.5,34,0.070,0.070,0.070,0.000,0.000,0.000
1644915596598068992,2022-02-15-08:59:56,10.1.1.5,24,0.060,0.060,0.060,0.000,0.000,0.000
1644915596658892032,2022-02-15-08:59:56,10.1.1.5,33,0.050,0.050,0.050,0.000,0.000,0.000
1644915596698201856,2022-02-15-08:59:56,10.1.1.5,23,0.040,0.040,0.040,0.000,0.000,0.000
1644915597117892864,2022-02-15-08:59:57,10.1.1.5,39,-0.040,-0.040,-0.040,0.000,0.000,0.000
1644915597158888960,2022-02-15-08:59:57,10.1.1.5,28,-0.050,-0.050,-0.050,0.000,0.000,0.000
1644915597458516992,2022-02-15-08:59:57,10.1.1.5,20,-0.090,-0.090,-0.090,0.000,0.000,0.000
1644915597589915136,2022-02-15-08:59:57,10.1.1.5,39,-0.070,-0.070,-0.070,0.000,0.000,0.000
1644915597618257152,2022-02-15-08:59:57,10.1.1.5,24,-0.060,-0.060,-0.060,0.000,0.000,0.000
1644915597678145792,2022-02-15-08:59:57,10.1.1.5,33,-0.050,-0.050,-0.050,0.000,0.000,0.000
1644915597718835968,2022-02-15-08:59:57,10.1.1.5,23,-0.040,-0.040,-0.040,0.000,0.000,0.000
1644915597979224064,2022-02-15-08:59:57,10.1.1.5,29,0.010,0.010,0.010,0.000,0.000,0.000
1644915598038411008,2022-02-15-08:59:58,10.1.1.5,39,0.020,0.020,0.020,0.000,0.000,0.000
1644915598078296064,2022-02-15-08:59:58,10.1.1.5,28,0.030,0.030,0.030,0.000,0.000,0.000
1644915598138472192,2022-02-15-08:59:58,10.1.1.5,37,0.040,0.040,0.040,0.000,0.000,0.000
1644915598178707968,2022-02-15-08:59:58,10.1.1.5,27,0.050,0.050,0.050,0.000,0.000,0.000
1644915598238500096,2022-02-15-08:59:58,10.1.1.5,35,0.060,0.060,0.060,0.000,0.000,0.000
1644915598278054912,2022-02-15-08:59:58,10.1.1.5,25,0.070,0.070,0.070,0.000,0.000,0.000
1644915598337750784,2022-02-15-08:59:58,10.1.1.5,34,0.080,0.080,0.080,0.000,0.000,0.000
1644915598378526976,2022-02-15-08:59:58,10.1.1.5,23,0.090,0.090,0.090,0.000,0.000,0.000
1644915598458447104,2022-02-15-08:59:58,10.1.1.5,2,0.090,0.090,0.090,0.000,0.000,0.000
1644915598698027008,2022-02-15-08:59:58,10.1.1.5,39,0.050,0.050,0.050,0.000,0.000,0.000
1644915598738459136,2022-02-15-08:59:58,10.1.1.5,28,0.040,0.040,0.040,0.000,0.000,0.000
1644915598799115776,2022-02-15-08:59:58,10.1.1.5,38,0.030,0.030,0.030,0.000,0.000,0.000
1644915598838580992,2022-02-15-08:59:58,10.1.1.5,27,0.020,0.020,0.020,0.000,0.000,0.000
1644915598898489088,2022-02-15-08:59:58,10.1.1.5,36,0.010,0.010,0.010,0.000,0.000,0.000
1644915598937643008,2022-02-15-08:59:58,10.1.1.5,26,0.000,0.000,0.000,0.000,0.000,0.000
1644915598997968896,2022-02-15-08:59:58,10.1.1.5,35,-0.010,-0.010,-0.010,0.000,0.000,0.000
1644915599037820928,2022-02-15-08:59:59,10.1.1.5,25,-0.020,-0.020,-0.020,0.000,0.000,0.000
1644915599098313984,2022-02-15-08:59:59,10.1.1.5,34,-0.030,-0.030,-0.030,0.000,0.000,0.000
1644915599357903872,2022-02-15-08:59:59,10.1.1.5,39,-0.080,-0.080,-0.080,0.000,0.000,0.000
1644915599397805056,2022-02-15-08:59:59,10.1.1.5,28,-0.090,-0.090,-0.090,0.000,0.000,0.000
1644915599457967104,2022-02-15-08:59:59,10.1.1.5,37,-0.100,-0.100,-0.100,0.000,0.000,0.000
1644915599497935104,2022-02-15-08:59:59,10.1.1.5,26,-0.090,-0.090,-0.090,0.000,0.000,0.000
1644915599758019840,2022-02-15-08:59:59,10.1.1.5,29,-0.040,-0.040,-0.040,0.000,0.000,0.000
1644915599820516096,2022-02-15-08:59:59,10.1.1.5,38,-0.030,-0.030,-0.030,0.000,0.000,0.000
1644915599859216896,2022-02-15-08:59:59,10.1.1.5,27,-0.020,-0.020,-0.020,0.000,0.000,0.000
1644915599958141184,2022-02-15-08:59:59,10.1.1.5,24,0.000,0.000,0.000,0.000,0.000,0.000
1644915600118035968,2022-02-15-09:00:00,10.1.1.5,28,0.030,0.030,0.030,0.000,0.000,0.000
1644915600178853888,2022-02-15-09:00:00,10.1.1.5,37,0.040,0.040,0.040,0.000,0.000,0.000
1644915600217985024,2022-02-15-09:00:00,10.1.1.5,27,0.050,0.050,0.050,0.000,0.000,0.000
1644915600278265856,2022-02-15-09:00:00,10.1.1.5,36,0.060,0.060,0.060,0.000,0.000,0.000
1644915600317812992,2022-02-15-09:00:00,10.1.1.5,25,0.070,0.070,0.070,0.000,0.000,0.000
1644915600378593024,2022-02-15-09:00:00,10.1.1.5,35,0.080,0.080,0.080,0.000,0.000,0.000
1644915600557926912,2022-02-15-09:00:00,10.1.1.5,27,0.090,0.090,0.090,0.000,0.000,0.000
1644915600618127104,2022-02-15-09:00:00,10.1.1.5,34,0.080,0.080,0.080,0.000,0.000,0.000
1644915600658626048,2022-02-15-09:00:00,10.1.1.5,23,0.070,0.070,0.070,0.000,0.000,0.000
1644915600717933824,2022-02-15-09:00:00,10.1.1.5,33,0.060,0.060,0.060,0.000,0.000,0.000
1644915600978462976,2022-02-15-09:00:00,10.1.1.5,39,0.010,0.010,0.010,0.000,0.000,0.000
1644915601017647872,2022-02-15-09:00:01,10.1.1.5,28,0.000,0.000,0.000,0.000,0.000,0.000
1644915601078013952,2022-02-15-09:00:01,10.1.1.5,37,-0.010,-0.010,-0.010,0.000,0.000,0.000
1644915601118496768,2022-02-15-09:00:01,10.1.1.5,26,-0.020,-0.020,-0.020,0.000,0.000,0.000
1644915601185359104,2022-02-15-09:00:01,10.1.1.5,25,-0.030,-0.030,-0.030,0.000,0.000,0.000
1644915601298448128,2022-02-15-09:00:01,10.1.1.5,34,-0.050,-0.050,-0.050,0.000,0.000,0.000
1644915601698334976,2022-02-15-09:00:01,10.1.1.5,38,-0.080,-0.080,-0.080,0.000,0.000,0.000
1644915601738509056,2022-02-15-09:00:01,10.1.1.5,27,-0.070,-0.070,-0.070,0.000,0.000,0.000
1644915601798688768,2022-02-15-09:00:01,10.1.1.5,36,-0.060,-0.060,-0.060,0.000,0.000,0.000
1644915601838733056,2022-02-15-09:00:01,10.1.1.5,25,-0.050,-0.050,-0.050,0.000,0.000,0.000
1644915601898560000,2022-02-15-09:00:01,10.1.1.5,34,-0.040,-0.040,-0.040,0.000,0.000,0.000
1644915601939800064,2022-02-15-09:00:01,10.1.1.5,23,-0.030,-0.030,-0.030,0.000,0.000,0.000
1644915602200099072,2022-02-15-09:00:02,10.1.1.5,29,0.020,0.020,0.020,0.000,0.000,0.000
1644915602260178176,2022-02-15-09:00:02,10.1.1.5,38,0.030,0.030,0.030,0.000,0.000,0.000
1644915602300442880,2022-02-15-09:00:02,10.1.1.5,25,0.040,0.040,0.040,0.000,0.000,0.000
1644915602358998016,2022-02-15-09:00:02,10.1.1.5,33,0.050,0.050,0.050,0.000,0.000,0.000
1644915602563133952,2022-02-15-09:00:02,10.1.1.5,29,0.090,0.090,0.090,0.000,0.000,0.000
1644915602625744128,2022-02-15-09:00:02,10.1.1.5,38,0.100,0.100,0.100,0.000,0.000,0.000
1644915602666007040,2022-02-15-09:00:02,10.1.1.5,25,0.090,0.090,0.090,0.000,0.000,0.000
1644915602818377984,2022-02-15-09:00:02,10.1.1.5,29,0.060,0.060,0.060,0.000,0.000,0.000
1644915602878430976,2022-02-15-09:00:02,10.1.1.5,36,0.050,0.050,0.050,0.000,0.000,0.000
1644915602978713088,2022-02-15-09:00:02,10.1.1.5,25,0.030,0.030,0.030,0.000,0.000,0.000
1644915603038977024,2022-02-15-09:00:03,10.1.1.5,33,0.020,0.020,0.020,0.000,0.000,0.000
1644915603238563072,2022-02-15-09:00:03,10.1.1.5,25,-0.020,-0.020,-0.020,0.000,0.000,0.000
1644915603297862144,2022-02-15-09:00:03,10.1.1.5,34,-0.030,-0.030,-0.030,0.000,0.000,0.000
1644915603458875904,2022-02-15-09:00:03,10.1.1.5,36,-0.060,-0.060,-0.060,0.000,0.000,0.000
1644915603498797824,2022-02-15-09:00:03,10.1.1.5,25,-0.070,-0.070,-0.070,0.000,0.000,0.000
1644915603597678848,2022-02-15-09:00:03,10.1.1.5,34,-0.080,-0.080,-0.080,0.000,0.000,0.000
1644915603798029056,2022-02-15-09:00:03,10.1.1.5,6,-0.080,-0.080,-0.080,0.000,0.000,0.000
1644915603878905088,2022-02-15-09:00:03,10.1.1.5,35,-0.070,-0.070,-0.070,0.000,0.000,0.000
1644915603918194944,2022-02-15-09:00:03,10.1.1.5,25,-0.060,-0.060,-0.060,0.000,0.000,0.000
1644915603978825984,2022-02-15-09:00:03,10.1.1.5,34,-0.050,-0.050,-0.050,0.000,0.000,0.000
1644915604019414016,2022-02-15-09:00:04,10.1.1.5,24,-0.040,-0.040,-0.040,0.000,0.000,0.000
1644915604278039040,2022-02-15-09:00:04,10.1.1.5,29,0.010,0.010,0.010,0.000,0.000,0.000
1644915604338097152,2022-02-15-09:00:04,10.1.1.5,38,0.020,0.020,0.020,0.000,0.000,0.000
1644915604378326784,2022-02-15-09:00:04,10.1.1.5,26,0.030,0.030,0.030,0.000,0.000,0.000
1644915604438028032,2022-02-15-09:00:04,10.1.1.5,35,0.040,0.040,0.040,0.000,0.000,0.000
1644915604478259200,2022-02-15-09:00:04,10.1.1.5,24,0.050,0.050,0.050,0.000,0.000,0.000
1644915604638697984,2022-02-15-09:00:04,10.1.1.5,29,0.080,0.080,0.080,0.000,0.000,0.000
1644915604698388992,2022-02-15-09:00:04,10.1.1.5,38,0.090,0.090,0.090,0.000,0.000,0.000
1644915604737948928,2022-02-15-09:00:04,10.1.1.5,26,0.100,0.100,0.100,0.000,0.000,0.000
1644915604798786048,2022-02-15-09:00:04,10.1.1.5,34,0.090,0.090,0.090,0.000,0.000,0.000
1644915604838994944,2022-02-15-09:00:04,10.1.1.5,23,0.080,0.080,0.080,0.000,0.000,0.000
1644915604898406144,2022-02-15-09:00:04,10.1.1.5,33,0.070,0.070,0.070,0.000,0.000,0.000
1644915605098452992,2022-02-15-09:00:05,10.1.1.5,28,0.030,0.030,0.030,0.000,0.000,0.000
1644915605158718976,2022-02-15-09:00:05,10.1.1.5,38,0.020,0.020,0.020,0.000,0.000,0.000
1644915605198267904,2022-02-15-09:00:05,10.1.1.5,26,0.010,0.010,0.010,0.000,0.000,0.000
1644915605262586112,2022-02-15-09:00:05,10.1.1.5,35,0.000,0.000,0.000,0.000,0.000,0.000
1644915605323788800,2022-02-15-09:00:05,10.1.1.5,24,-0.010,-0.010,-0.010,0.000,0.000,0.000
1644915605798036992,2022-02-15-09:00:05,10.1.1.5,34,-0.100,-0.100,-0.100,0.000,0.000,0.000
1644915605838191872,2022-02-15-09:00:05,10.1.1.5,24,-0.090,-0.090,-0.090,0.000,0.000,0.000
1644915605897982976,2022-02-15-09:00:05,10.1.1.5,33,-0.080,-0.080,-0.080,0.000,0.000,0.000
1644915606257751040,2022-02-15-09:00:06,10.1.1.5,39,-0.010,-0.010,-0.010,0.000,0.000,0.000
1644915606298390016,2022-02-15-09:00:06,10.1.1.5,28,0.000,0.000,0.000,0.000,0.000,0.000
1644915606357996032,2022-02-15-09:00:06,10.1.1.5,38,0.010,0.010,0.010,0.000,0.000,0.000
1644915606589762048,2022-02-15-09:00:06,10.1.1.5,28,0.040,0.040,0.040,0.000,0.000,0.000
1644915606918600960,2022-02-15-09:00:06,10.1.1.5,39,0.100,0.100,0.100,0.000,0.000,0.000
1644915606957875968,2022-02-15-09:00:06,10.1.1.5,27,0.090,0.090,0.090,0.000,0.000,0.000
1644915607019012096,2022-02-15-09:00:07,10.1.1.5,33,0.080,0.080,0.080,0.000,0.000,0.000
1644915607318476800,2022-02-15-09:00:07,10.1.1.5,29,0.020,0.020,0.020,0.000,0.000,0.000
1644915607378417920,2022-02-15-09:00:07,10.1.1.5,36,0.010,0.010,0.010,0.000,0.000,0.000
1644915607418500864,2022-02-15-09:00:07,10.1.1.5,26,0.000,0.000,0.000,0.000,0.000,0.000
1644915607479407104,2022-02-15-09:00:07,10.1.1.5,35,-0.010,-0.010,-0.010,0.000,0.000,0.000
1644915607520694016,2022-02-15-09:00:07,10.1.1.5,24,-0.020,-0.020,-0.020,0.000,0.000,0.000
1644915607578448896,2022-02-15-09:00:07,10.1.1.5,34,-0.030,-0.030,-0.030,0.000,0.000,0.000
1644915607618482944,2022-02-15-09:00:07,10.1.1.5,23,-0.040,-0.040,-0.040,0.000,0.000,0.000
1644915607679887104,2022-02-15-09:00:07,10.1.1.5,33,-0.050,-0.050,-0.050,0.000,0.000,0.000
1644915607794824960,2022-02-15-09:00:07,10.1.1.5,29,-0.070,-0.070,-0.070,0.000,0.000,0.000
1644915607898267136,2022-02-15-09:00:07,10.1.1.5,39,-0.090,-0.090,-0.090,0.000,0.000,0.000
1644915607938322944,2022-02-15-09:00:07,10.1.1.5,27,-0.100,-0.100,-0.100,0.000,0.000,0.000
1644915607998245120,2022-02-15-09:00:07,10.1.1.5,36,-0.090,-0.090,-0.090,0.000,0.000,0.000
1644915608038042112,2022-02-15-09:00:08,10.1.1.5,26,-0.080,-0.080,-0.080,0.000,0.000,0.000
1644915608097948928,2022-02-15-09:00:08,10.1.1.5,35,-0.070,-0.070,-0.070,0.000,0.000,0.000
1644915608138013952,2022-02-15-09:00:08,10.1.1.5,25,-0.060,-0.060,-0.060,0.000,0.000,0.000
1644915608198446080,2022-02-15-09:00:08,10.1.1.5,33,-0.050,-0.050,-0.050,0.000,0.000,0.000
1644915608498574848,2022-02-15-09:00:08,10.1.1.5,26,0.010,0.010,0.010,0.000,0.000,0.000
1644915608558160128,2022-02-15-09:00:08,10.1.1.5,34,0.020,0.020,0.020,0.000,0.000,0.000
1644915608618316800,2022-02-15-09:00:08,10.1.1.5,39,0.030,0.030,0.030,0.000,0.000,0.000
1644915608658433024,2022-02-15-09:00:08,10.1.1.5,28,0.040,0.040,0.040,0.000,0.000,0.000
1644915608718408192,2022-02-15-09:00:08,10.1.1.5,33,0.050,0.050,0.050,0.000,0.000,0.000
1644915608918649856,2022-02-15-09:00:08,10.1.1.5,29,0.090,0.090,0.090,0.000,0.000,0.000
1644915608978171136,2022-02-15-09:00:08,10.1.1.5,38,0.100,0.100,0.100,0.000,0.000,0.000
1644915609018481920,2022-02-15-09:00:09,10.1.1.5,27,0.090,0.090,0.090,0.000,0.000,0.000
1644915609081300992,2022-02-15-09:00:09,10.1.1.5,36,0.080,0.080,0.080,0.000,0.000,0.000
1644915609118455808,2022-02-15-09:00:09,10.1.1.5,25,0.070,0.070,0.070,0.000,0.000,0.000
1644915609181453824,2022-02-15-09:00:09,10.1.1.5,35,0.060,0.060,0.060,0.000,0.000,0.000
1644915609218672128,2022-02-15-09:00:09,10.1.1.5,24,0.050,0.050,0.050,0.000,0.000,0.000
1644915609280091136,2022-02-15-09:00:09,10.1.1.5,34,0.040,0.040,0.040,0.000,0.000,0.000
1644915609478377984,2022-02-15-09:00:09,10.1.1.5,29,0.000,0.000,0.000,0.000,0.000,0.000
1644915609538358016,2022-02-15-09:00:09,10.1.1.5,38,-0.010,-0.010,-0.010,0.000,0.000,0.000
1644915609578664192,2022-02-15-09:00:09,10.1.1.5,27,-0.020,-0.020,-0.020,0.000,0.000,0.000
1644915609680072960,2022-02-15-09:00:09,10.1.1.5,24,-0.030,-0.030,-0.030,0.000,0.000,0.000
1644915609738321152,2022-02-15-09:00:09,10.1.1.5,33,-0.040,-0.040,-0.040,0.000,0.000,0.000
1644915609998696192,2022-02-15-09:00:09,10.1.1.5,39,-0.090,-0.090,-0.090,0.000,0.000,0.000
1644915610040160000,2022-02-15-09:00:10,10.1.1.5,28,-0.100,-0.100,-0.100,0.000,0.000,0.000
1644915610102176000,2022-02-15-09:00:10,10.1.1.5,38,-0.090,-0.090,-0.090,0.000,0.000,0.000
1644915610138642176,2022-02-15-09:00:10,10.1.1.5,26,-0.080,-0.080,-0.080,0.000,0.000,0.000
1644915610198542080,2022-02-15-09:00:10,10.1.1.5,35,-0.070,-0.070,-0.070,0.000,0.000,0.000
1644915610238509824,2022-02-15-09:00:10,10.1.1.5,24,-0.060,-0.060,-0.060,0.000,0.000,0.000
1644915610398190848,2022-02-15-09:00:10,10.1.1.5,28,-0.030,-0.030,-0.030,0.000,0.000,0.000
1644915610458049024,2022-02-15-09:00:10,10.1.1.5,38,-0.020,-0.020,-0.020,0.000,0.000,0.000
1644915610499803136,2022-02-15-09:00:10,10.1.1.5,27,-0.010,-0.010,-0.010,0.000,0.000,0.000
1644915610558490880,2022-02-15-09:00:10,10.1.1.5,36,0.000,0.000,0.000,0.000,0.000,0.000
1644915610598068992,2022-02-15-09:00:10,10.1.1.5,26,0.010,0.010,0.010,0.000,0.000,0.000
1644915610658956032,2022-02-15-09:00:10,10.1.1.5,35,0.020,0.020,0.020,0.000,0.000,0.000
1644915610699496960,2022-02-15-09:00:10,10.1.1.5,25,0.030,0.030,0.030,0.000,0.000,0.000
1644915610758749952,2022-02-15-09:00:10,10.1.1.5,34,0.040,0.040,0.040,0.000,0.000,0.000
1644915611018953984,2022-02-15-09:00:11,10.1.1.5,39,0.090,0.090,0.090,0.000,0.000,0.000
1644915611061216000,2022-02-15-09:00:11,10.1.1.5,27,0.100,0.100,0.100,0.000,0.000,0.000
1644915611118644992,2022-02-15-09:00:11,10.1.1.5,36,0.090,0.090,0.090,0.000,0.000,0.000
1644915611159430144,2022-02-15-09:00:11,10.1.1.5,26,0.080,0.080,0.080,0.000,0.000,0.000
1644915611219945984,2022-02-15-09:00:11,10.1.1.5,35,0.070,0.070,0.070,0.000,0.000,0.000
1644915611258729984,2022-02-15-09:00:11,10.1.1.5,25,0.060,0.060,0.060,0.000,0.000,0.000
1644915611318130944,2022-02-15-09:00:11,10.1.1.5,34,0.050,0.050,0.050,0.000,0.000,0.000
1644915611478024960,2022-02-15-09:00:11,10.1.1.5,37,0.020,0.020,0.020,0.000,0.000,0.000
1644915611519091968,2022-02-15-09:00:11,10.1.1.5,27,0.010,0.010,0.010,0.000,0.000,0.000
1644915611578237184,2022-02-15-09:00:11,10.1.1.5,35,-0.000,-0.000,-0.000,0.000,0.000,0.000
1644915611678700032,2022-02-15-09:00:11,10.1.1.5,29,-0.020,-0.020,-0.020,0.000,0.000,0.000
1644915611739682048,2022-02-15-09:00:11,10.1.1.5,33,-0.030,-0.030,-0.030,0.000,0.000,0.000
1644915611839142144,2022-02-15-09:00:11,10.1.1.5,29,-0.050,-0.050,-0.050,0.000,0.000,0.000
1644915611900317952,2022-02-15-09:00:11,10.1.1.5,36,-0.060,-0.060,-0.060,0.000,0.000,0.000
1644915611938214144,2022-02-15-09:00:11,10.1.1.5,23,-0.070,-0.070,-0.070,0.000,0.000,0.000
1644915612098515968,2022-02-15-09:00:12,10.1.1.5,25,-0.100,-0.100,-0.100,0.000,0.000,0.000
1644915612159152896,2022-02-15-09:00:12,10.1.1.5,34,-0.090,-0.090,-0.090,0.000,0.000,0.000
1644915612199353088,2022-02-15-09:00:12,10.1.1.5,24,-0.080,-0.080,-0.080,0.000,0.000,0.000
1644915612358392832,2022-02-15-09:00:12,10.1.1.5,29,-0.050,-0.050,-0.050,0.000,0.000,0.000
1644915612419651072,2022-02-15-09:00:12,10.1.1.5,39,-0.040,-0.040,-0.040,0.000,0.000,0.000
1644915612464265216,2022-02-15-09:00:12,10.1.1.5,28,-0.030,-0.030,-0.030,0.000,0.000,0.000
1644915612578358016,2022-02-15-09:00:12,10.1.1.5,23,-0.010,-0.010,-0.010,0.000,0.000,0.000
1644915612737795072,2022-02-15-09:00:12,10.1.1.5,29,0.020,0.020,0.020,0.000,0.000,0.000
1644915612798893056,2022-02-15-09:00:12,10.1.1.5,39,0.030,0.030,0.030,0.000,0.000,0.000
1644915612837956864,2022-02-15-09:00:12,10.1.1.5,28,0.040,0.040,0.040,0.000,0.000,0.000
