FedericoMungari/DigitalTwin_service/01_WiredScenario/Output/Output_script/script_rosapi_2_output_robots6_freq0_1.txt
timestamp,date,node,latency,joint_1,joint_2,joint_3,joint_4,joint_5,joint_6
1641091002313123840,2022-01-02-02:36:42,10.1.1.2,185,-0.010,-0.010,-0.010,0.000,0.000,0.000
1641091002501970944,2022-01-02-02:36:42,10.1.1.2,172,-0.020,-0.020,-0.020,0.000,0.000,0.000
1641091002713608960,2022-01-02-02:36:42,10.1.1.2,175,-0.030,-0.030,-0.030,0.000,0.000,0.000
1641091002916696064,2022-01-02-02:36:42,10.1.1.2,177,-0.040,-0.040,-0.040,0.000,0.000,0.000
1641091003109680896,2022-01-02-02:36:43,10.1.1.2,170,-0.050,-0.050,-0.050,0.000,0.000,0.000
1641091003312581120,2022-01-02-02:36:43,10.1.1.2,169,-0.060,-0.060,-0.060,0.000,0.000,0.000
1641091003517297152,2022-01-02-02:36:43,10.1.1.2,175,-0.070,-0.070,-0.070,0.000,0.000,0.000
1641091003733334016,2022-01-02-02:36:43,10.1.1.2,190,-0.080,-0.080,-0.080,0.000,0.000,0.000
1641091003917191936,2022-01-02-02:36:43,10.1.1.2,173,-0.090,-0.090,-0.090,0.000,0.000,0.000
1641091004111340032,2022-01-02-02:36:44,10.1.1.2,167,-0.100,-0.100,-0.100,0.000,0.000,0.000
1641091004315586048,2022-01-02-02:36:44,10.1.1.2,169,-0.110,-0.110,-0.110,0.000,0.000,0.000
1641091004528372992,2022-01-02-02:36:44,10.1.1.2,173,-0.120,-0.120,-0.120,0.000,0.000,0.000
1641091004730521088,2022-01-02-02:36:44,10.1.1.2,172,-0.130,-0.130,-0.130,0.000,0.000,0.000
1641091004936312064,2022-01-02-02:36:44,10.1.1.2,177,-0.140,-0.140,-0.140,0.000,0.000,0.000
1641091005129713152,2022-01-02-02:36:45,10.1.1.2,170,-0.150,-0.150,-0.150,0.000,0.000,0.000
1641091005334287872,2022-01-02-02:36:45,10.1.1.2,173,-0.160,-0.160,-0.160,0.000,0.000,0.000
1641091005528026112,2022-01-02-02:36:45,10.1.1.2,166,-0.170,-0.170,-0.170,0.000,0.000,0.000
1641091005728910848,2022-01-02-02:36:45,10.1.1.2,165,-0.180,-0.180,-0.180,0.000,0.000,0.000
1641091005927202816,2022-01-02-02:36:45,10.1.1.2,162,-0.190,-0.190,-0.190,0.000,0.000,0.000
1641091006147432192,2022-01-02-02:36:46,10.1.1.2,173,-0.200,-0.200,-0.200,0.000,0.000,0.000
1641091006348637952,2022-01-02-02:36:46,10.1.1.2,174,-0.210,-0.210,-0.210,0.000,0.000,0.000
1641091006544916992,2022-01-02-02:36:46,10.1.1.2,169,-0.220,-0.220,-0.220,0.000,0.000,0.000
1641091006747277056,2022-01-02-02:36:46,10.1.1.2,171,-0.230,-0.230,-0.230,0.000,0.000,0.000
1641091006947483904,2022-01-02-02:36:46,10.1.1.2,170,-0.240,-0.240,-0.240,0.000,0.000,0.000
1641091007167484928,2022-01-02-02:36:47,10.1.1.2,189,-0.250,-0.250,-0.250,0.000,0.000,0.000
1641091007349744128,2022-01-02-02:36:47,10.1.1.2,170,-0.260,-0.260,-0.260,0.000,0.000,0.000
1641091007547710976,2022-01-02-02:36:47,10.1.1.2,166,-0.270,-0.270,-0.270,0.000,0.000,0.000
1641091007748708864,2022-01-02-02:36:47,10.1.1.2,166,-0.280,-0.280,-0.280,0.000,0.000,0.000
1641091007967747072,2022-01-02-02:36:47,10.1.1.2,179,-0.290,-0.290,-0.290,0.000,0.000,0.000
1641091008166675968,2022-01-02-02:36:48,10.1.1.2,177,-0.300,-0.300,-0.300,0.000,0.000,0.000
1641091008372273920,2022-01-02-02:36:48,10.1.1.2,182,-0.310,-0.310,-0.310,0.000,0.000,0.000
1641091008563975168,2022-01-02-02:36:48,10.1.1.2,173,-0.320,-0.320,-0.320,0.000,0.000,0.000
1641091008767833856,2022-01-02-02:36:48,10.1.1.2,175,-0.330,-0.330,-0.330,0.000,0.000,0.000
1641091008967026944,2022-01-02-02:36:48,10.1.1.2,173,-0.340,-0.340,-0.340,0.000,0.000,0.000
1641091009172454144,2022-01-02-02:36:49,10.1.1.2,175,-0.350,-0.350,-0.350,0.000,0.000,0.000
1641091009362603776,2022-01-02-02:36:49,10.1.1.2,167,-0.360,-0.360,-0.360,0.000,0.000,0.000
1641091009563857152,2022-01-02-02:36:49,10.1.1.2,167,-0.370,-0.370,-0.370,0.000,0.000,0.000
1641091009762564864,2022-01-02-02:36:49,10.1.1.2,162,-0.380,-0.380,-0.380,0.000,0.000,0.000
1641091009982183936,2022-01-02-02:36:49,10.1.1.2,182,-0.390,-0.390,-0.390,0.000,0.000,0.000
1641091010161238016,2022-01-02-02:36:50,10.1.1.2,158,-0.400,-0.400,-0.400,0.000,0.000,0.000
1641091010364530944,2022-01-02-02:36:50,10.1.1.2,160,-0.410,-0.410,-0.410,0.000,0.000,0.000
1641091010561261824,2022-01-02-02:36:50,10.1.1.2,157,-0.420,-0.420,-0.420,0.000,0.000,0.000
1641091010761508864,2022-01-02-02:36:50,10.1.1.2,154,-0.430,-0.430,-0.430,0.000,0.000,0.000
1641091010960596992,2022-01-02-02:36:50,10.1.1.2,153,-0.440,-0.440,-0.440,0.000,0.000,0.000
1641091011180674048,2022-01-02-02:36:51,10.1.1.2,173,-0.450,-0.450,-0.450,0.000,0.000,0.000
1641091011378298112,2022-01-02-02:36:51,10.1.1.2,169,-0.460,-0.460,-0.460,0.000,0.000,0.000
1641091011585953024,2022-01-02-02:36:51,10.1.1.2,175,-0.470,-0.470,-0.470,0.000,0.000,0.000
1641091011770375936,2022-01-02-02:36:51,10.1.1.2,159,-0.480,-0.480,-0.480,0.000,0.000,0.000
1641091011978019840,2022-01-02-02:36:51,10.1.1.2,166,-0.490,-0.490,-0.490,0.000,0.000,0.000
1641091012178571008,2022-01-02-02:36:52,10.1.1.2,166,-0.480,-0.480,-0.480,0.000,0.000,0.000
1641091012379187968,2022-01-02-02:36:52,10.1.1.2,165,-0.470,-0.470,-0.470,0.000,0.000,0.000
1641091012579435008,2022-01-02-02:36:52,10.1.1.2,164,-0.460,-0.460,-0.460,0.000,0.000,0.000
1641091012780673024,2022-01-02-02:36:52,10.1.1.2,165,-0.450,-0.450,-0.450,0.000,0.000,0.000
1641091012978704896,2022-01-02-02:36:52,10.1.1.2,162,-0.440,-0.440,-0.440,0.000,0.000,0.000
1641091013177979904,2022-01-02-02:36:53,10.1.1.2,158,-0.430,-0.430,-0.430,0.000,0.000,0.000
1641091013378885120,2022-01-02-02:36:53,10.1.1.2,160,-0.420,-0.420,-0.420,0.000,0.000,0.000
1641091013574672896,2022-01-02-02:36:53,10.1.1.2,155,-0.410,-0.410,-0.410,0.000,0.000,0.000
1641091013776305920,2022-01-02-02:36:53,10.1.1.2,155,-0.400,-0.400,-0.400,0.000,0.000,0.000
1641091013978106112,2022-01-02-02:36:53,10.1.1.2,156,-0.390,-0.390,-0.390,0.000,0.000,0.000
1641091014193691136,2022-01-02-02:36:54,10.1.1.2,171,-0.380,-0.380,-0.380,0.000,0.000,0.000
1641091014373800960,2022-01-02-02:36:54,10.1.1.2,150,-0.370,-0.370,-0.370,0.000,0.000,0.000
1641091014574606848,2022-01-02-02:36:54,10.1.1.2,150,-0.360,-0.360,-0.360,0.000,0.000,0.000
1641091014775608064,2022-01-02-02:36:54,10.1.1.2,150,-0.350,-0.350,-0.350,0.000,0.000,0.000
1641091014975066880,2022-01-02-02:36:54,10.1.1.2,148,-0.340,-0.340,-0.340,0.000,0.000,0.000
1641091015195305216,2022-01-02-02:36:55,10.1.1.2,163,-0.330,-0.330,-0.330,0.000,0.000,0.000
1641091015384576000,2022-01-02-02:36:55,10.1.1.2,155,-0.320,-0.320,-0.320,0.000,0.000,0.000
1641091015594029824,2022-01-02-02:36:55,10.1.1.2,161,-0.310,-0.310,-0.310,0.000,0.000,0.000
1641091015793716992,2022-01-02-02:36:55,10.1.1.2,157,-0.300,-0.300,-0.300,0.000,0.000,0.000
1641091015993999872,2022-01-02-02:36:55,10.1.1.2,158,-0.290,-0.290,-0.290,0.000,0.000,0.000
1641091016194413824,2022-01-02-02:36:56,10.1.1.2,155,-0.280,-0.280,-0.280,0.000,0.000,0.000
1641091016397257216,2022-01-02-02:36:56,10.1.1.2,158,-0.270,-0.270,-0.270,0.000,0.000,0.000
1641091016595550976,2022-01-02-02:36:56,10.1.1.2,155,-0.260,-0.260,-0.260,0.000,0.000,0.000
1641091016807756032,2022-01-02-02:36:56,10.1.1.2,167,-0.250,-0.250,-0.250,0.000,0.000,0.000
1641091017006694144,2022-01-02-02:36:57,10.1.1.2,164,-0.240,-0.240,-0.240,0.000,0.000,0.000
1641091017199459072,2022-01-02-02:36:57,10.1.1.2,154,-0.230,-0.230,-0.230,0.000,0.000,0.000
1641091017398215168,2022-01-02-02:36:57,10.1.1.2,151,-0.220,-0.220,-0.220,0.000,0.000,0.000
1641091017601277952,2022-01-02-02:36:57,10.1.1.2,154,-0.210,-0.210,-0.210,0.000,0.000,0.000
1641091017819632128,2022-01-02-02:36:57,10.1.1.2,171,-0.200,-0.200,-0.200,0.000,0.000,0.000
1641091018024827904,2022-01-02-02:36:58,10.1.1.2,175,-0.190,-0.190,-0.190,0.000,0.000,0.000
1641091018220946176,2022-01-02-02:36:58,10.1.1.2,166,-0.180,-0.180,-0.180,0.000,0.000,0.000
1641091018421908992,2022-01-02-02:36:58,10.1.1.2,166,-0.170,-0.170,-0.170,0.000,0.000,0.000
1641091018622850816,2022-01-02-02:36:58,10.1.1.2,166,-0.160,-0.160,-0.160,0.000,0.000,0.000
1641091018826296064,2022-01-02-02:36:58,10.1.1.2,165,-0.150,-0.150,-0.150,0.000,0.000,0.000
1641091019025552896,2022-01-02-02:36:59,10.1.1.2,165,-0.140,-0.140,-0.140,0.000,0.000,0.000
1641091019226973184,2022-01-02-02:36:59,10.1.1.2,166,-0.130,-0.130,-0.130,0.000,0.000,0.000
1641091019425262080,2022-01-02-02:36:59,10.1.1.2,164,-0.120,-0.120,-0.120,0.000,0.000,0.000
1641091019626877952,2022-01-02-02:36:59,10.1.1.2,165,-0.110,-0.110,-0.110,0.000,0.000,0.000
1641091019830019840,2022-01-02-02:36:59,10.1.1.2,168,-0.100,-0.100,-0.100,0.000,0.000,0.000
1641091020029313024,2022-01-02-02:37:00,10.1.1.2,166,-0.090,-0.090,-0.090,0.000,0.000,0.000
1641091020227847936,2022-01-02-02:37:00,10.1.1.2,164,-0.080,-0.080,-0.080,0.000,0.000,0.000
1641091020432305152,2022-01-02-02:37:00,10.1.1.2,163,-0.070,-0.070,-0.070,0.000,0.000,0.000
1641091020628817920,2022-01-02-02:37:00,10.1.1.2,163,-0.060,-0.060,-0.060,0.000,0.000,0.000
1641091020831238912,2022-01-02-02:37:00,10.1.1.2,165,-0.050,-0.050,-0.050,0.000,0.000,0.000
1641091021038270976,2022-01-02-02:37:01,10.1.1.2,171,-0.040,-0.040,-0.040,0.000,0.000,0.000
1641091021255453184,2022-01-02-02:37:01,10.1.1.2,177,-0.030,-0.030,-0.030,0.000,0.000,0.000
1641091021457827072,2022-01-02-02:37:01,10.1.1.2,178,-0.020,-0.020,-0.020,0.000,0.000,0.000
1641091021656013056,2022-01-02-02:37:01,10.1.1.2,175,-0.010,-0.010,-0.010,0.000,0.000,0.000
1641091021855709952,2022-01-02-02:37:01,10.1.1.2,173,0.000,0.000,0.000,0.000,0.000,0.000
1641091022054097920,2022-01-02-02:37:02,10.1.1.2,171,-0.010,-0.010,-0.010,0.000,0.000,0.000
1641091022254340864,2022-01-02-02:37:02,10.1.1.2,171,-0.020,-0.020,-0.020,0.000,0.000,0.000
1641091022453798912,2022-01-02-02:37:02,10.1.1.2,170,-0.030,-0.030,-0.030,0.000,0.000,0.000
1641091022655109888,2022-01-02-02:37:02,10.1.1.2,170,-0.040,-0.040,-0.040,0.000,0.000,0.000
1641091022860166912,2022-01-02-02:37:02,10.1.1.2,174,-0.050,-0.050,-0.050,0.000,0.000,0.000
1641091023055634944,2022-01-02-02:37:03,10.1.1.2,169,-0.060,-0.060,-0.060,0.000,0.000,0.000
1641091023275986944,2022-01-02-02:37:03,10.1.1.2,185,-0.070,-0.070,-0.070,0.000,0.000,0.000
1641091023477035008,2022-01-02-02:37:03,10.1.1.2,177,-0.080,-0.080,-0.080,0.000,0.000,0.000
1641091023675800064,2022-01-02-02:37:03,10.1.1.2,175,-0.090,-0.090,-0.090,0.000,0.000,0.000
1641091023873613056,2022-01-02-02:37:03,10.1.1.2,172,-0.100,-0.100,-0.100,0.000,0.000,0.000
1641091024078584832,2022-01-02-02:37:04,10.1.1.2,173,-0.110,-0.110,-0.110,0.000,0.000,0.000
1641091024274310144,2022-01-02-02:37:04,10.1.1.2,168,-0.120,-0.120,-0.120,0.000,0.000,0.000
1641091024475099136,2022-01-02-02:37:04,10.1.1.2,168,-0.130,-0.130,-0.130,0.000,0.000,0.000
1641091024674626048,2022-01-02-02:37:04,10.1.1.2,167,-0.140,-0.140,-0.140,0.000,0.000,0.000
1641091024875358208,2022-01-02-02:37:04,10.1.1.2,167,-0.150,-0.150,-0.150,0.000,0.000,0.000
1641091025094703872,2022-01-02-02:37:05,10.1.1.2,186,-0.160,-0.160,-0.160,0.000,0.000,0.000
1641091025297103872,2022-01-02-02:37:05,10.1.1.2,187,-0.170,-0.170,-0.170,0.000,0.000,0.000
1641091025496500992,2022-01-02-02:37:05,10.1.1.2,186,-0.180,-0.180,-0.180,0.000,0.000,0.000
1641091025698872064,2022-01-02-02:37:05,10.1.1.2,187,-0.190,-0.190,-0.190,0.000,0.000,0.000
1641091025885668096,2022-01-02-02:37:05,10.1.1.2,174,-0.200,-0.200,-0.200,0.000,0.000,0.000
1641091026086313984,2022-01-02-02:37:06,10.1.1.2,173,-0.210,-0.210,-0.210,0.000,0.000,0.000
1641091026295399936,2022-01-02-02:37:06,10.1.1.2,181,-0.220,-0.220,-0.220,0.000,0.000,0.000
1641091026498646016,2022-01-02-02:37:06,10.1.1.2,182,-0.230,-0.230,-0.230,0.000,0.000,0.000
1641091026696534016,2022-01-02-02:37:06,10.1.1.2,178,-0.240,-0.240,-0.240,0.000,0.000,0.000
1641091026895896064,2022-01-02-02:37:06,10.1.1.2,177,-0.250,-0.250,-0.250,0.000,0.000,0.000
1641091027098769920,2022-01-02-02:37:07,10.1.1.2,176,-0.260,-0.260,-0.260,0.000,0.000,0.000
1641091027298469120,2022-01-02-02:37:07,10.1.1.2,175,-0.270,-0.270,-0.270,0.000,0.000,0.000
1641091027499113984,2022-01-02-02:37:07,10.1.1.2,175,-0.280,-0.280,-0.280,0.000,0.000,0.000
1641091027696877056,2022-01-02-02:37:07,10.1.1.2,171,-0.290,-0.290,-0.290,0.000,0.000,0.000
1641091027897228032,2022-01-02-02:37:07,10.1.1.2,170,-0.300,-0.300,-0.300,0.000,0.000,0.000
1641091028099246080,2022-01-02-02:37:08,10.1.1.2,172,-0.310,-0.310,-0.310,0.000,0.000,0.000
1641091028317797888,2022-01-02-02:37:08,10.1.1.2,190,-0.320,-0.320,-0.320,0.000,0.000,0.000
1641091028517174016,2022-01-02-02:37:08,10.1.1.2,188,-0.330,-0.330,-0.330,0.000,0.000,0.000
1641091028718339072,2022-01-02-02:37:08,10.1.1.2,189,-0.340,-0.340,-0.340,0.000,0.000,0.000
1641091028905489920,2022-01-02-02:37:08,10.1.1.2,175,-0.350,-0.350,-0.350,0.000,0.000,0.000
1641091029115793920,2022-01-02-02:37:09,10.1.1.2,185,-0.360,-0.360,-0.360,0.000,0.000,0.000
1641091029314600960,2022-01-02-02:37:09,10.1.1.2,183,-0.370,-0.370,-0.370,0.000,0.000,0.000
1641091029515321088,2022-01-02-02:37:09,10.1.1.2,183,-0.380,-0.380,-0.380,0.000,0.000,0.000
1641091029714017024,2022-01-02-02:37:09,10.1.1.2,180,-0.390,-0.390,-0.390,0.000,0.000,0.000
1641091029914423040,2022-01-02-02:37:09,10.1.1.2,178,-0.400,-0.400,-0.400,0.000,0.000,0.000
1641091030113718016,2022-01-02-02:37:10,10.1.1.2,177,-0.410,-0.410,-0.410,0.000,0.000,0.000
1641091030317400832,2022-01-02-02:37:10,10.1.1.2,179,-0.420,-0.420,-0.420,0.000,0.000,0.000
1641091030536283136,2022-01-02-02:37:10,10.1.1.2,198,-0.430,-0.430,-0.430,0.000,0.000,0.000
1641091030715336192,2022-01-02-02:37:10,10.1.1.2,176,-0.440,-0.440,-0.440,0.000,0.000,0.000
1641091030914964992,2022-01-02-02:37:10,10.1.1.2,175,-0.450,-0.450,-0.450,0.000,0.000,0.000
1641091031114824960,2022-01-02-02:37:11,10.1.1.2,173,-0.460,-0.460,-0.460,0.000,0.000,0.000
1641091031313946880,2022-01-02-02:37:11,10.1.1.2,172,-0.470,-0.470,-0.470,0.000,0.000,0.000
1641091031515180032,2022-01-02-02:37:11,10.1.1.2,173,-0.480,-0.480,-0.480,0.000,0.000,0.000
1641091031713633024,2022-01-02-02:37:11,10.1.1.2,170,-0.490,-0.490,-0.490,0.000,0.000,0.000
1641091031915126016,2022-01-02-02:37:11,10.1.1.2,171,-0.480,-0.480,-0.480,0.000,0.000,0.000
1641091032114192896,2022-01-02-02:37:12,10.1.1.2,168,-0.470,-0.470,-0.470,0.000,0.000,0.000
1641091032315038976,2022-01-02-02:37:12,10.1.1.2,169,-0.460,-0.460,-0.460,0.000,0.000,0.000
1641091032514607872,2022-01-02-02:37:12,10.1.1.2,169,-0.450,-0.450,-0.450,0.000,0.000,0.000
1641091032714063872,2022-01-02-02:37:12,10.1.1.2,166,-0.440,-0.440,-0.440,0.000,0.000,0.000
1641091032914172928,2022-01-02-02:37:12,10.1.1.2,166,-0.430,-0.430,-0.430,0.000,0.000,0.000
1641091033133590016,2022-01-02-02:37:13,10.1.1.2,185,-0.420,-0.420,-0.420,0.000,0.000,0.000
1641091033334084864,2022-01-02-02:37:13,10.1.1.2,183,-0.410,-0.410,-0.410,0.000,0.000,0.000
1641091033531360000,2022-01-02-02:37:13,10.1.1.2,177,-0.400,-0.400,-0.400,0.000,0.000,0.000
1641091033721800960,2022-01-02-02:37:13,10.1.1.2,167,-0.390,-0.390,-0.390,0.000,0.000,0.000
1641091033931438080,2022-01-02-02:37:13,10.1.1.2,173,-0.380,-0.380,-0.380,0.000,0.000,0.000
1641091034133775872,2022-01-02-02:37:14,10.1.1.2,174,-0.370,-0.370,-0.370,0.000,0.000,0.000
1641091034332077056,2022-01-02-02:37:14,10.1.1.2,171,-0.360,-0.360,-0.360,0.000,0.000,0.000
1641091034534470144,2022-01-02-02:37:14,10.1.1.2,172,-0.350,-0.350,-0.350,0.000,0.000,0.000
1641091034734306048,2022-01-02-02:37:14,10.1.1.2,172,-0.340,-0.340,-0.340,0.000,0.000,0.000
1641091034936048896,2022-01-02-02:37:14,10.1.1.2,173,-0.330,-0.330,-0.330,0.000,0.000,0.000
1641091035132188160,2022-01-02-02:37:15,10.1.1.2,168,-0.320,-0.320,-0.320,0.000,0.000,0.000
1641091035332205056,2022-01-02-02:37:15,10.1.1.2,167,-0.310,-0.310,-0.310,0.000,0.000,0.000
1641091035530566912,2022-01-02-02:37:15,10.1.1.2,165,-0.300,-0.300,-0.300,0.000,0.000,0.000
1641091035728876032,2022-01-02-02:37:15,10.1.1.2,162,-0.290,-0.290,-0.290,0.000,0.000,0.000
1641091035930705920,2022-01-02-02:37:15,10.1.1.2,162,-0.280,-0.280,-0.280,0.000,0.000,0.000
1641091036131275008,2022-01-02-02:37:16,10.1.1.2,163,-0.270,-0.270,-0.270,0.000,0.000,0.000
1641091036356157184,2022-01-02-02:37:16,10.1.1.2,188,-0.260,-0.260,-0.260,0.000,0.000,0.000
1641091036549752064,2022-01-02-02:37:16,10.1.1.2,179,-0.250,-0.250,-0.250,0.000,0.000,0.000
1641091036750263808,2022-01-02-02:37:16,10.1.1.2,176,-0.240,-0.240,-0.240,0.000,0.000,0.000
1641091036950380032,2022-01-02-02:37:16,10.1.1.2,177,-0.230,-0.230,-0.230,0.000,0.000,0.000
1641091037147672064,2022-01-02-02:37:17,10.1.1.2,173,-0.220,-0.220,-0.220,0.000,0.000,0.000
1641091037351064832,2022-01-02-02:37:17,10.1.1.2,175,-0.210,-0.210,-0.210,0.000,0.000,0.000
1641091037548077056,2022-01-02-02:37:17,10.1.1.2,172,-0.200,-0.200,-0.200,0.000,0.000,0.000
1641091037750505984,2022-01-02-02:37:17,10.1.1.2,172,-0.190,-0.190,-0.190,0.000,0.000,0.000
1641091037946557952,2022-01-02-02:37:17,10.1.1.2,167,-0.180,-0.180,-0.180,0.000,0.000,0.000
1641091038148744192,2022-01-02-02:37:18,10.1.1.2,167,-0.170,-0.170,-0.170,0.000,0.000,0.000
1641091038348993024,2022-01-02-02:37:18,10.1.1.2,166,-0.160,-0.160,-0.160,0.000,0.000,0.000
1641091038547201024,2022-01-02-02:37:18,10.1.1.2,163,-0.150,-0.150,-0.150,0.000,0.000,0.000
1641091038765459968,2022-01-02-02:37:18,10.1.1.2,176,-0.140,-0.140,-0.140,0.000,0.000,0.000
1641091038967226112,2022-01-02-02:37:18,10.1.1.2,177,-0.130,-0.130,-0.130,0.000,0.000,0.000
1641091039167699200,2022-01-02-02:37:19,10.1.1.2,177,-0.120,-0.120,-0.120,0.000,0.000,0.000
1641091039364658944,2022-01-02-02:37:19,10.1.1.2,174,-0.110,-0.110,-0.110,0.000,0.000,0.000
1641091039566280960,2022-01-02-02:37:19,10.1.1.2,174,-0.100,-0.100,-0.100,0.000,0.000,0.000
1641091039767749120,2022-01-02-02:37:19,10.1.1.2,175,-0.090,-0.090,-0.090,0.000,0.000,0.000
1641091039964158976,2022-01-02-02:37:19,10.1.1.2,171,-0.080,-0.080,-0.080,0.000,0.000,0.000
1641091040165620992,2022-01-02-02:37:20,10.1.1.2,172,-0.070,-0.070,-0.070,0.000,0.000,0.000
1641091040365266176,2022-01-02-02:37:20,10.1.1.2,171,-0.060,-0.060,-0.060,0.000,0.000,0.000
1641091040564507904,2022-01-02-02:37:20,10.1.1.2,169,-0.050,-0.050,-0.050,0.000,0.000,0.000
1641091040768131072,2022-01-02-02:37:20,10.1.1.2,172,-0.040,-0.040,-0.040,0.000,0.000,0.000
1641091040964225024,2022-01-02-02:37:20,10.1.1.2,167,-0.030,-0.030,-0.030,0.000,0.000,0.000
1641091041166678784,2022-01-02-02:37:21,10.1.1.2,166,-0.020,-0.020,-0.020,0.000,0.000,0.000
1641091041364001024,2022-01-02-02:37:21,10.1.1.2,162,-0.010,-0.010,-0.010,0.000,0.000,0.000
1641091041564129024,2022-01-02-02:37:21,10.1.1.2,160,0.000,0.000,0.000,0.000,0.000,0.000
1641091041765530112,2022-01-02-02:37:21,10.1.1.2,160,-0.010,-0.010,-0.010,0.000,0.000,0.000
1641091041965306112,2022-01-02-02:37:21,10.1.1.2,159,-0.020,-0.020,-0.020,0.000,0.000,0.000
1641091042166575872,2022-01-02-02:37:22,10.1.1.2,159,-0.030,-0.030,-0.030,0.000,0.000,0.000
1641091042387111936,2022-01-02-02:37:22,10.1.1.2,178,-0.040,-0.040,-0.040,0.000,0.000,0.000
1641091042581114112,2022-01-02-02:37:22,10.1.1.2,169,-0.050,-0.050,-0.050,0.000,0.000,0.000
1641091042781552128,2022-01-02-02:37:22,10.1.1.2,168,-0.060,-0.060,-0.060,0.000,0.000,0.000
1641091042982481920,2022-01-02-02:37:22,10.1.1.2,169,-0.070,-0.070,-0.070,0.000,0.000,0.000
1641091043180221184,2022-01-02-02:37:23,10.1.1.2,166,-0.080,-0.080,-0.080,0.000,0.000,0.000
1641091043378302976,2022-01-02-02:37:23,10.1.1.2,163,-0.090,-0.090,-0.090,0.000,0.000,0.000
1641091043582326016,2022-01-02-02:37:23,10.1.1.2,166,-0.100,-0.100,-0.100,0.000,0.000,0.000
1641091043782341120,2022-01-02-02:37:23,10.1.1.2,166,-0.110,-0.110,-0.110,0.000,0.000,0.000
1641091043979208960,2022-01-02-02:37:23,10.1.1.2,162,-0.120,-0.120,-0.120,0.000,0.000,0.000
1641091044187907072,2022-01-02-02:37:24,10.1.1.2,168,-0.130,-0.130,-0.130,0.000,0.000,0.000
1641091044379461120,2022-01-02-02:37:24,10.1.1.2,159,-0.140,-0.140,-0.140,0.000,0.000,0.000
1641091044601857024,2022-01-02-02:37:24,10.1.1.2,180,-0.150,-0.150,-0.150,0.000,0.000,0.000
1641091044777523968,2022-01-02-02:37:24,10.1.1.2,155,-0.160,-0.160,-0.160,0.000,0.000,0.000
1641091044978252032,2022-01-02-02:37:24,10.1.1.2,155,-0.170,-0.170,-0.170,0.000,0.000,0.000
1641091045179419904,2022-01-02-02:37:25,10.1.1.2,156,-0.180,-0.180,-0.180,0.000,0.000,0.000
1641091045378270976,2022-01-02-02:37:25,10.1.1.2,154,-0.190,-0.190,-0.190,0.000,0.000,0.000
1641091045578611968,2022-01-02-02:37:25,10.1.1.2,153,-0.200,-0.200,-0.200,0.000,0.000,0.000
1641091045778696960,2022-01-02-02:37:25,10.1.1.2,152,-0.210,-0.210,-0.210,0.000,0.000,0.000
1641091045978266880,2022-01-02-02:37:25,10.1.1.2,151,-0.220,-0.220,-0.220,0.000,0.000,0.000
1641091046194900992,2022-01-02-02:37:26,10.1.1.2,167,-0.230,-0.230,-0.230,0.000,0.000,0.000
1641091046396628992,2022-01-02-02:37:26,10.1.1.2,168,-0.240,-0.240,-0.240,0.000,0.000,0.000
1641091046596484864,2022-01-02-02:37:26,10.1.1.2,165,-0.250,-0.250,-0.250,0.000,0.000,0.000
1641091046795974912,2022-01-02-02:37:26,10.1.1.2,164,-0.260,-0.260,-0.260,0.000,0.000,0.000
1641091046995235840,2022-01-02-02:37:26,10.1.1.2,156,-0.270,-0.270,-0.270,0.000,0.000,0.000
1641091047193698816,2022-01-02-02:37:27,10.1.1.2,154,-0.280,-0.280,-0.280,0.000,0.000,0.000
1641091047394941184,2022-01-02-02:37:27,10.1.1.2,154,-0.290,-0.290,-0.290,0.000,0.000,0.000
1641091047593975040,2022-01-02-02:37:27,10.1.1.2,151,-0.300,-0.300,-0.300,0.000,0.000,0.000
1641091047794274048,2022-01-02-02:37:27,10.1.1.2,149,-0.310,-0.310,-0.310,0.000,0.000,0.000
1641091047992553984,2022-01-02-02:37:27,10.1.1.2,147,-0.320,-0.320,-0.320,0.000,0.000,0.000
1641091048214211840,2022-01-02-02:37:28,10.1.1.2,167,-0.330,-0.330,-0.330,0.000,0.000,0.000
1641091048393465088,2022-01-02-02:37:28,10.1.1.2,146,-0.340,-0.340,-0.340,0.000,0.000,0.000
1641091048615495936,2022-01-02-02:37:28,10.1.1.2,167,-0.350,-0.350,-0.350,0.000,0.000,0.000
1641091048817774080,2022-01-02-02:37:28,10.1.1.2,167,-0.360,-0.360,-0.360,0.000,0.000,0.000
1641091049022131968,2022-01-02-02:37:29,10.1.1.2,171,-0.370,-0.370,-0.370,0.000,0.000,0.000
1641091049219808000,2022-01-02-02:37:29,10.1.1.2,169,-0.380,-0.380,-0.380,0.000,0.000,0.000
1641091049420499200,2022-01-02-02:37:29,10.1.1.2,170,-0.390,-0.390,-0.390,0.000,0.000,0.000
1641091049622390016,2022-01-02-02:37:29,10.1.1.2,171,-0.400,-0.400,-0.400,0.000,0.000,0.000
1641091049824350208,2022-01-02-02:37:29,10.1.1.2,172,-0.410,-0.410,-0.410,0.000,0.000,0.000
1641091050024075008,2022-01-02-02:37:30,10.1.1.2,171,-0.420,-0.420,-0.420,0.000,0.000,0.000
1641091050223921152,2022-01-02-02:37:30,10.1.1.2,169,-0.430,-0.430,-0.430,0.000,0.000,0.000
1641091050414226176,2022-01-02-02:37:30,10.1.1.2,160,-0.440,-0.440,-0.440,0.000,0.000,0.000
1641091050627290880,2022-01-02-02:37:30,10.1.1.2,172,-0.450,-0.450,-0.450,0.000,0.000,0.000
1641091050828064000,2022-01-02-02:37:30,10.1.1.2,171,-0.460,-0.460,-0.460,0.000,0.000,0.000
1641091051027195904,2022-01-02-02:37:31,10.1.1.2,169,-0.470,-0.470,-0.470,0.000,0.000,0.000
1641091051230388992,2022-01-02-02:37:31,10.1.1.2,168,-0.480,-0.480,-0.480,0.000,0.000,0.000
1641091051428700928,2022-01-02-02:37:31,10.1.1.2,168,-0.490,-0.490,-0.490,0.000,0.000,0.000
1641091051629059072,2022-01-02-02:37:31,10.1.1.2,165,-0.480,-0.480,-0.480,0.000,0.000,0.000
1641091051830116096,2022-01-02-02:37:31,10.1.1.2,165,-0.470,-0.470,-0.470,0.000,0.000,0.000
1641091052039016960,2022-01-02-02:37:32,10.1.1.2,173,-0.460,-0.460,-0.460,0.000,0.000,0.000
1641091052231030016,2022-01-02-02:37:32,10.1.1.2,164,-0.450,-0.450,-0.450,0.000,0.000,0.000
1641091052454914048,2022-01-02-02:37:32,10.1.1.2,187,-0.440,-0.440,-0.440,0.000,0.000,0.000
1641091052652098048,2022-01-02-02:37:32,10.1.1.2,179,-0.430,-0.430,-0.430,0.000,0.000,0.000
1641091052852114944,2022-01-02-02:37:32,10.1.1.2,178,-0.420,-0.420,-0.420,0.000,0.000,0.000
1641091053052033792,2022-01-02-02:37:33,10.1.1.2,177,-0.410,-0.410,-0.410,0.000,0.000,0.000
1641091053251584000,2022-01-02-02:37:33,10.1.1.2,173,-0.400,-0.400,-0.400,0.000,0.000,0.000
1641091053452676096,2022-01-02-02:37:33,10.1.1.2,173,-0.390,-0.390,-0.390,0.000,0.000,0.000
1641091053653342976,2022-01-02-02:37:33,10.1.1.2,170,-0.380,-0.380,-0.380,0.000,0.000,0.000
1641091053851460864,2022-01-02-02:37:33,10.1.1.2,168,-0.370,-0.370,-0.370,0.000,0.000,0.000
1641091054052711936,2022-01-02-02:37:34,10.1.1.2,169,-0.360,-0.360,-0.360,0.000,0.000,0.000
1641091054255429120,2022-01-02-02:37:34,10.1.1.2,170,-0.350,-0.350,-0.350,0.000,0.000,0.000
1641091054455195904,2022-01-02-02:37:34,10.1.1.2,169,-0.340,-0.340,-0.340,0.000,0.000,0.000
1641091054656444928,2022-01-02-02:37:34,10.1.1.2,165,-0.330,-0.330,-0.330,0.000,0.000,0.000
1641091054875768064,2022-01-02-02:37:34,10.1.1.2,187,-0.320,-0.320,-0.320,0.000,0.000,0.000
1641091055076363008,2022-01-02-02:37:35,10.1.1.2,187,-0.310,-0.310,-0.310,0.000,0.000,0.000
1641091055279401984,2022-01-02-02:37:35,10.1.1.2,189,-0.300,-0.300,-0.300,0.000,0.000,0.000
1641091055476130048,2022-01-02-02:37:35,10.1.1.2,185,-0.290,-0.290,-0.290,0.000,0.000,0.000
1641091055666182144,2022-01-02-02:37:35,10.1.1.2,174,-0.280,-0.280,-0.280,0.000,0.000,0.000
1641091055874205184,2022-01-02-02:37:35,10.1.1.2,181,-0.270,-0.270,-0.270,0.000,0.000,0.000
1641091056076827904,2022-01-02-02:37:36,10.1.1.2,183,-0.260,-0.260,-0.260,0.000,0.000,0.000
1641091056276094976,2022-01-02-02:37:36,10.1.1.2,174,-0.250,-0.250,-0.250,0.000,0.000,0.000
1641091056476179968,2022-01-02-02:37:36,10.1.1.2,174,-0.240,-0.240,-0.240,0.000,0.000,0.000
1641091056684096000,2022-01-02-02:37:36,10.1.1.2,177,-0.230,-0.230,-0.230,0.000,0.000,0.000
1641091056877705216,2022-01-02-02:37:36,10.1.1.2,174,-0.220,-0.220,-0.220,0.000,0.000,0.000
1641091057075268864,2022-01-02-02:37:37,10.1.1.2,170,-0.210,-0.210,-0.210,0.000,0.000,0.000
1641091057278515200,2022-01-02-02:37:37,10.1.1.2,172,-0.200,-0.200,-0.200,0.000,0.000,0.000
1641091057497630976,2022-01-02-02:37:37,10.1.1.2,188,-0.190,-0.190,-0.190,0.000,0.000,0.000
1641091057697472000,2022-01-02-02:37:37,10.1.1.2,187,-0.180,-0.180,-0.180,0.000,0.000,0.000
1641091057898099968,2022-01-02-02:37:37,10.1.1.2,187,-0.170,-0.170,-0.170,0.000,0.000,0.000
1641091058095753984,2022-01-02-02:37:38,10.1.1.2,183,-0.160,-0.160,-0.160,0.000,0.000,0.000
1641091058297293824,2022-01-02-02:37:38,10.1.1.2,183,-0.150,-0.150,-0.150,0.000,0.000,0.000
1641091058496768000,2022-01-02-02:37:38,10.1.1.2,182,-0.140,-0.140,-0.140,0.000,0.000,0.000
1641091058702487040,2022-01-02-02:37:38,10.1.1.2,182,-0.130,-0.130,-0.130,0.000,0.000,0.000
1641091058896258048,2022-01-02-02:37:38,10.1.1.2,177,-0.120,-0.120,-0.120,0.000,0.000,0.000
1641091059098422016,2022-01-02-02:37:39,10.1.1.2,178,-0.110,-0.110,-0.110,0.000,0.000,0.000
1641091059299634944,2022-01-02-02:37:39,10.1.1.2,178,-0.100,-0.100,-0.100,0.000,0.000,0.000
1641091059516382976,2022-01-02-02:37:39,10.1.1.2,193,-0.090,-0.090,-0.090,0.000,0.000,0.000
1641091059699081984,2022-01-02-02:37:39,10.1.1.2,175,-0.080,-0.080,-0.080,0.000,0.000,0.000
1641091059902811136,2022-01-02-02:37:39,10.1.1.2,178,-0.070,-0.070,-0.070,0.000,0.000,0.000
1641091060098292992,2022-01-02-02:37:40,10.1.1.2,173,-0.060,-0.060,-0.060,0.000,0.000,0.000
1641091060299840000,2022-01-02-02:37:40,10.1.1.2,174,-0.050,-0.050,-0.050,0.000,0.000,0.000
1641091060496928000,2022-01-02-02:37:40,10.1.1.2,170,-0.040,-0.040,-0.040,0.000,0.000,0.000
1641091060718632960,2022-01-02-02:37:40,10.1.1.2,190,-0.030,-0.030,-0.030,0.000,0.000,0.000
1641091060918312192,2022-01-02-02:37:40,10.1.1.2,189,-0.020,-0.020,-0.020,0.000,0.000,0.000
1641091061118542848,2022-01-02-02:37:41,10.1.1.2,189,-0.010,-0.010,-0.010,0.000,0.000,0.000
1641091061316040960,2022-01-02-02:37:41,10.1.1.2,185,0.000,0.000,0.000,0.000,0.000,0.000
1641091061515892992,2022-01-02-02:37:41,10.1.1.2,184,-0.010,-0.010,-0.010,0.000,0.000,0.000
1641091061709747968,2022-01-02-02:37:41,10.1.1.2,177,-0.020,-0.020,-0.020,0.000,0.000,0.000
1641091061924958976,2022-01-02-02:37:41,10.1.1.2,191,-0.030,-0.030,-0.030,0.000,0.000,0.000
1641091062117316096,2022-01-02-02:37:42,10.1.1.2,183,-0.040,-0.040,-0.040,0.000,0.000,0.000
1641091062317043968,2022-01-02-02:37:42,10.1.1.2,180,-0.050,-0.050,-0.050,0.000,0.000,0.000
1641091062519731968,2022-01-02-02:37:42,10.1.1.2,182,-0.060,-0.060,-0.060,0.000,0.000,0.000
1641091062721685760,2022-01-02-02:37:42,10.1.1.2,182,-0.070,-0.070,-0.070,0.000,0.000,0.000
1641091062915612928,2022-01-02-02:37:42,10.1.1.2,175,-0.080,-0.080,-0.080,0.000,0.000,0.000
1641091063114505984,2022-01-02-02:37:43,10.1.1.2,173,-0.090,-0.090,-0.090,0.000,0.000,0.000
1641091063339279872,2022-01-02-02:37:43,10.1.1.2,196,-0.100,-0.100,-0.100,0.000,0.000,0.000
1641091063518349056,2022-01-02-02:37:43,10.1.1.2,176,-0.110,-0.110,-0.110,0.000,0.000,0.000
1641091063733859072,2022-01-02-02:37:43,10.1.1.2,190,-0.120,-0.120,-0.120,0.000,0.000,0.000
1641091063936180224,2022-01-02-02:37:43,10.1.1.2,192,-0.130,-0.130,-0.130,0.000,0.000,0.000
1641091064116945920,2022-01-02-02:37:44,10.1.1.2,169,-0.140,-0.140,-0.140,0.000,0.000,0.000
1641091064315357952,2022-01-02-02:37:44,10.1.1.2,169,-0.150,-0.150,-0.150,0.000,0.000,0.000
1641091064516305920,2022-01-02-02:37:44,10.1.1.2,169,-0.160,-0.160,-0.160,0.000,0.000,0.000
1641091064715353856,2022-01-02-02:37:44,10.1.1.2,165,-0.170,-0.170,-0.170,0.000,0.000,0.000
1641091064924235008,2022-01-02-02:37:44,10.1.1.2,175,-0.180,-0.180,-0.180,0.000,0.000,0.000
1641091065134216960,2022-01-02-02:37:45,10.1.1.2,184,-0.190,-0.190,-0.190,0.000,0.000,0.000
1641091065334390016,2022-01-02-02:37:45,10.1.1.2,182,-0.200,-0.200,-0.200,0.000,0.000,0.000
1641091065535231232,2022-01-02-02:37:45,10.1.1.2,183,-0.210,-0.210,-0.210,0.000,0.000,0.000
1641091065731982080,2022-01-02-02:37:45,10.1.1.2,177,-0.220,-0.220,-0.220,0.000,0.000,0.000
1641091065934432000,2022-01-02-02:37:45,10.1.1.2,179,-0.230,-0.230,-0.230,0.000,0.000,0.000
1641091066135374080,2022-01-02-02:37:46,10.1.1.2,179,-0.240,-0.240,-0.240,0.000,0.000,0.000
1641091066333591040,2022-01-02-02:37:46,10.1.1.2,176,-0.250,-0.250,-0.250,0.000,0.000,0.000
1641091066531220992,2022-01-02-02:37:46,10.1.1.2,173,-0.260,-0.260,-0.260,0.000,0.000,0.000
1641091066731034112,2022-01-02-02:37:46,10.1.1.2,172,-0.270,-0.270,-0.270,0.000,0.000,0.000
1641091066931953920,2022-01-02-02:37:46,10.1.1.2,173,-0.280,-0.280,-0.280,0.000,0.000,0.000
1641091067130376192,2022-01-02-02:37:47,10.1.1.2,170,-0.290,-0.290,-0.290,0.000,0.000,0.000
1641091067333831168,2022-01-02-02:37:47,10.1.1.2,172,-0.300,-0.300,-0.300,0.000,0.000,0.000
1641091067530160896,2022-01-02-02:37:47,10.1.1.2,166,-0.310,-0.310,-0.310,0.000,0.000,0.000
1641091067741329920,2022-01-02-02:37:47,10.1.1.2,176,-0.320,-0.320,-0.320,0.000,0.000,0.000
1641091067932035840,2022-01-02-02:37:47,10.1.1.2,167,-0.330,-0.330,-0.330,0.000,0.000,0.000
1641091068129349888,2022-01-02-02:37:48,10.1.1.2,161,-0.340,-0.340,-0.340,0.000,0.000,0.000
1641091068350548992,2022-01-02-02:37:48,10.1.1.2,182,-0.350,-0.350,-0.350,0.000,0.000,0.000
1641091068551803136,2022-01-02-02:37:48,10.1.1.2,182,-0.360,-0.360,-0.360,0.000,0.000,0.000
1641091068739780864,2022-01-02-02:37:48,10.1.1.2,168,-0.370,-0.370,-0.370,0.000,0.000,0.000
1641091068948528896,2022-01-02-02:37:48,10.1.1.2,176,-0.380,-0.380,-0.380,0.000,0.000,0.000
1641091069149246976,2022-01-02-02:37:49,10.1.1.2,175,-0.390,-0.390,-0.390,0.000,0.000,0.000
1641091069348737024,2022-01-02-02:37:49,10.1.1.2,172,-0.400,-0.400,-0.400,0.000,0.000,0.000
1641091069549829888,2022-01-02-02:37:49,10.1.1.2,174,-0.410,-0.410,-0.410,0.000,0.000,0.000
1641091069750801152,2022-01-02-02:37:49,10.1.1.2,172,-0.420,-0.420,-0.420,0.000,0.000,0.000
1641091069948798976,2022-01-02-02:37:49,10.1.1.2,170,-0.430,-0.430,-0.430,0.000,0.000,0.000
1641091070148207872,2022-01-02-02:37:50,10.1.1.2,168,-0.440,-0.440,-0.440,0.000,0.000,0.000
1641091070347390976,2022-01-02-02:37:50,10.1.1.2,166,-0.450,-0.450,-0.450,0.000,0.000,0.000
1641091070548624128,2022-01-02-02:37:50,10.1.1.2,166,-0.460,-0.460,-0.460,0.000,0.000,0.000
1641091070747796992,2022-01-02-02:37:50,10.1.1.2,162,-0.470,-0.470,-0.470,0.000,0.000,0.000
1641091070948487936,2022-01-02-02:37:50,10.1.1.2,163,-0.480,-0.480,-0.480,0.000,0.000,0.000
1641091071147678976,2022-01-02-02:37:51,10.1.1.2,158,-0.490,-0.490,-0.490,0.000,0.000,0.000
1641091071367585024,2022-01-02-02:37:51,10.1.1.2,179,-0.480,-0.480,-0.480,0.000,0.000,0.000
1641091071567759872,2022-01-02-02:37:51,10.1.1.2,178,-0.470,-0.470,-0.470,0.000,0.000,0.000
1641091071767652864,2022-01-02-02:37:51,10.1.1.2,178,-0.460,-0.460,-0.460,0.000,0.000,0.000
1641091071965001216,2022-01-02-02:37:51,10.1.1.2,174,-0.450,-0.450,-0.450,0.000,0.000,0.000
1641091072170906112,2022-01-02-02:37:52,10.1.1.2,179,-0.440,-0.440,-0.440,0.000,0.000,0.000
1641091072368155904,2022-01-02-02:37:52,10.1.1.2,176,-0.430,-0.430,-0.430,0.000,0.000,0.000
1641091072564493056,2022-01-02-02:37:52,10.1.1.2,172,-0.420,-0.420,-0.420,0.000,0.000,0.000
1641091072766695936,2022-01-02-02:37:52,10.1.1.2,173,-0.410,-0.410,-0.410,0.000,0.000,0.000
1641091072964282112,2022-01-02-02:37:52,10.1.1.2,168,-0.400,-0.400,-0.400,0.000,0.000,0.000
1641091073164835840,2022-01-02-02:37:53,10.1.1.2,169,-0.390,-0.390,-0.390,0.000,0.000,0.000
1641091073355670016,2022-01-02-02:37:53,10.1.1.2,159,-0.380,-0.380,-0.380,0.000,0.000,0.000
1641091073566216960,2022-01-02-02:37:53,10.1.1.2,168,-0.370,-0.370,-0.370,0.000,0.000,0.000
1641091073762137856,2022-01-02-02:37:53,10.1.1.2,162,-0.360,-0.360,-0.360,0.000,0.000,0.000
1641091073961863168,2022-01-02-02:37:53,10.1.1.2,160,-0.350,-0.350,-0.350,0.000,0.000,0.000
1641091074164953856,2022-01-02-02:37:54,10.1.1.2,161,-0.340,-0.340,-0.340,0.000,0.000,0.000
1641091074364544000,2022-01-02-02:37:54,10.1.1.2,159,-0.330,-0.330,-0.330,0.000,0.000,0.000
1641091074563035904,2022-01-02-02:37:54,10.1.1.2,157,-0.320,-0.320,-0.320,0.000,0.000,0.000
1641091074762908928,2022-01-02-02:37:54,10.1.1.2,156,-0.310,-0.310,-0.310,0.000,0.000,0.000
1641091074962439168,2022-01-02-02:37:54,10.1.1.2,155,-0.300,-0.300,-0.300,0.000,0.000,0.000
1641091075183154944,2022-01-02-02:37:55,10.1.1.2,172,-0.290,-0.290,-0.290,0.000,0.000,0.000
1641091075382756096,2022-01-02-02:37:55,10.1.1.2,170,-0.280,-0.280,-0.280,0.000,0.000,0.000
1641091075581496832,2022-01-02-02:37:55,10.1.1.2,169,-0.270,-0.270,-0.270,0.000,0.000,0.000
1641091075781888000,2022-01-02-02:37:55,10.1.1.2,169,-0.260,-0.260,-0.260,0.000,0.000,0.000
1641091075983342848,2022-01-02-02:37:55,10.1.1.2,168,-0.250,-0.250,-0.250,0.000,0.000,0.000
1641091076180130048,2022-01-02-02:37:56,10.1.1.2,162,-0.240,-0.240,-0.240,0.000,0.000,0.000
1641091076380345088,2022-01-02-02:37:56,10.1.1.2,163,-0.230,-0.230,-0.230,0.000,0.000,0.000
1641091076580487936,2022-01-02-02:37:56,10.1.1.2,160,-0.220,-0.220,-0.220,0.000,0.000,0.000
1641091076778776832,2022-01-02-02:37:56,10.1.1.2,156,-0.210,-0.210,-0.210,0.000,0.000,0.000
1641091076978714112,2022-01-02-02:37:56,10.1.1.2,157,-0.200,-0.200,-0.200,0.000,0.000,0.000
1641091077179208960,2022-01-02-02:37:57,10.1.1.2,157,-0.190,-0.190,-0.190,0.000,0.000,0.000
1641091077377545984,2022-01-02-02:37:57,10.1.1.2,154,-0.180,-0.180,-0.180,0.000,0.000,0.000
1641091077576179968,2022-01-02-02:37:57,10.1.1.2,151,-0.170,-0.170,-0.170,0.000,0.000,0.000
1641091077795787008,2022-01-02-02:37:57,10.1.1.2,170,-0.160,-0.160,-0.160,0.000,0.000,0.000
1641091077978046976,2022-01-02-02:37:57,10.1.1.2,152,-0.150,-0.150,-0.150,0.000,0.000,0.000
1641091078176883968,2022-01-02-02:37:58,10.1.1.2,150,-0.140,-0.140,-0.140,0.000,0.000,0.000
1641091078395014144,2022-01-02-02:37:58,10.1.1.2,166,-0.130,-0.130,-0.130,0.000,0.000,0.000
1641091078597181184,2022-01-02-02:37:58,10.1.1.2,167,-0.120,-0.120,-0.120,0.000,0.000,0.000
1641091078793616896,2022-01-02-02:37:58,10.1.1.2,163,-0.110,-0.110,-0.110,0.000,0.000,0.000
1641091078993694976,2022-01-02-02:37:58,10.1.1.2,163,-0.100,-0.100,-0.100,0.000,0.000,0.000
1641091079193654016,2022-01-02-02:37:59,10.1.1.2,162,-0.090,-0.090,-0.090,0.000,0.000,0.000
1641091079398322176,2022-01-02-02:37:59,10.1.1.2,166,-0.080,-0.080,-0.080,0.000,0.000,0.000
1641091079594997760,2022-01-02-02:37:59,10.1.1.2,161,-0.070,-0.070,-0.070,0.000,0.000,0.000
1641091079794467072,2022-01-02-02:37:59,10.1.1.2,159,-0.060,-0.060,-0.060,0.000,0.000,0.000
1641091079992827904,2022-01-02-02:37:59,10.1.1.2,156,-0.050,-0.050,-0.050,0.000,0.000,0.000
1641091080194770176,2022-01-02-02:38:00,10.1.1.2,157,-0.040,-0.040,-0.040,0.000,0.000,0.000
1641091080396061952,2022-01-02-02:38:00,10.1.1.2,158,-0.030,-0.030,-0.030,0.000,0.000,0.000
1641091080598062080,2022-01-02-02:38:00,10.1.1.2,159,-0.020,-0.020,-0.020,0.000,0.000,0.000
1641091080795972096,2022-01-02-02:38:00,10.1.1.2,156,-0.010,-0.010,-0.010,0.000,0.000,0.000
1641091080997664000,2022-01-02-02:38:00,10.1.1.2,157,0.000,0.000,0.000,0.000,0.000,0.000
1641091081202501120,2022-01-02-02:38:01,10.1.1.2,161,-0.010,-0.010,-0.010,0.000,0.000,0.000
1641091081406903040,2022-01-02-02:38:01,10.1.1.2,160,-0.020,-0.020,-0.020,0.000,0.000,0.000
1641091081600382976,2022-01-02-02:38:01,10.1.1.2,153,-0.030,-0.030,-0.030,0.000,0.000,0.000
1641091081824134144,2022-01-02-02:38:01,10.1.1.2,173,-0.040,-0.040,-0.040,0.000,0.000,0.000
1641091082023730944,2022-01-02-02:38:02,10.1.1.2,174,-0.050,-0.050,-0.050,0.000,0.000,0.000
1641091082224284928,2022-01-02-02:38:02,10.1.1.2,173,-0.060,-0.060,-0.060,0.000,0.000,0.000
1641091082428751104,2022-01-02-02:38:02,10.1.1.2,176,-0.070,-0.070,-0.070,0.000,0.000,0.000
1641091082624648192,2022-01-02-02:38:02,10.1.1.2,170,-0.080,-0.080,-0.080,0.000,0.000,0.000
1641091082824636928,2022-01-02-02:38:02,10.1.1.2,170,-0.090,-0.090,-0.090,0.000,0.000,0.000
1641091083024950016,2022-01-02-02:38:03,10.1.1.2,169,-0.100,-0.100,-0.100,0.000,0.000,0.000
1641091083228969216,2022-01-02-02:38:03,10.1.1.2,172,-0.110,-0.110,-0.110,0.000,0.000,0.000
1641091083433666048,2022-01-02-02:38:03,10.1.1.2,176,-0.120,-0.120,-0.120,0.000,0.000,0.000
1641091083628365056,2022-01-02-02:38:03,10.1.1.2,169,-0.130,-0.130,-0.130,0.000,0.000,0.000
1641091083830032128,2022-01-02-02:38:03,10.1.1.2,170,-0.140,-0.140,-0.140,0.000,0.000,0.000
1641091084029275904,2022-01-02-02:38:04,10.1.1.2,168,-0.150,-0.150,-0.150,0.000,0.000,0.000
1641091084231453952,2022-01-02-02:38:04,10.1.1.2,169,-0.160,-0.160,-0.160,0.000,0.000,0.000
1641091084436378112,2022-01-02-02:38:04,10.1.1.2,174,-0.170,-0.170,-0.170,0.000,0.000,0.000
1641091084629762048,2022-01-02-02:38:04,10.1.1.2,166,-0.180,-0.180,-0.180,0.000,0.000,0.000
1641091084830682880,2022-01-02-02:38:04,10.1.1.2,165,-0.190,-0.190,-0.190,0.000,0.000,0.000
1641091085030905088,2022-01-02-02:38:05,10.1.1.2,163,-0.200,-0.200,-0.200,0.000,0.000,0.000
1641091085251703040,2022-01-02-02:38:05,10.1.1.2,183,-0.210,-0.210,-0.210,0.000,0.000,0.000
1641091085455998976,2022-01-02-02:38:05,10.1.1.2,187,-0.220,-0.220,-0.220,0.000,0.000,0.000
1641091085660782080,2022-01-02-02:38:05,10.1.1.2,191,-0.230,-0.230,-0.230,0.000,0.000,0.000
1641091085858249984,2022-01-02-02:38:05,10.1.1.2,188,-0.240,-0.240,-0.240,0.000,0.000,0.000
1641091086057280000,2022-01-02-02:38:06,10.1.1.2,186,-0.250,-0.250,-0.250,0.000,0.000,0.000
1641091086255860992,2022-01-02-02:38:06,10.1.1.2,184,-0.260,-0.260,-0.260,0.000,0.000,0.000
1641091086455666944,2022-01-02-02:38:06,10.1.1.2,179,-0.270,-0.270,-0.270,0.000,0.000,0.000
1641091086656625920,2022-01-02-02:38:06,10.1.1.2,179,-0.280,-0.280,-0.280,0.000,0.000,0.000
1641091086853831936,2022-01-02-02:38:06,10.1.1.2,176,-0.290,-0.290,-0.290,0.000,0.000,0.000
1641091087054554112,2022-01-02-02:38:07,10.1.1.2,175,-0.300,-0.300,-0.300,0.000,0.000,0.000
1641091087254211072,2022-01-02-02:38:07,10.1.1.2,173,-0.310,-0.310,-0.310,0.000,0.000,0.000
1641091087456675072,2022-01-02-02:38:07,10.1.1.2,174,-0.320,-0.320,-0.320,0.000,0.000,0.000
1641091087658443008,2022-01-02-02:38:07,10.1.1.2,175,-0.330,-0.330,-0.330,0.000,0.000,0.000
1641091087878982912,2022-01-02-02:38:07,10.1.1.2,195,-0.340,-0.340,-0.340,0.000,0.000,0.000
1641091088059532032,2022-01-02-02:38:08,10.1.1.2,174,-0.350,-0.350,-0.350,0.000,0.000,0.000
1641091088275707904,2022-01-02-02:38:08,10.1.1.2,188,-0.360,-0.360,-0.360,0.000,0.000,0.000
1641091088478283776,2022-01-02-02:38:08,10.1.1.2,190,-0.370,-0.370,-0.370,0.000,0.000,0.000
1641091088677010176,2022-01-02-02:38:08,10.1.1.2,189,-0.380,-0.380,-0.380,0.000,0.000,0.000
1641091088876340992,2022-01-02-02:38:08,10.1.1.2,186,-0.390,-0.390,-0.390,0.000,0.000,0.000
1641091089078324992,2022-01-02-02:38:09,10.1.1.2,188,-0.400,-0.400,-0.400,0.000,0.000,0.000
1641091089278422016,2022-01-02-02:38:09,10.1.1.2,188,-0.410,-0.410,-0.410,0.000,0.000,0.000
1641091089467909120,2022-01-02-02:38:09,10.1.1.2,176,-0.420,-0.420,-0.420,0.000,0.000,0.000
1641091089678881024,2022-01-02-02:38:09,10.1.1.2,186,-0.430,-0.430,-0.430,0.000,0.000,0.000
1641091089866637056,2022-01-02-02:38:09,10.1.1.2,172,-0.440,-0.440,-0.440,0.000,0.000,0.000
1641091090067393024,2022-01-02-02:38:10,10.1.1.2,172,-0.450,-0.450,-0.450,0.000,0.000,0.000
1641091090268112896,2022-01-02-02:38:10,10.1.1.2,172,-0.460,-0.460,-0.460,0.000,0.000,0.000
1641091090479334144,2022-01-02-02:38:10,10.1.1.2,182,-0.470,-0.470,-0.470,0.000,0.000,0.000
1641091090680195072,2022-01-02-02:38:10,10.1.1.2,181,-0.480,-0.480,-0.480,0.000,0.000,0.000
1641091090877394944,2022-01-02-02:38:10,10.1.1.2,177,-0.490,-0.490,-0.490,0.000,0.000,0.000
1641091091098844160,2022-01-02-02:38:11,10.1.1.2,196,-0.480,-0.480,-0.480,0.000,0.000,0.000
1641091091276897024,2022-01-02-02:38:11,10.1.1.2,174,-0.470,-0.470,-0.470,0.000,0.000,0.000
1641091091500665856,2022-01-02-02:38:11,10.1.1.2,197,-0.460,-0.460,-0.460,0.000,0.000,0.000
1641091091699937024,2022-01-02-02:38:11,10.1.1.2,195,-0.450,-0.450,-0.450,0.000,0.000,0.000
1641091091879025920,2022-01-02-02:38:11,10.1.1.2,171,-0.440,-0.440,-0.440,0.000,0.000,0.000
1641091092096688896,2022-01-02-02:38:12,10.1.1.2,188,-0.430,-0.430,-0.430,0.000,0.000,0.000
1641091092297088000,2022-01-02-02:38:12,10.1.1.2,188,-0.420,-0.420,-0.420,0.000,0.000,0.000
1641091092487847168,2022-01-02-02:38:12,10.1.1.2,177,-0.410,-0.410,-0.410,0.000,0.000,0.000
1641091092698919936,2022-01-02-02:38:12,10.1.1.2,186,-0.400,-0.400,-0.400,0.000,0.000,0.000
1641091092896519936,2022-01-02-02:38:12,10.1.1.2,185,-0.390,-0.390,-0.390,0.000,0.000,0.000
1641091093096524032,2022-01-02-02:38:13,10.1.1.2,184,-0.380,-0.380,-0.380,0.000,0.000,0.000
1641091093295782144,2022-01-02-02:38:13,10.1.1.2,182,-0.370,-0.370,-0.370,0.000,0.000,0.000
1641091093498208000,2022-01-02-02:38:13,10.1.1.2,184,-0.360,-0.360,-0.360,0.000,0.000,0.000
1641091093698030080,2022-01-02-02:38:13,10.1.1.2,183,-0.350,-0.350,-0.350,0.000,0.000,0.000
1641091093899929088,2022-01-02-02:38:13,10.1.1.2,181,-0.340,-0.340,-0.340,0.000,0.000,0.000
1641091094095369216,2022-01-02-02:38:14,10.1.1.2,175,-0.330,-0.330,-0.330,0.000,0.000,0.000
1641091094305282048,2022-01-02-02:38:14,10.1.1.2,184,-0.320,-0.320,-0.320,0.000,0.000,0.000
1641091094496814848,2022-01-02-02:38:14,10.1.1.2,175,-0.310,-0.310,-0.310,0.000,0.000,0.000
1641091094696156928,2022-01-02-02:38:14,10.1.1.2,173,-0.300,-0.300,-0.300,0.000,0.000,0.000
1641091094897629952,2022-01-02-02:38:14,10.1.1.2,174,-0.290,-0.290,-0.290,0.000,0.000,0.000
1641091095096518912,2022-01-02-02:38:15,10.1.1.2,172,-0.280,-0.280,-0.280,0.000,0.000,0.000
1641091095297998848,2022-01-02-02:38:15,10.1.1.2,173,-0.270,-0.270,-0.270,0.000,0.000,0.000
1641091095497905920,2022-01-02-02:38:15,10.1.1.2,173,-0.260,-0.260,-0.260,0.000,0.000,0.000
1641091095697792000,2022-01-02-02:38:15,10.1.1.2,172,-0.250,-0.250,-0.250,0.000,0.000,0.000
1641091095897176064,2022-01-02-02:38:15,10.1.1.2,170,-0.240,-0.240,-0.240,0.000,0.000,0.000
1641091096106995200,2022-01-02-02:38:16,10.1.1.2,179,-0.230,-0.230,-0.230,0.000,0.000,0.000
1641091096317154048,2022-01-02-02:38:16,10.1.1.2,186,-0.220,-0.220,-0.220,0.000,0.000,0.000
1641091096505767168,2022-01-02-02:38:16,10.1.1.2,176,-0.210,-0.210,-0.210,0.000,0.000,0.000
1641091096716911104,2022-01-02-02:38:16,10.1.1.2,186,-0.200,-0.200,-0.200,0.000,0.000,0.000
1641091096916126976,2022-01-02-02:38:16,10.1.1.2,181,-0.190,-0.190,-0.190,0.000,0.000,0.000
1641091097115802880,2022-01-02-02:38:17,10.1.1.2,179,-0.180,-0.180,-0.180,0.000,0.000,0.000
1641091097314178048,2022-01-02-02:38:17,10.1.1.2,176,-0.170,-0.170,-0.170,0.000,0.000,0.000
1641091097515012864,2022-01-02-02:38:17,10.1.1.2,176,-0.160,-0.160,-0.160,0.000,0.000,0.000
1641091097715796992,2022-01-02-02:38:17,10.1.1.2,176,-0.150,-0.150,-0.150,0.000,0.000,0.000
1641091097914819840,2022-01-02-02:38:17,10.1.1.2,175,-0.140,-0.140,-0.140,0.000,0.000,0.000
1641091098122852096,2022-01-02-02:38:18,10.1.1.2,182,-0.130,-0.130,-0.130,0.000,0.000,0.000
1641091098315702016,2022-01-02-02:38:18,10.1.1.2,174,-0.120,-0.120,-0.120,0.000,0.000,0.000
1641091098514322944,2022-01-02-02:38:18,10.1.1.2,169,-0.110,-0.110,-0.110,0.000,0.000,0.000
1641091098713661952,2022-01-02-02:38:18,10.1.1.2,168,-0.100,-0.100,-0.100,0.000,0.000,0.000
1641091098913428992,2022-01-02-02:38:18,10.1.1.2,166,-0.090,-0.090,-0.090,0.000,0.000,0.000
1641091099139257856,2022-01-02-02:38:19,10.1.1.2,191,-0.080,-0.080,-0.080,0.000,0.000,0.000
1641091099335005952,2022-01-02-02:38:19,10.1.1.2,185,-0.070,-0.070,-0.070,0.000,0.000,0.000
1641091099532951040,2022-01-02-02:38:19,10.1.1.2,180,-0.060,-0.060,-0.060,0.000,0.000,0.000
1641091099732316928,2022-01-02-02:38:19,10.1.1.2,178,-0.050,-0.050,-0.050,0.000,0.000,0.000
1641091099935163136,2022-01-02-02:38:19,10.1.1.2,179,-0.040,-0.040,-0.040,0.000,0.000,0.000
1641091100132070144,2022-01-02-02:38:20,10.1.1.2,172,-0.030,-0.030,-0.030,0.000,0.000,0.000
1641091100332652032,2022-01-02-02:38:20,10.1.1.2,174,-0.020,-0.020,-0.020,0.000,0.000,0.000
1641091100530301952,2022-01-02-02:38:20,10.1.1.2,169,-0.010,-0.010,-0.010,0.000,0.000,0.000
1641091100729393920,2022-01-02-02:38:20,10.1.1.2,167,0.000,0.000,0.000,0.000,0.000,0.000
1641091100932071936,2022-01-02-02:38:20,10.1.1.2,170,-0.010,-0.010,-0.010,0.000,0.000,0.000
1641091101129241856,2022-01-02-02:38:21,10.1.1.2,166,-0.020,-0.020,-0.020,0.000,0.000,0.000
1641091101328901888,2022-01-02-02:38:21,10.1.1.2,165,-0.030,-0.030,-0.030,0.000,0.000,0.000
1641091101530025984,2022-01-02-02:38:21,10.1.1.2,165,-0.040,-0.040,-0.040,0.000,0.000,0.000
1641091101732811008,2022-01-02-02:38:21,10.1.1.2,166,-0.050,-0.050,-0.050,0.000,0.000,0.000
1641091101950102016,2022-01-02-02:38:21,10.1.1.2,181,-0.060,-0.060,-0.060,0.000,0.000,0.000
1641091102150985984,2022-01-02-02:38:22,10.1.1.2,181,-0.070,-0.070,-0.070,0.000,0.000,0.000
1641091102337912064,2022-01-02-02:38:22,10.1.1.2,167,-0.080,-0.080,-0.080,0.000,0.000,0.000
1641091102548571136,2022-01-02-02:38:22,10.1.1.2,177,-0.090,-0.090,-0.090,0.000,0.000,0.000
1641091102746227968,2022-01-02-02:38:22,10.1.1.2,173,-0.100,-0.100,-0.100,0.000,0.000,0.000
1641091102949073152,2022-01-02-02:38:22,10.1.1.2,174,-0.110,-0.110,-0.110,0.000,0.000,0.000
1641091103146099968,2022-01-02-02:38:23,10.1.1.2,172,-0.120,-0.120,-0.120,0.000,0.000,0.000
1641091103347964160,2022-01-02-02:38:23,10.1.1.2,173,-0.130,-0.130,-0.130,0.000,0.000,0.000
1641091103538060800,2022-01-02-02:38:23,10.1.1.2,160,-0.140,-0.140,-0.140,0.000,0.000,0.000
1641091103747028224,2022-01-02-02:38:23,10.1.1.2,171,-0.150,-0.150,-0.150,0.000,0.000,0.000
1641091103946693888,2022-01-02-02:38:23,10.1.1.2,169,-0.160,-0.160,-0.160,0.000,0.000,0.000
1641091104146471936,2022-01-02-02:38:24,10.1.1.2,169,-0.170,-0.170,-0.170,0.000,0.000,0.000
1641091104348254976,2022-01-02-02:38:24,10.1.1.2,170,-0.180,-0.180,-0.180,0.000,0.000,0.000
1641091104548158976,2022-01-02-02:38:24,10.1.1.2,168,-0.190,-0.190,-0.190,0.000,0.000,0.000
1641091104747705856,2022-01-02-02:38:24,10.1.1.2,168,-0.200,-0.200,-0.200,0.000,0.000,0.000
1641091104946768128,2022-01-02-02:38:24,10.1.1.2,166,-0.210,-0.210,-0.210,0.000,0.000,0.000
1641091105146974976,2022-01-02-02:38:25,10.1.1.2,166,-0.220,-0.220,-0.220,0.000,0.000,0.000
1641091105346160896,2022-01-02-02:38:25,10.1.1.2,164,-0.230,-0.230,-0.230,0.000,0.000,0.000
1641091105543270144,2022-01-02-02:38:25,10.1.1.2,157,-0.240,-0.240,-0.240,0.000,0.000,0.000
1641091105745986048,2022-01-02-02:38:25,10.1.1.2,158,-0.250,-0.250,-0.250,0.000,0.000,0.000
1641091105964621056,2022-01-02-02:38:25,10.1.1.2,175,-0.260,-0.260,-0.260,0.000,0.000,0.000
1641091106166650112,2022-01-02-02:38:26,10.1.1.2,176,-0.270,-0.270,-0.270,0.000,0.000,0.000
1641091106365156864,2022-01-02-02:38:26,10.1.1.2,173,-0.280,-0.280,-0.280,0.000,0.000,0.000
1641091106561441024,2022-01-02-02:38:26,10.1.1.2,167,-0.290,-0.290,-0.290,0.000,0.000,0.000
1641091106765579008,2022-01-02-02:38:26,10.1.1.2,167,-0.300,-0.300,-0.300,0.000,0.000,0.000
1641091106961544960,2022-01-02-02:38:26,10.1.1.2,166,-0.310,-0.310,-0.310,0.000,0.000,0.000
1641091107163909888,2022-01-02-02:38:27,10.1.1.2,168,-0.320,-0.320,-0.320,0.000,0.000,0.000
1641091107362176768,2022-01-02-02:38:27,10.1.1.2,165,-0.330,-0.330,-0.330,0.000,0.000,0.000
1641091107562657024,2022-01-02-02:38:27,10.1.1.2,165,-0.340,-0.340,-0.340,0.000,0.000,0.000
1641091107762473216,2022-01-02-02:38:27,10.1.1.2,161,-0.350,-0.350,-0.350,0.000,0.000,0.000
1641091107960144896,2022-01-02-02:38:27,10.1.1.2,161,-0.360,-0.360,-0.360,0.000,0.000,0.000
1641091108161964800,2022-01-02-02:38:28,10.1.1.2,160,-0.370,-0.370,-0.370,0.000,0.000,0.000
1641091108358799104,2022-01-02-02:38:28,10.1.1.2,152,-0.380,-0.380,-0.380,0.000,0.000,0.000
1641091108562625024,2022-01-02-02:38:28,10.1.1.2,154,-0.390,-0.390,-0.390,0.000,0.000,0.000
1641091108764293888,2022-01-02-02:38:28,10.1.1.2,157,-0.400,-0.400,-0.400,0.000,0.000,0.000
1641091108981489920,2022-01-02-02:38:28,10.1.1.2,173,-0.410,-0.410,-0.410,0.000,0.000,0.000
1641091109180440064,2022-01-02-02:38:29,10.1.1.2,171,-0.420,-0.420,-0.420,0.000,0.000,0.000
1641091109380857856,2022-01-02-02:38:29,10.1.1.2,171,-0.430,-0.430,-0.430,0.000,0.000,0.000
1641091109579921920,2022-01-02-02:38:29,10.1.1.2,169,-0.440,-0.440,-0.440,0.000,0.000,0.000
1641091109779362048,2022-01-02-02:38:29,10.1.1.2,167,-0.450,-0.450,-0.450,0.000,0.000,0.000
1641091109978425856,2022-01-02-02:38:29,10.1.1.2,166,-0.460,-0.460,-0.460,0.000,0.000,0.000
1641091110178206976,2022-01-02-02:38:30,10.1.1.2,163,-0.470,-0.470,-0.470,0.000,0.000,0.000
1641091110379392000,2022-01-02-02:38:30,10.1.1.2,165,-0.480,-0.480,-0.480,0.000,0.000,0.000
1641091110575572992,2022-01-02-02:38:30,10.1.1.2,161,-0.490,-0.490,-0.490,0.000,0.000,0.000
1641091110781271040,2022-01-02-02:38:30,10.1.1.2,166,-0.480,-0.480,-0.480,0.000,0.000,0.000
1641091110976289024,2022-01-02-02:38:30,10.1.1.2,160,-0.470,-0.470,-0.470,0.000,0.000,0.000
1641091111176131840,2022-01-02-02:38:31,10.1.1.2,158,-0.460,-0.460,-0.460,0.000,0.000,0.000
1641091111379996160,2022-01-02-02:38:31,10.1.1.2,162,-0.450,-0.450,-0.450,0.000,0.000,0.000
1641091111579247872,2022-01-02-02:38:31,10.1.1.2,158,-0.440,-0.440,-0.440,0.000,0.000,0.000
1641091111776356864,2022-01-02-02:38:31,10.1.1.2,153,-0.430,-0.430,-0.430,0.000,0.000,0.000
1641091111975645952,2022-01-02-02:38:31,10.1.1.2,155,-0.420,-0.420,-0.420,0.000,0.000,0.000
1641091112175742976,2022-01-02-02:38:32,10.1.1.2,154,-0.410,-0.410,-0.410,0.000,0.000,0.000
1641091112377118976,2022-01-02-02:38:32,10.1.1.2,154,-0.400,-0.400,-0.400,0.000,0.000,0.000
1641091112599354880,2022-01-02-02:38:32,10.1.1.2,171,-0.390,-0.390,-0.390,0.000,0.000,0.000
1641091112783106048,2022-01-02-02:38:32,10.1.1.2,156,-0.380,-0.380,-0.380,0.000,0.000,0.000
1641091113001511168,2022-01-02-02:38:33,10.1.1.2,173,-0.370,-0.370,-0.370,0.000,0.000,0.000
1641091113204050944,2022-01-02-02:38:33,10.1.1.2,175,-0.360,-0.360,-0.360,0.000,0.000,0.000
1641091113404881920,2022-01-02-02:38:33,10.1.1.2,171,-0.350,-0.350,-0.350,0.000,0.000,0.000
1641091113606074112,2022-01-02-02:38:33,10.1.1.2,175,-0.340,-0.340,-0.340,0.000,0.000,0.000
1641091113803915008,2022-01-02-02:38:33,10.1.1.2,172,-0.330,-0.330,-0.330,0.000,0.000,0.000
1641091114003761920,2022-01-02-02:38:34,10.1.1.2,171,-0.320,-0.320,-0.320,0.000,0.000,0.000
1641091114204531968,2022-01-02-02:38:34,10.1.1.2,169,-0.310,-0.310,-0.310,0.000,0.000,0.000
1641091114407362816,2022-01-02-02:38:34,10.1.1.2,168,-0.300,-0.300,-0.300,0.000,0.000,0.000
1641091114607901952,2022-01-02-02:38:34,10.1.1.2,168,-0.290,-0.290,-0.290,0.000,0.000,0.000
1641091114807347968,2022-01-02-02:38:34,10.1.1.2,166,-0.280,-0.280,-0.280,0.000,0.000,0.000
1641091115009696000,2022-01-02-02:38:35,10.1.1.2,166,-0.270,-0.270,-0.270,0.000,0.000,0.000
1641091115211702016,2022-01-02-02:38:35,10.1.1.2,167,-0.260,-0.260,-0.260,0.000,0.000,0.000
1641091115412452864,2022-01-02-02:38:35,10.1.1.2,168,-0.250,-0.250,-0.250,0.000,0.000,0.000
1641091115613140224,2022-01-02-02:38:35,10.1.1.2,168,-0.240,-0.240,-0.240,0.000,0.000,0.000
1641091115812441088,2022-01-02-02:38:35,10.1.1.2,166,-0.230,-0.230,-0.230,0.000,0.000,0.000
1641091116014422016,2022-01-02-02:38:36,10.1.1.2,167,-0.220,-0.220,-0.220,0.000,0.000,0.000
1641091116213772032,2022-01-02-02:38:36,10.1.1.2,166,-0.210,-0.210,-0.210,0.000,0.000,0.000
1641091116432878848,2022-01-02-02:38:36,10.1.1.2,185,-0.200,-0.200,-0.200,0.000,0.000,0.000
1641091116634355968,2022-01-02-02:38:36,10.1.1.2,184,-0.190,-0.190,-0.190,0.000,0.000,0.000
1641091116835877888,2022-01-02-02:38:36,10.1.1.2,186,-0.180,-0.180,-0.180,0.000,0.000,0.000
1641091117036658176,2022-01-02-02:38:37,10.1.1.2,185,-0.170,-0.170,-0.170,0.000,0.000,0.000
1641091117236568832,2022-01-02-02:38:37,10.1.1.2,185,-0.160,-0.160,-0.160,0.000,0.000,0.000
1641091117433847040,2022-01-02-02:38:37,10.1.1.2,181,-0.150,-0.150,-0.150,0.000,0.000,0.000
1641091117638094848,2022-01-02-02:38:37,10.1.1.2,184,-0.140,-0.140,-0.140,0.000,0.000,0.000
1641091117837512960,2022-01-02-02:38:37,10.1.1.2,180,-0.130,-0.130,-0.130,0.000,0.000,0.000
1641091118037282048,2022-01-02-02:38:38,10.1.1.2,178,-0.120,-0.120,-0.120,0.000,0.000,0.000
1641091118238192128,2022-01-02-02:38:38,10.1.1.2,178,-0.110,-0.110,-0.110,0.000,0.000,0.000
1641091118456459008,2022-01-02-02:38:38,10.1.1.2,194,-0.100,-0.100,-0.100,0.000,0.000,0.000
1641091118646863872,2022-01-02-02:38:38,10.1.1.2,183,-0.090,-0.090,-0.090,0.000,0.000,0.000
1641091118840033024,2022-01-02-02:38:38,10.1.1.2,175,-0.080,-0.080,-0.080,0.000,0.000,0.000
1641091119039341056,2022-01-02-02:38:39,10.1.1.2,173,-0.070,-0.070,-0.070,0.000,0.000,0.000
1641091119243251968,2022-01-02-02:38:39,10.1.1.2,174,-0.060,-0.060,-0.060,0.000,0.000,0.000
1641091119459467008,2022-01-02-02:38:39,10.1.1.2,191,-0.050,-0.050,-0.050,0.000,0.000,0.000
1641091119664265984,2022-01-02-02:38:39,10.1.1.2,195,-0.040,-0.040,-0.040,0.000,0.000,0.000
1641091119858791168,2022-01-02-02:38:39,10.1.1.2,189,-0.030,-0.030,-0.030,0.000,0.000,0.000
1641091120062880000,2022-01-02-02:38:40,10.1.1.2,192,-0.020,-0.020,-0.020,0.000,0.000,0.000
1641091120258342144,2022-01-02-02:38:40,10.1.1.2,187,-0.010,-0.010,-0.010,0.000,0.000,0.000
1641091120460192000,2022-01-02-02:38:40,10.1.1.2,187,0.000,0.000,0.000,0.000,0.000,0.000
1641091120662728192,2022-01-02-02:38:40,10.1.1.2,190,-0.010,-0.010,-0.010,0.000,0.000,0.000
1641091120867523840,2022-01-02-02:38:40,10.1.1.2,194,-0.020,-0.020,-0.020,0.000,0.000,0.000
1641091121063041024,2022-01-02-02:38:41,10.1.1.2,189,-0.030,-0.030,-0.030,0.000,0.000,0.000
1641091121262057984,2022-01-02-02:38:41,10.1.1.2,183,-0.040,-0.040,-0.040,0.000,0.000,0.000
1641091121462675968,2022-01-02-02:38:41,10.1.1.2,182,-0.050,-0.050,-0.050,0.000,0.000,0.000
1641091121666477824,2022-01-02-02:38:41,10.1.1.2,188,-0.060,-0.060,-0.060,0.000,0.000,0.000
1641091121861696000,2022-01-02-02:38:41,10.1.1.2,181,-0.070,-0.070,-0.070,0.000,0.000,0.000
1641091122062822144,2022-01-02-02:38:42,10.1.1.2,182,-0.080,-0.080,-0.080,0.000,0.000,0.000
1641091122263407872,2022-01-02-02:38:42,10.1.1.2,177,-0.090,-0.090,-0.090,0.000,0.000,0.000
1641091122462768128,2022-01-02-02:38:42,10.1.1.2,179,-0.100,-0.100,-0.100,0.000,0.000,0.000
1641091122662426112,2022-01-02-02:38:42,10.1.1.2,178,-0.110,-0.110,-0.110,0.000,0.000,0.000
1641091122872225024,2022-01-02-02:38:42,10.1.1.2,187,-0.120,-0.120,-0.120,0.000,0.000,0.000
1641091123063579136,2022-01-02-02:38:43,10.1.1.2,177,-0.130,-0.130,-0.130,0.000,0.000,0.000
1641091123262983168,2022-01-02-02:38:43,10.1.1.2,175,-0.140,-0.140,-0.140,0.000,0.000,0.000
1641091123481737984,2022-01-02-02:38:43,10.1.1.2,193,-0.150,-0.150,-0.150,0.000,0.000,0.000
1641091123682586880,2022-01-02-02:38:43,10.1.1.2,193,-0.160,-0.160,-0.160,0.000,0.000,0.000
1641091123883481856,2022-01-02-02:38:43,10.1.1.2,192,-0.170,-0.170,-0.170,0.000,0.000,0.000
1641091124081032960,2022-01-02-02:38:44,10.1.1.2,190,-0.180,-0.180,-0.180,0.000,0.000,0.000
1641091124271737088,2022-01-02-02:38:44,10.1.1.2,180,-0.190,-0.190,-0.190,0.000,0.000,0.000
1641091124480007936,2022-01-02-02:38:44,10.1.1.2,187,-0.200,-0.200,-0.200,0.000,0.000,0.000
1641091124680025088,2022-01-02-02:38:44,10.1.1.2,186,-0.210,-0.210,-0.210,0.000,0.000,0.000
1641091124882097920,2022-01-02-02:38:44,10.1.1.2,188,-0.220,-0.220,-0.220,0.000,0.000,0.000
1641091125082868992,2022-01-02-02:38:45,10.1.1.2,186,-0.230,-0.230,-0.230,0.000,0.000,0.000
1641091125279372032,2022-01-02-02:38:45,10.1.1.2,184,-0.240,-0.240,-0.240,0.000,0.000,0.000
1641091125480123904,2022-01-02-02:38:45,10.1.1.2,184,-0.250,-0.250,-0.250,0.000,0.000,0.000
1641091125679584000,2022-01-02-02:38:45,10.1.1.2,182,-0.260,-0.260,-0.260,0.000,0.000,0.000
1641091125880220928,2022-01-02-02:38:45,10.1.1.2,182,-0.270,-0.270,-0.270,0.000,0.000,0.000
1641091126080122880,2022-01-02-02:38:46,10.1.1.2,180,-0.280,-0.280,-0.280,0.000,0.000,0.000
1641091126279040000,2022-01-02-02:38:46,10.1.1.2,176,-0.290,-0.290,-0.290,0.000,0.000,0.000
1641091126479616000,2022-01-02-02:38:46,10.1.1.2,175,-0.300,-0.300,-0.300,0.000,0.000,0.000
1641091126679707904,2022-01-02-02:38:46,10.1.1.2,173,-0.310,-0.310,-0.310,0.000,0.000,0.000
1641091126879503104,2022-01-02-02:38:46,10.1.1.2,172,-0.320,-0.320,-0.320,0.000,0.000,0.000
1641091127081180928,2022-01-02-02:38:47,10.1.1.2,173,-0.330,-0.330,-0.330,0.000,0.000,0.000
1641091127301321984,2022-01-02-02:38:47,10.1.1.2,193,-0.340,-0.340,-0.340,0.000,0.000,0.000
1641091127500609024,2022-01-02-02:38:47,10.1.1.2,191,-0.350,-0.350,-0.350,0.000,0.000,0.000
1641091127702660096,2022-01-02-02:38:47,10.1.1.2,190,-0.360,-0.360,-0.360,0.000,0.000,0.000
1641091127889480192,2022-01-02-02:38:47,10.1.1.2,176,-0.370,-0.370,-0.370,0.000,0.000,0.000
1641091128101061120,2022-01-02-02:38:48,10.1.1.2,185,-0.380,-0.380,-0.380,0.000,0.000,0.000
1641091128299129856,2022-01-02-02:38:48,10.1.1.2,182,-0.390,-0.390,-0.390,0.000,0.000,0.000
1641091128500579072,2022-01-02-02:38:48,10.1.1.2,183,-0.400,-0.400,-0.400,0.000,0.000,0.000
1641091128698852096,2022-01-02-02:38:48,10.1.1.2,178,-0.410,-0.410,-0.410,0.000,0.000,0.000
1641091128901010944,2022-01-02-02:38:48,10.1.1.2,180,-0.420,-0.420,-0.420,0.000,0.000,0.000
1641091129099112960,2022-01-02-02:38:49,10.1.1.2,178,-0.430,-0.430,-0.430,0.000,0.000,0.000
1641091129301840896,2022-01-02-02:38:49,10.1.1.2,179,-0.440,-0.440,-0.440,0.000,0.000,0.000
1641091129498789120,2022-01-02-02:38:49,10.1.1.2,174,-0.450,-0.450,-0.450,0.000,0.000,0.000
1641091129699433216,2022-01-02-02:38:49,10.1.1.2,174,-0.460,-0.460,-0.460,0.000,0.000,0.000
1641091129898777856,2022-01-02-02:38:49,10.1.1.2,172,-0.470,-0.470,-0.470,0.000,0.000,0.000
1641091130099060992,2022-01-02-02:38:50,10.1.1.2,172,-0.480,-0.480,-0.480,0.000,0.000,0.000
1641091130318914048,2022-01-02-02:38:50,10.1.1.2,191,-0.490,-0.490,-0.490,0.000,0.000,0.000
1641091130517874944,2022-01-02-02:38:50,10.1.1.2,188,-0.480,-0.480,-0.480,0.000,0.000,0.000
1641091130715648000,2022-01-02-02:38:50,10.1.1.2,183,-0.470,-0.470,-0.470,0.000,0.000,0.000
1641091130917777920,2022-01-02-02:38:50,10.1.1.2,184,-0.460,-0.460,-0.460,0.000,0.000,0.000
1641091131118055168,2022-01-02-02:38:51,10.1.1.2,184,-0.450,-0.450,-0.450,0.000,0.000,0.000
1641091131314733056,2022-01-02-02:38:51,10.1.1.2,180,-0.440,-0.440,-0.440,0.000,0.000,0.000
1641091131518277888,2022-01-02-02:38:51,10.1.1.2,180,-0.430,-0.430,-0.430,0.000,0.000,0.000
1641091131718245888,2022-01-02-02:38:51,10.1.1.2,179,-0.420,-0.420,-0.420,0.000,0.000,0.000
1641091131916253184,2022-01-02-02:38:51,10.1.1.2,177,-0.410,-0.410,-0.410,0.000,0.000,0.000
1641091132113846016,2022-01-02-02:38:52,10.1.1.2,174,-0.400,-0.400,-0.400,0.000,0.000,0.000
1641091132316011008,2022-01-02-02:38:52,10.1.1.2,175,-0.390,-0.390,-0.390,0.000,0.000,0.000
1641091132515835904,2022-01-02-02:38:52,10.1.1.2,175,-0.380,-0.380,-0.380,0.000,0.000,0.000
1641091132714342144,2022-01-02-02:38:52,10.1.1.2,173,-0.370,-0.370,-0.370,0.000,0.000,0.000
1641091132935955968,2022-01-02-02:38:52,10.1.1.2,192,-0.360,-0.360,-0.360,0.000,0.000,0.000
1641091133114310912,2022-01-02-02:38:53,10.1.1.2,169,-0.350,-0.350,-0.350,0.000,0.000,0.000
1641091133316018944,2022-01-02-02:38:53,10.1.1.2,171,-0.340,-0.340,-0.340,0.000,0.000,0.000
1641091133514056960,2022-01-02-02:38:53,10.1.1.2,169,-0.330,-0.330,-0.330,0.000,0.000,0.000
1641091133714418944,2022-01-02-02:38:53,10.1.1.2,168,-0.320,-0.320,-0.320,0.000,0.000,0.000
1641091133933639168,2022-01-02-02:38:53,10.1.1.2,186,-0.310,-0.310,-0.310,0.000,0.000,0.000
1641091134133646848,2022-01-02-02:38:54,10.1.1.2,185,-0.300,-0.300,-0.300,0.000,0.000,0.000
1641091134332092928,2022-01-02-02:38:54,10.1.1.2,182,-0.290,-0.290,-0.290,0.000,0.000,0.000
1641091134532147968,2022-01-02-02:38:54,10.1.1.2,182,-0.280,-0.280,-0.280,0.000,0.000,0.000
1641091134730667008,2022-01-02-02:38:54,10.1.1.2,179,-0.270,-0.270,-0.270,0.000,0.000,0.000
1641091134933903872,2022-01-02-02:38:54,10.1.1.2,178,-0.260,-0.260,-0.260,0.000,0.000,0.000
1641091135129640960,2022-01-02-02:38:55,10.1.1.2,174,-0.250,-0.250,-0.250,0.000,0.000,0.000
1641091135331529984,2022-01-02-02:38:55,10.1.1.2,174,-0.240,-0.240,-0.240,0.000,0.000,0.000
1641091135531771904,2022-01-02-02:38:55,10.1.1.2,175,-0.230,-0.230,-0.230,0.000,0.000,0.000
1641091135732281856,2022-01-02-02:38:55,10.1.1.2,175,-0.220,-0.220,-0.220,0.000,0.000,0.000
1641091135928751104,2022-01-02-02:38:55,10.1.1.2,171,-0.210,-0.210,-0.210,0.000,0.000,0.000
1641091136131115008,2022-01-02-02:38:56,10.1.1.2,170,-0.200,-0.200,-0.200,0.000,0.000,0.000
1641091136334355200,2022-01-02-02:38:56,10.1.1.2,174,-0.190,-0.190,-0.190,0.000,0.000,0.000
1641091136531930880,2022-01-02-02:38:56,10.1.1.2,169,-0.180,-0.180,-0.180,0.000,0.000,0.000
1641091136730880000,2022-01-02-02:38:56,10.1.1.2,166,-0.170,-0.170,-0.170,0.000,0.000,0.000
1641091136928651008,2022-01-02-02:38:56,10.1.1.2,162,-0.160,-0.160,-0.160,0.000,0.000,0.000
1641091137147675136,2022-01-02-02:38:57,10.1.1.2,179,-0.150,-0.150,-0.150,0.000,0.000,0.000
1641091137348460800,2022-01-02-02:38:57,10.1.1.2,177,-0.140,-0.140,-0.140,0.000,0.000,0.000
1641091137550862080,2022-01-02-02:38:57,10.1.1.2,177,-0.130,-0.130,-0.130,0.000,0.000,0.000
1641091137750397952,2022-01-02-02:38:57,10.1.1.2,172,-0.120,-0.120,-0.120,0.000,0.000,0.000
1641091137947973888,2022-01-02-02:38:57,10.1.1.2,169,-0.110,-0.110,-0.110,0.000,0.000,0.000
1641091138147147008,2022-01-02-02:38:58,10.1.1.2,167,-0.100,-0.100,-0.100,0.000,0.000,0.000
1641091138347026176,2022-01-02-02:38:58,10.1.1.2,166,-0.090,-0.090,-0.090,0.000,0.000,0.000
1641091138548723968,2022-01-02-02:38:58,10.1.1.2,166,-0.080,-0.080,-0.080,0.000,0.000,0.000
1641091138747482112,2022-01-02-02:38:58,10.1.1.2,164,-0.070,-0.070,-0.070,0.000,0.000,0.000
1641091138962605056,2022-01-02-02:38:58,10.1.1.2,167,-0.060,-0.060,-0.060,0.000,0.000,0.000
1641091139168036864,2022-01-02-02:38:59,10.1.1.2,172,-0.050,-0.050,-0.050,0.000,0.000,0.000
1641091139365796096,2022-01-02-02:38:59,10.1.1.2,173,-0.040,-0.040,-0.040,0.000,0.000,0.000
1641091139564793088,2022-01-02-02:38:59,10.1.1.2,169,-0.030,-0.030,-0.030,0.000,0.000,0.000
1641091139765882880,2022-01-02-02:38:59,10.1.1.2,168,-0.020,-0.020,-0.020,0.000,0.000,0.000
1641091139966204928,2022-01-02-02:38:59,10.1.1.2,168,-0.010,-0.010,-0.010,0.000,0.000,0.000
1641091140165934080,2022-01-02-02:39:00,10.1.1.2,167,0.000,0.000,0.000,0.000,0.000,0.000
1641091140363590912,2022-01-02-02:39:00,10.1.1.2,163,-0.010,-0.010,-0.010,0.000,0.000,0.000
1641091140563604992,2022-01-02-02:39:00,10.1.1.2,163,-0.020,-0.020,-0.020,0.000,0.000,0.000
1641091140786896896,2022-01-02-02:39:00,10.1.1.2,185,-0.030,-0.030,-0.030,0.000,0.000,0.000
1641091140963665920,2022-01-02-02:39:00,10.1.1.2,158,-0.040,-0.040,-0.040,0.000,0.000,0.000
1641091141169164800,2022-01-02-02:39:01,10.1.1.2,163,-0.050,-0.050,-0.050,0.000,0.000,0.000
1641091141360552960,2022-01-02-02:39:01,10.1.1.2,153,-0.060,-0.060,-0.060,0.000,0.000,0.000
1641091141564403968,2022-01-02-02:39:01,10.1.1.2,157,-0.070,-0.070,-0.070,0.000,0.000,0.000
1641091141782309120,2022-01-02-02:39:01,10.1.1.2,173,-0.080,-0.080,-0.080,0.000,0.000,0.000
1641091141984208128,2022-01-02-02:39:01,10.1.1.2,173,-0.090,-0.090,-0.090,0.000,0.000,0.000
1641091142183216128,2022-01-02-02:39:02,10.1.1.2,172,-0.100,-0.100,-0.100,0.000,0.000,0.000
1641091142383107072,2022-01-02-02:39:02,10.1.1.2,171,-0.110,-0.110,-0.110,0.000,0.000,0.000
1641091142580530944,2022-01-02-02:39:02,10.1.1.2,167,-0.120,-0.120,-0.120,0.000,0.000,0.000
1641091142782159104,2022-01-02-02:39:02,10.1.1.2,164,-0.130,-0.130,-0.130,0.000,0.000,0.000
1641091142980694016,2022-01-02-02:39:02,10.1.1.2,162,-0.140,-0.140,-0.140,0.000,0.000,0.000
1641091143181783808,2022-01-02-02:39:03,10.1.1.2,160,-0.150,-0.150,-0.150,0.000,0.000,0.000
1641091143377385984,2022-01-02-02:39:03,10.1.1.2,156,-0.160,-0.160,-0.160,0.000,0.000,0.000
1641091143579420160,2022-01-02-02:39:03,10.1.1.2,158,-0.170,-0.170,-0.170,0.000,0.000,0.000
1641091143780297984,2022-01-02-02:39:03,10.1.1.2,157,-0.180,-0.180,-0.180,0.000,0.000,0.000
1641091143978002176,2022-01-02-02:39:03,10.1.1.2,154,-0.190,-0.190,-0.190,0.000,0.000,0.000
1641091144178956032,2022-01-02-02:39:04,10.1.1.2,153,-0.200,-0.200,-0.200,0.000,0.000,0.000
1641091144379663104,2022-01-02-02:39:04,10.1.1.2,154,-0.210,-0.210,-0.210,0.000,0.000,0.000
1641091144577105920,2022-01-02-02:39:04,10.1.1.2,149,-0.220,-0.220,-0.220,0.000,0.000,0.000
1641091144786551040,2022-01-02-02:39:04,10.1.1.2,158,-0.230,-0.230,-0.230,0.000,0.000,0.000
1641091144998982912,2022-01-02-02:39:04,10.1.1.2,171,-0.240,-0.240,-0.240,0.000,0.000,0.000
1641091145198231808,2022-01-02-02:39:05,10.1.1.2,169,-0.250,-0.250,-0.250,0.000,0.000,0.000
1641091145399468800,2022-01-02-02:39:05,10.1.1.2,170,-0.260,-0.260,-0.260,0.000,0.000,0.000
1641091145601094912,2022-01-02-02:39:05,10.1.1.2,171,-0.270,-0.270,-0.270,0.000,0.000,0.000
1641091145798831104,2022-01-02-02:39:05,10.1.1.2,167,-0.280,-0.280,-0.280,0.000,0.000,0.000
1641091146003997952,2022-01-02-02:39:06,10.1.1.2,172,-0.290,-0.290,-0.290,0.000,0.000,0.000
1641091146203119104,2022-01-02-02:39:06,10.1.1.2,170,-0.300,-0.300,-0.300,0.000,0.000,0.000
1641091146404660992,2022-01-02-02:39:06,10.1.1.2,171,-0.310,-0.310,-0.310,0.000,0.000,0.000
1641091146603051008,2022-01-02-02:39:06,10.1.1.2,164,-0.320,-0.320,-0.320,0.000,0.000,0.000
1641091146803538176,2022-01-02-02:39:06,10.1.1.2,164,-0.330,-0.330,-0.330,0.000,0.000,0.000
1641091147006740992,2022-01-02-02:39:07,10.1.1.2,166,-0.340,-0.340,-0.340,0.000,0.000,0.000
1641091147206217984,2022-01-02-02:39:07,10.1.1.2,163,-0.350,-0.350,-0.350,0.000,0.000,0.000
1641091147408653056,2022-01-02-02:39:07,10.1.1.2,166,-0.360,-0.360,-0.360,0.000,0.000,0.000
1641091147609200128,2022-01-02-02:39:07,10.1.1.2,166,-0.370,-0.370,-0.370,0.000,0.000,0.000
1641091147809289984,2022-01-02-02:39:07,10.1.1.2,165,-0.380,-0.380,-0.380,0.000,0.000,0.000
1641091148027929088,2022-01-02-02:39:08,10.1.1.2,177,-0.390,-0.390,-0.390,0.000,0.000,0.000
1641091148229778176,2022-01-02-02:39:08,10.1.1.2,174,-0.400,-0.400,-0.400,0.000,0.000,0.000
1641091148430808064,2022-01-02-02:39:08,10.1.1.2,172,-0.410,-0.410,-0.410,0.000,0.000,0.000
1641091148619632896,2022-01-02-02:39:08,10.1.1.2,163,-0.420,-0.420,-0.420,0.000,0.000,0.000
1641091148832468992,2022-01-02-02:39:08,10.1.1.2,175,-0.430,-0.430,-0.430,0.000,0.000,0.000
1641091149032619008,2022-01-02-02:39:09,10.1.1.2,173,-0.440,-0.440,-0.440,0.000,0.000,0.000
1641091149234486016,2022-01-02-02:39:09,10.1.1.2,175,-0.450,-0.450,-0.450,0.000,0.000,0.000
1641091149454322176,2022-01-02-02:39:09,10.1.1.2,194,-0.460,-0.460,-0.460,0.000,0.000,0.000
1641091149636779008,2022-01-02-02:39:09,10.1.1.2,174,-0.470,-0.470,-0.470,0.000,0.000,0.000
1641091149834654208,2022-01-02-02:39:09,10.1.1.2,170,-0.480,-0.480,-0.480,0.000,0.000,0.000
1641091150032156928,2022-01-02-02:39:10,10.1.1.2,167,-0.490,-0.490,-0.490,0.000,0.000,0.000
1641091150234821120,2022-01-02-02:39:10,10.1.1.2,169,-0.480,-0.480,-0.480,0.000,0.000,0.000
1641091150436475904,2022-01-02-02:39:10,10.1.1.2,169,-0.470,-0.470,-0.470,0.000,0.000,0.000
1641091150655906816,2022-01-02-02:39:10,10.1.1.2,188,-0.460,-0.460,-0.460,0.000,0.000,0.000
1641091150856441088,2022-01-02-02:39:10,10.1.1.2,183,-0.450,-0.450,-0.450,0.000,0.000,0.000
1641091151054521088,2022-01-02-02:39:11,10.1.1.2,181,-0.440,-0.440,-0.440,0.000,0.000,0.000
1641091151254702080,2022-01-02-02:39:11,10.1.1.2,177,-0.430,-0.430,-0.430,0.000,0.000,0.000
1641091151457971968,2022-01-02-02:39:11,10.1.1.2,180,-0.420,-0.420,-0.420,0.000,0.000,0.000
1641091151657735168,2022-01-02-02:39:11,10.1.1.2,179,-0.410,-0.410,-0.410,0.000,0.000,0.000
1641091151857489152,2022-01-02-02:39:11,10.1.1.2,177,-0.400,-0.400,-0.400,0.000,0.000,0.000
1641091152057008128,2022-01-02-02:39:12,10.1.1.2,175,-0.390,-0.390,-0.390,0.000,0.000,0.000
1641091152259223040,2022-01-02-02:39:12,10.1.1.2,176,-0.380,-0.380,-0.380,0.000,0.000,0.000
1641091152457249024,2022-01-02-02:39:12,10.1.1.2,173,-0.370,-0.370,-0.370,0.000,0.000,0.000
1641091152656858880,2022-01-02-02:39:12,10.1.1.2,172,-0.360,-0.360,-0.360,0.000,0.000,0.000
1641091152879537152,2022-01-02-02:39:12,10.1.1.2,194,-0.350,-0.350,-0.350,0.000,0.000,0.000
1641091153058396160,2022-01-02-02:39:13,10.1.1.2,172,-0.340,-0.340,-0.340,0.000,0.000,0.000
1641091153257421056,2022-01-02-02:39:13,10.1.1.2,170,-0.330,-0.330,-0.330,0.000,0.000,0.000
1641091153456851968,2022-01-02-02:39:13,10.1.1.2,168,-0.320,-0.320,-0.320,0.000,0.000,0.000
1641091153687098112,2022-01-02-02:39:13,10.1.1.2,198,-0.310,-0.310,-0.310,0.000,0.000,0.000
1641091153884480000,2022-01-02-02:39:13,10.1.1.2,195,-0.300,-0.300,-0.300,0.000,0.000,0.000
1641091154088766976,2022-01-02-02:39:14,10.1.1.2,197,-0.290,-0.290,-0.290,0.000,0.000,0.000
1641091154280685056,2022-01-02-02:39:14,10.1.1.2,188,-0.280,-0.280,-0.280,0.000,0.000,0.000
1641091154481626112,2022-01-02-02:39:14,10.1.1.2,188,-0.270,-0.270,-0.270,0.000,0.000,0.000
1641091154679656960,2022-01-02-02:39:14,10.1.1.2,185,-0.260,-0.260,-0.260,0.000,0.000,0.000
1641091154876531968,2022-01-02-02:39:14,10.1.1.2,181,-0.250,-0.250,-0.250,0.000,0.000,0.000
1641091155078475008,2022-01-02-02:39:15,10.1.1.2,182,-0.240,-0.240,-0.240,0.000,0.000,0.000
1641091155280317952,2022-01-02-02:39:15,10.1.1.2,180,-0.230,-0.230,-0.230,0.000,0.000,0.000
1641091155480193024,2022-01-02-02:39:15,10.1.1.2,179,-0.220,-0.220,-0.220,0.000,0.000,0.000
1641091155680509184,2022-01-02-02:39:15,10.1.1.2,178,-0.210,-0.210,-0.210,0.000,0.000,0.000
1641091155877643008,2022-01-02-02:39:15,10.1.1.2,173,-0.200,-0.200,-0.200,0.000,0.000,0.000
1641091156082430976,2022-01-02-02:39:16,10.1.1.2,177,-0.190,-0.190,-0.190,0.000,0.000,0.000
1641091156279365120,2022-01-02-02:39:16,10.1.1.2,173,-0.180,-0.180,-0.180,0.000,0.000,0.000
1641091156497172992,2022-01-02-02:39:16,10.1.1.2,188,-0.170,-0.170,-0.170,0.000,0.000,0.000
1641091156697992192,2022-01-02-02:39:16,10.1.1.2,188,-0.160,-0.160,-0.160,0.000,0.000,0.000
1641091156887002112,2022-01-02-02:39:16,10.1.1.2,176,-0.150,-0.150,-0.150,0.000,0.000,0.000
1641091157103748096,2022-01-02-02:39:17,10.1.1.2,192,-0.140,-0.140,-0.140,0.000,0.000,0.000
1641091157304555776,2022-01-02-02:39:17,10.1.1.2,188,-0.130,-0.130,-0.130,0.000,0.000,0.000
1641091157499481088,2022-01-02-02:39:17,10.1.1.2,184,-0.120,-0.120,-0.120,0.000,0.000,0.000
1641091157701025024,2022-01-02-02:39:17,10.1.1.2,185,-0.110,-0.110,-0.110,0.000,0.000,0.000
1641091157901673984,2022-01-02-02:39:17,10.1.1.2,182,-0.100,-0.100,-0.100,0.000,0.000,0.000
1641091158098125824,2022-01-02-02:39:18,10.1.1.2,175,-0.090,-0.090,-0.090,0.000,0.000,0.000
1641091158300072960,2022-01-02-02:39:18,10.1.1.2,175,-0.080,-0.080,-0.080,0.000,0.000,0.000
1641091158499803136,2022-01-02-02:39:18,10.1.1.2,174,-0.070,-0.070,-0.070,0.000,0.000,0.000
1641091158698235904,2022-01-02-02:39:18,10.1.1.2,171,-0.060,-0.060,-0.060,0.000,0.000,0.000
1641091158899127040,2022-01-02-02:39:18,10.1.1.2,171,-0.050,-0.050,-0.050,0.000,0.000,0.000
1641091159117014784,2022-01-02-02:39:19,10.1.1.2,189,-0.040,-0.040,-0.040,0.000,0.000,0.000
1641091159316576000,2022-01-02-02:39:19,10.1.1.2,187,-0.030,-0.030,-0.030,0.000,0.000,0.000
1641091159517734144,2022-01-02-02:39:19,10.1.1.2,187,-0.020,-0.020,-0.020,0.000,0.000,0.000
1641091159722834944,2022-01-02-02:39:19,10.1.1.2,192,-0.010,-0.010,-0.010,0.000,0.000,0.000
1641091159916657920,2022-01-02-02:39:19,10.1.1.2,184,0.000,0.000,0.000,0.000,0.000,0.000
1641091160117319168,2022-01-02-02:39:20,10.1.1.2,185,-0.010,-0.010,-0.010,0.000,0.000,0.000
1641091160318689024,2022-01-02-02:39:20,10.1.1.2,185,-0.020,-0.020,-0.020,0.000,0.000,0.000
1641091160518013952,2022-01-02-02:39:20,10.1.1.2,182,-0.030,-0.030,-0.030,0.000,0.000,0.000
1641091160715209984,2022-01-02-02:39:20,10.1.1.2,172,-0.040,-0.040,-0.040,0.000,0.000,0.000
1641091160914679040,2022-01-02-02:39:20,10.1.1.2,171,-0.050,-0.050,-0.050,0.000,0.000,0.000
1641091161116506112,2022-01-02-02:39:21,10.1.1.2,171,-0.060,-0.060,-0.060,0.000,0.000,0.000
1641091161317843968,2022-01-02-02:39:21,10.1.1.2,172,-0.070,-0.070,-0.070,0.000,0.000,0.000
1641091161517138944,2022-01-02-02:39:21,10.1.1.2,170,-0.080,-0.080,-0.080,0.000,0.000,0.000
1641091161715919872,2022-01-02-02:39:21,10.1.1.2,168,-0.090,-0.090,-0.090,0.000,0.000,0.000
1641091161939222016,2022-01-02-02:39:21,10.1.1.2,189,-0.100,-0.100,-0.100,0.000,0.000,0.000
1641091162136308992,2022-01-02-02:39:22,10.1.1.2,188,-0.110,-0.110,-0.110,0.000,0.000,0.000
1641091162335607040,2022-01-02-02:39:22,10.1.1.2,186,-0.120,-0.120,-0.120,0.000,0.000,0.000
1641091162536524032,2022-01-02-02:39:22,10.1.1.2,185,-0.130,-0.130,-0.130,0.000,0.000,0.000
1641091162735112960,2022-01-02-02:39:22,10.1.1.2,182,-0.140,-0.140,-0.140,0.000,0.000,0.000
1641091162934721024,2022-01-02-02:39:22,10.1.1.2,181,-0.150,-0.150,-0.150,0.000,0.000,0.000
1641091163133987072,2022-01-02-02:39:23,10.1.1.2,178,-0.160,-0.160,-0.160,0.000,0.000,0.000
1641091163334916096,2022-01-02-02:39:23,10.1.1.2,178,-0.170,-0.170,-0.170,0.000,0.000,0.000
1641091163535053056,2022-01-02-02:39:23,10.1.1.2,175,-0.180,-0.180,-0.180,0.000,0.000,0.000
1641091163732817920,2022-01-02-02:39:23,10.1.1.2,173,-0.190,-0.190,-0.190,0.000,0.000,0.000
1641091163934788096,2022-01-02-02:39:23,10.1.1.2,175,-0.200,-0.200,-0.200,0.000,0.000,0.000
1641091164132428032,2022-01-02-02:39:24,10.1.1.2,172,-0.210,-0.210,-0.210,0.000,0.000,0.000
1641091164332721920,2022-01-02-02:39:24,10.1.1.2,171,-0.220,-0.220,-0.220,0.000,0.000,0.000
1641091164532064000,2022-01-02-02:39:24,10.1.1.2,170,-0.230,-0.230,-0.230,0.000,0.000,0.000
1641091164732788992,2022-01-02-02:39:24,10.1.1.2,170,-0.240,-0.240,-0.240,0.000,0.000,0.000
1641091164933342976,2022-01-02-02:39:24,10.1.1.2,169,-0.250,-0.250,-0.250,0.000,0.000,0.000
1641091165141818880,2022-01-02-02:39:25,10.1.1.2,177,-0.260,-0.260,-0.260,0.000,0.000,0.000
1641091165332135936,2022-01-02-02:39:25,10.1.1.2,166,-0.270,-0.270,-0.270,0.000,0.000,0.000
1641091165552630784,2022-01-02-02:39:25,10.1.1.2,180,-0.280,-0.280,-0.280,0.000,0.000,0.000
1641091165751820032,2022-01-02-02:39:25,10.1.1.2,183,-0.290,-0.290,-0.290,0.000,0.000,0.000
1641091165952281856,2022-01-02-02:39:25,10.1.1.2,178,-0.300,-0.300,-0.300,0.000,0.000,0.000
1641091166151931904,2022-01-02-02:39:26,10.1.1.2,177,-0.310,-0.310,-0.310,0.000,0.000,0.000
1641091166353046784,2022-01-02-02:39:26,10.1.1.2,178,-0.320,-0.320,-0.320,0.000,0.000,0.000
1641091166548751104,2022-01-02-02:39:26,10.1.1.2,172,-0.330,-0.330,-0.330,0.000,0.000,0.000
1641091166752001024,2022-01-02-02:39:26,10.1.1.2,175,-0.340,-0.340,-0.340,0.000,0.000,0.000
1641091166952045056,2022-01-02-02:39:26,10.1.1.2,175,-0.350,-0.350,-0.350,0.000,0.000,0.000
1641091167150945024,2022-01-02-02:39:27,10.1.1.2,173,-0.360,-0.360,-0.360,0.000,0.000,0.000
1641091167349505792,2022-01-02-02:39:27,10.1.1.2,168,-0.370,-0.370,-0.370,0.000,0.000,0.000
1641091167547431936,2022-01-02-02:39:27,10.1.1.2,167,-0.380,-0.380,-0.380,0.000,0.000,0.000
1641091167747407872,2022-01-02-02:39:27,10.1.1.2,166,-0.390,-0.390,-0.390,0.000,0.000,0.000
1641091167949048064,2022-01-02-02:39:27,10.1.1.2,168,-0.400,-0.400,-0.400,0.000,0.000,0.000
1641091168148776960,2022-01-02-02:39:28,10.1.1.2,167,-0.410,-0.410,-0.410,0.000,0.000,0.000
1641091168345437952,2022-01-02-02:39:28,10.1.1.2,162,-0.420,-0.420,-0.420,0.000,0.000,0.000
1641091168545624064,2022-01-02-02:39:28,10.1.1.2,162,-0.430,-0.430,-0.430,0.000,0.000,0.000
1641091168746729984,2022-01-02-02:39:28,10.1.1.2,161,-0.440,-0.440,-0.440,0.000,0.000,0.000
1641091168968235008,2022-01-02-02:39:28,10.1.1.2,180,-0.450,-0.450,-0.450,0.000,0.000,0.000
1641091169167388928,2022-01-02-02:39:29,10.1.1.2,178,-0.460,-0.460,-0.460,0.000,0.000,0.000
1641091169366603008,2022-01-02-02:39:29,10.1.1.2,175,-0.470,-0.470,-0.470,0.000,0.000,0.000
1641091169566983936,2022-01-02-02:39:29,10.1.1.2,175,-0.480,-0.480,-0.480,0.000,0.000,0.000
1641091169765523968,2022-01-02-02:39:29,10.1.1.2,173,-0.490,-0.490,-0.490,0.000,0.000,0.000
1641091169964868096,2022-01-02-02:39:29,10.1.1.2,171,-0.480,-0.480,-0.480,0.000,0.000,0.000
1641091170164956160,2022-01-02-02:39:30,10.1.1.2,171,-0.470,-0.470,-0.470,0.000,0.000,0.000
1641091170362843136,2022-01-02-02:39:30,10.1.1.2,166,-0.460,-0.460,-0.460,0.000,0.000,0.000
1641091170565115904,2022-01-02-02:39:30,10.1.1.2,168,-0.450,-0.450,-0.450,0.000,0.000,0.000
1641091170768416000,2022-01-02-02:39:30,10.1.1.2,170,-0.440,-0.440,-0.440,0.000,0.000,0.000
1641091170964078848,2022-01-02-02:39:30,10.1.1.2,162,-0.430,-0.430,-0.430,0.000,0.000,0.000
1641091171165463040,2022-01-02-02:39:31,10.1.1.2,162,-0.420,-0.420,-0.420,0.000,0.000,0.000
1641091171363192064,2022-01-02-02:39:31,10.1.1.2,159,-0.410,-0.410,-0.410,0.000,0.000,0.000
1641091171564057088,2022-01-02-02:39:31,10.1.1.2,159,-0.400,-0.400,-0.400,0.000,0.000,0.000
1641091171771362048,2022-01-02-02:39:31,10.1.1.2,164,-0.390,-0.390,-0.390,0.000,0.000,0.000
1641091171967698176,2022-01-02-02:39:31,10.1.1.2,159,-0.380,-0.380,-0.380,0.000,0.000,0.000
1641091172183940864,2022-01-02-02:39:32,10.1.1.2,176,-0.370,-0.370,-0.370,0.000,0.000,0.000
1641091172382534912,2022-01-02-02:39:32,10.1.1.2,171,-0.360,-0.360,-0.360,0.000,0.000,0.000
1641091172582850048,2022-01-02-02:39:32,10.1.1.2,173,-0.350,-0.350,-0.350,0.000,0.000,0.000
1641091172781295104,2022-01-02-02:39:32,10.1.1.2,169,-0.340,-0.340,-0.340,0.000,0.000,0.000
1641091172981947904,2022-01-02-02:39:32,10.1.1.2,168,-0.330,-0.330,-0.330,0.000,0.000,0.000
1641091173182449152,2022-01-02-02:39:33,10.1.1.2,171,-0.320,-0.320,-0.320,0.000,0.000,0.000
1641091173380909056,2022-01-02-02:39:33,10.1.1.2,168,-0.310,-0.310,-0.310,0.000,0.000,0.000
1641091173581815040,2022-01-02-02:39:33,10.1.1.2,169,-0.300,-0.300,-0.300,0.000,0.000,0.000
1641091173780947968,2022-01-02-02:39:33,10.1.1.2,167,-0.290,-0.290,-0.290,0.000,0.000,0.000
1641091173990944000,2022-01-02-02:39:33,10.1.1.2,176,-0.280,-0.280,-0.280,0.000,0.000,0.000
1641091174170948096,2022-01-02-02:39:34,10.1.1.2,155,-0.270,-0.270,-0.270,0.000,0.000,0.000
1641091174378663936,2022-01-02-02:39:34,10.1.1.2,157,-0.260,-0.260,-0.260,0.000,0.000,0.000
1641091174579906048,2022-01-02-02:39:34,10.1.1.2,158,-0.250,-0.250,-0.250,0.000,0.000,0.000
1641091174779427072,2022-01-02-02:39:34,10.1.1.2,156,-0.240,-0.240,-0.240,0.000,0.000,0.000
1641091174975828992,2022-01-02-02:39:34,10.1.1.2,151,-0.230,-0.230,-0.230,0.000,0.000,0.000
1641091175177314048,2022-01-02-02:39:35,10.1.1.2,152,-0.220,-0.220,-0.220,0.000,0.000,0.000
1641091175376992000,2022-01-02-02:39:35,10.1.1.2,150,-0.210,-0.210,-0.210,0.000,0.000,0.000
1641091175596363008,2022-01-02-02:39:35,10.1.1.2,168,-0.200,-0.200,-0.200,0.000,0.000,0.000
1641091175797626880,2022-01-02-02:39:35,10.1.1.2,168,-0.190,-0.190,-0.190,0.000,0.000,0.000
1641091175996519168,2022-01-02-02:39:35,10.1.1.2,167,-0.180,-0.180,-0.180,0.000,0.000,0.000
1641091176197499904,2022-01-02-02:39:36,10.1.1.2,167,-0.170,-0.170,-0.170,0.000,0.000,0.000
1641091176394135040,2022-01-02-02:39:36,10.1.1.2,163,-0.160,-0.160,-0.160,0.000,0.000,0.000
1641091176594379008,2022-01-02-02:39:36,10.1.1.2,162,-0.150,-0.150,-0.150,0.000,0.000,0.000
1641091176796475904,2022-01-02-02:39:36,10.1.1.2,164,-0.140,-0.140,-0.140,0.000,0.000,0.000
1641091176992551168,2022-01-02-02:39:36,10.1.1.2,155,-0.130,-0.130,-0.130,0.000,0.000,0.000
1641091177197076992,2022-01-02-02:39:37,10.1.1.2,159,-0.120,-0.120,-0.120,0.000,0.000,0.000
1641091177394552832,2022-01-02-02:39:37,10.1.1.2,154,-0.110,-0.110,-0.110,0.000,0.000,0.000
1641091177600137984,2022-01-02-02:39:37,10.1.1.2,156,-0.100,-0.100,-0.100,0.000,0.000,0.000
1641091177800822016,2022-01-02-02:39:37,10.1.1.2,157,-0.090,-0.090,-0.090,0.000,0.000,0.000
1641091178001976064,2022-01-02-02:39:38,10.1.1.2,158,-0.080,-0.080,-0.080,0.000,0.000,0.000
1641091178201845760,2022-01-02-02:39:38,10.1.1.2,157,-0.070,-0.070,-0.070,0.000,0.000,0.000
1641091178403028992,2022-01-02-02:39:38,10.1.1.2,157,-0.060,-0.060,-0.060,0.000,0.000,0.000
1641091178605672960,2022-01-02-02:39:38,10.1.1.2,159,-0.050,-0.050,-0.050,0.000,0.000,0.000
1641091178824909824,2022-01-02-02:39:38,10.1.1.2,176,-0.040,-0.040,-0.040,0.000,0.000,0.000
1641091179026340096,2022-01-02-02:39:39,10.1.1.2,178,-0.030,-0.030,-0.030,0.000,0.000,0.000
1641091179223911936,2022-01-02-02:39:39,10.1.1.2,174,-0.020,-0.020,-0.020,0.000,0.000,0.000
1641091179427628032,2022-01-02-02:39:39,10.1.1.2,177,-0.010,-0.010,-0.010,0.000,0.000,0.000
1641091179627567104,2022-01-02-02:39:39,10.1.1.2,175,0.000,0.000,0.000,0.000,0.000,0.000
1641091179829720064,2022-01-02-02:39:39,10.1.1.2,175,-0.010,-0.010,-0.010,0.000,0.000,0.000
1641091179853262848,2022-01-02-02:39:39,10.1.1.2,-2,-0.010,-0.010,-0.010,0.000,0.000,0.000
1641091180228517888,2022-01-02-02:39:40,10.1.1.2,175,-0.030,-0.030,-0.030,0.000,0.000,0.000
1641091180431399936,2022-01-02-02:39:40,10.1.1.2,176,-0.040,-0.040,-0.040,0.000,0.000,0.000
1641091180631378944,2022-01-02-02:39:40,10.1.1.2,176,-0.050,-0.050,-0.050,0.000,0.000,0.000
1641091180835988992,2022-01-02-02:39:40,10.1.1.2,179,-0.060,-0.060,-0.060,0.000,0.000,0.000
1641091181032315136,2022-01-02-02:39:41,10.1.1.2,174,-0.070,-0.070,-0.070,0.000,0.000,0.000
1641091181233257984,2022-01-02-02:39:41,10.1.1.2,173,-0.080,-0.080,-0.080,0.000,0.000,0.000
1641091181434076160,2022-01-02-02:39:41,10.1.1.2,173,-0.090,-0.090,-0.090,0.000,0.000,0.000
1641091181633986048,2022-01-02-02:39:41,10.1.1.2,171,-0.100,-0.100,-0.100,0.000,0.000,0.000
1641091181836749056,2022-01-02-02:39:41,10.1.1.2,173,-0.110,-0.110,-0.110,0.000,0.000,0.000
1641091182032754944,2022-01-02-02:39:42,10.1.1.2,168,-0.120,-0.120,-0.120,0.000,0.000,0.000
1641091182236582144,2022-01-02-02:39:42,10.1.1.2,171,-0.130,-0.130,-0.130,0.000,0.000,0.000
1641091182436574976,2022-01-02-02:39:42,10.1.1.2,171,-0.140,-0.140,-0.140,0.000,0.000,0.000
1641091182634252032,2022-01-02-02:39:42,10.1.1.2,167,-0.150,-0.150,-0.150,0.000,0.000,0.000
1641091182838072064,2022-01-02-02:39:42,10.1.1.2,170,-0.160,-0.160,-0.160,0.000,0.000,0.000
1641091183055197952,2022-01-02-02:39:43,10.1.1.2,187,-0.170,-0.170,-0.170,0.000,0.000,0.000
1641091183255356928,2022-01-02-02:39:43,10.1.1.2,186,-0.180,-0.180,-0.180,0.000,0.000,0.000
1641091183455118848,2022-01-02-02:39:43,10.1.1.2,184,-0.190,-0.190,-0.190,0.000,0.000,0.000
1641091183664467200,2022-01-02-02:39:43,10.1.1.2,192,-0.200,-0.200,-0.200,0.000,0.000,0.000
1641091183850850048,2022-01-02-02:39:43,10.1.1.2,178,-0.210,-0.210,-0.210,0.000,0.000,0.000
1641091184059751936,2022-01-02-02:39:44,10.1.1.2,186,-0.220,-0.220,-0.220,0.000,0.000,0.000
1641091184259618048,2022-01-02-02:39:44,10.1.1.2,184,-0.230,-0.230,-0.230,0.000,0.000,0.000
1641091184457009152,2022-01-02-02:39:44,10.1.1.2,180,-0.240,-0.240,-0.240,0.000,0.000,0.000
1641091184657780992,2022-01-02-02:39:44,10.1.1.2,178,-0.250,-0.250,-0.250,0.000,0.000,0.000
1641091184858955008,2022-01-02-02:39:44,10.1.1.2,176,-0.260,-0.260,-0.260,0.000,0.000,0.000
1641091185059515904,2022-01-02-02:39:45,10.1.1.2,178,-0.270,-0.270,-0.270,0.000,0.000,0.000
1641091185258593024,2022-01-02-02:39:45,10.1.1.2,176,-0.280,-0.280,-0.280,0.000,0.000,0.000
1641091185459280896,2022-01-02-02:39:45,10.1.1.2,175,-0.290,-0.290,-0.290,0.000,0.000,0.000
1641091185679335168,2022-01-02-02:39:45,10.1.1.2,194,-0.300,-0.300,-0.300,0.000,0.000,0.000
1641091185861801984,2022-01-02-02:39:45,10.1.1.2,172,-0.310,-0.310,-0.310,0.000,0.000,0.000
1641091186061485056,2022-01-02-02:39:46,10.1.1.2,175,-0.320,-0.320,-0.320,0.000,0.000,0.000
1641091186279345152,2022-01-02-02:39:46,10.1.1.2,192,-0.330,-0.330,-0.330,0.000,0.000,0.000
1641091186478848000,2022-01-02-02:39:46,10.1.1.2,191,-0.340,-0.340,-0.340,0.000,0.000,0.000
1641091186679827968,2022-01-02-02:39:46,10.1.1.2,190,-0.350,-0.350,-0.350,0.000,0.000,0.000
1641091186878561024,2022-01-02-02:39:46,10.1.1.2,188,-0.360,-0.360,-0.360,0.000,0.000,0.000
1641091187079772928,2022-01-02-02:39:47,10.1.1.2,188,-0.370,-0.370,-0.370,0.000,0.000,0.000
1641091187278718976,2022-01-02-02:39:47,10.1.1.2,186,-0.380,-0.380,-0.380,0.000,0.000,0.000
1641091187480401920,2022-01-02-02:39:47,10.1.1.2,187,-0.390,-0.390,-0.390,0.000,0.000,0.000
1641091187682315008,2022-01-02-02:39:47,10.1.1.2,189,-0.400,-0.400,-0.400,0.000,0.000,0.000
1641091187880690176,2022-01-02-02:39:47,10.1.1.2,186,-0.410,-0.410,-0.410,0.000,0.000,0.000
1641091188080926976,2022-01-02-02:39:48,10.1.1.2,184,-0.420,-0.420,-0.420,0.000,0.000,0.000
1641091188269812224,2022-01-02-02:39:48,10.1.1.2,173,-0.430,-0.430,-0.430,0.000,0.000,0.000
1641091188469476864,2022-01-02-02:39:48,10.1.1.2,172,-0.440,-0.440,-0.440,0.000,0.000,0.000
1641091188680603904,2022-01-02-02:39:48,10.1.1.2,182,-0.450,-0.450,-0.450,0.000,0.000,0.000
1641091188878648064,2022-01-02-02:39:48,10.1.1.2,179,-0.460,-0.460,-0.460,0.000,0.000,0.000
1641091189079778816,2022-01-02-02:39:49,10.1.1.2,177,-0.470,-0.470,-0.470,0.000,0.000,0.000
1641091189278307840,2022-01-02-02:39:49,10.1.1.2,175,-0.480,-0.480,-0.480,0.000,0.000,0.000
1641091189478385920,2022-01-02-02:39:49,10.1.1.2,173,-0.490,-0.490,-0.490,0.000,0.000,0.000
1641091189700254976,2022-01-02-02:39:49,10.1.1.2,195,-0.480,-0.480,-0.480,0.000,0.000,0.000
1641091189878432000,2022-01-02-02:39:49,10.1.1.2,172,-0.470,-0.470,-0.470,0.000,0.000,0.000
1641091190081731072,2022-01-02-02:39:50,10.1.1.2,173,-0.460,-0.460,-0.460,0.000,0.000,0.000
1641091190298526976,2022-01-02-02:39:50,10.1.1.2,190,-0.450,-0.450,-0.450,0.000,0.000,0.000
1641091190500102144,2022-01-02-02:39:50,10.1.1.2,190,-0.440,-0.440,-0.440,0.000,0.000,0.000
1641091190700378880,2022-01-02-02:39:50,10.1.1.2,190,-0.430,-0.430,-0.430,0.000,0.000,0.000
1641091190899858944,2022-01-02-02:39:50,10.1.1.2,188,-0.420,-0.420,-0.420,0.000,0.000,0.000
1641091191100080896,2022-01-02-02:39:51,10.1.1.2,188,-0.410,-0.410,-0.410,0.000,0.000,0.000
1641091191301722112,2022-01-02-02:39:51,10.1.1.2,188,-0.400,-0.400,-0.400,0.000,0.000,0.000
1641091191499365120,2022-01-02-02:39:51,10.1.1.2,184,-0.390,-0.390,-0.390,0.000,0.000,0.000
1641091191701101056,2022-01-02-02:39:51,10.1.1.2,186,-0.380,-0.380,-0.380,0.000,0.000,0.000
1641091191900937984,2022-01-02-02:39:51,10.1.1.2,183,-0.370,-0.370,-0.370,0.000,0.000,0.000
1641091192099009024,2022-01-02-02:39:52,10.1.1.2,183,-0.360,-0.360,-0.360,0.000,0.000,0.000
1641091192300431104,2022-01-02-02:39:52,10.1.1.2,179,-0.350,-0.350,-0.350,0.000,0.000,0.000
1641091192498832896,2022-01-02-02:39:52,10.1.1.2,177,-0.340,-0.340,-0.340,0.000,0.000,0.000
1641091192698102016,2022-01-02-02:39:52,10.1.1.2,174,-0.330,-0.330,-0.330,0.000,0.000,0.000
1641091192911938816,2022-01-02-02:39:52,10.1.1.2,187,-0.320,-0.320,-0.320,0.000,0.000,0.000
1641091193099049984,2022-01-02-02:39:53,10.1.1.2,174,-0.310,-0.310,-0.310,0.000,0.000,0.000
1641091193299505920,2022-01-02-02:39:53,10.1.1.2,173,-0.300,-0.300,-0.300,0.000,0.000,0.000
1641091193498617856,2022-01-02-02:39:53,10.1.1.2,171,-0.290,-0.290,-0.290,0.000,0.000,0.000
1641091193719408128,2022-01-02-02:39:53,10.1.1.2,191,-0.280,-0.280,-0.280,0.000,0.000,0.000
1641091193908418048,2022-01-02-02:39:53,10.1.1.2,179,-0.270,-0.270,-0.270,0.000,0.000,0.000
1641091194115625984,2022-01-02-02:39:54,10.1.1.2,186,-0.260,-0.260,-0.260,0.000,0.000,0.000
1641091194316196864,2022-01-02-02:39:54,10.1.1.2,185,-0.250,-0.250,-0.250,0.000,0.000,0.000
1641091194518022912,2022-01-02-02:39:54,10.1.1.2,185,-0.240,-0.240,-0.240,0.000,0.000,0.000
1641091194725699840,2022-01-02-02:39:54,10.1.1.2,192,-0.230,-0.230,-0.230,0.000,0.000,0.000
1641091194917656832,2022-01-02-02:39:54,10.1.1.2,183,-0.220,-0.220,-0.220,0.000,0.000,0.000
1641091195116976896,2022-01-02-02:39:55,10.1.1.2,176,-0.210,-0.210,-0.210,0.000,0.000,0.000
1641091195314652928,2022-01-02-02:39:55,10.1.1.2,173,-0.200,-0.200,-0.200,0.000,0.000,0.000
1641091195515062016,2022-01-02-02:39:55,10.1.1.2,173,-0.190,-0.190,-0.190,0.000,0.000,0.000
1641091195715699968,2022-01-02-02:39:55,10.1.1.2,171,-0.180,-0.180,-0.180,0.000,0.000,0.000
1641091195916107776,2022-01-02-02:39:55,10.1.1.2,171,-0.170,-0.170,-0.170,0.000,0.000,0.000
1641091196116610048,2022-01-02-02:39:56,10.1.1.2,169,-0.160,-0.160,-0.160,0.000,0.000,0.000
1641091196315596032,2022-01-02-02:39:56,10.1.1.2,168,-0.150,-0.150,-0.150,0.000,0.000,0.000
1641091196516894208,2022-01-02-02:39:56,10.1.1.2,169,-0.140,-0.140,-0.140,0.000,0.000,0.000
1641091196740492032,2022-01-02-02:39:56,10.1.1.2,192,-0.130,-0.130,-0.130,0.000,0.000,0.000
1641091196934217984,2022-01-02-02:39:56,10.1.1.2,185,-0.120,-0.120,-0.120,0.000,0.000,0.000
1641091197135084032,2022-01-02-02:39:57,10.1.1.2,185,-0.110,-0.110,-0.110,0.000,0.000,0.000
1641091197333977856,2022-01-02-02:39:57,10.1.1.2,183,-0.100,-0.100,-0.100,0.000,0.000,0.000
1641091197533884928,2022-01-02-02:39:57,10.1.1.2,183,-0.090,-0.090,-0.090,0.000,0.000,0.000
1641091197736084992,2022-01-02-02:39:57,10.1.1.2,181,-0.080,-0.080,-0.080,0.000,0.000,0.000
1641091197933382912,2022-01-02-02:39:57,10.1.1.2,177,-0.070,-0.070,-0.070,0.000,0.000,0.000
1641091198137719040,2022-01-02-02:39:58,10.1.1.2,181,-0.060,-0.060,-0.060,0.000,0.000,0.000
1641091198325508096,2022-01-02-02:39:58,10.1.1.2,168,-0.050,-0.050,-0.050,0.000,0.000,0.000
1641091198533016832,2022-01-02-02:39:58,10.1.1.2,175,-0.040,-0.040,-0.040,0.000,0.000,0.000
1641091198754800128,2022-01-02-02:39:58,10.1.1.2,196,-0.030,-0.030,-0.030,0.000,0.000,0.000
1641091198952658944,2022-01-02-02:39:58,10.1.1.2,193,-0.020,-0.020,-0.020,0.000,0.000,0.000
1641091199152837888,2022-01-02-02:39:59,10.1.1.2,192,-0.010,-0.010,-0.010,0.000,0.000,0.000
1641091199332129024,2022-01-02-02:39:59,10.1.1.2,170,0.000,0.000,0.000,0.000,0.000,0.000
1641091199529787904,2022-01-02-02:39:59,10.1.1.2,167,-0.010,-0.010,-0.010,0.000,0.000,0.000
1641091199732631808,2022-01-02-02:39:59,10.1.1.2,169,-0.020,-0.020,-0.020,0.000,0.000,0.000
1641091199931567872,2022-01-02-02:39:59,10.1.1.2,168,-0.030,-0.030,-0.030,0.000,0.000,0.000
1641091200131258112,2022-01-02-02:40:00,10.1.1.2,166,-0.040,-0.040,-0.040,0.000,0.000,0.000
1641091200328516096,2022-01-02-02:40:00,10.1.1.2,163,-0.050,-0.050,-0.050,0.000,0.000,0.000
1641091200530014976,2022-01-02-02:40:00,10.1.1.2,164,-0.060,-0.060,-0.060,0.000,0.000,0.000
1641091200751142912,2022-01-02-02:40:00,10.1.1.2,184,-0.070,-0.070,-0.070,0.000,0.000,0.000
1641091200950983936,2022-01-02-02:40:00,10.1.1.2,182,-0.080,-0.080,-0.080,0.000,0.000,0.000
1641091201149908992,2022-01-02-02:40:01,10.1.1.2,178,-0.090,-0.090,-0.090,0.000,0.000,0.000
1641091201350622976,2022-01-02-02:40:01,10.1.1.2,178,-0.100,-0.100,-0.100,0.000,0.000,0.000
1641091201548445952,2022-01-02-02:40:01,10.1.1.2,176,-0.110,-0.110,-0.110,0.000,0.000,0.000
1641091201750209024,2022-01-02-02:40:01,10.1.1.2,177,-0.120,-0.120,-0.120,0.000,0.000,0.000
1641091201949632768,2022-01-02-02:40:01,10.1.1.2,176,-0.130,-0.130,-0.130,0.000,0.000,0.000
1641091202136421888,2022-01-02-02:40:02,10.1.1.2,162,-0.140,-0.140,-0.140,0.000,0.000,0.000
1641091202349281024,2022-01-02-02:40:02,10.1.1.2,174,-0.150,-0.150,-0.150,0.000,0.000,0.000
1641091202547811072,2022-01-02-02:40:02,10.1.1.2,171,-0.160,-0.160,-0.160,0.000,0.000,0.000
1641091202764538112,2022-01-02-02:40:02,10.1.1.2,186,-0.170,-0.170,-0.170,0.000,0.000,0.000
1641091202945262848,2022-01-02-02:40:02,10.1.1.2,166,-0.180,-0.180,-0.180,0.000,0.000,0.000
1641091203148811008,2022-01-02-02:40:03,10.1.1.2,168,-0.190,-0.190,-0.190,0.000,0.000,0.000
1641091203350189824,2022-01-02-02:40:03,10.1.1.2,169,-0.200,-0.200,-0.200,0.000,0.000,0.000
1641091203546369024,2022-01-02-02:40:03,10.1.1.2,164,-0.210,-0.210,-0.210,0.000,0.000,0.000
1641091203747778048,2022-01-02-02:40:03,10.1.1.2,164,-0.220,-0.220,-0.220,0.000,0.000,0.000
1641091203962724864,2022-01-02-02:40:03,10.1.1.2,161,-0.230,-0.230,-0.230,0.000,0.000,0.000
1641091204166980096,2022-01-02-02:40:04,10.1.1.2,165,-0.240,-0.240,-0.240,0.000,0.000,0.000
1641091204362996224,2022-01-02-02:40:04,10.1.1.2,160,-0.250,-0.250,-0.250,0.000,0.000,0.000
1641091204562784000,2022-01-02-02:40:04,10.1.1.2,156,-0.260,-0.260,-0.260,0.000,0.000,0.000
1641091204763895040,2022-01-02-02:40:04,10.1.1.2,156,-0.270,-0.270,-0.270,0.000,0.000,0.000
1641091204972062976,2022-01-02-02:40:04,10.1.1.2,164,-0.280,-0.280,-0.280,0.000,0.000,0.000
1641091205186188032,2022-01-02-02:40:05,10.1.1.2,175,-0.290,-0.290,-0.290,0.000,0.000,0.000
1641091205381499136,2022-01-02-02:40:05,10.1.1.2,172,-0.300,-0.300,-0.300,0.000,0.000,0.000
1641091205587205888,2022-01-02-02:40:05,10.1.1.2,176,-0.310,-0.310,-0.310,0.000,0.000,0.000
1641091205786637056,2022-01-02-02:40:05,10.1.1.2,174,-0.320,-0.320,-0.320,0.000,0.000,0.000
1641091205980052992,2022-01-02-02:40:05,10.1.1.2,167,-0.330,-0.330,-0.330,0.000,0.000,0.000
1641091206182352128,2022-01-02-02:40:06,10.1.1.2,167,-0.340,-0.340,-0.340,0.000,0.000,0.000
1641091206370279168,2022-01-02-02:40:06,10.1.1.2,155,-0.350,-0.350,-0.350,0.000,0.000,0.000
1641091206579894016,2022-01-02-02:40:06,10.1.1.2,164,-0.360,-0.360,-0.360,0.000,0.000,0.000
1641091206778750976,2022-01-02-02:40:06,10.1.1.2,162,-0.370,-0.370,-0.370,0.000,0.000,0.000
1641091206978667008,2022-01-02-02:40:06,10.1.1.2,161,-0.380,-0.380,-0.380,0.000,0.000,0.000
1641091207185734912,2022-01-02-02:40:07,10.1.1.2,163,-0.390,-0.390,-0.390,0.000,0.000,0.000
1641091207381392896,2022-01-02-02:40:07,10.1.1.2,158,-0.400,-0.400,-0.400,0.000,0.000,0.000
1641091207580151040,2022-01-02-02:40:07,10.1.1.2,152,-0.410,-0.410,-0.410,0.000,0.000,0.000
1641091207779396096,2022-01-02-02:40:07,10.1.1.2,152,-0.420,-0.420,-0.420,0.000,0.000,0.000
1641091207999313152,2022-01-02-02:40:07,10.1.1.2,171,-0.430,-0.430,-0.430,0.000,0.000,0.000
1641091208199429120,2022-01-02-02:40:08,10.1.1.2,170,-0.440,-0.440,-0.440,0.000,0.000,0.000
1641091208396965888,2022-01-02-02:40:08,10.1.1.2,166,-0.450,-0.450,-0.450,0.000,0.000,0.000
1641091208600229120,2022-01-02-02:40:08,10.1.1.2,167,-0.460,-0.460,-0.460,0.000,0.000,0.000
1641091208798928128,2022-01-02-02:40:08,10.1.1.2,165,-0.470,-0.470,-0.470,0.000,0.000,0.000
1641091208985769984,2022-01-02-02:40:08,10.1.1.2,151,-0.480,-0.480,-0.480,0.000,0.000,0.000
1641091209197971968,2022-01-02-02:40:09,10.1.1.2,163,-0.490,-0.490,-0.490,0.000,0.000,0.000
1641091209400836096,2022-01-02-02:40:09,10.1.1.2,164,-0.480,-0.480,-0.480,0.000,0.000,0.000
1641091209602886912,2022-01-02-02:40:09,10.1.1.2,163,-0.470,-0.470,-0.470,0.000,0.000,0.000
1641091209799949824,2022-01-02-02:40:09,10.1.1.2,159,-0.460,-0.460,-0.460,0.000,0.000,0.000
1641091210000633088,2022-01-02-02:40:10,10.1.1.2,158,-0.450,-0.450,-0.450,0.000,0.000,0.000
1641091210200711936,2022-01-02-02:40:10,10.1.1.2,156,-0.440,-0.440,-0.440,0.000,0.000,0.000
1641091210405049088,2022-01-02-02:40:10,10.1.1.2,159,-0.430,-0.430,-0.430,0.000,0.000,0.000
1641091210604006912,2022-01-02-02:40:10,10.1.1.2,158,-0.420,-0.420,-0.420,0.000,0.000,0.000
1641091210824784128,2022-01-02-02:40:10,10.1.1.2,178,-0.410,-0.410,-0.410,0.000,0.000,0.000
1641091211027406080,2022-01-02-02:40:11,10.1.1.2,179,-0.400,-0.400,-0.400,0.000,0.000,0.000
1641091211226723072,2022-01-02-02:40:11,10.1.1.2,177,-0.390,-0.390,-0.390,0.000,0.000,0.000
1641091211427150080,2022-01-02-02:40:11,10.1.1.2,173,-0.380,-0.380,-0.380,0.000,0.000,0.000
1641091211629524992,2022-01-02-02:40:11,10.1.1.2,176,-0.370,-0.370,-0.370,0.000,0.000,0.000
1641091211829602048,2022-01-02-02:40:11,10.1.1.2,175,-0.360,-0.360,-0.360,0.000,0.000,0.000
1641091212027723008,2022-01-02-02:40:12,10.1.1.2,172,-0.350,-0.350,-0.350,0.000,0.000,0.000
1641091212229132800,2022-01-02-02:40:12,10.1.1.2,173,-0.340,-0.340,-0.340,0.000,0.000,0.000
1641091212431780096,2022-01-02-02:40:12,10.1.1.2,174,-0.330,-0.330,-0.330,0.000,0.000,0.000
1641091212632388096,2022-01-02-02:40:12,10.1.1.2,174,-0.320,-0.320,-0.320,0.000,0.000,0.000
1641091212834045952,2022-01-02-02:40:12,10.1.1.2,174,-0.310,-0.310,-0.310,0.000,0.000,0.000
1641091213032578048,2022-01-02-02:40:13,10.1.1.2,171,-0.300,-0.300,-0.300,0.000,0.000,0.000
1641091213234159872,2022-01-02-02:40:13,10.1.1.2,172,-0.290,-0.290,-0.290,0.000,0.000,0.000
1641091213455589888,2022-01-02-02:40:13,10.1.1.2,193,-0.280,-0.280,-0.280,0.000,0.000,0.000
1641091213634582016,2022-01-02-02:40:13,10.1.1.2,171,-0.270,-0.270,-0.270,0.000,0.000,0.000
1641091213832967168,2022-01-02-02:40:13,10.1.1.2,169,-0.260,-0.260,-0.260,0.000,0.000,0.000
1641091214033451008,2022-01-02-02:40:14,10.1.1.2,168,-0.250,-0.250,-0.250,0.000,0.000,0.000
1641091214234086912,2022-01-02-02:40:14,10.1.1.2,168,-0.240,-0.240,-0.240,0.000,0.000,0.000
1641091214435129856,2022-01-02-02:40:14,10.1.1.2,169,-0.230,-0.230,-0.230,0.000,0.000,0.000
1641091214637157888,2022-01-02-02:40:14,10.1.1.2,170,-0.220,-0.220,-0.220,0.000,0.000,0.000
1641091214857673984,2022-01-02-02:40:14,10.1.1.2,189,-0.210,-0.210,-0.210,0.000,0.000,0.000
1641091215056487936,2022-01-02-02:40:15,10.1.1.2,187,-0.200,-0.200,-0.200,0.000,0.000,0.000
1641091215256547840,2022-01-02-02:40:15,10.1.1.2,185,-0.190,-0.190,-0.190,0.000,0.000,0.000
1641091215456571136,2022-01-02-02:40:15,10.1.1.2,184,-0.180,-0.180,-0.180,0.000,0.000,0.000
1641091215655142912,2022-01-02-02:40:15,10.1.1.2,182,-0.170,-0.170,-0.170,0.000,0.000,0.000
1641091215877580032,2022-01-02-02:40:15,10.1.1.2,196,-0.160,-0.160,-0.160,0.000,0.000,0.000
1641091216057569024,2022-01-02-02:40:16,10.1.1.2,178,-0.150,-0.150,-0.150,0.000,0.000,0.000
1641091216260340992,2022-01-02-02:40:16,10.1.1.2,179,-0.140,-0.140,-0.140,0.000,0.000,0.000
1641091216462678784,2022-01-02-02:40:16,10.1.1.2,181,-0.130,-0.130,-0.130,0.000,0.000,0.000
1641091216663639040,2022-01-02-02:40:16,10.1.1.2,177,-0.120,-0.120,-0.120,0.000,0.000,0.000
1641091216860640000,2022-01-02-02:40:16,10.1.1.2,175,-0.110,-0.110,-0.110,0.000,0.000,0.000
1641091217080176128,2022-01-02-02:40:17,10.1.1.2,193,-0.100,-0.100,-0.100,0.000,0.000,0.000
1641091217260027904,2022-01-02-02:40:17,10.1.1.2,172,-0.090,-0.090,-0.090,0.000,0.000,0.000
1641091217480091136,2022-01-02-02:40:17,10.1.1.2,192,-0.080,-0.080,-0.080,0.000,0.000,0.000
1641091217679910912,2022-01-02-02:40:17,10.1.1.2,191,-0.070,-0.070,-0.070,0.000,0.000,0.000
1641091217879237888,2022-01-02-02:40:17,10.1.1.2,190,-0.060,-0.060,-0.060,0.000,0.000,0.000
1641091218080878848,2022-01-02-02:40:18,10.1.1.2,190,-0.050,-0.050,-0.050,0.000,0.000,0.000
1641091218281603072,2022-01-02-02:40:18,10.1.1.2,190,-0.040,-0.040,-0.040,0.000,0.000,0.000
