FedericoMungari/DigitalTwin_service/01_WiredScenario/Output/Output_script/script_rosapi_2_output_robots8_freq0_8.txt
timestamp,date,node,latency,joint_1,joint_2,joint_3,joint_4,joint_5,joint_6
1644350901919902976,2022-02-08-20:08:21,10.1.1.9,-7,-0.100,-0.100,-0.100,0.000,-0.000,0.000
1644350902052412928,2022-02-08-20:08:22,10.1.1.9,32,-0.090,-0.090,-0.090,0.000,0.000,0.000
1644350902159506176,2022-02-08-20:08:22,10.1.1.9,31,-0.080,-0.080,-0.080,0.000,0.000,0.000
1644350902257047808,2022-02-08-20:08:22,10.1.1.9,31,-0.070,-0.070,-0.070,0.000,0.000,0.000
1644350902354185984,2022-02-08-20:08:22,10.1.1.9,29,-0.060,-0.060,-0.060,0.000,0.000,0.000
1644350902452186112,2022-02-08-20:08:22,10.1.1.9,28,-0.050,-0.050,-0.050,0.000,0.000,0.000
1644350902552946176,2022-02-08-20:08:22,10.1.1.9,27,-0.040,-0.040,-0.040,0.000,0.000,0.000
1644350902652131072,2022-02-08-20:08:22,10.1.1.9,26,-0.030,-0.030,-0.030,0.000,0.000,0.000
1644350902753505024,2022-02-08-20:08:22,10.1.1.9,25,-0.020,-0.020,-0.020,0.000,0.000,0.000
1644350902854032128,2022-02-08-20:08:22,10.1.1.9,25,-0.010,-0.010,-0.010,0.000,0.000,0.000
1644350902953753088,2022-02-08-20:08:22,10.1.1.9,24,0.000,0.000,0.000,0.000,0.000,0.000
1644350903052826880,2022-02-08-20:08:23,10.1.1.9,24,0.010,0.010,0.010,0.000,0.000,0.000
1644350903152509952,2022-02-08-20:08:23,10.1.1.9,23,0.020,0.020,0.020,0.000,0.000,0.000
1644350903253992192,2022-02-08-20:08:23,10.1.1.9,23,0.030,0.030,0.030,0.000,0.000,0.000
1644350903353105152,2022-02-08-20:08:23,10.1.1.9,23,0.040,0.040,0.040,0.000,0.000,0.000
1644350903452380928,2022-02-08-20:08:23,10.1.1.9,22,0.050,0.050,0.050,0.000,0.000,0.000
1644350903552882944,2022-02-08-20:08:23,10.1.1.9,21,0.060,0.060,0.060,0.000,0.000,0.000
1644350903652740864,2022-02-08-20:08:23,10.1.1.9,20,0.070,0.070,0.070,0.000,0.000,0.000
1644350903752960000,2022-02-08-20:08:23,10.1.1.9,20,0.080,0.080,0.080,0.000,0.000,0.000
1644350903852643072,2022-02-08-20:08:23,10.1.1.9,20,0.090,0.090,0.090,0.000,0.000,0.000
1644350903952835072,2022-02-08-20:08:23,10.1.1.9,19,0.100,0.100,0.100,0.000,0.000,0.000
1644350904072147968,2022-02-08-20:08:24,10.1.1.9,38,0.090,0.090,0.090,0.000,0.000,0.000
1644350904173369856,2022-02-08-20:08:24,10.1.1.9,37,0.080,0.080,0.080,0.000,0.000,0.000
1644350904272713984,2022-02-08-20:08:24,10.1.1.9,37,0.070,0.070,0.070,0.000,0.000,0.000
1644350904373938176,2022-02-08-20:08:24,10.1.1.9,36,0.060,0.060,0.060,0.000,0.000,0.000
1644350904472845056,2022-02-08-20:08:24,10.1.1.9,35,0.050,0.050,0.050,0.000,0.000,0.000
1644350904573616128,2022-02-08-20:08:24,10.1.1.9,35,0.040,0.040,0.040,0.000,0.000,0.000
1644350904672570880,2022-02-08-20:08:24,10.1.1.9,35,0.030,0.030,0.030,0.000,0.000,0.000
1644350904772461056,2022-02-08-20:08:24,10.1.1.9,34,0.020,0.020,0.020,0.000,0.000,0.000
1644350904872556032,2022-02-08-20:08:24,10.1.1.9,33,0.010,0.010,0.010,0.000,0.000,0.000
1644350904972582144,2022-02-08-20:08:24,10.1.1.9,33,0.000,0.000,0.000,0.000,0.000,0.000
1644350905099597056,2022-02-08-20:08:25,10.1.1.9,32,-0.010,-0.010,-0.010,0.000,0.000,0.000
1644350905172233984,2022-02-08-20:08:25,10.1.1.9,31,-0.020,-0.020,-0.020,0.000,0.000,0.000
1644350905272672000,2022-02-08-20:08:25,10.1.1.9,31,-0.030,-0.030,-0.030,0.000,0.000,0.000
1644350905374408960,2022-02-08-20:08:25,10.1.1.9,30,-0.040,-0.040,-0.040,0.000,0.000,0.000
1644350905472708096,2022-02-08-20:08:25,10.1.1.9,29,-0.050,-0.050,-0.050,0.000,0.000,0.000
1644350905572860928,2022-02-08-20:08:25,10.1.1.9,29,-0.060,-0.060,-0.060,0.000,0.000,0.000
1644350905672820992,2022-02-08-20:08:25,10.1.1.9,28,-0.070,-0.070,-0.070,0.000,0.000,0.000
1644350905792648192,2022-02-08-20:08:25,10.1.1.9,37,-0.080,-0.080,-0.080,0.000,0.000,0.000
1644350905893716992,2022-02-08-20:08:25,10.1.1.9,36,-0.090,-0.090,-0.090,0.000,0.000,0.000
1644350905993078016,2022-02-08-20:08:25,10.1.1.9,35,-0.100,-0.100,-0.100,0.000,0.000,0.000
1644350906093001984,2022-02-08-20:08:26,10.1.1.9,35,-0.090,-0.090,-0.090,0.000,0.000,0.000
1644350906193376000,2022-02-08-20:08:26,10.1.1.9,34,-0.080,-0.080,-0.080,0.000,0.000,0.000
1644350906292880896,2022-02-08-20:08:26,10.1.1.9,34,-0.070,-0.070,-0.070,0.000,0.000,0.000
1644350906392851200,2022-02-08-20:08:26,10.1.1.9,33,-0.060,-0.060,-0.060,0.000,0.000,0.000
1644350906492645888,2022-02-08-20:08:26,10.1.1.9,33,-0.050,-0.050,-0.050,0.000,0.000,0.000
1644350906592833024,2022-02-08-20:08:26,10.1.1.9,32,-0.040,-0.040,-0.040,0.000,0.000,0.000
1644350906692062976,2022-02-08-20:08:26,10.1.1.9,31,-0.030,-0.030,-0.030,0.000,0.000,0.000
1644350906793370112,2022-02-08-20:08:26,10.1.1.9,30,-0.020,-0.020,-0.020,0.000,0.000,0.000
1644350906893358080,2022-02-08-20:08:26,10.1.1.9,30,-0.010,-0.010,-0.010,0.000,0.000,0.000
1644350906995281920,2022-02-08-20:08:26,10.1.1.9,27,0.000,0.000,0.000,0.000,0.000,0.000
1644350907092890112,2022-02-08-20:08:27,10.1.1.9,26,0.010,0.010,0.010,0.000,0.000,0.000
1644350907193195008,2022-02-08-20:08:27,10.1.1.9,25,0.020,0.020,0.020,0.000,0.000,0.000
1644350907293144832,2022-02-08-20:08:27,10.1.1.9,24,0.030,0.030,0.030,0.000,0.000,0.000
1644350907392815104,2022-02-08-20:08:27,10.1.1.9,24,0.040,0.040,0.040,0.000,0.000,0.000
1644350907494000896,2022-02-08-20:08:27,10.1.1.9,23,0.050,0.050,0.050,0.000,0.000,0.000
1644350907593102848,2022-02-08-20:08:27,10.1.1.9,22,0.060,0.060,0.060,0.000,0.000,0.000
1644350907693008896,2022-02-08-20:08:27,10.1.1.9,22,0.070,0.070,0.070,0.000,0.000,0.000
1644350907794209024,2022-02-08-20:08:27,10.1.1.9,22,0.080,0.080,0.080,0.000,0.000,0.000
1644350907893127936,2022-02-08-20:08:27,10.1.1.9,21,0.090,0.090,0.090,0.000,0.000,0.000
1644350907992832000,2022-02-08-20:08:27,10.1.1.9,20,0.100,0.100,0.100,0.000,0.000,0.000
1644350908092622080,2022-02-08-20:08:28,10.1.1.9,20,0.090,0.090,0.090,0.000,0.000,0.000
1644350908192806912,2022-02-08-20:08:28,10.1.1.9,19,0.081,0.081,0.081,0.000,0.000,0.000
1644350908312254976,2022-02-08-20:08:28,10.1.1.9,38,0.070,0.070,0.070,0.000,0.000,0.000
1644350908413091072,2022-02-08-20:08:28,10.1.1.9,38,0.060,0.060,0.060,0.000,0.000,0.000
1644350908513353216,2022-02-08-20:08:28,10.1.1.9,37,0.050,0.050,0.050,0.000,0.000,0.000
1644350908612844032,2022-02-08-20:08:28,10.1.1.9,35,0.040,0.040,0.040,0.000,0.000,0.000
1644350908712502016,2022-02-08-20:08:28,10.1.1.9,34,0.030,0.030,0.030,0.000,0.000,0.000
1644350908812500992,2022-02-08-20:08:28,10.1.1.9,34,0.020,0.020,0.020,0.000,0.000,0.000
1644350908912322048,2022-02-08-20:08:28,10.1.1.9,33,0.010,0.010,0.010,0.000,0.000,0.000
1644350909012561920,2022-02-08-20:08:29,10.1.1.9,33,0.000,0.000,0.000,0.000,0.000,0.000
1644350909113431040,2022-02-08-20:08:29,10.1.1.9,31,-0.010,-0.010,-0.010,0.000,0.000,0.000
1644350909212461824,2022-02-08-20:08:29,10.1.1.9,31,-0.020,-0.020,-0.020,0.000,0.000,0.000
1644350909312617984,2022-02-08-20:08:29,10.1.1.9,31,-0.030,-0.030,-0.030,0.000,0.000,0.000
1644350909413288960,2022-02-08-20:08:29,10.1.1.9,29,-0.040,-0.040,-0.040,0.000,0.000,0.000
1644350909513127168,2022-02-08-20:08:29,10.1.1.9,28,-0.050,-0.050,-0.050,0.000,0.000,0.000
1644350909612461056,2022-02-08-20:08:29,10.1.1.9,28,-0.060,-0.060,-0.060,0.000,0.000,0.000
1644350909712598016,2022-02-08-20:08:29,10.1.1.9,27,-0.070,-0.070,-0.070,0.000,0.000,0.000
1644350909813432832,2022-02-08-20:08:29,10.1.1.9,27,-0.080,-0.080,-0.080,0.000,0.000,0.000
1644350909912795136,2022-02-08-20:08:29,10.1.1.9,25,-0.090,-0.090,-0.090,0.000,0.000,0.000
1644350910012963072,2022-02-08-20:08:30,10.1.1.9,24,-0.100,-0.100,-0.100,0.000,0.000,0.000
1644350910114025216,2022-02-08-20:08:30,10.1.1.9,23,-0.090,-0.090,-0.090,0.000,0.000,0.000
1644350910212902912,2022-02-08-20:08:30,10.1.1.9,23,-0.080,-0.080,-0.080,0.000,0.000,0.000
1644350910313180928,2022-02-08-20:08:30,10.1.1.9,22,-0.070,-0.070,-0.070,0.000,0.000,0.000
1644350910414774784,2022-02-08-20:08:30,10.1.1.9,21,-0.060,-0.060,-0.060,0.000,0.000,0.000
1644350910513613056,2022-02-08-20:08:30,10.1.1.9,20,-0.050,-0.050,-0.050,0.000,0.000,0.000
1644350910613123840,2022-02-08-20:08:30,10.1.1.9,19,-0.040,-0.040,-0.040,0.000,0.000,0.000
1644350910732756992,2022-02-08-20:08:30,10.1.1.9,39,-0.030,-0.030,-0.030,0.000,0.000,0.000
1644350910833178112,2022-02-08-20:08:30,10.1.1.9,38,-0.020,-0.020,-0.020,0.000,0.000,0.000
1644350910933168896,2022-02-08-20:08:30,10.1.1.9,38,-0.010,-0.010,-0.010,0.000,0.000,0.000
1644350911033217792,2022-02-08-20:08:31,10.1.1.9,37,0.000,0.000,0.000,0.000,0.000,0.000
1644350911133316096,2022-02-08-20:08:31,10.1.1.9,35,0.010,0.010,0.010,0.000,0.000,0.000
1644350911232323840,2022-02-08-20:08:31,10.1.1.9,34,0.020,0.020,0.020,0.000,0.000,0.000
1644350911332798976,2022-02-08-20:08:31,10.1.1.9,34,0.030,0.030,0.030,0.000,0.000,0.000
1644350911433833984,2022-02-08-20:08:31,10.1.1.9,34,0.040,0.040,0.040,0.000,0.000,0.000
1644350911532828928,2022-02-08-20:08:31,10.1.1.9,33,0.050,0.050,0.050,0.000,0.000,0.000
1644350911633431040,2022-02-08-20:08:31,10.1.1.9,33,0.060,0.060,0.060,0.000,0.000,0.000
1644350911732767232,2022-02-08-20:08:31,10.1.1.9,28,0.070,0.070,0.070,0.000,0.000,0.000
1644350911832493056,2022-02-08-20:08:31,10.1.1.9,28,0.080,0.080,0.080,0.000,0.000,0.000
1644350911932478976,2022-02-08-20:08:31,10.1.1.9,28,0.090,0.090,0.090,0.000,0.000,0.000
1644350912032922880,2022-02-08-20:08:32,10.1.1.9,27,0.100,0.100,0.100,0.000,0.000,0.000
1644350912133017088,2022-02-08-20:08:32,10.1.1.9,27,0.090,0.090,0.090,0.000,0.000,0.000
1644350912232678912,2022-02-08-20:08:32,10.1.1.9,26,0.080,0.080,0.080,0.000,0.000,0.000
1644350912332712960,2022-02-08-20:08:32,10.1.1.9,25,0.070,0.070,0.070,0.000,0.000,0.000
1644350912432910848,2022-02-08-20:08:32,10.1.1.9,25,0.060,0.060,0.060,0.000,0.000,0.000
1644350912532992000,2022-02-08-20:08:32,10.1.1.9,24,0.050,0.050,0.050,0.000,0.000,0.000
1644350912632953856,2022-02-08-20:08:32,10.1.1.9,24,0.040,0.040,0.040,0.000,0.000,0.000
1644350912736912128,2022-02-08-20:08:32,10.1.1.9,23,0.030,0.030,0.030,0.000,0.000,0.000
1644350912833921792,2022-02-08-20:08:32,10.1.1.9,23,0.020,0.020,0.020,0.000,0.000,0.000
1644350912932632832,2022-02-08-20:08:32,10.1.1.9,22,0.010,0.010,0.010,0.000,0.000,0.000
1644350913032905216,2022-02-08-20:08:33,10.1.1.9,22,0.000,0.000,0.000,0.000,0.000,0.000
1644350913132869120,2022-02-08-20:08:33,10.1.1.9,21,-0.010,-0.010,-0.010,0.000,0.000,0.000
1644350913233037056,2022-02-08-20:08:33,10.1.1.9,19,-0.020,-0.020,-0.020,0.000,0.000,0.000
1644350913333321216,2022-02-08-20:08:33,10.1.1.9,19,-0.029,-0.029,-0.029,0.000,0.000,0.000
1644350913452809984,2022-02-08-20:08:33,10.1.1.9,38,-0.040,-0.040,-0.040,0.000,0.000,0.000
1644350913552655872,2022-02-08-20:08:33,10.1.1.9,38,-0.050,-0.050,-0.050,0.000,0.000,0.000
1644350913652779008,2022-02-08-20:08:33,10.1.1.9,37,-0.060,-0.060,-0.060,0.000,0.000,0.000
1644350913752875008,2022-02-08-20:08:33,10.1.1.9,37,-0.070,-0.070,-0.070,0.000,0.000,0.000
1644350913852315904,2022-02-08-20:08:33,10.1.1.9,36,-0.080,-0.080,-0.080,0.000,0.000,0.000
1644350913953402880,2022-02-08-20:08:33,10.1.1.9,36,-0.090,-0.090,-0.090,0.000,0.000,0.000
1644350914102672128,2022-02-08-20:08:34,10.1.1.9,33,-0.100,-0.100,-0.100,0.000,0.000,0.000
1644350914153452032,2022-02-08-20:08:34,10.1.1.9,31,-0.090,-0.090,-0.090,0.000,0.000,0.000
1644350914253822208,2022-02-08-20:08:34,10.1.1.9,31,-0.080,-0.080,-0.080,0.000,0.000,0.000
1644350914352888064,2022-02-08-20:08:34,10.1.1.9,30,-0.070,-0.070,-0.070,0.000,0.000,0.000
1644350914475523072,2022-02-08-20:08:34,10.1.1.9,22,-0.060,-0.060,-0.060,0.000,0.000,0.000
1644350914553666048,2022-02-08-20:08:34,10.1.1.9,19,-0.050,-0.050,-0.050,0.000,0.000,0.000
1644350914672955904,2022-02-08-20:08:34,10.1.1.9,38,-0.040,-0.040,-0.040,0.000,0.000,0.000
1644350914773814016,2022-02-08-20:08:34,10.1.1.9,38,-0.030,-0.030,-0.030,0.000,0.000,0.000
1644350914872879104,2022-02-08-20:08:34,10.1.1.9,36,-0.020,-0.020,-0.020,0.000,0.000,0.000
1644350914974193152,2022-02-08-20:08:34,10.1.1.9,34,-0.010,-0.010,-0.010,0.000,0.000,0.000
1644350915072562944,2022-02-08-20:08:35,10.1.1.9,33,0.000,0.000,0.000,0.000,0.000,0.000
1644350915173273088,2022-02-08-20:08:35,10.1.1.9,32,0.010,0.010,0.010,0.000,0.000,0.000
1644350915272902912,2022-02-08-20:08:35,10.1.1.9,32,0.020,0.020,0.020,0.000,0.000,0.000
1644350915374237952,2022-02-08-20:08:35,10.1.1.9,31,0.030,0.030,0.030,0.000,0.000,0.000
1644350915474361856,2022-02-08-20:08:35,10.1.1.9,30,0.040,0.040,0.040,0.000,0.000,0.000
1644350915574484224,2022-02-08-20:08:35,10.1.1.9,29,0.050,0.050,0.050,0.000,0.000,0.000
1644350915673708032,2022-02-08-20:08:35,10.1.1.9,28,0.060,0.060,0.060,0.000,0.000,0.000
1644350915773624064,2022-02-08-20:08:35,10.1.1.9,28,0.070,0.070,0.070,0.000,0.000,0.000
1644350915893095936,2022-02-08-20:08:35,10.1.1.9,38,0.080,0.080,0.080,0.000,0.000,0.000
1644350916014106112,2022-02-08-20:08:36,10.1.1.9,38,0.090,0.090,0.090,0.000,0.000,0.000
1644350916114381056,2022-02-08-20:08:36,10.1.1.9,37,0.100,0.100,0.100,0.000,0.000,0.000
1644350916212709888,2022-02-08-20:08:36,10.1.1.9,37,0.090,0.090,0.090,0.000,0.000,0.000
1644350916314488832,2022-02-08-20:08:36,10.1.1.9,36,0.080,0.080,0.080,0.000,0.000,0.000
1644350916415409920,2022-02-08-20:08:36,10.1.1.9,36,0.070,0.070,0.070,0.000,0.000,0.000
1644350916512921088,2022-02-08-20:08:36,10.1.1.9,35,0.060,0.060,0.060,0.000,0.000,0.000
1644350916632751104,2022-02-08-20:08:36,10.1.1.9,34,0.050,0.050,0.050,0.000,0.000,0.000
1644350916732408064,2022-02-08-20:08:36,10.1.1.9,33,0.040,0.040,0.040,0.000,0.000,0.000
1644350916832434944,2022-02-08-20:08:36,10.1.1.9,33,0.030,0.030,0.030,0.000,0.000,0.000
1644350916933063936,2022-02-08-20:08:36,10.1.1.9,32,0.020,0.020,0.020,0.000,0.000,0.000
1644350917032911104,2022-02-08-20:08:37,10.1.1.9,31,0.010,0.010,0.010,0.000,0.000,0.000
1644350917132914944,2022-02-08-20:08:37,10.1.1.9,29,0.000,0.000,0.000,0.000,0.000,0.000
1644350917232919808,2022-02-08-20:08:37,10.1.1.9,28,-0.010,-0.010,-0.010,0.000,0.000,0.000
1644350917334167040,2022-02-08-20:08:37,10.1.1.9,28,-0.020,-0.020,-0.020,0.000,0.000,0.000
1644350917433315072,2022-02-08-20:08:37,10.1.1.9,27,-0.030,-0.030,-0.030,0.000,0.000,0.000
1644350917532568064,2022-02-08-20:08:37,10.1.1.9,27,-0.040,-0.040,-0.040,0.000,0.000,0.000
1644350917632667904,2022-02-08-20:08:37,10.1.1.9,25,-0.050,-0.050,-0.050,0.000,0.000,0.000
1644350917732903936,2022-02-08-20:08:37,10.1.1.9,24,-0.060,-0.060,-0.060,0.000,0.000,0.000
1644350917833005056,2022-02-08-20:08:37,10.1.1.9,23,-0.070,-0.070,-0.070,0.000,0.000,0.000
1644350917933159168,2022-02-08-20:08:37,10.1.1.9,23,-0.080,-0.080,-0.080,0.000,0.000,0.000
1644350918032634880,2022-02-08-20:08:38,10.1.1.9,22,-0.090,-0.090,-0.090,0.000,0.000,0.000
1644350918132915968,2022-02-08-20:08:38,10.1.1.9,22,-0.100,-0.100,-0.100,0.000,0.000,0.000
1644350918253521920,2022-02-08-20:08:38,10.1.1.9,37,-0.090,-0.090,-0.090,0.000,0.000,0.000
1644350918353409024,2022-02-08-20:08:38,10.1.1.9,37,-0.080,-0.080,-0.080,0.000,0.000,0.000
1644350918452736000,2022-02-08-20:08:38,10.1.1.9,36,-0.070,-0.070,-0.070,0.000,0.000,0.000
1644350918553292032,2022-02-08-20:08:38,10.1.1.9,35,-0.060,-0.060,-0.060,0.000,0.000,0.000
1644350918654419968,2022-02-08-20:08:38,10.1.1.9,33,-0.050,-0.050,-0.050,0.000,0.000,0.000
1644350918753586176,2022-02-08-20:08:38,10.1.1.9,32,-0.040,-0.040,-0.040,0.000,0.000,0.000
1644350918853071872,2022-02-08-20:08:38,10.1.1.9,32,-0.030,-0.030,-0.030,0.000,0.000,0.000
1644350918952962048,2022-02-08-20:08:38,10.1.1.9,31,-0.020,-0.020,-0.020,0.000,0.000,0.000
1644350919052505856,2022-02-08-20:08:39,10.1.1.9,30,-0.010,-0.010,-0.010,0.000,0.000,0.000
1644350919152520960,2022-02-08-20:08:39,10.1.1.9,30,0.000,0.000,0.000,0.000,0.000,0.000
1644350919253974016,2022-02-08-20:08:39,10.1.1.9,29,0.010,0.010,0.010,0.000,0.000,0.000
1644350919352936960,2022-02-08-20:08:39,10.1.1.9,28,0.020,0.020,0.020,0.000,0.000,0.000
1644350919453198080,2022-02-08-20:08:39,10.1.1.9,28,0.030,0.030,0.030,0.000,0.000,0.000
1644350919553140992,2022-02-08-20:08:39,10.1.1.9,27,0.040,0.040,0.040,0.000,0.000,0.000
1644350919653054976,2022-02-08-20:08:39,10.1.1.9,26,0.050,0.050,0.050,0.000,0.000,0.000
1644350919753007872,2022-02-08-20:08:39,10.1.1.9,25,0.060,0.060,0.060,0.000,0.000,0.000
1644350919852471040,2022-02-08-20:08:39,10.1.1.9,24,0.070,0.070,0.070,0.000,0.000,0.000
1644350919953149952,2022-02-08-20:08:39,10.1.1.9,23,0.080,0.080,0.080,0.000,0.000,0.000
1644350920053122048,2022-02-08-20:08:40,10.1.1.9,22,0.090,0.090,0.090,0.000,0.000,0.000
1644350920152793856,2022-02-08-20:08:40,10.1.1.9,19,0.100,0.100,0.100,0.000,0.000,0.000
1644350920252933120,2022-02-08-20:08:40,10.1.1.9,19,0.091,0.091,0.091,0.000,0.000,0.000
1644350920374459904,2022-02-08-20:08:40,10.1.1.9,38,0.080,0.080,0.080,0.000,0.000,0.000
1644350920473342976,2022-02-08-20:08:40,10.1.1.9,37,0.070,0.070,0.070,0.000,0.000,0.000
1644350920573147904,2022-02-08-20:08:40,10.1.1.9,37,0.060,0.060,0.060,0.000,0.000,0.000
1644350920672794112,2022-02-08-20:08:40,10.1.1.9,35,0.050,0.050,0.050,0.000,0.000,0.000
1644350920773310976,2022-02-08-20:08:40,10.1.1.9,35,0.040,0.040,0.040,0.000,0.000,0.000
1644350920872795136,2022-02-08-20:08:40,10.1.1.9,34,0.030,0.030,0.030,0.000,0.000,0.000
1644350920976520960,2022-02-08-20:08:40,10.1.1.9,34,0.020,0.020,0.020,0.000,0.000,0.000
1644350921072897792,2022-02-08-20:08:41,10.1.1.9,34,0.010,0.010,0.010,0.000,0.000,0.000
1644350921174681856,2022-02-08-20:08:41,10.1.1.9,33,0.000,0.000,0.000,0.000,0.000,0.000
1644350921273044992,2022-02-08-20:08:41,10.1.1.9,32,-0.010,-0.010,-0.010,0.000,0.000,0.000
1644350921374202880,2022-02-08-20:08:41,10.1.1.9,32,-0.020,-0.020,-0.020,0.000,0.000,0.000
1644350921473027840,2022-02-08-20:08:41,10.1.1.9,31,-0.030,-0.030,-0.030,0.000,0.000,0.000
1644350921572762112,2022-02-08-20:08:41,10.1.1.9,30,-0.040,-0.040,-0.040,0.000,0.000,0.000
1644350921672787968,2022-02-08-20:08:41,10.1.1.9,29,-0.050,-0.050,-0.050,0.000,0.000,0.000
1644350921773415936,2022-02-08-20:08:41,10.1.1.9,28,-0.060,-0.060,-0.060,0.000,0.000,0.000
1644350921873112832,2022-02-08-20:08:41,10.1.1.9,27,-0.070,-0.070,-0.070,0.000,0.000,0.000
1644350921973069824,2022-02-08-20:08:41,10.1.1.9,27,-0.080,-0.080,-0.080,0.000,0.000,0.000
1644350922073227776,2022-02-08-20:08:42,10.1.1.9,25,-0.090,-0.090,-0.090,0.000,0.000,0.000
1644350922173073920,2022-02-08-20:08:42,10.1.1.9,24,-0.100,-0.100,-0.100,0.000,0.000,0.000
1644350922272816896,2022-02-08-20:08:42,10.1.1.9,24,-0.090,-0.090,-0.090,0.000,0.000,0.000
1644350922373810944,2022-02-08-20:08:42,10.1.1.9,23,-0.080,-0.080,-0.080,0.000,0.000,0.000
1644350922472878848,2022-02-08-20:08:42,10.1.1.9,23,-0.070,-0.070,-0.070,0.000,0.000,0.000
1644350922573894912,2022-02-08-20:08:42,10.1.1.9,22,-0.060,-0.060,-0.060,0.000,0.000,0.000
1644350922673267968,2022-02-08-20:08:42,10.1.1.9,22,-0.050,-0.050,-0.050,0.000,0.000,0.000
1644350922783341824,2022-02-08-20:08:42,10.1.1.9,21,-0.040,-0.040,-0.040,0.000,0.000,0.000
1644350922893568000,2022-02-08-20:08:42,10.1.1.9,27,-0.030,-0.030,-0.030,0.000,0.000,0.000
1644350922992697088,2022-02-08-20:08:42,10.1.1.9,26,-0.020,-0.020,-0.020,0.000,0.000,0.000
1644350923114508032,2022-02-08-20:08:43,10.1.1.9,32,-0.010,-0.010,-0.010,0.000,0.000,0.000
1644350923213144064,2022-02-08-20:08:43,10.1.1.9,30,0.000,0.000,0.000,0.000,0.000,0.000
1644350923312998144,2022-02-08-20:08:43,10.1.1.9,29,0.010,0.010,0.010,0.000,0.000,0.000
1644350923412967936,2022-02-08-20:08:43,10.1.1.9,28,0.020,0.020,0.020,0.000,0.000,0.000
1644350923513112064,2022-02-08-20:08:43,10.1.1.9,28,0.030,0.030,0.030,0.000,0.000,0.000
1644350923613287936,2022-02-08-20:08:43,10.1.1.9,27,0.040,0.040,0.040,0.000,0.000,0.000
1644350923712899840,2022-02-08-20:08:43,10.1.1.9,26,0.050,0.050,0.050,0.000,0.000,0.000
1644350923813250048,2022-02-08-20:08:43,10.1.1.9,24,0.060,0.060,0.060,0.000,0.000,0.000
1644350923912795136,2022-02-08-20:08:43,10.1.1.9,23,0.070,0.070,0.070,0.000,0.000,0.000
1644350924013201920,2022-02-08-20:08:44,10.1.1.9,23,0.080,0.080,0.080,0.000,0.000,0.000
1644350924113138944,2022-02-08-20:08:44,10.1.1.9,22,0.090,0.090,0.090,0.000,0.000,0.000
1644350924212850176,2022-02-08-20:08:44,10.1.1.9,22,0.100,0.100,0.100,0.000,0.000,0.000
1644350924333409024,2022-02-08-20:08:44,10.1.1.9,32,0.090,0.090,0.090,0.000,0.000,0.000
1644350924432602880,2022-02-08-20:08:44,10.1.1.9,26,0.080,0.080,0.080,0.000,0.000,0.000
1644350924533262080,2022-02-08-20:08:44,10.1.1.9,26,0.070,0.070,0.070,0.000,0.000,0.000
1644350924632961024,2022-02-08-20:08:44,10.1.1.9,25,0.060,0.060,0.060,0.000,0.000,0.000
1644350924733139968,2022-02-08-20:08:44,10.1.1.9,25,0.050,0.050,0.050,0.000,0.000,0.000
1644350924833963008,2022-02-08-20:08:44,10.1.1.9,22,0.040,0.040,0.040,0.000,0.000,0.000
1644350924932646144,2022-02-08-20:08:44,10.1.1.9,21,0.030,0.030,0.030,0.000,0.000,0.000
1644350925033233920,2022-02-08-20:08:45,10.1.1.9,21,0.020,0.020,0.020,0.000,0.000,0.000
1644350925132544000,2022-02-08-20:08:45,10.1.1.9,20,0.010,0.010,0.010,0.000,0.000,0.000
1644350925253334016,2022-02-08-20:08:45,10.1.1.9,38,0.000,0.000,0.000,0.000,0.000,0.000
1644350925354327808,2022-02-08-20:08:45,10.1.1.9,34,-0.010,-0.010,-0.010,0.000,0.000,0.000
1644350925455446016,2022-02-08-20:08:45,10.1.1.9,33,-0.020,-0.020,-0.020,0.000,0.000,0.000
1644350925552807168,2022-02-08-20:08:45,10.1.1.9,33,-0.030,-0.030,-0.030,0.000,0.000,0.000
1644350925653072128,2022-02-08-20:08:45,10.1.1.9,31,-0.040,-0.040,-0.040,0.000,0.000,0.000
1644350925753549056,2022-02-08-20:08:45,10.1.1.9,30,-0.050,-0.050,-0.050,0.000,0.000,0.000
1644350925909252864,2022-02-08-20:08:45,10.1.1.9,30,-0.060,-0.060,-0.060,0.000,0.000,0.000
1644350925952763136,2022-02-08-20:08:45,10.1.1.9,28,-0.070,-0.070,-0.070,0.000,0.000,0.000
1644350926053298944,2022-02-08-20:08:46,10.1.1.9,28,-0.080,-0.080,-0.080,0.000,0.000,0.000
1644350926153359872,2022-02-08-20:08:46,10.1.1.9,26,-0.090,-0.090,-0.090,0.000,0.000,0.000
1644350926254077952,2022-02-08-20:08:46,10.1.1.9,24,-0.100,-0.100,-0.100,0.000,0.000,0.000
1644350926353497856,2022-02-08-20:08:46,10.1.1.9,24,-0.090,-0.090,-0.090,0.000,0.000,0.000
1644350926452786944,2022-02-08-20:08:46,10.1.1.9,23,-0.080,-0.080,-0.080,0.000,0.000,0.000
1644350926552974848,2022-02-08-20:08:46,10.1.1.9,23,-0.070,-0.070,-0.070,0.000,0.000,0.000
1644350926653780992,2022-02-08-20:08:46,10.1.1.9,22,-0.060,-0.060,-0.060,0.000,0.000,0.000
1644350926752856064,2022-02-08-20:08:46,10.1.1.9,21,-0.050,-0.050,-0.050,0.000,0.000,0.000
1644350926853022976,2022-02-08-20:08:46,10.1.1.9,20,-0.040,-0.040,-0.040,0.000,0.000,0.000
1644350926952902912,2022-02-08-20:08:46,10.1.1.9,19,-0.031,-0.031,-0.031,0.000,0.000,0.000
1644350927072932096,2022-02-08-20:08:47,10.1.1.9,38,-0.020,-0.020,-0.020,0.000,0.000,0.000
1644350927174338048,2022-02-08-20:08:47,10.1.1.9,37,-0.010,-0.010,-0.010,0.000,0.000,0.000
1644350927272870144,2022-02-08-20:08:47,10.1.1.9,37,0.000,0.000,0.000,0.000,0.000,0.000
1644350927375088896,2022-02-08-20:08:47,10.1.1.9,36,0.010,0.010,0.010,0.000,0.000,0.000
1644350927473319936,2022-02-08-20:08:47,10.1.1.9,35,0.020,0.020,0.020,0.000,0.000,0.000
1644350927575005952,2022-02-08-20:08:47,10.1.1.9,34,0.030,0.030,0.030,0.000,0.000,0.000
1644350927672939008,2022-02-08-20:08:47,10.1.1.9,34,0.040,0.040,0.040,0.000,0.000,0.000
1644350927773099776,2022-02-08-20:08:47,10.1.1.9,33,0.050,0.050,0.050,0.000,0.000,0.000
1644350927873528064,2022-02-08-20:08:47,10.1.1.9,33,0.060,0.060,0.060,0.000,0.000,0.000
1644350927972372992,2022-02-08-20:08:47,10.1.1.9,32,0.070,0.070,0.070,0.000,0.000,0.000
1644350928072719104,2022-02-08-20:08:48,10.1.1.9,31,0.080,0.080,0.080,0.000,0.000,0.000
1644350928173677056,2022-02-08-20:08:48,10.1.1.9,31,0.090,0.090,0.090,0.000,0.000,0.000
1644350928272950784,2022-02-08-20:08:48,10.1.1.9,30,0.100,0.100,0.100,0.000,0.000,0.000
1644350928532985856,2022-02-08-20:08:48,10.1.1.9,36,0.080,0.080,0.080,0.000,0.000,0.000
1644350928633358080,2022-02-08-20:08:48,10.1.1.9,35,0.070,0.070,0.070,0.000,0.000,0.000
1644350928733246976,2022-02-08-20:08:48,10.1.1.9,34,0.060,0.060,0.060,0.000,0.000,0.000
1644350928832937984,2022-02-08-20:08:48,10.1.1.9,34,0.050,0.050,0.050,0.000,0.000,0.000
1644350928932989952,2022-02-08-20:08:48,10.1.1.9,33,0.040,0.040,0.040,0.000,0.000,0.000
1644350929033142016,2022-02-08-20:08:49,10.1.1.9,32,0.030,0.030,0.030,0.000,0.000,0.000
1644350929133191936,2022-02-08-20:08:49,10.1.1.9,31,0.020,0.020,0.020,0.000,0.000,0.000
1644350929232732160,2022-02-08-20:08:49,10.1.1.9,30,0.010,0.010,0.010,0.000,0.000,0.000
1644350929333217024,2022-02-08-20:08:49,10.1.1.9,30,0.000,0.000,0.000,0.000,0.000,0.000
1644350929433087232,2022-02-08-20:08:49,10.1.1.9,29,-0.010,-0.010,-0.010,0.000,0.000,0.000
1644350929533259008,2022-02-08-20:08:49,10.1.1.9,28,-0.020,-0.020,-0.020,0.000,0.000,0.000
1644350929633131008,2022-02-08-20:08:49,10.1.1.9,28,-0.030,-0.030,-0.030,0.000,0.000,0.000
1644350929732515072,2022-02-08-20:08:49,10.1.1.9,27,-0.040,-0.040,-0.040,0.000,0.000,0.000
1644350929832760064,2022-02-08-20:08:49,10.1.1.9,26,-0.050,-0.050,-0.050,0.000,0.000,0.000
1644350929933382912,2022-02-08-20:08:49,10.1.1.9,24,-0.060,-0.060,-0.060,0.000,0.000,0.000
1644350930033438976,2022-02-08-20:08:50,10.1.1.9,23,-0.070,-0.070,-0.070,0.000,0.000,0.000
1644350930133012992,2022-02-08-20:08:50,10.1.1.9,23,-0.080,-0.080,-0.080,0.000,0.000,0.000
1644350930232302848,2022-02-08-20:08:50,10.1.1.9,22,-0.090,-0.090,-0.090,0.000,0.000,0.000
1644350930333239040,2022-02-08-20:08:50,10.1.1.9,22,-0.100,-0.100,-0.100,0.000,0.000,0.000
1644350930432951040,2022-02-08-20:08:50,10.1.1.9,20,-0.090,-0.090,-0.090,0.000,0.000,0.000
1644350930561662976,2022-02-08-20:08:50,10.1.1.9,19,-0.080,-0.080,-0.080,0.000,0.000,0.000
1644350930652867072,2022-02-08-20:08:50,10.1.1.9,38,-0.070,-0.070,-0.070,0.000,0.000,0.000
1644350930754221824,2022-02-08-20:08:50,10.1.1.9,38,-0.060,-0.060,-0.060,0.000,0.000,0.000
1644350930852386048,2022-02-08-20:08:50,10.1.1.9,37,-0.050,-0.050,-0.050,0.000,0.000,0.000
1644350930953046016,2022-02-08-20:08:50,10.1.1.9,36,-0.040,-0.040,-0.040,0.000,0.000,0.000
1644350931052573952,2022-02-08-20:08:51,10.1.1.9,36,-0.030,-0.030,-0.030,0.000,0.000,0.000
1644350931157083904,2022-02-08-20:08:51,10.1.1.9,35,-0.020,-0.020,-0.020,0.000,0.000,0.000
1644350931261466112,2022-02-08-20:08:51,10.1.1.9,36,-0.010,-0.010,-0.010,0.000,0.000,0.000
1644350931356153856,2022-02-08-20:08:51,10.1.1.9,31,0.000,0.000,0.000,0.000,0.000,0.000
1644350931456250880,2022-02-08-20:08:51,10.1.1.9,30,0.010,0.010,0.010,0.000,0.000,0.000
1644350931553359104,2022-02-08-20:08:51,10.1.1.9,29,0.020,0.020,0.020,0.000,0.000,0.000
1644350931855443968,2022-02-08-20:08:51,10.1.1.9,29,0.050,0.050,0.050,0.000,0.000,0.000
1644350931962685952,2022-02-08-20:08:51,10.1.1.9,27,0.060,0.060,0.060,0.000,0.000,0.000
1644350932053478912,2022-02-08-20:08:52,10.1.1.9,26,0.070,0.070,0.070,0.000,0.000,0.000
1644350932152851968,2022-02-08-20:08:52,10.1.1.9,26,0.080,0.080,0.080,0.000,0.000,0.000
1644350932274679808,2022-02-08-20:08:52,10.1.1.9,45,0.090,0.090,0.090,0.000,0.000,0.000
1644350932355518976,2022-02-08-20:08:52,10.1.1.9,25,0.100,0.100,0.100,0.000,0.000,0.000
1644350932475784960,2022-02-08-20:08:52,10.1.1.9,44,0.090,0.090,0.090,0.000,0.000,0.000
1644350932575545088,2022-02-08-20:08:52,10.1.1.9,43,0.080,0.080,0.080,0.000,0.000,0.000
1644350932660194048,2022-02-08-20:08:52,10.1.1.9,26,0.070,0.070,0.070,0.000,0.000,0.000
1644350932753346048,2022-02-08-20:08:52,10.1.1.9,22,0.060,0.060,0.060,0.000,0.000,0.000
1644350932852883968,2022-02-08-20:08:52,10.1.1.9,22,0.050,0.050,0.050,0.000,0.000,0.000
1644350932953393920,2022-02-08-20:08:52,10.1.1.9,22,0.040,0.040,0.040,0.000,0.000,0.000
1644350933064764928,2022-02-08-20:08:53,10.1.1.9,29,0.030,0.030,0.030,0.000,0.000,0.000
1644350933155673856,2022-02-08-20:08:53,10.1.1.9,21,0.020,0.020,0.020,0.000,0.000,0.000
1644350933253356032,2022-02-08-20:08:53,10.1.1.9,20,0.010,0.010,0.010,0.000,0.000,0.000
1644350933353032192,2022-02-08-20:08:53,10.1.1.9,19,0.000,0.000,0.000,0.000,0.000,0.000
1644350933453635072,2022-02-08-20:08:53,10.1.1.9,19,-0.009,-0.009,-0.009,0.000,0.000,0.000
1644350933572720896,2022-02-08-20:08:53,10.1.1.9,38,-0.020,-0.020,-0.020,0.000,0.000,0.000
1644350933673019904,2022-02-08-20:08:53,10.1.1.9,38,-0.030,-0.030,-0.030,0.000,0.000,0.000
1644350933772985088,2022-02-08-20:08:53,10.1.1.9,36,-0.040,-0.040,-0.040,0.000,0.000,0.000
1644350933872690944,2022-02-08-20:08:53,10.1.1.9,36,-0.050,-0.050,-0.050,0.000,0.000,0.000
1644350933972902144,2022-02-08-20:08:53,10.1.1.9,35,-0.060,-0.060,-0.060,0.000,0.000,0.000
1644350934073344000,2022-02-08-20:08:54,10.1.1.9,35,-0.070,-0.070,-0.070,0.000,0.000,0.000
1644350934172975104,2022-02-08-20:08:54,10.1.1.9,34,-0.080,-0.080,-0.080,0.000,0.000,0.000
1644350934272787200,2022-02-08-20:08:54,10.1.1.9,33,-0.090,-0.090,-0.090,0.000,0.000,0.000
1644350934373477888,2022-02-08-20:08:54,10.1.1.9,33,-0.100,-0.100,-0.100,0.000,0.000,0.000
1644350934473071104,2022-02-08-20:08:54,10.1.1.9,32,-0.090,-0.090,-0.090,0.000,0.000,0.000
1644350934573636096,2022-02-08-20:08:54,10.1.1.9,32,-0.080,-0.080,-0.080,0.000,0.000,0.000
1644350934673437952,2022-02-08-20:08:54,10.1.1.9,31,-0.070,-0.070,-0.070,0.000,0.000,0.000
1644350934772726016,2022-02-08-20:08:54,10.1.1.9,30,-0.060,-0.060,-0.060,0.000,0.000,0.000
1644350934872855040,2022-02-08-20:08:54,10.1.1.9,30,-0.050,-0.050,-0.050,0.000,0.000,0.000
1644350934973169920,2022-02-08-20:08:54,10.1.1.9,30,-0.040,-0.040,-0.040,0.000,0.000,0.000
1644350935072921088,2022-02-08-20:08:55,10.1.1.9,29,-0.030,-0.030,-0.030,0.000,0.000,0.000
1644350935173198080,2022-02-08-20:08:55,10.1.1.9,29,-0.020,-0.020,-0.020,0.000,0.000,0.000
1644350935273221888,2022-02-08-20:08:55,10.1.1.9,27,-0.010,-0.010,-0.010,0.000,0.000,0.000
1644350935374425856,2022-02-08-20:08:55,10.1.1.9,23,0.000,0.000,0.000,0.000,0.000,0.000
1644350935473529088,2022-02-08-20:08:55,10.1.1.9,22,0.010,0.010,0.010,0.000,0.000,0.000
1644350935573648896,2022-02-08-20:08:55,10.1.1.9,20,0.020,0.020,0.020,0.000,0.000,0.000
1644350935673209856,2022-02-08-20:08:55,10.1.1.9,20,0.030,0.030,0.030,0.000,0.000,0.000
1644350935774422016,2022-02-08-20:08:55,10.1.1.9,19,0.039,0.039,0.039,0.000,0.000,0.000
1644350935894390016,2022-02-08-20:08:55,10.1.1.9,38,0.050,0.050,0.050,0.000,0.000,0.000
1644350935994487040,2022-02-08-20:08:55,10.1.1.9,38,0.060,0.060,0.060,0.000,0.000,0.000
1644350936095369216,2022-02-08-20:08:56,10.1.1.9,37,0.070,0.070,0.070,0.000,0.000,0.000
1644350936194638080,2022-02-08-20:08:56,10.1.1.9,37,0.080,0.080,0.080,0.000,0.000,0.000
1644350936293030912,2022-02-08-20:08:56,10.1.1.9,35,0.090,0.090,0.090,0.000,0.000,0.000
1644350936394195968,2022-02-08-20:08:56,10.1.1.9,34,0.100,0.100,0.100,0.000,0.000,0.000
1644350936494468096,2022-02-08-20:08:56,10.1.1.9,34,0.090,0.090,0.090,0.000,0.000,0.000
1644350936592973056,2022-02-08-20:08:56,10.1.1.9,33,0.080,0.080,0.080,0.000,0.000,0.000
1644350936695260160,2022-02-08-20:08:56,10.1.1.9,33,0.070,0.070,0.070,0.000,0.000,0.000
1644350936793893120,2022-02-08-20:08:56,10.1.1.9,33,0.060,0.060,0.060,0.000,0.000,0.000
1644350936896251904,2022-02-08-20:08:56,10.1.1.9,31,0.050,0.050,0.050,0.000,0.000,0.000
1644350936993935104,2022-02-08-20:08:56,10.1.1.9,30,0.040,0.040,0.040,0.000,0.000,0.000
1644350937093872896,2022-02-08-20:08:57,10.1.1.9,29,0.030,0.030,0.030,0.000,0.000,0.000
1644350937192989184,2022-02-08-20:08:57,10.1.1.9,29,0.020,0.020,0.020,0.000,0.000,0.000
1644350937326417920,2022-02-08-20:08:57,10.1.1.9,27,0.010,0.010,0.010,0.000,0.000,0.000
1644350937394547968,2022-02-08-20:08:57,10.1.1.9,26,0.000,0.000,0.000,0.000,0.000,0.000
1644350937494991104,2022-02-08-20:08:57,10.1.1.9,26,-0.010,-0.010,-0.010,0.000,0.000,0.000
1644350937594927104,2022-02-08-20:08:57,10.1.1.9,25,-0.020,-0.020,-0.020,0.000,0.000,0.000
1644350937693577984,2022-02-08-20:08:57,10.1.1.9,24,-0.030,-0.030,-0.030,0.000,0.000,0.000
1644350937793064960,2022-02-08-20:08:57,10.1.1.9,23,-0.040,-0.040,-0.040,0.000,0.000,0.000
1644350937894792960,2022-02-08-20:08:57,10.1.1.9,22,-0.050,-0.050,-0.050,0.000,0.000,0.000
1644350937994472960,2022-02-08-20:08:57,10.1.1.9,22,-0.060,-0.060,-0.060,0.000,0.000,0.000
1644350938093126912,2022-02-08-20:08:58,10.1.1.9,21,-0.070,-0.070,-0.070,0.000,0.000,0.000
1644350938193006080,2022-02-08-20:08:58,10.1.1.9,20,-0.080,-0.080,-0.080,0.000,0.000,0.000
1644350938294447872,2022-02-08-20:08:58,10.1.1.9,20,-0.090,-0.090,-0.090,0.000,0.000,0.000
1644350938394131968,2022-02-08-20:08:58,10.1.1.9,19,-0.099,-0.099,-0.099,0.000,0.000,0.000
1644350938513271040,2022-02-08-20:08:58,10.1.1.9,38,-0.090,-0.090,-0.090,0.000,0.000,0.000
1644350938614650880,2022-02-08-20:08:58,10.1.1.9,37,-0.080,-0.080,-0.080,0.000,0.000,0.000
1644350938714996992,2022-02-08-20:08:58,10.1.1.9,36,-0.070,-0.070,-0.070,0.000,0.000,0.000
1644350938812866816,2022-02-08-20:08:58,10.1.1.9,35,-0.060,-0.060,-0.060,0.000,0.000,0.000
1644350938915510784,2022-02-08-20:08:58,10.1.1.9,34,-0.050,-0.050,-0.050,0.000,0.000,0.000
1644350939015126016,2022-02-08-20:08:59,10.1.1.9,34,-0.040,-0.040,-0.040,0.000,0.000,0.000
1644350939112873984,2022-02-08-20:08:59,10.1.1.9,33,-0.030,-0.030,-0.030,0.000,0.000,0.000
1644350939213125888,2022-02-08-20:08:59,10.1.1.9,32,-0.020,-0.020,-0.020,0.000,0.000,0.000
1644350939312932864,2022-02-08-20:08:59,10.1.1.9,32,-0.010,-0.010,-0.010,0.000,0.000,0.000
1644350939412900096,2022-02-08-20:08:59,10.1.1.9,30,0.000,0.000,0.000,0.000,0.000,0.000
1644350939512826880,2022-02-08-20:08:59,10.1.1.9,30,0.010,0.010,0.010,0.000,0.000,0.000
1644350939613069056,2022-02-08-20:08:59,10.1.1.9,29,0.020,0.020,0.020,0.000,0.000,0.000
1644350939713080832,2022-02-08-20:08:59,10.1.1.9,27,0.030,0.030,0.030,0.000,0.000,0.000
1644350939813188096,2022-02-08-20:08:59,10.1.1.9,23,0.040,0.040,0.040,0.000,0.000,0.000
1644350939912748032,2022-02-08-20:08:59,10.1.1.9,23,0.050,0.050,0.050,0.000,0.000,0.000
1644350940034207232,2022-02-08-20:09:00,10.1.1.9,37,0.060,0.060,0.060,0.000,0.000,0.000
1644350940132879872,2022-02-08-20:09:00,10.1.1.9,37,0.070,0.070,0.070,0.000,0.000,0.000
1644350940233041920,2022-02-08-20:09:00,10.1.1.9,36,0.080,0.080,0.080,0.000,0.000,0.000
1644350940353015808,2022-02-08-20:09:00,10.1.1.9,22,0.090,0.090,0.090,0.000,0.000,0.000
1644350940453159168,2022-02-08-20:09:00,10.1.1.9,21,0.100,0.100,0.100,0.000,0.000,0.000
1644350940553262848,2022-02-08-20:09:00,10.1.1.9,21,0.090,0.090,0.090,0.000,0.000,0.000
1644350940653125120,2022-02-08-20:09:00,10.1.1.9,20,0.080,0.080,0.080,0.000,0.000,0.000
1644350940754802944,2022-02-08-20:09:00,10.1.1.9,19,0.070,0.070,0.070,0.000,0.000,0.000
1644350940852948992,2022-02-08-20:09:00,10.1.1.9,19,0.060,0.060,0.060,0.000,0.000,0.000
1644350940954720000,2022-02-08-20:09:00,10.1.1.9,19,0.051,0.051,0.051,0.000,0.000,0.000
1644350941073217024,2022-02-08-20:09:01,10.1.1.9,38,0.040,0.040,0.040,0.000,0.000,0.000
1644350941173029888,2022-02-08-20:09:01,10.1.1.9,38,0.030,0.030,0.030,0.000,0.000,0.000
1644350941274202112,2022-02-08-20:09:01,10.1.1.9,37,0.020,0.020,0.020,0.000,0.000,0.000
1644350941394640896,2022-02-08-20:09:01,10.1.1.9,31,0.010,0.010,0.010,0.000,0.000,0.000
1644350941493056000,2022-02-08-20:09:01,10.1.1.9,29,0.000,0.000,0.000,0.000,0.000,0.000
1644350941592386048,2022-02-08-20:09:01,10.1.1.9,29,-0.010,-0.010,-0.010,0.000,0.000,0.000
1644350941693769984,2022-02-08-20:09:01,10.1.1.9,28,-0.020,-0.020,-0.020,0.000,0.000,0.000
1644350941793391104,2022-02-08-20:09:01,10.1.1.9,27,-0.030,-0.030,-0.030,0.000,0.000,0.000
1644350941913826816,2022-02-08-20:09:01,10.1.1.9,38,-0.040,-0.040,-0.040,0.000,0.000,0.000
1644350942014053120,2022-02-08-20:09:02,10.1.1.9,37,-0.050,-0.050,-0.050,0.000,0.000,0.000
1644350942113385984,2022-02-08-20:09:02,10.1.1.9,36,-0.060,-0.060,-0.060,0.000,0.000,0.000
1644350942212969984,2022-02-08-20:09:02,10.1.1.9,36,-0.070,-0.070,-0.070,0.000,0.000,0.000
1644350942313498112,2022-02-08-20:09:02,10.1.1.9,36,-0.080,-0.080,-0.080,0.000,0.000,0.000
1644350942414784000,2022-02-08-20:09:02,10.1.1.9,35,-0.090,-0.090,-0.090,0.000,0.000,0.000
1644350942539602944,2022-02-08-20:09:02,10.1.1.9,32,-0.100,-0.100,-0.100,0.000,0.000,0.000
1644350942613939968,2022-02-08-20:09:02,10.1.1.9,31,-0.090,-0.090,-0.090,0.000,0.000,0.000
1644350942713611008,2022-02-08-20:09:02,10.1.1.9,27,-0.080,-0.080,-0.080,0.000,0.000,0.000
1644350942814440960,2022-02-08-20:09:02,10.1.1.9,26,-0.070,-0.070,-0.070,0.000,0.000,0.000
1644350942914840064,2022-02-08-20:09:02,10.1.1.9,26,-0.060,-0.060,-0.060,0.000,0.000,0.000
1644350943013276928,2022-02-08-20:09:03,10.1.1.9,25,-0.050,-0.050,-0.050,0.000,0.000,0.000
1644350943090234112,2022-02-08-20:09:03,10.1.1.9,-27,-0.050,-0.050,-0.050,0.000,0.000,0.000
1644350943233449984,2022-02-08-20:09:03,10.1.1.9,32,-0.030,-0.030,-0.030,0.000,0.000,0.000
1644350943333326080,2022-02-08-20:09:03,10.1.1.9,31,-0.020,-0.020,-0.020,0.000,0.000,0.000
1644350943433896192,2022-02-08-20:09:03,10.1.1.9,31,-0.010,-0.010,-0.010,0.000,0.000,0.000
1644350943533262080,2022-02-08-20:09:03,10.1.1.9,30,0.000,0.000,0.000,0.000,0.000,0.000
1644350943634152960,2022-02-08-20:09:03,10.1.1.9,30,0.010,0.010,0.010,0.000,0.000,0.000
1644350943734221056,2022-02-08-20:09:03,10.1.1.9,30,0.020,0.020,0.020,0.000,0.000,0.000
1644350943833251072,2022-02-08-20:09:03,10.1.1.9,29,0.030,0.030,0.030,0.000,0.000,0.000
1644350943933515008,2022-02-08-20:09:03,10.1.1.9,28,0.040,0.040,0.040,0.000,0.000,0.000
1644350944034486016,2022-02-08-20:09:04,10.1.1.9,28,0.050,0.050,0.050,0.000,0.000,0.000
1644350944138755072,2022-02-08-20:09:04,10.1.1.9,25,0.060,0.060,0.060,0.000,0.000,0.000
1644350944234669824,2022-02-08-20:09:04,10.1.1.9,23,0.070,0.070,0.070,0.000,0.000,0.000
1644350944339406848,2022-02-08-20:09:04,10.1.1.9,23,0.080,0.080,0.080,0.000,0.000,0.000
1644350944433213952,2022-02-08-20:09:04,10.1.1.9,21,0.090,0.090,0.090,0.000,0.000,0.000
1644350944533349120,2022-02-08-20:09:04,10.1.1.9,21,0.100,0.100,0.100,0.000,0.000,0.000
1644350944692965888,2022-02-08-20:09:04,10.1.1.9,19,0.090,0.090,0.090,0.000,0.000,0.000
1644350944754786048,2022-02-08-20:09:04,10.1.1.9,38,0.080,0.080,0.080,0.000,0.000,0.000
1644350944853699840,2022-02-08-20:09:04,10.1.1.9,37,0.070,0.070,0.070,0.000,0.000,0.000
1644350944954090240,2022-02-08-20:09:04,10.1.1.9,37,0.060,0.060,0.060,0.000,0.000,0.000
1644350945054964992,2022-02-08-20:09:05,10.1.1.9,36,0.050,0.050,0.050,0.000,0.000,0.000
1644350945153444096,2022-02-08-20:09:05,10.1.1.9,35,0.040,0.040,0.040,0.000,0.000,0.000
1644350945255209984,2022-02-08-20:09:05,10.1.1.9,34,0.030,0.030,0.030,0.000,0.000,0.000
1644350945355323904,2022-02-08-20:09:05,10.1.1.9,27,0.020,0.020,0.020,0.000,0.000,0.000
1644350945464690944,2022-02-08-20:09:05,10.1.1.9,22,0.010,0.010,0.010,0.000,0.000,0.000
1644350945618196992,2022-02-08-20:09:05,10.1.1.9,28,0.000,0.000,0.000,0.000,0.000,0.000
1644350945676687104,2022-02-08-20:09:05,10.1.1.9,27,-0.010,-0.010,-0.010,0.000,0.000,0.000
1644350945778055936,2022-02-08-20:09:05,10.1.1.9,21,-0.020,-0.020,-0.020,0.000,0.000,0.000
1644350945874260992,2022-02-08-20:09:05,10.1.1.9,20,-0.030,-0.030,-0.030,0.000,0.000,0.000
1644350945975766784,2022-02-08-20:09:05,10.1.1.9,19,-0.040,-0.040,-0.040,0.000,0.000,0.000
1644350946093287936,2022-02-08-20:09:06,10.1.1.9,38,-0.050,-0.050,-0.050,0.000,0.000,0.000
1644350946194140928,2022-02-08-20:09:06,10.1.1.9,38,-0.060,-0.060,-0.060,0.000,0.000,0.000
1644350946293349120,2022-02-08-20:09:06,10.1.1.9,37,-0.070,-0.070,-0.070,0.000,0.000,0.000
1644350946392424960,2022-02-08-20:09:06,10.1.1.9,37,-0.080,-0.080,-0.080,0.000,0.000,0.000
1644350946493245952,2022-02-08-20:09:06,10.1.1.9,36,-0.090,-0.090,-0.090,0.000,0.000,0.000
1644350946593249024,2022-02-08-20:09:06,10.1.1.9,36,-0.100,-0.100,-0.100,0.000,0.000,0.000
1644350946693316864,2022-02-08-20:09:06,10.1.1.9,35,-0.090,-0.090,-0.090,0.000,0.000,0.000
1644350946794321152,2022-02-08-20:09:06,10.1.1.9,35,-0.080,-0.080,-0.080,0.000,0.000,0.000
1644350946894400000,2022-02-08-20:09:06,10.1.1.9,34,-0.070,-0.070,-0.070,0.000,0.000,0.000
1644350946994117888,2022-02-08-20:09:06,10.1.1.9,33,-0.060,-0.060,-0.060,0.000,0.000,0.000
1644350947094166016,2022-02-08-20:09:07,10.1.1.9,33,-0.050,-0.050,-0.050,0.000,0.000,0.000
1644350947194364928,2022-02-08-20:09:07,10.1.1.9,30,-0.040,-0.040,-0.040,0.000,0.000,0.000
1644350947294717952,2022-02-08-20:09:07,10.1.1.9,29,-0.030,-0.030,-0.030,0.000,0.000,0.000
1644350947393490944,2022-02-08-20:09:07,10.1.1.9,29,-0.020,-0.020,-0.020,0.000,0.000,0.000
1644350947493498112,2022-02-08-20:09:07,10.1.1.9,28,-0.010,-0.010,-0.010,0.000,0.000,0.000
1644350947593372160,2022-02-08-20:09:07,10.1.1.9,27,0.000,0.000,0.000,0.000,0.000,0.000
1644350947693201920,2022-02-08-20:09:07,10.1.1.9,26,0.010,0.010,0.010,0.000,0.000,0.000
1644350947793252096,2022-02-08-20:09:07,10.1.1.9,25,0.020,0.020,0.020,0.000,0.000,0.000
1644350947893275136,2022-02-08-20:09:07,10.1.1.9,24,0.030,0.030,0.030,0.000,0.000,0.000
1644350947993041152,2022-02-08-20:09:07,10.1.1.9,24,0.040,0.040,0.040,0.000,0.000,0.000
1644350948092510976,2022-02-08-20:09:08,10.1.1.9,23,0.050,0.050,0.050,0.000,0.000,0.000
1644350948193058048,2022-02-08-20:09:08,10.1.1.9,22,0.060,0.060,0.060,0.000,0.000,0.000
1644350948293037056,2022-02-08-20:09:08,10.1.1.9,22,0.070,0.070,0.070,0.000,0.000,0.000
1644350948393132800,2022-02-08-20:09:08,10.1.1.9,21,0.080,0.080,0.080,0.000,0.000,0.000
1644350948513389056,2022-02-08-20:09:08,10.1.1.9,27,0.090,0.090,0.090,0.000,0.000,0.000
1644350948802743808,2022-02-08-20:09:08,10.1.1.9,24,0.100,0.100,0.100,0.000,0.000,0.000
1644350948852993024,2022-02-08-20:09:08,10.1.1.9,22,0.090,0.090,0.090,0.000,0.000,0.000
1644350948953366016,2022-02-08-20:09:08,10.1.1.9,22,0.080,0.080,0.080,0.000,0.000,0.000
1644350949052457984,2022-02-08-20:09:09,10.1.1.9,21,0.070,0.070,0.070,0.000,0.000,0.000
1644350949153383936,2022-02-08-20:09:09,10.1.1.9,21,0.060,0.060,0.060,0.000,0.000,0.000
1644350949252974080,2022-02-08-20:09:09,10.1.1.9,20,0.050,0.050,0.050,0.000,0.000,0.000
1644350949353011968,2022-02-08-20:09:09,10.1.1.9,20,0.040,0.040,0.040,0.000,0.000,0.000
1644350949452912128,2022-02-08-20:09:09,10.1.1.9,20,0.030,0.030,0.030,0.000,0.000,0.000
1644350949553277952,2022-02-08-20:09:09,10.1.1.9,19,0.020,0.020,0.020,0.000,0.000,0.000
1644350949652837120,2022-02-08-20:09:09,10.1.1.9,19,0.010,0.010,0.010,0.000,0.000,0.000
1644350949773372928,2022-02-08-20:09:09,10.1.1.9,35,0.000,0.000,0.000,0.000,0.000,0.000
1644350949873733120,2022-02-08-20:09:09,10.1.1.9,34,-0.010,-0.010,-0.010,0.000,0.000,0.000
1644350949972785920,2022-02-08-20:09:09,10.1.1.9,34,-0.020,-0.020,-0.020,0.000,0.000,0.000
1644350950072674048,2022-02-08-20:09:10,10.1.1.9,34,-0.030,-0.030,-0.030,0.000,0.000,0.000
1644350950173227008,2022-02-08-20:09:10,10.1.1.9,33,-0.040,-0.040,-0.040,0.000,0.000,0.000
1644350950272561920,2022-02-08-20:09:10,10.1.1.9,33,-0.050,-0.050,-0.050,0.000,0.000,0.000
1644350950372993024,2022-02-08-20:09:10,10.1.1.9,32,-0.060,-0.060,-0.060,0.000,0.000,0.000
1644350950473004032,2022-02-08-20:09:10,10.1.1.9,32,-0.070,-0.070,-0.070,0.000,0.000,0.000
1644350950573470208,2022-02-08-20:09:10,10.1.1.9,31,-0.080,-0.080,-0.080,0.000,0.000,0.000
1644350950672847104,2022-02-08-20:09:10,10.1.1.9,31,-0.090,-0.090,-0.090,0.000,0.000,0.000
1644350950772915968,2022-02-08-20:09:10,10.1.1.9,30,-0.100,-0.100,-0.100,0.000,0.000,0.000
1644350950875339008,2022-02-08-20:09:10,10.1.1.9,30,-0.090,-0.090,-0.090,0.000,0.000,0.000
1644350950972798976,2022-02-08-20:09:10,10.1.1.9,29,-0.080,-0.080,-0.080,0.000,0.000,0.000
1644350951072861952,2022-02-08-20:09:11,10.1.1.9,29,-0.070,-0.070,-0.070,0.000,0.000,0.000
1644350951172781824,2022-02-08-20:09:11,10.1.1.9,28,-0.060,-0.060,-0.060,0.000,0.000,0.000
1644350951275343872,2022-02-08-20:09:11,10.1.1.9,25,-0.050,-0.050,-0.050,0.000,0.000,0.000
1644350951372997120,2022-02-08-20:09:11,10.1.1.9,24,-0.040,-0.040,-0.040,0.000,0.000,0.000
1644350951472882944,2022-02-08-20:09:11,10.1.1.9,24,-0.030,-0.030,-0.030,0.000,0.000,0.000
1644350951574784000,2022-02-08-20:09:11,10.1.1.9,23,-0.020,-0.020,-0.020,0.000,0.000,0.000
1644350951673276928,2022-02-08-20:09:11,10.1.1.9,23,-0.010,-0.010,-0.010,0.000,0.000,0.000
1644350951773433088,2022-02-08-20:09:11,10.1.1.9,23,0.000,0.000,0.000,0.000,0.000,0.000
1644350951873095936,2022-02-08-20:09:11,10.1.1.9,22,0.010,0.010,0.010,0.000,0.000,0.000
1644350951973136896,2022-02-08-20:09:11,10.1.1.9,22,0.020,0.020,0.020,0.000,0.000,0.000
1644350952072935936,2022-02-08-20:09:12,10.1.1.9,21,0.030,0.030,0.030,0.000,0.000,0.000
1644350952173004032,2022-02-08-20:09:12,10.1.1.9,21,0.040,0.040,0.040,0.000,0.000,0.000
1644350952273037056,2022-02-08-20:09:12,10.1.1.9,19,0.050,0.050,0.050,0.000,0.000,0.000
1644350952373117952,2022-02-08-20:09:12,10.1.1.9,19,0.059,0.059,0.059,0.000,0.000,0.000
1644350952472804096,2022-02-08-20:09:12,10.1.1.9,19,0.069,0.069,0.069,0.000,0.000,0.000
1644350952593671168,2022-02-08-20:09:12,10.1.1.9,38,0.080,0.080,0.080,0.000,0.000,0.000
1644350952693323008,2022-02-08-20:09:12,10.1.1.9,36,0.090,0.090,0.090,0.000,0.000,0.000
1644350952793217792,2022-02-08-20:09:12,10.1.1.9,35,0.100,0.100,0.100,0.000,0.000,0.000
1644350952893608192,2022-02-08-20:09:12,10.1.1.9,35,0.090,0.090,0.090,0.000,0.000,0.000
1644350952993016064,2022-02-08-20:09:12,10.1.1.9,34,0.080,0.080,0.080,0.000,0.000,0.000
1644350953094178816,2022-02-08-20:09:13,10.1.1.9,34,0.070,0.070,0.070,0.000,0.000,0.000
1644350953193126912,2022-02-08-20:09:13,10.1.1.9,34,0.060,0.060,0.060,0.000,0.000,0.000
1644350953292964096,2022-02-08-20:09:13,10.1.1.9,33,0.050,0.050,0.050,0.000,0.000,0.000
1644350953393188864,2022-02-08-20:09:13,10.1.1.9,33,0.040,0.040,0.040,0.000,0.000,0.000
1644350953494586112,2022-02-08-20:09:13,10.1.1.9,33,0.030,0.030,0.030,0.000,0.000,0.000
1644350953594027008,2022-02-08-20:09:13,10.1.1.9,32,0.020,0.020,0.020,0.000,0.000,0.000
1644350953693103104,2022-02-08-20:09:13,10.1.1.9,31,0.010,0.010,0.010,0.000,0.000,0.000
1644350953792784896,2022-02-08-20:09:13,10.1.1.9,31,0.000,0.000,0.000,0.000,0.000,0.000
1644350953894449920,2022-02-08-20:09:13,10.1.1.9,30,-0.010,-0.010,-0.010,0.000,0.000,0.000
1644350953993222912,2022-02-08-20:09:13,10.1.1.9,30,-0.020,-0.020,-0.020,0.000,0.000,0.000
1644350954093346048,2022-02-08-20:09:14,10.1.1.9,29,-0.030,-0.030,-0.030,0.000,0.000,0.000
1644350954193350912,2022-02-08-20:09:14,10.1.1.9,29,-0.040,-0.040,-0.040,0.000,0.000,0.000
1644350954293241088,2022-02-08-20:09:14,10.1.1.9,28,-0.050,-0.050,-0.050,0.000,0.000,0.000
1644350954392999936,2022-02-08-20:09:14,10.1.1.9,27,-0.060,-0.060,-0.060,0.000,0.000,0.000
1644350954493136896,2022-02-08-20:09:14,10.1.1.9,27,-0.070,-0.070,-0.070,0.000,0.000,0.000
1644350954593091072,2022-02-08-20:09:14,10.1.1.9,26,-0.080,-0.080,-0.080,0.000,0.000,0.000
1644350954712877056,2022-02-08-20:09:14,10.1.1.9,36,-0.090,-0.090,-0.090,0.000,0.000,0.000
1644350954812993024,2022-02-08-20:09:14,10.1.1.9,35,-0.100,-0.100,-0.100,0.000,0.000,0.000
1644350954913986048,2022-02-08-20:09:14,10.1.1.9,35,-0.090,-0.090,-0.090,0.000,0.000,0.000
1644350955013875968,2022-02-08-20:09:15,10.1.1.9,34,-0.080,-0.080,-0.080,0.000,0.000,0.000
1644350955114212096,2022-02-08-20:09:15,10.1.1.9,34,-0.070,-0.070,-0.070,0.000,0.000,0.000
1644350955213215232,2022-02-08-20:09:15,10.1.1.9,33,-0.060,-0.060,-0.060,0.000,0.000,0.000
1644350955313714944,2022-02-08-20:09:15,10.1.1.9,33,-0.050,-0.050,-0.050,0.000,0.000,0.000
1644350955413744896,2022-02-08-20:09:15,10.1.1.9,32,-0.040,-0.040,-0.040,0.000,0.000,0.000
1644350955512904960,2022-02-08-20:09:15,10.1.1.9,32,-0.030,-0.030,-0.030,0.000,0.000,0.000
1644350955615302144,2022-02-08-20:09:15,10.1.1.9,31,-0.020,-0.020,-0.020,0.000,0.000,0.000
1644350955713488128,2022-02-08-20:09:15,10.1.1.9,30,-0.010,-0.010,-0.010,0.000,0.000,0.000
1644350955813411072,2022-02-08-20:09:15,10.1.1.9,28,0.000,0.000,0.000,0.000,0.000,0.000
1644350955913201920,2022-02-08-20:09:15,10.1.1.9,26,0.010,0.010,0.010,0.000,0.000,0.000
1644350956013539072,2022-02-08-20:09:16,10.1.1.9,26,0.020,0.020,0.020,0.000,0.000,0.000
1644350956112862208,2022-02-08-20:09:16,10.1.1.9,25,0.030,0.030,0.030,0.000,0.000,0.000
1644350956213196032,2022-02-08-20:09:16,10.1.1.9,25,0.040,0.040,0.040,0.000,0.000,0.000
1644350956312966144,2022-02-08-20:09:16,10.1.1.9,24,0.050,0.050,0.050,0.000,0.000,0.000
1644350956413326080,2022-02-08-20:09:16,10.1.1.9,23,0.060,0.060,0.060,0.000,0.000,0.000
1644350956513100032,2022-02-08-20:09:16,10.1.1.9,23,0.070,0.070,0.070,0.000,0.000,0.000
1644350956613070848,2022-02-08-20:09:16,10.1.1.9,22,0.080,0.080,0.080,0.000,0.000,0.000
1644350956712881152,2022-02-08-20:09:16,10.1.1.9,22,0.090,0.090,0.090,0.000,0.000,0.000
1644350956812890880,2022-02-08-20:09:16,10.1.1.9,21,0.100,0.100,0.100,0.000,0.000,0.000
1644350956913201152,2022-02-08-20:09:16,10.1.1.9,20,0.090,0.090,0.090,0.000,0.000,0.000
1644350957015940864,2022-02-08-20:09:17,10.1.1.9,19,0.080,0.080,0.080,0.000,0.000,0.000
1644350957113110016,2022-02-08-20:09:17,10.1.1.9,19,0.071,0.071,0.071,0.000,0.000,0.000
1644350957245884928,2022-02-08-20:09:17,10.1.1.9,25,0.060,0.060,0.060,0.000,0.000,0.000
1644350957362603008,2022-02-08-20:09:17,10.1.1.9,37,0.050,0.050,0.050,0.000,0.000,0.000
1644350957453521920,2022-02-08-20:09:17,10.1.1.9,36,0.040,0.040,0.040,0.000,0.000,0.000
1644350957553906944,2022-02-08-20:09:17,10.1.1.9,30,0.030,0.030,0.030,0.000,0.000,0.000
1644350957653042176,2022-02-08-20:09:17,10.1.1.9,29,0.020,0.020,0.020,0.000,0.000,0.000
1644350957773358080,2022-02-08-20:09:17,10.1.1.9,38,0.010,0.010,0.010,0.000,0.000,0.000
1644350957873121024,2022-02-08-20:09:17,10.1.1.9,38,0.000,0.000,0.000,0.000,0.000,0.000
1644350957976033024,2022-02-08-20:09:17,10.1.1.9,37,-0.010,-0.010,-0.010,0.000,0.000,0.000
1644350958073113088,2022-02-08-20:09:18,10.1.1.9,36,-0.020,-0.020,-0.020,0.000,0.000,0.000
1644350958174813952,2022-02-08-20:09:18,10.1.1.9,35,-0.030,-0.030,-0.030,0.000,0.000,0.000
1644350958281070080,2022-02-08-20:09:18,10.1.1.9,33,-0.040,-0.040,-0.040,0.000,0.000,0.000
1644350958375310848,2022-02-08-20:09:18,10.1.1.9,31,-0.050,-0.050,-0.050,0.000,0.000,0.000
1644350958474680832,2022-02-08-20:09:18,10.1.1.9,30,-0.060,-0.060,-0.060,0.000,0.000,0.000
1644350958573800192,2022-02-08-20:09:18,10.1.1.9,29,-0.070,-0.070,-0.070,0.000,0.000,0.000
1644350958673622016,2022-02-08-20:09:18,10.1.1.9,28,-0.080,-0.080,-0.080,0.000,0.000,0.000
1644350958773785088,2022-02-08-20:09:18,10.1.1.9,27,-0.090,-0.090,-0.090,0.000,0.000,0.000
1644350958874077952,2022-02-08-20:09:18,10.1.1.9,26,-0.100,-0.100,-0.100,0.000,0.000,0.000
1644350958974657024,2022-02-08-20:09:18,10.1.1.9,24,-0.090,-0.090,-0.090,0.000,0.000,0.000
1644350959073880832,2022-02-08-20:09:19,10.1.1.9,23,-0.080,-0.080,-0.080,0.000,0.000,0.000
1644350959174287104,2022-02-08-20:09:19,10.1.1.9,23,-0.070,-0.070,-0.070,0.000,0.000,0.000
1644350959274467072,2022-02-08-20:09:19,10.1.1.9,22,-0.060,-0.060,-0.060,0.000,0.000,0.000
1644350959375129088,2022-02-08-20:09:19,10.1.1.9,21,-0.050,-0.050,-0.050,0.000,0.000,0.000
1644350959475429120,2022-02-08-20:09:19,10.1.1.9,20,-0.040,-0.040,-0.040,0.000,0.000,0.000
1644350959574577152,2022-02-08-20:09:19,10.1.1.9,19,-0.031,-0.031,-0.031,0.000,0.000,0.000
1644350959693540096,2022-02-08-20:09:19,10.1.1.9,38,-0.020,-0.020,-0.020,0.000,0.000,0.000
1644350959794222080,2022-02-08-20:09:19,10.1.1.9,38,-0.010,-0.010,-0.010,0.000,0.000,0.000
1644350959894872064,2022-02-08-20:09:19,10.1.1.9,37,0.000,0.000,0.000,0.000,0.000,0.000
1644350959993472000,2022-02-08-20:09:19,10.1.1.9,36,0.010,0.010,0.010,0.000,0.000,0.000
1644350960094938880,2022-02-08-20:09:20,10.1.1.9,36,0.020,0.020,0.020,0.000,0.000,0.000
1644350960193177856,2022-02-08-20:09:20,10.1.1.9,35,0.030,0.030,0.030,0.000,0.000,0.000
1644350960293526016,2022-02-08-20:09:20,10.1.1.9,34,0.040,0.040,0.040,0.000,0.000,0.000
1644350960395115008,2022-02-08-20:09:20,10.1.1.9,33,0.050,0.050,0.050,0.000,0.000,0.000
1644350960493421056,2022-02-08-20:09:20,10.1.1.9,32,0.060,0.060,0.060,0.000,0.000,0.000
1644350960593075968,2022-02-08-20:09:20,10.1.1.9,32,0.070,0.070,0.070,0.000,0.000,0.000
1644350960693632000,2022-02-08-20:09:20,10.1.1.9,30,0.080,0.080,0.080,0.000,0.000,0.000
1644350960793570048,2022-02-08-20:09:20,10.1.1.9,30,0.090,0.090,0.090,0.000,0.000,0.000
1644350960893147904,2022-02-08-20:09:20,10.1.1.9,29,0.100,0.100,0.100,0.000,0.000,0.000
1644350960993069824,2022-02-08-20:09:20,10.1.1.9,28,0.090,0.090,0.090,0.000,0.000,0.000
1644350961093206016,2022-02-08-20:09:21,10.1.1.9,27,0.080,0.080,0.080,0.000,0.000,0.000
1644350961193201152,2022-02-08-20:09:21,10.1.1.9,27,0.070,0.070,0.070,0.000,0.000,0.000
1644350961293286144,2022-02-08-20:09:21,10.1.1.9,27,0.060,0.060,0.060,0.000,0.000,0.000
1644350961393795840,2022-02-08-20:09:21,10.1.1.9,26,0.050,0.050,0.050,0.000,0.000,0.000
1644350961493513216,2022-02-08-20:09:21,10.1.1.9,26,0.040,0.040,0.040,0.000,0.000,0.000
1644350961593530880,2022-02-08-20:09:21,10.1.1.9,25,0.030,0.030,0.030,0.000,0.000,0.000
1644350961693455104,2022-02-08-20:09:21,10.1.1.9,25,0.020,0.020,0.020,0.000,0.000,0.000
1644350961793359104,2022-02-08-20:09:21,10.1.1.9,24,0.010,0.010,0.010,0.000,0.000,0.000
1644350961893492992,2022-02-08-20:09:21,10.1.1.9,24,0.000,0.000,0.000,0.000,0.000,0.000
1644350961994240000,2022-02-08-20:09:21,10.1.1.9,23,-0.010,-0.010,-0.010,0.000,0.000,0.000
1644350962094050816,2022-02-08-20:09:22,10.1.1.9,22,-0.020,-0.020,-0.020,0.000,0.000,0.000
1644350962193169152,2022-02-08-20:09:22,10.1.1.9,22,-0.030,-0.030,-0.030,0.000,0.000,0.000
1644350962293937920,2022-02-08-20:09:22,10.1.1.9,21,-0.040,-0.040,-0.040,0.000,0.000,0.000
1644350962393574912,2022-02-08-20:09:22,10.1.1.9,21,-0.050,-0.050,-0.050,0.000,0.000,0.000
1644350962494008064,2022-02-08-20:09:22,10.1.1.9,20,-0.060,-0.060,-0.060,0.000,0.000,0.000
1644350962593698048,2022-02-08-20:09:22,10.1.1.9,20,-0.070,-0.070,-0.070,0.000,0.000,0.000
1644350962694639872,2022-02-08-20:09:22,10.1.1.9,19,-0.080,-0.080,-0.080,0.000,0.000,0.000
1644350962813417984,2022-02-08-20:09:22,10.1.1.9,38,-0.090,-0.090,-0.090,0.000,0.000,0.000
1644350962912983040,2022-02-08-20:09:22,10.1.1.9,38,-0.100,-0.100,-0.100,0.000,0.000,0.000
1644350963013629952,2022-02-08-20:09:23,10.1.1.9,37,-0.090,-0.090,-0.090,0.000,0.000,0.000
1644350963113112064,2022-02-08-20:09:23,10.1.1.9,37,-0.080,-0.080,-0.080,0.000,0.000,0.000
1644350963226087936,2022-02-08-20:09:23,10.1.1.9,36,-0.070,-0.070,-0.070,0.000,0.000,0.000
1644350963313050880,2022-02-08-20:09:23,10.1.1.9,35,-0.060,-0.060,-0.060,0.000,0.000,0.000
1644350963413242112,2022-02-08-20:09:23,10.1.1.9,35,-0.050,-0.050,-0.050,0.000,0.000,0.000
1644350963512986880,2022-02-08-20:09:23,10.1.1.9,34,-0.040,-0.040,-0.040,0.000,0.000,0.000
1644350963616009984,2022-02-08-20:09:23,10.1.1.9,29,-0.030,-0.030,-0.030,0.000,0.000,0.000
1644350963713346048,2022-02-08-20:09:23,10.1.1.9,29,-0.020,-0.020,-0.020,0.000,0.000,0.000
1644350963813668096,2022-02-08-20:09:23,10.1.1.9,27,-0.010,-0.010,-0.010,0.000,0.000,0.000
1644350963913296896,2022-02-08-20:09:23,10.1.1.9,27,0.000,0.000,0.000,0.000,0.000,0.000
1644350964014151168,2022-02-08-20:09:24,10.1.1.9,26,0.010,0.010,0.010,0.000,0.000,0.000
1644350964113306880,2022-02-08-20:09:24,10.1.1.9,26,0.020,0.020,0.020,0.000,0.000,0.000
1644350964213900032,2022-02-08-20:09:24,10.1.1.9,24,0.030,0.030,0.030,0.000,0.000,0.000
1644350964313438976,2022-02-08-20:09:24,10.1.1.9,23,0.040,0.040,0.040,0.000,0.000,0.000
1644350964414630912,2022-02-08-20:09:24,10.1.1.9,23,0.050,0.050,0.050,0.000,0.000,0.000
1644350964512947968,2022-02-08-20:09:24,10.1.1.9,22,0.060,0.060,0.060,0.000,0.000,0.000
1644350964613423104,2022-02-08-20:09:24,10.1.1.9,22,0.070,0.070,0.070,0.000,0.000,0.000
1644350964713111040,2022-02-08-20:09:24,10.1.1.9,21,0.080,0.080,0.080,0.000,0.000,0.000
1644350964813251072,2022-02-08-20:09:24,10.1.1.9,21,0.090,0.090,0.090,0.000,0.000,0.000
1644350964913362944,2022-02-08-20:09:24,10.1.1.9,20,0.100,0.100,0.100,0.000,0.000,0.000
1644350965013735936,2022-02-08-20:09:25,10.1.1.9,20,0.090,0.090,0.090,0.000,0.000,0.000
1644350965114803968,2022-02-08-20:09:25,10.1.1.9,19,0.081,0.081,0.081,0.000,0.000,0.000
1644350965236025088,2022-02-08-20:09:25,10.1.1.9,38,0.070,0.070,0.070,0.000,0.000,0.000
1644350965334072064,2022-02-08-20:09:25,10.1.1.9,38,0.060,0.060,0.060,0.000,0.000,0.000
1644350965433969920,2022-02-08-20:09:25,10.1.1.9,37,0.050,0.050,0.050,0.000,0.000,0.000
1644350965535831040,2022-02-08-20:09:25,10.1.1.9,37,0.040,0.040,0.040,0.000,0.000,0.000
1644350965635576064,2022-02-08-20:09:25,10.1.1.9,36,0.030,0.030,0.030,0.000,0.000,0.000
1644350965734206976,2022-02-08-20:09:25,10.1.1.9,34,0.020,0.020,0.020,0.000,0.000,0.000
1644350965833281024,2022-02-08-20:09:25,10.1.1.9,33,0.010,0.010,0.010,0.000,0.000,0.000
1644350965933798912,2022-02-08-20:09:25,10.1.1.9,33,0.000,0.000,0.000,0.000,0.000,0.000
1644350966034935040,2022-02-08-20:09:26,10.1.1.9,33,-0.010,-0.010,-0.010,0.000,0.000,0.000
1644350966133193984,2022-02-08-20:09:26,10.1.1.9,32,-0.020,-0.020,-0.020,0.000,0.000,0.000
1644350966233367040,2022-02-08-20:09:26,10.1.1.9,31,-0.030,-0.030,-0.030,0.000,0.000,0.000
1644350966333387008,2022-02-08-20:09:26,10.1.1.9,30,-0.040,-0.040,-0.040,0.000,0.000,0.000
1644350966433566208,2022-02-08-20:09:26,10.1.1.9,29,-0.050,-0.050,-0.050,0.000,0.000,0.000
1644350966533690880,2022-02-08-20:09:26,10.1.1.9,29,-0.060,-0.060,-0.060,0.000,0.000,0.000
1644350966633421056,2022-02-08-20:09:26,10.1.1.9,27,-0.070,-0.070,-0.070,0.000,0.000,0.000
1644350966733707008,2022-02-08-20:09:26,10.1.1.9,27,-0.080,-0.080,-0.080,0.000,0.000,0.000
1644350966833664768,2022-02-08-20:09:26,10.1.1.9,26,-0.090,-0.090,-0.090,0.000,0.000,0.000
1644350966933841920,2022-02-08-20:09:26,10.1.1.9,26,-0.100,-0.100,-0.100,0.000,0.000,0.000
1644350967034266880,2022-02-08-20:09:27,10.1.1.9,26,-0.090,-0.090,-0.090,0.000,0.000,0.000
1644350967133554944,2022-02-08-20:09:27,10.1.1.9,25,-0.080,-0.080,-0.080,0.000,0.000,0.000
1644350967233242112,2022-02-08-20:09:27,10.1.1.9,24,-0.070,-0.070,-0.070,0.000,0.000,0.000
1644350967333457920,2022-02-08-20:09:27,10.1.1.9,23,-0.060,-0.060,-0.060,0.000,0.000,0.000
1644350967434257152,2022-02-08-20:09:27,10.1.1.9,23,-0.050,-0.050,-0.050,0.000,0.000,0.000
1644350967535113216,2022-02-08-20:09:27,10.1.1.9,23,-0.040,-0.040,-0.040,0.000,0.000,0.000
1644350967633425920,2022-02-08-20:09:27,10.1.1.9,22,-0.030,-0.030,-0.030,0.000,0.000,0.000
1644350967733208832,2022-02-08-20:09:27,10.1.1.9,21,-0.020,-0.020,-0.020,0.000,0.000,0.000
1644350967833679872,2022-02-08-20:09:27,10.1.1.9,19,-0.010,-0.010,-0.010,0.000,0.000,0.000
1644350967932913920,2022-02-08-20:09:27,10.1.1.9,19,-0.001,-0.001,-0.001,0.000,0.000,0.000
1644350968053423872,2022-02-08-20:09:28,10.1.1.9,38,0.010,0.010,0.010,0.000,0.000,0.000
1644350968153257984,2022-02-08-20:09:28,10.1.1.9,38,0.020,0.020,0.020,0.000,0.000,0.000
1644350968253808128,2022-02-08-20:09:28,10.1.1.9,38,0.030,0.030,0.030,0.000,0.000,0.000
1644350968353504000,2022-02-08-20:09:28,10.1.1.9,37,0.040,0.040,0.040,0.000,0.000,0.000
1644350968455358976,2022-02-08-20:09:28,10.1.1.9,36,0.050,0.050,0.050,0.000,0.000,0.000
1644350968553071104,2022-02-08-20:09:28,10.1.1.9,36,0.060,0.060,0.060,0.000,0.000,0.000
1644350968653198080,2022-02-08-20:09:28,10.1.1.9,36,0.070,0.070,0.070,0.000,0.000,0.000
1644350968753481984,2022-02-08-20:09:28,10.1.1.9,35,0.080,0.080,0.080,0.000,0.000,0.000
1644350968853337088,2022-02-08-20:09:28,10.1.1.9,34,0.090,0.090,0.090,0.000,0.000,0.000
1644350968953396992,2022-02-08-20:09:28,10.1.1.9,33,0.100,0.100,0.100,0.000,0.000,0.000
1644350969053446144,2022-02-08-20:09:29,10.1.1.9,33,0.090,0.090,0.090,0.000,0.000,0.000
1644350969154535936,2022-02-08-20:09:29,10.1.1.9,33,0.080,0.080,0.080,0.000,0.000,0.000
1644350969254679808,2022-02-08-20:09:29,10.1.1.9,32,0.070,0.070,0.070,0.000,0.000,0.000
1644350969353594112,2022-02-08-20:09:29,10.1.1.9,31,0.060,0.060,0.060,0.000,0.000,0.000
1644350969453253120,2022-02-08-20:09:29,10.1.1.9,31,0.050,0.050,0.050,0.000,0.000,0.000
1644350969553266176,2022-02-08-20:09:29,10.1.1.9,30,0.040,0.040,0.040,0.000,0.000,0.000
1644350969653772032,2022-02-08-20:09:29,10.1.1.9,30,0.030,0.030,0.030,0.000,0.000,0.000
1644350969753516032,2022-02-08-20:09:29,10.1.1.9,29,0.020,0.020,0.020,0.000,0.000,0.000
1644350969854939904,2022-02-08-20:09:29,10.1.1.9,28,0.010,0.010,0.010,0.000,0.000,0.000
1644350969953572096,2022-02-08-20:09:29,10.1.1.9,28,0.000,0.000,0.000,0.000,0.000,0.000
1644350970053199104,2022-02-08-20:09:30,10.1.1.9,27,-0.010,-0.010,-0.010,0.000,0.000,0.000
1644350970153914880,2022-02-08-20:09:30,10.1.1.9,27,-0.020,-0.020,-0.020,0.000,0.000,0.000
1644350970253249792,2022-02-08-20:09:30,10.1.1.9,26,-0.030,-0.030,-0.030,0.000,0.000,0.000
1644350970353833984,2022-02-08-20:09:30,10.1.1.9,26,-0.040,-0.040,-0.040,0.000,0.000,0.000
1644350970453458944,2022-02-08-20:09:30,10.1.1.9,25,-0.050,-0.050,-0.050,0.000,0.000,0.000
1644350970553186816,2022-02-08-20:09:30,10.1.1.9,24,-0.060,-0.060,-0.060,0.000,0.000,0.000
1644350970653504000,2022-02-08-20:09:30,10.1.1.9,23,-0.070,-0.070,-0.070,0.000,0.000,0.000
1644350970753724928,2022-02-08-20:09:30,10.1.1.9,23,-0.080,-0.080,-0.080,0.000,0.000,0.000
1644350970854523904,2022-02-08-20:09:30,10.1.1.9,23,-0.090,-0.090,-0.090,0.000,0.000,0.000
1644350970953748992,2022-02-08-20:09:30,10.1.1.9,22,-0.100,-0.100,-0.100,0.000,0.000,0.000
1644350971054578944,2022-02-08-20:09:31,10.1.1.9,22,-0.090,-0.090,-0.090,0.000,0.000,0.000
1644350971153373952,2022-02-08-20:09:31,10.1.1.9,21,-0.080,-0.080,-0.080,0.000,0.000,0.000
1644350971253478912,2022-02-08-20:09:31,10.1.1.9,20,-0.070,-0.070,-0.070,0.000,0.000,0.000
1644350971353623040,2022-02-08-20:09:31,10.1.1.9,20,-0.060,-0.060,-0.060,0.000,0.000,0.000
1644350971453059840,2022-02-08-20:09:31,10.1.1.9,19,-0.051,-0.051,-0.051,0.000,0.000,0.000
1644350971574641920,2022-02-08-20:09:31,10.1.1.9,38,-0.040,-0.040,-0.040,0.000,0.000,0.000
1644350971675187968,2022-02-08-20:09:31,10.1.1.9,38,-0.030,-0.030,-0.030,0.000,0.000,0.000
1644350971773870080,2022-02-08-20:09:31,10.1.1.9,37,-0.020,-0.020,-0.020,0.000,0.000,0.000
1644350971873406976,2022-02-08-20:09:31,10.1.1.9,37,-0.010,-0.010,-0.010,0.000,0.000,0.000
1644350971973597952,2022-02-08-20:09:31,10.1.1.9,36,0.000,0.000,0.000,0.000,0.000,0.000
1644350972072844032,2022-02-08-20:09:32,10.1.1.9,35,0.010,0.010,0.010,0.000,0.000,0.000
1644350972173350144,2022-02-08-20:09:32,10.1.1.9,35,0.020,0.020,0.020,0.000,0.000,0.000
1644350972273255168,2022-02-08-20:09:32,10.1.1.9,34,0.030,0.030,0.030,0.000,0.000,0.000
1644350972373197056,2022-02-08-20:09:32,10.1.1.9,34,0.040,0.040,0.040,0.000,0.000,0.000
1644350972473611008,2022-02-08-20:09:32,10.1.1.9,33,0.050,0.050,0.050,0.000,0.000,0.000
1644350972573265920,2022-02-08-20:09:32,10.1.1.9,33,0.060,0.060,0.060,0.000,0.000,0.000
1644350972673346048,2022-02-08-20:09:32,10.1.1.9,32,0.070,0.070,0.070,0.000,0.000,0.000
1644350972773243904,2022-02-08-20:09:32,10.1.1.9,32,0.080,0.080,0.080,0.000,0.000,0.000
1644350972873355008,2022-02-08-20:09:32,10.1.1.9,31,0.090,0.090,0.090,0.000,0.000,0.000
1644350972973984000,2022-02-08-20:09:32,10.1.1.9,30,0.100,0.100,0.100,0.000,0.000,0.000
1644350973073179904,2022-02-08-20:09:33,10.1.1.9,29,0.090,0.090,0.090,0.000,0.000,0.000
1644350973172879104,2022-02-08-20:09:33,10.1.1.9,29,0.080,0.080,0.080,0.000,0.000,0.000
1644350973274072832,2022-02-08-20:09:33,10.1.1.9,28,0.070,0.070,0.070,0.000,0.000,0.000
1644350973373737216,2022-02-08-20:09:33,10.1.1.9,27,0.060,0.060,0.060,0.000,0.000,0.000
1644350973473897984,2022-02-08-20:09:33,10.1.1.9,26,0.050,0.050,0.050,0.000,0.000,0.000
1644350973573617920,2022-02-08-20:09:33,10.1.1.9,26,0.040,0.040,0.040,0.000,0.000,0.000
1644350973673363968,2022-02-08-20:09:33,10.1.1.9,23,0.030,0.030,0.030,0.000,0.000,0.000
1644350973773859072,2022-02-08-20:09:33,10.1.1.9,22,0.020,0.020,0.020,0.000,0.000,0.000
1644350973910406144,2022-02-08-20:09:33,10.1.1.9,22,0.010,0.010,0.010,0.000,0.000,0.000
1644350973973131008,2022-02-08-20:09:33,10.1.1.9,21,0.000,0.000,0.000,0.000,0.000,0.000
1644350974073801984,2022-02-08-20:09:34,10.1.1.9,20,-0.010,-0.010,-0.010,0.000,0.000,0.000
1644350974173396992,2022-02-08-20:09:34,10.1.1.9,19,-0.020,-0.020,-0.020,0.000,0.000,0.000
1644350974273593856,2022-02-08-20:09:34,10.1.1.9,19,-0.030,-0.030,-0.030,0.000,0.000,0.000
1644350974393434112,2022-02-08-20:09:34,10.1.1.9,38,-0.040,-0.040,-0.040,0.000,0.000,0.000
1644350974493352960,2022-02-08-20:09:34,10.1.1.9,38,-0.050,-0.050,-0.050,0.000,0.000,0.000
1644350974593542144,2022-02-08-20:09:34,10.1.1.9,37,-0.060,-0.060,-0.060,0.000,0.000,0.000
1644350974693425920,2022-02-08-20:09:34,10.1.1.9,37,-0.070,-0.070,-0.070,0.000,0.000,0.000
1644350974794443008,2022-02-08-20:09:34,10.1.1.9,36,-0.080,-0.080,-0.080,0.000,0.000,0.000
1644350974894547968,2022-02-08-20:09:34,10.1.1.9,36,-0.090,-0.090,-0.090,0.000,0.000,0.000
1644350974993088000,2022-02-08-20:09:34,10.1.1.9,36,-0.100,-0.100,-0.100,0.000,0.000,0.000
1644350975093084160,2022-02-08-20:09:35,10.1.1.9,35,-0.090,-0.090,-0.090,0.000,0.000,0.000
1644350975193314048,2022-02-08-20:09:35,10.1.1.9,34,-0.080,-0.080,-0.080,0.000,0.000,0.000
1644350975294397184,2022-02-08-20:09:35,10.1.1.9,34,-0.070,-0.070,-0.070,0.000,0.000,0.000
1644350975396370944,2022-02-08-20:09:35,10.1.1.9,33,-0.060,-0.060,-0.060,0.000,0.000,0.000
1644350975493338112,2022-02-08-20:09:35,10.1.1.9,30,-0.050,-0.050,-0.050,0.000,0.000,0.000
1644350975593293056,2022-02-08-20:09:35,10.1.1.9,29,-0.040,-0.040,-0.040,0.000,0.000,0.000
1644350975693159168,2022-02-08-20:09:35,10.1.1.9,29,-0.030,-0.030,-0.030,0.000,0.000,0.000
1644350975794009856,2022-02-08-20:09:35,10.1.1.9,28,-0.020,-0.020,-0.020,0.000,0.000,0.000
1644350975895858944,2022-02-08-20:09:35,10.1.1.9,27,-0.010,-0.010,-0.010,0.000,0.000,0.000
1644350975994454016,2022-02-08-20:09:35,10.1.1.9,25,0.000,0.000,0.000,0.000,0.000,0.000
1644350976093100032,2022-02-08-20:09:36,10.1.1.9,24,0.010,0.010,0.010,0.000,0.000,0.000
1644350976194298880,2022-02-08-20:09:36,10.1.1.9,24,0.020,0.020,0.020,0.000,0.000,0.000
1644350976293335040,2022-02-08-20:09:36,10.1.1.9,21,0.030,0.030,0.030,0.000,0.000,0.000
1644350976394373888,2022-02-08-20:09:36,10.1.1.9,20,0.040,0.040,0.040,0.000,0.000,0.000
1644350976513356800,2022-02-08-20:09:36,10.1.1.9,37,0.050,0.050,0.050,0.000,0.000,0.000
1644350976613257984,2022-02-08-20:09:36,10.1.1.9,36,0.060,0.060,0.060,0.000,0.000,0.000
1644350976713010944,2022-02-08-20:09:36,10.1.1.9,36,0.070,0.070,0.070,0.000,0.000,0.000
1644350976813190912,2022-02-08-20:09:36,10.1.1.9,35,0.080,0.080,0.080,0.000,0.000,0.000
1644350976913250816,2022-02-08-20:09:36,10.1.1.9,34,0.090,0.090,0.090,0.000,0.000,0.000
1644350977013270016,2022-02-08-20:09:37,10.1.1.9,34,0.100,0.100,0.100,0.000,0.000,0.000
1644350977120121856,2022-02-08-20:09:37,10.1.1.9,34,0.090,0.090,0.090,0.000,0.000,0.000
1644350977213330944,2022-02-08-20:09:37,10.1.1.9,31,0.080,0.080,0.080,0.000,0.000,0.000
1644350977313282048,2022-02-08-20:09:37,10.1.1.9,30,0.070,0.070,0.070,0.000,0.000,0.000
1644350977413403136,2022-02-08-20:09:37,10.1.1.9,29,0.060,0.060,0.060,0.000,0.000,0.000
1644350977513160960,2022-02-08-20:09:37,10.1.1.9,28,0.050,0.050,0.050,0.000,0.000,0.000
1644350977613209088,2022-02-08-20:09:37,10.1.1.9,28,0.040,0.040,0.040,0.000,0.000,0.000
1644350977712780032,2022-02-08-20:09:37,10.1.1.9,27,0.030,0.030,0.030,0.000,0.000,0.000
1644350977813559040,2022-02-08-20:09:37,10.1.1.9,27,0.020,0.020,0.020,0.000,0.000,0.000
1644350977913458176,2022-02-08-20:09:37,10.1.1.9,25,0.010,0.010,0.010,0.000,0.000,0.000
1644350978013235200,2022-02-08-20:09:38,10.1.1.9,24,0.000,0.000,0.000,0.000,0.000,0.000
1644350978113442816,2022-02-08-20:09:38,10.1.1.9,24,-0.010,-0.010,-0.010,0.000,0.000,0.000
1644350978213370112,2022-02-08-20:09:38,10.1.1.9,23,-0.020,-0.020,-0.020,0.000,0.000,0.000
1644350978313560064,2022-02-08-20:09:38,10.1.1.9,23,-0.030,-0.030,-0.030,0.000,0.000,0.000
1644350978414089984,2022-02-08-20:09:38,10.1.1.9,22,-0.040,-0.040,-0.040,0.000,0.000,0.000
1644350978512915968,2022-02-08-20:09:38,10.1.1.9,22,-0.050,-0.050,-0.050,0.000,0.000,0.000
1644350978613660928,2022-02-08-20:09:38,10.1.1.9,21,-0.060,-0.060,-0.060,0.000,0.000,0.000
1644350978713132032,2022-02-08-20:09:38,10.1.1.9,21,-0.070,-0.070,-0.070,0.000,0.000,0.000
1644350978813113088,2022-02-08-20:09:38,10.1.1.9,20,-0.080,-0.080,-0.080,0.000,0.000,0.000
1644350978913100032,2022-02-08-20:09:38,10.1.1.9,19,-0.090,-0.090,-0.090,0.000,0.000,0.000
1644350979013164032,2022-02-08-20:09:39,10.1.1.9,19,-0.100,-0.100,-0.100,0.000,0.000,0.000
1644350979113751808,2022-02-08-20:09:39,10.1.1.9,18,-0.091,-0.091,-0.091,0.000,0.000,0.000
1644350979233326080,2022-02-08-20:09:39,10.1.1.9,38,-0.080,-0.080,-0.080,0.000,0.000,0.000
1644350979333133056,2022-02-08-20:09:39,10.1.1.9,38,-0.070,-0.070,-0.070,0.000,0.000,0.000
1644350979433353984,2022-02-08-20:09:39,10.1.1.9,37,-0.060,-0.060,-0.060,0.000,0.000,0.000
1644350979533516032,2022-02-08-20:09:39,10.1.1.9,37,-0.050,-0.050,-0.050,0.000,0.000,0.000
1644350979633550848,2022-02-08-20:09:39,10.1.1.9,36,-0.040,-0.040,-0.040,0.000,0.000,0.000
1644350979737530112,2022-02-08-20:09:39,10.1.1.9,36,-0.030,-0.030,-0.030,0.000,0.000,0.000
1644350979834007040,2022-02-08-20:09:39,10.1.1.9,34,-0.020,-0.020,-0.020,0.000,0.000,0.000
1644350979933108992,2022-02-08-20:09:39,10.1.1.9,33,-0.010,-0.010,-0.010,0.000,0.000,0.000
1644350980033948928,2022-02-08-20:09:40,10.1.1.9,32,0.000,0.000,0.000,0.000,0.000,0.000
1644350980133508864,2022-02-08-20:09:40,10.1.1.9,32,0.010,0.010,0.010,0.000,0.000,0.000
1644350980234349056,2022-02-08-20:09:40,10.1.1.9,31,0.020,0.020,0.020,0.000,0.000,0.000
1644350980334424064,2022-02-08-20:09:40,10.1.1.9,30,0.030,0.030,0.030,0.000,0.000,0.000
1644350980433611008,2022-02-08-20:09:40,10.1.1.9,30,0.040,0.040,0.040,0.000,0.000,0.000
1644350980534066944,2022-02-08-20:09:40,10.1.1.9,29,0.050,0.050,0.050,0.000,0.000,0.000
1644350980635270144,2022-02-08-20:09:40,10.1.1.9,26,0.060,0.060,0.060,0.000,0.000,0.000
1644350980733975808,2022-02-08-20:09:40,10.1.1.9,26,0.070,0.070,0.070,0.000,0.000,0.000
1644350980834042112,2022-02-08-20:09:40,10.1.1.9,26,0.080,0.080,0.080,0.000,0.000,0.000
1644350980933689088,2022-02-08-20:09:40,10.1.1.9,25,0.090,0.090,0.090,0.000,0.000,0.000
1644350981033121024,2022-02-08-20:09:41,10.1.1.9,25,0.100,0.100,0.100,0.000,0.000,0.000
1644350981138832128,2022-02-08-20:09:41,10.1.1.9,24,0.090,0.090,0.090,0.000,0.000,0.000
1644350981234183936,2022-02-08-20:09:41,10.1.1.9,24,0.080,0.080,0.080,0.000,0.000,0.000
1644350981333622016,2022-02-08-20:09:41,10.1.1.9,23,0.070,0.070,0.070,0.000,0.000,0.000
1644350981433760768,2022-02-08-20:09:41,10.1.1.9,23,0.060,0.060,0.060,0.000,0.000,0.000
1644350981534203904,2022-02-08-20:09:41,10.1.1.9,22,0.050,0.050,0.050,0.000,0.000,0.000
1644350981633464064,2022-02-08-20:09:41,10.1.1.9,22,0.040,0.040,0.040,0.000,0.000,0.000
1644350981733212928,2022-02-08-20:09:41,10.1.1.9,21,0.030,0.030,0.030,0.000,0.000,0.000
1644350981853594112,2022-02-08-20:09:41,10.1.1.9,37,0.020,0.020,0.020,0.000,0.000,0.000
1644350981953979904,2022-02-08-20:09:41,10.1.1.9,36,0.010,0.010,0.010,0.000,0.000,0.000
1644350982053687040,2022-02-08-20:09:42,10.1.1.9,36,0.000,0.000,0.000,0.000,0.000,0.000
1644350982153080832,2022-02-08-20:09:42,10.1.1.9,35,-0.010,-0.010,-0.010,0.000,0.000,0.000
1644350982253454848,2022-02-08-20:09:42,10.1.1.9,34,-0.020,-0.020,-0.020,0.000,0.000,0.000
1644350982353400832,2022-02-08-20:09:42,10.1.1.9,34,-0.030,-0.030,-0.030,0.000,0.000,0.000
1644350982454426880,2022-02-08-20:09:42,10.1.1.9,33,-0.040,-0.040,-0.040,0.000,0.000,0.000
1644350982555759872,2022-02-08-20:09:42,10.1.1.9,33,-0.050,-0.050,-0.050,0.000,0.000,0.000
1644350982653748992,2022-02-08-20:09:42,10.1.1.9,32,-0.060,-0.060,-0.060,0.000,0.000,0.000
1644350982754493952,2022-02-08-20:09:42,10.1.1.9,31,-0.070,-0.070,-0.070,0.000,0.000,0.000
1644350982854108928,2022-02-08-20:09:42,10.1.1.9,31,-0.080,-0.080,-0.080,0.000,0.000,0.000
1644350982953726976,2022-02-08-20:09:42,10.1.1.9,31,-0.090,-0.090,-0.090,0.000,0.000,0.000
1644350983053710848,2022-02-08-20:09:43,10.1.1.9,30,-0.100,-0.100,-0.100,0.000,0.000,0.000
1644350983153466112,2022-02-08-20:09:43,10.1.1.9,30,-0.090,-0.090,-0.090,0.000,0.000,0.000
1644350983254192128,2022-02-08-20:09:43,10.1.1.9,29,-0.080,-0.080,-0.080,0.000,0.000,0.000
1644350983353652992,2022-02-08-20:09:43,10.1.1.9,29,-0.070,-0.070,-0.070,0.000,0.000,0.000
1644350983454177024,2022-02-08-20:09:43,10.1.1.9,27,-0.060,-0.060,-0.060,0.000,0.000,0.000
1644350983554567168,2022-02-08-20:09:43,10.1.1.9,27,-0.050,-0.050,-0.050,0.000,0.000,0.000
1644350983653587968,2022-02-08-20:09:43,10.1.1.9,27,-0.040,-0.040,-0.040,0.000,0.000,0.000
1644350983754089216,2022-02-08-20:09:43,10.1.1.9,26,-0.030,-0.030,-0.030,0.000,0.000,0.000
1644350983854074880,2022-02-08-20:09:43,10.1.1.9,25,-0.020,-0.020,-0.020,0.000,0.000,0.000
1644350983954013184,2022-02-08-20:09:43,10.1.1.9,24,-0.010,-0.010,-0.010,0.000,0.000,0.000
1644350984054114048,2022-02-08-20:09:44,10.1.1.9,22,0.000,0.000,0.000,0.000,0.000,0.000
1644350984155347200,2022-02-08-20:09:44,10.1.1.9,22,0.010,0.010,0.010,0.000,0.000,0.000
1644350984254251008,2022-02-08-20:09:44,10.1.1.9,21,0.020,0.020,0.020,0.000,0.000,0.000
1644350984353573120,2022-02-08-20:09:44,10.1.1.9,20,0.030,0.030,0.030,0.000,0.000,0.000
1644350984453356032,2022-02-08-20:09:44,10.1.1.9,20,0.040,0.040,0.040,0.000,0.000,0.000
1644350984573730048,2022-02-08-20:09:44,10.1.1.9,38,0.050,0.050,0.050,0.000,0.000,0.000
1644350984673466880,2022-02-08-20:09:44,10.1.1.9,37,0.060,0.060,0.060,0.000,0.000,0.000
1644350984774710016,2022-02-08-20:09:44,10.1.1.9,36,0.070,0.070,0.070,0.000,0.000,0.000
1644350984874769920,2022-02-08-20:09:44,10.1.1.9,35,0.080,0.080,0.080,0.000,0.000,0.000
1644350984973815808,2022-02-08-20:09:44,10.1.1.9,34,0.090,0.090,0.090,0.000,0.000,0.000
1644350985074121984,2022-02-08-20:09:45,10.1.1.9,34,0.100,0.100,0.100,0.000,0.000,0.000
1644350985175185920,2022-02-08-20:09:45,10.1.1.9,33,0.090,0.090,0.090,0.000,0.000,0.000
1644350985274919936,2022-02-08-20:09:45,10.1.1.9,33,0.080,0.080,0.080,0.000,0.000,0.000
1644350985375102976,2022-02-08-20:09:45,10.1.1.9,32,0.070,0.070,0.070,0.000,0.000,0.000
1644350985473587968,2022-02-08-20:09:45,10.1.1.9,32,0.060,0.060,0.060,0.000,0.000,0.000
1644350985575421184,2022-02-08-20:09:45,10.1.1.9,31,0.050,0.050,0.050,0.000,0.000,0.000
1644350985673641984,2022-02-08-20:09:45,10.1.1.9,31,0.040,0.040,0.040,0.000,0.000,0.000
1644350985775305984,2022-02-08-20:09:45,10.1.1.9,30,0.030,0.030,0.030,0.000,0.000,0.000
1644350985875116032,2022-02-08-20:09:45,10.1.1.9,29,0.020,0.020,0.020,0.000,0.000,0.000
1644350985975732992,2022-02-08-20:09:45,10.1.1.9,29,0.010,0.010,0.010,0.000,0.000,0.000
1644350986073978880,2022-02-08-20:09:46,10.1.1.9,27,0.000,0.000,0.000,0.000,0.000,0.000
1644350986173784064,2022-02-08-20:09:46,10.1.1.9,26,-0.010,-0.010,-0.010,0.000,0.000,0.000
1644350986274350848,2022-02-08-20:09:46,10.1.1.9,26,-0.020,-0.020,-0.020,0.000,0.000,0.000
1644350986364749056,2022-02-08-20:09:46,10.1.1.9,-44,-0.020,-0.020,-0.020,0.000,0.000,0.000
1644350986493724160,2022-02-08-20:09:46,10.1.1.9,34,-0.040,-0.040,-0.040,0.000,0.000,0.000
1644350986593816064,2022-02-08-20:09:46,10.1.1.9,33,-0.050,-0.050,-0.050,0.000,0.000,0.000
1644350986693257216,2022-02-08-20:09:46,10.1.1.9,32,-0.060,-0.060,-0.060,0.000,0.000,0.000
1644350986793561856,2022-02-08-20:09:46,10.1.1.9,32,-0.070,-0.070,-0.070,0.000,0.000,0.000
1644350986894573824,2022-02-08-20:09:46,10.1.1.9,31,-0.080,-0.080,-0.080,0.000,0.000,0.000
1644350986993616128,2022-02-08-20:09:46,10.1.1.9,31,-0.090,-0.090,-0.090,0.000,0.000,0.000
1644350987093831936,2022-02-08-20:09:47,10.1.1.9,30,-0.100,-0.100,-0.100,0.000,0.000,0.000
1644350987194669056,2022-02-08-20:09:47,10.1.1.9,29,-0.090,-0.090,-0.090,0.000,0.000,0.000
1644350987294476032,2022-02-08-20:09:47,10.1.1.9,28,-0.080,-0.080,-0.080,0.000,0.000,0.000
1644350987393559808,2022-02-08-20:09:47,10.1.1.9,28,-0.070,-0.070,-0.070,0.000,0.000,0.000
1644350987493782016,2022-02-08-20:09:47,10.1.1.9,27,-0.060,-0.060,-0.060,0.000,0.000,0.000
1644350987593451008,2022-02-08-20:09:47,10.1.1.9,27,-0.050,-0.050,-0.050,0.000,0.000,0.000
1644350987707215104,2022-02-08-20:09:47,10.1.1.9,23,-0.040,-0.040,-0.040,0.000,0.000,0.000
1644350987793144064,2022-02-08-20:09:47,10.1.1.9,22,-0.030,-0.030,-0.030,0.000,0.000,0.000
1644350987893466880,2022-02-08-20:09:47,10.1.1.9,21,-0.020,-0.020,-0.020,0.000,0.000,0.000
1644350987993534976,2022-02-08-20:09:47,10.1.1.9,21,-0.010,-0.010,-0.010,0.000,0.000,0.000
1644350988093543936,2022-02-08-20:09:48,10.1.1.9,20,0.000,0.000,0.000,0.000,0.000,0.000
1644350988193453056,2022-02-08-20:09:48,10.1.1.9,20,0.010,0.010,0.010,0.000,0.000,0.000
1644350988293165056,2022-02-08-20:09:48,10.1.1.9,19,0.020,0.020,0.020,0.000,0.000,0.000
1644350988393393152,2022-02-08-20:09:48,10.1.1.9,19,0.029,0.029,0.029,0.000,0.000,0.000
1644350988513097984,2022-02-08-20:09:48,10.1.1.9,38,0.040,0.040,0.040,0.000,0.000,0.000
1644350988613115136,2022-02-08-20:09:48,10.1.1.9,38,0.050,0.050,0.050,0.000,0.000,0.000
1644350988713082112,2022-02-08-20:09:48,10.1.1.9,37,0.060,0.060,0.060,0.000,0.000,0.000
1644350988813275136,2022-02-08-20:09:48,10.1.1.9,37,0.070,0.070,0.070,0.000,0.000,0.000
1644350988913463040,2022-02-08-20:09:48,10.1.1.9,36,0.080,0.080,0.080,0.000,0.000,0.000
1644350989013523200,2022-02-08-20:09:49,10.1.1.9,36,0.090,0.090,0.090,0.000,0.000,0.000
1644350989113586944,2022-02-08-20:09:49,10.1.1.9,35,0.100,0.100,0.100,0.000,0.000,0.000
1644350989213522944,2022-02-08-20:09:49,10.1.1.9,35,0.090,0.090,0.090,0.000,0.000,0.000
1644350989313467904,2022-02-08-20:09:49,10.1.1.9,34,0.080,0.080,0.080,0.000,0.000,0.000
1644350989413434880,2022-02-08-20:09:49,10.1.1.9,34,0.070,0.070,0.070,0.000,0.000,0.000
1644350989513113088,2022-02-08-20:09:49,10.1.1.9,33,0.060,0.060,0.060,0.000,0.000,0.000
1644350989614115840,2022-02-08-20:09:49,10.1.1.9,33,0.050,0.050,0.050,0.000,0.000,0.000
1644350989713351936,2022-02-08-20:09:49,10.1.1.9,32,0.040,0.040,0.040,0.000,0.000,0.000
1644350989813488896,2022-02-08-20:09:49,10.1.1.9,32,0.030,0.030,0.030,0.000,0.000,0.000
1644350989913584896,2022-02-08-20:09:49,10.1.1.9,32,0.020,0.020,0.020,0.000,0.000,0.000
1644350990015042048,2022-02-08-20:09:50,10.1.1.9,31,0.010,0.010,0.010,0.000,0.000,0.000
1644350990113809152,2022-02-08-20:09:50,10.1.1.9,31,0.000,0.000,0.000,0.000,0.000,0.000
1644350990213326080,2022-02-08-20:09:50,10.1.1.9,30,-0.010,-0.010,-0.010,0.000,0.000,0.000
1644350990313530880,2022-02-08-20:09:50,10.1.1.9,30,-0.020,-0.020,-0.020,0.000,0.000,0.000
1644350990413670912,2022-02-08-20:09:50,10.1.1.9,29,-0.030,-0.030,-0.030,0.000,0.000,0.000
1644350990513564160,2022-02-08-20:09:50,10.1.1.9,28,-0.040,-0.040,-0.040,0.000,0.000,0.000
1644350990613265920,2022-02-08-20:09:50,10.1.1.9,28,-0.050,-0.050,-0.050,0.000,0.000,0.000
1644350990713370112,2022-02-08-20:09:50,10.1.1.9,27,-0.060,-0.060,-0.060,0.000,0.000,0.000
1644350990813500928,2022-02-08-20:09:50,10.1.1.9,27,-0.070,-0.070,-0.070,0.000,0.000,0.000
1644350990913510144,2022-02-08-20:09:50,10.1.1.9,26,-0.080,-0.080,-0.080,0.000,0.000,0.000
1644350991013488128,2022-02-08-20:09:51,10.1.1.9,26,-0.090,-0.090,-0.090,0.000,0.000,0.000
1644350991113063936,2022-02-08-20:09:51,10.1.1.9,25,-0.100,-0.100,-0.100,0.000,0.000,0.000
1644350991213150976,2022-02-08-20:09:51,10.1.1.9,24,-0.090,-0.090,-0.090,0.000,0.000,0.000
1644350991313433856,2022-02-08-20:09:51,10.1.1.9,24,-0.080,-0.080,-0.080,0.000,0.000,0.000
1644350991413367040,2022-02-08-20:09:51,10.1.1.9,23,-0.070,-0.070,-0.070,0.000,0.000,0.000
1644350991513415168,2022-02-08-20:09:51,10.1.1.9,23,-0.060,-0.060,-0.060,0.000,0.000,0.000
1644350991613508096,2022-02-08-20:09:51,10.1.1.9,22,-0.050,-0.050,-0.050,0.000,0.000,0.000
1644350991723564032,2022-02-08-20:09:51,10.1.1.9,22,-0.040,-0.040,-0.040,0.000,0.000,0.000
1644350991813466112,2022-02-08-20:09:51,10.1.1.9,21,-0.030,-0.030,-0.030,0.000,0.000,0.000
1644350991913441024,2022-02-08-20:09:51,10.1.1.9,20,-0.020,-0.020,-0.020,0.000,0.000,0.000
1644350992013988096,2022-02-08-20:09:52,10.1.1.9,20,-0.010,-0.010,-0.010,0.000,0.000,0.000
1644350992113420032,2022-02-08-20:09:52,10.1.1.9,19,-0.000,-0.000,-0.000,0.000,0.000,0.000
1644350992213249024,2022-02-08-20:09:52,10.1.1.9,19,0.009,0.009,0.009,0.000,0.000,0.000
1644350992333369856,2022-02-08-20:09:52,10.1.1.9,35,0.020,0.020,0.020,0.000,0.000,0.000
1644350992433506048,2022-02-08-20:09:52,10.1.1.9,34,0.030,0.030,0.030,0.000,0.000,0.000
1644350992533422848,2022-02-08-20:09:52,10.1.1.9,34,0.040,0.040,0.040,0.000,0.000,0.000
1644350992633369856,2022-02-08-20:09:52,10.1.1.9,34,0.050,0.050,0.050,0.000,0.000,0.000
1644350992733064960,2022-02-08-20:09:52,10.1.1.9,33,0.060,0.060,0.060,0.000,0.000,0.000
1644350992833619200,2022-02-08-20:09:52,10.1.1.9,33,0.070,0.070,0.070,0.000,0.000,0.000
1644350992941689088,2022-02-08-20:09:52,10.1.1.9,32,0.080,0.080,0.080,0.000,0.000,0.000
1644350993033846016,2022-02-08-20:09:53,10.1.1.9,32,0.090,0.090,0.090,0.000,0.000,0.000
1644350993133745920,2022-02-08-20:09:53,10.1.1.9,31,0.100,0.100,0.100,0.000,0.000,0.000
1644350993234457088,2022-02-08-20:09:53,10.1.1.9,30,0.090,0.090,0.090,0.000,0.000,0.000
1644350993336929024,2022-02-08-20:09:53,10.1.1.9,29,0.080,0.080,0.080,0.000,0.000,0.000
1644350993434364160,2022-02-08-20:09:53,10.1.1.9,28,0.070,0.070,0.070,0.000,0.000,0.000
1644350993534749952,2022-02-08-20:09:53,10.1.1.9,28,0.060,0.060,0.060,0.000,0.000,0.000
1644350993633585920,2022-02-08-20:09:53,10.1.1.9,27,0.050,0.050,0.050,0.000,0.000,0.000
1644350993733390080,2022-02-08-20:09:53,10.1.1.9,27,0.040,0.040,0.040,0.000,0.000,0.000
1644350993834520064,2022-02-08-20:09:53,10.1.1.9,26,0.030,0.030,0.030,0.000,0.000,0.000
1644350993933913088,2022-02-08-20:09:53,10.1.1.9,26,0.020,0.020,0.020,0.000,0.000,0.000
1644350994034188032,2022-02-08-20:09:54,10.1.1.9,25,0.010,0.010,0.010,0.000,0.000,0.000
1644350994133837056,2022-02-08-20:09:54,10.1.1.9,25,0.000,0.000,0.000,0.000,0.000,0.000
1644350994233947904,2022-02-08-20:09:54,10.1.1.9,25,-0.010,-0.010,-0.010,0.000,0.000,0.000
1644350994333750016,2022-02-08-20:09:54,10.1.1.9,24,-0.020,-0.020,-0.020,0.000,0.000,0.000
1644350994436996864,2022-02-08-20:09:54,10.1.1.9,27,-0.030,-0.030,-0.030,0.000,0.000,0.000
1644350994533096192,2022-02-08-20:09:54,10.1.1.9,23,-0.040,-0.040,-0.040,0.000,0.000,0.000
1644350994633826048,2022-02-08-20:09:54,10.1.1.9,23,-0.050,-0.050,-0.050,0.000,0.000,0.000
1644350994733078016,2022-02-08-20:09:54,10.1.1.9,22,-0.060,-0.060,-0.060,0.000,0.000,0.000
1644350994834304000,2022-02-08-20:09:54,10.1.1.9,21,-0.070,-0.070,-0.070,0.000,0.000,0.000
1644350994933587968,2022-02-08-20:09:54,10.1.1.9,21,-0.080,-0.080,-0.080,0.000,0.000,0.000
1644350995033178112,2022-02-08-20:09:55,10.1.1.9,21,-0.090,-0.090,-0.090,0.000,0.000,0.000
1644350995133751040,2022-02-08-20:09:55,10.1.1.9,20,-0.100,-0.100,-0.100,0.000,0.000,0.000
1644350995233509120,2022-02-08-20:09:55,10.1.1.9,20,-0.090,-0.090,-0.090,0.000,0.000,0.000
1644350995354213888,2022-02-08-20:09:55,10.1.1.9,38,-0.080,-0.080,-0.080,0.000,0.000,0.000
1644350995453392896,2022-02-08-20:09:55,10.1.1.9,38,-0.070,-0.070,-0.070,0.000,0.000,0.000
1644350995553796096,2022-02-08-20:09:55,10.1.1.9,37,-0.060,-0.060,-0.060,0.000,0.000,0.000
1644350995653703936,2022-02-08-20:09:55,10.1.1.9,37,-0.050,-0.050,-0.050,0.000,0.000,0.000
1644350995753534976,2022-02-08-20:09:55,10.1.1.9,37,-0.040,-0.040,-0.040,0.000,0.000,0.000
1644350995854644992,2022-02-08-20:09:55,10.1.1.9,36,-0.030,-0.030,-0.030,0.000,0.000,0.000
1644350995953586944,2022-02-08-20:09:55,10.1.1.9,36,-0.020,-0.020,-0.020,0.000,0.000,0.000
1644350996053432832,2022-02-08-20:09:56,10.1.1.9,35,-0.010,-0.010,-0.010,0.000,0.000,0.000
1644350996153058048,2022-02-08-20:09:56,10.1.1.9,34,0.000,0.000,0.000,0.000,0.000,0.000
1644350996253846784,2022-02-08-20:09:56,10.1.1.9,34,0.010,0.010,0.010,0.000,0.000,0.000
1644350996353096960,2022-02-08-20:09:56,10.1.1.9,33,0.020,0.020,0.020,0.000,0.000,0.000
1644350996453517056,2022-02-08-20:09:56,10.1.1.9,33,0.030,0.030,0.030,0.000,0.000,0.000
1644350996553605120,2022-02-08-20:09:56,10.1.1.9,33,0.040,0.040,0.040,0.000,0.000,0.000
1644350996653291008,2022-02-08-20:09:56,10.1.1.9,32,0.050,0.050,0.050,0.000,0.000,0.000
1644350996755323904,2022-02-08-20:09:56,10.1.1.9,32,0.060,0.060,0.060,0.000,0.000,0.000
1644350996852859136,2022-02-08-20:09:56,10.1.1.9,31,0.070,0.070,0.070,0.000,0.000,0.000
1644350996953156096,2022-02-08-20:09:56,10.1.1.9,30,0.080,0.080,0.080,0.000,0.000,0.000
1644350997053072896,2022-02-08-20:09:57,10.1.1.9,29,0.090,0.090,0.090,0.000,0.000,0.000
1644350997153295104,2022-02-08-20:09:57,10.1.1.9,29,0.100,0.100,0.100,0.000,0.000,0.000
1644350997215256832,2022-02-08-20:09:57,10.1.1.9,-12,0.100,0.100,0.100,0.000,0.000,0.000
1644350997353867008,2022-02-08-20:09:57,10.1.1.9,26,0.080,0.080,0.080,0.000,0.000,0.000
1644350997454791936,2022-02-08-20:09:57,10.1.1.9,25,0.070,0.070,0.070,0.000,0.000,0.000
1644350997555956992,2022-02-08-20:09:57,10.1.1.9,24,0.060,0.060,0.060,0.000,0.000,0.000
1644350997653908992,2022-02-08-20:09:57,10.1.1.9,23,0.050,0.050,0.050,0.000,0.000,0.000
1644350997754648832,2022-02-08-20:09:57,10.1.1.9,23,0.040,0.040,0.040,0.000,0.000,0.000
1644350997853488896,2022-02-08-20:09:57,10.1.1.9,22,0.030,0.030,0.030,0.000,0.000,0.000
1644350997953484032,2022-02-08-20:09:57,10.1.1.9,21,0.020,0.020,0.020,0.000,0.000,0.000
1644350998053800192,2022-02-08-20:09:58,10.1.1.9,21,0.010,0.010,0.010,0.000,0.000,0.000
1644350998153168896,2022-02-08-20:09:58,10.1.1.9,20,0.000,0.000,0.000,0.000,0.000,0.000
1644350998253264896,2022-02-08-20:09:58,10.1.1.9,20,-0.010,-0.010,-0.010,0.000,0.000,0.000
1644350998353636864,2022-02-08-20:09:58,10.1.1.9,19,-0.019,-0.019,-0.019,0.000,0.000,0.000
1644350998453697024,2022-02-08-20:09:58,10.1.1.9,18,-0.029,-0.029,-0.029,0.000,0.000,0.000
1644350998573582848,2022-02-08-20:09:58,10.1.1.9,38,-0.040,-0.040,-0.040,0.000,0.000,0.000
1644350998673507072,2022-02-08-20:09:58,10.1.1.9,38,-0.050,-0.050,-0.050,0.000,0.000,0.000
1644350998773857024,2022-02-08-20:09:58,10.1.1.9,37,-0.060,-0.060,-0.060,0.000,0.000,0.000
1644350998875286016,2022-02-08-20:09:58,10.1.1.9,35,-0.070,-0.070,-0.070,0.000,0.000,0.000
1644350998973944064,2022-02-08-20:09:58,10.1.1.9,35,-0.080,-0.080,-0.080,0.000,0.000,0.000
1644350999073479936,2022-02-08-20:09:59,10.1.1.9,34,-0.090,-0.090,-0.090,0.000,0.000,0.000
1644350999173954048,2022-02-08-20:09:59,10.1.1.9,34,-0.100,-0.100,-0.100,0.000,0.000,0.000
1644350999273452032,2022-02-08-20:09:59,10.1.1.9,33,-0.090,-0.090,-0.090,0.000,0.000,0.000
1644350999374061056,2022-02-08-20:09:59,10.1.1.9,33,-0.080,-0.080,-0.080,0.000,0.000,0.000
1644350999474083840,2022-02-08-20:09:59,10.1.1.9,32,-0.070,-0.070,-0.070,0.000,0.000,0.000
1644350999573605120,2022-02-08-20:09:59,10.1.1.9,32,-0.060,-0.060,-0.060,0.000,0.000,0.000
1644350999673276928,2022-02-08-20:09:59,10.1.1.9,31,-0.050,-0.050,-0.050,0.000,0.000,0.000
1644350999774366976,2022-02-08-20:09:59,10.1.1.9,30,-0.040,-0.040,-0.040,0.000,0.000,0.000
1644350999873280000,2022-02-08-20:09:59,10.1.1.9,30,-0.030,-0.030,-0.030,0.000,0.000,0.000
1644350999973569024,2022-02-08-20:09:59,10.1.1.9,29,-0.020,-0.020,-0.020,0.000,0.000,0.000
1644351000073923072,2022-02-08-20:10:00,10.1.1.9,28,-0.010,-0.010,-0.010,0.000,0.000,0.000
1644351000173608960,2022-02-08-20:10:00,10.1.1.9,28,0.000,0.000,0.000,0.000,0.000,0.000
1644351000273240064,2022-02-08-20:10:00,10.1.1.9,27,0.010,0.010,0.010,0.000,0.000,0.000
1644351000374181888,2022-02-08-20:10:00,10.1.1.9,26,0.020,0.020,0.020,0.000,0.000,0.000
1644351000473581056,2022-02-08-20:10:00,10.1.1.9,26,0.030,0.030,0.030,0.000,0.000,0.000
1644351000574083072,2022-02-08-20:10:00,10.1.1.9,25,0.040,0.040,0.040,0.000,0.000,0.000
1644351000706546176,2022-02-08-20:10:00,10.1.1.9,32,0.050,0.050,0.050,0.000,0.000,0.000
1644351000794835200,2022-02-08-20:10:00,10.1.1.9,30,0.060,0.060,0.060,0.000,0.000,0.000
1644351000893719040,2022-02-08-20:10:00,10.1.1.9,29,0.070,0.070,0.070,0.000,0.000,0.000
1644351000995537152,2022-02-08-20:10:00,10.1.1.9,28,0.080,0.080,0.080,0.000,0.000,0.000
1644351001094629120,2022-02-08-20:10:01,10.1.1.9,28,0.090,0.090,0.090,0.000,0.000,0.000
1644351001193310976,2022-02-08-20:10:01,10.1.1.9,27,0.100,0.100,0.100,0.000,0.000,0.000
1644351001293459968,2022-02-08-20:10:01,10.1.1.9,27,0.090,0.090,0.090,0.000,0.000,0.000
1644351001393286912,2022-02-08-20:10:01,10.1.1.9,26,0.080,0.080,0.080,0.000,0.000,0.000
1644351001494373120,2022-02-08-20:10:01,10.1.1.9,26,0.070,0.070,0.070,0.000,0.000,0.000
1644351001594811904,2022-02-08-20:10:01,10.1.1.9,23,0.060,0.060,0.060,0.000,0.000,0.000
1644351001693713920,2022-02-08-20:10:01,10.1.1.9,22,0.050,0.050,0.050,0.000,0.000,0.000
1644351001793745920,2022-02-08-20:10:01,10.1.1.9,22,0.040,0.040,0.040,0.000,0.000,0.000
1644351001895209984,2022-02-08-20:10:01,10.1.1.9,22,0.030,0.030,0.030,0.000,0.000,0.000
1644351001993676800,2022-02-08-20:10:01,10.1.1.9,21,0.020,0.020,0.020,0.000,0.000,0.000
1644351002115287040,2022-02-08-20:10:02,10.1.1.9,37,0.010,0.010,0.010,0.000,0.000,0.000
1644351002213457152,2022-02-08-20:10:02,10.1.1.9,36,0.000,0.000,0.000,0.000,0.000,0.000
1644351002313956096,2022-02-08-20:10:02,10.1.1.9,35,-0.010,-0.010,-0.010,0.000,0.000,0.000
1644351002415142144,2022-02-08-20:10:02,10.1.1.9,34,-0.020,-0.020,-0.020,0.000,0.000,0.000
1644351002653603072,2022-02-08-20:10:02,10.1.1.9,37,-0.040,-0.040,-0.040,0.000,0.000,0.000
1644351002755148032,2022-02-08-20:10:02,10.1.1.9,37,-0.050,-0.050,-0.050,0.000,0.000,0.000
1644351002853959936,2022-02-08-20:10:02,10.1.1.9,35,-0.060,-0.060,-0.060,0.000,0.000,0.000
1644351002953362944,2022-02-08-20:10:02,10.1.1.9,34,-0.070,-0.070,-0.070,0.000,0.000,0.000
1644351003054753024,2022-02-08-20:10:03,10.1.1.9,34,-0.080,-0.080,-0.080,0.000,0.000,0.000
1644351003155811072,2022-02-08-20:10:03,10.1.1.9,33,-0.090,-0.090,-0.090,0.000,0.000,0.000
1644351003253982976,2022-02-08-20:10:03,10.1.1.9,32,-0.100,-0.100,-0.100,0.000,0.000,0.000
1644351003354574080,2022-02-08-20:10:03,10.1.1.9,31,-0.090,-0.090,-0.090,0.000,0.000,0.000
1644351003453908992,2022-02-08-20:10:03,10.1.1.9,31,-0.080,-0.080,-0.080,0.000,0.000,0.000
1644351003570642944,2022-02-08-20:10:03,10.1.1.9,30,-0.070,-0.070,-0.070,0.000,0.000,0.000
1644351003653769984,2022-02-08-20:10:03,10.1.1.9,27,-0.060,-0.060,-0.060,0.000,0.000,0.000
1644351003754407936,2022-02-08-20:10:03,10.1.1.9,27,-0.050,-0.050,-0.050,0.000,0.000,0.000
1644351003853420032,2022-02-08-20:10:03,10.1.1.9,26,-0.040,-0.040,-0.040,0.000,0.000,0.000
1644351003953581056,2022-02-08-20:10:03,10.1.1.9,26,-0.030,-0.030,-0.030,0.000,0.000,0.000
1644351004053259008,2022-02-08-20:10:04,10.1.1.9,24,-0.020,-0.020,-0.020,0.000,0.000,0.000
1644351004153594112,2022-02-08-20:10:04,10.1.1.9,24,-0.010,-0.010,-0.010,0.000,0.000,0.000
1644351004253597952,2022-02-08-20:10:04,10.1.1.9,23,0.000,0.000,0.000,0.000,0.000,0.000
1644351004353456896,2022-02-08-20:10:04,10.1.1.9,23,0.010,0.010,0.010,0.000,0.000,0.000
1644351004453568000,2022-02-08-20:10:04,10.1.1.9,22,0.020,0.020,0.020,0.000,0.000,0.000
1644351004553127168,2022-02-08-20:10:04,10.1.1.9,21,0.030,0.030,0.030,0.000,0.000,0.000
1644351004653677056,2022-02-08-20:10:04,10.1.1.9,19,0.040,0.040,0.040,0.000,0.000,0.000
1644351004753520128,2022-02-08-20:10:04,10.1.1.9,19,0.049,0.049,0.049,0.000,0.000,0.000
1644351004853230848,2022-02-08-20:10:04,10.1.1.9,18,0.059,0.059,0.059,0.000,0.000,0.000
1644351004973485056,2022-02-08-20:10:04,10.1.1.9,38,0.070,0.070,0.070,0.000,0.000,0.000
1644351005073200896,2022-02-08-20:10:05,10.1.1.9,37,0.080,0.080,0.080,0.000,0.000,0.000
1644351005175887104,2022-02-08-20:10:05,10.1.1.9,36,0.090,0.090,0.090,0.000,0.000,0.000
1644351005273662208,2022-02-08-20:10:05,10.1.1.9,28,0.100,0.100,0.100,0.000,0.000,0.000
1644351005373470976,2022-02-08-20:10:05,10.1.1.9,28,0.090,0.090,0.090,0.000,0.000,0.000
1644351005473464064,2022-02-08-20:10:05,10.1.1.9,26,0.080,0.080,0.080,0.000,0.000,0.000
1644351005573334016,2022-02-08-20:10:05,10.1.1.9,26,0.070,0.070,0.070,0.000,0.000,0.000
1644351005673604096,2022-02-08-20:10:05,10.1.1.9,25,0.060,0.060,0.060,0.000,0.000,0.000
1644351005773222912,2022-02-08-20:10:05,10.1.1.9,24,0.050,0.050,0.050,0.000,0.000,0.000
1644351005873521152,2022-02-08-20:10:05,10.1.1.9,23,0.040,0.040,0.040,0.000,0.000,0.000
1644351005973581056,2022-02-08-20:10:05,10.1.1.9,22,0.030,0.030,0.030,0.000,0.000,0.000
1644351006073553152,2022-02-08-20:10:06,10.1.1.9,21,0.020,0.020,0.020,0.000,0.000,0.000
1644351006173764096,2022-02-08-20:10:06,10.1.1.9,21,0.010,0.010,0.010,0.000,0.000,0.000
1644351006293936896,2022-02-08-20:10:06,10.1.1.9,38,0.000,0.000,0.000,0.000,0.000,0.000
1644351006394330112,2022-02-08-20:10:06,10.1.1.9,38,-0.010,-0.010,-0.010,0.000,0.000,0.000
1644351006494810112,2022-02-08-20:10:06,10.1.1.9,37,-0.020,-0.020,-0.020,0.000,0.000,0.000
1644351006593383936,2022-02-08-20:10:06,10.1.1.9,35,-0.030,-0.030,-0.030,0.000,0.000,0.000
1644351006694196992,2022-02-08-20:10:06,10.1.1.9,35,-0.040,-0.040,-0.040,0.000,0.000,0.000
1644351006793314816,2022-02-08-20:10:06,10.1.1.9,34,-0.050,-0.050,-0.050,0.000,0.000,0.000
1644351006894937088,2022-02-08-20:10:06,10.1.1.9,34,-0.060,-0.060,-0.060,0.000,0.000,0.000
1644351006993803008,2022-02-08-20:10:06,10.1.1.9,33,-0.070,-0.070,-0.070,0.000,0.000,0.000
1644351007113641984,2022-02-08-20:10:07,10.1.1.9,26,-0.080,-0.080,-0.080,0.000,0.000,0.000
1644351007213475072,2022-02-08-20:10:07,10.1.1.9,25,-0.090,-0.090,-0.090,0.000,0.000,0.000
1644351007313843968,2022-02-08-20:10:07,10.1.1.9,24,-0.100,-0.100,-0.100,0.000,0.000,0.000
1644351007413816064,2022-02-08-20:10:07,10.1.1.9,23,-0.090,-0.090,-0.090,0.000,0.000,0.000
1644351007514406912,2022-02-08-20:10:07,10.1.1.9,23,-0.080,-0.080,-0.080,0.000,0.000,0.000
1644351007613790976,2022-02-08-20:10:07,10.1.1.9,22,-0.070,-0.070,-0.070,0.000,0.000,0.000
1644351007714818048,2022-02-08-20:10:07,10.1.1.9,22,-0.060,-0.060,-0.060,0.000,0.000,0.000
1644351007933268992,2022-02-08-20:10:07,10.1.1.9,39,-0.040,-0.040,-0.040,0.000,0.000,0.000
1644351008034735872,2022-02-08-20:10:08,10.1.1.9,38,-0.030,-0.030,-0.030,0.000,0.000,0.000
1644351008134707968,2022-02-08-20:10:08,10.1.1.9,38,-0.020,-0.020,-0.020,0.000,0.000,0.000
1644351008233581056,2022-02-08-20:10:08,10.1.1.9,37,-0.010,-0.010,-0.010,0.000,0.000,0.000
1644351008333777920,2022-02-08-20:10:08,10.1.1.9,34,0.000,0.000,0.000,0.000,0.000,0.000
1644351008434007808,2022-02-08-20:10:08,10.1.1.9,34,0.010,0.010,0.010,0.000,0.000,0.000
1644351008533812992,2022-02-08-20:10:08,10.1.1.9,33,0.020,0.020,0.020,0.000,0.000,0.000
1644351008633793024,2022-02-08-20:10:08,10.1.1.9,33,0.030,0.030,0.030,0.000,0.000,0.000
1644351008745970944,2022-02-08-20:10:08,10.1.1.9,32,0.040,0.040,0.040,0.000,0.000,0.000
1644351008834322944,2022-02-08-20:10:08,10.1.1.9,21,0.050,0.050,0.050,0.000,0.000,0.000
1644351008933712896,2022-02-08-20:10:08,10.1.1.9,20,0.060,0.060,0.060,0.000,0.000,0.000
1644351009033524992,2022-02-08-20:10:09,10.1.1.9,20,0.070,0.070,0.070,0.000,0.000,0.000
1644351009181044992,2022-02-08-20:10:09,10.1.1.9,29,0.080,0.080,0.080,0.000,0.000,0.000
1644351009253654016,2022-02-08-20:10:09,10.1.1.9,27,0.090,0.090,0.090,0.000,0.000,0.000
1644351009353701120,2022-02-08-20:10:09,10.1.1.9,27,0.100,0.100,0.100,0.000,0.000,0.000
1644351009456235008,2022-02-08-20:10:09,10.1.1.9,27,0.090,0.090,0.090,0.000,0.000,0.000
1644351009575393792,2022-02-08-20:10:09,10.1.1.9,38,0.080,0.080,0.080,0.000,0.000,0.000
1644351009673608192,2022-02-08-20:10:09,10.1.1.9,37,0.070,0.070,0.070,0.000,0.000,0.000
1644351009775270912,2022-02-08-20:10:09,10.1.1.9,36,0.060,0.060,0.060,0.000,0.000,0.000
1644351009873799936,2022-02-08-20:10:09,10.1.1.9,34,0.050,0.050,0.050,0.000,0.000,0.000
1644351009973915136,2022-02-08-20:10:09,10.1.1.9,33,0.040,0.040,0.040,0.000,0.000,0.000
1644351010073312000,2022-02-08-20:10:10,10.1.1.9,33,0.030,0.030,0.030,0.000,0.000,0.000
1644351010173927168,2022-02-08-20:10:10,10.1.1.9,32,0.020,0.020,0.020,0.000,0.000,0.000
1644351010274130944,2022-02-08-20:10:10,10.1.1.9,32,0.010,0.010,0.010,0.000,0.000,0.000
1644351010375339008,2022-02-08-20:10:10,10.1.1.9,31,0.000,0.000,0.000,0.000,0.000,0.000
1644351010475531008,2022-02-08-20:10:10,10.1.1.9,30,-0.010,-0.010,-0.010,0.000,0.000,0.000
1644351010573654016,2022-02-08-20:10:10,10.1.1.9,28,-0.020,-0.020,-0.020,0.000,0.000,0.000
1644351010681014016,2022-02-08-20:10:10,10.1.1.9,27,-0.030,-0.030,-0.030,0.000,0.000,0.000
1644351010774481152,2022-02-08-20:10:10,10.1.1.9,27,-0.040,-0.040,-0.040,0.000,0.000,0.000
1644351010874646784,2022-02-08-20:10:10,10.1.1.9,25,-0.050,-0.050,-0.050,0.000,0.000,0.000
1644351010975298048,2022-02-08-20:10:10,10.1.1.9,23,-0.060,-0.060,-0.060,0.000,0.000,0.000
1644351011075688960,2022-02-08-20:10:11,10.1.1.9,19,-0.070,-0.070,-0.070,0.000,0.000,0.000
1644351011196150016,2022-02-08-20:10:11,10.1.1.9,38,-0.080,-0.080,-0.080,0.000,0.000,0.000
1644351011294904832,2022-02-08-20:10:11,10.1.1.9,38,-0.090,-0.090,-0.090,0.000,0.000,0.000
1644351011395304960,2022-02-08-20:10:11,10.1.1.9,38,-0.100,-0.100,-0.100,0.000,0.000,0.000
1644351011494454016,2022-02-08-20:10:11,10.1.1.9,37,-0.090,-0.090,-0.090,0.000,0.000,0.000
1644351011593372160,2022-02-08-20:10:11,10.1.1.9,37,-0.080,-0.080,-0.080,0.000,0.000,0.000
1644351011693612032,2022-02-08-20:10:11,10.1.1.9,36,-0.070,-0.070,-0.070,0.000,0.000,0.000
1644351011793922816,2022-02-08-20:10:11,10.1.1.9,36,-0.060,-0.060,-0.060,0.000,0.000,0.000
1644351011894620928,2022-02-08-20:10:11,10.1.1.9,35,-0.050,-0.050,-0.050,0.000,0.000,0.000
1644351011993814016,2022-02-08-20:10:11,10.1.1.9,34,-0.040,-0.040,-0.040,0.000,0.000,0.000
1644351012093539072,2022-02-08-20:10:12,10.1.1.9,34,-0.030,-0.030,-0.030,0.000,0.000,0.000
1644351012194194944,2022-02-08-20:10:12,10.1.1.9,34,-0.020,-0.020,-0.020,0.000,0.000,0.000
1644351012293484800,2022-02-08-20:10:12,10.1.1.9,33,-0.010,-0.010,-0.010,0.000,0.000,0.000
1644351012393594880,2022-02-08-20:10:12,10.1.1.9,32,0.000,0.000,0.000,0.000,0.000,0.000
1644351012494225920,2022-02-08-20:10:12,10.1.1.9,31,0.010,0.010,0.010,0.000,0.000,0.000
1644351012593918208,2022-02-08-20:10:12,10.1.1.9,30,0.020,0.020,0.020,0.000,0.000,0.000
1644351012694000896,2022-02-08-20:10:12,10.1.1.9,29,0.030,0.030,0.030,0.000,0.000,0.000
1644351012793765120,2022-02-08-20:10:12,10.1.1.9,27,0.040,0.040,0.040,0.000,0.000,0.000
1644351012894999040,2022-02-08-20:10:12,10.1.1.9,27,0.050,0.050,0.050,0.000,0.000,0.000
1644351012995003904,2022-02-08-20:10:12,10.1.1.9,26,0.060,0.060,0.060,0.000,0.000,0.000
1644351013093327872,2022-02-08-20:10:13,10.1.1.9,26,0.070,0.070,0.070,0.000,0.000,0.000
1644351013193628160,2022-02-08-20:10:13,10.1.1.9,25,0.080,0.080,0.080,0.000,0.000,0.000
1644351013293633024,2022-02-08-20:10:13,10.1.1.9,24,0.090,0.090,0.090,0.000,0.000,0.000
1644351013394177024,2022-02-08-20:10:13,10.1.1.9,24,0.100,0.100,0.100,0.000,0.000,0.000
1644351013493405952,2022-02-08-20:10:13,10.1.1.9,24,0.090,0.090,0.090,0.000,0.000,0.000
1644351013593252864,2022-02-08-20:10:13,10.1.1.9,23,0.080,0.080,0.080,0.000,0.000,0.000
1644351013693857024,2022-02-08-20:10:13,10.1.1.9,23,0.070,0.070,0.070,0.000,0.000,0.000
1644351013793321984,2022-02-08-20:10:13,10.1.1.9,22,0.060,0.060,0.060,0.000,0.000,0.000
1644351013893975040,2022-02-08-20:10:13,10.1.1.9,22,0.050,0.050,0.050,0.000,0.000,0.000
1644351013993393920,2022-02-08-20:10:13,10.1.1.9,21,0.040,0.040,0.040,0.000,0.000,0.000
1644351014093848832,2022-02-08-20:10:14,10.1.1.9,20,0.030,0.030,0.030,0.000,0.000,0.000
1644351014193865984,2022-02-08-20:10:14,10.1.1.9,19,0.021,0.021,0.021,0.000,0.000,0.000
1644351014313602048,2022-02-08-20:10:14,10.1.1.9,38,0.010,0.010,0.010,0.000,0.000,0.000
