FedericoMungari/DigitalTwin_service/01_WiredScenario/Output/Output_script/script_rosapi_2_output_robots12_freq0_11.txt
timestamp,date,node,latency,joint_1,joint_2,joint_3,joint_4,joint_5,joint_6
1641234797399424000,2022-01-03-18:33:17,10.1.1.12,202,-0.030,-0.030,-0.030,0.000,0.000,0.000
1641234797611355136,2022-01-03-18:33:17,10.1.1.12,201,-0.040,-0.040,-0.040,0.000,0.000,0.000
1641234797810188032,2022-01-03-18:33:17,10.1.1.12,196,-0.050,-0.050,-0.050,0.000,0.000,0.000
1641234798010514944,2022-01-03-18:33:18,10.1.1.12,191,-0.060,-0.060,-0.060,0.000,0.000,0.000
1641234798220406016,2022-01-03-18:33:18,10.1.1.12,200,-0.070,-0.070,-0.070,0.000,0.000,0.000
1641234798420713984,2022-01-03-18:33:18,10.1.1.12,200,-0.080,-0.080,-0.080,0.000,0.000,0.000
1641234798620708096,2022-01-03-18:33:18,10.1.1.12,198,-0.090,-0.090,-0.090,0.000,0.000,0.000
1641234799420752896,2022-01-03-18:33:19,10.1.1.12,191,-0.130,-0.130,-0.130,0.000,0.000,0.000
1641234799620795136,2022-01-03-18:33:19,10.1.1.12,191,-0.140,-0.140,-0.140,0.000,0.000,0.000
1641234799831118080,2022-01-03-18:33:19,10.1.1.12,200,-0.150,-0.150,-0.150,0.000,0.000,0.000
1641234801841250816,2022-01-03-18:33:21,10.1.1.12,199,-0.250,-0.250,-0.250,0.000,0.000,0.000
1641234802041990144,2022-01-03-18:33:22,10.1.1.12,197,-0.260,-0.260,-0.260,0.000,0.000,0.000
1641234802241286912,2022-01-03-18:33:22,10.1.1.12,198,-0.270,-0.270,-0.270,0.000,0.000,0.000
1641234802441232896,2022-01-03-18:33:22,10.1.1.12,196,-0.280,-0.280,-0.280,0.000,0.000,0.000
1641234802640280064,2022-01-03-18:33:22,10.1.1.12,193,-0.290,-0.290,-0.290,0.000,0.000,0.000
1641234802840852992,2022-01-03-18:33:22,10.1.1.12,192,-0.300,-0.300,-0.300,0.000,0.000,0.000
1641234803860425984,2022-01-03-18:33:23,10.1.1.12,195,-0.350,-0.350,-0.350,0.000,0.000,0.000
1641234804269516032,2022-01-03-18:33:24,10.1.1.12,200,-0.370,-0.370,-0.370,0.000,0.000,0.000
1641234804461385984,2022-01-03-18:33:24,10.1.1.12,190,-0.380,-0.380,-0.380,0.000,0.000,0.000
1641234804661799936,2022-01-03-18:33:24,10.1.1.12,189,-0.390,-0.390,-0.390,0.000,0.000,0.000
1641234805469676032,2022-01-03-18:33:25,10.1.1.12,190,-0.430,-0.430,-0.430,0.000,0.000,0.000
1641234805888956928,2022-01-03-18:33:25,10.1.1.12,197,-0.450,-0.450,-0.450,0.000,0.000,0.000
1641234806119014912,2022-01-03-18:33:26,10.1.1.12,195,-0.460,-0.460,-0.460,0.000,0.000,0.000
1641234806739224832,2022-01-03-18:33:26,10.1.1.12,192,-0.490,-0.490,-0.490,0.000,0.000,0.000
1641234807149605888,2022-01-03-18:33:27,10.1.1.12,195,-0.470,-0.470,-0.470,0.000,0.000,0.000
1641234807557188864,2022-01-03-18:33:27,10.1.1.12,199,-0.450,-0.450,-0.450,0.000,0.000,0.000
1641234807757251072,2022-01-03-18:33:27,10.1.1.12,198,-0.440,-0.440,-0.440,0.000,0.000,0.000
1641234807956738048,2022-01-03-18:33:27,10.1.1.12,196,-0.430,-0.430,-0.430,0.000,0.000,0.000
1641234808153255936,2022-01-03-18:33:28,10.1.1.12,192,-0.420,-0.420,-0.420,0.000,0.000,0.000
1641234808606632960,2022-01-03-18:33:28,10.1.1.12,200,-0.400,-0.400,-0.400,0.000,0.000,0.000
1641234809215341056,2022-01-03-18:33:29,10.1.1.12,198,-0.370,-0.370,-0.370,0.000,0.000,0.000
1641234809405131008,2022-01-03-18:33:29,10.1.1.12,188,-0.360,-0.360,-0.360,0.000,0.000,0.000
1641234809615073792,2022-01-03-18:33:29,10.1.1.12,197,-0.350,-0.350,-0.350,0.000,0.000,0.000
1641234809815849984,2022-01-03-18:33:29,10.1.1.12,197,-0.340,-0.340,-0.340,0.000,0.000,0.000
1641234810014561792,2022-01-03-18:33:30,10.1.1.12,195,-0.330,-0.330,-0.330,0.000,0.000,0.000
1641234810213753856,2022-01-03-18:33:30,10.1.1.12,194,-0.320,-0.320,-0.320,0.000,0.000,0.000
1641234810417030144,2022-01-03-18:33:30,10.1.1.12,193,-0.310,-0.310,-0.310,0.000,0.000,0.000
1641234810615974912,2022-01-03-18:33:30,10.1.1.12,193,-0.300,-0.300,-0.300,0.000,0.000,0.000
1641234810814512896,2022-01-03-18:33:30,10.1.1.12,184,-0.290,-0.290,-0.290,0.000,0.000,0.000
1641234811014619136,2022-01-03-18:33:31,10.1.1.12,184,-0.280,-0.280,-0.280,0.000,0.000,0.000
1641234811422224128,2022-01-03-18:33:31,10.1.1.12,189,-0.260,-0.260,-0.260,0.000,0.000,0.000
1641234811632359936,2022-01-03-18:33:31,10.1.1.12,198,-0.250,-0.250,-0.250,0.000,0.000,0.000
1641234811833300992,2022-01-03-18:33:31,10.1.1.12,198,-0.240,-0.240,-0.240,0.000,0.000,0.000
1641234812621624064,2022-01-03-18:33:32,10.1.1.12,183,-0.200,-0.200,-0.200,0.000,0.000,0.000
1641234812830914048,2022-01-03-18:33:32,10.1.1.12,189,-0.190,-0.190,-0.190,0.000,0.000,0.000
1641234813032804096,2022-01-03-18:33:33,10.1.1.12,189,-0.180,-0.180,-0.180,0.000,0.000,0.000
1641234813230521088,2022-01-03-18:33:33,10.1.1.12,184,-0.170,-0.170,-0.170,0.000,0.000,0.000
1641234813430057984,2022-01-03-18:33:33,10.1.1.12,182,-0.160,-0.160,-0.160,0.000,0.000,0.000
1641234813639879936,2022-01-03-18:33:33,10.1.1.12,189,-0.150,-0.150,-0.150,0.000,0.000,0.000
1641234813829252864,2022-01-03-18:33:33,10.1.1.12,179,-0.140,-0.140,-0.140,0.000,0.000,0.000
1641234814040772864,2022-01-03-18:33:34,10.1.1.12,189,-0.130,-0.130,-0.130,0.000,0.000,0.000
1641234814244791040,2022-01-03-18:33:34,10.1.1.12,186,-0.120,-0.120,-0.120,0.000,0.000,0.000
1641234814464339968,2022-01-03-18:33:34,10.1.1.12,197,-0.110,-0.110,-0.110,0.000,0.000,0.000
1641234814660185088,2022-01-03-18:33:34,10.1.1.12,195,-0.100,-0.100,-0.100,0.000,0.000,0.000
1641234814848499968,2022-01-03-18:33:34,10.1.1.12,181,-0.090,-0.090,-0.090,0.000,0.000,0.000
1641234815058904832,2022-01-03-18:33:35,10.1.1.12,189,-0.080,-0.080,-0.080,0.000,0.000,0.000
1641234815252009984,2022-01-03-18:33:35,10.1.1.12,183,-0.070,-0.070,-0.070,0.000,0.000,0.000
1641234815450836992,2022-01-03-18:33:35,10.1.1.12,181,-0.060,-0.060,-0.060,0.000,0.000,0.000
1641234815646974208,2022-01-03-18:33:35,10.1.1.12,177,-0.050,-0.050,-0.050,0.000,0.000,0.000
1641234815846659840,2022-01-03-18:33:35,10.1.1.12,176,-0.040,-0.040,-0.040,0.000,0.000,0.000
1641234816055820032,2022-01-03-18:33:36,10.1.1.12,185,-0.030,-0.030,-0.030,0.000,0.000,0.000
1641234816265677056,2022-01-03-18:33:36,10.1.1.12,193,-0.020,-0.020,-0.020,0.000,0.000,0.000
1641234816457061120,2022-01-03-18:33:36,10.1.1.12,183,-0.010,-0.010,-0.010,0.000,0.000,0.000
1641234816655115008,2022-01-03-18:33:36,10.1.1.12,180,0.000,0.000,0.000,0.000,0.000,0.000
1641234816865902848,2022-01-03-18:33:36,10.1.1.12,190,-0.010,-0.010,-0.010,0.000,0.000,0.000
1641234817074769920,2022-01-03-18:33:37,10.1.1.12,198,-0.020,-0.020,-0.020,0.000,0.000,0.000
1641234817254322944,2022-01-03-18:33:37,10.1.1.12,177,-0.030,-0.030,-0.030,0.000,0.000,0.000
1641234817464464896,2022-01-03-18:33:37,10.1.1.12,186,-0.040,-0.040,-0.040,0.000,0.000,0.000
1641234817674212864,2022-01-03-18:33:37,10.1.1.12,194,-0.050,-0.050,-0.050,0.000,0.000,0.000
1641234817880433152,2022-01-03-18:33:37,10.1.1.12,200,-0.060,-0.060,-0.060,0.000,0.000,0.000
1641234818076544000,2022-01-03-18:33:38,10.1.1.12,193,-0.070,-0.070,-0.070,0.000,0.000,0.000
1641234818262348032,2022-01-03-18:33:38,10.1.1.12,177,-0.080,-0.080,-0.080,0.000,0.000,0.000
1641234818477449984,2022-01-03-18:33:38,10.1.1.12,191,-0.090,-0.090,-0.090,0.000,0.000,0.000
1641234818662190848,2022-01-03-18:33:38,10.1.1.12,175,-0.100,-0.100,-0.100,0.000,0.000,0.000
1641234818872037888,2022-01-03-18:33:38,10.1.1.12,184,-0.110,-0.110,-0.110,0.000,0.000,0.000
1641234819082292992,2022-01-03-18:33:39,10.1.1.12,188,-0.120,-0.120,-0.120,0.000,0.000,0.000
1641234819280945152,2022-01-03-18:33:39,10.1.1.12,184,-0.130,-0.130,-0.130,0.000,0.000,0.000
1641234819472076800,2022-01-03-18:33:39,10.1.1.12,174,-0.140,-0.140,-0.140,0.000,0.000,0.000
1641234819671081984,2022-01-03-18:33:39,10.1.1.12,173,-0.150,-0.150,-0.150,0.000,0.000,0.000
1641234819870446080,2022-01-03-18:33:39,10.1.1.12,171,-0.160,-0.160,-0.160,0.000,0.000,0.000
1641234820080247040,2022-01-03-18:33:40,10.1.1.12,178,-0.170,-0.170,-0.170,0.000,0.000,0.000
1641234820281894912,2022-01-03-18:33:40,10.1.1.12,179,-0.180,-0.180,-0.180,0.000,0.000,0.000
1641234820491075072,2022-01-03-18:33:40,10.1.1.12,186,-0.190,-0.190,-0.190,0.000,0.000,0.000
1641234820680794880,2022-01-03-18:33:40,10.1.1.12,175,-0.200,-0.200,-0.200,0.000,0.000,0.000
1641234820881152000,2022-01-03-18:33:40,10.1.1.12,173,-0.210,-0.210,-0.210,0.000,0.000,0.000
1641234821301611776,2022-01-03-18:33:41,10.1.1.12,183,-0.230,-0.230,-0.230,0.000,0.000,0.000
1641234821519336960,2022-01-03-18:33:41,10.1.1.12,199,-0.240,-0.240,-0.240,0.000,0.000,0.000
1641234821701693184,2022-01-03-18:33:41,10.1.1.12,179,-0.250,-0.250,-0.250,0.000,0.000,0.000
1641234821914088960,2022-01-03-18:33:41,10.1.1.12,191,-0.260,-0.260,-0.260,0.000,0.000,0.000
1641234822101999104,2022-01-03-18:33:42,10.1.1.12,177,-0.270,-0.270,-0.270,0.000,0.000,0.000
1641234822301587968,2022-01-03-18:33:42,10.1.1.12,175,-0.280,-0.280,-0.280,0.000,0.000,0.000
1641234822512784896,2022-01-03-18:33:42,10.1.1.12,184,-0.290,-0.290,-0.290,0.000,0.000,0.000
1641234822701915136,2022-01-03-18:33:42,10.1.1.12,171,-0.300,-0.300,-0.300,0.000,0.000,0.000
1641234822913608960,2022-01-03-18:33:42,10.1.1.12,181,-0.310,-0.310,-0.310,0.000,0.000,0.000
1641234823118444032,2022-01-03-18:33:43,10.1.1.12,184,-0.320,-0.320,-0.320,0.000,0.000,0.000
1641234823322454016,2022-01-03-18:33:43,10.1.1.12,187,-0.330,-0.330,-0.330,0.000,0.000,0.000
1641234823525058048,2022-01-03-18:33:43,10.1.1.12,189,-0.340,-0.340,-0.340,0.000,0.000,0.000
1641234823738316032,2022-01-03-18:33:43,10.1.1.12,201,-0.350,-0.350,-0.350,0.000,0.000,0.000
1641234823922315008,2022-01-03-18:33:43,10.1.1.12,179,-0.360,-0.360,-0.360,0.000,0.000,0.000
1641234824123971840,2022-01-03-18:33:44,10.1.1.12,178,-0.370,-0.370,-0.370,0.000,0.000,0.000
1641234824334824960,2022-01-03-18:33:44,10.1.1.12,184,-0.380,-0.380,-0.380,0.000,0.000,0.000
1641234824732379904,2022-01-03-18:33:44,10.1.1.12,180,-0.400,-0.400,-0.400,0.000,0.000,0.000
1641234824932796928,2022-01-03-18:33:44,10.1.1.12,180,-0.410,-0.410,-0.410,0.000,0.000,0.000
1641234825142402816,2022-01-03-18:33:45,10.1.1.12,188,-0.420,-0.420,-0.420,0.000,0.000,0.000
1641234825343478016,2022-01-03-18:33:45,10.1.1.12,188,-0.430,-0.430,-0.430,0.000,0.000,0.000
1641234825533235200,2022-01-03-18:33:45,10.1.1.12,174,-0.440,-0.440,-0.440,0.000,0.000,0.000
1641234825742733056,2022-01-03-18:33:45,10.1.1.12,183,-0.450,-0.450,-0.450,0.000,0.000,0.000
1641234825944699136,2022-01-03-18:33:45,10.1.1.12,183,-0.460,-0.460,-0.460,0.000,0.000,0.000
1641234826154455808,2022-01-03-18:33:46,10.1.1.12,191,-0.470,-0.470,-0.470,0.000,0.000,0.000
1641234826352520960,2022-01-03-18:33:46,10.1.1.12,188,-0.480,-0.480,-0.480,0.000,0.000,0.000
1641234826545505024,2022-01-03-18:33:46,10.1.1.12,179,-0.490,-0.490,-0.490,0.000,0.000,0.000
1641234826752485120,2022-01-03-18:33:46,10.1.1.12,185,-0.480,-0.480,-0.480,0.000,0.000,0.000
1641234826958236928,2022-01-03-18:33:46,10.1.1.12,189,-0.470,-0.470,-0.470,0.000,0.000,0.000
1641234827143632896,2022-01-03-18:33:47,10.1.1.12,172,-0.460,-0.460,-0.460,0.000,0.000,0.000
1641234827354790912,2022-01-03-18:33:47,10.1.1.12,183,-0.450,-0.450,-0.450,0.000,0.000,0.000
1641234827763977984,2022-01-03-18:33:47,10.1.1.12,187,-0.430,-0.430,-0.430,0.000,0.000,0.000
1641234827974616064,2022-01-03-18:33:47,10.1.1.12,197,-0.420,-0.420,-0.420,0.000,0.000,0.000
1641234828166569984,2022-01-03-18:33:48,10.1.1.12,188,-0.410,-0.410,-0.410,0.000,0.000,0.000
1641234828374764800,2022-01-03-18:33:48,10.1.1.12,195,-0.400,-0.400,-0.400,0.000,0.000,0.000
1641234828555057152,2022-01-03-18:33:48,10.1.1.12,175,-0.390,-0.390,-0.390,0.000,0.000,0.000
1641234828770170880,2022-01-03-18:33:48,10.1.1.12,181,-0.380,-0.380,-0.380,0.000,0.000,0.000
1641234828977673984,2022-01-03-18:33:48,10.1.1.12,191,-0.370,-0.370,-0.370,0.000,0.000,0.000
1641234829383886080,2022-01-03-18:33:49,10.1.1.12,191,-0.350,-0.350,-0.350,0.000,0.000,0.000
1641234829574907136,2022-01-03-18:33:49,10.1.1.12,177,-0.340,-0.340,-0.340,0.000,0.000,0.000
1641234829772061184,2022-01-03-18:33:49,10.1.1.12,173,-0.330,-0.330,-0.330,0.000,0.000,0.000
1641234829981808896,2022-01-03-18:33:49,10.1.1.12,179,-0.320,-0.320,-0.320,0.000,0.000,0.000
1641234830183916032,2022-01-03-18:33:50,10.1.1.12,181,-0.310,-0.310,-0.310,0.000,0.000,0.000
1641234830392604160,2022-01-03-18:33:50,10.1.1.12,189,-0.300,-0.300,-0.300,0.000,0.000,0.000
1641234830591932928,2022-01-03-18:33:50,10.1.1.12,186,-0.290,-0.290,-0.290,0.000,0.000,0.000
1641234830784750080,2022-01-03-18:33:50,10.1.1.12,178,-0.280,-0.280,-0.280,0.000,0.000,0.000
1641234830982268160,2022-01-03-18:33:50,10.1.1.12,175,-0.270,-0.270,-0.270,0.000,0.000,0.000
1641234831182014976,2022-01-03-18:33:51,10.1.1.12,174,-0.260,-0.260,-0.260,0.000,0.000,0.000
1641234831391408896,2022-01-03-18:33:51,10.1.1.12,182,-0.250,-0.250,-0.250,0.000,0.000,0.000
1641234831582232832,2022-01-03-18:33:51,10.1.1.12,172,-0.240,-0.240,-0.240,0.000,0.000,0.000
1641234831796153088,2022-01-03-18:33:51,10.1.1.12,185,-0.230,-0.230,-0.230,0.000,0.000,0.000
1641234831993431040,2022-01-03-18:33:51,10.1.1.12,181,-0.220,-0.220,-0.220,0.000,0.000,0.000
1641234832200995840,2022-01-03-18:33:52,10.1.1.12,175,-0.210,-0.210,-0.210,0.000,0.000,0.000
1641234832401828096,2022-01-03-18:33:52,10.1.1.12,172,-0.200,-0.200,-0.200,0.000,0.000,0.000
1641234832600665088,2022-01-03-18:33:52,10.1.1.12,170,-0.190,-0.190,-0.190,0.000,0.000,0.000
1641234832800529920,2022-01-03-18:33:52,10.1.1.12,169,-0.180,-0.180,-0.180,0.000,0.000,0.000
1641234833030729984,2022-01-03-18:33:53,10.1.1.12,196,-0.170,-0.170,-0.170,0.000,0.000,0.000
1641234833233043968,2022-01-03-18:33:53,10.1.1.12,191,-0.160,-0.160,-0.160,0.000,0.000,0.000
1641234833424171008,2022-01-03-18:33:53,10.1.1.12,181,-0.150,-0.150,-0.150,0.000,0.000,0.000
1641234833621323008,2022-01-03-18:33:53,10.1.1.12,176,-0.140,-0.140,-0.140,0.000,0.000,0.000
1641234833830768128,2022-01-03-18:33:53,10.1.1.12,183,-0.130,-0.130,-0.130,0.000,0.000,0.000
1641234834021501184,2022-01-03-18:33:54,10.1.1.12,171,-0.120,-0.120,-0.120,0.000,0.000,0.000
1641234834241565952,2022-01-03-18:33:54,10.1.1.12,190,-0.110,-0.110,-0.110,0.000,0.000,0.000
1641234834443090944,2022-01-03-18:33:54,10.1.1.12,190,-0.100,-0.100,-0.100,0.000,0.000,0.000
1641234834630115072,2022-01-03-18:33:54,10.1.1.12,176,-0.090,-0.090,-0.090,0.000,0.000,0.000
1641234834842066944,2022-01-03-18:33:54,10.1.1.12,188,-0.080,-0.080,-0.080,0.000,0.000,0.000
1641234835036556032,2022-01-03-18:33:55,10.1.1.12,181,-0.070,-0.070,-0.070,0.000,0.000,0.000
1641234835238870016,2022-01-03-18:33:55,10.1.1.12,180,-0.060,-0.060,-0.060,0.000,0.000,0.000
1641234835480110848,2022-01-03-18:33:55,10.1.1.12,187,-0.050,-0.050,-0.050,0.000,0.000,0.000
1641234835678919936,2022-01-03-18:33:55,10.1.1.12,184,-0.040,-0.040,-0.040,0.000,0.000,0.000
1641234835870999040,2022-01-03-18:33:55,10.1.1.12,175,-0.030,-0.030,-0.030,0.000,0.000,0.000
1641234836090110976,2022-01-03-18:33:56,10.1.1.12,188,-0.020,-0.020,-0.020,0.000,0.000,0.000
1641234836278496000,2022-01-03-18:33:56,10.1.1.12,176,-0.010,-0.010,-0.010,0.000,0.000,0.000
1641234836479234816,2022-01-03-18:33:56,10.1.1.12,176,0.000,0.000,0.000,0.000,0.000,0.000
1641234836696423168,2022-01-03-18:33:56,10.1.1.12,193,-0.010,-0.010,-0.010,0.000,0.000,0.000
1641234836889060864,2022-01-03-18:33:56,10.1.1.12,182,-0.020,-0.020,-0.020,0.000,0.000,0.000
1641234837089207808,2022-01-03-18:33:57,10.1.1.12,182,-0.030,-0.030,-0.030,0.000,0.000,0.000
1641234837277744896,2022-01-03-18:33:57,10.1.1.12,168,-0.040,-0.040,-0.040,0.000,0.000,0.000
1641234837480186880,2022-01-03-18:33:57,10.1.1.12,170,-0.050,-0.050,-0.050,0.000,0.000,0.000
1641234837709476096,2022-01-03-18:33:57,10.1.1.12,196,-0.060,-0.060,-0.060,0.000,0.000,0.000
1641234837887131904,2022-01-03-18:33:57,10.1.1.12,175,-0.070,-0.070,-0.070,0.000,0.000,0.000
1641234838097666048,2022-01-03-18:33:58,10.1.1.12,183,-0.080,-0.080,-0.080,0.000,0.000,0.000
1641234838286656000,2022-01-03-18:33:58,10.1.1.12,172,-0.090,-0.090,-0.090,0.000,0.000,0.000
1641234838486918912,2022-01-03-18:33:58,10.1.1.12,172,-0.100,-0.100,-0.100,0.000,0.000,0.000
1641234838707674112,2022-01-03-18:33:58,10.1.1.12,190,-0.110,-0.110,-0.110,0.000,0.000,0.000
1641234839116239104,2022-01-03-18:33:59,10.1.1.12,168,-0.130,-0.130,-0.130,0.000,0.000,0.000
1641234839318299904,2022-01-03-18:33:59,10.1.1.12,170,-0.140,-0.140,-0.140,0.000,0.000,0.000
1641234839517408000,2022-01-03-18:33:59,10.1.1.12,169,-0.150,-0.150,-0.150,0.000,0.000,0.000
1641234839727400192,2022-01-03-18:33:59,10.1.1.12,178,-0.160,-0.160,-0.160,0.000,0.000,0.000
1641234839937079808,2022-01-03-18:33:59,10.1.1.12,182,-0.170,-0.170,-0.170,0.000,0.000,0.000
1641234840161870848,2022-01-03-18:34:00,10.1.1.12,196,-0.180,-0.180,-0.180,0.000,0.000,0.000
1641234840384922112,2022-01-03-18:34:00,10.1.1.12,166,-0.190,-0.190,-0.190,0.000,0.000,0.000
1641234840595398912,2022-01-03-18:34:00,10.1.1.12,176,-0.200,-0.200,-0.200,0.000,0.000,0.000
1641234840794923008,2022-01-03-18:34:00,10.1.1.12,175,-0.210,-0.210,-0.210,0.000,0.000,0.000
1641234841018024960,2022-01-03-18:34:01,10.1.1.12,196,-0.220,-0.220,-0.220,0.000,0.000,0.000
1641234841204911104,2022-01-03-18:34:01,10.1.1.12,174,-0.230,-0.230,-0.230,0.000,0.000,0.000
1641234841416307968,2022-01-03-18:34:01,10.1.1.12,180,-0.240,-0.240,-0.240,0.000,0.000,0.000
1641234841637732864,2022-01-03-18:34:01,10.1.1.12,181,-0.250,-0.250,-0.250,0.000,0.000,0.000
1641234841834777088,2022-01-03-18:34:01,10.1.1.12,173,-0.260,-0.260,-0.260,0.000,0.000,0.000
1641234842034593024,2022-01-03-18:34:02,10.1.1.12,172,-0.270,-0.270,-0.270,0.000,0.000,0.000
1641234842246157824,2022-01-03-18:34:02,10.1.1.12,184,-0.280,-0.280,-0.280,0.000,0.000,0.000
1641234842436225024,2022-01-03-18:34:02,10.1.1.12,172,-0.290,-0.290,-0.290,0.000,0.000,0.000
1641234842634438912,2022-01-03-18:34:02,10.1.1.12,171,-0.300,-0.300,-0.300,0.000,0.000,0.000
1641234842833911040,2022-01-03-18:34:02,10.1.1.12,169,-0.310,-0.310,-0.310,0.000,0.000,0.000
1641234843046361856,2022-01-03-18:34:03,10.1.1.12,181,-0.320,-0.320,-0.320,0.000,0.000,0.000
1641234843232438016,2022-01-03-18:34:03,10.1.1.12,166,-0.330,-0.330,-0.330,0.000,0.000,0.000
1641234843443543808,2022-01-03-18:34:03,10.1.1.12,176,-0.340,-0.340,-0.340,0.000,0.000,0.000
1641234843654356992,2022-01-03-18:34:03,10.1.1.12,186,-0.350,-0.350,-0.350,0.000,0.000,0.000
1641234843842880000,2022-01-03-18:34:03,10.1.1.12,171,-0.360,-0.360,-0.360,0.000,0.000,0.000
1641234844051934976,2022-01-03-18:34:04,10.1.1.12,177,-0.370,-0.370,-0.370,0.000,0.000,0.000
1641234844251694848,2022-01-03-18:34:04,10.1.1.12,176,-0.380,-0.380,-0.380,0.000,0.000,0.000
1641234844462992896,2022-01-03-18:34:04,10.1.1.12,186,-0.390,-0.390,-0.390,0.000,0.000,0.000
1641234844664335872,2022-01-03-18:34:04,10.1.1.12,185,-0.400,-0.400,-0.400,0.000,0.000,0.000
1641234844859934208,2022-01-03-18:34:04,10.1.1.12,179,-0.410,-0.410,-0.410,0.000,0.000,0.000
1641234845059205120,2022-01-03-18:34:05,10.1.1.12,176,-0.420,-0.420,-0.420,0.000,0.000,0.000
1641234845259473920,2022-01-03-18:34:05,10.1.1.12,175,-0.430,-0.430,-0.430,0.000,0.000,0.000
1641234845448952064,2022-01-03-18:34:05,10.1.1.12,164,-0.440,-0.440,-0.440,0.000,0.000,0.000
1641234845659632896,2022-01-03-18:34:05,10.1.1.12,173,-0.450,-0.450,-0.450,0.000,0.000,0.000
1641234845848761088,2022-01-03-18:34:05,10.1.1.12,162,-0.460,-0.460,-0.460,0.000,0.000,0.000
1641234846060816128,2022-01-03-18:34:06,10.1.1.12,174,-0.470,-0.470,-0.470,0.000,0.000,0.000
1641234846265104128,2022-01-03-18:34:06,10.1.1.12,176,-0.480,-0.480,-0.480,0.000,0.000,0.000
1641234846447496960,2022-01-03-18:34:06,10.1.1.12,157,-0.490,-0.490,-0.490,0.000,0.000,0.000
1641234846665314048,2022-01-03-18:34:06,10.1.1.12,170,-0.480,-0.480,-0.480,0.000,0.000,0.000
1641234846878081024,2022-01-03-18:34:06,10.1.1.12,185,-0.470,-0.470,-0.470,0.000,0.000,0.000
1641234847079556096,2022-01-03-18:34:07,10.1.1.12,186,-0.460,-0.460,-0.460,0.000,0.000,0.000
1641234847257220096,2022-01-03-18:34:07,10.1.1.12,160,-0.450,-0.450,-0.450,0.000,0.000,0.000
1641234847466414848,2022-01-03-18:34:07,10.1.1.12,167,-0.440,-0.440,-0.440,0.000,0.000,0.000
1641234847666724864,2022-01-03-18:34:07,10.1.1.12,167,-0.430,-0.430,-0.430,0.000,0.000,0.000
1641234847866132992,2022-01-03-18:34:07,10.1.1.12,166,-0.420,-0.420,-0.420,0.000,0.000,0.000
1641234848058723072,2022-01-03-18:34:08,10.1.1.12,158,-0.410,-0.410,-0.410,0.000,0.000,0.000
1641234848266959872,2022-01-03-18:34:08,10.1.1.12,161,-0.400,-0.400,-0.400,0.000,0.000,0.000
1641234848465987840,2022-01-03-18:34:08,10.1.1.12,156,-0.390,-0.390,-0.390,0.000,0.000,0.000
1641234848674863104,2022-01-03-18:34:08,10.1.1.12,164,-0.380,-0.380,-0.380,0.000,0.000,0.000
1641234848867271936,2022-01-03-18:34:08,10.1.1.12,156,-0.370,-0.370,-0.370,0.000,0.000,0.000
1641234849075129088,2022-01-03-18:34:09,10.1.1.12,161,-0.360,-0.360,-0.360,0.000,0.000,0.000
1641234849275620096,2022-01-03-18:34:09,10.1.1.12,161,-0.350,-0.350,-0.350,0.000,0.000,0.000
1641234849476246016,2022-01-03-18:34:09,10.1.1.12,156,-0.340,-0.340,-0.340,0.000,0.000,0.000
1641234849685556992,2022-01-03-18:34:09,10.1.1.12,164,-0.330,-0.330,-0.330,0.000,0.000,0.000
1641234849883665152,2022-01-03-18:34:09,10.1.1.12,162,-0.320,-0.320,-0.320,0.000,0.000,0.000
1641234850083798016,2022-01-03-18:34:10,10.1.1.12,160,-0.310,-0.310,-0.310,0.000,0.000,0.000
1641234850295047168,2022-01-03-18:34:10,10.1.1.12,171,-0.300,-0.300,-0.300,0.000,0.000,0.000
1641234850742964992,2022-01-03-18:34:10,10.1.1.12,162,-0.280,-0.280,-0.280,0.000,0.000,0.000
1641234850943454976,2022-01-03-18:34:10,10.1.1.12,153,-0.270,-0.270,-0.270,0.000,0.000,0.000
1641234851144977920,2022-01-03-18:34:11,10.1.1.12,154,-0.260,-0.260,-0.260,0.000,0.000,0.000
1641234851363742976,2022-01-03-18:34:11,10.1.1.12,163,-0.250,-0.250,-0.250,0.000,0.000,0.000
1641234851561041152,2022-01-03-18:34:11,10.1.1.12,157,-0.240,-0.240,-0.240,0.000,0.000,0.000
1641234851790985216,2022-01-03-18:34:11,10.1.1.12,176,-0.230,-0.230,-0.230,0.000,0.000,0.000
1641234851983907840,2022-01-03-18:34:11,10.1.1.12,169,-0.220,-0.220,-0.220,0.000,0.000,0.000
1641234852174734080,2022-01-03-18:34:12,10.1.1.12,158,-0.210,-0.210,-0.210,0.000,0.000,0.000
1641234852373223168,2022-01-03-18:34:12,10.1.1.12,156,-0.200,-0.200,-0.200,0.000,0.000,0.000
1641234852594083072,2022-01-03-18:34:12,10.1.1.12,176,-0.190,-0.190,-0.190,0.000,0.000,0.000
1641234852795692800,2022-01-03-18:34:12,10.1.1.12,177,-0.180,-0.180,-0.180,0.000,0.000,0.000
1641234853002825984,2022-01-03-18:34:13,10.1.1.12,164,-0.170,-0.170,-0.170,0.000,0.000,0.000
1641234853198906880,2022-01-03-18:34:13,10.1.1.12,157,-0.160,-0.160,-0.160,0.000,0.000,0.000
1641234853398585088,2022-01-03-18:34:13,10.1.1.12,156,-0.150,-0.150,-0.150,0.000,0.000,0.000
1641234853614382080,2022-01-03-18:34:13,10.1.1.12,171,-0.140,-0.140,-0.140,0.000,0.000,0.000
1641234853853480960,2022-01-03-18:34:13,10.1.1.12,168,-0.130,-0.130,-0.130,0.000,0.000,0.000
1641234854041757952,2022-01-03-18:34:14,10.1.1.12,154,-0.120,-0.120,-0.120,0.000,0.000,0.000
1641234854247392768,2022-01-03-18:34:14,10.1.1.12,160,-0.110,-0.110,-0.110,0.000,0.000,0.000
1641234854450098944,2022-01-03-18:34:14,10.1.1.12,161,-0.100,-0.100,-0.100,0.000,0.000,0.000
1641234854636765952,2022-01-03-18:34:14,10.1.1.12,147,-0.090,-0.090,-0.090,0.000,0.000,0.000
1641234854846981888,2022-01-03-18:34:14,10.1.1.12,155,-0.080,-0.080,-0.080,0.000,0.000,0.000
1641234855082176000,2022-01-03-18:34:15,10.1.1.12,178,-0.070,-0.070,-0.070,0.000,0.000,0.000
1641234855256336896,2022-01-03-18:34:15,10.1.1.12,159,-0.060,-0.060,-0.060,0.000,0.000,0.000
1641234855457212928,2022-01-03-18:34:15,10.1.1.12,158,-0.050,-0.050,-0.050,0.000,0.000,0.000
1641234855887331840,2022-01-03-18:34:15,10.1.1.12,157,-0.030,-0.030,-0.030,0.000,0.000,0.000
1641234856085395200,2022-01-03-18:34:16,10.1.1.12,152,-0.020,-0.020,-0.020,0.000,0.000,0.000
1641234856504973824,2022-01-03-18:34:16,10.1.1.12,169,0.000,0.000,0.000,0.000,0.000,0.000
1641234856702290176,2022-01-03-18:34:16,10.1.1.12,165,-0.010,-0.010,-0.010,0.000,0.000,0.000
1641234856907501824,2022-01-03-18:34:16,10.1.1.12,166,-0.020,-0.020,-0.020,0.000,0.000,0.000
1641234857095407104,2022-01-03-18:34:17,10.1.1.12,153,-0.030,-0.030,-0.030,0.000,0.000,0.000
1641234857304338944,2022-01-03-18:34:17,10.1.1.12,161,-0.040,-0.040,-0.040,0.000,0.000,0.000
1641234857573853952,2022-01-03-18:34:17,10.1.1.12,162,-0.050,-0.050,-0.050,0.000,0.000,0.000
1641234857834881024,2022-01-03-18:34:17,10.1.1.12,159,-0.060,-0.060,-0.060,0.000,0.000,0.000
1641234858054990080,2022-01-03-18:34:18,10.1.1.12,183,-0.070,-0.070,-0.070,0.000,0.000,0.000
1641234858246189056,2022-01-03-18:34:18,10.1.1.12,158,-0.080,-0.080,-0.080,0.000,0.000,0.000
1641234858447259904,2022-01-03-18:34:18,10.1.1.12,162,-0.090,-0.090,-0.090,0.000,0.000,0.000
1641234858644004096,2022-01-03-18:34:18,10.1.1.12,158,-0.100,-0.100,-0.100,0.000,0.000,0.000
1641234858832040960,2022-01-03-18:34:18,10.1.1.12,144,-0.110,-0.110,-0.110,0.000,0.000,0.000
1641234859031961856,2022-01-03-18:34:19,10.1.1.12,144,-0.120,-0.120,-0.120,0.000,0.000,0.000
1641234859231624960,2022-01-03-18:34:19,10.1.1.12,142,-0.130,-0.130,-0.130,0.000,0.000,0.000
1641234859454174976,2022-01-03-18:34:19,10.1.1.12,164,-0.140,-0.140,-0.140,0.000,0.000,0.000
1641234859681137152,2022-01-03-18:34:19,10.1.1.12,190,-0.150,-0.150,-0.150,0.000,0.000,0.000
1641234859850788096,2022-01-03-18:34:19,10.1.1.12,145,-0.160,-0.160,-0.160,0.000,0.000,0.000
1641234860049961984,2022-01-03-18:34:20,10.1.1.12,145,-0.170,-0.170,-0.170,0.000,0.000,0.000
1641234860255749888,2022-01-03-18:34:20,10.1.1.12,147,-0.180,-0.180,-0.180,0.000,0.000,0.000
1641234860460908800,2022-01-03-18:34:20,10.1.1.12,143,-0.190,-0.190,-0.190,0.000,0.000,0.000
1641234860659075072,2022-01-03-18:34:20,10.1.1.12,140,-0.200,-0.200,-0.200,0.000,0.000,0.000
1641234860869762816,2022-01-03-18:34:20,10.1.1.12,150,-0.210,-0.210,-0.210,0.000,0.000,0.000
1641234861057665024,2022-01-03-18:34:21,10.1.1.12,137,-0.220,-0.220,-0.220,0.000,0.000,0.000
1641234861267568128,2022-01-03-18:34:21,10.1.1.12,146,-0.230,-0.230,-0.230,0.000,0.000,0.000
1641234861487633920,2022-01-03-18:34:21,10.1.1.12,163,-0.240,-0.240,-0.240,0.000,0.000,0.000
1641234861682387968,2022-01-03-18:34:21,10.1.1.12,158,-0.250,-0.250,-0.250,0.000,0.000,0.000
1641234861877017088,2022-01-03-18:34:21,10.1.1.12,151,-0.260,-0.260,-0.260,0.000,0.000,0.000
1641234862067019008,2022-01-03-18:34:22,10.1.1.12,140,-0.270,-0.270,-0.270,0.000,0.000,0.000
1641234862266198016,2022-01-03-18:34:22,10.1.1.12,139,-0.280,-0.280,-0.280,0.000,0.000,0.000
1641234862465905920,2022-01-03-18:34:22,10.1.1.12,138,-0.290,-0.290,-0.290,0.000,0.000,0.000
1641234862679002112,2022-01-03-18:34:22,10.1.1.12,146,-0.300,-0.300,-0.300,0.000,0.000,0.000
1641234862886720768,2022-01-03-18:34:22,10.1.1.12,154,-0.310,-0.310,-0.310,0.000,0.000,0.000
1641234863098928896,2022-01-03-18:34:23,10.1.1.12,165,-0.320,-0.320,-0.320,0.000,0.000,0.000
1641234863274097920,2022-01-03-18:34:23,10.1.1.12,137,-0.330,-0.330,-0.330,0.000,0.000,0.000
1641234863484733952,2022-01-03-18:34:23,10.1.1.12,146,-0.340,-0.340,-0.340,0.000,0.000,0.000
1641234863673203968,2022-01-03-18:34:23,10.1.1.12,134,-0.350,-0.350,-0.350,0.000,0.000,0.000
1641234863874772992,2022-01-03-18:34:23,10.1.1.12,135,-0.360,-0.360,-0.360,0.000,0.000,0.000
1641234864101579008,2022-01-03-18:34:24,10.1.1.12,161,-0.370,-0.370,-0.370,0.000,0.000,0.000
1641234864284161024,2022-01-03-18:34:24,10.1.1.12,137,-0.380,-0.380,-0.380,0.000,0.000,0.000
1641234864483565056,2022-01-03-18:34:24,10.1.1.12,136,-0.390,-0.390,-0.390,0.000,0.000,0.000
1641234864683265024,2022-01-03-18:34:24,10.1.1.12,135,-0.400,-0.400,-0.400,0.000,0.000,0.000
1641234864997585920,2022-01-03-18:34:24,10.1.1.12,159,-0.410,-0.410,-0.410,0.000,0.000,0.000
1641234865153464064,2022-01-03-18:34:25,10.1.1.12,155,-0.420,-0.420,-0.420,0.000,0.000,0.000
1641234865571440896,2022-01-03-18:34:25,10.1.1.12,143,-0.440,-0.440,-0.440,0.000,0.000,0.000
1641234865769430016,2022-01-03-18:34:25,10.1.1.12,140,-0.450,-0.450,-0.450,0.000,0.000,0.000
1641234865959240960,2022-01-03-18:34:25,10.1.1.12,129,-0.460,-0.460,-0.460,0.000,0.000,0.000
1641234866169157120,2022-01-03-18:34:26,10.1.1.12,138,-0.470,-0.470,-0.470,0.000,0.000,0.000
1641234866378955008,2022-01-03-18:34:26,10.1.1.12,148,-0.480,-0.480,-0.480,0.000,0.000,0.000
1641234866589196032,2022-01-03-18:34:26,10.1.1.12,146,-0.490,-0.490,-0.490,0.000,0.000,0.000
1641234866788944896,2022-01-03-18:34:26,10.1.1.12,146,-0.480,-0.480,-0.480,0.000,0.000,0.000
1641234866988149760,2022-01-03-18:34:26,10.1.1.12,144,-0.470,-0.470,-0.470,0.000,0.000,0.000
1641234867178201088,2022-01-03-18:34:27,10.1.1.12,134,-0.460,-0.460,-0.460,0.000,0.000,0.000
1641234867377312000,2022-01-03-18:34:27,10.1.1.12,128,-0.450,-0.450,-0.450,0.000,0.000,0.000
1641234867580417024,2022-01-03-18:34:27,10.1.1.12,130,-0.440,-0.440,-0.440,0.000,0.000,0.000
1641234867777308928,2022-01-03-18:34:27,10.1.1.12,127,-0.430,-0.430,-0.430,0.000,0.000,0.000
1641234867996530944,2022-01-03-18:34:27,10.1.1.12,146,-0.420,-0.420,-0.420,0.000,0.000,0.000
1641234868195988992,2022-01-03-18:34:28,10.1.1.12,144,-0.410,-0.410,-0.410,0.000,0.000,0.000
1641234868404400128,2022-01-03-18:34:28,10.1.1.12,151,-0.400,-0.400,-0.400,0.000,0.000,0.000
1641234868611994880,2022-01-03-18:34:28,10.1.1.12,157,-0.390,-0.390,-0.390,0.000,0.000,0.000
1641234868816966144,2022-01-03-18:34:28,10.1.1.12,135,-0.380,-0.380,-0.380,0.000,0.000,0.000
1641234869015634176,2022-01-03-18:34:29,10.1.1.12,133,-0.370,-0.370,-0.370,0.000,0.000,0.000
1641234869227303936,2022-01-03-18:34:29,10.1.1.12,144,-0.360,-0.360,-0.360,0.000,0.000,0.000
1641234869414470912,2022-01-03-18:34:29,10.1.1.12,128,-0.350,-0.350,-0.350,0.000,0.000,0.000
1641234869643269120,2022-01-03-18:34:29,10.1.1.12,149,-0.340,-0.340,-0.340,0.000,0.000,0.000
1641234869877507840,2022-01-03-18:34:29,10.1.1.12,164,-0.330,-0.330,-0.330,0.000,0.000,0.000
1641234870044318976,2022-01-03-18:34:30,10.1.1.12,138,-0.320,-0.320,-0.320,0.000,0.000,0.000
1641234870232920832,2022-01-03-18:34:30,10.1.1.12,123,-0.310,-0.310,-0.310,0.000,0.000,0.000
1641234870443234816,2022-01-03-18:34:30,10.1.1.12,132,-0.300,-0.300,-0.300,0.000,0.000,0.000
1641234870653048064,2022-01-03-18:34:30,10.1.1.12,141,-0.290,-0.290,-0.290,0.000,0.000,0.000
1641234870713882880,2022-01-03-18:34:30,10.1.1.12,-1,-0.290,-0.290,-0.290,0.000,0.000,0.000
1641234871051153920,2022-01-03-18:34:31,10.1.1.12,134,-0.270,-0.270,-0.270,0.000,0.000,0.000
1641234871252459008,2022-01-03-18:34:31,10.1.1.12,133,-0.260,-0.260,-0.260,0.000,0.000,0.000
1641234871461721856,2022-01-03-18:34:31,10.1.1.12,141,-0.250,-0.250,-0.250,0.000,0.000,0.000
1641234871652105216,2022-01-03-18:34:31,10.1.1.12,131,-0.240,-0.240,-0.240,0.000,0.000,0.000
1641234871853723904,2022-01-03-18:34:31,10.1.1.12,129,-0.230,-0.230,-0.230,0.000,0.000,0.000
1641234872058012928,2022-01-03-18:34:32,10.1.1.12,133,-0.220,-0.220,-0.220,0.000,0.000,0.000
1641234872250475008,2022-01-03-18:34:32,10.1.1.12,125,-0.210,-0.210,-0.210,0.000,0.000,0.000
1641234872449558016,2022-01-03-18:34:32,10.1.1.12,123,-0.200,-0.200,-0.200,0.000,0.000,0.000
1641234872650608896,2022-01-03-18:34:32,10.1.1.12,123,-0.190,-0.190,-0.190,0.000,0.000,0.000
1641234872859760896,2022-01-03-18:34:32,10.1.1.12,131,-0.180,-0.180,-0.180,0.000,0.000,0.000
1641234873048965888,2022-01-03-18:34:33,10.1.1.12,119,-0.170,-0.170,-0.170,0.000,0.000,0.000
1641234873278388992,2022-01-03-18:34:33,10.1.1.12,148,-0.160,-0.160,-0.160,0.000,0.000,0.000
1641234873477700864,2022-01-03-18:34:33,10.1.1.12,142,-0.150,-0.150,-0.150,0.000,0.000,0.000
1641234873657444096,2022-01-03-18:34:33,10.1.1.12,121,-0.140,-0.140,-0.140,0.000,0.000,0.000
1641234873868067072,2022-01-03-18:34:33,10.1.1.12,131,-0.130,-0.130,-0.130,0.000,0.000,0.000
1641234874084647936,2022-01-03-18:34:34,10.1.1.12,139,-0.120,-0.120,-0.120,0.000,0.000,0.000
1641234874276282112,2022-01-03-18:34:34,10.1.1.12,136,-0.110,-0.110,-0.110,0.000,0.000,0.000
1641234874502706176,2022-01-03-18:34:34,10.1.1.12,139,-0.100,-0.100,-0.100,0.000,0.000,0.000
1641234874700205056,2022-01-03-18:34:34,10.1.1.12,138,-0.090,-0.090,-0.090,0.000,0.000,0.000
1641234874885942016,2022-01-03-18:34:34,10.1.1.12,123,-0.080,-0.080,-0.080,0.000,0.000,0.000
1641234875085895936,2022-01-03-18:34:35,10.1.1.12,123,-0.070,-0.070,-0.070,0.000,0.000,0.000
1641234875286267136,2022-01-03-18:34:35,10.1.1.12,123,-0.060,-0.060,-0.060,0.000,0.000,0.000
1641234875525818112,2022-01-03-18:34:35,10.1.1.12,162,-0.050,-0.050,-0.050,0.000,0.000,0.000
1641234875684766976,2022-01-03-18:34:35,10.1.1.12,120,-0.040,-0.040,-0.040,0.000,0.000,0.000
1641234875894478080,2022-01-03-18:34:35,10.1.1.12,128,-0.030,-0.030,-0.030,0.000,0.000,0.000
1641234876083118848,2022-01-03-18:34:36,10.1.1.12,116,-0.020,-0.020,-0.020,0.000,0.000,0.000
1641234876286031104,2022-01-03-18:34:36,10.1.1.12,119,-0.010,-0.010,-0.010,0.000,0.000,0.000
1641234876496378880,2022-01-03-18:34:36,10.1.1.12,124,0.000,0.000,0.000,0.000,0.000,0.000
1641234876726100992,2022-01-03-18:34:36,10.1.1.12,153,-0.010,-0.010,-0.010,0.000,0.000,0.000
1641234876937700864,2022-01-03-18:34:36,10.1.1.12,145,-0.020,-0.020,-0.020,0.000,0.000,0.000
1641234877126080000,2022-01-03-18:34:37,10.1.1.12,133,-0.030,-0.030,-0.030,0.000,0.000,0.000
1641234877322029056,2022-01-03-18:34:37,10.1.1.12,128,-0.040,-0.040,-0.040,0.000,0.000,0.000
1641234877522825984,2022-01-03-18:34:37,10.1.1.12,128,-0.050,-0.050,-0.050,0.000,0.000,0.000
1641234877715023104,2022-01-03-18:34:37,10.1.1.12,118,-0.060,-0.060,-0.060,0.000,0.000,0.000
1641234877925587968,2022-01-03-18:34:37,10.1.1.12,127,-0.070,-0.070,-0.070,0.000,0.000,0.000
1641234878119564032,2022-01-03-18:34:38,10.1.1.12,120,-0.080,-0.080,-0.080,0.000,0.000,0.000
1641234878331151872,2022-01-03-18:34:38,10.1.1.12,131,-0.090,-0.090,-0.090,0.000,0.000,0.000
1641234878532610048,2022-01-03-18:34:38,10.1.1.12,119,-0.100,-0.100,-0.100,0.000,0.000,0.000
1641234878749265920,2022-01-03-18:34:38,10.1.1.12,117,-0.110,-0.110,-0.110,0.000,0.000,0.000
1641234878974537984,2022-01-03-18:34:38,10.1.1.12,139,-0.120,-0.120,-0.120,0.000,0.000,0.000
1641234879168364032,2022-01-03-18:34:39,10.1.1.12,119,-0.130,-0.130,-0.130,0.000,0.000,0.000
1641234879387706880,2022-01-03-18:34:39,10.1.1.12,135,-0.140,-0.140,-0.140,0.000,0.000,0.000
1641234879587362048,2022-01-03-18:34:39,10.1.1.12,134,-0.150,-0.150,-0.150,0.000,0.000,0.000
1641234879777828864,2022-01-03-18:34:39,10.1.1.12,124,-0.160,-0.160,-0.160,0.000,0.000,0.000
1641234879966674176,2022-01-03-18:34:39,10.1.1.12,112,-0.170,-0.170,-0.170,0.000,0.000,0.000
1641234880186713856,2022-01-03-18:34:40,10.1.1.12,128,-0.180,-0.180,-0.180,0.000,0.000,0.000
1641234880386905856,2022-01-03-18:34:40,10.1.1.12,123,-0.190,-0.190,-0.190,0.000,0.000,0.000
1641234880575803136,2022-01-03-18:34:40,10.1.1.12,111,-0.200,-0.200,-0.200,0.000,0.000,0.000
1641234880789196032,2022-01-03-18:34:40,10.1.1.12,124,-0.210,-0.210,-0.210,0.000,0.000,0.000
1641234880996238848,2022-01-03-18:34:40,10.1.1.12,123,-0.220,-0.220,-0.220,0.000,0.000,0.000
1641234881253593856,2022-01-03-18:34:41,10.1.1.12,173,-0.230,-0.230,-0.230,0.000,0.000,0.000
1641234881394330112,2022-01-03-18:34:41,10.1.1.12,113,-0.240,-0.240,-0.240,0.000,0.000,0.000
1641234881596188160,2022-01-03-18:34:41,10.1.1.12,114,-0.250,-0.250,-0.250,0.000,0.000,0.000
1641234881809992960,2022-01-03-18:34:41,10.1.1.12,127,-0.260,-0.260,-0.260,0.000,0.000,0.000
1641234881993683968,2022-01-03-18:34:41,10.1.1.12,111,-0.270,-0.270,-0.270,0.000,0.000,0.000
1641234882205370880,2022-01-03-18:34:42,10.1.1.12,122,-0.280,-0.280,-0.280,0.000,0.000,0.000
1641234882434319104,2022-01-03-18:34:42,10.1.1.12,149,-0.290,-0.290,-0.290,0.000,0.000,0.000
1641234882610241792,2022-01-03-18:34:42,10.1.1.12,122,-0.300,-0.300,-0.300,0.000,0.000,0.000
1641234882794765056,2022-01-03-18:34:42,10.1.1.12,105,-0.310,-0.310,-0.310,0.000,0.000,0.000
1641234883003364096,2022-01-03-18:34:43,10.1.1.12,110,-0.320,-0.320,-0.320,0.000,0.000,0.000
1641234883229943040,2022-01-03-18:34:43,10.1.1.12,132,-0.330,-0.330,-0.330,0.000,0.000,0.000
1641234883422533120,2022-01-03-18:34:43,10.1.1.12,128,-0.340,-0.340,-0.340,0.000,0.000,0.000
1641234883543535104,2022-01-03-18:34:43,10.1.1.12,-38,-0.340,-0.340,-0.340,0.000,0.000,0.000
1641234883859838976,2022-01-03-18:34:43,10.1.1.12,128,-0.360,-0.360,-0.360,0.000,0.000,0.000
1641234884051990016,2022-01-03-18:34:44,10.1.1.12,120,-0.370,-0.370,-0.370,0.000,0.000,0.000
1641234884253249024,2022-01-03-18:34:44,10.1.1.12,120,-0.380,-0.380,-0.380,0.000,0.000,0.000
1641234884453665024,2022-01-03-18:34:44,10.1.1.12,119,-0.390,-0.390,-0.390,0.000,0.000,0.000
1641234884671660800,2022-01-03-18:34:44,10.1.1.12,137,-0.400,-0.400,-0.400,0.000,0.000,0.000
1641234884855868928,2022-01-03-18:34:44,10.1.1.12,120,-0.410,-0.410,-0.410,0.000,0.000,0.000
1641234885058232064,2022-01-03-18:34:45,10.1.1.12,121,-0.420,-0.420,-0.420,0.000,0.000,0.000
1641234885259246080,2022-01-03-18:34:45,10.1.1.12,122,-0.430,-0.430,-0.430,0.000,0.000,0.000
1641234885457943808,2022-01-03-18:34:45,10.1.1.12,120,-0.440,-0.440,-0.440,0.000,0.000,0.000
1641234885858979072,2022-01-03-18:34:45,10.1.1.12,119,-0.460,-0.460,-0.460,0.000,0.000,0.000
1641234886068702976,2022-01-03-18:34:46,10.1.1.12,127,-0.470,-0.470,-0.470,0.000,0.000,0.000
1641234886261959936,2022-01-03-18:34:46,10.1.1.12,120,-0.480,-0.480,-0.480,0.000,0.000,0.000
1641234886465312000,2022-01-03-18:34:46,10.1.1.12,122,-0.490,-0.490,-0.490,0.000,0.000,0.000
1641234886664611072,2022-01-03-18:34:46,10.1.1.12,121,-0.480,-0.480,-0.480,0.000,0.000,0.000
1641234886890326016,2022-01-03-18:34:46,10.1.1.12,146,-0.470,-0.470,-0.470,0.000,0.000,0.000
1641234887085410048,2022-01-03-18:34:47,10.1.1.12,131,-0.460,-0.460,-0.460,0.000,0.000,0.000
1641234887286416128,2022-01-03-18:34:47,10.1.1.12,131,-0.450,-0.450,-0.450,0.000,0.000,0.000
1641234887486675968,2022-01-03-18:34:47,10.1.1.12,129,-0.440,-0.440,-0.440,0.000,0.000,0.000
1641234887697441024,2022-01-03-18:34:47,10.1.1.12,139,-0.430,-0.430,-0.430,0.000,0.000,0.000
1641234887888289024,2022-01-03-18:34:47,10.1.1.12,128,-0.420,-0.420,-0.420,0.000,0.000,0.000
1641234888088160000,2022-01-03-18:34:48,10.1.1.12,125,-0.410,-0.410,-0.410,0.000,0.000,0.000
1641234888290825984,2022-01-03-18:34:48,10.1.1.12,125,-0.400,-0.400,-0.400,0.000,0.000,0.000
1641234888503452928,2022-01-03-18:34:48,10.1.1.12,136,-0.390,-0.390,-0.390,0.000,0.000,0.000
1641234888704769024,2022-01-03-18:34:48,10.1.1.12,128,-0.380,-0.380,-0.380,0.000,0.000,0.000
1641234888912893952,2022-01-03-18:34:48,10.1.1.12,138,-0.370,-0.370,-0.370,0.000,0.000,0.000
1641234889315113984,2022-01-03-18:34:49,10.1.1.12,128,-0.350,-0.350,-0.350,0.000,0.000,0.000
1641234889516665088,2022-01-03-18:34:49,10.1.1.12,127,-0.340,-0.340,-0.340,0.000,0.000,0.000
1641234889735724800,2022-01-03-18:34:49,10.1.1.12,145,-0.330,-0.330,-0.330,0.000,0.000,0.000
1641234889926272000,2022-01-03-18:34:49,10.1.1.12,135,-0.320,-0.320,-0.320,0.000,0.000,0.000
1641234890127641088,2022-01-03-18:34:50,10.1.1.12,135,-0.310,-0.310,-0.310,0.000,0.000,0.000
1641234890328263936,2022-01-03-18:34:50,10.1.1.12,133,-0.300,-0.300,-0.300,0.000,0.000,0.000
1641234890537081088,2022-01-03-18:34:50,10.1.1.12,141,-0.290,-0.290,-0.290,0.000,0.000,0.000
1641234890737485056,2022-01-03-18:34:50,10.1.1.12,141,-0.280,-0.280,-0.280,0.000,0.000,0.000
1641234890932068096,2022-01-03-18:34:50,10.1.1.12,134,-0.270,-0.270,-0.270,0.000,0.000,0.000
1641234891138915072,2022-01-03-18:34:51,10.1.1.12,138,-0.260,-0.260,-0.260,0.000,0.000,0.000
1641234891393955072,2022-01-03-18:34:51,10.1.1.12,191,-0.250,-0.250,-0.250,0.000,0.000,0.000
1641234891570298880,2022-01-03-18:34:51,10.1.1.12,135,-0.240,-0.240,-0.240,0.000,0.000,0.000
1641234891774606080,2022-01-03-18:34:51,10.1.1.12,138,-0.230,-0.230,-0.230,0.000,0.000,0.000
1641234891983319040,2022-01-03-18:34:51,10.1.1.12,146,-0.220,-0.220,-0.220,0.000,0.000,0.000
1641234892225063168,2022-01-03-18:34:52,10.1.1.12,182,-0.210,-0.210,-0.210,0.000,0.000,0.000
1641234892393747200,2022-01-03-18:34:52,10.1.1.12,150,-0.200,-0.200,-0.200,0.000,0.000,0.000
1641234892655980032,2022-01-03-18:34:52,10.1.1.12,137,-0.190,-0.190,-0.190,0.000,0.000,0.000
1641234892863796992,2022-01-03-18:34:52,10.1.1.12,143,-0.180,-0.180,-0.180,0.000,0.000,0.000
1641234893065344000,2022-01-03-18:34:53,10.1.1.12,144,-0.170,-0.170,-0.170,0.000,0.000,0.000
1641234893266213888,2022-01-03-18:34:53,10.1.1.12,144,-0.160,-0.160,-0.160,0.000,0.000,0.000
1641234893479821824,2022-01-03-18:34:53,10.1.1.12,157,-0.150,-0.150,-0.150,0.000,0.000,0.000
1641234893689133056,2022-01-03-18:34:53,10.1.1.12,165,-0.140,-0.140,-0.140,0.000,0.000,0.000
1641234893877011968,2022-01-03-18:34:53,10.1.1.12,149,-0.130,-0.130,-0.130,0.000,0.000,0.000
1641234894068047104,2022-01-03-18:34:54,10.1.1.12,139,-0.120,-0.120,-0.120,0.000,0.000,0.000
1641234894266516992,2022-01-03-18:34:54,10.1.1.12,136,-0.110,-0.110,-0.110,0.000,0.000,0.000
1641234894477191936,2022-01-03-18:34:54,10.1.1.12,147,-0.100,-0.100,-0.100,0.000,0.000,0.000
1641234894695648000,2022-01-03-18:34:54,10.1.1.12,164,-0.090,-0.090,-0.090,0.000,0.000,0.000
1641234894887069952,2022-01-03-18:34:54,10.1.1.12,153,-0.080,-0.080,-0.080,0.000,0.000,0.000
1641234895099898112,2022-01-03-18:34:55,10.1.1.12,154,-0.070,-0.070,-0.070,0.000,0.000,0.000
1641234895300160768,2022-01-03-18:34:55,10.1.1.12,154,-0.060,-0.060,-0.060,0.000,0.000,0.000
1641234895498341120,2022-01-03-18:34:55,10.1.1.12,151,-0.050,-0.050,-0.050,0.000,0.000,0.000
1641234895698309888,2022-01-03-18:34:55,10.1.1.12,150,-0.040,-0.040,-0.040,0.000,0.000,0.000
1641234895905966080,2022-01-03-18:34:55,10.1.1.12,156,-0.030,-0.030,-0.030,0.000,0.000,0.000
1641234896111057920,2022-01-03-18:34:56,10.1.1.12,149,-0.020,-0.020,-0.020,0.000,0.000,0.000
1641234896309636096,2022-01-03-18:34:56,10.1.1.12,148,-0.010,-0.010,-0.010,0.000,0.000,0.000
1641234896545538048,2022-01-03-18:34:56,10.1.1.12,173,0.000,0.000,0.000,0.000,0.000,0.000
1641234896715358976,2022-01-03-18:34:56,10.1.1.12,150,-0.010,-0.010,-0.010,0.000,0.000,0.000
1641234896922821120,2022-01-03-18:34:56,10.1.1.12,156,-0.020,-0.020,-0.020,0.000,0.000,0.000
1641234897158411008,2022-01-03-18:34:57,10.1.1.12,191,-0.030,-0.030,-0.030,0.000,0.000,0.000
1641234897342521856,2022-01-03-18:34:57,10.1.1.12,168,-0.040,-0.040,-0.040,0.000,0.000,0.000
1641234897530978816,2022-01-03-18:34:57,10.1.1.12,155,-0.050,-0.050,-0.050,0.000,0.000,0.000
1641234897724064000,2022-01-03-18:34:57,10.1.1.12,145,-0.060,-0.060,-0.060,0.000,0.000,0.000
1641234897926359040,2022-01-03-18:34:57,10.1.1.12,148,-0.070,-0.070,-0.070,0.000,0.000,0.000
1641234898169317888,2022-01-03-18:34:58,10.1.1.12,189,-0.080,-0.080,-0.080,0.000,0.000,0.000
1641234898367325952,2022-01-03-18:34:58,10.1.1.12,182,-0.090,-0.090,-0.090,0.000,0.000,0.000
1641234898533443840,2022-01-03-18:34:58,10.1.1.12,143,-0.100,-0.100,-0.100,0.000,0.000,0.000
1641234898763271168,2022-01-03-18:34:58,10.1.1.12,172,-0.110,-0.110,-0.110,0.000,0.000,0.000
1641234898943394048,2022-01-03-18:34:58,10.1.1.12,150,-0.120,-0.120,-0.120,0.000,0.000,0.000
1641234899163332864,2022-01-03-18:34:59,10.1.1.12,153,-0.130,-0.130,-0.130,0.000,0.000,0.000
1641234899397826048,2022-01-03-18:34:59,10.1.1.12,180,-0.140,-0.140,-0.140,0.000,0.000,0.000
1641234899574445056,2022-01-03-18:34:59,10.1.1.12,153,-0.150,-0.150,-0.150,0.000,0.000,0.000
1641234899793533184,2022-01-03-18:34:59,10.1.1.12,152,-0.160,-0.160,-0.160,0.000,0.000,0.000
1641234900004233984,2022-01-03-18:35:00,10.1.1.12,161,-0.170,-0.170,-0.170,0.000,0.000,0.000
1641234900204827904,2022-01-03-18:35:00,10.1.1.12,161,-0.180,-0.180,-0.180,0.000,0.000,0.000
1641234900393753088,2022-01-03-18:35:00,10.1.1.12,149,-0.190,-0.190,-0.190,0.000,0.000,0.000
1641234900613608960,2022-01-03-18:35:00,10.1.1.12,162,-0.200,-0.200,-0.200,0.000,0.000,0.000
1641234900805206016,2022-01-03-18:35:00,10.1.1.12,150,-0.210,-0.210,-0.210,0.000,0.000,0.000
1641234901015762176,2022-01-03-18:35:01,10.1.1.12,158,-0.220,-0.220,-0.220,0.000,0.000,0.000
1641234901217176832,2022-01-03-18:35:01,10.1.1.12,157,-0.230,-0.230,-0.230,0.000,0.000,0.000
1641234901436551936,2022-01-03-18:35:01,10.1.1.12,174,-0.240,-0.240,-0.240,0.000,0.000,0.000
1641234901625339136,2022-01-03-18:35:01,10.1.1.12,158,-0.250,-0.250,-0.250,0.000,0.000,0.000
1641234901837280000,2022-01-03-18:35:01,10.1.1.12,166,-0.260,-0.260,-0.260,0.000,0.000,0.000
1641234902065853952,2022-01-03-18:35:02,10.1.1.12,170,-0.270,-0.270,-0.270,0.000,0.000,0.000
1641234902257940992,2022-01-03-18:35:02,10.1.1.12,159,-0.280,-0.280,-0.280,0.000,0.000,0.000
1641234902446149120,2022-01-03-18:35:02,10.1.1.12,146,-0.290,-0.290,-0.290,0.000,0.000,0.000
1641234902667691008,2022-01-03-18:35:02,10.1.1.12,167,-0.300,-0.300,-0.300,0.000,0.000,0.000
1641234902934011904,2022-01-03-18:35:02,10.1.1.12,199,-0.310,-0.310,-0.310,0.000,0.000,0.000
1641234903135049216,2022-01-03-18:35:03,10.1.1.12,200,-0.320,-0.320,-0.320,0.000,0.000,0.000
1641234903291058944,2022-01-03-18:35:03,10.1.1.12,155,-0.330,-0.330,-0.330,0.000,0.000,0.000
1641234903514905088,2022-01-03-18:35:03,10.1.1.12,177,-0.340,-0.340,-0.340,0.000,0.000,0.000
1641234903696638208,2022-01-03-18:35:03,10.1.1.12,156,-0.350,-0.350,-0.350,0.000,0.000,0.000
1641234903911858944,2022-01-03-18:35:03,10.1.1.12,170,-0.360,-0.360,-0.360,0.000,0.000,0.000
1641234904116453888,2022-01-03-18:35:04,10.1.1.12,157,-0.370,-0.370,-0.370,0.000,0.000,0.000
1641234904305758976,2022-01-03-18:35:04,10.1.1.12,145,-0.380,-0.380,-0.380,0.000,0.000,0.000
1641234904515597056,2022-01-03-18:35:04,10.1.1.12,154,-0.390,-0.390,-0.390,0.000,0.000,0.000
1641234904715959040,2022-01-03-18:35:04,10.1.1.12,152,-0.400,-0.400,-0.400,0.000,0.000,0.000
1641234904916057088,2022-01-03-18:35:04,10.1.1.12,150,-0.410,-0.410,-0.410,0.000,0.000,0.000
1641234905163629056,2022-01-03-18:35:05,10.1.1.12,187,-0.420,-0.420,-0.420,0.000,0.000,0.000
1641234905336615168,2022-01-03-18:35:05,10.1.1.12,159,-0.430,-0.430,-0.430,0.000,0.000,0.000
1641234905529483008,2022-01-03-18:35:05,10.1.1.12,151,-0.440,-0.440,-0.440,0.000,0.000,0.000
1641234905731534848,2022-01-03-18:35:05,10.1.1.12,152,-0.450,-0.450,-0.450,0.000,0.000,0.000
1641234905963567104,2022-01-03-18:35:05,10.1.1.12,177,-0.460,-0.460,-0.460,0.000,0.000,0.000
1641234906138375936,2022-01-03-18:35:06,10.1.1.12,150,-0.470,-0.470,-0.470,0.000,0.000,0.000
1641234906362867968,2022-01-03-18:35:06,10.1.1.12,174,-0.480,-0.480,-0.480,0.000,0.000,0.000
1641234906549463040,2022-01-03-18:35:06,10.1.1.12,159,-0.490,-0.490,-0.490,0.000,0.000,0.000
1641234906756408064,2022-01-03-18:35:06,10.1.1.12,165,-0.480,-0.480,-0.480,0.000,0.000,0.000
1641234906956147968,2022-01-03-18:35:06,10.1.1.12,164,-0.470,-0.470,-0.470,0.000,0.000,0.000
1641234907157519104,2022-01-03-18:35:07,10.1.1.12,164,-0.460,-0.460,-0.460,0.000,0.000,0.000
1641234907386582016,2022-01-03-18:35:07,10.1.1.12,193,-0.450,-0.450,-0.450,0.000,0.000,0.000
1641234907566032896,2022-01-03-18:35:07,10.1.1.12,171,-0.440,-0.440,-0.440,0.000,0.000,0.000
1641234907766482176,2022-01-03-18:35:07,10.1.1.12,149,-0.430,-0.430,-0.430,0.000,0.000,0.000
1641234907966355200,2022-01-03-18:35:07,10.1.1.12,148,-0.420,-0.420,-0.420,0.000,0.000,0.000
1641234908197824000,2022-01-03-18:35:08,10.1.1.12,179,-0.410,-0.410,-0.410,0.000,0.000,0.000
1641234908377293056,2022-01-03-18:35:08,10.1.1.12,155,-0.400,-0.400,-0.400,0.000,0.000,0.000
1641234908828100864,2022-01-03-18:35:08,10.1.1.12,176,-0.380,-0.380,-0.380,0.000,0.000,0.000
1641234909026347008,2022-01-03-18:35:09,10.1.1.12,163,-0.370,-0.370,-0.370,0.000,0.000,0.000
1641234909218323968,2022-01-03-18:35:09,10.1.1.12,153,-0.360,-0.360,-0.360,0.000,0.000,0.000
1641234909415676160,2022-01-03-18:35:09,10.1.1.12,149,-0.350,-0.350,-0.350,0.000,0.000,0.000
1641234909616834048,2022-01-03-18:35:09,10.1.1.12,148,-0.340,-0.340,-0.340,0.000,0.000,0.000
1641234909824385024,2022-01-03-18:35:09,10.1.1.12,156,-0.330,-0.330,-0.330,0.000,0.000,0.000
1641234910016382976,2022-01-03-18:35:10,10.1.1.12,147,-0.320,-0.320,-0.320,0.000,0.000,0.000
1641234910217120768,2022-01-03-18:35:10,10.1.1.12,147,-0.310,-0.310,-0.310,0.000,0.000,0.000
1641234910417340160,2022-01-03-18:35:10,10.1.1.12,146,-0.300,-0.300,-0.300,0.000,0.000,0.000
1641234910630696960,2022-01-03-18:35:10,10.1.1.12,158,-0.290,-0.290,-0.290,0.000,0.000,0.000
1641234910871054848,2022-01-03-18:35:10,10.1.1.12,198,-0.280,-0.280,-0.280,0.000,0.000,0.000
1641234911035528960,2022-01-03-18:35:11,10.1.1.12,149,-0.270,-0.270,-0.270,0.000,0.000,0.000
1641234911245332992,2022-01-03-18:35:11,10.1.1.12,159,-0.260,-0.260,-0.260,0.000,0.000,0.000
1641234911437334016,2022-01-03-18:35:11,10.1.1.12,150,-0.250,-0.250,-0.250,0.000,0.000,0.000
1641234911653683968,2022-01-03-18:35:11,10.1.1.12,166,-0.240,-0.240,-0.240,0.000,0.000,0.000
1641234911834441984,2022-01-03-18:35:11,10.1.1.12,146,-0.230,-0.230,-0.230,0.000,0.000,0.000
1641234912265722112,2022-01-03-18:35:12,10.1.1.12,174,-0.210,-0.210,-0.210,0.000,0.000,0.000
1641234912455353088,2022-01-03-18:35:12,10.1.1.12,163,-0.200,-0.200,-0.200,0.000,0.000,0.000
1641234912654344192,2022-01-03-18:35:12,10.1.1.12,162,-0.190,-0.190,-0.190,0.000,0.000,0.000
1641234912854203904,2022-01-03-18:35:12,10.1.1.12,161,-0.180,-0.180,-0.180,0.000,0.000,0.000
1641234913044605952,2022-01-03-18:35:13,10.1.1.12,150,-0.170,-0.170,-0.170,0.000,0.000,0.000
1641234913284535808,2022-01-03-18:35:13,10.1.1.12,189,-0.160,-0.160,-0.160,0.000,0.000,0.000
1641234913454617856,2022-01-03-18:35:13,10.1.1.12,157,-0.150,-0.150,-0.150,0.000,0.000,0.000
1641234913664103936,2022-01-03-18:35:13,10.1.1.12,166,-0.140,-0.140,-0.140,0.000,0.000,0.000
1641234913846853120,2022-01-03-18:35:13,10.1.1.12,147,-0.130,-0.130,-0.130,0.000,0.000,0.000
1641234914053769984,2022-01-03-18:35:14,10.1.1.12,153,-0.120,-0.120,-0.120,0.000,0.000,0.000
1641234914254062848,2022-01-03-18:35:14,10.1.1.12,152,-0.110,-0.110,-0.110,0.000,0.000,0.000
1641234914454519040,2022-01-03-18:35:14,10.1.1.12,148,-0.100,-0.100,-0.100,0.000,0.000,0.000
1641234914664323072,2022-01-03-18:35:14,10.1.1.12,157,-0.090,-0.090,-0.090,0.000,0.000,0.000
1641234914857441792,2022-01-03-18:35:14,10.1.1.12,149,-0.080,-0.080,-0.080,0.000,0.000,0.000
1641234915073193984,2022-01-03-18:35:15,10.1.1.12,150,-0.070,-0.070,-0.070,0.000,0.000,0.000
1641234915285384960,2022-01-03-18:35:15,10.1.1.12,156,-0.060,-0.060,-0.060,0.000,0.000,0.000
1641234915504908032,2022-01-03-18:35:15,10.1.1.12,159,-0.050,-0.050,-0.050,0.000,0.000,0.000
1641234915693854208,2022-01-03-18:35:15,10.1.1.12,147,-0.040,-0.040,-0.040,0.000,0.000,0.000
1641234915893407232,2022-01-03-18:35:15,10.1.1.12,146,-0.030,-0.030,-0.030,0.000,0.000,0.000
1641234916093228032,2022-01-03-18:35:16,10.1.1.12,144,-0.020,-0.020,-0.020,0.000,0.000,0.000
1641234916293838080,2022-01-03-18:35:16,10.1.1.12,144,-0.010,-0.010,-0.010,0.000,0.000,0.000
1641234916492367872,2022-01-03-18:35:16,10.1.1.12,142,-0.000,-0.000,-0.000,0.000,0.000,0.000
1641234916712781056,2022-01-03-18:35:16,10.1.1.12,153,-0.010,-0.010,-0.010,0.000,0.000,0.000
1641234916912962816,2022-01-03-18:35:16,10.1.1.12,150,-0.020,-0.020,-0.020,0.000,0.000,0.000
1641234917116611072,2022-01-03-18:35:17,10.1.1.12,153,-0.030,-0.030,-0.030,0.000,0.000,0.000
1641234917330306048,2022-01-03-18:35:17,10.1.1.12,158,-0.040,-0.040,-0.040,0.000,0.000,0.000
1641234917534221056,2022-01-03-18:35:17,10.1.1.12,146,-0.050,-0.050,-0.050,0.000,0.000,0.000
1641234917749197056,2022-01-03-18:35:17,10.1.1.12,160,-0.060,-0.060,-0.060,0.000,0.000,0.000
1641234917931267072,2022-01-03-18:35:17,10.1.1.12,140,-0.070,-0.070,-0.070,0.000,0.000,0.000
1641234918145698048,2022-01-03-18:35:18,10.1.1.12,153,-0.080,-0.080,-0.080,0.000,0.000,0.000
1641234918339358976,2022-01-03-18:35:18,10.1.1.12,140,-0.090,-0.090,-0.090,0.000,0.000,0.000
1641234918559715072,2022-01-03-18:35:18,10.1.1.12,157,-0.100,-0.100,-0.100,0.000,0.000,0.000
1641234918749982208,2022-01-03-18:35:18,10.1.1.12,147,-0.110,-0.110,-0.110,0.000,0.000,0.000
1641234918960973056,2022-01-03-18:35:18,10.1.1.12,154,-0.120,-0.120,-0.120,0.000,0.000,0.000
1641234919180188928,2022-01-03-18:35:19,10.1.1.12,158,-0.130,-0.130,-0.130,0.000,0.000,0.000
1641234919378444800,2022-01-03-18:35:19,10.1.1.12,155,-0.140,-0.140,-0.140,0.000,0.000,0.000
1641234919568731136,2022-01-03-18:35:19,10.1.1.12,143,-0.150,-0.150,-0.150,0.000,0.000,0.000
1641234919788265984,2022-01-03-18:35:19,10.1.1.12,147,-0.160,-0.160,-0.160,0.000,0.000,0.000
1641234919990416128,2022-01-03-18:35:19,10.1.1.12,148,-0.170,-0.170,-0.170,0.000,0.000,0.000
1641234920398042880,2022-01-03-18:35:20,10.1.1.12,142,-0.190,-0.190,-0.190,0.000,0.000,0.000
1641234920610048000,2022-01-03-18:35:20,10.1.1.12,152,-0.200,-0.200,-0.200,0.000,0.000,0.000
1641234920817842944,2022-01-03-18:35:20,10.1.1.12,159,-0.210,-0.210,-0.210,0.000,0.000,0.000
1641234921009629952,2022-01-03-18:35:21,10.1.1.12,149,-0.220,-0.220,-0.220,0.000,0.000,0.000
1641234921239345152,2022-01-03-18:35:21,10.1.1.12,178,-0.230,-0.230,-0.230,0.000,0.000,0.000
1641234921456646912,2022-01-03-18:35:21,10.1.1.12,155,-0.240,-0.240,-0.240,0.000,0.000,0.000
1641234921647427072,2022-01-03-18:35:21,10.1.1.12,146,-0.250,-0.250,-0.250,0.000,0.000,0.000
1641234921846593024,2022-01-03-18:35:21,10.1.1.12,144,-0.260,-0.260,-0.260,0.000,0.000,0.000
1641234922046256128,2022-01-03-18:35:22,10.1.1.12,143,-0.270,-0.270,-0.270,0.000,0.000,0.000
1641234922258945024,2022-01-03-18:35:22,10.1.1.12,155,-0.280,-0.280,-0.280,0.000,0.000,0.000
1641234922459719936,2022-01-03-18:35:22,10.1.1.12,155,-0.290,-0.290,-0.290,0.000,0.000,0.000
1641234922647425792,2022-01-03-18:35:22,10.1.1.12,140,-0.300,-0.300,-0.300,0.000,0.000,0.000
1641234922845933056,2022-01-03-18:35:22,10.1.1.12,139,-0.310,-0.310,-0.310,0.000,0.000,0.000
1641234923044995072,2022-01-03-18:35:23,10.1.1.12,138,-0.320,-0.320,-0.320,0.000,0.000,0.000
1641234923254006016,2022-01-03-18:35:23,10.1.1.12,146,-0.330,-0.330,-0.330,0.000,0.000,0.000
1641234923466592000,2022-01-03-18:35:23,10.1.1.12,158,-0.340,-0.340,-0.340,0.000,0.000,0.000
1641234923653778176,2022-01-03-18:35:23,10.1.1.12,140,-0.350,-0.350,-0.350,0.000,0.000,0.000
1641234923866246912,2022-01-03-18:35:23,10.1.1.12,151,-0.360,-0.360,-0.360,0.000,0.000,0.000
1641234924064823040,2022-01-03-18:35:24,10.1.1.12,149,-0.370,-0.370,-0.370,0.000,0.000,0.000
1641234924256137984,2022-01-03-18:35:24,10.1.1.12,139,-0.380,-0.380,-0.380,0.000,0.000,0.000
1641234924453658112,2022-01-03-18:35:24,10.1.1.12,136,-0.390,-0.390,-0.390,0.000,0.000,0.000
1641234924674552064,2022-01-03-18:35:24,10.1.1.12,156,-0.400,-0.400,-0.400,0.000,0.000,0.000
1641234924853236992,2022-01-03-18:35:24,10.1.1.12,134,-0.410,-0.410,-0.410,0.000,0.000,0.000
1641234925093513984,2022-01-03-18:35:25,10.1.1.12,163,-0.420,-0.420,-0.420,0.000,0.000,0.000
1641234925281949952,2022-01-03-18:35:25,10.1.1.12,150,-0.430,-0.430,-0.430,0.000,0.000,0.000
1641234925482076928,2022-01-03-18:35:25,10.1.1.12,150,-0.440,-0.440,-0.440,0.000,0.000,0.000
1641234925692080896,2022-01-03-18:35:25,10.1.1.12,159,-0.450,-0.450,-0.450,0.000,0.000,0.000
1641234925884898816,2022-01-03-18:35:25,10.1.1.12,151,-0.460,-0.460,-0.460,0.000,0.000,0.000
1641234926082076160,2022-01-03-18:35:26,10.1.1.12,143,-0.470,-0.470,-0.470,0.000,0.000,0.000
1641234926292963072,2022-01-03-18:35:26,10.1.1.12,151,-0.480,-0.480,-0.480,0.000,0.000,0.000
1641234926490906880,2022-01-03-18:35:26,10.1.1.12,148,-0.490,-0.490,-0.490,0.000,0.000,0.000
1641234926688144896,2022-01-03-18:35:26,10.1.1.12,145,-0.480,-0.480,-0.480,0.000,0.000,0.000
1641234926881201920,2022-01-03-18:35:26,10.1.1.12,138,-0.470,-0.470,-0.470,0.000,0.000,0.000
1641234927130526976,2022-01-03-18:35:27,10.1.1.12,150,-0.460,-0.460,-0.460,0.000,0.000,0.000
1641234927329093888,2022-01-03-18:35:27,10.1.1.12,147,-0.450,-0.450,-0.450,0.000,0.000,0.000
1641234927521822976,2022-01-03-18:35:27,10.1.1.12,139,-0.440,-0.440,-0.440,0.000,0.000,0.000
1641234927719155200,2022-01-03-18:35:27,10.1.1.12,136,-0.430,-0.430,-0.430,0.000,0.000,0.000
1641234927921340928,2022-01-03-18:35:27,10.1.1.12,136,-0.420,-0.420,-0.420,0.000,0.000,0.000
1641234928121767168,2022-01-03-18:35:28,10.1.1.12,137,-0.410,-0.410,-0.410,0.000,0.000,0.000
1641234928348893952,2022-01-03-18:35:28,10.1.1.12,151,-0.400,-0.400,-0.400,0.000,0.000,0.000
1641234928548480000,2022-01-03-18:35:28,10.1.1.12,147,-0.390,-0.390,-0.390,0.000,0.000,0.000
1641234928740133120,2022-01-03-18:35:28,10.1.1.12,138,-0.380,-0.380,-0.380,0.000,0.000,0.000
1641234928948587008,2022-01-03-18:35:28,10.1.1.12,141,-0.370,-0.370,-0.370,0.000,0.000,0.000
1641234929167787008,2022-01-03-18:35:29,10.1.1.12,146,-0.360,-0.360,-0.360,0.000,0.000,0.000
1641234929366905088,2022-01-03-18:35:29,10.1.1.12,144,-0.350,-0.350,-0.350,0.000,0.000,0.000
1641234929557267968,2022-01-03-18:35:29,10.1.1.12,132,-0.340,-0.340,-0.340,0.000,0.000,0.000
1641234929756481024,2022-01-03-18:35:29,10.1.1.12,128,-0.330,-0.330,-0.330,0.000,0.000,0.000
1641234929965869056,2022-01-03-18:35:29,10.1.1.12,137,-0.320,-0.320,-0.320,0.000,0.000,0.000
1641234930165422080,2022-01-03-18:35:30,10.1.1.12,135,-0.310,-0.310,-0.310,0.000,0.000,0.000
1641234930367884032,2022-01-03-18:35:30,10.1.1.12,137,-0.300,-0.300,-0.300,0.000,0.000,0.000
1641234930576161024,2022-01-03-18:35:30,10.1.1.12,137,-0.290,-0.290,-0.290,0.000,0.000,0.000
1641234930764574976,2022-01-03-18:35:30,10.1.1.12,125,-0.280,-0.280,-0.280,0.000,0.000,0.000
1641234930988727040,2022-01-03-18:35:30,10.1.1.12,148,-0.270,-0.270,-0.270,0.000,0.000,0.000
1641234931189040896,2022-01-03-18:35:31,10.1.1.12,132,-0.260,-0.260,-0.260,0.000,0.000,0.000
1641234931403161088,2022-01-03-18:35:31,10.1.1.12,144,-0.250,-0.250,-0.250,0.000,0.000,0.000
1641234931507932928,2022-01-03-18:35:31,10.1.1.12,-48,-0.250,-0.250,-0.250,0.000,0.000,0.000
1641234931839944960,2022-01-03-18:35:31,10.1.1.12,132,-0.230,-0.230,-0.230,0.000,0.000,0.000
1641234932034809088,2022-01-03-18:35:32,10.1.1.12,127,-0.220,-0.220,-0.220,0.000,0.000,0.000
1641234932251046912,2022-01-03-18:35:32,10.1.1.12,141,-0.210,-0.210,-0.210,0.000,0.000,0.000
1641234932435267840,2022-01-03-18:35:32,10.1.1.12,125,-0.200,-0.200,-0.200,0.000,0.000,0.000
1641234932710422016,2022-01-03-18:35:32,10.1.1.12,199,-0.190,-0.190,-0.190,0.000,0.000,0.000
1641234932852126976,2022-01-03-18:35:32,10.1.1.12,136,-0.180,-0.180,-0.180,0.000,0.000,0.000
1641234933065608960,2022-01-03-18:35:33,10.1.1.12,149,-0.170,-0.170,-0.170,0.000,0.000,0.000
1641234933265319168,2022-01-03-18:35:33,10.1.1.12,148,-0.160,-0.160,-0.160,0.000,0.000,0.000
1641234933452851968,2022-01-03-18:35:33,10.1.1.12,130,-0.150,-0.150,-0.150,0.000,0.000,0.000
1641234933651837184,2022-01-03-18:35:33,10.1.1.12,128,-0.140,-0.140,-0.140,0.000,0.000,0.000
1641234933853619200,2022-01-03-18:35:33,10.1.1.12,129,-0.130,-0.130,-0.130,0.000,0.000,0.000
1641234934059844864,2022-01-03-18:35:34,10.1.1.12,126,-0.120,-0.120,-0.120,0.000,0.000,0.000
1641234934260848128,2022-01-03-18:35:34,10.1.1.12,121,-0.110,-0.110,-0.110,0.000,0.000,0.000
1641234934480652032,2022-01-03-18:35:34,10.1.1.12,139,-0.100,-0.100,-0.100,0.000,0.000,0.000
1641234934670438144,2022-01-03-18:35:34,10.1.1.12,126,-0.090,-0.090,-0.090,0.000,0.000,0.000
1641234934873637888,2022-01-03-18:35:34,10.1.1.12,129,-0.080,-0.080,-0.080,0.000,0.000,0.000
1641234935089241856,2022-01-03-18:35:35,10.1.1.12,138,-0.070,-0.070,-0.070,0.000,0.000,0.000
1641234935278723072,2022-01-03-18:35:35,10.1.1.12,127,-0.060,-0.060,-0.060,0.000,0.000,0.000
1641234935488809984,2022-01-03-18:35:35,10.1.1.12,136,-0.050,-0.050,-0.050,0.000,0.000,0.000
1641234935690865920,2022-01-03-18:35:35,10.1.1.12,137,-0.040,-0.040,-0.040,0.000,0.000,0.000
1641234935889839872,2022-01-03-18:35:35,10.1.1.12,129,-0.030,-0.030,-0.030,0.000,0.000,0.000
1641234936105393920,2022-01-03-18:35:36,10.1.1.12,143,-0.020,-0.020,-0.020,0.000,0.000,0.000
1641234936301886976,2022-01-03-18:35:36,10.1.1.12,128,-0.010,-0.010,-0.010,0.000,0.000,0.000
1641234936527177216,2022-01-03-18:35:36,10.1.1.12,132,0.000,0.000,0.000,0.000,0.000,0.000
1641234936716747008,2022-01-03-18:35:36,10.1.1.12,118,-0.010,-0.010,-0.010,0.000,0.000,0.000
1641234936927243008,2022-01-03-18:35:36,10.1.1.12,128,-0.020,-0.020,-0.020,0.000,0.000,0.000
1641234937138274048,2022-01-03-18:35:37,10.1.1.12,138,-0.030,-0.030,-0.030,0.000,0.000,0.000
1641234937377950976,2022-01-03-18:35:37,10.1.1.12,135,-0.040,-0.040,-0.040,0.000,0.000,0.000
1641234937576491008,2022-01-03-18:35:37,10.1.1.12,135,-0.050,-0.050,-0.050,0.000,0.000,0.000
1641234937765389056,2022-01-03-18:35:37,10.1.1.12,123,-0.060,-0.060,-0.060,0.000,0.000,0.000
1641234937966707968,2022-01-03-18:35:37,10.1.1.12,121,-0.070,-0.070,-0.070,0.000,0.000,0.000
1641234938165186816,2022-01-03-18:35:38,10.1.1.12,119,-0.080,-0.080,-0.080,0.000,0.000,0.000
1641234938381708032,2022-01-03-18:35:38,10.1.1.12,135,-0.090,-0.090,-0.090,0.000,0.000,0.000
1641234938574547968,2022-01-03-18:35:38,10.1.1.12,127,-0.100,-0.100,-0.100,0.000,0.000,0.000
1641234938764687104,2022-01-03-18:35:38,10.1.1.12,117,-0.110,-0.110,-0.110,0.000,0.000,0.000
1641234938964416000,2022-01-03-18:35:38,10.1.1.12,115,-0.120,-0.120,-0.120,0.000,0.000,0.000
1641234939173611008,2022-01-03-18:35:39,10.1.1.12,123,-0.130,-0.130,-0.130,0.000,0.000,0.000
1641234939374725120,2022-01-03-18:35:39,10.1.1.12,123,-0.140,-0.140,-0.140,0.000,0.000,0.000
1641234939585712896,2022-01-03-18:35:39,10.1.1.12,133,-0.150,-0.150,-0.150,0.000,0.000,0.000
1641234939792252928,2022-01-03-18:35:39,10.1.1.12,131,-0.160,-0.160,-0.160,0.000,0.000,0.000
1641234939983913984,2022-01-03-18:35:39,10.1.1.12,121,-0.170,-0.170,-0.170,0.000,0.000,0.000
1641234940206195968,2022-01-03-18:35:40,10.1.1.12,119,-0.180,-0.180,-0.180,0.000,0.000,0.000
1641234940412446976,2022-01-03-18:35:40,10.1.1.12,137,-0.190,-0.190,-0.190,0.000,0.000,0.000
1641234940644818176,2022-01-03-18:35:40,10.1.1.12,167,-0.200,-0.200,-0.200,0.000,0.000,0.000
1641234940823015936,2022-01-03-18:35:40,10.1.1.12,128,-0.210,-0.210,-0.210,0.000,0.000,0.000
1641234941020729088,2022-01-03-18:35:41,10.1.1.12,116,-0.220,-0.220,-0.220,0.000,0.000,0.000
1641234941229357056,2022-01-03-18:35:41,10.1.1.12,123,-0.230,-0.230,-0.230,0.000,0.000,0.000
1641234941429128960,2022-01-03-18:35:41,10.1.1.12,121,-0.240,-0.240,-0.240,0.000,0.000,0.000
1641234941618896896,2022-01-03-18:35:41,10.1.1.12,110,-0.250,-0.250,-0.250,0.000,0.000,0.000
1641234941829437952,2022-01-03-18:35:41,10.1.1.12,112,-0.260,-0.260,-0.260,0.000,0.000,0.000
1641234942039968000,2022-01-03-18:35:42,10.1.1.12,117,-0.270,-0.270,-0.270,0.000,0.000,0.000
1641234942238953216,2022-01-03-18:35:42,10.1.1.12,115,-0.280,-0.280,-0.280,0.000,0.000,0.000
1641234942471538176,2022-01-03-18:35:42,10.1.1.12,146,-0.290,-0.290,-0.290,0.000,0.000,0.000
1641234942672643072,2022-01-03-18:35:42,10.1.1.12,141,-0.300,-0.300,-0.300,0.000,0.000,0.000
1641234942871359232,2022-01-03-18:35:42,10.1.1.12,136,-0.310,-0.310,-0.310,0.000,0.000,0.000
1641234943059126016,2022-01-03-18:35:43,10.1.1.12,118,-0.320,-0.320,-0.320,0.000,0.000,0.000
1641234943258946816,2022-01-03-18:35:43,10.1.1.12,117,-0.330,-0.330,-0.330,0.000,0.000,0.000
1641234943469080064,2022-01-03-18:35:43,10.1.1.12,126,-0.340,-0.340,-0.340,0.000,0.000,0.000
1641234943657833216,2022-01-03-18:35:43,10.1.1.12,109,-0.350,-0.350,-0.350,0.000,0.000,0.000
1641234943866383104,2022-01-03-18:35:43,10.1.1.12,112,-0.360,-0.360,-0.360,0.000,0.000,0.000
1641234944089026048,2022-01-03-18:35:44,10.1.1.12,121,-0.370,-0.370,-0.370,0.000,0.000,0.000
1641234944294838784,2022-01-03-18:35:44,10.1.1.12,116,-0.380,-0.380,-0.380,0.000,0.000,0.000
1641234944486716928,2022-01-03-18:35:44,10.1.1.12,107,-0.390,-0.390,-0.390,0.000,0.000,0.000
1641234944705001216,2022-01-03-18:35:44,10.1.1.12,125,-0.400,-0.400,-0.400,0.000,0.000,0.000
1641234944895788800,2022-01-03-18:35:44,10.1.1.12,114,-0.410,-0.410,-0.410,0.000,0.000,0.000
1641234945114895104,2022-01-03-18:35:45,10.1.1.12,122,-0.420,-0.420,-0.420,0.000,0.000,0.000
1641234945333683968,2022-01-03-18:35:45,10.1.1.12,114,-0.430,-0.430,-0.430,0.000,0.000,0.000
1641234945574387200,2022-01-03-18:35:45,10.1.1.12,109,-0.440,-0.440,-0.440,0.000,0.000,0.000
1641234945774735872,2022-01-03-18:35:45,10.1.1.12,107,-0.450,-0.450,-0.450,0.000,0.000,0.000
1641234945971950080,2022-01-03-18:35:45,10.1.1.12,104,-0.460,-0.460,-0.460,0.000,0.000,0.000
1641234946181487104,2022-01-03-18:35:46,10.1.1.12,113,-0.470,-0.470,-0.470,0.000,0.000,0.000
1641234946423468032,2022-01-03-18:35:46,10.1.1.12,130,-0.480,-0.480,-0.480,0.000,0.000,0.000
1641234946639560960,2022-01-03-18:35:46,10.1.1.12,141,-0.490,-0.490,-0.490,0.000,0.000,0.000
1641234946813553152,2022-01-03-18:35:46,10.1.1.12,114,-0.480,-0.480,-0.480,0.000,0.000,0.000
1641234947020724992,2022-01-03-18:35:47,10.1.1.12,119,-0.470,-0.470,-0.470,0.000,0.000,0.000
1641234947234244096,2022-01-03-18:35:47,10.1.1.12,128,-0.460,-0.460,-0.460,0.000,0.000,0.000
1641234947410370048,2022-01-03-18:35:47,10.1.1.12,103,-0.450,-0.450,-0.450,0.000,0.000,0.000
1641234947612338176,2022-01-03-18:35:47,10.1.1.12,104,-0.440,-0.440,-0.440,0.000,0.000,0.000
1641234947930437120,2022-01-03-18:35:47,10.1.1.12,116,-0.430,-0.430,-0.430,0.000,0.000,0.000
1641234948130182912,2022-01-03-18:35:48,10.1.1.12,115,-0.420,-0.420,-0.420,0.000,0.000,0.000
1641234948332914944,2022-01-03-18:35:48,10.1.1.12,112,-0.410,-0.410,-0.410,0.000,0.000,0.000
1641234948535011072,2022-01-03-18:35:48,10.1.1.12,110,-0.400,-0.400,-0.400,0.000,0.000,0.000
1641234948734523136,2022-01-03-18:35:48,10.1.1.12,109,-0.390,-0.390,-0.390,0.000,0.000,0.000
1641234948975124992,2022-01-03-18:35:48,10.1.1.12,148,-0.380,-0.380,-0.380,0.000,0.000,0.000
1641234949135351808,2022-01-03-18:35:49,10.1.1.12,107,-0.370,-0.370,-0.370,0.000,0.000,0.000
1641234949357153024,2022-01-03-18:35:49,10.1.1.12,119,-0.360,-0.360,-0.360,0.000,0.000,0.000
1641234949566859008,2022-01-03-18:35:49,10.1.1.12,128,-0.350,-0.350,-0.350,0.000,0.000,0.000
1641234949769298944,2022-01-03-18:35:49,10.1.1.12,130,-0.340,-0.340,-0.340,0.000,0.000,0.000
1641234949969307904,2022-01-03-18:35:49,10.1.1.12,129,-0.330,-0.330,-0.330,0.000,0.000,0.000
1641234950174681856,2022-01-03-18:35:50,10.1.1.12,117,-0.320,-0.320,-0.320,0.000,0.000,0.000
1641234950382857984,2022-01-03-18:35:50,10.1.1.12,125,-0.310,-0.310,-0.310,0.000,0.000,0.000
1641234950581573120,2022-01-03-18:35:50,10.1.1.12,123,-0.300,-0.300,-0.300,0.000,0.000,0.000
1641234950784365824,2022-01-03-18:35:50,10.1.1.12,124,-0.290,-0.290,-0.290,0.000,0.000,0.000
1641234950984332032,2022-01-03-18:35:50,10.1.1.12,124,-0.280,-0.280,-0.280,0.000,0.000,0.000
1641234951243751936,2022-01-03-18:35:51,10.1.1.12,182,-0.270,-0.270,-0.270,0.000,0.000,0.000
1641234951406609152,2022-01-03-18:35:51,10.1.1.12,127,-0.260,-0.260,-0.260,0.000,0.000,0.000
1641234951606443776,2022-01-03-18:35:51,10.1.1.12,127,-0.250,-0.250,-0.250,0.000,0.000,0.000
1641234951815005952,2022-01-03-18:35:51,10.1.1.12,134,-0.240,-0.240,-0.240,0.000,0.000,0.000
1641234952008507904,2022-01-03-18:35:52,10.1.1.12,126,-0.230,-0.230,-0.230,0.000,0.000,0.000
1641234952269377024,2022-01-03-18:35:52,10.1.1.12,182,-0.220,-0.220,-0.220,0.000,0.000,0.000
1641234952429414912,2022-01-03-18:35:52,10.1.1.12,120,-0.210,-0.210,-0.210,0.000,0.000,0.000
1641234952647340032,2022-01-03-18:35:52,10.1.1.12,137,-0.200,-0.200,-0.200,0.000,0.000,0.000
1641234952840899072,2022-01-03-18:35:52,10.1.1.12,126,-0.190,-0.190,-0.190,0.000,0.000,0.000
1641234953053592832,2022-01-03-18:35:53,10.1.1.12,138,-0.180,-0.180,-0.180,0.000,0.000,0.000
1641234953245785088,2022-01-03-18:35:53,10.1.1.12,130,-0.170,-0.170,-0.170,0.000,0.000,0.000
1641234953496598016,2022-01-03-18:35:53,10.1.1.12,180,-0.160,-0.160,-0.160,0.000,0.000,0.000
1641234953654225152,2022-01-03-18:35:53,10.1.1.12,126,-0.150,-0.150,-0.150,0.000,0.000,0.000
1641234953874543872,2022-01-03-18:35:53,10.1.1.12,138,-0.140,-0.140,-0.140,0.000,0.000,0.000
1641234954094845952,2022-01-03-18:35:54,10.1.1.12,158,-0.130,-0.130,-0.130,0.000,0.000,0.000
1641234954275964928,2022-01-03-18:35:54,10.1.1.12,134,-0.120,-0.120,-0.120,0.000,0.000,0.000
1641234954476103936,2022-01-03-18:35:54,10.1.1.12,133,-0.110,-0.110,-0.110,0.000,0.000,0.000
1641234954693909760,2022-01-03-18:35:54,10.1.1.12,149,-0.100,-0.100,-0.100,0.000,0.000,0.000
1641234954878050048,2022-01-03-18:35:54,10.1.1.12,131,-0.090,-0.090,-0.090,0.000,0.000,0.000
1641234955078862848,2022-01-03-18:35:55,10.1.1.12,129,-0.080,-0.080,-0.080,0.000,0.000,0.000
1641234955298928128,2022-01-03-18:35:55,10.1.1.12,147,-0.070,-0.070,-0.070,0.000,0.000,0.000
1641234955499179008,2022-01-03-18:35:55,10.1.1.12,146,-0.060,-0.060,-0.060,0.000,0.000,0.000
1641234955708462080,2022-01-03-18:35:55,10.1.1.12,154,-0.050,-0.050,-0.050,0.000,0.000,0.000
1641234955911092992,2022-01-03-18:35:55,10.1.1.12,144,-0.040,-0.040,-0.040,0.000,0.000,0.000
1641234956100776960,2022-01-03-18:35:56,10.1.1.12,133,-0.030,-0.030,-0.030,0.000,0.000,0.000
1641234956301709824,2022-01-03-18:35:56,10.1.1.12,132,-0.020,-0.020,-0.020,0.000,0.000,0.000
1641234956516078080,2022-01-03-18:35:56,10.1.1.12,144,-0.010,-0.010,-0.010,0.000,0.000,0.000
1641234956724370944,2022-01-03-18:35:56,10.1.1.12,149,0.000,0.000,0.000,0.000,0.000,0.000
1641234956924375040,2022-01-03-18:35:56,10.1.1.12,150,-0.010,-0.010,-0.010,0.000,0.000,0.000
1641234957123574016,2022-01-03-18:35:57,10.1.1.12,148,-0.020,-0.020,-0.020,0.000,0.000,0.000
1641234957326160896,2022-01-03-18:35:57,10.1.1.12,150,-0.030,-0.030,-0.030,0.000,0.000,0.000
1641234957526816000,2022-01-03-18:35:57,10.1.1.12,150,-0.040,-0.040,-0.040,0.000,0.000,0.000
1641234957725330176,2022-01-03-18:35:57,10.1.1.12,136,-0.050,-0.050,-0.050,0.000,0.000,0.000
1641234957993440000,2022-01-03-18:35:57,10.1.1.12,200,-0.060,-0.060,-0.060,0.000,0.000,0.000
1641234958228154880,2022-01-03-18:35:58,10.1.1.12,196,-0.070,-0.070,-0.070,0.000,0.000,0.000
1641234958388881920,2022-01-03-18:35:58,10.1.1.12,151,-0.080,-0.080,-0.080,0.000,0.000,0.000
1641234958588932864,2022-01-03-18:35:58,10.1.1.12,152,-0.090,-0.090,-0.090,0.000,0.000,0.000
1641234958804907008,2022-01-03-18:35:58,10.1.1.12,154,-0.100,-0.100,-0.100,0.000,0.000,0.000
1641234959009197056,2022-01-03-18:35:59,10.1.1.12,156,-0.110,-0.110,-0.110,0.000,0.000,0.000
1641234959224453888,2022-01-03-18:35:59,10.1.1.12,171,-0.120,-0.120,-0.120,0.000,0.000,0.000
1641234959405848064,2022-01-03-18:35:59,10.1.1.12,150,-0.130,-0.130,-0.130,0.000,0.000,0.000
1641234959599129088,2022-01-03-18:35:59,10.1.1.12,140,-0.140,-0.140,-0.140,0.000,0.000,0.000
1641234959804434944,2022-01-03-18:35:59,10.1.1.12,144,-0.150,-0.150,-0.150,0.000,0.000,0.000
1641234959999962112,2022-01-03-18:35:59,10.1.1.12,139,-0.160,-0.160,-0.160,0.000,0.000,0.000
1641234960419693056,2022-01-03-18:36:00,10.1.1.12,147,-0.180,-0.180,-0.180,0.000,0.000,0.000
1641234960631155968,2022-01-03-18:36:00,10.1.1.12,158,-0.190,-0.190,-0.190,0.000,0.000,0.000
1641234960830684928,2022-01-03-18:36:00,10.1.1.12,157,-0.200,-0.200,-0.200,0.000,0.000,0.000
1641234961054024960,2022-01-03-18:36:01,10.1.1.12,179,-0.210,-0.210,-0.210,0.000,0.000,0.000
1641234961232666112,2022-01-03-18:36:01,10.1.1.12,145,-0.220,-0.220,-0.220,0.000,0.000,0.000
1641234961473606144,2022-01-03-18:36:01,10.1.1.12,184,-0.230,-0.230,-0.230,0.000,0.000,0.000
1641234961646753024,2022-01-03-18:36:01,10.1.1.12,154,-0.240,-0.240,-0.240,0.000,0.000,0.000
1641234961855400960,2022-01-03-18:36:01,10.1.1.12,161,-0.250,-0.250,-0.250,0.000,0.000,0.000
1641234962041917184,2022-01-03-18:36:02,10.1.1.12,146,-0.260,-0.260,-0.260,0.000,0.000,0.000
1641234962252999168,2022-01-03-18:36:02,10.1.1.12,157,-0.270,-0.270,-0.270,0.000,0.000,0.000
1641234962455992832,2022-01-03-18:36:02,10.1.1.12,159,-0.280,-0.280,-0.280,0.000,0.000,0.000
1641234962713687808,2022-01-03-18:36:02,10.1.1.12,152,-0.290,-0.290,-0.290,0.000,0.000,0.000
1641234962914607104,2022-01-03-18:36:02,10.1.1.12,152,-0.300,-0.300,-0.300,0.000,0.000,0.000
1641234963113095168,2022-01-03-18:36:03,10.1.1.12,149,-0.310,-0.310,-0.310,0.000,0.000,0.000
1641234963338872832,2022-01-03-18:36:03,10.1.1.12,162,-0.320,-0.320,-0.320,0.000,0.000,0.000
1641234963546960128,2022-01-03-18:36:03,10.1.1.12,165,-0.330,-0.330,-0.330,0.000,0.000,0.000
1641234963735726080,2022-01-03-18:36:03,10.1.1.12,154,-0.340,-0.340,-0.340,0.000,0.000,0.000
1641234963938952960,2022-01-03-18:36:03,10.1.1.12,149,-0.350,-0.350,-0.350,0.000,0.000,0.000
1641234964169228032,2022-01-03-18:36:04,10.1.1.12,177,-0.360,-0.360,-0.360,0.000,0.000,0.000
1641234964355485952,2022-01-03-18:36:04,10.1.1.12,159,-0.370,-0.370,-0.370,0.000,0.000,0.000
1641234964564891136,2022-01-03-18:36:04,10.1.1.12,167,-0.380,-0.380,-0.380,0.000,0.000,0.000
1641234964745218048,2022-01-03-18:36:04,10.1.1.12,147,-0.390,-0.390,-0.390,0.000,0.000,0.000
1641234964962146048,2022-01-03-18:36:04,10.1.1.12,164,-0.400,-0.400,-0.400,0.000,0.000,0.000
1641234965157461760,2022-01-03-18:36:05,10.1.1.12,159,-0.410,-0.410,-0.410,0.000,0.000,0.000
1641234965345741056,2022-01-03-18:36:05,10.1.1.12,146,-0.420,-0.420,-0.420,0.000,0.000,0.000
1641234965553168128,2022-01-03-18:36:05,10.1.1.12,153,-0.430,-0.430,-0.430,0.000,0.000,0.000
1641234965755741952,2022-01-03-18:36:05,10.1.1.12,154,-0.440,-0.440,-0.440,0.000,0.000,0.000
1641234965977178112,2022-01-03-18:36:05,10.1.1.12,172,-0.450,-0.450,-0.450,0.000,0.000,0.000
1641234966166052096,2022-01-03-18:36:06,10.1.1.12,163,-0.460,-0.460,-0.460,0.000,0.000,0.000
1641234966365776896,2022-01-03-18:36:06,10.1.1.12,160,-0.470,-0.470,-0.470,0.000,0.000,0.000
1641234966558275840,2022-01-03-18:36:06,10.1.1.12,151,-0.480,-0.480,-0.480,0.000,0.000,0.000
1641234966757356800,2022-01-03-18:36:06,10.1.1.12,149,-0.490,-0.490,-0.490,0.000,0.000,0.000
1641234966977690880,2022-01-03-18:36:06,10.1.1.12,164,-0.480,-0.480,-0.480,0.000,0.000,0.000
1641234967397046016,2022-01-03-18:36:07,10.1.1.12,160,-0.460,-0.460,-0.460,0.000,0.000,0.000
1641234967596396032,2022-01-03-18:36:07,10.1.1.12,159,-0.450,-0.450,-0.450,0.000,0.000,0.000
1641234967806672128,2022-01-03-18:36:07,10.1.1.12,168,-0.440,-0.440,-0.440,0.000,0.000,0.000
1641234967996779008,2022-01-03-18:36:07,10.1.1.12,158,-0.430,-0.430,-0.430,0.000,0.000,0.000
1641234968196432128,2022-01-03-18:36:08,10.1.1.12,157,-0.420,-0.420,-0.420,0.000,0.000,0.000
1641234968406351104,2022-01-03-18:36:08,10.1.1.12,160,-0.410,-0.410,-0.410,0.000,0.000,0.000
1641234968610292992,2022-01-03-18:36:08,10.1.1.12,163,-0.400,-0.400,-0.400,0.000,0.000,0.000
1641234968796421120,2022-01-03-18:36:08,10.1.1.12,148,-0.390,-0.390,-0.390,0.000,0.000,0.000
1641234968997548032,2022-01-03-18:36:08,10.1.1.12,148,-0.380,-0.380,-0.380,0.000,0.000,0.000
1641234969216676096,2022-01-03-18:36:09,10.1.1.12,165,-0.370,-0.370,-0.370,0.000,0.000,0.000
1641234969432333824,2022-01-03-18:36:09,10.1.1.12,180,-0.360,-0.360,-0.360,0.000,0.000,0.000
1641234969638254848,2022-01-03-18:36:09,10.1.1.12,165,-0.350,-0.350,-0.350,0.000,0.000,0.000
1641234969829405952,2022-01-03-18:36:09,10.1.1.12,155,-0.340,-0.340,-0.340,0.000,0.000,0.000
1641234970037099008,2022-01-03-18:36:10,10.1.1.12,162,-0.330,-0.330,-0.330,0.000,0.000,0.000
1641234970272911104,2022-01-03-18:36:10,10.1.1.12,197,-0.320,-0.320,-0.320,0.000,0.000,0.000
1641234970428164096,2022-01-03-18:36:10,10.1.1.12,149,-0.310,-0.310,-0.310,0.000,0.000,0.000
1641234970639441920,2022-01-03-18:36:10,10.1.1.12,159,-0.300,-0.300,-0.300,0.000,0.000,0.000
1641234970837831936,2022-01-03-18:36:10,10.1.1.12,153,-0.290,-0.290,-0.290,0.000,0.000,0.000
1641234971037882112,2022-01-03-18:36:11,10.1.1.12,152,-0.280,-0.280,-0.280,0.000,0.000,0.000
1641234971247364096,2022-01-03-18:36:11,10.1.1.12,160,-0.270,-0.270,-0.270,0.000,0.000,0.000
1641234971456707072,2022-01-03-18:36:11,10.1.1.12,159,-0.260,-0.260,-0.260,0.000,0.000,0.000
1641234971866280960,2022-01-03-18:36:11,10.1.1.12,155,-0.240,-0.240,-0.240,0.000,0.000,0.000
1641234972066129920,2022-01-03-18:36:12,10.1.1.12,153,-0.230,-0.230,-0.230,0.000,0.000,0.000
1641234972280076032,2022-01-03-18:36:12,10.1.1.12,166,-0.220,-0.220,-0.220,0.000,0.000,0.000
1641234972486546944,2022-01-03-18:36:12,10.1.1.12,163,-0.210,-0.210,-0.210,0.000,0.000,0.000
1641234972677190912,2022-01-03-18:36:12,10.1.1.12,153,-0.200,-0.200,-0.200,0.000,0.000,0.000
1641234972877881088,2022-01-03-18:36:12,10.1.1.12,152,-0.190,-0.190,-0.190,0.000,0.000,0.000
1641234973077518848,2022-01-03-18:36:13,10.1.1.12,150,-0.180,-0.180,-0.180,0.000,0.000,0.000
1641234973276722944,2022-01-03-18:36:13,10.1.1.12,146,-0.170,-0.170,-0.170,0.000,0.000,0.000
1641234973488624128,2022-01-03-18:36:13,10.1.1.12,157,-0.160,-0.160,-0.160,0.000,0.000,0.000
1641234973698731776,2022-01-03-18:36:13,10.1.1.12,159,-0.150,-0.150,-0.150,0.000,0.000,0.000
1641234973905910016,2022-01-03-18:36:13,10.1.1.12,165,-0.140,-0.140,-0.140,0.000,0.000,0.000
1641234974117211136,2022-01-03-18:36:14,10.1.1.12,150,-0.130,-0.130,-0.130,0.000,0.000,0.000
1641234974328325888,2022-01-03-18:36:14,10.1.1.12,158,-0.120,-0.120,-0.120,0.000,0.000,0.000
1641234974528431872,2022-01-03-18:36:14,10.1.1.12,159,-0.110,-0.110,-0.110,0.000,0.000,0.000
1641234974745997056,2022-01-03-18:36:14,10.1.1.12,175,-0.100,-0.100,-0.100,0.000,0.000,0.000
1641234974947336960,2022-01-03-18:36:14,10.1.1.12,169,-0.090,-0.090,-0.090,0.000,0.000,0.000
1641234975137649920,2022-01-03-18:36:15,10.1.1.12,154,-0.080,-0.080,-0.080,0.000,0.000,0.000
1641234975372237824,2022-01-03-18:36:15,10.1.1.12,177,-0.070,-0.070,-0.070,0.000,0.000,0.000
1641234975547479040,2022-01-03-18:36:15,10.1.1.12,151,-0.060,-0.060,-0.060,0.000,0.000,0.000
1641234975755728128,2022-01-03-18:36:15,10.1.1.12,157,-0.050,-0.050,-0.050,0.000,0.000,0.000
1641234975968643072,2022-01-03-18:36:15,10.1.1.12,169,-0.040,-0.040,-0.040,0.000,0.000,0.000
1641234976199332096,2022-01-03-18:36:16,10.1.1.12,198,-0.030,-0.030,-0.030,0.000,0.000,0.000
1641234976386831872,2022-01-03-18:36:16,10.1.1.12,168,-0.020,-0.020,-0.020,0.000,0.000,0.000
1641234976588706048,2022-01-03-18:36:16,10.1.1.12,165,-0.010,-0.010,-0.010,0.000,0.000,0.000
1641234976831006976,2022-01-03-18:36:16,10.1.1.12,201,0.000,0.000,0.000,0.000,0.000,0.000
1641234976995532032,2022-01-03-18:36:16,10.1.1.12,162,-0.010,-0.010,-0.010,0.000,0.000,0.000
1641234977198932992,2022-01-03-18:36:17,10.1.1.12,162,-0.020,-0.020,-0.020,0.000,0.000,0.000
1641234977504564992,2022-01-03-18:36:17,10.1.1.12,144,-0.030,-0.030,-0.030,0.000,0.000,0.000
1641234977714317056,2022-01-03-18:36:17,10.1.1.12,148,-0.040,-0.040,-0.040,0.000,0.000,0.000
1641234977924613120,2022-01-03-18:36:17,10.1.1.12,156,-0.050,-0.050,-0.050,0.000,0.000,0.000
1641234978114129152,2022-01-03-18:36:18,10.1.1.12,144,-0.060,-0.060,-0.060,0.000,0.000,0.000
1641234978343770112,2022-01-03-18:36:18,10.1.1.12,172,-0.070,-0.070,-0.070,0.000,0.000,0.000
1641234978560946944,2022-01-03-18:36:18,10.1.1.12,164,-0.080,-0.080,-0.080,0.000,0.000,0.000
1641234978754223104,2022-01-03-18:36:18,10.1.1.12,157,-0.090,-0.090,-0.090,0.000,0.000,0.000
1641234978944950016,2022-01-03-18:36:18,10.1.1.12,147,-0.100,-0.100,-0.100,0.000,0.000,0.000
1641234979151606016,2022-01-03-18:36:19,10.1.1.12,153,-0.110,-0.110,-0.110,0.000,0.000,0.000
1641234979353257984,2022-01-03-18:36:19,10.1.1.12,152,-0.120,-0.120,-0.120,0.000,0.000,0.000
1641234979773658112,2022-01-03-18:36:19,10.1.1.12,162,-0.140,-0.140,-0.140,0.000,0.000,0.000
1641234979992446976,2022-01-03-18:36:19,10.1.1.12,160,-0.150,-0.150,-0.150,0.000,0.000,0.000
1641234980194170880,2022-01-03-18:36:20,10.1.1.12,160,-0.160,-0.160,-0.160,0.000,0.000,0.000
1641234980384923904,2022-01-03-18:36:20,10.1.1.12,149,-0.170,-0.170,-0.170,0.000,0.000,0.000
1641234980606245888,2022-01-03-18:36:20,10.1.1.12,170,-0.180,-0.180,-0.180,0.000,0.000,0.000
1641234980832397056,2022-01-03-18:36:20,10.1.1.12,144,-0.190,-0.190,-0.190,0.000,0.000,0.000
1641234981032324096,2022-01-03-18:36:21,10.1.1.12,143,-0.200,-0.200,-0.200,0.000,0.000,0.000
1641234981233081088,2022-01-03-18:36:21,10.1.1.12,142,-0.210,-0.210,-0.210,0.000,0.000,0.000
1641234981448280064,2022-01-03-18:36:21,10.1.1.12,156,-0.220,-0.220,-0.220,0.000,0.000,0.000
1641234981652926976,2022-01-03-18:36:21,10.1.1.12,157,-0.230,-0.230,-0.230,0.000,0.000,0.000
1641234981892402944,2022-01-03-18:36:21,10.1.1.12,196,-0.240,-0.240,-0.240,0.000,0.000,0.000
1641234982052582144,2022-01-03-18:36:22,10.1.1.12,151,-0.250,-0.250,-0.250,0.000,0.000,0.000
1641234982292839168,2022-01-03-18:36:22,10.1.1.12,160,-0.260,-0.260,-0.260,0.000,0.000,0.000
1641234982480830976,2022-01-03-18:36:22,10.1.1.12,146,-0.270,-0.270,-0.270,0.000,0.000,0.000
1641234982691764224,2022-01-03-18:36:22,10.1.1.12,157,-0.280,-0.280,-0.280,0.000,0.000,0.000
1641234982900352000,2022-01-03-18:36:22,10.1.1.12,164,-0.290,-0.290,-0.290,0.000,0.000,0.000
1641234983103708928,2022-01-03-18:36:23,10.1.1.12,156,-0.300,-0.300,-0.300,0.000,0.000,0.000
1641234983320667136,2022-01-03-18:36:23,10.1.1.12,154,-0.310,-0.310,-0.310,0.000,0.000,0.000
1641234983510200064,2022-01-03-18:36:23,10.1.1.12,142,-0.320,-0.320,-0.320,0.000,0.000,0.000
1641234983711024128,2022-01-03-18:36:23,10.1.1.12,142,-0.330,-0.330,-0.330,0.000,0.000,0.000
1641234983920690176,2022-01-03-18:36:23,10.1.1.12,150,-0.340,-0.340,-0.340,0.000,0.000,0.000
1641234984131467008,2022-01-03-18:36:24,10.1.1.12,161,-0.350,-0.350,-0.350,0.000,0.000,0.000
1641234984330156032,2022-01-03-18:36:24,10.1.1.12,159,-0.360,-0.360,-0.360,0.000,0.000,0.000
1641234984528392192,2022-01-03-18:36:24,10.1.1.12,157,-0.370,-0.370,-0.370,0.000,0.000,0.000
1641234984743567872,2022-01-03-18:36:24,10.1.1.12,171,-0.380,-0.380,-0.380,0.000,0.000,0.000
1641234984929396992,2022-01-03-18:36:24,10.1.1.12,156,-0.390,-0.390,-0.390,0.000,0.000,0.000
1641234985118926080,2022-01-03-18:36:25,10.1.1.12,145,-0.400,-0.400,-0.400,0.000,0.000,0.000
1641234985348272128,2022-01-03-18:36:25,10.1.1.12,142,-0.410,-0.410,-0.410,0.000,0.000,0.000
1641234985558981888,2022-01-03-18:36:25,10.1.1.12,145,-0.420,-0.420,-0.420,0.000,0.000,0.000
1641234985759025152,2022-01-03-18:36:25,10.1.1.12,144,-0.430,-0.430,-0.430,0.000,0.000,0.000
1641234985957916928,2022-01-03-18:36:25,10.1.1.12,141,-0.440,-0.440,-0.440,0.000,0.000,0.000
1641234986157710080,2022-01-03-18:36:26,10.1.1.12,138,-0.450,-0.450,-0.450,0.000,0.000,0.000
1641234986377986816,2022-01-03-18:36:26,10.1.1.12,157,-0.460,-0.460,-0.460,0.000,0.000,0.000
1641234986566242816,2022-01-03-18:36:26,10.1.1.12,139,-0.470,-0.470,-0.470,0.000,0.000,0.000
1641234986765580032,2022-01-03-18:36:26,10.1.1.12,137,-0.480,-0.480,-0.480,0.000,0.000,0.000
1641234986975638016,2022-01-03-18:36:26,10.1.1.12,146,-0.490,-0.490,-0.490,0.000,0.000,0.000
1641234987164918016,2022-01-03-18:36:27,10.1.1.12,135,-0.480,-0.480,-0.480,0.000,0.000,0.000
1641234987365410048,2022-01-03-18:36:27,10.1.1.12,135,-0.470,-0.470,-0.470,0.000,0.000,0.000
1641234987586375936,2022-01-03-18:36:27,10.1.1.12,155,-0.460,-0.460,-0.460,0.000,0.000,0.000
1641234987778574080,2022-01-03-18:36:27,10.1.1.12,146,-0.450,-0.450,-0.450,0.000,0.000,0.000
1641234987984824064,2022-01-03-18:36:27,10.1.1.12,152,-0.440,-0.440,-0.440,0.000,0.000,0.000
1641234988189222144,2022-01-03-18:36:28,10.1.1.12,156,-0.430,-0.430,-0.430,0.000,0.000,0.000
1641234988373825024,2022-01-03-18:36:28,10.1.1.12,138,-0.420,-0.420,-0.420,0.000,0.000,0.000
1641234988587297024,2022-01-03-18:36:28,10.1.1.12,151,-0.410,-0.410,-0.410,0.000,0.000,0.000
1641234988795133952,2022-01-03-18:36:28,10.1.1.12,153,-0.400,-0.400,-0.400,0.000,0.000,0.000
1641234988983944960,2022-01-03-18:36:28,10.1.1.12,141,-0.390,-0.390,-0.390,0.000,0.000,0.000
1641234989183844096,2022-01-03-18:36:29,10.1.1.12,140,-0.380,-0.380,-0.380,0.000,0.000,0.000
1641234989384068096,2022-01-03-18:36:29,10.1.1.12,137,-0.370,-0.370,-0.370,0.000,0.000,0.000
1641234989582437120,2022-01-03-18:36:29,10.1.1.12,135,-0.360,-0.360,-0.360,0.000,0.000,0.000
1641234989861377024,2022-01-03-18:36:29,10.1.1.12,214,-0.350,-0.350,-0.350,0.000,0.000,0.000
1641234990012695040,2022-01-03-18:36:30,10.1.1.12,142,-0.340,-0.340,-0.340,0.000,0.000,0.000
1641234990213798912,2022-01-03-18:36:30,10.1.1.12,149,-0.330,-0.330,-0.330,0.000,0.000,0.000
1641234990404546048,2022-01-03-18:36:30,10.1.1.12,139,-0.320,-0.320,-0.320,0.000,0.000,0.000
1641234990620891136,2022-01-03-18:36:30,10.1.1.12,155,-0.310,-0.310,-0.310,0.000,0.000,0.000
1641234990811641088,2022-01-03-18:36:30,10.1.1.12,146,-0.300,-0.300,-0.300,0.000,0.000,0.000
1641234991001904128,2022-01-03-18:36:31,10.1.1.12,132,-0.290,-0.290,-0.290,0.000,0.000,0.000
1641234991200486912,2022-01-03-18:36:31,10.1.1.12,130,-0.280,-0.280,-0.280,0.000,0.000,0.000
1641234991430557952,2022-01-03-18:36:31,10.1.1.12,159,-0.270,-0.270,-0.270,0.000,0.000,0.000
1641234991617321984,2022-01-03-18:36:31,10.1.1.12,144,-0.260,-0.260,-0.260,0.000,0.000,0.000
1641234991824579072,2022-01-03-18:36:31,10.1.1.12,151,-0.250,-0.250,-0.250,0.000,0.000,0.000
1641234992077518080,2022-01-03-18:36:32,10.1.1.12,201,-0.240,-0.240,-0.240,0.000,0.000,0.000
1641234992231478016,2022-01-03-18:36:32,10.1.1.12,141,-0.230,-0.230,-0.230,0.000,0.000,0.000
1641234992451187968,2022-01-03-18:36:32,10.1.1.12,160,-0.220,-0.220,-0.220,0.000,0.000,0.000
1641234992650427136,2022-01-03-18:36:32,10.1.1.12,158,-0.210,-0.210,-0.210,0.000,0.000,0.000
1641234992838601984,2022-01-03-18:36:32,10.1.1.12,146,-0.200,-0.200,-0.200,0.000,0.000,0.000
1641234993029148160,2022-01-03-18:36:33,10.1.1.12,136,-0.190,-0.190,-0.190,0.000,0.000,0.000
1641234993258189824,2022-01-03-18:36:33,10.1.1.12,138,-0.180,-0.180,-0.180,0.000,0.000,0.000
1641234993457840896,2022-01-03-18:36:33,10.1.1.12,137,-0.170,-0.170,-0.170,0.000,0.000,0.000
1641234993660556032,2022-01-03-18:36:33,10.1.1.12,139,-0.160,-0.160,-0.160,0.000,0.000,0.000
1641234993857367040,2022-01-03-18:36:33,10.1.1.12,135,-0.150,-0.150,-0.150,0.000,0.000,0.000
1641234994057100032,2022-01-03-18:36:34,10.1.1.12,134,-0.140,-0.140,-0.140,0.000,0.000,0.000
1641234994265542144,2022-01-03-18:36:34,10.1.1.12,141,-0.130,-0.130,-0.130,0.000,0.000,0.000
1641234994467248896,2022-01-03-18:36:34,10.1.1.12,138,-0.120,-0.120,-0.120,0.000,0.000,0.000
1641234994660573952,2022-01-03-18:36:34,10.1.1.12,130,-0.110,-0.110,-0.110,0.000,0.000,0.000
1641234994868295936,2022-01-03-18:36:34,10.1.1.12,137,-0.100,-0.100,-0.100,0.000,0.000,0.000
1641234995073307904,2022-01-03-18:36:35,10.1.1.12,142,-0.090,-0.090,-0.090,0.000,0.000,0.000
1641234995274846976,2022-01-03-18:36:35,10.1.1.12,142,-0.080,-0.080,-0.080,0.000,0.000,0.000
1641234995487264000,2022-01-03-18:36:35,10.1.1.12,152,-0.070,-0.070,-0.070,0.000,0.000,0.000
1641234995674882816,2022-01-03-18:36:35,10.1.1.12,137,-0.060,-0.060,-0.060,0.000,0.000,0.000
1641234995874492928,2022-01-03-18:36:35,10.1.1.12,135,-0.050,-0.050,-0.050,0.000,0.000,0.000
1641234996076814848,2022-01-03-18:36:36,10.1.1.12,137,-0.040,-0.040,-0.040,0.000,0.000,0.000
1641234996274124032,2022-01-03-18:36:36,10.1.1.12,133,-0.030,-0.030,-0.030,0.000,0.000,0.000
1641234996474912000,2022-01-03-18:36:36,10.1.1.12,134,-0.020,-0.020,-0.020,0.000,0.000,0.000
1641234996677267968,2022-01-03-18:36:36,10.1.1.12,134,-0.010,-0.010,-0.010,0.000,0.000,0.000
1641234996893181184,2022-01-03-18:36:36,10.1.1.12,137,0.000,0.000,0.000,0.000,0.000,0.000
1641234997093430016,2022-01-03-18:36:37,10.1.1.12,137,-0.010,-0.010,-0.010,0.000,0.000,0.000
1641234997293630976,2022-01-03-18:36:37,10.1.1.12,134,-0.020,-0.020,-0.020,0.000,0.000,0.000
1641234997494384128,2022-01-03-18:36:37,10.1.1.12,126,-0.030,-0.030,-0.030,0.000,0.000,0.000
1641234997709660160,2022-01-03-18:36:37,10.1.1.12,141,-0.040,-0.040,-0.040,0.000,0.000,0.000
1641234997907676928,2022-01-03-18:36:37,10.1.1.12,138,-0.050,-0.050,-0.050,0.000,0.000,0.000
1641234998093449984,2022-01-03-18:36:38,10.1.1.12,124,-0.060,-0.060,-0.060,0.000,0.000,0.000
1641234998312062976,2022-01-03-18:36:38,10.1.1.12,141,-0.070,-0.070,-0.070,0.000,0.000,0.000
1641234998525007104,2022-01-03-18:36:38,10.1.1.12,153,-0.080,-0.080,-0.080,0.000,0.000,0.000
1641234998700562944,2022-01-03-18:36:38,10.1.1.12,127,-0.090,-0.090,-0.090,0.000,0.000,0.000
1641234998941099776,2022-01-03-18:36:38,10.1.1.12,146,-0.100,-0.100,-0.100,0.000,0.000,0.000
1641234999132878080,2022-01-03-18:36:39,10.1.1.12,137,-0.110,-0.110,-0.110,0.000,0.000,0.000
1641234999330705920,2022-01-03-18:36:39,10.1.1.12,128,-0.120,-0.120,-0.120,0.000,0.000,0.000
1641234999540527104,2022-01-03-18:36:39,10.1.1.12,137,-0.130,-0.130,-0.130,0.000,0.000,0.000
1641234999741172992,2022-01-03-18:36:39,10.1.1.12,136,-0.140,-0.140,-0.140,0.000,0.000,0.000
1641234999936546048,2022-01-03-18:36:39,10.1.1.12,131,-0.150,-0.150,-0.150,0.000,0.000,0.000
1641235000143501056,2022-01-03-18:36:40,10.1.1.12,135,-0.160,-0.160,-0.160,0.000,0.000,0.000
1641235000332278016,2022-01-03-18:36:40,10.1.1.12,123,-0.170,-0.170,-0.170,0.000,0.000,0.000
1641235000529412096,2022-01-03-18:36:40,10.1.1.12,119,-0.180,-0.180,-0.180,0.000,0.000,0.000
1641235000730693120,2022-01-03-18:36:40,10.1.1.12,120,-0.190,-0.190,-0.190,0.000,0.000,0.000
1641235000981601024,2022-01-03-18:36:40,10.1.1.12,170,-0.200,-0.200,-0.200,0.000,0.000,0.000
1641235001158221056,2022-01-03-18:36:41,10.1.1.12,146,-0.210,-0.210,-0.210,0.000,0.000,0.000
1641235001336891904,2022-01-03-18:36:41,10.1.1.12,124,-0.220,-0.220,-0.220,0.000,0.000,0.000
1641235001546935040,2022-01-03-18:36:41,10.1.1.12,133,-0.230,-0.230,-0.230,0.000,0.000,0.000
1641235001762948864,2022-01-03-18:36:41,10.1.1.12,147,-0.240,-0.240,-0.240,0.000,0.000,0.000
1641235001945743104,2022-01-03-18:36:41,10.1.1.12,130,-0.250,-0.250,-0.250,0.000,0.000,0.000
1641235002181745152,2022-01-03-18:36:42,10.1.1.12,164,-0.260,-0.260,-0.260,0.000,0.000,0.000
1641235002335060992,2022-01-03-18:36:42,10.1.1.12,117,-0.270,-0.270,-0.270,0.000,0.000,0.000
1641235002554707968,2022-01-03-18:36:42,10.1.1.12,136,-0.280,-0.280,-0.280,0.000,0.000,0.000
1641235002734141184,2022-01-03-18:36:42,10.1.1.12,114,-0.290,-0.290,-0.290,0.000,0.000,0.000
1641235002944147968,2022-01-03-18:36:42,10.1.1.12,124,-0.300,-0.300,-0.300,0.000,0.000,0.000
1641235003145086976,2022-01-03-18:36:43,10.1.1.12,124,-0.310,-0.310,-0.310,0.000,0.000,0.000
1641235003393100032,2022-01-03-18:36:43,10.1.1.12,165,-0.320,-0.320,-0.320,0.000,0.000,0.000
1641235003574352128,2022-01-03-18:36:43,10.1.1.12,139,-0.330,-0.330,-0.330,0.000,0.000,0.000
1641235003773689088,2022-01-03-18:36:43,10.1.1.12,135,-0.340,-0.340,-0.340,0.000,0.000,0.000
1641235003966675968,2022-01-03-18:36:43,10.1.1.12,127,-0.350,-0.350,-0.350,0.000,0.000,0.000
1641235004163691008,2022-01-03-18:36:44,10.1.1.12,123,-0.360,-0.360,-0.360,0.000,0.000,0.000
1641235004362565888,2022-01-03-18:36:44,10.1.1.12,121,-0.370,-0.370,-0.370,0.000,0.000,0.000
1641235004616250112,2022-01-03-18:36:44,10.1.1.12,136,-0.380,-0.380,-0.380,0.000,0.000,0.000
1641235004816507136,2022-01-03-18:36:44,10.1.1.12,135,-0.390,-0.390,-0.390,0.000,0.000,0.000
1641235005008599040,2022-01-03-18:36:45,10.1.1.12,127,-0.400,-0.400,-0.400,0.000,0.000,0.000
1641235005217179136,2022-01-03-18:36:45,10.1.1.12,136,-0.410,-0.410,-0.410,0.000,0.000,0.000
1641235005405265152,2022-01-03-18:36:45,10.1.1.12,122,-0.420,-0.420,-0.420,0.000,0.000,0.000
1641235005704168192,2022-01-03-18:36:45,10.1.1.12,201,-0.430,-0.430,-0.430,0.000,0.000,0.000
1641235005830573056,2022-01-03-18:36:45,10.1.1.12,125,-0.440,-0.440,-0.440,0.000,0.000,0.000
1641235006019527936,2022-01-03-18:36:46,10.1.1.12,113,-0.450,-0.450,-0.450,0.000,0.000,0.000
1641235006239222016,2022-01-03-18:36:46,10.1.1.12,124,-0.460,-0.460,-0.460,0.000,0.000,0.000
1641235006450268928,2022-01-03-18:36:46,10.1.1.12,129,-0.470,-0.470,-0.470,0.000,0.000,0.000
1641235006639862016,2022-01-03-18:36:46,10.1.1.12,118,-0.480,-0.480,-0.480,0.000,0.000,0.000
1641235006840617984,2022-01-03-18:36:46,10.1.1.12,117,-0.490,-0.490,-0.490,0.000,0.000,0.000
1641235007089641216,2022-01-03-18:36:47,10.1.1.12,129,-0.480,-0.480,-0.480,0.000,0.000,0.000
1641235007288616960,2022-01-03-18:36:47,10.1.1.12,128,-0.470,-0.470,-0.470,0.000,0.000,0.000
1641235007482932992,2022-01-03-18:36:47,10.1.1.12,121,-0.460,-0.460,-0.460,0.000,0.000,0.000
1641235007676790016,2022-01-03-18:36:47,10.1.1.12,115,-0.450,-0.450,-0.450,0.000,0.000,0.000
1641235007903399936,2022-01-03-18:36:47,10.1.1.12,139,-0.440,-0.440,-0.440,0.000,0.000,0.000
1641235008076317184,2022-01-03-18:36:48,10.1.1.12,111,-0.430,-0.430,-0.430,0.000,0.000,0.000
1641235008286155008,2022-01-03-18:36:48,10.1.1.12,118,-0.420,-0.420,-0.420,0.000,0.000,0.000
1641235008476474880,2022-01-03-18:36:48,10.1.1.12,107,-0.410,-0.410,-0.410,0.000,0.000,0.000
1641235008695723008,2022-01-03-18:36:48,10.1.1.12,116,-0.400,-0.400,-0.400,0.000,0.000,0.000
1641235008885061120,2022-01-03-18:36:48,10.1.1.12,105,-0.390,-0.390,-0.390,0.000,0.000,0.000
1641235009094425856,2022-01-03-18:36:49,10.1.1.12,113,-0.380,-0.380,-0.380,0.000,0.000,0.000
1641235009294526976,2022-01-03-18:36:49,10.1.1.12,112,-0.370,-0.370,-0.370,0.000,0.000,0.000
1641235009495168000,2022-01-03-18:36:49,10.1.1.12,109,-0.360,-0.360,-0.360,0.000,0.000,0.000
1641235009694767104,2022-01-03-18:36:49,10.1.1.12,108,-0.350,-0.350,-0.350,0.000,0.000,0.000
1641235009895760128,2022-01-03-18:36:49,10.1.1.12,106,-0.340,-0.340,-0.340,0.000,0.000,0.000
1641235010332839936,2022-01-03-18:36:50,10.1.1.12,121,-0.320,-0.320,-0.320,0.000,0.000,0.000
1641235010532453120,2022-01-03-18:36:50,10.1.1.12,120,-0.310,-0.310,-0.310,0.000,0.000,0.000
1641235010733089024,2022-01-03-18:36:50,10.1.1.12,118,-0.300,-0.300,-0.300,0.000,0.000,0.000
1641235010932115968,2022-01-03-18:36:50,10.1.1.12,114,-0.290,-0.290,-0.290,0.000,0.000,0.000
1641235011131756032,2022-01-03-18:36:51,10.1.1.12,113,-0.280,-0.280,-0.280,0.000,0.000,0.000
1641235011361810944,2022-01-03-18:36:51,10.1.1.12,126,-0.270,-0.270,-0.270,0.000,0.000,0.000
1641235011552110080,2022-01-03-18:36:51,10.1.1.12,112,-0.260,-0.260,-0.260,0.000,0.000,0.000
1641235011753101056,2022-01-03-18:36:51,10.1.1.12,112,-0.250,-0.250,-0.250,0.000,0.000,0.000
1641235011950667008,2022-01-03-18:36:51,10.1.1.12,109,-0.240,-0.240,-0.240,0.000,0.000,0.000
1641235012151045120,2022-01-03-18:36:52,10.1.1.12,109,-0.230,-0.230,-0.230,0.000,0.000,0.000
1641235012364633088,2022-01-03-18:36:52,10.1.1.12,122,-0.220,-0.220,-0.220,0.000,0.000,0.000
1641235012561537024,2022-01-03-18:36:52,10.1.1.12,117,-0.210,-0.210,-0.210,0.000,0.000,0.000
1641235012749227008,2022-01-03-18:36:52,10.1.1.12,104,-0.200,-0.200,-0.200,0.000,0.000,0.000
1641235012948102912,2022-01-03-18:36:52,10.1.1.12,102,-0.190,-0.190,-0.190,0.000,0.000,0.000
1641235013160168960,2022-01-03-18:36:53,10.1.1.12,113,-0.180,-0.180,-0.180,0.000,0.000,0.000
1641235013360313856,2022-01-03-18:36:53,10.1.1.12,112,-0.170,-0.170,-0.170,0.000,0.000,0.000
1641235013561694976,2022-01-03-18:36:53,10.1.1.12,113,-0.160,-0.160,-0.160,0.000,0.000,0.000
1641235013782836992,2022-01-03-18:36:53,10.1.1.12,115,-0.150,-0.150,-0.150,0.000,0.000,0.000
1641235013974530048,2022-01-03-18:36:53,10.1.1.12,106,-0.140,-0.140,-0.140,0.000,0.000,0.000
1641235014179081984,2022-01-03-18:36:54,10.1.1.12,110,-0.130,-0.130,-0.130,0.000,0.000,0.000
1641235014376691968,2022-01-03-18:36:54,10.1.1.12,106,-0.120,-0.120,-0.120,0.000,0.000,0.000
1641235014608290048,2022-01-03-18:36:54,10.1.1.12,137,-0.110,-0.110,-0.110,0.000,0.000,0.000
1641235014829626112,2022-01-03-18:36:54,10.1.1.12,157,-0.100,-0.100,-0.100,0.000,0.000,0.000
1641235014988822016,2022-01-03-18:36:54,10.1.1.12,116,-0.090,-0.090,-0.090,0.000,0.000,0.000
1641235015199323904,2022-01-03-18:36:55,10.1.1.12,126,-0.080,-0.080,-0.080,0.000,0.000,0.000
1641235015402164992,2022-01-03-18:36:55,10.1.1.12,128,-0.070,-0.070,-0.070,0.000,0.000,0.000
1641235015603364096,2022-01-03-18:36:55,10.1.1.12,128,-0.060,-0.060,-0.060,0.000,0.000,0.000
1641235015809711872,2022-01-03-18:36:55,10.1.1.12,133,-0.050,-0.050,-0.050,0.000,0.000,0.000
1641235015993741056,2022-01-03-18:36:55,10.1.1.12,116,-0.040,-0.040,-0.040,0.000,0.000,0.000
1641235016208964096,2022-01-03-18:36:56,10.1.1.12,131,-0.030,-0.030,-0.030,0.000,0.000,0.000
1641235016405000960,2022-01-03-18:36:56,10.1.1.12,125,-0.020,-0.020,-0.020,0.000,0.000,0.000
1641235016605931008,2022-01-03-18:36:56,10.1.1.12,125,-0.010,-0.010,-0.010,0.000,0.000,0.000
1641235016806413824,2022-01-03-18:36:56,10.1.1.12,124,0.000,0.000,0.000,0.000,0.000,0.000
1641235017020739072,2022-01-03-18:36:57,10.1.1.12,137,-0.010,-0.010,-0.010,0.000,0.000,0.000
1641235017207848960,2022-01-03-18:36:57,10.1.1.12,122,-0.020,-0.020,-0.020,0.000,0.000,0.000
1641235017409158912,2022-01-03-18:36:57,10.1.1.12,121,-0.030,-0.030,-0.030,0.000,0.000,0.000
1641235017610459136,2022-01-03-18:36:57,10.1.1.12,121,-0.040,-0.040,-0.040,0.000,0.000,0.000
1641235017874650880,2022-01-03-18:36:57,10.1.1.12,184,-0.050,-0.050,-0.050,0.000,0.000,0.000
1641235018021805056,2022-01-03-18:36:58,10.1.1.12,121,-0.060,-0.060,-0.060,0.000,0.000,0.000
1641235018265989120,2022-01-03-18:36:58,10.1.1.12,163,-0.070,-0.070,-0.070,0.000,0.000,0.000
1641235018444377856,2022-01-03-18:36:58,10.1.1.12,134,-0.080,-0.080,-0.080,0.000,0.000,0.000
1641235018643106048,2022-01-03-18:36:58,10.1.1.12,138,-0.090,-0.090,-0.090,0.000,0.000,0.000
1641235018834387968,2022-01-03-18:36:58,10.1.1.12,128,-0.100,-0.100,-0.100,0.000,0.000,0.000
1641235019044163840,2022-01-03-18:36:59,10.1.1.12,137,-0.110,-0.110,-0.110,0.000,0.000,0.000
1641235019234733056,2022-01-03-18:36:59,10.1.1.12,128,-0.120,-0.120,-0.120,0.000,0.000,0.000
1641235019468348928,2022-01-03-18:36:59,10.1.1.12,159,-0.130,-0.130,-0.130,0.000,0.000,0.000
1641235019635895040,2022-01-03-18:36:59,10.1.1.12,126,-0.140,-0.140,-0.140,0.000,0.000,0.000
1641235019836355072,2022-01-03-18:36:59,10.1.1.12,126,-0.150,-0.150,-0.150,0.000,0.000,0.000
1641235020048068096,2022-01-03-18:37:00,10.1.1.12,136,-0.160,-0.160,-0.160,0.000,0.000,0.000
1641235020258790912,2022-01-03-18:37:00,10.1.1.12,146,-0.170,-0.170,-0.170,0.000,0.000,0.000
1641235020457613056,2022-01-03-18:37:00,10.1.1.12,142,-0.180,-0.180,-0.180,0.000,0.000,0.000
1641235020679182080,2022-01-03-18:37:00,10.1.1.12,134,-0.190,-0.190,-0.190,0.000,0.000,0.000
1641235020890625024,2022-01-03-18:37:00,10.1.1.12,140,-0.200,-0.200,-0.200,0.000,0.000,0.000
1641235021089762048,2022-01-03-18:37:01,10.1.1.12,139,-0.210,-0.210,-0.210,0.000,0.000,0.000
1641235021300389888,2022-01-03-18:37:01,10.1.1.12,148,-0.220,-0.220,-0.220,0.000,0.000,0.000
1641235021491503104,2022-01-03-18:37:01,10.1.1.12,138,-0.230,-0.230,-0.230,0.000,0.000,0.000
1641235021701137152,2022-01-03-18:37:01,10.1.1.12,146,-0.240,-0.240,-0.240,0.000,0.000,0.000
1641235021912590080,2022-01-03-18:37:01,10.1.1.12,153,-0.250,-0.250,-0.250,0.000,0.000,0.000
1641235022112899072,2022-01-03-18:37:02,10.1.1.12,152,-0.260,-0.260,-0.260,0.000,0.000,0.000
1641235022313026816,2022-01-03-18:37:02,10.1.1.12,151,-0.270,-0.270,-0.270,0.000,0.000,0.000
1641235022513714944,2022-01-03-18:37:02,10.1.1.12,143,-0.280,-0.280,-0.280,0.000,0.000,0.000
1641235022736811008,2022-01-03-18:37:02,10.1.1.12,165,-0.290,-0.290,-0.290,0.000,0.000,0.000
1641235022924901888,2022-01-03-18:37:02,10.1.1.12,148,-0.300,-0.300,-0.300,0.000,0.000,0.000
1641235023126686208,2022-01-03-18:37:03,10.1.1.12,139,-0.310,-0.310,-0.310,0.000,0.000,0.000
1641235023326103040,2022-01-03-18:37:03,10.1.1.12,136,-0.320,-0.320,-0.320,0.000,0.000,0.000
1641235023547095040,2022-01-03-18:37:03,10.1.1.12,156,-0.330,-0.330,-0.330,0.000,0.000,0.000
1641235023746340096,2022-01-03-18:37:03,10.1.1.12,150,-0.340,-0.340,-0.340,0.000,0.000,0.000
1641235023966753024,2022-01-03-18:37:03,10.1.1.12,147,-0.350,-0.350,-0.350,0.000,0.000,0.000
1641235024156670208,2022-01-03-18:37:04,10.1.1.12,137,-0.360,-0.360,-0.360,0.000,0.000,0.000
1641235024367233024,2022-01-03-18:37:04,10.1.1.12,146,-0.370,-0.370,-0.370,0.000,0.000,0.000
1641235024571182848,2022-01-03-18:37:04,10.1.1.12,149,-0.380,-0.380,-0.380,0.000,0.000,0.000
