FedericoMungari/DigitalTwin_service/01_WiredScenario/Output/Output_script/script_rosapi_2_output_robots4_freq0_2.txt
timestamp,date,node,latency,joint_1,joint_2,joint_3,joint_4,joint_5,joint_6
1641195349248080896,2022-01-03-07:35:49,10.1.1.3,179,-0.010,-0.010,-0.010,0.000,0.000,0.000
1641195349449827840,2022-01-03-07:35:49,10.1.1.3,179,-0.020,-0.020,-0.020,0.000,0.000,0.000
1641195349649966848,2022-01-03-07:35:49,10.1.1.3,178,-0.030,-0.030,-0.030,0.000,0.000,0.000
1641195349851314176,2022-01-03-07:35:49,10.1.1.3,179,-0.040,-0.040,-0.040,0.000,0.000,0.000
1641195350052988928,2022-01-03-07:35:50,10.1.1.3,179,-0.050,-0.050,-0.050,0.000,0.000,0.000
1641195350274816000,2022-01-03-07:35:50,10.1.1.3,200,-0.060,-0.060,-0.060,0.000,0.000,0.000
1641195350471954176,2022-01-03-07:35:50,10.1.1.3,196,-0.070,-0.070,-0.070,0.000,0.000,0.000
1641195350674304000,2022-01-03-07:35:50,10.1.1.3,198,-0.080,-0.080,-0.080,0.000,0.000,0.000
1641195350872946944,2022-01-03-07:35:50,10.1.1.3,195,-0.090,-0.090,-0.090,0.000,0.000,0.000
1641195351071286016,2022-01-03-07:35:51,10.1.1.3,193,-0.100,-0.100,-0.100,0.000,0.000,0.000
1641195351274043136,2022-01-03-07:35:51,10.1.1.3,195,-0.110,-0.110,-0.110,0.000,0.000,0.000
1641195351477000960,2022-01-03-07:35:51,10.1.1.3,196,-0.120,-0.120,-0.120,0.000,0.000,0.000
1641195351678170880,2022-01-03-07:35:51,10.1.1.3,196,-0.130,-0.130,-0.130,0.000,0.000,0.000
1641195351873437952,2022-01-03-07:35:51,10.1.1.3,191,-0.140,-0.140,-0.140,0.000,0.000,0.000
1641195352076826112,2022-01-03-07:35:52,10.1.1.3,193,-0.150,-0.150,-0.150,0.000,0.000,0.000
1641195352279556096,2022-01-03-07:35:52,10.1.1.3,194,-0.160,-0.160,-0.160,0.000,0.000,0.000
1641195352477946880,2022-01-03-07:35:52,10.1.1.3,192,-0.170,-0.170,-0.170,0.000,0.000,0.000
1641195352677180928,2022-01-03-07:35:52,10.1.1.3,190,-0.180,-0.180,-0.180,0.000,0.000,0.000
1641195352874675968,2022-01-03-07:35:52,10.1.1.3,183,-0.190,-0.190,-0.190,0.000,0.000,0.000
1641195353077086976,2022-01-03-07:35:53,10.1.1.3,184,-0.200,-0.200,-0.200,0.000,0.000,0.000
1641195353280381952,2022-01-03-07:35:53,10.1.1.3,187,-0.210,-0.210,-0.210,0.000,0.000,0.000
1641195353696551168,2022-01-03-07:35:53,10.1.1.3,201,-0.230,-0.230,-0.230,0.000,0.000,0.000
1641195354096453888,2022-01-03-07:35:54,10.1.1.3,197,-0.250,-0.250,-0.250,0.000,0.000,0.000
1641195354298029056,2022-01-03-07:35:54,10.1.1.3,196,-0.260,-0.260,-0.260,0.000,0.000,0.000
1641195354499088128,2022-01-03-07:35:54,10.1.1.3,194,-0.270,-0.270,-0.270,0.000,0.000,0.000
1641195354700366080,2022-01-03-07:35:54,10.1.1.3,195,-0.280,-0.280,-0.280,0.000,0.000,0.000
1641195354898152192,2022-01-03-07:35:54,10.1.1.3,191,-0.290,-0.290,-0.290,0.000,0.000,0.000
1641195355097337088,2022-01-03-07:35:55,10.1.1.3,190,-0.300,-0.300,-0.300,0.000,0.000,0.000
1641195355304357888,2022-01-03-07:35:55,10.1.1.3,195,-0.310,-0.310,-0.310,0.000,0.000,0.000
1641195355497554176,2022-01-03-07:35:55,10.1.1.3,187,-0.320,-0.320,-0.320,0.000,0.000,0.000
1641195356120407040,2022-01-03-07:35:56,10.1.1.3,202,-0.350,-0.350,-0.350,0.000,0.000,0.000
1641195356321754880,2022-01-03-07:35:56,10.1.1.3,200,-0.360,-0.360,-0.360,0.000,0.000,0.000
1641195356519619072,2022-01-03-07:35:56,10.1.1.3,196,-0.370,-0.370,-0.370,0.000,0.000,0.000
1641195356720238848,2022-01-03-07:35:56,10.1.1.3,196,-0.380,-0.380,-0.380,0.000,0.000,0.000
1641195356921053952,2022-01-03-07:35:56,10.1.1.3,194,-0.390,-0.390,-0.390,0.000,0.000,0.000
1641195357120356096,2022-01-03-07:35:57,10.1.1.3,193,-0.400,-0.400,-0.400,0.000,0.000,0.000
1641195357320975104,2022-01-03-07:35:57,10.1.1.3,192,-0.410,-0.410,-0.410,0.000,0.000,0.000
1641195357522191104,2022-01-03-07:35:57,10.1.1.3,189,-0.420,-0.420,-0.420,0.000,0.000,0.000
1641195357718920960,2022-01-03-07:35:57,10.1.1.3,184,-0.430,-0.430,-0.430,0.000,0.000,0.000
1641195358138362880,2022-01-03-07:35:58,10.1.1.3,203,-0.450,-0.450,-0.450,0.000,0.000,0.000
1641195358340738048,2022-01-03-07:35:58,10.1.1.3,201,-0.460,-0.460,-0.460,0.000,0.000,0.000
1641195358540809984,2022-01-03-07:35:58,10.1.1.3,198,-0.470,-0.470,-0.470,0.000,0.000,0.000
1641195358739467008,2022-01-03-07:35:58,10.1.1.3,195,-0.480,-0.480,-0.480,0.000,0.000,0.000
1641195358940892928,2022-01-03-07:35:58,10.1.1.3,195,-0.490,-0.490,-0.490,0.000,0.000,0.000
1641195359140228096,2022-01-03-07:35:59,10.1.1.3,193,-0.480,-0.480,-0.480,0.000,0.000,0.000
1641195359337474048,2022-01-03-07:35:59,10.1.1.3,189,-0.470,-0.470,-0.470,0.000,0.000,0.000
1641195359539827200,2022-01-03-07:35:59,10.1.1.3,190,-0.460,-0.460,-0.460,0.000,0.000,0.000
1641195359738007040,2022-01-03-07:35:59,10.1.1.3,185,-0.450,-0.450,-0.450,0.000,0.000,0.000
1641195359936023040,2022-01-03-07:35:59,10.1.1.3,185,-0.440,-0.440,-0.440,0.000,0.000,0.000
1641195360137624064,2022-01-03-07:36:00,10.1.1.3,186,-0.430,-0.430,-0.430,0.000,0.000,0.000
1641195360756787968,2022-01-03-07:36:00,10.1.1.3,197,-0.400,-0.400,-0.400,0.000,0.000,0.000
1641195360955100928,2022-01-03-07:36:00,10.1.1.3,194,-0.390,-0.390,-0.390,0.000,0.000,0.000
1641195361156668928,2022-01-03-07:36:01,10.1.1.3,194,-0.380,-0.380,-0.380,0.000,0.000,0.000
1641195361357899008,2022-01-03-07:36:01,10.1.1.3,192,-0.370,-0.370,-0.370,0.000,0.000,0.000
1641195361557787904,2022-01-03-07:36:01,10.1.1.3,191,-0.360,-0.360,-0.360,0.000,0.000,0.000
1641195361757651968,2022-01-03-07:36:01,10.1.1.3,188,-0.350,-0.350,-0.350,0.000,0.000,0.000
1641195361957806080,2022-01-03-07:36:01,10.1.1.3,184,-0.340,-0.340,-0.340,0.000,0.000,0.000
1641195362156975872,2022-01-03-07:36:02,10.1.1.3,184,-0.330,-0.330,-0.330,0.000,0.000,0.000
1641195362376025088,2022-01-03-07:36:02,10.1.1.3,200,-0.320,-0.320,-0.320,0.000,0.000,0.000
1641195362585053952,2022-01-03-07:36:02,10.1.1.3,207,-0.310,-0.310,-0.310,0.000,0.000,0.000
1641195362776678144,2022-01-03-07:36:02,10.1.1.3,186,-0.300,-0.300,-0.300,0.000,0.000,0.000
1641195362972758016,2022-01-03-07:36:02,10.1.1.3,181,-0.290,-0.290,-0.290,0.000,0.000,0.000
1641195363172889088,2022-01-03-07:36:03,10.1.1.3,181,-0.280,-0.280,-0.280,0.000,0.000,0.000
1641195363593692928,2022-01-03-07:36:03,10.1.1.3,198,-0.260,-0.260,-0.260,0.000,0.000,0.000
1641195363793554176,2022-01-03-07:36:03,10.1.1.3,193,-0.250,-0.250,-0.250,0.000,0.000,0.000
1641195363994134016,2022-01-03-07:36:03,10.1.1.3,194,-0.240,-0.240,-0.240,0.000,0.000,0.000
1641195364192121088,2022-01-03-07:36:04,10.1.1.3,191,-0.230,-0.230,-0.230,0.000,0.000,0.000
1641195364395521024,2022-01-03-07:36:04,10.1.1.3,192,-0.220,-0.220,-0.220,0.000,0.000,0.000
1641195364593394944,2022-01-03-07:36:04,10.1.1.3,188,-0.210,-0.210,-0.210,0.000,0.000,0.000
1641195364795136000,2022-01-03-07:36:04,10.1.1.3,189,-0.200,-0.200,-0.200,0.000,0.000,0.000
1641195364991337984,2022-01-03-07:36:04,10.1.1.3,185,-0.190,-0.190,-0.190,0.000,0.000,0.000
1641195365190969088,2022-01-03-07:36:05,10.1.1.3,184,-0.180,-0.180,-0.180,0.000,0.000,0.000
1641195365391119104,2022-01-03-07:36:05,10.1.1.3,182,-0.170,-0.170,-0.170,0.000,0.000,0.000
1641195365591175936,2022-01-03-07:36:05,10.1.1.3,181,-0.160,-0.160,-0.160,0.000,0.000,0.000
1641195365789807104,2022-01-03-07:36:05,10.1.1.3,178,-0.150,-0.150,-0.150,0.000,0.000,0.000
1641195365993052928,2022-01-03-07:36:05,10.1.1.3,179,-0.140,-0.140,-0.140,0.000,0.000,0.000
1641195366211803904,2022-01-03-07:36:06,10.1.1.3,198,-0.130,-0.130,-0.130,0.000,0.000,0.000
1641195366408696832,2022-01-03-07:36:06,10.1.1.3,192,-0.120,-0.120,-0.120,0.000,0.000,0.000
1641195366614144000,2022-01-03-07:36:06,10.1.1.3,196,-0.110,-0.110,-0.110,0.000,0.000,0.000
1641195366808381184,2022-01-03-07:36:06,10.1.1.3,190,-0.100,-0.100,-0.100,0.000,0.000,0.000
1641195367009181952,2022-01-03-07:36:07,10.1.1.3,187,-0.090,-0.090,-0.090,0.000,0.000,0.000
1641195367215089152,2022-01-03-07:36:07,10.1.1.3,192,-0.080,-0.080,-0.080,0.000,0.000,0.000
1641195367408459008,2022-01-03-07:36:07,10.1.1.3,184,-0.070,-0.070,-0.070,0.000,0.000,0.000
1641195367608335872,2022-01-03-07:36:07,10.1.1.3,182,-0.060,-0.060,-0.060,0.000,0.000,0.000
1641195367810740992,2022-01-03-07:36:07,10.1.1.3,178,-0.050,-0.050,-0.050,0.000,0.000,0.000
1641195368032079872,2022-01-03-07:36:08,10.1.1.3,192,-0.040,-0.040,-0.040,0.000,0.000,0.000
1641195368227777024,2022-01-03-07:36:08,10.1.1.3,185,-0.030,-0.030,-0.030,0.000,0.000,0.000
1641195368426888960,2022-01-03-07:36:08,10.1.1.3,184,-0.020,-0.020,-0.020,0.000,0.000,0.000
1641195368628953088,2022-01-03-07:36:08,10.1.1.3,184,-0.010,-0.010,-0.010,0.000,0.000,0.000
1641195368829842944,2022-01-03-07:36:08,10.1.1.3,183,0.000,0.000,0.000,0.000,0.000,0.000
1641195369025747968,2022-01-03-07:36:09,10.1.1.3,177,-0.010,-0.010,-0.010,0.000,0.000,0.000
1641195369229366016,2022-01-03-07:36:09,10.1.1.3,180,-0.020,-0.020,-0.020,0.000,0.000,0.000
1641195369425628928,2022-01-03-07:36:09,10.1.1.3,176,-0.030,-0.030,-0.030,0.000,0.000,0.000
1641195369625720064,2022-01-03-07:36:09,10.1.1.3,175,-0.040,-0.040,-0.040,0.000,0.000,0.000
1641195369828116992,2022-01-03-07:36:09,10.1.1.3,177,-0.050,-0.050,-0.050,0.000,0.000,0.000
1641195370028611840,2022-01-03-07:36:10,10.1.1.3,176,-0.060,-0.060,-0.060,0.000,0.000,0.000
1641195370225317888,2022-01-03-07:36:10,10.1.1.3,173,-0.070,-0.070,-0.070,0.000,0.000,0.000
1641195370425575936,2022-01-03-07:36:10,10.1.1.3,172,-0.080,-0.080,-0.080,0.000,0.000,0.000
1641195370645158912,2022-01-03-07:36:10,10.1.1.3,191,-0.090,-0.090,-0.090,0.000,0.000,0.000
1641195371042386176,2022-01-03-07:36:11,10.1.1.3,184,-0.110,-0.110,-0.110,0.000,0.000,0.000
1641195371251197952,2022-01-03-07:36:11,10.1.1.3,191,-0.120,-0.120,-0.120,0.000,0.000,0.000
1641195371447271936,2022-01-03-07:36:11,10.1.1.3,184,-0.130,-0.130,-0.130,0.000,0.000,0.000
1641195371647251968,2022-01-03-07:36:11,10.1.1.3,176,-0.140,-0.140,-0.140,0.000,0.000,0.000
1641195371844667904,2022-01-03-07:36:11,10.1.1.3,171,-0.150,-0.150,-0.150,0.000,0.000,0.000
1641195372065531136,2022-01-03-07:36:12,10.1.1.3,191,-0.160,-0.160,-0.160,0.000,0.000,0.000
1641195372264496128,2022-01-03-07:36:12,10.1.1.3,189,-0.170,-0.170,-0.170,0.000,0.000,0.000
1641195372463648000,2022-01-03-07:36:12,10.1.1.3,186,-0.180,-0.180,-0.180,0.000,0.000,0.000
1641195372662648832,2022-01-03-07:36:12,10.1.1.3,185,-0.190,-0.190,-0.190,0.000,0.000,0.000
1641195372861128192,2022-01-03-07:36:12,10.1.1.3,174,-0.200,-0.200,-0.200,0.000,0.000,0.000
1641195373068528896,2022-01-03-07:36:13,10.1.1.3,180,-0.210,-0.210,-0.210,0.000,0.000,0.000
1641195373260012032,2022-01-03-07:36:13,10.1.1.3,170,-0.220,-0.220,-0.220,0.000,0.000,0.000
1641195373463703040,2022-01-03-07:36:13,10.1.1.3,171,-0.230,-0.230,-0.230,0.000,0.000,0.000
1641195373659890944,2022-01-03-07:36:13,10.1.1.3,166,-0.240,-0.240,-0.240,0.000,0.000,0.000
1641195373878902016,2022-01-03-07:36:13,10.1.1.3,184,-0.250,-0.250,-0.250,0.000,0.000,0.000
1641195374083038208,2022-01-03-07:36:14,10.1.1.3,186,-0.260,-0.260,-0.260,0.000,0.000,0.000
1641195374280338944,2022-01-03-07:36:14,10.1.1.3,177,-0.270,-0.270,-0.270,0.000,0.000,0.000
1641195374480758016,2022-01-03-07:36:14,10.1.1.3,179,-0.280,-0.280,-0.280,0.000,0.000,0.000
1641195374676992000,2022-01-03-07:36:14,10.1.1.3,174,-0.290,-0.290,-0.290,0.000,0.000,0.000
1641195374879265024,2022-01-03-07:36:14,10.1.1.3,174,-0.300,-0.300,-0.300,0.000,0.000,0.000
1641195375077647872,2022-01-03-07:36:15,10.1.1.3,173,-0.310,-0.310,-0.310,0.000,0.000,0.000
1641195375277616896,2022-01-03-07:36:15,10.1.1.3,172,-0.320,-0.320,-0.320,0.000,0.000,0.000
1641195375479370240,2022-01-03-07:36:15,10.1.1.3,173,-0.330,-0.330,-0.330,0.000,0.000,0.000
1641195375677393920,2022-01-03-07:36:15,10.1.1.3,170,-0.340,-0.340,-0.340,0.000,0.000,0.000
1641195375878118912,2022-01-03-07:36:15,10.1.1.3,168,-0.350,-0.350,-0.350,0.000,0.000,0.000
1641195376083429120,2022-01-03-07:36:16,10.1.1.3,173,-0.360,-0.360,-0.360,0.000,0.000,0.000
1641195376315134976,2022-01-03-07:36:16,10.1.1.3,181,-0.370,-0.370,-0.370,0.000,0.000,0.000
1641195376515420928,2022-01-03-07:36:16,10.1.1.3,177,-0.380,-0.380,-0.380,0.000,0.000,0.000
1641195376719070976,2022-01-03-07:36:16,10.1.1.3,180,-0.390,-0.390,-0.390,0.000,0.000,0.000
1641195376915015936,2022-01-03-07:36:16,10.1.1.3,174,-0.400,-0.400,-0.400,0.000,0.000,0.000
1641195377116075008,2022-01-03-07:36:17,10.1.1.3,175,-0.410,-0.410,-0.410,0.000,0.000,0.000
1641195377315640832,2022-01-03-07:36:17,10.1.1.3,173,-0.420,-0.420,-0.420,0.000,0.000,0.000
1641195377513299968,2022-01-03-07:36:17,10.1.1.3,170,-0.430,-0.430,-0.430,0.000,0.000,0.000
1641195377714807040,2022-01-03-07:36:17,10.1.1.3,170,-0.440,-0.440,-0.440,0.000,0.000,0.000
1641195377911942912,2022-01-03-07:36:17,10.1.1.3,166,-0.450,-0.450,-0.450,0.000,0.000,0.000
1641195378113532160,2022-01-03-07:36:18,10.1.1.3,166,-0.460,-0.460,-0.460,0.000,0.000,0.000
1641195378318514176,2022-01-03-07:36:18,10.1.1.3,169,-0.470,-0.470,-0.470,0.000,0.000,0.000
1641195378517709056,2022-01-03-07:36:18,10.1.1.3,165,-0.480,-0.480,-0.480,0.000,0.000,0.000
1641195378744541952,2022-01-03-07:36:18,10.1.1.3,191,-0.490,-0.490,-0.490,0.000,0.000,0.000
1641195378936683776,2022-01-03-07:36:18,10.1.1.3,182,-0.480,-0.480,-0.480,0.000,0.000,0.000
1641195379138859008,2022-01-03-07:36:19,10.1.1.3,183,-0.470,-0.470,-0.470,0.000,0.000,0.000
1641195379338184960,2022-01-03-07:36:19,10.1.1.3,180,-0.460,-0.460,-0.460,0.000,0.000,0.000
1641195379539974912,2022-01-03-07:36:19,10.1.1.3,182,-0.450,-0.450,-0.450,0.000,0.000,0.000
1641195379740382976,2022-01-03-07:36:19,10.1.1.3,181,-0.440,-0.440,-0.440,0.000,0.000,0.000
1641195379939941888,2022-01-03-07:36:19,10.1.1.3,180,-0.430,-0.430,-0.430,0.000,0.000,0.000
1641195380143856128,2022-01-03-07:36:20,10.1.1.3,182,-0.420,-0.420,-0.420,0.000,0.000,0.000
1641195380342694912,2022-01-03-07:36:20,10.1.1.3,180,-0.410,-0.410,-0.410,0.000,0.000,0.000
1641195380542906880,2022-01-03-07:36:20,10.1.1.3,178,-0.400,-0.400,-0.400,0.000,0.000,0.000
1641195380744296192,2022-01-03-07:36:20,10.1.1.3,179,-0.390,-0.390,-0.390,0.000,0.000,0.000
1641195380945133056,2022-01-03-07:36:20,10.1.1.3,179,-0.380,-0.380,-0.380,0.000,0.000,0.000
1641195381145186816,2022-01-03-07:36:21,10.1.1.3,178,-0.370,-0.370,-0.370,0.000,0.000,0.000
1641195381346582016,2022-01-03-07:36:21,10.1.1.3,178,-0.360,-0.360,-0.360,0.000,0.000,0.000
1641195381547215104,2022-01-03-07:36:21,10.1.1.3,178,-0.350,-0.350,-0.350,0.000,0.000,0.000
1641195381745185024,2022-01-03-07:36:21,10.1.1.3,175,-0.340,-0.340,-0.340,0.000,0.000,0.000
1641195381947511040,2022-01-03-07:36:21,10.1.1.3,176,-0.330,-0.330,-0.330,0.000,0.000,0.000
1641195382146708992,2022-01-03-07:36:22,10.1.1.3,176,-0.320,-0.320,-0.320,0.000,0.000,0.000
1641195382347148032,2022-01-03-07:36:22,10.1.1.3,175,-0.310,-0.310,-0.310,0.000,0.000,0.000
1641195382552834048,2022-01-03-07:36:22,10.1.1.3,179,-0.300,-0.300,-0.300,0.000,0.000,0.000
1641195382752526080,2022-01-03-07:36:22,10.1.1.3,178,-0.290,-0.290,-0.290,0.000,0.000,0.000
1641195382968832000,2022-01-03-07:36:22,10.1.1.3,194,-0.280,-0.280,-0.280,0.000,0.000,0.000
1641195383170885120,2022-01-03-07:36:23,10.1.1.3,195,-0.270,-0.270,-0.270,0.000,0.000,0.000
1641195383372592896,2022-01-03-07:36:23,10.1.1.3,196,-0.260,-0.260,-0.260,0.000,0.000,0.000
1641195383769809920,2022-01-03-07:36:23,10.1.1.3,190,-0.240,-0.240,-0.240,0.000,0.000,0.000
1641195383975131904,2022-01-03-07:36:23,10.1.1.3,194,-0.230,-0.230,-0.230,0.000,0.000,0.000
1641195384173441024,2022-01-03-07:36:24,10.1.1.3,192,-0.220,-0.220,-0.220,0.000,0.000,0.000
1641195384377502976,2022-01-03-07:36:24,10.1.1.3,195,-0.210,-0.210,-0.210,0.000,0.000,0.000
1641195384576449024,2022-01-03-07:36:24,10.1.1.3,192,-0.200,-0.200,-0.200,0.000,0.000,0.000
1641195384771974144,2022-01-03-07:36:24,10.1.1.3,187,-0.190,-0.190,-0.190,0.000,0.000,0.000
1641195384974912768,2022-01-03-07:36:24,10.1.1.3,189,-0.180,-0.180,-0.180,0.000,0.000,0.000
1641195385175931904,2022-01-03-07:36:25,10.1.1.3,190,-0.170,-0.170,-0.170,0.000,0.000,0.000
1641195385371848960,2022-01-03-07:36:25,10.1.1.3,185,-0.160,-0.160,-0.160,0.000,0.000,0.000
1641195385574498816,2022-01-03-07:36:25,10.1.1.3,187,-0.150,-0.150,-0.150,0.000,0.000,0.000
1641195385774215936,2022-01-03-07:36:25,10.1.1.3,186,-0.140,-0.140,-0.140,0.000,0.000,0.000
1641195385971930880,2022-01-03-07:36:25,10.1.1.3,183,-0.130,-0.130,-0.130,0.000,0.000,0.000
1641195386175382016,2022-01-03-07:36:26,10.1.1.3,186,-0.120,-0.120,-0.120,0.000,0.000,0.000
1641195386373990912,2022-01-03-07:36:26,10.1.1.3,184,-0.110,-0.110,-0.110,0.000,0.000,0.000
1641195386574873088,2022-01-03-07:36:26,10.1.1.3,184,-0.100,-0.100,-0.100,0.000,0.000,0.000
1641195386776288000,2022-01-03-07:36:26,10.1.1.3,184,-0.090,-0.090,-0.090,0.000,0.000,0.000
1641195387194031872,2022-01-03-07:36:27,10.1.1.3,197,-0.070,-0.070,-0.070,0.000,0.000,0.000
1641195387395457024,2022-01-03-07:36:27,10.1.1.3,198,-0.060,-0.060,-0.060,0.000,0.000,0.000
1641195387594995968,2022-01-03-07:36:27,10.1.1.3,196,-0.050,-0.050,-0.050,0.000,0.000,0.000
1641195387994134784,2022-01-03-07:36:27,10.1.1.3,192,-0.030,-0.030,-0.030,0.000,0.000,0.000
1641195388197073920,2022-01-03-07:36:28,10.1.1.3,193,-0.020,-0.020,-0.020,0.000,0.000,0.000
1641195388394162944,2022-01-03-07:36:28,10.1.1.3,188,-0.010,-0.010,-0.010,0.000,0.000,0.000
1641195388596002048,2022-01-03-07:36:28,10.1.1.3,189,0.000,0.000,0.000,0.000,0.000,0.000
1641195388797071872,2022-01-03-07:36:28,10.1.1.3,189,-0.010,-0.010,-0.010,0.000,0.000,0.000
1641195388994785024,2022-01-03-07:36:28,10.1.1.3,184,-0.020,-0.020,-0.020,0.000,0.000,0.000
1641195389197117184,2022-01-03-07:36:29,10.1.1.3,185,-0.030,-0.030,-0.030,0.000,0.000,0.000
1641195389418603008,2022-01-03-07:36:29,10.1.1.3,199,-0.040,-0.040,-0.040,0.000,0.000,0.000
1641195389613261824,2022-01-03-07:36:29,10.1.1.3,193,-0.050,-0.050,-0.050,0.000,0.000,0.000
1641195389818557952,2022-01-03-07:36:29,10.1.1.3,196,-0.060,-0.060,-0.060,0.000,0.000,0.000
1641195390014894080,2022-01-03-07:36:30,10.1.1.3,192,-0.070,-0.070,-0.070,0.000,0.000,0.000
1641195390214574080,2022-01-03-07:36:30,10.1.1.3,192,-0.080,-0.080,-0.080,0.000,0.000,0.000
1641195390424371968,2022-01-03-07:36:30,10.1.1.3,193,-0.090,-0.090,-0.090,0.000,0.000,0.000
1641195390613836032,2022-01-03-07:36:30,10.1.1.3,189,-0.100,-0.100,-0.100,0.000,0.000,0.000
1641195390815411968,2022-01-03-07:36:30,10.1.1.3,190,-0.110,-0.110,-0.110,0.000,0.000,0.000
1641195391014004992,2022-01-03-07:36:31,10.1.1.3,188,-0.120,-0.120,-0.120,0.000,0.000,0.000
1641195391216499200,2022-01-03-07:36:31,10.1.1.3,189,-0.130,-0.130,-0.130,0.000,0.000,0.000
1641195391417202944,2022-01-03-07:36:31,10.1.1.3,189,-0.140,-0.140,-0.140,0.000,0.000,0.000
1641195391618081024,2022-01-03-07:36:31,10.1.1.3,189,-0.150,-0.150,-0.150,0.000,0.000,0.000
1641195391837208064,2022-01-03-07:36:31,10.1.1.3,200,-0.160,-0.160,-0.160,0.000,0.000,0.000
1641195392035321856,2022-01-03-07:36:32,10.1.1.3,197,-0.170,-0.170,-0.170,0.000,0.000,0.000
1641195392232937216,2022-01-03-07:36:32,10.1.1.3,194,-0.180,-0.180,-0.180,0.000,0.000,0.000
1641195392437020928,2022-01-03-07:36:32,10.1.1.3,197,-0.190,-0.190,-0.190,0.000,0.000,0.000
1641195392632167936,2022-01-03-07:36:32,10.1.1.3,190,-0.200,-0.200,-0.200,0.000,0.000,0.000
1641195392834834944,2022-01-03-07:36:32,10.1.1.3,189,-0.210,-0.210,-0.210,0.000,0.000,0.000
1641195393043293952,2022-01-03-07:36:33,10.1.1.3,199,-0.220,-0.220,-0.220,0.000,0.000,0.000
1641195393236015104,2022-01-03-07:36:33,10.1.1.3,191,-0.230,-0.230,-0.230,0.000,0.000,0.000
1641195393433967104,2022-01-03-07:36:33,10.1.1.3,181,-0.240,-0.240,-0.240,0.000,0.000,0.000
1641195393651653120,2022-01-03-07:36:33,10.1.1.3,196,-0.250,-0.250,-0.250,0.000,0.000,0.000
1641195394058435840,2022-01-03-07:36:34,10.1.1.3,200,-0.270,-0.270,-0.270,0.000,0.000,0.000
1641195394259674112,2022-01-03-07:36:34,10.1.1.3,201,-0.280,-0.280,-0.280,0.000,0.000,0.000
1641195394452809216,2022-01-03-07:36:34,10.1.1.3,192,-0.290,-0.290,-0.290,0.000,0.000,0.000
1641195394653779968,2022-01-03-07:36:34,10.1.1.3,192,-0.300,-0.300,-0.300,0.000,0.000,0.000
1641195394852169984,2022-01-03-07:36:34,10.1.1.3,189,-0.310,-0.310,-0.310,0.000,0.000,0.000
1641195395049683200,2022-01-03-07:36:35,10.1.1.3,186,-0.320,-0.320,-0.320,0.000,0.000,0.000
1641195395250073856,2022-01-03-07:36:35,10.1.1.3,186,-0.330,-0.330,-0.330,0.000,0.000,0.000
1641195395452846080,2022-01-03-07:36:35,10.1.1.3,186,-0.340,-0.340,-0.340,0.000,0.000,0.000
1641195395649932032,2022-01-03-07:36:35,10.1.1.3,184,-0.350,-0.350,-0.350,0.000,0.000,0.000
1641195395849568000,2022-01-03-07:36:35,10.1.1.3,183,-0.360,-0.360,-0.360,0.000,0.000,0.000
1641195396050832896,2022-01-03-07:36:36,10.1.1.3,183,-0.370,-0.370,-0.370,0.000,0.000,0.000
1641195396253783040,2022-01-03-07:36:36,10.1.1.3,186,-0.380,-0.380,-0.380,0.000,0.000,0.000
1641195396453270016,2022-01-03-07:36:36,10.1.1.3,180,-0.390,-0.390,-0.390,0.000,0.000,0.000
1641195396652179968,2022-01-03-07:36:36,10.1.1.3,180,-0.400,-0.400,-0.400,0.000,0.000,0.000
1641195396849960192,2022-01-03-07:36:36,10.1.1.3,177,-0.410,-0.410,-0.410,0.000,0.000,0.000
1641195397071641088,2022-01-03-07:36:37,10.1.1.3,193,-0.420,-0.420,-0.420,0.000,0.000,0.000
1641195397273804800,2022-01-03-07:36:37,10.1.1.3,193,-0.430,-0.430,-0.430,0.000,0.000,0.000
1641195397467320832,2022-01-03-07:36:37,10.1.1.3,186,-0.440,-0.440,-0.440,0.000,0.000,0.000
1641195397672625152,2022-01-03-07:36:37,10.1.1.3,188,-0.450,-0.450,-0.450,0.000,0.000,0.000
1641195397871282176,2022-01-03-07:36:37,10.1.1.3,185,-0.460,-0.460,-0.460,0.000,0.000,0.000
1641195398069277952,2022-01-03-07:36:38,10.1.1.3,179,-0.470,-0.470,-0.470,0.000,0.000,0.000
1641195398275804928,2022-01-03-07:36:38,10.1.1.3,183,-0.480,-0.480,-0.480,0.000,0.000,0.000
1641195398467843072,2022-01-03-07:36:38,10.1.1.3,175,-0.490,-0.490,-0.490,0.000,0.000,0.000
1641195398688685824,2022-01-03-07:36:38,10.1.1.3,194,-0.480,-0.480,-0.480,0.000,0.000,0.000
1641195398885704960,2022-01-03-07:36:38,10.1.1.3,191,-0.470,-0.470,-0.470,0.000,0.000,0.000
1641195399087297792,2022-01-03-07:36:39,10.1.1.3,190,-0.460,-0.460,-0.460,0.000,0.000,0.000
1641195399288672000,2022-01-03-07:36:39,10.1.1.3,191,-0.450,-0.450,-0.450,0.000,0.000,0.000
1641195399486160896,2022-01-03-07:36:39,10.1.1.3,189,-0.440,-0.440,-0.440,0.000,0.000,0.000
1641195399687768064,2022-01-03-07:36:39,10.1.1.3,189,-0.430,-0.430,-0.430,0.000,0.000,0.000
1641195399887120896,2022-01-03-07:36:39,10.1.1.3,189,-0.420,-0.420,-0.420,0.000,0.000,0.000
1641195400082784768,2022-01-03-07:36:40,10.1.1.3,183,-0.410,-0.410,-0.410,0.000,0.000,0.000
1641195400286402816,2022-01-03-07:36:40,10.1.1.3,186,-0.400,-0.400,-0.400,0.000,0.000,0.000
1641195400483768832,2022-01-03-07:36:40,10.1.1.3,183,-0.390,-0.390,-0.390,0.000,0.000,0.000
1641195400683345920,2022-01-03-07:36:40,10.1.1.3,179,-0.380,-0.380,-0.380,0.000,0.000,0.000
1641195400885454848,2022-01-03-07:36:40,10.1.1.3,179,-0.370,-0.370,-0.370,0.000,0.000,0.000
1641195401082843904,2022-01-03-07:36:41,10.1.1.3,177,-0.360,-0.360,-0.360,0.000,0.000,0.000
1641195401282398976,2022-01-03-07:36:41,10.1.1.3,174,-0.350,-0.350,-0.350,0.000,0.000,0.000
1641195401487963904,2022-01-03-07:36:41,10.1.1.3,178,-0.340,-0.340,-0.340,0.000,0.000,0.000
1641195401685704960,2022-01-03-07:36:41,10.1.1.3,175,-0.330,-0.330,-0.330,0.000,0.000,0.000
1641195401887842048,2022-01-03-07:36:41,10.1.1.3,175,-0.320,-0.320,-0.320,0.000,0.000,0.000
1641195402104500992,2022-01-03-07:36:42,10.1.1.3,188,-0.310,-0.310,-0.310,0.000,0.000,0.000
1641195402304423936,2022-01-03-07:36:42,10.1.1.3,187,-0.300,-0.300,-0.300,0.000,0.000,0.000
1641195402501758976,2022-01-03-07:36:42,10.1.1.3,178,-0.290,-0.290,-0.290,0.000,0.000,0.000
1641195402701139968,2022-01-03-07:36:42,10.1.1.3,176,-0.280,-0.280,-0.280,0.000,0.000,0.000
1641195402900131840,2022-01-03-07:36:42,10.1.1.3,175,-0.270,-0.270,-0.270,0.000,0.000,0.000
1641195403103184896,2022-01-03-07:36:43,10.1.1.3,177,-0.260,-0.260,-0.260,0.000,0.000,0.000
1641195403301393152,2022-01-03-07:36:43,10.1.1.3,174,-0.250,-0.250,-0.250,0.000,0.000,0.000
1641195403500591104,2022-01-03-07:36:43,10.1.1.3,173,-0.240,-0.240,-0.240,0.000,0.000,0.000
1641195403700844032,2022-01-03-07:36:43,10.1.1.3,172,-0.230,-0.230,-0.230,0.000,0.000,0.000
1641195403900077056,2022-01-03-07:36:43,10.1.1.3,171,-0.220,-0.220,-0.220,0.000,0.000,0.000
1641195404099080192,2022-01-03-07:36:44,10.1.1.3,169,-0.210,-0.210,-0.210,0.000,0.000,0.000
1641195404297816064,2022-01-03-07:36:44,10.1.1.3,167,-0.200,-0.200,-0.200,0.000,0.000,0.000
1641195404498258944,2022-01-03-07:36:44,10.1.1.3,167,-0.190,-0.190,-0.190,0.000,0.000,0.000
1641195404696311040,2022-01-03-07:36:44,10.1.1.3,164,-0.180,-0.180,-0.180,0.000,0.000,0.000
1641195404900291840,2022-01-03-07:36:44,10.1.1.3,167,-0.170,-0.170,-0.170,0.000,0.000,0.000
1641195405119087872,2022-01-03-07:36:45,10.1.1.3,185,-0.160,-0.160,-0.160,0.000,0.000,0.000
1641195405317390080,2022-01-03-07:36:45,10.1.1.3,183,-0.150,-0.150,-0.150,0.000,0.000,0.000
1641195405515783168,2022-01-03-07:36:45,10.1.1.3,180,-0.140,-0.140,-0.140,0.000,0.000,0.000
1641195405718525952,2022-01-03-07:36:45,10.1.1.3,182,-0.130,-0.130,-0.130,0.000,0.000,0.000
1641195405918562816,2022-01-03-07:36:45,10.1.1.3,181,-0.120,-0.120,-0.120,0.000,0.000,0.000
1641195406114952960,2022-01-03-07:36:46,10.1.1.3,176,-0.110,-0.110,-0.110,0.000,0.000,0.000
1641195406318618112,2022-01-03-07:36:46,10.1.1.3,178,-0.100,-0.100,-0.100,0.000,0.000,0.000
1641195406514605056,2022-01-03-07:36:46,10.1.1.3,174,-0.090,-0.090,-0.090,0.000,0.000,0.000
1641195406721239040,2022-01-03-07:36:46,10.1.1.3,180,-0.080,-0.080,-0.080,0.000,0.000,0.000
1641195406914142976,2022-01-03-07:36:46,10.1.1.3,172,-0.070,-0.070,-0.070,0.000,0.000,0.000
1641195407115096064,2022-01-03-07:36:47,10.1.1.3,172,-0.060,-0.060,-0.060,0.000,0.000,0.000
1641195407317363968,2022-01-03-07:36:47,10.1.1.3,173,-0.050,-0.050,-0.050,0.000,0.000,0.000
1641195407513545984,2022-01-03-07:36:47,10.1.1.3,168,-0.040,-0.040,-0.040,0.000,0.000,0.000
1641195407712974080,2022-01-03-07:36:47,10.1.1.3,167,-0.030,-0.030,-0.030,0.000,0.000,0.000
1641195407914246144,2022-01-03-07:36:47,10.1.1.3,167,-0.020,-0.020,-0.020,0.000,0.000,0.000
1641195408113688832,2022-01-03-07:36:48,10.1.1.3,166,-0.010,-0.010,-0.010,0.000,0.000,0.000
1641195408316871936,2022-01-03-07:36:48,10.1.1.3,168,0.000,0.000,0.000,0.000,0.000,0.000
1641195408511756032,2022-01-03-07:36:48,10.1.1.3,161,-0.010,-0.010,-0.010,0.000,0.000,0.000
1641195408711600896,2022-01-03-07:36:48,10.1.1.3,160,-0.020,-0.020,-0.020,0.000,0.000,0.000
1641195408933351936,2022-01-03-07:36:48,10.1.1.3,179,-0.030,-0.030,-0.030,0.000,0.000,0.000
1641195409130853888,2022-01-03-07:36:49,10.1.1.3,174,-0.040,-0.040,-0.040,0.000,0.000,0.000
1641195409329971968,2022-01-03-07:36:49,10.1.1.3,172,-0.050,-0.050,-0.050,0.000,0.000,0.000
1641195409528655104,2022-01-03-07:36:49,10.1.1.3,168,-0.060,-0.060,-0.060,0.000,0.000,0.000
1641195409730329088,2022-01-03-07:36:49,10.1.1.3,169,-0.070,-0.070,-0.070,0.000,0.000,0.000
1641195409928514048,2022-01-03-07:36:49,10.1.1.3,166,-0.080,-0.080,-0.080,0.000,0.000,0.000
1641195410128731904,2022-01-03-07:36:50,10.1.1.3,166,-0.090,-0.090,-0.090,0.000,0.000,0.000
1641195410330755072,2022-01-03-07:36:50,10.1.1.3,167,-0.100,-0.100,-0.100,0.000,0.000,0.000
1641195410531968000,2022-01-03-07:36:50,10.1.1.3,168,-0.110,-0.110,-0.110,0.000,0.000,0.000
1641195410738182912,2022-01-03-07:36:50,10.1.1.3,174,-0.120,-0.120,-0.120,0.000,0.000,0.000
1641195410936180224,2022-01-03-07:36:50,10.1.1.3,168,-0.130,-0.130,-0.130,0.000,0.000,0.000
1641195411134512896,2022-01-03-07:36:51,10.1.1.3,169,-0.140,-0.140,-0.140,0.000,0.000,0.000
1641195411342242048,2022-01-03-07:36:51,10.1.1.3,176,-0.150,-0.150,-0.150,0.000,0.000,0.000
1641195411535887872,2022-01-03-07:36:51,10.1.1.3,168,-0.160,-0.160,-0.160,0.000,0.000,0.000
1641195411740719104,2022-01-03-07:36:51,10.1.1.3,170,-0.170,-0.170,-0.170,0.000,0.000,0.000
1641195411953629952,2022-01-03-07:36:51,10.1.1.3,180,-0.180,-0.180,-0.180,0.000,0.000,0.000
1641195412139024128,2022-01-03-07:36:52,10.1.1.3,168,-0.190,-0.190,-0.190,0.000,0.000,0.000
1641195412364231936,2022-01-03-07:36:52,10.1.1.3,186,-0.200,-0.200,-0.200,0.000,0.000,0.000
1641195412562164992,2022-01-03-07:36:52,10.1.1.3,183,-0.210,-0.210,-0.210,0.000,0.000,0.000
1641195412765892096,2022-01-03-07:36:52,10.1.1.3,180,-0.220,-0.220,-0.220,0.000,0.000,0.000
1641195412962640896,2022-01-03-07:36:52,10.1.1.3,175,-0.230,-0.230,-0.230,0.000,0.000,0.000
1641195413166876160,2022-01-03-07:36:53,10.1.1.3,178,-0.240,-0.240,-0.240,0.000,0.000,0.000
1641195413367149056,2022-01-03-07:36:53,10.1.1.3,179,-0.250,-0.250,-0.250,0.000,0.000,0.000
1641195413568638976,2022-01-03-07:36:53,10.1.1.3,179,-0.260,-0.260,-0.260,0.000,0.000,0.000
1641195413763631104,2022-01-03-07:36:53,10.1.1.3,173,-0.270,-0.270,-0.270,0.000,0.000,0.000
1641195413967941120,2022-01-03-07:36:53,10.1.1.3,177,-0.280,-0.280,-0.280,0.000,0.000,0.000
1641195414165349888,2022-01-03-07:36:54,10.1.1.3,174,-0.290,-0.290,-0.290,0.000,0.000,0.000
1641195414367450112,2022-01-03-07:36:54,10.1.1.3,175,-0.300,-0.300,-0.300,0.000,0.000,0.000
1641195414567888128,2022-01-03-07:36:54,10.1.1.3,175,-0.310,-0.310,-0.310,0.000,0.000,0.000
1641195414768137984,2022-01-03-07:36:54,10.1.1.3,175,-0.320,-0.320,-0.320,0.000,0.000,0.000
1641195414989725184,2022-01-03-07:36:54,10.1.1.3,195,-0.330,-0.330,-0.330,0.000,0.000,0.000
1641195415188082944,2022-01-03-07:36:55,10.1.1.3,192,-0.340,-0.340,-0.340,0.000,0.000,0.000
1641195415393351936,2022-01-03-07:36:55,10.1.1.3,196,-0.350,-0.350,-0.350,0.000,0.000,0.000
1641195415589118976,2022-01-03-07:36:55,10.1.1.3,191,-0.360,-0.360,-0.360,0.000,0.000,0.000
1641195415788794112,2022-01-03-07:36:55,10.1.1.3,189,-0.370,-0.370,-0.370,0.000,0.000,0.000
1641195415992569856,2022-01-03-07:36:55,10.1.1.3,192,-0.380,-0.380,-0.380,0.000,0.000,0.000
1641195416190543872,2022-01-03-07:36:56,10.1.1.3,189,-0.390,-0.390,-0.390,0.000,0.000,0.000
1641195416389288960,2022-01-03-07:36:56,10.1.1.3,186,-0.400,-0.400,-0.400,0.000,0.000,0.000
1641195416590550784,2022-01-03-07:36:56,10.1.1.3,187,-0.410,-0.410,-0.410,0.000,0.000,0.000
1641195416793023232,2022-01-03-07:36:56,10.1.1.3,189,-0.420,-0.420,-0.420,0.000,0.000,0.000
1641195416989860096,2022-01-03-07:36:56,10.1.1.3,185,-0.430,-0.430,-0.430,0.000,0.000,0.000
1641195417191430144,2022-01-03-07:36:57,10.1.1.3,185,-0.440,-0.440,-0.440,0.000,0.000,0.000
1641195417390853888,2022-01-03-07:36:57,10.1.1.3,183,-0.450,-0.450,-0.450,0.000,0.000,0.000
1641195417593745920,2022-01-03-07:36:57,10.1.1.3,185,-0.460,-0.460,-0.460,0.000,0.000,0.000
1641195417793716992,2022-01-03-07:36:57,10.1.1.3,183,-0.470,-0.470,-0.470,0.000,0.000,0.000
1641195417991708160,2022-01-03-07:36:57,10.1.1.3,178,-0.480,-0.480,-0.480,0.000,0.000,0.000
1641195418413649152,2022-01-03-07:36:58,10.1.1.3,198,-0.480,-0.480,-0.480,0.000,0.000,0.000
1641195418611970048,2022-01-03-07:36:58,10.1.1.3,196,-0.470,-0.470,-0.470,0.000,0.000,0.000
1641195418813298944,2022-01-03-07:36:58,10.1.1.3,196,-0.460,-0.460,-0.460,0.000,0.000,0.000
1641195419011898880,2022-01-03-07:36:59,10.1.1.3,194,-0.450,-0.450,-0.450,0.000,0.000,0.000
1641195419216504064,2022-01-03-07:36:59,10.1.1.3,198,-0.440,-0.440,-0.440,0.000,0.000,0.000
1641195419419110912,2022-01-03-07:36:59,10.1.1.3,200,-0.430,-0.430,-0.430,0.000,0.000,0.000
1641195419611671040,2022-01-03-07:36:59,10.1.1.3,191,-0.420,-0.420,-0.420,0.000,0.000,0.000
1641195419815008000,2022-01-03-07:36:59,10.1.1.3,194,-0.410,-0.410,-0.410,0.000,0.000,0.000
1641195420011415040,2022-01-03-07:37:00,10.1.1.3,189,-0.400,-0.400,-0.400,0.000,0.000,0.000
1641195420211884032,2022-01-03-07:37:00,10.1.1.3,188,-0.390,-0.390,-0.390,0.000,0.000,0.000
1641195420411976192,2022-01-03-07:37:00,10.1.1.3,188,-0.380,-0.380,-0.380,0.000,0.000,0.000
1641195420612829952,2022-01-03-07:37:00,10.1.1.3,187,-0.370,-0.370,-0.370,0.000,0.000,0.000
1641195421014650112,2022-01-03-07:37:01,10.1.1.3,185,-0.350,-0.350,-0.350,0.000,0.000,0.000
1641195421213043968,2022-01-03-07:37:01,10.1.1.3,183,-0.340,-0.340,-0.340,0.000,0.000,0.000
1641195421413778944,2022-01-03-07:37:01,10.1.1.3,183,-0.330,-0.330,-0.330,0.000,0.000,0.000
1641195421614093056,2022-01-03-07:37:01,10.1.1.3,182,-0.320,-0.320,-0.320,0.000,0.000,0.000
1641195421816123136,2022-01-03-07:37:01,10.1.1.3,183,-0.310,-0.310,-0.310,0.000,0.000,0.000
1641195422012742912,2022-01-03-07:37:02,10.1.1.3,179,-0.300,-0.300,-0.300,0.000,0.000,0.000
1641195422216700160,2022-01-03-07:37:02,10.1.1.3,183,-0.290,-0.290,-0.290,0.000,0.000,0.000
1641195422436456960,2022-01-03-07:37:02,10.1.1.3,198,-0.280,-0.280,-0.280,0.000,0.000,0.000
1641195422632190976,2022-01-03-07:37:02,10.1.1.3,193,-0.270,-0.270,-0.270,0.000,0.000,0.000
1641195422836929024,2022-01-03-07:37:02,10.1.1.3,194,-0.260,-0.260,-0.260,0.000,0.000,0.000
1641195423036602880,2022-01-03-07:37:03,10.1.1.3,196,-0.250,-0.250,-0.250,0.000,0.000,0.000
1641195423231982848,2022-01-03-07:37:03,10.1.1.3,190,-0.240,-0.240,-0.240,0.000,0.000,0.000
1641195423433312768,2022-01-03-07:37:03,10.1.1.3,190,-0.230,-0.230,-0.230,0.000,0.000,0.000
1641195423631750144,2022-01-03-07:37:03,10.1.1.3,189,-0.220,-0.220,-0.220,0.000,0.000,0.000
1641195423832163072,2022-01-03-07:37:03,10.1.1.3,188,-0.210,-0.210,-0.210,0.000,0.000,0.000
1641195424034459136,2022-01-03-07:37:04,10.1.1.3,190,-0.200,-0.200,-0.200,0.000,0.000,0.000
1641195424231621888,2022-01-03-07:37:04,10.1.1.3,186,-0.190,-0.190,-0.190,0.000,0.000,0.000
1641195424434206976,2022-01-03-07:37:04,10.1.1.3,188,-0.180,-0.180,-0.180,0.000,0.000,0.000
1641195424642059008,2022-01-03-07:37:04,10.1.1.3,196,-0.170,-0.170,-0.170,0.000,0.000,0.000
1641195424833150976,2022-01-03-07:37:04,10.1.1.3,186,-0.160,-0.160,-0.160,0.000,0.000,0.000
1641195425031357952,2022-01-03-07:37:05,10.1.1.3,183,-0.150,-0.150,-0.150,0.000,0.000,0.000
1641195425234136064,2022-01-03-07:37:05,10.1.1.3,185,-0.140,-0.140,-0.140,0.000,0.000,0.000
1641195425431938816,2022-01-03-07:37:05,10.1.1.3,182,-0.130,-0.130,-0.130,0.000,0.000,0.000
1641195425631416064,2022-01-03-07:37:05,10.1.1.3,180,-0.120,-0.120,-0.120,0.000,0.000,0.000
1641195425830891008,2022-01-03-07:37:05,10.1.1.3,179,-0.110,-0.110,-0.110,0.000,0.000,0.000
1641195426030695936,2022-01-03-07:37:06,10.1.1.3,178,-0.100,-0.100,-0.100,0.000,0.000,0.000
1641195426231145984,2022-01-03-07:37:06,10.1.1.3,177,-0.090,-0.090,-0.090,0.000,0.000,0.000
1641195426454600192,2022-01-03-07:37:06,10.1.1.3,199,-0.080,-0.080,-0.080,0.000,0.000,0.000
1641195426653830144,2022-01-03-07:37:06,10.1.1.3,198,-0.070,-0.070,-0.070,0.000,0.000,0.000
1641195426849922048,2022-01-03-07:37:06,10.1.1.3,193,-0.060,-0.060,-0.060,0.000,0.000,0.000
1641195427049596160,2022-01-03-07:37:07,10.1.1.3,192,-0.050,-0.050,-0.050,0.000,0.000,0.000
1641195427251920896,2022-01-03-07:37:07,10.1.1.3,193,-0.040,-0.040,-0.040,0.000,0.000,0.000
1641195427449085952,2022-01-03-07:37:07,10.1.1.3,191,-0.030,-0.030,-0.030,0.000,0.000,0.000
1641195427651906048,2022-01-03-07:37:07,10.1.1.3,192,-0.020,-0.020,-0.020,0.000,0.000,0.000
1641195427849826048,2022-01-03-07:37:07,10.1.1.3,189,-0.010,-0.010,-0.010,0.000,0.000,0.000
1641195428048851968,2022-01-03-07:37:08,10.1.1.3,186,0.000,0.000,0.000,0.000,0.000,0.000
1641195428251490048,2022-01-03-07:37:08,10.1.1.3,188,-0.010,-0.010,-0.010,0.000,0.000,0.000
1641195428450789888,2022-01-03-07:37:08,10.1.1.3,187,-0.020,-0.020,-0.020,0.000,0.000,0.000
1641195428651695104,2022-01-03-07:37:08,10.1.1.3,186,-0.030,-0.030,-0.030,0.000,0.000,0.000
1641195428863305984,2022-01-03-07:37:08,10.1.1.3,197,-0.040,-0.040,-0.040,0.000,0.000,0.000
1641195429048947200,2022-01-03-07:37:09,10.1.1.3,181,-0.050,-0.050,-0.050,0.000,0.000,0.000
1641195429251411968,2022-01-03-07:37:09,10.1.1.3,183,-0.060,-0.060,-0.060,0.000,0.000,0.000
1641195429449615104,2022-01-03-07:37:09,10.1.1.3,179,-0.070,-0.070,-0.070,0.000,0.000,0.000
1641195429647079936,2022-01-03-07:37:09,10.1.1.3,176,-0.080,-0.080,-0.080,0.000,0.000,0.000
1641195429846684928,2022-01-03-07:37:09,10.1.1.3,175,-0.090,-0.090,-0.090,0.000,0.000,0.000
1641195430065799936,2022-01-03-07:37:10,10.1.1.3,193,-0.100,-0.100,-0.100,0.000,0.000,0.000
1641195430247319040,2022-01-03-07:37:10,10.1.1.3,174,-0.110,-0.110,-0.110,0.000,0.000,0.000
1641195430445758976,2022-01-03-07:37:10,10.1.1.3,172,-0.120,-0.120,-0.120,0.000,0.000,0.000
1641195430669133824,2022-01-03-07:37:10,10.1.1.3,194,-0.130,-0.130,-0.130,0.000,0.000,0.000
1641195430865190912,2022-01-03-07:37:10,10.1.1.3,190,-0.140,-0.140,-0.140,0.000,0.000,0.000
1641195431069796096,2022-01-03-07:37:11,10.1.1.3,188,-0.150,-0.150,-0.150,0.000,0.000,0.000
1641195431268371200,2022-01-03-07:37:11,10.1.1.3,187,-0.160,-0.160,-0.160,0.000,0.000,0.000
1641195431468559104,2022-01-03-07:37:11,10.1.1.3,187,-0.170,-0.170,-0.170,0.000,0.000,0.000
1641195431672089088,2022-01-03-07:37:11,10.1.1.3,190,-0.180,-0.180,-0.180,0.000,0.000,0.000
1641195431868741120,2022-01-03-07:37:11,10.1.1.3,186,-0.190,-0.190,-0.190,0.000,0.000,0.000
1641195432066883072,2022-01-03-07:37:12,10.1.1.3,183,-0.200,-0.200,-0.200,0.000,0.000,0.000
1641195432268715008,2022-01-03-07:37:12,10.1.1.3,182,-0.210,-0.210,-0.210,0.000,0.000,0.000
1641195432465971968,2022-01-03-07:37:12,10.1.1.3,176,-0.220,-0.220,-0.220,0.000,0.000,0.000
1641195432662743040,2022-01-03-07:37:12,10.1.1.3,172,-0.230,-0.230,-0.230,0.000,0.000,0.000
1641195432864592128,2022-01-03-07:37:12,10.1.1.3,172,-0.240,-0.240,-0.240,0.000,0.000,0.000
1641195433061997056,2022-01-03-07:37:13,10.1.1.3,169,-0.250,-0.250,-0.250,0.000,0.000,0.000
1641195433264478976,2022-01-03-07:37:13,10.1.1.3,171,-0.260,-0.260,-0.260,0.000,0.000,0.000
1641195433462021120,2022-01-03-07:37:13,10.1.1.3,168,-0.270,-0.270,-0.270,0.000,0.000,0.000
1641195433685800960,2022-01-03-07:37:13,10.1.1.3,191,-0.280,-0.280,-0.280,0.000,0.000,0.000
1641195433881175040,2022-01-03-07:37:13,10.1.1.3,185,-0.290,-0.290,-0.290,0.000,0.000,0.000
1641195434080514816,2022-01-03-07:37:14,10.1.1.3,184,-0.300,-0.300,-0.300,0.000,0.000,0.000
1641195434280093952,2022-01-03-07:37:14,10.1.1.3,182,-0.310,-0.310,-0.310,0.000,0.000,0.000
1641195434481499904,2022-01-03-07:37:14,10.1.1.3,183,-0.320,-0.320,-0.320,0.000,0.000,0.000
1641195434679895040,2022-01-03-07:37:14,10.1.1.3,180,-0.330,-0.330,-0.330,0.000,0.000,0.000
1641195434880935936,2022-01-03-07:37:14,10.1.1.3,180,-0.340,-0.340,-0.340,0.000,0.000,0.000
1641195435086195968,2022-01-03-07:37:15,10.1.1.3,184,-0.350,-0.350,-0.350,0.000,0.000,0.000
1641195435280797952,2022-01-03-07:37:15,10.1.1.3,177,-0.360,-0.360,-0.360,0.000,0.000,0.000
1641195435478785024,2022-01-03-07:37:15,10.1.1.3,174,-0.370,-0.370,-0.370,0.000,0.000,0.000
1641195435680344064,2022-01-03-07:37:15,10.1.1.3,174,-0.380,-0.380,-0.380,0.000,0.000,0.000
1641195435882200832,2022-01-03-07:37:15,10.1.1.3,174,-0.390,-0.390,-0.390,0.000,0.000,0.000
1641195436082854912,2022-01-03-07:37:16,10.1.1.3,172,-0.400,-0.400,-0.400,0.000,0.000,0.000
1641195436278189056,2022-01-03-07:37:16,10.1.1.3,167,-0.410,-0.410,-0.410,0.000,0.000,0.000
1641195436482443008,2022-01-03-07:37:16,10.1.1.3,171,-0.420,-0.420,-0.420,0.000,0.000,0.000
1641195436679044864,2022-01-03-07:37:16,10.1.1.3,167,-0.430,-0.430,-0.430,0.000,0.000,0.000
1641195436877024000,2022-01-03-07:37:16,10.1.1.3,164,-0.440,-0.440,-0.440,0.000,0.000,0.000
1641195437098653184,2022-01-03-07:37:17,10.1.1.3,183,-0.450,-0.450,-0.450,0.000,0.000,0.000
1641195437295751936,2022-01-03-07:37:17,10.1.1.3,180,-0.460,-0.460,-0.460,0.000,0.000,0.000
1641195437500664064,2022-01-03-07:37:17,10.1.1.3,184,-0.470,-0.470,-0.470,0.000,0.000,0.000
1641195437696180224,2022-01-03-07:37:17,10.1.1.3,179,-0.480,-0.480,-0.480,0.000,0.000,0.000
1641195437896034048,2022-01-03-07:37:17,10.1.1.3,177,-0.490,-0.490,-0.490,0.000,0.000,0.000
1641195438099719936,2022-01-03-07:37:18,10.1.1.3,178,-0.480,-0.480,-0.480,0.000,0.000,0.000
1641195438294910976,2022-01-03-07:37:18,10.1.1.3,173,-0.470,-0.470,-0.470,0.000,0.000,0.000
1641195438496220160,2022-01-03-07:37:18,10.1.1.3,172,-0.460,-0.460,-0.460,0.000,0.000,0.000
1641195438697360128,2022-01-03-07:37:18,10.1.1.3,173,-0.450,-0.450,-0.450,0.000,0.000,0.000
1641195438894813952,2022-01-03-07:37:18,10.1.1.3,167,-0.440,-0.440,-0.440,0.000,0.000,0.000
1641195439098814976,2022-01-03-07:37:19,10.1.1.3,167,-0.430,-0.430,-0.430,0.000,0.000,0.000
1641195439327607040,2022-01-03-07:37:19,10.1.1.3,195,-0.420,-0.420,-0.420,0.000,0.000,0.000
1641195439512634880,2022-01-03-07:37:19,10.1.1.3,175,-0.410,-0.410,-0.410,0.000,0.000,0.000
1641195439714940160,2022-01-03-07:37:19,10.1.1.3,176,-0.400,-0.400,-0.400,0.000,0.000,0.000
1641195439912777984,2022-01-03-07:37:19,10.1.1.3,173,-0.390,-0.390,-0.390,0.000,0.000,0.000
1641195440112133888,2022-01-03-07:37:20,10.1.1.3,172,-0.380,-0.380,-0.380,0.000,0.000,0.000
1641195440311820032,2022-01-03-07:37:20,10.1.1.3,171,-0.370,-0.370,-0.370,0.000,0.000,0.000
1641195440510621184,2022-01-03-07:37:20,10.1.1.3,163,-0.360,-0.360,-0.360,0.000,0.000,0.000
1641195440717058048,2022-01-03-07:37:20,10.1.1.3,169,-0.350,-0.350,-0.350,0.000,0.000,0.000
1641195440917721088,2022-01-03-07:37:20,10.1.1.3,169,-0.340,-0.340,-0.340,0.000,0.000,0.000
1641195441111648000,2022-01-03-07:37:21,10.1.1.3,160,-0.330,-0.330,-0.330,0.000,0.000,0.000
1641195441315386112,2022-01-03-07:37:21,10.1.1.3,161,-0.320,-0.320,-0.320,0.000,0.000,0.000
1641195441535712000,2022-01-03-07:37:21,10.1.1.3,181,-0.310,-0.310,-0.310,0.000,0.000,0.000
1641195441737628928,2022-01-03-07:37:21,10.1.1.3,181,-0.300,-0.300,-0.300,0.000,0.000,0.000
1641195441936374016,2022-01-03-07:37:21,10.1.1.3,178,-0.290,-0.290,-0.290,0.000,0.000,0.000
1641195442132129792,2022-01-03-07:37:22,10.1.1.3,171,-0.280,-0.280,-0.280,0.000,0.000,0.000
1641195442337114112,2022-01-03-07:37:22,10.1.1.3,176,-0.270,-0.270,-0.270,0.000,0.000,0.000
1641195442534259200,2022-01-03-07:37:22,10.1.1.3,172,-0.260,-0.260,-0.260,0.000,0.000,0.000
1641195442737265152,2022-01-03-07:37:22,10.1.1.3,175,-0.250,-0.250,-0.250,0.000,0.000,0.000
1641195442934758912,2022-01-03-07:37:22,10.1.1.3,172,-0.240,-0.240,-0.240,0.000,0.000,0.000
1641195443134690048,2022-01-03-07:37:23,10.1.1.3,169,-0.230,-0.230,-0.230,0.000,0.000,0.000
1641195443336451072,2022-01-03-07:37:23,10.1.1.3,170,-0.220,-0.220,-0.220,0.000,0.000,0.000
1641195443548352000,2022-01-03-07:37:23,10.1.1.3,180,-0.210,-0.210,-0.210,0.000,0.000,0.000
1641195443737748992,2022-01-03-07:37:23,10.1.1.3,168,-0.200,-0.200,-0.200,0.000,0.000,0.000
1641195443937827072,2022-01-03-07:37:23,10.1.1.3,168,-0.190,-0.190,-0.190,0.000,0.000,0.000
1641195444142790912,2022-01-03-07:37:24,10.1.1.3,171,-0.180,-0.180,-0.180,0.000,0.000,0.000
1641195444342089984,2022-01-03-07:37:24,10.1.1.3,170,-0.170,-0.170,-0.170,0.000,0.000,0.000
1641195444541160960,2022-01-03-07:37:24,10.1.1.3,169,-0.160,-0.160,-0.160,0.000,0.000,0.000
1641195444740989952,2022-01-03-07:37:24,10.1.1.3,168,-0.150,-0.150,-0.150,0.000,0.000,0.000
1641195444969444096,2022-01-03-07:37:24,10.1.1.3,189,-0.140,-0.140,-0.140,0.000,0.000,0.000
1641195445168529152,2022-01-03-07:37:25,10.1.1.3,187,-0.130,-0.130,-0.130,0.000,0.000,0.000
1641195445365721856,2022-01-03-07:37:25,10.1.1.3,180,-0.120,-0.120,-0.120,0.000,0.000,0.000
1641195445564523008,2022-01-03-07:37:25,10.1.1.3,174,-0.110,-0.110,-0.110,0.000,0.000,0.000
1641195445769330944,2022-01-03-07:37:25,10.1.1.3,177,-0.100,-0.100,-0.100,0.000,0.000,0.000
1641195445966539008,2022-01-03-07:37:25,10.1.1.3,174,-0.090,-0.090,-0.090,0.000,0.000,0.000
1641195446168493056,2022-01-03-07:37:26,10.1.1.3,175,-0.080,-0.080,-0.080,0.000,0.000,0.000
1641195446365907968,2022-01-03-07:37:26,10.1.1.3,172,-0.070,-0.070,-0.070,0.000,0.000,0.000
1641195446587588096,2022-01-03-07:37:26,10.1.1.3,192,-0.060,-0.060,-0.060,0.000,0.000,0.000
1641195446787401984,2022-01-03-07:37:26,10.1.1.3,191,-0.050,-0.050,-0.050,0.000,0.000,0.000
1641195446992655872,2022-01-03-07:37:26,10.1.1.3,191,-0.040,-0.040,-0.040,0.000,0.000,0.000
1641195447188808960,2022-01-03-07:37:27,10.1.1.3,191,-0.030,-0.030,-0.030,0.000,0.000,0.000
1641195447388468992,2022-01-03-07:37:27,10.1.1.3,189,-0.020,-0.020,-0.020,0.000,0.000,0.000
1641195447592154112,2022-01-03-07:37:27,10.1.1.3,192,-0.010,-0.010,-0.010,0.000,0.000,0.000
1641195447796009984,2022-01-03-07:37:27,10.1.1.3,194,0.000,0.000,0.000,0.000,0.000,0.000
1641195447993208832,2022-01-03-07:37:27,10.1.1.3,186,-0.010,-0.010,-0.010,0.000,0.000,0.000
1641195448193670912,2022-01-03-07:37:28,10.1.1.3,184,-0.020,-0.020,-0.020,0.000,0.000,0.000
1641195448615984896,2022-01-03-07:37:28,10.1.1.3,199,-0.040,-0.040,-0.040,0.000,0.000,0.000
1641195448818420992,2022-01-03-07:37:28,10.1.1.3,200,-0.050,-0.050,-0.050,0.000,0.000,0.000
1641195449010363136,2022-01-03-07:37:29,10.1.1.3,191,-0.060,-0.060,-0.060,0.000,0.000,0.000
1641195449211875840,2022-01-03-07:37:29,10.1.1.3,192,-0.070,-0.070,-0.070,0.000,0.000,0.000
1641195449411139072,2022-01-03-07:37:29,10.1.1.3,190,-0.080,-0.080,-0.080,0.000,0.000,0.000
1641195449612741120,2022-01-03-07:37:29,10.1.1.3,191,-0.090,-0.090,-0.090,0.000,0.000,0.000
1641195449814987776,2022-01-03-07:37:29,10.1.1.3,192,-0.100,-0.100,-0.100,0.000,0.000,0.000
1641195450011954944,2022-01-03-07:37:30,10.1.1.3,188,-0.110,-0.110,-0.110,0.000,0.000,0.000
1641195450216612096,2022-01-03-07:37:30,10.1.1.3,191,-0.120,-0.120,-0.120,0.000,0.000,0.000
1641195450413448960,2022-01-03-07:37:30,10.1.1.3,187,-0.130,-0.130,-0.130,0.000,0.000,0.000
1641195450612750080,2022-01-03-07:37:30,10.1.1.3,185,-0.140,-0.140,-0.140,0.000,0.000,0.000
1641195450815977216,2022-01-03-07:37:30,10.1.1.3,187,-0.150,-0.150,-0.150,0.000,0.000,0.000
1641195451014173952,2022-01-03-07:37:31,10.1.1.3,185,-0.160,-0.160,-0.160,0.000,0.000,0.000
1641195451212625920,2022-01-03-07:37:31,10.1.1.3,182,-0.170,-0.170,-0.170,0.000,0.000,0.000
1641195451417758976,2022-01-03-07:37:31,10.1.1.3,186,-0.180,-0.180,-0.180,0.000,0.000,0.000
1641195451621103104,2022-01-03-07:37:31,10.1.1.3,189,-0.190,-0.190,-0.190,0.000,0.000,0.000
1641195451814012928,2022-01-03-07:37:31,10.1.1.3,182,-0.200,-0.200,-0.200,0.000,0.000,0.000
1641195452021863936,2022-01-03-07:37:32,10.1.1.3,189,-0.210,-0.210,-0.210,0.000,0.000,0.000
1641195452435766016,2022-01-03-07:37:32,10.1.1.3,197,-0.230,-0.230,-0.230,0.000,0.000,0.000
1641195452632716032,2022-01-03-07:37:32,10.1.1.3,193,-0.240,-0.240,-0.240,0.000,0.000,0.000
1641195452837987840,2022-01-03-07:37:32,10.1.1.3,197,-0.250,-0.250,-0.250,0.000,0.000,0.000
1641195453033267968,2022-01-03-07:37:33,10.1.1.3,192,-0.260,-0.260,-0.260,0.000,0.000,0.000
1641195453233308928,2022-01-03-07:37:33,10.1.1.3,191,-0.270,-0.270,-0.270,0.000,0.000,0.000
1641195453433777152,2022-01-03-07:37:33,10.1.1.3,191,-0.280,-0.280,-0.280,0.000,0.000,0.000
1641195453633915904,2022-01-03-07:37:33,10.1.1.3,189,-0.290,-0.290,-0.290,0.000,0.000,0.000
1641195453833775872,2022-01-03-07:37:33,10.1.1.3,188,-0.300,-0.300,-0.300,0.000,0.000,0.000
1641195454036514048,2022-01-03-07:37:34,10.1.1.3,188,-0.310,-0.310,-0.310,0.000,0.000,0.000
1641195454234931968,2022-01-03-07:37:34,10.1.1.3,188,-0.320,-0.320,-0.320,0.000,0.000,0.000
1641195454433362944,2022-01-03-07:37:34,10.1.1.3,185,-0.330,-0.330,-0.330,0.000,0.000,0.000
1641195454634150912,2022-01-03-07:37:34,10.1.1.3,185,-0.340,-0.340,-0.340,0.000,0.000,0.000
1641195454833041920,2022-01-03-07:37:34,10.1.1.3,183,-0.350,-0.350,-0.350,0.000,0.000,0.000
1641195455036889088,2022-01-03-07:37:35,10.1.1.3,183,-0.360,-0.360,-0.360,0.000,0.000,0.000
1641195455432517120,2022-01-03-07:37:35,10.1.1.3,180,-0.380,-0.380,-0.380,0.000,0.000,0.000
1641195455633326080,2022-01-03-07:37:35,10.1.1.3,179,-0.390,-0.390,-0.390,0.000,0.000,0.000
1641195455855161856,2022-01-03-07:37:35,10.1.1.3,198,-0.400,-0.400,-0.400,0.000,0.000,0.000
1641195456052153088,2022-01-03-07:37:36,10.1.1.3,194,-0.410,-0.410,-0.410,0.000,0.000,0.000
1641195456258172160,2022-01-03-07:37:36,10.1.1.3,199,-0.420,-0.420,-0.420,0.000,0.000,0.000
1641195456455681024,2022-01-03-07:37:36,10.1.1.3,196,-0.430,-0.430,-0.430,0.000,0.000,0.000
1641195456653275136,2022-01-03-07:37:36,10.1.1.3,192,-0.440,-0.440,-0.440,0.000,0.000,0.000
1641195456854115072,2022-01-03-07:37:36,10.1.1.3,192,-0.450,-0.450,-0.450,0.000,0.000,0.000
1641195457053088000,2022-01-03-07:37:37,10.1.1.3,188,-0.460,-0.460,-0.460,0.000,0.000,0.000
1641195457251629056,2022-01-03-07:37:37,10.1.1.3,187,-0.470,-0.470,-0.470,0.000,0.000,0.000
1641195457450957056,2022-01-03-07:37:37,10.1.1.3,185,-0.480,-0.480,-0.480,0.000,0.000,0.000
1641195457652094976,2022-01-03-07:37:37,10.1.1.3,186,-0.490,-0.490,-0.490,0.000,0.000,0.000
1641195457850758912,2022-01-03-07:37:37,10.1.1.3,184,-0.480,-0.480,-0.480,0.000,0.000,0.000
1641195458050811904,2022-01-03-07:37:38,10.1.1.3,183,-0.470,-0.470,-0.470,0.000,0.000,0.000
1641195458251508992,2022-01-03-07:37:38,10.1.1.3,183,-0.460,-0.460,-0.460,0.000,0.000,0.000
1641195458449907968,2022-01-03-07:37:38,10.1.1.3,181,-0.450,-0.450,-0.450,0.000,0.000,0.000
1641195458650348032,2022-01-03-07:37:38,10.1.1.3,180,-0.440,-0.440,-0.440,0.000,0.000,0.000
1641195458855112192,2022-01-03-07:37:38,10.1.1.3,181,-0.430,-0.430,-0.430,0.000,0.000,0.000
1641195459050272000,2022-01-03-07:37:39,10.1.1.3,178,-0.420,-0.420,-0.420,0.000,0.000,0.000
1641195459257137152,2022-01-03-07:37:39,10.1.1.3,182,-0.410,-0.410,-0.410,0.000,0.000,0.000
1641195459469433088,2022-01-03-07:37:39,10.1.1.3,195,-0.400,-0.400,-0.400,0.000,0.000,0.000
1641195459669568000,2022-01-03-07:37:39,10.1.1.3,194,-0.390,-0.390,-0.390,0.000,0.000,0.000
1641195459870595072,2022-01-03-07:37:39,10.1.1.3,194,-0.380,-0.380,-0.380,0.000,0.000,0.000
1641195460072404992,2022-01-03-07:37:40,10.1.1.3,196,-0.370,-0.370,-0.370,0.000,0.000,0.000
1641195460270299904,2022-01-03-07:37:40,10.1.1.3,193,-0.360,-0.360,-0.360,0.000,0.000,0.000
1641195460469486080,2022-01-03-07:37:40,10.1.1.3,191,-0.350,-0.350,-0.350,0.000,0.000,0.000
1641195460693267968,2022-01-03-07:37:40,10.1.1.3,195,-0.340,-0.340,-0.340,0.000,0.000,0.000
1641195460909060864,2022-01-03-07:37:40,10.1.1.3,185,-0.330,-0.330,-0.330,0.000,0.000,0.000
1641195461107328768,2022-01-03-07:37:41,10.1.1.3,182,-0.320,-0.320,-0.320,0.000,0.000,0.000
1641195461308712960,2022-01-03-07:37:41,10.1.1.3,182,-0.310,-0.310,-0.310,0.000,0.000,0.000
1641195461507613952,2022-01-03-07:37:41,10.1.1.3,179,-0.300,-0.300,-0.300,0.000,0.000,0.000
1641195461727930112,2022-01-03-07:37:41,10.1.1.3,193,-0.290,-0.290,-0.290,0.000,0.000,0.000
1641195461949094144,2022-01-03-07:37:41,10.1.1.3,181,-0.280,-0.280,-0.280,0.000,0.000,0.000
1641195462146224128,2022-01-03-07:37:42,10.1.1.3,178,-0.270,-0.270,-0.270,0.000,0.000,0.000
1641195462351074048,2022-01-03-07:37:42,10.1.1.3,181,-0.260,-0.260,-0.260,0.000,0.000,0.000
1641195462547290112,2022-01-03-07:37:42,10.1.1.3,176,-0.250,-0.250,-0.250,0.000,0.000,0.000
1641195462745798144,2022-01-03-07:37:42,10.1.1.3,174,-0.240,-0.240,-0.240,0.000,0.000,0.000
1641195462949378048,2022-01-03-07:37:42,10.1.1.3,175,-0.230,-0.230,-0.230,0.000,0.000,0.000
1641195463148206080,2022-01-03-07:37:43,10.1.1.3,174,-0.220,-0.220,-0.220,0.000,0.000,0.000
1641195463366919168,2022-01-03-07:37:43,10.1.1.3,191,-0.210,-0.210,-0.210,0.000,0.000,0.000
1641195463568999936,2022-01-03-07:37:43,10.1.1.3,189,-0.200,-0.200,-0.200,0.000,0.000,0.000
1641195463765379840,2022-01-03-07:37:43,10.1.1.3,187,-0.190,-0.190,-0.190,0.000,0.000,0.000
1641195463972306944,2022-01-03-07:37:43,10.1.1.3,193,-0.180,-0.180,-0.180,0.000,0.000,0.000
1641195464164305920,2022-01-03-07:37:44,10.1.1.3,184,-0.170,-0.170,-0.170,0.000,0.000,0.000
1641195464363780864,2022-01-03-07:37:44,10.1.1.3,183,-0.160,-0.160,-0.160,0.000,0.000,0.000
1641195464564093184,2022-01-03-07:37:44,10.1.1.3,183,-0.150,-0.150,-0.150,0.000,0.000,0.000
1641195464764569088,2022-01-03-07:37:44,10.1.1.3,183,-0.140,-0.140,-0.140,0.000,0.000,0.000
1641195464966595840,2022-01-03-07:37:44,10.1.1.3,184,-0.130,-0.130,-0.130,0.000,0.000,0.000
1641195465163748864,2022-01-03-07:37:45,10.1.1.3,179,-0.120,-0.120,-0.120,0.000,0.000,0.000
1641195465389619968,2022-01-03-07:37:45,10.1.1.3,193,-0.110,-0.110,-0.110,0.000,0.000,0.000
1641195465585419008,2022-01-03-07:37:45,10.1.1.3,188,-0.100,-0.100,-0.100,0.000,0.000,0.000
1641195465809552896,2022-01-03-07:37:45,10.1.1.3,204,-0.090,-0.090,-0.090,0.000,0.000,0.000
1641195465982251008,2022-01-03-07:37:45,10.1.1.3,172,-0.080,-0.080,-0.080,0.000,0.000,0.000
1641195466181606144,2022-01-03-07:37:46,10.1.1.3,170,-0.070,-0.070,-0.070,0.000,0.000,0.000
1641195466383229952,2022-01-03-07:37:46,10.1.1.3,169,-0.060,-0.060,-0.060,0.000,0.000,0.000
1641195466586516992,2022-01-03-07:37:46,10.1.1.3,170,-0.050,-0.050,-0.050,0.000,0.000,0.000
1641195466803713024,2022-01-03-07:37:46,10.1.1.3,189,-0.040,-0.040,-0.040,0.000,0.000,0.000
1641195467001169920,2022-01-03-07:37:47,10.1.1.3,185,-0.030,-0.030,-0.030,0.000,0.000,0.000
1641195467200122112,2022-01-03-07:37:47,10.1.1.3,184,-0.020,-0.020,-0.020,0.000,0.000,0.000
1641195467400356096,2022-01-03-07:37:47,10.1.1.3,184,-0.010,-0.010,-0.010,0.000,0.000,0.000
1641195467602683136,2022-01-03-07:37:47,10.1.1.3,185,0.000,0.000,0.000,0.000,0.000,0.000
1641195467803385088,2022-01-03-07:37:47,10.1.1.3,182,-0.010,-0.010,-0.010,0.000,0.000,0.000
1641195468005198848,2022-01-03-07:37:48,10.1.1.3,180,-0.020,-0.020,-0.020,0.000,0.000,0.000
1641195468198942976,2022-01-03-07:37:48,10.1.1.3,173,-0.030,-0.030,-0.030,0.000,0.000,0.000
1641195468401310976,2022-01-03-07:37:48,10.1.1.3,175,-0.040,-0.040,-0.040,0.000,0.000,0.000
1641195468617427200,2022-01-03-07:37:48,10.1.1.3,191,-0.050,-0.050,-0.050,0.000,0.000,0.000
1641195468797737984,2022-01-03-07:37:48,10.1.1.3,170,-0.060,-0.060,-0.060,0.000,0.000,0.000
1641195468997271040,2022-01-03-07:37:48,10.1.1.3,169,-0.070,-0.070,-0.070,0.000,0.000,0.000
1641195469197755136,2022-01-03-07:37:49,10.1.1.3,169,-0.080,-0.080,-0.080,0.000,0.000,0.000
1641195469400332032,2022-01-03-07:37:49,10.1.1.3,169,-0.090,-0.090,-0.090,0.000,0.000,0.000
1641195469596199936,2022-01-03-07:37:49,10.1.1.3,164,-0.100,-0.100,-0.100,0.000,0.000,0.000
1641195469795619072,2022-01-03-07:37:49,10.1.1.3,162,-0.110,-0.110,-0.110,0.000,0.000,0.000
1641195470001727232,2022-01-03-07:37:50,10.1.1.3,168,-0.120,-0.120,-0.120,0.000,0.000,0.000
1641195470218234112,2022-01-03-07:37:50,10.1.1.3,183,-0.130,-0.130,-0.130,0.000,0.000,0.000
1641195470238543104,2022-01-03-07:37:50,10.1.1.3,-1,-0.130,-0.130,-0.130,0.000,0.000,0.000
1641195470615151872,2022-01-03-07:37:50,10.1.1.3,176,-0.150,-0.150,-0.150,0.000,0.000,0.000
1641195470816786944,2022-01-03-07:37:50,10.1.1.3,177,-0.160,-0.160,-0.160,0.000,0.000,0.000
1641195471016151808,2022-01-03-07:37:51,10.1.1.3,175,-0.170,-0.170,-0.170,0.000,0.000,0.000
1641195471213835008,2022-01-03-07:37:51,10.1.1.3,167,-0.180,-0.180,-0.180,0.000,0.000,0.000
1641195471414757120,2022-01-03-07:37:51,10.1.1.3,162,-0.190,-0.190,-0.190,0.000,0.000,0.000
1641195471616816128,2022-01-03-07:37:51,10.1.1.3,163,-0.200,-0.200,-0.200,0.000,0.000,0.000
1641195471838112000,2022-01-03-07:37:51,10.1.1.3,182,-0.210,-0.210,-0.210,0.000,0.000,0.000
1641195472034648064,2022-01-03-07:37:52,10.1.1.3,174,-0.220,-0.220,-0.220,0.000,0.000,0.000
1641195472231277824,2022-01-03-07:37:52,10.1.1.3,170,-0.230,-0.230,-0.230,0.000,0.000,0.000
1641195472434433024,2022-01-03-07:37:52,10.1.1.3,171,-0.240,-0.240,-0.240,0.000,0.000,0.000
1641195472630980864,2022-01-03-07:37:52,10.1.1.3,167,-0.250,-0.250,-0.250,0.000,0.000,0.000
1641195472832001024,2022-01-03-07:37:52,10.1.1.3,166,-0.260,-0.260,-0.260,0.000,0.000,0.000
1641195473032358912,2022-01-03-07:37:53,10.1.1.3,166,-0.270,-0.270,-0.270,0.000,0.000,0.000
1641195473231374080,2022-01-03-07:37:53,10.1.1.3,165,-0.280,-0.280,-0.280,0.000,0.000,0.000
1641195473430868992,2022-01-03-07:37:53,10.1.1.3,164,-0.290,-0.290,-0.290,0.000,0.000,0.000
1641195473633313024,2022-01-03-07:37:53,10.1.1.3,163,-0.300,-0.300,-0.300,0.000,0.000,0.000
1641195473829561088,2022-01-03-07:37:53,10.1.1.3,161,-0.310,-0.310,-0.310,0.000,0.000,0.000
1641195474029003008,2022-01-03-07:37:54,10.1.1.3,159,-0.320,-0.320,-0.320,0.000,0.000,0.000
1641195474256819968,2022-01-03-07:37:54,10.1.1.3,186,-0.330,-0.330,-0.330,0.000,0.000,0.000
1641195474435919104,2022-01-03-07:37:54,10.1.1.3,161,-0.340,-0.340,-0.340,0.000,0.000,0.000
1641195474638317056,2022-01-03-07:37:54,10.1.1.3,165,-0.350,-0.350,-0.350,0.000,0.000,0.000
1641195474854568960,2022-01-03-07:37:54,10.1.1.3,179,-0.360,-0.360,-0.360,0.000,0.000,0.000
1641195475057629952,2022-01-03-07:37:55,10.1.1.3,180,-0.370,-0.370,-0.370,0.000,0.000,0.000
1641195475260275968,2022-01-03-07:37:55,10.1.1.3,182,-0.380,-0.380,-0.380,0.000,0.000,0.000
1641195475457330944,2022-01-03-07:37:55,10.1.1.3,174,-0.390,-0.390,-0.390,0.000,0.000,0.000
1641195475657634048,2022-01-03-07:37:55,10.1.1.3,173,-0.400,-0.400,-0.400,0.000,0.000,0.000
1641195475857953024,2022-01-03-07:37:55,10.1.1.3,173,-0.410,-0.410,-0.410,0.000,0.000,0.000
1641195476062656000,2022-01-03-07:37:56,10.1.1.3,174,-0.420,-0.420,-0.420,0.000,0.000,0.000
1641195476263441920,2022-01-03-07:37:56,10.1.1.3,177,-0.430,-0.430,-0.430,0.000,0.000,0.000
1641195476461421056,2022-01-03-07:37:56,10.1.1.3,173,-0.440,-0.440,-0.440,0.000,0.000,0.000
1641195476665308928,2022-01-03-07:37:56,10.1.1.3,176,-0.450,-0.450,-0.450,0.000,0.000,0.000
1641195476866384896,2022-01-03-07:37:56,10.1.1.3,176,-0.460,-0.460,-0.460,0.000,0.000,0.000
1641195477062599936,2022-01-03-07:37:57,10.1.1.3,172,-0.470,-0.470,-0.470,0.000,0.000,0.000
1641195477267729920,2022-01-03-07:37:57,10.1.1.3,176,-0.480,-0.480,-0.480,0.000,0.000,0.000
1641195477464278016,2022-01-03-07:37:57,10.1.1.3,172,-0.490,-0.490,-0.490,0.000,0.000,0.000
1641195477668158976,2022-01-03-07:37:57,10.1.1.3,175,-0.480,-0.480,-0.480,0.000,0.000,0.000
1641195477865972992,2022-01-03-07:37:57,10.1.1.3,171,-0.470,-0.470,-0.470,0.000,0.000,0.000
1641195478091290880,2022-01-03-07:37:58,10.1.1.3,192,-0.460,-0.460,-0.460,0.000,0.000,0.000
1641195478289252096,2022-01-03-07:37:58,10.1.1.3,190,-0.450,-0.450,-0.450,0.000,0.000,0.000
1641195478489248000,2022-01-03-07:37:58,10.1.1.3,190,-0.440,-0.440,-0.440,0.000,0.000,0.000
1641195478688855040,2022-01-03-07:37:58,10.1.1.3,186,-0.430,-0.430,-0.430,0.000,0.000,0.000
1641195478895266048,2022-01-03-07:37:58,10.1.1.3,190,-0.420,-0.420,-0.420,0.000,0.000,0.000
1641195479087852032,2022-01-03-07:37:59,10.1.1.3,182,-0.410,-0.410,-0.410,0.000,0.000,0.000
1641195479311472896,2022-01-03-07:37:59,10.1.1.3,191,-0.400,-0.400,-0.400,0.000,0.000,0.000
1641195479510567936,2022-01-03-07:37:59,10.1.1.3,189,-0.390,-0.390,-0.390,0.000,0.000,0.000
1641195479728308992,2022-01-03-07:37:59,10.1.1.3,205,-0.380,-0.380,-0.380,0.000,0.000,0.000
1641195479912899072,2022-01-03-07:37:59,10.1.1.3,182,-0.370,-0.370,-0.370,0.000,0.000,0.000
1641195480113069056,2022-01-03-07:38:00,10.1.1.3,183,-0.360,-0.360,-0.360,0.000,0.000,0.000
1641195480319426048,2022-01-03-07:38:00,10.1.1.3,189,-0.350,-0.350,-0.350,0.000,0.000,0.000
1641195480534544896,2022-01-03-07:38:00,10.1.1.3,199,-0.340,-0.340,-0.340,0.000,0.000,0.000
1641195480732258048,2022-01-03-07:38:00,10.1.1.3,192,-0.330,-0.330,-0.330,0.000,0.000,0.000
1641195480936268032,2022-01-03-07:38:00,10.1.1.3,191,-0.320,-0.320,-0.320,0.000,0.000,0.000
1641195481132910080,2022-01-03-07:38:01,10.1.1.3,187,-0.310,-0.310,-0.310,0.000,0.000,0.000
1641195481331926016,2022-01-03-07:38:01,10.1.1.3,183,-0.300,-0.300,-0.300,0.000,0.000,0.000
1641195481534365952,2022-01-03-07:38:01,10.1.1.3,185,-0.290,-0.290,-0.290,0.000,0.000,0.000
1641195481734438912,2022-01-03-07:38:01,10.1.1.3,185,-0.280,-0.280,-0.280,0.000,0.000,0.000
1641195481934679040,2022-01-03-07:38:01,10.1.1.3,182,-0.270,-0.270,-0.270,0.000,0.000,0.000
1641195482133302016,2022-01-03-07:38:02,10.1.1.3,180,-0.260,-0.260,-0.260,0.000,0.000,0.000
1641195482353647104,2022-01-03-07:38:02,10.1.1.3,198,-0.250,-0.250,-0.250,0.000,0.000,0.000
1641195482554212096,2022-01-03-07:38:02,10.1.1.3,198,-0.240,-0.240,-0.240,0.000,0.000,0.000
1641195482752707840,2022-01-03-07:38:02,10.1.1.3,195,-0.230,-0.230,-0.230,0.000,0.000,0.000
1641195482956370176,2022-01-03-07:38:02,10.1.1.3,198,-0.220,-0.220,-0.220,0.000,0.000,0.000
1641195483155464960,2022-01-03-07:38:03,10.1.1.3,196,-0.210,-0.210,-0.210,0.000,0.000,0.000
1641195483354052096,2022-01-03-07:38:03,10.1.1.3,193,-0.200,-0.200,-0.200,0.000,0.000,0.000
1641195483553751040,2022-01-03-07:38:03,10.1.1.3,192,-0.190,-0.190,-0.190,0.000,0.000,0.000
1641195483753888000,2022-01-03-07:38:03,10.1.1.3,192,-0.180,-0.180,-0.180,0.000,0.000,0.000
1641195483953926144,2022-01-03-07:38:03,10.1.1.3,189,-0.170,-0.170,-0.170,0.000,0.000,0.000
1641195484161061888,2022-01-03-07:38:04,10.1.1.3,194,-0.160,-0.160,-0.160,0.000,0.000,0.000
1641195484353378048,2022-01-03-07:38:04,10.1.1.3,187,-0.150,-0.150,-0.150,0.000,0.000,0.000
1641195484557574144,2022-01-03-07:38:04,10.1.1.3,187,-0.140,-0.140,-0.140,0.000,0.000,0.000
1641195484756876032,2022-01-03-07:38:04,10.1.1.3,186,-0.130,-0.130,-0.130,0.000,0.000,0.000
1641195484953741056,2022-01-03-07:38:04,10.1.1.3,185,-0.120,-0.120,-0.120,0.000,0.000,0.000
1641195485161174016,2022-01-03-07:38:05,10.1.1.3,190,-0.110,-0.110,-0.110,0.000,0.000,0.000
1641195485354299136,2022-01-03-07:38:05,10.1.1.3,183,-0.100,-0.100,-0.100,0.000,0.000,0.000
1641195485553692160,2022-01-03-07:38:05,10.1.1.3,182,-0.090,-0.090,-0.090,0.000,0.000,0.000
1641195485753829888,2022-01-03-07:38:05,10.1.1.3,181,-0.080,-0.080,-0.080,0.000,0.000,0.000
1641195485955560960,2022-01-03-07:38:05,10.1.1.3,182,-0.070,-0.070,-0.070,0.000,0.000,0.000
1641195486174706944,2022-01-03-07:38:06,10.1.1.3,198,-0.060,-0.060,-0.060,0.000,0.000,0.000
1641195486376045056,2022-01-03-07:38:06,10.1.1.3,199,-0.050,-0.050,-0.050,0.000,0.000,0.000
1641195486575344128,2022-01-03-07:38:06,10.1.1.3,197,-0.040,-0.040,-0.040,0.000,0.000,0.000
1641195486774622976,2022-01-03-07:38:06,10.1.1.3,195,-0.030,-0.030,-0.030,0.000,0.000,0.000
1641195486973037056,2022-01-03-07:38:06,10.1.1.3,193,-0.020,-0.020,-0.020,0.000,0.000,0.000
1641195487177328128,2022-01-03-07:38:07,10.1.1.3,196,-0.010,-0.010,-0.010,0.000,0.000,0.000
1641195487376105984,2022-01-03-07:38:07,10.1.1.3,194,0.000,0.000,0.000,0.000,0.000,0.000
1641195487573277952,2022-01-03-07:38:07,10.1.1.3,190,-0.010,-0.010,-0.010,0.000,0.000,0.000
1641195487777740032,2022-01-03-07:38:07,10.1.1.3,189,-0.020,-0.020,-0.020,0.000,0.000,0.000
1641195487972527104,2022-01-03-07:38:07,10.1.1.3,187,-0.030,-0.030,-0.030,0.000,0.000,0.000
1641195488173305088,2022-01-03-07:38:08,10.1.1.3,187,-0.040,-0.040,-0.040,0.000,0.000,0.000
1641195488372869120,2022-01-03-07:38:08,10.1.1.3,186,-0.050,-0.050,-0.050,0.000,0.000,0.000
1641195488572907008,2022-01-03-07:38:08,10.1.1.3,185,-0.060,-0.060,-0.060,0.000,0.000,0.000
1641195488772532992,2022-01-03-07:38:08,10.1.1.3,184,-0.070,-0.070,-0.070,0.000,0.000,0.000
1641195488974257920,2022-01-03-07:38:08,10.1.1.3,184,-0.080,-0.080,-0.080,0.000,0.000,0.000
1641195489172660224,2022-01-03-07:38:09,10.1.1.3,182,-0.090,-0.090,-0.090,0.000,0.000,0.000
1641195489375036928,2022-01-03-07:38:09,10.1.1.3,180,-0.100,-0.100,-0.100,0.000,0.000,0.000
1641195489591792128,2022-01-03-07:38:09,10.1.1.3,194,-0.110,-0.110,-0.110,0.000,0.000,0.000
1641195489794644992,2022-01-03-07:38:09,10.1.1.3,194,-0.120,-0.120,-0.120,0.000,0.000,0.000
1641195489991813888,2022-01-03-07:38:09,10.1.1.3,192,-0.130,-0.130,-0.130,0.000,0.000,0.000
1641195490191565056,2022-01-03-07:38:10,10.1.1.3,191,-0.140,-0.140,-0.140,0.000,0.000,0.000
1641195490392141056,2022-01-03-07:38:10,10.1.1.3,190,-0.150,-0.150,-0.150,0.000,0.000,0.000
1641195490593704960,2022-01-03-07:38:10,10.1.1.3,188,-0.160,-0.160,-0.160,0.000,0.000,0.000
1641195490792807936,2022-01-03-07:38:10,10.1.1.3,188,-0.170,-0.170,-0.170,0.000,0.000,0.000
1641195490993115904,2022-01-03-07:38:10,10.1.1.3,185,-0.180,-0.180,-0.180,0.000,0.000,0.000
1641195491190435840,2022-01-03-07:38:11,10.1.1.3,184,-0.190,-0.190,-0.190,0.000,0.000,0.000
1641195491391014144,2022-01-03-07:38:11,10.1.1.3,183,-0.200,-0.200,-0.200,0.000,0.000,0.000
1641195491591916032,2022-01-03-07:38:11,10.1.1.3,183,-0.210,-0.210,-0.210,0.000,0.000,0.000
1641195491790256128,2022-01-03-07:38:11,10.1.1.3,180,-0.220,-0.220,-0.220,0.000,0.000,0.000
1641195491992310016,2022-01-03-07:38:11,10.1.1.3,181,-0.230,-0.230,-0.230,0.000,0.000,0.000
1641195492188914176,2022-01-03-07:38:12,10.1.1.3,175,-0.240,-0.240,-0.240,0.000,0.000,0.000
1641195492413549824,2022-01-03-07:38:12,10.1.1.3,198,-0.250,-0.250,-0.250,0.000,0.000,0.000
1641195492609980160,2022-01-03-07:38:12,10.1.1.3,194,-0.260,-0.260,-0.260,0.000,0.000,0.000
1641195492808461056,2022-01-03-07:38:12,10.1.1.3,190,-0.270,-0.270,-0.270,0.000,0.000,0.000
1641195493009228032,2022-01-03-07:38:13,10.1.1.3,190,-0.280,-0.280,-0.280,0.000,0.000,0.000
1641195493209011968,2022-01-03-07:38:13,10.1.1.3,189,-0.290,-0.290,-0.290,0.000,0.000,0.000
1641195493407465984,2022-01-03-07:38:13,10.1.1.3,187,-0.300,-0.300,-0.300,0.000,0.000,0.000
1641195493612014080,2022-01-03-07:38:13,10.1.1.3,190,-0.310,-0.310,-0.310,0.000,0.000,0.000
1641195493808780032,2022-01-03-07:38:13,10.1.1.3,186,-0.320,-0.320,-0.320,0.000,0.000,0.000
1641195494007664896,2022-01-03-07:38:14,10.1.1.3,184,-0.330,-0.330,-0.330,0.000,0.000,0.000
1641195494207469824,2022-01-03-07:38:14,10.1.1.3,183,-0.340,-0.340,-0.340,0.000,0.000,0.000
1641195494408731904,2022-01-03-07:38:14,10.1.1.3,183,-0.350,-0.350,-0.350,0.000,0.000,0.000
1641195494607160064,2022-01-03-07:38:14,10.1.1.3,181,-0.360,-0.360,-0.360,0.000,0.000,0.000
1641195494811084032,2022-01-03-07:38:14,10.1.1.3,184,-0.370,-0.370,-0.370,0.000,0.000,0.000
1641195495010659072,2022-01-03-07:38:15,10.1.1.3,182,-0.380,-0.380,-0.380,0.000,0.000,0.000
1641195495206887936,2022-01-03-07:38:15,10.1.1.3,175,-0.390,-0.390,-0.390,0.000,0.000,0.000
1641195495406664960,2022-01-03-07:38:15,10.1.1.3,173,-0.400,-0.400,-0.400,0.000,0.000,0.000
1641195495606496000,2022-01-03-07:38:15,10.1.1.3,173,-0.410,-0.410,-0.410,0.000,0.000,0.000
1641195495827557120,2022-01-03-07:38:15,10.1.1.3,192,-0.420,-0.420,-0.420,0.000,0.000,0.000
1641195496026430976,2022-01-03-07:38:16,10.1.1.3,187,-0.430,-0.430,-0.430,0.000,0.000,0.000
1641195496233160960,2022-01-03-07:38:16,10.1.1.3,193,-0.440,-0.440,-0.440,0.000,0.000,0.000
1641195496424568064,2022-01-03-07:38:16,10.1.1.3,184,-0.450,-0.450,-0.450,0.000,0.000,0.000
1641195496625806080,2022-01-03-07:38:16,10.1.1.3,184,-0.460,-0.460,-0.460,0.000,0.000,0.000
1641195496825819904,2022-01-03-07:38:16,10.1.1.3,183,-0.470,-0.470,-0.470,0.000,0.000,0.000
1641195497023595008,2022-01-03-07:38:17,10.1.1.3,181,-0.480,-0.480,-0.480,0.000,0.000,0.000
1641195497225334784,2022-01-03-07:38:17,10.1.1.3,181,-0.490,-0.490,-0.490,0.000,0.000,0.000
1641195497422844928,2022-01-03-07:38:17,10.1.1.3,175,-0.480,-0.480,-0.480,0.000,0.000,0.000
1641195497622880000,2022-01-03-07:38:17,10.1.1.3,174,-0.470,-0.470,-0.470,0.000,0.000,0.000
1641195497824016128,2022-01-03-07:38:17,10.1.1.3,174,-0.460,-0.460,-0.460,0.000,0.000,0.000
1641195498022759936,2022-01-03-07:38:18,10.1.1.3,171,-0.450,-0.450,-0.450,0.000,0.000,0.000
1641195498226279936,2022-01-03-07:38:18,10.1.1.3,175,-0.440,-0.440,-0.440,0.000,0.000,0.000
1641195498425447936,2022-01-03-07:38:18,10.1.1.3,174,-0.430,-0.430,-0.430,0.000,0.000,0.000
1641195498624738048,2022-01-03-07:38:18,10.1.1.3,171,-0.420,-0.420,-0.420,0.000,0.000,0.000
1641195498824354816,2022-01-03-07:38:18,10.1.1.3,169,-0.410,-0.410,-0.410,0.000,0.000,0.000
1641195499039773952,2022-01-03-07:38:19,10.1.1.3,184,-0.400,-0.400,-0.400,0.000,0.000,0.000
1641195499243452928,2022-01-03-07:38:19,10.1.1.3,184,-0.390,-0.390,-0.390,0.000,0.000,0.000
1641195499452068096,2022-01-03-07:38:19,10.1.1.3,194,-0.380,-0.380,-0.380,0.000,0.000,0.000
1641195499639245056,2022-01-03-07:38:19,10.1.1.3,181,-0.370,-0.370,-0.370,0.000,0.000,0.000
1641195499845161984,2022-01-03-07:38:19,10.1.1.3,185,-0.360,-0.360,-0.360,0.000,0.000,0.000
1641195500039011840,2022-01-03-07:38:20,10.1.1.3,179,-0.350,-0.350,-0.350,0.000,0.000,0.000
1641195500239388928,2022-01-03-07:38:20,10.1.1.3,176,-0.340,-0.340,-0.340,0.000,0.000,0.000
1641195500440273920,2022-01-03-07:38:20,10.1.1.3,177,-0.330,-0.330,-0.330,0.000,0.000,0.000
1641195500637883904,2022-01-03-07:38:20,10.1.1.3,173,-0.320,-0.320,-0.320,0.000,0.000,0.000
1641195500846766848,2022-01-03-07:38:20,10.1.1.3,181,-0.310,-0.310,-0.310,0.000,0.000,0.000
1641195501044493056,2022-01-03-07:38:21,10.1.1.3,174,-0.300,-0.300,-0.300,0.000,0.000,0.000
1641195501242582016,2022-01-03-07:38:21,10.1.1.3,175,-0.290,-0.290,-0.290,0.000,0.000,0.000
1641195501442671104,2022-01-03-07:38:21,10.1.1.3,173,-0.280,-0.280,-0.280,0.000,0.000,0.000
1641195501636740096,2022-01-03-07:38:21,10.1.1.3,167,-0.270,-0.270,-0.270,0.000,0.000,0.000
1641195501839802112,2022-01-03-07:38:21,10.1.1.3,167,-0.260,-0.260,-0.260,0.000,0.000,0.000
1641195502040862208,2022-01-03-07:38:22,10.1.1.3,169,-0.250,-0.250,-0.250,0.000,0.000,0.000
1641195502235577088,2022-01-03-07:38:22,10.1.1.3,163,-0.240,-0.240,-0.240,0.000,0.000,0.000
1641195502435422976,2022-01-03-07:38:22,10.1.1.3,162,-0.230,-0.230,-0.230,0.000,0.000,0.000
1641195502648317184,2022-01-03-07:38:22,10.1.1.3,174,-0.220,-0.220,-0.220,0.000,0.000,0.000
1641195502855580160,2022-01-03-07:38:22,10.1.1.3,180,-0.210,-0.210,-0.210,0.000,0.000,0.000
1641195503058682880,2022-01-03-07:38:23,10.1.1.3,176,-0.200,-0.200,-0.200,0.000,0.000,0.000
1641195503254776832,2022-01-03-07:38:23,10.1.1.3,175,-0.190,-0.190,-0.190,0.000,0.000,0.000
1641195503455954176,2022-01-03-07:38:23,10.1.1.3,175,-0.180,-0.180,-0.180,0.000,0.000,0.000
1641195503656169984,2022-01-03-07:38:23,10.1.1.3,175,-0.170,-0.170,-0.170,0.000,0.000,0.000
1641195503853274112,2022-01-03-07:38:23,10.1.1.3,168,-0.160,-0.160,-0.160,0.000,0.000,0.000
1641195504053914112,2022-01-03-07:38:24,10.1.1.3,166,-0.150,-0.150,-0.150,0.000,0.000,0.000
1641195504252299008,2022-01-03-07:38:24,10.1.1.3,164,-0.140,-0.140,-0.140,0.000,0.000,0.000
1641195504451952896,2022-01-03-07:38:24,10.1.1.3,163,-0.130,-0.130,-0.130,0.000,0.000,0.000
1641195504656114944,2022-01-03-07:38:24,10.1.1.3,164,-0.120,-0.120,-0.120,0.000,0.000,0.000
1641195504871663104,2022-01-03-07:38:24,10.1.1.3,174,-0.110,-0.110,-0.110,0.000,0.000,0.000
1641195505072768000,2022-01-03-07:38:25,10.1.1.3,174,-0.100,-0.100,-0.100,0.000,0.000,0.000
1641195505272843008,2022-01-03-07:38:25,10.1.1.3,173,-0.090,-0.090,-0.090,0.000,0.000,0.000
1641195505469984000,2022-01-03-07:38:25,10.1.1.3,170,-0.080,-0.080,-0.080,0.000,0.000,0.000
1641195505671130880,2022-01-03-07:38:25,10.1.1.3,169,-0.070,-0.070,-0.070,0.000,0.000,0.000
1641195505870260992,2022-01-03-07:38:25,10.1.1.3,168,-0.060,-0.060,-0.060,0.000,0.000,0.000
1641195506069270016,2022-01-03-07:38:26,10.1.1.3,166,-0.050,-0.050,-0.050,0.000,0.000,0.000
1641195506269701120,2022-01-03-07:38:26,10.1.1.3,166,-0.040,-0.040,-0.040,0.000,0.000,0.000
1641195506471718144,2022-01-03-07:38:26,10.1.1.3,167,-0.030,-0.030,-0.030,0.000,0.000,0.000
1641195506669445120,2022-01-03-07:38:26,10.1.1.3,164,-0.020,-0.020,-0.020,0.000,0.000,0.000
1641195506868647936,2022-01-03-07:38:26,10.1.1.3,161,-0.010,-0.010,-0.010,0.000,0.000,0.000
1641195507069051136,2022-01-03-07:38:27,10.1.1.3,161,0.000,0.000,0.000,0.000,0.000,0.000
1641195507271234048,2022-01-03-07:38:27,10.1.1.3,161,-0.010,-0.010,-0.010,0.000,0.000,0.000
1641195507477943808,2022-01-03-07:38:27,10.1.1.3,165,-0.020,-0.020,-0.020,0.000,0.000,0.000
1641195507692889856,2022-01-03-07:38:27,10.1.1.3,176,-0.030,-0.030,-0.030,0.000,0.000,0.000
1641195507893552896,2022-01-03-07:38:27,10.1.1.3,175,-0.040,-0.040,-0.040,0.000,0.000,0.000
1641195508093223168,2022-01-03-07:38:28,10.1.1.3,173,-0.050,-0.050,-0.050,0.000,0.000,0.000
1641195508296039936,2022-01-03-07:38:28,10.1.1.3,175,-0.060,-0.060,-0.060,0.000,0.000,0.000
1641195508497766912,2022-01-03-07:38:28,10.1.1.3,176,-0.070,-0.070,-0.070,0.000,0.000,0.000
1641195508696492800,2022-01-03-07:38:28,10.1.1.3,174,-0.080,-0.080,-0.080,0.000,0.000,0.000
1641195508909779968,2022-01-03-07:38:28,10.1.1.3,187,-0.090,-0.090,-0.090,0.000,0.000,0.000
1641195509098598912,2022-01-03-07:38:29,10.1.1.3,174,-0.100,-0.100,-0.100,0.000,0.000,0.000
1641195509300724992,2022-01-03-07:38:29,10.1.1.3,175,-0.110,-0.110,-0.110,0.000,0.000,0.000
1641195509501421056,2022-01-03-07:38:29,10.1.1.3,175,-0.120,-0.120,-0.120,0.000,0.000,0.000
1641195509700644096,2022-01-03-07:38:29,10.1.1.3,173,-0.130,-0.130,-0.130,0.000,0.000,0.000
1641195509901480960,2022-01-03-07:38:29,10.1.1.3,173,-0.140,-0.140,-0.140,0.000,0.000,0.000
1641195510323719936,2022-01-03-07:38:30,10.1.1.3,189,-0.160,-0.160,-0.160,0.000,0.000,0.000
1641195510528052992,2022-01-03-07:38:30,10.1.1.3,192,-0.170,-0.170,-0.170,0.000,0.000,0.000
1641195510724900864,2022-01-03-07:38:30,10.1.1.3,188,-0.180,-0.180,-0.180,0.000,0.000,0.000
1641195510926652928,2022-01-03-07:38:30,10.1.1.3,189,-0.190,-0.190,-0.190,0.000,0.000,0.000
1641195511127906048,2022-01-03-07:38:31,10.1.1.3,190,-0.200,-0.200,-0.200,0.000,0.000,0.000
1641195511327730944,2022-01-03-07:38:31,10.1.1.3,186,-0.210,-0.210,-0.210,0.000,0.000,0.000
1641195511529468928,2022-01-03-07:38:31,10.1.1.3,186,-0.220,-0.220,-0.220,0.000,0.000,0.000
1641195511729607168,2022-01-03-07:38:31,10.1.1.3,186,-0.230,-0.230,-0.230,0.000,0.000,0.000
1641195511927383808,2022-01-03-07:38:31,10.1.1.3,182,-0.240,-0.240,-0.240,0.000,0.000,0.000
1641195512137736192,2022-01-03-07:38:32,10.1.1.3,192,-0.250,-0.250,-0.250,0.000,0.000,0.000
1641195512329026816,2022-01-03-07:38:32,10.1.1.3,183,-0.260,-0.260,-0.260,0.000,0.000,0.000
1641195512531660032,2022-01-03-07:38:32,10.1.1.3,183,-0.270,-0.270,-0.270,0.000,0.000,0.000
1641195512732135168,2022-01-03-07:38:32,10.1.1.3,182,-0.280,-0.280,-0.280,0.000,0.000,0.000
1641195512949304064,2022-01-03-07:38:32,10.1.1.3,193,-0.290,-0.290,-0.290,0.000,0.000,0.000
1641195513155604992,2022-01-03-07:38:33,10.1.1.3,199,-0.300,-0.300,-0.300,0.000,0.000,0.000
1641195513352119040,2022-01-03-07:38:33,10.1.1.3,195,-0.310,-0.310,-0.310,0.000,0.000,0.000
1641195513553191936,2022-01-03-07:38:33,10.1.1.3,195,-0.320,-0.320,-0.320,0.000,0.000,0.000
1641195513750552832,2022-01-03-07:38:33,10.1.1.3,192,-0.330,-0.330,-0.330,0.000,0.000,0.000
1641195513950375936,2022-01-03-07:38:33,10.1.1.3,190,-0.340,-0.340,-0.340,0.000,0.000,0.000
1641195514152900096,2022-01-03-07:38:34,10.1.1.3,190,-0.350,-0.350,-0.350,0.000,0.000,0.000
1641195514350727936,2022-01-03-07:38:34,10.1.1.3,188,-0.360,-0.360,-0.360,0.000,0.000,0.000
1641195514552766976,2022-01-03-07:38:34,10.1.1.3,188,-0.370,-0.370,-0.370,0.000,0.000,0.000
1641195514751707904,2022-01-03-07:38:34,10.1.1.3,186,-0.380,-0.380,-0.380,0.000,0.000,0.000
1641195514952446976,2022-01-03-07:38:34,10.1.1.3,186,-0.390,-0.390,-0.390,0.000,0.000,0.000
1641195515151931904,2022-01-03-07:38:35,10.1.1.3,185,-0.400,-0.400,-0.400,0.000,0.000,0.000
1641195515358073088,2022-01-03-07:38:35,10.1.1.3,184,-0.410,-0.410,-0.410,0.000,0.000,0.000
1641195515572689152,2022-01-03-07:38:35,10.1.1.3,196,-0.420,-0.420,-0.420,0.000,0.000,0.000
1641195515778248192,2022-01-03-07:38:35,10.1.1.3,199,-0.430,-0.430,-0.430,0.000,0.000,0.000
1641195515975892992,2022-01-03-07:38:35,10.1.1.3,196,-0.440,-0.440,-0.440,0.000,0.000,0.000
1641195516174868224,2022-01-03-07:38:36,10.1.1.3,194,-0.450,-0.450,-0.450,0.000,0.000,0.000
1641195516373022976,2022-01-03-07:38:36,10.1.1.3,191,-0.460,-0.460,-0.460,0.000,0.000,0.000
1641195516575898880,2022-01-03-07:38:36,10.1.1.3,189,-0.470,-0.470,-0.470,0.000,0.000,0.000
1641195516773099776,2022-01-03-07:38:36,10.1.1.3,188,-0.480,-0.480,-0.480,0.000,0.000,0.000
1641195516978447872,2022-01-03-07:38:36,10.1.1.3,193,-0.490,-0.490,-0.490,0.000,0.000,0.000
1641195517172944896,2022-01-03-07:38:37,10.1.1.3,185,-0.480,-0.480,-0.480,0.000,0.000,0.000
1641195517375624960,2022-01-03-07:38:37,10.1.1.3,186,-0.470,-0.470,-0.470,0.000,0.000,0.000
1641195517574109952,2022-01-03-07:38:37,10.1.1.3,185,-0.460,-0.460,-0.460,0.000,0.000,0.000
1641195517776338944,2022-01-03-07:38:37,10.1.1.3,186,-0.450,-0.450,-0.450,0.000,0.000,0.000
1641195517975554048,2022-01-03-07:38:37,10.1.1.3,183,-0.440,-0.440,-0.440,0.000,0.000,0.000
1641195518174833920,2022-01-03-07:38:38,10.1.1.3,183,-0.430,-0.430,-0.430,0.000,0.000,0.000
1641195518377588992,2022-01-03-07:38:38,10.1.1.3,185,-0.420,-0.420,-0.420,0.000,0.000,0.000
1641195518573456896,2022-01-03-07:38:38,10.1.1.3,180,-0.410,-0.410,-0.410,0.000,0.000,0.000
1641195518792936192,2022-01-03-07:38:38,10.1.1.3,198,-0.400,-0.400,-0.400,0.000,0.000,0.000
1641195518995151872,2022-01-03-07:38:38,10.1.1.3,199,-0.390,-0.390,-0.390,0.000,0.000,0.000
1641195519192454144,2022-01-03-07:38:39,10.1.1.3,194,-0.380,-0.380,-0.380,0.000,0.000,0.000
1641195519398114048,2022-01-03-07:38:39,10.1.1.3,195,-0.370,-0.370,-0.370,0.000,0.000,0.000
1641195519593437952,2022-01-03-07:38:39,10.1.1.3,188,-0.360,-0.360,-0.360,0.000,0.000,0.000
1641195519793562880,2022-01-03-07:38:39,10.1.1.3,188,-0.350,-0.350,-0.350,0.000,0.000,0.000
1641195519992685056,2022-01-03-07:38:39,10.1.1.3,186,-0.340,-0.340,-0.340,0.000,0.000,0.000
1641195520193201152,2022-01-03-07:38:40,10.1.1.3,186,-0.330,-0.330,-0.330,0.000,0.000,0.000
1641195520392549120,2022-01-03-07:38:40,10.1.1.3,184,-0.320,-0.320,-0.320,0.000,0.000,0.000
1641195520592950016,2022-01-03-07:38:40,10.1.1.3,183,-0.310,-0.310,-0.310,0.000,0.000,0.000
1641195520792459008,2022-01-03-07:38:40,10.1.1.3,182,-0.300,-0.300,-0.300,0.000,0.000,0.000
1641195520995907072,2022-01-03-07:38:40,10.1.1.3,183,-0.290,-0.290,-0.290,0.000,0.000,0.000
1641195521192506112,2022-01-03-07:38:41,10.1.1.3,179,-0.280,-0.280,-0.280,0.000,0.000,0.000
1641195521413666048,2022-01-03-07:38:41,10.1.1.3,199,-0.270,-0.270,-0.270,0.000,0.000,0.000
1641195521612601088,2022-01-03-07:38:41,10.1.1.3,197,-0.260,-0.260,-0.260,0.000,0.000,0.000
1641195521814938112,2022-01-03-07:38:41,10.1.1.3,198,-0.250,-0.250,-0.250,0.000,0.000,0.000
1641195522014590976,2022-01-03-07:38:42,10.1.1.3,198,-0.240,-0.240,-0.240,0.000,0.000,0.000
1641195522211606016,2022-01-03-07:38:42,10.1.1.3,194,-0.230,-0.230,-0.230,0.000,0.000,0.000
1641195522412345856,2022-01-03-07:38:42,10.1.1.3,193,-0.220,-0.220,-0.220,0.000,0.000,0.000
1641195522611213824,2022-01-03-07:38:42,10.1.1.3,192,-0.210,-0.210,-0.210,0.000,0.000,0.000
1641195522811171072,2022-01-03-07:38:42,10.1.1.3,191,-0.200,-0.200,-0.200,0.000,0.000,0.000
1641195523014398976,2022-01-03-07:38:43,10.1.1.3,192,-0.190,-0.190,-0.190,0.000,0.000,0.000
1641195523213885184,2022-01-03-07:38:43,10.1.1.3,190,-0.180,-0.180,-0.180,0.000,0.000,0.000
1641195523410716160,2022-01-03-07:38:43,10.1.1.3,187,-0.170,-0.170,-0.170,0.000,0.000,0.000
1641195523614072064,2022-01-03-07:38:43,10.1.1.3,190,-0.160,-0.160,-0.160,0.000,0.000,0.000
1641195523811510016,2022-01-03-07:38:43,10.1.1.3,187,-0.150,-0.150,-0.150,0.000,0.000,0.000
1641195524010981120,2022-01-03-07:38:44,10.1.1.3,185,-0.140,-0.140,-0.140,0.000,0.000,0.000
1641195524210789888,2022-01-03-07:38:44,10.1.1.3,184,-0.130,-0.130,-0.130,0.000,0.000,0.000
1641195524409702912,2022-01-03-07:38:44,10.1.1.3,182,-0.120,-0.120,-0.120,0.000,0.000,0.000
1641195524609261056,2022-01-03-07:38:44,10.1.1.3,180,-0.110,-0.110,-0.110,0.000,0.000,0.000
1641195524823831040,2022-01-03-07:38:44,10.1.1.3,193,-0.100,-0.100,-0.100,0.000,0.000,0.000
1641195525009552896,2022-01-03-07:38:45,10.1.1.3,177,-0.090,-0.090,-0.090,0.000,0.000,0.000
1641195525208739072,2022-01-03-07:38:45,10.1.1.3,175,-0.080,-0.080,-0.080,0.000,0.000,0.000
1641195525415323136,2022-01-03-07:38:45,10.1.1.3,176,-0.070,-0.070,-0.070,0.000,0.000,0.000
1641195525609744128,2022-01-03-07:38:45,10.1.1.3,175,-0.060,-0.060,-0.060,0.000,0.000,0.000
1641195525828881920,2022-01-03-07:38:45,10.1.1.3,194,-0.050,-0.050,-0.050,0.000,0.000,0.000
1641195526029360128,2022-01-03-07:38:46,10.1.1.3,193,-0.040,-0.040,-0.040,0.000,0.000,0.000
1641195526224625152,2022-01-03-07:38:46,10.1.1.3,185,-0.030,-0.030,-0.030,0.000,0.000,0.000
1641195526428323072,2022-01-03-07:38:46,10.1.1.3,188,-0.020,-0.020,-0.020,0.000,0.000,0.000
1641195526623280896,2022-01-03-07:38:46,10.1.1.3,182,-0.010,-0.010,-0.010,0.000,0.000,0.000
1641195526831911936,2022-01-03-07:38:46,10.1.1.3,190,0.000,0.000,0.000,0.000,0.000,0.000
1641195527027364096,2022-01-03-07:38:47,10.1.1.3,184,-0.010,-0.010,-0.010,0.000,0.000,0.000
1641195527227704064,2022-01-03-07:38:47,10.1.1.3,183,-0.020,-0.020,-0.020,0.000,0.000,0.000
1641195527428470016,2022-01-03-07:38:47,10.1.1.3,183,-0.030,-0.030,-0.030,0.000,0.000,0.000
1641195527626691072,2022-01-03-07:38:47,10.1.1.3,181,-0.040,-0.040,-0.040,0.000,0.000,0.000
1641195527829679104,2022-01-03-07:38:47,10.1.1.3,183,-0.050,-0.050,-0.050,0.000,0.000,0.000
1641195528025078016,2022-01-03-07:38:48,10.1.1.3,178,-0.060,-0.060,-0.060,0.000,0.000,0.000
1641195528227953920,2022-01-03-07:38:48,10.1.1.3,180,-0.070,-0.070,-0.070,0.000,0.000,0.000
1641195528428390912,2022-01-03-07:38:48,10.1.1.3,175,-0.080,-0.080,-0.080,0.000,0.000,0.000
1641195528628890112,2022-01-03-07:38:48,10.1.1.3,177,-0.090,-0.090,-0.090,0.000,0.000,0.000
1641195528828150016,2022-01-03-07:38:48,10.1.1.3,174,-0.100,-0.100,-0.100,0.000,0.000,0.000
1641195529047801856,2022-01-03-07:38:49,10.1.1.3,192,-0.110,-0.110,-0.110,0.000,0.000,0.000
1641195529243865856,2022-01-03-07:38:49,10.1.1.3,185,-0.120,-0.120,-0.120,0.000,0.000,0.000
1641195529435749888,2022-01-03-07:38:49,10.1.1.3,177,-0.130,-0.130,-0.130,0.000,0.000,0.000
1641195529645477120,2022-01-03-07:38:49,10.1.1.3,185,-0.140,-0.140,-0.140,0.000,0.000,0.000
1641195529848273920,2022-01-03-07:38:49,10.1.1.3,182,-0.150,-0.150,-0.150,0.000,0.000,0.000
1641195530046931968,2022-01-03-07:38:50,10.1.1.3,183,-0.160,-0.160,-0.160,0.000,0.000,0.000
1641195530243240192,2022-01-03-07:38:50,10.1.1.3,174,-0.170,-0.170,-0.170,0.000,0.000,0.000
1641195530465329920,2022-01-03-07:38:50,10.1.1.3,188,-0.180,-0.180,-0.180,0.000,0.000,0.000
1641195530665072896,2022-01-03-07:38:50,10.1.1.3,187,-0.190,-0.190,-0.190,0.000,0.000,0.000
1641195530864481024,2022-01-03-07:38:50,10.1.1.3,184,-0.200,-0.200,-0.200,0.000,0.000,0.000
1641195531064589056,2022-01-03-07:38:51,10.1.1.3,180,-0.210,-0.210,-0.210,0.000,0.000,0.000
1641195531260690944,2022-01-03-07:38:51,10.1.1.3,171,-0.220,-0.220,-0.220,0.000,0.000,0.000
1641195531464081152,2022-01-03-07:38:51,10.1.1.3,172,-0.230,-0.230,-0.230,0.000,0.000,0.000
1641195531664484864,2022-01-03-07:38:51,10.1.1.3,170,-0.240,-0.240,-0.240,0.000,0.000,0.000
1641195531880425984,2022-01-03-07:38:51,10.1.1.3,186,-0.250,-0.250,-0.250,0.000,0.000,0.000
1641195532081325056,2022-01-03-07:38:52,10.1.1.3,185,-0.260,-0.260,-0.260,0.000,0.000,0.000
1641195532280615936,2022-01-03-07:38:52,10.1.1.3,184,-0.270,-0.270,-0.270,0.000,0.000,0.000
1641195532480560896,2022-01-03-07:38:52,10.1.1.3,182,-0.280,-0.280,-0.280,0.000,0.000,0.000
1641195532684452096,2022-01-03-07:38:52,10.1.1.3,184,-0.290,-0.290,-0.290,0.000,0.000,0.000
1641195532878880000,2022-01-03-07:38:52,10.1.1.3,176,-0.300,-0.300,-0.300,0.000,0.000,0.000
1641195533081465088,2022-01-03-07:38:53,10.1.1.3,177,-0.310,-0.310,-0.310,0.000,0.000,0.000
1641195533290110976,2022-01-03-07:38:53,10.1.1.3,180,-0.320,-0.320,-0.320,0.000,0.000,0.000
1641195533477790208,2022-01-03-07:38:53,10.1.1.3,171,-0.330,-0.330,-0.330,0.000,0.000,0.000
1641195533682592000,2022-01-03-07:38:53,10.1.1.3,175,-0.340,-0.340,-0.340,0.000,0.000,0.000
1641195533877716992,2022-01-03-07:38:53,10.1.1.3,168,-0.350,-0.350,-0.350,0.000,0.000,0.000
1641195534080302080,2022-01-03-07:38:54,10.1.1.3,168,-0.360,-0.360,-0.360,0.000,0.000,0.000
1641195534300101120,2022-01-03-07:38:54,10.1.1.3,185,-0.370,-0.370,-0.370,0.000,0.000,0.000
1641195534519056128,2022-01-03-07:38:54,10.1.1.3,184,-0.380,-0.380,-0.380,0.000,0.000,0.000
1641195534720866048,2022-01-03-07:38:54,10.1.1.3,181,-0.390,-0.390,-0.390,0.000,0.000,0.000
1641195534916461056,2022-01-03-07:38:54,10.1.1.3,173,-0.400,-0.400,-0.400,0.000,0.000,0.000
1641195535121803008,2022-01-03-07:38:55,10.1.1.3,176,-0.410,-0.410,-0.410,0.000,0.000,0.000
1641195535316378112,2022-01-03-07:38:55,10.1.1.3,170,-0.420,-0.420,-0.420,0.000,0.000,0.000
1641195535516048896,2022-01-03-07:38:55,10.1.1.3,168,-0.430,-0.430,-0.430,0.000,0.000,0.000
1641195535720966144,2022-01-03-07:38:55,10.1.1.3,173,-0.440,-0.440,-0.440,0.000,0.000,0.000
1641195535916268032,2022-01-03-07:38:55,10.1.1.3,167,-0.450,-0.450,-0.450,0.000,0.000,0.000
1641195536113202944,2022-01-03-07:38:56,10.1.1.3,163,-0.460,-0.460,-0.460,0.000,0.000,0.000
1641195536313689088,2022-01-03-07:38:56,10.1.1.3,162,-0.470,-0.470,-0.470,0.000,0.000,0.000
1641195536512681984,2022-01-03-07:38:56,10.1.1.3,159,-0.480,-0.480,-0.480,0.000,0.000,0.000
1641195536733652224,2022-01-03-07:38:56,10.1.1.3,179,-0.490,-0.490,-0.490,0.000,0.000,0.000
1641195536932404992,2022-01-03-07:38:56,10.1.1.3,177,-0.480,-0.480,-0.480,0.000,0.000,0.000
1641195537132855808,2022-01-03-07:38:57,10.1.1.3,176,-0.470,-0.470,-0.470,0.000,0.000,0.000
1641195537331547904,2022-01-03-07:38:57,10.1.1.3,174,-0.460,-0.460,-0.460,0.000,0.000,0.000
1641195537549452032,2022-01-03-07:38:57,10.1.1.3,191,-0.450,-0.450,-0.450,0.000,0.000,0.000
1641195537723437056,2022-01-03-07:38:57,10.1.1.3,162,-0.440,-0.440,-0.440,0.000,0.000,0.000
1641195537931641088,2022-01-03-07:38:57,10.1.1.3,170,-0.430,-0.430,-0.430,0.000,0.000,0.000
1641195538130428160,2022-01-03-07:38:58,10.1.1.3,168,-0.420,-0.420,-0.420,0.000,0.000,0.000
1641195538332047104,2022-01-03-07:38:58,10.1.1.3,166,-0.410,-0.410,-0.410,0.000,0.000,0.000
1641195538529891072,2022-01-03-07:38:58,10.1.1.3,164,-0.400,-0.400,-0.400,0.000,0.000,0.000
1641195538730819072,2022-01-03-07:38:58,10.1.1.3,162,-0.390,-0.390,-0.390,0.000,0.000,0.000
1641195538930272000,2022-01-03-07:38:58,10.1.1.3,161,-0.380,-0.380,-0.380,0.000,0.000,0.000
1641195539130025984,2022-01-03-07:38:59,10.1.1.3,160,-0.370,-0.370,-0.370,0.000,0.000,0.000
1641195539332057856,2022-01-03-07:38:59,10.1.1.3,160,-0.360,-0.360,-0.360,0.000,0.000,0.000
1641195539533030144,2022-01-03-07:38:59,10.1.1.3,159,-0.350,-0.350,-0.350,0.000,0.000,0.000
1641195539756641024,2022-01-03-07:38:59,10.1.1.3,181,-0.340,-0.340,-0.340,0.000,0.000,0.000
1641195539956419072,2022-01-03-07:38:59,10.1.1.3,178,-0.330,-0.330,-0.330,0.000,0.000,0.000
1641195539979335168,2022-01-03-07:38:59,10.1.1.3,-3,-0.330,-0.330,-0.330,0.000,0.000,0.000
1641195540348589056,2022-01-03-07:39:00,10.1.1.3,167,-0.310,-0.310,-0.310,0.000,0.000,0.000
1641195540561978112,2022-01-03-07:39:00,10.1.1.3,174,-0.300,-0.300,-0.300,0.000,0.000,0.000
1641195540760922880,2022-01-03-07:39:00,10.1.1.3,174,-0.290,-0.290,-0.290,0.000,0.000,0.000
1641195540958690816,2022-01-03-07:39:00,10.1.1.3,172,-0.280,-0.280,-0.280,0.000,0.000,0.000
1641195541162832128,2022-01-03-07:39:01,10.1.1.3,175,-0.270,-0.270,-0.270,0.000,0.000,0.000
1641195541360796928,2022-01-03-07:39:01,10.1.1.3,171,-0.260,-0.260,-0.260,0.000,0.000,0.000
1641195541564572160,2022-01-03-07:39:01,10.1.1.3,170,-0.250,-0.250,-0.250,0.000,0.000,0.000
1641195541774002944,2022-01-03-07:39:01,10.1.1.3,180,-0.240,-0.240,-0.240,0.000,0.000,0.000
1641195541984302080,2022-01-03-07:39:01,10.1.1.3,189,-0.230,-0.230,-0.230,0.000,0.000,0.000
1641195542187383808,2022-01-03-07:39:02,10.1.1.3,187,-0.220,-0.220,-0.220,0.000,0.000,0.000
1641195542383085056,2022-01-03-07:39:02,10.1.1.3,181,-0.210,-0.210,-0.210,0.000,0.000,0.000
1641195542591337984,2022-01-03-07:39:02,10.1.1.3,188,-0.200,-0.200,-0.200,0.000,0.000,0.000
1641195542785903104,2022-01-03-07:39:02,10.1.1.3,181,-0.190,-0.190,-0.190,0.000,0.000,0.000
1641195543189629952,2022-01-03-07:39:03,10.1.1.3,181,-0.170,-0.170,-0.170,0.000,0.000,0.000
1641195543385481984,2022-01-03-07:39:03,10.1.1.3,175,-0.160,-0.160,-0.160,0.000,0.000,0.000
1641195543591217920,2022-01-03-07:39:03,10.1.1.3,180,-0.150,-0.150,-0.150,0.000,0.000,0.000
1641195543790908928,2022-01-03-07:39:03,10.1.1.3,176,-0.140,-0.140,-0.140,0.000,0.000,0.000
1641195543988097024,2022-01-03-07:39:03,10.1.1.3,174,-0.130,-0.130,-0.130,0.000,0.000,0.000
1641195544212549888,2022-01-03-07:39:04,10.1.1.3,196,-0.120,-0.120,-0.120,0.000,0.000,0.000
1641195544413476864,2022-01-03-07:39:04,10.1.1.3,191,-0.110,-0.110,-0.110,0.000,0.000,0.000
1641195544608886016,2022-01-03-07:39:04,10.1.1.3,183,-0.100,-0.100,-0.100,0.000,0.000,0.000
1641195544813417984,2022-01-03-07:39:04,10.1.1.3,187,-0.090,-0.090,-0.090,0.000,0.000,0.000
1641195545011671040,2022-01-03-07:39:05,10.1.1.3,184,-0.080,-0.080,-0.080,0.000,0.000,0.000
1641195545209413120,2022-01-03-07:39:05,10.1.1.3,180,-0.070,-0.070,-0.070,0.000,0.000,0.000
1641195545410572032,2022-01-03-07:39:05,10.1.1.3,180,-0.060,-0.060,-0.060,0.000,0.000,0.000
1641195545614126080,2022-01-03-07:39:05,10.1.1.3,180,-0.050,-0.050,-0.050,0.000,0.000,0.000
1641195545830833920,2022-01-03-07:39:05,10.1.1.3,195,-0.040,-0.040,-0.040,0.000,0.000,0.000
1641195546231972864,2022-01-03-07:39:06,10.1.1.3,195,-0.020,-0.020,-0.020,0.000,0.000,0.000
1641195546430205952,2022-01-03-07:39:06,10.1.1.3,193,-0.010,-0.010,-0.010,0.000,0.000,0.000
1641195546631709952,2022-01-03-07:39:06,10.1.1.3,193,0.000,0.000,0.000,0.000,0.000,0.000
1641195546832616192,2022-01-03-07:39:06,10.1.1.3,193,-0.010,-0.010,-0.010,0.000,0.000,0.000
1641195547032819968,2022-01-03-07:39:07,10.1.1.3,192,-0.020,-0.020,-0.020,0.000,0.000,0.000
1641195547233452032,2022-01-03-07:39:07,10.1.1.3,189,-0.030,-0.030,-0.030,0.000,0.000,0.000
1641195547432740864,2022-01-03-07:39:07,10.1.1.3,187,-0.040,-0.040,-0.040,0.000,0.000,0.000
1641195547631911936,2022-01-03-07:39:07,10.1.1.3,185,-0.050,-0.050,-0.050,0.000,0.000,0.000
1641195547836081920,2022-01-03-07:39:07,10.1.1.3,188,-0.060,-0.060,-0.060,0.000,0.000,0.000
1641195548033200896,2022-01-03-07:39:08,10.1.1.3,185,-0.070,-0.070,-0.070,0.000,0.000,0.000
1641195548234376960,2022-01-03-07:39:08,10.1.1.3,184,-0.080,-0.080,-0.080,0.000,0.000,0.000
1641195548435602944,2022-01-03-07:39:08,10.1.1.3,183,-0.090,-0.090,-0.090,0.000,0.000,0.000
1641195548636601088,2022-01-03-07:39:08,10.1.1.3,182,-0.100,-0.100,-0.100,0.000,0.000,0.000
1641195548852526848,2022-01-03-07:39:08,10.1.1.3,194,-0.110,-0.110,-0.110,0.000,0.000,0.000
1641195549053670912,2022-01-03-07:39:09,10.1.1.3,192,-0.120,-0.120,-0.120,0.000,0.000,0.000
1641195549253443840,2022-01-03-07:39:09,10.1.1.3,191,-0.130,-0.130,-0.130,0.000,0.000,0.000
1641195549454142208,2022-01-03-07:39:09,10.1.1.3,191,-0.140,-0.140,-0.140,0.000,0.000,0.000
1641195549653223936,2022-01-03-07:39:09,10.1.1.3,189,-0.150,-0.150,-0.150,0.000,0.000,0.000
1641195549852800000,2022-01-03-07:39:09,10.1.1.3,187,-0.160,-0.160,-0.160,0.000,0.000,0.000
1641195550054870016,2022-01-03-07:39:10,10.1.1.3,188,-0.170,-0.170,-0.170,0.000,0.000,0.000
1641195550252852992,2022-01-03-07:39:10,10.1.1.3,186,-0.180,-0.180,-0.180,0.000,0.000,0.000
1641195550455100160,2022-01-03-07:39:10,10.1.1.3,187,-0.190,-0.190,-0.190,0.000,0.000,0.000
1641195550655875840,2022-01-03-07:39:10,10.1.1.3,187,-0.200,-0.200,-0.200,0.000,0.000,0.000
1641195550852617984,2022-01-03-07:39:10,10.1.1.3,183,-0.210,-0.210,-0.210,0.000,0.000,0.000
1641195551053684992,2022-01-03-07:39:11,10.1.1.3,183,-0.220,-0.220,-0.220,0.000,0.000,0.000
1641195551268356096,2022-01-03-07:39:11,10.1.1.3,197,-0.230,-0.230,-0.230,0.000,0.000,0.000
1641195551452892928,2022-01-03-07:39:11,10.1.1.3,181,-0.240,-0.240,-0.240,0.000,0.000,0.000
1641195551674065152,2022-01-03-07:39:11,10.1.1.3,196,-0.250,-0.250,-0.250,0.000,0.000,0.000
1641195551871958016,2022-01-03-07:39:11,10.1.1.3,189,-0.260,-0.260,-0.260,0.000,0.000,0.000
1641195552074314240,2022-01-03-07:39:12,10.1.1.3,189,-0.270,-0.270,-0.270,0.000,0.000,0.000
1641195552272195072,2022-01-03-07:39:12,10.1.1.3,187,-0.280,-0.280,-0.280,0.000,0.000,0.000
1641195552471732992,2022-01-03-07:39:12,10.1.1.3,185,-0.290,-0.290,-0.290,0.000,0.000,0.000
1641195552676163072,2022-01-03-07:39:12,10.1.1.3,187,-0.300,-0.300,-0.300,0.000,0.000,0.000
1641195552871447040,2022-01-03-07:39:12,10.1.1.3,183,-0.310,-0.310,-0.310,0.000,0.000,0.000
1641195553074516992,2022-01-03-07:39:13,10.1.1.3,186,-0.320,-0.320,-0.320,0.000,0.000,0.000
1641195553272867840,2022-01-03-07:39:13,10.1.1.3,183,-0.330,-0.330,-0.330,0.000,0.000,0.000
1641195553471635200,2022-01-03-07:39:13,10.1.1.3,181,-0.340,-0.340,-0.340,0.000,0.000,0.000
1641195553672919040,2022-01-03-07:39:13,10.1.1.3,179,-0.350,-0.350,-0.350,0.000,0.000,0.000
1641195553891258112,2022-01-03-07:39:13,10.1.1.3,195,-0.360,-0.360,-0.360,0.000,0.000,0.000
1641195554097000960,2022-01-03-07:39:14,10.1.1.3,200,-0.370,-0.370,-0.370,0.000,0.000,0.000
1641195554291262976,2022-01-03-07:39:14,10.1.1.3,193,-0.380,-0.380,-0.380,0.000,0.000,0.000
1641195554494103808,2022-01-03-07:39:14,10.1.1.3,195,-0.390,-0.390,-0.390,0.000,0.000,0.000
1641195554693208832,2022-01-03-07:39:14,10.1.1.3,192,-0.400,-0.400,-0.400,0.000,0.000,0.000
1641195554890424064,2022-01-03-07:39:14,10.1.1.3,190,-0.410,-0.410,-0.410,0.000,0.000,0.000
1641195555090151936,2022-01-03-07:39:15,10.1.1.3,186,-0.420,-0.420,-0.420,0.000,0.000,0.000
1641195555292337920,2022-01-03-07:39:15,10.1.1.3,187,-0.430,-0.430,-0.430,0.000,0.000,0.000
1641195555510981120,2022-01-03-07:39:15,10.1.1.3,194,-0.440,-0.440,-0.440,0.000,0.000,0.000
1641195555718450176,2022-01-03-07:39:15,10.1.1.3,200,-0.450,-0.450,-0.450,0.000,0.000,0.000
1641195555914688000,2022-01-03-07:39:15,10.1.1.3,194,-0.460,-0.460,-0.460,0.000,0.000,0.000
1641195556109332992,2022-01-03-07:39:16,10.1.1.3,189,-0.470,-0.470,-0.470,0.000,0.000,0.000
1641195556314126848,2022-01-03-07:39:16,10.1.1.3,189,-0.480,-0.480,-0.480,0.000,0.000,0.000
1641195556509320960,2022-01-03-07:39:16,10.1.1.3,187,-0.490,-0.490,-0.490,0.000,0.000,0.000
1641195556711045120,2022-01-03-07:39:16,10.1.1.3,187,-0.480,-0.480,-0.480,0.000,0.000,0.000
1641195556909010944,2022-01-03-07:39:16,10.1.1.3,185,-0.470,-0.470,-0.470,0.000,0.000,0.000
1641195557108076032,2022-01-03-07:39:17,10.1.1.3,184,-0.460,-0.460,-0.460,0.000,0.000,0.000
1641195557311841024,2022-01-03-07:39:17,10.1.1.3,186,-0.450,-0.450,-0.450,0.000,0.000,0.000
1641195557531447040,2022-01-03-07:39:17,10.1.1.3,204,-0.440,-0.440,-0.440,0.000,0.000,0.000
1641195557728303872,2022-01-03-07:39:17,10.1.1.3,192,-0.430,-0.430,-0.430,0.000,0.000,0.000
1641195557928980992,2022-01-03-07:39:17,10.1.1.3,191,-0.420,-0.420,-0.420,0.000,0.000,0.000
1641195558135209984,2022-01-03-07:39:18,10.1.1.3,196,-0.410,-0.410,-0.410,0.000,0.000,0.000
1641195558327318784,2022-01-03-07:39:18,10.1.1.3,187,-0.400,-0.400,-0.400,0.000,0.000,0.000
1641195558527782912,2022-01-03-07:39:18,10.1.1.3,187,-0.390,-0.390,-0.390,0.000,0.000,0.000
1641195558726664960,2022-01-03-07:39:18,10.1.1.3,181,-0.380,-0.380,-0.380,0.000,0.000,0.000
1641195558930572032,2022-01-03-07:39:18,10.1.1.3,184,-0.370,-0.370,-0.370,0.000,0.000,0.000
1641195559127176960,2022-01-03-07:39:19,10.1.1.3,173,-0.360,-0.360,-0.360,0.000,0.000,0.000
1641195559345292032,2022-01-03-07:39:19,10.1.1.3,190,-0.350,-0.350,-0.350,0.000,0.000,0.000
1641195559549859072,2022-01-03-07:39:19,10.1.1.3,193,-0.340,-0.340,-0.340,0.000,0.000,0.000
1641195559747108864,2022-01-03-07:39:19,10.1.1.3,190,-0.330,-0.330,-0.330,0.000,0.000,0.000
1641195559951888128,2022-01-03-07:39:19,10.1.1.3,194,-0.320,-0.320,-0.320,0.000,0.000,0.000
1641195560144318976,2022-01-03-07:39:20,10.1.1.3,185,-0.310,-0.310,-0.310,0.000,0.000,0.000
1641195560350370048,2022-01-03-07:39:20,10.1.1.3,190,-0.300,-0.300,-0.300,0.000,0.000,0.000
1641195560544201984,2022-01-03-07:39:20,10.1.1.3,184,-0.290,-0.290,-0.290,0.000,0.000,0.000
1641195560746083072,2022-01-03-07:39:20,10.1.1.3,185,-0.280,-0.280,-0.280,0.000,0.000,0.000
1641195560947869184,2022-01-03-07:39:20,10.1.1.3,186,-0.270,-0.270,-0.270,0.000,0.000,0.000
1641195561148626176,2022-01-03-07:39:21,10.1.1.3,185,-0.260,-0.260,-0.260,0.000,0.000,0.000
1641195561342969856,2022-01-03-07:39:21,10.1.1.3,179,-0.250,-0.250,-0.250,0.000,0.000,0.000
1641195561548065024,2022-01-03-07:39:21,10.1.1.3,178,-0.240,-0.240,-0.240,0.000,0.000,0.000
1641195561743041024,2022-01-03-07:39:21,10.1.1.3,171,-0.230,-0.230,-0.230,0.000,0.000,0.000
1641195561942776064,2022-01-03-07:39:21,10.1.1.3,169,-0.220,-0.220,-0.220,0.000,0.000,0.000
1641195562167112960,2022-01-03-07:39:22,10.1.1.3,192,-0.210,-0.210,-0.210,0.000,0.000,0.000
1641195562362159872,2022-01-03-07:39:22,10.1.1.3,187,-0.200,-0.200,-0.200,0.000,0.000,0.000
1641195562565083136,2022-01-03-07:39:22,10.1.1.3,188,-0.190,-0.190,-0.190,0.000,0.000,0.000
1641195562761372160,2022-01-03-07:39:22,10.1.1.3,184,-0.180,-0.180,-0.180,0.000,0.000,0.000
1641195562961484800,2022-01-03-07:39:22,10.1.1.3,182,-0.170,-0.170,-0.170,0.000,0.000,0.000
1641195563167433984,2022-01-03-07:39:23,10.1.1.3,188,-0.160,-0.160,-0.160,0.000,0.000,0.000
1641195563360006144,2022-01-03-07:39:23,10.1.1.3,174,-0.150,-0.150,-0.150,0.000,0.000,0.000
1641195563560614144,2022-01-03-07:39:23,10.1.1.3,173,-0.140,-0.140,-0.140,0.000,0.000,0.000
1641195563760852992,2022-01-03-07:39:23,10.1.1.3,172,-0.130,-0.130,-0.130,0.000,0.000,0.000
1641195563960998144,2022-01-03-07:39:23,10.1.1.3,170,-0.120,-0.120,-0.120,0.000,0.000,0.000
1641195564161633024,2022-01-03-07:39:24,10.1.1.3,169,-0.110,-0.110,-0.110,0.000,0.000,0.000
1641195564358354944,2022-01-03-07:39:24,10.1.1.3,166,-0.100,-0.100,-0.100,0.000,0.000,0.000
1641195564560916992,2022-01-03-07:39:24,10.1.1.3,167,-0.090,-0.090,-0.090,0.000,0.000,0.000
1641195564781641984,2022-01-03-07:39:24,10.1.1.3,184,-0.080,-0.080,-0.080,0.000,0.000,0.000
1641195564978394112,2022-01-03-07:39:24,10.1.1.3,182,-0.070,-0.070,-0.070,0.000,0.000,0.000
1641195565184792064,2022-01-03-07:39:25,10.1.1.3,187,-0.060,-0.060,-0.060,0.000,0.000,0.000
1641195565381805824,2022-01-03-07:39:25,10.1.1.3,180,-0.050,-0.050,-0.050,0.000,0.000,0.000
1641195565597709824,2022-01-03-07:39:25,10.1.1.3,191,-0.040,-0.040,-0.040,0.000,0.000,0.000
1641195565785701888,2022-01-03-07:39:25,10.1.1.3,177,-0.030,-0.030,-0.030,0.000,0.000,0.000
1641195565976259072,2022-01-03-07:39:25,10.1.1.3,167,-0.020,-0.020,-0.020,0.000,0.000,0.000
1641195566182288896,2022-01-03-07:39:26,10.1.1.3,172,-0.010,-0.010,-0.010,0.000,0.000,0.000
1641195566376523008,2022-01-03-07:39:26,10.1.1.3,165,0.000,0.000,0.000,0.000,0.000,0.000
1641195566575006976,2022-01-03-07:39:26,10.1.1.3,163,-0.010,-0.010,-0.010,0.000,0.000,0.000
1641195566776773888,2022-01-03-07:39:26,10.1.1.3,164,-0.020,-0.020,-0.020,0.000,0.000,0.000
1641195566975981824,2022-01-03-07:39:26,10.1.1.3,162,-0.030,-0.030,-0.030,0.000,0.000,0.000
1641195567199867904,2022-01-03-07:39:27,10.1.1.3,181,-0.040,-0.040,-0.040,0.000,0.000,0.000
1641195567397895936,2022-01-03-07:39:27,10.1.1.3,181,-0.050,-0.050,-0.050,0.000,0.000,0.000
1641195567594180096,2022-01-03-07:39:27,10.1.1.3,171,-0.060,-0.060,-0.060,0.000,0.000,0.000
1641195567798702080,2022-01-03-07:39:27,10.1.1.3,174,-0.070,-0.070,-0.070,0.000,0.000,0.000
1641195567997262080,2022-01-03-07:39:27,10.1.1.3,168,-0.080,-0.080,-0.080,0.000,0.000,0.000
1641195568193778944,2022-01-03-07:39:28,10.1.1.3,167,-0.090,-0.090,-0.090,0.000,0.000,0.000
1641195568393381120,2022-01-03-07:39:28,10.1.1.3,166,-0.100,-0.100,-0.100,0.000,0.000,0.000
1641195568592293888,2022-01-03-07:39:28,10.1.1.3,164,-0.110,-0.110,-0.110,0.000,0.000,0.000
1641195568792190976,2022-01-03-07:39:28,10.1.1.3,162,-0.120,-0.120,-0.120,0.000,0.000,0.000
1641195568994381824,2022-01-03-07:39:28,10.1.1.3,161,-0.130,-0.130,-0.130,0.000,0.000,0.000
1641195569191340032,2022-01-03-07:39:29,10.1.1.3,159,-0.140,-0.140,-0.140,0.000,0.000,0.000
1641195569413743872,2022-01-03-07:39:29,10.1.1.3,176,-0.150,-0.150,-0.150,0.000,0.000,0.000
1641195569614868992,2022-01-03-07:39:29,10.1.1.3,176,-0.160,-0.160,-0.160,0.000,0.000,0.000
1641195569811041024,2022-01-03-07:39:29,10.1.1.3,170,-0.170,-0.170,-0.170,0.000,0.000,0.000
