FedericoMungari/DigitalTwin_service/01_WiredScenario/Output/Output_script/script_rosapi_2_output_robots10_freq0_8.txt
timestamp,date,node,latency,joint_1,joint_2,joint_3,joint_4,joint_5,joint_6
1641220953993063936,2022-01-03-14:42:33,10.1.1.9,181,-0.010,-0.010,-0.010,0.000,0.000,0.000
1641220954194072064,2022-01-03-14:42:34,10.1.1.9,181,-0.020,-0.020,-0.020,0.000,0.000,0.000
1641220954394345984,2022-01-03-14:42:34,10.1.1.9,181,-0.030,-0.030,-0.030,0.000,0.000,0.000
1641220954593300224,2022-01-03-14:42:34,10.1.1.9,180,-0.040,-0.040,-0.040,0.000,0.000,0.000
1641220954793421056,2022-01-03-14:42:34,10.1.1.9,179,-0.050,-0.050,-0.050,0.000,0.000,0.000
1641220954992834048,2022-01-03-14:42:34,10.1.1.9,178,-0.060,-0.060,-0.060,0.000,0.000,0.000
1641220955192204032,2022-01-03-14:42:35,10.1.1.9,177,-0.070,-0.070,-0.070,0.000,0.000,0.000
1641220955391467008,2022-01-03-14:42:35,10.1.1.9,176,-0.080,-0.080,-0.080,0.000,0.000,0.000
1641220955591887872,2022-01-03-14:42:35,10.1.1.9,176,-0.090,-0.090,-0.090,0.000,0.000,0.000
1641220955792018944,2022-01-03-14:42:35,10.1.1.9,173,-0.100,-0.100,-0.100,0.000,0.000,0.000
1641220955992243968,2022-01-03-14:42:35,10.1.1.9,174,-0.110,-0.110,-0.110,0.000,0.000,0.000
1641220956189907968,2022-01-03-14:42:36,10.1.1.9,171,-0.120,-0.120,-0.120,0.000,0.000,0.000
1641220956390819072,2022-01-03-14:42:36,10.1.1.9,170,-0.130,-0.130,-0.130,0.000,0.000,0.000
1641220956590359808,2022-01-03-14:42:36,10.1.1.9,168,-0.140,-0.140,-0.140,0.000,0.000,0.000
1641220956789990912,2022-01-03-14:42:36,10.1.1.9,168,-0.150,-0.150,-0.150,0.000,0.000,0.000
1641220956989582080,2022-01-03-14:42:36,10.1.1.9,167,-0.160,-0.160,-0.160,0.000,0.000,0.000
1641220957188865024,2022-01-03-14:42:37,10.1.1.9,165,-0.170,-0.170,-0.170,0.000,0.000,0.000
1641220957389140992,2022-01-03-14:42:37,10.1.1.9,166,-0.180,-0.180,-0.180,0.000,0.000,0.000
1641220957587841024,2022-01-03-14:42:37,10.1.1.9,164,-0.190,-0.190,-0.190,0.000,0.000,0.000
1641220957787533056,2022-01-03-14:42:37,10.1.1.9,163,-0.200,-0.200,-0.200,0.000,0.000,0.000
1641220957987400960,2022-01-03-14:42:37,10.1.1.9,163,-0.210,-0.210,-0.210,0.000,0.000,0.000
1641220958186925056,2022-01-03-14:42:38,10.1.1.9,162,-0.220,-0.220,-0.220,0.000,0.000,0.000
1641220958386693888,2022-01-03-14:42:38,10.1.1.9,161,-0.230,-0.230,-0.230,0.000,0.000,0.000
1641220958586339840,2022-01-03-14:42:38,10.1.1.9,160,-0.240,-0.240,-0.240,0.000,0.000,0.000
1641220958805984000,2022-01-03-14:42:38,10.1.1.9,179,-0.250,-0.250,-0.250,0.000,0.000,0.000
1641220959005486848,2022-01-03-14:42:39,10.1.1.9,178,-0.260,-0.260,-0.260,0.000,0.000,0.000
1641220959205701120,2022-01-03-14:42:39,10.1.1.9,178,-0.270,-0.270,-0.270,0.000,0.000,0.000
1641220959406342144,2022-01-03-14:42:39,10.1.1.9,178,-0.280,-0.280,-0.280,0.000,0.000,0.000
1641220959603982848,2022-01-03-14:42:39,10.1.1.9,175,-0.290,-0.290,-0.290,0.000,0.000,0.000
1641220959804760064,2022-01-03-14:42:39,10.1.1.9,175,-0.300,-0.300,-0.300,0.000,0.000,0.000
1641220960004998912,2022-01-03-14:42:40,10.1.1.9,174,-0.310,-0.310,-0.310,0.000,0.000,0.000
1641220960204086016,2022-01-03-14:42:40,10.1.1.9,172,-0.320,-0.320,-0.320,0.000,0.000,0.000
1641220960403472896,2022-01-03-14:42:40,10.1.1.9,171,-0.330,-0.330,-0.330,0.000,0.000,0.000
1641220960603149824,2022-01-03-14:42:40,10.1.1.9,170,-0.340,-0.340,-0.340,0.000,0.000,0.000
1641220960802433024,2022-01-03-14:42:40,10.1.1.9,169,-0.350,-0.350,-0.350,0.000,0.000,0.000
1641220961002439936,2022-01-03-14:42:41,10.1.1.9,168,-0.360,-0.360,-0.360,0.000,0.000,0.000
1641220961204058880,2022-01-03-14:42:41,10.1.1.9,168,-0.370,-0.370,-0.370,0.000,0.000,0.000
1641220961405703168,2022-01-03-14:42:41,10.1.1.9,169,-0.380,-0.380,-0.380,0.000,0.000,0.000
1641220961605299968,2022-01-03-14:42:41,10.1.1.9,164,-0.390,-0.390,-0.390,0.000,0.000,0.000
1641220961808086016,2022-01-03-14:42:41,10.1.1.9,166,-0.400,-0.400,-0.400,0.000,0.000,0.000
1641220962008517888,2022-01-03-14:42:42,10.1.1.9,165,-0.410,-0.410,-0.410,0.000,0.000,0.000
1641220962236104960,2022-01-03-14:42:42,10.1.1.9,191,-0.420,-0.420,-0.420,0.000,0.000,0.000
1641220962430234880,2022-01-03-14:42:42,10.1.1.9,181,-0.430,-0.430,-0.430,0.000,0.000,0.000
1641220962631674880,2022-01-03-14:42:42,10.1.1.9,181,-0.440,-0.440,-0.440,0.000,0.000,0.000
1641220962831373824,2022-01-03-14:42:42,10.1.1.9,180,-0.450,-0.450,-0.450,0.000,0.000,0.000
1641220963034284032,2022-01-03-14:42:43,10.1.1.9,182,-0.460,-0.460,-0.460,0.000,0.000,0.000
1641220963433852928,2022-01-03-14:42:43,10.1.1.9,180,-0.480,-0.480,-0.480,0.000,0.000,0.000
1641220963634806016,2022-01-03-14:42:43,10.1.1.9,180,-0.490,-0.490,-0.490,0.000,0.000,0.000
1641220963835820800,2022-01-03-14:42:43,10.1.1.9,180,-0.480,-0.480,-0.480,0.000,0.000,0.000
1641220964036574976,2022-01-03-14:42:44,10.1.1.9,180,-0.470,-0.470,-0.470,0.000,0.000,0.000
1641220964235954944,2022-01-03-14:42:44,10.1.1.9,179,-0.460,-0.460,-0.460,0.000,0.000,0.000
1641220964437022976,2022-01-03-14:42:44,10.1.1.9,179,-0.450,-0.450,-0.450,0.000,0.000,0.000
1641220964637088000,2022-01-03-14:42:44,10.1.1.9,179,-0.440,-0.440,-0.440,0.000,0.000,0.000
1641220964852680960,2022-01-03-14:42:44,10.1.1.9,194,-0.430,-0.430,-0.430,0.000,0.000,0.000
1641220965038251008,2022-01-03-14:42:45,10.1.1.9,179,-0.420,-0.420,-0.420,0.000,0.000,0.000
1641220965240677120,2022-01-03-14:42:45,10.1.1.9,181,-0.410,-0.410,-0.410,0.000,0.000,0.000
1641220965439415808,2022-01-03-14:42:45,10.1.1.9,179,-0.400,-0.400,-0.400,0.000,0.000,0.000
1641220965640201984,2022-01-03-14:42:45,10.1.1.9,179,-0.390,-0.390,-0.390,0.000,0.000,0.000
1641220965840357120,2022-01-03-14:42:45,10.1.1.9,179,-0.380,-0.380,-0.380,0.000,0.000,0.000
1641220966041227008,2022-01-03-14:42:46,10.1.1.9,179,-0.370,-0.370,-0.370,0.000,0.000,0.000
1641220966242710016,2022-01-03-14:42:46,10.1.1.9,179,-0.360,-0.360,-0.360,0.000,0.000,0.000
1641220966442042112,2022-01-03-14:42:46,10.1.1.9,178,-0.350,-0.350,-0.350,0.000,0.000,0.000
1641220966641980928,2022-01-03-14:42:46,10.1.1.9,177,-0.340,-0.340,-0.340,0.000,0.000,0.000
1641220966842597120,2022-01-03-14:42:46,10.1.1.9,177,-0.330,-0.330,-0.330,0.000,0.000,0.000
1641220967042257920,2022-01-03-14:42:47,10.1.1.9,176,-0.320,-0.320,-0.320,0.000,0.000,0.000
1641220967243266048,2022-01-03-14:42:47,10.1.1.9,177,-0.310,-0.310,-0.310,0.000,0.000,0.000
1641220967443083008,2022-01-03-14:42:47,10.1.1.9,176,-0.300,-0.300,-0.300,0.000,0.000,0.000
1641220967664496896,2022-01-03-14:42:47,10.1.1.9,196,-0.290,-0.290,-0.290,0.000,0.000,0.000
1641220967864808960,2022-01-03-14:42:47,10.1.1.9,195,-0.280,-0.280,-0.280,0.000,0.000,0.000
1641220968064910848,2022-01-03-14:42:48,10.1.1.9,194,-0.270,-0.270,-0.270,0.000,0.000,0.000
1641220968265542912,2022-01-03-14:42:48,10.1.1.9,194,-0.260,-0.260,-0.260,0.000,0.000,0.000
1641220968464889088,2022-01-03-14:42:48,10.1.1.9,193,-0.250,-0.250,-0.250,0.000,0.000,0.000
1641220968666980864,2022-01-03-14:42:48,10.1.1.9,193,-0.240,-0.240,-0.240,0.000,0.000,0.000
1641220968867831040,2022-01-03-14:42:48,10.1.1.9,193,-0.230,-0.230,-0.230,0.000,0.000,0.000
1641220969067728896,2022-01-03-14:42:49,10.1.1.9,192,-0.220,-0.220,-0.220,0.000,0.000,0.000
1641220969268928000,2022-01-03-14:42:49,10.1.1.9,192,-0.210,-0.210,-0.210,0.000,0.000,0.000
1641220969465411072,2022-01-03-14:42:49,10.1.1.9,188,-0.200,-0.200,-0.200,0.000,0.000,0.000
1641220969666678016,2022-01-03-14:42:49,10.1.1.9,189,-0.190,-0.190,-0.190,0.000,0.000,0.000
1641220969867415040,2022-01-03-14:42:49,10.1.1.9,189,-0.180,-0.180,-0.180,0.000,0.000,0.000
1641220970066382848,2022-01-03-14:42:50,10.1.1.9,186,-0.170,-0.170,-0.170,0.000,0.000,0.000
1641220970287517952,2022-01-03-14:42:50,10.1.1.9,199,-0.160,-0.160,-0.160,0.000,0.000,0.000
1641220970487137024,2022-01-03-14:42:50,10.1.1.9,197,-0.150,-0.150,-0.150,0.000,0.000,0.000
1641220970687828992,2022-01-03-14:42:50,10.1.1.9,197,-0.140,-0.140,-0.140,0.000,0.000,0.000
1641220970888798976,2022-01-03-14:42:50,10.1.1.9,198,-0.130,-0.130,-0.130,0.000,0.000,0.000
1641220971087214848,2022-01-03-14:42:51,10.1.1.9,194,-0.120,-0.120,-0.120,0.000,0.000,0.000
1641220971288954880,2022-01-03-14:42:51,10.1.1.9,195,-0.110,-0.110,-0.110,0.000,0.000,0.000
1641220971488611840,2022-01-03-14:42:51,10.1.1.9,190,-0.100,-0.100,-0.100,0.000,0.000,0.000
1641220971686994176,2022-01-03-14:42:51,10.1.1.9,186,-0.090,-0.090,-0.090,0.000,0.000,0.000
1641220971887098112,2022-01-03-14:42:51,10.1.1.9,185,-0.080,-0.080,-0.080,0.000,0.000,0.000
1641220972100657920,2022-01-03-14:42:52,10.1.1.9,198,-0.070,-0.070,-0.070,0.000,0.000,0.000
1641220972290093824,2022-01-03-14:42:52,10.1.1.9,186,-0.060,-0.060,-0.060,0.000,0.000,0.000
1641220972488989952,2022-01-03-14:42:52,10.1.1.9,184,-0.050,-0.050,-0.050,0.000,0.000,0.000
1641220972687814912,2022-01-03-14:42:52,10.1.1.9,182,-0.040,-0.040,-0.040,0.000,0.000,0.000
1641220972890251008,2022-01-03-14:42:52,10.1.1.9,183,-0.030,-0.030,-0.030,0.000,0.000,0.000
1641220973106756096,2022-01-03-14:42:53,10.1.1.9,199,-0.020,-0.020,-0.020,0.000,0.000,0.000
1641220973307624960,2022-01-03-14:42:53,10.1.1.9,199,-0.010,-0.010,-0.010,0.000,0.000,0.000
1641220973508225024,2022-01-03-14:42:53,10.1.1.9,199,0.000,0.000,0.000,0.000,0.000,0.000
1641220973707104000,2022-01-03-14:42:53,10.1.1.9,197,-0.010,-0.010,-0.010,0.000,0.000,0.000
1641220973906812928,2022-01-03-14:42:53,10.1.1.9,196,-0.020,-0.020,-0.020,0.000,0.000,0.000
1641220974111550208,2022-01-03-14:42:54,10.1.1.9,200,-0.030,-0.030,-0.030,0.000,0.000,0.000
1641220974305968128,2022-01-03-14:42:54,10.1.1.9,194,-0.040,-0.040,-0.040,0.000,0.000,0.000
1641220974506327040,2022-01-03-14:42:54,10.1.1.9,194,-0.050,-0.050,-0.050,0.000,0.000,0.000
1641220974706255872,2022-01-03-14:42:54,10.1.1.9,193,-0.060,-0.060,-0.060,0.000,0.000,0.000
1641220974906085120,2022-01-03-14:42:54,10.1.1.9,192,-0.070,-0.070,-0.070,0.000,0.000,0.000
1641220975107686144,2022-01-03-14:42:55,10.1.1.9,190,-0.080,-0.080,-0.080,0.000,0.000,0.000
1641220975306603008,2022-01-03-14:42:55,10.1.1.9,190,-0.090,-0.090,-0.090,0.000,0.000,0.000
1641220975505516032,2022-01-03-14:42:55,10.1.1.9,187,-0.100,-0.100,-0.100,0.000,0.000,0.000
1641220975706539008,2022-01-03-14:42:55,10.1.1.9,187,-0.110,-0.110,-0.110,0.000,0.000,0.000
1641220975905425920,2022-01-03-14:42:55,10.1.1.9,185,-0.120,-0.120,-0.120,0.000,0.000,0.000
1641220976105335040,2022-01-03-14:42:56,10.1.1.9,184,-0.130,-0.130,-0.130,0.000,0.000,0.000
1641220976305630976,2022-01-03-14:42:56,10.1.1.9,183,-0.140,-0.140,-0.140,0.000,0.000,0.000
1641220976505249024,2022-01-03-14:42:56,10.1.1.9,180,-0.150,-0.150,-0.150,0.000,0.000,0.000
1641220976705324800,2022-01-03-14:42:56,10.1.1.9,179,-0.160,-0.160,-0.160,0.000,0.000,0.000
1641220976904407040,2022-01-03-14:42:56,10.1.1.9,178,-0.170,-0.170,-0.170,0.000,0.000,0.000
1641220977104928000,2022-01-03-14:42:57,10.1.1.9,178,-0.180,-0.180,-0.180,0.000,0.000,0.000
1641220977324702976,2022-01-03-14:42:57,10.1.1.9,197,-0.190,-0.190,-0.190,0.000,0.000,0.000
1641220977524070912,2022-01-03-14:42:57,10.1.1.9,196,-0.200,-0.200,-0.200,0.000,0.000,0.000
1641220977724028160,2022-01-03-14:42:57,10.1.1.9,195,-0.210,-0.210,-0.210,0.000,0.000,0.000
1641220977924652032,2022-01-03-14:42:57,10.1.1.9,195,-0.220,-0.220,-0.220,0.000,0.000,0.000
1641220978125444864,2022-01-03-14:42:58,10.1.1.9,195,-0.230,-0.230,-0.230,0.000,0.000,0.000
1641220978325356032,2022-01-03-14:42:58,10.1.1.9,193,-0.240,-0.240,-0.240,0.000,0.000,0.000
1641220978522856960,2022-01-03-14:42:58,10.1.1.9,191,-0.250,-0.250,-0.250,0.000,0.000,0.000
1641220978726252032,2022-01-03-14:42:58,10.1.1.9,188,-0.260,-0.260,-0.260,0.000,0.000,0.000
1641220978922352128,2022-01-03-14:42:58,10.1.1.9,184,-0.270,-0.270,-0.270,0.000,0.000,0.000
1641220979122051072,2022-01-03-14:42:59,10.1.1.9,182,-0.280,-0.280,-0.280,0.000,0.000,0.000
1641220979321479936,2022-01-03-14:42:59,10.1.1.9,181,-0.290,-0.290,-0.290,0.000,0.000,0.000
1641220979522008832,2022-01-03-14:42:59,10.1.1.9,179,-0.300,-0.300,-0.300,0.000,0.000,0.000
1641220979722550016,2022-01-03-14:42:59,10.1.1.9,179,-0.310,-0.310,-0.310,0.000,0.000,0.000
1641220979920847872,2022-01-03-14:42:59,10.1.1.9,177,-0.320,-0.320,-0.320,0.000,0.000,0.000
1641220980121038848,2022-01-03-14:43:00,10.1.1.9,176,-0.330,-0.330,-0.330,0.000,0.000,0.000
1641220980324726016,2022-01-03-14:43:00,10.1.1.9,179,-0.340,-0.340,-0.340,0.000,0.000,0.000
1641220980522598912,2022-01-03-14:43:00,10.1.1.9,176,-0.350,-0.350,-0.350,0.000,0.000,0.000
1641220980720722944,2022-01-03-14:43:00,10.1.1.9,174,-0.360,-0.360,-0.360,0.000,0.000,0.000
1641220980940706048,2022-01-03-14:43:00,10.1.1.9,192,-0.370,-0.370,-0.370,0.000,0.000,0.000
1641220981139652864,2022-01-03-14:43:01,10.1.1.9,190,-0.380,-0.380,-0.380,0.000,0.000,0.000
1641220981341038848,2022-01-03-14:43:01,10.1.1.9,191,-0.390,-0.390,-0.390,0.000,0.000,0.000
1641220981541980928,2022-01-03-14:43:01,10.1.1.9,190,-0.400,-0.400,-0.400,0.000,0.000,0.000
1641220981739003904,2022-01-03-14:43:01,10.1.1.9,186,-0.410,-0.410,-0.410,0.000,0.000,0.000
1641220981939073024,2022-01-03-14:43:01,10.1.1.9,183,-0.420,-0.420,-0.420,0.000,0.000,0.000
1641220982138395136,2022-01-03-14:43:02,10.1.1.9,182,-0.430,-0.430,-0.430,0.000,0.000,0.000
1641220982338932992,2022-01-03-14:43:02,10.1.1.9,182,-0.440,-0.440,-0.440,0.000,0.000,0.000
1641220982538425856,2022-01-03-14:43:02,10.1.1.9,180,-0.450,-0.450,-0.450,0.000,0.000,0.000
1641220982737731840,2022-01-03-14:43:02,10.1.1.9,179,-0.460,-0.460,-0.460,0.000,0.000,0.000
1641220982937979904,2022-01-03-14:43:02,10.1.1.9,179,-0.470,-0.470,-0.470,0.000,0.000,0.000
1641220983137690112,2022-01-03-14:43:03,10.1.1.9,178,-0.480,-0.480,-0.480,0.000,0.000,0.000
1641220983341281024,2022-01-03-14:43:03,10.1.1.9,181,-0.490,-0.490,-0.490,0.000,0.000,0.000
1641220983537694976,2022-01-03-14:43:03,10.1.1.9,177,-0.480,-0.480,-0.480,0.000,0.000,0.000
1641220983737200896,2022-01-03-14:43:03,10.1.1.9,176,-0.470,-0.470,-0.470,0.000,0.000,0.000
1641220983937905920,2022-01-03-14:43:03,10.1.1.9,175,-0.460,-0.460,-0.460,0.000,0.000,0.000
1641220984137691904,2022-01-03-14:43:04,10.1.1.9,175,-0.450,-0.450,-0.450,0.000,0.000,0.000
1641220984336523008,2022-01-03-14:43:04,10.1.1.9,173,-0.440,-0.440,-0.440,0.000,0.000,0.000
1641220984536084992,2022-01-03-14:43:04,10.1.1.9,172,-0.430,-0.430,-0.430,0.000,0.000,0.000
1641220984736119040,2022-01-03-14:43:04,10.1.1.9,171,-0.420,-0.420,-0.420,0.000,0.000,0.000
1641220984936105984,2022-01-03-14:43:04,10.1.1.9,171,-0.410,-0.410,-0.410,0.000,0.000,0.000
1641220985154500096,2022-01-03-14:43:05,10.1.1.9,184,-0.400,-0.400,-0.400,0.000,0.000,0.000
1641220985354765824,2022-01-03-14:43:05,10.1.1.9,185,-0.390,-0.390,-0.390,0.000,0.000,0.000
1641220985554028032,2022-01-03-14:43:05,10.1.1.9,184,-0.380,-0.380,-0.380,0.000,0.000,0.000
1641220985753638912,2022-01-03-14:43:05,10.1.1.9,183,-0.370,-0.370,-0.370,0.000,0.000,0.000
1641220985954921984,2022-01-03-14:43:05,10.1.1.9,184,-0.360,-0.360,-0.360,0.000,0.000,0.000
1641220986153536000,2022-01-03-14:43:06,10.1.1.9,182,-0.350,-0.350,-0.350,0.000,0.000,0.000
1641220986354007040,2022-01-03-14:43:06,10.1.1.9,181,-0.340,-0.340,-0.340,0.000,0.000,0.000
1641220986556150016,2022-01-03-14:43:06,10.1.1.9,182,-0.330,-0.330,-0.330,0.000,0.000,0.000
1641220986752593152,2022-01-03-14:43:06,10.1.1.9,175,-0.320,-0.320,-0.320,0.000,0.000,0.000
1641220986953387008,2022-01-03-14:43:06,10.1.1.9,176,-0.310,-0.310,-0.310,0.000,0.000,0.000
1641220987152681984,2022-01-03-14:43:07,10.1.1.9,175,-0.300,-0.300,-0.300,0.000,0.000,0.000
1641220987372638976,2022-01-03-14:43:07,10.1.1.9,194,-0.290,-0.290,-0.290,0.000,0.000,0.000
1641220987552823040,2022-01-03-14:43:07,10.1.1.9,174,-0.280,-0.280,-0.280,0.000,0.000,0.000
1641220987752037888,2022-01-03-14:43:07,10.1.1.9,171,-0.270,-0.270,-0.270,0.000,0.000,0.000
1641220987950905088,2022-01-03-14:43:07,10.1.1.9,170,-0.260,-0.260,-0.260,0.000,0.000,0.000
1641220988151141888,2022-01-03-14:43:08,10.1.1.9,169,-0.250,-0.250,-0.250,0.000,0.000,0.000
1641220988350353920,2022-01-03-14:43:08,10.1.1.9,167,-0.240,-0.240,-0.240,0.000,0.000,0.000
1641220988550558976,2022-01-03-14:43:08,10.1.1.9,165,-0.230,-0.230,-0.230,0.000,0.000,0.000
1641220988750150912,2022-01-03-14:43:08,10.1.1.9,165,-0.220,-0.220,-0.220,0.000,0.000,0.000
1641220988953260032,2022-01-03-14:43:08,10.1.1.9,167,-0.210,-0.210,-0.210,0.000,0.000,0.000
1641220989149569024,2022-01-03-14:43:09,10.1.1.9,163,-0.200,-0.200,-0.200,0.000,0.000,0.000
1641220989369105152,2022-01-03-14:43:09,10.1.1.9,181,-0.190,-0.190,-0.190,0.000,0.000,0.000
1641220989568955904,2022-01-03-14:43:09,10.1.1.9,180,-0.180,-0.180,-0.180,0.000,0.000,0.000
1641220989769920000,2022-01-03-14:43:09,10.1.1.9,180,-0.170,-0.170,-0.170,0.000,0.000,0.000
1641220989968609024,2022-01-03-14:43:09,10.1.1.9,178,-0.160,-0.160,-0.160,0.000,0.000,0.000
1641220990168201984,2022-01-03-14:43:10,10.1.1.9,176,-0.150,-0.150,-0.150,0.000,0.000,0.000
1641220990367703040,2022-01-03-14:43:10,10.1.1.9,175,-0.140,-0.140,-0.140,0.000,0.000,0.000
1641220990568893952,2022-01-03-14:43:10,10.1.1.9,176,-0.130,-0.130,-0.130,0.000,0.000,0.000
1641220990769885184,2022-01-03-14:43:10,10.1.1.9,176,-0.120,-0.120,-0.120,0.000,0.000,0.000
1641220990965998848,2022-01-03-14:43:10,10.1.1.9,170,-0.110,-0.110,-0.110,0.000,0.000,0.000
1641220991165947904,2022-01-03-14:43:11,10.1.1.9,160,-0.100,-0.100,-0.100,0.000,0.000,0.000
1641220991386360832,2022-01-03-14:43:11,10.1.1.9,178,-0.090,-0.090,-0.090,0.000,0.000,0.000
1641220991589245952,2022-01-03-14:43:11,10.1.1.9,180,-0.080,-0.080,-0.080,0.000,0.000,0.000
1641220991784500992,2022-01-03-14:43:11,10.1.1.9,172,-0.070,-0.070,-0.070,0.000,0.000,0.000
1641220991986084096,2022-01-03-14:43:11,10.1.1.9,173,-0.060,-0.060,-0.060,0.000,0.000,0.000
1641220992184263936,2022-01-03-14:43:12,10.1.1.9,171,-0.050,-0.050,-0.050,0.000,0.000,0.000
1641220992384519936,2022-01-03-14:43:12,10.1.1.9,171,-0.040,-0.040,-0.040,0.000,0.000,0.000
1641220992580641024,2022-01-03-14:43:12,10.1.1.9,166,-0.030,-0.030,-0.030,0.000,0.000,0.000
1641220992784514048,2022-01-03-14:43:12,10.1.1.9,169,-0.020,-0.020,-0.020,0.000,0.000,0.000
1641220992984663040,2022-01-03-14:43:12,10.1.1.9,169,-0.010,-0.010,-0.010,0.000,0.000,0.000
1641220993185074944,2022-01-03-14:43:13,10.1.1.9,167,0.000,0.000,0.000,0.000,0.000,0.000
1641220993386027008,2022-01-03-14:43:13,10.1.1.9,166,-0.010,-0.010,-0.010,0.000,0.000,0.000
1641220993587346176,2022-01-03-14:43:13,10.1.1.9,167,-0.020,-0.020,-0.020,0.000,0.000,0.000
1641220993788741120,2022-01-03-14:43:13,10.1.1.9,167,-0.030,-0.030,-0.030,0.000,0.000,0.000
1641220993989111040,2022-01-03-14:43:13,10.1.1.9,167,-0.040,-0.040,-0.040,0.000,0.000,0.000
1641220994189416960,2022-01-03-14:43:14,10.1.1.9,166,-0.050,-0.050,-0.050,0.000,0.000,0.000
1641220994390419968,2022-01-03-14:43:14,10.1.1.9,166,-0.060,-0.060,-0.060,0.000,0.000,0.000
1641220994612375040,2022-01-03-14:43:14,10.1.1.9,188,-0.070,-0.070,-0.070,0.000,0.000,0.000
1641220994791606784,2022-01-03-14:43:14,10.1.1.9,166,-0.080,-0.080,-0.080,0.000,0.000,0.000
1641220994992569088,2022-01-03-14:43:14,10.1.1.9,166,-0.090,-0.090,-0.090,0.000,0.000,0.000
1641220995197340928,2022-01-03-14:43:15,10.1.1.9,171,-0.100,-0.100,-0.100,0.000,0.000,0.000
1641220995414188032,2022-01-03-14:43:15,10.1.1.9,186,-0.110,-0.110,-0.110,0.000,0.000,0.000
1641220995615677184,2022-01-03-14:43:15,10.1.1.9,187,-0.120,-0.120,-0.120,0.000,0.000,0.000
1641220995815348992,2022-01-03-14:43:15,10.1.1.9,187,-0.130,-0.130,-0.130,0.000,0.000,0.000
1641220996022480896,2022-01-03-14:43:16,10.1.1.9,193,-0.140,-0.140,-0.140,0.000,0.000,0.000
1641220996218178048,2022-01-03-14:43:16,10.1.1.9,185,-0.150,-0.150,-0.150,0.000,0.000,0.000
1641220996417165056,2022-01-03-14:43:16,10.1.1.9,184,-0.160,-0.160,-0.160,0.000,0.000,0.000
1641220996617724928,2022-01-03-14:43:16,10.1.1.9,183,-0.170,-0.170,-0.170,0.000,0.000,0.000
1641220996819369984,2022-01-03-14:43:16,10.1.1.9,184,-0.180,-0.180,-0.180,0.000,0.000,0.000
1641220997020761088,2022-01-03-14:43:17,10.1.1.9,185,-0.190,-0.190,-0.190,0.000,0.000,0.000
1641220997219005952,2022-01-03-14:43:17,10.1.1.9,183,-0.200,-0.200,-0.200,0.000,0.000,0.000
1641220997426035968,2022-01-03-14:43:17,10.1.1.9,187,-0.210,-0.210,-0.210,0.000,0.000,0.000
1641220997620482816,2022-01-03-14:43:17,10.1.1.9,181,-0.220,-0.220,-0.220,0.000,0.000,0.000
1641220997820499968,2022-01-03-14:43:17,10.1.1.9,180,-0.230,-0.230,-0.230,0.000,0.000,0.000
1641220998021524992,2022-01-03-14:43:18,10.1.1.9,180,-0.240,-0.240,-0.240,0.000,0.000,0.000
1641220998221369088,2022-01-03-14:43:18,10.1.1.9,179,-0.250,-0.250,-0.250,0.000,0.000,0.000
1641220998422746880,2022-01-03-14:43:18,10.1.1.9,179,-0.260,-0.260,-0.260,0.000,0.000,0.000
1641220998623131904,2022-01-03-14:43:18,10.1.1.9,179,-0.270,-0.270,-0.270,0.000,0.000,0.000
1641220998823312896,2022-01-03-14:43:18,10.1.1.9,178,-0.280,-0.280,-0.280,0.000,0.000,0.000
1641220999023272960,2022-01-03-14:43:19,10.1.1.9,177,-0.290,-0.290,-0.290,0.000,0.000,0.000
1641220999223628032,2022-01-03-14:43:19,10.1.1.9,177,-0.300,-0.300,-0.300,0.000,0.000,0.000
1641220999424047104,2022-01-03-14:43:19,10.1.1.9,177,-0.310,-0.310,-0.310,0.000,0.000,0.000
1641220999644321024,2022-01-03-14:43:19,10.1.1.9,196,-0.320,-0.320,-0.320,0.000,0.000,0.000
1641220999846273024,2022-01-03-14:43:19,10.1.1.9,196,-0.330,-0.330,-0.330,0.000,0.000,0.000
1641221000039845888,2022-01-03-14:43:20,10.1.1.9,188,-0.340,-0.340,-0.340,0.000,0.000,0.000
1641221000250397952,2022-01-03-14:43:20,10.1.1.9,196,-0.350,-0.350,-0.350,0.000,0.000,0.000
1641221000445793024,2022-01-03-14:43:20,10.1.1.9,190,-0.360,-0.360,-0.360,0.000,0.000,0.000
1641221000646942976,2022-01-03-14:43:20,10.1.1.9,191,-0.370,-0.370,-0.370,0.000,0.000,0.000
1641221000845817088,2022-01-03-14:43:20,10.1.1.9,189,-0.380,-0.380,-0.380,0.000,0.000,0.000
1641221001045957120,2022-01-03-14:43:21,10.1.1.9,188,-0.390,-0.390,-0.390,0.000,0.000,0.000
1641221001246306048,2022-01-03-14:43:21,10.1.1.9,188,-0.400,-0.400,-0.400,0.000,0.000,0.000
1641221001447195904,2022-01-03-14:43:21,10.1.1.9,189,-0.410,-0.410,-0.410,0.000,0.000,0.000
1641221001846752000,2022-01-03-14:43:21,10.1.1.9,186,-0.430,-0.430,-0.430,0.000,0.000,0.000
1641221002046968832,2022-01-03-14:43:22,10.1.1.9,185,-0.440,-0.440,-0.440,0.000,0.000,0.000
1641221002246853120,2022-01-03-14:43:22,10.1.1.9,184,-0.450,-0.450,-0.450,0.000,0.000,0.000
1641221002447675904,2022-01-03-14:43:22,10.1.1.9,184,-0.460,-0.460,-0.460,0.000,0.000,0.000
1641221002647001088,2022-01-03-14:43:22,10.1.1.9,183,-0.470,-0.470,-0.470,0.000,0.000,0.000
1641221002847560960,2022-01-03-14:43:22,10.1.1.9,183,-0.480,-0.480,-0.480,0.000,0.000,0.000
1641221003048062208,2022-01-03-14:43:23,10.1.1.9,183,-0.490,-0.490,-0.490,0.000,0.000,0.000
1641221003247046912,2022-01-03-14:43:23,10.1.1.9,181,-0.480,-0.480,-0.480,0.000,0.000,0.000
1641221003448570880,2022-01-03-14:43:23,10.1.1.9,182,-0.470,-0.470,-0.470,0.000,0.000,0.000
1641221003647442176,2022-01-03-14:43:23,10.1.1.9,180,-0.460,-0.460,-0.460,0.000,0.000,0.000
1641221003868262144,2022-01-03-14:43:23,10.1.1.9,199,-0.450,-0.450,-0.450,0.000,0.000,0.000
1641221004067677952,2022-01-03-14:43:24,10.1.1.9,182,-0.440,-0.440,-0.440,0.000,0.000,0.000
1641221004269399040,2022-01-03-14:43:24,10.1.1.9,183,-0.430,-0.430,-0.430,0.000,0.000,0.000
1641221004487205120,2022-01-03-14:43:24,10.1.1.9,197,-0.420,-0.420,-0.420,0.000,0.000,0.000
1641221004687432960,2022-01-03-14:43:24,10.1.1.9,197,-0.410,-0.410,-0.410,0.000,0.000,0.000
1641221004888453888,2022-01-03-14:43:24,10.1.1.9,197,-0.400,-0.400,-0.400,0.000,0.000,0.000
1641221005087440896,2022-01-03-14:43:25,10.1.1.9,196,-0.390,-0.390,-0.390,0.000,0.000,0.000
1641221005287226880,2022-01-03-14:43:25,10.1.1.9,195,-0.380,-0.380,-0.380,0.000,0.000,0.000
1641221005487266048,2022-01-03-14:43:25,10.1.1.9,193,-0.370,-0.370,-0.370,0.000,0.000,0.000
1641221005688542976,2022-01-03-14:43:25,10.1.1.9,194,-0.360,-0.360,-0.360,0.000,0.000,0.000
1641221005890507008,2022-01-03-14:43:25,10.1.1.9,195,-0.350,-0.350,-0.350,0.000,0.000,0.000
1641221006089561088,2022-01-03-14:43:26,10.1.1.9,193,-0.340,-0.340,-0.340,0.000,0.000,0.000
1641221006287794176,2022-01-03-14:43:26,10.1.1.9,190,-0.330,-0.330,-0.330,0.000,0.000,0.000
1641221006486006016,2022-01-03-14:43:26,10.1.1.9,187,-0.320,-0.320,-0.320,0.000,0.000,0.000
1641221006688216064,2022-01-03-14:43:26,10.1.1.9,188,-0.310,-0.310,-0.310,0.000,0.000,0.000
1641221006886364928,2022-01-03-14:43:26,10.1.1.9,186,-0.300,-0.300,-0.300,0.000,0.000,0.000
1641221007087826944,2022-01-03-14:43:27,10.1.1.9,186,-0.290,-0.290,-0.290,0.000,0.000,0.000
1641221007286319104,2022-01-03-14:43:27,10.1.1.9,184,-0.280,-0.280,-0.280,0.000,0.000,0.000
1641221007488585984,2022-01-03-14:43:27,10.1.1.9,186,-0.270,-0.270,-0.270,0.000,0.000,0.000
1641221007686803200,2022-01-03-14:43:27,10.1.1.9,183,-0.260,-0.260,-0.260,0.000,0.000,0.000
1641221007887132928,2022-01-03-14:43:27,10.1.1.9,183,-0.250,-0.250,-0.250,0.000,0.000,0.000
1641221008086548992,2022-01-03-14:43:28,10.1.1.9,181,-0.240,-0.240,-0.240,0.000,0.000,0.000
1641221008285379840,2022-01-03-14:43:28,10.1.1.9,180,-0.230,-0.230,-0.230,0.000,0.000,0.000
1641221008486097152,2022-01-03-14:43:28,10.1.1.9,180,-0.220,-0.220,-0.220,0.000,0.000,0.000
1641221008685885952,2022-01-03-14:43:28,10.1.1.9,178,-0.210,-0.210,-0.210,0.000,0.000,0.000
1641221008905275136,2022-01-03-14:43:28,10.1.1.9,197,-0.200,-0.200,-0.200,0.000,0.000,0.000
1641221009104727040,2022-01-03-14:43:29,10.1.1.9,196,-0.190,-0.190,-0.190,0.000,0.000,0.000
1641221009305139968,2022-01-03-14:43:29,10.1.1.9,196,-0.180,-0.180,-0.180,0.000,0.000,0.000
1641221009506413056,2022-01-03-14:43:29,10.1.1.9,197,-0.170,-0.170,-0.170,0.000,0.000,0.000
1641221009704692992,2022-01-03-14:43:29,10.1.1.9,194,-0.160,-0.160,-0.160,0.000,0.000,0.000
1641221009904525056,2022-01-03-14:43:29,10.1.1.9,193,-0.150,-0.150,-0.150,0.000,0.000,0.000
1641221010105218048,2022-01-03-14:43:30,10.1.1.9,193,-0.140,-0.140,-0.140,0.000,0.000,0.000
1641221010304986112,2022-01-03-14:43:30,10.1.1.9,191,-0.130,-0.130,-0.130,0.000,0.000,0.000
1641221010504379136,2022-01-03-14:43:30,10.1.1.9,184,-0.120,-0.120,-0.120,0.000,0.000,0.000
1641221010704421120,2022-01-03-14:43:30,10.1.1.9,182,-0.110,-0.110,-0.110,0.000,0.000,0.000
1641221010905762816,2022-01-03-14:43:30,10.1.1.9,182,-0.100,-0.100,-0.100,0.000,0.000,0.000
1641221011105675008,2022-01-03-14:43:31,10.1.1.9,182,-0.090,-0.090,-0.090,0.000,0.000,0.000
1641221011303201792,2022-01-03-14:43:31,10.1.1.9,179,-0.080,-0.080,-0.080,0.000,0.000,0.000
1641221011503941888,2022-01-03-14:43:31,10.1.1.9,179,-0.070,-0.070,-0.070,0.000,0.000,0.000
1641221011702248960,2022-01-03-14:43:31,10.1.1.9,177,-0.060,-0.060,-0.060,0.000,0.000,0.000
1641221011901734144,2022-01-03-14:43:31,10.1.1.9,176,-0.050,-0.050,-0.050,0.000,0.000,0.000
1641221012102684928,2022-01-03-14:43:32,10.1.1.9,176,-0.040,-0.040,-0.040,0.000,0.000,0.000
1641221012301944064,2022-01-03-14:43:32,10.1.1.9,174,-0.030,-0.030,-0.030,0.000,0.000,0.000
1641221012522379008,2022-01-03-14:43:32,10.1.1.9,194,-0.020,-0.020,-0.020,0.000,0.000,0.000
1641221012743983872,2022-01-03-14:43:32,10.1.1.9,188,-0.010,-0.010,-0.010,0.000,0.000,0.000
1641221012942332928,2022-01-03-14:43:32,10.1.1.9,184,0.000,0.000,0.000,0.000,0.000,0.000
1641221013141933056,2022-01-03-14:43:33,10.1.1.9,183,-0.010,-0.010,-0.010,0.000,0.000,0.000
1641221013341644032,2022-01-03-14:43:33,10.1.1.9,181,-0.020,-0.020,-0.020,0.000,0.000,0.000
1641221013540896768,2022-01-03-14:43:33,10.1.1.9,180,-0.030,-0.030,-0.030,0.000,0.000,0.000
1641221013740632064,2022-01-03-14:43:33,10.1.1.9,176,-0.040,-0.040,-0.040,0.000,0.000,0.000
1641221013959610112,2022-01-03-14:43:33,10.1.1.9,174,-0.050,-0.050,-0.050,0.000,0.000,0.000
1641221014159456000,2022-01-03-14:43:34,10.1.1.9,174,-0.060,-0.060,-0.060,0.000,0.000,0.000
1641221014359059968,2022-01-03-14:43:34,10.1.1.9,172,-0.070,-0.070,-0.070,0.000,0.000,0.000
1641221014578944000,2022-01-03-14:43:34,10.1.1.9,191,-0.080,-0.080,-0.080,0.000,0.000,0.000
1641221014778861056,2022-01-03-14:43:34,10.1.1.9,189,-0.090,-0.090,-0.090,0.000,0.000,0.000
1641221014978678016,2022-01-03-14:43:34,10.1.1.9,181,-0.100,-0.100,-0.100,0.000,0.000,0.000
1641221015178193920,2022-01-03-14:43:35,10.1.1.9,180,-0.110,-0.110,-0.110,0.000,0.000,0.000
1641221015379586048,2022-01-03-14:43:35,10.1.1.9,181,-0.120,-0.120,-0.120,0.000,0.000,0.000
1641221015577440000,2022-01-03-14:43:35,10.1.1.9,178,-0.130,-0.130,-0.130,0.000,0.000,0.000
1641221015777123840,2022-01-03-14:43:35,10.1.1.9,177,-0.140,-0.140,-0.140,0.000,0.000,0.000
1641221015979717888,2022-01-03-14:43:35,10.1.1.9,177,-0.150,-0.150,-0.150,0.000,0.000,0.000
1641221016183172864,2022-01-03-14:43:36,10.1.1.9,180,-0.160,-0.160,-0.160,0.000,0.000,0.000
1641221016376889856,2022-01-03-14:43:36,10.1.1.9,172,-0.170,-0.170,-0.170,0.000,0.000,0.000
1641221016577910016,2022-01-03-14:43:36,10.1.1.9,172,-0.180,-0.180,-0.180,0.000,0.000,0.000
1641221016796119040,2022-01-03-14:43:36,10.1.1.9,187,-0.190,-0.190,-0.190,0.000,0.000,0.000
1641221016996071168,2022-01-03-14:43:36,10.1.1.9,186,-0.200,-0.200,-0.200,0.000,0.000,0.000
1641221017196459008,2022-01-03-14:43:37,10.1.1.9,182,-0.210,-0.210,-0.210,0.000,0.000,0.000
1641221017400754944,2022-01-03-14:43:37,10.1.1.9,185,-0.220,-0.220,-0.220,0.000,0.000,0.000
1641221017596024064,2022-01-03-14:43:37,10.1.1.9,174,-0.230,-0.230,-0.230,0.000,0.000,0.000
1641221017796094976,2022-01-03-14:43:37,10.1.1.9,174,-0.240,-0.240,-0.240,0.000,0.000,0.000
1641221017995089920,2022-01-03-14:43:37,10.1.1.9,171,-0.250,-0.250,-0.250,0.000,0.000,0.000
1641221018195879936,2022-01-03-14:43:38,10.1.1.9,172,-0.260,-0.260,-0.260,0.000,0.000,0.000
1641221018393987840,2022-01-03-14:43:38,10.1.1.9,169,-0.270,-0.270,-0.270,0.000,0.000,0.000
1641221018594907136,2022-01-03-14:43:38,10.1.1.9,169,-0.280,-0.280,-0.280,0.000,0.000,0.000
1641221018796215040,2022-01-03-14:43:38,10.1.1.9,167,-0.290,-0.290,-0.290,0.000,0.000,0.000
1641221019019949824,2022-01-03-14:43:39,10.1.1.9,192,-0.300,-0.300,-0.300,0.000,0.000,0.000
1641221019212444160,2022-01-03-14:43:39,10.1.1.9,183,-0.310,-0.310,-0.310,0.000,0.000,0.000
1641221019412560896,2022-01-03-14:43:39,10.1.1.9,182,-0.320,-0.320,-0.320,0.000,0.000,0.000
1641221019612341760,2022-01-03-14:43:39,10.1.1.9,181,-0.330,-0.330,-0.330,0.000,0.000,0.000
1641221019811891968,2022-01-03-14:43:39,10.1.1.9,180,-0.340,-0.340,-0.340,0.000,0.000,0.000
1641221020011721984,2022-01-03-14:43:40,10.1.1.9,179,-0.350,-0.350,-0.350,0.000,0.000,0.000
1641221020211837952,2022-01-03-14:43:40,10.1.1.9,178,-0.360,-0.360,-0.360,0.000,0.000,0.000
1641221020411300864,2022-01-03-14:43:40,10.1.1.9,177,-0.370,-0.370,-0.370,0.000,0.000,0.000
1641221020610116864,2022-01-03-14:43:40,10.1.1.9,175,-0.380,-0.380,-0.380,0.000,0.000,0.000
1641221020810383104,2022-01-03-14:43:40,10.1.1.9,175,-0.390,-0.390,-0.390,0.000,0.000,0.000
1641221021009982208,2022-01-03-14:43:41,10.1.1.9,174,-0.400,-0.400,-0.400,0.000,0.000,0.000
1641221021210764800,2022-01-03-14:43:41,10.1.1.9,174,-0.410,-0.410,-0.410,0.000,0.000,0.000
1641221021409244160,2022-01-03-14:43:41,10.1.1.9,167,-0.420,-0.420,-0.420,0.000,0.000,0.000
1641221021611932928,2022-01-03-14:43:41,10.1.1.9,168,-0.430,-0.430,-0.430,0.000,0.000,0.000
1641221021809206016,2022-01-03-14:43:41,10.1.1.9,165,-0.440,-0.440,-0.440,0.000,0.000,0.000
1641221022008239872,2022-01-03-14:43:42,10.1.1.9,162,-0.450,-0.450,-0.450,0.000,0.000,0.000
1641221022237700096,2022-01-03-14:43:42,10.1.1.9,188,-0.460,-0.460,-0.460,0.000,0.000,0.000
1641221022428508160,2022-01-03-14:43:42,10.1.1.9,178,-0.470,-0.470,-0.470,0.000,0.000,0.000
1641221022627954944,2022-01-03-14:43:42,10.1.1.9,176,-0.480,-0.480,-0.480,0.000,0.000,0.000
1641221022828145152,2022-01-03-14:43:42,10.1.1.9,175,-0.490,-0.490,-0.490,0.000,0.000,0.000
1641221023026140928,2022-01-03-14:43:43,10.1.1.9,172,-0.480,-0.480,-0.480,0.000,0.000,0.000
1641221023226800896,2022-01-03-14:43:43,10.1.1.9,172,-0.470,-0.470,-0.470,0.000,0.000,0.000
1641221023431629056,2022-01-03-14:43:43,10.1.1.9,176,-0.460,-0.460,-0.460,0.000,0.000,0.000
1641221023626482944,2022-01-03-14:43:43,10.1.1.9,170,-0.450,-0.450,-0.450,0.000,0.000,0.000
1641221023825253888,2022-01-03-14:43:43,10.1.1.9,168,-0.440,-0.440,-0.440,0.000,0.000,0.000
1641221024027837952,2022-01-03-14:43:44,10.1.1.9,170,-0.430,-0.430,-0.430,0.000,0.000,0.000
1641221024224893184,2022-01-03-14:43:44,10.1.1.9,165,-0.420,-0.420,-0.420,0.000,0.000,0.000
1641221024426237952,2022-01-03-14:43:44,10.1.1.9,166,-0.410,-0.410,-0.410,0.000,0.000,0.000
1641221024642141952,2022-01-03-14:43:44,10.1.1.9,165,-0.400,-0.400,-0.400,0.000,0.000,0.000
1641221024824413184,2022-01-03-14:43:44,10.1.1.9,163,-0.390,-0.390,-0.390,0.000,0.000,0.000
1641221025044823040,2022-01-03-14:43:45,10.1.1.9,183,-0.380,-0.380,-0.380,0.000,0.000,0.000
1641221025224551936,2022-01-03-14:43:45,10.1.1.9,162,-0.370,-0.370,-0.370,0.000,0.000,0.000
1641221025427633920,2022-01-03-14:43:45,10.1.1.9,164,-0.360,-0.360,-0.360,0.000,0.000,0.000
1641221025630961920,2022-01-03-14:43:45,10.1.1.9,166,-0.350,-0.350,-0.350,0.000,0.000,0.000
1641221025828433920,2022-01-03-14:43:45,10.1.1.9,163,-0.340,-0.340,-0.340,0.000,0.000,0.000
1641221026029897984,2022-01-03-14:43:46,10.1.1.9,164,-0.330,-0.330,-0.330,0.000,0.000,0.000
1641221026250683904,2022-01-03-14:43:46,10.1.1.9,182,-0.320,-0.320,-0.320,0.000,0.000,0.000
1641221026451247872,2022-01-03-14:43:46,10.1.1.9,182,-0.310,-0.310,-0.310,0.000,0.000,0.000
1641221026657809920,2022-01-03-14:43:46,10.1.1.9,188,-0.300,-0.300,-0.300,0.000,0.000,0.000
1641221026852070144,2022-01-03-14:43:46,10.1.1.9,181,-0.290,-0.290,-0.290,0.000,0.000,0.000
1641221027053168896,2022-01-03-14:43:47,10.1.1.9,177,-0.280,-0.280,-0.280,0.000,0.000,0.000
1641221027255367168,2022-01-03-14:43:47,10.1.1.9,178,-0.270,-0.270,-0.270,0.000,0.000,0.000
1641221027454713088,2022-01-03-14:43:47,10.1.1.9,178,-0.260,-0.260,-0.260,0.000,0.000,0.000
1641221027655942912,2022-01-03-14:43:47,10.1.1.9,178,-0.250,-0.250,-0.250,0.000,0.000,0.000
1641221027856424960,2022-01-03-14:43:47,10.1.1.9,178,-0.240,-0.240,-0.240,0.000,0.000,0.000
1641221028056854016,2022-01-03-14:43:48,10.1.1.9,178,-0.230,-0.230,-0.230,0.000,0.000,0.000
1641221028257374976,2022-01-03-14:43:48,10.1.1.9,178,-0.220,-0.220,-0.220,0.000,0.000,0.000
1641221028461998080,2022-01-03-14:43:48,10.1.1.9,182,-0.210,-0.210,-0.210,0.000,0.000,0.000
1641221028660103936,2022-01-03-14:43:48,10.1.1.9,179,-0.200,-0.200,-0.200,0.000,0.000,0.000
1641221028859284992,2022-01-03-14:43:48,10.1.1.9,178,-0.190,-0.190,-0.190,0.000,0.000,0.000
1641221029059428864,2022-01-03-14:43:49,10.1.1.9,177,-0.180,-0.180,-0.180,0.000,0.000,0.000
1641221029260271104,2022-01-03-14:43:49,10.1.1.9,178,-0.170,-0.170,-0.170,0.000,0.000,0.000
1641221029460374016,2022-01-03-14:43:49,10.1.1.9,176,-0.160,-0.160,-0.160,0.000,0.000,0.000
1641221029663325952,2022-01-03-14:43:49,10.1.1.9,179,-0.150,-0.150,-0.150,0.000,0.000,0.000
1641221029862298112,2022-01-03-14:43:49,10.1.1.9,176,-0.140,-0.140,-0.140,0.000,0.000,0.000
1641221030062454016,2022-01-03-14:43:50,10.1.1.9,176,-0.130,-0.130,-0.130,0.000,0.000,0.000
1641221030263288064,2022-01-03-14:43:50,10.1.1.9,177,-0.120,-0.120,-0.120,0.000,0.000,0.000
1641221030484467968,2022-01-03-14:43:50,10.1.1.9,197,-0.110,-0.110,-0.110,0.000,0.000,0.000
1641221030685805056,2022-01-03-14:43:50,10.1.1.9,197,-0.100,-0.100,-0.100,0.000,0.000,0.000
1641221030884248064,2022-01-03-14:43:50,10.1.1.9,195,-0.090,-0.090,-0.090,0.000,0.000,0.000
1641221031084830976,2022-01-03-14:43:51,10.1.1.9,194,-0.080,-0.080,-0.080,0.000,0.000,0.000
1641221031286099968,2022-01-03-14:43:51,10.1.1.9,195,-0.070,-0.070,-0.070,0.000,0.000,0.000
1641221031485193984,2022-01-03-14:43:51,10.1.1.9,191,-0.060,-0.060,-0.060,0.000,0.000,0.000
1641221031685892096,2022-01-03-14:43:51,10.1.1.9,190,-0.050,-0.050,-0.050,0.000,0.000,0.000
1641221031886635008,2022-01-03-14:43:51,10.1.1.9,189,-0.040,-0.040,-0.040,0.000,0.000,0.000
1641221032091321088,2022-01-03-14:43:52,10.1.1.9,193,-0.030,-0.030,-0.030,0.000,0.000,0.000
1641221032306728960,2022-01-03-14:43:52,10.1.1.9,195,-0.020,-0.020,-0.020,0.000,0.000,0.000
1641221032505948928,2022-01-03-14:43:52,10.1.1.9,188,-0.010,-0.010,-0.010,0.000,0.000,0.000
1641221032707657216,2022-01-03-14:43:52,10.1.1.9,189,0.000,0.000,0.000,0.000,0.000,0.000
1641221032908179968,2022-01-03-14:43:52,10.1.1.9,183,-0.010,-0.010,-0.010,0.000,0.000,0.000
1641221033106515968,2022-01-03-14:43:53,10.1.1.9,180,-0.020,-0.020,-0.020,0.000,0.000,0.000
1641221033307744000,2022-01-03-14:43:53,10.1.1.9,181,-0.030,-0.030,-0.030,0.000,0.000,0.000
1641221033527141120,2022-01-03-14:43:53,10.1.1.9,196,-0.040,-0.040,-0.040,0.000,0.000,0.000
1641221033727459840,2022-01-03-14:43:53,10.1.1.9,196,-0.050,-0.050,-0.050,0.000,0.000,0.000
1641221033927258112,2022-01-03-14:43:53,10.1.1.9,195,-0.060,-0.060,-0.060,0.000,0.000,0.000
1641221034126780160,2022-01-03-14:43:54,10.1.1.9,194,-0.070,-0.070,-0.070,0.000,0.000,0.000
1641221034327787008,2022-01-03-14:43:54,10.1.1.9,195,-0.080,-0.080,-0.080,0.000,0.000,0.000
1641221034527281152,2022-01-03-14:43:54,10.1.1.9,194,-0.090,-0.090,-0.090,0.000,0.000,0.000
1641221034727891968,2022-01-03-14:43:54,10.1.1.9,194,-0.100,-0.100,-0.100,0.000,0.000,0.000
1641221034929651968,2022-01-03-14:43:54,10.1.1.9,195,-0.110,-0.110,-0.110,0.000,0.000,0.000
1641221035127748864,2022-01-03-14:43:55,10.1.1.9,192,-0.120,-0.120,-0.120,0.000,0.000,0.000
1641221035332320000,2022-01-03-14:43:55,10.1.1.9,195,-0.130,-0.130,-0.130,0.000,0.000,0.000
1641221035528271872,2022-01-03-14:43:55,10.1.1.9,190,-0.140,-0.140,-0.140,0.000,0.000,0.000
1641221035727569152,2022-01-03-14:43:55,10.1.1.9,189,-0.150,-0.150,-0.150,0.000,0.000,0.000
1641221035928161024,2022-01-03-14:43:55,10.1.1.9,189,-0.160,-0.160,-0.160,0.000,0.000,0.000
1641221036128054016,2022-01-03-14:43:56,10.1.1.9,187,-0.170,-0.170,-0.170,0.000,0.000,0.000
1641221036327969024,2022-01-03-14:43:56,10.1.1.9,186,-0.180,-0.180,-0.180,0.000,0.000,0.000
1641221036528433920,2022-01-03-14:43:56,10.1.1.9,186,-0.190,-0.190,-0.190,0.000,0.000,0.000
1641221036727549952,2022-01-03-14:43:56,10.1.1.9,184,-0.200,-0.200,-0.200,0.000,0.000,0.000
1641221036927506944,2022-01-03-14:43:56,10.1.1.9,184,-0.210,-0.210,-0.210,0.000,0.000,0.000
1641221037129062912,2022-01-03-14:43:57,10.1.1.9,184,-0.220,-0.220,-0.220,0.000,0.000,0.000
1641221037327759104,2022-01-03-14:43:57,10.1.1.9,182,-0.230,-0.230,-0.230,0.000,0.000,0.000
1641221037529534976,2022-01-03-14:43:57,10.1.1.9,183,-0.240,-0.240,-0.240,0.000,0.000,0.000
1641221037728112896,2022-01-03-14:43:57,10.1.1.9,181,-0.250,-0.250,-0.250,0.000,0.000,0.000
1641221037947539200,2022-01-03-14:43:57,10.1.1.9,200,-0.260,-0.260,-0.260,0.000,0.000,0.000
1641221038147638016,2022-01-03-14:43:58,10.1.1.9,199,-0.270,-0.270,-0.270,0.000,0.000,0.000
1641221038348216064,2022-01-03-14:43:58,10.1.1.9,199,-0.280,-0.280,-0.280,0.000,0.000,0.000
1641221038549007872,2022-01-03-14:43:58,10.1.1.9,200,-0.290,-0.290,-0.290,0.000,0.000,0.000
1641221038747204096,2022-01-03-14:43:58,10.1.1.9,197,-0.300,-0.300,-0.300,0.000,0.000,0.000
1641221038947213824,2022-01-03-14:43:58,10.1.1.9,197,-0.310,-0.310,-0.310,0.000,0.000,0.000
1641221039147277056,2022-01-03-14:43:59,10.1.1.9,196,-0.320,-0.320,-0.320,0.000,0.000,0.000
1641221039347261952,2022-01-03-14:43:59,10.1.1.9,196,-0.330,-0.330,-0.330,0.000,0.000,0.000
1641221039546775040,2022-01-03-14:43:59,10.1.1.9,194,-0.340,-0.340,-0.340,0.000,0.000,0.000
1641221039746977024,2022-01-03-14:43:59,10.1.1.9,193,-0.350,-0.350,-0.350,0.000,0.000,0.000
1641221039939308800,2022-01-03-14:43:59,10.1.1.9,185,-0.360,-0.360,-0.360,0.000,0.000,0.000
1641221040146348032,2022-01-03-14:44:00,10.1.1.9,192,-0.370,-0.370,-0.370,0.000,0.000,0.000
1641221040347410944,2022-01-03-14:44:00,10.1.1.9,192,-0.380,-0.380,-0.380,0.000,0.000,0.000
1641221040545435904,2022-01-03-14:44:00,10.1.1.9,188,-0.390,-0.390,-0.390,0.000,0.000,0.000
1641221040745564928,2022-01-03-14:44:00,10.1.1.9,187,-0.400,-0.400,-0.400,0.000,0.000,0.000
1641221040945936896,2022-01-03-14:44:00,10.1.1.9,184,-0.410,-0.410,-0.410,0.000,0.000,0.000
1641221041147321856,2022-01-03-14:44:01,10.1.1.9,185,-0.420,-0.420,-0.420,0.000,0.000,0.000
1641221041348988160,2022-01-03-14:44:01,10.1.1.9,186,-0.430,-0.430,-0.430,0.000,0.000,0.000
1641221041545892096,2022-01-03-14:44:01,10.1.1.9,182,-0.440,-0.440,-0.440,0.000,0.000,0.000
1641221041765335040,2022-01-03-14:44:01,10.1.1.9,200,-0.450,-0.450,-0.450,0.000,0.000,0.000
1641221041944470016,2022-01-03-14:44:01,10.1.1.9,178,-0.460,-0.460,-0.460,0.000,0.000,0.000
1641221042163633152,2022-01-03-14:44:02,10.1.1.9,196,-0.470,-0.470,-0.470,0.000,0.000,0.000
1641221042364329216,2022-01-03-14:44:02,10.1.1.9,196,-0.480,-0.480,-0.480,0.000,0.000,0.000
1641221042563465216,2022-01-03-14:44:02,10.1.1.9,195,-0.490,-0.490,-0.490,0.000,0.000,0.000
1641221042763612928,2022-01-03-14:44:02,10.1.1.9,194,-0.480,-0.480,-0.480,0.000,0.000,0.000
1641221042967897856,2022-01-03-14:44:02,10.1.1.9,198,-0.470,-0.470,-0.470,0.000,0.000,0.000
1641221043162664960,2022-01-03-14:44:03,10.1.1.9,189,-0.460,-0.460,-0.460,0.000,0.000,0.000
1641221043362874880,2022-01-03-14:44:03,10.1.1.9,188,-0.450,-0.450,-0.450,0.000,0.000,0.000
1641221043563011840,2022-01-03-14:44:03,10.1.1.9,187,-0.440,-0.440,-0.440,0.000,0.000,0.000
1641221043762316032,2022-01-03-14:44:03,10.1.1.9,183,-0.430,-0.430,-0.430,0.000,0.000,0.000
1641221043962034944,2022-01-03-14:44:03,10.1.1.9,182,-0.420,-0.420,-0.420,0.000,0.000,0.000
1641221044162374912,2022-01-03-14:44:04,10.1.1.9,182,-0.410,-0.410,-0.410,0.000,0.000,0.000
1641221044560990976,2022-01-03-14:44:04,10.1.1.9,179,-0.390,-0.390,-0.390,0.000,0.000,0.000
1641221044761848832,2022-01-03-14:44:04,10.1.1.9,179,-0.380,-0.380,-0.380,0.000,0.000,0.000
1641221044961253888,2022-01-03-14:44:04,10.1.1.9,178,-0.370,-0.370,-0.370,0.000,0.000,0.000
1641221045161914112,2022-01-03-14:44:05,10.1.1.9,178,-0.360,-0.360,-0.360,0.000,0.000,0.000
1641221045360750080,2022-01-03-14:44:05,10.1.1.9,175,-0.350,-0.350,-0.350,0.000,0.000,0.000
1641221045560303872,2022-01-03-14:44:05,10.1.1.9,173,-0.340,-0.340,-0.340,0.000,0.000,0.000
1641221045780036864,2022-01-03-14:44:05,10.1.1.9,192,-0.330,-0.330,-0.330,0.000,0.000,0.000
1641221045982428928,2022-01-03-14:44:05,10.1.1.9,193,-0.320,-0.320,-0.320,0.000,0.000,0.000
1641221046179694848,2022-01-03-14:44:06,10.1.1.9,188,-0.310,-0.310,-0.310,0.000,0.000,0.000
1641221046379520000,2022-01-03-14:44:06,10.1.1.9,187,-0.300,-0.300,-0.300,0.000,0.000,0.000
1641221046580499968,2022-01-03-14:44:06,10.1.1.9,187,-0.290,-0.290,-0.290,0.000,0.000,0.000
1641221046778945024,2022-01-03-14:44:06,10.1.1.9,185,-0.280,-0.280,-0.280,0.000,0.000,0.000
1641221046979058944,2022-01-03-14:44:06,10.1.1.9,184,-0.270,-0.270,-0.270,0.000,0.000,0.000
1641221047178728960,2022-01-03-14:44:07,10.1.1.9,184,-0.260,-0.260,-0.260,0.000,0.000,0.000
1641221047379315968,2022-01-03-14:44:07,10.1.1.9,184,-0.250,-0.250,-0.250,0.000,0.000,0.000
1641221047582999040,2022-01-03-14:44:07,10.1.1.9,185,-0.240,-0.240,-0.240,0.000,0.000,0.000
1641221047777978880,2022-01-03-14:44:07,10.1.1.9,179,-0.230,-0.230,-0.230,0.000,0.000,0.000
1641221047977967104,2022-01-03-14:44:07,10.1.1.9,178,-0.220,-0.220,-0.220,0.000,0.000,0.000
1641221048177547008,2022-01-03-14:44:08,10.1.1.9,177,-0.210,-0.210,-0.210,0.000,0.000,0.000
1641221048377326080,2022-01-03-14:44:08,10.1.1.9,176,-0.200,-0.200,-0.200,0.000,0.000,0.000
1641221048577179904,2022-01-03-14:44:08,10.1.1.9,173,-0.190,-0.190,-0.190,0.000,0.000,0.000
1641221048776797952,2022-01-03-14:44:08,10.1.1.9,172,-0.180,-0.180,-0.180,0.000,0.000,0.000
1641221048976349952,2022-01-03-14:44:08,10.1.1.9,170,-0.170,-0.170,-0.170,0.000,0.000,0.000
1641221049195864832,2022-01-03-14:44:09,10.1.1.9,188,-0.160,-0.160,-0.160,0.000,0.000,0.000
1641221049389529088,2022-01-03-14:44:09,10.1.1.9,181,-0.150,-0.150,-0.150,0.000,0.000,0.000
1641221049595563008,2022-01-03-14:44:09,10.1.1.9,187,-0.140,-0.140,-0.140,0.000,0.000,0.000
1641221049795104000,2022-01-03-14:44:09,10.1.1.9,185,-0.130,-0.130,-0.130,0.000,0.000,0.000
1641221049995099904,2022-01-03-14:44:09,10.1.1.9,184,-0.120,-0.120,-0.120,0.000,0.000,0.000
1641221050195458048,2022-01-03-14:44:10,10.1.1.9,184,-0.110,-0.110,-0.110,0.000,0.000,0.000
1641221050399766016,2022-01-03-14:44:10,10.1.1.9,185,-0.100,-0.100,-0.100,0.000,0.000,0.000
1641221050612260096,2022-01-03-14:44:10,10.1.1.9,197,-0.090,-0.090,-0.090,0.000,0.000,0.000
1641221050813776896,2022-01-03-14:44:10,10.1.1.9,183,-0.080,-0.080,-0.080,0.000,0.000,0.000
1641221051013432064,2022-01-03-14:44:11,10.1.1.9,181,-0.070,-0.070,-0.070,0.000,0.000,0.000
1641221051212894976,2022-01-03-14:44:11,10.1.1.9,180,-0.060,-0.060,-0.060,0.000,0.000,0.000
1641221051413233152,2022-01-03-14:44:11,10.1.1.9,179,-0.050,-0.050,-0.050,0.000,0.000,0.000
1641221051612720896,2022-01-03-14:44:11,10.1.1.9,178,-0.040,-0.040,-0.040,0.000,0.000,0.000
1641221051813451008,2022-01-03-14:44:11,10.1.1.9,178,-0.030,-0.030,-0.030,0.000,0.000,0.000
1641221052012388096,2022-01-03-14:44:12,10.1.1.9,174,-0.020,-0.020,-0.020,0.000,0.000,0.000
1641221052211705856,2022-01-03-14:44:12,10.1.1.9,173,-0.010,-0.010,-0.010,0.000,0.000,0.000
1641221052412399104,2022-01-03-14:44:12,10.1.1.9,172,0.000,0.000,0.000,0.000,0.000,0.000
1641221052631491072,2022-01-03-14:44:12,10.1.1.9,182,-0.010,-0.010,-0.010,0.000,0.000,0.000
1641221052831767040,2022-01-03-14:44:12,10.1.1.9,182,-0.020,-0.020,-0.020,0.000,0.000,0.000
1641221053030693888,2022-01-03-14:44:13,10.1.1.9,180,-0.030,-0.030,-0.030,0.000,0.000,0.000
1641221053230227968,2022-01-03-14:44:13,10.1.1.9,178,-0.040,-0.040,-0.040,0.000,0.000,0.000
1641221053430008832,2022-01-03-14:44:13,10.1.1.9,177,-0.050,-0.050,-0.050,0.000,0.000,0.000
1641221053629863936,2022-01-03-14:44:13,10.1.1.9,177,-0.060,-0.060,-0.060,0.000,0.000,0.000
1641221053828248064,2022-01-03-14:44:13,10.1.1.9,175,-0.070,-0.070,-0.070,0.000,0.000,0.000
1641221054030692096,2022-01-03-14:44:14,10.1.1.9,177,-0.080,-0.080,-0.080,0.000,0.000,0.000
1641221054248827904,2022-01-03-14:44:14,10.1.1.9,175,-0.090,-0.090,-0.090,0.000,0.000,0.000
1641221054448260096,2022-01-03-14:44:14,10.1.1.9,174,-0.100,-0.100,-0.100,0.000,0.000,0.000
1641221054642769152,2022-01-03-14:44:14,10.1.1.9,166,-0.110,-0.110,-0.110,0.000,0.000,0.000
1641221054847992064,2022-01-03-14:44:14,10.1.1.9,165,-0.120,-0.120,-0.120,0.000,0.000,0.000
1641221055047451136,2022-01-03-14:44:15,10.1.1.9,164,-0.130,-0.130,-0.130,0.000,0.000,0.000
1641221055246667008,2022-01-03-14:44:15,10.1.1.9,162,-0.140,-0.140,-0.140,0.000,0.000,0.000
1641221055467968000,2022-01-03-14:44:15,10.1.1.9,180,-0.150,-0.150,-0.150,0.000,0.000,0.000
1641221055666048000,2022-01-03-14:44:15,10.1.1.9,177,-0.160,-0.160,-0.160,0.000,0.000,0.000
1641221055865638144,2022-01-03-14:44:15,10.1.1.9,177,-0.170,-0.170,-0.170,0.000,0.000,0.000
1641221056066659840,2022-01-03-14:44:16,10.1.1.9,177,-0.180,-0.180,-0.180,0.000,0.000,0.000
1641221056264781056,2022-01-03-14:44:16,10.1.1.9,170,-0.190,-0.190,-0.190,0.000,0.000,0.000
1641221056464684032,2022-01-03-14:44:16,10.1.1.9,170,-0.200,-0.200,-0.200,0.000,0.000,0.000
1641221056667975936,2022-01-03-14:44:16,10.1.1.9,172,-0.210,-0.210,-0.210,0.000,0.000,0.000
1641221056864612096,2022-01-03-14:44:16,10.1.1.9,168,-0.220,-0.220,-0.220,0.000,0.000,0.000
1641221057064261888,2022-01-03-14:44:17,10.1.1.9,167,-0.230,-0.230,-0.230,0.000,0.000,0.000
1641221057266155008,2022-01-03-14:44:17,10.1.1.9,168,-0.240,-0.240,-0.240,0.000,0.000,0.000
1641221057467678976,2022-01-03-14:44:17,10.1.1.9,169,-0.250,-0.250,-0.250,0.000,0.000,0.000
1641221057667279872,2022-01-03-14:44:17,10.1.1.9,168,-0.260,-0.260,-0.260,0.000,0.000,0.000
1641221057867819008,2022-01-03-14:44:17,10.1.1.9,168,-0.270,-0.270,-0.270,0.000,0.000,0.000
1641221058069140992,2022-01-03-14:44:18,10.1.1.9,168,-0.280,-0.280,-0.280,0.000,0.000,0.000
1641221058270773760,2022-01-03-14:44:18,10.1.1.9,166,-0.290,-0.290,-0.290,0.000,0.000,0.000
1641221058471048960,2022-01-03-14:44:18,10.1.1.9,166,-0.300,-0.300,-0.300,0.000,0.000,0.000
1641221058672122880,2022-01-03-14:44:18,10.1.1.9,167,-0.310,-0.310,-0.310,0.000,0.000,0.000
1641221058877263104,2022-01-03-14:44:18,10.1.1.9,171,-0.320,-0.320,-0.320,0.000,0.000,0.000
1641221059073108992,2022-01-03-14:44:19,10.1.1.9,166,-0.330,-0.330,-0.330,0.000,0.000,0.000
1641221059294400000,2022-01-03-14:44:19,10.1.1.9,186,-0.340,-0.340,-0.340,0.000,0.000,0.000
1641221059495341056,2022-01-03-14:44:19,10.1.1.9,186,-0.350,-0.350,-0.350,0.000,0.000,0.000
1641221059695969024,2022-01-03-14:44:19,10.1.1.9,174,-0.360,-0.360,-0.360,0.000,0.000,0.000
1641221059896656896,2022-01-03-14:44:19,10.1.1.9,174,-0.370,-0.370,-0.370,0.000,0.000,0.000
1641221060097198080,2022-01-03-14:44:20,10.1.1.9,174,-0.380,-0.380,-0.380,0.000,0.000,0.000
1641221060299177984,2022-01-03-14:44:20,10.1.1.9,174,-0.390,-0.390,-0.390,0.000,0.000,0.000
1641221060498521088,2022-01-03-14:44:20,10.1.1.9,172,-0.400,-0.400,-0.400,0.000,0.000,0.000
1641221060719086848,2022-01-03-14:44:20,10.1.1.9,184,-0.410,-0.410,-0.410,0.000,0.000,0.000
1641221060919425024,2022-01-03-14:44:20,10.1.1.9,184,-0.420,-0.420,-0.420,0.000,0.000,0.000
1641221061128665088,2022-01-03-14:44:21,10.1.1.9,192,-0.430,-0.430,-0.430,0.000,0.000,0.000
1641221061320975104,2022-01-03-14:44:21,10.1.1.9,184,-0.440,-0.440,-0.440,0.000,0.000,0.000
1641221061524254976,2022-01-03-14:44:21,10.1.1.9,186,-0.450,-0.450,-0.450,0.000,0.000,0.000
1641221061722025984,2022-01-03-14:44:21,10.1.1.9,181,-0.460,-0.460,-0.460,0.000,0.000,0.000
1641221061922198016,2022-01-03-14:44:21,10.1.1.9,182,-0.470,-0.470,-0.470,0.000,0.000,0.000
1641221062122926848,2022-01-03-14:44:22,10.1.1.9,182,-0.480,-0.480,-0.480,0.000,0.000,0.000
1641221062323396864,2022-01-03-14:44:22,10.1.1.9,181,-0.490,-0.490,-0.490,0.000,0.000,0.000
1641221062524034048,2022-01-03-14:44:22,10.1.1.9,181,-0.480,-0.480,-0.480,0.000,0.000,0.000
1641221062724349952,2022-01-03-14:44:22,10.1.1.9,181,-0.470,-0.470,-0.470,0.000,0.000,0.000
1641221062924588800,2022-01-03-14:44:22,10.1.1.9,181,-0.460,-0.460,-0.460,0.000,0.000,0.000
1641221063125259008,2022-01-03-14:44:23,10.1.1.9,180,-0.450,-0.450,-0.450,0.000,0.000,0.000
1641221063325696000,2022-01-03-14:44:23,10.1.1.9,180,-0.440,-0.440,-0.440,0.000,0.000,0.000
1641221063526014976,2022-01-03-14:44:23,10.1.1.9,179,-0.430,-0.430,-0.430,0.000,0.000,0.000
1641221063726598912,2022-01-03-14:44:23,10.1.1.9,180,-0.420,-0.420,-0.420,0.000,0.000,0.000
1641221063946556160,2022-01-03-14:44:23,10.1.1.9,199,-0.410,-0.410,-0.410,0.000,0.000,0.000
1641221064146703872,2022-01-03-14:44:24,10.1.1.9,198,-0.400,-0.400,-0.400,0.000,0.000,0.000
1641221064347734016,2022-01-03-14:44:24,10.1.1.9,198,-0.390,-0.390,-0.390,0.000,0.000,0.000
1641221064542287104,2022-01-03-14:44:24,10.1.1.9,192,-0.380,-0.380,-0.380,0.000,0.000,0.000
1641221064747606016,2022-01-03-14:44:24,10.1.1.9,197,-0.370,-0.370,-0.370,0.000,0.000,0.000
1641221064948220928,2022-01-03-14:44:24,10.1.1.9,197,-0.360,-0.360,-0.360,0.000,0.000,0.000
1641221065150844928,2022-01-03-14:44:25,10.1.1.9,198,-0.350,-0.350,-0.350,0.000,0.000,0.000
1641221065347593984,2022-01-03-14:44:25,10.1.1.9,193,-0.340,-0.340,-0.340,0.000,0.000,0.000
1641221065549650944,2022-01-03-14:44:25,10.1.1.9,194,-0.330,-0.330,-0.330,0.000,0.000,0.000
1641221065768924928,2022-01-03-14:44:25,10.1.1.9,184,-0.320,-0.320,-0.320,0.000,0.000,0.000
1641221065968583936,2022-01-03-14:44:25,10.1.1.9,183,-0.310,-0.310,-0.310,0.000,0.000,0.000
1641221066168561920,2022-01-03-14:44:26,10.1.1.9,182,-0.300,-0.300,-0.300,0.000,0.000,0.000
1641221066368498176,2022-01-03-14:44:26,10.1.1.9,181,-0.290,-0.290,-0.290,0.000,0.000,0.000
1641221066788116992,2022-01-03-14:44:26,10.1.1.9,200,-0.270,-0.270,-0.270,0.000,0.000,0.000
1641221066988535040,2022-01-03-14:44:26,10.1.1.9,199,-0.260,-0.260,-0.260,0.000,0.000,0.000
1641221067188957952,2022-01-03-14:44:27,10.1.1.9,199,-0.250,-0.250,-0.250,0.000,0.000,0.000
1641221067388470016,2022-01-03-14:44:27,10.1.1.9,198,-0.240,-0.240,-0.240,0.000,0.000,0.000
1641221067588742144,2022-01-03-14:44:27,10.1.1.9,198,-0.230,-0.230,-0.230,0.000,0.000,0.000
1641221067789254912,2022-01-03-14:44:27,10.1.1.9,198,-0.220,-0.220,-0.220,0.000,0.000,0.000
1641221067989125888,2022-01-03-14:44:27,10.1.1.9,198,-0.210,-0.210,-0.210,0.000,0.000,0.000
1641221068188726016,2022-01-03-14:44:28,10.1.1.9,197,-0.200,-0.200,-0.200,0.000,0.000,0.000
1641221068389229056,2022-01-03-14:44:28,10.1.1.9,197,-0.190,-0.190,-0.190,0.000,0.000,0.000
1641221068589395968,2022-01-03-14:44:28,10.1.1.9,196,-0.180,-0.180,-0.180,0.000,0.000,0.000
1641221068788919040,2022-01-03-14:44:28,10.1.1.9,195,-0.170,-0.170,-0.170,0.000,0.000,0.000
1641221068988679936,2022-01-03-14:44:28,10.1.1.9,194,-0.160,-0.160,-0.160,0.000,0.000,0.000
1641221069190358016,2022-01-03-14:44:29,10.1.1.9,195,-0.150,-0.150,-0.150,0.000,0.000,0.000
1641221069381232896,2022-01-03-14:44:29,10.1.1.9,184,-0.140,-0.140,-0.140,0.000,0.000,0.000
1641221069588264960,2022-01-03-14:44:29,10.1.1.9,191,-0.130,-0.130,-0.130,0.000,0.000,0.000
1641221069789987072,2022-01-03-14:44:29,10.1.1.9,192,-0.120,-0.120,-0.120,0.000,0.000,0.000
1641221069988187904,2022-01-03-14:44:29,10.1.1.9,189,-0.110,-0.110,-0.110,0.000,0.000,0.000
1641221070188286976,2022-01-03-14:44:30,10.1.1.9,187,-0.100,-0.100,-0.100,0.000,0.000,0.000
1641221070407959040,2022-01-03-14:44:30,10.1.1.9,199,-0.090,-0.090,-0.090,0.000,0.000,0.000
1641221070607759104,2022-01-03-14:44:30,10.1.1.9,198,-0.080,-0.080,-0.080,0.000,0.000,0.000
1641221070808348928,2022-01-03-14:44:30,10.1.1.9,198,-0.070,-0.070,-0.070,0.000,0.000,0.000
1641221071009756160,2022-01-03-14:44:31,10.1.1.9,199,-0.060,-0.060,-0.060,0.000,0.000,0.000
1641221071208024064,2022-01-03-14:44:31,10.1.1.9,197,-0.050,-0.050,-0.050,0.000,0.000,0.000
1641221071407869184,2022-01-03-14:44:31,10.1.1.9,196,-0.040,-0.040,-0.040,0.000,0.000,0.000
1641221071609581056,2022-01-03-14:44:31,10.1.1.9,196,-0.030,-0.030,-0.030,0.000,0.000,0.000
1641221071807496960,2022-01-03-14:44:31,10.1.1.9,193,-0.020,-0.020,-0.020,0.000,0.000,0.000
1641221072007496192,2022-01-03-14:44:32,10.1.1.9,193,-0.010,-0.010,-0.010,0.000,0.000,0.000
1641221072207392000,2022-01-03-14:44:32,10.1.1.9,192,0.000,0.000,0.000,0.000,0.000,0.000
1641221072407234048,2022-01-03-14:44:32,10.1.1.9,191,-0.010,-0.010,-0.010,0.000,0.000,0.000
1641221072607030016,2022-01-03-14:44:32,10.1.1.9,189,-0.020,-0.020,-0.020,0.000,0.000,0.000
1641221072806940160,2022-01-03-14:44:32,10.1.1.9,188,-0.030,-0.030,-0.030,0.000,0.000,0.000
1641221073006778112,2022-01-03-14:44:33,10.1.1.9,188,-0.040,-0.040,-0.040,0.000,0.000,0.000
1641221073207089920,2022-01-03-14:44:33,10.1.1.9,187,-0.050,-0.050,-0.050,0.000,0.000,0.000
1641221073406470912,2022-01-03-14:44:33,10.1.1.9,186,-0.060,-0.060,-0.060,0.000,0.000,0.000
1641221073607273984,2022-01-03-14:44:33,10.1.1.9,187,-0.070,-0.070,-0.070,0.000,0.000,0.000
1641221073818489088,2022-01-03-14:44:33,10.1.1.9,197,-0.080,-0.080,-0.080,0.000,0.000,0.000
1641221074006020096,2022-01-03-14:44:34,10.1.1.9,184,-0.090,-0.090,-0.090,0.000,0.000,0.000
1641221074206296832,2022-01-03-14:44:34,10.1.1.9,184,-0.100,-0.100,-0.100,0.000,0.000,0.000
1641221074405196032,2022-01-03-14:44:34,10.1.1.9,181,-0.110,-0.110,-0.110,0.000,0.000,0.000
1641221074606780928,2022-01-03-14:44:34,10.1.1.9,183,-0.120,-0.120,-0.120,0.000,0.000,0.000
1641221074804147968,2022-01-03-14:44:34,10.1.1.9,179,-0.130,-0.130,-0.130,0.000,0.000,0.000
1641221075004100096,2022-01-03-14:44:35,10.1.1.9,178,-0.140,-0.140,-0.140,0.000,0.000,0.000
1641221075203830016,2022-01-03-14:44:35,10.1.1.9,177,-0.150,-0.150,-0.150,0.000,0.000,0.000
1641221075423851008,2022-01-03-14:44:35,10.1.1.9,196,-0.160,-0.160,-0.160,0.000,0.000,0.000
1641221075624248064,2022-01-03-14:44:35,10.1.1.9,196,-0.170,-0.170,-0.170,0.000,0.000,0.000
1641221075823622912,2022-01-03-14:44:35,10.1.1.9,195,-0.180,-0.180,-0.180,0.000,0.000,0.000
1641221076023246080,2022-01-03-14:44:36,10.1.1.9,194,-0.190,-0.190,-0.190,0.000,0.000,0.000
1641221076223159040,2022-01-03-14:44:36,10.1.1.9,193,-0.200,-0.200,-0.200,0.000,0.000,0.000
1641221076423538944,2022-01-03-14:44:36,10.1.1.9,193,-0.210,-0.210,-0.210,0.000,0.000,0.000
1641221076622575104,2022-01-03-14:44:36,10.1.1.9,191,-0.220,-0.220,-0.220,0.000,0.000,0.000
1641221076822500096,2022-01-03-14:44:36,10.1.1.9,191,-0.230,-0.230,-0.230,0.000,0.000,0.000
1641221077022184960,2022-01-03-14:44:37,10.1.1.9,190,-0.240,-0.240,-0.240,0.000,0.000,0.000
1641221077222105856,2022-01-03-14:44:37,10.1.1.9,189,-0.250,-0.250,-0.250,0.000,0.000,0.000
1641221077422266880,2022-01-03-14:44:37,10.1.1.9,184,-0.260,-0.260,-0.260,0.000,0.000,0.000
1641221077621468928,2022-01-03-14:44:37,10.1.1.9,182,-0.270,-0.270,-0.270,0.000,0.000,0.000
1641221078020961024,2022-01-03-14:44:38,10.1.1.9,176,-0.290,-0.290,-0.290,0.000,0.000,0.000
1641221078241245952,2022-01-03-14:44:38,10.1.1.9,189,-0.300,-0.300,-0.300,0.000,0.000,0.000
1641221078441262848,2022-01-03-14:44:38,10.1.1.9,188,-0.310,-0.310,-0.310,0.000,0.000,0.000
1641221078640444928,2022-01-03-14:44:38,10.1.1.9,184,-0.320,-0.320,-0.320,0.000,0.000,0.000
1641221078840017152,2022-01-03-14:44:38,10.1.1.9,183,-0.330,-0.330,-0.330,0.000,0.000,0.000
1641221079040092928,2022-01-03-14:44:39,10.1.1.9,182,-0.340,-0.340,-0.340,0.000,0.000,0.000
1641221079440948992,2022-01-03-14:44:39,10.1.1.9,182,-0.360,-0.360,-0.360,0.000,0.000,0.000
1641221079639017984,2022-01-03-14:44:39,10.1.1.9,180,-0.370,-0.370,-0.370,0.000,0.000,0.000
1641221079838976000,2022-01-03-14:44:39,10.1.1.9,179,-0.380,-0.380,-0.380,0.000,0.000,0.000
1641221080039341056,2022-01-03-14:44:40,10.1.1.9,179,-0.390,-0.390,-0.390,0.000,0.000,0.000
1641221080238918912,2022-01-03-14:44:40,10.1.1.9,178,-0.400,-0.400,-0.400,0.000,0.000,0.000
1641221080438102016,2022-01-03-14:44:40,10.1.1.9,177,-0.410,-0.410,-0.410,0.000,0.000,0.000
1641221080637958912,2022-01-03-14:44:40,10.1.1.9,176,-0.420,-0.420,-0.420,0.000,0.000,0.000
1641221080857889024,2022-01-03-14:44:40,10.1.1.9,185,-0.430,-0.430,-0.430,0.000,0.000,0.000
1641221081056939008,2022-01-03-14:44:41,10.1.1.9,183,-0.440,-0.440,-0.440,0.000,0.000,0.000
1641221081257014016,2022-01-03-14:44:41,10.1.1.9,181,-0.450,-0.450,-0.450,0.000,0.000,0.000
1641221081456859136,2022-01-03-14:44:41,10.1.1.9,180,-0.460,-0.460,-0.460,0.000,0.000,0.000
1641221081684710144,2022-01-03-14:44:41,10.1.1.9,207,-0.470,-0.470,-0.470,0.000,0.000,0.000
1641221081896621824,2022-01-03-14:44:41,10.1.1.9,177,-0.480,-0.480,-0.480,0.000,0.000,0.000
1641221082095488000,2022-01-03-14:44:42,10.1.1.9,175,-0.490,-0.490,-0.490,0.000,0.000,0.000
1641221082297754112,2022-01-03-14:44:42,10.1.1.9,176,-0.480,-0.480,-0.480,0.000,0.000,0.000
1641221082495186944,2022-01-03-14:44:42,10.1.1.9,173,-0.470,-0.470,-0.470,0.000,0.000,0.000
1641221082715821056,2022-01-03-14:44:42,10.1.1.9,192,-0.460,-0.460,-0.460,0.000,0.000,0.000
1641221082919220992,2022-01-03-14:44:42,10.1.1.9,188,-0.450,-0.450,-0.450,0.000,0.000,0.000
1641221083113851136,2022-01-03-14:44:43,10.1.1.9,169,-0.440,-0.440,-0.440,0.000,0.000,0.000
1641221083315390976,2022-01-03-14:44:43,10.1.1.9,170,-0.430,-0.430,-0.430,0.000,0.000,0.000
1641221083514085120,2022-01-03-14:44:43,10.1.1.9,167,-0.420,-0.420,-0.420,0.000,0.000,0.000
1641221083734188032,2022-01-03-14:44:43,10.1.1.9,186,-0.410,-0.410,-0.410,0.000,0.000,0.000
1641221083934673152,2022-01-03-14:44:43,10.1.1.9,184,-0.400,-0.400,-0.400,0.000,0.000,0.000
1641221084133063936,2022-01-03-14:44:44,10.1.1.9,182,-0.390,-0.390,-0.390,0.000,0.000,0.000
1641221084552248064,2022-01-03-14:44:44,10.1.1.9,174,-0.370,-0.370,-0.370,0.000,0.000,0.000
1641221084752013056,2022-01-03-14:44:44,10.1.1.9,173,-0.360,-0.360,-0.360,0.000,0.000,0.000
1641221084952091904,2022-01-03-14:44:44,10.1.1.9,170,-0.350,-0.350,-0.350,0.000,0.000,0.000
1641221085151324928,2022-01-03-14:44:45,10.1.1.9,165,-0.340,-0.340,-0.340,0.000,0.000,0.000
1641221085370656000,2022-01-03-14:44:45,10.1.1.9,183,-0.330,-0.330,-0.330,0.000,0.000,0.000
1641221085570759936,2022-01-03-14:44:45,10.1.1.9,183,-0.320,-0.320,-0.320,0.000,0.000,0.000
1641221085770583040,2022-01-03-14:44:45,10.1.1.9,182,-0.310,-0.310,-0.310,0.000,0.000,0.000
1641221085970496768,2022-01-03-14:44:45,10.1.1.9,181,-0.300,-0.300,-0.300,0.000,0.000,0.000
1641221086170049792,2022-01-03-14:44:46,10.1.1.9,179,-0.290,-0.290,-0.290,0.000,0.000,0.000
1641221086368978944,2022-01-03-14:44:46,10.1.1.9,177,-0.280,-0.280,-0.280,0.000,0.000,0.000
1641221086569782016,2022-01-03-14:44:46,10.1.1.9,178,-0.270,-0.270,-0.270,0.000,0.000,0.000
1641221086769040128,2022-01-03-14:44:46,10.1.1.9,176,-0.260,-0.260,-0.260,0.000,0.000,0.000
1641221086967986944,2022-01-03-14:44:46,10.1.1.9,175,-0.250,-0.250,-0.250,0.000,0.000,0.000
1641221087169410048,2022-01-03-14:44:47,10.1.1.9,176,-0.240,-0.240,-0.240,0.000,0.000,0.000
1641221087367538944,2022-01-03-14:44:47,10.1.1.9,173,-0.230,-0.230,-0.230,0.000,0.000,0.000
1641221087567506944,2022-01-03-14:44:47,10.1.1.9,173,-0.220,-0.220,-0.220,0.000,0.000,0.000
1641221087766962176,2022-01-03-14:44:47,10.1.1.9,172,-0.210,-0.210,-0.210,0.000,0.000,0.000
1641221087966716160,2022-01-03-14:44:47,10.1.1.9,171,-0.200,-0.200,-0.200,0.000,0.000,0.000
1641221088166693888,2022-01-03-14:44:48,10.1.1.9,170,-0.190,-0.190,-0.190,0.000,0.000,0.000
1641221088366264064,2022-01-03-14:44:48,10.1.1.9,169,-0.180,-0.180,-0.180,0.000,0.000,0.000
1641221088566582016,2022-01-03-14:44:48,10.1.1.9,168,-0.170,-0.170,-0.170,0.000,0.000,0.000
1641221088765872896,2022-01-03-14:44:48,10.1.1.9,166,-0.160,-0.160,-0.160,0.000,0.000,0.000
1641221088965619200,2022-01-03-14:44:48,10.1.1.9,166,-0.150,-0.150,-0.150,0.000,0.000,0.000
1641221089164581120,2022-01-03-14:44:49,10.1.1.9,164,-0.140,-0.140,-0.140,0.000,0.000,0.000
1641221089364646912,2022-01-03-14:44:49,10.1.1.9,163,-0.130,-0.130,-0.130,0.000,0.000,0.000
1641221089564048896,2022-01-03-14:44:49,10.1.1.9,162,-0.120,-0.120,-0.120,0.000,0.000,0.000
1641221089766913024,2022-01-03-14:44:49,10.1.1.9,164,-0.110,-0.110,-0.110,0.000,0.000,0.000
1641221089963265792,2022-01-03-14:44:49,10.1.1.9,160,-0.100,-0.100,-0.100,0.000,0.000,0.000
1641221090185303040,2022-01-03-14:44:50,10.1.1.9,182,-0.090,-0.090,-0.090,0.000,0.000,0.000
1641221090382284032,2022-01-03-14:44:50,10.1.1.9,178,-0.080,-0.080,-0.080,0.000,0.000,0.000
1641221090566934016,2022-01-03-14:44:50,10.1.1.9,162,-0.070,-0.070,-0.070,0.000,0.000,0.000
1641221090769944064,2022-01-03-14:44:50,10.1.1.9,165,-0.060,-0.060,-0.060,0.000,0.000,0.000
1641221091008776960,2022-01-03-14:44:51,10.1.1.9,175,-0.050,-0.050,-0.050,0.000,0.000,0.000
1641221091209076992,2022-01-03-14:44:51,10.1.1.9,175,-0.040,-0.040,-0.040,0.000,0.000,0.000
1641221091410008832,2022-01-03-14:44:51,10.1.1.9,175,-0.030,-0.030,-0.030,0.000,0.000,0.000
1641221091610927104,2022-01-03-14:44:51,10.1.1.9,176,-0.020,-0.020,-0.020,0.000,0.000,0.000
1641221091812099840,2022-01-03-14:44:51,10.1.1.9,176,-0.010,-0.010,-0.010,0.000,0.000,0.000
1641221092012701952,2022-01-03-14:44:52,10.1.1.9,176,0.000,0.000,0.000,0.000,0.000,0.000
1641221092213166848,2022-01-03-14:44:52,10.1.1.9,176,-0.010,-0.010,-0.010,0.000,0.000,0.000
1641221092413703936,2022-01-03-14:44:52,10.1.1.9,176,-0.020,-0.020,-0.020,0.000,0.000,0.000
1641221092614394880,2022-01-03-14:44:52,10.1.1.9,176,-0.030,-0.030,-0.030,0.000,0.000,0.000
1641221092815866880,2022-01-03-14:44:52,10.1.1.9,177,-0.040,-0.040,-0.040,0.000,0.000,0.000
1641221093016439808,2022-01-03-14:44:53,10.1.1.9,176,-0.050,-0.050,-0.050,0.000,0.000,0.000
1641221093216900096,2022-01-03-14:44:53,10.1.1.9,176,-0.060,-0.060,-0.060,0.000,0.000,0.000
1641221093417308160,2022-01-03-14:44:53,10.1.1.9,175,-0.070,-0.070,-0.070,0.000,0.000,0.000
1641221093618069760,2022-01-03-14:44:53,10.1.1.9,175,-0.080,-0.080,-0.080,0.000,0.000,0.000
1641221093818716928,2022-01-03-14:44:53,10.1.1.9,174,-0.090,-0.090,-0.090,0.000,0.000,0.000
1641221094019296768,2022-01-03-14:44:54,10.1.1.9,174,-0.100,-0.100,-0.100,0.000,0.000,0.000
1641221094220300800,2022-01-03-14:44:54,10.1.1.9,174,-0.110,-0.110,-0.110,0.000,0.000,0.000
1641221094420617216,2022-01-03-14:44:54,10.1.1.9,174,-0.120,-0.120,-0.120,0.000,0.000,0.000
1641221094621095936,2022-01-03-14:44:54,10.1.1.9,174,-0.130,-0.130,-0.130,0.000,0.000,0.000
1641221094841253888,2022-01-03-14:44:54,10.1.1.9,193,-0.140,-0.140,-0.140,0.000,0.000,0.000
1641221095042140928,2022-01-03-14:44:55,10.1.1.9,194,-0.150,-0.150,-0.150,0.000,0.000,0.000
1641221095242176000,2022-01-03-14:44:55,10.1.1.9,193,-0.160,-0.160,-0.160,0.000,0.000,0.000
1641221095443272192,2022-01-03-14:44:55,10.1.1.9,193,-0.170,-0.170,-0.170,0.000,0.000,0.000
1641221095643353856,2022-01-03-14:44:55,10.1.1.9,192,-0.180,-0.180,-0.180,0.000,0.000,0.000
1641221095843542016,2022-01-03-14:44:55,10.1.1.9,191,-0.190,-0.190,-0.190,0.000,0.000,0.000
1641221096043683072,2022-01-03-14:44:56,10.1.1.9,191,-0.200,-0.200,-0.200,0.000,0.000,0.000
1641221096244067072,2022-01-03-14:44:56,10.1.1.9,190,-0.210,-0.210,-0.210,0.000,0.000,0.000
1641221096444572928,2022-01-03-14:44:56,10.1.1.9,189,-0.220,-0.220,-0.220,0.000,0.000,0.000
1641221096646585856,2022-01-03-14:44:56,10.1.1.9,189,-0.230,-0.230,-0.230,0.000,0.000,0.000
1641221096845652224,2022-01-03-14:44:56,10.1.1.9,188,-0.240,-0.240,-0.240,0.000,0.000,0.000
1641221097049999872,2022-01-03-14:44:57,10.1.1.9,191,-0.250,-0.250,-0.250,0.000,0.000,0.000
1641221097245709824,2022-01-03-14:44:57,10.1.1.9,187,-0.260,-0.260,-0.260,0.000,0.000,0.000
1641221097445648896,2022-01-03-14:44:57,10.1.1.9,185,-0.270,-0.270,-0.270,0.000,0.000,0.000
1641221097646238976,2022-01-03-14:44:57,10.1.1.9,185,-0.280,-0.280,-0.280,0.000,0.000,0.000
1641221097846364928,2022-01-03-14:44:57,10.1.1.9,185,-0.290,-0.290,-0.290,0.000,0.000,0.000
1641221098046644992,2022-01-03-14:44:58,10.1.1.9,185,-0.300,-0.300,-0.300,0.000,0.000,0.000
1641221098246870016,2022-01-03-14:44:58,10.1.1.9,183,-0.310,-0.310,-0.310,0.000,0.000,0.000
1641221098452284928,2022-01-03-14:44:58,10.1.1.9,187,-0.320,-0.320,-0.320,0.000,0.000,0.000
1641221098667076096,2022-01-03-14:44:58,10.1.1.9,197,-0.330,-0.330,-0.330,0.000,0.000,0.000
1641221098866908928,2022-01-03-14:44:58,10.1.1.9,197,-0.340,-0.340,-0.340,0.000,0.000,0.000
1641221099067141120,2022-01-03-14:44:59,10.1.1.9,196,-0.350,-0.350,-0.350,0.000,0.000,0.000
1641221099262489088,2022-01-03-14:44:59,10.1.1.9,191,-0.360,-0.360,-0.360,0.000,0.000,0.000
1641221099467154944,2022-01-03-14:44:59,10.1.1.9,195,-0.370,-0.370,-0.370,0.000,0.000,0.000
1641221099663826944,2022-01-03-14:44:59,10.1.1.9,192,-0.380,-0.380,-0.380,0.000,0.000,0.000
1641221099867845120,2022-01-03-14:44:59,10.1.1.9,195,-0.390,-0.390,-0.390,0.000,0.000,0.000
1641221100067759872,2022-01-03-14:45:00,10.1.1.9,195,-0.400,-0.400,-0.400,0.000,0.000,0.000
1641221100269268992,2022-01-03-14:45:00,10.1.1.9,196,-0.410,-0.410,-0.410,0.000,0.000,0.000
1641221100468205056,2022-01-03-14:45:00,10.1.1.9,194,-0.420,-0.420,-0.420,0.000,0.000,0.000
1641221100668167168,2022-01-03-14:45:00,10.1.1.9,193,-0.430,-0.430,-0.430,0.000,0.000,0.000
1641221100867580928,2022-01-03-14:45:00,10.1.1.9,192,-0.440,-0.440,-0.440,0.000,0.000,0.000
1641221101067866112,2022-01-03-14:45:01,10.1.1.9,192,-0.450,-0.450,-0.450,0.000,0.000,0.000
1641221101267753984,2022-01-03-14:45:01,10.1.1.9,191,-0.460,-0.460,-0.460,0.000,0.000,0.000
1641221101467514880,2022-01-03-14:45:01,10.1.1.9,191,-0.470,-0.470,-0.470,0.000,0.000,0.000
1641221101669245952,2022-01-03-14:45:01,10.1.1.9,192,-0.480,-0.480,-0.480,0.000,0.000,0.000
1641221101867897088,2022-01-03-14:45:01,10.1.1.9,189,-0.490,-0.490,-0.490,0.000,0.000,0.000
1641221102067506176,2022-01-03-14:45:02,10.1.1.9,188,-0.480,-0.480,-0.480,0.000,0.000,0.000
1641221102267014144,2022-01-03-14:45:02,10.1.1.9,187,-0.470,-0.470,-0.470,0.000,0.000,0.000
1641221102467010048,2022-01-03-14:45:02,10.1.1.9,184,-0.460,-0.460,-0.460,0.000,0.000,0.000
1641221102667736064,2022-01-03-14:45:02,10.1.1.9,184,-0.450,-0.450,-0.450,0.000,0.000,0.000
1641221103067718912,2022-01-03-14:45:03,10.1.1.9,182,-0.430,-0.430,-0.430,0.000,0.000,0.000
1641221103267133952,2022-01-03-14:45:03,10.1.1.9,181,-0.420,-0.420,-0.420,0.000,0.000,0.000
1641221103472736000,2022-01-03-14:45:03,10.1.1.9,185,-0.410,-0.410,-0.410,0.000,0.000,0.000
1641221103687941120,2022-01-03-14:45:03,10.1.1.9,200,-0.400,-0.400,-0.400,0.000,0.000,0.000
1641221104087041024,2022-01-03-14:45:04,10.1.1.9,197,-0.380,-0.380,-0.380,0.000,0.000,0.000
1641221104287921920,2022-01-03-14:45:04,10.1.1.9,197,-0.370,-0.370,-0.370,0.000,0.000,0.000
1641221104487785216,2022-01-03-14:45:04,10.1.1.9,197,-0.360,-0.360,-0.360,0.000,0.000,0.000
1641221104685972992,2022-01-03-14:45:04,10.1.1.9,193,-0.350,-0.350,-0.350,0.000,0.000,0.000
1641221104886091008,2022-01-03-14:45:04,10.1.1.9,191,-0.340,-0.340,-0.340,0.000,0.000,0.000
1641221105085714176,2022-01-03-14:45:05,10.1.1.9,190,-0.330,-0.330,-0.330,0.000,0.000,0.000
1641221105285656832,2022-01-03-14:45:05,10.1.1.9,187,-0.320,-0.320,-0.320,0.000,0.000,0.000
1641221105485336064,2022-01-03-14:45:05,10.1.1.9,184,-0.310,-0.310,-0.310,0.000,0.000,0.000
1641221105685071104,2022-01-03-14:45:05,10.1.1.9,181,-0.300,-0.300,-0.300,0.000,0.000,0.000
1641221105884771072,2022-01-03-14:45:05,10.1.1.9,180,-0.290,-0.290,-0.290,0.000,0.000,0.000
1641221106084685056,2022-01-03-14:45:06,10.1.1.9,179,-0.280,-0.280,-0.280,0.000,0.000,0.000
1641221106305089024,2022-01-03-14:45:06,10.1.1.9,195,-0.270,-0.270,-0.270,0.000,0.000,0.000
1641221106504275200,2022-01-03-14:45:06,10.1.1.9,194,-0.260,-0.260,-0.260,0.000,0.000,0.000
1641221106704068864,2022-01-03-14:45:06,10.1.1.9,193,-0.250,-0.250,-0.250,0.000,0.000,0.000
1641221106903703808,2022-01-03-14:45:06,10.1.1.9,192,-0.240,-0.240,-0.240,0.000,0.000,0.000
1641221107104754944,2022-01-03-14:45:07,10.1.1.9,192,-0.230,-0.230,-0.230,0.000,0.000,0.000
1641221107303535104,2022-01-03-14:45:07,10.1.1.9,189,-0.220,-0.220,-0.220,0.000,0.000,0.000
1641221107503168000,2022-01-03-14:45:07,10.1.1.9,187,-0.210,-0.210,-0.210,0.000,0.000,0.000
1641221107703346944,2022-01-03-14:45:07,10.1.1.9,185,-0.200,-0.200,-0.200,0.000,0.000,0.000
1641221107902952960,2022-01-03-14:45:07,10.1.1.9,183,-0.190,-0.190,-0.190,0.000,0.000,0.000
1641221108102827008,2022-01-03-14:45:08,10.1.1.9,182,-0.180,-0.180,-0.180,0.000,0.000,0.000
1641221108306220032,2022-01-03-14:45:08,10.1.1.9,185,-0.170,-0.170,-0.170,0.000,0.000,0.000
1641221108502120960,2022-01-03-14:45:08,10.1.1.9,179,-0.160,-0.160,-0.160,0.000,0.000,0.000
1641221108701852160,2022-01-03-14:45:08,10.1.1.9,178,-0.150,-0.150,-0.150,0.000,0.000,0.000
1641221108902007040,2022-01-03-14:45:08,10.1.1.9,178,-0.140,-0.140,-0.140,0.000,0.000,0.000
1641221109101645056,2022-01-03-14:45:09,10.1.1.9,176,-0.130,-0.130,-0.130,0.000,0.000,0.000
1641221109306575104,2022-01-03-14:45:09,10.1.1.9,179,-0.120,-0.120,-0.120,0.000,0.000,0.000
1641221109521368064,2022-01-03-14:45:09,10.1.1.9,193,-0.110,-0.110,-0.110,0.000,0.000,0.000
1641221109721607936,2022-01-03-14:45:09,10.1.1.9,191,-0.100,-0.100,-0.100,0.000,0.000,0.000
1641221109920878848,2022-01-03-14:45:09,10.1.1.9,186,-0.090,-0.090,-0.090,0.000,0.000,0.000
1641221110120551936,2022-01-03-14:45:10,10.1.1.9,185,-0.080,-0.080,-0.080,0.000,0.000,0.000
1641221110320180992,2022-01-03-14:45:10,10.1.1.9,183,-0.070,-0.070,-0.070,0.000,0.000,0.000
1641221110520546816,2022-01-03-14:45:10,10.1.1.9,183,-0.060,-0.060,-0.060,0.000,0.000,0.000
1641221110720120832,2022-01-03-14:45:10,10.1.1.9,175,-0.050,-0.050,-0.050,0.000,0.000,0.000
1641221110920536064,2022-01-03-14:45:10,10.1.1.9,175,-0.040,-0.040,-0.040,0.000,0.000,0.000
1641221111119930880,2022-01-03-14:45:11,10.1.1.9,173,-0.030,-0.030,-0.030,0.000,0.000,0.000
1641221111319325952,2022-01-03-14:45:11,10.1.1.9,172,-0.020,-0.020,-0.020,0.000,0.000,0.000
1641221111539200000,2022-01-03-14:45:11,10.1.1.9,191,-0.010,-0.010,-0.010,0.000,0.000,0.000
1641221111738910976,2022-01-03-14:45:11,10.1.1.9,189,0.000,0.000,0.000,0.000,0.000,0.000
1641221111938566912,2022-01-03-14:45:11,10.1.1.9,187,-0.010,-0.010,-0.010,0.000,0.000,0.000
1641221112137906944,2022-01-03-14:45:12,10.1.1.9,186,-0.020,-0.020,-0.020,0.000,0.000,0.000
1641221112337827840,2022-01-03-14:45:12,10.1.1.9,185,-0.030,-0.030,-0.030,0.000,0.000,0.000
1641221112538592000,2022-01-03-14:45:12,10.1.1.9,185,-0.040,-0.040,-0.040,0.000,0.000,0.000
1641221112737190912,2022-01-03-14:45:12,10.1.1.9,182,-0.050,-0.050,-0.050,0.000,0.000,0.000
1641221112938263808,2022-01-03-14:45:12,10.1.1.9,182,-0.060,-0.060,-0.060,0.000,0.000,0.000
1641221113137392896,2022-01-03-14:45:13,10.1.1.9,179,-0.070,-0.070,-0.070,0.000,0.000,0.000
1641221113343777792,2022-01-03-14:45:13,10.1.1.9,184,-0.080,-0.080,-0.080,0.000,0.000,0.000
1641221113536374016,2022-01-03-14:45:13,10.1.1.9,177,-0.090,-0.090,-0.090,0.000,0.000,0.000
1641221113736471808,2022-01-03-14:45:13,10.1.1.9,176,-0.100,-0.100,-0.100,0.000,0.000,0.000
1641221113939325184,2022-01-03-14:45:13,10.1.1.9,178,-0.110,-0.110,-0.110,0.000,0.000,0.000
1641221114135745024,2022-01-03-14:45:14,10.1.1.9,174,-0.120,-0.120,-0.120,0.000,0.000,0.000
1641221114335985920,2022-01-03-14:45:14,10.1.1.9,174,-0.130,-0.130,-0.130,0.000,0.000,0.000
1641221114536016896,2022-01-03-14:45:14,10.1.1.9,173,-0.140,-0.140,-0.140,0.000,0.000,0.000
1641221114740237824,2022-01-03-14:45:14,10.1.1.9,177,-0.150,-0.150,-0.150,0.000,0.000,0.000
1641221114935045120,2022-01-03-14:45:14,10.1.1.9,171,-0.160,-0.160,-0.160,0.000,0.000,0.000
1641221115134469888,2022-01-03-14:45:15,10.1.1.9,169,-0.170,-0.170,-0.170,0.000,0.000,0.000
1641221115360843776,2022-01-03-14:45:15,10.1.1.9,194,-0.180,-0.180,-0.180,0.000,0.000,0.000
1641221115553937920,2022-01-03-14:45:15,10.1.1.9,178,-0.190,-0.190,-0.190,0.000,0.000,0.000
1641221115753428992,2022-01-03-14:45:15,10.1.1.9,177,-0.200,-0.200,-0.200,0.000,0.000,0.000
1641221115952930048,2022-01-03-14:45:15,10.1.1.9,175,-0.210,-0.210,-0.210,0.000,0.000,0.000
1641221116172792064,2022-01-03-14:45:16,10.1.1.9,194,-0.220,-0.220,-0.220,0.000,0.000,0.000
1641221116352353024,2022-01-03-14:45:16,10.1.1.9,173,-0.230,-0.230,-0.230,0.000,0.000,0.000
1641221116572477184,2022-01-03-14:45:16,10.1.1.9,193,-0.240,-0.240,-0.240,0.000,0.000,0.000
1641221116751100160,2022-01-03-14:45:16,10.1.1.9,170,-0.250,-0.250,-0.250,0.000,0.000,0.000
1641221116951777024,2022-01-03-14:45:16,10.1.1.9,170,-0.260,-0.260,-0.260,0.000,0.000,0.000
1641221117150659072,2022-01-03-14:45:17,10.1.1.9,166,-0.270,-0.270,-0.270,0.000,0.000,0.000
1641221117351100928,2022-01-03-14:45:17,10.1.1.9,166,-0.280,-0.280,-0.280,0.000,0.000,0.000
1641221117550729984,2022-01-03-14:45:17,10.1.1.9,165,-0.290,-0.290,-0.290,0.000,0.000,0.000
1641221117751100928,2022-01-03-14:45:17,10.1.1.9,165,-0.300,-0.300,-0.300,0.000,0.000,0.000
1641221117950462208,2022-01-03-14:45:17,10.1.1.9,164,-0.310,-0.310,-0.310,0.000,0.000,0.000
1641221118169944064,2022-01-03-14:45:18,10.1.1.9,182,-0.320,-0.320,-0.320,0.000,0.000,0.000
1641221118369714944,2022-01-03-14:45:18,10.1.1.9,180,-0.330,-0.330,-0.330,0.000,0.000,0.000
1641221118569161984,2022-01-03-14:45:18,10.1.1.9,179,-0.340,-0.340,-0.340,0.000,0.000,0.000
1641221118768271872,2022-01-03-14:45:18,10.1.1.9,178,-0.350,-0.350,-0.350,0.000,0.000,0.000
1641221118968222976,2022-01-03-14:45:18,10.1.1.9,177,-0.360,-0.360,-0.360,0.000,0.000,0.000
1641221119168112128,2022-01-03-14:45:19,10.1.1.9,176,-0.370,-0.370,-0.370,0.000,0.000,0.000
1641221119367572992,2022-01-03-14:45:19,10.1.1.9,175,-0.380,-0.380,-0.380,0.000,0.000,0.000
1641221119567078144,2022-01-03-14:45:19,10.1.1.9,173,-0.390,-0.390,-0.390,0.000,0.000,0.000
1641221119761420032,2022-01-03-14:45:19,10.1.1.9,166,-0.400,-0.400,-0.400,0.000,0.000,0.000
1641221119967194112,2022-01-03-14:45:19,10.1.1.9,171,-0.410,-0.410,-0.410,0.000,0.000,0.000
1641221120167772928,2022-01-03-14:45:20,10.1.1.9,167,-0.420,-0.420,-0.420,0.000,0.000,0.000
1641221120366967808,2022-01-03-14:45:20,10.1.1.9,165,-0.430,-0.430,-0.430,0.000,0.000,0.000
1641221120572197888,2022-01-03-14:45:20,10.1.1.9,168,-0.440,-0.440,-0.440,0.000,0.000,0.000
1641221120765916160,2022-01-03-14:45:20,10.1.1.9,161,-0.450,-0.450,-0.450,0.000,0.000,0.000
1641221120965633024,2022-01-03-14:45:20,10.1.1.9,159,-0.460,-0.460,-0.460,0.000,0.000,0.000
1641221121184492032,2022-01-03-14:45:21,10.1.1.9,177,-0.470,-0.470,-0.470,0.000,0.000,0.000
1641221121384695040,2022-01-03-14:45:21,10.1.1.9,176,-0.480,-0.480,-0.480,0.000,0.000,0.000
1641221121584428032,2022-01-03-14:45:21,10.1.1.9,174,-0.490,-0.490,-0.490,0.000,0.000,0.000
1641221121783494912,2022-01-03-14:45:21,10.1.1.9,172,-0.480,-0.480,-0.480,0.000,0.000,0.000
1641221121983432960,2022-01-03-14:45:21,10.1.1.9,170,-0.470,-0.470,-0.470,0.000,0.000,0.000
1641221122184355072,2022-01-03-14:45:22,10.1.1.9,169,-0.460,-0.460,-0.460,0.000,0.000,0.000
1641221122385812992,2022-01-03-14:45:22,10.1.1.9,170,-0.450,-0.450,-0.450,0.000,0.000,0.000
1641221122587232000,2022-01-03-14:45:22,10.1.1.9,169,-0.440,-0.440,-0.440,0.000,0.000,0.000
1641221122787379968,2022-01-03-14:45:22,10.1.1.9,167,-0.430,-0.430,-0.430,0.000,0.000,0.000
1641221122988510976,2022-01-03-14:45:22,10.1.1.9,167,-0.420,-0.420,-0.420,0.000,0.000,0.000
1641221123189018880,2022-01-03-14:45:23,10.1.1.9,166,-0.410,-0.410,-0.410,0.000,0.000,0.000
1641221123393479936,2022-01-03-14:45:23,10.1.1.9,170,-0.400,-0.400,-0.400,0.000,0.000,0.000
1641221123591429120,2022-01-03-14:45:23,10.1.1.9,166,-0.390,-0.390,-0.390,0.000,0.000,0.000
1641221123791635968,2022-01-03-14:45:23,10.1.1.9,165,-0.380,-0.380,-0.380,0.000,0.000,0.000
1641221123993099008,2022-01-03-14:45:23,10.1.1.9,166,-0.370,-0.370,-0.370,0.000,0.000,0.000
1641221124213234944,2022-01-03-14:45:24,10.1.1.9,185,-0.360,-0.360,-0.360,0.000,0.000,0.000
1641221124414289920,2022-01-03-14:45:24,10.1.1.9,186,-0.350,-0.350,-0.350,0.000,0.000,0.000
1641221124615009024,2022-01-03-14:45:24,10.1.1.9,186,-0.340,-0.340,-0.340,0.000,0.000,0.000
1641221124815764992,2022-01-03-14:45:24,10.1.1.9,185,-0.330,-0.330,-0.330,0.000,0.000,0.000
1641221125017195008,2022-01-03-14:45:25,10.1.1.9,186,-0.320,-0.320,-0.320,0.000,0.000,0.000
1641221125217103872,2022-01-03-14:45:25,10.1.1.9,185,-0.310,-0.310,-0.310,0.000,0.000,0.000
1641221125418011904,2022-01-03-14:45:25,10.1.1.9,185,-0.300,-0.300,-0.300,0.000,0.000,0.000
1641221125619653888,2022-01-03-14:45:25,10.1.1.9,185,-0.290,-0.290,-0.290,0.000,0.000,0.000
1641221125818452992,2022-01-03-14:45:25,10.1.1.9,183,-0.280,-0.280,-0.280,0.000,0.000,0.000
1641221126019383808,2022-01-03-14:45:26,10.1.1.9,184,-0.270,-0.270,-0.270,0.000,0.000,0.000
1641221126220180992,2022-01-03-14:45:26,10.1.1.9,183,-0.260,-0.260,-0.260,0.000,0.000,0.000
1641221126420492032,2022-01-03-14:45:26,10.1.1.9,183,-0.250,-0.250,-0.250,0.000,0.000,0.000
1641221126621944064,2022-01-03-14:45:26,10.1.1.9,184,-0.240,-0.240,-0.240,0.000,0.000,0.000
1641221126821357056,2022-01-03-14:45:26,10.1.1.9,181,-0.230,-0.230,-0.230,0.000,0.000,0.000
1641221127022582016,2022-01-03-14:45:27,10.1.1.9,182,-0.220,-0.220,-0.220,0.000,0.000,0.000
1641221127222171904,2022-01-03-14:45:27,10.1.1.9,181,-0.210,-0.210,-0.210,0.000,0.000,0.000
1641221127423293184,2022-01-03-14:45:27,10.1.1.9,180,-0.200,-0.200,-0.200,0.000,0.000,0.000
1641221127623186944,2022-01-03-14:45:27,10.1.1.9,180,-0.190,-0.190,-0.190,0.000,0.000,0.000
1641221127823928064,2022-01-03-14:45:27,10.1.1.9,180,-0.180,-0.180,-0.180,0.000,0.000,0.000
1641221128024431872,2022-01-03-14:45:28,10.1.1.9,179,-0.170,-0.170,-0.170,0.000,0.000,0.000
1641221128225917952,2022-01-03-14:45:28,10.1.1.9,179,-0.160,-0.160,-0.160,0.000,0.000,0.000
1641221128426095104,2022-01-03-14:45:28,10.1.1.9,179,-0.150,-0.150,-0.150,0.000,0.000,0.000
1641221128645720832,2022-01-03-14:45:28,10.1.1.9,195,-0.140,-0.140,-0.140,0.000,0.000,0.000
1641221128847374080,2022-01-03-14:45:28,10.1.1.9,196,-0.130,-0.130,-0.130,0.000,0.000,0.000
1641221129045686016,2022-01-03-14:45:29,10.1.1.9,192,-0.120,-0.120,-0.120,0.000,0.000,0.000
1641221129245814016,2022-01-03-14:45:29,10.1.1.9,191,-0.110,-0.110,-0.110,0.000,0.000,0.000
1641221129446504192,2022-01-03-14:45:29,10.1.1.9,191,-0.100,-0.100,-0.100,0.000,0.000,0.000
1641221129647228928,2022-01-03-14:45:29,10.1.1.9,189,-0.090,-0.090,-0.090,0.000,0.000,0.000
1641221129854230016,2022-01-03-14:45:29,10.1.1.9,195,-0.080,-0.080,-0.080,0.000,0.000,0.000
1641221130046427904,2022-01-03-14:45:30,10.1.1.9,184,-0.070,-0.070,-0.070,0.000,0.000,0.000
1641221130267489792,2022-01-03-14:45:30,10.1.1.9,195,-0.060,-0.060,-0.060,0.000,0.000,0.000
1641221130467814912,2022-01-03-14:45:30,10.1.1.9,195,-0.050,-0.050,-0.050,0.000,0.000,0.000
1641221130667512064,2022-01-03-14:45:30,10.1.1.9,194,-0.040,-0.040,-0.040,0.000,0.000,0.000
1641221130868929024,2022-01-03-14:45:30,10.1.1.9,195,-0.030,-0.030,-0.030,0.000,0.000,0.000
1641221131067492096,2022-01-03-14:45:31,10.1.1.9,193,-0.020,-0.020,-0.020,0.000,0.000,0.000
1641221131269937920,2022-01-03-14:45:31,10.1.1.9,194,-0.010,-0.010,-0.010,0.000,0.000,0.000
1641221131467608832,2022-01-03-14:45:31,10.1.1.9,191,0.000,0.000,0.000,0.000,0.000,0.000
1641221131668192000,2022-01-03-14:45:31,10.1.1.9,190,-0.010,-0.010,-0.010,0.000,0.000,0.000
1641221131871031040,2022-01-03-14:45:31,10.1.1.9,191,-0.020,-0.020,-0.020,0.000,0.000,0.000
1641221132081125888,2022-01-03-14:45:32,10.1.1.9,200,-0.030,-0.030,-0.030,0.000,0.000,0.000
1641221132267604992,2022-01-03-14:45:32,10.1.1.9,184,-0.040,-0.040,-0.040,0.000,0.000,0.000
1641221132467827200,2022-01-03-14:45:32,10.1.1.9,184,-0.050,-0.050,-0.050,0.000,0.000,0.000
1641221132668690944,2022-01-03-14:45:32,10.1.1.9,184,-0.060,-0.060,-0.060,0.000,0.000,0.000
1641221132868769792,2022-01-03-14:45:32,10.1.1.9,184,-0.070,-0.070,-0.070,0.000,0.000,0.000
1641221133070219008,2022-01-03-14:45:33,10.1.1.9,185,-0.080,-0.080,-0.080,0.000,0.000,0.000
1641221133268402176,2022-01-03-14:45:33,10.1.1.9,181,-0.090,-0.090,-0.090,0.000,0.000,0.000
1641221133467694080,2022-01-03-14:45:33,10.1.1.9,180,-0.100,-0.100,-0.100,0.000,0.000,0.000
1641221133687942144,2022-01-03-14:45:33,10.1.1.9,199,-0.110,-0.110,-0.110,0.000,0.000,0.000
1641221133887609088,2022-01-03-14:45:33,10.1.1.9,198,-0.120,-0.120,-0.120,0.000,0.000,0.000
1641221134087627776,2022-01-03-14:45:34,10.1.1.9,198,-0.130,-0.130,-0.130,0.000,0.000,0.000
1641221134289423104,2022-01-03-14:45:34,10.1.1.9,199,-0.140,-0.140,-0.140,0.000,0.000,0.000
1641221134687693056,2022-01-03-14:45:34,10.1.1.9,196,-0.160,-0.160,-0.160,0.000,0.000,0.000
1641221134887708928,2022-01-03-14:45:34,10.1.1.9,195,-0.170,-0.170,-0.170,0.000,0.000,0.000
1641221135088126976,2022-01-03-14:45:35,10.1.1.9,194,-0.180,-0.180,-0.180,0.000,0.000,0.000
1641221135288267008,2022-01-03-14:45:35,10.1.1.9,193,-0.190,-0.190,-0.190,0.000,0.000,0.000
1641221135487447040,2022-01-03-14:45:35,10.1.1.9,192,-0.200,-0.200,-0.200,0.000,0.000,0.000
1641221135687921920,2022-01-03-14:45:35,10.1.1.9,191,-0.210,-0.210,-0.210,0.000,0.000,0.000
1641221135888729088,2022-01-03-14:45:35,10.1.1.9,189,-0.220,-0.220,-0.220,0.000,0.000,0.000
1641221136087714048,2022-01-03-14:45:36,10.1.1.9,187,-0.230,-0.230,-0.230,0.000,0.000,0.000
1641221136287635200,2022-01-03-14:45:36,10.1.1.9,186,-0.240,-0.240,-0.240,0.000,0.000,0.000
1641221136487684096,2022-01-03-14:45:36,10.1.1.9,185,-0.250,-0.250,-0.250,0.000,0.000,0.000
1641221136687614976,2022-01-03-14:45:36,10.1.1.9,184,-0.260,-0.260,-0.260,0.000,0.000,0.000
1641221136887468032,2022-01-03-14:45:36,10.1.1.9,183,-0.270,-0.270,-0.270,0.000,0.000,0.000
1641221137088805888,2022-01-03-14:45:37,10.1.1.9,183,-0.280,-0.280,-0.280,0.000,0.000,0.000
1641221137288267008,2022-01-03-14:45:37,10.1.1.9,181,-0.290,-0.290,-0.290,0.000,0.000,0.000
1641221137506483968,2022-01-03-14:45:37,10.1.1.9,198,-0.300,-0.300,-0.300,0.000,0.000,0.000
1641221137706300928,2022-01-03-14:45:37,10.1.1.9,196,-0.310,-0.310,-0.310,0.000,0.000,0.000
1641221137905868032,2022-01-03-14:45:37,10.1.1.9,195,-0.320,-0.320,-0.320,0.000,0.000,0.000
1641221138106089216,2022-01-03-14:45:38,10.1.1.9,195,-0.330,-0.330,-0.330,0.000,0.000,0.000
1641221138306400000,2022-01-03-14:45:38,10.1.1.9,194,-0.340,-0.340,-0.340,0.000,0.000,0.000
1641221138505552128,2022-01-03-14:45:38,10.1.1.9,193,-0.350,-0.350,-0.350,0.000,0.000,0.000
1641221138704847104,2022-01-03-14:45:38,10.1.1.9,185,-0.360,-0.360,-0.360,0.000,0.000,0.000
1641221138904977920,2022-01-03-14:45:38,10.1.1.9,182,-0.370,-0.370,-0.370,0.000,0.000,0.000
1641221139106060032,2022-01-03-14:45:39,10.1.1.9,182,-0.380,-0.380,-0.380,0.000,0.000,0.000
1641221139304271104,2022-01-03-14:45:39,10.1.1.9,180,-0.390,-0.390,-0.390,0.000,0.000,0.000
1641221139505031936,2022-01-03-14:45:39,10.1.1.9,180,-0.400,-0.400,-0.400,0.000,0.000,0.000
1641221139723988992,2022-01-03-14:45:39,10.1.1.9,184,-0.410,-0.410,-0.410,0.000,0.000,0.000
1641221139923753984,2022-01-03-14:45:39,10.1.1.9,183,-0.420,-0.420,-0.420,0.000,0.000,0.000
1641221140125360128,2022-01-03-14:45:40,10.1.1.9,184,-0.430,-0.430,-0.430,0.000,0.000,0.000
1641221140323100928,2022-01-03-14:45:40,10.1.1.9,181,-0.440,-0.440,-0.440,0.000,0.000,0.000
1641221140522999040,2022-01-03-14:45:40,10.1.1.9,180,-0.450,-0.450,-0.450,0.000,0.000,0.000
1641221140727493120,2022-01-03-14:45:40,10.1.1.9,184,-0.460,-0.460,-0.460,0.000,0.000,0.000
1641221140922497024,2022-01-03-14:45:40,10.1.1.9,179,-0.470,-0.470,-0.470,0.000,0.000,0.000
1641221141122682112,2022-01-03-14:45:41,10.1.1.9,178,-0.480,-0.480,-0.480,0.000,0.000,0.000
1641221141324060928,2022-01-03-14:45:41,10.1.1.9,178,-0.490,-0.490,-0.490,0.000,0.000,0.000
1641221141522041088,2022-01-03-14:45:41,10.1.1.9,176,-0.480,-0.480,-0.480,0.000,0.000,0.000
1641221141961363968,2022-01-03-14:45:41,10.1.1.9,193,-0.460,-0.460,-0.460,0.000,0.000,0.000
1641221142162440960,2022-01-03-14:45:42,10.1.1.9,194,-0.450,-0.450,-0.450,0.000,0.000,0.000
1641221142361064960,2022-01-03-14:45:42,10.1.1.9,192,-0.440,-0.440,-0.440,0.000,0.000,0.000
1641221142560816896,2022-01-03-14:45:42,10.1.1.9,191,-0.430,-0.430,-0.430,0.000,0.000,0.000
1641221142805857024,2022-01-03-14:45:42,10.1.1.9,194,-0.420,-0.420,-0.420,0.000,0.000,0.000
1641221143000307200,2022-01-03-14:45:43,10.1.1.9,184,-0.410,-0.410,-0.410,0.000,0.000,0.000
1641221143200728064,2022-01-03-14:45:43,10.1.1.9,184,-0.400,-0.400,-0.400,0.000,0.000,0.000
1641221143399864832,2022-01-03-14:45:43,10.1.1.9,183,-0.390,-0.390,-0.390,0.000,0.000,0.000
1641221143600235008,2022-01-03-14:45:43,10.1.1.9,182,-0.380,-0.380,-0.380,0.000,0.000,0.000
1641221143800133888,2022-01-03-14:45:43,10.1.1.9,182,-0.370,-0.370,-0.370,0.000,0.000,0.000
1641221143999857920,2022-01-03-14:45:43,10.1.1.9,180,-0.360,-0.360,-0.360,0.000,0.000,0.000
1641221144199294976,2022-01-03-14:45:44,10.1.1.9,179,-0.350,-0.350,-0.350,0.000,0.000,0.000
1641221144399116032,2022-01-03-14:45:44,10.1.1.9,178,-0.340,-0.340,-0.340,0.000,0.000,0.000
1641221144598573824,2022-01-03-14:45:44,10.1.1.9,176,-0.330,-0.330,-0.330,0.000,0.000,0.000
1641221144798249984,2022-01-03-14:45:44,10.1.1.9,175,-0.320,-0.320,-0.320,0.000,0.000,0.000
1641221145001234944,2022-01-03-14:45:45,10.1.1.9,177,-0.310,-0.310,-0.310,0.000,0.000,0.000
1641221145197989888,2022-01-03-14:45:45,10.1.1.9,172,-0.300,-0.300,-0.300,0.000,0.000,0.000
1641221145418023168,2022-01-03-14:45:45,10.1.1.9,183,-0.290,-0.290,-0.290,0.000,0.000,0.000
1641221145617115136,2022-01-03-14:45:45,10.1.1.9,179,-0.280,-0.280,-0.280,0.000,0.000,0.000
1641221145816836096,2022-01-03-14:45:45,10.1.1.9,177,-0.270,-0.270,-0.270,0.000,0.000,0.000
1641221146017585152,2022-01-03-14:45:46,10.1.1.9,177,-0.260,-0.260,-0.260,0.000,0.000,0.000
1641221146236442112,2022-01-03-14:45:46,10.1.1.9,187,-0.250,-0.250,-0.250,0.000,0.000,0.000
1641221146435740928,2022-01-03-14:45:46,10.1.1.9,186,-0.240,-0.240,-0.240,0.000,0.000,0.000
1641221146636024832,2022-01-03-14:45:46,10.1.1.9,185,-0.230,-0.230,-0.230,0.000,0.000,0.000
1641221146835372032,2022-01-03-14:45:46,10.1.1.9,183,-0.220,-0.220,-0.220,0.000,0.000,0.000
1641221147035046144,2022-01-03-14:45:47,10.1.1.9,182,-0.210,-0.210,-0.210,0.000,0.000,0.000
1641221147234021888,2022-01-03-14:45:47,10.1.1.9,181,-0.200,-0.200,-0.200,0.000,0.000,0.000
1641221147434127104,2022-01-03-14:45:47,10.1.1.9,180,-0.190,-0.190,-0.190,0.000,0.000,0.000
1641221147634990080,2022-01-03-14:45:47,10.1.1.9,180,-0.180,-0.180,-0.180,0.000,0.000,0.000
1641221147839407872,2022-01-03-14:45:47,10.1.1.9,184,-0.170,-0.170,-0.170,0.000,0.000,0.000
1641221148033632000,2022-01-03-14:45:48,10.1.1.9,177,-0.160,-0.160,-0.160,0.000,0.000,0.000
1641221148232770816,2022-01-03-14:45:48,10.1.1.9,176,-0.150,-0.150,-0.150,0.000,0.000,0.000
1641221148432130048,2022-01-03-14:45:48,10.1.1.9,173,-0.140,-0.140,-0.140,0.000,0.000,0.000
1641221148632011008,2022-01-03-14:45:48,10.1.1.9,172,-0.130,-0.130,-0.130,0.000,0.000,0.000
1641221148832356096,2022-01-03-14:45:48,10.1.1.9,171,-0.120,-0.120,-0.120,0.000,0.000,0.000
1641221149031586048,2022-01-03-14:45:49,10.1.1.9,170,-0.110,-0.110,-0.110,0.000,0.000,0.000
1641221149231259136,2022-01-03-14:45:49,10.1.1.9,169,-0.100,-0.100,-0.100,0.000,0.000,0.000
1641221149431196928,2022-01-03-14:45:49,10.1.1.9,169,-0.090,-0.090,-0.090,0.000,0.000,0.000
1641221149630333952,2022-01-03-14:45:49,10.1.1.9,167,-0.080,-0.080,-0.080,0.000,0.000,0.000
1641221149844961024,2022-01-03-14:45:49,10.1.1.9,181,-0.070,-0.070,-0.070,0.000,0.000,0.000
1641221150031412992,2022-01-03-14:45:50,10.1.1.9,167,-0.060,-0.060,-0.060,0.000,0.000,0.000
1641221150229722880,2022-01-03-14:45:50,10.1.1.9,164,-0.050,-0.050,-0.050,0.000,0.000,0.000
1641221150430097152,2022-01-03-14:45:50,10.1.1.9,164,-0.040,-0.040,-0.040,0.000,0.000,0.000
1641221150629533952,2022-01-03-14:45:50,10.1.1.9,163,-0.030,-0.030,-0.030,0.000,0.000,0.000
1641221150849602816,2022-01-03-14:45:50,10.1.1.9,182,-0.020,-0.020,-0.020,0.000,0.000,0.000
1641221151048824064,2022-01-03-14:45:51,10.1.1.9,181,-0.010,-0.010,-0.010,0.000,0.000,0.000
1641221151248956928,2022-01-03-14:45:51,10.1.1.9,180,0.000,0.000,0.000,0.000,0.000,0.000
1641221151454978816,2022-01-03-14:45:51,10.1.1.9,185,-0.010,-0.010,-0.010,0.000,0.000,0.000
1641221151647802112,2022-01-03-14:45:51,10.1.1.9,178,-0.020,-0.020,-0.020,0.000,0.000,0.000
1641221151847769856,2022-01-03-14:45:51,10.1.1.9,177,-0.030,-0.030,-0.030,0.000,0.000,0.000
1641221152048873984,2022-01-03-14:45:52,10.1.1.9,177,-0.040,-0.040,-0.040,0.000,0.000,0.000
1641221152247116032,2022-01-03-14:45:52,10.1.1.9,175,-0.050,-0.050,-0.050,0.000,0.000,0.000
1641221152446289152,2022-01-03-14:45:52,10.1.1.9,173,-0.060,-0.060,-0.060,0.000,0.000,0.000
1641221152647028992,2022-01-03-14:45:52,10.1.1.9,174,-0.070,-0.070,-0.070,0.000,0.000,0.000
1641221152846074112,2022-01-03-14:45:52,10.1.1.9,172,-0.080,-0.080,-0.080,0.000,0.000,0.000
1641221153046272000,2022-01-03-14:45:53,10.1.1.9,171,-0.090,-0.090,-0.090,0.000,0.000,0.000
1641221153245795072,2022-01-03-14:45:53,10.1.1.9,170,-0.100,-0.100,-0.100,0.000,0.000,0.000
1641221153445703936,2022-01-03-14:45:53,10.1.1.9,169,-0.110,-0.110,-0.110,0.000,0.000,0.000
1641221153645970944,2022-01-03-14:45:53,10.1.1.9,168,-0.120,-0.120,-0.120,0.000,0.000,0.000
1641221153844880128,2022-01-03-14:45:53,10.1.1.9,164,-0.130,-0.130,-0.130,0.000,0.000,0.000
1641221154044039936,2022-01-03-14:45:54,10.1.1.9,163,-0.140,-0.140,-0.140,0.000,0.000,0.000
1641221154247962112,2022-01-03-14:45:54,10.1.1.9,166,-0.150,-0.150,-0.150,0.000,0.000,0.000
1641221154451639808,2022-01-03-14:45:54,10.1.1.9,167,-0.160,-0.160,-0.160,0.000,0.000,0.000
1641221154647793920,2022-01-03-14:45:54,10.1.1.9,162,-0.170,-0.170,-0.170,0.000,0.000,0.000
1641221154851689216,2022-01-03-14:45:54,10.1.1.9,165,-0.180,-0.180,-0.180,0.000,0.000,0.000
1641221155069206016,2022-01-03-14:45:55,10.1.1.9,182,-0.190,-0.190,-0.190,0.000,0.000,0.000
1641221155270478848,2022-01-03-14:45:55,10.1.1.9,182,-0.200,-0.200,-0.200,0.000,0.000,0.000
1641221155471510784,2022-01-03-14:45:55,10.1.1.9,183,-0.210,-0.210,-0.210,0.000,0.000,0.000
1641221155672391936,2022-01-03-14:45:55,10.1.1.9,183,-0.220,-0.220,-0.220,0.000,0.000,0.000
1641221155873271040,2022-01-03-14:45:55,10.1.1.9,184,-0.230,-0.230,-0.230,0.000,0.000,0.000
1641221156075177984,2022-01-03-14:45:56,10.1.1.9,184,-0.240,-0.240,-0.240,0.000,0.000,0.000
1641221156274859008,2022-01-03-14:45:56,10.1.1.9,183,-0.250,-0.250,-0.250,0.000,0.000,0.000
1641221156475610112,2022-01-03-14:45:56,10.1.1.9,184,-0.260,-0.260,-0.260,0.000,0.000,0.000
1641221156677791232,2022-01-03-14:45:56,10.1.1.9,184,-0.270,-0.270,-0.270,0.000,0.000,0.000
1641221156879578112,2022-01-03-14:45:56,10.1.1.9,185,-0.280,-0.280,-0.280,0.000,0.000,0.000
1641221157077016064,2022-01-03-14:45:57,10.1.1.9,179,-0.290,-0.290,-0.290,0.000,0.000,0.000
1641221157278343936,2022-01-03-14:45:57,10.1.1.9,179,-0.300,-0.300,-0.300,0.000,0.000,0.000
1641221157478827008,2022-01-03-14:45:57,10.1.1.9,179,-0.310,-0.310,-0.310,0.000,0.000,0.000
1641221157682089984,2022-01-03-14:45:57,10.1.1.9,182,-0.320,-0.320,-0.320,0.000,0.000,0.000
1641221157880695040,2022-01-03-14:45:57,10.1.1.9,179,-0.330,-0.330,-0.330,0.000,0.000,0.000
1641221158081777152,2022-01-03-14:45:58,10.1.1.9,179,-0.340,-0.340,-0.340,0.000,0.000,0.000
1641221158282962176,2022-01-03-14:45:58,10.1.1.9,179,-0.350,-0.350,-0.350,0.000,0.000,0.000
1641221158481102848,2022-01-03-14:45:58,10.1.1.9,177,-0.360,-0.360,-0.360,0.000,0.000,0.000
1641221158681533184,2022-01-03-14:45:58,10.1.1.9,177,-0.370,-0.370,-0.370,0.000,0.000,0.000
1641221158882790144,2022-01-03-14:45:58,10.1.1.9,177,-0.380,-0.380,-0.380,0.000,0.000,0.000
1641221159086558976,2022-01-03-14:45:59,10.1.1.9,180,-0.390,-0.390,-0.390,0.000,0.000,0.000
1641221159283211008,2022-01-03-14:45:59,10.1.1.9,176,-0.400,-0.400,-0.400,0.000,0.000,0.000
1641221159503619072,2022-01-03-14:45:59,10.1.1.9,196,-0.410,-0.410,-0.410,0.000,0.000,0.000
1641221159704164864,2022-01-03-14:45:59,10.1.1.9,196,-0.420,-0.420,-0.420,0.000,0.000,0.000
1641221159907426048,2022-01-03-14:45:59,10.1.1.9,198,-0.430,-0.430,-0.430,0.000,0.000,0.000
1641221160105048064,2022-01-03-14:46:00,10.1.1.9,196,-0.440,-0.440,-0.440,0.000,0.000,0.000
1641221160308655872,2022-01-03-14:46:00,10.1.1.9,199,-0.450,-0.450,-0.450,0.000,0.000,0.000
1641221160507368192,2022-01-03-14:46:00,10.1.1.9,196,-0.460,-0.460,-0.460,0.000,0.000,0.000
1641221160708411904,2022-01-03-14:46:00,10.1.1.9,196,-0.470,-0.470,-0.470,0.000,0.000,0.000
1641221160906945024,2022-01-03-14:46:00,10.1.1.9,194,-0.480,-0.480,-0.480,0.000,0.000,0.000
1641221161306881024,2022-01-03-14:46:01,10.1.1.9,192,-0.480,-0.480,-0.480,0.000,0.000,0.000
1641221161507525888,2022-01-03-14:46:01,10.1.1.9,190,-0.470,-0.470,-0.470,0.000,0.000,0.000
1641221161706754816,2022-01-03-14:46:01,10.1.1.9,187,-0.460,-0.460,-0.460,0.000,0.000,0.000
1641221162107553024,2022-01-03-14:46:02,10.1.1.9,187,-0.440,-0.440,-0.440,0.000,0.000,0.000
1641221162313467136,2022-01-03-14:46:02,10.1.1.9,192,-0.430,-0.430,-0.430,0.000,0.000,0.000
1641221162507347200,2022-01-03-14:46:02,10.1.1.9,185,-0.420,-0.420,-0.420,0.000,0.000,0.000
1641221162708011008,2022-01-03-14:46:02,10.1.1.9,182,-0.410,-0.410,-0.410,0.000,0.000,0.000
1641221162908951040,2022-01-03-14:46:02,10.1.1.9,182,-0.400,-0.400,-0.400,0.000,0.000,0.000
1641221163129085184,2022-01-03-14:46:03,10.1.1.9,200,-0.390,-0.390,-0.390,0.000,0.000,0.000
1641221163328318976,2022-01-03-14:46:03,10.1.1.9,198,-0.380,-0.380,-0.380,0.000,0.000,0.000
1641221163528172032,2022-01-03-14:46:03,10.1.1.9,198,-0.370,-0.370,-0.370,0.000,0.000,0.000
1641221163728290048,2022-01-03-14:46:03,10.1.1.9,197,-0.360,-0.360,-0.360,0.000,0.000,0.000
1641221163929027072,2022-01-03-14:46:03,10.1.1.9,197,-0.350,-0.350,-0.350,0.000,0.000,0.000
1641221164128243968,2022-01-03-14:46:04,10.1.1.9,196,-0.340,-0.340,-0.340,0.000,0.000,0.000
1641221164328190208,2022-01-03-14:46:04,10.1.1.9,195,-0.330,-0.330,-0.330,0.000,0.000,0.000
1641221164530633984,2022-01-03-14:46:04,10.1.1.9,197,-0.320,-0.320,-0.320,0.000,0.000,0.000
1641221164729180928,2022-01-03-14:46:04,10.1.1.9,195,-0.310,-0.310,-0.310,0.000,0.000,0.000
1641221164928765184,2022-01-03-14:46:04,10.1.1.9,194,-0.300,-0.300,-0.300,0.000,0.000,0.000
1641221165134073856,2022-01-03-14:46:05,10.1.1.9,199,-0.290,-0.290,-0.290,0.000,0.000,0.000
1641221165328062976,2022-01-03-14:46:05,10.1.1.9,192,-0.280,-0.280,-0.280,0.000,0.000,0.000
1641221165533670912,2022-01-03-14:46:05,10.1.1.9,198,-0.270,-0.270,-0.270,0.000,0.000,0.000
1641221165729291008,2022-01-03-14:46:05,10.1.1.9,192,-0.260,-0.260,-0.260,0.000,0.000,0.000
1641221165929688064,2022-01-03-14:46:05,10.1.1.9,189,-0.250,-0.250,-0.250,0.000,0.000,0.000
1641221166128297984,2022-01-03-14:46:06,10.1.1.9,187,-0.240,-0.240,-0.240,0.000,0.000,0.000
1641221166328183040,2022-01-03-14:46:06,10.1.1.9,186,-0.230,-0.230,-0.230,0.000,0.000,0.000
1641221166531757056,2022-01-03-14:46:06,10.1.1.9,189,-0.220,-0.220,-0.220,0.000,0.000,0.000
1641221166733395968,2022-01-03-14:46:06,10.1.1.9,189,-0.210,-0.210,-0.210,0.000,0.000,0.000
1641221166930236160,2022-01-03-14:46:06,10.1.1.9,186,-0.200,-0.200,-0.200,0.000,0.000,0.000
1641221167130151936,2022-01-03-14:46:07,10.1.1.9,185,-0.190,-0.190,-0.190,0.000,0.000,0.000
1641221167328407040,2022-01-03-14:46:07,10.1.1.9,183,-0.180,-0.180,-0.180,0.000,0.000,0.000
1641221167528109056,2022-01-03-14:46:07,10.1.1.9,182,-0.170,-0.170,-0.170,0.000,0.000,0.000
1641221167728055040,2022-01-03-14:46:07,10.1.1.9,181,-0.160,-0.160,-0.160,0.000,0.000,0.000
1641221167947990784,2022-01-03-14:46:07,10.1.1.9,199,-0.150,-0.150,-0.150,0.000,0.000,0.000
1641221168147428864,2022-01-03-14:46:08,10.1.1.9,198,-0.140,-0.140,-0.140,0.000,0.000,0.000
1641221168348505088,2022-01-03-14:46:08,10.1.1.9,198,-0.130,-0.130,-0.130,0.000,0.000,0.000
1641221168548403968,2022-01-03-14:46:08,10.1.1.9,198,-0.120,-0.120,-0.120,0.000,0.000,0.000
1641221168747874048,2022-01-03-14:46:08,10.1.1.9,197,-0.110,-0.110,-0.110,0.000,0.000,0.000
1641221169147481088,2022-01-03-14:46:09,10.1.1.9,195,-0.090,-0.090,-0.090,0.000,0.000,0.000
1641221169348601088,2022-01-03-14:46:09,10.1.1.9,196,-0.080,-0.080,-0.080,0.000,0.000,0.000
1641221169547835136,2022-01-03-14:46:09,10.1.1.9,195,-0.070,-0.070,-0.070,0.000,0.000,0.000
1641221169746365184,2022-01-03-14:46:09,10.1.1.9,190,-0.060,-0.060,-0.060,0.000,0.000,0.000
1641221169952207104,2022-01-03-14:46:09,10.1.1.9,196,-0.050,-0.050,-0.050,0.000,0.000,0.000
1641221170147699200,2022-01-03-14:46:10,10.1.1.9,190,-0.040,-0.040,-0.040,0.000,0.000,0.000
1641221170348248832,2022-01-03-14:46:10,10.1.1.9,189,-0.030,-0.030,-0.030,0.000,0.000,0.000
1641221170547756800,2022-01-03-14:46:10,10.1.1.9,189,-0.020,-0.020,-0.020,0.000,0.000,0.000
1641221170745596928,2022-01-03-14:46:10,10.1.1.9,186,-0.010,-0.010,-0.010,0.000,0.000,0.000
1641221170946430976,2022-01-03-14:46:10,10.1.1.9,186,0.000,0.000,0.000,0.000,0.000,0.000
1641221171160207104,2022-01-03-14:46:11,10.1.1.9,199,-0.010,-0.010,-0.010,0.000,0.000,0.000
1641221171348712960,2022-01-03-14:46:11,10.1.1.9,187,-0.020,-0.020,-0.020,0.000,0.000,0.000
1641221171545173760,2022-01-03-14:46:11,10.1.1.9,182,-0.030,-0.030,-0.030,0.000,0.000,0.000
1641221171745129984,2022-01-03-14:46:11,10.1.1.9,182,-0.040,-0.040,-0.040,0.000,0.000,0.000
1641221171945129984,2022-01-03-14:46:11,10.1.1.9,181,-0.050,-0.050,-0.050,0.000,0.000,0.000
1641221172144495872,2022-01-03-14:46:12,10.1.1.9,180,-0.060,-0.060,-0.060,0.000,0.000,0.000
1641221172344769024,2022-01-03-14:46:12,10.1.1.9,179,-0.070,-0.070,-0.070,0.000,0.000,0.000
1641221172543673088,2022-01-03-14:46:12,10.1.1.9,177,-0.080,-0.080,-0.080,0.000,0.000,0.000
1641221172743640064,2022-01-03-14:46:12,10.1.1.9,176,-0.090,-0.090,-0.090,0.000,0.000,0.000
1641221172963921920,2022-01-03-14:46:12,10.1.1.9,196,-0.100,-0.100,-0.100,0.000,0.000,0.000
