FedericoMungari/DigitalTwin_service/01_WiredScenario/Output/Output_script/script_rosapi_2_output_robots8_freq0_2.txt
timestamp,date,node,latency,joint_1,joint_2,joint_3,joint_4,joint_5,joint_6
1643293142963789056,2022-01-27-14:19:02,10.1.1.3,31,-0.011,-0.011,-0.011,0.000,0.000,0.000
1643293143165190912,2022-01-27-14:19:03,10.1.1.3,29,-0.020,-0.020,-0.020,0.000,0.000,0.000
1643293143366752000,2022-01-27-14:19:03,10.1.1.3,29,-0.030,-0.030,-0.030,0.000,0.000,0.000
1643293143566199040,2022-01-27-14:19:03,10.1.1.3,28,-0.040,-0.040,-0.040,0.000,0.000,0.000
1643293143763299072,2022-01-27-14:19:03,10.1.1.3,24,-0.050,-0.050,-0.050,0.000,0.000,0.000
1643293143966820096,2022-01-27-14:19:03,10.1.1.3,26,-0.060,-0.060,-0.060,0.000,0.000,0.000
1643293144167113984,2022-01-27-14:19:04,10.1.1.3,26,-0.070,-0.070,-0.070,0.000,0.000,0.000
1643293144365655040,2022-01-27-14:19:04,10.1.1.3,22,-0.080,-0.080,-0.080,0.000,0.000,0.000
1643293144566524928,2022-01-27-14:19:04,10.1.1.3,20,-0.090,-0.090,-0.090,0.000,0.000,0.000
1643293144764172032,2022-01-27-14:19:04,10.1.1.3,17,-0.100,-0.100,-0.100,0.000,0.000,0.000
1643293144985879808,2022-01-27-14:19:04,10.1.1.3,38,-0.111,-0.111,-0.111,0.000,0.000,0.000
1643293145184166912,2022-01-27-14:19:05,10.1.1.3,35,-0.121,-0.121,-0.121,0.000,0.000,0.000
1643293145384079104,2022-01-27-14:19:05,10.1.1.3,34,-0.131,-0.131,-0.131,0.000,0.000,0.000
1643293145584471040,2022-01-27-14:19:05,10.1.1.3,33,-0.141,-0.141,-0.141,0.000,0.000,0.000
1643293145784560896,2022-01-27-14:19:05,10.1.1.3,33,-0.151,-0.151,-0.151,0.000,0.000,0.000
1643293145985435136,2022-01-27-14:19:05,10.1.1.3,33,-0.161,-0.161,-0.161,0.000,0.000,0.000
1643293146186098176,2022-01-27-14:19:06,10.1.1.3,31,-0.170,-0.170,-0.170,0.000,0.000,0.000
1643293146383862016,2022-01-27-14:19:06,10.1.1.3,27,-0.180,-0.180,-0.180,0.000,0.000,0.000
1643293146585464832,2022-01-27-14:19:06,10.1.1.3,29,-0.190,-0.190,-0.190,0.000,0.000,0.000
1643293146784858112,2022-01-27-14:19:06,10.1.1.3,26,-0.200,-0.200,-0.200,0.000,0.000,0.000
1643293146985032960,2022-01-27-14:19:06,10.1.1.3,26,-0.210,-0.210,-0.210,0.000,0.000,0.000
1643293147189757184,2022-01-27-14:19:07,10.1.1.3,30,-0.220,-0.220,-0.220,0.000,0.000,0.000
1643293147385804800,2022-01-27-14:19:07,10.1.1.3,25,-0.230,-0.230,-0.230,0.000,0.000,0.000
1643293147586905088,2022-01-27-14:19:07,10.1.1.3,26,-0.240,-0.240,-0.240,0.000,0.000,0.000
1643293147785465856,2022-01-27-14:19:07,10.1.1.3,22,-0.250,-0.250,-0.250,0.000,0.000,0.000
1643293148007885056,2022-01-27-14:19:08,10.1.1.3,44,-0.261,-0.261,-0.261,0.000,0.000,0.000
1643293148205296128,2022-01-27-14:19:08,10.1.1.3,41,-0.271,-0.271,-0.271,0.000,0.000,0.000
1643293148387748096,2022-01-27-14:19:08,10.1.1.3,21,-0.280,-0.280,-0.280,0.000,0.000,0.000
1643293148608151808,2022-01-27-14:19:08,10.1.1.3,41,-0.291,-0.291,-0.291,0.000,0.000,0.000
1643293148807620096,2022-01-27-14:19:08,10.1.1.3,39,-0.301,-0.301,-0.301,0.000,0.000,0.000
1643293149004872192,2022-01-27-14:19:09,10.1.1.3,35,-0.311,-0.311,-0.311,0.000,0.000,0.000
1643293149205399040,2022-01-27-14:19:09,10.1.1.3,35,-0.321,-0.321,-0.321,0.000,0.000,0.000
1643293149405359872,2022-01-27-14:19:09,10.1.1.3,35,-0.331,-0.331,-0.331,0.000,0.000,0.000
1643293149604571136,2022-01-27-14:19:09,10.1.1.3,34,-0.341,-0.341,-0.341,0.000,0.000,0.000
1643293149805382912,2022-01-27-14:19:09,10.1.1.3,33,-0.350,-0.350,-0.350,0.000,0.000,0.000
1643293150028846080,2022-01-27-14:19:10,10.1.1.3,55,-0.361,-0.361,-0.361,0.000,0.000,0.000
1643293150206556160,2022-01-27-14:19:10,10.1.1.3,25,-0.370,-0.370,-0.370,0.000,0.000,0.000
1643293150406400000,2022-01-27-14:19:10,10.1.1.3,25,-0.380,-0.380,-0.380,0.000,0.000,0.000
1643293150607196928,2022-01-27-14:19:10,10.1.1.3,25,-0.390,-0.390,-0.390,0.000,0.000,0.000
1643293150826440192,2022-01-27-14:19:10,10.1.1.3,42,-0.401,-0.401,-0.401,0.000,0.000,0.000
1643293151007517184,2022-01-27-14:19:11,10.1.1.3,21,-0.410,-0.410,-0.410,0.000,0.000,0.000
1643293151228115968,2022-01-27-14:19:11,10.1.1.3,42,-0.421,-0.421,-0.421,0.000,0.000,0.000
1643293151424771072,2022-01-27-14:19:11,10.1.1.3,38,-0.431,-0.431,-0.431,0.000,0.000,0.000
1643293151626051072,2022-01-27-14:19:11,10.1.1.3,37,-0.441,-0.441,-0.441,0.000,0.000,0.000
1643293151824951808,2022-01-27-14:19:11,10.1.1.3,36,-0.451,-0.451,-0.451,0.000,0.000,0.000
1643293152027014144,2022-01-27-14:19:12,10.1.1.3,37,-0.461,-0.461,-0.461,0.000,0.000,0.000
1643293152227020032,2022-01-27-14:19:12,10.1.1.3,33,-0.470,-0.470,-0.470,0.000,0.000,0.000
1643293152428513024,2022-01-27-14:19:12,10.1.1.3,23,-0.480,-0.480,-0.480,0.000,0.000,0.000
1643293152609648896,2022-01-27-14:19:12,10.1.1.3,1,-0.489,-0.489,-0.489,0.000,0.000,0.000
1643293152844876032,2022-01-27-14:19:12,10.1.1.3,35,-0.479,-0.479,-0.479,0.000,0.000,0.000
1643293153047421952,2022-01-27-14:19:13,10.1.1.3,37,-0.469,-0.469,-0.469,0.000,0.000,0.000
1643293153265607168,2022-01-27-14:19:13,10.1.1.3,54,-0.459,-0.459,-0.459,0.000,0.000,0.000
1643293153458082048,2022-01-27-14:19:13,10.1.1.3,46,-0.449,-0.449,-0.449,0.000,0.000,0.000
1643293153645436160,2022-01-27-14:19:13,10.1.1.3,32,-0.439,-0.439,-0.439,0.000,0.000,0.000
1643293153859128064,2022-01-27-14:19:13,10.1.1.3,43,-0.430,-0.430,-0.430,0.000,0.000,0.000
1643293154047143936,2022-01-27-14:19:14,10.1.1.3,32,-0.419,-0.419,-0.419,0.000,0.000,0.000
1643293154276709120,2022-01-27-14:19:14,10.1.1.3,60,-0.410,-0.410,-0.410,0.000,0.000,0.000
1643293154445838080,2022-01-27-14:19:14,10.1.1.3,28,-0.400,-0.400,-0.400,0.000,0.000,0.000
1643293154647516928,2022-01-27-14:19:14,10.1.1.3,28,-0.390,-0.390,-0.390,0.000,0.000,0.000
1643293154845540096,2022-01-27-14:19:14,10.1.1.3,25,-0.380,-0.380,-0.380,0.000,0.000,0.000
1643293155044087808,2022-01-27-14:19:15,10.1.1.3,23,-0.370,-0.370,-0.370,0.000,0.000,0.000
1643293155244987136,2022-01-27-14:19:15,10.1.1.3,24,-0.360,-0.360,-0.360,0.000,0.000,0.000
1643293155466892032,2022-01-27-14:19:15,10.1.1.3,45,-0.349,-0.349,-0.349,0.000,0.000,0.000
1643293155664089856,2022-01-27-14:19:15,10.1.1.3,40,-0.339,-0.339,-0.339,0.000,0.000,0.000
1643293155845923072,2022-01-27-14:19:15,10.1.1.3,20,-0.330,-0.330,-0.330,0.000,0.000,0.000
1643293156065520896,2022-01-27-14:19:16,10.1.1.3,39,-0.319,-0.319,-0.319,0.000,0.000,0.000
1643293156264007168,2022-01-27-14:19:16,10.1.1.3,37,-0.309,-0.309,-0.309,0.000,0.000,0.000
1643293156464570112,2022-01-27-14:19:16,10.1.1.3,37,-0.299,-0.299,-0.299,0.000,0.000,0.000
1643293156665978880,2022-01-27-14:19:16,10.1.1.3,38,-0.289,-0.289,-0.289,0.000,0.000,0.000
1643293156866957824,2022-01-27-14:19:16,10.1.1.3,37,-0.279,-0.279,-0.279,0.000,0.000,0.000
1643293157068801024,2022-01-27-14:19:17,10.1.1.3,38,-0.269,-0.269,-0.269,0.000,0.000,0.000
1643293157265531136,2022-01-27-14:19:17,10.1.1.3,34,-0.259,-0.259,-0.259,0.000,0.000,0.000
1643293157468508928,2022-01-27-14:19:17,10.1.1.3,37,-0.250,-0.250,-0.250,0.000,0.000,0.000
1643293157666269184,2022-01-27-14:19:17,10.1.1.3,24,-0.240,-0.240,-0.240,0.000,0.000,0.000
1643293157864169984,2022-01-27-14:19:17,10.1.1.3,22,-0.230,-0.230,-0.230,0.000,0.000,0.000
1643293158085509120,2022-01-27-14:19:18,10.1.1.3,37,-0.219,-0.219,-0.219,0.000,0.000,0.000
1643293158290784000,2022-01-27-14:19:18,10.1.1.3,43,-0.209,-0.209,-0.209,0.000,0.000,0.000
1643293158486060032,2022-01-27-14:19:18,10.1.1.3,38,-0.199,-0.199,-0.199,0.000,0.000,0.000
1643293158684856832,2022-01-27-14:19:18,10.1.1.3,35,-0.189,-0.189,-0.189,0.000,0.000,0.000
1643293158886364928,2022-01-27-14:19:18,10.1.1.3,35,-0.179,-0.179,-0.179,0.000,0.000,0.000
1643293159087491072,2022-01-27-14:19:19,10.1.1.3,30,-0.170,-0.170,-0.170,0.000,0.000,0.000
1643293159285389056,2022-01-27-14:19:19,10.1.1.3,25,-0.160,-0.160,-0.160,0.000,0.000,0.000
1643293159485150976,2022-01-27-14:19:19,10.1.1.3,26,-0.150,-0.150,-0.150,0.000,0.000,0.000
1643293159685062912,2022-01-27-14:19:19,10.1.1.3,25,-0.140,-0.140,-0.140,0.000,0.000,0.000
1643293159883462912,2022-01-27-14:19:19,10.1.1.3,23,-0.130,-0.130,-0.130,0.000,0.000,0.000
1643293160086604032,2022-01-27-14:19:20,10.1.1.3,26,-0.120,-0.120,-0.120,0.000,0.000,0.000
1643293160285679104,2022-01-27-14:19:20,10.1.1.3,24,-0.110,-0.110,-0.110,0.000,0.000,0.000
1643293160483742976,2022-01-27-14:19:20,10.1.1.3,21,-0.100,-0.100,-0.100,0.000,0.000,0.000
1643293160684804864,2022-01-27-14:19:20,10.1.1.3,21,-0.090,-0.090,-0.090,0.000,0.000,0.000
1643293160884759040,2022-01-27-14:19:20,10.1.1.3,21,-0.080,-0.080,-0.080,0.000,0.000,0.000
1643293161105415168,2022-01-27-14:19:21,10.1.1.3,41,-0.069,-0.069,-0.069,0.000,0.000,0.000
1643293161305839104,2022-01-27-14:19:21,10.1.1.3,40,-0.059,-0.059,-0.059,0.000,0.000,0.000
1643293161506053888,2022-01-27-14:19:21,10.1.1.3,39,-0.049,-0.049,-0.049,0.000,0.000,0.000
1643293161707712000,2022-01-27-14:19:21,10.1.1.3,40,-0.039,-0.039,-0.039,0.000,0.000,0.000
1643293161906575872,2022-01-27-14:19:21,10.1.1.3,38,-0.029,-0.029,-0.029,0.000,0.000,0.000
1643293162145099008,2022-01-27-14:19:22,10.1.1.3,47,-0.019,-0.019,-0.019,0.000,0.000,0.000
1643293162347326976,2022-01-27-14:19:22,10.1.1.3,44,-0.009,-0.009,-0.009,0.000,0.000,0.000
1643293162546701824,2022-01-27-14:19:22,10.1.1.3,36,-0.001,-0.001,-0.001,0.000,0.000,0.000
1643293162745472000,2022-01-27-14:19:22,10.1.1.3,33,-0.011,-0.011,-0.011,0.000,0.000,0.000
1643293162937374976,2022-01-27-14:19:22,10.1.1.3,25,-0.020,-0.020,-0.020,0.000,0.000,0.000
1643293163145510912,2022-01-27-14:19:23,10.1.1.3,30,-0.031,-0.031,-0.031,0.000,0.000,0.000
1643293163344907008,2022-01-27-14:19:23,10.1.1.3,28,-0.040,-0.040,-0.040,0.000,0.000,0.000
1643293163545757952,2022-01-27-14:19:23,10.1.1.3,29,-0.050,-0.050,-0.050,0.000,0.000,0.000
1643293163747243008,2022-01-27-14:19:23,10.1.1.3,30,-0.060,-0.060,-0.060,0.000,0.000,0.000
1643293163946795008,2022-01-27-14:19:23,10.1.1.3,28,-0.070,-0.070,-0.070,0.000,0.000,0.000
1643293164144289024,2022-01-27-14:19:24,10.1.1.3,24,-0.080,-0.080,-0.080,0.000,0.000,0.000
1643293164345747968,2022-01-27-14:19:24,10.1.1.3,24,-0.090,-0.090,-0.090,0.000,0.000,0.000
1643293164545725952,2022-01-27-14:19:24,10.1.1.3,24,-0.100,-0.100,-0.100,0.000,0.000,0.000
1643293164745592064,2022-01-27-14:19:24,10.1.1.3,23,-0.110,-0.110,-0.110,0.000,0.000,0.000
1643293164944781056,2022-01-27-14:19:24,10.1.1.3,21,-0.120,-0.120,-0.120,0.000,0.000,0.000
1643293165145459968,2022-01-27-14:19:25,10.1.1.3,20,-0.130,-0.130,-0.130,0.000,0.000,0.000
1643293165344461056,2022-01-27-14:19:25,10.1.1.3,18,-0.140,-0.140,-0.140,0.000,0.000,0.000
1643293165565777920,2022-01-27-14:19:25,10.1.1.3,39,-0.151,-0.151,-0.151,0.000,0.000,0.000
1643293165766297088,2022-01-27-14:19:25,10.1.1.3,39,-0.161,-0.161,-0.161,0.000,0.000,0.000
1643293165964900864,2022-01-27-14:19:25,10.1.1.3,36,-0.171,-0.171,-0.171,0.000,0.000,0.000
1643293166167128064,2022-01-27-14:19:26,10.1.1.3,37,-0.181,-0.181,-0.181,0.000,0.000,0.000
1643293166366742016,2022-01-27-14:19:26,10.1.1.3,33,-0.191,-0.191,-0.191,0.000,0.000,0.000
1643293166565745152,2022-01-27-14:19:26,10.1.1.3,35,-0.201,-0.201,-0.201,0.000,0.000,0.000
1643293166766643968,2022-01-27-14:19:26,10.1.1.3,35,-0.211,-0.211,-0.211,0.000,0.000,0.000
1643293166966775808,2022-01-27-14:19:26,10.1.1.3,34,-0.220,-0.220,-0.220,0.000,0.000,0.000
1643293167164019200,2022-01-27-14:19:27,10.1.1.3,31,-0.230,-0.230,-0.230,0.000,0.000,0.000
1643293167367836928,2022-01-27-14:19:27,10.1.1.3,32,-0.240,-0.240,-0.240,0.000,0.000,0.000
1643293167565943040,2022-01-27-14:19:27,10.1.1.3,29,-0.250,-0.250,-0.250,0.000,0.000,0.000
1643293167768930816,2022-01-27-14:19:27,10.1.1.3,32,-0.260,-0.260,-0.260,0.000,0.000,0.000
1643293167992114176,2022-01-27-14:19:27,10.1.1.3,31,-0.270,-0.270,-0.270,0.000,0.000,0.000
1643293168222196224,2022-01-27-14:19:28,10.1.1.3,60,-0.280,-0.280,-0.280,0.000,0.000,0.000
1643293168384641792,2022-01-27-14:19:28,10.1.1.3,22,-0.290,-0.290,-0.290,0.000,0.000,0.000
1643293168587188992,2022-01-27-14:19:28,10.1.1.3,24,-0.300,-0.300,-0.300,0.000,0.000,0.000
1643293168788994048,2022-01-27-14:19:28,10.1.1.3,25,-0.310,-0.310,-0.310,0.000,0.000,0.000
1643293169005666048,2022-01-27-14:19:29,10.1.1.3,38,-0.321,-0.321,-0.321,0.000,0.000,0.000
1643293169203991808,2022-01-27-14:19:29,10.1.1.3,34,-0.331,-0.331,-0.331,0.000,0.000,0.000
1643293169403624960,2022-01-27-14:19:29,10.1.1.3,32,-0.341,-0.341,-0.341,0.000,0.000,0.000
1643293169606599936,2022-01-27-14:19:29,10.1.1.3,34,-0.351,-0.351,-0.351,0.000,0.000,0.000
1643293169803916032,2022-01-27-14:19:29,10.1.1.3,30,-0.361,-0.361,-0.361,0.000,0.000,0.000
1643293170007249152,2022-01-27-14:19:30,10.1.1.3,30,-0.370,-0.370,-0.370,0.000,0.000,0.000
1643293170203810816,2022-01-27-14:19:30,10.1.1.3,26,-0.380,-0.380,-0.380,0.000,0.000,0.000
1643293170408529920,2022-01-27-14:19:30,10.1.1.3,30,-0.390,-0.390,-0.390,0.000,0.000,0.000
1643293170605511936,2022-01-27-14:19:30,10.1.1.3,26,-0.400,-0.400,-0.400,0.000,0.000,0.000
1643293170810374912,2022-01-27-14:19:30,10.1.1.3,29,-0.410,-0.410,-0.410,0.000,0.000,0.000
1643293171005157120,2022-01-27-14:19:31,10.1.1.3,24,-0.420,-0.420,-0.420,0.000,0.000,0.000
1643293171205831936,2022-01-27-14:19:31,10.1.1.3,24,-0.430,-0.430,-0.430,0.000,0.000,0.000
1643293171405616128,2022-01-27-14:19:31,10.1.1.3,24,-0.440,-0.440,-0.440,0.000,0.000,0.000
1643293171604169984,2022-01-27-14:19:31,10.1.1.3,21,-0.450,-0.450,-0.450,0.000,0.000,0.000
1643293171806768896,2022-01-27-14:19:31,10.1.1.3,23,-0.460,-0.460,-0.460,0.000,0.000,0.000
1643293172005659136,2022-01-27-14:19:32,10.1.1.3,21,-0.470,-0.470,-0.470,0.000,0.000,0.000
1643293172225282816,2022-01-27-14:19:32,10.1.1.3,40,-0.481,-0.481,-0.481,0.000,0.000,0.000
1643293172386967808,2022-01-27-14:19:32,10.1.1.3,1,-0.489,-0.489,-0.489,0.000,0.000,0.000
1643293172629826048,2022-01-27-14:19:32,10.1.1.3,44,-0.479,-0.479,-0.479,0.000,0.000,0.000
1643293172829031936,2022-01-27-14:19:32,10.1.1.3,42,-0.469,-0.469,-0.469,0.000,0.000,0.000
1643293173026025984,2022-01-27-14:19:33,10.1.1.3,36,-0.459,-0.459,-0.459,0.000,0.000,0.000
1643293173225428224,2022-01-27-14:19:33,10.1.1.3,35,-0.449,-0.449,-0.449,0.000,0.000,0.000
1643293173424824832,2022-01-27-14:19:33,10.1.1.3,35,-0.439,-0.439,-0.439,0.000,0.000,0.000
1643293173626040064,2022-01-27-14:19:33,10.1.1.3,35,-0.429,-0.429,-0.429,0.000,0.000,0.000
1643293173824420096,2022-01-27-14:19:33,10.1.1.3,33,-0.419,-0.419,-0.419,0.000,0.000,0.000
1643293174025696000,2022-01-27-14:19:34,10.1.1.3,34,-0.409,-0.409,-0.409,0.000,0.000,0.000
1643293174225938944,2022-01-27-14:19:34,10.1.1.3,33,-0.400,-0.400,-0.400,0.000,0.000,0.000
1643293174424654080,2022-01-27-14:19:34,10.1.1.3,30,-0.389,-0.389,-0.389,0.000,0.000,0.000
1643293174626342912,2022-01-27-14:19:34,10.1.1.3,30,-0.380,-0.380,-0.380,0.000,0.000,0.000
1643293174823965184,2022-01-27-14:19:34,10.1.1.3,25,-0.370,-0.370,-0.370,0.000,0.000,0.000
1643293175028972032,2022-01-27-14:19:35,10.1.1.3,29,-0.360,-0.360,-0.360,0.000,0.000,0.000
1643293175226138112,2022-01-27-14:19:35,10.1.1.3,26,-0.350,-0.350,-0.350,0.000,0.000,0.000
1643293175425575936,2022-01-27-14:19:35,10.1.1.3,25,-0.340,-0.340,-0.340,0.000,0.000,0.000
1643293175627312896,2022-01-27-14:19:35,10.1.1.3,26,-0.330,-0.330,-0.330,0.000,0.000,0.000
1643293175825711104,2022-01-27-14:19:35,10.1.1.3,24,-0.320,-0.320,-0.320,0.000,0.000,0.000
1643293176046190080,2022-01-27-14:19:36,10.1.1.3,43,-0.309,-0.309,-0.309,0.000,0.000,0.000
1643293176246588928,2022-01-27-14:19:36,10.1.1.3,39,-0.299,-0.299,-0.299,0.000,0.000,0.000
1643293176446333952,2022-01-27-14:19:36,10.1.1.3,35,-0.289,-0.289,-0.289,0.000,0.000,0.000
1643293176645899008,2022-01-27-14:19:36,10.1.1.3,34,-0.279,-0.279,-0.279,0.000,0.000,0.000
1643293176846009088,2022-01-27-14:19:36,10.1.1.3,36,-0.269,-0.269,-0.269,0.000,0.000,0.000
1643293177046715904,2022-01-27-14:19:37,10.1.1.3,36,-0.259,-0.259,-0.259,0.000,0.000,0.000
1643293177243663104,2022-01-27-14:19:37,10.1.1.3,30,-0.249,-0.249,-0.249,0.000,0.000,0.000
1643293177445954048,2022-01-27-14:19:37,10.1.1.3,31,-0.239,-0.239,-0.239,0.000,0.000,0.000
1643293177647269888,2022-01-27-14:19:37,10.1.1.3,31,-0.230,-0.230,-0.230,0.000,0.000,0.000
1643293177843540992,2022-01-27-14:19:37,10.1.1.3,23,-0.220,-0.220,-0.220,0.000,0.000,0.000
1643293178043319040,2022-01-27-14:19:38,10.1.1.3,22,-0.210,-0.210,-0.210,0.000,0.000,0.000
1643293178244140032,2022-01-27-14:19:38,10.1.1.3,22,-0.200,-0.200,-0.200,0.000,0.000,0.000
1643293178467851008,2022-01-27-14:19:38,10.1.1.3,44,-0.189,-0.189,-0.189,0.000,0.000,0.000
1643293178665255936,2022-01-27-14:19:38,10.1.1.3,29,-0.180,-0.180,-0.180,0.000,0.000,0.000
1643293178865670912,2022-01-27-14:19:38,10.1.1.3,29,-0.170,-0.170,-0.170,0.000,0.000,0.000
1643293179066159104,2022-01-27-14:19:39,10.1.1.3,28,-0.160,-0.160,-0.160,0.000,0.000,0.000
1643293179264986112,2022-01-27-14:19:39,10.1.1.3,26,-0.149,-0.149,-0.149,0.000,0.000,0.000
1643293179466770944,2022-01-27-14:19:39,10.1.1.3,27,-0.140,-0.140,-0.140,0.000,0.000,0.000
1643293179667234816,2022-01-27-14:19:39,10.1.1.3,25,-0.130,-0.130,-0.130,0.000,0.000,0.000
1643293179866366976,2022-01-27-14:19:39,10.1.1.3,22,-0.120,-0.120,-0.120,0.000,0.000,0.000
1643293180066711040,2022-01-27-14:19:40,10.1.1.3,23,-0.110,-0.110,-0.110,0.000,0.000,0.000
1643293180266139904,2022-01-27-14:19:40,10.1.1.3,22,-0.100,-0.100,-0.100,0.000,0.000,0.000
1643293180466381056,2022-01-27-14:19:40,10.1.1.3,19,-0.090,-0.090,-0.090,0.000,0.000,0.000
1643293180685571840,2022-01-27-14:19:40,10.1.1.3,37,-0.079,-0.079,-0.079,0.000,0.000,0.000
1643293180887618048,2022-01-27-14:19:40,10.1.1.3,38,-0.069,-0.069,-0.069,0.000,0.000,0.000
1643293181086927872,2022-01-27-14:19:41,10.1.1.3,37,-0.059,-0.059,-0.059,0.000,0.000,0.000
1643293181286233856,2022-01-27-14:19:41,10.1.1.3,35,-0.049,-0.049,-0.049,0.000,0.000,0.000
1643293181486375936,2022-01-27-14:19:41,10.1.1.3,34,-0.040,-0.040,-0.040,0.000,0.000,0.000
1643293181686526976,2022-01-27-14:19:41,10.1.1.3,32,-0.029,-0.029,-0.029,0.000,0.000,0.000
1643293181887643136,2022-01-27-14:19:41,10.1.1.3,33,-0.020,-0.020,-0.020,0.000,0.000,0.000
1643293182086652160,2022-01-27-14:19:42,10.1.1.3,31,-0.009,-0.009,-0.009,0.000,0.000,0.000
1643293182265103104,2022-01-27-14:19:42,10.1.1.3,9,-0.000,-0.000,-0.000,0.000,0.000,0.000
1643293182484983040,2022-01-27-14:19:42,10.1.1.3,28,-0.010,-0.010,-0.010,0.000,0.000,0.000
1643293182684536064,2022-01-27-14:19:42,10.1.1.3,26,-0.020,-0.020,-0.020,0.000,0.000,0.000
1643293182885086976,2022-01-27-14:19:42,10.1.1.3,27,-0.030,-0.030,-0.030,0.000,0.000,0.000
1643293183086283008,2022-01-27-14:19:43,10.1.1.3,27,-0.040,-0.040,-0.040,0.000,0.000,0.000
1643293183286237952,2022-01-27-14:19:43,10.1.1.3,26,-0.050,-0.050,-0.050,0.000,0.000,0.000
1643293183487986944,2022-01-27-14:19:43,10.1.1.3,27,-0.060,-0.060,-0.060,0.000,0.000,0.000
1643293183685821952,2022-01-27-14:19:43,10.1.1.3,24,-0.070,-0.070,-0.070,0.000,0.000,0.000
1643293183885939968,2022-01-27-14:19:43,10.1.1.3,23,-0.080,-0.080,-0.080,0.000,0.000,0.000
1643293184086605056,2022-01-27-14:19:44,10.1.1.3,19,-0.090,-0.090,-0.090,0.000,0.000,0.000
1643293184306287104,2022-01-27-14:19:44,10.1.1.3,38,-0.101,-0.101,-0.101,0.000,0.000,0.000
1643293184508752128,2022-01-27-14:19:44,10.1.1.3,40,-0.111,-0.111,-0.111,0.000,0.000,0.000
1643293184708566784,2022-01-27-14:19:44,10.1.1.3,39,-0.121,-0.121,-0.121,0.000,0.000,0.000
1643293184904699136,2022-01-27-14:19:44,10.1.1.3,35,-0.131,-0.131,-0.131,0.000,0.000,0.000
1643293185103416832,2022-01-27-14:19:45,10.1.1.3,33,-0.141,-0.141,-0.141,0.000,0.000,0.000
1643293185307490048,2022-01-27-14:19:45,10.1.1.3,37,-0.151,-0.151,-0.151,0.000,0.000,0.000
1643293185504560896,2022-01-27-14:19:45,10.1.1.3,33,-0.161,-0.161,-0.161,0.000,0.000,0.000
1643293185706515200,2022-01-27-14:19:45,10.1.1.3,35,-0.171,-0.171,-0.171,0.000,0.000,0.000
1643293185905308928,2022-01-27-14:19:45,10.1.1.3,32,-0.181,-0.181,-0.181,0.000,0.000,0.000
1643293186105655040,2022-01-27-14:19:46,10.1.1.3,32,-0.191,-0.191,-0.191,0.000,0.000,0.000
1643293186307450112,2022-01-27-14:19:46,10.1.1.3,33,-0.201,-0.201,-0.201,0.000,0.000,0.000
1643293186505833984,2022-01-27-14:19:46,10.1.1.3,30,-0.211,-0.211,-0.211,0.000,0.000,0.000
1643293186705857024,2022-01-27-14:19:46,10.1.1.3,29,-0.220,-0.220,-0.220,0.000,0.000,0.000
1643293186903609088,2022-01-27-14:19:46,10.1.1.3,27,-0.230,-0.230,-0.230,0.000,0.000,0.000
1643293187107420928,2022-01-27-14:19:47,10.1.1.3,30,-0.240,-0.240,-0.240,0.000,0.000,0.000
1643293187306231040,2022-01-27-14:19:47,10.1.1.3,28,-0.250,-0.250,-0.250,0.000,0.000,0.000
1643293187504411904,2022-01-27-14:19:47,10.1.1.3,26,-0.260,-0.260,-0.260,0.000,0.000,0.000
1643293187706376960,2022-01-27-14:19:47,10.1.1.3,27,-0.270,-0.270,-0.270,0.000,0.000,0.000
1643293187907408896,2022-01-27-14:19:47,10.1.1.3,27,-0.280,-0.280,-0.280,0.000,0.000,0.000
1643293188104069888,2022-01-27-14:19:48,10.1.1.3,23,-0.290,-0.290,-0.290,0.000,0.000,0.000
1643293188305996800,2022-01-27-14:19:48,10.1.1.3,22,-0.300,-0.300,-0.300,0.000,0.000,0.000
1643293188528111104,2022-01-27-14:19:48,10.1.1.3,43,-0.311,-0.311,-0.311,0.000,0.000,0.000
1643293188726761984,2022-01-27-14:19:48,10.1.1.3,35,-0.321,-0.321,-0.321,0.000,0.000,0.000
1643293188925187072,2022-01-27-14:19:48,10.1.1.3,32,-0.331,-0.331,-0.331,0.000,0.000,0.000
1643293189127136000,2022-01-27-14:19:49,10.1.1.3,31,-0.341,-0.341,-0.341,0.000,0.000,0.000
1643293189326009088,2022-01-27-14:19:49,10.1.1.3,29,-0.350,-0.350,-0.350,0.000,0.000,0.000
1643293189525755904,2022-01-27-14:19:49,10.1.1.3,28,-0.360,-0.360,-0.360,0.000,0.000,0.000
1643293189726342912,2022-01-27-14:19:49,10.1.1.3,26,-0.370,-0.370,-0.370,0.000,0.000,0.000
1643293189926327040,2022-01-27-14:19:49,10.1.1.3,26,-0.380,-0.380,-0.380,0.000,0.000,0.000
1643293190126426880,2022-01-27-14:19:50,10.1.1.3,26,-0.390,-0.390,-0.390,0.000,0.000,0.000
1643293190325489920,2022-01-27-14:19:50,10.1.1.3,24,-0.400,-0.400,-0.400,0.000,0.000,0.000
1643293190525632000,2022-01-27-14:19:50,10.1.1.3,24,-0.410,-0.410,-0.410,0.000,0.000,0.000
1643293190724292096,2022-01-27-14:19:50,10.1.1.3,22,-0.420,-0.420,-0.420,0.000,0.000,0.000
1643293190946263040,2022-01-27-14:19:50,10.1.1.3,40,-0.431,-0.431,-0.431,0.000,0.000,0.000
1643293191145558016,2022-01-27-14:19:51,10.1.1.3,38,-0.441,-0.441,-0.441,0.000,0.000,0.000
1643293191345401088,2022-01-27-14:19:51,10.1.1.3,37,-0.451,-0.451,-0.451,0.000,0.000,0.000
1643293191545377024,2022-01-27-14:19:51,10.1.1.3,37,-0.461,-0.461,-0.461,0.000,0.000,0.000
1643293191745423104,2022-01-27-14:19:51,10.1.1.3,36,-0.471,-0.471,-0.471,0.000,0.000,0.000
1643293191944704000,2022-01-27-14:19:51,10.1.1.3,34,-0.481,-0.481,-0.481,0.000,0.000,0.000
1643293192124335104,2022-01-27-14:19:52,10.1.1.3,13,-0.490,-0.490,-0.490,0.000,0.000,0.000
1643293192345478912,2022-01-27-14:19:52,10.1.1.3,31,-0.479,-0.479,-0.479,0.000,0.000,0.000
1643293192547584000,2022-01-27-14:19:52,10.1.1.3,31,-0.470,-0.470,-0.470,0.000,0.000,0.000
1643293192748075008,2022-01-27-14:19:52,10.1.1.3,31,-0.460,-0.460,-0.460,0.000,0.000,0.000
1643293192947649024,2022-01-27-14:19:52,10.1.1.3,30,-0.450,-0.450,-0.450,0.000,0.000,0.000
1643293193145564160,2022-01-27-14:19:53,10.1.1.3,26,-0.440,-0.440,-0.440,0.000,0.000,0.000
1643293193343709952,2022-01-27-14:19:53,10.1.1.3,24,-0.430,-0.430,-0.430,0.000,0.000,0.000
1643293193545632000,2022-01-27-14:19:53,10.1.1.3,25,-0.420,-0.420,-0.420,0.000,0.000,0.000
1643293193744777984,2022-01-27-14:19:53,10.1.1.3,23,-0.410,-0.410,-0.410,0.000,0.000,0.000
1643293193963779072,2022-01-27-14:19:53,10.1.1.3,41,-0.399,-0.399,-0.399,0.000,0.000,0.000
1643293194145836032,2022-01-27-14:19:54,10.1.1.3,22,-0.390,-0.390,-0.390,0.000,0.000,0.000
1643293194346193920,2022-01-27-14:19:54,10.1.1.3,22,-0.380,-0.380,-0.380,0.000,0.000,0.000
1643293194545698816,2022-01-27-14:19:54,10.1.1.3,20,-0.370,-0.370,-0.370,0.000,0.000,0.000
1643293194764653824,2022-01-27-14:19:54,10.1.1.3,37,-0.359,-0.359,-0.359,0.000,0.000,0.000
1643293194966921216,2022-01-27-14:19:54,10.1.1.3,39,-0.349,-0.349,-0.349,0.000,0.000,0.000
1643293195166578176,2022-01-27-14:19:55,10.1.1.3,32,-0.339,-0.339,-0.339,0.000,0.000,0.000
1643293195363835136,2022-01-27-14:19:55,10.1.1.3,29,-0.329,-0.329,-0.329,0.000,0.000,0.000
1643293195563753984,2022-01-27-14:19:55,10.1.1.3,28,-0.320,-0.320,-0.320,0.000,0.000,0.000
1643293195766014976,2022-01-27-14:19:55,10.1.1.3,30,-0.309,-0.309,-0.309,0.000,0.000,0.000
1643293195965331200,2022-01-27-14:19:55,10.1.1.3,28,-0.300,-0.300,-0.300,0.000,0.000,0.000
1643293196164401920,2022-01-27-14:19:56,10.1.1.3,26,-0.290,-0.290,-0.290,0.000,0.000,0.000
1643293196365698048,2022-01-27-14:19:56,10.1.1.3,27,-0.280,-0.280,-0.280,0.000,0.000,0.000
1643293196564697088,2022-01-27-14:19:56,10.1.1.3,25,-0.270,-0.270,-0.270,0.000,0.000,0.000
1643293196768018944,2022-01-27-14:19:56,10.1.1.3,28,-0.260,-0.260,-0.260,0.000,0.000,0.000
1643293196967788032,2022-01-27-14:19:56,10.1.1.3,27,-0.250,-0.250,-0.250,0.000,0.000,0.000
1643293197166073088,2022-01-27-14:19:57,10.1.1.3,25,-0.240,-0.240,-0.240,0.000,0.000,0.000
1643293197384510976,2022-01-27-14:19:57,10.1.1.3,42,-0.229,-0.229,-0.229,0.000,0.000,0.000
1643293197565784832,2022-01-27-14:19:57,10.1.1.3,22,-0.220,-0.220,-0.220,0.000,0.000,0.000
1643293197786552064,2022-01-27-14:19:57,10.1.1.3,38,-0.209,-0.209,-0.209,0.000,0.000,0.000
1643293197986427904,2022-01-27-14:19:57,10.1.1.3,37,-0.199,-0.199,-0.199,0.000,0.000,0.000
1643293198187525120,2022-01-27-14:19:58,10.1.1.3,37,-0.189,-0.189,-0.189,0.000,0.000,0.000
1643293198385767936,2022-01-27-14:19:58,10.1.1.3,33,-0.179,-0.179,-0.179,0.000,0.000,0.000
1643293198605844992,2022-01-27-14:19:58,10.1.1.3,39,-0.170,-0.170,-0.170,0.000,0.000,0.000
1643293198784219904,2022-01-27-14:19:58,10.1.1.3,16,-0.160,-0.160,-0.160,0.000,0.000,0.000
1643293199004177152,2022-01-27-14:19:59,10.1.1.3,35,-0.149,-0.149,-0.149,0.000,0.000,0.000
1643293199205071872,2022-01-27-14:19:59,10.1.1.3,32,-0.139,-0.139,-0.139,0.000,0.000,0.000
1643293199406348032,2022-01-27-14:19:59,10.1.1.3,34,-0.129,-0.129,-0.129,0.000,0.000,0.000
1643293199609949952,2022-01-27-14:19:59,10.1.1.3,33,-0.120,-0.120,-0.120,0.000,0.000,0.000
1643293199803774976,2022-01-27-14:19:59,10.1.1.3,30,-0.110,-0.110,-0.110,0.000,0.000,0.000
1643293200005368832,2022-01-27-14:20:00,10.1.1.3,31,-0.099,-0.099,-0.099,0.000,0.000,0.000
1643293200205091840,2022-01-27-14:20:00,10.1.1.3,29,-0.090,-0.090,-0.090,0.000,0.000,0.000
1643293200406546176,2022-01-27-14:20:00,10.1.1.3,30,-0.079,-0.079,-0.079,0.000,0.000,0.000
1643293200604020992,2022-01-27-14:20:00,10.1.1.3,27,-0.070,-0.070,-0.070,0.000,0.000,0.000
1643293200804406784,2022-01-27-14:20:00,10.1.1.3,27,-0.060,-0.060,-0.060,0.000,0.000,0.000
1643293201005063168,2022-01-27-14:20:01,10.1.1.3,27,-0.050,-0.050,-0.050,0.000,0.000,0.000
1643293201205825024,2022-01-27-14:20:01,10.1.1.3,25,-0.040,-0.040,-0.040,0.000,0.000,0.000
1643293201404838912,2022-01-27-14:20:01,10.1.1.3,25,-0.030,-0.030,-0.030,0.000,0.000,0.000
1643293201603703040,2022-01-27-14:20:01,10.1.1.3,23,-0.020,-0.020,-0.020,0.000,0.000,0.000
1643293201805558016,2022-01-27-14:20:01,10.1.1.3,24,-0.010,-0.010,-0.010,0.000,0.000,0.000
1643293201986499072,2022-01-27-14:20:01,10.1.1.3,4,-0.001,-0.001,-0.001,0.000,0.000,0.000
1643293202237953792,2022-01-27-14:20:02,10.1.1.3,45,-0.011,-0.011,-0.011,0.000,0.000,0.000
1643293202427501056,2022-01-27-14:20:02,10.1.1.3,34,-0.021,-0.021,-0.021,0.000,0.000,0.000
1643293202626980096,2022-01-27-14:20:02,10.1.1.3,33,-0.031,-0.031,-0.031,0.000,0.000,0.000
1643293202827784960,2022-01-27-14:20:02,10.1.1.3,33,-0.040,-0.040,-0.040,0.000,0.000,0.000
1643293203025111040,2022-01-27-14:20:03,10.1.1.3,28,-0.051,-0.051,-0.051,0.000,0.000,0.000
1643293203226159104,2022-01-27-14:20:03,10.1.1.3,29,-0.060,-0.060,-0.060,0.000,0.000,0.000
1643293203426968064,2022-01-27-14:20:03,10.1.1.3,29,-0.070,-0.070,-0.070,0.000,0.000,0.000
1643293203626566912,2022-01-27-14:20:03,10.1.1.3,26,-0.080,-0.080,-0.080,0.000,0.000,0.000
1643293203824958208,2022-01-27-14:20:03,10.1.1.3,26,-0.090,-0.090,-0.090,0.000,0.000,0.000
1643293204024007168,2022-01-27-14:20:04,10.1.1.3,24,-0.100,-0.100,-0.100,0.000,0.000,0.000
1643293204225202944,2022-01-27-14:20:04,10.1.1.3,24,-0.110,-0.110,-0.110,0.000,0.000,0.000
1643293204425585920,2022-01-27-14:20:04,10.1.1.3,25,-0.120,-0.120,-0.120,0.000,0.000,0.000
1643293204625332992,2022-01-27-14:20:04,10.1.1.3,24,-0.130,-0.130,-0.130,0.000,0.000,0.000
1643293204826198016,2022-01-27-14:20:04,10.1.1.3,24,-0.140,-0.140,-0.140,0.000,0.000,0.000
1643293205047193088,2022-01-27-14:20:05,10.1.1.3,44,-0.151,-0.151,-0.151,0.000,0.000,0.000
1643293205227044096,2022-01-27-14:20:05,10.1.1.3,24,-0.160,-0.160,-0.160,0.000,0.000,0.000
1643293205425651200,2022-01-27-14:20:05,10.1.1.3,21,-0.170,-0.170,-0.170,0.000,0.000,0.000
1643293205647185920,2022-01-27-14:20:05,10.1.1.3,40,-0.181,-0.181,-0.181,0.000,0.000,0.000
1643293205843899904,2022-01-27-14:20:05,10.1.1.3,36,-0.191,-0.191,-0.191,0.000,0.000,0.000
1643293206047286016,2022-01-27-14:20:06,10.1.1.3,39,-0.201,-0.201,-0.201,0.000,0.000,0.000
1643293206248819968,2022-01-27-14:20:06,10.1.1.3,40,-0.211,-0.211,-0.211,0.000,0.000,0.000
1643293206446241024,2022-01-27-14:20:06,10.1.1.3,35,-0.221,-0.221,-0.221,0.000,0.000,0.000
1643293206645431040,2022-01-27-14:20:06,10.1.1.3,33,-0.231,-0.231,-0.231,0.000,0.000,0.000
1643293206845350144,2022-01-27-14:20:06,10.1.1.3,30,-0.241,-0.241,-0.241,0.000,0.000,0.000
1643293207045582080,2022-01-27-14:20:07,10.1.1.3,28,-0.250,-0.250,-0.250,0.000,0.000,0.000
1643293207245096960,2022-01-27-14:20:07,10.1.1.3,28,-0.260,-0.260,-0.260,0.000,0.000,0.000
1643293207446521088,2022-01-27-14:20:07,10.1.1.3,27,-0.270,-0.270,-0.270,0.000,0.000,0.000
1643293207646394880,2022-01-27-14:20:07,10.1.1.3,26,-0.280,-0.280,-0.280,0.000,0.000,0.000
1643293207845881088,2022-01-27-14:20:07,10.1.1.3,24,-0.290,-0.290,-0.290,0.000,0.000,0.000
1643293208043806976,2022-01-27-14:20:08,10.1.1.3,21,-0.300,-0.300,-0.300,0.000,0.000,0.000
1643293208247970048,2022-01-27-14:20:08,10.1.1.3,25,-0.310,-0.310,-0.310,0.000,0.000,0.000
1643293208444279808,2022-01-27-14:20:08,10.1.1.3,20,-0.320,-0.320,-0.320,0.000,0.000,0.000
1643293208665810176,2022-01-27-14:20:08,10.1.1.3,36,-0.331,-0.331,-0.331,0.000,0.000,0.000
1643293208866318080,2022-01-27-14:20:08,10.1.1.3,38,-0.341,-0.341,-0.341,0.000,0.000,0.000
1643293209066989056,2022-01-27-14:20:09,10.1.1.3,35,-0.351,-0.351,-0.351,0.000,0.000,0.000
1643293209266109952,2022-01-27-14:20:09,10.1.1.3,21,-0.360,-0.360,-0.360,0.000,0.000,0.000
1643293209464766976,2022-01-27-14:20:09,10.1.1.3,19,-0.370,-0.370,-0.370,0.000,0.000,0.000
1643293209667234048,2022-01-27-14:20:09,10.1.1.3,18,-0.380,-0.380,-0.380,0.000,0.000,0.000
1643293209886518016,2022-01-27-14:20:09,10.1.1.3,40,-0.391,-0.391,-0.391,0.000,0.000,0.000
1643293210087721984,2022-01-27-14:20:10,10.1.1.3,40,-0.401,-0.401,-0.401,0.000,0.000,0.000
1643293210284429056,2022-01-27-14:20:10,10.1.1.3,36,-0.411,-0.411,-0.411,0.000,0.000,0.000
1643293210487202048,2022-01-27-14:20:10,10.1.1.3,38,-0.421,-0.421,-0.421,0.000,0.000,0.000
1643293210685868032,2022-01-27-14:20:10,10.1.1.3,36,-0.431,-0.431,-0.431,0.000,0.000,0.000
1643293210886814208,2022-01-27-14:20:10,10.1.1.3,36,-0.441,-0.441,-0.441,0.000,0.000,0.000
1643293211084621824,2022-01-27-14:20:11,10.1.1.3,33,-0.451,-0.451,-0.451,0.000,0.000,0.000
1643293211286432000,2022-01-27-14:20:11,10.1.1.3,34,-0.461,-0.461,-0.461,0.000,0.000,0.000
1643293211485358080,2022-01-27-14:20:11,10.1.1.3,31,-0.471,-0.471,-0.471,0.000,0.000,0.000
1643293211687068928,2022-01-27-14:20:11,10.1.1.3,32,-0.481,-0.481,-0.481,0.000,0.000,0.000
1643293211866230016,2022-01-27-14:20:11,10.1.1.3,10,-0.490,-0.490,-0.490,0.000,0.000,0.000
1643293212086374912,2022-01-27-14:20:12,10.1.1.3,29,-0.480,-0.480,-0.480,0.000,0.000,0.000
1643293212285548800,2022-01-27-14:20:12,10.1.1.3,26,-0.470,-0.470,-0.470,0.000,0.000,0.000
1643293212486386176,2022-01-27-14:20:12,10.1.1.3,26,-0.460,-0.460,-0.460,0.000,0.000,0.000
1643293212685444096,2022-01-27-14:20:12,10.1.1.3,24,-0.450,-0.450,-0.450,0.000,0.000,0.000
1643293212929138944,2022-01-27-14:20:12,10.1.1.3,58,-0.439,-0.439,-0.439,0.000,0.000,0.000
1643293213108830976,2022-01-27-14:20:13,10.1.1.3,28,-0.430,-0.430,-0.430,0.000,0.000,0.000
1643293213308555008,2022-01-27-14:20:13,10.1.1.3,27,-0.420,-0.420,-0.420,0.000,0.000,0.000
1643293213507268864,2022-01-27-14:20:13,10.1.1.3,21,-0.410,-0.410,-0.410,0.000,0.000,0.000
1643293213706497024,2022-01-27-14:20:13,10.1.1.3,23,-0.400,-0.400,-0.400,0.000,0.000,0.000
1643293213925872128,2022-01-27-14:20:13,10.1.1.3,36,-0.389,-0.389,-0.389,0.000,0.000,0.000
1643293214129241856,2022-01-27-14:20:14,10.1.1.3,38,-0.379,-0.379,-0.379,0.000,0.000,0.000
1643293214324680960,2022-01-27-14:20:14,10.1.1.3,32,-0.369,-0.369,-0.369,0.000,0.000,0.000
1643293214526099968,2022-01-27-14:20:14,10.1.1.3,30,-0.359,-0.359,-0.359,0.000,0.000,0.000
1643293214724741888,2022-01-27-14:20:14,10.1.1.3,27,-0.350,-0.350,-0.350,0.000,0.000,0.000
1643293214924963072,2022-01-27-14:20:14,10.1.1.3,27,-0.340,-0.340,-0.340,0.000,0.000,0.000
1643293215126663936,2022-01-27-14:20:15,10.1.1.3,28,-0.330,-0.330,-0.330,0.000,0.000,0.000
1643293215325903872,2022-01-27-14:20:15,10.1.1.3,26,-0.320,-0.320,-0.320,0.000,0.000,0.000
1643293215528837888,2022-01-27-14:20:15,10.1.1.3,28,-0.310,-0.310,-0.310,0.000,0.000,0.000
1643293215725785088,2022-01-27-14:20:15,10.1.1.3,25,-0.300,-0.300,-0.300,0.000,0.000,0.000
1643293215925245952,2022-01-27-14:20:15,10.1.1.3,23,-0.290,-0.290,-0.290,0.000,0.000,0.000
1643293216126213120,2022-01-27-14:20:16,10.1.1.3,24,-0.280,-0.280,-0.280,0.000,0.000,0.000
1643293216343735040,2022-01-27-14:20:16,10.1.1.3,41,-0.269,-0.269,-0.269,0.000,0.000,0.000
1643293216525649920,2022-01-27-14:20:16,10.1.1.3,21,-0.260,-0.260,-0.260,0.000,0.000,0.000
1643293216747222016,2022-01-27-14:20:16,10.1.1.3,28,-0.250,-0.250,-0.250,0.000,0.000,0.000
1643293216944933888,2022-01-27-14:20:16,10.1.1.3,22,-0.240,-0.240,-0.240,0.000,0.000,0.000
1643293217164740096,2022-01-27-14:20:17,10.1.1.3,33,-0.229,-0.229,-0.229,0.000,0.000,0.000
1643293217368016128,2022-01-27-14:20:17,10.1.1.3,36,-0.219,-0.219,-0.219,0.000,0.000,0.000
1643293217569369088,2022-01-27-14:20:17,10.1.1.3,31,-0.210,-0.210,-0.210,0.000,0.000,0.000
1643293217767424000,2022-01-27-14:20:17,10.1.1.3,29,-0.200,-0.200,-0.200,0.000,0.000,0.000
1643293217968290048,2022-01-27-14:20:17,10.1.1.3,26,-0.190,-0.190,-0.190,0.000,0.000,0.000
1643293218166467840,2022-01-27-14:20:18,10.1.1.3,25,-0.180,-0.180,-0.180,0.000,0.000,0.000
1643293218384577024,2022-01-27-14:20:18,10.1.1.3,37,-0.169,-0.169,-0.169,0.000,0.000,0.000
1643293218588069888,2022-01-27-14:20:18,10.1.1.3,37,-0.159,-0.159,-0.159,0.000,0.000,0.000
1643293218787147008,2022-01-27-14:20:18,10.1.1.3,37,-0.149,-0.149,-0.149,0.000,0.000,0.000
1643293218985349888,2022-01-27-14:20:18,10.1.1.3,34,-0.139,-0.139,-0.139,0.000,0.000,0.000
1643293219186931968,2022-01-27-14:20:19,10.1.1.3,35,-0.130,-0.130,-0.130,0.000,0.000,0.000
1643293219385783040,2022-01-27-14:20:19,10.1.1.3,31,-0.119,-0.119,-0.119,0.000,0.000,0.000
1643293219585041920,2022-01-27-14:20:19,10.1.1.3,30,-0.110,-0.110,-0.110,0.000,0.000,0.000
1643293219784766976,2022-01-27-14:20:19,10.1.1.3,29,-0.100,-0.100,-0.100,0.000,0.000,0.000
1643293219987219200,2022-01-27-14:20:19,10.1.1.3,28,-0.090,-0.090,-0.090,0.000,0.000,0.000
1643293220186902016,2022-01-27-14:20:20,10.1.1.3,27,-0.080,-0.080,-0.080,0.000,0.000,0.000
1643293220384742144,2022-01-27-14:20:20,10.1.1.3,27,-0.070,-0.070,-0.070,0.000,0.000,0.000
1643293220589108992,2022-01-27-14:20:20,10.1.1.3,27,-0.060,-0.060,-0.060,0.000,0.000,0.000
1643293220785986816,2022-01-27-14:20:20,10.1.1.3,27,-0.050,-0.050,-0.050,0.000,0.000,0.000
1643293220987441152,2022-01-27-14:20:20,10.1.1.3,28,-0.040,-0.040,-0.040,0.000,0.000,0.000
1643293221186084096,2022-01-27-14:20:21,10.1.1.3,25,-0.030,-0.030,-0.030,0.000,0.000,0.000
1643293221387005184,2022-01-27-14:20:21,10.1.1.3,25,-0.020,-0.020,-0.020,0.000,0.000,0.000
1643293221585025024,2022-01-27-14:20:21,10.1.1.3,22,-0.010,-0.010,-0.010,0.000,0.000,0.000
1643293221766427136,2022-01-27-14:20:21,10.1.1.3,4,-0.001,-0.001,-0.001,0.000,0.000,0.000
1643293221986918912,2022-01-27-14:20:21,10.1.1.3,22,-0.010,-0.010,-0.010,0.000,0.000,0.000
1643293222207469056,2022-01-27-14:20:22,10.1.1.3,39,-0.021,-0.021,-0.021,0.000,0.000,0.000
1643293222369155840,2022-01-27-14:20:22,10.1.1.3,-1,-0.029,-0.029,-0.029,0.000,0.000,0.000
1643293222606694912,2022-01-27-14:20:22,10.1.1.3,36,-0.041,-0.041,-0.041,0.000,0.000,0.000
1643293222805305856,2022-01-27-14:20:22,10.1.1.3,34,-0.051,-0.051,-0.051,0.000,0.000,0.000
1643293223006988032,2022-01-27-14:20:23,10.1.1.3,35,-0.061,-0.061,-0.061,0.000,0.000,0.000
1643293223206984960,2022-01-27-14:20:23,10.1.1.3,34,-0.071,-0.071,-0.071,0.000,0.000,0.000
1643293223404275968,2022-01-27-14:20:23,10.1.1.3,31,-0.081,-0.081,-0.081,0.000,0.000,0.000
1643293223605287168,2022-01-27-14:20:23,10.1.1.3,30,-0.090,-0.090,-0.090,0.000,0.000,0.000
1643293223806020864,2022-01-27-14:20:23,10.1.1.3,31,-0.101,-0.101,-0.101,0.000,0.000,0.000
1643293224004836096,2022-01-27-14:20:24,10.1.1.3,29,-0.110,-0.110,-0.110,0.000,0.000,0.000
1643293224207452160,2022-01-27-14:20:24,10.1.1.3,27,-0.120,-0.120,-0.120,0.000,0.000,0.000
1643293224406168064,2022-01-27-14:20:24,10.1.1.3,27,-0.130,-0.130,-0.130,0.000,0.000,0.000
1643293224607672832,2022-01-27-14:20:24,10.1.1.3,29,-0.140,-0.140,-0.140,0.000,0.000,0.000
1643293224807569152,2022-01-27-14:20:24,10.1.1.3,26,-0.150,-0.150,-0.150,0.000,0.000,0.000
1643293225007885056,2022-01-27-14:20:25,10.1.1.3,28,-0.160,-0.160,-0.160,0.000,0.000,0.000
1643293225206938112,2022-01-27-14:20:25,10.1.1.3,26,-0.170,-0.170,-0.170,0.000,0.000,0.000
1643293225404616192,2022-01-27-14:20:25,10.1.1.3,23,-0.180,-0.180,-0.180,0.000,0.000,0.000
1643293225647833088,2022-01-27-14:20:25,10.1.1.3,41,-0.190,-0.190,-0.190,0.000,0.000,0.000
1643293225806475008,2022-01-27-14:20:25,10.1.1.3,23,-0.200,-0.200,-0.200,0.000,0.000,0.000
1643293226005611776,2022-01-27-14:20:26,10.1.1.3,23,-0.210,-0.210,-0.210,0.000,0.000,0.000
1643293226224931072,2022-01-27-14:20:26,10.1.1.3,41,-0.221,-0.221,-0.221,0.000,0.000,0.000
1643293226405246976,2022-01-27-14:20:26,10.1.1.3,20,-0.230,-0.230,-0.230,0.000,0.000,0.000
1643293226625586944,2022-01-27-14:20:26,10.1.1.3,40,-0.241,-0.241,-0.241,0.000,0.000,0.000
1643293226825751040,2022-01-27-14:20:26,10.1.1.3,40,-0.251,-0.251,-0.251,0.000,0.000,0.000
1643293227024445184,2022-01-27-14:20:27,10.1.1.3,38,-0.261,-0.261,-0.261,0.000,0.000,0.000
1643293227226084096,2022-01-27-14:20:27,10.1.1.3,39,-0.271,-0.271,-0.271,0.000,0.000,0.000
1643293227426561024,2022-01-27-14:20:27,10.1.1.3,38,-0.281,-0.281,-0.281,0.000,0.000,0.000
1643293227626905856,2022-01-27-14:20:27,10.1.1.3,38,-0.291,-0.291,-0.291,0.000,0.000,0.000
1643293227827080960,2022-01-27-14:20:27,10.1.1.3,37,-0.301,-0.301,-0.301,0.000,0.000,0.000
1643293228024785152,2022-01-27-14:20:28,10.1.1.3,34,-0.311,-0.311,-0.311,0.000,0.000,0.000
1643293228227520000,2022-01-27-14:20:28,10.1.1.3,36,-0.321,-0.321,-0.321,0.000,0.000,0.000
1643293228427238912,2022-01-27-14:20:28,10.1.1.3,35,-0.331,-0.331,-0.331,0.000,0.000,0.000
1643293228626786048,2022-01-27-14:20:28,10.1.1.3,33,-0.340,-0.340,-0.340,0.000,0.000,0.000
1643293228825402112,2022-01-27-14:20:28,10.1.1.3,30,-0.351,-0.351,-0.351,0.000,0.000,0.000
1643293229025934080,2022-01-27-14:20:29,10.1.1.3,30,-0.361,-0.361,-0.361,0.000,0.000,0.000
1643293229227861760,2022-01-27-14:20:29,10.1.1.3,30,-0.370,-0.370,-0.370,0.000,0.000,0.000
1643293229426998016,2022-01-27-14:20:29,10.1.1.3,30,-0.380,-0.380,-0.380,0.000,0.000,0.000
1643293229625571840,2022-01-27-14:20:29,10.1.1.3,28,-0.390,-0.390,-0.390,0.000,0.000,0.000
1643293229824273152,2022-01-27-14:20:29,10.1.1.3,24,-0.400,-0.400,-0.400,0.000,0.000,0.000
1643293230026582016,2022-01-27-14:20:30,10.1.1.3,26,-0.410,-0.410,-0.410,0.000,0.000,0.000
1643293230225688064,2022-01-27-14:20:30,10.1.1.3,24,-0.420,-0.420,-0.420,0.000,0.000,0.000
1643293230426374912,2022-01-27-14:20:30,10.1.1.3,24,-0.430,-0.430,-0.430,0.000,0.000,0.000
1643293230626725888,2022-01-27-14:20:30,10.1.1.3,24,-0.440,-0.440,-0.440,0.000,0.000,0.000
1643293230825593088,2022-01-27-14:20:30,10.1.1.3,21,-0.450,-0.450,-0.450,0.000,0.000,0.000
1643293231026854144,2022-01-27-14:20:31,10.1.1.3,20,-0.460,-0.460,-0.460,0.000,0.000,0.000
1643293231227737856,2022-01-27-14:20:31,10.1.1.3,21,-0.470,-0.470,-0.470,0.000,0.000,0.000
1643293231446187008,2022-01-27-14:20:31,10.1.1.3,39,-0.481,-0.481,-0.481,0.000,0.000,0.000
1643293231607763968,2022-01-27-14:20:31,10.1.1.3,0,-0.489,-0.489,-0.489,0.000,0.000,0.000
1643293231844410880,2022-01-27-14:20:31,10.1.1.3,36,-0.479,-0.479,-0.479,0.000,0.000,0.000
1643293232046538240,2022-01-27-14:20:32,10.1.1.3,38,-0.469,-0.469,-0.469,0.000,0.000,0.000
1643293232244236032,2022-01-27-14:20:32,10.1.1.3,32,-0.459,-0.459,-0.459,0.000,0.000,0.000
1643293232445633024,2022-01-27-14:20:32,10.1.1.3,33,-0.450,-0.450,-0.450,0.000,0.000,0.000
1643293232647314944,2022-01-27-14:20:32,10.1.1.3,33,-0.439,-0.439,-0.439,0.000,0.000,0.000
1643293232845895936,2022-01-27-14:20:32,10.1.1.3,31,-0.429,-0.429,-0.429,0.000,0.000,0.000
1643293233045707008,2022-01-27-14:20:33,10.1.1.3,30,-0.419,-0.419,-0.419,0.000,0.000,0.000
1643293233246480896,2022-01-27-14:20:33,10.1.1.3,29,-0.410,-0.410,-0.410,0.000,0.000,0.000
1643293233446425856,2022-01-27-14:20:33,10.1.1.3,26,-0.400,-0.400,-0.400,0.000,0.000,0.000
1643293233644058112,2022-01-27-14:20:33,10.1.1.3,26,-0.390,-0.390,-0.390,0.000,0.000,0.000
1643293233844278016,2022-01-27-14:20:33,10.1.1.3,25,-0.380,-0.380,-0.380,0.000,0.000,0.000
1643293234047142144,2022-01-27-14:20:34,10.1.1.3,27,-0.370,-0.370,-0.370,0.000,0.000,0.000
1643293234244090112,2022-01-27-14:20:34,10.1.1.3,23,-0.360,-0.360,-0.360,0.000,0.000,0.000
1643293234444435968,2022-01-27-14:20:34,10.1.1.3,22,-0.350,-0.350,-0.350,0.000,0.000,0.000
1643293234667098880,2022-01-27-14:20:34,10.1.1.3,43,-0.339,-0.339,-0.339,0.000,0.000,0.000
1643293234866813952,2022-01-27-14:20:34,10.1.1.3,41,-0.329,-0.329,-0.329,0.000,0.000,0.000
1643293235066294016,2022-01-27-14:20:35,10.1.1.3,38,-0.319,-0.319,-0.319,0.000,0.000,0.000
1643293235265707008,2022-01-27-14:20:35,10.1.1.3,37,-0.309,-0.309,-0.309,0.000,0.000,0.000
1643293235464807936,2022-01-27-14:20:35,10.1.1.3,35,-0.299,-0.299,-0.299,0.000,0.000,0.000
1643293235665776896,2022-01-27-14:20:35,10.1.1.3,35,-0.289,-0.289,-0.289,0.000,0.000,0.000
1643293235865488896,2022-01-27-14:20:35,10.1.1.3,34,-0.279,-0.279,-0.279,0.000,0.000,0.000
1643293236065512960,2022-01-27-14:20:36,10.1.1.3,32,-0.269,-0.269,-0.269,0.000,0.000,0.000
1643293236264787968,2022-01-27-14:20:36,10.1.1.3,30,-0.260,-0.260,-0.260,0.000,0.000,0.000
1643293236466415872,2022-01-27-14:20:36,10.1.1.3,29,-0.250,-0.250,-0.250,0.000,0.000,0.000
1643293236666782976,2022-01-27-14:20:36,10.1.1.3,28,-0.239,-0.239,-0.239,0.000,0.000,0.000
1643293236866412032,2022-01-27-14:20:36,10.1.1.3,29,-0.230,-0.230,-0.230,0.000,0.000,0.000
1643293237068254976,2022-01-27-14:20:37,10.1.1.3,30,-0.220,-0.220,-0.220,0.000,0.000,0.000
1643293237267694080,2022-01-27-14:20:37,10.1.1.3,29,-0.210,-0.210,-0.210,0.000,0.000,0.000
1643293237467320832,2022-01-27-14:20:37,10.1.1.3,28,-0.200,-0.200,-0.200,0.000,0.000,0.000
1643293237665483008,2022-01-27-14:20:37,10.1.1.3,25,-0.190,-0.190,-0.190,0.000,0.000,0.000
1643293237865740032,2022-01-27-14:20:37,10.1.1.3,25,-0.180,-0.180,-0.180,0.000,0.000,0.000
1643293238064966912,2022-01-27-14:20:38,10.1.1.3,24,-0.170,-0.170,-0.170,0.000,0.000,0.000
1643293238264184832,2022-01-27-14:20:38,10.1.1.3,22,-0.160,-0.160,-0.160,0.000,0.000,0.000
1643293238466810880,2022-01-27-14:20:38,10.1.1.3,24,-0.150,-0.150,-0.150,0.000,0.000,0.000
1643293238685484032,2022-01-27-14:20:38,10.1.1.3,41,-0.139,-0.139,-0.139,0.000,0.000,0.000
1643293238866420992,2022-01-27-14:20:38,10.1.1.3,20,-0.130,-0.130,-0.130,0.000,0.000,0.000
1643293239067518976,2022-01-27-14:20:39,10.1.1.3,20,-0.120,-0.120,-0.120,0.000,0.000,0.000
1643293239286696960,2022-01-27-14:20:39,10.1.1.3,39,-0.109,-0.109,-0.109,0.000,0.000,0.000
1643293239486320128,2022-01-27-14:20:39,10.1.1.3,38,-0.099,-0.099,-0.099,0.000,0.000,0.000
1643293239686855936,2022-01-27-14:20:39,10.1.1.3,38,-0.089,-0.089,-0.089,0.000,0.000,0.000
1643293239886935040,2022-01-27-14:20:39,10.1.1.3,37,-0.079,-0.079,-0.079,0.000,0.000,0.000
1643293240086247936,2022-01-27-14:20:40,10.1.1.3,35,-0.069,-0.069,-0.069,0.000,0.000,0.000
1643293240285639936,2022-01-27-14:20:40,10.1.1.3,33,-0.059,-0.059,-0.059,0.000,0.000,0.000
1643293240485728000,2022-01-27-14:20:40,10.1.1.3,33,-0.049,-0.049,-0.049,0.000,0.000,0.000
1643293240687138048,2022-01-27-14:20:40,10.1.1.3,32,-0.039,-0.039,-0.039,0.000,0.000,0.000
1643293240885263872,2022-01-27-14:20:40,10.1.1.3,30,-0.030,-0.030,-0.030,0.000,0.000,0.000
1643293241085042944,2022-01-27-14:20:41,10.1.1.3,29,-0.019,-0.019,-0.019,0.000,0.000,0.000
1643293241291395840,2022-01-27-14:20:41,10.1.1.3,30,-0.010,-0.010,-0.010,0.000,0.000,0.000
1643293241467160832,2022-01-27-14:20:41,10.1.1.3,5,-0.001,-0.001,-0.001,0.000,0.000,0.000
1643293241687740160,2022-01-27-14:20:41,10.1.1.3,24,-0.010,-0.010,-0.010,0.000,0.000,0.000
1643293241886675968,2022-01-27-14:20:41,10.1.1.3,20,-0.020,-0.020,-0.020,0.000,0.000,0.000
1643293242107137792,2022-01-27-14:20:42,10.1.1.3,38,-0.031,-0.031,-0.031,0.000,0.000,0.000
1643293242304717056,2022-01-27-14:20:42,10.1.1.3,36,-0.041,-0.041,-0.041,0.000,0.000,0.000
1643293242506040064,2022-01-27-14:20:42,10.1.1.3,37,-0.051,-0.051,-0.051,0.000,0.000,0.000
1643293242707129088,2022-01-27-14:20:42,10.1.1.3,35,-0.061,-0.061,-0.061,0.000,0.000,0.000
1643293242906810112,2022-01-27-14:20:42,10.1.1.3,35,-0.070,-0.070,-0.070,0.000,0.000,0.000
1643293243104123136,2022-01-27-14:20:43,10.1.1.3,30,-0.081,-0.081,-0.081,0.000,0.000,0.000
1643293243305074944,2022-01-27-14:20:43,10.1.1.3,30,-0.090,-0.090,-0.090,0.000,0.000,0.000
1643293243506413056,2022-01-27-14:20:43,10.1.1.3,31,-0.101,-0.101,-0.101,0.000,0.000,0.000
1643293243704232960,2022-01-27-14:20:43,10.1.1.3,27,-0.110,-0.110,-0.110,0.000,0.000,0.000
1643293243906817024,2022-01-27-14:20:43,10.1.1.3,29,-0.120,-0.120,-0.120,0.000,0.000,0.000
1643293244106342144,2022-01-27-14:20:44,10.1.1.3,27,-0.130,-0.130,-0.130,0.000,0.000,0.000
1643293244306003968,2022-01-27-14:20:44,10.1.1.3,27,-0.140,-0.140,-0.140,0.000,0.000,0.000
1643293244505309184,2022-01-27-14:20:44,10.1.1.3,24,-0.150,-0.150,-0.150,0.000,0.000,0.000
1643293244706118144,2022-01-27-14:20:44,10.1.1.3,25,-0.160,-0.160,-0.160,0.000,0.000,0.000
1643293244908366080,2022-01-27-14:20:44,10.1.1.3,27,-0.170,-0.170,-0.170,0.000,0.000,0.000
1643293245104872960,2022-01-27-14:20:45,10.1.1.3,23,-0.180,-0.180,-0.180,0.000,0.000,0.000
1643293245305378816,2022-01-27-14:20:45,10.1.1.3,22,-0.190,-0.190,-0.190,0.000,0.000,0.000
1643293245504698880,2022-01-27-14:20:45,10.1.1.3,21,-0.200,-0.200,-0.200,0.000,0.000,0.000
1643293245726574848,2022-01-27-14:20:45,10.1.1.3,39,-0.211,-0.211,-0.211,0.000,0.000,0.000
1643293245927140864,2022-01-27-14:20:45,10.1.1.3,37,-0.221,-0.221,-0.221,0.000,0.000,0.000
1643293246127026944,2022-01-27-14:20:46,10.1.1.3,39,-0.231,-0.231,-0.231,0.000,0.000,0.000
1643293246325784832,2022-01-27-14:20:46,10.1.1.3,35,-0.241,-0.241,-0.241,0.000,0.000,0.000
1643293246525851904,2022-01-27-14:20:46,10.1.1.3,36,-0.251,-0.251,-0.251,0.000,0.000,0.000
1643293246727065088,2022-01-27-14:20:46,10.1.1.3,36,-0.261,-0.261,-0.261,0.000,0.000,0.000
1643293246926608128,2022-01-27-14:20:46,10.1.1.3,35,-0.271,-0.271,-0.271,0.000,0.000,0.000
1643293247124160000,2022-01-27-14:20:47,10.1.1.3,32,-0.281,-0.281,-0.281,0.000,0.000,0.000
1643293247327387136,2022-01-27-14:20:47,10.1.1.3,34,-0.291,-0.291,-0.291,0.000,0.000,0.000
1643293247526938880,2022-01-27-14:20:47,10.1.1.3,33,-0.300,-0.300,-0.300,0.000,0.000,0.000
1643293247726108160,2022-01-27-14:20:47,10.1.1.3,30,-0.311,-0.311,-0.311,0.000,0.000,0.000
1643293247926752000,2022-01-27-14:20:47,10.1.1.3,30,-0.321,-0.321,-0.321,0.000,0.000,0.000
1643293248126128896,2022-01-27-14:20:48,10.1.1.3,27,-0.330,-0.330,-0.330,0.000,0.000,0.000
1643293248325565952,2022-01-27-14:20:48,10.1.1.3,27,-0.340,-0.340,-0.340,0.000,0.000,0.000
1643293248526680832,2022-01-27-14:20:48,10.1.1.3,25,-0.350,-0.350,-0.350,0.000,0.000,0.000
1643293248725588992,2022-01-27-14:20:48,10.1.1.3,24,-0.360,-0.360,-0.360,0.000,0.000,0.000
1643293248924455936,2022-01-27-14:20:48,10.1.1.3,24,-0.370,-0.370,-0.370,0.000,0.000,0.000
1643293249126188032,2022-01-27-14:20:49,10.1.1.3,25,-0.380,-0.380,-0.380,0.000,0.000,0.000
1643293249325556992,2022-01-27-14:20:49,10.1.1.3,24,-0.390,-0.390,-0.390,0.000,0.000,0.000
1643293249524624128,2022-01-27-14:20:49,10.1.1.3,22,-0.400,-0.400,-0.400,0.000,0.000,0.000
1643293249725863936,2022-01-27-14:20:49,10.1.1.3,23,-0.410,-0.410,-0.410,0.000,0.000,0.000
1643293249943767040,2022-01-27-14:20:49,10.1.1.3,40,-0.421,-0.421,-0.421,0.000,0.000,0.000
1643293250110074880,2022-01-27-14:20:50,10.1.1.3,-1,-0.427,-0.427,-0.427,0.000,0.000,0.000
1643293250343964160,2022-01-27-14:20:50,10.1.1.3,35,-0.441,-0.441,-0.441,0.000,0.000,0.000
1643293250547693056,2022-01-27-14:20:50,10.1.1.3,39,-0.451,-0.451,-0.451,0.000,0.000,0.000
1643293250747725056,2022-01-27-14:20:50,10.1.1.3,36,-0.461,-0.461,-0.461,0.000,0.000,0.000
1643293250947623936,2022-01-27-14:20:50,10.1.1.3,36,-0.471,-0.471,-0.471,0.000,0.000,0.000
1643293251147022848,2022-01-27-14:20:51,10.1.1.3,35,-0.481,-0.481,-0.481,0.000,0.000,0.000
1643293251324358912,2022-01-27-14:20:51,10.1.1.3,11,-0.490,-0.490,-0.490,0.000,0.000,0.000
1643293251547077888,2022-01-27-14:20:51,10.1.1.3,31,-0.480,-0.480,-0.480,0.000,0.000,0.000
1643293251744204032,2022-01-27-14:20:51,10.1.1.3,29,-0.469,-0.469,-0.469,0.000,0.000,0.000
1643293251947758848,2022-01-27-14:20:51,10.1.1.3,28,-0.459,-0.459,-0.459,0.000,0.000,0.000
1643293252147703808,2022-01-27-14:20:52,10.1.1.3,30,-0.450,-0.450,-0.450,0.000,0.000,0.000
1643293252346823936,2022-01-27-14:20:52,10.1.1.3,28,-0.440,-0.440,-0.440,0.000,0.000,0.000
1643293252547350784,2022-01-27-14:20:52,10.1.1.3,28,-0.430,-0.430,-0.430,0.000,0.000,0.000
1643293252746990848,2022-01-27-14:20:52,10.1.1.3,27,-0.420,-0.420,-0.420,0.000,0.000,0.000
1643293252945661184,2022-01-27-14:20:52,10.1.1.3,25,-0.410,-0.410,-0.410,0.000,0.000,0.000
1643293253148204032,2022-01-27-14:20:53,10.1.1.3,27,-0.400,-0.400,-0.400,0.000,0.000,0.000
1643293253361798912,2022-01-27-14:20:53,10.1.1.3,40,-0.390,-0.390,-0.390,0.000,0.000,0.000
1643293253569355008,2022-01-27-14:20:53,10.1.1.3,47,-0.379,-0.379,-0.379,0.000,0.000,0.000
1643293253765415936,2022-01-27-14:20:53,10.1.1.3,37,-0.369,-0.369,-0.369,0.000,0.000,0.000
1643293253964820992,2022-01-27-14:20:53,10.1.1.3,35,-0.359,-0.359,-0.359,0.000,0.000,0.000
1643293254166563072,2022-01-27-14:20:54,10.1.1.3,36,-0.350,-0.350,-0.350,0.000,0.000,0.000
1643293254365837056,2022-01-27-14:20:54,10.1.1.3,33,-0.339,-0.339,-0.339,0.000,0.000,0.000
1643293254568628992,2022-01-27-14:20:54,10.1.1.3,29,-0.330,-0.330,-0.330,0.000,0.000,0.000
1643293254768428032,2022-01-27-14:20:54,10.1.1.3,29,-0.320,-0.320,-0.320,0.000,0.000,0.000
1643293254971779072,2022-01-27-14:20:54,10.1.1.3,26,-0.310,-0.310,-0.310,0.000,0.000,0.000
1643293255168022016,2022-01-27-14:20:55,10.1.1.3,27,-0.300,-0.300,-0.300,0.000,0.000,0.000
1643293255366238976,2022-01-27-14:20:55,10.1.1.3,24,-0.290,-0.290,-0.290,0.000,0.000,0.000
1643293255568720128,2022-01-27-14:20:55,10.1.1.3,26,-0.280,-0.280,-0.280,0.000,0.000,0.000
1643293255784941056,2022-01-27-14:20:55,10.1.1.3,42,-0.269,-0.269,-0.269,0.000,0.000,0.000
1643293255964931072,2022-01-27-14:20:55,10.1.1.3,21,-0.260,-0.260,-0.260,0.000,0.000,0.000
1643293256168803072,2022-01-27-14:20:56,10.1.1.3,23,-0.250,-0.250,-0.250,0.000,0.000,0.000
1643293256387346944,2022-01-27-14:20:56,10.1.1.3,39,-0.239,-0.239,-0.239,0.000,0.000,0.000
1643293256587377920,2022-01-27-14:20:56,10.1.1.3,38,-0.229,-0.229,-0.229,0.000,0.000,0.000
1643293256786246912,2022-01-27-14:20:56,10.1.1.3,35,-0.219,-0.219,-0.219,0.000,0.000,0.000
1643293256985392128,2022-01-27-14:20:56,10.1.1.3,34,-0.209,-0.209,-0.209,0.000,0.000,0.000
1643293257186784000,2022-01-27-14:20:57,10.1.1.3,33,-0.199,-0.199,-0.199,0.000,0.000,0.000
1643293257384666880,2022-01-27-14:20:57,10.1.1.3,33,-0.189,-0.189,-0.189,0.000,0.000,0.000
1643293257584642048,2022-01-27-14:20:57,10.1.1.3,31,-0.180,-0.180,-0.180,0.000,0.000,0.000
1643293257790242816,2022-01-27-14:20:57,10.1.1.3,32,-0.170,-0.170,-0.170,0.000,0.000,0.000
1643293257987536896,2022-01-27-14:20:57,10.1.1.3,29,-0.160,-0.160,-0.160,0.000,0.000,0.000
1643293258187411968,2022-01-27-14:20:58,10.1.1.3,27,-0.150,-0.150,-0.150,0.000,0.000,0.000
1643293258385795072,2022-01-27-14:20:58,10.1.1.3,25,-0.140,-0.140,-0.140,0.000,0.000,0.000
1643293258586132992,2022-01-27-14:20:58,10.1.1.3,23,-0.130,-0.130,-0.130,0.000,0.000,0.000
1643293258787136000,2022-01-27-14:20:58,10.1.1.3,23,-0.120,-0.120,-0.120,0.000,0.000,0.000
1643293258986891008,2022-01-27-14:20:58,10.1.1.3,16,-0.110,-0.110,-0.110,0.000,0.000,0.000
1643293259209059072,2022-01-27-14:20:59,10.1.1.3,37,-0.099,-0.099,-0.099,0.000,0.000,0.000
1643293259406225920,2022-01-27-14:20:59,10.1.1.3,33,-0.090,-0.090,-0.090,0.000,0.000,0.000
1643293259609036800,2022-01-27-14:20:59,10.1.1.3,31,-0.080,-0.080,-0.080,0.000,0.000,0.000
1643293259808233984,2022-01-27-14:20:59,10.1.1.3,30,-0.070,-0.070,-0.070,0.000,0.000,0.000
1643293260008229120,2022-01-27-14:21:00,10.1.1.3,29,-0.060,-0.060,-0.060,0.000,0.000,0.000
1643293260208798976,2022-01-27-14:21:00,10.1.1.3,28,-0.050,-0.050,-0.050,0.000,0.000,0.000
1643293260408939008,2022-01-27-14:21:00,10.1.1.3,27,-0.040,-0.040,-0.040,0.000,0.000,0.000
1643293260607150080,2022-01-27-14:21:00,10.1.1.3,25,-0.030,-0.030,-0.030,0.000,0.000,0.000
1643293260831410944,2022-01-27-14:21:00,10.1.1.3,47,-0.019,-0.019,-0.019,0.000,0.000,0.000
1643293261006577920,2022-01-27-14:21:01,10.1.1.3,22,-0.010,-0.010,-0.010,0.000,0.000,0.000
1643293261230935040,2022-01-27-14:21:01,10.1.1.3,43,-0.001,-0.001,-0.001,0.000,0.000,0.000
1643293261429807872,2022-01-27-14:21:01,10.1.1.3,41,-0.011,-0.011,-0.011,0.000,0.000,0.000
1643293261632000000,2022-01-27-14:21:01,10.1.1.3,41,-0.021,-0.021,-0.021,0.000,0.000,0.000
1643293261827429120,2022-01-27-14:21:01,10.1.1.3,36,-0.031,-0.031,-0.031,0.000,0.000,0.000
1643293262028645120,2022-01-27-14:21:02,10.1.1.3,36,-0.041,-0.041,-0.041,0.000,0.000,0.000
1643293262227070208,2022-01-27-14:21:02,10.1.1.3,34,-0.051,-0.051,-0.051,0.000,0.000,0.000
1643293262428005888,2022-01-27-14:21:02,10.1.1.3,34,-0.060,-0.060,-0.060,0.000,0.000,0.000
1643293262627407104,2022-01-27-14:21:02,10.1.1.3,32,-0.071,-0.071,-0.071,0.000,0.000,0.000
1643293262828481792,2022-01-27-14:21:02,10.1.1.3,31,-0.080,-0.080,-0.080,0.000,0.000,0.000
1643293263032901888,2022-01-27-14:21:03,10.1.1.3,34,-0.090,-0.090,-0.090,0.000,0.000,0.000
1643293263228358912,2022-01-27-14:21:03,10.1.1.3,29,-0.100,-0.100,-0.100,0.000,0.000,0.000
1643293263424942080,2022-01-27-14:21:03,10.1.1.3,25,-0.110,-0.110,-0.110,0.000,0.000,0.000
1643293263629816064,2022-01-27-14:21:03,10.1.1.3,30,-0.120,-0.120,-0.120,0.000,0.000,0.000
1643293263829736960,2022-01-27-14:21:03,10.1.1.3,29,-0.130,-0.130,-0.130,0.000,0.000,0.000
1643293264028783104,2022-01-27-14:21:04,10.1.1.3,27,-0.140,-0.140,-0.140,0.000,0.000,0.000
1643293264228250112,2022-01-27-14:21:04,10.1.1.3,26,-0.150,-0.150,-0.150,0.000,0.000,0.000
1643293264429115136,2022-01-27-14:21:04,10.1.1.3,27,-0.160,-0.160,-0.160,0.000,0.000,0.000
1643293264628015872,2022-01-27-14:21:04,10.1.1.3,23,-0.170,-0.170,-0.170,0.000,0.000,0.000
1643293264837292032,2022-01-27-14:21:04,10.1.1.3,33,-0.180,-0.180,-0.180,0.000,0.000,0.000
1643293265028564992,2022-01-27-14:21:05,10.1.1.3,24,-0.190,-0.190,-0.190,0.000,0.000,0.000
1643293265247444992,2022-01-27-14:21:05,10.1.1.3,40,-0.201,-0.201,-0.201,0.000,0.000,0.000
1643293265409611008,2022-01-27-14:21:05,10.1.1.3,-4,-0.209,-0.209,-0.209,0.000,0.000,0.000
1643293265647613952,2022-01-27-14:21:05,10.1.1.3,37,-0.221,-0.221,-0.221,0.000,0.000,0.000
1643293265847947008,2022-01-27-14:21:05,10.1.1.3,37,-0.231,-0.231,-0.231,0.000,0.000,0.000
1643293266046206976,2022-01-27-14:21:06,10.1.1.3,33,-0.241,-0.241,-0.241,0.000,0.000,0.000
1643293266247962112,2022-01-27-14:21:06,10.1.1.3,34,-0.251,-0.251,-0.251,0.000,0.000,0.000
1643293266447549952,2022-01-27-14:21:06,10.1.1.3,31,-0.260,-0.260,-0.260,0.000,0.000,0.000
1643293266647991040,2022-01-27-14:21:06,10.1.1.3,31,-0.270,-0.270,-0.270,0.000,0.000,0.000
1643293266846432000,2022-01-27-14:21:06,10.1.1.3,29,-0.280,-0.280,-0.280,0.000,0.000,0.000
1643293267046233856,2022-01-27-14:21:07,10.1.1.3,27,-0.290,-0.290,-0.290,0.000,0.000,0.000
1643293267247994880,2022-01-27-14:21:07,10.1.1.3,28,-0.300,-0.300,-0.300,0.000,0.000,0.000
1643293267447626240,2022-01-27-14:21:07,10.1.1.3,27,-0.310,-0.310,-0.310,0.000,0.000,0.000
1643293267648300800,2022-01-27-14:21:07,10.1.1.3,26,-0.320,-0.320,-0.320,0.000,0.000,0.000
1643293267867984128,2022-01-27-14:21:07,10.1.1.3,45,-0.331,-0.331,-0.331,0.000,0.000,0.000
1643293268048648960,2022-01-27-14:21:08,10.1.1.3,25,-0.340,-0.340,-0.340,0.000,0.000,0.000
1643293268267313920,2022-01-27-14:21:08,10.1.1.3,43,-0.351,-0.351,-0.351,0.000,0.000,0.000
1643293268470021888,2022-01-27-14:21:08,10.1.1.3,42,-0.361,-0.361,-0.361,0.000,0.000,0.000
1643293268667457024,2022-01-27-14:21:08,10.1.1.3,36,-0.371,-0.371,-0.371,0.000,0.000,0.000
1643293268868953856,2022-01-27-14:21:08,10.1.1.3,37,-0.381,-0.381,-0.381,0.000,0.000,0.000
1643293269067492864,2022-01-27-14:21:09,10.1.1.3,35,-0.391,-0.391,-0.391,0.000,0.000,0.000
1643293269266711040,2022-01-27-14:21:09,10.1.1.3,32,-0.400,-0.400,-0.400,0.000,0.000,0.000
1643293269469566208,2022-01-27-14:21:09,10.1.1.3,33,-0.410,-0.410,-0.410,0.000,0.000,0.000
1643293269668104960,2022-01-27-14:21:09,10.1.1.3,30,-0.420,-0.420,-0.420,0.000,0.000,0.000
1643293269867894784,2022-01-27-14:21:09,10.1.1.3,29,-0.430,-0.430,-0.430,0.000,0.000,0.000
1643293270064711936,2022-01-27-14:21:10,10.1.1.3,25,-0.440,-0.440,-0.440,0.000,0.000,0.000
1643293270266307072,2022-01-27-14:21:10,10.1.1.3,26,-0.450,-0.450,-0.450,0.000,0.000,0.000
1643293270464883968,2022-01-27-14:21:10,10.1.1.3,22,-0.460,-0.460,-0.460,0.000,0.000,0.000
1643293270664824064,2022-01-27-14:21:10,10.1.1.3,22,-0.470,-0.470,-0.470,0.000,0.000,0.000
1643293270886264064,2022-01-27-14:21:10,10.1.1.3,36,-0.481,-0.481,-0.481,0.000,0.000,0.000
1643293271069401856,2022-01-27-14:21:11,10.1.1.3,17,-0.490,-0.490,-0.490,0.000,0.000,0.000
1643293271288930048,2022-01-27-14:21:11,10.1.1.3,35,-0.479,-0.479,-0.479,0.000,0.000,0.000
1643293271488082944,2022-01-27-14:21:11,10.1.1.3,28,-0.470,-0.470,-0.470,0.000,0.000,0.000
1643293271687567104,2022-01-27-14:21:11,10.1.1.3,27,-0.460,-0.460,-0.460,0.000,0.000,0.000
1643293271889318912,2022-01-27-14:21:11,10.1.1.3,28,-0.450,-0.450,-0.450,0.000,0.000,0.000
1643293272085419008,2022-01-27-14:21:12,10.1.1.3,23,-0.440,-0.440,-0.440,0.000,0.000,0.000
1643293272286503936,2022-01-27-14:21:12,10.1.1.3,22,-0.430,-0.430,-0.430,0.000,0.000,0.000
1643293272487811072,2022-01-27-14:21:12,10.1.1.3,22,-0.420,-0.420,-0.420,0.000,0.000,0.000
1643293272707240192,2022-01-27-14:21:12,10.1.1.3,38,-0.409,-0.409,-0.409,0.000,0.000,0.000
1643293272904700160,2022-01-27-14:21:12,10.1.1.3,36,-0.399,-0.399,-0.399,0.000,0.000,0.000
1643293273106606848,2022-01-27-14:21:13,10.1.1.3,37,-0.389,-0.389,-0.389,0.000,0.000,0.000
1643293273304143872,2022-01-27-14:21:13,10.1.1.3,34,-0.379,-0.379,-0.379,0.000,0.000,0.000
1643293273504865024,2022-01-27-14:21:13,10.1.1.3,34,-0.369,-0.369,-0.369,0.000,0.000,0.000
1643293273707316992,2022-01-27-14:21:13,10.1.1.3,35,-0.359,-0.359,-0.359,0.000,0.000,0.000
1643293273907796992,2022-01-27-14:21:13,10.1.1.3,34,-0.350,-0.350,-0.350,0.000,0.000,0.000
1643293274106786048,2022-01-27-14:21:14,10.1.1.3,30,-0.340,-0.340,-0.340,0.000,0.000,0.000
1643293274308481024,2022-01-27-14:21:14,10.1.1.3,31,-0.330,-0.330,-0.330,0.000,0.000,0.000
1643293274508764928,2022-01-27-14:21:14,10.1.1.3,30,-0.320,-0.320,-0.320,0.000,0.000,0.000
1643293274706844928,2022-01-27-14:21:14,10.1.1.3,28,-0.310,-0.310,-0.310,0.000,0.000,0.000
1643293274905977856,2022-01-27-14:21:14,10.1.1.3,25,-0.300,-0.300,-0.300,0.000,0.000,0.000
1643293275127293184,2022-01-27-14:21:15,10.1.1.3,45,-0.289,-0.289,-0.289,0.000,0.000,0.000
1643293275326747904,2022-01-27-14:21:15,10.1.1.3,39,-0.279,-0.279,-0.279,0.000,0.000,0.000
1643293275528677888,2022-01-27-14:21:15,10.1.1.3,40,-0.269,-0.269,-0.269,0.000,0.000,0.000
1643293275726999040,2022-01-27-14:21:15,10.1.1.3,37,-0.259,-0.259,-0.259,0.000,0.000,0.000
1643293275925796864,2022-01-27-14:21:15,10.1.1.3,34,-0.249,-0.249,-0.249,0.000,0.000,0.000
1643293276126327040,2022-01-27-14:21:16,10.1.1.3,34,-0.240,-0.240,-0.240,0.000,0.000,0.000
1643293276326586880,2022-01-27-14:21:16,10.1.1.3,33,-0.229,-0.229,-0.229,0.000,0.000,0.000
1643293276526348032,2022-01-27-14:21:16,10.1.1.3,32,-0.219,-0.219,-0.219,0.000,0.000,0.000
1643293276725586944,2022-01-27-14:21:16,10.1.1.3,31,-0.210,-0.210,-0.210,0.000,0.000,0.000
1643293276927014144,2022-01-27-14:21:16,10.1.1.3,27,-0.200,-0.200,-0.200,0.000,0.000,0.000
1643293277132935936,2022-01-27-14:21:17,10.1.1.3,35,-0.190,-0.190,-0.190,0.000,0.000,0.000
1643293277325606144,2022-01-27-14:21:17,10.1.1.3,27,-0.180,-0.180,-0.180,0.000,0.000,0.000
1643293277526368000,2022-01-27-14:21:17,10.1.1.3,27,-0.170,-0.170,-0.170,0.000,0.000,0.000
1643293277726729984,2022-01-27-14:21:17,10.1.1.3,27,-0.160,-0.160,-0.160,0.000,0.000,0.000
1643293277925905920,2022-01-27-14:21:17,10.1.1.3,24,-0.150,-0.150,-0.150,0.000,0.000,0.000
1643293278125958912,2022-01-27-14:21:18,10.1.1.3,25,-0.140,-0.140,-0.140,0.000,0.000,0.000
1643293278325388800,2022-01-27-14:21:18,10.1.1.3,24,-0.130,-0.130,-0.130,0.000,0.000,0.000
1643293278528230912,2022-01-27-14:21:18,10.1.1.3,27,-0.120,-0.120,-0.120,0.000,0.000,0.000
1643293278725665024,2022-01-27-14:21:18,10.1.1.3,24,-0.110,-0.110,-0.110,0.000,0.000,0.000
1643293278927992064,2022-01-27-14:21:18,10.1.1.3,24,-0.100,-0.100,-0.100,0.000,0.000,0.000
1643293279125508096,2022-01-27-14:21:19,10.1.1.3,22,-0.090,-0.090,-0.090,0.000,0.000,0.000
1643293279326369024,2022-01-27-14:21:19,10.1.1.3,22,-0.080,-0.080,-0.080,0.000,0.000,0.000
1643293279528307968,2022-01-27-14:21:19,10.1.1.3,23,-0.070,-0.070,-0.070,0.000,0.000,0.000
1643293279745127936,2022-01-27-14:21:19,10.1.1.3,38,-0.059,-0.059,-0.059,0.000,0.000,0.000
1643293279947577856,2022-01-27-14:21:19,10.1.1.3,40,-0.049,-0.049,-0.049,0.000,0.000,0.000
1643293280144678144,2022-01-27-14:21:20,10.1.1.3,36,-0.039,-0.039,-0.039,0.000,0.000,0.000
1643293280347242240,2022-01-27-14:21:20,10.1.1.3,38,-0.029,-0.029,-0.029,0.000,0.000,0.000
1643293280546760960,2022-01-27-14:21:20,10.1.1.3,36,-0.019,-0.019,-0.019,0.000,0.000,0.000
1643293280747193088,2022-01-27-14:21:20,10.1.1.3,36,-0.009,-0.009,-0.009,0.000,0.000,0.000
1643293280928157952,2022-01-27-14:21:20,10.1.1.3,16,-0.000,-0.000,-0.000,0.000,0.000,0.000
1643293281185197056,2022-01-27-14:21:21,10.1.1.3,51,-0.011,-0.011,-0.011,0.000,0.000,0.000
1643293281386368000,2022-01-27-14:21:21,10.1.1.3,28,-0.020,-0.020,-0.020,0.000,0.000,0.000
1643293281585846016,2022-01-27-14:21:21,10.1.1.3,26,-0.030,-0.030,-0.030,0.000,0.000,0.000
1643293281787298816,2022-01-27-14:21:21,10.1.1.3,26,-0.040,-0.040,-0.040,0.000,0.000,0.000
1643293281987054080,2022-01-27-14:21:21,10.1.1.3,26,-0.050,-0.050,-0.050,0.000,0.000,0.000
1643293282187629056,2022-01-27-14:21:22,10.1.1.3,26,-0.060,-0.060,-0.060,0.000,0.000,0.000
1643293282386418944,2022-01-27-14:21:22,10.1.1.3,25,-0.070,-0.070,-0.070,0.000,0.000,0.000
1643293282584142848,2022-01-27-14:21:22,10.1.1.3,22,-0.080,-0.080,-0.080,0.000,0.000,0.000
1643293282785774848,2022-01-27-14:21:22,10.1.1.3,22,-0.090,-0.090,-0.090,0.000,0.000,0.000
1643293282985528064,2022-01-27-14:21:22,10.1.1.3,21,-0.100,-0.100,-0.100,0.000,0.000,0.000
1643293283185810944,2022-01-27-14:21:23,10.1.1.3,22,-0.110,-0.110,-0.110,0.000,0.000,0.000
1643293283384336896,2022-01-27-14:21:23,10.1.1.3,19,-0.120,-0.120,-0.120,0.000,0.000,0.000
1643293283605291008,2022-01-27-14:21:23,10.1.1.3,35,-0.131,-0.131,-0.131,0.000,0.000,0.000
1643293283806490880,2022-01-27-14:21:23,10.1.1.3,35,-0.141,-0.141,-0.141,0.000,0.000,0.000
1643293284007083008,2022-01-27-14:21:24,10.1.1.3,35,-0.151,-0.151,-0.151,0.000,0.000,0.000
1643293284204562944,2022-01-27-14:21:24,10.1.1.3,31,-0.161,-0.161,-0.161,0.000,0.000,0.000
1643293284407310848,2022-01-27-14:21:24,10.1.1.3,32,-0.171,-0.171,-0.171,0.000,0.000,0.000
1643293284605620992,2022-01-27-14:21:24,10.1.1.3,30,-0.181,-0.181,-0.181,0.000,0.000,0.000
1643293284805926144,2022-01-27-14:21:24,10.1.1.3,29,-0.190,-0.190,-0.190,0.000,0.000,0.000
1643293285004864000,2022-01-27-14:21:25,10.1.1.3,27,-0.200,-0.200,-0.200,0.000,0.000,0.000
1643293285207428096,2022-01-27-14:21:25,10.1.1.3,29,-0.210,-0.210,-0.210,0.000,0.000,0.000
1643293285407557120,2022-01-27-14:21:25,10.1.1.3,28,-0.220,-0.220,-0.220,0.000,0.000,0.000
1643293285605671936,2022-01-27-14:21:25,10.1.1.3,25,-0.230,-0.230,-0.230,0.000,0.000,0.000
1643293285805975808,2022-01-27-14:21:25,10.1.1.3,26,-0.240,-0.240,-0.240,0.000,0.000,0.000
1643293286007320832,2022-01-27-14:21:26,10.1.1.3,26,-0.250,-0.250,-0.250,0.000,0.000,0.000
1643293286204793088,2022-01-27-14:21:26,10.1.1.3,23,-0.260,-0.260,-0.260,0.000,0.000,0.000
1643293286410285824,2022-01-27-14:21:26,10.1.1.3,28,-0.270,-0.270,-0.270,0.000,0.000,0.000
1643293286622089984,2022-01-27-14:21:26,10.1.1.3,36,-0.280,-0.280,-0.280,0.000,0.000,0.000
1643293286805856000,2022-01-27-14:21:26,10.1.1.3,20,-0.290,-0.290,-0.290,0.000,0.000,0.000
1643293287025469952,2022-01-27-14:21:27,10.1.1.3,39,-0.301,-0.301,-0.301,0.000,0.000,0.000
1643293287227448832,2022-01-27-14:21:27,10.1.1.3,40,-0.311,-0.311,-0.311,0.000,0.000,0.000
1643293287425358080,2022-01-27-14:21:27,10.1.1.3,37,-0.321,-0.321,-0.321,0.000,0.000,0.000
1643293287626629120,2022-01-27-14:21:27,10.1.1.3,36,-0.331,-0.331,-0.331,0.000,0.000,0.000
1643293287825504000,2022-01-27-14:21:27,10.1.1.3,35,-0.341,-0.341,-0.341,0.000,0.000,0.000
1643293288046608896,2022-01-27-14:21:28,10.1.1.3,25,-0.350,-0.350,-0.350,0.000,0.000,0.000
1643293288245805056,2022-01-27-14:21:28,10.1.1.3,25,-0.360,-0.360,-0.360,0.000,0.000,0.000
1643293288446966016,2022-01-27-14:21:28,10.1.1.3,26,-0.370,-0.370,-0.370,0.000,0.000,0.000
1643293288645181952,2022-01-27-14:21:28,10.1.1.3,23,-0.380,-0.380,-0.380,0.000,0.000,0.000
1643293288846412800,2022-01-27-14:21:28,10.1.1.3,24,-0.390,-0.390,-0.390,0.000,0.000,0.000
1643293289066044160,2022-01-27-14:21:29,10.1.1.3,43,-0.401,-0.401,-0.401,0.000,0.000,0.000
1643293289246696960,2022-01-27-14:21:29,10.1.1.3,23,-0.410,-0.410,-0.410,0.000,0.000,0.000
1643293289450622208,2022-01-27-14:21:29,10.1.1.3,27,-0.420,-0.420,-0.420,0.000,0.000,0.000
1643293289645524992,2022-01-27-14:21:29,10.1.1.3,21,-0.430,-0.430,-0.430,0.000,0.000,0.000
1643293289844304128,2022-01-27-14:21:29,10.1.1.3,18,-0.440,-0.440,-0.440,0.000,0.000,0.000
1643293290066833920,2022-01-27-14:21:30,10.1.1.3,39,-0.451,-0.451,-0.451,0.000,0.000,0.000
1643293290264751872,2022-01-27-14:21:30,10.1.1.3,36,-0.461,-0.461,-0.461,0.000,0.000,0.000
1643293290465538048,2022-01-27-14:21:30,10.1.1.3,36,-0.471,-0.471,-0.471,0.000,0.000,0.000
1643293290667332864,2022-01-27-14:21:30,10.1.1.3,35,-0.481,-0.481,-0.481,0.000,0.000,0.000
1643293290848532992,2022-01-27-14:21:30,10.1.1.3,18,-0.490,-0.490,-0.490,0.000,0.000,0.000
1643293291065933824,2022-01-27-14:21:31,10.1.1.3,35,-0.479,-0.479,-0.479,0.000,0.000,0.000
1643293291264780032,2022-01-27-14:21:31,10.1.1.3,33,-0.469,-0.469,-0.469,0.000,0.000,0.000
1643293291466636032,2022-01-27-14:21:31,10.1.1.3,34,-0.459,-0.459,-0.459,0.000,0.000,0.000
1643293291666779904,2022-01-27-14:21:31,10.1.1.3,34,-0.449,-0.449,-0.449,0.000,0.000,0.000
1643293291881297152,2022-01-27-14:21:31,10.1.1.3,40,-0.440,-0.440,-0.440,0.000,0.000,0.000
1643293292065393920,2022-01-27-14:21:32,10.1.1.3,23,-0.430,-0.430,-0.430,0.000,0.000,0.000
1643293292288513024,2022-01-27-14:21:32,10.1.1.3,44,-0.419,-0.419,-0.419,0.000,0.000,0.000
1643293292465044992,2022-01-27-14:21:32,10.1.1.3,22,-0.410,-0.410,-0.410,0.000,0.000,0.000
1643293292665760000,2022-01-27-14:21:32,10.1.1.3,22,-0.400,-0.400,-0.400,0.000,0.000,0.000
1643293292867755776,2022-01-27-14:21:32,10.1.1.3,23,-0.390,-0.390,-0.390,0.000,0.000,0.000
1643293293066742784,2022-01-27-14:21:33,10.1.1.3,21,-0.380,-0.380,-0.380,0.000,0.000,0.000
1643293293288058112,2022-01-27-14:21:33,10.1.1.3,40,-0.369,-0.369,-0.369,0.000,0.000,0.000
1643293293488197120,2022-01-27-14:21:33,10.1.1.3,40,-0.359,-0.359,-0.359,0.000,0.000,0.000
1643293293687504896,2022-01-27-14:21:33,10.1.1.3,36,-0.349,-0.349,-0.349,0.000,0.000,0.000
1643293293888897792,2022-01-27-14:21:33,10.1.1.3,36,-0.339,-0.339,-0.339,0.000,0.000,0.000
1643293294085421056,2022-01-27-14:21:34,10.1.1.3,36,-0.329,-0.329,-0.329,0.000,0.000,0.000
1643293294284205824,2022-01-27-14:21:34,10.1.1.3,33,-0.319,-0.319,-0.319,0.000,0.000,0.000
1643293294488418048,2022-01-27-14:21:34,10.1.1.3,35,-0.309,-0.309,-0.309,0.000,0.000,0.000
1643293294687572992,2022-01-27-14:21:34,10.1.1.3,33,-0.300,-0.300,-0.300,0.000,0.000,0.000
1643293294887430912,2022-01-27-14:21:34,10.1.1.3,32,-0.290,-0.290,-0.290,0.000,0.000,0.000
1643293295084331008,2022-01-27-14:21:35,10.1.1.3,28,-0.280,-0.280,-0.280,0.000,0.000,0.000
1643293295287465216,2022-01-27-14:21:35,10.1.1.3,29,-0.270,-0.270,-0.270,0.000,0.000,0.000
1643293295488099072,2022-01-27-14:21:35,10.1.1.3,29,-0.260,-0.260,-0.260,0.000,0.000,0.000
1643293295687002880,2022-01-27-14:21:35,10.1.1.3,27,-0.250,-0.250,-0.250,0.000,0.000,0.000
1643293295884509184,2022-01-27-14:21:35,10.1.1.3,24,-0.240,-0.240,-0.240,0.000,0.000,0.000
1643293296084186112,2022-01-27-14:21:36,10.1.1.3,23,-0.230,-0.230,-0.230,0.000,0.000,0.000
1643293296285208064,2022-01-27-14:21:36,10.1.1.3,23,-0.220,-0.220,-0.220,0.000,0.000,0.000
1643293296484030976,2022-01-27-14:21:36,10.1.1.3,21,-0.210,-0.210,-0.210,0.000,0.000,0.000
1643293296707397888,2022-01-27-14:21:36,10.1.1.3,43,-0.199,-0.199,-0.199,0.000,0.000,0.000
1643293296905787904,2022-01-27-14:21:36,10.1.1.3,39,-0.189,-0.189,-0.189,0.000,0.000,0.000
1643293297113112832,2022-01-27-14:21:37,10.1.1.3,39,-0.179,-0.179,-0.179,0.000,0.000,0.000
1643293297305039872,2022-01-27-14:21:37,10.1.1.3,37,-0.169,-0.169,-0.169,0.000,0.000,0.000
1643293297506316032,2022-01-27-14:21:37,10.1.1.3,37,-0.159,-0.159,-0.159,0.000,0.000,0.000
1643293297704238848,2022-01-27-14:21:37,10.1.1.3,34,-0.149,-0.149,-0.149,0.000,0.000,0.000
1643293297911435008,2022-01-27-14:21:37,10.1.1.3,41,-0.139,-0.139,-0.139,0.000,0.000,0.000
1643293298108505088,2022-01-27-14:21:38,10.1.1.3,37,-0.129,-0.129,-0.129,0.000,0.000,0.000
1643293298305598976,2022-01-27-14:21:38,10.1.1.3,33,-0.119,-0.119,-0.119,0.000,0.000,0.000
1643293298507985152,2022-01-27-14:21:38,10.1.1.3,35,-0.109,-0.109,-0.109,0.000,0.000,0.000
1643293298710217984,2022-01-27-14:21:38,10.1.1.3,36,-0.100,-0.100,-0.100,0.000,0.000,0.000
1643293298907363840,2022-01-27-14:21:38,10.1.1.3,30,-0.090,-0.090,-0.090,0.000,0.000,0.000
1643293299110960128,2022-01-27-14:21:39,10.1.1.3,33,-0.080,-0.080,-0.080,0.000,0.000,0.000
1643293299307462912,2022-01-27-14:21:39,10.1.1.3,29,-0.070,-0.070,-0.070,0.000,0.000,0.000
1643293299505868800,2022-01-27-14:21:39,10.1.1.3,26,-0.060,-0.060,-0.060,0.000,0.000,0.000
1643293299705915904,2022-01-27-14:21:39,10.1.1.3,26,-0.050,-0.050,-0.050,0.000,0.000,0.000
1643293299904099072,2022-01-27-14:21:39,10.1.1.3,23,-0.040,-0.040,-0.040,0.000,0.000,0.000
1643293300106851072,2022-01-27-14:21:40,10.1.1.3,25,-0.030,-0.030,-0.030,0.000,0.000,0.000
1643293300327163904,2022-01-27-14:21:40,10.1.1.3,43,-0.019,-0.019,-0.019,0.000,0.000,0.000
1643293300525655040,2022-01-27-14:21:40,10.1.1.3,41,-0.009,-0.009,-0.009,0.000,0.000,0.000
1643293300686726144,2022-01-27-14:21:40,10.1.1.3,1,-0.001,-0.001,-0.001,0.000,0.000,0.000
1643293300927931904,2022-01-27-14:21:40,10.1.1.3,40,-0.011,-0.011,-0.011,0.000,0.000,0.000
1643293301128676864,2022-01-27-14:21:41,10.1.1.3,40,-0.021,-0.021,-0.021,0.000,0.000,0.000
1643293301326893056,2022-01-27-14:21:41,10.1.1.3,38,-0.031,-0.031,-0.031,0.000,0.000,0.000
1643293301524274944,2022-01-27-14:21:41,10.1.1.3,35,-0.041,-0.041,-0.041,0.000,0.000,0.000
1643293301727177984,2022-01-27-14:21:41,10.1.1.3,36,-0.051,-0.051,-0.051,0.000,0.000,0.000
1643293301924654080,2022-01-27-14:21:41,10.1.1.3,32,-0.061,-0.061,-0.061,0.000,0.000,0.000
1643293302126945024,2022-01-27-14:21:42,10.1.1.3,34,-0.071,-0.071,-0.071,0.000,0.000,0.000
1643293302325393920,2022-01-27-14:21:42,10.1.1.3,31,-0.080,-0.080,-0.080,0.000,0.000,0.000
1643293302526827008,2022-01-27-14:21:42,10.1.1.3,32,-0.091,-0.091,-0.091,0.000,0.000,0.000
1643293302726705152,2022-01-27-14:21:42,10.1.1.3,31,-0.101,-0.101,-0.101,0.000,0.000,0.000
1643293302925810944,2022-01-27-14:21:42,10.1.1.3,29,-0.111,-0.111,-0.111,0.000,0.000,0.000
1643293303126162944,2022-01-27-14:21:43,10.1.1.3,29,-0.120,-0.120,-0.120,0.000,0.000,0.000
1643293303324496896,2022-01-27-14:21:43,10.1.1.3,27,-0.130,-0.130,-0.130,0.000,0.000,0.000
1643293303527027968,2022-01-27-14:21:43,10.1.1.3,26,-0.140,-0.140,-0.140,0.000,0.000,0.000
1643293303726739968,2022-01-27-14:21:43,10.1.1.3,28,-0.150,-0.150,-0.150,0.000,0.000,0.000
1643293303924791040,2022-01-27-14:21:43,10.1.1.3,25,-0.160,-0.160,-0.160,0.000,0.000,0.000
1643293304127335168,2022-01-27-14:21:44,10.1.1.3,28,-0.170,-0.170,-0.170,0.000,0.000,0.000
1643293304327162112,2022-01-27-14:21:44,10.1.1.3,27,-0.180,-0.180,-0.180,0.000,0.000,0.000
1643293304528142080,2022-01-27-14:21:44,10.1.1.3,28,-0.190,-0.190,-0.190,0.000,0.000,0.000
1643293304727699968,2022-01-27-14:21:44,10.1.1.3,27,-0.200,-0.200,-0.200,0.000,0.000,0.000
1643293304963177984,2022-01-27-14:21:44,10.1.1.3,56,-0.210,-0.210,-0.210,0.000,0.000,0.000
1643293305126585856,2022-01-27-14:21:45,10.1.1.3,24,-0.220,-0.220,-0.220,0.000,0.000,0.000
1643293305347142912,2022-01-27-14:21:45,10.1.1.3,44,-0.231,-0.231,-0.231,0.000,0.000,0.000
1643293305528553984,2022-01-27-14:21:45,10.1.1.3,24,-0.240,-0.240,-0.240,0.000,0.000,0.000
1643293305725581824,2022-01-27-14:21:45,10.1.1.3,21,-0.250,-0.250,-0.250,0.000,0.000,0.000
1643293305947022848,2022-01-27-14:21:45,10.1.1.3,41,-0.261,-0.261,-0.261,0.000,0.000,0.000
1643293306146864896,2022-01-27-14:21:46,10.1.1.3,38,-0.271,-0.271,-0.271,0.000,0.000,0.000
1643293306347478016,2022-01-27-14:21:46,10.1.1.3,37,-0.281,-0.281,-0.281,0.000,0.000,0.000
1643293306545180160,2022-01-27-14:21:46,10.1.1.3,32,-0.291,-0.291,-0.291,0.000,0.000,0.000
1643293306746990080,2022-01-27-14:21:46,10.1.1.3,32,-0.301,-0.301,-0.301,0.000,0.000,0.000
1643293306945362944,2022-01-27-14:21:46,10.1.1.3,28,-0.310,-0.310,-0.310,0.000,0.000,0.000
1643293307145337088,2022-01-27-14:21:47,10.1.1.3,28,-0.320,-0.320,-0.320,0.000,0.000,0.000
1643293307346235136,2022-01-27-14:21:47,10.1.1.3,28,-0.330,-0.330,-0.330,0.000,0.000,0.000
1643293307545500160,2022-01-27-14:21:47,10.1.1.3,26,-0.340,-0.340,-0.340,0.000,0.000,0.000
1643293307751382016,2022-01-27-14:21:47,10.1.1.3,30,-0.350,-0.350,-0.350,0.000,0.000,0.000
1643293307947563776,2022-01-27-14:21:47,10.1.1.3,25,-0.360,-0.360,-0.360,0.000,0.000,0.000
1643293308169137920,2022-01-27-14:21:48,10.1.1.3,46,-0.371,-0.371,-0.371,0.000,0.000,0.000
1643293308346872064,2022-01-27-14:21:48,10.1.1.3,23,-0.380,-0.380,-0.380,0.000,0.000,0.000
1643293308565331968,2022-01-27-14:21:48,10.1.1.3,41,-0.391,-0.391,-0.391,0.000,0.000,0.000
1643293308745837056,2022-01-27-14:21:48,10.1.1.3,20,-0.400,-0.400,-0.400,0.000,0.000,0.000
1643293308945040896,2022-01-27-14:21:48,10.1.1.3,18,-0.410,-0.410,-0.410,0.000,0.000,0.000
1643293309165149952,2022-01-27-14:21:49,10.1.1.3,35,-0.421,-0.421,-0.421,0.000,0.000,0.000
1643293309367078144,2022-01-27-14:21:49,10.1.1.3,36,-0.431,-0.431,-0.431,0.000,0.000,0.000
1643293309567315200,2022-01-27-14:21:49,10.1.1.3,35,-0.441,-0.441,-0.441,0.000,0.000,0.000
1643293309767570944,2022-01-27-14:21:49,10.1.1.3,34,-0.451,-0.451,-0.451,0.000,0.000,0.000
1643293309967186944,2022-01-27-14:21:49,10.1.1.3,31,-0.461,-0.461,-0.461,0.000,0.000,0.000
1643293310169156096,2022-01-27-14:21:50,10.1.1.3,31,-0.470,-0.470,-0.470,0.000,0.000,0.000
1643293310366184960,2022-01-27-14:21:50,10.1.1.3,26,-0.480,-0.480,-0.480,0.000,0.000,0.000
1643293310547441920,2022-01-27-14:21:50,10.1.1.3,5,-0.489,-0.489,-0.489,0.000,0.000,0.000
1643293310767819776,2022-01-27-14:21:50,10.1.1.3,24,-0.480,-0.480,-0.480,0.000,0.000,0.000
1643293310971067904,2022-01-27-14:21:50,10.1.1.3,27,-0.470,-0.470,-0.470,0.000,0.000,0.000
1643293311190062080,2022-01-27-14:21:51,10.1.1.3,41,-0.459,-0.459,-0.459,0.000,0.000,0.000
1643293311385271040,2022-01-27-14:21:51,10.1.1.3,36,-0.449,-0.449,-0.449,0.000,0.000,0.000
1643293311586397952,2022-01-27-14:21:51,10.1.1.3,37,-0.439,-0.439,-0.439,0.000,0.000,0.000
1643293311785164032,2022-01-27-14:21:51,10.1.1.3,35,-0.429,-0.429,-0.429,0.000,0.000,0.000
1643293311984627968,2022-01-27-14:21:51,10.1.1.3,33,-0.419,-0.419,-0.419,0.000,0.000,0.000
1643293312186147072,2022-01-27-14:21:52,10.1.1.3,34,-0.409,-0.409,-0.409,0.000,0.000,0.000
1643293312384998912,2022-01-27-14:21:52,10.1.1.3,32,-0.400,-0.400,-0.400,0.000,0.000,0.000
1643293312587255040,2022-01-27-14:21:52,10.1.1.3,30,-0.390,-0.390,-0.390,0.000,0.000,0.000
1643293312784923136,2022-01-27-14:21:52,10.1.1.3,26,-0.380,-0.380,-0.380,0.000,0.000,0.000
1643293312987554048,2022-01-27-14:21:52,10.1.1.3,27,-0.370,-0.370,-0.370,0.000,0.000,0.000
1643293313187275776,2022-01-27-14:21:53,10.1.1.3,25,-0.360,-0.360,-0.360,0.000,0.000,0.000
1643293313384773888,2022-01-27-14:21:53,10.1.1.3,22,-0.350,-0.350,-0.350,0.000,0.000,0.000
1643293313586628864,2022-01-27-14:21:53,10.1.1.3,22,-0.340,-0.340,-0.340,0.000,0.000,0.000
1643293313806701824,2022-01-27-14:21:53,10.1.1.3,35,-0.329,-0.329,-0.329,0.000,0.000,0.000
1643293314006003968,2022-01-27-14:21:54,10.1.1.3,34,-0.319,-0.319,-0.319,0.000,0.000,0.000
1643293314206579968,2022-01-27-14:21:54,10.1.1.3,34,-0.309,-0.309,-0.309,0.000,0.000,0.000
1643293314408643840,2022-01-27-14:21:54,10.1.1.3,31,-0.299,-0.299,-0.299,0.000,0.000,0.000
1643293314604352000,2022-01-27-14:21:54,10.1.1.3,30,-0.289,-0.289,-0.289,0.000,0.000,0.000
1643293314805565184,2022-01-27-14:21:54,10.1.1.3,30,-0.279,-0.279,-0.279,0.000,0.000,0.000
1643293315007417856,2022-01-27-14:21:55,10.1.1.3,31,-0.269,-0.269,-0.269,0.000,0.000,0.000
1643293315208017152,2022-01-27-14:21:55,10.1.1.3,31,-0.260,-0.260,-0.260,0.000,0.000,0.000
1643293315407098112,2022-01-27-14:21:55,10.1.1.3,29,-0.250,-0.250,-0.250,0.000,0.000,0.000
1643293315607502080,2022-01-27-14:21:55,10.1.1.3,29,-0.240,-0.240,-0.240,0.000,0.000,0.000
1643293315808722944,2022-01-27-14:21:55,10.1.1.3,29,-0.230,-0.230,-0.230,0.000,0.000,0.000
1643293316004254208,2022-01-27-14:21:56,10.1.1.3,24,-0.220,-0.220,-0.220,0.000,0.000,0.000
1643293316206237184,2022-01-27-14:21:56,10.1.1.3,23,-0.210,-0.210,-0.210,0.000,0.000,0.000
1643293316405698048,2022-01-27-14:21:56,10.1.1.3,23,-0.200,-0.200,-0.200,0.000,0.000,0.000
1643293316606195968,2022-01-27-14:21:56,10.1.1.3,23,-0.190,-0.190,-0.190,0.000,0.000,0.000
1643293316826610944,2022-01-27-14:21:56,10.1.1.3,42,-0.179,-0.179,-0.179,0.000,0.000,0.000
1643293317005903872,2022-01-27-14:21:57,10.1.1.3,22,-0.170,-0.170,-0.170,0.000,0.000,0.000
1643293317227375872,2022-01-27-14:21:57,10.1.1.3,41,-0.159,-0.159,-0.159,0.000,0.000,0.000
1643293317425833984,2022-01-27-14:21:57,10.1.1.3,37,-0.149,-0.149,-0.149,0.000,0.000,0.000
1643293317624787968,2022-01-27-14:21:57,10.1.1.3,29,-0.139,-0.139,-0.139,0.000,0.000,0.000
1643293317824978176,2022-01-27-14:21:57,10.1.1.3,28,-0.130,-0.130,-0.130,0.000,0.000,0.000
1643293318025463040,2022-01-27-14:21:58,10.1.1.3,27,-0.120,-0.120,-0.120,0.000,0.000,0.000
1643293318227267072,2022-01-27-14:21:58,10.1.1.3,29,-0.110,-0.110,-0.110,0.000,0.000,0.000
1643293318427293184,2022-01-27-14:21:58,10.1.1.3,28,-0.100,-0.100,-0.100,0.000,0.000,0.000
1643293318624805888,2022-01-27-14:21:58,10.1.1.3,25,-0.090,-0.090,-0.090,0.000,0.000,0.000
1643293318825927936,2022-01-27-14:21:58,10.1.1.3,25,-0.080,-0.080,-0.080,0.000,0.000,0.000
1643293319028325120,2022-01-27-14:21:59,10.1.1.3,24,-0.070,-0.070,-0.070,0.000,0.000,0.000
1643293319225122048,2022-01-27-14:21:59,10.1.1.3,23,-0.060,-0.060,-0.060,0.000,0.000,0.000
1643293319448115200,2022-01-27-14:21:59,10.1.1.3,45,-0.049,-0.049,-0.049,0.000,0.000,0.000
1643293319629411840,2022-01-27-14:21:59,10.1.1.3,23,-0.040,-0.040,-0.040,0.000,0.000,0.000
1643293319848313088,2022-01-27-14:21:59,10.1.1.3,41,-0.029,-0.029,-0.029,0.000,0.000,0.000
1643293320045840128,2022-01-27-14:22:00,10.1.1.3,36,-0.019,-0.019,-0.019,0.000,0.000,0.000
1643293320247076864,2022-01-27-14:22:00,10.1.1.3,38,-0.009,-0.009,-0.009,0.000,0.000,0.000
1643293320428805120,2022-01-27-14:22:00,10.1.1.3,19,-0.000,-0.000,-0.000,0.000,0.000,0.000
1643293320648225024,2022-01-27-14:22:00,10.1.1.3,37,-0.011,-0.011,-0.011,0.000,0.000,0.000
1643293320847614976,2022-01-27-14:22:00,10.1.1.3,35,-0.021,-0.021,-0.021,0.000,0.000,0.000
1643293321047581952,2022-01-27-14:22:01,10.1.1.3,33,-0.030,-0.030,-0.030,0.000,0.000,0.000
1643293321247983104,2022-01-27-14:22:01,10.1.1.3,31,-0.040,-0.040,-0.040,0.000,0.000,0.000
1643293321445934080,2022-01-27-14:22:01,10.1.1.3,28,-0.050,-0.050,-0.050,0.000,0.000,0.000
1643293321646370048,2022-01-27-14:22:01,10.1.1.3,28,-0.060,-0.060,-0.060,0.000,0.000,0.000
1643293321847599872,2022-01-27-14:22:01,10.1.1.3,28,-0.070,-0.070,-0.070,0.000,0.000,0.000
1643293322049603840,2022-01-27-14:22:02,10.1.1.3,29,-0.080,-0.080,-0.080,0.000,0.000,0.000
1643293322247233024,2022-01-27-14:22:02,10.1.1.3,25,-0.090,-0.090,-0.090,0.000,0.000,0.000
1643293322449100032,2022-01-27-14:22:02,10.1.1.3,26,-0.100,-0.100,-0.100,0.000,0.000,0.000
1643293322650842880,2022-01-27-14:22:02,10.1.1.3,27,-0.110,-0.110,-0.110,0.000,0.000,0.000
1643293322847047168,2022-01-27-14:22:02,10.1.1.3,18,-0.120,-0.120,-0.120,0.000,0.000,0.000
1643293323067724032,2022-01-27-14:22:03,10.1.1.3,37,-0.131,-0.131,-0.131,0.000,0.000,0.000
1643293323270688000,2022-01-27-14:22:03,10.1.1.3,39,-0.141,-0.141,-0.141,0.000,0.000,0.000
1643293323470148096,2022-01-27-14:22:03,10.1.1.3,37,-0.151,-0.151,-0.151,0.000,0.000,0.000
1643293323669123840,2022-01-27-14:22:03,10.1.1.3,35,-0.160,-0.160,-0.160,0.000,0.000,0.000
1643293323865886976,2022-01-27-14:22:03,10.1.1.3,28,-0.170,-0.170,-0.170,0.000,0.000,0.000
1643293324067233024,2022-01-27-14:22:04,10.1.1.3,27,-0.180,-0.180,-0.180,0.000,0.000,0.000
1643293324267729920,2022-01-27-14:22:04,10.1.1.3,27,-0.190,-0.190,-0.190,0.000,0.000,0.000
1643293324472281856,2022-01-27-14:22:04,10.1.1.3,29,-0.200,-0.200,-0.200,0.000,0.000,0.000
1643293324667428096,2022-01-27-14:22:04,10.1.1.3,25,-0.210,-0.210,-0.210,0.000,0.000,0.000
1643293324868220160,2022-01-27-14:22:04,10.1.1.3,25,-0.220,-0.220,-0.220,0.000,0.000,0.000
1643293325070409984,2022-01-27-14:22:05,10.1.1.3,27,-0.230,-0.230,-0.230,0.000,0.000,0.000
1643293325289064960,2022-01-27-14:22:05,10.1.1.3,45,-0.241,-0.241,-0.241,0.000,0.000,0.000
1643293325471538176,2022-01-27-14:22:05,10.1.1.3,25,-0.250,-0.250,-0.250,0.000,0.000,0.000
1643293325687325952,2022-01-27-14:22:05,10.1.1.3,39,-0.261,-0.261,-0.261,0.000,0.000,0.000
1643293325889529856,2022-01-27-14:22:05,10.1.1.3,40,-0.271,-0.271,-0.271,0.000,0.000,0.000
1643293326089627136,2022-01-27-14:22:06,10.1.1.3,39,-0.281,-0.281,-0.281,0.000,0.000,0.000
1643293326288840960,2022-01-27-14:22:06,10.1.1.3,37,-0.291,-0.291,-0.291,0.000,0.000,0.000
1643293326488250880,2022-01-27-14:22:06,10.1.1.3,36,-0.301,-0.301,-0.301,0.000,0.000,0.000
1643293326685140992,2022-01-27-14:22:06,10.1.1.3,32,-0.311,-0.311,-0.311,0.000,0.000,0.000
1643293326889060864,2022-01-27-14:22:06,10.1.1.3,31,-0.321,-0.321,-0.321,0.000,0.000,0.000
1643293327088026880,2022-01-27-14:22:07,10.1.1.3,33,-0.331,-0.331,-0.331,0.000,0.000,0.000
1643293327287792896,2022-01-27-14:22:07,10.1.1.3,30,-0.340,-0.340,-0.340,0.000,0.000,0.000
1643293327489128960,2022-01-27-14:22:07,10.1.1.3,31,-0.350,-0.350,-0.350,0.000,0.000,0.000
1643293327687556864,2022-01-27-14:22:07,10.1.1.3,29,-0.360,-0.360,-0.360,0.000,0.000,0.000
1643293327887710208,2022-01-27-14:22:07,10.1.1.3,28,-0.370,-0.370,-0.370,0.000,0.000,0.000
1643293328087811840,2022-01-27-14:22:08,10.1.1.3,28,-0.380,-0.380,-0.380,0.000,0.000,0.000
1643293328287173888,2022-01-27-14:22:08,10.1.1.3,26,-0.390,-0.390,-0.390,0.000,0.000,0.000
1643293328487463936,2022-01-27-14:22:08,10.1.1.3,25,-0.400,-0.400,-0.400,0.000,0.000,0.000
1643293328688155904,2022-01-27-14:22:08,10.1.1.3,24,-0.410,-0.410,-0.410,0.000,0.000,0.000
1643293328888205056,2022-01-27-14:22:08,10.1.1.3,24,-0.420,-0.420,-0.420,0.000,0.000,0.000
1643293329085324032,2022-01-27-14:22:09,10.1.1.3,19,-0.430,-0.430,-0.430,0.000,0.000,0.000
1643293329305607168,2022-01-27-14:22:09,10.1.1.3,38,-0.441,-0.441,-0.441,0.000,0.000,0.000
1643293329508404992,2022-01-27-14:22:09,10.1.1.3,40,-0.451,-0.451,-0.451,0.000,0.000,0.000
1643293329705625088,2022-01-27-14:22:09,10.1.1.3,36,-0.461,-0.461,-0.461,0.000,0.000,0.000
1643293329909138944,2022-01-27-14:22:09,10.1.1.3,39,-0.471,-0.471,-0.471,0.000,0.000,0.000
1643293330106808832,2022-01-27-14:22:10,10.1.1.3,35,-0.481,-0.481,-0.481,0.000,0.000,0.000
1643293330286694144,2022-01-27-14:22:10,10.1.1.3,14,-0.490,-0.490,-0.490,0.000,0.000,0.000
1643293330506632960,2022-01-27-14:22:10,10.1.1.3,33,-0.480,-0.480,-0.480,0.000,0.000,0.000
1643293330706803200,2022-01-27-14:22:10,10.1.1.3,32,-0.469,-0.469,-0.469,0.000,0.000,0.000
1643293330908317952,2022-01-27-14:22:10,10.1.1.3,32,-0.460,-0.460,-0.460,0.000,0.000,0.000
1643293331108764928,2022-01-27-14:22:11,10.1.1.3,32,-0.450,-0.450,-0.450,0.000,0.000,0.000
1643293331307663872,2022-01-27-14:22:11,10.1.1.3,30,-0.440,-0.440,-0.440,0.000,0.000,0.000
1643293331505616896,2022-01-27-14:22:11,10.1.1.3,27,-0.430,-0.430,-0.430,0.000,0.000,0.000
1643293331706355968,2022-01-27-14:22:11,10.1.1.3,27,-0.420,-0.420,-0.420,0.000,0.000,0.000
1643293331905508096,2022-01-27-14:22:11,10.1.1.3,25,-0.410,-0.410,-0.410,0.000,0.000,0.000
1643293332105740032,2022-01-27-14:22:12,10.1.1.3,25,-0.400,-0.400,-0.400,0.000,0.000,0.000
1643293332306812928,2022-01-27-14:22:12,10.1.1.3,24,-0.390,-0.390,-0.390,0.000,0.000,0.000
1643293332528450048,2022-01-27-14:22:12,10.1.1.3,38,-0.379,-0.379,-0.379,0.000,0.000,0.000
1643293332725090048,2022-01-27-14:22:12,10.1.1.3,34,-0.369,-0.369,-0.369,0.000,0.000,0.000
1643293332926878976,2022-01-27-14:22:12,10.1.1.3,35,-0.359,-0.359,-0.359,0.000,0.000,0.000
1643293333124967936,2022-01-27-14:22:13,10.1.1.3,32,-0.349,-0.349,-0.349,0.000,0.000,0.000
1643293333326364928,2022-01-27-14:22:13,10.1.1.3,31,-0.339,-0.339,-0.339,0.000,0.000,0.000
1643293333526369024,2022-01-27-14:22:13,10.1.1.3,29,-0.330,-0.330,-0.330,0.000,0.000,0.000
1643293333727472896,2022-01-27-14:22:13,10.1.1.3,29,-0.320,-0.320,-0.320,0.000,0.000,0.000
1643293333948004864,2022-01-27-14:22:13,10.1.1.3,40,-0.309,-0.309,-0.309,0.000,0.000,0.000
1643293334147526144,2022-01-27-14:22:14,10.1.1.3,37,-0.299,-0.299,-0.299,0.000,0.000,0.000
1643293334348633088,2022-01-27-14:22:14,10.1.1.3,34,-0.289,-0.289,-0.289,0.000,0.000,0.000
1643293334552936960,2022-01-27-14:22:14,10.1.1.3,28,-0.280,-0.280,-0.280,0.000,0.000,0.000
1643293334768523008,2022-01-27-14:22:14,10.1.1.3,39,-0.269,-0.269,-0.269,0.000,0.000,0.000
1643293334972140032,2022-01-27-14:22:14,10.1.1.3,42,-0.259,-0.259,-0.259,0.000,0.000,0.000
1643293335168124928,2022-01-27-14:22:15,10.1.1.3,37,-0.249,-0.249,-0.249,0.000,0.000,0.000
1643293335368951040,2022-01-27-14:22:15,10.1.1.3,37,-0.239,-0.239,-0.239,0.000,0.000,0.000
1643293335567853056,2022-01-27-14:22:15,10.1.1.3,35,-0.229,-0.229,-0.229,0.000,0.000,0.000
1643293335767094016,2022-01-27-14:22:15,10.1.1.3,26,-0.220,-0.220,-0.220,0.000,0.000,0.000
1643293335966660096,2022-01-27-14:22:15,10.1.1.3,28,-0.210,-0.210,-0.210,0.000,0.000,0.000
1643293336169467904,2022-01-27-14:22:16,10.1.1.3,30,-0.200,-0.200,-0.200,0.000,0.000,0.000
1643293336367162112,2022-01-27-14:22:16,10.1.1.3,27,-0.190,-0.190,-0.190,0.000,0.000,0.000
1643293336565353984,2022-01-27-14:22:16,10.1.1.3,23,-0.180,-0.180,-0.180,0.000,0.000,0.000
1643293336765504000,2022-01-27-14:22:16,10.1.1.3,22,-0.170,-0.170,-0.170,0.000,0.000,0.000
1643293336984700928,2022-01-27-14:22:16,10.1.1.3,39,-0.159,-0.159,-0.159,0.000,0.000,0.000
1643293337185616896,2022-01-27-14:22:17,10.1.1.3,37,-0.149,-0.149,-0.149,0.000,0.000,0.000
1643293337385438976,2022-01-27-14:22:17,10.1.1.3,36,-0.139,-0.139,-0.139,0.000,0.000,0.000
1643293337587929088,2022-01-27-14:22:17,10.1.1.3,37,-0.129,-0.129,-0.129,0.000,0.000,0.000
1643293337785826048,2022-01-27-14:22:17,10.1.1.3,29,-0.119,-0.119,-0.119,0.000,0.000,0.000
1643293337987698176,2022-01-27-14:22:17,10.1.1.3,29,-0.110,-0.110,-0.110,0.000,0.000,0.000
1643293338186991872,2022-01-27-14:22:18,10.1.1.3,26,-0.100,-0.100,-0.100,0.000,0.000,0.000
1643293338386374912,2022-01-27-14:22:18,10.1.1.3,24,-0.090,-0.090,-0.090,0.000,0.000,0.000
1643293338586882048,2022-01-27-14:22:18,10.1.1.3,23,-0.080,-0.080,-0.080,0.000,0.000,0.000
1643293338785203968,2022-01-27-14:22:18,10.1.1.3,22,-0.070,-0.070,-0.070,0.000,0.000,0.000
1643293339007296000,2022-01-27-14:22:19,10.1.1.3,43,-0.059,-0.059,-0.059,0.000,0.000,0.000
1643293339207401984,2022-01-27-14:22:19,10.1.1.3,42,-0.049,-0.049,-0.049,0.000,0.000,0.000
1643293339405380096,2022-01-27-14:22:19,10.1.1.3,38,-0.039,-0.039,-0.039,0.000,0.000,0.000
1643293339605827072,2022-01-27-14:22:19,10.1.1.3,37,-0.029,-0.029,-0.029,0.000,0.000,0.000
1643293339806332160,2022-01-27-14:22:19,10.1.1.3,36,-0.019,-0.019,-0.019,0.000,0.000,0.000
1643293340008115968,2022-01-27-14:22:20,10.1.1.3,36,-0.009,-0.009,-0.009,0.000,0.000,0.000
1643293340184889088,2022-01-27-14:22:20,10.1.1.3,14,-0.000,-0.000,-0.000,0.000,0.000,0.000
1643293340407803904,2022-01-27-14:22:20,10.1.1.3,36,-0.011,-0.011,-0.011,0.000,0.000,0.000
1643293340605072128,2022-01-27-14:22:20,10.1.1.3,27,-0.020,-0.020,-0.020,0.000,0.000,0.000
1643293340809144064,2022-01-27-14:22:20,10.1.1.3,31,-0.030,-0.030,-0.030,0.000,0.000,0.000
1643293341007983872,2022-01-27-14:22:21,10.1.1.3,27,-0.040,-0.040,-0.040,0.000,0.000,0.000
1643293341208216064,2022-01-27-14:22:21,10.1.1.3,29,-0.050,-0.050,-0.050,0.000,0.000,0.000
1643293341406284032,2022-01-27-14:22:21,10.1.1.3,26,-0.060,-0.060,-0.060,0.000,0.000,0.000
1643293341606385920,2022-01-27-14:22:21,10.1.1.3,26,-0.070,-0.070,-0.070,0.000,0.000,0.000
1643293341809519104,2022-01-27-14:22:21,10.1.1.3,28,-0.080,-0.080,-0.080,0.000,0.000,0.000
1643293342007343104,2022-01-27-14:22:22,10.1.1.3,25,-0.090,-0.090,-0.090,0.000,0.000,0.000
1643293342207845888,2022-01-27-14:22:22,10.1.1.3,25,-0.100,-0.100,-0.100,0.000,0.000,0.000
1643293342410919936,2022-01-27-14:22:22,10.1.1.3,27,-0.110,-0.110,-0.110,0.000,0.000,0.000
1643293342628393984,2022-01-27-14:22:22,10.1.1.3,42,-0.121,-0.121,-0.121,0.000,0.000,0.000
1643293342826964992,2022-01-27-14:22:22,10.1.1.3,39,-0.131,-0.131,-0.131,0.000,0.000,0.000
1643293343024965888,2022-01-27-14:22:23,10.1.1.3,36,-0.141,-0.141,-0.141,0.000,0.000,0.000
1643293343224710912,2022-01-27-14:22:23,10.1.1.3,35,-0.151,-0.151,-0.151,0.000,0.000,0.000
1643293343427849984,2022-01-27-14:22:23,10.1.1.3,37,-0.161,-0.161,-0.161,0.000,0.000,0.000
1643293343630930944,2022-01-27-14:22:23,10.1.1.3,39,-0.171,-0.171,-0.171,0.000,0.000,0.000
1643293343827520000,2022-01-27-14:22:23,10.1.1.3,35,-0.181,-0.181,-0.181,0.000,0.000,0.000
1643293344027024128,2022-01-27-14:22:24,10.1.1.3,33,-0.191,-0.191,-0.191,0.000,0.000,0.000
1643293344227747072,2022-01-27-14:22:24,10.1.1.3,31,-0.200,-0.200,-0.200,0.000,0.000,0.000
1643293344429207040,2022-01-27-14:22:24,10.1.1.3,32,-0.210,-0.210,-0.210,0.000,0.000,0.000
1643293344628144128,2022-01-27-14:22:24,10.1.1.3,30,-0.220,-0.220,-0.220,0.000,0.000,0.000
1643293344825108992,2022-01-27-14:22:24,10.1.1.3,26,-0.230,-0.230,-0.230,0.000,0.000,0.000
1643293345029619968,2022-01-27-14:22:25,10.1.1.3,29,-0.240,-0.240,-0.240,0.000,0.000,0.000
1643293345227913984,2022-01-27-14:22:25,10.1.1.3,27,-0.250,-0.250,-0.250,0.000,0.000,0.000
1643293345431232000,2022-01-27-14:22:25,10.1.1.3,29,-0.260,-0.260,-0.260,0.000,0.000,0.000
1643293345626894080,2022-01-27-14:22:25,10.1.1.3,24,-0.270,-0.270,-0.270,0.000,0.000,0.000
1643293345829088000,2022-01-27-14:22:25,10.1.1.3,25,-0.280,-0.280,-0.280,0.000,0.000,0.000
1643293346028188928,2022-01-27-14:22:26,10.1.1.3,23,-0.290,-0.290,-0.290,0.000,0.000,0.000
1643293346246466048,2022-01-27-14:22:26,10.1.1.3,39,-0.301,-0.301,-0.301,0.000,0.000,0.000
1643293346465411840,2022-01-27-14:22:26,10.1.1.3,32,-0.310,-0.310,-0.310,0.000,0.000,0.000
1643293346667865088,2022-01-27-14:22:26,10.1.1.3,29,-0.320,-0.320,-0.320,0.000,0.000,0.000
1643293346867623168,2022-01-27-14:22:26,10.1.1.3,28,-0.330,-0.330,-0.330,0.000,0.000,0.000
1643293347068358912,2022-01-27-14:22:27,10.1.1.3,27,-0.340,-0.340,-0.340,0.000,0.000,0.000
1643293347268687104,2022-01-27-14:22:27,10.1.1.3,27,-0.350,-0.350,-0.350,0.000,0.000,0.000
1643293347467611904,2022-01-27-14:22:27,10.1.1.3,25,-0.360,-0.360,-0.360,0.000,0.000,0.000
1643293347666300160,2022-01-27-14:22:27,10.1.1.3,22,-0.370,-0.370,-0.370,0.000,0.000,0.000
1643293347885797120,2022-01-27-14:22:27,10.1.1.3,42,-0.381,-0.381,-0.381,0.000,0.000,0.000
1643293348064888832,2022-01-27-14:22:28,10.1.1.3,20,-0.390,-0.390,-0.390,0.000,0.000,0.000
1643293348285584896,2022-01-27-14:22:28,10.1.1.3,38,-0.401,-0.401,-0.401,0.000,0.000,0.000
1643293348489347072,2022-01-27-14:22:28,10.1.1.3,40,-0.411,-0.411,-0.411,0.000,0.000,0.000
1643293348687828992,2022-01-27-14:22:28,10.1.1.3,36,-0.421,-0.421,-0.421,0.000,0.000,0.000
1643293348890779136,2022-01-27-14:22:28,10.1.1.3,40,-0.431,-0.431,-0.431,0.000,0.000,0.000
1643293349087563008,2022-01-27-14:22:29,10.1.1.3,36,-0.441,-0.441,-0.441,0.000,0.000,0.000
1643293349288296960,2022-01-27-14:22:29,10.1.1.3,35,-0.451,-0.451,-0.451,0.000,0.000,0.000
1643293349487842048,2022-01-27-14:22:29,10.1.1.3,33,-0.461,-0.461,-0.461,0.000,0.000,0.000
1643293349687516928,2022-01-27-14:22:29,10.1.1.3,27,-0.470,-0.470,-0.470,0.000,0.000,0.000
1643293349888883200,2022-01-27-14:22:29,10.1.1.3,27,-0.480,-0.480,-0.480,0.000,0.000,0.000
1643293350067836160,2022-01-27-14:22:30,10.1.1.3,5,-0.489,-0.489,-0.489,0.000,0.000,0.000
1643293350289800960,2022-01-27-14:22:30,10.1.1.3,27,-0.480,-0.480,-0.480,0.000,0.000,0.000
1643293350493273088,2022-01-27-14:22:30,10.1.1.3,29,-0.470,-0.470,-0.470,0.000,0.000,0.000
1643293350707046912,2022-01-27-14:22:30,10.1.1.3,43,-0.459,-0.459,-0.459,0.000,0.000,0.000
1643293350908961024,2022-01-27-14:22:30,10.1.1.3,41,-0.449,-0.449,-0.449,0.000,0.000,0.000
1643293351107984896,2022-01-27-14:22:31,10.1.1.3,39,-0.439,-0.439,-0.439,0.000,0.000,0.000
1643293351306753024,2022-01-27-14:22:31,10.1.1.3,37,-0.429,-0.429,-0.429,0.000,0.000,0.000
1643293351508125184,2022-01-27-14:22:31,10.1.1.3,37,-0.419,-0.419,-0.419,0.000,0.000,0.000
1643293351707997952,2022-01-27-14:22:31,10.1.1.3,36,-0.409,-0.409,-0.409,0.000,0.000,0.000
1643293351907536896,2022-01-27-14:22:31,10.1.1.3,34,-0.399,-0.399,-0.399,0.000,0.000,0.000
1643293352108733952,2022-01-27-14:22:32,10.1.1.3,35,-0.389,-0.389,-0.389,0.000,0.000,0.000
1643293352307429120,2022-01-27-14:22:32,10.1.1.3,32,-0.379,-0.379,-0.379,0.000,0.000,0.000
1643293352511138048,2022-01-27-14:22:32,10.1.1.3,34,-0.370,-0.370,-0.370,0.000,0.000,0.000
1643293352708628992,2022-01-27-14:22:32,10.1.1.3,31,-0.360,-0.360,-0.360,0.000,0.000,0.000
1643293352907079936,2022-01-27-14:22:32,10.1.1.3,28,-0.350,-0.350,-0.350,0.000,0.000,0.000
1643293353109220096,2022-01-27-14:22:33,10.1.1.3,29,-0.340,-0.340,-0.340,0.000,0.000,0.000
1643293353305465856,2022-01-27-14:22:33,10.1.1.3,25,-0.330,-0.330,-0.330,0.000,0.000,0.000
1643293353506104832,2022-01-27-14:22:33,10.1.1.3,25,-0.320,-0.320,-0.320,0.000,0.000,0.000
1643293353707396096,2022-01-27-14:22:33,10.1.1.3,22,-0.310,-0.310,-0.310,0.000,0.000,0.000
1643293353925251072,2022-01-27-14:22:33,10.1.1.3,38,-0.299,-0.299,-0.299,0.000,0.000,0.000
1643293354129923072,2022-01-27-14:22:34,10.1.1.3,41,-0.289,-0.289,-0.289,0.000,0.000,0.000
1643293354328079872,2022-01-27-14:22:34,10.1.1.3,38,-0.279,-0.279,-0.279,0.000,0.000,0.000
1643293354528776960,2022-01-27-14:22:34,10.1.1.3,37,-0.269,-0.269,-0.269,0.000,0.000,0.000
1643293354726403840,2022-01-27-14:22:34,10.1.1.3,34,-0.259,-0.259,-0.259,0.000,0.000,0.000
1643293354928199936,2022-01-27-14:22:34,10.1.1.3,35,-0.249,-0.249,-0.249,0.000,0.000,0.000
1643293355126583040,2022-01-27-14:22:35,10.1.1.3,33,-0.239,-0.239,-0.239,0.000,0.000,0.000
1643293355326795008,2022-01-27-14:22:35,10.1.1.3,32,-0.229,-0.229,-0.229,0.000,0.000,0.000
1643293355528333824,2022-01-27-14:22:35,10.1.1.3,30,-0.220,-0.220,-0.220,0.000,0.000,0.000
1643293355731168000,2022-01-27-14:22:35,10.1.1.3,30,-0.210,-0.210,-0.210,0.000,0.000,0.000
1643293355926628096,2022-01-27-14:22:35,10.1.1.3,26,-0.200,-0.200,-0.200,0.000,0.000,0.000
1643293356124964864,2022-01-27-14:22:36,10.1.1.3,24,-0.190,-0.190,-0.190,0.000,0.000,0.000
1643293356325869056,2022-01-27-14:22:36,10.1.1.3,24,-0.180,-0.180,-0.180,0.000,0.000,0.000
1643293356529395200,2022-01-27-14:22:36,10.1.1.3,26,-0.170,-0.170,-0.170,0.000,0.000,0.000
1643293356747881984,2022-01-27-14:22:36,10.1.1.3,42,-0.159,-0.159,-0.159,0.000,0.000,0.000
1643293356926900992,2022-01-27-14:22:36,10.1.1.3,22,-0.150,-0.150,-0.150,0.000,0.000,0.000
1643293357145243904,2022-01-27-14:22:37,10.1.1.3,38,-0.139,-0.139,-0.139,0.000,0.000,0.000
1643293357345649920,2022-01-27-14:22:37,10.1.1.3,38,-0.129,-0.129,-0.129,0.000,0.000,0.000
1643293357546680064,2022-01-27-14:22:37,10.1.1.3,39,-0.119,-0.119,-0.119,0.000,0.000,0.000
1643293357747858944,2022-01-27-14:22:37,10.1.1.3,39,-0.109,-0.109,-0.109,0.000,0.000,0.000
1643293357945867008,2022-01-27-14:22:37,10.1.1.3,37,-0.099,-0.099,-0.099,0.000,0.000,0.000
1643293358146856960,2022-01-27-14:22:38,10.1.1.3,36,-0.089,-0.089,-0.089,0.000,0.000,0.000
1643293358345469952,2022-01-27-14:22:38,10.1.1.3,35,-0.079,-0.079,-0.079,0.000,0.000,0.000
1643293358545402112,2022-01-27-14:22:38,10.1.1.3,34,-0.069,-0.069,-0.069,0.000,0.000,0.000
1643293358748410880,2022-01-27-14:22:38,10.1.1.3,36,-0.059,-0.059,-0.059,0.000,0.000,0.000
1643293358945580032,2022-01-27-14:22:38,10.1.1.3,32,-0.049,-0.049,-0.049,0.000,0.000,0.000
1643293359146790144,2022-01-27-14:22:39,10.1.1.3,33,-0.039,-0.039,-0.039,0.000,0.000,0.000
1643293359347223040,2022-01-27-14:22:39,10.1.1.3,28,-0.030,-0.030,-0.030,0.000,0.000,0.000
1643293359548197888,2022-01-27-14:22:39,10.1.1.3,29,-0.020,-0.020,-0.020,0.000,0.000,0.000
1643293359747889920,2022-01-27-14:22:39,10.1.1.3,27,-0.010,-0.010,-0.010,0.000,0.000,0.000
1643293359928009984,2022-01-27-14:22:39,10.1.1.3,6,-0.001,-0.001,-0.001,0.000,0.000,0.000
1643293360148812032,2022-01-27-14:22:40,10.1.1.3,26,-0.010,-0.010,-0.010,0.000,0.000,0.000
1643293360347186944,2022-01-27-14:22:40,10.1.1.3,23,-0.020,-0.020,-0.020,0.000,0.000,0.000
1643293360568072192,2022-01-27-14:22:40,10.1.1.3,44,-0.031,-0.031,-0.031,0.000,0.000,0.000
1643293360767204096,2022-01-27-14:22:40,10.1.1.3,40,-0.041,-0.041,-0.041,0.000,0.000,0.000
1643293360971368960,2022-01-27-14:22:40,10.1.1.3,43,-0.051,-0.051,-0.051,0.000,0.000,0.000
1643293361170471936,2022-01-27-14:22:41,10.1.1.3,41,-0.061,-0.061,-0.061,0.000,0.000,0.000
1643293361366597888,2022-01-27-14:22:41,10.1.1.3,35,-0.071,-0.071,-0.071,0.000,0.000,0.000
1643293361569340928,2022-01-27-14:22:41,10.1.1.3,36,-0.081,-0.081,-0.081,0.000,0.000,0.000
